PaulMeinheit/Bachelor_Muay_Thai/processed_Data/E2/teep/sliced/JointPositions/sliced6.csv
Unnamed: 0_level_0,Neck_Joint_Position,Neck_Joint_Position,Neck_Joint_Position,L_ANKLE_POSITION,L_ANKLE_POSITION,L_ANKLE_POSITION,R_ANKLE_POSITION,R_ANKLE_POSITION,R_ANKLE_POSITION,L_KNEE_POSITION,L_KNEE_POSITION,L_KNEE_POSITION,R_KNEE_POSITION,R_KNEE_POSITION,R_KNEE_POSITION,L_HIP_POSITION,L_HIP_POSITION,L_HIP_POSITION,R_HIP_POSITION,R_HIP_POSITION,R_HIP_POSITION,L_SHOULDER_POSITION,L_SHOULDER_POSITION,L_SHOULDER_POSITION,R_SHOULDER_POSITION,R_SHOULDER_POSITION,R_SHOULDER_POSITION,L_ELBOW_POSITION,L_ELBOW_POSITION,L_ELBOW_POSITION,R_ELBOW_POSITION,R_ELBOW_POSITION,R_ELBOW_POSITION,L_WRIST_POSITION,L_WRIST_POSITION,L_WRIST_POSITION,R_WRIST_POSITION,R_WRIST_POSITION,R_WRIST_POSITION
ITEM,X,Y,Z,X,Y,Z,X,Y,Z,X,Y,Z,X,Y,Z,X,Y,Z,X,Y,Z,X,Y,Z,X,Y,Z,X,Y,Z,X,Y,Z,X,Y,Z,X,Y,Z
2640,0.20283,0.18295,1.49503,0.05883,0.49602,0.07225,0.21666,0.01835,0.0735,0.07288,0.36744,0.46136,0.26599,0.16042,0.44895,0.09995,0.23537,0.84377,0.28337,0.17114,0.85252,0.01918,0.19092,1.42692,0.35062,0.11238,1.4287,-0.04785,0.38839,1.20319,0.48541,0.28823,1.23354,0.06322,0.46931,1.41445,0.36839,0.40248,1.42795
2641,0.20282,0.18342,1.49538,0.05891,0.4962,0.07221,0.21623,0.01829,0.0734,0.07298,0.36827,0.46153,0.26565,0.15987,0.44903,0.09978,0.236,0.84389,0.2832,0.17176,0.85256,0.01879,0.19202,1.42662,0.35034,0.11253,1.42879,-0.04686,0.38948,1.20247,0.48553,0.2883,1.23383,0.0634,0.47005,1.41428,0.36845,0.403,1.42795
2642,0.20296,0.18395,1.49559,0.05907,0.49634,0.07201,0.21593,0.01829,0.07336,0.07296,0.36934,0.46164,0.26534,0.15955,0.44911,0.1001,0.23658,0.84381,0.28361,0.17262,0.85257,0.01829,0.19358,1.42604,0.35066,0.11273,1.429,-0.0446,0.39138,1.20141,0.48569,0.28851,1.23394,0.06387,0.47083,1.41458,0.36849,0.40344,1.42785
2643,0.2034,0.18415,1.49585,0.05937,0.49627,0.07175,0.21571,0.01831,0.07334,0.07283,0.37048,0.46179,0.26525,0.15944,0.44913,0.10077,0.2371,0.84369,0.28451,0.1738,0.8525,0.01823,0.19522,1.42562,0.35162,0.11299,1.42937,-0.04192,0.39319,1.20039,0.4859,0.28885,1.23388,0.06447,0.47151,1.41501,0.36848,0.4038,1.42764
2644,0.2041,0.18401,1.49629,0.05982,0.49602,0.07163,0.2156,0.01828,0.0733,0.07274,0.37147,0.46209,0.26545,0.15928,0.44909,0.10139,0.23747,0.84371,0.28541,0.17499,0.85238,0.01889,0.19623,1.42584,0.35267,0.11337,1.42984,-0.04021,0.39375,1.19994,0.48615,0.28921,1.23379,0.06497,0.47201,1.41518,0.36839,0.40417,1.42734
2645,0.20468,0.18395,1.49672,0.06029,0.49577,0.07174,0.2157,0.01818,0.07323,0.07281,0.3723,0.46255,0.26577,0.15897,0.44907,0.10158,0.23775,0.84397,0.28578,0.17573,0.85231,0.01996,0.1964,1.42675,0.3533,0.11388,1.43031,-0.04016,0.39282,1.20015,0.48634,0.28948,1.23374,0.06516,0.47226,1.41489,0.36829,0.40459,1.42703
2646,0.20488,0.18433,1.49694,0.06067,0.49566,0.07201,0.21601,0.01807,0.07318,0.07301,0.37313,0.46312,0.26592,0.15863,0.44913,0.10142,0.23812,0.8444,0.2856,0.176,0.85237,0.02081,0.19637,1.42779,0.35352,0.11445,1.43068,-0.04101,0.39137,1.20043,0.48643,0.28964,1.23365,0.06501,0.4723,1.41426,0.3683,0.40494,1.42678
2647,0.20477,0.18511,1.49694,0.06085,0.4957,0.07226,0.21631,0.01802,0.07324,0.07327,0.37418,0.46369,0.26572,0.15843,0.44931,0.10121,0.23867,0.84483,0.28523,0.17605,0.85254,0.02097,0.19693,1.42823,0.35346,0.115,1.43091,-0.04129,0.39086,1.20007,0.4864,0.28973,1.23349,0.06482,0.47231,1.41366,0.36851,0.40513,1.4267
2648,0.20441,0.18595,1.49699,0.06083,0.49582,0.07235,0.21633,0.01805,0.07345,0.07356,0.37557,0.46416,0.2652,0.15837,0.44962,0.10107,0.23936,0.84508,0.28483,0.17598,0.85284,0.02037,0.19821,1.4278,0.3529,0.11557,1.43102,-0.04015,0.39186,1.19894,0.48629,0.28974,1.23341,0.06491,0.47248,1.41336,0.36884,0.4052,1.42685
2649,0.20375,0.18659,1.49727,0.06067,0.49603,0.07227,0.21611,0.01811,0.07371,0.07381,0.37728,0.46452,0.26452,0.15825,0.45001,0.10084,0.24012,0.84514,0.2842,0.17562,0.85325,0.01946,0.19978,1.4271,0.35166,0.11617,1.43108,-0.03826,0.39347,1.19755,0.48609,0.28961,1.23353,0.06529,0.47288,1.41315,0.36918,0.40522,1.4272
2650,0.20294,0.18701,1.49775,0.06049,0.49627,0.07216,0.21592,0.01809,0.07386,0.07396,0.37915,0.46489,0.26391,0.1578,0.45037,0.10037,0.2409,0.84516,0.28321,0.17499,0.85363,0.01889,0.20112,1.42705,0.35012,0.11671,1.43113,-0.03729,0.39409,1.19652,0.48589,0.28935,1.2338,0.06566,0.47335,1.41247,0.36942,0.40528,1.42755
2651,0.20245,0.18747,1.49821,0.06028,0.49645,0.07217,0.21598,0.01795,0.07376,0.07402,0.38115,0.46543,0.26362,0.15703,0.45055,0.0998,0.24167,0.84529,0.28216,0.17445,0.85384,0.01904,0.202,1.42804,0.34898,0.11709,1.4312,-0.03817,0.39301,1.19612,0.48584,0.28912,1.23409,0.06571,0.47364,1.41112,0.36957,0.4054,1.42776
2652,0.20245,0.18822,1.49849,0.06001,0.49658,0.07242,0.21622,0.01779,0.07347,0.07416,0.38349,0.46631,0.26367,0.15624,0.45052,0.09938,0.2424,0.84561,0.28144,0.17434,0.85381,0.01964,0.20265,1.42953,0.34863,0.11738,1.43129,-0.03996,0.39113,1.19616,0.48595,0.28917,1.2343,0.06558,0.47375,1.40958,0.36966,0.40568,1.42781
2653,0.20269,0.1893,1.49849,0.05979,0.49673,0.07289,0.21643,0.01771,0.07319,0.07452,0.38636,0.46753,0.26382,0.15571,0.45041,0.09921,0.24309,0.84605,0.28112,0.17457,0.85369,0.0201,0.2036,1.43068,0.34894,0.11773,1.43146,-0.04064,0.39008,1.196,0.4861,0.28953,1.23436,0.06582,0.47395,1.40848,0.36966,0.40623,1.42766
2654,0.20293,0.19063,1.4982,0.05982,0.49687,0.07342,0.21655,0.01767,0.07306,0.0751,0.38973,0.46892,0.2639,0.15538,0.45039,0.09925,0.24373,0.84643,0.28103,0.17479,0.85365,0.02007,0.20517,1.43107,0.34957,0.11821,1.43174,-0.03922,0.39055,1.19515,0.48621,0.28997,1.23424,0.06677,0.47438,1.40788,0.36951,0.40703,1.42717
2655,0.20326,0.19207,1.49776,0.06011,0.49696,0.07388,0.21662,0.01756,0.07307,0.07578,0.39331,0.4703,0.26386,0.15504,0.4505,0.09941,0.24432,0.84667,0.28098,0.17483,0.85374,0.01984,0.207,1.43103,0.35022,0.11871,1.43205,-0.03694,0.39159,1.19388,0.4863,0.29019,1.23392,0.06802,0.4749,1.40732,0.36924,0.40783,1.42629
2656,0.20388,0.19347,1.49739,0.06053,0.49703,0.07428,0.21665,0.01736,0.07313,0.0764,0.39687,0.47159,0.26374,0.15466,0.45064,0.09956,0.24489,0.84679,0.28087,0.17472,0.85387,0.01999,0.20827,1.43119,0.35075,0.11911,1.43224,-0.03595,0.39166,1.19291,0.48633,0.29017,1.23341,0.06888,0.4753,1.40628,0.36892,0.40836,1.42521
2657,0.20468,0.19477,1.49717,0.06091,0.49719,0.07473,0.21669,0.01715,0.07319,0.07683,0.40038,0.47286,0.26363,0.15434,0.45076,0.09961,0.24537,0.84685,0.28066,0.17455,0.85398,0.02068,0.20876,1.43181,0.35129,0.11944,1.43235,-0.03699,0.39034,1.19255,0.48618,0.29017,1.23277,0.06906,0.47555,1.4047,0.36858,0.40874,1.42423
2658,0.20548,0.19609,1.49697,0.06117,0.49749,0.07526,0.21672,0.01699,0.0733,0.07707,0.404,0.47419,0.26366,0.15407,0.45091,0.09957,0.24574,0.84682,0.28039,0.17435,0.85414,0.02148,0.209,1.43259,0.35201,0.1198,1.43252,-0.03884,0.38849,1.19241,0.48585,0.29039,1.2321,0.0688,0.47576,1.40292,0.36827,0.40925,1.4234
2659,0.20615,0.19747,1.49662,0.06136,0.49792,0.07591,0.21667,0.01693,0.07351,0.07733,0.40794,0.47564,0.26383,0.15377,0.45118,0.09956,0.24609,0.84675,0.28015,0.17416,0.85442,0.02194,0.20955,1.43323,0.35295,0.12037,1.43284,-0.03995,0.38707,1.19198,0.48562,0.2907,1.23144,0.06856,0.4761,1.4013,0.36811,0.40992,1.42255
2660,0.20674,0.19883,1.49615,0.06152,0.49846,0.07675,0.21657,0.01692,0.07376,0.07773,0.41236,0.47732,0.26391,0.15347,0.45151,0.09966,0.24661,0.84672,0.28001,0.17412,0.85475,0.02195,0.2105,1.43375,0.35377,0.12132,1.43319,-0.03994,0.38627,1.19123,0.48585,0.29082,1.2307,0.06868,0.47671,1.39989,0.36821,0.41053,1.42143
2661,0.20721,0.20001,1.49583,0.0617,0.49912,0.07779,0.21661,0.01688,0.07394,0.07815,0.41731,0.47925,0.26375,0.15333,0.45176,0.09982,0.24742,0.84678,0.27992,0.17434,0.85498,0.02166,0.21179,1.43435,0.35415,0.12262,1.43332,-0.03934,0.38588,1.1904,0.48658,0.29067,1.22986,0.06924,0.47762,1.39851,0.3686,0.41094,1.42001
2662,0.20747,0.20104,1.49585,0.06197,0.49994,0.07901,0.21689,0.01679,0.07404,0.07835,0.42264,0.48136,0.26341,0.15346,0.45185,0.09998,0.24848,0.84689,0.27982,0.17475,0.85504,0.02135,0.21346,1.43504,0.35414,0.12407,1.43314,-0.03883,0.38579,1.18964,0.48743,0.29052,1.22892,0.07016,0.47871,1.39701,0.36912,0.41131,1.41855
2663,0.20737,0.20212,1.49608,0.06238,0.50092,0.08039,0.21727,0.01673,0.07409,0.07826,0.42801,0.48358,0.26309,0.15385,0.45183,0.10007,0.24965,0.84707,0.27963,0.17522,0.85501,0.02121,0.21547,1.43572,0.35407,0.1255,1.43282,-0.03872,0.38588,1.18892,0.48798,0.29068,1.22798,0.07115,0.47974,1.3954,0.3696,0.41195,1.41726
2664,0.20692,0.20342,1.49631,0.06286,0.50194,0.08189,0.21749,0.01677,0.07421,0.0781,0.4332,0.48585,0.26292,0.15441,0.4518,0.10008,0.25081,0.84732,0.27939,0.17576,0.85498,0.0212,0.21757,1.43629,0.35416,0.12685,1.43256,-0.03903,0.38593,1.18816,0.48814,0.29121,1.22711,0.07189,0.48058,1.39371,0.36994,0.41316,1.41606
2665,0.20635,0.20491,1.49648,0.06336,0.50292,0.08347,0.21747,0.01691,0.07442,0.07814,0.43841,0.48814,0.26294,0.15497,0.45185,0.10001,0.252,0.84756,0.27912,0.17646,0.85505,0.02113,0.21948,1.43668,0.35434,0.12816,1.43243,-0.03953,0.38591,1.18736,0.48801,0.29206,1.22641,0.07232,0.48146,1.39199,0.37015,0.41508,1.41489
2666,0.2059,0.20642,1.49663,0.0639,0.50389,0.0851,0.21733,0.01704,0.07468,0.07843,0.444,0.49048,0.26301,0.15529,0.45201,0.0999,0.2534,0.84773,0.27883,0.17739,0.85519,0.02087,0.22115,1.4369,0.35445,0.12951,1.4324,-0.03985,0.38616,1.18665,0.48769,0.29318,1.22592,0.07267,0.48288,1.39036,0.37032,0.41743,1.41388
2667,0.20574,0.20793,1.49677,0.06451,0.50498,0.08683,0.21717,0.0171,0.07488,0.07877,0.44999,0.49292,0.26291,0.1553,0.45223,0.09978,0.25512,0.84788,0.27845,0.17852,0.85535,0.02037,0.22266,1.43708,0.35445,0.13092,1.43244,-0.03974,0.38698,1.18622,0.48732,0.29443,1.22559,0.07314,0.48511,1.38906,0.37054,0.41979,1.41318
2668,0.20588,0.20956,1.49683,0.06501,0.50624,0.08875,0.217,0.01716,0.07502,0.07897,0.45599,0.49546,0.26245,0.15514,0.45248,0.09955,0.25695,0.84812,0.27798,0.17979,0.85552,0.01963,0.22409,1.43733,0.35441,0.13231,1.43254,-0.03924,0.38834,1.18613,0.4871,0.29554,1.22536,0.07366,0.48799,1.38822,0.37084,0.42199,1.41255
2669,0.20616,0.21138,1.49679,0.06521,0.50766,0.09085,0.21684,0.01726,0.07513,0.079,0.4616,0.49806,0.26166,0.15491,0.45279,0.09917,0.25864,0.84851,0.27747,0.18114,0.85572,0.01882,0.22549,1.43759,0.35438,0.13359,1.43272,-0.03873,0.39001,1.18628,0.48707,0.29642,1.22521,0.07399,0.49116,1.38772,0.37092,0.42424,1.41153
2670,0.20637,0.21325,1.49678,0.06509,0.50923,0.09301,0.21674,0.0174,0.07524,0.07891,0.46668,0.5006,0.2608,0.15457,0.45316,0.09874,0.2602,0.849,0.27695,0.1825,0.85596,0.01833,0.22698,1.43774,0.35445,0.13486,1.43298,-0.03871,0.39176,1.18647,0.4871,0.29731,1.22516,0.07401,0.49441,1.38715,0.37046,0.42686,1.40997
2671,0.20641,0.21499,1.49688,0.06492,0.51103,0.09502,0.2167,0.01755,0.07536,0.07879,0.47122,0.50289,0.26008,0.15406,0.4536,0.09836,0.26179,0.84954,0.27644,0.18379,0.85626,0.01846,0.2287,1.43782,0.35464,0.13642,1.43343,-0.03951,0.39333,1.18667,0.48706,0.29868,1.22531,0.07374,0.49765,1.38619,0.36941,0.43006,1.40818
2672,0.2062,0.21665,1.4971,0.06495,0.51317,0.09674,0.21673,0.01768,0.07552,0.07876,0.47527,0.50479,0.25945,0.15348,0.45409,0.09806,0.26364,0.85012,0.27587,0.185,0.85662,0.01908,0.23073,1.43811,0.35488,0.13859,1.43416,-0.0411,0.39469,1.18704,0.48691,0.30078,1.22573,0.07321,0.50092,1.38494,0.36807,0.4338,1.40665
2673,0.20581,0.21849,1.49739,0.06523,0.51579,0.09811,0.21674,0.01771,0.07572,0.07878,0.47903,0.50628,0.25879,0.15296,0.45457,0.09773,0.26586,0.85068,0.27514,0.18628,0.85695,0.01969,0.23302,1.43869,0.35497,0.14134,1.43503,-0.04289,0.39635,1.1878,0.48676,0.30348,1.22642,0.07257,0.50441,1.38402,0.36681,0.43778,1.40564
2674,0.20541,0.2207,1.49773,0.06548,0.519,0.09915,0.2167,0.01763,0.07587,0.07867,0.48278,0.50737,0.25804,0.15249,0.45493,0.09729,0.26846,0.85108,0.27423,0.18784,0.85714,0.01983,0.23543,1.43922,0.3547,0.14433,1.43567,-0.04421,0.39919,1.18898,0.48679,0.30652,1.22728,0.0721,0.50844,1.38405,0.36578,0.4417,1.40512
2675,0.20522,0.22316,1.49805,0.06548,0.52282,0.09986,0.21671,0.0175,0.07586,0.07845,0.48671,0.5081,0.25716,0.15198,0.45516,0.09676,0.27137,0.85118,0.27326,0.18978,0.85715,0.01942,0.23794,1.43941,0.35409,0.14718,1.43579,-0.04502,0.4035,1.19046,0.48702,0.30981,1.22829,0.07176,0.51307,1.38507,0.36506,0.44552,1.40507
2676,0.2052,0.22563,1.49828,0.06534,0.52709,0.10026,0.2168,0.01746,0.07577,0.0783,0.49074,0.50848,0.25604,0.15146,0.45536,0.0963,0.27453,0.85103,0.27236,0.192,0.85708,0.01879,0.24078,1.43942,0.35341,0.14985,1.43555,-0.04598,0.40855,1.19204,0.48738,0.31338,1.22943,0.07116,0.51789,1.38656,0.36471,0.44931,1.40555
2677,0.2051,0.22798,1.49844,0.06537,0.53145,0.10044,0.21688,0.01755,0.07574,0.0784,0.49462,0.50862,0.2547,0.15103,0.45565,0.09595,0.27777,0.85078,0.27159,0.19436,0.85706,0.01833,0.24408,1.43963,0.35302,0.15259,1.43538,-0.04761,0.41335,1.19358,0.48784,0.31722,1.23069,0.06997,0.52243,1.38798,0.36469,0.45302,1.40658
2678,0.20473,0.23038,1.49853,0.06576,0.53563,0.10049,0.21678,0.01764,0.07586,0.07867,0.49807,0.50861,0.25331,0.1507,0.45605,0.09566,0.28087,0.85058,0.27101,0.19687,0.8571,0.01813,0.24755,1.44008,0.35306,0.15553,1.43555,-0.04977,0.41764,1.19513,0.48843,0.32125,1.23211,0.06832,0.52665,1.38926,0.36473,0.45661,1.40796
2679,0.20416,0.23325,1.49836,0.06642,0.53964,0.10046,0.21653,0.0176,0.07601,0.07893,0.50107,0.5085,0.25207,0.15039,0.45639,0.09532,0.28378,0.85044,0.27059,0.19962,0.85704,0.01808,0.25083,1.44056,0.35328,0.15858,1.43583,-0.05192,0.42197,1.19694,0.48912,0.3256,1.23377,0.06657,0.5311,1.39076,0.36449,0.46029,1.40947
2680,0.20339,0.23687,1.49771,0.06706,0.54365,0.10031,0.21621,0.01744,0.07608,0.07905,0.50375,0.50823,0.25101,0.15018,0.45654,0.09488,0.28664,0.85032,0.27022,0.20262,0.85675,0.01789,0.25396,1.44079,0.35325,0.16177,1.43578,-0.05355,0.42729,1.19914,0.48985,0.3306,1.23574,0.06506,0.5364,1.39289,0.36375,0.46439,1.41109
2681,0.2023,0.24092,1.4967,0.0675,0.54777,0.09992,0.21586,0.01739,0.07608,0.079,0.50625,0.50769,0.25002,0.15025,0.45656,0.09426,0.28965,0.85012,0.26968,0.20578,0.85633,0.01729,0.25723,1.44053,0.3527,0.16537,1.43531,-0.05432,0.43422,1.20159,0.49049,0.33641,1.23799,0.06393,0.54268,1.39593,0.36263,0.46896,1.41299
2682,0.201,0.24475,1.49579,0.06795,0.55198,0.09921,0.21551,0.01752,0.07613,0.07874,0.50877,0.50683,0.24899,0.15064,0.45658,0.09352,0.29291,0.84976,0.26894,0.20902,0.85593,0.01628,0.26075,1.43962,0.35167,0.16959,1.43486,-0.05434,0.44257,1.20405,0.49099,0.34258,1.24035,0.06313,0.5493,1.39982,0.36153,0.47365,1.41529
2683,0.19982,0.24805,1.4953,0.06869,0.55614,0.09821,0.21528,0.01765,0.07623,0.0784,0.51158,0.5057,0.24788,0.15108,0.45664,0.0928,0.29638,0.84906,0.26817,0.21242,0.85553,0.0153,0.26424,1.43829,0.3504,0.17426,1.43487,-0.05433,0.45127,1.20653,0.49132,0.34859,1.24271,0.06245,0.55552,1.40404,0.36074,0.47816,1.41794
2684,0.19882,0.25101,1.49514,0.06968,0.56008,0.09699,0.2152,0.01758,0.07636,0.07813,0.51486,0.50445,0.24674,0.15127,0.45678,0.09219,0.29993,0.84799,0.26757,0.21604,0.8551,0.01474,0.26715,1.43707,0.34927,0.179,1.43517,-0.05531,0.45898,1.20939,0.49143,0.35448,1.24498,0.06155,0.5611,1.40797,0.36011,0.48256,1.42075
2685,0.1976,0.25384,1.49497,0.07082,0.56363,0.09573,0.21517,0.01739,0.07652,0.078,0.51855,0.50323,0.24567,0.1513,0.45694,0.09164,0.30349,0.8467,0.26709,0.21983,0.8546,0.01449,0.26929,1.43627,0.34858,0.18341,1.43521,-0.05775,0.46528,1.21286,0.49126,0.36069,1.24709,0.06012,0.56627,1.41142,0.35923,0.48712,1.42352
2686,0.19591,0.25667,1.49454,0.07213,0.56675,0.09453,0.2151,0.01726,0.07668,0.07791,0.52246,0.50214,0.24481,0.15156,0.45703,0.09101,0.30706,0.84542,0.26653,0.22361,0.85405,0.01402,0.27118,1.4357,0.34828,0.18737,1.43457,-0.06097,0.47104,1.21668,0.4909,0.36751,1.24913,0.05817,0.57139,1.41479,0.35789,0.492,1.42621
2687,0.19407,0.25977,1.49373,0.07356,0.5695,0.09336,0.21504,0.01721,0.07682,0.07788,0.52648,0.50111,0.24413,0.15229,0.45694,0.09028,0.31077,0.84423,0.26577,0.22732,0.85341,0.01293,0.27354,1.43501,0.34799,0.19123,1.4333,-0.06391,0.47742,1.22037,0.4905,0.37498,1.25134,0.05607,0.5767,1.41852,0.35606,0.49724,1.4289
2688,0.19262,0.26339,1.49256,0.07496,0.57193,0.09207,0.215,0.0172,0.07687,0.07808,0.53062,0.50001,0.2435,0.15338,0.45665,0.08952,0.31482,0.8431,0.26488,0.23112,0.85261,0.01135,0.27661,1.43422,0.34732,0.19562,1.43178,-0.06616,0.4846,1.22381,0.4901,0.38299,1.25378,0.05418,0.58216,1.42259,0.3539,0.50282,1.43165
2689,0.19178,0.26752,1.49119,0.07618,0.57395,0.09061,0.21481,0.01729,0.07684,0.07858,0.53489,0.49878,0.24287,0.15471,0.45619,0.08878,0.31925,0.84202,0.26401,0.23531,0.8516,0.00965,0.28027,1.43358,0.34633,0.20071,1.43045,-0.06806,0.49213,1.22714,0.48959,0.39113,1.25611,0.0526,0.58751,1.42678,0.3518,0.50851,1.43438
2690,0.19134,0.27191,1.48975,0.0772,0.57543,0.08907,0.21431,0.01756,0.07682,0.07912,0.53932,0.49752,0.24233,0.15641,0.45566,0.08804,0.32392,0.84094,0.26331,0.24003,0.85044,0.00807,0.28434,1.43299,0.34541,0.20618,1.42943,-0.06993,0.49977,1.23038,0.48892,0.39893,1.25788,0.05121,0.59257,1.43095,0.35017,0.51395,1.43694
2691,0.19086,0.27633,1.48831,0.0781,0.57629,0.08757,0.21367,0.01796,0.07696,0.07933,0.54403,0.49634,0.24203,0.15873,0.45506,0.08734,0.32866,0.8398,0.2628,0.24517,0.84925,0.0067,0.28853,1.43206,0.3448,0.21152,1.42846,-0.07195,0.5074,1.23343,0.48809,0.40627,1.25899,0.0498,0.59727,1.43496,0.34904,0.5191,1.43922
2692,0.18994,0.28068,1.48686,0.07903,0.57652,0.08615,0.21326,0.01842,0.0772,0.07912,0.54916,0.49528,0.24203,0.16165,0.45434,0.08663,0.33339,0.8385,0.26238,0.25052,0.84801,0.00547,0.29237,1.43066,0.34426,0.21661,1.42714,-0.07429,0.51468,1.23635,0.4871,0.41346,1.25974,0.04838,0.60155,1.43864,0.34805,0.52428,1.44121
2693,0.18843,0.28513,1.48542,0.08018,0.57615,0.08485,0.21327,0.01896,0.07734,0.07873,0.5547,0.49433,0.24217,0.165,0.4534,0.08584,0.33806,0.837,0.26195,0.25597,0.84662,0.00416,0.29568,1.42905,0.34339,0.22179,1.42536,-0.07707,0.52145,1.23938,0.48591,0.42105,1.26055,0.04717,0.60539,1.44195,0.34672,0.5298,1.44316
2694,0.18643,0.28991,1.48399,0.08162,0.57529,0.08366,0.21356,0.01963,0.07728,0.07845,0.56048,0.49342,0.24225,0.16867,0.45217,0.08502,0.3426,0.83532,0.26159,0.26152,0.84497,0.00259,0.29877,1.42755,0.34212,0.22753,1.42343,-0.08011,0.52797,1.24269,0.48446,0.4294,1.26168,0.04632,0.60889,1.44513,0.34478,0.5356,1.4454
2695,0.18436,0.29504,1.48264,0.08323,0.57416,0.08251,0.21381,0.02034,0.07718,0.07831,0.56628,0.49245,0.24223,0.17275,0.45075,0.08431,0.34718,0.83359,0.26138,0.26719,0.84318,0.00076,0.30211,1.42629,0.34069,0.23379,1.42167,-0.08306,0.53451,1.24598,0.48269,0.43845,1.26316,0.04558,0.61216,1.44832,0.34209,0.54138,1.44804
2696,0.18259,0.30024,1.48139,0.0846,0.57309,0.0814,0.21386,0.02092,0.07734,0.07826,0.57195,0.49139,0.24224,0.17733,0.44925,0.08365,0.35203,0.83201,0.26115,0.27295,0.8414,-0.00126,0.30599,1.42519,0.33923,0.24009,1.42004,-0.08557,0.5411,1.24868,0.48044,0.44782,1.26485,0.04463,0.61528,1.45131,0.33858,0.54702,1.45081
2697,0.18101,0.3052,1.48012,0.08538,0.57237,0.08043,0.21384,0.02134,0.07789,0.07824,0.57745,0.49038,0.24239,0.18241,0.44778,0.08272,0.35726,0.83083,0.26052,0.2788,0.83978,-0.00337,0.31033,1.4241,0.33775,0.24615,1.41836,-0.08738,0.54766,1.25045,0.4777,0.45718,1.26652,0.04341,0.61848,1.4539,0.33443,0.55271,1.45332
2698,0.17919,0.30987,1.47866,0.08562,0.57214,0.07972,0.21392,0.02181,0.07879,0.07815,0.58287,0.48955,0.24273,0.18794,0.44643,0.08132,0.36285,0.83013,0.25937,0.2849,0.83836,-0.00559,0.31479,1.42295,0.3363,0.25212,1.41662,-0.0886,0.55407,1.2515,0.47472,0.46628,1.26778,0.04201,0.62199,1.45606,0.33028,0.55852,1.45533
2699,0.17699,0.31448,1.47704,0.08568,0.57238,0.07929,0.21419,0.02255,0.08002,0.07779,0.58857,0.48894,0.2432,0.19401,0.44518,0.07964,0.36878,0.82968,0.258,0.29145,0.83706,-0.00792,0.31909,1.42175,0.33486,0.2583,1.41497,-0.08988,0.56012,1.25225,0.4718,0.47489,1.26829,0.0404,0.62578,1.45775,0.32672,0.56419,1.45677
2700,0.17465,0.31929,1.47551,0.08581,0.57299,0.07912,0.21469,0.02358,0.08155,0.07716,0.59491,0.48848,0.24387,0.20084,0.44391,0.07797,0.37503,0.82916,0.25666,0.29841,0.83584,-0.01024,0.32319,1.42044,0.33327,0.26479,1.41353,-0.09186,0.56573,1.25295,0.46902,0.48296,1.26809,0.03847,0.62963,1.45898,0.32384,0.56943,1.4578
2701,0.17226,0.3244,1.47426,0.08595,0.57395,0.07912,0.21548,0.02482,0.08346,0.07647,0.60188,0.48809,0.24489,0.20862,0.44253,0.07642,0.38149,0.82845,0.25543,0.30559,0.83467,-0.01236,0.32701,1.41893,0.33139,0.27154,1.41226,-0.09452,0.57084,1.25359,0.4663,0.49073,1.26758,0.03625,0.63322,1.45981,0.32127,0.57436,1.45867
2702,0.16966,0.32971,1.47331,0.08595,0.57512,0.07913,0.21654,0.02634,0.08593,0.07585,0.60895,0.48764,0.24642,0.21748,0.44111,0.07499,0.38798,0.82762,0.25435,0.3129,0.83369,-0.01438,0.33044,1.41724,0.32924,0.2785,1.41114,-0.09745,0.57536,1.25399,0.46357,0.49847,1.26711,0.03385,0.63615,1.46034,0.31872,0.57938,1.45951
2703,0.16681,0.33499,1.47258,0.08583,0.57626,0.079,0.21782,0.02827,0.08915,0.0752,0.61556,0.48702,0.24835,0.22743,0.43984,0.07363,0.39446,0.82691,0.25344,0.32045,0.83304,-0.01659,0.33364,1.41568,0.32688,0.2856,1.41023,-0.10042,0.5793,1.25394,0.46079,0.5062,1.26677,0.03136,0.63821,1.46053,0.31613,0.5847,1.46031
2704,0.16387,0.3402,1.47197,0.0857,0.57715,0.07877,0.21925,0.03084,0.09319,0.07439,0.6215,0.48625,0.25032,0.2385,0.43888,0.07221,0.40104,0.82655,0.25256,0.32839,0.83283,-0.01916,0.33708,1.41454,0.32428,0.29274,1.40953,-0.1032,0.5831,1.25344,0.45796,0.51373,1.26645,0.02891,0.63977,1.46045,0.31354,0.59026,1.46096
2705,0.16102,0.34556,1.47143,0.0855,0.57781,0.07856,0.22077,0.03436,0.09797,0.07335,0.62688,0.48547,0.25205,0.25087,0.43816,0.07051,0.40784,0.82669,0.25147,0.33671,0.83303,-0.02201,0.3411,1.4137,0.32149,0.29999,1.40903,-0.10545,0.58739,1.25271,0.45514,0.521,1.26596,0.02663,0.64157,1.4604,0.31116,0.59589,1.46142
2706,0.15825,0.35119,1.471,0.08503,0.57838,0.07838,0.22245,0.03901,0.10338,0.07221,0.63187,0.48472,0.25368,0.26479,0.43748,0.06843,0.41497,0.82728,0.24996,0.34531,0.83345,-0.02492,0.34557,1.41288,0.31864,0.30746,1.40876,-0.10703,0.59236,1.25196,0.45231,0.52804,1.26504,0.02451,0.64412,1.46061,0.30916,0.60148,1.46166
2707,0.15544,0.35694,1.4708,0.08423,0.57895,0.07813,0.22446,0.04475,0.1095,0.07114,0.63658,0.48389,0.25581,0.2805,0.43665,0.06604,0.42246,0.82818,0.24809,0.35412,0.83389,-0.02763,0.35014,1.41206,0.31588,0.31499,1.40877,-0.10847,0.59745,1.2513,0.44928,0.53479,1.26361,0.02236,0.64721,1.46087,0.30735,0.6069,1.46161
2708,0.15256,0.36256,1.47099,0.08325,0.57942,0.07777,0.22686,0.05162,0.11665,0.07017,0.64108,0.48294,0.25887,0.29818,0.43566,0.06357,0.43012,0.82916,0.24614,0.36313,0.83429,-0.03002,0.35453,1.4115,0.31321,0.3222,1.40898,-0.11053,0.60192,1.2507,0.44585,0.54111,1.26179,0.02003,0.65011,1.4608,0.30535,0.6121,1.46121
2709,0.14969,0.36794,1.47163,0.08231,0.5797,0.07737,0.22946,0.05999,0.12501,0.0692,0.64529,0.48192,0.26269,0.31801,0.43469,0.06121,0.43757,0.83007,0.24443,0.37234,0.8347,-0.03223,0.3588,1.41135,0.31059,0.32896,1.40938,-0.11327,0.60563,1.24994,0.44205,0.54699,1.25984,0.01761,0.65232,1.4602,0.30299,0.61721,1.46053
2710,0.14682,0.37316,1.47266,0.08158,0.57982,0.07705,0.23207,0.07036,0.13442,0.06804,0.64899,0.48098,0.26662,0.33996,0.43393,0.059,0.44443,0.83097,0.24311,0.3817,0.83516,-0.03449,0.36317,1.4115,0.30805,0.33556,1.41014,-0.11592,0.60899,1.24877,0.43812,0.55258,1.25796,0.01536,0.65398,1.45914,0.30033,0.62232,1.45969
2711,0.14379,0.37824,1.47399,0.08116,0.57999,0.07682,0.23471,0.08296,0.14468,0.06661,0.65207,0.48021,0.2701,0.36386,0.43351,0.05689,0.45063,0.83198,0.24207,0.39114,0.8357,-0.03687,0.36769,1.41185,0.30551,0.34227,1.41129,-0.11795,0.61227,1.24708,0.43441,0.55799,1.25628,0.0134,0.65553,1.45777,0.29742,0.62736,1.45868
2712,0.14045,0.38311,1.47553,0.08109,0.5804,0.07666,0.23753,0.09772,0.1558,0.06508,0.65474,0.47958,0.27302,0.38946,0.43367,0.05493,0.45635,0.83307,0.24126,0.40055,0.83636,-0.03936,0.37222,1.41237,0.30279,0.34911,1.4126,-0.11969,0.61535,1.2451,0.43118,0.56316,1.25487,0.01149,0.65733,1.45615,0.29433,0.63234,1.45743
2713,0.13686,0.38783,1.47716,0.08115,0.58096,0.07659,0.24061,0.11457,0.16802,0.06375,0.65753,0.47905,0.27562,0.41658,0.43476,0.05323,0.46187,0.83404,0.24067,0.40991,0.83728,-0.04204,0.37669,1.41292,0.29982,0.35596,1.41382,-0.12162,0.61836,1.24319,0.42838,0.56801,1.25356,0.0095,0.65967,1.45441,0.29134,0.63751,1.45589
2714,0.13321,0.39267,1.47866,0.08096,0.58146,0.07677,0.24379,0.13344,0.18145,0.06278,0.66083,0.47864,0.27809,0.44501,0.43705,0.05172,0.46736,0.83482,0.24018,0.41925,0.83853,-0.04501,0.38125,1.41329,0.29681,0.36266,1.41485,-0.12368,0.62188,1.24167,0.42577,0.5725,1.25202,0.00769,0.66287,1.4528,0.28893,0.64299,1.45413
2715,0.1296,0.39793,1.47988,0.08043,0.58179,0.07718,0.24655,0.15411,0.19587,0.06191,0.66443,0.47837,0.2804,0.47435,0.44058,0.05012,0.47284,0.83554,0.23949,0.42853,0.83997,-0.04823,0.38606,1.41342,0.29392,0.36907,1.4157,-0.12544,0.62622,1.2405,0.42319,0.57651,1.25006,0.00625,0.66688,1.4515,0.28732,0.64858,1.45227
2716,0.12601,0.40363,1.48085,0.07992,0.58208,0.07754,0.24814,0.17632,0.21087,0.06068,0.66764,0.4781,0.28232,0.50417,0.44524,0.04826,0.47822,0.8364,0.23846,0.43766,0.84139,-0.05151,0.39113,1.41349,0.29121,0.37511,1.41644,-0.12685,0.63107,1.23943,0.42064,0.58001,1.2478,0.00502,0.67112,1.45044,0.28617,0.654,1.45025
2717,0.12247,0.40955,1.48171,0.07973,0.58242,0.07752,0.24814,0.20006,0.22613,0.05883,0.66989,0.47757,0.28368,0.53435,0.45101,0.04626,0.48335,0.83737,0.23721,0.44654,0.8427,-0.0546,0.39648,1.41364,0.28873,0.38091,1.41721,-0.12829,0.63591,1.23819,0.41814,0.58322,1.24546,0.00379,0.67487,1.44927,0.28471,0.6592,1.44787
2718,0.11914,0.41567,1.48247,0.0798,0.58265,0.07697,0.24685,0.22556,0.24169,0.05651,0.67132,0.47664,0.28451,0.56509,0.45823,0.04431,0.48804,0.83813,0.23592,0.45496,0.84398,-0.05726,0.40205,1.4139,0.28644,0.38671,1.41808,-0.12997,0.64042,1.2366,0.4157,0.58645,1.24323,0.00255,0.67797,1.44765,0.28233,0.66445,1.44491
2719,0.11612,0.42214,1.4831,0.07975,0.58257,0.07619,0.24521,0.253,0.2578,0.05409,0.67259,0.4754,0.28517,0.59663,0.46732,0.04252,0.49225,0.83839,0.2347,0.46285,0.84526,-0.05938,0.40764,1.41422,0.28416,0.39263,1.41905,-0.1317,0.64441,1.23465,0.41343,0.58972,1.24123,0.00136,0.68094,1.44554,0.27924,0.67004,1.44145
2720,0.11354,0.42884,1.48368,0.07933,0.58218,0.07563,0.24426,0.28214,0.27447,0.05194,0.67432,0.47425,0.286,0.62891,0.47841,0.04086,0.49602,0.83825,0.23352,0.47036,0.84637,-0.06127,0.41302,1.41449,0.28184,0.39855,1.42016,-0.13321,0.648,1.23243,0.41156,0.59273,1.23948,0.00022,0.68448,1.44309,0.27629,0.67602,1.43775
2721,0.11144,0.4353,1.48439,0.07868,0.58175,0.07561,0.24415,0.31251,0.2912,0.05018,0.67663,0.4735,0.28683,0.66142,0.49125,0.03924,0.49933,0.838,0.23237,0.47778,0.84706,-0.06349,0.41828,1.41459,0.2797,0.40449,1.42156,-0.13442,0.65165,1.23007,0.41023,0.59535,1.23794,-0.00085,0.68905,1.44049,0.27414,0.68227,1.43408
2722,0.10963,0.4413,1.4853,0.07809,0.58158,0.07593,0.24412,0.34373,0.30736,0.04872,0.67912,0.47312,0.2872,0.69352,0.50578,0.03772,0.50226,0.83783,0.23126,0.48518,0.84747,-0.06625,0.42382,1.4145,0.27797,0.41054,1.42322,-0.13523,0.65588,1.22761,0.40939,0.59787,1.23663,-0.00179,0.69461,1.43787,0.27277,0.68866,1.43064
2723,0.1078,0.44709,1.48627,0.07769,0.58168,0.07617,0.24335,0.37551,0.32282,0.04735,0.68139,0.47275,0.28698,0.7246,0.52237,0.03647,0.50506,0.83772,0.23032,0.49237,0.84818,-0.06904,0.4299,1.41431,0.27656,0.41662,1.42472,-0.13559,0.66067,1.22495,0.40895,0.60072,1.23563,-0.00254,0.70062,1.43523,0.27191,0.69497,1.42768
2724,0.10592,0.45301,1.48711,0.07742,0.58183,0.07611,0.24184,0.40756,0.33802,0.04595,0.68327,0.47216,0.28648,0.75422,0.54152,0.03568,0.5081,0.8377,0.22964,0.49911,0.8497,-0.07117,0.43642,1.4141,0.2751,0.42274,1.42575,-0.13585,0.66549,1.22204,0.40903,0.60403,1.23503,-0.00314,0.70626,1.43238,0.27148,0.70098,1.42537
2725,0.10428,0.45914,1.48776,0.07729,0.58194,0.07579,0.24023,0.43984,0.35354,0.04462,0.6848,0.47138,0.28592,0.78249,0.56351,0.03535,0.51147,0.83783,0.22927,0.50531,0.85204,-0.07251,0.44317,1.41389,0.2733,0.42908,1.42648,-0.13639,0.67002,1.21895,0.40959,0.60751,1.23474,-0.00368,0.71094,1.42925,0.27162,0.70676,1.42357
2726,0.10303,0.46534,1.48825,0.07741,0.58214,0.07534,0.23908,0.47256,0.36971,0.04352,0.68614,0.47052,0.28508,0.8098,0.5882,0.03524,0.51497,0.83801,0.22902,0.5113,0.85474,-0.07346,0.45014,1.41369,0.27123,0.43564,1.42725,-0.1372,0.67454,1.2159,0.41022,0.61074,1.23438,-0.00417,0.71459,1.42617,0.27236,0.71266,1.42187
2727,0.10199,0.47152,1.48858,0.07777,0.58249,0.07488,0.23847,0.50575,0.3864,0.04266,0.68756,0.46968,0.28367,0.8363,0.61503,0.03496,0.51844,0.83812,0.22855,0.51759,0.85725,-0.07441,0.45729,1.41363,0.2693,0.44211,1.42797,-0.13806,0.67927,1.2131,0.41041,0.61372,1.23352,-0.00463,0.71765,1.42343,0.27361,0.71896,1.41995
2728,0.10098,0.47764,1.4887,0.07818,0.58282,0.07453,0.23816,0.53913,0.40313,0.04183,0.68925,0.46885,0.28167,0.86165,0.64329,0.03428,0.52197,0.83814,0.22764,0.52449,0.85937,-0.07532,0.46431,1.41387,0.26787,0.44832,1.42834,-0.13891,0.68377,1.21057,0.4103,0.61689,1.2322,-0.0052,0.72084,1.42095,0.27516,0.72569,1.41778
2729,0.1,0.48372,1.48855,0.07852,0.58285,0.07432,0.23804,0.57255,0.41945,0.04087,0.69122,0.46799,0.27907,0.88538,0.6725,0.0334,0.52579,0.83811,0.22644,0.53204,0.86137,-0.07597,0.47086,1.41426,0.26701,0.45443,1.4282,-0.13982,0.68763,1.20816,0.41065,0.62057,1.23086,-0.00601,0.7249,1.41845,0.27679,0.73258,1.41547
2730,0.09924,0.48978,1.48821,0.07893,0.58239,0.07417,0.23806,0.60608,0.43524,0.0398,0.69331,0.46698,0.27552,0.90735,0.70249,0.03282,0.53005,0.83808,0.22539,0.54024,0.86375,-0.07632,0.4769,1.41438,0.26649,0.46065,1.42773,-0.14076,0.69112,1.20582,0.41204,0.6246,1.22996,-0.0069,0.73012,1.41576,0.27832,0.73917,1.41309
2731,0.09887,0.49589,1.48779,0.07955,0.58159,0.07389,0.23819,0.63983,0.45084,0.03877,0.69529,0.46574,0.27089,0.9275,0.73326,0.03299,0.53489,0.8381,0.22487,0.54894,0.8669,-0.07652,0.48273,1.41396,0.26598,0.467,1.42715,-0.14166,0.69493,1.20356,0.41426,0.62859,1.22947,-0.00758,0.73613,1.41294,0.27976,0.74524,1.41071
2732,0.09889,0.50231,1.48726,0.0803,0.58092,0.0734,0.23839,0.67371,0.46682,0.03792,0.69714,0.46433,0.26564,0.94574,0.76489,0.03393,0.5404,0.83827,0.22491,0.55793,0.87089,-0.07669,0.48872,1.41319,0.26526,0.47347,1.42659,-0.14271,0.69932,1.20146,0.41653,0.63248,1.22908,-0.00811,0.74223,1.41016,0.28129,0.75111,1.40848
2733,0.09899,0.50918,1.48649,0.08098,0.58074,0.07286,0.23845,0.70767,0.48353,0.03744,0.69918,0.46301,0.26033,0.96191,0.79732,0.03537,0.54653,0.83865,0.2253,0.56699,0.87542,-0.07684,0.49496,1.41242,0.26436,0.48004,1.42601,-0.1442,0.70407,1.19964,0.41828,0.63655,1.22855,-0.00876,0.74789,1.40761,0.28307,0.75739,1.40649
2734,0.09884,0.51632,1.48543,0.08142,0.581,0.07255,0.23789,0.74194,0.50066,0.03756,0.70175,0.46195,0.25493,0.9758,0.83021,0.03694,0.55312,0.8392,0.22578,0.57586,0.88004,-0.07703,0.50132,1.41171,0.26337,0.48679,1.42534,-0.14594,0.70922,1.19824,0.41963,0.64098,1.22789,-0.00932,0.75322,1.40539,0.2852,0.76434,1.40469
2735,0.09845,0.52332,1.48419,0.08161,0.58133,0.0726,0.23643,0.77693,0.51769,0.03829,0.70488,0.46117,0.24916,0.98714,0.86298,0.03839,0.56,0.83989,0.22621,0.58427,0.88436,-0.0775,0.50778,1.41069,0.2623,0.49376,1.42461,-0.14729,0.71541,1.19724,0.42124,0.64552,1.22742,-0.00921,0.75885,1.40354,0.28766,0.7716,1.40293
2736,0.09809,0.5299,1.48293,0.0816,0.58154,0.07301,0.23445,0.81267,0.53466,0.03921,0.70856,0.46057,0.24301,0.99609,0.89503,0.03967,0.56711,0.84057,0.22653,0.59239,0.88839,-0.07842,0.51437,1.40915,0.26116,0.50079,1.42389,-0.14795,0.72282,1.19642,0.42362,0.64978,1.22746,-0.00839,0.76505,1.40198,0.2902,0.77874,1.40099
2737,0.09801,0.53605,1.48172,0.08154,0.58159,0.07372,0.23281,0.84872,0.5522,0.03967,0.71289,0.45991,0.2364,1.00343,0.92588,0.04089,0.57446,0.84102,0.2266,0.60083,0.89262,-0.07964,0.52077,1.4074,0.26012,0.50749,1.42319,-0.14852,0.73041,1.19563,0.42668,0.65368,1.22809,-0.00763,0.77149,1.40051,0.2926,0.78586,1.39868
2738,0.09827,0.54197,1.4805,0.08164,0.58154,0.07455,0.23191,0.88492,0.57103,0.03941,0.71787,0.45895,0.22895,1.00991,0.95568,0.04212,0.58217,0.84104,0.22621,0.61005,0.89742,-0.08084,0.52654,1.40592,0.25942,0.51369,1.42234,-0.14993,0.73691,1.19494,0.43007,0.65756,1.22906,-0.0076,0.77771,1.39888,0.29487,0.79333,1.39589
2739,0.09864,0.54788,1.47911,0.08211,0.58154,0.07521,0.23119,0.92189,0.59163,0.03886,0.72321,0.45756,0.22066,1.01566,0.98492,0.04319,0.59045,0.84066,0.22522,0.62008,0.90255,-0.08184,0.5318,1.40477,0.25919,0.5195,1.42121,-0.15252,0.74231,1.19445,0.43356,0.6617,1.23002,-0.0083,0.78357,1.39696,0.29711,0.80114,1.39275
2740,0.09879,0.55393,1.4775,0.08303,0.58197,0.07542,0.22959,0.96041,0.61413,0.03872,0.72853,0.4558,0.21234,1.02026,1.01376,0.04394,0.59935,0.84012,0.22378,0.63058,0.9074,-0.08257,0.53717,1.40366,0.25942,0.52512,1.41988,-0.15605,0.74744,1.19406,0.43717,0.66599,1.23084,-0.0094,0.78915,1.39473,0.2995,0.80884,1.38953
2741,0.09861,0.56,1.47584,0.08405,0.5831,0.0752,0.22659,1.00057,0.63832,0.03927,0.73359,0.45398,0.20503,1.02326,1.04156,0.04443,0.60857,0.83967,0.22226,0.64104,0.91157,-0.08288,0.54294,1.40247,0.25993,0.53066,1.41852,-0.16023,0.75263,1.19369,0.44098,0.67007,1.23154,-0.0107,0.79468,1.39216,0.30233,0.81601,1.38653
2742,0.09825,0.56579,1.47433,0.08473,0.58463,0.07486,0.22271,1.04139,0.66391,0.04029,0.73837,0.45238,0.1994,1.02451,1.06733,0.04487,0.61765,0.83945,0.22106,0.6509,0.91492,-0.08264,0.54873,1.40134,0.26058,0.53615,1.41711,-0.16477,0.75753,1.19349,0.44508,0.67369,1.23213,-0.01203,0.80043,1.38931,0.30597,0.82252,1.38393
2743,0.09803,0.57108,1.47298,0.08507,0.58585,0.07476,0.21873,1.08156,0.69074,0.04137,0.74292,0.451,0.19538,1.02437,1.09045,0.04543,0.62639,0.83935,0.22038,0.66002,0.9175,-0.0822,0.5541,1.40034,0.26127,0.5415,1.4156,-0.16918,0.76208,1.19365,0.44959,0.67661,1.23269,-0.01325,0.8064,1.38661,0.31062,0.82838,1.38168
2744,0.09808,0.57584,1.47162,0.08537,0.58631,0.07501,0.21476,1.12065,0.71898,0.04212,0.74744,0.44957,0.19219,1.02348,1.11094,0.04619,0.63499,0.83913,0.22013,0.66875,0.91943,-0.08223,0.55909,1.39922,0.26196,0.5467,1.41409,-0.17295,0.76703,1.19412,0.45471,0.67863,1.23348,-0.01423,0.81252,1.38451,0.31613,0.8336,1.37952
2745,0.09823,0.5802,1.47013,0.0856,0.58635,0.07536,0.21033,1.15917,0.74897,0.04234,0.75225,0.44784,0.18901,1.02252,1.12904,0.04721,0.64402,0.83857,0.22024,0.67754,0.92094,-0.08297,0.56412,1.39784,0.26263,0.55188,1.41281,-0.17618,0.77303,1.19484,0.46055,0.67971,1.23486,-0.01479,0.81888,1.38289,0.32218,0.83829,1.37719
2746,0.09821,0.58429,1.46855,0.08558,0.58655,0.07561,0.20507,1.19775,0.78071,0.0423,0.75754,0.44578,0.18563,1.02225,1.14458,0.04839,0.65407,0.83778,0.22065,0.68676,0.92207,-0.08397,0.56944,1.39644,0.26328,0.55717,1.41183,-0.17953,0.77968,1.19592,0.46684,0.6801,1.23682,-0.01504,0.82552,1.38128,0.32853,0.84261,1.37469
2747,0.09795,0.5882,1.467,0.08548,0.58713,0.07578,0.19896,1.2366,0.81391,0.04239,0.76303,0.44367,0.18245,1.02343,1.15723,0.04941,0.66511,0.83708,0.2212,0.69662,0.92275,-0.08472,0.57481,1.39544,0.26381,0.56253,1.411,-0.18359,0.78599,1.19752,0.47307,0.67995,1.23895,-0.01546,0.83185,1.37958,0.33521,0.84671,1.37211
2748,0.09758,0.59186,1.46564,0.08554,0.58785,0.07603,0.19254,1.27544,0.84832,0.04268,0.7681,0.44183,0.17998,1.02659,1.1669,0.0499,0.67648,0.83675,0.22156,0.70708,0.92303,-0.08527,0.5799,1.39499,0.26411,0.56769,1.41019,-0.18838,0.79141,1.19961,0.47886,0.67907,1.24092,-0.01647,0.83699,1.37818,0.34229,0.85045,1.36945
2749,0.09733,0.59513,1.46452,0.08562,0.58847,0.07638,0.18642,1.31379,0.88377,0.04292,0.77244,0.44034,0.17848,1.032,1.17379,0.04984,0.68752,0.83677,0.22143,0.71788,0.92324,-0.0859,0.58468,1.39496,0.26414,0.57225,1.40948,-0.19356,0.79611,1.20197,0.48423,0.67694,1.24282,-0.01808,0.84061,1.37729,0.34972,0.8534,1.36656
2750,0.09732,0.5979,1.46361,0.08561,0.58893,0.07671,0.18039,1.35148,0.92018,0.04292,0.77602,0.43907,0.17765,1.03995,1.17811,0.04949,0.69794,0.83691,0.22077,0.72889,0.92381,-0.08666,0.5893,1.39502,0.26385,0.57593,1.40903,-0.19883,0.8005,1.20434,0.48936,0.67292,1.24497,-0.02004,0.84298,1.37681,0.35732,0.85495,1.36319
2751,0.09736,0.60015,1.46285,0.08551,0.58927,0.07694,0.1735,1.38858,0.95751,0.04259,0.77895,0.43793,0.17665,1.05087,1.18004,0.04911,0.70787,0.83707,0.21955,0.74034,0.92505,-0.08744,0.59376,1.39487,0.26328,0.57891,1.40897,-0.20413,0.8046,1.20654,0.49429,0.66672,1.2474,-0.02227,0.84436,1.37643,0.365,0.85468,1.3592
2752,0.09697,0.60197,1.46217,0.08526,0.58959,0.07711,0.16522,1.42475,0.99484,0.04187,0.78128,0.43698,0.17472,1.06521,1.17984,0.04863,0.71762,0.83737,0.21763,0.75292,0.92701,-0.08827,0.59782,1.39457,0.2625,0.58157,1.40923,-0.20954,0.80809,1.20849,0.4988,0.65856,1.24982,-0.02474,0.8449,1.37586,0.37269,0.85252,1.3548
2753,0.09595,0.60336,1.46152,0.08486,0.58994,0.07727,0.15654,1.4587,1.0292,0.04071,0.78298,0.43633,0.17198,1.08289,1.17792,0.04786,0.72752,0.83793,0.21492,0.76718,0.92939,-0.08936,0.60109,1.39433,0.26156,0.58396,1.40962,-0.21494,0.81068,1.21036,0.50256,0.64885,1.25188,-0.02731,0.84503,1.37508,0.38041,0.84872,1.35023
2754,0.09461,0.60423,1.46093,0.08461,0.59031,0.0774,0.14958,1.48859,1.05588,0.03925,0.78394,0.43599,0.16951,1.10255,1.17487,0.04667,0.73759,0.83874,0.21156,0.78262,0.93164,-0.09086,0.60318,1.39419,0.26044,0.58584,1.40993,-0.22003,0.81258,1.2125,0.50537,0.63753,1.25336,-0.02972,0.84531,1.37443,0.38842,0.84352,1.3452
2755,0.09321,0.6044,1.46057,0.08481,0.59064,0.07747,0.1462,1.51307,1.07129,0.03754,0.78406,0.43592,0.16854,1.12183,1.17136,0.04516,0.74735,0.83966,0.20807,0.79771,0.93331,-0.09254,0.60403,1.39389,0.25914,0.58718,1.41007,-0.22467,0.81419,1.21523,0.50712,0.62415,1.25414,-0.03179,0.84581,1.37433,0.3972,0.83689,1.33904
2756,0.09156,0.60378,1.46068,0.08528,0.59089,0.07755,0.14632,1.532,1.07573,0.03545,0.78345,0.43611,0.16933,1.13884,1.16783,0.0436,0.75623,0.84059,0.20504,0.811,0.93431,-0.09398,0.60402,1.39328,0.25768,0.58828,1.41014,-0.22891,0.8158,1.21869,0.50754,0.60849,1.25413,-0.03341,0.84625,1.37479,0.40697,0.82858,1.33153
2757,0.08945,0.60253,1.4613,0.08564,0.59109,0.07777,0.14816,1.54659,1.07311,0.03289,0.78246,0.43656,0.17088,1.15322,1.16434,0.04215,0.76411,0.84151,0.20266,0.82214,0.93485,-0.09511,0.6037,1.39253,0.2561,0.58919,1.41042,-0.23281,0.81753,1.22265,0.50615,0.59082,1.25342,-0.03451,0.84664,1.37543,0.41731,0.81838,1.3232
2758,0.08709,0.60102,1.46216,0.08573,0.59138,0.07813,0.15038,1.55873,1.06787,0.03009,0.78145,0.43717,0.17176,1.16566,1.16073,0.04086,0.77114,0.84237,0.20078,0.83165,0.93516,-0.09622,0.60355,1.392,0.25455,0.58952,1.41122,-0.23631,0.81939,1.22669,0.50271,0.57165,1.25224,-0.03508,0.84728,1.37582,0.42775,0.80621,1.31476
2759,0.08496,0.59966,1.46298,0.08565,0.59184,0.0784,0.15309,1.56956,1.06259,0.02741,0.78048,0.43779,0.17158,1.17665,1.15674,0.03992,0.77722,0.84306,0.19939,0.83984,0.93521,-0.09748,0.60387,1.39192,0.25325,0.58883,1.4124,-0.23928,0.82146,1.23041,0.49756,0.55141,1.25088,-0.03518,0.84802,1.37585,0.43825,0.79212,1.30644
2760,0.08332,0.59882,1.46362,0.08549,0.59234,0.07841,0.15647,1.57915,1.05814,0.02513,0.77929,0.43833,0.1711,1.18603,1.15206,0.03965,0.78185,0.84354,0.19879,0.84633,0.93499,-0.09871,0.60486,1.39231,0.25243,0.58724,1.4135,-0.24158,0.82382,1.23361,0.49142,0.5309,1.24952,-0.03477,0.84814,1.37556,0.44855,0.77657,1.298
2761,0.08214,0.59871,1.46413,0.0853,0.59262,0.07817,0.15981,1.58737,1.05469,0.02355,0.7776,0.43887,0.17119,1.19355,1.14613,0.04016,0.78457,0.84395,0.1992,0.85037,0.93463,-0.09969,0.60653,1.39309,0.25208,0.58528,1.41435,-0.24313,0.82652,1.23634,0.48471,0.51146,1.24818,-0.03366,0.84698,1.37498,0.45719,0.76068,1.28915
2762,0.08135,0.59917,1.46473,0.08511,0.59252,0.07788,0.16261,1.59444,1.05221,0.02291,0.77537,0.43958,0.17194,1.19938,1.13835,0.04106,0.78518,0.84454,0.20025,0.85166,0.93445,-0.10032,0.60864,1.39419,0.25205,0.58335,1.41527,-0.24395,0.82948,1.23881,0.47743,0.49408,1.24671,-0.03187,0.84471,1.37411,0.46253,0.74551,1.27994
2763,0.08087,0.59984,1.46565,0.08496,0.59211,0.07761,0.16534,1.60083,1.05044,0.02321,0.77266,0.44054,0.1728,1.20407,1.12857,0.04177,0.7837,0.84545,0.20113,0.85064,0.93473,-0.10072,0.61092,1.39549,0.25213,0.58136,1.41644,-0.24415,0.83248,1.24096,0.46932,0.47821,1.24508,-0.02972,0.84231,1.37302,0.46467,0.73092,1.27079
2764,0.08038,0.60043,1.46701,0.0849,0.59155,0.07732,0.16859,1.60684,1.04904,0.02415,0.76941,0.44175,0.17347,1.20817,1.11705,0.04196,0.78035,0.84669,0.20116,0.84819,0.93557,-0.10118,0.61313,1.397,0.25207,0.57894,1.41764,-0.24377,0.83526,1.24251,0.46023,0.46261,1.24353,-0.02756,0.84068,1.37187,0.4653,0.71593,1.2621
2765,0.07966,0.60084,1.46886,0.08505,0.59095,0.07695,0.17218,1.6124,1.04788,0.02552,0.76547,0.44319,0.17436,1.21188,1.10409,0.04174,0.77567,0.84822,0.20049,0.845,0.93675,-0.10193,0.61508,1.39885,0.25155,0.57557,1.41866,-0.24284,0.83762,1.24341,0.45039,0.44693,1.24234,-0.02539,0.83986,1.37078,0.46556,0.70026,1.25409
2766,0.07889,0.60097,1.4712,0.08544,0.59037,0.0765,0.17587,1.61692,1.04673,0.02733,0.76087,0.44486,0.17613,1.2148,1.09004,0.04137,0.77022,0.84999,0.19977,0.84123,0.9378,-0.10282,0.61673,1.40101,0.25045,0.57077,1.41978,-0.24126,0.83963,1.24387,0.44025,0.43179,1.24135,-0.02295,0.83914,1.36979,0.46508,0.68457,1.24689
2767,0.07857,0.60071,1.47398,0.08574,0.58977,0.07614,0.17998,1.61951,1.04491,0.02949,0.75591,0.44677,0.17901,1.21622,1.07555,0.04091,0.76423,0.852,0.19946,0.83668,0.93837,-0.10342,0.61819,1.40324,0.24896,0.56429,1.42153,-0.23877,0.84139,1.24387,0.42999,0.41759,1.2402,-0.01996,0.83799,1.36887,0.46319,0.66946,1.24042
2768,0.07888,0.60006,1.47712,0.08568,0.589,0.07601,0.18471,1.61962,1.04126,0.03156,0.7509,0.44883,0.18255,1.21569,1.06155,0.04025,0.75776,0.85416,0.19949,0.8312,0.93838,-0.10355,0.61954,1.40536,0.24724,0.55652,1.42414,-0.23535,0.84276,1.24306,0.41947,0.40434,1.23878,-0.01642,0.83657,1.36773,0.45992,0.65512,1.23442
2769,0.07942,0.59898,1.48059,0.08546,0.58796,0.07606,0.18973,1.61755,1.03447,0.03321,0.74581,0.45088,0.18612,1.21337,1.04888,0.03931,0.75116,0.85627,0.19963,0.82501,0.93806,-0.10347,0.6207,1.40751,0.24533,0.54859,1.42735,-0.23143,0.84334,1.24139,0.40853,0.3921,1.23747,-0.01257,0.8352,1.36609,0.45592,0.64155,1.22875
2770,0.07984,0.59742,1.48435,0.08538,0.58678,0.07613,0.19502,1.61413,1.02342,0.03449,0.74056,0.45283,0.18943,1.20998,1.03797,0.03821,0.74493,0.85826,0.1997,0.81863,0.93784,-0.10338,0.62142,1.4099,0.24335,0.54172,1.43062,-0.22753,0.84286,1.23933,0.39746,0.38097,1.23674,-0.00871,0.83378,1.36402,0.45198,0.62876,1.2236
2771,0.08013,0.59542,1.48829,0.08537,0.58583,0.07618,0.20108,1.60987,1.00737,0.03564,0.7352,0.4548,0.19267,1.20607,1.02877,0.03716,0.73925,0.86025,0.19982,0.81238,0.93797,-0.10307,0.62167,1.41255,0.24149,0.5362,1.43358,-0.2239,0.84134,1.23738,0.38681,0.37097,1.2367,-0.0051,0.83202,1.36208,0.44855,0.61679,1.21915
2772,0.08041,0.59329,1.49218,0.08512,0.58523,0.07628,0.2082,1.60432,0.98601,0.03674,0.72989,0.45689,0.19621,1.20156,1.02101,0.03635,0.73385,0.86235,0.20026,0.80605,0.93829,-0.10227,0.62159,1.41537,0.23978,0.53141,1.43626,-0.22047,0.83895,1.23559,0.377,0.36206,1.23708,-0.00188,0.82996,1.36069,0.44551,0.60574,1.21533
2773,0.08071,0.59139,1.49587,0.08466,0.58482,0.07653,0.2161,1.59641,0.95954,0.03775,0.72473,0.45909,0.20019,1.19602,1.01451,0.03592,0.72826,0.86455,0.20127,0.79913,0.9386,-0.10103,0.62146,1.41833,0.23807,0.5268,1.43891,-0.21697,0.83594,1.23369,0.36804,0.35423,1.23765,0.00115,0.82801,1.35969,0.44241,0.5958,1.21206
2774,0.08111,0.58979,1.49941,0.08443,0.58444,0.07691,0.22396,1.58512,0.92863,0.03883,0.71975,0.46128,0.20439,1.18925,1.00919,0.03606,0.72221,0.86674,0.20291,0.79129,0.93908,-0.0997,0.62142,1.42142,0.23631,0.52229,1.44167,-0.21301,0.83275,1.23157,0.35981,0.34744,1.23832,0.00447,0.8264,1.35876,0.43892,0.58713,1.20945
2775,0.08164,0.58819,1.50292,0.08474,0.58414,0.07732,0.23102,1.56985,0.89407,0.04011,0.71496,0.46336,0.20848,1.1815,1.00477,0.03682,0.71581,0.86883,0.20506,0.78264,0.94006,-0.09858,0.62138,1.42455,0.23467,0.51789,1.4445,-0.20838,0.82977,1.22946,0.35236,0.34165,1.23891,0.00832,0.82475,1.35803,0.43509,0.57979,1.20752
2776,0.08214,0.58626,1.50634,0.08517,0.58396,0.07763,0.23734,1.55052,0.85677,0.0414,0.71022,0.46529,0.2124,1.17331,1.00056,0.03797,0.70932,0.87075,0.20736,0.77358,0.94162,-0.09781,0.62102,1.42756,0.23344,0.51352,1.44731,-0.20337,0.82687,1.2275,0.34585,0.33681,1.23918,0.01233,0.82247,1.35776,0.43119,0.57378,1.20598
2777,0.08239,0.58393,1.50952,0.08518,0.58382,0.07785,0.24353,1.52728,0.818,0.04239,0.7054,0.46711,0.21629,1.16508,0.99591,0.03904,0.70286,0.87257,0.20942,0.76448,0.94339,-0.0975,0.62018,1.43034,0.23271,0.50919,1.45009,-0.19865,0.82354,1.22551,0.3403,0.33281,1.23916,0.01582,0.81943,1.35779,0.42739,0.56896,1.20461
2778,0.08234,0.5814,1.51248,0.08478,0.58365,0.07812,0.24966,1.50046,0.77907,0.04307,0.70061,0.46891,0.22028,1.15692,0.99049,0.03962,0.69637,0.87436,0.21101,0.75552,0.94488,-0.0977,0.61908,1.43296,0.23235,0.5051,1.45287,-0.19465,0.81946,1.22322,0.33563,0.32942,1.23922,0.01842,0.81605,1.35778,0.42376,0.56502,1.20358
2779,0.08211,0.57878,1.51544,0.0844,0.58345,0.07861,0.25519,1.47047,0.74091,0.04374,0.69604,0.47079,0.2245,1.1488,0.98415,0.03969,0.68985,0.8762,0.21221,0.74672,0.94584,-0.0983,0.61798,1.43546,0.23214,0.50143,1.45562,-0.19115,0.81485,1.22061,0.33171,0.32648,1.23962,0.02039,0.81278,1.35758,0.4204,0.56175,1.20321
2780,0.08173,0.57596,1.51855,0.08435,0.58328,0.07931,0.25977,1.43782,0.70392,0.04461,0.69177,0.47274,0.22909,1.14068,0.9766,0.03941,0.68355,0.8781,0.21327,0.73804,0.94629,-0.09898,0.61681,1.43775,0.23172,0.49823,1.4581,-0.18748,0.81009,1.21786,0.32839,0.32397,1.24023,0.02245,0.80967,1.3573,0.41741,0.55908,1.20361
2781,0.08121,0.57282,1.52163,0.08446,0.58317,0.08008,0.2637,1.40293,0.66811,0.04558,0.68769,0.47466,0.23405,1.13259,0.96748,0.03898,0.67783,0.87997,0.21436,0.72953,0.94641,-0.09953,0.61543,1.43979,0.23076,0.4953,1.46003,-0.18317,0.80539,1.21516,0.3256,0.32194,1.24065,0.02514,0.80668,1.35699,0.41483,0.55708,1.2047
2782,0.08071,0.5695,1.52446,0.08435,0.58304,0.08072,0.26748,1.36587,0.63343,0.04644,0.68368,0.47641,0.23927,1.12453,0.95676,0.03852,0.67285,0.88167,0.21547,0.72128,0.94638,-0.09996,0.61397,1.44179,0.22915,0.49238,1.46138,-0.17844,0.80063,1.21257,0.3234,0.32043,1.24064,0.02834,0.80386,1.35661,0.41249,0.55587,1.20634
2783,0.08041,0.56629,1.52696,0.08393,0.58283,0.08116,0.27121,1.3265,0.60012,0.04718,0.67968,0.4779,0.24469,1.11642,0.94471,0.03817,0.66845,0.88312,0.21661,0.71331,0.94632,-0.10029,0.61262,1.44398,0.22716,0.48931,1.46241,-0.174,0.79553,1.2102,0.32186,0.31944,1.24025,0.03147,0.80122,1.35603,0.41022,0.55551,1.20849
2784,0.08028,0.56338,1.52916,0.08338,0.58263,0.08143,0.27473,1.28486,0.56862,0.04792,0.67567,0.4792,0.25022,1.10795,0.93151,0.03796,0.6643,0.88439,0.21776,0.70544,0.94625,-0.1004,0.61127,1.4463,0.22517,0.48601,1.46341,-0.1705,0.78996,1.20819,0.32086,0.31878,1.23968,0.03405,0.79863,1.35517,0.40784,0.55576,1.21105
2785,0.08019,0.56079,1.53101,0.08281,0.58264,0.08161,0.27788,1.24141,0.53911,0.04862,0.67158,0.48043,0.25564,1.09875,0.91692,0.03782,0.66009,0.8856,0.21896,0.69738,0.94593,-0.10015,0.60976,1.44837,0.22338,0.48247,1.4645,-0.16792,0.78436,1.20658,0.32021,0.31821,1.23906,0.03604,0.79596,1.35416,0.4053,0.55626,1.21379
2786,0.08011,0.55837,1.53248,0.08219,0.58282,0.08171,0.28061,1.19674,0.51143,0.04923,0.66741,0.48158,0.26065,1.08865,0.90066,0.03772,0.65563,0.88672,0.22027,0.68905,0.94508,-0.09958,0.60821,1.44983,0.22173,0.47875,1.46552,-0.16555,0.77946,1.20516,0.31986,0.31765,1.23838,0.03768,0.79327,1.35355,0.40279,0.55679,1.21652
2787,0.08013,0.55599,1.53371,0.08166,0.583,0.08161,0.2832,1.15148,0.48555,0.04975,0.66338,0.48243,0.26545,1.07779,0.88283,0.03778,0.65096,0.88754,0.22169,0.68069,0.94355,-0.09893,0.60691,1.45084,0.22031,0.47514,1.46636,-0.16281,0.7753,1.20365,0.31994,0.31729,1.23759,0.0391,0.79073,1.35369,0.40071,0.55747,1.21925
2788,0.08019,0.55368,1.5349,0.0814,0.58302,0.08122,0.28593,1.10604,0.46173,0.05029,0.6598,0.48281,0.27063,1.06649,0.86396,0.03795,0.64626,0.88788,0.22312,0.67273,0.94133,-0.09849,0.60582,1.45202,0.21949,0.47208,1.46699,-0.15989,0.77075,1.20189,0.32055,0.31734,1.23673,0.04008,0.78838,1.35426,0.39923,0.55845,1.22199
2789,0.08008,0.55162,1.53597,0.08141,0.58284,0.08066,0.28868,1.06058,0.44029,0.05084,0.6568,0.48282,0.27656,1.05494,0.84453,0.03805,0.64175,0.88781,0.22436,0.66542,0.93855,-0.09846,0.60466,1.45366,0.21939,0.46979,1.46748,-0.15745,0.76498,1.19996,0.32161,0.31779,1.23591,0.04038,0.78622,1.35464,0.39806,0.55981,1.22463
2790,0.07988,0.54983,1.53679,0.08163,0.58246,0.0802,0.29087,1.01514,0.42129,0.05142,0.65427,0.48277,0.28288,1.04301,0.8247,0.03791,0.6376,0.88768,0.22531,0.65869,0.93546,-0.09871,0.60331,1.45529,0.21955,0.46796,1.46787,-0.15567,0.75875,1.19811,0.32291,0.31865,1.23507,0.0402,0.7842,1.35465,0.3968,0.56159,1.22709
2791,0.07984,0.54802,1.53746,0.0821,0.58191,0.07998,0.29206,0.96996,0.40442,0.0521,0.6521,0.48286,0.28895,1.03028,0.80434,0.03751,0.63388,0.88767,0.22598,0.65219,0.93231,-0.09892,0.60179,1.45626,0.2194,0.4662,1.46805,-0.15416,0.75345,1.19647,0.32436,0.31997,1.23401,0.04001,0.78229,1.35453,0.39539,0.56385,1.22936
2792,0.08,0.54586,1.53819,0.08291,0.58124,0.07987,0.29223,0.92542,0.38916,0.05302,0.65025,0.48296,0.29449,1.01625,0.78328,0.03684,0.63058,0.88764,0.22631,0.64563,0.92915,-0.09893,0.60005,1.45652,0.21892,0.46445,1.46789,-0.15246,0.74935,1.19501,0.32606,0.32188,1.23258,0.04014,0.78047,1.35453,0.39409,0.56666,1.23153
2793,0.08018,0.54352,1.53887,0.08393,0.58053,0.07966,0.29171,0.88171,0.37501,0.0541,0.64871,0.48289,0.2997,1.00058,0.76151,0.03594,0.62762,0.88742,0.22628,0.63887,0.92602,-0.09884,0.59815,1.45654,0.21865,0.46294,1.46734,-0.15047,0.74575,1.19368,0.32812,0.32444,1.23067,0.04059,0.77886,1.35467,0.39308,0.57003,1.2337
2794,0.08037,0.54142,1.53918,0.08474,0.57999,0.0793,0.29083,0.83873,0.36173,0.05506,0.64731,0.48269,0.30484,0.9831,0.73928,0.03498,0.62489,0.88705,0.22603,0.63194,0.92303,-0.09874,0.59636,1.45669,0.21906,0.46167,1.46664,-0.14829,0.74228,1.19251,0.33046,0.32758,1.22835,0.04121,0.77759,1.35486,0.39235,0.57386,1.23599
2795,0.08064,0.53971,1.53904,0.08502,0.57989,0.07889,0.28963,0.79641,0.34935,0.05575,0.64598,0.48252,0.30997,0.96386,0.71695,0.03415,0.62231,0.88673,0.22576,0.62494,0.92025,-0.09854,0.59487,1.45695,0.22007,0.46045,1.46607,-0.14606,0.7392,1.19152,0.33294,0.33104,1.22588,0.04192,0.77661,1.35516,0.39188,0.57785,1.23845
2796,0.08091,0.53807,1.53873,0.08486,0.58032,0.07856,0.28811,0.75507,0.33799,0.05621,0.64485,0.48247,0.31488,0.94329,0.69498,0.03339,0.61986,0.88654,0.22544,0.61809,0.91754,-0.09812,0.59359,1.45703,0.22116,0.45909,1.46565,-0.14379,0.73685,1.19071,0.33547,0.3344,1.22366,0.0427,0.77566,1.35573,0.39159,0.58157,1.24098
2797,0.08114,0.53612,1.53852,0.08467,0.58091,0.07839,0.28635,0.71516,0.3277,0.05657,0.64422,0.48254,0.31919,0.922,0.67371,0.03259,0.61765,0.88644,0.22497,0.61165,0.91474,-0.0976,0.59227,1.45669,0.22199,0.4576,1.46521,-0.14146,0.73531,1.18994,0.33815,0.33756,1.22174,0.04344,0.77463,1.35661,0.39103,0.5851,1.24359
2798,0.08158,0.53383,1.53843,0.08469,0.58123,0.07843,0.28447,0.6769,0.31847,0.05682,0.64434,0.48262,0.32246,0.90035,0.65344,0.03182,0.61579,0.88632,0.2244,0.60567,0.91196,-0.09732,0.59069,1.45593,0.22274,0.45613,1.46458,-0.1392,0.73419,1.1891,0.34116,0.341,1.21984,0.04399,0.7735,1.35766,0.38979,0.58894,1.24642
2799,0.08234,0.53139,1.53842,0.08476,0.58131,0.07858,0.2825,0.64015,0.31012,0.05681,0.64527,0.48263,0.32458,0.87815,0.63441,0.03125,0.6142,0.88611,0.22385,0.5998,0.90948,-0.09733,0.58869,1.45511,0.22373,0.45496,1.4637,-0.13723,0.73275,1.18829,0.34447,0.34485,1.21778,0.04417,0.77224,1.35873,0.38817,0.59311,1.24942
2800,0.08332,0.52904,1.53842,0.08473,0.58139,0.07869,0.28053,0.60458,0.30221,0.05653,0.64667,0.48252,0.32577,0.85493,0.61664,0.03101,0.6126,0.88576,0.22341,0.59369,0.90743,-0.0973,0.58623,1.45465,0.2251,0.45437,1.46251,-0.13571,0.73048,1.18771,0.3479,0.34847,1.21577,0.04394,0.77089,1.35978,0.38695,0.59685,1.25221
2801,0.08444,0.527,1.53829,0.08465,0.58156,0.07871,0.27849,0.5699,0.29402,0.05625,0.64801,0.48234,0.32632,0.83032,0.59976,0.03111,0.61074,0.88532,0.22316,0.58745,0.90579,-0.09694,0.58349,1.45449,0.22679,0.45441,1.4611,-0.13462,0.7277,1.18743,0.3514,0.35147,1.21402,0.04352,0.76957,1.3607,0.38648,0.5998,1.25458
2802,0.08575,0.52531,1.53792,0.08461,0.58172,0.07879,0.27604,0.53599,0.28507,0.05627,0.64898,0.48229,0.32644,0.80423,0.58355,0.03148,0.60869,0.885,0.22312,0.58149,0.90449,-0.0963,0.58073,1.45431,0.22863,0.45482,1.45973,-0.13385,0.72506,1.18729,0.35502,0.35439,1.21251,0.04319,0.76845,1.36133,0.38644,0.60258,1.25679
2803,0.08724,0.52368,1.53743,0.08463,0.58174,0.07912,0.27279,0.50288,0.27562,0.05681,0.6496,0.48255,0.32623,0.77688,0.56828,0.03198,0.60668,0.88499,0.2232,0.57603,0.90344,-0.09548,0.57795,1.4539,0.23048,0.45499,1.4587,-0.1333,0.72271,1.18715,0.35869,0.35805,1.21103,0.04301,0.76758,1.36155,0.38622,0.60596,1.25925
2804,0.0888,0.52176,1.53698,0.08462,0.58161,0.07969,0.26873,0.47079,0.26644,0.05781,0.64998,0.48311,0.32571,0.74891,0.55452,0.03247,0.60474,0.88526,0.22326,0.57083,0.90248,-0.0944,0.57511,1.45329,0.23214,0.45431,1.45809,-0.13291,0.72042,1.18694,0.3623,0.36269,1.20942,0.04291,0.76675,1.36146,0.3853,0.61017,1.26205
2805,0.09033,0.51958,1.53658,0.08456,0.58144,0.08023,0.26424,0.44013,0.25801,0.0591,0.65024,0.48365,0.32487,0.7211,0.54255,0.03301,0.60274,0.88549,0.22328,0.56544,0.90135,-0.09293,0.57233,1.45269,0.2335,0.45279,1.45773,-0.13266,0.71803,1.18673,0.36589,0.36818,1.20776,0.04276,0.76561,1.36131,0.38348,0.61505,1.26512
2806,0.09189,0.51752,1.53613,0.08458,0.58142,0.0804,0.25972,0.41132,0.25008,0.06057,0.65044,0.48388,0.32369,0.69392,0.53226,0.03372,0.60076,0.88541,0.22332,0.5597,0.89996,-0.09111,0.56974,1.4524,0.23467,0.45103,1.45736,-0.13265,0.71533,1.18665,0.36951,0.37422,1.20617,0.04241,0.76396,1.3613,0.38111,0.62028,1.26833
2807,0.09363,0.51579,1.53564,0.08481,0.58165,0.08014,0.25529,0.3844,0.24205,0.06215,0.65053,0.48372,0.32206,0.66727,0.52331,0.03467,0.59907,0.88498,0.22339,0.55378,0.89837,-0.08916,0.56734,1.45263,0.23598,0.44965,1.45683,-0.13295,0.71211,1.1868,0.37309,0.38039,1.20468,0.04178,0.76196,1.36144,0.37871,0.62541,1.2716
2808,0.09557,0.51424,1.53526,0.08525,0.58207,0.07973,0.25087,0.35911,0.2336,0.06379,0.65049,0.48345,0.31982,0.64084,0.51549,0.0358,0.59774,0.88451,0.22348,0.54802,0.89679,-0.08728,0.56503,1.45317,0.2377,0.44881,1.45626,-0.13326,0.70857,1.18704,0.37653,0.38618,1.20332,0.04106,0.75992,1.36165,0.3765,0.62996,1.27484
2809,0.09756,0.51254,1.53507,0.08566,0.58252,0.07962,0.24639,0.33526,0.22498,0.06538,0.65044,0.48349,0.31698,0.61459,0.50884,0.03693,0.59664,0.88438,0.22351,0.54268,0.89534,-0.08554,0.5629,1.45351,0.23996,0.4483,1.45585,-0.13324,0.70529,1.18707,0.37983,0.39116,1.20218,0.04051,0.75805,1.36184,0.3743,0.63358,1.27799
2810,0.09934,0.51063,1.53501,0.08567,0.58283,0.08001,0.24187,0.31281,0.21644,0.06685,0.65035,0.48401,0.31353,0.58869,0.50338,0.03792,0.59565,0.88474,0.22342,0.53777,0.89399,-0.08381,0.56091,1.45352,0.24262,0.44787,1.45565,-0.13291,0.70229,1.1868,0.383,0.39519,1.20129,0.04016,0.75625,1.36187,0.37201,0.63616,1.28104
2811,0.10089,0.50869,1.53489,0.08528,0.5829,0.08055,0.23736,0.29166,0.20789,0.06822,0.64995,0.48471,0.30939,0.56315,0.4989,0.03891,0.59471,0.88534,0.22327,0.53303,0.89256,-0.0819,0.55871,1.45345,0.24543,0.44719,1.45555,-0.13244,0.69898,1.18641,0.386,0.39852,1.2005,0.03998,0.75421,1.36172,0.37001,0.63793,1.28399
2812,0.10249,0.50698,1.53464,0.0849,0.58275,0.08075,0.23288,0.27176,0.19926,0.06959,0.64907,0.4851,0.3045,0.53793,0.49524,0.04017,0.59368,0.8857,0.22329,0.52822,0.89097,-0.07987,0.55601,1.45349,0.24808,0.4458,1.45541,-0.13172,0.69515,1.1861,0.38881,0.40158,1.19964,0.04006,0.75183,1.36158,0.36885,0.6394,1.28678
2813,0.10452,0.50549,1.53438,0.08501,0.58259,0.08048,0.2285,0.2534,0.19096,0.071,0.64799,0.48504,0.29895,0.51355,0.49252,0.0418,0.59227,0.8856,0.22365,0.52329,0.88941,-0.0779,0.55308,1.45345,0.2504,0.4435,1.45524,-0.13054,0.69146,1.18582,0.39151,0.40476,1.1988,0.04048,0.74938,1.36164,0.36848,0.64103,1.28931
2814,0.10713,0.50405,1.53432,0.08569,0.58263,0.08007,0.22435,0.23715,0.1835,0.0725,0.64711,0.48479,0.29288,0.49092,0.49089,0.04356,0.59012,0.8852,0.22431,0.51823,0.88818,-0.07599,0.55057,1.4531,0.25238,0.44079,1.45519,-0.1289,0.68864,1.18537,0.39422,0.40822,1.19828,0.04121,0.74716,1.36188,0.3682,0.64302,1.29175
2815,0.11005,0.50252,1.53448,0.08656,0.58283,0.07985,0.2206,0.22334,0.1769,0.07403,0.64649,0.48473,0.28629,0.4705,0.49023,0.04505,0.58703,0.88477,0.22491,0.51294,0.88737,-0.07389,0.5488,1.45251,0.25417,0.43843,1.45542,-0.12701,0.68661,1.1847,0.3969,0.41167,1.19834,0.04226,0.7452,1.36198,0.36735,0.64505,1.29428
2816,0.11289,0.50095,1.53471,0.0871,0.58297,0.0799,0.21729,0.2117,0.17083,0.07541,0.6458,0.48493,0.27905,0.45201,0.49023,0.046,0.58318,0.88447,0.22509,0.50723,0.88688,-0.0714,0.54754,1.45201,0.25601,0.43661,1.45598,-0.12508,0.6846,1.18392,0.39944,0.41437,1.19887,0.04378,0.74335,1.36154,0.36593,0.6464,1.29677
2817,0.11542,0.49939,1.5349,0.08716,0.58293,0.08002,0.21424,0.20148,0.16519,0.07653,0.64469,0.48525,0.27115,0.43499,0.49048,0.04652,0.57894,0.88423,0.22474,0.50099,0.88643,-0.06868,0.54647,1.45177,0.25805,0.43485,1.45668,-0.12303,0.68215,1.18311,0.40184,0.41575,1.19951,0.04576,0.74165,1.36054,0.36454,0.64655,1.29893
2818,0.11769,0.49782,1.53505,0.087,0.58277,0.07998,0.211,0.19195,0.16013,0.07752,0.64317,0.48544,0.26295,0.41923,0.49062,0.04698,0.57463,0.88392,0.22409,0.49417,0.8858,-0.06597,0.54554,1.45166,0.2603,0.43265,1.45728,-0.12075,0.67956,1.18226,0.40412,0.41583,1.19997,0.04803,0.74003,1.35937,0.36371,0.64553,1.30072
2819,0.1199,0.49624,1.53519,0.087,0.58264,0.07974,0.20718,0.18285,0.15564,0.07864,0.6416,0.48543,0.25507,0.40441,0.49061,0.04774,0.5704,0.88342,0.22343,0.48688,0.88493,-0.06324,0.54476,1.45158,0.26269,0.42987,1.45766,-0.11854,0.67698,1.18139,0.40639,0.4151,1.20016,0.05015,0.73823,1.35832,0.36366,0.64371,1.30242
2820,0.12231,0.49475,1.53523,0.08726,0.58263,0.07939,0.20268,0.17448,0.15148,0.08004,0.64025,0.4853,0.24781,0.39003,0.49072,0.04894,0.56627,0.88276,0.22299,0.47937,0.88402,-0.06029,0.54394,1.45166,0.26514,0.42673,1.45779,-0.11689,0.67386,1.18063,0.40884,0.41408,1.20016,0.05174,0.73597,1.35732,0.36435,0.64149,1.30434
2821,0.12511,0.49336,1.53509,0.08764,0.58274,0.07902,0.19767,0.16725,0.14741,0.08163,0.63906,0.48513,0.24104,0.37598,0.49112,0.05048,0.56219,0.88204,0.2228,0.47192,0.88323,-0.05701,0.54282,1.45195,0.26761,0.42357,1.4577,-0.1157,0.66974,1.17994,0.4115,0.41311,1.20009,0.05296,0.73319,1.35613,0.36547,0.63919,1.30645
2822,0.12828,0.49193,1.53478,0.08798,0.58288,0.07866,0.19248,0.16141,0.14335,0.08312,0.63783,0.48497,0.23461,0.36271,0.49161,0.05214,0.55811,0.88133,0.22278,0.4647,0.88244,-0.05358,0.54137,1.45213,0.27005,0.42053,1.45751,-0.11416,0.6651,1.17907,0.41427,0.41223,1.20001,0.05448,0.73014,1.35469,0.36666,0.63698,1.30849
2823,0.13168,0.49033,1.53433,0.08828,0.58293,0.07833,0.18737,0.15689,0.13925,0.08431,0.63643,0.48485,0.22861,0.35068,0.49185,0.05372,0.55387,0.88065,0.22276,0.4576,0.8815,-0.05028,0.5399,1.45187,0.2725,0.41741,1.45736,-0.11168,0.66083,1.17773,0.41704,0.41107,1.19998,0.05676,0.72712,1.35308,0.36768,0.63463,1.31013
2824,0.13526,0.4885,1.53372,0.08856,0.58278,0.07811,0.18246,0.15338,0.13515,0.08529,0.63484,0.48482,0.22312,0.33987,0.49173,0.05509,0.5493,0.88002,0.22265,0.45047,0.88039,-0.04722,0.53871,1.45128,0.27497,0.41397,1.45719,-0.10854,0.65707,1.17602,0.41982,0.40899,1.19996,0.05965,0.72425,1.35127,0.36839,0.63154,1.31118
2825,0.13901,0.48646,1.53296,0.08879,0.58247,0.07798,0.17794,0.15049,0.13111,0.08625,0.63303,0.48488,0.21813,0.32993,0.49134,0.05624,0.54436,0.87941,0.22245,0.44326,0.87919,-0.04411,0.53765,1.45082,0.27734,0.41013,1.45682,-0.10552,0.65299,1.17429,0.42266,0.40557,1.19984,0.06264,0.7214,1.3491,0.36898,0.62733,1.3116
2826,0.14283,0.48426,1.53211,0.08895,0.58215,0.07781,0.17406,0.14795,0.12717,0.08721,0.63104,0.48492,0.21368,0.32052,0.49081,0.05727,0.53912,0.87871,0.22221,0.43597,0.87796,-0.04059,0.53634,1.45064,0.27948,0.40596,1.45622,-0.10298,0.64791,1.17279,0.42544,0.40118,1.19961,0.06545,0.71838,1.34651,0.36984,0.62234,1.31159
2827,0.14653,0.48204,1.53127,0.08906,0.58194,0.07757,0.17091,0.14563,0.12335,0.08805,0.62909,0.48489,0.20987,0.31154,0.49015,0.05822,0.53363,0.87784,0.22201,0.42867,0.87669,-0.03661,0.53459,1.45041,0.28142,0.4015,1.45556,-0.1006,0.64204,1.1713,0.42795,0.39689,1.19927,0.06818,0.71515,1.34359,0.37111,0.61761,1.31151
2828,0.14994,0.47985,1.53045,0.08915,0.58175,0.07738,0.16838,0.14338,0.11972,0.08878,0.62736,0.48487,0.20673,0.30311,0.48931,0.05909,0.52798,0.87686,0.22191,0.42153,0.87536,-0.03243,0.53268,1.44967,0.28342,0.39672,1.45496,-0.0978,0.63633,1.16945,0.43008,0.3936,1.19871,0.07119,0.71187,1.34048,0.37245,0.61383,1.31151
2829,0.15319,0.47761,1.52963,0.08914,0.58143,0.07735,0.1664,0.14108,0.11635,0.08952,0.62575,0.48499,0.20406,0.2953,0.48834,0.05994,0.52233,0.87594,0.22195,0.41464,0.87399,-0.0283,0.53098,1.44828,0.28571,0.39162,1.45433,-0.09434,0.63156,1.1671,0.43196,0.39098,1.19784,0.07475,0.70882,1.33726,0.37363,0.61067,1.31133
2830,0.15662,0.47525,1.52882,0.08889,0.58098,0.07743,0.16494,0.13867,0.11328,0.0903,0.62401,0.48521,0.20156,0.28801,0.48737,0.06087,0.51679,0.87515,0.22208,0.40793,0.87271,-0.02432,0.52959,1.4466,0.28817,0.38633,1.45354,-0.09039,0.62761,1.16452,0.43389,0.38778,1.19675,0.07886,0.70601,1.334,0.3749,0.60713,1.31055
2831,0.16037,0.47276,1.52803,0.08839,0.58054,0.07745,0.16388,0.13616,0.11058,0.0911,0.62192,0.48538,0.19909,0.28117,0.48649,0.06189,0.51143,0.87442,0.22225,0.40133,0.87161,-0.02043,0.52834,1.44519,0.29042,0.38118,1.45261,-0.08631,0.62357,1.16212,0.43603,0.38327,1.19576,0.0832,0.70316,1.33078,0.37646,0.6027,1.30909
2832,0.16413,0.47019,1.5273,0.08783,0.58021,0.07728,0.16304,0.13353,0.10829,0.09189,0.61938,0.48542,0.19675,0.27478,0.48577,0.06298,0.50618,0.87371,0.22255,0.39494,0.87072,-0.01665,0.52705,1.44428,0.2922,0.37636,1.45174,-0.08228,0.61883,1.16001,0.43819,0.378,1.1951,0.0874,0.70012,1.32769,0.37792,0.59783,1.30729
2833,0.16741,0.46748,1.52664,0.08743,0.57992,0.07699,0.16239,0.13076,0.10641,0.09252,0.61645,0.48537,0.19481,0.26876,0.48521,0.06414,0.501,0.87303,0.2231,0.38889,0.86999,-0.01317,0.5257,1.44368,0.29369,0.37182,1.45112,-0.07817,0.61357,1.15803,0.44006,0.3728,1.1947,0.0913,0.697,1.32487,0.37893,0.59308,1.30556
2834,0.17009,0.46465,1.52603,0.08735,0.57958,0.07671,0.16197,0.12798,0.1048,0.09284,0.61331,0.48533,0.1935,0.26305,0.48472,0.0654,0.49588,0.87246,0.22393,0.38317,0.86934,-0.01007,0.52427,1.44314,0.29528,0.3672,1.45066,-0.07385,0.60822,1.15604,0.44165,0.3677,1.19424,0.09497,0.69396,1.32236,0.38005,0.58838,1.304
2835,0.17262,0.46165,1.52542,0.08753,0.57921,0.07651,0.16183,0.1254,0.10326,0.09281,0.61008,0.48535,0.1929,0.25776,0.48418,0.06667,0.4909,0.87203,0.22483,0.37766,0.86875,-0.00709,0.52264,1.44263,0.29724,0.36213,1.45021,-0.06951,0.60292,1.15418,0.44307,0.36225,1.19348,0.09859,0.6909,1.32007,0.38202,0.58343,1.30255
2836,0.17556,0.4584,1.52478,0.08785,0.57887,0.07633,0.1618,0.1232,0.10174,0.09261,0.60684,0.48539,0.19276,0.25306,0.48352,0.06779,0.4861,0.87168,0.22553,0.37228,0.86823,-0.00377,0.52068,1.44216,0.29949,0.35659,1.44973,-0.06538,0.59763,1.15263,0.44431,0.35652,1.19243,0.10232,0.68762,1.31785,0.38459,0.57823,1.30117
2837,0.17905,0.45484,1.52405,0.08824,0.57858,0.07617,0.16165,0.12152,0.10018,0.09244,0.60364,0.48542,0.19272,0.24891,0.48279,0.06859,0.48154,0.87134,0.22582,0.36703,0.86781,9e-05,0.51839,1.44161,0.30167,0.35094,1.44928,-0.06154,0.59246,1.15134,0.44526,0.3509,1.19129,0.10624,0.68399,1.31562,0.38683,0.573,1.29993
2838,0.18266,0.4511,1.52327,0.08871,0.57834,0.07603,0.16122,0.12045,0.09854,0.09248,0.60059,0.48545,0.19259,0.24518,0.482,0.06913,0.47732,0.87104,0.22572,0.36195,0.86743,0.0042,0.51594,1.44092,0.3035,0.34556,1.4489,-0.05791,0.58755,1.15013,0.44596,0.34545,1.19029,0.1103,0.68001,1.31345,0.38836,0.56783,1.29879
2839,0.1859,0.44734,1.5225,0.08915,0.57816,0.07597,0.16069,0.11992,0.09678,0.09274,0.59773,0.48553,0.1924,0.24178,0.48113,0.06965,0.47334,0.87076,0.22552,0.35699,0.86703,0.00807,0.51347,1.4402,0.30509,0.34056,1.44862,-0.05427,0.58288,1.14893,0.44661,0.33989,1.18949,0.11441,0.6758,1.31149,0.38947,0.56258,1.29762
2840,0.1886,0.44365,1.52184,0.08941,0.57808,0.07599,0.16026,0.11961,0.09505,0.09311,0.59499,0.48567,0.19231,0.23879,0.48021,0.07033,0.46932,0.8705,0.22554,0.35209,0.86666,0.01143,0.51086,1.43962,0.30676,0.33573,1.44843,-0.05035,0.57821,1.14775,0.44731,0.33407,1.18877,0.11855,0.67144,1.30991,0.39051,0.55712,1.29632
2841,0.19096,0.44002,1.52137,0.08949,0.57813,0.07612,0.15995,0.11924,0.0936,0.09342,0.59222,0.4859,0.19243,0.23632,0.47937,0.07111,0.46508,0.87028,0.22588,0.34728,0.86648,0.01432,0.50775,1.43924,0.30863,0.33089,1.44825,-0.04607,0.57339,1.14669,0.44802,0.32802,1.18798,0.12271,0.66705,1.30872,0.39154,0.55144,1.29492
2842,0.19329,0.43639,1.52115,0.08947,0.57823,0.07634,0.15961,0.11877,0.09255,0.09365,0.58933,0.48621,0.19267,0.2343,0.47874,0.07196,0.46062,0.8701,0.22655,0.34256,0.86658,0.01695,0.50392,1.43902,0.31052,0.32604,1.44803,-0.04179,0.56844,1.14589,0.44856,0.32186,1.18706,0.12674,0.66289,1.30772,0.39255,0.5456,1.29359
2843,0.19572,0.43264,1.52115,0.08936,0.57821,0.07658,0.15913,0.11831,0.09182,0.09389,0.58632,0.48651,0.19291,0.23248,0.47835,0.07303,0.456,0.86991,0.22758,0.33789,0.8669,0.01951,0.49955,1.43898,0.31223,0.32119,1.4478,-0.03796,0.56342,1.14545,0.44866,0.31573,1.18601,0.1305,0.65907,1.30665,0.39355,0.53968,1.29258
2844,0.19807,0.42872,1.52126,0.08927,0.57801,0.07676,0.15857,0.11794,0.09117,0.09418,0.58321,0.48674,0.19315,0.23056,0.47809,0.07436,0.45138,0.86967,0.22891,0.33325,0.86727,0.02201,0.49518,1.43913,0.31375,0.31634,1.4477,-0.03459,0.55826,1.14526,0.44813,0.30967,1.18488,0.13406,0.65538,1.30538,0.39453,0.53371,1.29203
2845,0.20007,0.42462,1.52132,0.0893,0.57779,0.07687,0.15802,0.11772,0.09048,0.09446,0.58005,0.48687,0.19344,0.22849,0.47786,0.07581,0.447,0.86945,0.23032,0.32881,0.86755,0.02433,0.49143,1.43947,0.31516,0.31145,1.44784,-0.0312,0.5528,1.14503,0.447,0.30363,1.18377,0.13764,0.6515,1.30398,0.39553,0.52771,1.29187
2846,0.20164,0.4205,1.52124,0.08937,0.57769,0.07692,0.15753,0.11773,0.08969,0.0947,0.57694,0.48693,0.19374,0.22646,0.47757,0.07726,0.44304,0.86926,0.2317,0.32475,0.86768,0.02634,0.48831,1.43996,0.31645,0.3066,1.44819,-0.02748,0.54704,1.14467,0.44572,0.29779,1.18288,0.14135,0.64729,1.30266,0.39651,0.52191,1.29192
2847,0.20292,0.41654,1.52105,0.08931,0.57771,0.07688,0.15709,0.11788,0.08884,0.095,0.57397,0.48687,0.19401,0.22469,0.47718,0.07871,0.43949,0.86905,0.2331,0.32113,0.86764,0.02798,0.48517,1.44054,0.31756,0.30177,1.44861,-0.02372,0.54132,1.14437,0.44482,0.29252,1.18234,0.14494,0.64284,1.30173,0.39727,0.5167,1.292
2848,0.20413,0.41268,1.52093,0.08918,0.57772,0.07675,0.15669,0.11794,0.088,0.09542,0.57113,0.48669,0.19437,0.22319,0.4767,0.08024,0.43617,0.86875,0.23464,0.31784,0.86748,0.02934,0.48138,1.44102,0.31853,0.29686,1.44898,-0.02035,0.53608,1.14424,0.44453,0.28802,1.1821,0.14803,0.6383,1.30144,0.39767,0.51224,1.29199
2849,0.20549,0.40865,1.52106,0.08918,0.57766,0.07661,0.15639,0.11778,0.08724,0.09587,0.5683,0.48649,0.19493,0.22179,0.47619,0.0819,0.43285,0.86842,0.23639,0.31464,0.86727,0.03063,0.47698,1.44118,0.31958,0.29183,1.44927,-0.01741,0.53164,1.14412,0.44468,0.28417,1.18194,0.15052,0.63387,1.30181,0.39786,0.50833,1.29197
2850,0.20713,0.40428,1.52142,0.08937,0.57755,0.07655,0.15625,0.11746,0.08659,0.09622,0.56534,0.48635,0.19568,0.22034,0.47575,0.08365,0.42939,0.86815,0.23829,0.31136,0.86714,0.03199,0.47248,1.44098,0.32086,0.28683,1.44955,-0.01462,0.52794,1.14384,0.44494,0.28073,1.18169,0.15262,0.62974,1.30253,0.39807,0.50464,1.29221
2851,0.20894,0.39971,1.52189,0.0895,0.57742,0.07658,0.15634,0.11707,0.08609,0.0965,0.56232,0.48628,0.19652,0.21894,0.47544,0.08537,0.42594,0.86798,0.24011,0.30803,0.86716,0.03339,0.46822,1.44067,0.32222,0.28212,1.44979,-0.01199,0.52457,1.1435,0.44508,0.27745,1.18135,0.15458,0.62599,1.30313,0.39839,0.50093,1.29281
2852,0.21058,0.39518,1.52233,0.08934,0.57726,0.0766,0.15673,0.1166,0.08574,0.09681,0.55929,0.48618,0.19751,0.21769,0.47523,0.08699,0.42274,0.86785,0.24167,0.30476,0.86735,0.03485,0.46433,1.44056,0.32336,0.27785,1.44989,-0.00982,0.52108,1.14336,0.44513,0.27405,1.18093,0.15647,0.62249,1.30329,0.39883,0.49702,1.29356
2853,0.21186,0.39077,1.5227,0.08896,0.57706,0.07656,0.15736,0.11599,0.08556,0.09719,0.55624,0.48599,0.19875,0.21657,0.47512,0.08855,0.41985,0.86774,0.24304,0.30163,0.86766,0.03639,0.46101,1.44078,0.3243,0.27387,1.44975,-0.00825,0.51737,1.1435,0.44531,0.27037,1.18046,0.15827,0.61908,1.30301,0.39943,0.49283,1.29427
2854,0.21282,0.38647,1.52303,0.08872,0.57672,0.07648,0.15791,0.11539,0.08549,0.09767,0.55313,0.48575,0.20017,0.21553,0.47506,0.09018,0.41713,0.86766,0.2445,0.29868,0.86801,0.03788,0.45827,1.44113,0.32533,0.26977,1.44948,-0.00693,0.51367,1.1437,0.4459,0.2666,1.17997,0.15991,0.61571,1.30265,0.4002,0.48848,1.29498
2855,0.21366,0.38231,1.52322,0.08889,0.57615,0.07646,0.15807,0.11507,0.08544,0.09823,0.55003,0.48556,0.20154,0.21467,0.47502,0.09186,0.41433,0.86761,0.2462,0.29592,0.86833,0.03919,0.45561,1.44123,0.32668,0.26537,1.44927,-0.00545,0.51029,1.14364,0.44693,0.26313,1.17962,0.16131,0.61243,1.30261,0.4009,0.48431,1.29584
2856,0.21456,0.37842,1.52317,0.08944,0.57545,0.07654,0.1578,0.1152,0.08538,0.09877,0.54707,0.48549,0.2027,0.21407,0.47498,0.09343,0.41143,0.86757,0.24805,0.29337,0.86861,0.0403,0.45245,1.44086,0.32823,0.26095,1.44924,-0.00382,0.50738,1.14324,0.4482,0.26029,1.17945,0.16232,0.60932,1.30299,0.40129,0.48058,1.297
2857,0.21573,0.37489,1.5229,0.09013,0.57497,0.07664,0.15735,0.11559,0.0853,0.09921,0.54434,0.48543,0.20363,0.21353,0.47498,0.09487,0.4086,0.86749,0.24983,0.29099,0.86888,0.04134,0.44867,1.44023,0.32976,0.2568,1.44926,-0.00251,0.50482,1.1428,0.44953,0.25807,1.17939,0.16282,0.60636,1.30363,0.40149,0.47725,1.29853
2858,0.21723,0.37159,1.52262,0.09069,0.57493,0.07666,0.157,0.11594,0.08518,0.09957,0.54182,0.48526,0.20437,0.21272,0.47501,0.0963,0.40607,0.86733,0.2514,0.28864,0.86911,0.04242,0.44476,1.43983,0.33116,0.25288,1.44921,-0.00187,0.50221,1.14271,0.45098,0.25617,1.17937,0.16296,0.60349,1.30423,0.4019,0.4741,1.30039
2859,0.21896,0.36825,1.5225,0.09097,0.57517,0.07658,0.15687,0.11603,0.08496,0.09989,0.53942,0.48497,0.20501,0.21158,0.475,0.09779,0.40379,0.86708,0.25277,0.28622,0.86925,0.04356,0.44114,1.43992,0.3325,0.24911,1.44911,-0.00163,0.49926,1.14307,0.45267,0.2544,1.17947,0.16314,0.60054,1.30464,0.4027,0.47108,1.30234
2860,0.22067,0.36466,1.52264,0.09098,0.57538,0.07648,0.15693,0.11581,0.08466,0.10014,0.53706,0.48462,0.20564,0.2103,0.4749,0.09923,0.40159,0.8668,0.25405,0.28381,0.86928,0.04465,0.43768,1.44039,0.33384,0.24567,1.44912,-0.00138,0.49604,1.14371,0.45458,0.25275,1.17977,0.16367,0.5974,1.30495,0.40363,0.46835,1.30413
2861,0.22217,0.36081,1.52297,0.09085,0.57539,0.0764,0.15713,0.11535,0.08438,0.10035,0.53463,0.4843,0.20645,0.20909,0.47472,0.10051,0.39931,0.86653,0.25535,0.28157,0.86923,0.04559,0.43391,1.44086,0.33512,0.24287,1.44926,-0.00101,0.49291,1.1444,0.45657,0.25121,1.18026,0.16447,0.59405,1.30534,0.40442,0.4659,1.30571
2862,0.22336,0.35694,1.52325,0.09074,0.5752,0.07637,0.15737,0.11483,0.08415,0.10062,0.532,0.48401,0.20759,0.20795,0.47452,0.10162,0.39693,0.86633,0.25674,0.27957,0.86916,0.04633,0.42965,1.44102,0.33628,0.24068,1.44936,-0.00072,0.4901,1.14492,0.45853,0.24973,1.18075,0.1651,0.5905,1.30598,0.40501,0.46346,1.30725
2863,0.22428,0.35336,1.52326,0.09073,0.57489,0.07641,0.1575,0.11448,0.08394,0.10101,0.52917,0.48377,0.20899,0.20681,0.47433,0.1027,0.39448,0.86622,0.2583,0.27775,0.86908,0.04696,0.42512,1.44076,0.33754,0.23863,1.44932,-0.00063,0.48757,1.14516,0.46057,0.24833,1.1811,0.1651,0.58685,1.30701,0.4055,0.4609,1.30888
2864,0.22501,0.35014,1.52302,0.09075,0.57455,0.07648,0.15751,0.11434,0.0837,0.10149,0.52633,0.48354,0.2104,0.20579,0.47412,0.10391,0.39197,0.8661,0.26005,0.27596,0.86896,0.04759,0.42055,1.44017,0.33913,0.23627,1.44923,-0.00067,0.48523,1.14516,0.46278,0.24715,1.18133,0.16427,0.5834,1.30848,0.40611,0.4584,1.3106
2865,0.22569,0.3471,1.52275,0.09065,0.5743,0.07655,0.15756,0.11421,0.08345,0.10194,0.52374,0.48331,0.21158,0.20511,0.47384,0.10526,0.38949,0.8659,0.2618,0.27402,0.86882,0.04829,0.41611,1.43956,0.34097,0.23352,1.44925,-0.00069,0.48313,1.1452,0.46509,0.24635,1.18166,0.16283,0.58054,1.31039,0.40694,0.45632,1.31233
2866,0.22641,0.34396,1.52266,0.09044,0.57417,0.07658,0.15773,0.11393,0.08326,0.10219,0.52145,0.48305,0.21242,0.20491,0.47353,0.10655,0.38711,0.8656,0.2633,0.27194,0.86876,0.04909,0.41196,1.43927,0.34261,0.23056,1.4494,-0.00061,0.4813,1.14556,0.46733,0.24597,1.18222,0.1612,0.5784,1.31261,0.40779,0.45484,1.31404
2867,0.22718,0.34069,1.52269,0.09028,0.57415,0.07664,0.15792,0.11364,0.08313,0.10218,0.51935,0.48283,0.21297,0.20502,0.47326,0.10757,0.38489,0.86532,0.26447,0.26992,0.86876,0.04994,0.40819,1.4394,0.34384,0.22756,1.44954,-0.00041,0.47956,1.14629,0.46941,0.24601,1.18295,0.15983,0.57669,1.31483,0.40834,0.45387,1.31565
2868,0.22802,0.3375,1.52262,0.09017,0.57418,0.0768,0.15793,0.11354,0.08294,0.102,0.51735,0.48272,0.21339,0.205,0.47299,0.10828,0.38283,0.86518,0.26537,0.26813,0.86872,0.05071,0.4046,1.43983,0.34488,0.22472,1.44954,-0.00029,0.47762,1.14724,0.47137,0.24638,1.18363,0.15878,0.57501,1.31674,0.40859,0.4532,1.31715
2869,0.22893,0.33454,1.52231,0.08993,0.57424,0.07709,0.15771,0.11356,0.08261,0.10178,0.51553,0.48273,0.21385,0.20453,0.47268,0.1088,0.38089,0.86514,0.26611,0.26648,0.86856,0.05124,0.40086,1.44039,0.34612,0.22231,1.44936,-0.00059,0.47528,1.14829,0.47328,0.24698,1.18403,0.15775,0.57304,1.31826,0.40883,0.45257,1.31865
2870,0.22986,0.33174,1.52187,0.08946,0.57426,0.07737,0.1574,0.1135,0.08226,0.10161,0.51392,0.48277,0.21437,0.20367,0.47239,0.10931,0.37899,0.86506,0.26681,0.26485,0.86837,0.05149,0.39705,1.44088,0.34775,0.22044,1.44906,-0.00136,0.47271,1.14929,0.47522,0.24767,1.18413,0.15645,0.57067,1.31963,0.40927,0.45173,1.32035
2871,0.23068,0.32899,1.52154,0.08897,0.57413,0.07759,0.15721,0.11335,0.08207,0.10157,0.51237,0.48275,0.2149,0.20275,0.47228,0.10998,0.37708,0.86491,0.26766,0.2632,0.86833,0.05173,0.39354,1.44108,0.34954,0.21891,1.44868,-0.00206,0.47039,1.14998,0.47723,0.24842,1.1841,0.15496,0.56816,1.32115,0.40971,0.45059,1.32235
2872,0.23127,0.32629,1.52152,0.08866,0.5739,0.07777,0.1572,0.11325,0.08209,0.10164,0.51065,0.4827,0.21543,0.20193,0.47238,0.11075,0.37517,0.86476,0.26866,0.26161,0.86848,0.05223,0.39051,1.4408,0.3511,0.21738,1.44824,-0.00201,0.46883,1.15017,0.47929,0.24921,1.18418,0.15363,0.56597,1.32296,0.40988,0.44933,1.32446
2873,0.23167,0.32365,1.52174,0.08854,0.57373,0.07801,0.15727,0.1132,0.08216,0.10174,0.50871,0.48265,0.216,0.20122,0.47252,0.11151,0.37333,0.86473,0.26967,0.26013,0.86867,0.05305,0.38768,1.4402,0.35216,0.21564,1.44772,-0.00115,0.46795,1.15009,0.4813,0.25003,1.18444,0.15279,0.56412,1.32493,0.40989,0.44831,1.32633
2874,0.23212,0.32109,1.52202,0.08851,0.57379,0.0783,0.15732,0.11314,0.08214,0.10179,0.50679,0.48261,0.21657,0.20056,0.47256,0.1122,0.37173,0.86479,0.27057,0.25882,0.86877,0.05398,0.38469,1.43962,0.35296,0.21379,1.44721,-0.00013,0.4672,1.15013,0.48317,0.25089,1.18483,0.1524,0.5622,1.32683,0.41005,0.44771,1.32787
2875,0.23277,0.31858,1.52225,0.08844,0.57407,0.07861,0.15739,0.11305,0.08203,0.10182,0.50518,0.4826,0.21703,0.19992,0.47251,0.11284,0.37052,0.8649,0.27133,0.25776,0.86874,0.0547,0.3815,1.43933,0.35402,0.2121,1.44682,0.00039,0.46614,1.15049,0.48488,0.25188,1.18515,0.15205,0.5599,1.3286,0.41041,0.44737,1.32932
2876,0.23359,0.31617,1.52243,0.08819,0.57428,0.07894,0.15759,0.11297,0.08188,0.1019,0.50392,0.48267,0.21727,0.19929,0.47249,0.11341,0.36956,0.86507,0.27202,0.25696,0.86867,0.05499,0.3783,1.43934,0.35569,0.2108,1.4466,0.00042,0.46486,1.15112,0.48644,0.253,1.18525,0.15147,0.55742,1.33037,0.41073,0.44697,1.33082
2877,0.23445,0.31386,1.52255,0.0877,0.57419,0.07931,0.15796,0.11288,0.08175,0.10199,0.50276,0.48283,0.21739,0.19872,0.4725,0.11384,0.36851,0.86525,0.27271,0.25628,0.86862,0.05494,0.37511,1.43953,0.35771,0.20991,1.44648,0.0003,0.46361,1.15192,0.48777,0.25398,1.1851,0.15075,0.55522,1.33216,0.41088,0.44633,1.3322
2878,0.23532,0.31158,1.5226,0.08706,0.57386,0.07969,0.15837,0.11275,0.08164,0.10199,0.50145,0.48301,0.21761,0.19826,0.47249,0.11411,0.36717,0.86542,0.27337,0.2555,0.86859,0.05493,0.37187,1.4398,0.35954,0.20924,1.4464,0.00021,0.46229,1.1528,0.48884,0.25461,1.18487,0.15003,0.5535,1.33377,0.41093,0.44554,1.33326
2879,0.23635,0.3093,1.52257,0.08649,0.5735,0.08007,0.1586,0.11259,0.08159,0.10192,0.49995,0.48317,0.21797,0.19791,0.47246,0.11433,0.36569,0.86557,0.27397,0.25455,0.86862,0.05528,0.36874,1.44014,0.36085,0.20845,1.44633,0.00013,0.46056,1.15366,0.48974,0.25508,1.18481,0.14932,0.55193,1.33507,0.41098,0.4449,1.33417
2880,0.23755,0.3072,1.52249,0.08616,0.57322,0.08051,0.15859,0.11242,0.08161,0.10186,0.49851,0.48338,0.21831,0.19758,0.47246,0.11458,0.36427,0.86579,0.27453,0.25359,0.86868,0.05593,0.36599,1.44059,0.3618,0.20733,1.44622,-2e-05,0.45827,1.15442,0.49053,0.25582,1.18496,0.14855,0.55009,1.3361,0.41113,0.44458,1.33532
2881,0.2387,0.30545,1.5224,0.08608,0.57306,0.08105,0.15843,0.11232,0.0816,0.10186,0.49734,0.48374,0.21844,0.19725,0.47246,0.11479,0.36303,0.86611,0.27505,0.25279,0.86869,0.05665,0.36374,1.44118,0.36267,0.20602,1.44609,-0.00021,0.45565,1.15506,0.49113,0.25689,1.18516,0.14772,0.54789,1.33706,0.41145,0.44441,1.33693
2882,0.23947,0.30403,1.52228,0.08612,0.57302,0.08167,0.15828,0.11236,0.08148,0.10183,0.49648,0.4842,0.21839,0.19699,0.47239,0.11492,0.36194,0.86649,0.27546,0.25209,0.86861,0.05731,0.36186,1.44186,0.36367,0.2048,1.44598,-0.00036,0.45305,1.15568,0.49155,0.25804,1.18524,0.14691,0.54551,1.3381,0.41189,0.44412,1.33876
2883,0.23982,0.30271,1.52214,0.08617,0.57306,0.08225,0.15823,0.11251,0.0813,0.10165,0.49574,0.48464,0.21831,0.19689,0.47227,0.11495,0.36086,0.8668,0.27572,0.25134,0.86853,0.05791,0.36008,1.44256,0.36492,0.20371,1.44585,-0.00044,0.45067,1.15632,0.49204,0.25919,1.18519,0.14622,0.54322,1.33919,0.41224,0.44373,1.34051
2884,0.24006,0.30131,1.52201,0.08617,0.57317,0.08273,0.15826,0.11265,0.08123,0.1013,0.49497,0.48496,0.2184,0.19694,0.4722,0.11494,0.35974,0.86698,0.27589,0.25048,0.86858,0.05829,0.35813,1.44312,0.36633,0.20258,1.44562,-0.00044,0.44849,1.15689,0.4928,0.26053,1.18519,0.14563,0.54123,1.34013,0.41226,0.44346,1.34202
2885,0.24051,0.29982,1.52193,0.08605,0.57336,0.08315,0.15834,0.11271,0.08134,0.10088,0.49423,0.48521,0.21872,0.19696,0.47229,0.11499,0.35874,0.86712,0.2761,0.2497,0.86879,0.05834,0.3559,1.44341,0.36766,0.20148,1.4453,-0.00035,0.44629,1.15718,0.4937,0.26204,1.18525,0.14501,0.53959,1.3407,0.41188,0.44346,1.34317
2886,0.24124,0.29843,1.52186,0.08579,0.57356,0.08354,0.15844,0.1127,0.08157,0.10047,0.49372,0.48547,0.2191,0.1968,0.4725,0.11514,0.358,0.86727,0.27642,0.24922,0.86905,0.05819,0.35353,1.44346,0.36876,0.20077,1.44503,-0.00023,0.44388,1.15717,0.49435,0.26341,1.18527,0.14428,0.53806,1.34091,0.41122,0.4437,1.34379
2887,0.2422,0.2973,1.5218,0.08539,0.57365,0.08399,0.15852,0.11264,0.08176,0.10011,0.49356,0.48586,0.21929,0.19641,0.47275,0.11523,0.35744,0.86751,0.27676,0.24904,0.86925,0.05822,0.35141,1.44342,0.36964,0.20059,1.44492,-0.00016,0.44131,1.15697,0.49454,0.26453,1.18513,0.14346,0.53643,1.34093,0.41052,0.44397,1.34415
2888,0.24325,0.29633,1.52185,0.08488,0.5735,0.08456,0.15848,0.11255,0.08187,0.09982,0.49369,0.48648,0.21924,0.196,0.47293,0.11509,0.35685,0.86786,0.27695,0.24894,0.86936,0.05862,0.34983,1.44345,0.37043,0.20069,1.44489,-0.0002,0.4388,1.15681,0.49434,0.26565,1.18488,0.14268,0.53468,1.34095,0.40996,0.44411,1.3448
2889,0.24425,0.29528,1.52213,0.08423,0.57314,0.08524,0.15824,0.11247,0.08195,0.0996,0.49393,0.48726,0.21905,0.19573,0.47304,0.11474,0.35607,0.86829,0.27696,0.24869,0.86943,0.05921,0.34859,1.44362,0.37121,0.20069,1.44482,-0.00043,0.43644,1.1568,0.49398,0.26691,1.18459,0.14193,0.53291,1.34103,0.40956,0.44415,1.34584
2890,0.24519,0.29409,1.52259,0.08344,0.57263,0.08589,0.15788,0.1124,0.08202,0.09932,0.49412,0.48803,0.21887,0.1956,0.4731,0.1144,0.35516,0.86866,0.27692,0.24824,0.86951,0.05972,0.34728,1.44391,0.37202,0.20046,1.44465,-0.00092,0.43399,1.15695,0.49366,0.26817,1.18428,0.14108,0.53111,1.34112,0.40916,0.44423,1.34678
2891,0.24615,0.29299,1.52304,0.08252,0.57199,0.08641,0.15762,0.11237,0.08208,0.09892,0.49421,0.48868,0.21875,0.19552,0.47314,0.11422,0.35433,0.86896,0.27694,0.2477,0.8696,0.06006,0.34559,1.44421,0.37285,0.20009,1.44437,-0.00149,0.43133,1.15715,0.49347,0.26937,1.18393,0.1402,0.52929,1.34111,0.40863,0.44443,1.34734
2892,0.24707,0.29224,1.52327,0.08148,0.57116,0.08683,0.15763,0.11234,0.08213,0.09843,0.49424,0.48923,0.21866,0.19552,0.47321,0.11416,0.35378,0.86928,0.27697,0.2473,0.8697,0.06037,0.34366,1.44433,0.37373,0.19978,1.44395,-0.00178,0.42874,1.15721,0.49338,0.27075,1.18352,0.13956,0.52757,1.34097,0.40801,0.44471,1.34781
2893,0.24781,0.29187,1.52325,0.08026,0.57008,0.0872,0.15791,0.11225,0.08225,0.09804,0.49426,0.48978,0.2186,0.19568,0.47332,0.11403,0.35347,0.86969,0.2769,0.24708,0.86987,0.0608,0.34189,1.44417,0.37475,0.19973,1.44348,-0.00162,0.42654,1.15697,0.49331,0.27249,1.18304,0.13927,0.52602,1.34072,0.40733,0.44506,1.34849
2894,0.24841,0.29167,1.5231,0.07894,0.56877,0.08751,0.15832,0.11208,0.08243,0.09783,0.49428,0.49028,0.21862,0.19597,0.47347,0.11375,0.35324,0.87011,0.27668,0.24694,0.8701,0.06142,0.34058,1.44392,0.37591,0.19999,1.44311,-0.00134,0.42457,1.15661,0.4931,0.27448,1.18254,0.13912,0.52465,1.34037,0.40657,0.44549,1.34932
2895,0.24906,0.29149,1.52298,0.0777,0.56729,0.08771,0.1587,0.11189,0.08264,0.09756,0.49426,0.49071,0.21878,0.19627,0.4736,0.11343,0.35303,0.87046,0.27639,0.24678,0.87036,0.06206,0.33967,1.444,0.37701,0.20038,1.44288,-0.00132,0.42244,1.15647,0.49263,0.27646,1.18207,0.13883,0.52346,1.33996,0.40561,0.44598,1.3501
2896,0.24969,0.29134,1.52291,0.07677,0.56571,0.08783,0.15899,0.11183,0.08278,0.09695,0.49426,0.49109,0.21905,0.19648,0.47369,0.11316,0.35286,0.87077,0.27608,0.24656,0.87058,0.06245,0.33899,1.4446,0.37781,0.20069,1.44269,-0.00158,0.42011,1.15674,0.49204,0.27829,1.18171,0.13838,0.52253,1.3396,0.40452,0.44652,1.35079
2897,0.25006,0.29128,1.52289,0.07625,0.56413,0.08794,0.15923,0.11195,0.08282,0.096,0.49428,0.4915,0.21924,0.19661,0.47374,0.11289,0.35279,0.87112,0.27574,0.24638,0.87075,0.06252,0.33855,1.44552,0.37825,0.20087,1.44242,-0.00186,0.41783,1.15723,0.49151,0.27998,1.18148,0.13791,0.52183,1.33933,0.40357,0.44715,1.35138
2898,0.25018,0.29126,1.52297,0.07602,0.56266,0.08802,0.15948,0.11218,0.0828,0.09505,0.49418,0.49186,0.21919,0.19672,0.47378,0.11257,0.35285,0.87151,0.27537,0.24636,0.87085,0.06245,0.33831,1.44634,0.37853,0.20103,1.44212,-0.00202,0.41578,1.15757,0.491,0.28149,1.18125,0.13754,0.52119,1.33903,0.40298,0.44789,1.35187
2899,0.2504,0.29131,1.52311,0.07585,0.5613,0.08796,0.15965,0.11236,0.08273,0.09437,0.49383,0.49199,0.21888,0.19689,0.47379,0.1122,0.35312,0.87186,0.27493,0.24653,0.87088,0.06242,0.33815,1.4469,0.3789,0.20129,1.44186,-0.00221,0.4138,1.15769,0.49033,0.2828,1.18087,0.13717,0.52059,1.33848,0.40258,0.44869,1.35212
2900,0.25088,0.29161,1.52319,0.07554,0.55999,0.08774,0.15962,0.11244,0.08265,0.09392,0.49333,0.49191,0.21853,0.19719,0.47371,0.11176,0.35362,0.87214,0.27434,0.2468,0.87084,0.06256,0.33796,1.44738,0.3795,0.20173,1.44168,-0.0027,0.41159,1.15779,0.48953,0.28399,1.18033,0.13655,0.52004,1.33769,0.40203,0.44949,1.35208
2901,0.25145,0.29223,1.5231,0.07497,0.55864,0.08744,0.15945,0.11247,0.08261,0.09357,0.49297,0.49177,0.21835,0.19772,0.47356,0.11128,0.35428,0.87238,0.2736,0.24706,0.8708,0.06292,0.33777,1.44799,0.38022,0.20242,1.44155,-0.00361,0.40925,1.15815,0.48873,0.28515,1.17972,0.13554,0.51957,1.33698,0.40127,0.45026,1.35187
2902,0.25181,0.29292,1.52289,0.07413,0.55721,0.08718,0.1593,0.11252,0.08263,0.09327,0.49288,0.4917,0.21842,0.1984,0.47342,0.11081,0.35498,0.8726,0.27286,0.24736,0.87082,0.06339,0.33774,1.44872,0.3808,0.20328,1.44146,-0.00478,0.40733,1.15881,0.48801,0.28627,1.17917,0.13428,0.51927,1.33669,0.40051,0.45099,1.35167
2903,0.25185,0.29336,1.52267,0.07313,0.55568,0.08697,0.15923,0.11263,0.0827,0.09308,0.49291,0.49168,0.2186,0.19906,0.47332,0.1104,0.35562,0.87282,0.27226,0.24772,0.87086,0.06382,0.33804,1.44952,0.38106,0.20418,1.4414,-0.00605,0.40622,1.15968,0.4873,0.28722,1.17873,0.1332,0.51924,1.33674,0.39992,0.45167,1.35155
2904,0.25174,0.29354,1.52249,0.07213,0.55398,0.0867,0.15917,0.11275,0.08276,0.09298,0.49283,0.49162,0.21873,0.19959,0.47327,0.11001,0.35611,0.87298,0.2718,0.2481,0.87091,0.06405,0.33876,1.45035,0.38102,0.20495,1.44129,-0.0072,0.40575,1.16056,0.48656,0.288,1.17834,0.13254,0.51955,1.33674,0.39943,0.45232,1.35141
2905,0.25167,0.29375,1.52236,0.07131,0.55206,0.08627,0.15914,0.11281,0.08282,0.09282,0.49256,0.4914,0.21873,0.20001,0.47324,0.10954,0.35645,0.87298,0.27134,0.24847,0.87095,0.06397,0.33978,1.451,0.38086,0.2056,1.44103,-0.00809,0.40556,1.16113,0.48582,0.28873,1.17788,0.13204,0.52018,1.33646,0.39897,0.45295,1.35118
2906,0.25166,0.29426,1.52229,0.07072,0.54995,0.08566,0.15924,0.11277,0.08291,0.0925,0.49212,0.49102,0.21868,0.20042,0.47325,0.10893,0.35669,0.87286,0.2708,0.2488,0.87103,0.06366,0.34085,1.45119,0.3807,0.20615,1.44063,-0.00876,0.40539,1.16114,0.48501,0.28951,1.17729,0.13122,0.52101,1.33593,0.39852,0.45361,1.35089
2907,0.2516,0.29503,1.52237,0.07021,0.54779,0.08504,0.15948,0.1126,0.08305,0.09211,0.49163,0.49063,0.21862,0.20092,0.47328,0.10829,0.35692,0.87273,0.2702,0.24909,0.87116,0.06332,0.34172,1.45089,0.38059,0.20661,1.4402,-0.00946,0.40523,1.1607,0.48402,0.29044,1.17666,0.13001,0.52189,1.33521,0.398,0.4545,1.35053
2908,0.25146,0.29586,1.5226,0.06956,0.54574,0.08459,0.15969,0.11238,0.08321,0.09183,0.49127,0.49039,0.2185,0.20151,0.47331,0.10779,0.35724,0.87274,0.26971,0.24942,0.87127,0.063,0.34238,1.4504,0.38048,0.2071,1.43989,-0.01033,0.40533,1.16022,0.48284,0.29155,1.17614,0.12881,0.5227,1.33451,0.39718,0.45578,1.35002
2909,0.25138,0.29672,1.52286,0.06878,0.54388,0.08427,0.15973,0.11219,0.08329,0.09175,0.4911,0.49025,0.21826,0.20214,0.47325,0.10742,0.35772,0.87285,0.26938,0.24995,0.87123,0.06257,0.34305,1.45009,0.38021,0.20785,1.43977,-0.01136,0.40599,1.16007,0.48162,0.29274,1.1758,0.12791,0.52352,1.33415,0.39601,0.45736,1.34934
2910,0.2514,0.29772,1.52295,0.06816,0.54228,0.08396,0.15964,0.11214,0.08322,0.0917,0.49095,0.4901,0.21795,0.2028,0.47304,0.10707,0.35835,0.87297,0.26914,0.25077,0.87099,0.06197,0.34389,1.45008,0.37966,0.20899,1.43976,-0.01249,0.40719,1.16027,0.48059,0.29385,1.17558,0.12712,0.52466,1.33412,0.3948,0.45891,1.34861
2911,0.25127,0.29894,1.52277,0.06799,0.54102,0.08356,0.15962,0.11231,0.08302,0.09151,0.4906,0.48981,0.21764,0.20359,0.47275,0.10668,0.3591,0.87307,0.26891,0.25176,0.87066,0.06127,0.34495,1.45023,0.3789,0.21046,1.4397,-0.0137,0.40844,1.1606,0.47975,0.29488,1.17535,0.12605,0.52643,1.33398,0.3938,0.46022,1.34805
2912,0.25067,0.3003,1.52236,0.06824,0.5402,0.08304,0.15971,0.11267,0.08286,0.09125,0.49006,0.48936,0.21739,0.20446,0.47251,0.10625,0.35991,0.87309,0.26861,0.25278,0.87042,0.06062,0.34629,1.45044,0.37816,0.21206,1.43952,-0.0149,0.40936,1.16086,0.47886,0.29615,1.17501,0.12449,0.52885,1.33351,0.39296,0.46137,1.34784
2913,0.24966,0.30166,1.52194,0.06881,0.53989,0.08242,0.15979,0.11304,0.08284,0.09112,0.48952,0.48875,0.21726,0.20529,0.47241,0.10583,0.36081,0.87297,0.26825,0.25378,0.87033,0.06015,0.34794,1.45067,0.3776,0.21355,1.43922,-0.016,0.41013,1.16105,0.47773,0.29777,1.17454,0.12247,0.53162,1.33305,0.39213,0.4626,1.34789
2914,0.24859,0.30286,1.52167,0.06955,0.54009,0.08171,0.15972,0.11319,0.08301,0.09117,0.48922,0.48801,0.21731,0.20603,0.47243,0.10542,0.36188,0.87271,0.26785,0.25484,0.87036,0.05978,0.3498,1.45084,0.37717,0.21472,1.4389,-0.01698,0.41115,1.16121,0.47642,0.2994,1.17403,0.12023,0.5344,1.33296,0.39136,0.46396,1.3479
2915,0.24771,0.30387,1.52158,0.07024,0.54068,0.081,0.15949,0.11316,0.08331,0.09128,0.48929,0.48727,0.21744,0.20664,0.47253,0.105,0.36316,0.87238,0.26737,0.25603,0.87046,0.05927,0.35167,1.45098,0.37665,0.21561,1.43864,-0.01802,0.41257,1.1614,0.47517,0.30061,1.1736,0.11813,0.537,1.33314,0.39085,0.46535,1.34766
2916,0.24699,0.30486,1.52154,0.07064,0.54134,0.08041,0.15915,0.1132,0.08361,0.09127,0.48973,0.48667,0.21744,0.20713,0.47266,0.10452,0.36449,0.8721,0.26683,0.25726,0.87057,0.05851,0.35341,1.45112,0.37588,0.21647,1.43847,-0.01936,0.41433,1.16169,0.4742,0.30135,1.17332,0.11641,0.53938,1.33328,0.39063,0.46664,1.34722
2917,0.24629,0.30608,1.52141,0.0708,0.54179,0.07995,0.1588,0.11343,0.08377,0.09115,0.49033,0.48625,0.21728,0.20761,0.47273,0.10396,0.3656,0.87185,0.26629,0.25839,0.87061,0.05763,0.35506,1.45113,0.37487,0.21753,1.43833,-0.02102,0.41657,1.16204,0.47339,0.30199,1.17312,0.115,0.54168,1.33339,0.39042,0.46784,1.34677
2918,0.24553,0.30772,1.52114,0.07103,0.54197,0.07951,0.1586,0.11368,0.08379,0.09098,0.49089,0.48587,0.21708,0.20828,0.47266,0.10333,0.36641,0.87158,0.26575,0.25933,0.87054,0.05675,0.35675,1.45086,0.37376,0.21889,1.43812,-0.02273,0.41957,1.16228,0.47245,0.30302,1.17287,0.11366,0.54416,1.33371,0.38992,0.469,1.34661
2919,0.24478,0.30973,1.52081,0.0715,0.54199,0.07904,0.15871,0.11377,0.08377,0.09089,0.49133,0.48547,0.21696,0.20918,0.47247,0.10263,0.36715,0.87129,0.26514,0.26021,0.87041,0.05582,0.35859,1.45035,0.3727,0.22057,1.4379,-0.02425,0.4233,1.16235,0.47129,0.30469,1.17261,0.1122,0.547,1.33438,0.38908,0.47023,1.34692
2920,0.24414,0.31186,1.52053,0.07208,0.54191,0.07857,0.15903,0.11367,0.08377,0.09096,0.49172,0.48509,0.21699,0.2102,0.47224,0.10191,0.36799,0.87108,0.26448,0.26115,0.87028,0.05476,0.36056,1.4498,0.37174,0.22259,1.43779,-0.02558,0.42746,1.16237,0.4701,0.30691,1.17248,0.11055,0.55012,1.3354,0.38816,0.47174,1.34758
2921,0.2435,0.31382,1.52044,0.07257,0.54172,0.07819,0.15936,0.11352,0.08385,0.09115,0.49212,0.4848,0.21714,0.21124,0.47205,0.10119,0.36898,0.871,0.26382,0.26222,0.87018,0.05361,0.36253,1.44935,0.37082,0.22485,1.43785,-0.02682,0.43195,1.16255,0.46922,0.30919,1.17255,0.10887,0.5534,1.33676,0.38739,0.4736,1.34811
2922,0.24265,0.31547,1.52061,0.07287,0.5415,0.07794,0.15963,0.11337,0.08408,0.09127,0.49256,0.48463,0.21734,0.21232,0.47197,0.10049,0.37007,0.87106,0.26318,0.2634,0.87019,0.05249,0.36442,1.44904,0.36975,0.22707,1.438,-0.02809,0.43686,1.16303,0.46885,0.31099,1.17284,0.10733,0.55691,1.33843,0.38695,0.4756,1.34817
2923,0.24155,0.31702,1.52089,0.073,0.54142,0.0778,0.15986,0.11331,0.08443,0.09127,0.49309,0.48458,0.21752,0.21347,0.47203,0.09974,0.3712,0.8712,0.26245,0.26457,0.87034,0.05151,0.36628,1.44892,0.36844,0.22898,1.43822,-0.0294,0.44209,1.16388,0.46882,0.31214,1.17329,0.10599,0.5608,1.3402,0.38696,0.47745,1.34798
2924,0.24028,0.31875,1.52104,0.07295,0.54155,0.07774,0.16004,0.11348,0.08475,0.09124,0.49375,0.48457,0.21767,0.21469,0.47207,0.09889,0.37237,0.87139,0.26153,0.26563,0.87053,0.05068,0.36819,1.449,0.36695,0.23058,1.43856,-0.03072,0.4472,1.16497,0.46871,0.3129,1.1739,0.10478,0.56503,1.3418,0.38726,0.47907,1.34797
2925,0.23894,0.32068,1.521,0.07274,0.5417,0.07767,0.1601,0.11387,0.08487,0.09122,0.49458,0.48458,0.21778,0.21592,0.47196,0.09808,0.37372,0.87157,0.26047,0.26661,0.87058,0.04986,0.37025,1.44926,0.36548,0.23202,1.43907,-0.032,0.45177,1.16607,0.46814,0.31374,1.17457,0.10351,0.56924,1.34314,0.38739,0.48065,1.34825
2926,0.23761,0.32259,1.521,0.07247,0.54167,0.07756,0.16005,0.11433,0.08484,0.09123,0.4956,0.48458,0.21777,0.21716,0.47172,0.09741,0.37527,0.87174,0.25946,0.26764,0.87047,0.04889,0.37258,1.44962,0.36429,0.23338,1.4396,-0.03325,0.45586,1.16702,0.46722,0.31502,1.17519,0.10203,0.57311,1.34441,0.38701,0.48241,1.34866
2927,0.2364,0.32441,1.52128,0.07234,0.5415,0.07743,0.16004,0.11468,0.08487,0.09122,0.49677,0.48459,0.21768,0.21843,0.47152,0.0968,0.37687,0.8719,0.25858,0.26884,0.87036,0.04773,0.37513,1.45001,0.36336,0.23473,1.44,-0.03451,0.45996,1.16791,0.46637,0.31674,1.17573,0.1005,0.5766,1.34591,0.38644,0.48431,1.34916
2928,0.23532,0.32636,1.52172,0.07244,0.54137,0.0773,0.16017,0.11493,0.0851,0.09117,0.49802,0.48461,0.21766,0.21971,0.47149,0.09604,0.37841,0.87202,0.25774,0.27026,0.87039,0.04651,0.37776,1.4504,0.36226,0.2362,1.44031,-0.03579,0.46457,1.16892,0.46577,0.3186,1.17635,0.09922,0.57993,1.34775,0.38622,0.48617,1.34996
2929,0.23423,0.32866,1.52203,0.07265,0.54136,0.07719,0.16045,0.1152,0.08553,0.09112,0.49931,0.48465,0.21785,0.22104,0.47165,0.09507,0.37993,0.87214,0.25678,0.2718,0.87064,0.04538,0.3805,1.4508,0.3606,0.23791,1.44067,-0.03709,0.46965,1.1701,0.4652,0.3204,1.17717,0.09829,0.58331,1.34974,0.38641,0.48796,1.35112
2930,0.23297,0.33118,1.52206,0.07276,0.54141,0.07717,0.16074,0.11559,0.08606,0.09116,0.50066,0.48477,0.21817,0.2225,0.47188,0.09407,0.38157,0.87235,0.25567,0.27327,0.87101,0.04445,0.38353,1.45129,0.35849,0.2398,1.44113,-0.03841,0.47487,1.1714,0.46446,0.32225,1.17817,0.09747,0.5869,1.35168,0.38653,0.48993,1.3524
2931,0.23155,0.33366,1.52194,0.07268,0.54151,0.0773,0.16087,0.11601,0.08659,0.09126,0.5021,0.48502,0.21846,0.22423,0.47202,0.0932,0.38334,0.87271,0.25445,0.27452,0.87135,0.04367,0.38687,1.45187,0.3564,0.24164,1.44163,-0.03973,0.48004,1.17276,0.46357,0.32435,1.17924,0.0965,0.59079,1.35355,0.3863,0.49226,1.35354
2932,0.23016,0.33606,1.52184,0.07249,0.54165,0.07752,0.1608,0.11629,0.08709,0.09124,0.50357,0.48536,0.21865,0.22625,0.47199,0.09239,0.38508,0.87314,0.2532,0.27562,0.87156,0.04287,0.39034,1.45243,0.35463,0.24322,1.44208,-0.04105,0.48528,1.17408,0.4627,0.32668,1.18029,0.09535,0.59497,1.3554,0.38592,0.49479,1.35461
2933,0.22893,0.33848,1.52186,0.07235,0.54182,0.0777,0.16074,0.11638,0.08759,0.09092,0.50498,0.48567,0.21877,0.22845,0.47185,0.09146,0.38664,0.87349,0.25196,0.27672,0.87167,0.04182,0.39355,1.45277,0.3531,0.24469,1.44248,-0.04238,0.49071,1.17526,0.46185,0.32909,1.18128,0.09409,0.59928,1.3572,0.38561,0.49718,1.35585
2934,0.22778,0.34086,1.52211,0.07235,0.54195,0.07772,0.16091,0.11643,0.08815,0.09033,0.5062,0.48581,0.21891,0.23062,0.47179,0.09044,0.388,0.87368,0.25082,0.2779,0.87183,0.04031,0.39625,1.45284,0.35154,0.24638,1.44292,-0.04366,0.49626,1.17627,0.46094,0.3315,1.18222,0.09286,0.60349,1.35897,0.38533,0.49929,1.35736
2935,0.22649,0.34309,1.52262,0.07237,0.54204,0.07758,0.16128,0.11664,0.08881,0.08971,0.50716,0.48576,0.21913,0.23264,0.47193,0.08949,0.38926,0.87372,0.24983,0.27912,0.87216,0.03838,0.39866,1.45278,0.34983,0.2484,1.44347,-0.04472,0.50197,1.17716,0.45991,0.3339,1.18319,0.09186,0.6075,1.36081,0.38491,0.50125,1.35901
2936,0.2249,0.34518,1.5233,0.07231,0.5421,0.07737,0.16161,0.11709,0.08953,0.08933,0.50785,0.48563,0.21946,0.2345,0.47222,0.08866,0.39054,0.87377,0.24898,0.28034,0.87262,0.03642,0.40133,1.45279,0.348,0.25047,1.44413,-0.04534,0.50794,1.17803,0.4589,0.33628,1.1843,0.09132,0.61138,1.3628,0.38438,0.50323,1.3607
2937,0.22303,0.34729,1.524,0.0723,0.54211,0.07722,0.16185,0.11764,0.09022,0.08919,0.5084,0.48552,0.21991,0.23626,0.47251,0.08789,0.39188,0.8739,0.24818,0.28163,0.87305,0.03482,0.40465,1.45299,0.34618,0.25233,1.44484,-0.04554,0.51408,1.17893,0.4581,0.33862,1.1856,0.09121,0.61531,1.36486,0.38387,0.50527,1.36241
2938,0.22116,0.34962,1.52459,0.07258,0.54214,0.07714,0.16212,0.11809,0.09084,0.08905,0.50904,0.48551,0.22053,0.23801,0.47266,0.0871,0.39332,0.87412,0.24734,0.28301,0.87334,0.03366,0.40853,1.45337,0.34449,0.2541,1.44553,-0.04563,0.52012,1.17987,0.45754,0.34097,1.18698,0.09114,0.6194,1.36682,0.38344,0.50741,1.36404
2939,0.21958,0.35228,1.525,0.07317,0.54227,0.07713,0.16253,0.11841,0.09144,0.08875,0.50997,0.4856,0.22132,0.23985,0.47272,0.08624,0.39492,0.87441,0.24635,0.28442,0.87357,0.03269,0.41244,1.45381,0.34289,0.25595,1.44615,-0.0461,0.52586,1.18091,0.45703,0.34336,1.18825,0.09075,0.62353,1.36865,0.38299,0.5097,1.36544
2940,0.21836,0.35513,1.52529,0.07384,0.54246,0.07724,0.163,0.11876,0.09211,0.0884,0.51111,0.48582,0.2222,0.24183,0.47281,0.08527,0.39669,0.87481,0.24511,0.28581,0.87384,0.03169,0.41579,1.45423,0.3412,0.25781,1.44663,-0.04722,0.53124,1.18222,0.4564,0.34579,1.18941,0.09,0.62745,1.37044,0.38245,0.51218,1.36658
2941,0.21731,0.35782,1.52559,0.07426,0.5426,0.07745,0.16345,0.11922,0.09283,0.08814,0.51208,0.48612,0.22304,0.24389,0.47294,0.08408,0.39848,0.87533,0.24364,0.2872,0.87418,0.03066,0.41844,1.4547,0.33933,0.25951,1.44704,-0.04874,0.53621,1.18384,0.45556,0.34822,1.19053,0.08915,0.63098,1.3723,0.38183,0.51475,1.36767
2942,0.21617,0.36013,1.52601,0.07432,0.54261,0.07763,0.16389,0.11972,0.09349,0.08802,0.51262,0.48634,0.22381,0.24587,0.47307,0.08266,0.40012,0.87587,0.2421,0.28866,0.87447,0.02958,0.42086,1.45535,0.33747,0.26105,1.4475,-0.05007,0.54085,1.18554,0.45454,0.35059,1.19166,0.08844,0.63419,1.37426,0.38121,0.51714,1.36894
2943,0.2147,0.36219,1.52648,0.07421,0.54256,0.0777,0.16442,0.12016,0.09409,0.08798,0.51286,0.48643,0.22454,0.24772,0.47317,0.08122,0.40164,0.8763,0.24068,0.29021,0.87469,0.0283,0.42361,1.45625,0.33585,0.26257,1.44804,-0.05084,0.54533,1.18707,0.4535,0.35282,1.19271,0.08786,0.63734,1.37631,0.38072,0.51917,1.37041
2944,0.21283,0.36435,1.52686,0.07417,0.5425,0.07769,0.16508,0.12054,0.09475,0.08784,0.51317,0.48645,0.22535,0.24953,0.47332,0.07997,0.40313,0.87664,0.23952,0.29183,0.87494,0.02674,0.42683,1.45728,0.33437,0.26426,1.44865,-0.05113,0.54981,1.1883,0.45258,0.35484,1.1937,0.08733,0.64057,1.37831,0.38037,0.52086,1.37194
2945,0.21079,0.36684,1.52712,0.07431,0.54246,0.07769,0.16579,0.12088,0.09562,0.08743,0.5137,0.48651,0.22638,0.25147,0.47359,0.07897,0.40466,0.87696,0.23862,0.29351,0.8753,0.02515,0.43038,1.45819,0.33268,0.26624,1.44932,-0.05128,0.55429,1.18922,0.45173,0.35676,1.19474,0.08685,0.64384,1.38005,0.38006,0.52251,1.37346
2946,0.20893,0.36959,1.52739,0.07452,0.54247,0.07774,0.16641,0.12124,0.09664,0.08672,0.51437,0.48664,0.22756,0.25358,0.47391,0.07805,0.40625,0.87734,0.23779,0.29523,0.87572,0.02385,0.43407,1.45874,0.33061,0.26846,1.45007,-0.05145,0.55896,1.1899,0.45072,0.35875,1.19591,0.08657,0.64721,1.38141,0.37966,0.52438,1.37498
2947,0.20737,0.37237,1.52777,0.07459,0.54262,0.07779,0.16691,0.12165,0.09759,0.08587,0.51503,0.48675,0.22857,0.2558,0.47414,0.07706,0.40796,0.87774,0.23679,0.29693,0.87604,0.02284,0.43774,1.45894,0.32828,0.27082,1.45086,-0.05148,0.56412,1.19053,0.44951,0.36084,1.19713,0.08653,0.65093,1.3827,0.37906,0.52646,1.37645
2948,0.20593,0.375,1.52826,0.07438,0.54298,0.0778,0.16736,0.12212,0.09832,0.08503,0.51567,0.4868,0.22918,0.25795,0.47423,0.07598,0.40977,0.87809,0.23558,0.29855,0.87622,0.02185,0.44125,1.45906,0.32597,0.27322,1.45168,-0.05124,0.56969,1.19129,0.44823,0.36281,1.1983,0.08658,0.65498,1.38428,0.37827,0.52846,1.37778
2949,0.20446,0.37742,1.52878,0.07394,0.54351,0.07778,0.16787,0.12259,0.09891,0.08427,0.51624,0.48678,0.22952,0.25995,0.47429,0.07488,0.41147,0.87838,0.23428,0.29997,0.87637,0.02069,0.44462,1.4594,0.32394,0.2756,1.45254,-0.051,0.57503,1.1922,0.44703,0.36458,1.19935,0.08653,0.6589,1.38602,0.37744,0.5302,1.379
2950,0.20286,0.37975,1.5293,0.07336,0.54401,0.0778,0.16852,0.12299,0.09957,0.08357,0.5166,0.4868,0.22993,0.26178,0.47447,0.07374,0.41287,0.87866,0.23301,0.30117,0.87662,0.0194,0.44796,1.46002,0.32231,0.27787,1.45342,-0.05114,0.57959,1.19312,0.44593,0.36633,1.20031,0.08633,0.6623,1.38748,0.3767,0.53182,1.38021
2951,0.20103,0.38215,1.52975,0.07281,0.54426,0.07793,0.16934,0.12332,0.10038,0.08285,0.51668,0.48692,0.23056,0.26344,0.47482,0.07249,0.41394,0.87902,0.23176,0.30224,0.87704,0.01809,0.45113,1.46068,0.32097,0.28006,1.45427,-0.05161,0.5835,1.19392,0.44491,0.36825,1.20122,0.08617,0.66533,1.38843,0.37599,0.53355,1.38141
2952,0.19909,0.38473,1.53003,0.07244,0.54425,0.07807,0.17015,0.12369,0.10128,0.08204,0.51659,0.48706,0.23128,0.26498,0.47529,0.0712,0.41489,0.87943,0.23058,0.30337,0.87755,0.01679,0.45394,1.46117,0.31965,0.28231,1.45503,-0.05198,0.5872,1.19461,0.44396,0.37032,1.20208,0.08619,0.66836,1.38912,0.37519,0.53543,1.38251
2953,0.19732,0.3874,1.53013,0.07234,0.54412,0.07804,0.17077,0.12421,0.10214,0.08113,0.51656,0.48706,0.23192,0.26645,0.47579,0.07006,0.41596,0.8797,0.2296,0.30466,0.87806,0.01537,0.45638,1.46146,0.31817,0.28473,1.45568,-0.05193,0.59086,1.19514,0.44313,0.37236,1.20293,0.08639,0.67144,1.38979,0.37431,0.5373,1.38349
2954,0.19583,0.38992,1.5303,0.0724,0.54408,0.07778,0.17121,0.12488,0.10291,0.08018,0.51673,0.48683,0.23248,0.26783,0.47627,0.06923,0.41721,0.87976,0.22891,0.3061,0.87852,0.0137,0.45866,1.46168,0.31652,0.28726,1.45626,-0.05156,0.59432,1.19545,0.44246,0.37428,1.20379,0.08662,0.67432,1.39044,0.37348,0.53901,1.38448
