PaulMeinheit/Bachelor_Muay_Thai/processed_Data/E2/teep/sliced/JointPositions/sliced5.csv
Unnamed: 0_level_0,Neck_Joint_Position,Neck_Joint_Position,Neck_Joint_Position,L_ANKLE_POSITION,L_ANKLE_POSITION,L_ANKLE_POSITION,R_ANKLE_POSITION,R_ANKLE_POSITION,R_ANKLE_POSITION,L_KNEE_POSITION,L_KNEE_POSITION,L_KNEE_POSITION,R_KNEE_POSITION,R_KNEE_POSITION,R_KNEE_POSITION,L_HIP_POSITION,L_HIP_POSITION,L_HIP_POSITION,R_HIP_POSITION,R_HIP_POSITION,R_HIP_POSITION,L_SHOULDER_POSITION,L_SHOULDER_POSITION,L_SHOULDER_POSITION,R_SHOULDER_POSITION,R_SHOULDER_POSITION,R_SHOULDER_POSITION,L_ELBOW_POSITION,L_ELBOW_POSITION,L_ELBOW_POSITION,R_ELBOW_POSITION,R_ELBOW_POSITION,R_ELBOW_POSITION,L_WRIST_POSITION,L_WRIST_POSITION,L_WRIST_POSITION,R_WRIST_POSITION,R_WRIST_POSITION,R_WRIST_POSITION
ITEM,X,Y,Z,X,Y,Z,X,Y,Z,X,Y,Z,X,Y,Z,X,Y,Z,X,Y,Z,X,Y,Z,X,Y,Z,X,Y,Z,X,Y,Z,X,Y,Z,X,Y,Z
2208,0.20566,0.23501,1.51134,0.05441,0.51118,0.07839,0.19733,0.0344,0.07863,0.08002,0.4239,0.47821,0.2456,0.15663,0.46114,0.10004,0.28647,0.85917,0.2669,0.18655,0.86356,0.026,0.29321,1.45052,0.33201,0.13396,1.4483,-0.00446,0.44782,1.18839,0.46555,0.27332,1.22487,0.11402,0.51898,1.39914,0.36808,0.41515,1.41177
2209,0.20576,0.23508,1.51134,0.05441,0.51121,0.0783,0.19739,0.03445,0.07873,0.08013,0.42409,0.47815,0.24594,0.15675,0.46118,0.0999,0.28618,0.85895,0.26668,0.18616,0.86366,0.02616,0.29314,1.45067,0.33188,0.13379,1.44877,-0.00545,0.44896,1.1894,0.46708,0.27351,1.22657,0.11365,0.52006,1.39981,0.36857,0.41618,1.41227
2210,0.2056,0.23501,1.51115,0.05431,0.51123,0.07823,0.19745,0.03454,0.07882,0.08015,0.42419,0.47809,0.24617,0.15663,0.46131,0.0998,0.28604,0.85881,0.26644,0.18578,0.86384,0.0257,0.29276,1.45071,0.33191,0.13377,1.4491,-0.00593,0.45052,1.19061,0.46888,0.27415,1.22839,0.11344,0.52117,1.40102,0.36908,0.41728,1.41305
2211,0.20516,0.23484,1.51083,0.05416,0.51126,0.07821,0.19756,0.03464,0.07888,0.0801,0.42422,0.47806,0.24623,0.15632,0.46151,0.09977,0.28596,0.85874,0.26631,0.18555,0.86404,0.0248,0.29233,1.45071,0.33225,0.13391,1.44919,-0.00622,0.45213,1.19178,0.47066,0.27547,1.23014,0.11282,0.52225,1.40256,0.36972,0.41842,1.41432
2212,0.20469,0.23454,1.5106,0.05403,0.51131,0.07818,0.19777,0.03469,0.07891,0.07996,0.42426,0.47803,0.24623,0.15603,0.46168,0.09979,0.28584,0.85864,0.26635,0.18547,0.86419,0.02403,0.29201,1.45067,0.33286,0.13411,1.44921,-0.00682,0.45367,1.19289,0.47223,0.27734,1.23187,0.11153,0.52334,1.4042,0.37041,0.41969,1.41603
2213,0.20441,0.23423,1.51059,0.05398,0.51141,0.07813,0.19801,0.03469,0.07891,0.07978,0.42438,0.47799,0.24633,0.15593,0.46173,0.09988,0.28571,0.8585,0.26655,0.18556,0.86422,0.02384,0.2917,1.45071,0.33356,0.13439,1.44936,-0.00793,0.45515,1.19417,0.47366,0.27943,1.23369,0.10998,0.52466,1.40578,0.37099,0.42111,1.4179
2214,0.20433,0.23409,1.51075,0.05403,0.51148,0.07809,0.1981,0.03468,0.07891,0.07966,0.42457,0.478,0.24657,0.15604,0.46166,0.10001,0.28563,0.85838,0.2669,0.18582,0.86414,0.02432,0.29126,1.45098,0.33415,0.13479,1.44961,-0.00946,0.45656,1.19587,0.47514,0.28148,1.23564,0.10875,0.52632,1.40724,0.37142,0.42261,1.41968
2215,0.20446,0.23412,1.51091,0.05414,0.51143,0.07813,0.19803,0.03465,0.07888,0.07968,0.42493,0.47813,0.24678,0.15629,0.46152,0.10014,0.28551,0.85833,0.26728,0.18612,0.86398,0.02528,0.29081,1.45152,0.33447,0.13532,1.44985,-0.01114,0.45797,1.198,0.47676,0.28344,1.23774,0.10799,0.52814,1.40871,0.37174,0.4242,1.42133
2216,0.20484,0.23415,1.51092,0.05417,0.51131,0.0782,0.198,0.03449,0.07882,0.07968,0.42559,0.47837,0.24679,0.1566,0.4613,0.10022,0.28527,0.85825,0.26758,0.18625,0.86377,0.02645,0.29055,1.45219,0.33449,0.13579,1.45001,-0.01274,0.45966,1.20038,0.47859,0.28535,1.24014,0.10742,0.53,1.41045,0.37199,0.426,1.42289
2217,0.2053,0.23415,1.51072,0.054,0.51129,0.07829,0.19819,0.03418,0.07878,0.07954,0.42658,0.47867,0.24665,0.15705,0.46106,0.1002,0.28499,0.85806,0.2677,0.1862,0.86355,0.02748,0.2904,1.45264,0.33444,0.13611,1.4501,-0.01417,0.46199,1.20291,0.48073,0.28729,1.24293,0.10679,0.53203,1.41262,0.37229,0.42809,1.42448
2218,0.20544,0.23417,1.51034,0.0537,0.51139,0.07838,0.19851,0.0339,0.0788,0.07939,0.42777,0.47898,0.24664,0.1576,0.46085,0.10012,0.28487,0.85788,0.26766,0.18616,0.86338,0.02812,0.29005,1.45262,0.33458,0.13637,1.45016,-0.01555,0.46504,1.20561,0.48307,0.28953,1.24602,0.10607,0.53445,1.41515,0.37266,0.43054,1.42622
2219,0.20505,0.23418,1.50992,0.05345,0.51149,0.07853,0.19875,0.03382,0.07883,0.07947,0.42895,0.47933,0.24693,0.15802,0.46072,0.09999,0.28502,0.85785,0.26749,0.18623,0.86329,0.02842,0.28938,1.45239,0.33497,0.13679,1.45021,-0.01703,0.46844,1.20864,0.48529,0.29238,1.24928,0.10541,0.53727,1.41789,0.37288,0.43341,1.42822
2220,0.20445,0.23415,1.50955,0.05337,0.51149,0.07872,0.19889,0.03388,0.07883,0.07978,0.43017,0.47975,0.24744,0.15805,0.46067,0.09984,0.2853,0.85793,0.26726,0.18637,0.86328,0.02851,0.28863,1.45247,0.33544,0.13743,1.45034,-0.01868,0.47177,1.21211,0.48716,0.29593,1.25275,0.10492,0.54029,1.42077,0.37265,0.43677,1.43051
2221,0.20407,0.23426,1.50925,0.05352,0.51145,0.07891,0.19897,0.03397,0.07882,0.08024,0.43168,0.48023,0.24799,0.15778,0.46073,0.09968,0.28555,0.85796,0.26705,0.18654,0.86334,0.02839,0.28808,1.45299,0.33586,0.13827,1.45056,-0.0204,0.47511,1.21597,0.4887,0.30001,1.25651,0.10451,0.54334,1.42395,0.37199,0.44059,1.43304
2222,0.20396,0.23469,1.50901,0.05383,0.51152,0.07911,0.199,0.03409,0.07889,0.08076,0.43363,0.48079,0.24853,0.15757,0.46083,0.09956,0.28572,0.85786,0.26699,0.18681,0.86344,0.02796,0.28778,1.4536,0.3363,0.13918,1.45078,-0.02198,0.47877,1.22,0.49012,0.30444,1.26049,0.10399,0.54649,1.42751,0.37122,0.44469,1.43582
2223,0.20376,0.23542,1.50881,0.05424,0.51174,0.07934,0.19901,0.03428,0.07898,0.08118,0.43592,0.48141,0.24903,0.15766,0.46089,0.09956,0.28589,0.85766,0.26713,0.18723,0.86349,0.02734,0.28763,1.4539,0.33699,0.14004,1.45093,-0.02328,0.48284,1.22396,0.49156,0.30902,1.26457,0.10331,0.54988,1.43132,0.37069,0.44874,1.43897
2224,0.20319,0.23619,1.50862,0.0547,0.51202,0.07962,0.19906,0.03449,0.07906,0.08129,0.43832,0.48211,0.24945,0.15797,0.46089,0.09967,0.28607,0.85747,0.26739,0.18769,0.86348,0.02685,0.28747,1.4539,0.33802,0.14078,1.45111,-0.02441,0.48703,1.22787,0.4931,0.31346,1.26861,0.10257,0.55351,1.43516,0.37065,0.45238,1.44254
2225,0.20257,0.23675,1.50836,0.05509,0.51227,0.07998,0.19916,0.03456,0.07914,0.08113,0.44085,0.48291,0.24967,0.15826,0.46088,0.09984,0.28628,0.85731,0.2677,0.18815,0.86346,0.02657,0.28708,1.45387,0.33918,0.14156,1.45141,-0.02552,0.49099,1.23196,0.49478,0.31758,1.27258,0.10189,0.55738,1.43902,0.37104,0.45546,1.44641
2226,0.2024,0.23705,1.50797,0.05522,0.51251,0.08047,0.19926,0.03442,0.07928,0.08098,0.44378,0.48389,0.24974,0.1584,0.46093,0.09995,0.28655,0.85717,0.26796,0.18868,0.86347,0.02629,0.28643,1.45402,0.34014,0.14262,1.45176,-0.02657,0.4947,1.23637,0.49655,0.32152,1.27654,0.10129,0.56159,1.44299,0.3715,0.45831,1.45031
2227,0.20282,0.23726,1.50744,0.05513,0.51282,0.08113,0.19932,0.03413,0.07944,0.08097,0.44728,0.48508,0.24984,0.15847,0.46097,0.09979,0.28684,0.85699,0.26803,0.18939,0.86347,0.02594,0.28586,1.45434,0.34076,0.14405,1.45202,-0.02757,0.4984,1.24101,0.49831,0.32565,1.28062,0.10062,0.56611,1.44716,0.37168,0.46143,1.45403
2228,0.20343,0.23763,1.50679,0.05508,0.51325,0.082,0.19932,0.03386,0.07956,0.08087,0.45121,0.4865,0.25002,0.1586,0.46095,0.09926,0.28704,0.8568,0.26788,0.19025,0.8634,0.02576,0.28569,1.45474,0.34115,0.14579,1.45225,-0.0287,0.50226,1.24575,0.49996,0.33009,1.28495,0.09973,0.5706,1.45154,0.3715,0.46515,1.45758
2229,0.20385,0.23836,1.5061,0.05528,0.51372,0.08312,0.19923,0.03373,0.07964,0.08044,0.45532,0.4882,0.2501,0.15875,0.46091,0.09847,0.28713,0.85671,0.26755,0.19114,0.86332,0.02589,0.28581,1.45506,0.34137,0.14759,1.45259,-0.03016,0.50623,1.25057,0.50143,0.33466,1.28961,0.0986,0.57468,1.45612,0.37109,0.46942,1.46106
2230,0.20392,0.23945,1.50554,0.05578,0.51414,0.08447,0.19909,0.03378,0.07971,0.07978,0.45946,0.49014,0.2499,0.15879,0.46099,0.09766,0.28723,0.85679,0.26714,0.19196,0.86334,0.02611,0.28595,1.45517,0.34128,0.14912,1.45303,-0.03189,0.51019,1.25543,0.50265,0.33897,1.29463,0.09736,0.57835,1.46077,0.37056,0.47398,1.46454
2231,0.20359,0.24073,1.50523,0.05654,0.51449,0.08592,0.19901,0.03397,0.07979,0.07916,0.46359,0.49216,0.2495,0.15866,0.46121,0.09694,0.28755,0.857,0.26669,0.19273,0.8635,0.02602,0.28602,1.45507,0.34085,0.15028,1.45341,-0.03369,0.5141,1.26024,0.50353,0.34297,1.29984,0.09611,0.58192,1.46535,0.36996,0.47858,1.46811
2232,0.20288,0.24206,1.50511,0.05756,0.51482,0.0873,0.19905,0.03418,0.07983,0.07872,0.46765,0.49406,0.24907,0.15846,0.46145,0.09629,0.28819,0.85724,0.26617,0.1936,0.86365,0.02545,0.28616,1.4549,0.34034,0.15139,1.45361,-0.0353,0.51812,1.26504,0.5042,0.34694,1.305,0.09484,0.58562,1.47003,0.36933,0.48295,1.47189
2233,0.20197,0.2433,1.50503,0.05865,0.51522,0.08854,0.19915,0.03422,0.07985,0.07845,0.47164,0.49578,0.24862,0.15831,0.46161,0.09566,0.28905,0.85741,0.26564,0.19464,0.8637,0.0245,0.28646,1.45479,0.34013,0.15283,1.45364,-0.0366,0.52231,1.26991,0.50494,0.35129,1.31001,0.0935,0.58932,1.47509,0.36871,0.48697,1.47608
2234,0.20106,0.24429,1.505,0.0595,0.51574,0.08973,0.19924,0.03406,0.07994,0.07826,0.47572,0.49738,0.24803,0.15828,0.46174,0.09509,0.28993,0.85739,0.2652,0.19575,0.86372,0.02337,0.28697,1.45484,0.34043,0.15472,1.4536,-0.03762,0.52656,1.2748,0.50594,0.35619,1.31507,0.09204,0.59286,1.48049,0.36807,0.4908,1.48065
2235,0.20015,0.24504,1.50511,0.05998,0.51638,0.09095,0.19924,0.03385,0.08017,0.07803,0.48003,0.49898,0.24735,0.15839,0.46196,0.09465,0.29077,0.85719,0.26486,0.1968,0.86383,0.02218,0.28774,1.45519,0.34108,0.15682,1.45358,-0.03844,0.53073,1.27962,0.50699,0.36152,1.32036,0.09053,0.59631,1.48597,0.36723,0.49487,1.48537
2236,0.1991,0.24584,1.50531,0.06024,0.51703,0.09224,0.19917,0.03374,0.08058,0.07769,0.48444,0.50062,0.2468,0.15857,0.46233,0.09434,0.29167,0.85695,0.26458,0.1978,0.86412,0.02094,0.28874,1.45579,0.34169,0.15899,1.45368,-0.03907,0.53481,1.28435,0.50773,0.367,1.32586,0.08907,0.59995,1.49136,0.36612,0.49942,1.49005
2237,0.19783,0.247,1.50537,0.06053,0.51767,0.09356,0.19908,0.03368,0.08109,0.07731,0.48867,0.50223,0.24644,0.15861,0.46284,0.09409,0.29275,0.85683,0.2643,0.19886,0.86452,0.01968,0.28975,1.45636,0.342,0.16138,1.45393,-0.03955,0.5388,1.289,0.50804,0.3725,1.33132,0.08767,0.60387,1.49659,0.365,0.50423,1.49481
2238,0.19649,0.24858,1.50513,0.061,0.51839,0.09478,0.19911,0.03358,0.08154,0.07704,0.49251,0.50369,0.24603,0.15829,0.46342,0.09381,0.29411,0.85692,0.26395,0.20012,0.86493,0.01839,0.2905,1.45655,0.3419,0.16419,1.45429,-0.04003,0.5426,1.29353,0.50796,0.37801,1.33646,0.08624,0.60789,1.50165,0.36411,0.50894,1.4999
2239,0.19529,0.25045,1.50465,0.0616,0.51938,0.0958,0.19927,0.03344,0.08182,0.07691,0.49597,0.50489,0.24528,0.15762,0.46398,0.09348,0.29593,0.8572,0.26349,0.2017,0.86525,0.01706,0.29108,1.45633,0.34149,0.16733,1.45471,-0.04056,0.54633,1.298,0.5074,0.38351,1.34106,0.08486,0.61192,1.50653,0.36345,0.51345,1.50519
2240,0.19418,0.25241,1.50418,0.06215,0.52068,0.0966,0.19948,0.03339,0.08194,0.0767,0.49919,0.50582,0.24412,0.1569,0.46448,0.0933,0.2983,0.85765,0.26316,0.20379,0.86539,0.01565,0.29186,1.45598,0.34102,0.17033,1.4552,-0.04102,0.55029,1.30256,0.50628,0.38881,1.34507,0.08381,0.61613,1.51135,0.36285,0.51791,1.51032
2241,0.193,0.25418,1.5039,0.06249,0.52225,0.09723,0.1996,0.03352,0.082,0.0762,0.50223,0.50656,0.24267,0.15642,0.46491,0.09346,0.30106,0.85819,0.26334,0.20654,0.86534,0.01416,0.29285,1.45573,0.34068,0.17281,1.45575,-0.04145,0.55444,1.30735,0.50479,0.39373,1.34878,0.08314,0.62051,1.51622,0.36216,0.52249,1.51499
2242,0.19184,0.25564,1.50384,0.06267,0.52407,0.09777,0.19964,0.03375,0.08209,0.07556,0.50524,0.50718,0.24116,0.15621,0.46532,0.09385,0.30386,0.85864,0.26397,0.20973,0.86519,0.01271,0.29358,1.45559,0.34041,0.17484,1.45618,-0.04219,0.55813,1.31227,0.50325,0.3983,1.35261,0.08245,0.6246,1.52098,0.36119,0.52719,1.5192
2243,0.19089,0.25697,1.50392,0.06286,0.5261,0.09827,0.19973,0.03396,0.08231,0.07516,0.50842,0.50775,0.23989,0.15604,0.46581,0.09392,0.30646,0.85885,0.2643,0.21277,0.86515,0.01139,0.29374,1.45548,0.33992,0.1769,1.45628,-0.04358,0.56085,1.31702,0.50187,0.40283,1.35677,0.0813,0.62799,1.52537,0.35977,0.5318,1.52326
2244,0.19021,0.25849,1.50407,0.0632,0.52825,0.09868,0.1999,0.03406,0.08269,0.07512,0.51178,0.50822,0.23904,0.15573,0.46642,0.09338,0.30897,0.85886,0.26374,0.21527,0.86533,0.01014,0.29366,1.45543,0.33906,0.17952,1.45598,-0.04543,0.5629,1.32139,0.50066,0.40768,1.3611,0.07965,0.63088,1.52936,0.35792,0.53607,1.52749
2245,0.18961,0.26026,1.50423,0.06383,0.53046,0.09887,0.20006,0.03401,0.08312,0.07525,0.51506,0.50847,0.23842,0.1553,0.46705,0.09248,0.31166,0.85882,0.2626,0.21754,0.86558,0.00879,0.2939,1.45546,0.33804,0.1828,1.45547,-0.04736,0.565,1.32549,0.49947,0.41293,1.36516,0.07778,0.63379,1.53315,0.35585,0.54,1.53181
2246,0.18869,0.26201,1.5043,0.0647,0.53274,0.09871,0.20012,0.03388,0.08347,0.07542,0.51804,0.50835,0.2376,0.15494,0.46756,0.09166,0.31472,0.85879,0.26156,0.2202,0.86562,0.00719,0.29463,1.45541,0.33717,0.18642,1.45499,-0.0492,0.56758,1.32948,0.49812,0.41838,1.36856,0.07603,0.63677,1.53695,0.35376,0.54377,1.53585
2247,0.18705,0.26358,1.5042,0.06557,0.53519,0.09821,0.20005,0.03383,0.08362,0.07556,0.52076,0.50788,0.23632,0.15476,0.46786,0.09099,0.31808,0.85873,0.26087,0.22351,0.8653,0.00535,0.29569,1.45501,0.33649,0.19006,1.45462,-0.05086,0.57059,1.33331,0.49651,0.42376,1.37123,0.07465,0.63938,1.54074,0.3518,0.54753,1.53941
2248,0.18468,0.2651,1.50395,0.06621,0.53784,0.09747,0.19984,0.03395,0.0836,0.07556,0.52351,0.50716,0.23473,0.15474,0.46801,0.09034,0.3216,0.85848,0.26038,0.2273,0.86471,0.0035,0.29699,1.45408,0.33575,0.19374,1.45432,-0.05215,0.57388,1.33672,0.49471,0.42901,1.37335,0.07371,0.64138,1.54436,0.35,0.55129,1.54262
2249,0.18204,0.2668,1.50359,0.06673,0.54052,0.09655,0.19948,0.03418,0.08357,0.07536,0.52656,0.50627,0.23323,0.15485,0.46813,0.08962,0.32521,0.85793,0.2599,0.23133,0.86402,0.00191,0.29852,1.45265,0.33484,0.19762,1.454,-0.05307,0.57731,1.33954,0.49288,0.43425,1.37523,0.073,0.64295,1.54766,0.34823,0.55492,1.5457
2250,0.17976,0.26876,1.50306,0.06749,0.5429,0.09544,0.19908,0.0344,0.08367,0.07515,0.52999,0.50521,0.23211,0.1552,0.46825,0.08884,0.32908,0.85715,0.25925,0.23544,0.86336,0.00062,0.30023,1.45106,0.33376,0.20165,1.45349,-0.05396,0.58064,1.34182,0.49113,0.43949,1.37704,0.07212,0.6442,1.55057,0.34626,0.55824,1.54867
2251,0.17805,0.27095,1.50224,0.06872,0.54479,0.09421,0.19874,0.0345,0.08394,0.07515,0.53369,0.50405,0.2313,0.15594,0.46836,0.088,0.33334,0.85634,0.25834,0.23959,0.86277,-0.0005,0.30187,1.44975,0.33268,0.2056,1.45263,-0.0552,0.58344,1.3436,0.48948,0.4446,1.37866,0.07089,0.64501,1.55294,0.34396,0.56121,1.55121
2252,0.17672,0.27333,1.50114,0.07028,0.54634,0.09305,0.1985,0.03462,0.08429,0.07541,0.53758,0.50296,0.23052,0.15715,0.4684,0.08709,0.33785,0.85565,0.25729,0.24385,0.86217,-0.00167,0.30321,1.44884,0.33171,0.20941,1.4514,-0.05684,0.58548,1.34481,0.48788,0.44955,1.37982,0.06938,0.64526,1.55459,0.34131,0.56391,1.55298
2253,0.17543,0.27595,1.49983,0.07187,0.54792,0.09201,0.19834,0.03494,0.08454,0.07574,0.54169,0.50199,0.2296,0.15886,0.46827,0.08626,0.34244,0.85498,0.25641,0.24835,0.86141,-0.00308,0.30427,1.4479,0.33092,0.21321,1.44985,-0.05868,0.58698,1.34531,0.48624,0.45453,1.38044,0.06766,0.64512,1.55549,0.33832,0.5665,1.55402
2254,0.174,0.27883,1.49838,0.07342,0.54981,0.09099,0.19826,0.03544,0.0846,0.076,0.54613,0.50101,0.2287,0.16103,0.46785,0.08571,0.34713,0.85417,0.25598,0.25325,0.86033,-0.00483,0.30536,1.44641,0.33031,0.21718,1.44797,-0.06044,0.58853,1.34513,0.48452,0.45979,1.38064,0.06582,0.64497,1.55582,0.33508,0.569,1.55467
2255,0.17242,0.28194,1.49682,0.07513,0.55182,0.08983,0.19825,0.03587,0.0845,0.07621,0.55096,0.49987,0.22807,0.16357,0.46711,0.08552,0.3521,0.85312,0.2561,0.25874,0.85883,-0.00671,0.30681,1.44439,0.32983,0.22141,1.44575,-0.06197,0.59053,1.34444,0.48266,0.46543,1.38033,0.06406,0.64495,1.55579,0.33185,0.57149,1.55513
2256,0.17067,0.28516,1.49512,0.07726,0.55333,0.08853,0.19826,0.0361,0.08439,0.0764,0.55597,0.49856,0.2279,0.16636,0.46614,0.08546,0.35721,0.85186,0.25659,0.26484,0.857,-0.00846,0.30856,1.4422,0.3294,0.22605,1.4434,-0.06339,0.59274,1.34337,0.48057,0.47143,1.37922,0.06254,0.64497,1.55534,0.32886,0.57408,1.55527
2257,0.1687,0.2884,1.49331,0.07969,0.55386,0.08716,0.19829,0.03618,0.08438,0.07653,0.56085,0.49713,0.22815,0.16939,0.4651,0.08507,0.36207,0.85043,0.25705,0.27125,0.85507,-0.01006,0.31018,1.4401,0.32894,0.23109,1.44122,-0.06494,0.59459,1.3419,0.47818,0.4777,1.37729,0.06113,0.64491,1.55424,0.32612,0.57682,1.55505
2258,0.16664,0.29157,1.49144,0.08203,0.55339,0.08582,0.19839,0.03623,0.08448,0.07664,0.56546,0.49565,0.22866,0.17289,0.46394,0.08421,0.36647,0.84886,0.25723,0.27763,0.85317,-0.01177,0.31145,1.4381,0.32838,0.23631,1.43931,-0.06688,0.5958,1.3399,0.47556,0.48405,1.37496,0.05947,0.6447,1.5524,0.32334,0.57955,1.55455
2259,0.16468,0.29468,1.48953,0.084,0.55242,0.08453,0.19861,0.0363,0.08467,0.07679,0.56995,0.49414,0.22931,0.17712,0.46257,0.08315,0.37066,0.8472,0.25722,0.28389,0.8513,-0.01384,0.31261,1.43609,0.32772,0.24157,1.43755,-0.06923,0.59672,1.33732,0.473,0.49026,1.37254,0.05738,0.64425,1.54998,0.32039,0.58207,1.55372
2260,0.16288,0.29788,1.48767,0.08562,0.55159,0.08335,0.19899,0.03648,0.08498,0.07704,0.57461,0.49266,0.23008,0.18208,0.46103,0.08206,0.37507,0.8456,0.25701,0.29007,0.84949,-0.01627,0.31402,1.43394,0.32694,0.24686,1.43576,-0.07176,0.59779,1.33425,0.47079,0.49613,1.36987,0.05512,0.64357,1.54714,0.31746,0.58418,1.55231
2261,0.16107,0.30131,1.48596,0.08684,0.55126,0.08236,0.19947,0.03697,0.08544,0.07727,0.57956,0.49131,0.23091,0.18751,0.45951,0.08066,0.37991,0.84421,0.25618,0.29608,0.84792,-0.01858,0.31579,1.43153,0.32594,0.25212,1.43389,-0.07422,0.59917,1.33081,0.46887,0.50155,1.36656,0.05303,0.64288,1.54391,0.31472,0.58576,1.55011
2262,0.15917,0.30504,1.48442,0.08753,0.55139,0.08162,0.19996,0.03787,0.08607,0.07739,0.5848,0.49017,0.23177,0.19333,0.4581,0.07865,0.38513,0.84308,0.25442,0.30183,0.84669,-0.02022,0.31782,1.42883,0.32464,0.25731,1.43192,-0.07652,0.60065,1.32696,0.46685,0.5066,1.36256,0.05118,0.6424,1.54019,0.31201,0.58677,1.54734
2263,0.15716,0.30913,1.48291,0.08767,0.55171,0.08114,0.20044,0.03897,0.08703,0.07739,0.59038,0.48922,0.23267,0.19974,0.45675,0.07627,0.39069,0.84212,0.25215,0.30763,0.84568,-0.02125,0.3199,1.42602,0.32296,0.26245,1.42984,-0.07866,0.60193,1.32257,0.46445,0.51151,1.35824,0.04925,0.64205,1.53598,0.30921,0.58725,1.54455
2264,0.15508,0.31362,1.48123,0.08755,0.55209,0.08086,0.20093,0.04004,0.08844,0.07746,0.59644,0.48837,0.2337,0.20696,0.45538,0.07408,0.39659,0.84116,0.25024,0.31412,0.84465,-0.02234,0.32185,1.42336,0.32079,0.2677,1.4276,-0.08063,0.60284,1.31756,0.46163,0.51653,1.35398,0.04695,0.64166,1.53141,0.30641,0.58739,1.54221
2265,0.15287,0.31833,1.47933,0.08735,0.55257,0.08065,0.20148,0.04112,0.09026,0.07769,0.60292,0.48748,0.23484,0.21492,0.45394,0.07232,0.40278,0.84008,0.24904,0.32151,0.84346,-0.02399,0.32377,1.42099,0.31812,0.27317,1.42525,-0.08248,0.60344,1.31188,0.45848,0.52174,1.34982,0.04429,0.64111,1.52642,0.30364,0.58772,1.54013
2266,0.15045,0.32284,1.47745,0.08705,0.55315,0.08039,0.20219,0.04244,0.09238,0.0779,0.60945,0.48644,0.23606,0.22353,0.45243,0.0708,0.40907,0.83888,0.24825,0.32939,0.84222,-0.02619,0.32587,1.41899,0.31518,0.27891,1.42299,-0.08442,0.60386,1.30552,0.45503,0.52713,1.34551,0.04153,0.64044,1.52072,0.30061,0.58886,1.53758
2267,0.14775,0.32677,1.47588,0.08662,0.5537,0.07999,0.2032,0.04418,0.09483,0.07774,0.6156,0.48523,0.23747,0.23291,0.45091,0.06925,0.41531,0.83769,0.24744,0.33732,0.84114,-0.02883,0.32825,1.41735,0.3123,0.2848,1.42101,-0.08657,0.60409,1.29853,0.45136,0.53264,1.34092,0.0389,0.6398,1.51416,0.29702,0.59101,1.53409
2268,0.14477,0.33019,1.47469,0.08622,0.55414,0.0795,0.20457,0.04645,0.09784,0.07702,0.62127,0.4839,0.23927,0.24336,0.44941,0.06757,0.42152,0.83664,0.24649,0.34525,0.84038,-0.03171,0.33074,1.41594,0.30965,0.29073,1.41936,-0.08877,0.6041,1.29121,0.44776,0.5381,1.33622,0.03642,0.63937,1.50708,0.29303,0.59372,1.5299
2269,0.14171,0.3336,1.47373,0.08595,0.55459,0.07904,0.20615,0.0494,0.10156,0.07594,0.62668,0.48257,0.24154,0.25512,0.44799,0.06579,0.42785,0.83581,0.24541,0.35325,0.83996,-0.03455,0.3332,1.41449,0.30714,0.29668,1.41785,-0.09075,0.60398,1.28387,0.44434,0.54349,1.33162,0.03405,0.63911,1.49999,0.28899,0.59637,1.52556
2270,0.1388,0.33757,1.47272,0.08566,0.55523,0.07876,0.20773,0.05327,0.10596,0.07487,0.63203,0.4814,0.24421,0.26823,0.44661,0.06388,0.43437,0.83527,0.24415,0.36138,0.83981,-0.03719,0.33566,1.41288,0.3046,0.30264,1.41628,-0.09247,0.60383,1.27659,0.44082,0.54893,1.32704,0.03179,0.6387,1.49306,0.28504,0.59882,1.52143
2271,0.13619,0.34215,1.47165,0.08518,0.55612,0.07864,0.20941,0.05818,0.11097,0.07402,0.63733,0.48041,0.24728,0.28282,0.44517,0.0618,0.44111,0.83503,0.2427,0.36973,0.83977,-0.03967,0.33824,1.41123,0.3019,0.30861,1.41465,-0.09411,0.60362,1.26927,0.43689,0.55439,1.32218,0.02954,0.63796,1.48617,0.28132,0.60127,1.51749
2272,0.13381,0.34679,1.4708,0.08448,0.5571,0.07855,0.21152,0.0642,0.11671,0.07334,0.64235,0.47948,0.25078,0.29918,0.44355,0.05955,0.44803,0.83509,0.24118,0.37847,0.83967,-0.04207,0.3409,1.40964,0.29898,0.31466,1.41319,-0.0959,0.60321,1.26187,0.43271,0.55958,1.31673,0.02721,0.63712,1.47914,0.27807,0.6037,1.51342
2273,0.13137,0.35095,1.4704,0.08369,0.55792,0.0783,0.21425,0.07144,0.12332,0.07264,0.64679,0.47844,0.25475,0.31745,0.44178,0.05727,0.45494,0.83533,0.23976,0.38767,0.83944,-0.04439,0.34355,1.40802,0.29587,0.32078,1.41206,-0.09793,0.60255,1.25442,0.42868,0.56411,1.31042,0.02484,0.63644,1.47189,0.27549,0.60577,1.50877
2274,0.12858,0.35462,1.47038,0.08307,0.55839,0.07785,0.21739,0.08014,0.13087,0.07166,0.65047,0.47726,0.25895,0.33752,0.44008,0.05499,0.4615,0.83562,0.23854,0.39716,0.83922,-0.04663,0.34616,1.4062,0.29272,0.32687,1.41114,-0.10007,0.60168,1.24683,0.42497,0.56781,1.30327,0.02248,0.63583,1.46438,0.27345,0.60744,1.50331
2275,0.12545,0.35813,1.47048,0.0828,0.55844,0.07732,0.22054,0.09054,0.13941,0.07027,0.65333,0.47604,0.26293,0.35922,0.43873,0.0526,0.46737,0.83592,0.23741,0.4067,0.83921,-0.0489,0.34887,1.40436,0.28982,0.33274,1.4102,-0.10233,0.60054,1.23899,0.42131,0.57094,1.29554,0.02007,0.63504,1.45657,0.27155,0.60915,1.49718
2276,0.12241,0.36173,1.47054,0.08281,0.55824,0.07685,0.22359,0.10284,0.14899,0.06859,0.65553,0.47492,0.26623,0.38262,0.43792,0.05003,0.47244,0.83624,0.23617,0.41599,0.83951,-0.05127,0.35193,1.40306,0.28743,0.33823,1.40917,-0.10489,0.59913,1.23114,0.41722,0.57398,1.28769,0.0176,0.63413,1.4486,0.26942,0.61129,1.49094
2277,0.11976,0.36546,1.47059,0.08287,0.55809,0.07648,0.2267,0.11716,0.1596,0.06709,0.6576,0.47396,0.26868,0.40781,0.4377,0.04743,0.47708,0.8365,0.23481,0.42491,0.84,-0.05375,0.35559,1.40259,0.28542,0.34346,1.40825,-0.10775,0.59776,1.22377,0.41247,0.5772,1.28017,0.01526,0.63353,1.4408,0.26693,0.61381,1.48516
2278,0.11741,0.36927,1.47077,0.08277,0.55816,0.07631,0.23007,0.13346,0.17121,0.0662,0.66024,0.4731,0.27045,0.43455,0.43823,0.04511,0.4818,0.83659,0.23351,0.43348,0.84062,-0.05645,0.35978,1.40257,0.28327,0.34874,1.4076,-0.11063,0.59689,1.21713,0.40745,0.58052,1.2733,0.01322,0.63367,1.43352,0.2642,0.6164,1.48003
2279,0.11508,0.37316,1.47111,0.08239,0.55835,0.07643,0.23374,0.15145,0.18379,0.06579,0.66372,0.47236,0.27179,0.46226,0.43979,0.04309,0.48676,0.83648,0.23232,0.44191,0.84143,-0.05956,0.3642,1.40244,0.28034,0.35439,1.40712,-0.11337,0.59667,1.21111,0.4028,0.58372,1.26718,0.01142,0.63452,1.42677,0.26149,0.61909,1.47533
2280,0.11267,0.37711,1.4716,0.0818,0.55864,0.07683,0.23736,0.17085,0.19717,0.06517,0.66753,0.4718,0.27288,0.49049,0.44243,0.04104,0.49162,0.83633,0.2311,0.45055,0.84237,-0.06317,0.3687,1.4021,0.27664,0.36043,1.40654,-0.11628,0.59689,1.2055,0.39882,0.58678,1.26156,0.00949,0.63565,1.42043,0.25898,0.62216,1.4707
2281,0.11023,0.38113,1.47222,0.08125,0.55908,0.07717,0.24035,0.19167,0.21106,0.06371,0.67076,0.47132,0.27369,0.51923,0.44595,0.03869,0.49595,0.83633,0.22968,0.45956,0.84318,-0.06706,0.37334,1.40188,0.27294,0.36662,1.40586,-0.11962,0.59739,1.20044,0.39519,0.58973,1.25601,0.00722,0.63671,1.41463,0.2567,0.62563,1.46595
2282,0.10783,0.38531,1.47296,0.08097,0.55952,0.07706,0.24241,0.21419,0.22526,0.06152,0.67288,0.47064,0.27402,0.54875,0.45032,0.03622,0.4997,0.8364,0.22813,0.46867,0.84372,-0.07083,0.37815,1.40201,0.27012,0.37267,1.40546,-0.12315,0.59821,1.19615,0.39161,0.59253,1.2503,0.00472,0.63777,1.40969,0.25468,0.62913,1.46114
2283,0.10538,0.38967,1.47381,0.08101,0.55974,0.07645,0.2437,0.23855,0.23986,0.05927,0.67423,0.46958,0.27374,0.57907,0.45603,0.03408,0.50314,0.83633,0.22674,0.47733,0.84427,-0.07414,0.38306,1.40237,0.26835,0.37843,1.40559,-0.12625,0.59951,1.19267,0.38819,0.59504,1.24467,0.00222,0.63914,1.40583,0.25304,0.63235,1.45653
2284,0.10281,0.39419,1.47477,0.08124,0.55976,0.07571,0.24458,0.26458,0.2551,0.05747,0.6756,0.46833,0.27295,0.60991,0.46372,0.03257,0.50642,0.83599,0.22572,0.48515,0.84516,-0.07688,0.38802,1.40266,0.26711,0.38399,1.40602,-0.12853,0.60144,1.18976,0.38519,0.59732,1.23952,-0.00015,0.64095,1.403,0.25162,0.63549,1.45223
2285,0.10029,0.39904,1.47575,0.0815,0.55985,0.07525,0.24542,0.29196,0.27097,0.0562,0.67737,0.46728,0.27184,0.64098,0.47362,0.03163,0.50938,0.8355,0.22509,0.4921,0.84637,-0.07896,0.393,1.40273,0.26582,0.38956,1.40646,-0.13016,0.60405,1.18738,0.38257,0.59973,1.23508,-0.0024,0.64321,1.40105,0.24977,0.63899,1.44807
2286,0.0982,0.40452,1.47659,0.08175,0.56019,0.07515,0.24647,0.32052,0.28717,0.05525,0.67929,0.46662,0.27045,0.67216,0.48555,0.03102,0.51176,0.83507,0.2247,0.49837,0.84747,-0.08039,0.39801,1.40266,0.26427,0.39527,1.40691,-0.13168,0.60734,1.18566,0.38017,0.60251,1.23142,-0.00462,0.64598,1.39986,0.24693,0.64302,1.44391
2287,0.09662,0.41058,1.47737,0.08196,0.56064,0.07521,0.24768,0.35007,0.3034,0.05444,0.68102,0.46622,0.26868,0.70329,0.49931,0.0305,0.5135,0.83469,0.22435,0.50416,0.84812,-0.08136,0.40312,1.40264,0.26256,0.40096,1.40759,-0.13366,0.61127,1.18475,0.37818,0.6054,1.22867,-0.00694,0.64939,1.39923,0.24345,0.64745,1.43992
2288,0.09531,0.41668,1.47839,0.08206,0.56099,0.0753,0.24869,0.38017,0.31962,0.0537,0.68255,0.46588,0.26654,0.73378,0.51514,0.02999,0.51491,0.83431,0.22393,0.50956,0.84861,-0.08231,0.40837,1.40276,0.26094,0.40633,1.40858,-0.13647,0.61576,1.18459,0.37697,0.60809,1.22691,-0.0094,0.6535,1.39893,0.2404,0.65221,1.43654
2289,0.09413,0.42238,1.47983,0.0821,0.56118,0.07539,0.24922,0.41035,0.3359,0.05305,0.68406,0.46551,0.26423,0.76289,0.53358,0.02964,0.51643,0.83397,0.22353,0.51442,0.84964,-0.08352,0.41371,1.40307,0.25973,0.41134,1.40976,-0.14009,0.62077,1.1852,0.37661,0.61081,1.2261,-0.01194,0.65827,1.39894,0.23833,0.65752,1.43405
2290,0.09318,0.42784,1.48138,0.08223,0.5612,0.07557,0.24936,0.44056,0.35245,0.05253,0.68557,0.46517,0.26195,0.79036,0.55509,0.02942,0.51826,0.83379,0.22315,0.51853,0.85155,-0.08502,0.41909,1.40375,0.25884,0.41629,1.41096,-0.14417,0.62633,1.18674,0.37699,0.61398,1.22621,-0.0144,0.66363,1.39954,0.2368,0.66343,1.43224
2291,0.09252,0.43349,1.48251,0.0826,0.56117,0.07588,0.24947,0.4711,0.36951,0.05203,0.68693,0.46496,0.25952,0.81652,0.57967,0.02911,0.52018,0.83385,0.22259,0.52214,0.85402,-0.08658,0.4245,1.405,0.25775,0.42154,1.41214,-0.14848,0.63218,1.18918,0.37804,0.61763,1.22706,-0.01671,0.66927,1.40078,0.23544,0.66947,1.43084
2292,0.09203,0.43953,1.48307,0.08315,0.56119,0.07625,0.24991,0.50217,0.38718,0.05133,0.68787,0.46493,0.25655,0.84173,0.60682,0.02858,0.52184,0.83416,0.22177,0.52602,0.85663,-0.08794,0.42976,1.40681,0.25621,0.42723,1.41335,-0.15306,0.63766,1.19216,0.37962,0.62144,1.22834,-0.01898,0.67479,1.40229,0.23457,0.67529,1.42985
2293,0.09155,0.44581,1.4833,0.08367,0.56125,0.07654,0.25066,0.53371,0.40534,0.05027,0.68822,0.465,0.25286,0.86605,0.63584,0.02799,0.52315,0.83468,0.22081,0.53088,0.85927,-0.08896,0.43473,1.40891,0.25457,0.43315,1.41454,-0.15774,0.64248,1.19525,0.38123,0.62551,1.22978,-0.02124,0.68016,1.40373,0.23421,0.68127,1.42933
2294,0.09105,0.4522,1.48354,0.08398,0.56126,0.07663,0.25136,0.56544,0.42371,0.0489,0.6881,0.46498,0.24856,0.88906,0.66629,0.02765,0.52438,0.83532,0.21993,0.53677,0.86216,-0.08982,0.43957,1.41085,0.25334,0.43897,1.41552,-0.162,0.64736,1.19835,0.38257,0.63027,1.23145,-0.02329,0.6859,1.40521,0.2338,0.68791,1.42917
2295,0.09053,0.45871,1.4838,0.08406,0.56108,0.07643,0.25162,0.59693,0.44193,0.04737,0.6879,0.46464,0.24393,0.91003,0.69785,0.02768,0.52608,0.83591,0.21917,0.54324,0.8656,-0.09077,0.44467,1.41216,0.25255,0.44455,1.41614,-0.16541,0.65359,1.20164,0.38394,0.63582,1.23357,-0.02487,0.6925,1.40719,0.23329,0.69505,1.42938
2296,0.09001,0.46532,1.48388,0.08392,0.56064,0.07602,0.25138,0.62782,0.45981,0.04571,0.68794,0.46393,0.2393,0.92842,0.73014,0.028,0.52874,0.83643,0.21849,0.54982,0.86983,-0.09173,0.45017,1.41249,0.25186,0.45001,1.41638,-0.16807,0.66169,1.20519,0.38595,0.64169,1.23623,-0.02601,0.69986,1.40982,0.23343,0.70211,1.43022
2297,0.08942,0.4719,1.48361,0.08354,0.56005,0.07563,0.25078,0.65809,0.47753,0.04387,0.68838,0.46304,0.23483,0.9442,0.76295,0.0285,0.53237,0.83699,0.21783,0.55628,0.87481,-0.09252,0.45586,1.41177,0.25093,0.4557,1.4165,-0.17046,0.67099,1.20883,0.38885,0.64743,1.23932,-0.02696,0.70763,1.41275,0.23473,0.7089,1.43171
2298,0.08866,0.4783,1.48303,0.08299,0.55961,0.07541,0.24987,0.68806,0.4954,0.04202,0.68926,0.46226,0.23048,0.95759,0.79633,0.0291,0.53656,0.83766,0.21711,0.56256,0.88034,-0.09324,0.4616,1.41043,0.24969,0.46203,1.41683,-0.17292,0.68054,1.21229,0.39228,0.65312,1.24269,-0.0279,0.7157,1.41539,0.23662,0.71584,1.43343
2299,0.08759,0.48454,1.48222,0.08243,0.5595,0.07539,0.24853,0.71821,0.51346,0.0405,0.69053,0.46166,0.22599,0.96876,0.83016,0.02968,0.54089,0.83836,0.21623,0.56867,0.88603,-0.09418,0.46741,1.40902,0.24829,0.46912,1.41756,-0.17562,0.68982,1.21552,0.39575,0.65909,1.24626,-0.02874,0.72409,1.41743,0.23812,0.72336,1.43485
2300,0.08616,0.49079,1.48119,0.08198,0.55962,0.07551,0.24674,0.74905,0.53154,0.0394,0.6921,0.46122,0.22113,0.97773,0.86415,0.0302,0.54522,0.83905,0.21524,0.57461,0.89141,-0.09533,0.47328,1.40787,0.24698,0.47658,1.41849,-0.17865,0.69863,1.21862,0.39917,0.66537,1.25004,-0.02949,0.73265,1.41889,0.23897,0.7315,1.43581
2301,0.08436,0.4971,1.47989,0.08157,0.5597,0.07575,0.24468,0.7811,0.5497,0.03848,0.69392,0.4608,0.21559,0.98455,0.89805,0.03075,0.54969,0.83968,0.21431,0.58046,0.89626,-0.0965,0.47916,1.40703,0.24609,0.48374,1.41933,-0.182,0.70683,1.22156,0.4027,0.67175,1.25409,-0.03042,0.74101,1.41997,0.23954,0.74013,1.43644
2302,0.08237,0.50342,1.47826,0.08116,0.55947,0.07609,0.24233,0.81467,0.56861,0.03734,0.6961,0.46021,0.2089,0.98936,0.93186,0.03146,0.55468,0.84018,0.21359,0.5865,0.90069,-0.09768,0.48519,1.40637,0.24576,0.49007,1.41992,-0.18555,0.71462,1.22419,0.4063,0.67806,1.25848,-0.03174,0.74895,1.42086,0.24002,0.74935,1.43685
2303,0.08062,0.50967,1.47619,0.08081,0.55895,0.07657,0.23932,0.84955,0.58909,0.03562,0.69879,0.45937,0.20085,0.99241,0.96551,0.03233,0.56039,0.84049,0.21295,0.59307,0.90494,-0.09897,0.49161,1.40583,0.24566,0.49547,1.42026,-0.18913,0.72244,1.22658,0.40982,0.68415,1.26333,-0.03326,0.75669,1.42163,0.24039,0.75926,1.4371
2304,0.07943,0.51574,1.47364,0.08051,0.55856,0.0772,0.23542,0.88506,0.61132,0.03319,0.70206,0.45838,0.19208,0.99392,0.99843,0.03324,0.56662,0.84057,0.21214,0.60033,0.90916,-0.10037,0.49835,1.40541,0.24524,0.50026,1.42035,-0.19263,0.73048,1.22893,0.41333,0.68974,1.26862,-0.03465,0.76444,1.42233,0.2409,0.76944,1.43733
2305,0.07865,0.52141,1.47074,0.08013,0.55864,0.0779,0.23087,0.9208,0.63481,0.03031,0.70586,0.45735,0.18368,0.99409,1.02976,0.03422,0.57299,0.84042,0.21111,0.60809,0.91337,-0.102,0.50516,1.40496,0.24445,0.50479,1.41995,-0.19573,0.73878,1.23125,0.41711,0.69478,1.27412,-0.0357,0.772,1.42309,0.24203,0.77909,1.43778
2306,0.07771,0.52649,1.46777,0.07967,0.55918,0.0785,0.22599,0.95727,0.65923,0.02757,0.71016,0.45616,0.17636,0.9929,1.05905,0.03541,0.57945,0.83991,0.21011,0.61599,0.91732,-0.10418,0.51195,1.40394,0.24371,0.50919,1.41887,-0.19806,0.74775,1.23328,0.42134,0.69951,1.27959,-0.03637,0.77881,1.42409,0.24378,0.78773,1.43844
2307,0.07619,0.53093,1.46497,0.07937,0.55983,0.07885,0.22073,0.99482,0.68493,0.02539,0.71486,0.45459,0.17027,0.99015,1.08619,0.03691,0.58625,0.83897,0.20949,0.62365,0.92059,-0.10698,0.51872,1.40202,0.24334,0.5134,1.4173,-0.19966,0.75759,1.23501,0.42583,0.70418,1.28509,-0.03675,0.78463,1.4254,0.24556,0.79555,1.43903
2308,0.07396,0.53477,1.4624,0.07939,0.56029,0.07895,0.21461,1.03296,0.71224,0.02376,0.71968,0.45263,0.16529,0.98595,1.11091,0.03856,0.5935,0.83769,0.20937,0.63097,0.92293,-0.10986,0.52539,1.39962,0.24315,0.51737,1.41576,-0.20109,0.76768,1.23679,0.43026,0.70861,1.29089,-0.03692,0.79001,1.42669,0.24696,0.80302,1.43932
2309,0.07122,0.53801,1.45996,0.07964,0.56071,0.07889,0.20735,1.071,0.74113,0.02233,0.7243,0.45049,0.16128,0.9809,1.13272,0.04004,0.60109,0.83639,0.20954,0.638,0.92444,-0.11213,0.5319,1.39753,0.24259,0.52109,1.4147,-0.20275,0.77715,1.23884,0.43469,0.71207,1.29723,-0.03678,0.79575,1.42757,0.24829,0.81027,1.43921
2310,0.06823,0.54068,1.45753,0.07989,0.56135,0.07872,0.19902,1.10874,0.77141,0.02092,0.72851,0.44847,0.15797,0.97591,1.15121,0.04117,0.60887,0.83536,0.20984,0.64487,0.92537,-0.11369,0.5383,1.39597,0.24133,0.52448,1.41416,-0.20424,0.78597,1.24104,0.43943,0.71379,1.30417,-0.03618,0.802,1.42815,0.25023,0.81706,1.43866
2311,0.06512,0.54301,1.45508,0.07997,0.56217,0.07848,0.18961,1.14648,0.80324,0.01952,0.73232,0.44663,0.15516,0.97187,1.16644,0.04202,0.61684,0.83466,0.21024,0.6519,0.92587,-0.11491,0.54458,1.3945,0.23957,0.52733,1.41387,-0.20499,0.79467,1.24322,0.44452,0.71364,1.31158,-0.0352,0.80823,1.42897,0.25309,0.82308,1.43777
2312,0.06183,0.5453,1.45265,0.07992,0.56288,0.0783,0.17915,1.18449,0.83716,0.01813,0.73589,0.44488,0.15286,0.9696,1.17879,0.04268,0.62505,0.83415,0.21062,0.65965,0.92605,-0.1161,0.55039,1.39262,0.23781,0.52956,1.41353,-0.20507,0.80326,1.24539,0.44978,0.7121,1.31906,-0.03423,0.81383,1.43036,0.25673,0.82787,1.43686
2313,0.05837,0.54761,1.45034,0.07995,0.56335,0.07831,0.16817,1.22299,0.87335,0.01673,0.73931,0.44324,0.15129,0.96997,1.18844,0.0431,0.63333,0.83373,0.21064,0.66832,0.9262,-0.11738,0.55507,1.39032,0.23637,0.5313,1.41296,-0.20511,0.81092,1.24753,0.45514,0.70954,1.32611,-0.03362,0.81866,1.43205,0.26092,0.83078,1.43622
2314,0.05505,0.54965,1.44825,0.08024,0.5638,0.07852,0.15763,1.26224,0.9114,0.0155,0.74256,0.44182,0.15076,0.97394,1.19499,0.04314,0.64135,0.83349,0.21001,0.67768,0.92665,-0.11888,0.55825,1.38811,0.23517,0.53262,1.41219,-0.20534,0.81685,1.24957,0.46069,0.70573,1.33251,-0.03323,0.82292,1.43357,0.26546,0.83123,1.43585
2315,0.05201,0.55111,1.44648,0.0807,0.5645,0.07876,0.14788,1.30204,0.95042,0.01474,0.7455,0.44073,0.15113,0.98224,1.19801,0.04272,0.64908,0.83358,0.20863,0.68747,0.92765,-0.12076,0.56033,1.38666,0.23399,0.53332,1.41143,-0.20535,0.82131,1.25147,0.46639,0.7001,1.33829,-0.03257,0.82688,1.43485,0.27034,0.82911,1.4356
2316,0.04898,0.55186,1.44499,0.0811,0.5654,0.07895,0.13801,1.34079,0.98866,0.01448,0.74796,0.44002,0.15175,0.99487,1.19779,0.04183,0.65693,0.8342,0.20655,0.69797,0.92922,-0.12306,0.56224,1.3861,0.23256,0.5332,1.41085,-0.20476,0.82529,1.25317,0.47199,0.69229,1.34346,-0.03142,0.83062,1.43604,0.27562,0.82486,1.43517
2317,0.04569,0.55189,1.44362,0.08143,0.56621,0.07917,0.12693,1.37586,1.02276,0.01448,0.74974,0.43968,0.15205,1.01097,1.19542,0.04044,0.66535,0.83543,0.20384,0.70957,0.93128,-0.12553,0.56439,1.38588,0.2306,0.53241,1.41046,-0.20376,0.82934,1.25464,0.47716,0.6823,1.34784,-0.02996,0.83407,1.43708,0.28134,0.81927,1.43409
2318,0.04222,0.55124,1.44229,0.08204,0.56666,0.07952,0.11538,1.40526,1.04844,0.01454,0.7508,0.43962,0.15205,1.02895,1.19207,0.03861,0.67425,0.83708,0.20058,0.72214,0.93361,-0.12784,0.56622,1.38533,0.2279,0.5313,1.41021,-0.20276,0.83295,1.25579,0.48163,0.67035,1.35135,-0.0284,0.83703,1.43772,0.28743,0.81298,1.43189
2319,0.03889,0.55003,1.44112,0.08324,0.56673,0.08,0.10578,1.42872,1.06302,0.01465,0.7512,0.43972,0.15195,1.047,1.1885,0.03643,0.68299,0.83883,0.19685,0.73481,0.93591,-0.12983,0.56689,1.3843,0.22445,0.52998,1.41016,-0.20206,0.83525,1.25659,0.48522,0.6566,1.35415,-0.02687,0.83938,1.43771,0.2938,0.80615,1.42857
2320,0.03583,0.54828,1.44045,0.08479,0.56667,0.0804,0.09987,1.4471,1.06738,0.01477,0.75096,0.43994,0.15168,1.06362,1.18504,0.03392,0.69099,0.8405,0.19288,0.74659,0.9379,-0.13164,0.56621,1.38302,0.22036,0.52807,1.41043,-0.2018,0.83593,1.25704,0.4877,0.64114,1.35642,-0.02539,0.84128,1.43695,0.30036,0.79864,1.42455
2321,0.03286,0.54587,1.44059,0.08605,0.56676,0.08045,0.09725,1.46177,1.06519,0.0148,0.75003,0.44028,0.15086,1.07817,1.18161,0.03125,0.69812,0.84208,0.18906,0.75692,0.93947,-0.13359,0.5647,1.38164,0.21598,0.52522,1.41103,-0.2018,0.83563,1.2572,0.48904,0.62426,1.35808,-0.0238,0.84298,1.43546,0.30692,0.79023,1.41996
2322,0.02974,0.54272,1.44164,0.08662,0.56694,0.08011,0.09601,1.47408,1.06017,0.01475,0.74843,0.44071,0.14938,1.0908,1.1778,0.02891,0.70442,0.84354,0.18595,0.76567,0.94066,-0.13582,0.56298,1.37993,0.21183,0.52174,1.41183,-0.20145,0.83529,1.25712,0.48966,0.6065,1.35889,-0.02165,0.84441,1.43348,0.31318,0.78058,1.4145
2323,0.02648,0.53886,1.44336,0.08663,0.56686,0.0796,0.09451,1.48467,1.05449,0.0148,0.74631,0.44122,0.14773,1.10172,1.17322,0.02753,0.70966,0.84484,0.18416,0.7727,0.94147,-0.13799,0.56121,1.37772,0.20836,0.51837,1.41272,-0.2003,0.83511,1.25674,0.49008,0.58826,1.35863,-0.01872,0.84518,1.43122,0.319,0.76939,1.40828
2324,0.0234,0.53442,1.44539,0.08638,0.56636,0.07916,0.09203,1.49366,1.04919,0.01517,0.74392,0.44184,0.14646,1.11078,1.1676,0.02749,0.71342,0.84598,0.18406,0.77772,0.94189,-0.13957,0.55915,1.37531,0.20571,0.51536,1.41379,-0.19897,0.83441,1.25595,0.4904,0.56966,1.35736,-0.01568,0.845,1.4286,0.32444,0.75673,1.40215
2325,0.02079,0.52967,1.44756,0.08596,0.56561,0.07885,0.08847,1.50131,1.04467,0.01595,0.74153,0.44255,0.14542,1.11801,1.16055,0.02864,0.71543,0.84699,0.18544,0.78049,0.942,-0.1405,0.55687,1.37322,0.20372,0.51216,1.41519,-0.19843,0.83276,1.25459,0.49027,0.55089,1.35545,-0.01346,0.84401,1.42539,0.32945,0.74317,1.39684
2326,0.01873,0.52506,1.44989,0.08535,0.56486,0.0785,0.08414,1.50822,1.04072,0.01716,0.73923,0.4433,0.14381,1.12384,1.15149,0.0303,0.7156,0.84787,0.18747,0.78106,0.94199,-0.14131,0.55501,1.37168,0.20207,0.50822,1.41688,-0.19832,0.83086,1.25254,0.48941,0.53232,1.35339,-0.01194,0.84271,1.42176,0.33389,0.72938,1.39244
2327,0.01708,0.52116,1.45238,0.08479,0.56429,0.07797,0.0798,1.51486,1.03685,0.01884,0.73675,0.4441,0.14097,1.12864,1.14018,0.03165,0.7139,0.84873,0.18914,0.77981,0.94199,-0.14259,0.55438,1.37053,0.20035,0.5035,1.41862,-0.19694,0.83007,1.24979,0.48771,0.51418,1.35161,-0.00996,0.84151,1.41838,0.33784,0.71592,1.38882
2328,0.01556,0.51823,1.45498,0.0846,0.56396,0.07728,0.07614,1.52125,1.03283,0.02097,0.73371,0.44507,0.13695,1.13264,1.12699,0.0322,0.71045,0.84973,0.18987,0.77729,0.94203,-0.14437,0.55513,1.36952,0.19837,0.49842,1.42028,-0.19346,0.83083,1.24655,0.48523,0.49662,1.35036,-0.00699,0.84046,1.41582,0.34149,0.70304,1.38607
2329,0.01402,0.51618,1.45757,0.08491,0.56371,0.07655,0.07328,1.52709,1.02876,0.02335,0.72995,0.44629,0.13226,1.13586,1.1127,0.03216,0.70558,0.85094,0.18976,0.77408,0.94213,-0.14617,0.55639,1.36856,0.19629,0.49339,1.42189,-0.18909,0.83194,1.24298,0.48223,0.47987,1.34957,-0.00386,0.83937,1.41371,0.34474,0.69067,1.38428
2330,0.01245,0.51465,1.46013,0.08561,0.5633,0.07592,0.07086,1.53185,1.02459,0.02589,0.72549,0.44775,0.12748,1.13817,1.09803,0.03191,0.69979,0.85237,0.18925,0.77042,0.94238,-0.1475,0.55701,1.36775,0.19442,0.4884,1.42361,-0.18552,0.83182,1.239,0.47907,0.46422,1.34898,-0.00142,0.83809,1.41099,0.34719,0.67864,1.38332
2331,0.01093,0.51325,1.46275,0.08639,0.56275,0.07546,0.06831,1.53495,1.0198,0.02855,0.72052,0.44949,0.12315,1.13933,1.08355,0.03156,0.69352,0.85405,0.18861,0.7662,0.94293,-0.14833,0.55664,1.36732,0.193,0.48329,1.42573,-0.18291,0.83,1.23458,0.47601,0.44991,1.34846,0.00065,0.8367,1.40714,0.34869,0.66702,1.38305
2332,0.0095,0.51168,1.46555,0.08689,0.56224,0.07523,0.06527,1.53585,1.01347,0.03112,0.71528,0.45153,0.11982,1.13907,1.06981,0.03107,0.68712,0.85603,0.18805,0.76123,0.94383,-0.14886,0.55579,1.36767,0.1921,0.47811,1.42844,-0.18021,0.8271,1.23002,0.47324,0.43691,1.34818,0.00332,0.83542,1.40254,0.34961,0.65603,1.38356
2333,0.0082,0.50989,1.46858,0.08702,0.56177,0.07525,0.06176,1.53427,1.00457,0.0332,0.70999,0.45375,0.11763,1.13722,1.05753,0.03043,0.68073,0.85817,0.18775,0.75558,0.94472,-0.14922,0.55482,1.36912,0.19164,0.4731,1.43165,-0.17689,0.82356,1.22574,0.47082,0.42512,1.34841,0.00698,0.83432,1.39776,0.35044,0.64581,1.38511
2334,0.00687,0.50808,1.47183,0.08703,0.56116,0.07541,0.0578,1.53024,0.9922,0.03449,0.70469,0.4559,0.11616,1.13383,1.04726,0.02984,0.6743,0.86021,0.18782,0.74942,0.94534,-0.14934,0.5536,1.37145,0.19124,0.46835,1.43518,-0.1735,0.81918,1.2217,0.46859,0.41455,1.34938,0.01089,0.83322,1.39292,0.35132,0.63658,1.38804
2335,0.00525,0.50633,1.47529,0.08704,0.56043,0.07559,0.05321,1.52382,0.97552,0.03495,0.69934,0.45786,0.11491,1.12917,1.03897,0.02957,0.66767,0.86206,0.18821,0.74284,0.9459,-0.14905,0.55192,1.37402,0.1905,0.46391,1.43895,-0.17069,0.81374,1.21742,0.46631,0.40534,1.35135,0.0139,0.83194,1.38803,0.35213,0.62852,1.39254
2336,0.00359,0.50441,1.47894,0.08681,0.5598,0.07582,0.04804,1.5149,0.95359,0.03473,0.69406,0.45974,0.11377,1.12361,1.03203,0.02956,0.66075,0.86381,0.18887,0.73591,0.94638,-0.14834,0.54982,1.37627,0.18948,0.46005,1.44283,-0.16858,0.80745,1.21269,0.46413,0.39748,1.35436,0.01562,0.83028,1.38317,0.35292,0.62162,1.3984
2337,0.00249,0.50196,1.48275,0.08622,0.55934,0.07627,0.04298,1.50317,0.92605,0.03401,0.68911,0.46172,0.11288,1.11746,1.02569,0.02959,0.65366,0.86562,0.18985,0.72878,0.94637,-0.14732,0.54741,1.3781,0.18868,0.45692,1.44669,-0.16691,0.80071,1.20782,0.46248,0.3908,1.35815,0.01661,0.82813,1.37835,0.3539,0.61564,1.4051
2338,0.00195,0.49909,1.48658,0.08551,0.55899,0.07703,0.03902,1.48826,0.89387,0.03284,0.68461,0.46378,0.11215,1.1109,1.01971,0.02977,0.64659,0.86746,0.19119,0.72153,0.94604,-0.1461,0.54474,1.37968,0.18824,0.45419,1.45059,-0.16544,0.79389,1.20336,0.46144,0.38506,1.36251,0.01784,0.82557,1.37341,0.3552,0.61042,1.41221
2339,0.00142,0.49627,1.49012,0.08485,0.55866,0.07794,0.03709,1.47007,0.85899,0.03108,0.68047,0.46576,0.11121,1.10402,1.01422,0.03039,0.63965,0.86918,0.19275,0.71412,0.94625,-0.14471,0.54192,1.38126,0.18776,0.45123,1.45462,-0.16396,0.78717,1.19953,0.46075,0.38012,1.36749,0.01994,0.82281,1.36814,0.35656,0.60587,1.4197
2340,0.0008,0.49371,1.49306,0.08404,0.55828,0.07876,0.03766,1.44866,0.82305,0.02873,0.67646,0.46748,0.10997,1.0969,1.00913,0.0313,0.63282,0.8706,0.1942,0.70657,0.94722,-0.14327,0.53913,1.383,0.18702,0.4477,1.4587,-0.16249,0.78051,1.19617,0.4604,0.37606,1.37321,0.02272,0.81984,1.36249,0.35763,0.6019,1.42779
2341,0.00045,0.49114,1.49538,0.08295,0.55776,0.07935,0.0405,1.42403,0.78674,0.02615,0.67251,0.46889,0.10882,1.08969,1.00383,0.03189,0.62602,0.87166,0.19527,0.69891,0.94808,-0.14207,0.53641,1.38483,0.18637,0.44394,1.46264,-0.16143,0.77379,1.19295,0.46078,0.37326,1.37968,0.02533,0.81648,1.35671,0.35819,0.59864,1.43648
2342,0.00038,0.48829,1.49733,0.08159,0.55713,0.07981,0.04479,1.39625,0.75035,0.02374,0.66876,0.47009,0.10822,1.08252,0.9976,0.03181,0.61929,0.87246,0.19602,0.69122,0.94799,-0.14133,0.53358,1.3864,0.18618,0.44061,1.46628,-0.16104,0.76699,1.18975,0.46216,0.37199,1.38688,0.02701,0.81277,1.35117,0.35826,0.59629,1.44553
2343,0.00028,0.48517,1.49916,0.08005,0.55655,0.08023,0.0498,1.3657,0.71441,0.02178,0.66528,0.47127,0.10829,1.07552,0.99001,0.03117,0.61271,0.87322,0.19665,0.68357,0.94698,-0.14109,0.53032,1.38748,0.18638,0.43785,1.46948,-0.1613,0.76009,1.18663,0.46436,0.37215,1.39475,0.02755,0.80909,1.34617,0.3579,0.59487,1.45478
2344,0.00015,0.48194,1.50097,0.07832,0.55622,0.08063,0.05538,1.33308,0.67939,0.02041,0.66201,0.47253,0.10895,1.06876,0.9808,0.03031,0.60633,0.87405,0.19726,0.67601,0.94561,-0.14117,0.52647,1.38814,0.18667,0.43501,1.47218,-0.16216,0.75289,1.18361,0.46703,0.37338,1.40306,0.0269,0.80554,1.34171,0.35718,0.59418,1.46407
2345,0.0003,0.47866,1.50276,0.07637,0.55607,0.08095,0.06169,1.29868,0.64542,0.01961,0.65886,0.47382,0.11,1.06208,0.96987,0.02946,0.60008,0.87489,0.19782,0.66847,0.94435,-0.1413,0.52216,1.38863,0.18683,0.43136,1.47454,-0.16395,0.74511,1.1805,0.46978,0.37539,1.41142,0.02475,0.80187,1.33761,0.35616,0.59412,1.47302
2346,0.00071,0.47526,1.50453,0.07423,0.55578,0.08119,0.06869,1.26233,0.61263,0.01911,0.65583,0.475,0.11125,1.05517,0.95739,0.02868,0.59381,0.87559,0.19834,0.66083,0.9432,-0.14129,0.51763,1.3891,0.1869,0.42708,1.47665,-0.16706,0.73658,1.17711,0.47241,0.37804,1.41958,0.02077,0.79783,1.33359,0.35486,0.59466,1.48128
2347,0.00106,0.47182,1.50625,0.07197,0.55516,0.08137,0.07618,1.22397,0.58145,0.01862,0.65298,0.47599,0.11259,1.04791,0.94374,0.02787,0.5875,0.87603,0.19878,0.65312,0.94183,-0.14132,0.51296,1.38948,0.18707,0.42324,1.4784,-0.17133,0.72731,1.17339,0.47487,0.38132,1.42747,0.01519,0.79335,1.32948,0.35337,0.59585,1.48879
2348,0.00108,0.46854,1.50782,0.06961,0.55422,0.08153,0.08402,1.18395,0.55231,0.01815,0.65032,0.47681,0.11411,1.04048,0.92926,0.02664,0.58132,0.87629,0.19893,0.64554,0.93984,-0.14176,0.508,1.38966,0.18751,0.42079,1.47964,-0.17629,0.71746,1.16949,0.47725,0.38537,1.43522,0.00874,0.78858,1.32513,0.3518,0.59786,1.4957
2349,0.00086,0.46547,1.50921,0.06708,0.55307,0.08162,0.09196,1.14278,0.52551,0.01788,0.6477,0.47754,0.11586,1.033,0.91405,0.02472,0.57543,0.87647,0.19864,0.63815,0.93698,-0.1427,0.5026,1.38962,0.18822,0.41983,1.48038,-0.18162,0.70735,1.16578,0.47962,0.39037,1.44304,0.00212,0.78381,1.3204,0.35012,0.60079,1.50218
2350,0.0007,0.46239,1.51053,0.06456,0.55176,0.08159,0.09976,1.10083,0.5011,0.01799,0.64502,0.47816,0.11769,1.02524,0.89803,0.02253,0.56964,0.87655,0.19819,0.63084,0.93351,-0.14392,0.49676,1.38944,0.18906,0.41974,1.48097,-0.18735,0.69732,1.16265,0.48186,0.39642,1.45098,-0.00432,0.7793,1.31527,0.34802,0.60457,1.50844
2351,0.0008,0.45924,1.51173,0.06261,0.55044,0.08136,0.10764,1.05836,0.47901,0.01845,0.64229,0.47854,0.1194,1.01685,0.88115,0.02096,0.5637,0.87632,0.19811,0.62353,0.93002,-0.1451,0.49079,1.38933,0.18987,0.41974,1.48196,-0.19358,0.68744,1.16016,0.48377,0.40341,1.4588,-0.01078,0.77507,1.30989,0.34522,0.60887,1.51481
2352,0.00113,0.4562,1.5126,0.06187,0.54938,0.08083,0.11606,1.01561,0.4591,0.01918,0.63951,0.47856,0.12098,1.00775,0.86344,0.02034,0.55767,0.87569,0.19862,0.61631,0.92691,-0.14584,0.48506,1.38947,0.19059,0.4194,1.48364,-0.20034,0.6773,1.15792,0.48521,0.41105,1.46615,-0.01783,0.77088,1.30438,0.34171,0.61327,1.52143
2353,0.00157,0.45343,1.513,0.06261,0.54875,0.08004,0.12515,0.97278,0.44121,0.02008,0.63656,0.47831,0.12259,0.99805,0.84487,0.02028,0.55174,0.87482,0.19944,0.60934,0.92412,-0.14593,0.4797,1.38985,0.19131,0.41905,1.48576,-0.20757,0.66639,1.15557,0.48628,0.41899,1.47287,-0.02592,0.76651,1.29873,0.33768,0.61753,1.52807
2354,0.00205,0.45088,1.51301,0.06462,0.54856,0.07916,0.13439,0.93009,0.42507,0.02116,0.63331,0.47799,0.12444,0.98777,0.82527,0.02032,0.54584,0.87392,0.20019,0.60268,0.92148,-0.14566,0.4745,1.3903,0.19217,0.41936,1.48785,-0.21513,0.65454,1.15302,0.4872,0.42708,1.47907,-0.03517,0.76189,1.29304,0.3335,0.62168,1.53433
2355,0.00243,0.44855,1.51265,0.06738,0.54871,0.07822,0.14312,0.88782,0.4103,0.02253,0.62975,0.47766,0.12665,0.9767,0.80452,0.02042,0.53983,0.87304,0.20083,0.59631,0.91892,-0.14572,0.46929,1.39066,0.1932,0.42036,1.4896,-0.22277,0.64208,1.15035,0.48803,0.43547,1.48487,-0.0453,0.75692,1.28757,0.32943,0.62615,1.53995
2356,0.0027,0.44648,1.51191,0.07022,0.54916,0.07716,0.15125,0.84623,0.39675,0.02424,0.62617,0.47727,0.12946,0.9646,0.78288,0.02052,0.53386,0.87208,0.20145,0.59003,0.91631,-0.14645,0.46405,1.39088,0.19426,0.42133,1.49083,-0.23023,0.62951,1.14768,0.48861,0.44453,1.49023,-0.05561,0.75133,1.28252,0.32531,0.63131,1.54493
2357,0.00303,0.44454,1.51086,0.07253,0.54991,0.07611,0.159,0.80546,0.38454,0.0261,0.62296,0.47691,0.13325,0.95131,0.7609,0.02044,0.52815,0.87111,0.20207,0.58351,0.91345,-0.14746,0.45886,1.39084,0.19522,0.4218,1.49143,-0.23733,0.61731,1.14516,0.48865,0.45439,1.49501,-0.06517,0.74483,1.27787,0.32056,0.63697,1.54937
2358,0.00363,0.44263,1.50968,0.07394,0.55086,0.07546,0.16644,0.76546,0.37375,0.02762,0.62038,0.4769,0.13817,0.93671,0.73907,0.02014,0.52265,0.87036,0.20274,0.57649,0.91042,-0.14812,0.45377,1.39034,0.19598,0.4221,1.4914,-0.2441,0.60577,1.14291,0.488,0.46496,1.49914,-0.07339,0.73751,1.27336,0.31468,0.64262,1.55336
2359,0.00434,0.44093,1.50852,0.07454,0.55179,0.07551,0.17338,0.72619,0.36431,0.02833,0.61851,0.47743,0.14394,0.92074,0.71767,0.01981,0.51716,0.86995,0.20349,0.56906,0.90756,-0.14818,0.44888,1.38941,0.19646,0.42285,1.49093,-0.25079,0.59468,1.14091,0.48666,0.47602,1.5025,-0.08054,0.72977,1.26849,0.30776,0.64799,1.55698
2360,0.00473,0.43959,1.50747,0.07457,0.55245,0.07614,0.17949,0.68773,0.35598,0.02814,0.61731,0.47835,0.15005,0.9035,0.69681,0.01967,0.51167,0.86973,0.20437,0.5615,0.90508,-0.14785,0.44426,1.38842,0.19679,0.42412,1.4903,-0.25751,0.58323,1.13901,0.48483,0.48733,1.50493,-0.08746,0.72205,1.26281,0.30046,0.65316,1.5602
2361,0.00456,0.43835,1.50662,0.07419,0.55272,0.07702,0.18451,0.65032,0.34843,0.02725,0.61661,0.47933,0.15597,0.88525,0.67642,0.01973,0.50647,0.86948,0.20539,0.55413,0.9027,-0.14738,0.43988,1.38766,0.19726,0.4253,1.48967,-0.26401,0.57074,1.13703,0.48279,0.49855,1.50646,-0.09482,0.71454,1.25624,0.29346,0.65832,1.5628
2362,0.00406,0.4368,1.50603,0.07349,0.55251,0.07783,0.18851,0.61417,0.3414,0.02581,0.61618,0.48008,0.16138,0.86628,0.6565,0.01985,0.50176,0.86904,0.20648,0.54703,0.90008,-0.14701,0.43566,1.38706,0.19806,0.42572,1.48905,-0.26995,0.55721,1.13477,0.48062,0.50938,1.50738,-0.10267,0.70716,1.24899,0.287,0.6636,1.56459
2363,0.00354,0.43487,1.50558,0.07254,0.5518,0.07835,0.19189,0.5793,0.33482,0.02388,0.6157,0.48045,0.1664,0.84666,0.63723,0.01996,0.49757,0.86832,0.20758,0.54009,0.89724,-0.14691,0.43162,1.38634,0.1991,0.42528,1.48849,-0.27531,0.54308,1.13212,0.4782,0.51963,1.50789,-0.11073,0.69955,1.24141,0.28086,0.66891,1.56549
2364,0.00309,0.4328,1.50517,0.07154,0.55076,0.07854,0.19491,0.54555,0.32855,0.0217,0.6149,0.48046,0.17148,0.82628,0.61876,0.02012,0.49366,0.86739,0.20866,0.53321,0.89448,-0.14723,0.42757,1.38543,0.20018,0.42427,1.48819,-0.28026,0.52858,1.12923,0.47542,0.52932,1.50781,-0.1188,0.69137,1.23385,0.27461,0.67382,1.56559
2365,0.00269,0.43073,1.50484,0.07079,0.54966,0.07852,0.19734,0.51267,0.32221,0.01975,0.61364,0.48031,0.17695,0.80494,0.60104,0.02039,0.48983,0.86642,0.20972,0.52648,0.89202,-0.1479,0.42319,1.38458,0.20128,0.42301,1.48826,-0.28466,0.51374,1.12643,0.47229,0.53873,1.50669,-0.12674,0.68262,1.22672,0.26787,0.67786,1.56497
2366,0.00249,0.4285,1.50469,0.07041,0.54879,0.07842,0.19866,0.48059,0.31548,0.01827,0.61185,0.48022,0.18274,0.78259,0.58404,0.02065,0.48613,0.86571,0.21067,0.52005,0.88994,-0.14864,0.41835,1.38401,0.20251,0.42178,1.48848,-0.28805,0.49899,1.124,0.46889,0.54813,1.50429,-0.13411,0.67363,1.22052,0.26062,0.6809,1.56378
2367,0.00267,0.42596,1.50467,0.0702,0.54828,0.07837,0.19876,0.44945,0.30827,0.01704,0.60949,0.48031,0.18859,0.75929,0.56803,0.02079,0.48263,0.86542,0.21142,0.51394,0.8883,-0.14893,0.41322,1.38376,0.20375,0.42102,1.48841,-0.29002,0.48492,1.12205,0.46527,0.55749,1.50095,-0.14012,0.66467,1.21551,0.25316,0.68321,1.56219
2368,0.00323,0.42325,1.5046,0.06995,0.54809,0.07839,0.19809,0.41937,0.3007,0.01575,0.60668,0.48059,0.19433,0.73517,0.55337,0.02088,0.47922,0.86548,0.21204,0.50809,0.88715,-0.14843,0.40801,1.38378,0.20457,0.42116,1.48776,-0.29054,0.4718,1.12057,0.46142,0.56645,1.49734,-0.14418,0.65567,1.2116,0.24575,0.68507,1.56028
2369,0.00407,0.42057,1.5045,0.06969,0.54811,0.07852,0.19712,0.39027,0.29287,0.01446,0.60373,0.481,0.19984,0.71032,0.54013,0.0211,0.47569,0.86568,0.2127,0.50228,0.88631,-0.14721,0.4027,1.38406,0.20461,0.42207,1.48666,-0.28991,0.45933,1.11955,0.45723,0.57473,1.49393,-0.14632,0.6464,1.20841,0.23821,0.68649,1.55787
2370,0.00513,0.41798,1.50448,0.0695,0.54818,0.07874,0.19591,0.36201,0.28483,0.01353,0.60105,0.48149,0.20491,0.68496,0.52816,0.02147,0.47199,0.8658,0.21351,0.49621,0.88536,-0.14567,0.39721,1.38465,0.204,0.42305,1.48543,-0.28858,0.44692,1.11886,0.45253,0.58236,1.4906,-0.14725,0.6368,1.2054,0.23023,0.68734,1.55468
2371,0.00639,0.41546,1.5045,0.06937,0.54816,0.07896,0.19433,0.33472,0.27677,0.01331,0.5988,0.48198,0.20941,0.65945,0.5174,0.02189,0.46818,0.86575,0.21439,0.48959,0.88402,-0.14423,0.39166,1.38538,0.20321,0.42342,1.4842,-0.2868,0.43416,1.11816,0.4474,0.58937,1.48684,-0.14791,0.62704,1.20196,0.22195,0.68767,1.5505
2372,0.0077,0.41307,1.50438,0.06933,0.54797,0.07901,0.19233,0.30877,0.26891,0.01395,0.59679,0.48235,0.21355,0.63424,0.50807,0.02228,0.46431,0.86549,0.21523,0.48229,0.8825,-0.14299,0.38638,1.38592,0.20262,0.42306,1.48298,-0.28454,0.42119,1.11704,0.44214,0.5957,1.48219,-0.1487,0.61748,1.19787,0.21388,0.68769,1.5453
2373,0.00871,0.4109,1.50411,0.0695,0.54768,0.07886,0.18986,0.28451,0.26133,0.01543,0.59467,0.48259,0.21762,0.60958,0.50037,0.0226,0.46039,0.86512,0.21595,0.47462,0.88125,-0.14188,0.38166,1.38606,0.20237,0.42214,1.48172,-0.28163,0.40859,1.11534,0.43695,0.60137,1.47643,-0.14926,0.60832,1.19344,0.20639,0.68754,1.53938
2374,0.0092,0.40889,1.50396,0.06992,0.54737,0.07857,0.18682,0.26197,0.25383,0.01758,0.59219,0.48278,0.22164,0.58537,0.49422,0.02285,0.45657,0.86487,0.21646,0.46718,0.8806,-0.14076,0.37751,1.38604,0.20245,0.4209,1.4805,-0.27799,0.39687,1.1134,0.43185,0.60646,1.46962,-0.1489,0.59954,1.1894,0.19954,0.68713,1.5334
2375,0.00939,0.40678,1.50416,0.07044,0.54695,0.07823,0.18345,0.24089,0.24595,0.0201,0.58929,0.48296,0.22523,0.56131,0.48919,0.02303,0.45297,0.86483,0.2168,0.46048,0.8804,-0.13947,0.37382,1.38624,0.20265,0.4195,1.47939,-0.27364,0.38613,1.11167,0.42674,0.61096,1.46203,-0.14733,0.59104,1.18631,0.19332,0.68639,1.52814
2376,0.00985,0.40438,1.50463,0.07094,0.54646,0.07787,0.18026,0.22097,0.23733,0.02265,0.5861,0.48312,0.22797,0.53727,0.48483,0.02315,0.4495,0.8649,0.21703,0.4544,0.88018,-0.13795,0.37058,1.38671,0.2028,0.4181,1.47847,-0.26867,0.37618,1.11026,0.42163,0.61479,1.45396,-0.14494,0.58293,1.18416,0.18781,0.68544,1.52383
2377,0.01085,0.40178,1.50514,0.07136,0.54615,0.07748,0.17765,0.20206,0.22786,0.02488,0.58283,0.48322,0.22966,0.51333,0.48083,0.02318,0.44598,0.86491,0.21716,0.44846,0.87948,-0.13618,0.36759,1.38709,0.20298,0.41673,1.47781,-0.26317,0.36682,1.10885,0.41665,0.61793,1.44553,-0.14247,0.57539,1.18265,0.183,0.6843,1.52001
2378,0.01211,0.39923,1.50562,0.07167,0.54613,0.07714,0.17556,0.18414,0.21776,0.02666,0.57977,0.48331,0.23033,0.4896,0.47715,0.02307,0.44249,0.86483,0.21715,0.44238,0.87825,-0.13431,0.36428,1.38713,0.20331,0.41549,1.47741,-0.25714,0.3579,1.10711,0.41194,0.6204,1.43667,-0.14024,0.56841,1.18149,0.17878,0.68272,1.51604
2379,0.01311,0.39689,1.50621,0.07188,0.54619,0.07691,0.17364,0.16725,0.20734,0.02821,0.57712,0.48344,0.23003,0.46612,0.47395,0.02283,0.43924,0.86472,0.21697,0.43615,0.87671,-0.13253,0.36016,1.38695,0.20357,0.41456,1.47721,-0.25061,0.34923,1.10503,0.40755,0.62211,1.42727,-0.13783,0.56158,1.18055,0.17513,0.68033,1.51174
2380,0.01358,0.39475,1.50695,0.07206,0.54609,0.07675,0.1716,0.15156,0.19692,0.0299,0.57481,0.4836,0.22893,0.44304,0.4714,0.02253,0.43626,0.86461,0.21667,0.42975,0.87508,-0.13101,0.35547,1.38683,0.2035,0.41391,1.47705,-0.24375,0.34062,1.1029,0.40329,0.62294,1.41731,-0.13462,0.55441,1.17969,0.17197,0.67701,1.50737
2381,0.01371,0.39268,1.50775,0.0723,0.54587,0.07657,0.16938,0.13735,0.18682,0.03191,0.57256,0.48374,0.22727,0.42079,0.46948,0.02224,0.43323,0.86441,0.21631,0.42305,0.87341,-0.12986,0.35111,1.38694,0.20322,0.41298,1.47674,-0.23673,0.33215,1.101,0.39874,0.62296,1.40704,-0.13061,0.5471,1.17878,0.16895,0.67303,1.50314
2382,0.01385,0.39049,1.50849,0.07259,0.54568,0.07636,0.16706,0.12468,0.17741,0.03405,0.57007,0.48386,0.22527,0.39989,0.46801,0.02199,0.42976,0.8641,0.2159,0.41607,0.87167,-0.12912,0.34776,1.3873,0.20318,0.41102,1.4762,-0.22941,0.32415,1.09933,0.39359,0.62228,1.39687,-0.12632,0.54031,1.17782,0.16561,0.66894,1.49883
2383,0.01427,0.38813,1.50913,0.07285,0.54552,0.07626,0.16476,0.1133,0.16898,0.03586,0.56711,0.48405,0.22288,0.3806,0.46691,0.02173,0.42566,0.8638,0.21546,0.40899,0.86993,-0.12868,0.34528,1.38776,0.20371,0.40783,1.47558,-0.22152,0.31671,1.09775,0.38794,0.62088,1.38701,-0.12211,0.53431,1.17702,0.16172,0.66514,1.49381
2384,0.01507,0.38583,1.5096,0.07293,0.54521,0.07634,0.16246,0.10294,0.16164,0.03704,0.5636,0.4844,0.2198,0.36284,0.46619,0.02148,0.421,0.86365,0.21502,0.40193,0.86835,-0.12811,0.34296,1.38804,0.20475,0.40397,1.47511,-0.21313,0.30959,1.09615,0.38217,0.61869,1.37715,-0.11795,0.52864,1.17659,0.15756,0.66168,1.48782
2385,0.01604,0.38379,1.50976,0.07279,0.54461,0.07652,0.15987,0.09357,0.15521,0.03767,0.55974,0.48478,0.21597,0.34649,0.4658,0.02125,0.41603,0.86358,0.2146,0.39479,0.86699,-0.12706,0.34029,1.38787,0.206,0.4001,1.47465,-0.20484,0.30257,1.0945,0.37659,0.61566,1.36689,-0.11385,0.52287,1.17638,0.15379,0.65825,1.48132
2386,0.01691,0.38184,1.5096,0.07255,0.54388,0.07655,0.15672,0.08532,0.14935,0.03815,0.55585,0.48497,0.21184,0.33151,0.46547,0.02104,0.41102,0.86331,0.21412,0.38738,0.86567,-0.12562,0.33729,1.38718,0.20728,0.39648,1.4739,-0.1973,0.29577,1.09276,0.37138,0.61184,1.35613,-0.11001,0.51705,1.17601,0.15085,0.65451,1.47484
2387,0.01768,0.37968,1.50925,0.07237,0.54326,0.07636,0.15304,0.07821,0.14372,0.03879,0.55219,0.48493,0.20793,0.31776,0.46494,0.02084,0.40606,0.86273,0.21356,0.37955,0.86424,-0.12418,0.33418,1.38615,0.20866,0.39302,1.47287,-0.19044,0.28943,1.09094,0.36654,0.60729,1.34506,-0.10663,0.51156,1.17547,0.14871,0.65029,1.46854
2388,0.01856,0.37715,1.5089,0.0723,0.54278,0.07623,0.14912,0.07205,0.13819,0.03959,0.54893,0.48492,0.20441,0.30492,0.46423,0.02074,0.40104,0.862,0.21299,0.37132,0.86273,-0.12289,0.33116,1.38509,0.21029,0.38958,1.47205,-0.18361,0.28365,1.08912,0.36185,0.60204,1.33396,-0.10385,0.5067,1.17515,0.14698,0.64562,1.46232
2389,0.01964,0.37436,1.50853,0.07224,0.54238,0.07643,0.14512,0.06668,0.13291,0.04032,0.5461,0.48522,0.20109,0.29272,0.46361,0.02073,0.39589,0.86133,0.21245,0.3629,0.86139,-0.12158,0.32832,1.38419,0.21214,0.38607,1.4717,-0.17652,0.2784,1.08749,0.3571,0.59611,1.32321,-0.10154,0.50254,1.17499,0.14517,0.64075,1.45601
2390,0.02073,0.37143,1.50807,0.07208,0.54211,0.07695,0.14078,0.06208,0.12806,0.04081,0.54366,0.48579,0.19776,0.28105,0.4633,0.02079,0.39065,0.86076,0.21193,0.35447,0.86041,-0.1201,0.32558,1.38352,0.21401,0.38243,1.47153,-0.16949,0.27349,1.08622,0.35229,0.58964,1.31305,-0.09913,0.49888,1.17433,0.14296,0.63588,1.44939
2391,0.02163,0.36842,1.50751,0.07183,0.54198,0.07746,0.1357,0.05829,0.12368,0.04114,0.54148,0.48635,0.19434,0.26997,0.46329,0.02089,0.38543,0.86005,0.2114,0.34606,0.85978,-0.11864,0.32282,1.38314,0.21563,0.37855,1.47105,-0.16272,0.26885,1.08534,0.3475,0.58268,1.30337,-0.09601,0.49555,1.17293,0.14033,0.63109,1.44222
2392,0.02231,0.36528,1.50688,0.07159,0.54196,0.07771,0.1298,0.05539,0.1196,0.04154,0.53943,0.48664,0.19102,0.25961,0.4633,0.02103,0.38038,0.85906,0.21081,0.33762,0.85929,-0.11747,0.32006,1.383,0.21676,0.37435,1.46993,-0.15608,0.26477,1.08468,0.3427,0.57505,1.29377,-0.09199,0.49255,1.17143,0.13743,0.62624,1.43445
2393,0.02295,0.3621,1.50617,0.07144,0.54199,0.07774,0.12335,0.05349,0.11556,0.04211,0.53735,0.4867,0.188,0.25012,0.46304,0.02118,0.3756,0.85794,0.21011,0.32922,0.85869,-0.11652,0.31746,1.38281,0.21735,0.36971,1.46825,-0.14966,0.26156,1.08395,0.33788,0.56656,1.28413,-0.08734,0.49002,1.17017,0.1344,0.62106,1.42616
2394,0.02383,0.35904,1.5053,0.07135,0.54193,0.07771,0.11666,0.05258,0.1114,0.04281,0.53507,0.4867,0.18537,0.24153,0.46234,0.02135,0.37099,0.85688,0.20935,0.32099,0.85782,-0.11551,0.31529,1.38228,0.21775,0.36454,1.46629,-0.14366,0.25885,1.08301,0.33338,0.55722,1.27477,-0.08249,0.48784,1.16865,0.13136,0.61519,1.4175
2395,0.02506,0.35609,1.5042,0.07128,0.54164,0.07773,0.11001,0.0525,0.10717,0.04353,0.53246,0.48672,0.18299,0.23386,0.46124,0.02161,0.36632,0.85595,0.20869,0.31296,0.85667,-0.11439,0.31375,1.38147,0.21837,0.35881,1.46427,-0.13788,0.25588,1.08207,0.32959,0.5472,1.26599,-0.07781,0.48561,1.16651,0.12848,0.60841,1.40866
2396,0.02648,0.35304,1.5029,0.07131,0.54112,0.07773,0.10389,0.05302,0.10301,0.04426,0.52945,0.48671,0.18065,0.2272,0.45988,0.02206,0.36137,0.85505,0.20829,0.30511,0.85542,-0.11338,0.31275,1.38067,0.21938,0.35273,1.46225,-0.13187,0.25238,1.08141,0.32662,0.53674,1.25775,-0.0735,0.48312,1.16426,0.12601,0.60076,1.39989
2397,0.02788,0.34976,1.50148,0.07147,0.54062,0.07768,0.09868,0.05384,0.09915,0.04507,0.52618,0.48662,0.17827,0.22152,0.45849,0.0227,0.35621,0.85408,0.20817,0.2975,0.85425,-0.11258,0.31186,1.38007,0.22069,0.34657,1.46015,-0.12572,0.24883,1.08108,0.32421,0.52605,1.24981,-0.06952,0.48056,1.16267,0.12403,0.5925,1.39144
2398,0.02925,0.34636,1.50007,0.07165,0.54037,0.07758,0.09443,0.05469,0.09567,0.046,0.52295,0.48645,0.17586,0.21663,0.45723,0.02349,0.35119,0.85306,0.20823,0.29024,0.85324,-0.11187,0.31057,1.3796,0.22215,0.3404,1.45785,-0.12016,0.24594,1.08078,0.32193,0.51527,1.24188,-0.06567,0.47823,1.16192,0.12255,0.58418,1.38347
2399,0.03072,0.34294,1.49875,0.07169,0.54035,0.07742,0.09102,0.05547,0.09256,0.04702,0.52002,0.48621,0.17345,0.21221,0.45618,0.02438,0.34659,0.85203,0.20833,0.28328,0.85244,-0.11111,0.30867,1.379,0.22359,0.33411,1.45524,-0.11593,0.24397,1.08011,0.31955,0.50434,1.23391,-0.06163,0.47624,1.16144,0.12169,0.57649,1.376
2400,0.0323,0.33942,1.49756,0.07165,0.54035,0.07726,0.08839,0.05615,0.08974,0.04812,0.51749,0.48598,0.17121,0.20801,0.45534,0.02529,0.34234,0.85097,0.20835,0.27651,0.85184,-0.11032,0.30645,1.37813,0.22479,0.32746,1.45248,-0.11296,0.24274,1.07901,0.31735,0.49294,1.22614,-0.05718,0.47452,1.16072,0.12164,0.56967,1.36881
2401,0.0338,0.33567,1.49649,0.07179,0.54025,0.07726,0.08653,0.05653,0.08721,0.04935,0.51529,0.48593,0.16935,0.20388,0.45464,0.02608,0.33809,0.84989,0.20829,0.26994,0.85139,-0.10952,0.30429,1.37711,0.22576,0.32039,1.44998,-0.11056,0.24188,1.0777,0.31585,0.48071,1.21899,-0.05234,0.47295,1.15976,0.12239,0.56314,1.36155
2402,0.03517,0.33157,1.49556,0.07227,0.54011,0.07762,0.08531,0.05616,0.08504,0.0507,0.51321,0.48621,0.16797,0.19971,0.45402,0.02657,0.33357,0.84893,0.20812,0.26371,0.85098,-0.10865,0.30233,1.3761,0.2267,0.31316,1.44803,-0.10824,0.24089,1.07649,0.31527,0.46767,1.21253,-0.04753,0.47125,1.15875,0.12368,0.55605,1.35405
2403,0.03663,0.32714,1.49479,0.07289,0.54004,0.07826,0.08453,0.05475,0.08329,0.05209,0.51111,0.48675,0.16706,0.1954,0.45341,0.02676,0.32878,0.84804,0.20793,0.25796,0.85053,-0.10768,0.30029,1.37511,0.22777,0.30615,1.44646,-0.10612,0.23922,1.07543,0.31545,0.45425,1.20655,-0.04324,0.469,1.15766,0.12524,0.54815,1.34637
2404,0.0383,0.32258,1.49414,0.07324,0.54002,0.07878,0.08404,0.05245,0.08195,0.05334,0.50905,0.48717,0.16665,0.19103,0.45283,0.02685,0.32391,0.84694,0.20785,0.25267,0.85006,-0.10686,0.29781,1.37408,0.22901,0.29949,1.44496,-0.10452,0.23677,1.0744,0.31619,0.44101,1.20094,-0.03953,0.46605,1.15639,0.12694,0.53985,1.33864
2405,0.0399,0.31809,1.49362,0.07315,0.53994,0.07889,0.0838,0.04996,0.08094,0.05433,0.50699,0.48717,0.16691,0.18683,0.45235,0.0271,0.31916,0.84549,0.20794,0.24757,0.84973,-0.10643,0.29472,1.37315,0.23038,0.29299,1.44343,-0.10346,0.23412,1.07339,0.31743,0.42833,1.19588,-0.03598,0.46278,1.15508,0.1287,0.53155,1.33104
2406,0.0411,0.31369,1.49321,0.07279,0.53974,0.07863,0.08378,0.04803,0.08019,0.05516,0.50473,0.4868,0.16799,0.18298,0.45205,0.02765,0.31462,0.84389,0.20813,0.24225,0.84975,-0.10644,0.29131,1.37254,0.23167,0.28643,1.44194,-0.10282,0.23206,1.07251,0.31922,0.41603,1.19151,-0.03227,0.4598,1.15417,0.13062,0.52308,1.32385
2407,0.04199,0.30926,1.49295,0.07255,0.53952,0.07838,0.08395,0.04686,0.07966,0.05603,0.50217,0.48638,0.16987,0.17947,0.45197,0.02848,0.31024,0.8425,0.20834,0.23651,0.85016,-0.10679,0.28817,1.37232,0.23258,0.27969,1.44059,-0.1027,0.2309,1.07192,0.32159,0.40334,1.18768,-0.02861,0.45734,1.15407,0.1332,0.51399,1.31735
2408,0.04288,0.3047,1.49295,0.07269,0.5394,0.07842,0.08436,0.04607,0.07932,0.05703,0.49943,0.48621,0.17231,0.17623,0.45202,0.02955,0.30596,0.84149,0.20863,0.23052,0.8508,-0.10732,0.28577,1.37249,0.23289,0.27275,1.43949,-0.10341,0.23056,1.07169,0.32447,0.38962,1.18428,-0.02558,0.45536,1.15489,0.13692,0.50419,1.31173
2409,0.04382,0.30003,1.49325,0.07321,0.53941,0.07874,0.08502,0.04531,0.07907,0.05819,0.4966,0.48626,0.17494,0.17333,0.45204,0.03081,0.30187,0.84086,0.20907,0.22468,0.8514,-0.10781,0.28422,1.37301,0.23282,0.26563,1.43871,-0.10513,0.23083,1.07187,0.3277,0.37515,1.18145,-0.02343,0.45373,1.15645,0.14149,0.49405,1.30689
2410,0.04463,0.29549,1.49372,0.07385,0.53949,0.07911,0.08584,0.04456,0.07873,0.05952,0.49361,0.48632,0.17745,0.17081,0.4519,0.0322,0.29813,0.84052,0.20966,0.2192,0.85178,-0.10813,0.28336,1.3738,0.23283,0.25826,1.43819,-0.10767,0.23158,1.07237,0.33099,0.36093,1.17934,-0.02185,0.45237,1.15841,0.14602,0.48411,1.30245
2411,0.04528,0.29132,1.49405,0.0743,0.53955,0.07936,0.08658,0.0439,0.07828,0.06101,0.49037,0.48623,0.17965,0.16859,0.45161,0.03366,0.29472,0.84033,0.21029,0.21402,0.85196,-0.10821,0.28298,1.37474,0.23317,0.25062,1.43784,-0.11062,0.23281,1.07305,0.33409,0.34759,1.17786,-0.02023,0.45118,1.16057,0.14988,0.47475,1.29804
2412,0.046,0.2876,1.49402,0.07446,0.53951,0.07951,0.08703,0.04342,0.07781,0.06252,0.48692,0.48599,0.18149,0.16651,0.45132,0.03518,0.2914,0.84016,0.21093,0.20884,0.8521,-0.10805,0.28284,1.3758,0.2337,0.24293,1.43767,-0.11364,0.23476,1.07381,0.33673,0.3351,1.17678,-0.01818,0.45016,1.16327,0.15317,0.4661,1.29377
2413,0.04706,0.28416,1.49371,0.07459,0.53937,0.0797,0.08711,0.04313,0.07738,0.06388,0.48337,0.48575,0.18289,0.16446,0.45113,0.03668,0.28795,0.83999,0.21152,0.20354,0.8523,-0.10783,0.28275,1.37702,0.23414,0.23554,1.43766,-0.11649,0.23752,1.07467,0.33878,0.3233,1.17588,-0.01597,0.44935,1.16706,0.15623,0.45811,1.2901
2414,0.04854,0.28057,1.49348,0.07493,0.53928,0.08004,0.08693,0.0429,0.07702,0.06493,0.47988,0.48564,0.18384,0.1625,0.45103,0.03804,0.28442,0.83988,0.21201,0.19829,0.85255,-0.10778,0.28246,1.3784,0.23442,0.22865,1.43767,-0.11903,0.24052,1.07565,0.34045,0.31211,1.17505,-0.01421,0.44854,1.17185,0.15948,0.45064,1.28732
2415,0.0503,0.27657,1.49357,0.07552,0.53933,0.08054,0.08669,0.04256,0.07674,0.06563,0.47668,0.48565,0.18441,0.16069,0.45101,0.03921,0.28106,0.83983,0.21238,0.19338,0.8528,-0.1079,0.28164,1.3798,0.23471,0.22214,1.43761,-0.12121,0.24281,1.07672,0.34228,0.30127,1.17428,-0.0131,0.44742,1.17653,0.16353,0.44361,1.28533
2416,0.05208,0.27225,1.49392,0.07616,0.53957,0.0811,0.08657,0.042,0.07661,0.06615,0.47397,0.48574,0.18481,0.15905,0.45108,0.04023,0.27802,0.83978,0.21265,0.18892,0.8531,-0.10788,0.28019,1.38117,0.23514,0.21574,1.43749,-0.12313,0.24407,1.07785,0.34464,0.29058,1.1737,-0.0122,0.44596,1.18006,0.1689,0.43713,1.28409
2417,0.05369,0.26788,1.49435,0.07672,0.53997,0.0817,0.08659,0.04132,0.07661,0.06663,0.47165,0.48589,0.1852,0.15754,0.45125,0.04113,0.27534,0.83976,0.21279,0.18485,0.85347,-0.10747,0.27842,1.38249,0.23552,0.20914,1.43741,-0.125,0.24479,1.079,0.34727,0.28026,1.17353,-0.01112,0.44438,1.18249,0.17528,0.43135,1.28369
2418,0.05515,0.26359,1.49476,0.07713,0.54035,0.08236,0.08669,0.04076,0.07659,0.06711,0.46951,0.48612,0.18556,0.15607,0.45144,0.04185,0.27297,0.83988,0.21273,0.18104,0.85384,-0.10671,0.27674,1.38356,0.23556,0.2021,1.43744,-0.12704,0.24559,1.07999,0.34968,0.27056,1.17387,-0.00992,0.44271,1.18459,0.18186,0.42624,1.28408
2419,0.05657,0.25929,1.49523,0.07734,0.54045,0.08304,0.08673,0.04051,0.07643,0.06756,0.46741,0.4864,0.18585,0.15453,0.4516,0.04239,0.27075,0.8401,0.21249,0.17741,0.85416,-0.10588,0.27515,1.38421,0.23527,0.1946,1.43757,-0.1294,0.24674,1.0806,0.35182,0.26129,1.17461,-0.0088,0.44082,1.18691,0.18829,0.42141,1.28491
2420,0.05792,0.25499,1.49579,0.07732,0.54028,0.08367,0.08666,0.04052,0.07617,0.06797,0.46536,0.4867,0.18613,0.15283,0.45177,0.04291,0.2685,0.84029,0.21228,0.17385,0.85446,-0.10516,0.27345,1.38452,0.23502,0.18695,1.43775,-0.13207,0.24838,1.08089,0.35398,0.2522,1.17551,-0.0077,0.43874,1.18956,0.19467,0.41646,1.28589
2421,0.05915,0.25079,1.49638,0.07712,0.54015,0.08428,0.08648,0.04051,0.07599,0.06832,0.46333,0.48696,0.1865,0.15095,0.452,0.0436,0.26614,0.8404,0.21226,0.17027,0.8548,-0.10456,0.27172,1.38487,0.23494,0.17965,1.43791,-0.13485,0.25068,1.08126,0.3561,0.24351,1.17634,-0.00648,0.4368,1.19259,0.20079,0.4114,1.28698
2422,0.06038,0.24675,1.49699,0.07682,0.54027,0.08491,0.08623,0.0403,0.07595,0.06854,0.46125,0.48718,0.18693,0.14899,0.45228,0.04448,0.26371,0.84046,0.21239,0.16658,0.85518,-0.10392,0.27026,1.38557,0.23482,0.17309,1.43801,-0.13742,0.2537,1.08202,0.35774,0.23579,1.17698,-0.00517,0.43537,1.19612,0.20603,0.40651,1.28827
2423,0.06174,0.24287,1.4976,0.07644,0.54049,0.08554,0.08596,0.03999,0.07591,0.06856,0.45922,0.48737,0.1874,0.14723,0.45247,0.04538,0.26137,0.84054,0.21248,0.16289,0.85547,-0.10306,0.26911,1.38653,0.23449,0.16726,1.43802,-0.13962,0.25716,1.08312,0.35868,0.22921,1.17741,-0.00396,0.43446,1.20006,0.20989,0.40178,1.28976
2424,0.06326,0.23919,1.49805,0.07588,0.54058,0.08611,0.08583,0.03979,0.07579,0.0684,0.45742,0.48756,0.18791,0.14598,0.45247,0.04612,0.25931,0.84064,0.21241,0.15945,0.85559,-0.10198,0.26802,1.38747,0.23417,0.16189,1.43796,-0.14148,0.26068,1.08427,0.35921,0.22341,1.17765,-0.00308,0.43383,1.20418,0.21254,0.39692,1.29135
2425,0.06488,0.23577,1.49826,0.07499,0.5405,0.08659,0.08595,0.03983,0.0756,0.06821,0.45596,0.48776,0.18845,0.14519,0.4524,0.0467,0.25759,0.84075,0.21217,0.15638,0.85564,-0.10085,0.26669,1.38822,0.23414,0.15671,1.43783,-0.14303,0.2641,1.08531,0.35985,0.21796,1.17778,-0.00271,0.43331,1.20857,0.21482,0.39194,1.29287
2426,0.06654,0.23255,1.49831,0.07372,0.54035,0.087,0.08627,0.04012,0.07547,0.06811,0.45469,0.48795,0.18898,0.14454,0.45247,0.04724,0.25615,0.84088,0.21188,0.1536,0.85581,-0.09977,0.26491,1.38889,0.23446,0.1517,1.43759,-0.14412,0.2676,1.08629,0.36091,0.21276,1.17786,-0.00268,0.433,1.21338,0.21776,0.3874,1.29429
2427,0.06831,0.22933,1.49844,0.07226,0.54024,0.08735,0.08664,0.04058,0.0754,0.06809,0.45341,0.48807,0.18941,0.14377,0.45272,0.04783,0.2549,0.84106,0.21162,0.15102,0.85614,-0.09857,0.26263,1.38963,0.23491,0.1468,1.43726,-0.1447,0.27125,1.08741,0.3622,0.20798,1.17797,-0.00257,0.433,1.21837,0.22162,0.38367,1.29593
2428,0.07023,0.22593,1.49878,0.07089,0.54017,0.0877,0.08689,0.04095,0.07535,0.06809,0.45203,0.48815,0.18968,0.14288,0.45301,0.04837,0.25373,0.84128,0.21139,0.14866,0.85647,-0.09702,0.26009,1.39055,0.23527,0.14184,1.43697,-0.14486,0.2749,1.08883,0.36326,0.2037,1.17819,-0.0021,0.43328,1.2232,0.22574,0.38035,1.2983
2429,0.07211,0.22246,1.49926,0.0698,0.54016,0.08813,0.08698,0.04109,0.07527,0.06805,0.45066,0.48828,0.18982,0.1419,0.45322,0.04866,0.25254,0.84153,0.21109,0.14656,0.85672,-0.09517,0.25777,1.3917,0.23553,0.13681,1.43685,-0.14475,0.27853,1.09062,0.3638,0.19979,1.17847,-0.00133,0.43366,1.22802,0.22941,0.37681,1.30155
2430,0.07369,0.21911,1.49974,0.06908,0.5402,0.08869,0.08702,0.04103,0.07517,0.06796,0.44943,0.48856,0.18995,0.14087,0.45336,0.0486,0.25131,0.84181,0.21063,0.14471,0.8569,-0.09337,0.25597,1.39307,0.23586,0.13206,1.4369,-0.14452,0.28226,1.09268,0.36389,0.19614,1.17868,-0.0004,0.43389,1.23321,0.23258,0.373,1.30526
2431,0.075,0.21593,1.50019,0.06866,0.54018,0.08936,0.08715,0.04091,0.0751,0.06785,0.44834,0.48899,0.19009,0.13977,0.45353,0.04833,0.2501,0.84216,0.21005,0.143,0.85711,-0.09187,0.25458,1.39452,0.23638,0.12792,1.43711,-0.14428,0.28618,1.09486,0.36378,0.19284,1.17878,0.00082,0.43377,1.23865,0.23552,0.36939,1.30888
2432,0.07642,0.21281,1.50067,0.06839,0.54003,0.09003,0.0873,0.04077,0.0751,0.06771,0.44725,0.48944,0.19016,0.13866,0.45381,0.04811,0.24899,0.8426,0.20945,0.14132,0.85743,-0.09053,0.25329,1.39587,0.23694,0.12433,1.43739,-0.14396,0.29017,1.09699,0.36374,0.19008,1.17898,0.00258,0.43331,1.24379,0.23819,0.36624,1.31222
2433,0.07814,0.20969,1.50124,0.06803,0.53972,0.09058,0.08725,0.04066,0.07518,0.06745,0.44598,0.48976,0.19003,0.13761,0.45415,0.048,0.24802,0.8431,0.20885,0.13958,0.8578,-0.08905,0.25193,1.39713,0.23726,0.12089,1.43761,-0.14331,0.29396,1.09908,0.36394,0.18776,1.17943,0.00475,0.43288,1.2484,0.24058,0.36339,1.31537
2434,0.07994,0.20668,1.5019,0.06748,0.53921,0.09096,0.08693,0.04061,0.07519,0.06694,0.44459,0.48993,0.18966,0.13666,0.4544,0.04787,0.2471,0.84355,0.20813,0.13778,0.85807,-0.08739,0.25052,1.39841,0.23723,0.11732,1.43761,-0.14216,0.29747,1.10119,0.36437,0.18547,1.17999,0.0068,0.43288,1.25281,0.24291,0.36052,1.31838
2435,0.08147,0.20388,1.50259,0.06683,0.53844,0.09123,0.08657,0.04063,0.07502,0.06621,0.44327,0.49007,0.18919,0.13577,0.45449,0.04758,0.24612,0.84391,0.20734,0.13604,0.85817,-0.08582,0.2491,1.39973,0.23707,0.1137,1.43741,-0.14064,0.30082,1.10332,0.3649,0.18302,1.18045,0.00842,0.43326,1.25745,0.24539,0.35759,1.32111
2436,0.08278,0.2013,1.50327,0.06621,0.53746,0.0915,0.08636,0.04071,0.07476,0.06557,0.44214,0.49031,0.18888,0.13496,0.45448,0.04718,0.24518,0.84426,0.20661,0.13457,0.85818,-0.08465,0.2477,1.40098,0.2372,0.11021,1.43717,-0.13901,0.30408,1.10533,0.36542,0.18064,1.1807,0.00977,0.43348,1.2623,0.24793,0.3549,1.32344
2437,0.08419,0.19891,1.50386,0.06566,0.53645,0.09184,0.0863,0.04074,0.07454,0.06529,0.44116,0.49065,0.18877,0.13428,0.45446,0.04678,0.24447,0.84475,0.20598,0.13348,0.85818,-0.0839,0.24632,1.402,0.23778,0.10693,1.43696,-0.13741,0.30713,1.10707,0.36587,0.17867,1.18079,0.01118,0.43321,1.26688,0.25041,0.35269,1.32547
2438,0.08584,0.19671,1.50434,0.06516,0.53538,0.09216,0.08625,0.04066,0.07444,0.0654,0.4402,0.49101,0.18873,0.13377,0.45446,0.04638,0.24404,0.84537,0.20537,0.13267,0.8582,-0.08331,0.24499,1.40277,0.2386,0.10385,1.43683,-0.13587,0.3098,1.10853,0.3661,0.17709,1.18079,0.0129,0.43276,1.27059,0.25278,0.35089,1.32741
2439,0.08746,0.19469,1.50478,0.06473,0.53403,0.09237,0.08618,0.04047,0.07446,0.06568,0.43924,0.49131,0.18864,0.13341,0.45452,0.04606,0.24372,0.84599,0.20479,0.13193,0.85828,-0.08264,0.24372,1.40338,0.23928,0.10099,1.43681,-0.13443,0.3121,1.10981,0.36592,0.17558,1.18073,0.01497,0.43257,1.27316,0.25497,0.34917,1.32939
2440,0.08878,0.19277,1.50534,0.06445,0.5323,0.09242,0.08621,0.04023,0.07455,0.06593,0.4383,0.49154,0.18843,0.13316,0.45468,0.04593,0.24331,0.84649,0.20441,0.13113,0.85845,-0.08173,0.24249,1.40392,0.23973,0.0984,1.43696,-0.13315,0.31412,1.11106,0.36534,0.17388,1.18064,0.01718,0.43266,1.27495,0.25688,0.34733,1.3313
2441,0.08987,0.19083,1.50603,0.06428,0.53023,0.0924,0.0864,0.03997,0.07464,0.06612,0.43736,0.49178,0.18796,0.13294,0.45494,0.04588,0.24275,0.84692,0.20412,0.1302,0.8587,-0.0806,0.24122,1.40448,0.24017,0.09622,1.43727,-0.1319,0.31599,1.11238,0.36474,0.17197,1.18052,0.01916,0.43264,1.27696,0.25875,0.34543,1.33291
2442,0.09107,0.18884,1.50675,0.06411,0.52789,0.09243,0.08667,0.03968,0.07465,0.06627,0.4364,0.49213,0.18711,0.13262,0.45525,0.04565,0.24211,0.84743,0.20366,0.12922,0.85898,-0.07941,0.23984,1.40527,0.24076,0.09454,1.43761,-0.13032,0.31791,1.11397,0.36451,0.17004,1.18039,0.02074,0.43228,1.28015,0.26087,0.34365,1.33421
2443,0.0925,0.1869,1.50741,0.06385,0.52538,0.09253,0.0868,0.03944,0.07453,0.06636,0.43542,0.49257,0.18605,0.13206,0.45552,0.04516,0.24156,0.84807,0.20295,0.12831,0.85924,-0.07832,0.23838,1.40643,0.24148,0.0932,1.43793,-0.12819,0.31984,1.11588,0.36468,0.16819,1.18029,0.02202,0.43168,1.28453,0.26325,0.34199,1.33537
2444,0.09394,0.18514,1.50805,0.06354,0.52277,0.09258,0.08665,0.0393,0.07438,0.06635,0.4344,0.49297,0.18513,0.1313,0.45572,0.04459,0.24117,0.84878,0.20207,0.12745,0.85943,-0.0773,0.23707,1.40782,0.24223,0.09194,1.43825,-0.12578,0.32145,1.11787,0.36494,0.16647,1.18025,0.02319,0.43104,1.28908,0.26561,0.34041,1.33653
2445,0.0952,0.1836,1.50872,0.06321,0.5201,0.09252,0.08631,0.03932,0.07431,0.06627,0.4333,0.49325,0.18458,0.13051,0.45589,0.04395,0.2408,0.84943,0.2011,0.12658,0.85962,-0.0763,0.23613,1.40918,0.24296,0.09068,1.43854,-0.12364,0.32249,1.11962,0.3651,0.16501,1.18021,0.02441,0.43039,1.2927,0.26776,0.33904,1.33765
2446,0.09641,0.18226,1.50936,0.06295,0.51739,0.09237,0.08593,0.03946,0.07437,0.06619,0.43214,0.49344,0.1843,0.12992,0.45611,0.0432,0.24031,0.84993,0.20014,0.12579,0.85986,-0.07541,0.2356,1.4105,0.24364,0.08953,1.43867,-0.12195,0.32304,1.12114,0.36522,0.16398,1.18011,0.0257,0.42972,1.2953,0.26969,0.33804,1.33861
2447,0.09773,0.18097,1.5099,0.06285,0.51463,0.0921,0.08557,0.03969,0.07446,0.06616,0.43106,0.49353,0.18405,0.12958,0.4563,0.04257,0.2398,0.85028,0.19955,0.12532,0.86007,-0.07475,0.2354,1.41183,0.24425,0.08854,1.43861,-0.12025,0.32345,1.12249,0.36546,0.1633,1.17997,0.02694,0.42922,1.2976,0.27142,0.33729,1.33945
2448,0.09907,0.17963,1.51043,0.06301,0.51168,0.09162,0.08525,0.0399,0.07443,0.06621,0.43021,0.49347,0.1836,0.12944,0.45639,0.04247,0.23944,0.85048,0.19967,0.12525,0.86013,-0.0743,0.23546,1.41299,0.24481,0.08772,1.43849,-0.11797,0.32407,1.12354,0.36588,0.16288,1.1799,0.02815,0.42906,1.3,0.27286,0.33651,1.34036
2449,0.1002,0.17829,1.5111,0.06338,0.50858,0.09093,0.08505,0.03989,0.07428,0.06634,0.42956,0.49327,0.18299,0.12945,0.45634,0.04297,0.23923,0.85054,0.20055,0.12553,0.86003,-0.0739,0.23555,1.41386,0.24534,0.08706,1.43834,-0.11523,0.32489,1.12429,0.36637,0.16275,1.17988,0.02951,0.42905,1.30238,0.27404,0.3357,1.34146
2450,0.10105,0.17709,1.51198,0.06383,0.5056,0.0902,0.08506,0.03962,0.07416,0.06657,0.42892,0.493,0.18246,0.12958,0.45627,0.04374,0.23905,0.85055,0.20185,0.1261,0.85987,-0.0735,0.23536,1.41471,0.24588,0.08664,1.43808,-0.11269,0.32575,1.12517,0.36665,0.16294,1.17968,0.03107,0.42876,1.30471,0.27519,0.33513,1.34256
2451,0.10186,0.17605,1.513,0.06429,0.50307,0.08959,0.08527,0.03921,0.07419,0.06684,0.42815,0.49272,0.18222,0.12977,0.45626,0.04436,0.23893,0.85063,0.20309,0.12683,0.8598,-0.07313,0.23483,1.41587,0.24653,0.08645,1.43766,-0.11069,0.32656,1.12653,0.36652,0.16333,1.17907,0.03261,0.42812,1.30727,0.27648,0.33496,1.34333
2452,0.10292,0.17507,1.51397,0.06478,0.50108,0.08906,0.08552,0.0389,0.0743,0.06706,0.42719,0.49238,0.18216,0.12994,0.45634,0.04461,0.2389,0.85079,0.20386,0.12754,0.85984,-0.07265,0.23425,1.41715,0.24738,0.08633,1.43713,-0.10901,0.32732,1.12809,0.36611,0.16373,1.17812,0.03383,0.4275,1.30995,0.27789,0.33506,1.34368
2453,0.10424,0.17416,1.5147,0.06516,0.49966,0.08853,0.08563,0.03887,0.07438,0.06714,0.42607,0.49191,0.18189,0.13003,0.45649,0.04432,0.23904,0.85095,0.20385,0.12807,0.85998,-0.07188,0.2339,1.41806,0.24828,0.08613,1.43664,-0.10742,0.32805,1.12925,0.3658,0.16407,1.17723,0.03475,0.42724,1.31217,0.27925,0.33521,1.34386
2454,0.1056,0.17344,1.51514,0.06522,0.49884,0.08802,0.08552,0.03913,0.07435,0.06709,0.42479,0.49131,0.18114,0.13005,0.45668,0.04342,0.23934,0.85112,0.20295,0.12838,0.86017,-0.07085,0.23382,1.41838,0.24908,0.08578,1.43629,-0.10585,0.32891,1.1298,0.36581,0.16438,1.17672,0.03576,0.42733,1.31358,0.28034,0.33536,1.34407
2455,0.1068,0.17302,1.51546,0.06499,0.49847,0.08758,0.08525,0.03948,0.07425,0.0669,0.42334,0.49068,0.17999,0.12999,0.45689,0.04228,0.23977,0.85138,0.20166,0.12858,0.8604,-0.06971,0.23382,1.41844,0.24982,0.08537,1.43607,-0.10423,0.33003,1.13019,0.36612,0.16478,1.17656,0.03704,0.42753,1.31471,0.28114,0.33559,1.34433
2456,0.1078,0.17286,1.51596,0.06481,0.49829,0.08723,0.085,0.03964,0.07419,0.06654,0.42184,0.49008,0.17884,0.12994,0.45711,0.04162,0.24024,0.85176,0.20094,0.12896,0.86059,-0.06864,0.23369,1.4189,0.25061,0.08505,1.43583,-0.10245,0.33121,1.13099,0.36653,0.16539,1.17644,0.03834,0.42764,1.31645,0.2819,0.33597,1.34462
2457,0.1086,0.17288,1.51674,0.06498,0.49817,0.08688,0.0849,0.03953,0.0742,0.06604,0.42046,0.48949,0.178,0.12994,0.45727,0.04174,0.24079,0.85218,0.20126,0.12976,0.86069,-0.06774,0.23339,1.41997,0.25149,0.08496,1.43547,-0.1006,0.33195,1.13231,0.36688,0.16624,1.17613,0.03927,0.42779,1.31877,0.28287,0.33648,1.34497
2458,0.10921,0.17302,1.51757,0.06541,0.49816,0.08647,0.08493,0.03928,0.07417,0.0655,0.4193,0.48886,0.17747,0.12997,0.4573,0.04207,0.24152,0.85253,0.20185,0.13084,0.86065,-0.06699,0.23311,1.42125,0.25236,0.08518,1.43501,-0.09903,0.33204,1.13362,0.36711,0.16726,1.17564,0.03976,0.42827,1.32068,0.28395,0.33716,1.34524
2459,0.10962,0.17328,1.51816,0.06581,0.49836,0.08601,0.08499,0.03913,0.07398,0.06503,0.41841,0.48819,0.17703,0.12999,0.4572,0.0416,0.24241,0.85273,0.20138,0.13171,0.86055,-0.0663,0.23323,1.42215,0.25311,0.08569,1.4346,-0.09791,0.33191,1.13439,0.36733,0.1683,1.17517,0.04003,0.42918,1.32155,0.2849,0.33796,1.34537
2460,0.10998,0.17369,1.51841,0.06589,0.49861,0.08564,0.08504,0.03919,0.07369,0.06459,0.41786,0.48765,0.17648,0.13002,0.45705,0.03999,0.24329,0.8528,0.19942,0.13207,0.86049,-0.06571,0.23393,1.4225,0.25367,0.08638,1.43433,-0.09698,0.33234,1.13462,0.36773,0.16933,1.17493,0.04029,0.43037,1.32186,0.28578,0.3388,1.34555
2461,0.11054,0.17427,1.51847,0.06561,0.49869,0.08539,0.08506,0.03931,0.07339,0.06411,0.41765,0.48734,0.17583,0.13011,0.45693,0.03796,0.24398,0.85281,0.19697,0.13215,0.86046,-0.06537,0.23496,1.4224,0.2541,0.08719,1.4341,-0.09596,0.33387,1.13461,0.36836,0.17049,1.1749,0.04065,0.43165,1.32247,0.28674,0.33965,1.34598
2462,0.11145,0.17504,1.51849,0.06523,0.49852,0.08511,0.085,0.03935,0.07319,0.06358,0.41764,0.48709,0.1752,0.1304,0.45681,0.03659,0.2445,0.85276,0.19543,0.13245,0.86038,-0.06532,0.23593,1.42207,0.25459,0.08812,1.43376,-0.09486,0.33626,1.13466,0.36907,0.17194,1.17483,0.04112,0.43297,1.32353,0.28771,0.34063,1.34649
2463,0.11253,0.17595,1.51862,0.06495,0.49821,0.0846,0.08488,0.03934,0.07313,0.06306,0.4176,0.48663,0.17462,0.13098,0.45671,0.03618,0.24495,0.85253,0.19524,0.1332,0.86026,-0.06535,0.23673,1.42177,0.2552,0.08929,1.43324,-0.09387,0.33867,1.13482,0.36973,0.1737,1.17452,0.04165,0.43432,1.32456,0.28849,0.34188,1.34674
2464,0.11334,0.17693,1.51894,0.06475,0.49796,0.08391,0.08482,0.03941,0.07316,0.0626,0.41751,0.48597,0.17402,0.13175,0.4567,0.03618,0.24539,0.85215,0.19567,0.13429,0.8602,-0.0652,0.23751,1.42159,0.25592,0.09078,1.43269,-0.09299,0.34036,1.1349,0.37032,0.17562,1.17406,0.04215,0.43565,1.32508,0.28911,0.3434,1.34669
2465,0.11372,0.17793,1.51938,0.06455,0.49781,0.08329,0.08491,0.03964,0.07319,0.0621,0.41755,0.4854,0.17337,0.13251,0.45676,0.0359,0.24586,0.8518,0.19584,0.13543,0.86022,-0.06471,0.23839,1.42143,0.25674,0.09247,1.43227,-0.09214,0.34147,1.13479,0.37091,0.17763,1.17364,0.04258,0.43691,1.3252,0.28978,0.34504,1.34665
2466,0.114,0.17911,1.51966,0.06437,0.49766,0.08291,0.08511,0.03991,0.07311,0.06142,0.41784,0.48509,0.17277,0.13309,0.4568,0.0352,0.24639,0.85161,0.19542,0.13639,0.86024,-0.06387,0.23939,1.4213,0.25763,0.09422,1.432,-0.09149,0.34256,1.13471,0.37145,0.17959,1.17329,0.04289,0.43814,1.32529,0.29067,0.34664,1.34683
2467,0.11461,0.18064,1.51948,0.06426,0.49747,0.08265,0.08528,0.04005,0.07297,0.06055,0.41834,0.48497,0.1723,0.13351,0.45674,0.03437,0.24705,0.85155,0.19466,0.13715,0.86019,-0.0629,0.24065,1.42145,0.25838,0.09607,1.43174,-0.09135,0.34377,1.13492,0.37188,0.1813,1.17284,0.04309,0.43938,1.32545,0.29168,0.34802,1.34697
2468,0.11576,0.18251,1.51891,0.06417,0.49727,0.08233,0.0853,0.04003,0.07286,0.05973,0.41892,0.48479,0.1719,0.13389,0.45662,0.0338,0.24793,0.85154,0.19403,0.13794,0.86008,-0.06214,0.24225,1.42194,0.25886,0.09812,1.4313,-0.09166,0.34471,1.13528,0.37226,0.18273,1.17215,0.04324,0.44052,1.32538,0.29259,0.34919,1.34676
2469,0.1173,0.18455,1.51842,0.06405,0.49712,0.08188,0.0852,0.03994,0.07286,0.05924,0.4195,0.48448,0.17144,0.13447,0.45654,0.0337,0.24907,0.85151,0.19396,0.13911,0.85997,-0.06179,0.24407,1.42253,0.25921,0.10035,1.4307,-0.09207,0.34531,1.13552,0.37268,0.18406,1.17129,0.04347,0.44153,1.32496,0.29335,0.35029,1.34627
2470,0.11886,0.18661,1.51834,0.06393,0.49697,0.08141,0.085,0.03986,0.073,0.0591,0.42013,0.48416,0.17087,0.13537,0.45652,0.03413,0.25036,0.85154,0.19473,0.14088,0.85986,-0.06165,0.24588,1.42291,0.25972,0.10257,1.43023,-0.09227,0.34604,1.13556,0.37314,0.18546,1.17053,0.04378,0.44265,1.32443,0.29407,0.35152,1.34579
2471,0.11996,0.1887,1.51859,0.06396,0.49666,0.08103,0.08469,0.03977,0.07324,0.05907,0.4208,0.48396,0.17027,0.13642,0.45654,0.03487,0.25153,0.85163,0.19614,0.14302,0.85974,-0.0614,0.24757,1.42303,0.26049,0.10471,1.43004,-0.09219,0.34727,1.13554,0.37363,0.18701,1.17003,0.04403,0.44416,1.32415,0.29476,0.35302,1.34544
2472,0.12041,0.19093,1.51891,0.06415,0.49624,0.08072,0.08435,0.03973,0.07345,0.05892,0.42144,0.48385,0.16974,0.13732,0.45655,0.03536,0.25244,0.85168,0.19737,0.14505,0.85962,-0.06096,0.24924,1.42297,0.26138,0.10699,1.43003,-0.09183,0.34892,1.13547,0.37428,0.18883,1.16977,0.04416,0.44594,1.32418,0.29538,0.35491,1.3451
2473,0.12052,0.1934,1.51911,0.06435,0.49592,0.08044,0.08418,0.0398,0.07353,0.05862,0.42214,0.48375,0.16933,0.13793,0.45655,0.03522,0.2532,0.85162,0.19782,0.1467,0.85954,-0.06043,0.251,1.42276,0.26226,0.10966,1.42996,-0.09133,0.35066,1.13526,0.37523,0.19104,1.16959,0.04422,0.44775,1.32424,0.29608,0.35725,1.34467
2474,0.12077,0.19611,1.5191,0.06448,0.49588,0.08013,0.08427,0.03997,0.07352,0.05834,0.42315,0.48362,0.16907,0.13843,0.45653,0.0349,0.25405,0.85141,0.19796,0.14826,0.85947,-0.05984,0.25297,1.42238,0.26326,0.11274,1.42973,-0.09099,0.35236,1.13482,0.3764,0.19363,1.16928,0.04433,0.44958,1.32389,0.2971,0.35997,1.34419
2475,0.12141,0.199,1.51891,0.06463,0.49607,0.07972,0.08446,0.04014,0.07355,0.05827,0.42452,0.48342,0.16898,0.13902,0.45651,0.03516,0.25515,0.85111,0.19876,0.15022,0.85934,-0.05919,0.25524,1.42183,0.26447,0.11593,1.42939,-0.09107,0.35411,1.13417,0.37752,0.19643,1.16878,0.04457,0.45161,1.32288,0.29838,0.36282,1.3437
2476,0.12228,0.20205,1.51857,0.06485,0.49639,0.07922,0.08451,0.04027,0.07365,0.05834,0.42582,0.48309,0.16899,0.13982,0.45645,0.03591,0.25651,0.85085,0.20012,0.15253,0.85914,-0.05849,0.25783,1.42127,0.26568,0.11892,1.42905,-0.09156,0.35592,1.13348,0.37838,0.19918,1.16821,0.04491,0.45391,1.32134,0.29943,0.36562,1.34317
2477,0.12306,0.20523,1.51822,0.0651,0.49677,0.07873,0.08432,0.04043,0.07373,0.05826,0.42656,0.48265,0.16889,0.1408,0.4563,0.03625,0.25807,0.85081,0.20085,0.15469,0.85888,-0.0578,0.26057,1.42096,0.26653,0.12172,1.42882,-0.09216,0.35772,1.133,0.37892,0.20168,1.16776,0.0453,0.45637,1.31978,0.2999,0.36835,1.34247
2478,0.12368,0.20851,1.51798,0.06525,0.49715,0.07828,0.08399,0.04067,0.07372,0.05794,0.42672,0.48216,0.16854,0.14185,0.45608,0.03577,0.25978,0.85101,0.20041,0.15643,0.85865,-0.05704,0.26323,1.42097,0.26698,0.12478,1.42873,-0.09257,0.35936,1.13281,0.37931,0.20394,1.16741,0.04571,0.45883,1.31855,0.30004,0.3711,1.34153
2479,0.12442,0.21185,1.51792,0.06522,0.49743,0.07778,0.08379,0.04087,0.0737,0.05772,0.42673,0.48162,0.16804,0.14291,0.45589,0.03504,0.2615,0.85121,0.19954,0.15791,0.85847,-0.05614,0.26585,1.42108,0.26731,0.12854,1.42872,-0.09276,0.36091,1.13269,0.37974,0.20622,1.16699,0.04612,0.46119,1.31755,0.30047,0.37403,1.34049
2480,0.12548,0.21518,1.51803,0.06502,0.49763,0.0772,0.08388,0.04095,0.07378,0.05794,0.42699,0.48105,0.16758,0.14401,0.45582,0.03454,0.26308,0.85118,0.19897,0.15937,0.85839,-0.05521,0.26874,1.42112,0.26777,0.13302,1.42868,-0.09296,0.3626,1.13249,0.38026,0.20881,1.16642,0.04638,0.46358,1.31662,0.30145,0.37718,1.3396
2481,0.12654,0.21856,1.51826,0.06474,0.49797,0.07667,0.08417,0.04097,0.07394,0.05841,0.42755,0.48057,0.16711,0.1452,0.45583,0.03394,0.26449,0.85101,0.19838,0.16081,0.85841,-0.05448,0.27204,1.42122,0.26832,0.13775,1.42855,-0.09341,0.36471,1.13236,0.38087,0.2117,1.16579,0.04636,0.46625,1.31585,0.30276,0.38041,1.33894
2482,0.12716,0.22212,1.51852,0.06447,0.49845,0.07641,0.08446,0.04107,0.07408,0.05866,0.42822,0.48035,0.16648,0.14641,0.45586,0.03279,0.26581,0.85098,0.19729,0.16223,0.85846,-0.05407,0.27548,1.42136,0.26881,0.1422,1.42836,-0.09409,0.36723,1.13236,0.38149,0.21459,1.16522,0.04628,0.46929,1.3151,0.30407,0.38356,1.33843
2483,0.12744,0.22601,1.51874,0.0642,0.49886,0.07639,0.08474,0.04128,0.07414,0.05851,0.42889,0.48038,0.16572,0.14758,0.45588,0.03129,0.26716,0.85121,0.1959,0.16374,0.85852,-0.05389,0.2788,1.42133,0.26922,0.14616,1.42822,-0.09483,0.36993,1.13226,0.38196,0.21726,1.16476,0.04651,0.47257,1.31392,0.30528,0.38661,1.33793
2484,0.12778,0.23022,1.51883,0.06399,0.49906,0.07647,0.0851,0.0415,0.07423,0.05813,0.42957,0.48054,0.16508,0.1487,0.45593,0.02994,0.26857,0.85161,0.19474,0.16543,0.85858,-0.05372,0.28188,1.42092,0.26965,0.14986,1.42827,-0.09554,0.37257,1.13184,0.38213,0.21978,1.16439,0.04706,0.47588,1.31213,0.30629,0.38972,1.33734
2485,0.12835,0.23462,1.51879,0.06392,0.49908,0.07657,0.0855,0.04166,0.07444,0.05768,0.43032,0.48076,0.16472,0.1498,0.45604,0.02897,0.26999,0.85208,0.19402,0.16722,0.85868,-0.0534,0.28462,1.42024,0.27012,0.15363,1.4285,-0.09635,0.37497,1.13122,0.38213,0.22226,1.16408,0.04758,0.47893,1.31008,0.30708,0.39298,1.33661
2486,0.12888,0.23907,1.5186,0.06395,0.49905,0.0767,0.08579,0.04184,0.07478,0.05722,0.43115,0.48103,0.16467,0.15089,0.45618,0.02837,0.27142,0.8526,0.19363,0.16897,0.85882,-0.0529,0.2869,1.41959,0.27052,0.15756,1.4288,-0.09727,0.37703,1.13072,0.38217,0.22465,1.16382,0.04778,0.48149,1.30839,0.30776,0.39633,1.33568
2487,0.12897,0.24358,1.51828,0.06385,0.49908,0.07681,0.08595,0.04214,0.07514,0.05676,0.43197,0.48126,0.16488,0.15192,0.45633,0.02807,0.27299,0.85316,0.19344,0.17071,0.85897,-0.05235,0.28889,1.41928,0.27077,0.16134,1.42898,-0.09799,0.37884,1.13055,0.38235,0.2269,1.1636,0.04762,0.48383,1.30743,0.30848,0.39967,1.3346
2488,0.12847,0.24815,1.51797,0.06354,0.4992,0.07682,0.08612,0.04253,0.07551,0.05641,0.43276,0.48138,0.1653,0.15292,0.45647,0.02806,0.27473,0.85372,0.19347,0.17248,0.8591,-0.05197,0.29118,1.41945,0.27095,0.16474,1.42903,-0.09822,0.38075,1.13069,0.38268,0.22906,1.1634,0.04736,0.48657,1.30712,0.30933,0.40304,1.33338
2489,0.12772,0.25268,1.51779,0.06321,0.49922,0.07675,0.08636,0.04277,0.07595,0.0563,0.43366,0.48146,0.16588,0.15405,0.45658,0.02844,0.2765,0.8542,0.19388,0.17429,0.85918,-0.0517,0.29423,1.41999,0.27127,0.16807,1.42907,-0.09806,0.38304,1.13102,0.38309,0.23118,1.1632,0.0473,0.49,1.30692,0.31028,0.40652,1.33202
2490,0.12727,0.2571,1.51774,0.0631,0.49903,0.07665,0.08655,0.04275,0.0765,0.05651,0.43472,0.48157,0.16656,0.15545,0.4566,0.02926,0.27812,0.85459,0.19485,0.17612,0.85917,-0.05124,0.29796,1.42058,0.27184,0.1719,1.42927,-0.09785,0.3857,1.13132,0.38361,0.23328,1.16297,0.04761,0.49383,1.30643,0.31132,0.41001,1.33057
2491,0.12742,0.26154,1.51768,0.06318,0.49873,0.07653,0.08654,0.04264,0.07712,0.05697,0.43567,0.48165,0.1673,0.15709,0.45655,0.0302,0.27947,0.85488,0.19614,0.17802,0.85906,-0.0504,0.302,1.42098,0.27252,0.17637,1.42961,-0.0977,0.38856,1.13148,0.38421,0.23546,1.16276,0.04798,0.49775,1.30575,0.31232,0.41342,1.32921
2492,0.12806,0.26618,1.51745,0.06324,0.49851,0.07642,0.08646,0.04272,0.07769,0.05735,0.43617,0.48165,0.16801,0.15869,0.45648,0.03053,0.28059,0.85513,0.19692,0.17986,0.85898,-0.04933,0.30624,1.42123,0.27312,0.18104,1.42995,-0.09747,0.39159,1.13151,0.38485,0.23792,1.16263,0.04785,0.50185,1.3054,0.31318,0.41683,1.32817
2493,0.12887,0.27093,1.51712,0.06314,0.49853,0.07635,0.08657,0.04297,0.07816,0.05736,0.43626,0.48159,0.1686,0.16007,0.4565,0.02998,0.28171,0.85546,0.19666,0.18147,0.85904,-0.0483,0.31069,1.42146,0.2736,0.18536,1.4303,-0.09707,0.3948,1.13148,0.38546,0.24062,1.1627,0.04704,0.50628,1.30561,0.31393,0.42029,1.32747
2494,0.12939,0.27555,1.51689,0.06288,0.49869,0.07632,0.08707,0.0431,0.07863,0.05707,0.43635,0.48156,0.16912,0.16136,0.4566,0.02907,0.2831,0.85591,0.19582,0.18295,0.85923,-0.04762,0.31508,1.42162,0.27408,0.18926,1.43082,-0.09667,0.39801,1.13135,0.3861,0.24309,1.163,0.04612,0.51063,1.30583,0.31475,0.42364,1.32688
2495,0.12926,0.2799,1.51694,0.06263,0.49886,0.07629,0.08788,0.04285,0.07925,0.0568,0.43677,0.48156,0.1698,0.16282,0.45672,0.02842,0.28473,0.85638,0.19518,0.18459,0.85942,-0.04747,0.31894,1.42156,0.27461,0.19303,1.43159,-0.09668,0.40083,1.13102,0.38686,0.24492,1.16347,0.04596,0.51415,1.30517,0.31587,0.42675,1.32609
2496,0.12851,0.28406,1.51725,0.06258,0.49904,0.07621,0.08877,0.04231,0.08014,0.05669,0.43747,0.48156,0.17089,0.1645,0.45685,0.0281,0.28638,0.85675,0.19499,0.18645,0.85962,-0.04775,0.32219,1.4213,0.27505,0.19691,1.4324,-0.09722,0.40323,1.13057,0.38768,0.24622,1.16396,0.04664,0.5168,1.30354,0.31731,0.42964,1.32505
2497,0.12765,0.28817,1.5177,0.06275,0.49926,0.07611,0.08963,0.04179,0.0813,0.05663,0.43819,0.48153,0.17247,0.16617,0.45714,0.0279,0.2879,0.85703,0.19503,0.18837,0.85999,-0.04811,0.32529,1.42112,0.27523,0.20078,1.43302,-0.09792,0.40554,1.13023,0.38846,0.24742,1.16436,0.04714,0.5196,1.30187,0.31888,0.43248,1.32391
2498,0.12723,0.29227,1.51808,0.06301,0.4995,0.07603,0.09061,0.04147,0.08267,0.05651,0.43862,0.48148,0.17442,0.16769,0.45768,0.02781,0.28928,0.85736,0.19516,0.19014,0.86061,-0.04826,0.32866,1.42123,0.27523,0.20428,1.43344,-0.09836,0.40805,1.13015,0.38914,0.24884,1.16471,0.04655,0.5235,1.30099,0.32031,0.43539,1.32284
2499,0.1274,0.29621,1.51829,0.06323,0.49969,0.07601,0.0918,0.04132,0.08417,0.05631,0.43868,0.48143,0.17652,0.16929,0.45837,0.02791,0.29058,0.85782,0.19539,0.19166,0.8614,-0.04815,0.33221,1.42162,0.27528,0.20727,1.43387,-0.09855,0.41057,1.13031,0.38968,0.2505,1.16513,0.04501,0.52814,1.30084,0.3214,0.43834,1.32197
2500,0.12791,0.29989,1.51848,0.06336,0.49983,0.076,0.09313,0.04125,0.08572,0.05616,0.43856,0.48137,0.1786,0.17129,0.45904,0.02821,0.29186,0.85835,0.19573,0.19302,0.86217,-0.04777,0.33547,1.42213,0.27551,0.21006,1.43444,-0.09871,0.41279,1.13064,0.39008,0.25229,1.16561,0.04343,0.53238,1.30096,0.3222,0.44117,1.32137
2501,0.12836,0.3034,1.51892,0.06343,0.4999,0.07594,0.09445,0.04125,0.08732,0.05623,0.43854,0.4813,0.1807,0.17373,0.4596,0.02859,0.29312,0.8588,0.19613,0.19434,0.86286,-0.04721,0.33816,1.42271,0.27581,0.2131,1.43504,-0.09897,0.41457,1.13112,0.39048,0.254,1.16605,0.04248,0.53565,1.30096,0.32305,0.44378,1.32091
2502,0.12839,0.307,1.51962,0.06354,0.49982,0.07585,0.09581,0.04129,0.08901,0.05651,0.43875,0.48126,0.18306,0.17633,0.46014,0.02887,0.29431,0.85913,0.1965,0.19569,0.86354,-0.0467,0.34068,1.42332,0.27596,0.21646,1.43552,-0.09939,0.41595,1.1316,0.39102,0.25539,1.1664,0.04215,0.53819,1.30054,0.32436,0.44615,1.32039
2503,0.12793,0.3108,1.52028,0.06374,0.49956,0.07583,0.09746,0.04135,0.09085,0.05676,0.43901,0.48132,0.18587,0.17883,0.4608,0.02894,0.29538,0.85948,0.19673,0.19703,0.86433,-0.04638,0.34385,1.42384,0.27583,0.21989,1.43587,-0.10001,0.41709,1.13178,0.39165,0.25629,1.16673,0.04204,0.54043,1.29948,0.32623,0.44822,1.31979
2504,0.12724,0.31475,1.52052,0.06398,0.49925,0.07594,0.09945,0.04139,0.09289,0.0568,0.43904,0.48147,0.1891,0.18125,0.46166,0.02881,0.29633,0.85997,0.19677,0.19831,0.86531,-0.04613,0.34806,1.42413,0.27549,0.22311,1.43627,-0.10074,0.4181,1.13146,0.39215,0.25673,1.16713,0.04194,0.54254,1.2978,0.32845,0.44993,1.31931
2505,0.12676,0.31885,1.52027,0.0641,0.49908,0.07612,0.10161,0.0414,0.09511,0.05661,0.43884,0.48165,0.19257,0.18377,0.46259,0.02858,0.29723,0.86056,0.19669,0.1995,0.86635,-0.04579,0.35287,1.4243,0.27508,0.22607,1.43685,-0.10137,0.41889,1.13088,0.39236,0.25692,1.16765,0.04206,0.54448,1.29571,0.33069,0.45132,1.31914
2506,0.12683,0.32305,1.51983,0.06406,0.49912,0.07631,0.10391,0.0413,0.09726,0.05641,0.43872,0.48181,0.19612,0.18646,0.46333,0.02853,0.29818,0.86113,0.19676,0.20069,0.86717,-0.04542,0.35747,1.42467,0.27474,0.22889,1.43747,-0.1018,0.41928,1.13049,0.39237,0.25704,1.16812,0.04252,0.54624,1.29349,0.33269,0.45248,1.31907
2507,0.12749,0.32718,1.5196,0.06402,0.49928,0.0765,0.10664,0.04105,0.09907,0.05646,0.43891,0.482,0.19973,0.18931,0.46367,0.02902,0.29917,0.86165,0.19749,0.20207,0.86755,-0.04518,0.36139,1.42538,0.27462,0.2317,1.43781,-0.10222,0.41937,1.13054,0.39249,0.25712,1.1683,0.04303,0.54793,1.29145,0.33435,0.45353,1.3186
2508,0.12844,0.33102,1.51975,0.06419,0.49943,0.07673,0.10998,0.04062,0.10054,0.05687,0.43933,0.48227,0.20348,0.19224,0.46366,0.03022,0.30007,0.86215,0.19915,0.20374,0.86756,-0.04509,0.36477,1.42619,0.27484,0.23449,1.43771,-0.10277,0.41945,1.13085,0.39294,0.25709,1.16805,0.04321,0.54961,1.28979,0.33573,0.45447,1.31742
2509,0.12938,0.33444,1.52001,0.0645,0.49949,0.07693,0.11363,0.04,0.10199,0.05741,0.43967,0.48253,0.20725,0.19512,0.46359,0.03171,0.30072,0.86259,0.20127,0.20548,0.8675,-0.04511,0.36797,1.42692,0.27542,0.23715,1.43734,-0.10338,0.41956,1.13114,0.39374,0.25683,1.16755,0.04318,0.55111,1.28839,0.33709,0.45519,1.31583
2510,0.13026,0.33747,1.51999,0.06469,0.49947,0.07703,0.11712,0.03917,0.10368,0.05772,0.43968,0.48263,0.21076,0.19776,0.46376,0.03284,0.30111,0.86288,0.20299,0.20693,0.86767,-0.04509,0.37114,1.42756,0.27628,0.23954,1.43706,-0.10396,0.41934,1.13133,0.39468,0.25634,1.16711,0.04346,0.55203,1.28682,0.33864,0.45554,1.3145
2511,0.13117,0.34026,1.51949,0.06471,0.49945,0.07694,0.12047,0.03815,0.10553,0.05765,0.43943,0.4825,0.21383,0.19998,0.46425,0.03332,0.30146,0.86301,0.20383,0.20793,0.86813,-0.04474,0.3741,1.42812,0.27734,0.24149,1.43706,-0.10461,0.41865,1.13152,0.39553,0.25572,1.16686,0.0444,0.55218,1.28475,0.34059,0.45554,1.31383
2512,0.13219,0.343,1.51858,0.06476,0.4995,0.07671,0.12418,0.03707,0.10724,0.05728,0.43902,0.4822,0.21652,0.20168,0.46496,0.03336,0.30197,0.86306,0.20392,0.20857,0.86879,-0.04397,0.37664,1.42854,0.27838,0.24294,1.4372,-0.10538,0.41787,1.13177,0.39613,0.25504,1.16671,0.04562,0.55203,1.28248,0.34308,0.4554,1.31365
2513,0.13329,0.34572,1.51739,0.06492,0.49956,0.07646,0.1285,0.03608,0.10856,0.0568,0.43854,0.48186,0.21885,0.20289,0.46576,0.03311,0.30261,0.86314,0.20352,0.20897,0.86951,-0.04296,0.37882,1.42882,0.27916,0.24401,1.43726,-0.10613,0.41747,1.13208,0.39654,0.25433,1.16653,0.04639,0.55239,1.28057,0.34601,0.45532,1.31349
2514,0.13441,0.3483,1.51614,0.06507,0.49955,0.07631,0.13337,0.03525,0.10936,0.05633,0.43809,0.48163,0.22079,0.20371,0.46652,0.03254,0.30317,0.86326,0.2027,0.20915,0.87017,-0.042,0.38082,1.4291,0.27963,0.24502,1.43708,-0.10674,0.41744,1.13244,0.39698,0.2535,1.16628,0.04659,0.55344,1.27908,0.34905,0.45528,1.31303
2515,0.13566,0.35056,1.51505,0.06501,0.49945,0.07625,0.13867,0.03458,0.10965,0.05598,0.43778,0.48153,0.2224,0.20422,0.46713,0.03166,0.3036,0.86339,0.20157,0.20915,0.87065,-0.04119,0.3827,1.42943,0.2799,0.2461,1.43669,-0.10729,0.41737,1.13283,0.39765,0.25247,1.166,0.04685,0.55458,1.27749,0.35195,0.45517,1.31218
2516,0.13725,0.35251,1.51426,0.06473,0.49935,0.07618,0.14447,0.03402,0.10944,0.05574,0.43764,0.48145,0.22379,0.2045,0.46753,0.03088,0.30397,0.86346,0.20062,0.20922,0.87093,-0.04054,0.3844,1.42968,0.28022,0.24724,1.4362,-0.10792,0.41708,1.13314,0.3985,0.25129,1.1657,0.04754,0.55526,1.27546,0.35458,0.45499,1.31104
2517,0.1392,0.35427,1.51367,0.0644,0.49935,0.07605,0.15067,0.03362,0.10882,0.05555,0.43749,0.4813,0.225,0.20467,0.4677,0.03081,0.30431,0.86349,0.20062,0.20969,0.87103,-0.03993,0.38586,1.42973,0.28092,0.24841,1.43578,-0.10864,0.41669,1.1333,0.39923,0.25017,1.16527,0.04827,0.55556,1.27333,0.35675,0.45479,1.30974
2518,0.14145,0.35586,1.51304,0.06427,0.4995,0.07585,0.15692,0.03339,0.10793,0.05539,0.43725,0.48104,0.22604,0.20478,0.4677,0.03158,0.30457,0.86346,0.20179,0.21067,0.87102,-0.03909,0.38712,1.42965,0.28217,0.24964,1.43547,-0.10933,0.41634,1.13342,0.3996,0.24924,1.16457,0.04851,0.55593,1.27168,0.35839,0.45454,1.30846
2519,0.14398,0.35718,1.51225,0.06444,0.49974,0.07563,0.1629,0.03332,0.10699,0.05532,0.43694,0.48073,0.22706,0.20465,0.46771,0.03259,0.30476,0.86339,0.20332,0.21181,0.87103,-0.03777,0.38816,1.42968,0.28369,0.25082,1.43517,-0.10981,0.41605,1.13375,0.39976,0.24838,1.1637,0.04852,0.55655,1.27052,0.35986,0.45414,1.30729
2520,0.14663,0.35821,1.5113,0.06476,0.49995,0.07543,0.16864,0.03332,0.10611,0.05537,0.43659,0.48044,0.22839,0.20403,0.46787,0.03321,0.30492,0.8633,0.20429,0.21264,0.87115,-0.036,0.38898,1.42987,0.28507,0.25173,1.43475,-0.11014,0.41571,1.13435,0.40002,0.24747,1.16282,0.04907,0.55703,1.26925,0.36164,0.45358,1.30631
2521,0.14909,0.35914,1.51027,0.06497,0.49999,0.07524,0.17432,0.03333,0.10519,0.05542,0.43612,0.48016,0.23009,0.20282,0.46816,0.03358,0.30501,0.86324,0.20481,0.21302,0.87133,-0.03404,0.38958,1.42997,0.28626,0.25227,1.43424,-0.11043,0.41509,1.13492,0.40053,0.24648,1.16205,0.05057,0.55683,1.26723,0.36386,0.45292,1.30551
