PaulMeinheit/Bachelor_Muay_Thai/processed_Data/E2/teep/sliced/JointPositions/sliced1.csv
Unnamed: 0_level_0,Neck_Joint_Position,Neck_Joint_Position,Neck_Joint_Position,L_ANKLE_POSITION,L_ANKLE_POSITION,L_ANKLE_POSITION,R_ANKLE_POSITION,R_ANKLE_POSITION,R_ANKLE_POSITION,L_KNEE_POSITION,L_KNEE_POSITION,L_KNEE_POSITION,R_KNEE_POSITION,R_KNEE_POSITION,R_KNEE_POSITION,L_HIP_POSITION,L_HIP_POSITION,L_HIP_POSITION,R_HIP_POSITION,R_HIP_POSITION,R_HIP_POSITION,L_SHOULDER_POSITION,L_SHOULDER_POSITION,L_SHOULDER_POSITION,R_SHOULDER_POSITION,R_SHOULDER_POSITION,R_SHOULDER_POSITION,L_ELBOW_POSITION,L_ELBOW_POSITION,L_ELBOW_POSITION,R_ELBOW_POSITION,R_ELBOW_POSITION,R_ELBOW_POSITION,L_WRIST_POSITION,L_WRIST_POSITION,L_WRIST_POSITION,R_WRIST_POSITION,R_WRIST_POSITION,R_WRIST_POSITION
ITEM,X,Y,Z,X,Y,Z,X,Y,Z,X,Y,Z,X,Y,Z,X,Y,Z,X,Y,Z,X,Y,Z,X,Y,Z,X,Y,Z,X,Y,Z,X,Y,Z,X,Y,Z
665,0.15495,0.2096,1.50586,0.04503,0.50829,0.07502,0.17038,0.04397,0.07112,0.05318,0.41205,0.47353,0.22,0.16598,0.45353,0.05849,0.25907,0.849,0.23405,0.17567,0.85726,-0.02606,0.24509,1.42807,0.2948,0.11844,1.43193,-0.05083,0.38723,1.1584,0.43377,0.24596,1.20477,0.04963,0.4754,1.37205,0.32779,0.38821,1.38664
666,0.15525,0.20937,1.50572,0.04541,0.50852,0.07511,0.16996,0.04388,0.07148,0.05285,0.41115,0.47335,0.21991,0.16678,0.45356,0.05856,0.2586,0.849,0.23443,0.17586,0.85729,-0.02586,0.24468,1.42776,0.2952,0.11836,1.43203,-0.05081,0.38694,1.15817,0.43399,0.24551,1.20455,0.04999,0.47566,1.37143,0.32825,0.38836,1.3861
667,0.15587,0.2092,1.50559,0.04555,0.50865,0.07513,0.1697,0.04375,0.07176,0.05255,0.41047,0.47318,0.21954,0.16716,0.45369,0.05862,0.2583,0.84897,0.23478,0.17619,0.85739,-0.02536,0.24404,1.42746,0.29553,0.11842,1.43228,-0.05095,0.38689,1.15824,0.43419,0.24508,1.20445,0.05035,0.47639,1.37094,0.32871,0.38852,1.38568
668,0.15652,0.20912,1.50539,0.04543,0.5086,0.07498,0.16965,0.04357,0.07189,0.05228,0.4102,0.47298,0.21879,0.16697,0.45392,0.05882,0.2583,0.84887,0.2352,0.17669,0.85756,-0.0246,0.24332,1.42732,0.29607,0.11865,1.4325,-0.05123,0.38698,1.15863,0.43448,0.24501,1.20435,0.0507,0.47747,1.37061,0.32923,0.38887,1.38538
669,0.15673,0.20915,1.50522,0.04522,0.50843,0.07474,0.16974,0.04344,0.07188,0.05205,0.41037,0.47283,0.21827,0.16673,0.45401,0.05914,0.25861,0.84877,0.23564,0.17728,0.85759,-0.02402,0.24277,1.42743,0.29687,0.11894,1.43257,-0.05145,0.38713,1.1592,0.43493,0.24546,1.2043,0.05098,0.47878,1.37045,0.32978,0.38947,1.38527
670,0.15629,0.20924,1.50519,0.04515,0.50823,0.07465,0.16978,0.04337,0.07175,0.05195,0.41078,0.47289,0.21878,0.16714,0.45367,0.0594,0.25901,0.84881,0.23596,0.17776,0.85725,-0.02392,0.24242,1.42772,0.2978,0.11917,1.43253,-0.05135,0.38741,1.15982,0.43556,0.24626,1.20439,0.05121,0.48029,1.37046,0.33023,0.39019,1.38532
671,0.15558,0.20932,1.50527,0.04525,0.50809,0.07479,0.16967,0.04335,0.07161,0.05202,0.41121,0.47316,0.22014,0.16815,0.453,0.05954,0.25916,0.84898,0.23616,0.17796,0.85665,-0.0241,0.24203,1.42807,0.29861,0.11932,1.4325,-0.05111,0.38777,1.16055,0.43626,0.24706,1.20466,0.05148,0.48198,1.37058,0.33053,0.39086,1.38546
672,0.15529,0.20936,1.50532,0.04532,0.50805,0.07504,0.16947,0.04334,0.0716,0.05226,0.41178,0.47356,0.22096,0.1689,0.4526,0.05967,0.25897,0.84907,0.23636,0.17787,0.8563,-0.02413,0.24138,1.42849,0.29899,0.11952,1.43245,-0.05112,0.38815,1.16152,0.43697,0.2477,1.20505,0.05185,0.48371,1.37076,0.33074,0.39145,1.3856
673,0.15573,0.20934,1.50527,0.04519,0.50814,0.07523,0.16938,0.04331,0.0717,0.05261,0.41286,0.47398,0.22016,0.16863,0.45288,0.05991,0.25867,0.84892,0.23663,0.17769,0.85653,-0.02399,0.24061,1.42888,0.29902,0.11981,1.4323,-0.05128,0.3888,1.16272,0.43776,0.24838,1.20559,0.05241,0.48541,1.37111,0.33088,0.39215,1.38574
674,0.15655,0.20942,1.5051,0.04499,0.50834,0.07532,0.16953,0.04326,0.07183,0.05298,0.41472,0.47445,0.21812,0.16748,0.45366,0.06024,0.25857,0.84859,0.23693,0.17762,0.85719,-0.0239,0.2401,1.42902,0.29919,0.12011,1.43216,-0.05106,0.39011,1.16388,0.43877,0.24946,1.20641,0.05308,0.48718,1.37183,0.33094,0.39323,1.38599
675,0.15725,0.20975,1.50475,0.04492,0.50862,0.07548,0.16987,0.04318,0.07196,0.05333,0.41721,0.47511,0.21626,0.16628,0.45442,0.06058,0.25873,0.84826,0.23717,0.17768,0.85781,-0.02388,0.24,1.42886,0.29999,0.12051,1.4322,-0.0503,0.39199,1.16477,0.44005,0.25121,1.20753,0.05358,0.48919,1.3728,0.33104,0.39485,1.3865
676,0.15768,0.21025,1.50429,0.04499,0.50892,0.07585,0.1702,0.04304,0.07203,0.05369,0.41999,0.47604,0.2157,0.16571,0.45474,0.06086,0.25898,0.84811,0.23738,0.17781,0.85806,-0.02361,0.24016,1.42869,0.30139,0.12131,1.43257,-0.04962,0.39386,1.16556,0.4415,0.25357,1.20884,0.05368,0.49147,1.37368,0.33141,0.39705,1.38727
677,0.15797,0.21075,1.50385,0.04509,0.50919,0.07646,0.17033,0.04284,0.072,0.05412,0.42295,0.47723,0.21647,0.16589,0.4545,0.06114,0.25923,0.84812,0.23761,0.17793,0.85786,-0.02284,0.24031,1.42874,0.30286,0.12261,1.43315,-0.04966,0.39551,1.16657,0.44299,0.25623,1.21024,0.05356,0.49388,1.37438,0.33213,0.39968,1.38822
678,0.15829,0.21123,1.50352,0.04526,0.5094,0.0772,0.17023,0.04265,0.07187,0.05466,0.42622,0.47861,0.21776,0.16638,0.45398,0.06146,0.25951,0.84817,0.23787,0.17801,0.8574,-0.02147,0.24029,1.42891,0.30387,0.12397,1.4336,-0.05039,0.39735,1.16807,0.4446,0.25895,1.2119,0.05368,0.49625,1.3752,0.33295,0.40249,1.3893
679,0.15878,0.21184,1.50321,0.0456,0.50961,0.07809,0.17005,0.04261,0.07171,0.05529,0.42991,0.48019,0.21854,0.16657,0.45364,0.0618,0.25983,0.84821,0.23811,0.1781,0.85709,-0.01956,0.24009,1.42888,0.30445,0.12481,1.43368,-0.05132,0.39988,1.17004,0.44639,0.2618,1.21399,0.05422,0.49865,1.37649,0.3335,0.40547,1.39051
680,0.1595,0.21263,1.5029,0.04606,0.50993,0.07922,0.16989,0.04279,0.07164,0.05597,0.43397,0.48205,0.21836,0.16623,0.45374,0.06206,0.26009,0.8483,0.23828,0.17816,0.85716,-0.01746,0.23982,1.42857,0.30508,0.125,1.43349,-0.05206,0.40316,1.17232,0.44817,0.26505,1.21649,0.05494,0.5013,1.37831,0.33369,0.40885,1.39187
681,0.16029,0.21352,1.50263,0.04651,0.51045,0.08073,0.16969,0.04313,0.0717,0.0566,0.43829,0.48425,0.21772,0.16567,0.45414,0.06215,0.26025,0.8485,0.23828,0.17813,0.85751,-0.0158,0.23972,1.42822,0.30597,0.12501,1.43338,-0.05265,0.40694,1.1748,0.44964,0.2687,1.21916,0.05555,0.50436,1.38052,0.3336,0.41271,1.39334
682,0.16083,0.21442,1.50245,0.04697,0.51118,0.08257,0.16943,0.0434,0.07184,0.05698,0.44281,0.48674,0.21732,0.16527,0.45452,0.06205,0.26038,0.84883,0.23807,0.17805,0.85787,-0.01506,0.24004,1.42828,0.30675,0.12532,1.43348,-0.05346,0.41096,1.17757,0.45071,0.27245,1.2218,0.05601,0.50773,1.38292,0.33342,0.41678,1.39489
683,0.16096,0.21539,1.50234,0.04771,0.51209,0.08458,0.16926,0.04348,0.07203,0.057,0.44752,0.4894,0.21735,0.16505,0.45477,0.06184,0.26064,0.84922,0.23777,0.17808,0.85813,-0.01508,0.24081,1.42906,0.30703,0.12601,1.4337,-0.05479,0.41496,1.18079,0.4516,0.27609,1.22453,0.05639,0.5113,1.38542,0.33331,0.42087,1.39654
684,0.16082,0.2165,1.50222,0.04883,0.51309,0.0867,0.16932,0.04341,0.07225,0.05675,0.45244,0.49215,0.21752,0.16492,0.455,0.06169,0.26113,0.84963,0.23753,0.17836,0.85837,-0.01528,0.24178,1.43041,0.30696,0.12679,1.43388,-0.05656,0.41889,1.1845,0.45273,0.27982,1.22771,0.05674,0.51505,1.38806,0.33333,0.42522,1.39843
685,0.16056,0.2177,1.50203,0.05007,0.51415,0.08894,0.16957,0.04341,0.07249,0.05651,0.45763,0.49502,0.2174,0.16497,0.45527,0.06163,0.26179,0.85003,0.23741,0.17887,0.85863,-0.01537,0.24269,1.43182,0.30687,0.12754,1.43408,-0.05833,0.42298,1.18853,0.45426,0.2839,1.23157,0.05703,0.51912,1.39092,0.33347,0.43006,1.40066
686,0.16013,0.21886,1.50179,0.05107,0.51521,0.09132,0.16982,0.04358,0.07277,0.0565,0.46311,0.498,0.21685,0.16531,0.45559,0.06155,0.26256,0.85037,0.23727,0.17952,0.85892,-0.01557,0.24334,1.43293,0.30681,0.12847,1.43445,-0.05984,0.42737,1.19269,0.45598,0.28819,1.23592,0.05714,0.52355,1.39414,0.33377,0.43521,1.40323
687,0.15946,0.21993,1.50157,0.05173,0.51631,0.09372,0.17,0.04379,0.0731,0.05673,0.46868,0.50095,0.21611,0.1659,0.45592,0.06129,0.26348,0.85065,0.23693,0.18029,0.85921,-0.01609,0.24364,1.43378,0.30656,0.12981,1.43508,-0.06131,0.43199,1.19709,0.45765,0.29238,1.24035,0.05693,0.52818,1.39779,0.33426,0.44028,1.40602
688,0.15872,0.22112,1.5014,0.05223,0.51753,0.09599,0.17013,0.04389,0.07345,0.05696,0.47399,0.50369,0.21558,0.16647,0.4562,0.06079,0.26466,0.85094,0.23632,0.18122,0.85948,-0.01659,0.24367,1.4347,0.30609,0.1316,1.43587,-0.06317,0.43659,1.20199,0.45926,0.29649,1.24475,0.05633,0.53287,1.40191,0.33493,0.44514,1.40904
689,0.15819,0.22268,1.50125,0.0527,0.51903,0.09807,0.17018,0.04391,0.07375,0.05691,0.47877,0.50611,0.21534,0.16674,0.45645,0.06001,0.26614,0.85135,0.23541,0.18241,0.85973,-0.01657,0.24363,1.43594,0.30566,0.13382,1.4366,-0.06556,0.44104,1.20753,0.46105,0.30099,1.24929,0.0553,0.53759,1.40648,0.33564,0.44988,1.41253
690,0.15795,0.22454,1.50108,0.05317,0.52083,0.09998,0.17002,0.04393,0.07397,0.05653,0.48305,0.50826,0.21515,0.16663,0.45671,0.05898,0.26784,0.85191,0.23429,0.18389,0.85998,-0.01607,0.24378,1.43742,0.30551,0.13645,1.43722,-0.06823,0.4455,1.21353,0.46301,0.30634,1.25416,0.05394,0.54242,1.4115,0.33599,0.4547,1.41664
691,0.15779,0.22636,1.50095,0.05368,0.52292,0.10174,0.16968,0.04399,0.07417,0.05604,0.48705,0.5102,0.21467,0.16627,0.45707,0.05793,0.26968,0.85249,0.23319,0.1856,0.86027,-0.01555,0.24423,1.43875,0.30555,0.13931,1.43784,-0.07077,0.45044,1.21972,0.46474,0.31253,1.25943,0.05245,0.5474,1.41703,0.33568,0.45994,1.42117
692,0.1574,0.22792,1.50093,0.05425,0.52528,0.10336,0.16939,0.04401,0.07443,0.05566,0.49091,0.51196,0.2138,0.16594,0.4575,0.0571,0.27165,0.85303,0.23232,0.18746,0.86059,-0.01545,0.24493,1.43963,0.30557,0.14212,1.43852,-0.07279,0.45615,1.226,0.46588,0.31922,1.26498,0.05115,0.55255,1.42313,0.3348,0.46575,1.42589
693,0.15653,0.2295,1.50095,0.05477,0.52798,0.10483,0.16932,0.04397,0.07478,0.05543,0.49471,0.51352,0.21272,0.16584,0.45798,0.05654,0.27383,0.85356,0.23166,0.18941,0.86094,-0.01596,0.2458,1.44014,0.30554,0.14473,1.43913,-0.0741,0.46256,1.23235,0.46645,0.32613,1.27068,0.05022,0.5578,1.4298,0.33363,0.472,1.43077
694,0.15527,0.23168,1.5008,0.05518,0.53109,0.10614,0.16938,0.04399,0.07518,0.05518,0.4984,0.51487,0.21167,0.16591,0.45849,0.05603,0.27623,0.85407,0.23096,0.19143,0.86131,-0.01699,0.24692,1.44052,0.30543,0.14725,1.43943,-0.07476,0.46942,1.23878,0.46675,0.33332,1.27654,0.04963,0.56316,1.4369,0.3323,0.4784,1.43597
695,0.1541,0.23467,1.50035,0.05559,0.53466,0.1072,0.16942,0.04418,0.07555,0.05477,0.50183,0.51593,0.21079,0.16593,0.45902,0.05533,0.27879,0.85455,0.23006,0.19357,0.8617,-0.01831,0.24832,1.44096,0.30516,0.15001,1.43934,-0.07501,0.47646,1.24532,0.46707,0.34089,1.28273,0.04929,0.56874,1.44419,0.3309,0.48491,1.44167
696,0.15355,0.23801,1.49968,0.05609,0.53863,0.10797,0.16938,0.04451,0.07579,0.05409,0.50488,0.51662,0.21003,0.1657,0.45952,0.05447,0.28127,0.85487,0.2291,0.19583,0.86203,-0.01961,0.24983,1.44145,0.30481,0.15314,1.43906,-0.07517,0.48343,1.25202,0.46741,0.34885,1.28928,0.04909,0.57455,1.45144,0.32958,0.49165,1.44789
697,0.15365,0.2412,1.49892,0.0566,0.54286,0.10849,0.1693,0.04473,0.07586,0.0532,0.5076,0.517,0.20928,0.16526,0.45987,0.05368,0.28344,0.85488,0.22838,0.19816,0.86216,-0.02082,0.25127,1.44176,0.30481,0.15655,1.439,-0.07557,0.49023,1.25888,0.46756,0.3571,1.29594,0.049,0.58038,1.45856,0.32836,0.49869,1.45444
698,0.15392,0.24423,1.49808,0.05702,0.54721,0.10887,0.1692,0.04466,0.07579,0.05234,0.51029,0.51722,0.20846,0.16478,0.45999,0.05314,0.2854,0.85461,0.22804,0.20053,0.86202,-0.02207,0.25272,1.44161,0.30557,0.16003,1.43938,-0.07636,0.49705,1.26583,0.4674,0.36556,1.30246,0.04891,0.58607,1.46557,0.32701,0.50594,1.46098
699,0.15383,0.24739,1.49719,0.05748,0.5517,0.10919,0.16904,0.04442,0.07568,0.05177,0.51324,0.51738,0.20761,0.16441,0.45999,0.05284,0.28744,0.85417,0.22795,0.20302,0.86171,-0.0235,0.25439,1.44107,0.3068,0.16358,1.44005,-0.07747,0.504,1.27278,0.46705,0.37403,1.30885,0.04856,0.59168,1.47264,0.32538,0.51317,1.46733
700,0.15318,0.25072,1.49639,0.05816,0.55645,0.10951,0.16885,0.04424,0.07567,0.05159,0.51648,0.51754,0.2068,0.16421,0.46006,0.05258,0.28973,0.8537,0.22785,0.20568,0.86146,-0.02501,0.2564,1.44064,0.30769,0.16734,1.44071,-0.07861,0.51087,1.27967,0.46668,0.38217,1.31522,0.04784,0.59721,1.47985,0.32368,0.52012,1.47354
701,0.15219,0.25391,1.49582,0.05901,0.56142,0.10981,0.16865,0.04419,0.07586,0.0517,0.51977,0.51767,0.20605,0.16419,0.46029,0.05219,0.29227,0.85331,0.22757,0.20848,0.86137,-0.02639,0.25859,1.44083,0.30769,0.17135,1.44113,-0.07947,0.51726,1.2865,0.46626,0.38976,1.32143,0.04707,0.60247,1.4871,0.32215,0.52659,1.47971
702,0.15127,0.2568,1.49548,0.05979,0.56638,0.11001,0.16838,0.04415,0.0762,0.05196,0.5229,0.51767,0.20527,0.16433,0.46062,0.05167,0.29505,0.85307,0.22709,0.21134,0.86137,-0.02752,0.26079,1.44168,0.3069,0.17549,1.44129,-0.07998,0.52302,1.29327,0.46551,0.39688,1.32722,0.04657,0.60733,1.49424,0.32078,0.53268,1.48582
703,0.1506,0.2595,1.49524,0.0603,0.57118,0.11002,0.16801,0.04411,0.07661,0.05218,0.52588,0.51747,0.2044,0.16459,0.46098,0.05115,0.2981,0.85292,0.22651,0.21431,0.86139,-0.02841,0.26301,1.44263,0.30584,0.17966,1.44123,-0.08044,0.52843,1.29985,0.46438,0.40377,1.33252,0.04614,0.61179,1.5012,0.31943,0.53851,1.49183
704,0.14992,0.2622,1.49506,0.06052,0.57591,0.10982,0.1677,0.04411,0.07707,0.05224,0.52892,0.51707,0.20345,0.16494,0.4614,0.05077,0.30149,0.85276,0.22604,0.21752,0.86141,-0.02925,0.26545,1.44299,0.30504,0.18384,1.44105,-0.08118,0.53398,1.3061,0.46309,0.4107,1.33745,0.04539,0.61598,1.50802,0.31809,0.54402,1.49792
705,0.1491,0.26501,1.49492,0.06058,0.58065,0.10949,0.16769,0.04415,0.07759,0.05214,0.53213,0.51656,0.20256,0.16538,0.46186,0.05057,0.30518,0.85257,0.22572,0.22099,0.86144,-0.03022,0.2683,1.4425,0.30482,0.18809,1.44074,-0.08216,0.53998,1.31199,0.4618,0.4179,1.34214,0.04443,0.62006,1.51466,0.3168,0.54911,1.50432
706,0.14836,0.26807,1.49469,0.06058,0.58529,0.10905,0.16797,0.04416,0.07806,0.05203,0.53554,0.51597,0.20189,0.16593,0.46225,0.05037,0.30904,0.85228,0.22544,0.22468,0.86135,-0.0313,0.27145,1.44136,0.30522,0.19244,1.44023,-0.08299,0.54627,1.31749,0.46039,0.42551,1.34655,0.04367,0.62404,1.52101,0.3154,0.55395,1.51095
707,0.14786,0.27152,1.49416,0.06057,0.58955,0.10846,0.16834,0.04415,0.07835,0.05205,0.53916,0.5153,0.20144,0.16662,0.4624,0.04997,0.31293,0.8518,0.22503,0.22859,0.86101,-0.03233,0.2746,1.44003,0.30588,0.19696,1.43953,-0.08344,0.55227,1.32244,0.45864,0.43343,1.35052,0.04308,0.6277,1.52693,0.31362,0.55878,1.51726
708,0.14749,0.27533,1.49328,0.06057,0.59324,0.10768,0.16856,0.04424,0.07845,0.05214,0.54305,0.51455,0.20104,0.16747,0.4623,0.04927,0.31687,0.85108,0.22442,0.23274,0.86039,-0.03323,0.27758,1.43889,0.30629,0.20168,1.43878,-0.08376,0.55756,1.32663,0.45652,0.44125,1.35384,0.04224,0.63083,1.53223,0.31135,0.56361,1.52266
709,0.14713,0.27923,1.49231,0.06063,0.59643,0.10671,0.16855,0.04444,0.07843,0.05215,0.54715,0.51369,0.20053,0.16847,0.46206,0.04834,0.32105,0.85026,0.22354,0.23702,0.85963,-0.03406,0.28059,1.43793,0.3061,0.20671,1.43818,-0.08438,0.56236,1.33015,0.45427,0.44867,1.35647,0.04105,0.63347,1.53685,0.30882,0.56813,1.52711
710,0.14677,0.28284,1.49158,0.06075,0.59925,0.10555,0.16833,0.04471,0.07841,0.05201,0.55137,0.51269,0.19991,0.16969,0.46177,0.04727,0.32561,0.84947,0.22232,0.24126,0.85884,-0.03493,0.2839,1.43681,0.30511,0.21223,1.43771,-0.0855,0.56724,1.33337,0.45227,0.45568,1.35865,0.03986,0.63589,1.54095,0.30641,0.57212,1.53102
711,0.14619,0.28613,1.49114,0.06093,0.60172,0.10427,0.16796,0.04502,0.07848,0.05177,0.55577,0.51162,0.19931,0.17131,0.46143,0.04612,0.33055,0.84876,0.22082,0.24546,0.85807,-0.0359,0.28752,1.43532,0.30334,0.21832,1.43719,-0.08692,0.57246,1.33661,0.45057,0.46254,1.36066,0.03903,0.63831,1.54473,0.30418,0.57565,1.53479
712,0.14502,0.28947,1.4907,0.06124,0.60377,0.10293,0.16762,0.04539,0.07864,0.05158,0.56043,0.51056,0.19887,0.17352,0.46099,0.045,0.33574,0.84802,0.21927,0.24976,0.8573,-0.03695,0.29128,1.43364,0.30134,0.22462,1.43633,-0.08842,0.57779,1.3398,0.44877,0.46958,1.36262,0.03859,0.64088,1.54814,0.30173,0.57911,1.53849
713,0.1432,0.29314,1.48987,0.06179,0.6054,0.10146,0.16751,0.04579,0.07885,0.05167,0.56534,0.50942,0.19863,0.17637,0.46038,0.04416,0.34105,0.84713,0.21818,0.25457,0.85635,-0.03812,0.2951,1.43213,0.30012,0.23054,1.43487,-0.08982,0.58293,1.34256,0.4464,0.47714,1.36435,0.03838,0.64363,1.55087,0.29869,0.58291,1.54195
714,0.14113,0.29708,1.48841,0.06264,0.60669,0.09975,0.16763,0.04618,0.07894,0.05221,0.57045,0.50805,0.19855,0.17964,0.45949,0.04385,0.34654,0.846,0.21807,0.26045,0.85493,-0.03947,0.29908,1.43106,0.30026,0.23588,1.43267,-0.09095,0.58782,1.34433,0.44343,0.48523,1.36556,0.0382,0.64647,1.55264,0.29516,0.58705,1.54499
715,0.13931,0.30115,1.4865,0.06379,0.60766,0.09774,0.16779,0.04651,0.07881,0.05304,0.57575,0.5064,0.19864,0.18304,0.45827,0.04399,0.35234,0.84466,0.2188,0.2674,0.85294,-0.04096,0.30322,1.4303,0.30113,0.24094,1.42999,-0.09177,0.59246,1.34485,0.4403,0.49337,1.36604,0.03782,0.64908,1.55346,0.29169,0.59104,1.54748
716,0.13796,0.3054,1.48459,0.06511,0.6082,0.09558,0.1678,0.04681,0.07848,0.05384,0.58125,0.50458,0.19888,0.18644,0.45679,0.04414,0.35838,0.84318,0.21957,0.27463,0.8506,-0.04236,0.3074,1.42947,0.30157,0.24613,1.42739,-0.09247,0.59684,1.3443,0.43746,0.50092,1.36578,0.03707,0.65118,1.55354,0.28877,0.59445,1.54933
717,0.13696,0.30998,1.48287,0.06642,0.60814,0.09346,0.16765,0.04717,0.07812,0.05444,0.58684,0.50277,0.19924,0.19004,0.45518,0.04391,0.36435,0.8416,0.21977,0.28143,0.84826,-0.04347,0.31146,1.42818,0.30103,0.25153,1.42526,-0.09331,0.60095,1.34301,0.43499,0.50765,1.36497,0.03591,0.65273,1.5531,0.28644,0.59734,1.55054
718,0.13594,0.31491,1.48122,0.06778,0.60754,0.09153,0.16749,0.04772,0.07791,0.0549,0.59235,0.50108,0.19969,0.19413,0.45356,0.04325,0.37001,0.83997,0.21944,0.28777,0.84615,-0.0444,0.3154,1.42629,0.2998,0.25713,1.42344,-0.09423,0.60488,1.34109,0.43264,0.51397,1.36376,0.03445,0.65398,1.55215,0.2843,0.60014,1.55115
719,0.13472,0.31999,1.47955,0.06924,0.60666,0.08987,0.16746,0.04849,0.07806,0.05521,0.59773,0.49958,0.20017,0.19897,0.45205,0.04233,0.37538,0.8384,0.21891,0.29396,0.84437,-0.04551,0.31925,1.42395,0.29837,0.26303,1.42169,-0.095,0.60869,1.33839,0.43023,0.5204,1.36211,0.03293,0.65515,1.5505,0.28201,0.60331,1.55106
720,0.13341,0.32501,1.47789,0.07067,0.60585,0.0885,0.1676,0.04938,0.07869,0.05526,0.60318,0.49825,0.2006,0.2047,0.45067,0.04137,0.38068,0.83694,0.21839,0.30022,0.8429,-0.04708,0.32302,1.42137,0.29709,0.2692,1.41998,-0.09554,0.61231,1.33476,0.42773,0.52707,1.35988,0.03151,0.65618,1.54795,0.27956,0.60705,1.55012
721,0.13215,0.32996,1.47627,0.07188,0.60543,0.08735,0.16796,0.05022,0.07988,0.05508,0.60897,0.49703,0.20097,0.2113,0.4494,0.04051,0.3862,0.83552,0.21799,0.30677,0.84168,-0.04897,0.32657,1.4188,0.29597,0.27541,1.41834,-0.09618,0.61549,1.33026,0.42518,0.53375,1.35717,0.03014,0.65688,1.54437,0.27704,0.6113,1.54844
722,0.13077,0.33503,1.47458,0.07286,0.60554,0.0863,0.16856,0.05096,0.08157,0.05483,0.61519,0.49583,0.20138,0.21856,0.4482,0.0397,0.39211,0.83409,0.21766,0.31378,0.84057,-0.05073,0.32976,1.41649,0.2947,0.28164,1.41661,-0.09735,0.61788,1.32509,0.42277,0.54031,1.35442,0.02856,0.65714,1.53985,0.27425,0.61578,1.54623
723,0.12907,0.34041,1.47278,0.07377,0.60609,0.0853,0.16929,0.05176,0.08358,0.05458,0.62171,0.49459,0.20198,0.22626,0.44698,0.03877,0.39841,0.83268,0.21725,0.32131,0.83944,-0.05195,0.33264,1.41459,0.2931,0.28822,1.41457,-0.09911,0.61945,1.31944,0.42074,0.54702,1.35206,0.02657,0.65703,1.53463,0.27083,0.62023,1.54366
724,0.12699,0.34607,1.47098,0.07474,0.60676,0.08432,0.17006,0.05279,0.08569,0.05421,0.62827,0.49328,0.20285,0.23428,0.44564,0.03759,0.40501,0.83135,0.21663,0.32923,0.83818,-0.05282,0.33556,1.41299,0.29138,0.2954,1.41226,-0.10114,0.62067,1.3134,0.41899,0.55428,1.35006,0.02426,0.65677,1.52901,0.26673,0.62461,1.54089
725,0.12466,0.35178,1.46938,0.07561,0.60722,0.08335,0.17096,0.05411,0.08787,0.05369,0.63474,0.49188,0.20397,0.24285,0.44406,0.03623,0.41178,0.83011,0.21584,0.33733,0.83677,-0.05399,0.33895,1.41131,0.28985,0.30297,1.41003,-0.10301,0.62227,1.30708,0.41701,0.56212,1.34799,0.02194,0.65671,1.52322,0.26242,0.62899,1.53819
726,0.1223,0.35742,1.468,0.07603,0.60735,0.08241,0.1721,0.05583,0.09039,0.05314,0.64112,0.49042,0.20535,0.25245,0.44227,0.0349,0.41868,0.82895,0.21506,0.34554,0.83537,-0.05595,0.34302,1.40938,0.28852,0.31043,1.40807,-0.10464,0.62469,1.30061,0.41449,0.57001,1.34543,0.01981,0.65713,1.51734,0.25859,0.6331,1.53585
727,0.12,0.36308,1.46674,0.07588,0.60736,0.08156,0.17342,0.05821,0.09364,0.05262,0.64743,0.48897,0.2071,0.26352,0.44048,0.03379,0.4257,0.82794,0.21446,0.35384,0.83428,-0.05851,0.34769,1.40724,0.28712,0.31762,1.40631,-0.10634,0.62773,1.29397,0.41171,0.57753,1.34227,0.01774,0.65805,1.51122,0.25574,0.63646,1.53396
728,0.11775,0.36893,1.46549,0.07542,0.60762,0.08091,0.17495,0.06152,0.09783,0.05207,0.65364,0.48769,0.20949,0.27635,0.43877,0.03281,0.43284,0.82723,0.21397,0.36222,0.8336,-0.06103,0.35269,1.40504,0.2854,0.32477,1.40453,-0.10853,0.63083,1.28705,0.40906,0.58466,1.33867,0.01549,0.65922,1.50459,0.25378,0.63906,1.53226
729,0.11558,0.375,1.46434,0.07505,0.60828,0.0805,0.17675,0.06598,0.1029,0.05148,0.6597,0.48662,0.21288,0.29128,0.43684,0.03163,0.44006,0.82688,0.21322,0.37055,0.83307,-0.06313,0.35774,1.4029,0.28326,0.33212,1.40287,-0.11133,0.63359,1.27991,0.40661,0.59162,1.33491,0.01295,0.66037,1.49752,0.25204,0.64175,1.5302
730,0.1135,0.38123,1.46353,0.07492,0.6092,0.08019,0.17883,0.07176,0.10885,0.05099,0.66556,0.48564,0.21734,0.30857,0.43446,0.03,0.44735,0.82674,0.21194,0.37872,0.83238,-0.06492,0.36262,1.40112,0.28067,0.33957,1.40164,-0.11461,0.63581,1.2729,0.40421,0.59834,1.33129,0.0102,0.66145,1.49033,0.24981,0.64546,1.52747
731,0.11131,0.38749,1.46324,0.0748,0.61005,0.07984,0.18127,0.07901,0.11595,0.05077,0.67115,0.4846,0.22229,0.32812,0.43193,0.028,0.45467,0.8267,0.21028,0.38687,0.83155,-0.06668,0.36725,1.40005,0.27775,0.34686,1.40094,-0.11817,0.6374,1.26622,0.40186,0.6046,1.32784,0.00731,0.66251,1.48333,0.24716,0.65025,1.52413
732,0.10882,0.39358,1.46345,0.07448,0.61054,0.07943,0.18414,0.08788,0.12437,0.05086,0.67636,0.48347,0.22687,0.34952,0.42982,0.02587,0.46199,0.82674,0.2086,0.39539,0.83088,-0.06854,0.37171,1.39972,0.27464,0.35399,1.40058,-0.12179,0.6384,1.25978,0.3997,0.61033,1.32427,0.0043,0.66363,1.47652,0.24469,0.65548,1.52043
733,0.10617,0.39922,1.46402,0.0741,0.61061,0.07901,0.1875,0.09856,0.13397,0.05109,0.681,0.48231,0.2308,0.37241,0.42844,0.02373,0.46921,0.827,0.20717,0.40454,0.83056,-0.07043,0.37609,1.39986,0.27141,0.36121,1.40047,-0.12549,0.6389,1.25345,0.39768,0.61579,1.32031,0.00112,0.665,1.46979,0.24272,0.66054,1.5166
734,0.10365,0.40425,1.46484,0.07391,0.61045,0.07856,0.19137,0.11135,0.14451,0.05114,0.6848,0.48116,0.23447,0.3968,0.42778,0.02156,0.47613,0.82757,0.206,0.41435,0.83048,-0.07223,0.38032,1.40022,0.26806,0.36873,1.4007,-0.12961,0.63897,1.2474,0.39557,0.62122,1.31601,-0.00225,0.66688,1.46308,0.24102,0.66533,1.51277
735,0.10113,0.40894,1.46578,0.07396,0.61033,0.0781,0.19566,0.12663,0.15579,0.05076,0.6878,0.48008,0.23826,0.42291,0.4278,0.01929,0.48251,0.82833,0.20503,0.42471,0.83051,-0.07383,0.38447,1.40069,0.26468,0.37632,1.40135,-0.13449,0.63879,1.242,0.39339,0.6265,1.31179,-0.00584,0.66945,1.45653,0.2394,0.67009,1.50911
736,0.09825,0.41389,1.46667,0.07403,0.6104,0.07772,0.20012,0.14461,0.16781,0.05001,0.69048,0.47915,0.24203,0.45087,0.42863,0.01699,0.48833,0.82908,0.20415,0.43526,0.83064,-0.07537,0.38899,1.40125,0.26146,0.38357,1.40232,-0.13992,0.63901,1.23735,0.39138,0.63135,1.30796,-0.00963,0.67276,1.45042,0.23808,0.67515,1.50576
737,0.09504,0.41949,1.46731,0.07388,0.61064,0.07752,0.2044,0.1651,0.18072,0.04916,0.69345,0.47835,0.24523,0.48053,0.43057,0.0149,0.49383,0.82962,0.20335,0.44553,0.83096,-0.07731,0.39437,1.40177,0.25864,0.39035,1.40334,-0.14526,0.64035,1.23319,0.38957,0.63576,1.30431,-0.01356,0.6767,1.44496,0.23729,0.6807,1.50264
738,0.09197,0.42557,1.46771,0.07361,0.61086,0.07751,0.20817,0.18759,0.19463,0.04842,0.69696,0.47762,0.24757,0.51131,0.43387,0.01328,0.49925,0.82989,0.20277,0.45525,0.83154,-0.08007,0.40057,1.40203,0.25632,0.39674,1.40421,-0.14993,0.64291,1.22901,0.38764,0.64001,1.30051,-0.01754,0.6811,1.44003,0.2367,0.68671,1.49946
739,0.08943,0.43158,1.46817,0.07345,0.61106,0.07755,0.21114,0.21166,0.20927,0.04766,0.70057,0.47687,0.24929,0.54255,0.43871,0.01205,0.50453,0.83001,0.2024,0.46441,0.83239,-0.08357,0.40711,1.40191,0.25447,0.40274,1.40495,-0.15381,0.64615,1.22453,0.38541,0.64416,1.29656,-0.02154,0.68569,1.43537,0.23585,0.6929,1.49607
740,0.08737,0.4372,1.46895,0.07339,0.61137,0.0774,0.21301,0.23729,0.22425,0.04645,0.70362,0.47602,0.25074,0.57392,0.44524,0.01089,0.50945,0.83021,0.20197,0.4731,0.83349,-0.0872,0.41361,1.40151,0.25286,0.40828,1.40573,-0.15712,0.64955,1.2199,0.38328,0.64793,1.29286,-0.02547,0.69029,1.43092,0.23478,0.69895,1.49258
741,0.08554,0.44263,1.47,0.07314,0.61178,0.07698,0.21363,0.2647,0.23954,0.04456,0.70592,0.47505,0.25212,0.60564,0.4537,0.00954,0.51407,0.83055,0.20127,0.48138,0.83483,-0.0903,0.42,1.4012,0.25116,0.41358,1.40669,-0.16002,0.65289,1.21561,0.38198,0.65104,1.28975,-0.02915,0.69502,1.42682,0.23406,0.70467,1.48922
742,0.08366,0.44819,1.47099,0.07249,0.61211,0.0765,0.21344,0.29405,0.25542,0.04215,0.70804,0.47401,0.25366,0.63804,0.46432,0.00818,0.51854,0.83087,0.20042,0.48925,0.83622,-0.09266,0.42625,1.40111,0.24913,0.41903,1.40782,-0.16256,0.65627,1.21204,0.38204,0.65356,1.28736,-0.0323,0.70029,1.42325,0.23428,0.71019,1.48613
743,0.08161,0.45392,1.47181,0.07149,0.61215,0.07631,0.21331,0.32512,0.2721,0.03957,0.71063,0.47307,0.2556,0.67118,0.47712,0.00701,0.52282,0.83095,0.19968,0.49667,0.83726,-0.09459,0.43232,1.40103,0.24682,0.42479,1.40907,-0.16477,0.66012,1.20939,0.38347,0.65566,1.28578,-0.03469,0.70649,1.42021,0.23529,0.71577,1.4832
744,0.07947,0.45954,1.47258,0.0703,0.61191,0.07658,0.21362,0.35732,0.28934,0.03699,0.71371,0.47238,0.25779,0.70457,0.49196,0.00599,0.52655,0.83074,0.19905,0.50363,0.83759,-0.09647,0.43831,1.40073,0.24436,0.43062,1.4104,-0.16673,0.66481,1.20759,0.38573,0.65748,1.285,-0.03635,0.71371,1.41765,0.2362,0.72169,1.48009
745,0.07742,0.46492,1.47342,0.06908,0.61155,0.0771,0.21398,0.39002,0.30673,0.03432,0.71672,0.47189,0.25985,0.73728,0.50894,0.00498,0.52952,0.83038,0.19843,0.51022,0.83752,-0.09846,0.44455,1.40029,0.24178,0.43634,1.41193,-0.1684,0.67033,1.2062,0.38798,0.65917,1.28485,-0.03757,0.72176,1.41537,0.23632,0.72815,1.47665
746,0.07549,0.47021,1.47433,0.06804,0.61123,0.07746,0.21389,0.42275,0.32402,0.03144,0.71908,0.47137,0.26173,0.76845,0.52843,0.00406,0.532,0.83006,0.19783,0.51663,0.83794,-0.10055,0.45122,1.40003,0.23913,0.4421,1.41384,-0.16971,0.67619,1.20472,0.38972,0.66092,1.28493,-0.03856,0.73033,1.41301,0.23599,0.73499,1.47314
747,0.07352,0.47562,1.47529,0.0675,0.61106,0.07738,0.21325,0.4555,0.34134,0.02836,0.72056,0.47059,0.26385,0.79777,0.55079,0.0034,0.53445,0.82996,0.19736,0.523,0.83952,-0.10264,0.45803,1.40001,0.2366,0.44815,1.41599,-0.17072,0.68181,1.20295,0.39121,0.66283,1.28489,-0.03932,0.73927,1.41019,0.23619,0.7417,1.47007
748,0.07132,0.48125,1.47628,0.0674,0.61114,0.07688,0.21228,0.48852,0.35913,0.02529,0.72126,0.4696,0.26634,0.82551,0.57614,0.00302,0.53723,0.83022,0.19703,0.52942,0.84225,-0.10466,0.46458,1.39998,0.23443,0.45453,1.41796,-0.17159,0.68706,1.20108,0.39309,0.66487,1.28469,-0.03969,0.74859,1.40682,0.23767,0.74786,1.46772
749,0.06895,0.48712,1.4772,0.06718,0.61138,0.07626,0.21147,0.52184,0.37779,0.02237,0.72151,0.46869,0.26867,0.85201,0.60427,0.00281,0.54044,0.83097,0.19674,0.53605,0.84569,-0.10661,0.47096,1.39963,0.23276,0.46098,1.41949,-0.17229,0.69247,1.19923,0.3957,0.66696,1.28459,-0.0396,0.75825,1.40314,0.24031,0.75359,1.46596
750,0.06659,0.4932,1.47791,0.0666,0.61145,0.07587,0.2114,0.55514,0.39721,0.01961,0.72162,0.46803,0.27026,0.87729,0.63456,0.00261,0.54415,0.83221,0.19638,0.54317,0.84948,-0.1086,0.4776,1.39887,0.23151,0.46718,1.42071,-0.17269,0.69852,1.19731,0.39887,0.66902,1.28496,-0.03925,0.76796,1.39951,0.2435,0.75942,1.4645
751,0.06438,0.49947,1.4784,0.06613,0.61116,0.07572,0.21226,0.58821,0.41684,0.01699,0.72175,0.4675,0.27095,0.90108,0.66635,0.00245,0.54824,0.83369,0.19597,0.55084,0.85342,-0.11063,0.48451,1.39788,0.23046,0.47291,1.42192,-0.17285,0.70498,1.19524,0.40219,0.67097,1.28606,-0.03908,0.77745,1.39616,0.24683,0.7657,1.46336
752,0.06245,0.50588,1.47867,0.06625,0.61063,0.07557,0.21365,0.62108,0.43638,0.01454,0.72198,0.4668,0.27068,0.92313,0.69925,0.0026,0.55256,0.835,0.19574,0.55893,0.85745,-0.11265,0.49123,1.39692,0.22935,0.47835,1.42326,-0.17306,0.71106,1.19304,0.40536,0.67295,1.28788,-0.03944,0.78682,1.39284,0.25029,0.77245,1.4628
753,0.06094,0.5124,1.47873,0.06681,0.61008,0.07526,0.21493,0.65364,0.45589,0.01235,0.7224,0.46584,0.26921,0.94328,0.73292,0.00332,0.55697,0.83593,0.1959,0.56728,0.8615,-0.11455,0.4975,1.39612,0.22809,0.4839,1.42471,-0.17345,0.71625,1.19063,0.40827,0.67527,1.29021,-0.04027,0.79629,1.38905,0.25393,0.77956,1.46298
754,0.05985,0.51907,1.47854,0.06727,0.60957,0.07492,0.21576,0.68572,0.47541,0.01053,0.72318,0.4648,0.26663,0.96131,0.76704,0.00476,0.56144,0.83658,0.19658,0.57575,0.86567,-0.11612,0.50349,1.39548,0.22682,0.4898,1.42604,-0.17385,0.72066,1.18801,0.41107,0.6782,1.29286,-0.04118,0.80605,1.38453,0.25773,0.78689,1.4638
755,0.0589,0.52588,1.47815,0.0673,0.60909,0.07472,0.21626,0.71731,0.49479,0.00909,0.72449,0.46386,0.2634,0.97691,0.80133,0.00703,0.56596,0.83706,0.19788,0.58415,0.87011,-0.11709,0.50937,1.39493,0.22576,0.49602,1.42704,-0.17411,0.72473,1.18539,0.41406,0.68177,1.29583,-0.04179,0.81608,1.37944,0.26157,0.79439,1.46497
756,0.05773,0.53251,1.47776,0.06703,0.60871,0.07473,0.21661,0.74861,0.51401,0.00803,0.72629,0.46309,0.25966,0.99004,0.83563,0.01006,0.5706,0.83748,0.19971,0.59236,0.87499,-0.11745,0.51499,1.39436,0.22516,0.50232,1.4277,-0.17438,0.72871,1.18311,0.41745,0.68579,1.29909,-0.04201,0.82623,1.37411,0.26526,0.80194,1.4661
757,0.05625,0.53865,1.47759,0.0668,0.6085,0.07486,0.21676,0.78005,0.53323,0.00736,0.72823,0.4625,0.2549,1.00087,0.86993,0.01342,0.57562,0.83812,0.20169,0.60043,0.88035,-0.11747,0.52033,1.3937,0.22513,0.50855,1.42825,-0.17479,0.73287,1.18137,0.4212,0.68993,1.3024,-0.04204,0.83642,1.36891,0.26877,0.80933,1.46688
758,0.05473,0.54435,1.47761,0.06673,0.6086,0.07511,0.2166,0.81216,0.55274,0.00698,0.73011,0.46214,0.2485,1.00955,0.90432,0.01648,0.58128,0.8392,0.20332,0.60841,0.88611,-0.11751,0.52571,1.393,0.22541,0.51477,1.42892,-0.17523,0.73758,1.18012,0.42517,0.69379,1.30554,-0.04196,0.84668,1.36411,0.27233,0.81646,1.46721
759,0.05361,0.54995,1.47753,0.06668,0.609,0.07555,0.2162,0.84518,0.57303,0.00656,0.73229,0.46197,0.24044,1.0162,0.93875,0.01895,0.58767,0.84059,0.20432,0.61643,0.89215,-0.11774,0.53155,1.39239,0.22551,0.52105,1.42967,-0.17549,0.7429,1.179,0.42921,0.6972,1.30861,-0.04171,0.85679,1.35968,0.27623,0.82358,1.46725
760,0.05305,0.55566,1.47714,0.0665,0.60948,0.07633,0.21575,0.87897,0.59465,0.00584,0.73536,0.46182,0.23133,1.02111,0.97298,0.02105,0.59473,0.84183,0.20475,0.62487,0.89832,-0.11821,0.53781,1.39176,0.22528,0.52735,1.43029,-0.17571,0.74839,1.17754,0.43321,0.70032,1.31186,-0.04134,0.86608,1.35533,0.28057,0.83104,1.46729
761,0.05271,0.56137,1.47653,0.06625,0.60977,0.07742,0.21535,0.91321,0.61788,0.00485,0.73948,0.46153,0.22213,1.02471,1.00661,0.02312,0.6024,0.8427,0.20489,0.63417,0.9043,-0.11893,0.54408,1.39088,0.22505,0.53355,1.43066,-0.17628,0.75362,1.1756,0.43708,0.7036,1.31533,-0.04104,0.87405,1.35088,0.28518,0.8388,1.46762
762,0.05215,0.56699,1.47577,0.0661,0.60988,0.07861,0.21484,0.94762,0.64245,0.00389,0.74421,0.46099,0.21369,1.02698,1.03904,0.02526,0.61064,0.84324,0.205,0.64428,0.90963,-0.11966,0.54999,1.38967,0.22524,0.53964,1.43085,-0.17752,0.75862,1.17365,0.44085,0.70733,1.31875,-0.04083,0.88115,1.34633,0.28974,0.84652,1.4682
763,0.05132,0.57255,1.47474,0.06629,0.61011,0.0794,0.2139,0.98214,0.66755,0.0034,0.74891,0.46008,0.20638,1.02757,1.06938,0.02746,0.61921,0.8435,0.20524,0.65448,0.91418,-0.12016,0.55555,1.38823,0.22587,0.54568,1.43097,-0.17919,0.76377,1.17213,0.44451,0.71149,1.32198,-0.04059,0.88831,1.34182,0.29393,0.85407,1.46875
764,0.05045,0.57811,1.4734,0.0667,0.61069,0.07941,0.21244,1.01707,0.69261,0.00359,0.7532,0.45867,0.20008,1.02655,1.09676,0.02974,0.62786,0.8434,0.20547,0.66385,0.91869,-0.12055,0.561,1.38669,0.2265,0.55161,1.43113,-0.18067,0.76932,1.17099,0.44806,0.71564,1.3254,-0.04028,0.89602,1.33758,0.29773,0.86167,1.469
765,0.04971,0.58353,1.47201,0.06707,0.61147,0.07872,0.21069,1.05276,0.71798,0.00443,0.75714,0.45686,0.19446,1.02454,1.12113,0.03214,0.63655,0.843,0.20545,0.67201,0.92393,-0.12112,0.56649,1.38519,0.22679,0.5573,1.43136,-0.18165,0.77516,1.16993,0.45163,0.71934,1.32955,-0.04017,0.90398,1.33395,0.30144,0.86951,1.46897
766,0.04911,0.58856,1.47091,0.06747,0.6121,0.07799,0.20878,1.08917,0.74466,0.00578,0.76105,0.45501,0.18934,1.02199,1.14302,0.03439,0.64546,0.84261,0.20512,0.67927,0.92952,-0.12184,0.5719,1.38393,0.22687,0.56269,1.43158,-0.18254,0.78074,1.1689,0.45533,0.7225,1.3344,-0.0406,0.91139,1.33107,0.30547,0.87748,1.46884
767,0.04857,0.593,1.47007,0.06807,0.61259,0.07774,0.20633,1.12602,0.77314,0.00745,0.76525,0.45345,0.18479,1.01902,1.16259,0.03618,0.65467,0.8425,0.20483,0.68629,0.93416,-0.12248,0.57703,1.38302,0.22712,0.56779,1.43166,-0.18404,0.78567,1.16804,0.45916,0.7253,1.33934,-0.04164,0.91758,1.32877,0.30993,0.88503,1.4688
768,0.04802,0.59687,1.46925,0.06851,0.61334,0.07799,0.20274,1.16323,0.80318,0.00916,0.76993,0.45228,0.18087,1.01594,1.17922,0.03743,0.66403,0.84267,0.20504,0.69344,0.93695,-0.12299,0.58182,1.38242,0.22765,0.57278,1.4316,-0.18652,0.79005,1.1676,0.46315,0.72779,1.34392,-0.04305,0.92251,1.32694,0.31464,0.89171,1.4689
769,0.04752,0.60028,1.46829,0.06851,0.61449,0.07847,0.19768,1.20105,0.83445,0.01092,0.77504,0.45135,0.1775,1.01353,1.19224,0.03841,0.67331,0.8429,0.2059,0.70075,0.93798,-0.12337,0.58618,1.38202,0.22826,0.57789,1.4314,-0.18977,0.79427,1.16793,0.46741,0.72981,1.34832,-0.04455,0.9267,1.32569,0.31957,0.89756,1.46895
770,0.0472,0.60334,1.46733,0.06843,0.61588,0.079,0.19145,1.23958,0.86705,0.01291,0.78035,0.45048,0.1746,1.01288,1.20158,0.03935,0.68226,0.84303,0.20712,0.70831,0.938,-0.12357,0.58997,1.38173,0.2287,0.583,1.43096,-0.19338,0.79844,1.16911,0.4719,0.73112,1.3529,-0.04607,0.93064,1.32511,0.32485,0.90287,1.46878
771,0.04712,0.60615,1.4665,0.0688,0.61735,0.07953,0.18499,1.2786,0.90114,0.01519,0.78547,0.44966,0.17209,1.01506,1.20768,0.04033,0.69076,0.84312,0.2083,0.71645,0.93785,-0.12357,0.59316,1.3815,0.22886,0.58758,1.43024,-0.1972,0.80226,1.17079,0.47629,0.73141,1.35763,-0.04784,0.93417,1.32509,0.3305,0.90759,1.46833
772,0.04722,0.60871,1.46585,0.06978,0.61888,0.07997,0.17901,1.31788,0.93641,0.01779,0.78995,0.44897,0.16981,1.02099,1.21091,0.04137,0.69896,0.84341,0.20926,0.72563,0.93799,-0.12339,0.59596,1.38131,0.22879,0.5912,1.42941,-0.20144,0.80541,1.17255,0.48037,0.73029,1.36202,-0.05002,0.93665,1.32541,0.33648,0.91116,1.46751
773,0.04751,0.61079,1.46532,0.07113,0.62047,0.0802,0.17286,1.35737,0.97187,0.02081,0.79352,0.44852,0.16742,1.03142,1.21126,0.04244,0.7072,0.84412,0.21001,0.73629,0.93855,-0.12305,0.59864,1.38104,0.22862,0.59381,1.42877,-0.20634,0.80807,1.1743,0.48424,0.72737,1.36557,-0.05239,0.93783,1.32588,0.34289,0.91298,1.46613
774,0.04791,0.61209,1.46483,0.07259,0.62195,0.08029,0.16506,1.3965,1.00521,0.02414,0.79625,0.44827,0.16452,1.04686,1.20852,0.04354,0.71582,0.84522,0.21036,0.74859,0.93978,-0.12283,0.60128,1.38058,0.22844,0.59542,1.42846,-0.2119,0.81072,1.17627,0.4881,0.72233,1.36806,-0.05459,0.93819,1.32634,0.35002,0.91281,1.46394
775,0.04792,0.61258,1.46433,0.07399,0.62304,0.0803,0.15541,1.43345,1.03274,0.02739,0.79834,0.44804,0.16091,1.06662,1.20301,0.04456,0.72485,0.84643,0.20988,0.76207,0.94198,-0.12327,0.60384,1.3801,0.22808,0.59604,1.42847,-0.21793,0.81362,1.17868,0.49186,0.71485,1.36943,-0.05663,0.9383,1.32684,0.35814,0.91065,1.46069
776,0.04691,0.61245,1.4639,0.07518,0.62359,0.08025,0.14586,1.46555,1.05093,0.03011,0.79988,0.44771,0.1568,1.08815,1.19596,0.04519,0.73389,0.8475,0.2083,0.77573,0.94491,-0.12462,0.60616,1.37989,0.22711,0.59588,1.42875,-0.22411,0.8166,1.1815,0.49516,0.70467,1.36966,-0.05882,0.93829,1.32773,0.36729,0.90642,1.4562
777,0.04478,0.61178,1.46365,0.07596,0.62369,0.08008,0.13916,1.49087,1.05882,0.03216,0.80092,0.44724,0.15273,1.10816,1.18895,0.04518,0.74247,0.84827,0.20595,0.78836,0.94774,-0.12666,0.60803,1.3799,0.22526,0.59536,1.42914,-0.23008,0.8194,1.18453,0.49772,0.69179,1.36878,-0.06136,0.93783,1.32952,0.37728,0.90006,1.45042
778,0.04207,0.61047,1.46365,0.07621,0.62344,0.07973,0.13661,1.50926,1.05836,0.03355,0.80149,0.44663,0.14901,1.12465,1.18288,0.04476,0.75032,0.84871,0.20368,0.79916,0.94973,-0.12919,0.60927,1.37979,0.22281,0.59475,1.42949,-0.23559,0.82202,1.18755,0.49946,0.67674,1.36691,-0.06409,0.93653,1.33242,0.38764,0.8916,1.44359
779,0.03935,0.60846,1.46381,0.07597,0.6229,0.07917,0.1375,1.52226,1.05291,0.03429,0.80159,0.44587,0.14566,1.13759,1.17762,0.04446,0.75737,0.8488,0.20222,0.80803,0.95074,-0.1321,0.60989,1.37936,0.22032,0.59392,1.42973,-0.24056,0.82458,1.19045,0.50043,0.66023,1.36403,-0.06669,0.93433,1.33619,0.39794,0.8812,1.43625
780,0.03699,0.60594,1.46403,0.07557,0.62214,0.07844,0.14012,1.53206,1.04557,0.03434,0.80106,0.44508,0.14258,1.14801,1.17239,0.04461,0.7634,0.84867,0.20181,0.81529,0.95086,-0.13489,0.61003,1.37867,0.21821,0.59255,1.42985,-0.2449,0.82715,1.19347,0.50067,0.64287,1.36013,-0.06876,0.93163,1.34033,0.40788,0.86914,1.42896
781,0.03532,0.60339,1.46426,0.07546,0.62142,0.07764,0.14319,1.54042,1.03859,0.03378,0.79971,0.44454,0.13989,1.15674,1.16648,0.04511,0.76787,0.8486,0.20224,0.82117,0.95017,-0.13667,0.60979,1.37779,0.21669,0.59042,1.42968,-0.24838,0.82983,1.19712,0.50031,0.6252,1.35536,-0.0697,0.92921,1.34446,0.41728,0.85591,1.42185
782,0.03445,0.60127,1.46442,0.07591,0.62098,0.0769,0.14632,1.54813,1.03339,0.03294,0.79758,0.44446,0.1379,1.16398,1.15964,0.04578,0.77014,0.8488,0.2031,0.82531,0.94907,-0.13705,0.60933,1.37677,0.21588,0.58746,1.42908,-0.25087,0.83276,1.20164,0.49968,0.60755,1.35011,-0.06915,0.92763,1.34824,0.42617,0.84209,1.41442
783,0.03419,0.59976,1.46449,0.07681,0.62074,0.07627,0.14901,1.55525,1.03053,0.03234,0.79503,0.44475,0.13683,1.16964,1.15196,0.04665,0.76994,0.84919,0.20391,0.82703,0.94848,-0.13655,0.60893,1.37577,0.21572,0.58366,1.42827,-0.25264,0.83576,1.20662,0.49883,0.58984,1.34466,-0.06746,0.92689,1.35125,0.43489,0.82793,1.40606
784,0.03419,0.59863,1.46462,0.07781,0.62043,0.07574,0.14962,1.56175,1.02964,0.0325,0.79245,0.44519,0.13665,1.17387,1.14349,0.04762,0.76757,0.84962,0.20427,0.8262,0.94896,-0.13597,0.60868,1.37516,0.2159,0.57903,1.42759,-0.25415,0.8383,1.2113,0.49746,0.57198,1.33895,-0.06553,0.92645,1.35331,0.44336,0.81339,1.39675
785,0.03431,0.59749,1.46514,0.07868,0.61999,0.07523,0.14668,1.56755,1.02987,0.03352,0.78973,0.44575,0.13697,1.17685,1.134,0.04813,0.76356,0.85012,0.20404,0.82347,0.94986,-0.1357,0.60834,1.3752,0.21621,0.57384,1.42712,-0.25574,0.83985,1.21541,0.49536,0.55442,1.33292,-0.06408,0.92568,1.35473,0.45071,0.79854,1.3873
786,0.03455,0.59617,1.46637,0.07933,0.6195,0.07471,0.14102,1.57218,1.03065,0.03508,0.78657,0.44655,0.1374,1.17852,1.12337,0.04761,0.75821,0.85084,0.20333,0.81948,0.95006,-0.13577,0.60774,1.37605,0.2166,0.56849,1.42687,-0.25753,0.8403,1.21911,0.49267,0.53787,1.32673,-0.06332,0.92421,1.35605,0.4563,0.78387,1.37878
787,0.0348,0.59471,1.46838,0.07974,0.61896,0.07426,0.13564,1.57496,1.03158,0.03675,0.78287,0.44765,0.13825,1.17858,1.11196,0.0461,0.75168,0.85182,0.20239,0.8143,0.94927,-0.13607,0.60693,1.37776,0.21692,0.56318,1.42695,-0.25936,0.83981,1.22249,0.48937,0.52246,1.32072,-0.06301,0.92205,1.35739,0.4607,0.76974,1.37144
788,0.03497,0.5931,1.47097,0.07991,0.61829,0.07402,0.13295,1.57554,1.03182,0.03832,0.77879,0.44904,0.14028,1.17705,1.10063,0.04409,0.74433,0.85301,0.20148,0.80791,0.94807,-0.13649,0.60607,1.38029,0.2169,0.55776,1.42747,-0.2609,0.83854,1.22531,0.48536,0.50793,1.31513,-0.06279,0.91956,1.35835,0.46491,0.75624,1.36479
789,0.03514,0.5913,1.4738,0.07999,0.61757,0.07398,0.13284,1.57411,1.03029,0.03969,0.77442,0.45068,0.14361,1.17426,1.09022,0.04221,0.73679,0.85441,0.20086,0.80074,0.94707,-0.13688,0.60527,1.38335,0.21653,0.55202,1.42837,-0.26178,0.83668,1.22718,0.48089,0.49442,1.31015,-0.06238,0.91725,1.35855,0.46914,0.74354,1.35859
790,0.03552,0.58932,1.47666,0.08014,0.61696,0.07402,0.13397,1.57105,1.0263,0.04071,0.76964,0.45252,0.14738,1.17057,1.0813,0.04076,0.7295,0.85601,0.20065,0.79334,0.94659,-0.13707,0.60462,1.38655,0.21604,0.54592,1.42969,-0.26186,0.83451,1.22807,0.47654,0.48249,1.30601,-0.06164,0.91543,1.358,0.47272,0.7321,1.35318
791,0.03614,0.58712,1.47953,0.0803,0.61654,0.07406,0.13577,1.56651,1.01964,0.04121,0.76429,0.45455,0.15071,1.16603,1.07414,0.03965,0.72239,0.85786,0.20075,0.78591,0.9465,-0.13682,0.60398,1.38977,0.21565,0.53964,1.43146,-0.26127,0.83205,1.22841,0.47276,0.47235,1.30284,-0.06061,0.91403,1.35697,0.47504,0.72218,1.3489
792,0.03688,0.58461,1.48248,0.0802,0.61619,0.07418,0.1386,1.56037,1.01002,0.04113,0.75847,0.45675,0.15356,1.16049,1.06884,0.03864,0.71519,0.85991,0.20098,0.77828,0.94655,-0.13604,0.60295,1.39308,0.21541,0.53353,1.43357,-0.26029,0.82891,1.22864,0.46961,0.46365,1.30063,-0.05947,0.91283,1.3557,0.47615,0.71358,1.34578
793,0.03762,0.58181,1.48544,0.07967,0.61566,0.07445,0.14283,1.55231,0.99678,0.04045,0.75253,0.45898,0.15645,1.15393,1.06527,0.03774,0.70773,0.86197,0.20123,0.77017,0.94691,-0.13512,0.60102,1.39648,0.21519,0.52802,1.43586,-0.2591,0.82475,1.22879,0.46695,0.45612,1.29938,-0.05849,0.91168,1.35416,0.47654,0.70611,1.34365
794,0.03833,0.5789,1.48834,0.07881,0.61487,0.0748,0.14809,1.54195,0.9794,0.03922,0.74684,0.461,0.15974,1.14647,1.06331,0.03711,0.70012,0.86377,0.20138,0.76141,0.94806,-0.13461,0.59814,1.39987,0.21471,0.52326,1.43825,-0.25783,0.81973,1.22882,0.4646,0.4498,1.2992,-0.05783,0.91068,1.35229,0.47663,0.69989,1.34227
795,0.03895,0.57609,1.49125,0.07792,0.61396,0.07506,0.15367,1.52863,0.95775,0.03768,0.7414,0.46271,0.16327,1.13816,1.06276,0.03652,0.69249,0.86523,0.20128,0.75205,0.94979,-0.13446,0.59473,1.4033,0.21394,0.51905,1.44088,-0.25671,0.8143,1.22898,0.46263,0.44465,1.30018,-0.05745,0.90992,1.3501,0.47653,0.69495,1.34145
796,0.03944,0.57335,1.49443,0.07724,0.61314,0.07519,0.15918,1.51162,0.93215,0.03613,0.73596,0.46424,0.16674,1.12905,1.06317,0.03543,0.68489,0.86649,0.20096,0.74235,0.95101,-0.13397,0.59131,1.40682,0.21344,0.5152,1.44378,-0.25593,0.80864,1.22952,0.46153,0.44045,1.30222,-0.05737,0.90934,1.34762,0.47618,0.69107,1.34122
797,0.03988,0.57046,1.49792,0.07685,0.61251,0.07533,0.16478,1.49056,0.90322,0.03472,0.7305,0.46577,0.17018,1.11939,1.0638,0.03361,0.67738,0.86775,0.20064,0.73263,0.95077,-0.13266,0.58813,1.41033,0.21383,0.51162,1.44677,-0.25552,0.8026,1.23019,0.46184,0.43709,1.30495,-0.05765,0.90858,1.34478,0.4756,0.68806,1.34195
798,0.04046,0.56729,1.5015,0.07669,0.61206,0.07564,0.1708,1.46565,0.87193,0.03345,0.72528,0.46736,0.17384,1.10968,1.06391,0.03154,0.67013,0.86907,0.20064,0.7231,0.94936,-0.13082,0.58526,1.41356,0.21516,0.50815,1.44957,-0.25538,0.7962,1.23045,0.4636,0.43459,1.308,-0.0583,0.90715,1.34164,0.47493,0.68584,1.34393
799,0.04132,0.56393,1.50485,0.07656,0.6118,0.07602,0.17734,1.43739,0.83948,0.03219,0.72035,0.46893,0.17789,1.10035,1.06306,0.02982,0.66327,0.87037,0.20098,0.71372,0.94786,-0.12907,0.58274,1.41635,0.21683,0.50461,1.45213,-0.25545,0.7898,1.23009,0.46617,0.43287,1.3112,-0.05916,0.9049,1.33843,0.47438,0.68424,1.3471
800,0.04234,0.56065,1.5078,0.07637,0.61169,0.07629,0.18418,1.40633,0.80689,0.03083,0.71536,0.47038,0.18224,1.09161,1.06091,0.02855,0.65658,0.87157,0.20139,0.70438,0.94699,-0.1278,0.58047,1.4186,0.21825,0.50117,1.4546,-0.25569,0.78395,1.22944,0.46875,0.43164,1.31461,-0.06,0.90227,1.33535,0.47422,0.683,1.35116
801,0.04326,0.55755,1.51041,0.07619,0.61152,0.07641,0.19108,1.37282,0.77471,0.02943,0.71008,0.47168,0.18689,1.08344,1.05725,0.02735,0.64972,0.87264,0.20146,0.69506,0.94662,-0.12707,0.5781,1.42036,0.21918,0.49818,1.45707,-0.25601,0.77883,1.22899,0.47092,0.43078,1.31828,-0.06069,0.90002,1.33231,0.47457,0.68202,1.35584
802,0.04405,0.55444,1.51294,0.07594,0.61106,0.07656,0.1977,1.33705,0.74328,0.02819,0.70476,0.47288,0.19184,1.07573,1.05192,0.02591,0.64266,0.87357,0.2011,0.68579,0.94631,-0.12669,0.57528,1.42193,0.21974,0.49574,1.45946,-0.25624,0.77393,1.2288,0.47287,0.43041,1.32222,-0.06136,0.89833,1.32912,0.47509,0.6815,1.36092
803,0.04497,0.55105,1.51556,0.07543,0.6104,0.07682,0.20356,1.29917,0.71277,0.02738,0.69977,0.47411,0.197,1.06826,1.04477,0.02427,0.63565,0.87448,0.20059,0.67649,0.94581,-0.12629,0.57205,1.42367,0.2202,0.49345,1.4616,-0.25638,0.76839,1.22856,0.47503,0.43076,1.32631,-0.0623,0.89646,1.32574,0.47531,0.68166,1.3662
804,0.04617,0.54728,1.51817,0.07471,0.60982,0.07722,0.20837,1.25933,0.68336,0.02718,0.69519,0.47545,0.20219,1.06073,1.03564,0.02268,0.62879,0.87543,0.20029,0.66694,0.94501,-0.12555,0.56883,1.42564,0.22074,0.49067,1.46346,-0.2568,0.76173,1.22789,0.47761,0.43177,1.33032,-0.06376,0.89339,1.3223,0.47508,0.68246,1.37144
805,0.04757,0.54338,1.52048,0.07404,0.60939,0.07769,0.21237,1.21771,0.65525,0.0274,0.6909,0.47684,0.20731,1.05291,1.02458,0.0212,0.62192,0.87636,0.20029,0.65706,0.94373,-0.12434,0.56595,1.42757,0.22132,0.48708,1.46512,-0.2578,0.75418,1.22683,0.48038,0.43317,1.33413,-0.06573,0.88887,1.31895,0.47458,0.68361,1.37649
806,0.04904,0.5397,1.52234,0.07361,0.60895,0.0782,0.21617,1.17443,0.62873,0.02764,0.68682,0.47815,0.21239,1.04495,1.01188,0.01968,0.61507,0.87715,0.20033,0.64717,0.94179,-0.12289,0.5632,1.42925,0.2217,0.48311,1.46671,-0.25917,0.74636,1.22573,0.48292,0.43479,1.33783,-0.06792,0.8836,1.31577,0.47382,0.68489,1.38151
807,0.05051,0.53639,1.52387,0.07339,0.60852,0.07862,0.22018,1.12953,0.604,0.02764,0.68291,0.47925,0.21752,1.03732,0.99779,0.01794,0.60855,0.87774,0.20018,0.63789,0.93918,-0.1216,0.56028,1.4307,0.22167,0.47951,1.46819,-0.26046,0.73878,1.22479,0.48494,0.43659,1.3416,-0.07005,0.87843,1.31286,0.47259,0.68629,1.38679
808,0.05195,0.53327,1.52527,0.07325,0.60833,0.07884,0.22434,1.08312,0.58117,0.0275,0.67917,0.48012,0.22284,1.03019,0.98214,0.01603,0.60253,0.87812,0.19977,0.62939,0.93612,-0.12075,0.55721,1.43199,0.2214,0.47677,1.46948,-0.26158,0.73151,1.22383,0.48662,0.43855,1.34548,-0.07212,0.87348,1.31021,0.47082,0.68773,1.39244
809,0.0533,0.53,1.52671,0.0731,0.60854,0.07884,0.22817,1.03577,0.56028,0.02752,0.67558,0.48079,0.22855,1.02301,0.96453,0.01414,0.59689,0.87834,0.19923,0.62122,0.93308,-0.1203,0.55413,1.43309,0.22135,0.47473,1.47058,-0.26275,0.72433,1.22266,0.4884,0.44059,1.34936,-0.07423,0.86839,1.30767,0.46886,0.68913,1.39827
810,0.05451,0.52647,1.52819,0.07298,0.60893,0.07868,0.23093,0.98848,0.54134,0.02793,0.67195,0.48133,0.23489,1.01505,0.9449,0.01247,0.59139,0.87843,0.19871,0.61285,0.93042,-0.12001,0.55117,1.43408,0.22176,0.47276,1.47154,-0.26395,0.71721,1.22135,0.49052,0.44278,1.35302,-0.07631,0.86309,1.30518,0.46718,0.69059,1.40393
811,0.05548,0.52289,1.52958,0.07303,0.60917,0.0784,0.23209,0.94204,0.52426,0.02866,0.66811,0.48175,0.24189,1.00602,0.9235,0.01106,0.586,0.87844,0.19825,0.60432,0.92811,-0.11971,0.54837,1.4351,0.22248,0.47028,1.47236,-0.26486,0.71045,1.22014,0.4928,0.4453,1.35624,-0.07802,0.85794,1.30291,0.46573,0.69229,1.40923
812,0.05618,0.51955,1.53073,0.07333,0.60906,0.07806,0.23196,0.89667,0.50886,0.02941,0.66409,0.48201,0.24916,0.99601,0.90054,0.00981,0.58078,0.87836,0.19788,0.59598,0.92575,-0.11933,0.54569,1.43617,0.22319,0.46705,1.47302,-0.26532,0.7041,1.21906,0.49484,0.44817,1.3589,-0.07924,0.85306,1.3009,0.46399,0.69421,1.41421
813,0.05673,0.51659,1.53163,0.07382,0.60866,0.07775,0.23164,0.85222,0.49494,0.0299,0.6602,0.48216,0.25615,0.98502,0.87618,0.00864,0.57575,0.87818,0.19756,0.58795,0.92298,-0.11886,0.5429,1.43712,0.22373,0.46335,1.47365,-0.26553,0.69754,1.21775,0.49634,0.45111,1.3609,-0.08041,0.84807,1.29891,0.4616,0.696,1.41894
814,0.0574,0.51392,1.53244,0.07431,0.60813,0.07758,0.23195,0.80848,0.48241,0.0301,0.65679,0.48232,0.26292,0.97273,0.85071,0.0074,0.57095,0.87796,0.19716,0.58007,0.91983,-0.11842,0.53996,1.4378,0.22417,0.45981,1.47438,-0.26568,0.6903,1.21586,0.49722,0.45375,1.36221,-0.08201,0.84273,1.29676,0.45876,0.69733,1.42334
815,0.05837,0.51141,1.53327,0.07458,0.60772,0.07759,0.23259,0.76551,0.47124,0.03025,0.65391,0.4826,0.27006,0.95862,0.82463,0.00596,0.56644,0.87778,0.19648,0.5721,0.91671,-0.11818,0.53712,1.43814,0.2246,0.45693,1.47511,-0.26588,0.68286,1.21345,0.49771,0.45599,1.36294,-0.08406,0.83743,1.29449,0.45583,0.69815,1.42732
816,0.05952,0.50895,1.53407,0.07454,0.60755,0.07769,0.23265,0.72372,0.46127,0.03053,0.65139,0.483,0.27767,0.94244,0.7985,0.00442,0.56226,0.8777,0.19552,0.56405,0.91409,-0.11822,0.53462,1.43825,0.22496,0.45455,1.47555,-0.26611,0.67608,1.21096,0.49808,0.458,1.36343,-0.08606,0.83254,1.29229,0.45293,0.69875,1.43085
817,0.06061,0.50649,1.53462,0.07423,0.60753,0.07787,0.23176,0.68351,0.45209,0.03086,0.64914,0.48348,0.2848,0.92445,0.77259,0.00309,0.55838,0.8777,0.19455,0.5561,0.91209,-0.11843,0.53239,1.43844,0.2251,0.45205,1.4756,-0.26631,0.67007,1.20884,0.49832,0.46007,1.36394,-0.08753,0.82799,1.29017,0.44985,0.69942,1.43401
818,0.06149,0.50401,1.53481,0.07383,0.60736,0.07816,0.23014,0.64483,0.44306,0.03098,0.64718,0.48401,0.29054,0.90502,0.74676,0.00214,0.55468,0.87774,0.1938,0.5485,0.91055,-0.1185,0.53018,1.43903,0.22493,0.44913,1.47544,-0.26633,0.66416,1.20722,0.49819,0.46243,1.36441,-0.08847,0.8234,1.28795,0.44634,0.70034,1.43689
819,0.06206,0.50147,1.53472,0.07349,0.60689,0.07859,0.22791,0.60737,0.4335,0.03077,0.64553,0.48457,0.29496,0.88404,0.7208,0.00147,0.551,0.87778,0.19322,0.54131,0.90913,-0.11821,0.52779,1.44007,0.22457,0.44615,1.47532,-0.2661,0.6575,1.20588,0.49761,0.46516,1.36458,-0.08927,0.81842,1.28558,0.44234,0.70152,1.43957
820,0.06232,0.49879,1.53453,0.07323,0.60636,0.0791,0.22494,0.571,0.42288,0.03033,0.64403,0.48515,0.29848,0.86131,0.69471,0.0008,0.54725,0.8778,0.19264,0.53448,0.90747,-0.11771,0.52504,1.4413,0.22435,0.44367,1.47531,-0.26561,0.64967,1.20437,0.49684,0.46816,1.36428,-0.09036,0.81272,1.28324,0.43814,0.7028,1.44203
821,0.06242,0.49592,1.53436,0.07299,0.60612,0.07956,0.22141,0.53578,0.41107,0.02991,0.64255,0.4857,0.30109,0.83707,0.66887,3e-05,0.54353,0.87776,0.19198,0.52812,0.90537,-0.1174,0.52179,1.44232,0.22457,0.44171,1.4752,-0.26496,0.64079,1.20231,0.49631,0.47125,1.36358,-0.09187,0.80616,1.2811,0.43402,0.70393,1.44435
822,0.06251,0.4929,1.53432,0.07271,0.60632,0.07987,0.21795,0.50171,0.39836,0.0296,0.64113,0.48615,0.30248,0.81183,0.64386,-0.00079,0.53989,0.87761,0.1913,0.52234,0.90293,-0.11748,0.5181,1.44288,0.2252,0.43979,1.47481,-0.26424,0.63146,1.19966,0.49617,0.47425,1.36273,-0.09355,0.79899,1.27912,0.4299,0.7047,1.44669
823,0.06267,0.4898,1.53441,0.07237,0.60682,0.07996,0.21505,0.46859,0.38517,0.02932,0.63981,0.4864,0.30278,0.78571,0.62038,-0.00142,0.53631,0.87724,0.19074,0.51693,0.90055,-0.11772,0.51438,1.44305,0.22602,0.43765,1.47427,-0.26335,0.62256,1.19682,0.49618,0.4771,1.36188,-0.09485,0.79183,1.27727,0.42539,0.70495,1.44918
824,0.06308,0.4867,1.5345,0.07199,0.60723,0.07982,0.21252,0.43619,0.37158,0.02907,0.63855,0.48641,0.30252,0.75829,0.59903,-0.00158,0.53288,0.87668,0.19052,0.51144,0.89871,-0.11765,0.51097,1.44305,0.22683,0.43534,1.47387,-0.26216,0.61465,1.19423,0.49599,0.4798,1.36093,-0.09538,0.78514,1.27566,0.42021,0.70468,1.45167
825,0.06404,0.48358,1.53442,0.07168,0.60732,0.07946,0.20963,0.40452,0.35739,0.02907,0.63725,0.48619,0.30204,0.72931,0.57999,-0.00107,0.52982,0.87601,0.19074,0.50551,0.8975,-0.11705,0.50782,1.44296,0.22757,0.43291,1.47372,-0.26074,0.60747,1.19204,0.4954,0.48244,1.35974,-0.09516,0.77873,1.2743,0.41446,0.70413,1.4538
826,0.06562,0.48034,1.53415,0.07161,0.60713,0.07897,0.2058,0.37395,0.34247,0.02959,0.63581,0.48585,0.30126,0.69919,0.56313,-0.0,0.52717,0.87538,0.19133,0.49909,0.89655,-0.11612,0.50453,1.44285,0.22816,0.43029,1.47364,-0.25927,0.60034,1.19012,0.49439,0.48516,1.35838,-0.09459,0.77211,1.27314,0.40842,0.70367,1.45536
827,0.06742,0.47694,1.53382,0.07184,0.60696,0.07853,0.20112,0.34497,0.32667,0.03063,0.63417,0.48558,0.29981,0.66864,0.5482,0.0013,0.52475,0.87491,0.19202,0.49237,0.89548,-0.11525,0.50091,1.44276,0.22864,0.42749,1.4733,-0.2577,0.59289,1.18822,0.49318,0.4881,1.35702,-0.09392,0.76505,1.27219,0.40235,0.70347,1.45658
828,0.06889,0.47367,1.53351,0.07225,0.60695,0.07828,0.19599,0.31781,0.30975,0.03197,0.63243,0.48555,0.29733,0.63814,0.53492,0.00245,0.52248,0.87471,0.19249,0.48572,0.89418,-0.11463,0.4971,1.44264,0.22917,0.42468,1.4725,-0.25583,0.58532,1.18608,0.49205,0.49125,1.35573,-0.09316,0.7578,1.27155,0.39639,0.70332,1.45781
829,0.06979,0.47076,1.53326,0.07261,0.60703,0.07825,0.19081,0.29229,0.29173,0.03344,0.63083,0.48572,0.29364,0.60774,0.52303,0.00327,0.52051,0.87473,0.19258,0.47944,0.89264,-0.11401,0.49336,1.44223,0.22991,0.42211,1.47133,-0.25347,0.57792,1.18349,0.49119,0.49442,1.35435,-0.09228,0.75065,1.27121,0.39054,0.70283,1.45914
830,0.0704,0.46815,1.53309,0.07292,0.60708,0.07826,0.18589,0.26796,0.27317,0.03497,0.62942,0.48593,0.28886,0.5774,0.5124,0.00387,0.51894,0.87482,0.19237,0.47357,0.89081,-0.11295,0.48976,1.44146,0.23089,0.41992,1.47006,-0.25052,0.57064,1.18054,0.4906,0.49723,1.35279,-0.0913,0.74369,1.27118,0.38474,0.70163,1.46031
831,0.07122,0.46559,1.53301,0.07325,0.6071,0.07818,0.18132,0.24459,0.25485,0.0365,0.62803,0.48604,0.28315,0.5472,0.50313,0.00443,0.51752,0.87485,0.19204,0.46797,0.88876,-0.11125,0.48625,1.44057,0.23195,0.41797,1.46894,-0.24703,0.56339,1.17759,0.49015,0.49942,1.35114,-0.0902,0.73688,1.2715,0.37903,0.69967,1.46112
832,0.07251,0.46294,1.53288,0.07357,0.60714,0.07803,0.17698,0.22247,0.2372,0.03804,0.6267,0.48606,0.27668,0.51744,0.49534,0.00503,0.51583,0.87469,0.19173,0.46243,0.88655,-0.10923,0.48284,1.43996,0.23292,0.41581,1.46804,-0.24312,0.55631,1.17497,0.48956,0.50102,1.3495,-0.08888,0.7304,1.27202,0.37351,0.69719,1.46174
833,0.07416,0.46016,1.53255,0.07374,0.60723,0.07784,0.17275,0.20223,0.2204,0.03968,0.62577,0.48604,0.26966,0.48857,0.4891,0.00571,0.51371,0.87424,0.19146,0.45677,0.88427,-0.10736,0.47956,1.4398,0.23376,0.41302,1.46722,-0.23889,0.54954,1.1727,0.48863,0.50228,1.34786,-0.08732,0.72448,1.27239,0.36831,0.69449,1.46241
834,0.07586,0.4572,1.532,0.07371,0.60734,0.07757,0.16869,0.18429,0.20459,0.04147,0.6253,0.48595,0.26219,0.46101,0.48436,0.00647,0.51133,0.8735,0.19118,0.45089,0.88203,-0.1059,0.47632,1.43994,0.23458,0.40946,1.46633,-0.23432,0.543,1.17048,0.48738,0.50336,1.34612,-0.0855,0.71905,1.27234,0.36339,0.6917,1.46317
835,0.07743,0.45401,1.53131,0.07364,0.60746,0.07723,0.16496,0.16858,0.18999,0.04316,0.62485,0.48576,0.25417,0.43487,0.48104,0.00735,0.50877,0.87262,0.19093,0.44482,0.88003,-0.10479,0.47303,1.44,0.23557,0.40534,1.46528,-0.22942,0.53638,1.16798,0.48607,0.50414,1.34418,-0.08336,0.71359,1.27181,0.35866,0.68862,1.46368
836,0.07893,0.45062,1.53061,0.0737,0.60765,0.07687,0.16148,0.15456,0.17679,0.04447,0.62397,0.48554,0.24536,0.40989,0.47903,0.0084,0.50587,0.87176,0.19078,0.4385,0.8784,-0.10373,0.46965,1.43967,0.23683,0.40103,1.46413,-0.22445,0.52944,1.16509,0.48499,0.50435,1.34199,-0.08082,0.70752,1.27081,0.35405,0.68499,1.4635
837,0.08054,0.44699,1.52996,0.07394,0.60781,0.07664,0.15796,0.14181,0.16521,0.04541,0.62273,0.48541,0.23571,0.38595,0.47815,0.00963,0.50247,0.87099,0.19076,0.43176,0.87711,-0.10245,0.46622,1.43889,0.2383,0.39676,1.46295,-0.21969,0.52217,1.16201,0.48426,0.50382,1.33957,-0.07793,0.70069,1.26945,0.34954,0.6807,1.46249
838,0.08239,0.44311,1.52931,0.07435,0.60785,0.0766,0.15419,0.13015,0.1554,0.04638,0.62155,0.48546,0.22556,0.36337,0.47805,0.01096,0.49858,0.87021,0.19075,0.4245,0.87596,-0.10084,0.46272,1.43785,0.23987,0.39248,1.46183,-0.21519,0.51477,1.159,0.48371,0.50267,1.33702,-0.07467,0.69342,1.26787,0.34524,0.67588,1.46099
839,0.08446,0.43914,1.52865,0.07488,0.60771,0.07673,0.15034,0.11942,0.14738,0.04776,0.62063,0.48567,0.2155,0.34252,0.47838,0.0123,0.49427,0.86933,0.19068,0.41683,0.8748,-0.09904,0.45923,1.43682,0.24141,0.38812,1.46095,-0.21061,0.50744,1.15616,0.48309,0.501,1.33436,-0.07111,0.68612,1.26628,0.3414,0.67078,1.45944
840,0.08663,0.43531,1.52798,0.07546,0.60745,0.07692,0.14671,0.10936,0.14095,0.04962,0.61987,0.48596,0.20602,0.32341,0.47896,0.01364,0.48969,0.86829,0.19057,0.40899,0.87358,-0.09717,0.4559,1.43586,0.24281,0.38376,1.4603,-0.20568,0.50018,1.15337,0.48228,0.49877,1.33145,-0.06741,0.67894,1.2649,0.33827,0.66551,1.45795
841,0.08873,0.43176,1.52728,0.07594,0.60716,0.07703,0.14325,0.09993,0.13581,0.05174,0.61906,0.48618,0.19736,0.30596,0.47962,0.01501,0.48495,0.86707,0.19051,0.40118,0.87227,-0.09519,0.45283,1.4348,0.24408,0.37941,1.45961,-0.20049,0.49309,1.15049,0.48135,0.496,1.32812,-0.06369,0.67188,1.26378,0.3358,0.66006,1.45637
842,0.09071,0.42846,1.52644,0.07628,0.60698,0.07697,0.13961,0.09146,0.13151,0.05388,0.61809,0.48625,0.18971,0.2903,0.48013,0.01645,0.48012,0.86569,0.19058,0.39353,0.87081,-0.09304,0.44998,1.43348,0.24538,0.37486,1.45872,-0.19525,0.48645,1.14753,0.48036,0.49281,1.32436,-0.05979,0.66506,1.2627,0.33367,0.65432,1.45453
843,0.09263,0.4253,1.52533,0.07661,0.60695,0.07681,0.13541,0.0845,0.12747,0.05604,0.61691,0.48622,0.18304,0.27666,0.48016,0.01793,0.47518,0.8642,0.19081,0.38611,0.86907,-0.09073,0.44718,1.43195,0.2469,0.36986,1.45777,-0.18995,0.48033,1.14455,0.47937,0.48924,1.32035,-0.0556,0.65872,1.26135,0.33161,0.64817,1.45247
844,0.09466,0.42207,1.52391,0.07712,0.607,0.07663,0.13057,0.0794,0.12321,0.05833,0.61555,0.48615,0.17704,0.26487,0.47962,0.0194,0.47011,0.86264,0.19118,0.37891,0.86702,-0.08839,0.44435,1.43038,0.24872,0.36436,1.45695,-0.18434,0.4744,1.14153,0.4785,0.48526,1.31636,-0.05124,0.65295,1.25951,0.32961,0.64161,1.45028
845,0.09677,0.41862,1.52225,0.07781,0.60702,0.07647,0.12548,0.07607,0.11853,0.06068,0.61394,0.4861,0.17153,0.25441,0.4786,0.02077,0.46489,0.86107,0.19156,0.3718,0.86475,-0.08615,0.4417,1.4288,0.25071,0.35858,1.45616,-0.17839,0.46826,1.13841,0.47781,0.48084,1.31243,-0.04694,0.64749,1.2572,0.32779,0.63474,1.44791
846,0.09892,0.4149,1.52046,0.07851,0.60695,0.07636,0.12086,0.07398,0.11364,0.06285,0.61193,0.48607,0.16674,0.24486,0.47734,0.02189,0.45946,0.85956,0.19169,0.36457,0.86248,-0.08394,0.43939,1.42704,0.2526,0.35274,1.45523,-0.1724,0.4618,1.13513,0.4771,0.47595,1.30829,-0.04273,0.64184,1.25465,0.32619,0.62768,1.44521
847,0.10118,0.41093,1.51875,0.07906,0.60674,0.07634,0.11717,0.07244,0.10896,0.06468,0.60936,0.48612,0.16301,0.23613,0.47595,0.02259,0.45381,0.8582,0.19143,0.35719,0.86043,-0.08164,0.43708,1.42497,0.25412,0.34685,1.4542,-0.16671,0.45519,1.13175,0.476,0.47047,1.30365,-0.03837,0.63563,1.2521,0.32477,0.62052,1.44207
848,0.10366,0.40669,1.51732,0.07947,0.60642,0.07636,0.11439,0.07091,0.10475,0.06618,0.60627,0.48618,0.16028,0.22829,0.47449,0.02299,0.44803,0.857,0.19092,0.34984,0.85865,-0.07922,0.43424,1.42269,0.25517,0.34071,1.45313,-0.16144,0.44872,1.12846,0.47428,0.4643,1.29855,-0.03361,0.62907,1.2495,0.32345,0.61323,1.43861
849,0.10625,0.40224,1.51621,0.07971,0.60612,0.07629,0.11229,0.06927,0.10101,0.06733,0.60298,0.48614,0.15819,0.22134,0.47296,0.02337,0.44237,0.85585,0.19042,0.34268,0.85705,-0.07675,0.43098,1.42047,0.25586,0.33413,1.45195,-0.15643,0.44269,1.12542,0.47212,0.45754,1.29327,-0.02845,0.62277,1.2467,0.3222,0.60578,1.43503
850,0.10873,0.39778,1.51522,0.07968,0.60599,0.07611,0.11065,0.06762,0.09765,0.06796,0.59981,0.48593,0.15649,0.21526,0.47139,0.02396,0.43702,0.85468,0.19004,0.33572,0.85565,-0.07429,0.42804,1.41846,0.25637,0.32702,1.45054,-0.1515,0.4372,1.12266,0.46994,0.45027,1.28813,-0.02315,0.61718,1.24369,0.32103,0.59817,1.4313
851,0.11102,0.3935,1.5141,0.07933,0.60601,0.07586,0.10948,0.06603,0.09468,0.068,0.59687,0.48564,0.15513,0.2101,0.46984,0.02477,0.43193,0.85352,0.18974,0.32884,0.85453,-0.07185,0.42576,1.41667,0.25677,0.31942,1.44898,-0.14657,0.432,1.12016,0.46789,0.4424,1.28319,-0.01799,0.61218,1.24065,0.31993,0.59052,1.42711
852,0.1132,0.3894,1.51283,0.07879,0.60604,0.0756,0.10888,0.06442,0.09219,0.06762,0.59399,0.48531,0.15426,0.20585,0.46839,0.02569,0.42684,0.85234,0.18956,0.32201,0.85381,-0.06946,0.42367,1.41506,0.25694,0.31152,1.44756,-0.14164,0.42667,1.11786,0.46566,0.43372,1.2782,-0.01299,0.60722,1.23772,0.31902,0.58286,1.42242
853,0.11533,0.38539,1.51155,0.07822,0.60586,0.07534,0.10884,0.06275,0.09015,0.06716,0.59105,0.48496,0.15405,0.20232,0.46706,0.02663,0.42158,0.8511,0.18956,0.31531,0.8534,-0.06717,0.42116,1.41358,0.25678,0.3037,1.44649,-0.13676,0.42102,1.11576,0.46296,0.42417,1.27285,-0.00799,0.60195,1.23491,0.31858,0.57503,1.41756
854,0.11733,0.38149,1.51033,0.07767,0.60548,0.07513,0.10909,0.06109,0.08833,0.0668,0.58815,0.48466,0.1546,0.19915,0.46576,0.02754,0.41631,0.84982,0.18967,0.30884,0.85309,-0.06489,0.41813,1.41227,0.25648,0.29634,1.44569,-0.13213,0.41541,1.11392,0.46002,0.41401,1.26708,-0.00295,0.59662,1.23222,0.31867,0.5668,1.41275
855,0.11913,0.37775,1.50917,0.0772,0.60513,0.07506,0.10931,0.05952,0.08654,0.06646,0.58542,0.48448,0.15573,0.19605,0.46442,0.02836,0.4112,0.84864,0.18972,0.30262,0.85271,-0.06246,0.41493,1.41123,0.25642,0.28956,1.44499,-0.12786,0.41055,1.11249,0.45718,0.40369,1.26102,0.00196,0.59192,1.22981,0.31899,0.55818,1.40792
856,0.12074,0.37403,1.50807,0.07691,0.6049,0.07517,0.10937,0.0581,0.08478,0.066,0.58287,0.48447,0.15709,0.19302,0.46306,0.02905,0.40626,0.84759,0.18966,0.29658,0.8523,-0.05992,0.4119,1.41048,0.25668,0.28314,1.44439,-0.12376,0.40692,1.11142,0.45442,0.39341,1.25487,0.00666,0.5883,1.22806,0.31919,0.54935,1.403
857,0.12233,0.37012,1.50712,0.07676,0.60473,0.07538,0.10935,0.05684,0.0832,0.06533,0.58035,0.48454,0.15829,0.19032,0.46184,0.02971,0.40141,0.84665,0.18963,0.29076,0.85199,-0.0575,0.40911,1.40985,0.25695,0.27675,1.44387,-0.11958,0.40431,1.11041,0.45146,0.383,1.24879,0.0113,0.58531,1.22714,0.31926,0.54043,1.39808
858,0.12407,0.36601,1.50633,0.07642,0.60461,0.07557,0.10928,0.05591,0.08194,0.0645,0.57764,0.48455,0.15912,0.18817,0.46089,0.03044,0.39656,0.84575,0.18987,0.28526,0.85194,-0.05537,0.40652,1.40907,0.25697,0.27025,1.44323,-0.11553,0.40194,1.10923,0.44831,0.37234,1.24287,0.01608,0.58192,1.22673,0.31943,0.53154,1.39318
859,0.12583,0.36195,1.5056,0.07573,0.60459,0.07571,0.10895,0.0555,0.08102,0.06359,0.57456,0.48447,0.1596,0.18655,0.46029,0.0313,0.39173,0.84494,0.19048,0.28012,0.85218,-0.05347,0.40411,1.4081,0.25689,0.26376,1.44242,-0.11213,0.39923,1.10797,0.44527,0.36148,1.23713,0.02102,0.57756,1.22623,0.31994,0.52271,1.38827
860,0.1273,0.35812,1.50478,0.0749,0.60469,0.07586,0.10827,0.05559,0.08038,0.0627,0.57114,0.48435,0.15979,0.18531,0.45999,0.03228,0.38704,0.84434,0.19134,0.27535,0.85265,-0.05157,0.4019,1.40714,0.25693,0.25747,1.44169,-0.1096,0.39624,1.10691,0.44237,0.35045,1.23158,0.02597,0.57261,1.22534,0.32073,0.51387,1.38339
861,0.12831,0.35434,1.50393,0.07427,0.60481,0.0761,0.10751,0.05586,0.07986,0.0619,0.56762,0.48426,0.15981,0.18421,0.45983,0.0333,0.38266,0.84396,0.19227,0.2709,0.85317,-0.04965,0.39976,1.40642,0.2571,0.25138,1.44126,-0.10771,0.39338,1.10621,0.43934,0.33934,1.22625,0.03065,0.56781,1.22431,0.32151,0.50504,1.37859
862,0.12897,0.3503,1.50333,0.07391,0.60488,0.07642,0.10713,0.05604,0.07928,0.06126,0.56426,0.48425,0.15979,0.18303,0.45965,0.03429,0.37855,0.84369,0.19308,0.26661,0.8536,-0.04788,0.39739,1.40602,0.25718,0.24528,1.44101,-0.10607,0.39096,1.10583,0.43589,0.3284,1.22117,0.03476,0.56352,1.22375,0.32203,0.49654,1.37384
863,0.12963,0.34595,1.50317,0.07365,0.60487,0.0769,0.10724,0.056,0.07859,0.06079,0.56116,0.4844,0.15981,0.18171,0.4594,0.03517,0.37455,0.84348,0.19368,0.26225,0.85393,-0.04634,0.39476,1.40592,0.25704,0.23904,1.44074,-0.10444,0.38919,1.1057,0.43223,0.31786,1.21652,0.03817,0.55986,1.22423,0.32234,0.48868,1.36913
864,0.1305,0.34154,1.50327,0.07337,0.60484,0.07762,0.10747,0.05577,0.07789,0.06042,0.55834,0.48481,0.1599,0.18031,0.4591,0.03597,0.37055,0.84335,0.19403,0.25768,0.85424,-0.04481,0.39221,1.40608,0.25676,0.23275,1.44046,-0.10276,0.38819,1.1058,0.42895,0.30759,1.21259,0.0409,0.55693,1.22581,0.32271,0.48129,1.36453
865,0.13156,0.33737,1.50331,0.07308,0.60482,0.07851,0.10743,0.05542,0.07732,0.0601,0.55565,0.48538,0.16004,0.17884,0.45887,0.03673,0.36659,0.84333,0.19421,0.25294,0.85463,-0.0432,0.38994,1.40641,0.25645,0.22655,1.44039,-0.10115,0.38779,1.10611,0.42639,0.29728,1.20953,0.04312,0.55469,1.22795,0.32328,0.47395,1.3602
866,0.13261,0.33351,1.50315,0.07274,0.60479,0.07941,0.10711,0.05489,0.07694,0.05987,0.55292,0.48596,0.16021,0.17721,0.45878,0.03748,0.36269,0.84334,0.1943,0.24817,0.85512,-0.04175,0.38766,1.40696,0.25622,0.22056,1.44061,-0.09987,0.38758,1.10669,0.42415,0.28683,1.20698,0.04505,0.55282,1.23001,0.32401,0.46635,1.35628
867,0.13354,0.32973,1.50298,0.0723,0.60481,0.08033,0.1068,0.05417,0.0767,0.05969,0.55008,0.4865,0.16037,0.17537,0.45883,0.03823,0.35885,0.84341,0.19439,0.24349,0.85568,-0.0407,0.38495,1.40784,0.25613,0.2148,1.44094,-0.09921,0.38717,1.10765,0.42159,0.2766,1.20434,0.04675,0.55085,1.23182,0.32481,0.45869,1.35274
868,0.13442,0.32575,1.50306,0.07176,0.60505,0.08143,0.10677,0.05331,0.07656,0.05943,0.54722,0.48718,0.16054,0.17341,0.45901,0.03902,0.35507,0.84365,0.19456,0.2389,0.8563,-0.03995,0.38183,1.40901,0.25622,0.20921,1.44112,-0.09919,0.38662,1.10899,0.41869,0.26698,1.20144,0.04821,0.54864,1.23364,0.32562,0.45138,1.34937
869,0.13533,0.32155,1.50344,0.07116,0.60557,0.08286,0.10704,0.05246,0.07644,0.05905,0.54453,0.48815,0.16077,0.17146,0.45924,0.03983,0.35138,0.84415,0.19479,0.23446,0.85694,-0.03917,0.37863,1.41014,0.2564,0.20388,1.44111,-0.09957,0.38645,1.11042,0.41601,0.25812,1.1987,0.04947,0.54642,1.23576,0.32652,0.44471,1.34608
870,0.13625,0.31738,1.50403,0.07048,0.60617,0.08458,0.10746,0.05178,0.07633,0.05865,0.54217,0.48942,0.1611,0.16956,0.45951,0.04059,0.34792,0.84489,0.19499,0.23025,0.85758,-0.03809,0.37572,1.41093,0.25651,0.19894,1.44117,-0.10011,0.38724,1.11166,0.41399,0.24987,1.19667,0.05067,0.54456,1.23829,0.32767,0.43866,1.34314
871,0.13706,0.31348,1.50468,0.0697,0.60653,0.08642,0.10781,0.0513,0.07623,0.05832,0.54017,0.4909,0.16152,0.16767,0.45984,0.04121,0.34474,0.84576,0.19509,0.22637,0.85823,-0.03662,0.37329,1.41143,0.25644,0.19444,1.44154,-0.10077,0.38904,1.1128,0.41263,0.24211,1.19555,0.0519,0.54309,1.24116,0.32917,0.43305,1.34087
872,0.13768,0.30995,1.50524,0.06899,0.6065,0.08822,0.108,0.05096,0.07613,0.058,0.53839,0.49242,0.16193,0.16574,0.46019,0.04162,0.34176,0.84665,0.19508,0.22282,0.85885,-0.03487,0.37127,1.41202,0.25631,0.19035,1.44219,-0.10157,0.39143,1.11422,0.41183,0.23488,1.1952,0.05306,0.54198,1.24437,0.33081,0.4278,1.3393
873,0.13819,0.30675,1.50558,0.06853,0.60613,0.08993,0.10808,0.05066,0.07598,0.05764,0.53668,0.4939,0.1622,0.16385,0.46048,0.0418,0.33878,0.84745,0.19495,0.21942,0.85939,-0.03316,0.3694,1.41303,0.25628,0.1865,1.44289,-0.10235,0.39406,1.11614,0.41169,0.22843,1.19537,0.05381,0.54143,1.2481,0.33232,0.42293,1.33825
874,0.13873,0.30371,1.50578,0.06825,0.60555,0.09153,0.10814,0.05037,0.07571,0.05735,0.535,0.49531,0.16225,0.16217,0.46062,0.04181,0.3357,0.84809,0.19468,0.21595,0.8598,-0.03185,0.3674,1.41446,0.25638,0.18253,1.44347,-0.10296,0.39685,1.11845,0.41218,0.22285,1.19592,0.05393,0.54155,1.25247,0.33367,0.41852,1.33768
875,0.13936,0.30058,1.50611,0.06787,0.60484,0.09308,0.10813,0.05025,0.07534,0.05724,0.53333,0.4967,0.16214,0.1608,0.46062,0.04183,0.33262,0.84868,0.19427,0.21231,0.86013,-0.03116,0.36522,1.41603,0.25654,0.17811,1.44393,-0.10347,0.39976,1.12087,0.41306,0.21805,1.19678,0.05357,0.54195,1.25739,0.33506,0.41455,1.33767
876,0.14,0.29723,1.5067,0.06714,0.6039,0.09462,0.1079,0.05039,0.07497,0.05728,0.5317,0.49814,0.16195,0.1597,0.4606,0.04189,0.32974,0.8494,0.19378,0.20869,0.86044,-0.03103,0.3628,1.41748,0.25676,0.17342,1.44438,-0.10396,0.40277,1.12316,0.41401,0.21397,1.1978,0.05312,0.54201,1.26264,0.33662,0.41101,1.33826
877,0.14043,0.29382,1.50737,0.06607,0.60251,0.09617,0.10745,0.05064,0.07476,0.05736,0.53015,0.49968,0.1618,0.15869,0.46071,0.04192,0.32715,0.85034,0.19329,0.20539,0.86085,-0.03116,0.36001,1.41876,0.25715,0.16913,1.44486,-0.10445,0.40591,1.12539,0.41491,0.21071,1.19877,0.0529,0.54154,1.26809,0.33813,0.40788,1.33939
878,0.1406,0.29064,1.50793,0.06495,0.60052,0.09768,0.10699,0.05074,0.07484,0.05737,0.52873,0.50132,0.16171,0.1576,0.46106,0.04182,0.32471,0.85138,0.19285,0.20251,0.86144,-0.03134,0.35698,1.42007,0.25773,0.1658,1.44541,-0.10498,0.40925,1.12786,0.4157,0.20819,1.19959,0.05292,0.54083,1.27369,0.33942,0.40502,1.34096
879,0.14064,0.28775,1.50844,0.06404,0.59808,0.09911,0.10673,0.05059,0.07513,0.05726,0.52739,0.50295,0.16161,0.15635,0.46164,0.04156,0.32234,0.85241,0.1924,0.19988,0.86219,-0.03136,0.3541,1.42163,0.25825,0.16329,1.44596,-0.10561,0.41272,1.13078,0.41637,0.20616,1.20033,0.05296,0.54039,1.27934,0.34053,0.40231,1.34287
880,0.1408,0.28499,1.50916,0.06338,0.59552,0.10045,0.10666,0.0503,0.07545,0.0571,0.52602,0.50451,0.16146,0.15502,0.46225,0.04115,0.32005,0.85341,0.19182,0.19736,0.86297,-0.03108,0.35168,1.4234,0.25845,0.16088,1.44643,-0.10615,0.41624,1.13402,0.41699,0.20441,1.20118,0.05293,0.54057,1.28486,0.34164,0.39991,1.34487
881,0.14122,0.28219,1.51021,0.06283,0.59293,0.10169,0.10664,0.05007,0.07564,0.0569,0.52459,0.50596,0.16129,0.15377,0.46273,0.04065,0.3179,0.85443,0.19111,0.19493,0.86361,-0.03054,0.3496,1.42512,0.25838,0.15801,1.44681,-0.10639,0.41987,1.13729,0.41777,0.20292,1.20236,0.05295,0.54142,1.2901,0.3428,0.39799,1.34684
882,0.14184,0.27931,1.51147,0.06223,0.59017,0.10286,0.10659,0.05005,0.07564,0.05668,0.52309,0.50734,0.16107,0.15271,0.46304,0.04015,0.31595,0.85552,0.19036,0.19263,0.86408,-0.02994,0.34756,1.42661,0.25833,0.1548,1.44732,-0.10645,0.42374,1.14045,0.41883,0.2017,1.20397,0.05318,0.54265,1.29504,0.34392,0.39647,1.34887
883,0.14238,0.27648,1.51271,0.06156,0.58717,0.10394,0.10654,0.05023,0.07552,0.05651,0.52159,0.50867,0.16077,0.15189,0.46321,0.03973,0.31421,0.8567,0.1897,0.19053,0.8644,-0.02936,0.3454,1.42788,0.25845,0.15173,1.44811,-0.10655,0.42785,1.14365,0.42005,0.20068,1.20589,0.05352,0.54392,1.29992,0.34505,0.39516,1.35115
884,0.14258,0.27382,1.51377,0.06097,0.584,0.10497,0.10652,0.05047,0.07537,0.05652,0.52018,0.50999,0.16038,0.15117,0.46337,0.03943,0.31274,0.85797,0.18916,0.18871,0.86468,-0.02873,0.34324,1.42911,0.25872,0.14907,1.44905,-0.10682,0.4318,1.14698,0.42128,0.19987,1.20786,0.05363,0.54489,1.30503,0.34629,0.39394,1.35366
885,0.14248,0.2714,1.51461,0.06058,0.58076,0.10596,0.10649,0.05068,0.07532,0.05669,0.51891,0.51129,0.15993,0.15043,0.46362,0.03921,0.31147,0.85926,0.18872,0.18714,0.86501,-0.028,0.34123,1.4304,0.25913,0.14678,1.44989,-0.10732,0.43511,1.15034,0.42247,0.19935,1.20961,0.0532,0.54533,1.31034,0.34764,0.39285,1.35625
886,0.14245,0.26911,1.51529,0.0602,0.57753,0.10687,0.10635,0.05094,0.0754,0.05693,0.51776,0.51252,0.15939,0.14971,0.464,0.03897,0.31035,0.86047,0.18827,0.18574,0.86544,-0.02732,0.33933,1.43163,0.2597,0.1448,1.45063,-0.10792,0.43788,1.15355,0.42364,0.19916,1.21116,0.05236,0.54536,1.31563,0.34897,0.39196,1.35881
887,0.14263,0.26683,1.51587,0.05953,0.57435,0.1076,0.10616,0.05121,0.0755,0.05715,0.51666,0.51356,0.15886,0.14907,0.46438,0.0386,0.30929,0.8615,0.18778,0.18451,0.86587,-0.02694,0.33732,1.43259,0.26034,0.1431,1.4514,-0.10828,0.44082,1.15652,0.42482,0.1992,1.2127,0.05167,0.54541,1.3208,0.35014,0.3912,1.36137
888,0.14272,0.26454,1.51639,0.05848,0.57116,0.10809,0.10609,0.05137,0.07555,0.05732,0.51554,0.51434,0.15843,0.14848,0.46466,0.03812,0.30829,0.86232,0.1873,0.18348,0.8662,-0.02692,0.33521,1.43321,0.26085,0.14166,1.45221,-0.10807,0.44446,1.15931,0.42603,0.1993,1.21436,0.05156,0.54585,1.3259,0.35107,0.39044,1.364
889,0.14247,0.26245,1.51682,0.05722,0.56794,0.10832,0.1062,0.05137,0.07554,0.05744,0.51444,0.51486,0.15811,0.1479,0.46486,0.03768,0.30738,0.86292,0.18689,0.18261,0.86643,-0.02711,0.33326,1.43374,0.26109,0.14047,1.45286,-0.10735,0.44854,1.16206,0.42733,0.19949,1.21609,0.05202,0.54655,1.3309,0.35179,0.38962,1.36672
890,0.14204,0.26075,1.51715,0.056,0.56479,0.10834,0.10641,0.05124,0.07558,0.0575,0.51333,0.51514,0.15782,0.14739,0.46506,0.03733,0.3066,0.86337,0.18648,0.18176,0.86666,-0.02727,0.33172,1.43448,0.26116,0.13957,1.45321,-0.10645,0.4523,1.1648,0.42869,0.19979,1.21766,0.05271,0.54718,1.33562,0.35249,0.38875,1.36943
891,0.14176,0.25939,1.51746,0.0548,0.56186,0.10816,0.10656,0.05104,0.07569,0.05753,0.51213,0.51517,0.15762,0.14698,0.46527,0.03702,0.30595,0.86371,0.18598,0.18086,0.86693,-0.02724,0.33052,1.43554,0.26121,0.13889,1.45333,-0.10556,0.45508,1.16741,0.42994,0.20015,1.2189,0.05325,0.54759,1.33986,0.35328,0.38783,1.37201
892,0.14181,0.25809,1.51792,0.05342,0.5591,0.10779,0.1066,0.05082,0.07581,0.05757,0.51077,0.51495,0.15762,0.14655,0.46544,0.03675,0.30541,0.86396,0.18538,0.17993,0.86719,-0.02708,0.32942,1.43675,0.26132,0.13818,1.45337,-0.10463,0.45679,1.16972,0.4308,0.20055,1.21978,0.05338,0.54793,1.34362,0.35399,0.38694,1.37439
893,0.14205,0.25676,1.51858,0.0518,0.55636,0.10728,0.10652,0.05064,0.07589,0.05769,0.50934,0.51458,0.15776,0.14606,0.46557,0.03663,0.30503,0.86419,0.18478,0.17899,0.86741,-0.027,0.32832,1.43774,0.2613,0.13734,1.4534,-0.10362,0.45794,1.17154,0.43117,0.2011,1.22047,0.05306,0.54821,1.34709,0.35436,0.38621,1.37661
894,0.14212,0.25556,1.51927,0.05007,0.55349,0.10676,0.10634,0.05056,0.07596,0.05786,0.50795,0.51419,0.15777,0.14563,0.46571,0.03665,0.30479,0.86446,0.18423,0.17808,0.86762,-0.02714,0.32732,1.43818,0.26083,0.13655,1.45339,-0.10255,0.45919,1.17272,0.43125,0.20185,1.22129,0.05243,0.54832,1.35035,0.35438,0.3857,1.37889
895,0.14171,0.2547,1.51973,0.04838,0.55057,0.10622,0.10608,0.05059,0.07607,0.05797,0.50662,0.51379,0.15749,0.14535,0.46589,0.03671,0.30466,0.86475,0.18375,0.17733,0.86785,-0.02747,0.32644,1.43809,0.25998,0.13599,1.45336,-0.10144,0.4607,1.17343,0.43125,0.20272,1.2223,0.0518,0.54822,1.35335,0.35426,0.38531,1.38129
896,0.14089,0.25412,1.51988,0.04673,0.54782,0.10553,0.10586,0.05072,0.07621,0.05795,0.50534,0.51321,0.15709,0.14528,0.4661,0.0368,0.30464,0.8649,0.18342,0.17682,0.8681,-0.02779,0.32549,1.43785,0.2592,0.13554,1.45335,-0.10025,0.4623,1.17408,0.43112,0.20365,1.22318,0.05162,0.54813,1.35597,0.35413,0.38502,1.38356
897,0.14008,0.25367,1.51983,0.04513,0.54538,0.10459,0.10577,0.05089,0.07631,0.05786,0.50406,0.51235,0.15681,0.14532,0.46626,0.03692,0.30472,0.86482,0.18324,0.17657,0.86827,-0.02788,0.32456,1.43787,0.25887,0.13494,1.45337,-0.09898,0.46378,1.17499,0.43073,0.20464,1.22362,0.05206,0.54826,1.3582,0.35393,0.38492,1.38531
898,0.13946,0.25328,1.51975,0.04363,0.54325,0.10349,0.10582,0.05094,0.07629,0.05776,0.50274,0.51128,0.15671,0.14524,0.46629,0.037,0.30492,0.86462,0.18309,0.1765,0.8683,-0.02774,0.32408,1.43824,0.25889,0.13418,1.45336,-0.09772,0.46506,1.176,0.43012,0.2056,1.22367,0.05275,0.54851,1.36015,0.35363,0.38504,1.38644
899,0.13874,0.25298,1.51976,0.04231,0.54124,0.10235,0.10588,0.05079,0.07616,0.05778,0.50143,0.51016,0.15663,0.1449,0.46623,0.0369,0.30521,0.86438,0.18276,0.17655,0.86822,-0.02754,0.32435,1.43879,0.25889,0.13345,1.45326,-0.09668,0.46599,1.17668,0.42948,0.20647,1.22359,0.05309,0.54867,1.36174,0.35324,0.38527,1.3872
900,0.13767,0.25283,1.51982,0.04121,0.53902,0.1012,0.10583,0.05052,0.07604,0.05789,0.50014,0.50905,0.15636,0.14437,0.4662,0.03656,0.30554,0.86414,0.18225,0.17669,0.86816,-0.02753,0.32513,1.43922,0.25864,0.13297,1.45304,-0.09584,0.46645,1.17673,0.42893,0.20734,1.22359,0.05294,0.54866,1.3628,0.3528,0.38555,1.38788
901,0.13658,0.25292,1.51975,0.04027,0.53642,0.1,0.10571,0.05027,0.07598,0.05791,0.49879,0.50793,0.15584,0.14383,0.46626,0.03614,0.30586,0.86391,0.18172,0.1769,0.86816,-0.02778,0.32597,1.43933,0.25818,0.13287,1.45274,-0.09494,0.46659,1.17616,0.42846,0.2083,1.22363,0.05263,0.54855,1.36329,0.35228,0.38591,1.38853
902,0.13614,0.2532,1.51946,0.0394,0.53363,0.09874,0.10562,0.05006,0.07593,0.05765,0.49728,0.50676,0.15521,0.14341,0.46633,0.03582,0.3062,0.86372,0.18132,0.17715,0.86816,-0.02807,0.32681,1.4391,0.25765,0.13307,1.45244,-0.09386,0.46672,1.1752,0.42795,0.20935,1.22363,0.05252,0.54845,1.36336,0.35161,0.38643,1.38904
903,0.13644,0.25347,1.51914,0.03853,0.53099,0.09744,0.10565,0.04982,0.07591,0.05713,0.4957,0.50553,0.15469,0.14299,0.46642,0.03574,0.30662,0.86359,0.18118,0.17749,0.86816,-0.02817,0.32786,1.43865,0.25704,0.13343,1.45216,-0.09277,0.46702,1.17407,0.42728,0.21046,1.22356,0.05265,0.54836,1.36315,0.35083,0.38713,1.38935
904,0.13695,0.25369,1.519,0.03763,0.52875,0.09614,0.10578,0.04952,0.07598,0.05655,0.49433,0.5043,0.15429,0.14245,0.46661,0.03592,0.30719,0.86342,0.1813,0.17801,0.86822,-0.02813,0.32906,1.43808,0.25627,0.13394,1.45183,-0.09183,0.46739,1.17285,0.42635,0.21163,1.22332,0.05289,0.54825,1.36267,0.35012,0.38804,1.3895
905,0.13711,0.25399,1.51909,0.03671,0.52693,0.09482,0.10591,0.04926,0.0761,0.056,0.49332,0.50302,0.1538,0.14181,0.4669,0.03624,0.30798,0.86312,0.1816,0.1788,0.86833,-0.02831,0.33007,1.43748,0.25535,0.13485,1.45136,-0.0909,0.46759,1.17156,0.42513,0.21294,1.22278,0.05322,0.54812,1.36197,0.34958,0.38913,1.3895
906,0.13677,0.25448,1.51931,0.03584,0.52553,0.09338,0.10592,0.04911,0.07616,0.05551,0.4925,0.50161,0.15313,0.14134,0.46712,0.0365,0.30895,0.86267,0.1819,0.17984,0.86834,-0.02883,0.33078,1.43696,0.25452,0.13628,1.45084,-0.08974,0.46749,1.17023,0.42374,0.21436,1.22184,0.05378,0.548,1.36111,0.34908,0.39016,1.38936
907,0.13624,0.2552,1.51956,0.03512,0.52462,0.09175,0.10575,0.04906,0.07607,0.05509,0.49159,0.49998,0.15244,0.14122,0.46711,0.03658,0.31002,0.86206,0.18206,0.18101,0.86814,-0.02955,0.33157,1.43662,0.25402,0.13803,1.4504,-0.08811,0.46726,1.16885,0.42233,0.21577,1.2206,0.05479,0.54804,1.36008,0.34835,0.39091,1.38913
908,0.13592,0.25618,1.51974,0.03468,0.52429,0.09004,0.10547,0.04909,0.07587,0.05478,0.49054,0.49819,0.152,0.14137,0.4669,0.03652,0.31117,0.86138,0.182,0.18217,0.8678,-0.03033,0.33291,1.4364,0.25377,0.13977,1.45003,-0.08602,0.46706,1.16724,0.42092,0.21712,1.21925,0.05619,0.54829,1.3588,0.34733,0.39138,1.38885
909,0.13596,0.25751,1.51968,0.03457,0.52449,0.08841,0.10522,0.04916,0.07568,0.05451,0.48952,0.49647,0.1518,0.14154,0.46668,0.03639,0.31241,0.86077,0.18176,0.18331,0.86748,-0.03114,0.33493,1.43612,0.25349,0.14134,1.44964,-0.08381,0.46686,1.16527,0.41947,0.21842,1.21795,0.0575,0.54865,1.35725,0.34618,0.39187,1.38851
910,0.13612,0.25917,1.51934,0.03471,0.52508,0.08698,0.10509,0.04927,0.07555,0.05417,0.48881,0.49495,0.15156,0.14168,0.46655,0.03619,0.31369,0.86023,0.18151,0.18454,0.86724,-0.03193,0.33726,1.4357,0.25301,0.14285,1.44924,-0.08184,0.46655,1.16305,0.41793,0.2198,1.21673,0.05832,0.54916,1.35553,0.34506,0.39272,1.38801
911,0.13601,0.26106,1.5189,0.03493,0.52588,0.08573,0.10501,0.04934,0.07544,0.05374,0.48846,0.49363,0.15115,0.14185,0.46646,0.03595,0.31496,0.85968,0.18135,0.18593,0.867,-0.03262,0.33945,1.43513,0.25245,0.14441,1.44885,-0.0802,0.46615,1.16086,0.41628,0.22135,1.21557,0.05878,0.54998,1.35366,0.34399,0.39404,1.38732
912,0.13535,0.26308,1.51861,0.03504,0.52672,0.08458,0.10497,0.04932,0.07531,0.05331,0.48833,0.49241,0.15072,0.1421,0.46632,0.03575,0.31634,0.85918,0.18124,0.18741,0.86669,-0.03317,0.34129,1.43447,0.25188,0.14618,1.4485,-0.07887,0.46578,1.15887,0.41468,0.22307,1.21449,0.05932,0.5511,1.35158,0.34291,0.39566,1.38656
913,0.13429,0.26524,1.51847,0.03501,0.52748,0.08351,0.10506,0.04921,0.07524,0.05304,0.48833,0.49128,0.15048,0.14234,0.4662,0.0356,0.31793,0.8588,0.18105,0.18896,0.86642,-0.03366,0.34292,1.43382,0.2512,0.1483,1.4482,-0.07784,0.46541,1.15708,0.41341,0.22481,1.21366,0.06013,0.55237,1.34922,0.34183,0.39737,1.38584
914,0.13316,0.2675,1.51834,0.03497,0.52794,0.08256,0.10538,0.04908,0.0753,0.05306,0.4886,0.49031,0.15043,0.14262,0.4662,0.03538,0.3197,0.85851,0.18074,0.19064,0.86628,-0.03425,0.34467,1.43341,0.25024,0.15074,1.44797,-0.07698,0.46493,1.15547,0.41276,0.22638,1.21336,0.06114,0.55368,1.34667,0.34082,0.39912,1.38521
915,0.1322,0.26976,1.51813,0.03495,0.52796,0.08174,0.10579,0.04904,0.07546,0.05334,0.48937,0.48954,0.1504,0.14313,0.46628,0.03497,0.32152,0.8582,0.18036,0.19252,0.86622,-0.03509,0.34688,1.43341,0.24898,0.15324,1.44779,-0.07608,0.4643,1.15399,0.41277,0.22771,1.21368,0.06226,0.55506,1.34409,0.33993,0.40102,1.38458
916,0.13138,0.27195,1.51799,0.03487,0.52758,0.081,0.10605,0.04918,0.07561,0.05367,0.49053,0.48893,0.15025,0.14396,0.46631,0.0343,0.32337,0.85784,0.17992,0.19464,0.8661,-0.03611,0.34964,1.43364,0.24764,0.15561,1.44764,-0.07506,0.46361,1.15251,0.41307,0.22897,1.21434,0.0633,0.55647,1.34159,0.33926,0.40321,1.38386
917,0.13074,0.27414,1.51803,0.03471,0.52708,0.08034,0.1061,0.04941,0.07568,0.05385,0.49174,0.48841,0.14994,0.14508,0.4662,0.03345,0.32529,0.85758,0.17935,0.19688,0.86587,-0.03712,0.35272,1.43376,0.24645,0.15804,1.44751,-0.0741,0.463,1.1509,0.41315,0.23047,1.21483,0.06404,0.55784,1.33915,0.33882,0.40575,1.38305
918,0.13038,0.27649,1.51815,0.03462,0.52672,0.07972,0.10603,0.04953,0.07569,0.05389,0.49269,0.48789,0.14953,0.1465,0.46594,0.03253,0.3273,0.85749,0.17865,0.19912,0.86552,-0.03796,0.35577,1.43353,0.24555,0.16083,1.44742,-0.07331,0.46259,1.14914,0.41277,0.23253,1.21488,0.06443,0.55929,1.33673,0.33854,0.4086,1.38232
919,0.13027,0.27909,1.51813,0.03473,0.52655,0.07911,0.10589,0.04951,0.07574,0.05396,0.4934,0.48735,0.14915,0.14825,0.46557,0.03169,0.32934,0.85749,0.17799,0.20134,0.86511,-0.03861,0.35854,1.433,0.24503,0.16396,1.44733,-0.07263,0.46264,1.14744,0.41194,0.23523,1.21443,0.06479,0.56115,1.33431,0.33825,0.41156,1.38183
920,0.13022,0.28189,1.51786,0.03501,0.52649,0.07846,0.10563,0.04949,0.0759,0.05415,0.49409,0.48677,0.14894,0.15037,0.46517,0.031,0.33139,0.85745,0.1775,0.2036,0.86472,-0.03901,0.36099,1.43242,0.24492,0.16708,1.4471,-0.07201,0.46333,1.1461,0.41071,0.23849,1.21346,0.06544,0.56366,1.332,0.33787,0.41442,1.38165
921,0.13011,0.28476,1.51745,0.03537,0.52644,0.07782,0.10529,0.04965,0.07616,0.05446,0.49496,0.4862,0.14903,0.15283,0.46478,0.03041,0.33357,0.8574,0.17708,0.20596,0.86437,-0.03921,0.36328,1.43202,0.24505,0.16994,1.44666,-0.07149,0.46465,1.14527,0.40938,0.24209,1.21221,0.06635,0.56678,1.32989,0.33745,0.41708,1.38177
922,0.12994,0.28766,1.51714,0.03575,0.52639,0.07727,0.10504,0.05,0.07646,0.05483,0.49607,0.48575,0.14944,0.15542,0.4644,0.02982,0.33592,0.85742,0.17664,0.20845,0.86407,-0.03933,0.36572,1.43188,0.2452,0.17265,1.44612,-0.07104,0.46634,1.1448,0.40844,0.24583,1.21122,0.06721,0.57025,1.32811,0.33708,0.4198,1.38206
923,0.12955,0.29068,1.51707,0.03612,0.52639,0.07693,0.10493,0.05052,0.07673,0.05524,0.49736,0.4855,0.14997,0.15785,0.46408,0.02918,0.33841,0.85761,0.17618,0.21113,0.86378,-0.03935,0.3686,1.43192,0.24521,0.17547,1.44566,-0.07054,0.46817,1.14442,0.40822,0.24959,1.2109,0.0677,0.57381,1.32675,0.33679,0.423,1.38229
924,0.1288,0.29382,1.51716,0.03643,0.52645,0.07685,0.10491,0.0512,0.07694,0.05567,0.49876,0.4855,0.15035,0.16007,0.46381,0.02847,0.34098,0.85803,0.17576,0.214,0.86347,-0.03918,0.372,1.43189,0.24506,0.17854,1.44538,-0.07002,0.47014,1.14387,0.40859,0.25331,1.2112,0.06766,0.57726,1.32576,0.33663,0.42676,1.38232
925,0.12786,0.29697,1.51729,0.03653,0.5266,0.07701,0.10488,0.05199,0.07711,0.05612,0.50031,0.48574,0.15044,0.16233,0.46355,0.02769,0.34352,0.8586,0.17537,0.21697,0.86315,-0.03896,0.37567,1.43154,0.24478,0.18183,1.44527,-0.06967,0.47251,1.14306,0.40924,0.25695,1.21184,0.06713,0.58057,1.32505,0.33648,0.43077,1.38225
926,0.12705,0.30004,1.51733,0.03637,0.52686,0.07731,0.10486,0.05268,0.07733,0.05651,0.50202,0.48611,0.15038,0.16481,0.46325,0.02688,0.34602,0.8592,0.17491,0.21985,0.86282,-0.03898,0.37917,1.43096,0.24445,0.18519,1.44533,-0.0695,0.47549,1.14229,0.40991,0.26057,1.21269,0.06649,0.58398,1.32464,0.33617,0.43477,1.38228
927,0.12649,0.30315,1.51722,0.03612,0.5272,0.07764,0.10493,0.05311,0.07762,0.05674,0.50383,0.4865,0.15032,0.1674,0.46293,0.02616,0.34851,0.8598,0.17436,0.22252,0.86252,-0.03934,0.38219,1.43055,0.24408,0.18844,1.44552,-0.06938,0.47901,1.14199,0.41051,0.26425,1.21372,0.06615,0.58774,1.32455,0.33578,0.43882,1.38251
928,0.12598,0.30646,1.51696,0.03603,0.52752,0.0779,0.1051,0.05332,0.07801,0.0568,0.50568,0.48683,0.1503,0.16985,0.46266,0.02553,0.35103,0.86035,0.17374,0.22503,0.86228,-0.03982,0.38486,1.43057,0.24367,0.1915,1.4457,-0.06947,0.48268,1.14231,0.41102,0.26808,1.21482,0.06608,0.59177,1.32463,0.33561,0.44301,1.38292
929,0.12538,0.30995,1.51669,0.03618,0.52775,0.07806,0.10526,0.0535,0.07846,0.05681,0.50752,0.48708,0.15032,0.17203,0.46252,0.02495,0.3535,0.86081,0.17316,0.2275,0.86213,-0.04021,0.38769,1.43094,0.24329,0.1946,1.44578,-0.07025,0.48615,1.14293,0.41149,0.27205,1.21581,0.06587,0.59561,1.32461,0.33582,0.4472,1.38357
930,0.12488,0.31345,1.51658,0.03638,0.52791,0.0781,0.10537,0.05376,0.07896,0.05684,0.50929,0.4872,0.15034,0.17393,0.46252,0.02447,0.3559,0.86115,0.17279,0.23001,0.86207,-0.04051,0.39106,1.43142,0.24301,0.19802,1.44577,-0.07182,0.4895,1.14355,0.41212,0.27611,1.21668,0.06543,0.59902,1.32433,0.33621,0.45114,1.38445
931,0.12482,0.31688,1.5166,0.03649,0.52803,0.07798,0.10544,0.05411,0.07951,0.05683,0.51087,0.48716,0.15045,0.17574,0.4626,0.02422,0.35829,0.86142,0.17271,0.2326,0.86205,-0.04096,0.39485,1.43191,0.24284,0.20181,1.44573,-0.07363,0.49317,1.14415,0.41306,0.28025,1.21759,0.06501,0.60239,1.32405,0.3365,0.45485,1.38551
932,0.12532,0.32029,1.51657,0.0366,0.52814,0.07769,0.10546,0.05452,0.08009,0.05667,0.51226,0.48693,0.15073,0.17769,0.46266,0.0242,0.36077,0.86164,0.17293,0.23537,0.862,-0.04171,0.39854,1.43234,0.24272,0.20573,1.44568,-0.07506,0.49738,1.14484,0.41426,0.28455,1.21866,0.06468,0.60619,1.32413,0.33661,0.45866,1.3866
933,0.12601,0.32374,1.51642,0.03677,0.52833,0.07728,0.10549,0.05507,0.08068,0.05633,0.51345,0.48659,0.15115,0.17994,0.46265,0.02425,0.36333,0.86188,0.17337,0.23839,0.86187,-0.04266,0.40165,1.43261,0.24261,0.20958,1.44566,-0.07606,0.50186,1.14558,0.41534,0.28914,1.21981,0.06411,0.61041,1.3247,0.33655,0.46289,1.38758
934,0.12638,0.32725,1.51624,0.03692,0.52867,0.0769,0.10564,0.05582,0.0813,0.05589,0.51448,0.48626,0.15164,0.18255,0.46262,0.02424,0.36594,0.86222,0.17378,0.24152,0.86177,-0.04357,0.40412,1.43264,0.24244,0.21326,1.44568,-0.07703,0.50618,1.14628,0.4159,0.29398,1.22081,0.06303,0.61461,1.32555,0.33625,0.46752,1.3884
935,0.12616,0.33081,1.51607,0.03695,0.52907,0.07662,0.10601,0.05664,0.08204,0.05546,0.5154,0.48602,0.15237,0.18544,0.46262,0.02403,0.36854,0.86266,0.17385,0.24444,0.8618,-0.04413,0.4063,1.43261,0.24215,0.21658,1.44574,-0.07819,0.51021,1.14698,0.41589,0.2988,1.22162,0.06164,0.61853,1.3265,0.33573,0.47226,1.38904
936,0.12555,0.33442,1.51584,0.03692,0.52932,0.07642,0.10655,0.05739,0.08295,0.05515,0.51625,0.48584,0.15371,0.18845,0.46266,0.02355,0.37104,0.86311,0.17342,0.247,0.862,-0.04419,0.40868,1.43288,0.24167,0.21943,1.44581,-0.0794,0.51423,1.14799,0.41565,0.30325,1.22246,0.06039,0.62231,1.3277,0.33516,0.4768,1.38964
937,0.12495,0.33802,1.51559,0.03689,0.52934,0.07622,0.10709,0.05807,0.08403,0.055,0.51708,0.48568,0.15591,0.19138,0.46275,0.02289,0.37334,0.86346,0.17272,0.24927,0.86231,-0.04404,0.41154,1.43367,0.24104,0.22188,1.44594,-0.08042,0.51861,1.14949,0.41548,0.30722,1.22353,0.05952,0.62627,1.32933,0.33473,0.4809,1.39044
938,0.12468,0.34151,1.51556,0.03679,0.5292,0.07601,0.1075,0.05878,0.08525,0.05491,0.51782,0.4855,0.15864,0.19413,0.46294,0.02235,0.37542,0.86375,0.17219,0.25136,0.86272,-0.04419,0.41481,1.43479,0.24052,0.2243,1.44635,-0.08119,0.52349,1.15132,0.41542,0.31091,1.2248,0.05892,0.6307,1.33128,0.33453,0.48457,1.39167
939,0.12476,0.34491,1.51582,0.03652,0.529,0.07584,0.1079,0.05951,0.0866,0.05463,0.51836,0.48534,0.16127,0.19677,0.46329,0.0221,0.37729,0.86409,0.17207,0.25337,0.86325,-0.04488,0.41812,1.43591,0.24029,0.22709,1.44718,-0.08184,0.52869,1.15315,0.41549,0.31461,1.22622,0.05834,0.63558,1.33326,0.3345,0.48805,1.39327
940,0.125,0.34828,1.51623,0.03614,0.52886,0.07576,0.1085,0.06023,0.08807,0.054,0.51864,0.48528,0.16353,0.19953,0.46377,0.02201,0.37896,0.8646,0.17222,0.25535,0.86389,-0.04585,0.42128,1.43693,0.24031,0.23035,1.44834,-0.08258,0.5339,1.15496,0.41576,0.31846,1.22782,0.0576,0.6406,1.33517,0.33456,0.49162,1.39505
941,0.12523,0.35157,1.51666,0.03579,0.52891,0.07578,0.10939,0.06095,0.08959,0.05316,0.51863,0.48532,0.16573,0.20248,0.46426,0.02177,0.38049,0.86525,0.1723,0.25725,0.86456,-0.04666,0.42424,1.43802,0.24044,0.23382,1.44955,-0.08365,0.53896,1.15693,0.41625,0.32237,1.22949,0.05662,0.64539,1.33724,0.33471,0.49526,1.39683
942,0.12542,0.35469,1.51719,0.03562,0.52914,0.07584,0.11055,0.06164,0.0911,0.05236,0.51835,0.4854,0.16815,0.2054,0.46473,0.02121,0.38187,0.86594,0.17203,0.259,0.86523,-0.04707,0.42705,1.43922,0.2407,0.23714,1.45063,-0.08514,0.54398,1.15919,0.41668,0.32628,1.23094,0.05542,0.64975,1.33966,0.33494,0.49874,1.39863
943,0.12568,0.35762,1.51787,0.03566,0.52936,0.07587,0.11192,0.06225,0.09254,0.05169,0.51781,0.48544,0.17067,0.20807,0.46519,0.02037,0.38306,0.86659,0.17144,0.26049,0.86586,-0.04707,0.42973,1.44039,0.2411,0.24017,1.45155,-0.08693,0.54908,1.16163,0.41684,0.33026,1.23206,0.0542,0.65355,1.34242,0.33518,0.50194,1.40059
944,0.12606,0.36038,1.51866,0.03581,0.5294,0.07584,0.11336,0.06272,0.09394,0.05099,0.51704,0.48542,0.17298,0.21051,0.46567,0.01944,0.38408,0.86717,0.17074,0.26178,0.86649,-0.04683,0.43233,1.44146,0.24143,0.24296,1.4523,-0.08866,0.55425,1.1641,0.41681,0.33438,1.23307,0.05319,0.6569,1.34537,0.33541,0.50494,1.40286
945,0.12648,0.36296,1.51952,0.0359,0.52934,0.07573,0.11485,0.06307,0.09538,0.05016,0.51608,0.48531,0.17515,0.21291,0.46618,0.01866,0.38505,0.86774,0.1702,0.26305,0.86712,-0.04666,0.435,1.44261,0.24142,0.24546,1.45296,-0.08992,0.55953,1.16663,0.4168,0.33851,1.23442,0.05255,0.66026,1.34848,0.33565,0.50791,1.40548
946,0.12687,0.36537,1.52043,0.03589,0.52932,0.07557,0.1166,0.06332,0.09697,0.04922,0.51503,0.48514,0.17763,0.21531,0.46678,0.01824,0.38608,0.86832,0.17004,0.26442,0.8678,-0.04678,0.43774,1.44401,0.241,0.24759,1.45364,-0.09056,0.56491,1.16932,0.41686,0.34245,1.23627,0.05226,0.6641,1.35175,0.33583,0.51094,1.40829
947,0.12721,0.36753,1.52145,0.03588,0.52938,0.07543,0.11878,0.06347,0.09872,0.04832,0.51401,0.485,0.18064,0.21759,0.46751,0.01819,0.38718,0.86895,0.17028,0.26589,0.86857,-0.04714,0.44037,1.44562,0.24044,0.24951,1.45446,-0.09075,0.57029,1.1722,0.41695,0.34613,1.23839,0.05218,0.66843,1.35509,0.33591,0.51392,1.41109
948,0.12747,0.36941,1.52251,0.03591,0.52937,0.07544,0.12142,0.06351,0.10049,0.04756,0.51308,0.48499,0.18393,0.21958,0.46835,0.01837,0.3883,0.86968,0.17076,0.26737,0.86938,-0.04756,0.44261,1.44724,0.24005,0.25149,1.45537,-0.09078,0.57552,1.1752,0.41717,0.34957,1.24046,0.05212,0.67293,1.35851,0.33603,0.5166,1.41385
949,0.12757,0.3711,1.52348,0.03587,0.52924,0.07559,0.12436,0.06343,0.10219,0.04696,0.5122,0.48512,0.18713,0.22129,0.46924,0.01861,0.38937,0.87051,0.17132,0.26885,0.8702,-0.04787,0.44457,1.44875,0.23984,0.25352,1.4563,-0.09069,0.58063,1.17821,0.41759,0.35273,1.24243,0.05193,0.67726,1.36215,0.33629,0.5188,1.41667
950,0.12753,0.37289,1.52416,0.0356,0.52913,0.07576,0.12739,0.06325,0.10388,0.04644,0.51123,0.48527,0.19006,0.22289,0.47017,0.0188,0.39037,0.87133,0.17184,0.27028,0.87106,-0.04793,0.44685,1.45015,0.23953,0.25542,1.45718,-0.09058,0.58569,1.18099,0.41809,0.35559,1.24443,0.05149,0.6811,1.366,0.33651,0.52053,1.4196
951,0.12749,0.37487,1.52452,0.0351,0.52917,0.07583,0.13041,0.06297,0.10566,0.04585,0.51009,0.48528,0.19272,0.22456,0.47115,0.01884,0.39132,0.87203,0.17215,0.27157,0.87197,-0.04773,0.44984,1.45146,0.23899,0.257,1.45798,-0.09081,0.59067,1.18341,0.41847,0.35818,1.24648,0.05071,0.6842,1.36979,0.33645,0.52192,1.42257
952,0.12763,0.37687,1.52474,0.03454,0.52933,0.07576,0.13356,0.06252,0.10745,0.04506,0.50889,0.48516,0.19515,0.22627,0.47211,0.01868,0.39219,0.87258,0.17215,0.27265,0.87287,-0.04739,0.45314,1.45274,0.23849,0.2582,1.45868,-0.09169,0.5955,1.1857,0.41868,0.36059,1.24838,0.04977,0.68673,1.37326,0.33615,0.52308,1.4254
953,0.12797,0.3786,1.52504,0.03413,0.52939,0.07567,0.13702,0.06192,0.10913,0.04413,0.50778,0.48502,0.1975,0.22783,0.47299,0.01836,0.39289,0.87302,0.17198,0.27353,0.87368,-0.04697,0.45593,1.45403,0.23837,0.25909,1.45936,-0.09301,0.60012,1.18827,0.41882,0.36287,1.24997,0.04896,0.68917,1.37649,0.33602,0.52408,1.42802
954,0.12839,0.37997,1.52547,0.03401,0.52921,0.07564,0.14079,0.06127,0.11064,0.04323,0.50677,0.48497,0.19995,0.22906,0.47386,0.01807,0.39338,0.87346,0.17186,0.27424,0.87444,-0.0464,0.45784,1.45535,0.23867,0.25978,1.46008,-0.09417,0.60446,1.19122,0.41909,0.36496,1.25136,0.04839,0.69186,1.37978,0.33635,0.52496,1.43052
955,0.12873,0.38104,1.52595,0.03413,0.52887,0.0757,0.14471,0.06063,0.11209,0.04245,0.50578,0.48501,0.20255,0.22996,0.4748,0.01798,0.39376,0.87394,0.17195,0.27486,0.87522,-0.04567,0.4591,1.4566,0.23907,0.2604,1.46084,-0.09463,0.6087,1.19437,0.41971,0.36681,1.25294,0.04805,0.69477,1.38344,0.33705,0.52578,1.43305
956,0.129,0.38187,1.52639,0.03426,0.52861,0.07575,0.14872,0.05994,0.11353,0.04166,0.50468,0.48503,0.20525,0.23069,0.47579,0.01816,0.3942,0.87446,0.17231,0.27553,0.87603,-0.04479,0.46012,1.4577,0.23929,0.261,1.46157,-0.09423,0.61307,1.1975,0.42071,0.36862,1.25497,0.04801,0.69779,1.38752,0.33775,0.52676,1.43568
957,0.12933,0.38248,1.52678,0.03422,0.52847,0.07576,0.15293,0.05909,0.11497,0.04071,0.50343,0.48498,0.20797,0.2313,0.47677,0.01854,0.39475,0.875,0.17285,0.2763,0.87681,-0.04373,0.46112,1.45865,0.23934,0.26167,1.46228,-0.09331,0.61749,1.20052,0.42183,0.37073,1.25739,0.04832,0.70062,1.39169,0.33808,0.52816,1.43834
958,0.12987,0.38289,1.52725,0.034,0.52828,0.07578,0.15745,0.05806,0.1163,0.03966,0.50214,0.48495,0.21068,0.23169,0.4777,0.01901,0.39534,0.87557,0.17347,0.27709,0.8775,-0.04258,0.46209,1.45961,0.23952,0.26244,1.46301,-0.09226,0.6215,1.20336,0.42284,0.37322,1.25979,0.04896,0.70292,1.39557,0.33806,0.52988,1.44094
959,0.13052,0.38317,1.52796,0.03383,0.52795,0.07588,0.16223,0.05698,0.11739,0.03879,0.50096,0.48501,0.21327,0.23174,0.47855,0.0195,0.39588,0.87616,0.17411,0.27782,0.87809,-0.04159,0.46292,1.46061,0.2401,0.26325,1.46381,-0.09132,0.62495,1.20602,0.4238,0.37576,1.26188,0.04979,0.70446,1.3991,0.33804,0.53147,1.44339
960,0.13106,0.38332,1.52893,0.03389,0.52759,0.07604,0.16714,0.05601,0.11815,0.03826,0.49989,0.48512,0.21564,0.2314,0.47936,0.01997,0.39623,0.8767,0.17476,0.27841,0.87862,-0.04101,0.4634,1.46152,0.24098,0.26394,1.46461,-0.09067,0.62804,1.2086,0.42489,0.3779,1.26369,0.05057,0.70525,1.40252,0.33835,0.53261,1.44568
961,0.1313,0.38335,1.5299,0.03411,0.5274,0.07619,0.17209,0.05514,0.11866,0.038,0.4988,0.48521,0.21775,0.23064,0.48018,0.02035,0.39636,0.87714,0.17533,0.27879,0.87914,-0.0408,0.4634,1.46221,0.24175,0.26439,1.46532,-0.0904,0.63095,1.2112,0.42609,0.37947,1.26544,0.05105,0.70545,1.40602,0.33885,0.53333,1.44781
962,0.13145,0.38333,1.53057,0.03425,0.52748,0.07631,0.17699,0.05429,0.11901,0.0378,0.49764,0.48525,0.21969,0.22949,0.48104,0.02052,0.39635,0.87749,0.17572,0.27908,0.87966,-0.04064,0.46304,1.46275,0.24207,0.26453,1.46589,-0.09025,0.63363,1.21379,0.42719,0.38058,1.26729,0.05129,0.70543,1.40956,0.33927,0.53382,1.44987
963,0.13194,0.38336,1.53086,0.03417,0.52783,0.07638,0.18186,0.05341,0.11925,0.03752,0.4965,0.48521,0.22165,0.22803,0.48188,0.02057,0.3964,0.87778,0.17602,0.27946,0.88008,-0.04028,0.46268,1.46336,0.24206,0.26426,1.46633,-0.08974,0.63607,1.21631,0.42819,0.3814,1.26933,0.05162,0.70566,1.41301,0.33956,0.53414,1.45198
964,0.13301,0.38337,1.53096,0.03393,0.52832,0.07639,0.18673,0.05248,0.11939,0.03715,0.49541,0.4851,0.22369,0.22647,0.48263,0.02071,0.39662,0.87802,0.17644,0.28004,0.88036,-0.03975,0.46254,1.46418,0.24211,0.26363,1.46671,-0.08859,0.63823,1.21865,0.42929,0.38204,1.27147,0.05227,0.70626,1.41625,0.33995,0.5342,1.45426
965,0.13436,0.38314,1.53115,0.03367,0.52872,0.07632,0.19159,0.05152,0.11951,0.03676,0.49436,0.48491,0.22568,0.225,0.48328,0.02107,0.39689,0.87818,0.17711,0.28074,0.88055,-0.03916,0.4624,1.46515,0.24258,0.26286,1.46715,-0.08705,0.64001,1.22081,0.43053,0.38269,1.27351,0.05325,0.7069,1.41919,0.34053,0.53399,1.45668
966,0.13555,0.38261,1.53151,0.03345,0.52879,0.07618,0.19628,0.05047,0.1197,0.03647,0.49334,0.48467,0.22752,0.22373,0.48383,0.02164,0.397,0.87826,0.17803,0.28131,0.88072,-0.03848,0.46198,1.46609,0.24352,0.26208,1.46772,-0.08564,0.64132,1.22287,0.43163,0.38357,1.27529,0.0544,0.70717,1.42179,0.34114,0.53376,1.45914
967,0.13641,0.38194,1.53185,0.0333,0.52848,0.07607,0.20057,0.04931,0.11994,0.03636,0.49236,0.4845,0.22923,0.22258,0.48427,0.02234,0.39685,0.87832,0.17902,0.28156,0.88086,-0.03764,0.4613,1.46686,0.2448,0.26128,1.46833,-0.08467,0.6423,1.22485,0.43255,0.38486,1.27686,0.05544,0.70702,1.42408,0.34166,0.53375,1.46156
968,0.13712,0.38133,1.53193,0.03319,0.52806,0.0761,0.20452,0.04804,0.12014,0.03645,0.49148,0.48449,0.23094,0.22142,0.48459,0.02306,0.39644,0.87845,0.17995,0.28144,0.88093,-0.03661,0.46062,1.46744,0.24637,0.26039,1.46877,-0.08406,0.64311,1.22663,0.43361,0.3864,1.2784,0.05623,0.7067,1.42611,0.3421,0.5339,1.46392
969,0.13801,0.38079,1.53175,0.03312,0.5278,0.07626,0.20837,0.04675,0.12025,0.03667,0.49062,0.4846,0.23276,0.22021,0.4848,0.02377,0.39579,0.87862,0.18088,0.28108,0.88089,-0.03552,0.45998,1.46794,0.24819,0.25946,1.46909,-0.08351,0.64367,1.22815,0.4351,0.38791,1.28003,0.05685,0.70633,1.42787,0.34248,0.53392,1.46617
970,0.13928,0.38028,1.53146,0.03313,0.52771,0.07639,0.21234,0.04547,0.12022,0.03686,0.4897,0.48465,0.23473,0.21891,0.48491,0.02448,0.39494,0.87871,0.18187,0.28062,0.88075,-0.03449,0.45905,1.46844,0.2501,0.25857,1.46946,-0.08297,0.64373,1.22951,0.4369,0.38912,1.28174,0.05747,0.70573,1.42938,0.34275,0.53368,1.46825
971,0.14088,0.37969,1.53125,0.03323,0.52769,0.07639,0.21639,0.04413,0.12004,0.03688,0.48872,0.48456,0.23669,0.21745,0.48491,0.02522,0.39398,0.87864,0.18293,0.28011,0.88048,-0.03359,0.45752,1.46909,0.25177,0.2577,1.46991,-0.08257,0.64312,1.23098,0.43872,0.38996,1.28353,0.05812,0.70475,1.43079,0.34297,0.5334,1.47009
972,0.14255,0.37894,1.53125,0.03345,0.52772,0.07632,0.22037,0.04266,0.11974,0.03678,0.48772,0.48439,0.23846,0.21578,0.48482,0.02603,0.39304,0.87851,0.18406,0.2796,0.88011,-0.03276,0.45538,1.46988,0.25295,0.25687,1.4702,-0.08236,0.64198,1.23268,0.44044,0.39054,1.28538,0.05874,0.70334,1.43228,0.34322,0.53337,1.47164
973,0.14414,0.37803,1.53138,0.03376,0.52782,0.0763,0.22418,0.04107,0.11944,0.03674,0.48672,0.48427,0.23999,0.21401,0.48471,0.027,0.39208,0.87842,0.18534,0.27907,0.87977,-0.03193,0.45288,1.47059,0.25375,0.25615,1.47023,-0.08217,0.64054,1.23437,0.44206,0.39106,1.28716,0.0593,0.70149,1.43383,0.34352,0.53362,1.47293
974,0.14559,0.37704,1.53145,0.03404,0.52791,0.07638,0.22777,0.03952,0.11917,0.03688,0.48575,0.48424,0.24136,0.21233,0.4846,0.02822,0.39103,0.87841,0.18684,0.27841,0.8795,-0.0311,0.45045,1.47099,0.25457,0.25548,1.47016,-0.08169,0.6391,1.23564,0.44347,0.39158,1.28858,0.05983,0.69941,1.43526,0.34379,0.5338,1.47402
975,0.1468,0.37592,1.53135,0.03412,0.52793,0.07651,0.23111,0.03817,0.11878,0.03721,0.48493,0.48428,0.24267,0.21073,0.48439,0.02963,0.38989,0.87839,0.18848,0.27759,0.87921,-0.03022,0.4484,1.47107,0.25567,0.25458,1.47011,-0.08062,0.63793,1.23638,0.44463,0.3919,1.28951,0.06046,0.6975,1.43654,0.34407,0.53354,1.47491
976,0.14786,0.37447,1.53107,0.034,0.52787,0.07658,0.23415,0.03708,0.11803,0.03768,0.48424,0.48428,0.24397,0.20903,0.48398,0.03103,0.38871,0.87829,0.19005,0.27664,0.8787,-0.02916,0.44666,1.47097,0.25701,0.25316,1.46997,-0.07905,0.63694,1.23678,0.44564,0.3919,1.29011,0.06117,0.69582,1.43774,0.34445,0.53284,1.47569
977,0.14903,0.37266,1.53066,0.03387,0.52777,0.07659,0.23689,0.03619,0.11695,0.03823,0.48352,0.48422,0.24524,0.2071,0.48342,0.03234,0.38759,0.87814,0.19145,0.27565,0.87801,-0.0278,0.4448,1.4708,0.25842,0.25119,1.46949,-0.07755,0.63565,1.23704,0.44669,0.3917,1.29064,0.06188,0.69383,1.43876,0.34498,0.53192,1.47648
978,0.1505,0.37068,1.53014,0.03389,0.52766,0.07654,0.23935,0.03538,0.11581,0.03891,0.48262,0.48407,0.24641,0.20508,0.48287,0.03363,0.38654,0.87796,0.19279,0.27467,0.8773,-0.02627,0.44247,1.47058,0.25988,0.24898,1.46869,-0.07652,0.63377,1.23729,0.44796,0.3915,1.29123,0.06258,0.69114,1.43947,0.3456,0.53103,1.47724
979,0.15214,0.36876,1.52961,0.03404,0.52756,0.07645,0.24151,0.03453,0.1148,0.03977,0.48157,0.48386,0.2475,0.20315,0.48238,0.03502,0.38543,0.87775,0.19426,0.27369,0.87668,-0.02485,0.4397,1.47019,0.26149,0.24697,1.4679,-0.0756,0.63163,1.23753,0.44949,0.39129,1.29183,0.06353,0.6881,1.43993,0.34628,0.53022,1.47781
980,0.15376,0.36685,1.52926,0.03424,0.52751,0.07632,0.24331,0.03354,0.11387,0.04076,0.48048,0.4836,0.24867,0.20134,0.48184,0.03655,0.38417,0.87746,0.19597,0.27268,0.87607,-0.02371,0.43676,1.46962,0.26333,0.24539,1.46742,-0.07419,0.62968,1.23772,0.45134,0.39088,1.29232,0.06494,0.68527,1.44037,0.34715,0.52925,1.47817
