PaulMeinheit/Bachelor_Muay_Thai/processed_Data/N2/roundhouse/sliced/JointMoments/sliced7.csv
Unnamed: 0_level_0,R_KNEE_MOMENT,R_KNEE_MOMENT,R_KNEE_MOMENT,L_KNEE_MOMENT,L_KNEE_MOMENT,L_KNEE_MOMENT,R_HIP_MOMENT,R_HIP_MOMENT,R_HIP_MOMENT,L_HIP_MOMENT,L_HIP_MOMENT,L_HIP_MOMENT,R_ANKLE_MOMENT,R_ANKLE_MOMENT,R_ANKLE_MOMENT,L_ANKLE_MOMENT,L_ANKLE_MOMENT,L_ANKLE_MOMENT,WAIST_JOINT_MOMENT,WAIST_JOINT_MOMENT,WAIST_JOINT_MOMENT,NECK_MOMENT,NECK_MOMENT,NECK_MOMENT,L_SHOULDER_MOMENT,L_SHOULDER_MOMENT,L_SHOULDER_MOMENT,R_SHOULDER_MOMENT,R_SHOULDER_MOMENT,R_SHOULDER_MOMENT,L_ELBOW_MOMENT,L_ELBOW_MOMENT,L_ELBOW_MOMENT,R_ELBOW_MOMENT,R_ELBOW_MOMENT,R_ELBOW_MOMENT,L_WRIST_MOMENT,L_WRIST_MOMENT,L_WRIST_MOMENT,R_WRIST_MOMENT,R_WRIST_MOMENT,R_WRIST_MOMENT
ITEM,X,Y,Z,X,Y,Z,X,Y,Z,X,Y,Z,X,Y,Z,X,Y,Z,X,Y,Z,X,Y,Z,X,Y,Z,X,Y,Z,X,Y,Z,X,Y,Z,X,Y,Z,X,Y,Z
2357,-9.7697,5.57397,-1.58836,-78.3811,41.49786,3.92913,-21.74364,-0.41987,0.18662,-98.98267,54.79251,7.10351,-3.26462,14.26382,-3.30826,-61.1775,44.94531,3.68653,-124.73902,59.59327,7.24362,15.26268,1.4583,-1.42793,2.18092,-1.63705,0.77071,-1.14198,-1.26929,0.31126,1.82785,-1.82419,0.74429,0.1914,-1.50332,0.3326,0.21013,-0.12389,0.25188,-0.0126,-0.17465,0.11375
2358,-9.85101,5.81001,-1.91724,-78.19049,39.95693,3.9932,-17.79659,0.59634,-1.91574,-99.79749,51.03558,8.36672,-3.58452,14.36737,-3.3661,-60.74687,44.64182,3.74857,-121.58445,59.69769,5.27349,0.13432,-3.18336,1.69183,2.16031,-1.09602,0.60336,-0.36899,0.57018,-0.30429,1.63242,-1.80535,0.56619,-0.14167,-0.46024,0.15197,0.16482,-0.14284,0.16317,-0.14178,0.11956,-0.06513
2359,-10.06565,6.00588,-2.13843,-78.3063,38.71318,3.88153,-16.76636,1.3551,-3.06895,-100.54151,47.93323,7.8253,-3.86668,14.59211,-3.44728,-60.13926,44.21151,3.78175,-119.01704,61.05646,2.74677,-15.63724,-11.18765,9.20172,2.36852,3.60062,0.40009,0.02869,1.12794,-0.58757,1.07935,-1.40777,0.19866,-0.25332,-0.06695,-0.05636,0.10235,-0.14857,-0.04644,-0.19824,0.21715,-0.20996
2360,-11.38713,6.04091,-2.11554,-78.44096,38.75783,3.74718,-23.15554,0.53082,-2.21764,-100.77992,48.70378,5.86992,-4.0605,14.91352,-3.56583,-59.49471,43.7142,3.80528,-123.05728,63.39699,1.9069,-16.35257,-8.3717,10.95447,2.48804,4.93229,0.38978,-0.00447,-0.13308,0.07877,0.51765,-0.83557,0.1629,0.12705,-0.45399,0.14476,0.04123,-0.10689,-0.09865,-0.07322,0.0673,-0.12229
2361,-13.02434,6.25105,-1.98539,-79.52015,39.42445,3.64922,-29.27313,0.11967,-0.42798,-103.0461,51.72552,3.99103,-4.11439,15.30053,-3.70097,-58.94284,43.19632,3.73478,-128.29547,65.87397,2.5185,-4.13778,1.02958,3.63484,2.83911,0.75649,1.05132,-1.33248,-0.64632,0.41712,0.41789,-0.57356,1.00557,0.44135,-0.69416,0.19395,0.03119,-0.06824,0.15676,0.10995,-0.08651,0.05856
2362,-14.07372,6.72824,-1.96485,-80.56251,40.20095,3.7912,-28.59659,1.01127,0.43319,-105.25314,54.88556,4.25125,-4.07053,15.85065,-3.84277,-58.53788,42.75633,3.63802,-126.72388,67.93256,4.1417,6.67525,4.61267,-5.36108,3.01171,-3.32747,1.68429,-3.76094,1.26005,-0.79972,1.06585,-1.2362,1.7514,0.14473,-0.35194,-0.50776,0.15789,-0.16753,0.40939,0.14223,-0.07974,0.04553
2363,-14.48547,7.44951,-2.16754,-79.26582,40.41435,4.06937,-24.82894,2.97173,-0.25182,-103.24542,56.20063,6.35939,-4.05438,16.60336,-4.01205,-58.22996,42.37717,3.64489,-120.85408,70.26513,5.16271,9.45005,2.51291,-9.24051,1.63966,-5.01719,0.70774,-5.22532,3.15537,-2.37175,2.10063,-2.54153,0.74801,-0.42349,-0.14095,-1.37185,0.368,-0.37308,0.29057,0.01346,-0.01917,-0.14422
2364,-14.08453,8.57994,-2.56918,-76.45652,39.1064,4.05091,-22.38843,5.13548,-1.63809,-100.34595,52.43329,7.35239,-4.15876,17.40399,-4.19911,-57.94949,41.97195,3.71431,-118.27893,69.55057,3.17379,6.75738,0.5142,-6.65565,-0.56607,-5.67643,-1.2064,-4.27443,1.9753,-2.23479,2.53442,-3.1076,-1.1331,-0.62181,-0.6093,-1.42808,0.42888,-0.43325,-0.03822,-0.11769,-0.01959,-0.25327
2365,-13.47075,9.64563,-2.99069,-74.3076,36.91645,3.75035,-22.09357,3.05201,-2.33209,-99.74864,44.91828,6.22371,-4.39502,18.08124,-4.39912,-57.53437,41.53148,3.7696,-117.99969,59.76493,0.68544,2.10717,-2.24362,0.10834,-0.52708,-4.43689,-1.17512,-1.64042,-1.29793,-0.38709,1.73777,-2.20629,-1.07622,-0.31326,-1.27315,-0.55755,0.18118,-0.21167,-0.10931,-0.15075,-0.04246,-0.18189
2366,-13.73997,10.48378,-3.31627,-72.90343,35.04107,3.4546,-23.93989,-3.2736,-2.04826,-98.4398,38.55392,4.75378,-4.66529,18.69462,-4.61961,-56.81974,41.04125,3.78103,-115.27984,44.57277,0.87906,-1.47464,-6.01466,4.78416,1.79972,-1.12042,0.77029,0.5694,-3.10708,1.3167,0.35097,-0.67891,0.74675,0.18912,-1.47225,0.52783,-0.19643,0.12523,0.06348,-0.09939,-0.04347,-0.03869
2367,-14.64697,11.95124,-3.59905,-71.7152,34.34481,3.35562,-26.45576,-4.72489,-1.64643,-94.47661,37.33697,4.38171,-4.82732,19.40957,-4.85209,-55.82613,40.47011,3.74169,-110.39703,40.46324,1.70504,-3.73783,-3.9121,2.65268,3.19825,1.00858,1.56788,0.60562,-2.16269,1.67813,-0.26475,0.2,1.4631,0.56777,-1.29473,1.13023,-0.31525,0.29579,0.13659,-0.00079,-0.06264,0.09364
2368,-15.4138,13.99588,-3.84667,-71.12331,34.90724,3.43381,-28.30177,2.25282,-1.23775,-90.40305,41.16246,4.55835,-4.85528,20.21952,-5.12105,-54.65942,39.77902,3.65334,-106.61427,53.38285,0.82865,-8.76802,5.88437,-2.49665,3.27778,-0.28891,0.37659,-0.85483,-0.32354,1.2463,0.37309,-0.06867,0.443,0.74764,-1.08201,1.23914,-0.04674,0.15363,0.0691,0.11318,-0.0931,0.22517
2369,-15.89452,15.18738,-4.04907,-70.65633,35.14006,3.42895,-29.22628,7.71799,-0.6183,-88.05105,44.92727,4.40043,-4.85403,21.0312,-5.45678,-53.34415,38.89585,3.53153,-103.20235,66.13915,0.25529,-16.7108,10.24707,-2.40881,4.16898,-2.27624,-0.54967,-1.63038,-0.02133,0.92774,1.28965,-0.96187,-0.31654,0.70706,-1.08131,1.04373,0.29848,-0.13579,0.01381,0.1683,-0.12236,0.29718
2370,-15.87526,15.04333,-4.32047,-68.81332,33.61644,3.24168,-28.0407,3.85646,-0.78829,-86.73147,44.05009,4.41304,-4.86477,21.83143,-5.79177,-51.84213,37.77185,3.43108,-96.80471,63.11662,1.84355,-18.24207,-1.10575,5.32209,4.95234,-0.94447,0.21311,-1.12977,-1.59981,0.81403,1.39392,-1.61822,0.22684,0.42252,-1.41617,0.54158,0.33565,-0.26513,0.03617,0.10603,-0.18383,0.209
2371,-15.18215,14.69003,-4.70326,-66.02746,30.98234,3.04169,-25.13454,-2.92894,-2.30251,-87.924,39.6459,4.94421,-4.78806,22.57996,-6.03606,-50.18655,36.40188,3.35245,-93.2682,51.50838,3.20117,-7.34871,-16.0184,13.86945,3.83011,2.65884,1.45043,-0.28144,-2.89443,0.67052,0.82748,-1.70083,1.02193,0.12233,-1.64056,0.05673,0.06326,-0.17019,0.07294,-0.01327,-0.20276,0.00514
2372,-14.503,14.94967,-5.04762,-63.32873,28.72147,2.85499,-24.19821,-3.66271,-3.68734,-89.27534,35.82546,4.91617,-4.56233,23.24437,-6.24684,-48.4407,34.86009,3.24232,-96.27717,45.80246,1.86561,5.0204,-15.95064,15.74072,2.52128,4.02665,1.5296,0.41819,-2.55704,0.69808,0.38749,-1.35349,0.94505,0.14065,-1.40154,0.13455,-0.18107,-0.00384,0.01877,-0.07963,-0.10396,-0.13923
2373,-14.33874,15.47584,-5.2682,-60.10027,27.51204,2.58823,-25.22895,-0.38622,-3.65872,-83.00415,34.24255,3.62181,-4.23871,23.99489,-6.55802,-46.6223,33.36198,3.10648,-93.13527,45.62593,-0.52397,4.89499,-0.97915,9.94661,3.03526,1.18749,0.37196,0.61339,-2.12766,1.21383,0.42498,-0.82909,0.13894,0.45571,-1.35608,0.69637,-0.16193,0.09951,-0.10813,-0.0531,-0.04039,-0.10473
2374,-14.42073,16.0778,-5.53271,-56.66248,26.85973,2.31365,-24.55293,1.70201,-3.27091,-71.129,33.73152,2.24538,-3.88191,24.97583,-6.99757,-44.78139,32.03133,2.95507,-78.90388,45.25866,-1.9159,-3.37533,11.91593,0.89493,4.06899,-2.91072,-0.85974,-0.35597,-2.80939,1.79345,0.74734,-0.46715,-0.58058,0.65658,-2.00823,1.03907,0.04681,0.09193,-0.19282,0.01245,-0.15339,0.03881
2375,-15.1444,17.18512,-5.99652,-54.17826,26.26794,2.2885,-25.06585,4.1486,-3.90475,-63.8428,34.30302,2.70261,-3.5552,25.9892,-7.49511,-42.942,30.73682,2.81002,-69.17818,49.27625,-2.47868,-8.6541,7.0396,-3.95026,3.70978,-3.19185,-0.67784,-2.01108,-3.10012,1.52161,0.83017,-0.47977,-0.39632,0.48164,-2.60731,0.76647,0.2037,0.01972,-0.16376,0.03255,-0.29917,0.11563
2376,-16.18559,18.62463,-6.48675,-52.31614,25.41093,2.46861,-30.16388,8.23009,-4.79794,-63.37235,34.89417,4.49898,-3.27468,26.79796,-7.92545,-41.08233,29.3173,2.69063,-71.23036,57.11093,-2.80637,-12.95121,-11.11851,-0.60958,2.45459,0.51171,0.96224,-2.25299,-1.84062,0.5561,0.44745,-0.73417,0.67158,0.29655,-2.44627,0.48207,0.18616,-0.0462,-0.02982,0.02368,-0.31831,0.11597
2377,-16.09296,19.6508,-6.79197,-49.18705,23.78512,2.43135,-35.2541,10.20842,-4.65268,-61.0487,32.3816,5.26605,-3.03303,27.49305,-8.2333,-39.18648,27.73798,2.56975,-71.131,56.87675,-2.77861,-20.16252,-20.62442,6.84123,2.01351,2.82593,2.12774,0.1168,-0.76245,0.38911,0.14805,-0.98422,1.46258,0.5689,-1.85378,0.97195,0.08876,-0.07968,0.11725,0.06086,-0.24091,0.18701
2378,-14.80352,19.9193,-7.02009,-44.563,21.63923,2.11534,-35.12735,8.08659,-4.15109,-53.80267,28.06437,4.87248,-2.90164,28.25545,-8.52179,-37.30074,26.06673,2.42925,-62.35376,47.67211,-1.71093,-20.98833,-12.12045,13.01614,2.75624,1.48719,1.51782,2.99813,-2.15672,1.74748,0.41042,-1.10697,1.0769,1.00262,-1.56746,1.79581,0.03691,-0.07305,0.13501,0.10379,-0.17087,0.29821
2379,-13.88437,19.85557,-7.38103,-40.83253,19.9317,1.91076,-31.66774,5.77276,-4.65623,-49.48307,26.27909,4.924,-2.94771,29.09078,-8.90809,-35.52269,24.48344,2.30833,-56.3309,42.89816,-0.56285,-6.8259,-0.31972,16.64821,3.03076,-0.19138,0.12895,3.63401,-5.39666,3.60598,0.91001,-1.10983,0.01756,1.10157,-1.8639,2.03583,0.05143,-0.04359,0.00652,0.0886,-0.18596,0.30935
2380,-14.06005,20.30917,-7.86245,-38.94107,18.88595,1.87949,-29.26632,8.00014,-5.87135,-50.00133,26.74059,5.04486,-3.06156,29.96529,-9.37914,-33.83259,23.12085,2.23123,-56.04392,48.89312,-2.20835,10.64558,0.81884,17.25218,1.69776,0.24075,-0.33964,2.12822,-7.4082,4.50176,1.01827,-1.03286,-0.49087,0.99656,-2.36709,1.74382,0.06514,-0.02577,-0.09453,0.07503,-0.27743,0.26081
2381,-14.54565,21.3354,-8.30422,-37.30318,17.92256,1.67833,-29.14847,12.00674,-6.45231,-48.30309,26.29745,3.87053,-3.05879,30.9253,-9.8541,-32.16144,21.89743,2.11467,-53.07453,55.54023,-6.14996,9.45863,-4.12044,13.34244,0.68956,1.23704,0.56589,0.62556,-6.07149,3.78941,0.6445,-1.02643,0.15931,0.96542,-2.37339,1.47945,0.03158,-0.03419,-0.01844,0.11403,-0.30606,0.25786
2382,-14.36065,22.18755,-8.65338,-35.09457,16.64501,1.22986,-29.43546,11.69166,-6.26157,-42.65607,24.35224,2.16165,-2.91448,32.00496,-10.26973,-30.5817,20.63343,1.86058,-45.82516,52.90472,-8.44814,-10.84295,-5.33293,5.80776,1.89447,0.4318,1.58429,0.345,-2.69244,2.0064,0.25817,-1.12741,1.18785,0.87047,-1.76916,1.29351,-0.0106,-0.04801,0.14032,0.12492,-0.19984,0.24823
2383,-13.9012,22.75602,-8.99092,-32.47991,15.09391,0.8214,-29.3915,8.24797,-6.19252,-36.31405,22.14951,1.82251,-2.79268,33.12888,-10.643,-29.13174,19.26898,1.53856,-37.49084,45.54295,-7.51814,-26.04514,-4.36391,-0.10299,3.69828,-1.65551,1.36784,0.73025,-0.31572,0.4996,0.26673,-1.17031,1.32621,0.65566,-1.26858,1.06713,-6e-05,-0.05323,0.17197,0.05997,-0.09834,0.16475
2384,-13.80196,23.64944,-9.38094,-29.87479,13.59341,0.64415,-28.49618,7.30809,-6.43917,-31.5767,20.29771,2.73632,-2.82524,34.18181,-11.04607,-27.72795,17.95046,1.31437,-28.31634,42.10484,-5.39044,-23.03907,-7.47351,0.75815,4.28196,-2.13763,0.51872,0.81017,-0.06563,0.14417,0.48083,-1.13348,0.64793,0.60847,-1.34878,0.94494,0.05113,-0.06445,0.04895,0.00923,-0.13766,0.08195
2385,-13.61034,24.91264,-9.82729,-27.69874,12.65334,0.62364,-25.43216,8.96175,-6.57629,-28.74188,19.60453,3.19553,-2.98899,35.16481,-11.5253,-26.30008,16.85042,1.24849,-18.15428,42.63868,-3.9799,-13.93852,-13.12146,7.06729,4.47803,-0.04861,0.59516,0.91385,-0.88047,0.81042,0.26605,-1.01001,0.39883,0.9619,-1.7226,1.22814,0.04444,-0.05801,-0.07131,0.07419,-0.25755,0.14433
2386,-12.80052,26.26978,-10.33879,-25.71863,12.40859,0.59756,-21.56951,10.00809,-6.76274,-25.47268,19.94248,2.46635,-3.16774,36.2119,-12.03766,-24.90721,16.00493,1.26175,-9.16698,42.06205,-4.21547,-9.82241,-14.31304,11.21177,5.03839,1.52608,1.48977,1.74952,-1.42468,1.79475,-0.39148,-0.77255,0.99091,1.5166,-1.80267,1.88059,-0.03678,-0.01249,-0.07275,0.20851,-0.27212,0.33382
2387,-12.17629,27.90221,-10.9327,-23.50555,12.35015,0.53414,-21.5381,11.07444,-7.60592,-20.73239,19.65232,1.65116,-3.27381,37.40073,-12.51388,-23.64904,15.28767,1.23945,-6.87342,40.371,-6.3105,-7.36817,-9.23585,8.38915,4.63486,-0.1672,1.54797,2.77611,-1.84888,2.65329,-0.66374,-0.49659,1.38622,1.89551,-1.74221,2.50856,-0.07147,0.03355,-0.00274,0.27175,-0.17178,0.47819
2388,-12.62481,29.75163,-11.5653,-21.2395,11.72593,0.49988,-25.94623,13.99697,-9.21947,-18.03041,18.31667,2.24482,-3.29699,38.6169,-12.94129,-22.46818,14.45235,1.11946,-13.01477,43.08622,-8.70204,-2.6638,-5.2346,3.60965,2.27341,-2.79121,0.33818,3.35866,-3.03035,3.35008,-0.27288,-0.13719,0.80486,1.95788,-1.96606,2.74383,-0.0305,0.06171,0.03474,0.21703,-0.10182,0.46692
2389,-13.12663,31.09868,-12.10853,-20.19512,9.90659,0.39619,-28.57283,16.38859,-10.81148,-22.11801,16.09942,3.60842,-3.24795,39.7228,-13.33299,-21.31134,13.38035,0.85677,-22.48755,48.25343,-9.71834,-0.45345,-9.41004,4.85729,-0.31835,-2.21573,-0.61867,3.37058,-4.76279,3.65288,0.05203,0.36431,-0.11099,1.68847,-2.33116,2.35197,-0.02467,0.1189,-0.00685,0.10547,-0.14015,0.31695
2390,-13.08291,31.47271,-12.46315,-19.96095,7.35094,0.0622,-28.49067,14.56479,-11.05987,-28.36854,13.52446,3.84751,-3.16805,40.75368,-13.75717,-20.14392,12.21114,0.51312,-29.44176,46.73476,-8.94582,-7.02178,-16.44084,12.67807,-0.84143,1.8505,0.26035,2.96936,-6.04334,3.43099,-0.30272,0.57712,-0.03608,1.27518,-2.55014,1.59151,-0.12109,0.17702,-0.02741,0.03503,-0.27304,0.16624
2391,-13.44468,31.23583,-12.66942,-18.57653,5.39458,-0.38901,-29.96843,9.62018,-9.80596,-28.01468,11.99253,2.71408,-3.0906,41.84196,-14.27687,-18.85749,11.11621,0.26647,-29.70882,37.86282,-6.86756,-19.77838,-14.24367,20.79666,0.3342,6.0947,3.07912,3.01331,-6.27131,3.12901,-1.33607,0.06204,1.6974,1.17772,-2.53398,1.19537,-0.34621,0.09381,0.20717,0.07581,-0.42296,0.15887
2392,-14.16197,31.59282,-12.92101,-16.64921,4.21535,-0.69751,-31.06954,8.15523,-8.89848,-23.20362,10.72348,1.37596,-2.96139,43.05828,-14.81925,-17.49345,10.09692,0.15116,-23.13659,31.78646,-5.94423,-27.47533,-4.35444,24.64469,1.53005,7.58188,6.32747,4.50313,-5.44572,3.21809,-2.52803,-0.99189,4.34629,1.73073,-2.34745,1.68468,-0.66957,-0.19537,0.77016,0.22029,-0.49879,0.32294
2393,-14.335,33.55575,-13.36412,-15.28636,3.30654,-0.75551,-30.01718,14.94753,-9.63808,-18.70001,8.17296,0.76982,-2.73287,44.35393,-15.26252,-16.16217,9.08524,0.08193,-14.68532,36.63269,-8.65707,-24.79259,-3.75923,25.14596,2.15627,6.77826,7.7398,6.74332,-4.02436,3.51402,-2.99805,-1.76163,5.84439,2.6566,-2.23712,2.74274,-0.88324,-0.46826,1.23158,0.37018,-0.46814,0.55256
2394,-13.54826,36.49496,-13.89247,-13.53734,3.21974,-0.63563,-29.48768,25.43008,-11.02163,-13.6046,6.13681,0.86922,-2.4818,45.67434,-15.5797,-14.81679,8.12154,0.03341,-8.19922,48.3743,-13.40431,-19.24276,-19.54611,23.74693,1.6846,6.19532,5.82012,7.75084,-2.936,3.47758,-2.42609,-1.11927,4.30261,3.23754,-2.46825,3.43342,-0.79173,-0.31947,0.95607,0.39845,-0.38012,0.66308
2395,-12.11397,38.90528,-14.34676,-10.93712,4.55817,-0.45125,-29.22558,30.58097,-11.70943,-8.67896,7.23459,0.9703,-2.37312,47.00961,-15.85931,-13.36712,7.28456,0.01708,-3.28647,55.70704,-15.98646,-15.88002,-37.2999,19.08647,-0.13165,5.55452,1.45835,7.28672,-2.56173,2.99616,-1.39625,0.77493,0.46363,3.18982,-2.75569,3.26849,-0.46975,0.22987,0.00435,0.2908,-0.27894,0.54335
2396,-10.96525,40.20658,-14.73393,-8.9605,6.09284,-0.29014,-27.25569,27.7886,-11.77881,-7.97186,9.58409,0.54273,-2.48121,48.27117,-16.19935,-11.86996,6.52582,0.01606,-0.91914,52.64528,-15.27803,-13.90125,-40.11684,12.04924,-2.24922,2.91439,-2.14795,6.54462,-2.4764,2.46796,-0.6698,2.12633,-2.40587,2.84325,-2.58752,2.58474,-0.17064,0.60733,-0.7508,0.1629,-0.19107,0.28357
2397,-11.01558,40.75377,-15.08255,-8.2415,5.82553,-0.22681,-26.33785,21.89569,-11.75642,-9.28068,7.88065,-0.45371,-2.68467,49.37704,-16.59735,-10.42227,5.72082,0.0109,-1.14643,41.36657,-14.81138,-17.24815,-27.20737,7.05799,-3.74427,0.20719,-2.68137,5.10585,-2.52192,2.08385,-0.82641,2.28325,-2.42907,2.46792,-2.18455,1.8285,-0.12042,0.55787,-0.76682,0.13405,-0.18395,0.10337
2398,-12.00577,41.10598,-15.34256,-8.00971,3.75195,-0.26814,-29.47719,18.57225,-11.75177,-9.45031,2.42812,-1.40257,-2.79487,50.45211,-16.96244,-9.04954,4.85372,-0.03102,-5.07943,30.89977,-16.69951,-22.45741,-14.35927,6.39977,-3.48338,1.15302,-0.34078,2.2849,-2.32736,1.47641,-1.40371,1.71836,-0.51745,2.08126,-2.0081,1.21599,-0.22545,0.31457,-0.34808,0.20144,-0.25215,0.11082
2399,-12.7095,42.1264,-15.57479,-7.8639,1.75733,-0.33192,-33.28292,20.39467,-12.11585,-11.95243,0.32565,-1.13122,-2.74665,51.70889,-17.23236,-7.78267,4.04777,-0.15204,-14.17921,32.61549,-17.94381,-17.13938,-16.20882,9.41943,-1.75379,6.50193,4.31351,0.42715,-1.33641,0.6989,-1.66239,0.8333,2.58647,2.00145,-2.19334,1.13993,-0.26988,0.06499,0.2465,0.27722,-0.34634,0.24415
2400,-12.4972,44.26805,-15.89303,-7.54362,0.7435,-0.42709,-32.67182,25.80972,-13.07796,-16.05986,2.5783,0.0009,-2.60251,53.13422,-17.43148,-6.68345,3.38101,-0.35117,-18.93514,44.23528,-16.96172,-5.0975,-26.32503,14.31933,-1.55249,13.23197,9.91037,2.28687,-0.01124,0.62537,-1.83407,0.58023,6.32686,2.64624,-2.57611,1.89106,-0.30211,-0.06002,1.03486,0.33834,-0.44524,0.41614
2401,-12.05514,46.70204,-16.22353,-6.61598,-0.23338,-0.70344,-28.88013,31.05856,-13.76882,-15.76191,2.37478,-0.25673,-2.47359,54.47313,-17.64144,-5.72423,2.73557,-0.59611,-12.29872,51.52267,-17.00844,-3.58611,-27.6481,18.76296,-4.36578,16.58328,12.34828,5.82754,0.23763,1.48941,-2.09856,1.51445,7.90917,3.46397,-2.7931,2.76108,-0.3898,0.07831,1.57768,0.37676,-0.49475,0.5171
2402,-12.05965,48.45947,-16.47347,-5.01532,-1.60883,-1.11014,-25.56666,33.82314,-13.65044,-11.12666,-1.24608,-1.96424,-2.45831,55.62995,-17.9246,-4.74687,1.99398,-0.83533,-2.40816,50.9502,-18.8388,-15.08473,-21.74937,21.7993,-6.70442,13.54386,8.83368,6.84502,-1.64541,2.40806,-1.56713,1.98233,5.13778,3.63496,-2.97345,2.74644,-0.31783,0.25583,1.30064,0.35979,-0.52313,0.45185
2403,-12.31719,49.11298,-16.65887,-3.23028,-2.40353,-1.33109,-23.26103,32.47618,-13.51369,-6.46168,-3.39552,-2.61323,-2.56745,56.83793,-18.2616,-3.69061,1.30325,-0.9902,3.94069,47.2863,-18.9225,-26.46835,-24.11813,23.0962,-5.12552,6.287,2.36636,5.75904,-4.39675,2.85025,-0.07762,0.64045,0.3482,3.67276,-3.47893,2.21849,-0.02927,0.15715,0.39922,0.35918,-0.62071,0.30551
2404,-12.5698,48.76786,-16.73759,-2.05695,-2.29208,-1.24076,-23.08689,27.77325,-13.65388,-3.01177,-4.35305,-2.14522,-2.71514,58.18995,-18.56652,-2.72189,0.8591,-1.00376,7.41653,40.22498,-17.50389,-28.49121,-34.33879,20.50144,-3.0695,0.92493,-1.57893,6.17708,-5.06913,3.26224,0.10906,-0.47364,-2.30678,4.44598,-3.82782,2.42577,-0.00058,-0.00732,-0.33038,0.46829,-0.69231,0.27818
2405,-12.85686,48.37359,-16.62957,-2.45064,-1.71811,-1.0017,-27.10282,25.1778,-13.13715,-1.57262,-5.92803,-2.71818,-2.80921,59.36977,-18.75491,-2.06416,0.63343,-0.88783,6.21578,33.46559,-18.15866,-21.93874,-37.49797,14.77626,-4.39034,1.30211,-0.37399,8.79801,-3.10524,4.05151,-1.78492,0.39766,-1.12249,5.32359,-3.21331,3.4234,-0.35785,0.00299,-0.26053,0.59082,-0.55649,0.41767
2406,-13.05912,49.18021,-16.45147,-4.33768,-1.27126,-0.82218,-32.7379,28.76224,-11.83506,-3.46405,-7.12175,-4.6158,-2.84106,60.19266,-18.81116,-1.76563,0.46192,-0.7604,0.25637,34.653,-21.19985,-15.2395,-31.55068,12.37049,-7.26336,5.45694,3.4509,11.34231,-1.12029,4.85683,-3.24824,1.93575,1.62508,5.06663,-1.81251,4.02766,-0.57016,0.12297,0.33632,0.56516,-0.23789,0.57102
2407,-12.99243,51.04217,-16.39206,-5.32189,-1.29474,-0.81617,-35.17838,34.13372,-10.84034,-4.77965,-7.42816,-5.66451,-2.89469,60.95922,-18.80639,-1.59928,0.25787,-0.76211,-2.18141,41.10662,-22.80156,-14.13888,-28.51048,19.22312,-9.8296,10.1744,6.49045,11.66063,-0.23281,4.84194,-2.77121,2.40142,3.04286,3.65059,-0.46569,3.61386,-0.42616,0.21525,0.75664,0.38685,0.07059,0.58934
2408,-12.51138,52.64495,-16.45031,-3.72672,-1.63371,-0.97095,-32.857,35.75097,-10.96284,-0.72554,-8.14622,-4.65374,-3.03656,61.97339,-18.81069,-1.28711,0.02707,-0.93224,5.72198,44.64231,-21.42659,-13.84264,-28.96793,30.34309,-11.59984,13.65462,7.94337,9.25831,0.96777,3.7021,-0.84556,1.53147,2.78493,2.28906,0.11424,2.78236,-0.04636,0.15987,0.7693,0.2026,0.15628,0.46196
2409,-11.58185,53.377,-16.49774,-0.99115,-1.77912,-1.10177,-26.9867,35.39265,-12.0908,7.32698,-9.90459,-2.76783,-3.20178,63.11565,-18.81019,-0.75405,-0.19664,-1.11281,21.80286,44.67202,-20.0477,-14.11702,-24.17667,32.04559,-11.89129,12.98697,7.16308,5.92094,2.34392,2.25345,0.74914,0.24773,1.43711,2.25536,-0.47563,2.31232,0.31108,0.01261,0.48683,0.18595,-0.07062,0.2797
2410,-10.94164,52.95082,-16.28909,0.87845,-0.32983,-0.90386,-21.49561,33.78204,-12.72863,15.15082,-9.30428,-0.6458,-3.26008,64.05813,-18.77171,-0.1893,-0.26738,-0.99409,37.19714,43.84405,-18.22609,-19.44105,-21.74601,21.38743,-9.90758,7.78329,4.58425,3.43196,2.25697,1.31548,0.68859,-0.35031,0.12947,3.55439,-1.79128,2.21256,0.38883,-0.04807,0.1865,0.35149,-0.39775,0.14291
2411,-11.51861,51.6788,-15.73,1.31027,2.93794,-0.33904,-21.45084,29.1077,-11.43093,19.12462,-4.08666,1.94419,-3.17847,64.70816,-18.71522,0.12682,-0.08193,-0.51677,41.2952,42.9668,-13.04884,-20.49927,-34.08883,11.07088,-6.27591,3.66363,2.94299,1.59655,1.63489,0.96974,-0.10576,0.29437,0.2666,4.64729,-2.31554,2.28473,0.28123,0.07879,0.17711,0.50628,-0.46355,0.13028
2412,-13.25052,50.98929,-15.15708,2.5961,5.83239,0.66982,-27.48103,24.88531,-9.35637,22.89502,1.80388,4.95317,-3.0725,65.23055,-18.69245,0.51259,0.27393,0.5711,37.76585,45.581,-6.12902,-4.09367,-47.07822,12.10489,-4.29592,5.18255,3.6369,0.68235,2.23925,1.27094,-0.13483,1.30638,1.23998,4.14107,-1.26324,2.46959,0.23757,0.26175,0.34539,0.49217,-0.2176,0.21366
2413,-14.89357,51.77077,-14.92122,-0.52582,5.64222,0.74327,-34.22462,26.83018,-8.90087,11.85729,7.00426,5.42527,-3.05917,65.69998,-18.67809,0.252,0.23187,0.48581,14.45442,57.6935,-4.16395,20.2001,-36.19249,22.12782,-6.73874,9.15854,4.98108,2.26896,2.25458,2.13318,0.20974,1.25552,1.25965,2.66016,-0.0392,2.34606,0.24684,0.27227,0.33947,0.37564,-0.00472,0.24286
2414,-14.96196,53.53227,-14.92736,-2.8644,2.68544,0.27941,-36.43126,34.89465,-10.20884,3.68055,6.29813,3.0411,-3.12173,66.07019,-18.52473,0.17043,-0.19091,0.00144,-0.54232,70.10506,-9.46349,31.09717,-8.35291,30.38249,-10.33375,10.17427,5.01379,4.9118,-0.76626,2.47607,0.16971,0.26719,0.34917,1.62412,-0.12318,1.40708,0.21862,0.13399,0.14162,0.23291,-0.04403,0.14039
2415,-13.71701,54.63772,-14.70851,-2.61283,-0.03009,-0.30013,-34.83507,42.1185,-11.25681,5.0543,1.33592,-0.34089,-3.22429,66.36453,-18.16058,0.3026,-0.5556,-0.38233,1.28092,73.29305,-17.22558,27.6161,4.2292,27.66403,-8.7725,6.95165,3.06535,4.73069,-5.63523,1.1678,0.48255,-0.90466,-0.65014,1.49252,-1.1696,-0.12485,0.21467,-0.01549,-0.08764,0.10163,-0.20946,0.00765
2416,-12.68286,53.00007,-13.82679,-2.17938,-1.05067,-0.49893,-32.03364,40.46243,-10.57829,8.02851,-4.36012,-2.7578,-3.43832,66.51884,-17.69288,0.33945,-0.57122,-0.50145,8.58701,63.81454,-20.91332,23.63507,-8.12967,14.04953,-3.00092,0.58229,-0.13076,1.45392,-7.41876,-0.95741,1.39871,-2.65885,-1.83848,1.87346,-1.81715,-1.09825,0.21879,-0.232,-0.32693,0.07043,-0.31503,-0.09641
2417,-11.75102,48.76314,-12.42006,-2.53704,-1.28001,-0.39385,-26.77589,29.57223,-8.28575,7.03123,-7.58712,-3.42572,-3.81722,66.30997,-17.19879,0.22166,-0.44169,-0.52546,14.96395,47.24013,-17.67141,21.92113,-20.18146,0.92004,0.52783,-4.35215,-1.90363,-1.8389,-2.0034,-1.22244,2.29944,-4.21342,-2.68452,1.83265,-1.12046,-0.12284,0.2061,-0.43243,-0.4853,0.05998,-0.2211,-0.14468
2418,-10.15809,44.8022,-11.06782,-1.56082,-0.84904,-0.2858,-19.23269,18.11968,-5.05726,6.06212,-4.40467,-1.24095,-4.28106,65.62297,-16.63908,0.19274,-0.3515,-0.41594,21.85437,37.72832,-7.63166,16.21468,-13.1723,-0.71901,-1.29544,-3.21627,-0.64251,-3.0644,5.90731,0.87678,2.41492,-3.56243,-2.25739,1.13477,0.19996,2.17466,0.24224,-0.34227,-0.42109,-0.03619,0.01252,-0.025
2419,-9.17796,42.47387,-9.86607,1.12606,1.1196,-0.10942,-14.53897,12.99366,-1.57657,8.20969,4.69645,3.60782,-4.73211,64.41312,-15.98497,0.37354,-0.19497,0.02685,25.78037,42.13351,5.71996,9.68692,1.00772,3.5851,-3.73521,-1.15517,0.84649,-3.37916,7.16392,1.68648,2.04212,-2.4602,-1.34627,0.32671,0.77533,2.82876,0.3949,-0.24015,-0.30141,-0.16978,0.18233,0.16205
2420,-10.20742,40.02811,-8.39628,2.6555,3.66963,0.2177,-15.1589,11.63292,1.17804,10.76723,10.78622,6.9132,-5.19561,62.47682,-15.22655,0.60451,0.01556,0.57801,23.55742,46.23518,14.66822,13.74356,4.83512,1.43195,0.69365,-2.34344,-0.68504,-3.79214,0.73345,-1.07862,2.96225,-2.88599,-1.20197,0.27649,0.31528,0.59734,0.69714,-0.47333,-0.32671,-0.14497,0.15165,0.12086
2421,-12.05353,35.44336,-6.46089,0.51784,4.34486,0.41705,-17.85221,7.2399,2.78936,7.79804,8.19318,4.85783,-5.7736,59.54736,-14.28745,0.58641,0.03586,0.63168,14.34795,34.59395,14.74806,29.95667,2.09259,-6.41569,8.9325,-1.88673,-3.61865,-3.44659,-5.52116,-4.62886,4.99729,-2.49691,-1.76882,0.89423,-0.32579,-2.29056,0.97352,-0.49526,-0.44194,0.04808,-0.00764,-0.27886
2422,-11.96624,29.09631,-4.42276,-3.1722,2.70046,0.22722,-18.17108,0.60205,3.44804,0.50022,3.02164,0.28321,-6.42022,55.52383,-13.00004,0.30761,-0.18225,0.09702,3.98056,17.85057,9.75633,43.26525,2.88805,-9.50889,9.42361,-0.40436,-3.5137,-2.30854,-5.82981,-5.44484,5.14615,-1.12084,-2.05388,1.0061,-0.48048,-3.37065,0.87002,-0.15026,-0.48702,0.14085,-0.09463,-0.71989
2423,-9.905,23.28259,-2.69326,-3.56444,1.86149,-0.18161,-16.09726,0.0281,3.12092,1.44665,4.63707,0.30872,-6.99825,50.50501,-11.31055,0.14201,-0.30644,-0.30564,7.79112,20.26922,7.08281,40.58034,4.4865,-4.75088,0.67384,-2.02835,0.28201,-2.18747,-2.83734,-4.36407,2.58872,-1.15281,-1.26082,0.27175,-0.26301,-2.81616,0.44779,-0.06629,-0.30814,-4e-05,-0.03048,-0.73336
2424,-8.92083,18.44065,-0.87707,-0.53012,3.36621,-0.33752,-14.58988,3.72515,3.08772,14.01631,11.03673,5.88925,-7.56712,44.61262,-9.40541,0.25523,-0.15242,-0.10936,26.9692,35.33444,11.21291,24.53484,6.30924,-1.65887,-6.13957,-5.21272,3.12067,-4.08413,-1.57358,-4.37805,0.50314,-2.41904,-0.15928,-0.8046,0.03314,-2.36498,0.19471,-0.35634,-0.04374,-0.2949,0.12956,-0.36573
2425,-8.88157,13.65593,1.02977,1.61089,4.28196,-0.07443,-10.77918,1.95844,4.75698,23.52854,12.01421,9.79756,-8.12596,38.01122,-7.42966,0.42128,0.00093,0.27178,42.18866,34.41539,18.85906,8.38169,17.8797,-6.67621,-4.63771,-4.44834,1.95193,-6.89831,-2.30725,-5.8694,1.05319,-2.3576,-0.07017,-1.92113,0.18413,-2.69877,0.31928,-0.4969,0.00751,-0.58169,0.25855,-0.1638
2426,-7.39964,9.87554,1.90646,1.25245,2.90223,0.15285,-3.22191,-3.63059,6.5652,21.24647,6.42544,7.47144,-8.40816,31.00461,-5.45739,0.46348,-0.08008,0.34207,38.68616,17.47662,20.91532,9.01135,38.22663,-16.86303,2.05447,0.04095,-1.80252,-9.1051,-3.21681,-7.64411,3.29019,-0.56685,-1.23388,-2.51409,-0.01664,-3.43693,0.61499,-0.25421,-0.2339,-0.62638,0.21262,-0.44245
2427,-4.84302,8.87264,1.09484,1.06091,1.47356,-0.14154,2.98023,-4.18977,5.86834,17.19051,2.62825,2.4891,-8.12818,24.08586,-3.65453,0.46886,-0.25695,0.19,25.80393,7.26615,13.95568,34.54221,51.24431,-26.30218,9.72557,1.73541,-5.37248,-9.9661,-4.61737,-9.75369,5.59939,0.63304,-2.83369,-2.28216,-0.50089,-4.67779,0.85641,0.07122,-0.55161,-0.43787,0.02928,-0.98061
2428,-3.37766,10.48001,-0.71953,1.76948,1.63138,-0.65278,5.60195,-1.74321,4.06931,18.61813,3.34225,-0.07685,-7.23066,17.88316,-2.23173,0.45446,-0.33149,0.05384,20.01726,3.54414,7.41794,69.60091,48.75022,-30.29991,16.38815,-1.27822,-7.44089,-9.97382,-6.30129,-11.79135,7.31369,0.35539,-4.07096,-1.43079,-0.87244,-5.70941,1.00671,0.22802,-0.73481,-0.16803,-0.12329,-1.31419
2429,-4.5095,13.13758,-2.27153,1.41877,2.32503,-0.70161,6.35968,-3.51604,5.10001,19.14546,3.86837,0.77029,-6.05356,12.90394,-1.29615,0.35573,-0.28317,-0.02881,21.51442,-8.70608,11.94803,85.22539,40.71487,-28.28432,20.95153,-3.79203,-8.73601,-10.39698,-6.82828,-12.4957,8.3007,0.15342,-4.74563,-0.93896,-0.8922,-5.49261,1.09123,0.30569,-0.77772,-0.0448,-0.14831,-1.25278
2430,-7.33209,15.31873,-2.94774,-0.83257,2.13796,-0.1746,5.85524,-6.12307,8.52293,8.95006,3.06939,2.48464,-4.97061,9.21878,-0.7382,0.24033,-0.22608,-0.09481,13.1909,-20.62788,23.48771,71.69081,35.0377,-23.32896,21.78943,-1.94147,-9.90532,-11.49604,-6.53427,-12.28253,7.98575,0.94244,-4.71739,-1.65593,-0.7836,-4.88532,1.00858,0.41242,-0.71139,-0.22583,-0.09611,-1.07389
2431,-9.43396,15.3718,-2.70407,-3.42836,2.13144,-0.04401,4.47291,-2.53226,10.6258,-13.83669,7.98604,2.29137,-4.01982,6.44092,-0.33577,-1.03479,0.78877,-0.40632,-16.62751,-10.12654,29.94473,45.97596,27.94384,-21.12241,19.11544,1.38449,-10.41636,-12.18554,-6.72101,-12.58008,6.5338,1.45399,-4.06504,-2.72103,-0.81646,-5.14262,0.79002,0.39908,-0.57098,-0.46907,-0.05058,-1.02398
2432,-8.75459,12.50247,-2.00965,-3.49941,2.14105,-0.04547,7.19991,4.78552,10.76237,-26.53576,12.40429,0.85219,-2.99669,4.19807,0.0256,-1.05448,1.00897,-0.31866,-31.84421,11.59821,28.29309,27.75626,22.95325,-27.05942,16.10406,1.8456,-9.99202,-12.16466,-7.26867,-13.60438,5.49057,0.77122,-3.56938,-2.92692,-0.97085,-5.87397,0.72951,0.19723,-0.50537,-0.48795,-0.0404,-1.03382
2433,-6.24979,4.38643,-0.32138,-0.43547,1.98341,-0.35733,14.6051,-4.11817,14.36786,-19.06369,10.29346,-0.58656,-0.86489,-0.84439,0.12631,-1.04064,1.27608,-0.17527,-15.32126,2.39416,26.9185,24.42371,31.4825,-40.60319,15.86289,0.45399,-9.95008,-11.87468,-7.48061,-14.54047,5.91143,0.07565,-3.99534,-2.23261,-1.12491,-6.13405,0.93423,0.05653,-0.63116,-0.31391,-0.06568,-1.00496
2434,-1.63769,-0.29383,0.04201,3.46731,0.8485,-0.52009,21.95781,-13.32971,15.69776,-0.55063,-0.17982,-1.55054,-0.27121,-1.45656,0.27833,-1.07283,1.52682,-0.12324,15.7798,-24.67829,20.47558,33.01125,50.97084,-54.57943,18.43822,0.63733,-11.55312,-11.5063,-7.46962,-14.99154,7.14844,0.46579,-5.15804,-1.51508,-1.27554,-6.03506,1.1253,0.13566,-0.83791,-0.17256,-0.10523,-0.98768
2435,-0.18728,-2.24577,0.57249,5.94288,0.33794,-0.56078,23.15323,-29.42631,18.37431,12.26697,-8.7737,-1.92363,0.10214,-1.90709,0.34169,-1.11605,1.75207,-0.14474,31.11285,-62.35855,19.08439,45.34775,65.5996,-60.52227,20.34591,2.58979,-13.46552,-11.61839,-7.43236,-15.26726,7.7507,1.32682,-6.07457,-1.50427,-1.39614,-6.06796,1.05076,0.23783,-0.92195,-0.1841,-0.12102,-1.03374
2436,-1.08343,-2.5308,1.54465,6.67814,1.22249,-0.61377,24.19404,-45.2163,24.02714,12.63019,-9.46329,-2.04957,0.00224,-1.99692,0.3529,-1.13931,1.95242,-0.12648,31.59853,-87.66501,27.73899,53.77108,65.22854,-54.46288,18.70427,4.11247,-13.41839,-13.31964,-5.82391,-14.72337,7.17523,1.64091,-6.07593,-2.33918,-1.08051,-5.33529,0.80269,0.16668,-0.84632,-0.28906,-0.07682,-0.98624
2437,-0.95928,-3.32291,2.57928,6.8129,1.6324,-0.5455,30.72276,-55.04729,32.83296,4.66482,-6.30253,-2.44879,-0.29458,-1.8638,0.35075,-1.15607,2.10046,-0.02627,29.78896,-94.96575,44.16047,53.32499,52.65042,-41.53206,15.26822,4.68188,-11.79639,-16.09417,-1.73791,-12.54306,6.10667,1.51925,-5.37095,-3.45391,-0.0204,-3.03656,0.58612,0.05213,-0.68788,-0.39067,0.03336,-0.68895
2438,2.82476,-3.53586,-0.02911,7.8809,-0.10333,-0.24593,42.6686,-46.89827,38.26994,-3.35399,-4.73077,-3.06884,-0.2793,-1.48669,0.16705,-1.14535,2.1735,0.1041,33.82422,-78.55433,55.22551,43.23658,39.46494,-34.66827,14.10889,5.35372,-11.14231,-17.51209,1.10282,-10.91393,5.58126,1.47963,-4.75378,-3.70939,0.89386,-1.15725,0.51922,0.03075,-0.54351,-0.41457,0.12075,-0.40406
2439,9.38058,-2.09825,-7.85058,10.88527,-2.69314,0.0713,53.45187,-21.93992,34.61116,-4.20776,-4.72797,-3.00005,0.44304,-1.0108,-0.2847,-1.04888,2.20395,0.21132,44.01543,-45.2173,51.12582,31.52804,39.90103,-40.75843,15.85377,6.15779,-12.29015,-17.18322,-0.78934,-12.70425,5.98294,1.51067,-4.84483,-2.94608,0.49604,-1.85438,0.6268,0.03107,-0.52988,-0.36923,0.09661,-0.46691
2440,13.61248,-0.58768,-13.98384,15.32266,-3.41355,0.11485,55.52869,-4.56832,26.53649,3.83124,-2.40491,-1.23894,1.76319,-0.97739,-0.4309,-0.89176,2.28823,0.30733,55.74299,-21.99922,40.0253,28.36473,55.31702,-51.07735,16.76212,6.13466,-12.97583,-17.56926,-4.42303,-16.82357,6.56438,1.51143,-5.26916,-2.50448,-0.61807,-3.99714,0.79057,0.01342,-0.62445,-0.35521,0.03881,-0.73792
2441,11.02678,0.00274,-11.28102,19.59918,-1.36082,-0.14537,48.90056,-12.20616,23.53578,17.63559,3.17115,1.53589,2.89829,-1.25984,0.22607,-0.78687,2.49309,0.44714,67.73357,-28.05607,36.4355,30.4609,65.09683,-54.88988,14.56901,5.91798,-11.62383,-19.39517,-4.74173,-19.4405,6.57998,1.90561,-5.27348,-3.1323,-0.82757,-5.07328,0.86941,0.10068,-0.6864,-0.40514,0.0728,-0.83713
2442,5.86831,-0.84242,-2.68546,22.15063,1.21431,-0.43796,42.67872,-32.293,28.72787,31.41674,6.26312,2.8128,3.22582,-1.26413,1.05172,-0.77799,2.69896,0.59271,83.26226,-53.02531,41.8495,26.13046,54.09074,-53.56878,11.98503,7.16714,-10.10326,-19.75301,-1.36632,-17.96356,6.3499,2.81503,-4.97967,-3.81579,0.21327,-4.17171,0.86815,0.31907,-0.68591,-0.41318,0.17707,-0.62266
2443,6.77406,-3.40623,3.03046,23.08021,1.88758,-0.46849,43.78384,-39.4121,37.12841,39.60755,2.86699,1.92526,2.91785,-1.07426,1.21971,-0.7004,2.73191,0.66916,100.08686,-67.42973,48.40586,14.32586,39.1428,-55.7459,12.78312,8.9008,-11.14706,-16.48069,0.82398,-13.94816,6.48791,3.18399,-5.26663,-3.21849,0.81087,-2.63441,0.86815,0.42557,-0.73414,-0.25766,0.10458,-0.34797
2444,11.06032,-4.26332,1.17436,23.48715,0.70428,-0.17084,43.79245,-28.87548,36.87749,38.50849,-3.76551,0.64585,2.35284,-0.90132,0.82386,-0.42283,2.57659,0.68519,99.34005,-62.6616,44.09673,1.97342,44.17419,-63.589,16.58657,8.82933,-14.5061,-11.90813,-1.1606,-11.03733,6.88767,2.39483,-6.31373,-1.7965,-0.35829,-2.12785,0.88097,0.26843,-0.86603,-0.05852,-0.28284,-0.32847
2445,9.52373,-0.93503,-5.20523,23.36285,-1.89894,0.28328,35.32821,-20.37077,22.46448,27.88083,-10.36069,-0.90675,1.73794,-0.64497,0.37098,-0.09794,2.23128,0.61907,70.7299,-64.03959,23.43068,-7.13761,63.59283,-66.54949,19.11933,7.33516,-16.59199,-9.26652,-2.85013,-9.66547,6.98817,1.51277,-6.89954,-0.97766,-1.5846,-2.08764,0.84478,0.05601,-0.91789,-0.04549,-0.57789,-0.43697
2446,4.39195,2.29347,-8.45092,24.86436,-3.55516,0.37866,28.56849,-26.43466,9.62593,20.39514,-10.17917,-2.59518,1.48844,-0.32523,0.24298,0.23967,1.81446,0.61743,45.31844,-77.18097,5.57603,-7.82381,74.06261,-53.86115,16.60071,5.5534,-14.17492,-9.44347,0.26627,-9.01236,6.33861,1.28663,-6.05678,-1.10211,-0.73708,-1.39822,0.69636,-0.02633,-0.78106,-0.1835,-0.37264,-0.37315
2447,5.0481,1.60082,-5.62409,30.47004,-1.99978,-0.05355,31.08133,-34.25134,14.94406,28.89843,-0.51428,-2.33987,1.94492,-0.0939,0.56207,0.68246,1.49558,0.8027,52.16578,-74.35497,9.24613,2.97241,67.19921,-30.74354,8.65937,3.31841,-7.47647,-12.2115,5.14452,-10.52212,4.60805,1.1077,-4.27149,-1.88774,1.24161,-1.02433,0.3647,-0.07446,-0.56616,-0.30556,0.06488,-0.22252
2448,10.61568,0.49359,-3.60368,37.48296,0.79676,-0.52476,35.58549,-30.30173,32.33892,44.78407,9.20538,0.14686,2.57551,0.04514,0.97278,1.1268,1.16379,0.9146,74.0615,-48.64117,25.84831,12.25333,54.04142,-14.11984,-0.21256,0.64576,-0.84368,-14.58983,6.00616,-12.81462,2.46861,0.48342,-3.13876,-2.75412,2.21828,-1.76429,-0.04657,-0.16548,-0.46774,-0.35575,0.28827,-0.21946
2449,13.02655,2.48371,-6.67818,41.28356,2.07863,-0.77209,35.01808,-20.86719,43.94157,49.15986,10.65103,1.6719,2.53577,0.1031,1.03302,1.55141,0.60719,0.73464,79.22475,-27.96075,35.87132,3.04727,47.62068,-14.5596,-3.57186,-2.03794,0.1825,-12.54904,0.82826,-11.40138,1.39894,-0.34298,-3.99424,-2.63023,1.32589,-2.37756,-0.19278,-0.2105,-0.56464,-0.33417,0.23132,-0.3144
2450,11.94974,4.6646,-8.43961,41.61623,1.28731,-0.89576,29.99954,-13.92081,38.34624,41.4772,2.94219,-0.2331,1.92921,0.09394,0.7615,2.15552,-0.16205,0.42761,65.57658,-30.7419,25.89906,-16.5134,46.85578,-25.96348,-0.72978,-3.81036,-4.17419,-7.76078,-4.05724,-6.84419,1.56081,-0.88405,-5.74502,-1.43753,-0.00077,-1.58939,0.0737,-0.18327,-0.72732,-0.24029,0.12761,-0.28481
2451,12.91134,4.30395,-4.23608,42.88551,-0.07841,-1.02934,24.37765,-5.86472,22.23007,40.48293,-4.96951,-3.23046,1.5234,0.17389,0.48228,2.99094,-0.96339,0.26276,58.0397,-35.36656,3.55691,-19.8023,42.29637,-30.76828,1.87753,-3.58237,-6.24358,-5.05593,0.78219,-4.70516,1.48302,-0.88443,-5.27673,-0.34884,1.20727,-0.24329,0.37072,-0.15113,-0.69334,-0.09716,0.31923,-0.11089
2452,16.86017,4.42602,0.80538,48.11029,0.20051,-1.3387,21.85737,3.44786,15.76024,55.01349,-0.21455,-3.22724,1.73751,0.47904,0.57433,3.79695,-1.68699,0.28802,71.29897,-16.47733,-3.59559,-4.22676,33.33524,-20.39651,0.16403,-2.62714,-2.33212,-5.15339,10.61578,-6.31401,0.2401,-0.74283,-2.22638,-0.08163,4.05529,-0.14269,0.24114,-0.16598,-0.36403,0.01622,0.65822,-0.03762
2453,18.8714,7.80665,1.47939,56.43117,2.8663,-1.77729,22.34375,5.65901,23.56122,73.69656,16.62333,0.34069,2.23059,0.788,1.18743,4.49382,-2.31466,0.47549,91.87605,14.40166,12.46066,1.24369,26.56881,-4.92701,-2.51167,-2.66896,1.53654,-6.01574,10.73162,-6.79867,-1.20234,-0.83921,0.11927,-0.56666,3.9733,-1.05496,-0.21109,-0.22938,0.04153,-0.04853,0.54993,-0.14716
2454,14.5063,10.73823,-0.55908,63.75188,5.59777,-2.042,22.09503,-0.79786,25.24009,78.46764,30.38339,4.07378,2.26753,0.6424,1.81426,5.29861,-2.97275,0.69703,92.89889,30.96415,22.96499,-16.56401,20.99044,5.83802,-2.43903,-3.56718,0.17633,-5.59914,-0.74435,-2.3583,-1.58814,-0.92429,-0.23567,-1.09605,-0.14884,-0.95984,-0.57675,-0.24557,0.25595,-0.25924,-0.14522,-0.15842
2455,6.28222,9.13835,-2.35055,67.48262,5.87455,-2.18154,23.38092,-11.47399,16.01944,68.312,31.63897,4.11384,1.62408,0.0274,1.7525,6.37359,-3.80786,0.7017,76.35511,23.10106,14.30913,-33.97355,8.75559,11.25497,-1.34105,-6.32157,-6.01315,-1.42373,-10.16984,4.98947,-1.76082,-0.7383,-3.10172,-0.44016,-3.98715,0.91395,-0.76204,-0.15212,0.01798,-0.28611,-0.80564,0.1051
2456,2.5298,6.59771,-1.84645,69.84827,3.59698,-2.4239,27.9826,-22.41081,23.68317,61.4365,24.62109,0.32908,0.88197,-0.45438,1.05924,7.64126,-4.72769,0.40332,69.95007,0.71777,19.45802,-29.03279,-3.75281,6.76822,-1.58273,-10.76817,-14.18998,3.61857,-8.80863,7.55506,-2.53667,-0.1576,-7.15426,0.84176,-3.91153,2.12906,-0.78356,0.02597,-0.67878,-0.0745,-0.82589,0.27714
2457,7.24587,8.98797,3.82428,72.66721,0.6689,-2.62664,23.55491,-25.31193,57.85528,65.05468,18.91523,-3.12955,0.6743,-0.358,0.63405,8.86213,-5.49833,0.00647,69.80043,-9.11548,59.01875,-15.26393,6.33057,-11.00428,-2.61446,-13.31893,-19.57356,3.81557,-1.10367,1.70448,-2.70396,0.5136,-10.31622,1.1123,-0.91245,0.8004,-0.57651,0.14281,-1.37465,0.0807,-0.31481,0.04867
2458,12.80864,14.10645,12.16119,77.62495,0.07892,-2.64977,3.03571,-15.75992,85.60986,75.91716,20.29401,-2.77082,0.81763,-0.12733,0.77404,10.16956,-6.01213,-0.09962,59.62889,9.23814,95.58459,-20.51305,36.35925,-30.10015,-5.11036,-12.65,-17.24618,0.17406,4.95872,-6.0845,-2.48803,0.74233,-10.60485,0.80868,1.97838,-1.2077,-0.43417,0.1062,-1.47681,0.15048,0.24823,-0.26949
2459,6.89807,14.80724,9.87208,85.03776,1.73544,-2.48537,-14.06914,-3.64214,68.6654,87.6392,21.91191,-0.22558,0.54868,-0.19852,0.12352,11.74861,-6.4694,0.11554,48.78091,29.86005,71.75604,-51.64839,49.36849,-33.40942,-8.14754,-10.17993,-7.1595,-3.50286,4.21916,-7.78791,-2.41539,0.48721,-6.51005,0.50936,2.29383,-1.46652,-0.38457,-0.00093,-0.69999,0.14105,0.44382,-0.31542
2460,-9.17334,10.91936,-9.08272,91.75282,2.91189,-2.28894,-1.779,-3.56087,16.33556,91.70642,16.86373,0.6112,-0.27127,-0.01108,-2.2526,13.25764,-7.08383,0.2747,57.50505,19.83572,-6.42513,-87.7702,35.73711,-17.03428,-8.22692,-7.56213,3.44716,-6.34163,-3.25602,-2.13523,-1.63763,-0.11395,-0.04837,-0.47725,-0.22615,0.23204,-0.1055,-0.12414,0.33225,-0.09287,0.13012,-0.08433
2461,-20.41496,8.77183,-27.64963,95.6557,4.17768,-2.54297,35.1761,-14.93259,-23.01066,88.96578,15.9363,-0.48855,-1.03752,1.02671,-4.75548,14.28724,-7.62095,0.25916,87.21471,-4.83941,-68.33911,-93.06841,24.88911,10.19208,-7.62833,-6.5205,7.25095,-6.43395,-10.68417,5.94695,-1.16142,-0.41096,2.7937,-1.19803,-2.90425,2.58564,0.10065,-0.20388,0.49455,-0.31619,-0.31689,0.27804
2462,-24.43991,12.40045,-32.88802,96.99188,6.0753,-3.01148,50.27399,-13.03185,-35.1972,87.28637,24.40818,-0.49899,-2.12768,2.57187,-5.59981,14.78039,-7.74714,0.22437,101.34745,2.75768,-80.29808,-47.59386,26.96796,37.72266,-9.47387,-5.56392,6.90684,-1.88474,-10.99706,9.80123,-1.42283,0.05446,-0.1335,0.00227,-2.91755,3.58486,-0.05733,-0.142,-0.26884,-0.16383,-0.39653,0.48042
2463,-36.96031,18.38705,-46.47831,97.6701,5.90873,-2.75882,7.00601,22.9851,-72.57032,92.13689,27.59797,1.19553,-4.65908,3.3978,-6.39111,14.97777,-7.45735,0.26374,67.73256,55.58145,-101.255,15.41496,29.49274,55.48557,-11.05353,-2.43244,8.77278,4.52753,-5.63993,8.63148,-1.14862,0.58775,-4.20462,2.04279,-0.84796,2.59261,-0.32005,0.03705,-0.89842,0.13212,-0.1496,0.38929
2464,-58.95942,24.58467,-81.42753,100.40898,3.28641,-1.87018,-64.14982,76.52471,-151.62566,101.66134,20.00386,1.80322,-7.64792,2.70134,-8.61252,15.19579,-6.92432,0.40124,9.67973,117.5503,-167.73395,35.36831,38.53122,55.01464,-9.00419,1.23939,10.33239,8.72335,-2.31853,9.37821,-0.1827,0.59951,-5.53301,2.89837,0.49059,1.8095,-0.39542,0.16502,-0.82264,0.18535,0.04948,0.3331
2465,-76.78491,33.88095,-102.43427,104.44401,1.53875,-1.30325,-115.01482,110.70605,-197.53304,105.7789,14.43065,0.26767,-9.01584,1.67948,-9.94916,15.44953,-6.25687,0.63897,-41.31855,148.74738,-213.42966,0.95552,54.3149,39.15418,-4.11261,2.5182,6.26402,4.85444,-5.82703,14.27182,0.66949,0.32692,-4.67142,1.33868,-0.5631,2.81507,-0.25905,0.1475,-0.35445,0.00855,-0.00286,0.51355
2466,-85.82413,42.41415,-82.97265,105.0438,2.9752,-1.34574,-139.19768,113.00741,-169.78976,98.07412,19.15235,-0.62966,-8.62727,2.05259,-8.34099,15.26117,-5.41128,0.9186,-83.94456,150.29648,-191.57056,-38.82917,44.52818,24.58762,-0.84766,0.97964,-0.12047,-6.62155,-12.04949,16.61544,0.58804,0.36125,-2.63157,-1.57847,-2.86817,4.56717,-0.09878,0.11721,0.26875,-0.14505,-0.23526,0.66278
2467,-82.51112,41.45181,-52.25658,103.11546,4.38069,-0.9489,-134.45569,100.336,-131.03474,95.3218,20.50769,1.05483,-7.16675,3.24711,-5.4565,14.36549,-4.46337,1.15637,-87.44498,136.32083,-161.27632,-44.01853,1.21414,21.60723,-1.70525,-1.20951,-2.21285,-10.97689,-13.24558,11.28489,-0.21157,0.76289,-0.22111,-1.33869,-3.90227,5.36916,-0.04901,0.17085,0.89785,0.0685,-0.43189,0.57233
2468,-66.47421,32.59785,-51.99154,103.2584,3.61686,0.17716,-85.77876,86.53348,-138.46442,109.73187,9.21514,3.00454,-5.63031,4.02222,-4.84815,12.99878,-3.52242,1.33277,-17.19892,106.07388,-181.40575,-30.97074,-38.02663,12.13978,-3.55168,-1.51136,0.63006,-0.73961,-5.07822,-4.58587,-0.33061,0.6898,0.67716,2.34032,-2.52745,3.10727,-0.06025,0.15888,0.95647,0.47517,-0.43185,0.28065
2469,-47.39452,23.04124,-69.37635,105.07103,2.65983,0.973,-13.04132,55.76765,-136.73039,126.63595,-1.65372,2.19893,-4.81533,4.68249,-6.49636,11.45735,-2.77433,1.42433,85.851,48.95178,-183.66913,-32.859,-31.88841,-6.81949,-3.13641,0.52496,3.35266,18.69873,6.93924,-17.37712,0.10148,0.24423,-0.81929,5.10892,0.32861,-1.26129,-0.15072,0.11228,0.18317,0.43287,-0.1902,-0.13818
2470,-34.43415,15.95494,-62.39152,105.62409,4.06893,0.65171,35.55508,2.70828,-69.14256,130.59441,3.05463,-0.78351,-4.41599,4.97401,-6.78054,10.00592,-2.29143,1.47511,147.63229,-17.35675,-101.64697,-42.06845,34.87504,10.37861,-0.97476,3.00631,2.9347,28.18974,5.70349,3.87101,-0.0198,0.32579,-2.74477,6.49713,1.09546,0.08961,-0.32752,0.18279,-0.73983,0.37646,0.13358,-0.03285
2471,-33.75744,14.89873,-34.67241,103.37952,7.16282,-0.12564,22.6473,-17.73365,-14.16767,121.41795,14.6433,-2.95838,-4.27552,4.43663,-4.6316,8.75849,-1.84451,1.54915,125.83021,-30.55514,-30.69895,-34.24508,97.8791,49.49921,1.77833,4.02655,3.57729,4.33925,-3.68417,34.15738,0.13326,-0.12893,-2.20164,3.09692,-0.7441,5.94984,-0.27837,0.16127,-0.98674,0.27911,0.21201,0.69159
2472,-31.40685,15.02124,-13.58483,100.45064,8.62686,-0.05387,-38.91624,21.92742,-36.72847,111.56966,13.39823,-2.67963,-3.67183,3.40006,-2.04603,7.73481,-1.23691,1.65574,48.96779,19.71139,-44.69613,-18.15722,113.03745,84.01637,2.75787,3.9656,9.57117,-25.8111,-12.78953,49.24526,0.73704,-1.64072,1.01845,-6.08705,-3.00691,10.06534,0.01809,-0.00166,-0.4639,-0.83476,0.20686,1.10073
2473,-24.26839,13.89185,-4.18735,99.24424,8.14622,0.7638,-102.75218,73.99364,-77.86898,107.2715,3.05088,-1.15768,-3.13034,2.96048,-1.09099,6.88657,-0.47456,1.80182,-27.17552,82.52042,-84.84048,5.54224,64.79377,93.94248,0.77529,4.53335,17.77461,-16.54666,-17.77943,46.6293,0.69581,-2.67853,4.41395,-6.29904,-4.33825,12.29385,0.1627,-0.08545,0.34913,-0.98458,-0.03361,1.39931
2474,-20.81495,15.26701,1.71055,98.32339,7.62202,1.27044,-122.53467,86.74755,-65.80902,102.57769,-0.1042,-0.07729,-2.94288,2.7656,-0.92152,5.99008,0.28275,1.92557,-58.95528,108.64484,-78.076,23.74939,-35.38091,52.97955,-1.4385,5.83352,22.05172,12.02435,-11.20709,16.12786,-0.09112,-2.46206,6.30658,3.28704,-3.52541,8.35612,0.05202,-0.01684,1.10004,0.54823,-0.48299,1.32979
2475,-7.78014,11.53619,11.5915,96.75785,7.78095,1.23474,-81.15235,55.69484,-8.16648,97.00539,5.32132,0.63384,-1.07122,1.21967,0.41905,4.93999,1.0279,2.01326,-22.40236,76.22952,-19.50339,11.85415,-91.58006,15.54302,-0.4831,6.56677,21.15791,20.02678,-4.49854,-4.66093,-0.6593,-2.02136,7.18079,7.0945,-2.41489,4.15105,-0.02885,0.084,1.65327,1.22683,-0.67481,1.15044
2476,17.83343,-1.49874,20.1409,96.27916,8.0216,1.26415,-2.02723,12.66864,34.30339,97.16826,9.64347,1.58766,2.35477,-1.42219,2.37028,3.91354,1.96955,2.18908,66.71841,8.53998,30.81782,-6.75994,-62.75586,11.47739,2.86739,6.4687,16.67693,14.25147,-3.00318,1.20132,-0.51494,-1.67298,6.47063,4.76935,-1.88735,4.35172,-0.00502,0.20675,1.50317,0.7379,-0.44703,1.16673
2477,36.17167,-15.07948,17.7804,97.09174,7.76534,1.60677,57.42167,-11.74088,26.56547,103.53345,9.06275,2.22288,4.39046,-3.1322,3.06356,3.0927,3.12243,2.50779,143.51683,-42.83145,31.93354,-9.99215,14.65781,20.8449,5.73035,5.15837,6.57146,6.72814,-4.83606,18.20749,0.39687,-0.77804,1.45717,2.70217,-2.11878,7.26748,0.04328,0.20198,0.01146,0.40806,-0.2,1.25529
2478,34.90481,-18.34795,9.94864,96.8019,6.68542,2.03393,55.77228,-14.59723,0.06479,108.56044,5.99363,1.8796,3.58735,-2.62607,2.33682,2.42709,4.20728,2.81274,151.91583,-53.44898,15.20635,-6.48952,76.88959,17.36889,6.28675,2.64301,-6.95046,4.04026,-6.81266,26.92277,1.35434,0.6166,-6.26101,2.59954,-2.39587,8.90964,-0.04247,-0.04186,-1.97211,0.48385,-0.12481,1.15253
2479,19.14111,-10.16953,4.82553,95.1466,4.49279,2.48232,17.86747,-9.95745,-6.14787,108.83659,1.2192,1.20179,1.28232,-0.80306,1.17435,1.8731,5.04986,2.93466,112.15587,-41.11715,12.39942,-10.69703,88.48103,5.14425,5.35754,0.56187,-13.15287,2.83092,-6.83562,23.2925,1.71401,0.76329,-9.88898,1.95278,-2.00348,7.28219,-0.24067,-0.31213,-2.43535,0.34739,-0.0812,0.68923
2480,2.4025,-1.03879,1.05669,94.62197,2.31252,2.74982,-6.42623,-4.96329,-1.58308,106.99804,-3.17519,0.78767,-0.35348,0.39968,0.21482,1.49956,5.76492,2.90064,79.15293,-26.35631,5.97693,-13.92973,66.54062,2.45034,6.49268,-0.64204,-7.34588,-1.94563,-5.1408,15.89481,1.63664,-1.68393,-5.24675,-0.16098,-1.24763,4.07434,-0.08051,-0.53132,-0.68932,-0.08048,-0.02107,0.13434
2481,-6.19061,2.32428,-2.01587,95.93882,1.46794,2.553,-5.77294,0.21803,-4.72404,104.06364,-3.76355,0.31278,-0.5951,0.45967,-0.11737,1.24279,6.43636,2.83432,69.56555,-14.8271,-14.62718,2.64974,42.96565,12.77884,8.06226,-0.4096,3.69674,-4.97126,-3.34561,9.91306,0.64235,-3.45958,3.86378,-1.07171,-0.69794,1.53853,0.26115,-0.35955,1.7747,-0.22425,-0.0254,-0.1099
2482,-7.10978,1.04438,-3.9804,96.84629,1.67077,2.10389,1.43412,7.3892,-18.00645,99.50868,-1.6332,-0.0865,-0.09207,-0.00731,0.00476,1.00488,6.99276,2.82696,69.31482,-5.77035,-38.16859,32.3924,32.568,29.5827,5.8744,1.44211,11.68855,-3.00868,-2.59056,6.83896,-0.53693,-2.42282,9.57876,-0.00333,-0.61896,1.1996,0.35827,0.22778,2.93512,0.0472,-0.12816,0.13551
2483,-4.11601,-1.55441,-4.6341,95.2681,0.97036,2.08893,-1.70943,14.88298,-28.65677,94.0804,-3.64675,0.40224,0.53187,-0.55475,0.03093,0.85671,7.29328,2.85345,63.36118,-2.1637,-46.9236,46.94424,37.08475,41.88466,0.97561,2.74716,13.50856,-1.04534,-2.50668,7.56588,-0.69284,-1.05011,9.02322,0.97295,-0.88506,2.68009,0.28943,0.45393,2.35298,0.29812,-0.21445,0.57272
2484,0.42433,-2.77237,-3.12357,92.54876,-1.61715,2.6131,-10.47922,14.95621,-19.80195,90.91314,-10.94529,1.65601,0.99597,-0.90628,-0.19129,0.87985,7.21259,2.81061,55.99976,-9.49003,-28.52505,37.02877,42.9559,42.06812,-1.25223,2.88524,12.14712,-0.52041,-2.15768,9.55418,-0.08001,-1.41986,5.97885,1.32509,-0.93381,3.7208,0.28218,0.13838,1.12035,0.3417,-0.17624,0.70531
2485,2.81769,-2.18067,-1.38308,91.63837,-4.04074,2.77547,-5.37661,4.8331,1.40995,93.0833,-13.87357,2.53585,0.88158,-0.75867,-0.50437,1.0013,6.73454,2.67522,66.52742,-25.3256,1.06737,21.4507,27.65366,33.26842,2.77443,4.18432,11.71077,1.81684,-0.95895,8.12198,0.47484,-2.93141,3.89771,2.00938,-0.37433,2.94498,0.27738,-0.14655,0.0938,0.36664,-0.0456,0.49432
2486,0.14946,-1.74165,-2.4834,92.68386,-4.36062,2.06552,16.86737,-6.47237,5.91396,98.06593,-7.41246,2.66211,0.08777,-0.20782,-0.71022,1.05799,5.96663,2.51586,94.92772,-40.11855,6.26137,10.94388,-0.57145,23.74547,10.28521,7.37195,11.72375,3.23731,0.35695,4.1638,0.60376,-3.92642,2.4885,2.13532,0.25982,1.5863,0.11268,-0.18939,-0.59793,0.37424,0.06837,0.31874
2487,-4.24625,-3.11601,-5.52007,93.51428,-3.45046,1.05667,36.24158,-11.2157,-13.74845,101.08809,2.31063,2.83916,-0.56,0.10668,-0.64741,0.93702,5.10516,2.39556,117.29585,-45.84338,-17.88677,0.6038,-6.50797,18.09417,15.14932,9.34181,9.16321,0.59931,0.0194,3.55223,0.50922,-3.68683,0.60823,1.04872,0.09478,1.50113,-0.0969,-0.24157,-0.97655,0.27534,0.06635,0.30557
2488,-5.86356,-5.31618,-7.37457,92.78635,-3.08067,0.36381,36.91122,-11.57027,-30.87193,101.42888,9.30723,3.51517,-0.40925,-0.25612,-0.46164,0.6857,4.26276,2.29283,118.67596,-39.58895,-37.30854,-7.81253,13.85774,13.87963,13.97387,6.85432,3.80878,-2.95214,-1.54236,5.92585,0.49883,-2.81661,-1.15581,-0.17061,-0.73406,2.26125,-0.15336,-0.3724,-0.91904,0.08332,-0.04028,0.25834
2489,-5.84628,-5.65269,-6.88543,91.18217,-3.83281,-0.03904,21.44943,-9.7316,-25.66088,101.77672,12.94991,4.1558,5e-05,-0.85191,-0.41409,0.49962,3.32494,2.11869,105.04379,-22.5405,-30.44044,-6.81103,32.23879,7.99919,7.34431,1.20741,-1.19604,-4.91214,-2.4112,6.40193,0.43536,-1.65355,-1.60616,-0.87468,-1.42773,2.60239,-0.10457,-0.27808,-0.39486,-0.12035,-0.17534,0.21382
2490,-6.63103,-4.52599,-5.91763,90.10443,-4.80801,-0.52273,5.09699,-5.56973,-14.22441,103.55878,15.78968,4.30678,0.03057,-1.05424,-0.49362,0.49115,2.1986,1.84546,91.24246,-2.05067,-19.01089,2.98049,40.75154,4.04106,-1.23031,-3.6311,-3.22188,-5.30577,-2.88677,6.0825,0.28372,-0.62531,-1.03528,-1.05748,-1.54944,2.48769,-0.03517,0.05782,0.25766,-0.20551,-0.2343,0.2758
2491,-7.84759,-5.32423,-6.86548,89.44207,-5.2106,-1.17715,0.65699,-3.57538,-19.88188,103.29263,19.65435,4.00647,-0.13985,-0.91119,-0.66832,0.53694,1.0404,1.54144,82.9651,8.1188,-30.20191,11.9142,50.19449,9.77615,-7.36302,-4.75736,-1.58031,-4.12335,-4.36727,8.94054,0.26315,-0.35264,-0.15792,-0.99839,-1.24142,2.39884,0.06224,0.30638,0.73337,-0.22171,-0.15529,0.33348
2492,-9.75563,-7.43139,-8.85567,88.42746,-5.24112,-1.79165,4.69883,-7.49778,-33.61376,99.71527,24.91381,3.49655,-0.39365,-0.71793,-1.00298,0.53656,0.06598,1.29965,77.19173,4.1689,-48.81426,12.82417,54.1736,23.19746,-8.53201,-2.52892,1.32284,-1.74225,-6.30268,13.35577,0.43038,-0.67321,0.23844,-0.79321,-0.98312,2.51849,0.14525,0.29762,0.79931,-0.21038,-0.03661,0.30579
2493,-13.04751,-5.96496,-8.42241,87.08057,-5.39204,-2.25061,6.91401,-12.40875,-28.13292,98.12673,31.20932,3.11509,-0.96903,-0.43378,-1.30602,0.5767,-0.7043,1.13053,77.61073,-0.33809,-39.15368,8.24807,42.82677,25.865,-4.24646,-0.40072,1.88454,-1.07233,-6.30966,12.14379,0.74833,-1.47703,-0.34805,-0.66371,-1.04053,2.31091,0.13233,-0.00479,0.35921,-0.13259,-0.01789,0.20049
2494,-15.88722,0.53458,-4.46529,85.61046,-6.07661,-2.49627,4.56623,-10.82148,1.37953,100.95029,35.47238,2.95191,-1.6663,0.04372,-1.28318,0.73118,-1.32327,0.97149,86.88779,5.62304,0.44455,7.77298,31.20313,5.2542,3.12725,-0.32352,0.25139,-2.88968,-2.87279,2.00396,1.12885,-2.60706,-1.04152,-0.22378,-0.94426,1.26036,0.06514,-0.46111,-0.15682,0.0575,-0.08456,0.07014
2495,-15.87445,6.55319,-0.53173,84.04987,-7.42184,-2.36374,-0.95854,-3.12415,28.9941,103.34156,33.0871,2.81032,-1.81873,0.37027,-1.08687,0.92141,-1.70386,0.82389,92.20905,15.3103,32.6149,11.70761,33.96052,-18.31149,7.87182,0.51894,0.18908,-6.18278,0.89297,-8.38494,1.24531,-2.8873,-0.64907,0.01474,-0.78218,0.35797,0.07049,-0.61972,-0.17856,0.15585,-0.1792,0.0654
2496,-13.51561,6.26419,-0.18844,82.38688,-8.97091,-1.79748,-8.98956,2.90861,30.03141,101.10838,23.01859,2.70062,-1.22833,0.13164,-1.04077,1.03445,-1.77825,0.73892,81.48844,14.62163,28.23265,10.40913,36.92621,-15.92644,7.08641,3.94744,2.87972,-10.13058,0.33883,-8.6642,0.98464,-1.85862,0.67858,-1.39105,-1.35251,0.64251,0.16555,-0.29818,0.24942,-0.13098,-0.302,0.18341
2497,-11.67004,1.96191,-1.99538,80.51357,-9.97186,-1.10444,-16.40591,3.15987,11.44877,95.95238,10.88794,2.78824,-0.54863,-0.35005,-1.0083,1.10379,-1.71869,0.68878,62.72596,2.61994,1.14236,6.21928,26.88017,5.844,4.20256,6.74301,5.07415,-10.11212,-2.20834,-2.12367,0.63592,-0.54191,1.70396,-2.52558,-1.61513,0.89785,0.1907,0.19548,0.53324,-0.42509,-0.27062,0.18772
2498,-11.02887,0.44305,-2.34285,78.44993,-9.63278,-0.81344,-14.49771,0.45361,-1.8201,91.48848,6.12106,2.82758,-0.30119,-0.42703,-0.71205,1.31913,-1.76798,0.60692,55.26155,-9.12358,-16.18672,8.21283,16.47345,18.85843,3.26987,5.34612,4.05944,-5.18624,-2.43937,2.48861,0.50117,-0.07107,1.56573,-1.58414,-0.65382,0.46784,0.04966,0.46509,0.32966,-0.30822,-0.05164,0.09994
2499,-8.68962,2.49508,-0.74531,76.17086,-8.44026,-0.98067,4.68146,-4.69237,-1.31402,88.52067,10.11916,2.52597,-0.14746,-0.20441,-0.23654,1.81844,-2.03706,0.45163,69.39204,-19.99352,-15.21914,17.01117,18.82895,13.53365,3.85307,0.74604,0.83501,-1.11765,-1.40449,3.17689,0.60128,-0.65646,0.40543,-0.13799,0.21913,0.22583,-0.11747,0.3492,-0.10985,0.00816,0.10628,0.08189
2500,-3.80791,4.05112,0.96535,73.82018,-7.57872,-1.14734,32.96102,-12.84424,3.40238,87.0822,14.82468,2.48633,0.27876,-0.1684,0.22452,2.55456,-2.44581,0.25046,96.6177,-35.52412,-8.13074,22.76698,29.4266,3.65154,3.34454,-2.03335,-1.23638,-1.21929,-1.71783,2.81996,0.64792,-1.43852,-0.80851,0.50379,-0.05067,0.63344,-0.18611,0.07826,-0.37336,0.24365,0.09565,0.14659
2501,-0.68238,4.23619,1.67322,71.81297,-7.07193,-1.02287,47.41597,-17.45012,4.55245,87.1801,14.19448,3.38051,0.64619,-0.25337,0.57527,3.31888,-2.80029,0.10316,113.21079,-48.03551,-5.21179,13.96433,38.30088,0.99796,1.19932,-0.56205,-0.73807,-4.04044,-3.35596,2.95402,0.45737,-1.60074,-1.28085,0.34261,-1.06094,1.25265,-0.17389,-0.0807,-0.34447,0.28194,-0.04271,0.23679
2502,-2.7152,5.36444,1.49235,70.54089,-6.2575,-0.75406,35.74646,-11.04317,4.06386,87.14162,9.932,4.55222,0.54915,-0.1551,0.68932,3.8778,-2.98892,0.07085,100.96882,-45.17413,-8.04108,-1.65015,41.65653,3.07562,-0.9024,2.04899,0.51921,-5.88092,-4.12872,2.57674,0.18565,-1.18673,-1.08884,-0.12617,-1.74773,1.4076,-0.11605,-0.11633,-0.1952,0.13116,-0.22784,0.28708
2503,-6.22493,8.30964,1.3367,70.57688,-5.0421,-0.68012,13.79788,3.69781,9.15778,87.54966,7.00217,4.70935,0.2496,0.072,0.5779,4.18476,-3.084,0.09482,75.67117,-27.92345,-8.3985,-1.16307,39.13115,4.25849,-1.37512,2.3657,0.77816,-4.16599,-2.61101,1.13368,0.14916,-0.86972,-0.74639,-0.15683,-1.40316,1.11345,-0.01185,-0.19412,-0.10376,-0.03183,-0.3238,0.27232
2504,-5.89775,11.15686,1.69842,71.44946,-4.78721,-0.82133,6.07921,15.17193,20.12034,88.92484,5.89774,3.46334,0.23489,0.17076,0.41832,4.40566,-3.32475,0.01477,68.47641,-12.43965,0.97633,16.52625,27.91299,4.99234,0.00708,1.33471,0.66896,-0.60402,-0.26491,-0.22093,0.50889,-1.01606,-0.30437,0.40448,-0.52779,0.98155,0.13381,-0.36195,-0.05783,-0.05148,-0.25495,0.21789
2505,-3.44987,10.50651,1.57629,71.77143,-6.39133,-0.90496,15.6072,11.28791,23.35367,89.16553,5.01668,2.01918,0.43452,-0.06143,0.19978,4.87295,-3.88871,-0.22254,83.41858,-15.18208,10.00573,25.08407,9.45172,8.10372,1.63667,2.04708,1.40542,0.48291,0.22862,-0.57319,0.92403,-1.05622,0.3696,0.59979,-0.21243,0.88493,0.22435,-0.36396,0.04395,-0.04223,-0.08492,0.05791
2506,-3.45694,5.26473,0.25919,69.88216,-7.7963,-0.963,28.8721,-9.17261,10.64842,83.93021,6.39762,1.51737,0.48378,-0.62074,-0.12244,5.83828,-4.67742,-0.46711,96.71927,-35.90082,5.35625,14.54537,-1.26149,12.87551,1.68945,5.03403,2.9258,-2.45569,-1.50077,-0.50324,1.08192,-0.53044,1.12284,-0.26301,-0.56484,0.05638,0.18266,-0.02948,0.21936,-0.1683,0.0788,-0.27194
2507,-4.62285,1.42517,-0.68428,65.11243,-7.2189,-1.2176,38.28421,-25.32377,-0.95893,70.47463,9.96275,1.31133,0.43484,-1.01106,-0.17399,7.14234,-5.53928,-0.63808,91.27756,-51.35704,-3.07427,6.08418,7.97525,14.84177,0.1892,7.5824,4.02589,-6.19633,-3.08842,-0.77616,1.03834,0.16528,1.55453,-1.25637,-0.73594,-1.09756,0.04582,0.39682,0.3465,-0.29422,0.15949,-0.51954
2508,-3.28753,4.59183,-0.07329,60.39413,-5.87077,-1.65676,42.60218,-18.01901,3.54584,56.60155,12.22983,0.66826,0.52411,-0.70142,0.29924,8.39684,-6.4765,-0.83292,76.0451,-42.83437,-0.41883,13.81127,24.47004,11.3479,-1.98157,6.7758,3.31359,-7.09696,-2.69304,-1.32509,0.56272,0.46156,1.06322,-1.2698,-0.38922,-1.36921,-0.13621,0.56091,0.26167,-0.2192,0.12401,-0.39327
2509,0.096,9.20348,0.84006,59.25716,-5.59107,-2.09582,41.20667,-2.85343,12.33274,53.31269,11.47083,0.06857,0.6957,-0.04176,0.78555,9.37279,-7.50089,-1.12081,69.28765,-29.52968,7.1394,24.55404,26.63897,4.99649,-3.79143,3.04751,1.01549,-5.58724,-0.92212,-2.17334,-0.47075,0.1828,-0.27009,-0.72034,-0.00168,-0.8555,-0.30161,0.3873,-0.00569,-0.03899,0.02476,-0.07514
2510,4.16804,6.34663,1.20544,60.94147,-6.10742,-2.52091,38.61922,-5.33375,11.8033,60.30101,10.20152,-0.34847,0.9218,0.05339,0.79361,10.09074,-8.4703,-1.409,78.97528,-35.19014,8.54817,21.35496,16.69264,-0.92001,-3.2032,-0.07126,-0.92624,-4.33211,0.14041,-2.81173,-1.15971,-0.53173,-1.30421,-0.43126,-0.04516,-0.43495,-0.35774,0.06814,-0.23216,0.03532,-0.05522,0.08123
2511,8.09397,-2.8396,1.47438,61.42648,-6.41161,-2.99457,40.18001,-22.6902,5.20399,67.394,10.776,-1.2596,1.19532,-0.59267,0.52459,10.64277,-9.26623,-1.59452,96.75423,-50.8665,3.38756,9.13404,14.6653,-5.77312,0.85471,0.60203,-0.95527,-3.95996,-0.95113,-1.79494,-0.45139,-1.10156,-0.9962,-0.27232,-0.61144,-0.09564,-0.25459,-0.12228,-0.23362,0.01649,-0.12354,0.08991
2512,10.0843,-7.92773,1.6174,59.35086,-6.5083,-3.36805,43.85846,-29.25133,2.42025,68.3649,12.08348,-2.18748,1.3054,-1.10264,0.43371,11.1099,-9.92384,-1.69325,106.51823,-51.09717,-2.07938,7.82262,21.79606,-8.40619,5.14108,4.95702,0.4995,-3.03871,-2.683,0.3962,1.04743,-0.79913,0.2551,0.11861,-1.17139,0.48217,-0.07653,-0.06826,-0.05793,0.02747,-0.18575,0.14306
2513,7.96797,-3.15341,0.9287,57.73097,-6.28965,-3.54209,40.06688,-12.02057,5.27498,65.98153,14.9478,-1.63116,1.0896,-0.87158,0.56631,11.59781,-10.45965,-1.74247,94.70969,-24.22131,-4.38223,22.60627,16.04725,-6.41799,5.89394,8.97292,1.77951,-1.40051,-2.1183,0.93636,1.93447,0.10383,1.19817,0.40596,-0.97713,0.81165,0.07928,0.05461,0.09444,0.03997,-0.1542,0.17062
2514,2.48731,4.48791,-0.29782,58.73191,-6.25156,-3.51942,27.3187,7.93182,7.08646,64.70615,18.70109,0.20032,0.76839,-0.4275,0.59858,12.17148,-10.88943,-1.77062,66.88441,3.40935,-5.12599,37.65328,-8.80356,-0.59162,4.06117,8.1481,1.86012,-1.54508,0.03604,-1.48312,2.09905,0.34742,1.20087,0.03178,-0.47737,0.17397,0.2237,0.02088,0.10807,-0.04871,-0.08632,-0.01325
2515,-1.89372,6.16681,-0.86857,59.86953,-6.94293,-3.42953,16.37021,7.48019,4.67534,64.18511,19.58942,1.2873,0.68205,-0.42152,0.41288,12.66299,-11.2221,-1.82166,45.51405,1.12459,-5.77089,40.92405,-27.2862,4.15107,1.67704,2.90539,1.12048,-4.99168,0.48229,-4.9936,1.97796,-0.55603,0.47864,-0.79611,-0.66491,-1.15051,0.32067,-0.13719,0.02199,-0.18738,-0.1456,-0.32403
2516,-1.68264,4.21806,-0.67203,58.07501,-7.37787,-3.56349,15.69535,-1.10103,3.10372,61.15277,18.11996,0.34878,0.83021,-0.60074,0.25569,12.75967,-11.36107,-1.91185,44.34501,-12.89909,-4.18598,35.05716,-18.70669,3.16573,-1.44406,-1.14084,0.5889,-9.33529,-0.70267,-7.25141,1.2828,-1.42254,-0.32769,-1.39489,-1.08495,-2.0515,0.24714,-0.19172,-0.05884,-0.26401,-0.22129,-0.48996
2517,2.51125,3.15598,-0.27311,53.7062,-7.48259,-3.85799,27.3229,-5.38314,4.78458,53.21178,16.02511,-2.07253,1.00696,-0.57956,0.30457,12.39899,-11.32207,-2.0651,59.66941,-19.68815,1.65899,23.87785,7.63353,-3.5936,-3.90217,-0.19874,0.60334,-10.58156,-1.16358,-6.94599,0.06705,-0.92049,-0.55265,-1.44608,-0.78895,-1.85938,0.00676,-0.00304,-0.05162,-0.26613,-0.11925,-0.39499
2518,7.33859,1.01629,0.47026,49.48115,-7.35471,-4.09662,47.3396,-18.90074,6.47802,43.80535,15.28109,-4.10952,1.11341,-0.52878,0.47076,11.93679,-11.1736,-2.21581,82.59692,-35.45642,11.76087,9.92968,33.60584,-11.6614,-2.60412,3.03645,0.55054,-7.00509,-0.49674,-3.99754,-0.66249,0.59728,-0.10639,-0.92072,-0.00042,-0.82523,-0.24109,0.34796,0.05657,-0.17628,0.06724,-0.13421
2519,9.29607,-2.8793,1.42739,46.5583,-6.52155,-4.16863,61.43631,-41.66658,6.47975,38.25404,16.15869,-4.4358,1.13644,-0.62772,0.57038,11.66454,-10.86708,-2.21452,98.57352,-60.9666,21.68193,3.23069,48.41156,-16.35633,2.10816,3.87549,-0.06076,-1.85676,0.07532,-0.89412,-0.16843,1.37639,0.38793,-0.22524,0.32682,0.02155,-0.31492,0.56015,0.17636,-0.03337,0.12301,0.05716
2520,6.88398,-4.84342,1.59591,43.38012,-4.87333,-4.01467,54.99506,-48.56628,5.14396,36.43909,17.17531,-3.12696,1.02073,-0.79006,0.4512,11.40734,-10.29621,-2.00349,91.43381,-64.15842,23.19136,12.48645,40.62844,-16.05176,5.60899,1.83256,-0.932,-0.14039,0.28551,-0.69758,0.95795,0.26239,0.29522,0.1174,-0.08694,0.01821,-0.15597,0.30745,0.15333,0.03518,0.01631,0.02132
2521,2.92265,-3.80902,0.75102,38.86673,-2.97291,-3.66283,34.16221,-30.63046,2.71115,35.51854,17.09151,-0.98724,0.82618,-0.98263,0.14307,10.83036,-9.46649,-1.69786,65.91139,-35.74876,14.1279,29.67455,6.40949,-12.88192,4.36149,0.42105,-1.29635,-3.53828,0.56703,-3.62647,1.47289,-1.66005,-0.18047,-0.01495,-0.71198,-0.5559,0.08418,-0.27648,-0.00951,-0.01812,-0.14004,-0.17121
2522,1.78543,-2.74744,-0.08086,34.74434,-2.89026,-3.05629,19.62971,-9.03366,0.38934,34.89765,11.63076,0.52118,0.75454,-1.22682,-0.12138,9.96358,-8.65051,-1.49734,44.50284,-12.90104,2.06099,40.43314,-31.97885,-11.32688,0.64519,2.24666,-0.89997,-9.73308,0.77044,-7.46798,1.35546,-2.09149,-0.34033,-0.46018,-1.03531,-1.23912,0.26476,-0.56066,-0.11903,-0.10936,-0.22764,-0.33632
2523,3.23588,-3.12501,-0.17888,32.43877,-5.52636,-2.30898,19.53247,-3.62563,0.0387,33.00731,1.2442,0.11772,0.80589,-1.38765,-0.17848,9.12135,-8.14208,-1.48266,36.00331,-21.70677,-3.79159,42.22742,-42.55908,-13.98241,-1.94347,4.93135,-0.41517,-14.3979,0.98386,-9.85442,0.9074,-0.82862,-0.19485,-0.95817,-0.83331,-1.69686,0.25329,-0.27867,-0.09985,-0.15198,-0.17803,-0.35727
2524,4.32031,-3.14958,0.15816,30.20015,-8.03635,-1.87524,24.75187,-10.42725,1.90685,27.24373,-3.95082,-1.70123,0.83847,-1.26429,-0.02195,8.40625,-7.84543,-1.52933,31.47679,-39.56643,-1.5946,41.97379,-20.70133,-18.65849,-3.19046,4.9112,-0.26072,-14.23023,1.63719,-9.67551,-0.12132,0.22345,-0.11127,-1.26108,-0.32216,-1.78274,-0.02926,0.11041,-0.02573,-0.15307,-0.04848,-0.29435
2525,4.21326,-1.84356,0.39843,26.43513,-7.41133,-1.95518,26.18176,-15.49886,4.28531,20.98296,1.50923,-3.003,0.81673,-0.89589,0.21666,7.68482,-7.39036,-1.44122,27.91092,-37.52234,3.49093,41.74361,4.7144,-19.49958,-3.21205,3.2812,-0.39702,-9.1538,2.28655,-7.12309,-0.86926,0.23184,-0.18327,-1.10182,-0.08305,-1.53062,-0.30051,0.17397,0.00148,-0.13434,-0.00262,-0.2711
2526,4.0228,-0.36454,0.32593,22.27184,-4.93936,-2.06184,26.3603,-14.26289,5.56642,19.76039,8.12582,-2.56243,0.74773,-0.51336,0.33773,6.92031,-6.66567,-1.18609,33.76098,-22.98967,7.74774,36.65438,3.69588,-13.26772,-0.15329,2.99398,-1.23155,-3.43422,1.53401,-3.78497,0.33062,-0.0514,-0.54924,-0.51442,-0.36209,-1.10841,-0.14855,-0.01216,-0.11901,-0.08855,-0.09215,-0.28551
2527,4.21117,0.63495,-0.1114,19.73281,-3.70765,-1.66882,29.64041,-9.92143,5.1774,23.548,5.5143,-0.5961,0.60364,-0.25611,0.26457,6.23777,-5.88205,-0.87666,49.89561,-17.63873,11.12014,25.12133,-20.86956,-5.61714,5.73567,2.44135,-2.81709,-3.11876,-0.91326,-2.41787,3.0898,-0.54276,-1.30059,-0.16375,-0.78558,-0.94288,0.36047,-0.23895,-0.37168,-0.05492,-0.17075,-0.26102
2528,4.4308,0.55841,-0.40686,18.68983,-3.76481,-0.97326,31.03431,-7.88438,4.0424,26.15453,-1.46047,1.57054,0.46902,-0.22569,0.14816,5.66819,-5.17871,-0.57008,58.5791,-23.31473,13.80872,15.61175,-38.00364,-4.89424,10.15699,-1.08522,-3.78589,-8.72299,-3.02157,-4.13636,4.92373,-1.58183,-1.90006,-0.56849,-0.92454,-1.34973,0.73297,-0.4059,-0.53732,-0.0864,-0.12101,-0.20265
2529,4.91778,-2.37991,0.41726,16.62133,-3.22254,-0.53062,26.00261,-15.78235,4.39373,20.88242,-2.17397,2.20801,0.52001,-0.53647,0.19056,5.06222,-4.51999,-0.28409,45.42579,-32.78971,16.67288,18.12708,-30.88008,-9.69718,9.75296,-4.3099,-3.0755,-13.43851,-2.9325,-6.32048,4.46644,-2.14541,-1.71993,-1.12479,-0.76923,-1.81415,0.66616,-0.3833,-0.44245,-0.13906,-0.00776,-0.16931
2530,6.03227,-7.86003,2.25176,12.75827,-1.9636,-0.4853,20.24057,-33.8677,6.7757,9.13136,4.0782,1.09314,0.74965,-1.05367,0.39518,4.39227,-3.9137,-0.10707,22.42859,-43.65431,20.95054,32.8218,-15.91166,-12.23812,5.76769,-2.73184,-1.5163,-12.351,-1.09989,-6.28118,2.70479,-1.23153,-0.91017,-1.06716,-0.49698,-1.67846,0.31374,-0.10089,-0.16965,-0.15846,0.06277,-0.1958
2531,7.19338,-11.11891,3.30247,9.21001,-2.24676,-0.48145,21.02685,-45.09626,8.31716,-1.37737,8.35196,-0.41324,0.93322,-1.32161,0.60281,3.78814,-3.53649,-0.18144,11.17532,-48.18079,23.31427,48.69698,-12.29583,-11.82497,2.12401,1.65333,-0.72679,-8.72294,0.59004,-4.92888,1.33439,0.35109,-0.20671,-0.73606,-0.25901,-1.26366,0.03494,0.29159,0.03855,-0.16739,0.06108,-0.26645
2532,7.14387,-9.15047,2.58262,7.22612,-4.70637,-0.35246,24.93869,-35.08056,6.59304,-6.37803,5.03143,-1.59428,0.90001,-1.11383,0.67888,3.2541,-3.4305,-0.4898,12.38153,-37.87436,17.92434,52.51647,-18.16107,-13.77234,0.84576,3.20452,-0.95098,-7.79303,0.97629,-4.38851,0.85637,0.99758,-0.04908,-0.71262,-0.22566,-1.14661,-0.0141,0.47834,0.04392,-0.17715,0.01132,-0.29908
2533,5.68393,-4.5437,1.14402,6.19403,-6.86263,-0.27761,23.56072,-12.28899,2.84604,-6.46577,-2.11099,-2.47888,0.74156,-0.70301,0.64558,2.70132,-3.33562,-0.77051,12.46459,-18.17794,6.01579,41.9708,-20.73873,-18.47459,1.15683,0.95892,-1.08288,-9.31695,-0.0011,-4.67914,0.86722,0.51069,-0.28048,-0.67906,-0.64193,-1.28455,0.08834,0.33948,-0.07582,-0.1378,-0.08611,-0.25411
2534,3.9707,-1.5181,0.29057,5.63255,-6.9249,-0.19966,17.27411,2.62746,0.10968,-2.06513,-8.26027,-2.20557,0.61029,-0.4933,0.56788,2.14614,-3.00534,-0.75278,11.24096,-7.58785,-2.44436,28.52199,-12.58899,-20.53715,2.40887,-1.09206,-0.79252,-9.45291,-2.35154,-4.3247,1.38307,-0.1398,-0.66621,-0.21841,-1.44197,-1.43364,0.27168,0.06137,-0.18652,-0.05568,-0.21106,-0.20848
2535,2.3598,-1.42714,0.31601,5.92804,-5.18552,0.10031,10.70063,0.33428,0.14447,6.66158,-12.40408,-0.09527,0.45777,-0.59126,0.40757,1.72101,-2.41812,-0.36148,15.36599,-17.60719,-1.12412,22.85917,0.4341,-15.30041,2.59139,-2.0397,0.32041,-6.58801,-4.86886,-2.66345,1.61831,-0.9842,-0.57714,0.18626,-1.81162,-1.41116,0.34838,-0.18577,-0.12827,-0.04463,-0.23797,-0.21831
2536,0.65342,-2.80428,0.8655,6.24365,-2.40149,0.40959,4.30698,-11.38298,2.61299,13.49762,-12.23877,1.95882,0.2525,-0.79086,0.17517,1.45358,-1.75894,0.18858,15.84778,-36.32726,5.5263,26.26977,3.95711,-5.36864,-0.06445,-3.61452,2.28066,-3.06482,-4.96211,-0.82806,0.75836,-2.06244,0.24957,-0.02798,-1.16675,-1.06766,0.21429,-0.29706,0.06098,-0.14185,-0.10168,-0.22181
2537,-0.42268,-4.22759,1.52309,4.48503,0.23716,0.34107,-0.9652,-21.12567,5.71401,10.65107,-5.41674,1.53822,0.13474,-0.90354,0.00796,1.17567,-1.28932,0.51507,3.39139,-42.82234,10.5867,34.0893,-11.77443,-0.68026,-1.64724,-4.54887,2.1959,-2.68612,-2.05443,-0.78781,0.17834,-2.40323,0.57776,-0.56797,-0.2276,-0.6898,0.09141,-0.26012,0.0995,-0.21283,0.0487,-0.16869
2538,-0.24958,-4.78826,1.74946,1.57126,1.38803,0.07343,-1.03769,-22.72241,6.83222,2.56099,3.22404,-0.24586,0.1517,-0.87596,-0.0332,0.81663,-1.04613,0.52132,-7.91308,-32.1501,11.78549,38.52248,-40.40637,-5.43019,1.28521,-2.74492,-1.47248,-6.33302,1.1376,-2.88007,1.05345,-1.62644,-0.34894,-0.90367,-0.02876,-0.85182,0.14743,-0.17788,-0.07068,-0.16279,0.04215,-0.13582
2539,0.80649,-4.26205,1.32735,0.63888,1.11924,0.05756,5.47246,-18.10972,5.18393,0.11696,6.33569,-0.51118,0.19832,-0.74732,-0.00593,0.45566,-0.82474,0.45129,-0.37835,-18.44362,11.13522,33.14661,-59.41721,-12.86083,6.01165,-0.0155,-5.37978,-10.14237,1.94729,-4.87354,2.469,-0.68455,-1.55268,-0.90881,-0.53415,-1.4253,0.28372,-0.13321,-0.23731,-0.06796,-0.09301,-0.1834
2540,1.93417,-3.20096,0.66049,1.80866,0.62069,0.24812,12.21524,-12.91337,2.57714,4.06198,4.37646,0.76922,0.21945,-0.57308,0.05081,0.09971,-0.55154,0.43566,16.79075,-12.11193,9.63991,21.75358,-52.86572,-16.10047,8.06143,0.83925,-5.82617,-10.31988,0.72255,-4.8271,2.93629,-0.49212,-1.82167,-0.56638,-1.08722,-1.6354,0.33511,-0.13743,-0.24022,-0.016,-0.23044,-0.24552
2541,1.9023,-1.99817,0.19267,2.75356,0.37493,0.33669,9.30245,-8.36126,0.31352,7.38838,2.35311,1.6524,0.18986,-0.37348,0.09228,-0.24439,-0.36859,0.39459,18.71441,-8.69588,4.86824,15.76876,-31.63979,-14.7658,6.16103,0.72708,-3.32011,-7.8632,-0.11615,-3.37316,2.20347,-0.58468,-1.21177,-0.09595,-1.19537,-1.19118,0.27984,-0.12196,-0.15023,-0.02094,-0.27604,-0.24485
2542,0.25572,-1.40159,0.22325,2.28095,0.07835,0.33675,-2.52421,-5.72847,-0.80569,6.09076,1.51292,1.62526,0.09211,-0.22952,0.07564,-0.47871,-0.31957,0.32159,1.04415,-6.76261,-0.71143,19.16332,-18.72836,-11.18982,2.36857,0.03268,-0.45448,-5.71715,0.15613,-2.0217,1.15809,-0.64669,-0.47951,0.05169,-0.7933,-0.60926,0.19338,-0.08211,-0.08521,-0.06392,-0.19106,-0.18988
2543,-1.27169,-1.79812,0.67288,0.92467,-0.48383,0.44903,-9.63628,-7.28963,0.21347,1.58705,-0.03923,1.36081,0.02612,-0.24072,0.07695,-0.53809,-0.29218,0.32305,-14.59917,-11.19187,-0.2159,26.20037,-22.02809,-6.6103,-0.17921,-2.11101,0.96168,-4.44687,-0.50909,-1.14918,0.68052,-1.07219,-0.13286,-0.16526,-0.3503,-0.50478,0.13027,-0.11325,-0.05361,-0.1158,-0.02592,-0.14292
2544,-0.50511,-2.16039,0.9382,-0.70744,-1.11846,0.62543,-2.99858,-9.89453,2.52642,-4.31102,-2.23396,0.73975,0.11493,-0.37433,0.20055,-0.5079,-0.22446,0.41151,-13.84772,-17.72448,5.88708,33.6991,-30.32385,-2.6622,0.33547,-4.24134,0.39427,-3.2475,-2.80227,-0.51891,0.95918,-1.81075,-0.24691,-0.43996,-0.2606,-0.85696,0.12434,-0.26154,-0.02552,-0.15383,0.10989,-0.13729
2545,1.46232,-1.64921,0.73068,-1.99966,-1.14726,0.62088,9.10132,-9.17145,3.97069,-9.61755,-1.97834,-0.64006,0.24969,-0.50986,0.34653,-0.5293,-0.12537,0.50225,-5.60524,-16.12242,10.84047,41.82314,-29.12967,-2.39169,2.58791,-4.41421,-1.09587,-2.65162,-4.16568,-0.30431,1.40367,-2.18493,-0.50668,-0.69753,-0.31505,-1.14184,0.1632,-0.40267,-0.00968,-0.16778,0.12252,-0.15767
2546,2.01552,-0.79933,0.39326,-2.33529,-0.30935,0.37905,13.42884,-6.15151,3.69235,-10.82873,1.46713,-2.08219,0.26497,-0.56547,0.35558,-0.67505,-0.02427,0.52475,-1.78915,-7.10668,11.05781,43.55995,-20.16077,-7.29521,4.93166,-2.96934,-2.89347,-3.92718,-3.20539,-0.86779,1.67345,-1.6703,-0.84679,-0.97864,-0.44023,-1.23229,0.2023,-0.36072,-0.06446,-0.16329,-0.03274,-0.20948
2547,0.99902,-0.71507,0.31061,-2.00775,0.3047,0.1677,7.69341,-5.8827,2.70374,-7.38971,3.12415,-2.16568,0.18307,-0.54169,0.24936,-0.94478,0.0284,0.43553,-3.98,-4.90652,8.32823,32.86357,-19.90105,-14.03697,7.07497,-2.39595,-4.80389,-6.39397,-2.15821,-1.95005,2.02584,-0.9359,-1.27011,-0.92887,-1.16041,-1.50157,0.23257,-0.20524,-0.15188,-0.13869,-0.3231,-0.31722
2548,-0.16958,-1.38848,0.43145,-1.08051,-0.17499,0.2463,-1.33146,-9.90887,2.15041,-1.69383,-0.1875,-0.26229,0.07436,-0.43613,0.12145,-1.19987,0.03942,0.27695,-7.53933,-15.2972,6.1469,18.95441,-32.60354,-16.89403,7.28196,-3.17673,-4.89523,-8.08517,-2.50943,-2.74561,2.19079,-0.87743,-1.26413,-0.26777,-2.33244,-1.87071,0.24427,-0.13316,-0.13423,-0.0761,-0.57459,-0.41934
2549,-0.37742,-1.2859,0.31065,-0.15844,-1.22959,0.49453,-5.8664,-12.24266,1.95917,1.05452,-5.04806,1.92335,0.02293,-0.22762,0.04014,-1.27497,0.05928,0.14597,-10.50209,-24.61825,5.67811,13.45189,-41.83498,-13.31393,3.41971,-2.83444,-1.53037,-8.7586,-2.18023,-2.77486,1.4855,-1.28433,-0.4832,0.34414,-2.58199,-1.73102,0.20405,-0.17142,-0.00961,-0.02392,-0.54602,-0.39471
2550,0.29381,0.21029,-0.13553,-1.32796,-1.81586,0.53853,-4.11786,-8.06629,1.69385,-3.84819,-6.98321,1.81692,0.09464,-0.03369,0.04652,-1.23907,0.12271,0.08178,-15.86499,-21.19168,5.17164,15.27138,-37.4667,-6.11951,-1.87682,-0.18349,2.49204,-8.42888,-0.18003,-2.05172,0.30036,-1.32139,0.35672,0.30972,-1.39938,-0.93866,0.11549,-0.20999,0.0744,-0.03842,-0.21717,-0.21572
2551,0.74358,1.5798,-0.42923,-3.42221,-1.23154,0.30323,-0.85105,-0.66948,1.15571,-7.80901,-4.69707,0.04977,0.18944,-0.03371,0.1126,-1.21245,0.23523,0.11336,-16.48023,-8.96912,2.73664,18.93369,-29.84081,-1.1259,-3.14833,1.94398,2.76313,-5.51507,0.82087,-0.82931,-0.13883,-0.86773,0.3147,0.32808,-0.25914,-0.05207,0.05063,-0.18967,0.02963,-0.03233,0.10634,0.01696
2552,0.71115,1.63433,-0.39522,-3.69233,-0.27143,0.12979,0.65989,4.57908,-0.08163,-2.72462,-1.96686,-0.64619,0.18614,-0.16607,0.17846,-1.22174,0.30798,0.21868,-5.01535,0.87412,-1.58644,23.09194,-30.90748,-1.56611,-0.52575,0.54017,0.15852,-1.26393,-0.4258,0.1068,0.22424,-0.63994,-0.20351,0.80471,-0.31216,0.29734,0.05923,-0.14378,-0.06652,0.04173,0.15728,0.14748
2553,0.35906,0.67403,-0.17086,-2.72833,0.03008,0.27364,0.03607,4.41806,-1.17807,3.74059,-2.9207,0.38078,0.07943,-0.23587,0.18759,-1.27105,0.3187,0.35582,6.81701,-0.01661,-4.20647,27.74839,-38.28884,-5.66198,1.33338,-2.18766,-1.46404,-0.02965,-1.62865,0.04791,0.52648,-0.76333,-0.39412,0.88643,-0.8914,0.00814,0.11969,-0.0897,-0.14076,0.05908,0.00649,0.08549
2554,-0.08702,-0.32117,0.09743,-2.47426,-0.35735,0.58471,-1.69455,-0.38428,-0.59747,2.89759,-6.98504,1.33539,-0.01568,-0.20023,0.13775,-1.32455,0.35033,0.49881,5.63158,-10.58796,-2.09341,32.89895,-40.99452,-10.33837,0.72408,-2.36528,-1.14488,-2.71184,-1.53715,-0.60516,0.50855,-0.68971,-0.32057,0.25398,-1.19574,-0.49962,0.17344,-0.03018,-0.18653,-0.01734,-0.16985,-0.07184
2555,-0.28513,-0.94957,0.35408,-3.30021,-1.56245,0.69679,-3.17617,-5.52243,1.3458,-3.8296,-11.64438,0.58025,-0.00073,-0.19407,0.08675,-1.33566,0.36083,0.51333,-7.2532,-22.88588,1.97683,36.28271,-32.64999,-14.38214,-0.35711,-0.78312,-0.15601,-6.03585,-1.31531,-0.9916,0.48021,-0.54039,-0.27487,-0.28205,-1.39791,-0.79616,0.16585,-0.02816,-0.15866,-0.02363,-0.32885,-0.12822
2556,-0.61399,-1.26341,0.56224,-3.69671,-3.05292,0.4693,-4.40869,-6.93941,2.70227,-9.06695,-13.40638,-1.2697,0.03111,-0.3032,0.05675,-1.25614,0.27033,0.31703,-20.05079,-26.96766,3.3422,33.62241,-21.40524,-15.39212,-0.42923,-1.01172,1.11432,-7.44557,-1.14784,-0.97443,0.56348,-1.15416,-0.15048,-0.34013,-1.51314,-0.77106,0.09833,-0.15725,-0.02472,0.08882,-0.40583,-0.0475
2557,-0.79994,-0.5395,0.36028,-3.43631,-3.7979,0.0997,-3.66098,-2.84936,1.9881,-10.71736,-11.49562,-2.54942,0.00924,-0.39082,0.05169,-1.13031,0.11307,0.01619,-23.50043,-19.08205,0.97738,25.96892,-21.61534,-8.93388,-0.53987,-2.3632,2.92941,-6.63377,-0.45224,-0.89827,0.37322,-2.11373,0.25085,-0.31367,-1.19863,-0.62465,-0.00235,-0.30686,0.1458,0.11896,-0.28976,0.00067
2558,-0.00012,0.96631,-0.21565,-3.50509,-4.08959,-0.09966,-0.23649,2.9898,0.06543,-10.83895,-10.59347,-2.29594,0.0384,-0.34521,0.113,-1.0747,-0.03335,-0.23093,-18.4368,-9.32306,-2.1203,18.84631,-31.47635,2.43433,-0.92725,-1.11351,3.41068,-4.35034,-0.42479,-0.64928,0.03906,-1.66103,0.43644,-0.20206,-0.82499,-0.52148,-0.0501,-0.23718,0.17853,-0.01086,-0.07839,-0.06703
2559,1.56086,1.67256,-0.56584,-3.59508,-4.80841,0.00124,2.9183,5.33374,-1.3254,-8.59962,-14.28522,-0.75136,0.20111,-0.23598,0.25115,-1.11974,-0.11926,-0.33348,-10.22283,-8.93709,-3.42719,14.94524,-37.69392,7.54564,0.02064,0.76004,0.51358,-2.25676,-1.97367,0.08525,0.15883,-0.04486,0.0156,0.30659,-0.97264,-0.35311,0.01451,0.00448,0.02668,-0.10024,0.00758,-0.11181
2560,3.00201,1.36995,-0.51509,-3.26391,-5.70722,0.21386,4.43584,4.05852,-1.39906,-3.06111,-20.20778,0.71784,0.41636,-0.12238,0.38824,-1.20829,-0.12562,-0.28899,-0.62313,-17.04021,-3.10956,13.69269,-39.54417,2.51818,1.83388,-1.00974,-3.61135,-1.71612,-2.85659,0.79872,0.35331,0.32532,-0.33002,0.88402,-1.20445,-0.03677,0.06523,0.06971,-0.09006,-0.04652,-0.03327,-0.04855
2561,4.1137,1.75213,-0.61118,0.21942,-3.83035,0.14438,7.1743,2.80632,-0.51173,9.25013,-19.94797,1.30837,0.55514,0.06897,0.43594,0.14348,-0.39555,-0.19439,20.08889,-19.82212,-1.2924,14.76562,-42.24659,-4.38781,1.76579,-5.21775,-4.22503,-2.04735,-0.70363,0.53893,0.15144,-1.10598,-0.22413,0.82609,-0.72823,0.20477,0.04036,-0.09807,-0.08257,-0.04225,-0.02026,-0.00691
2562,4.5794,3.20903,-1.06111,0.01959,-2.91357,0.00431,10.52557,3.18459,0.09768,12.63207,-18.65183,0.70969,0.54625,0.27492,0.3939,0.14735,-0.32772,-0.14781,30.71867,-20.3886,-0.30613,18.02792,-41.8671,-6.58032,-0.67866,-5.84084,-0.61955,-2.70231,2.93071,-0.7007,-0.14141,-2.09035,0.03075,-0.18671,0.23382,0.0157,0.01708,-0.21377,-0.04338,-0.28015,0.08653,-0.1329
2563,2.91299,3.11357,-1.0259,0.71036,-1.51609,-0.1504,6.50202,2.19446,-0.07914,14.80814,-15.13867,0.59688,0.33046,0.08056,0.31105,0.32058,-0.30761,-0.18927,29.84126,-17.51323,-0.46768,22.01871,-34.73568,-5.61775,-2.63731,0.07942,2.84031,-4.23101,3.98234,-1.66251,-0.26893,-1.17641,0.26835,-1.45908,0.48128,-0.56424,-0.00233,-0.14757,0.03083,-0.57049,0.0786,-0.33539
2564,-0.53693,-0.53929,0.12013,2.1285,-0.19279,-0.15857,-5.48745,-3.49815,0.17991,16.76963,-11.96415,1.0122,-0.02508,-0.71263,0.21415,0.54639,-0.30901,-0.16246,17.3611,-18.6225,-0.86535,26.20979,-25.84058,-4.44272,-3.79838,5.03569,4.39686,-5.03909,0.84427,-1.13203,-0.72324,0.13481,0.69167,-1.35544,-0.61957,-0.82197,-0.0922,0.00986,0.16341,-0.44297,-0.17274,-0.32209
2565,-3.09874,-5.78663,1.72255,2.44102,1.02273,0.0095,-14.56097,-12.56731,2.04631,14.97377,-9.26079,0.96717,-0.31927,-1.56409,0.10547,0.5911,-0.21627,0.0735,2.63534,-25.71975,0.88063,33.65544,-22.80358,-3.16932,-4.72465,3.69562,4.3327,-3.00307,-3.97702,0.48301,-1.35698,0.22782,1.02088,0.45185,-2.26282,-0.37939,-0.17422,0.09605,0.22491,0.12832,-0.46973,-0.03742
2566,-3.33562,-8.54498,2.56004,1.21811,1.71456,0.25687,-13.89045,-19.16463,4.48033,8.09173,-6.47205,0.51531,-0.41044,-1.77012,0.02879,0.41311,-0.04666,0.35714,-7.50634,-32.81628,5.26689,44.63519,-23.68711,-3.64911,-3.05252,-0.06103,1.79336,0.25815,-6.67948,1.66996,-1.0467,-0.53223,0.63103,2.12303,-3.07658,0.22166,-0.1045,0.0536,0.11256,0.56542,-0.53596,0.2148
2567,1.07125,-3.22228,1.48604,-0.10704,1.06341,0.37604,-2.10114,-12.66693,4.0773,0.43468,-4.30594,0.43079,0.11052,1.64567,0.07755,0.228,-0.03158,0.35778,-4.91773,-25.81437,7.9778,50.38295,-20.05692,-5.55013,0.78064,-0.99039,-1.71744,1.70189,-6.10299,1.86261,0.16234,-0.81033,-0.18166,2.34578,-2.63038,0.50406,0.04344,-1e-05,-0.05375,0.51936,-0.35535,0.24014
2568,2.64891,2.76233,-0.05118,-0.69143,-0.53993,0.25619,1.25917,-1.89611,1.98535,-4.35676,-4.14113,0.24053,0.4101,3.28614,0.03061,0.24076,-0.25238,0.08142,-8.19523,-13.92722,7.18353,41.99634,-13.37992,-4.21668,2.60643,-0.12918,-2.6725,0.43245,-4.50804,1.66873,0.897,-0.57958,-0.57985,1.5372,-1.82709,0.46836,0.08813,-0.01596,-0.11264,0.22141,-0.14029,0.14553
2569,2.38295,7.60939,-1.13905,-1.1344,-1.52359,0.03723,-3.34897,9.45781,-0.32819,-7.65774,-5.10705,-1.16634,0.60509,4.67877,-0.14005,0.3893,-0.44865,-0.11796,-18.23494,0.67378,1.84317,27.61804,-17.7046,2.2496,0.51459,0.16972,-0.34251,-1.96718,-3.31382,1.31396,0.5047,-0.5861,-0.37298,0.74667,-1.51901,0.28323,0.02909,-0.08248,-0.07852,0.02714,-0.08974,0.06588
2570,1.22151,8.667,-1.20437,-1.77443,-1.14867,-0.06416,-10.36165,13.93626,-1.12953,-11.132,-4.10796,-3.00194,0.7025,5.74868,-0.43902,0.44069,-0.38612,-0.06212,-32.20837,11.46717,-3.30568,25.60004,-38.98597,9.29022,-2.97871,2.01249,2.60696,-2.78145,-1.40843,0.57101,-0.26207,-0.33991,0.04568,0.90243,-1.53333,0.25735,0.0091,-0.12623,-0.04101,0.09935,-0.22458,0.0651
2571,0.94687,7.20863,-0.82976,-1.87684,-0.37907,-0.01285,-11.10755,11.05617,-1.04398,-11.95436,-1.78331,-3.29278,0.79745,6.75789,-0.7692,0.36576,-0.2032,0.06568,-34.03411,14.62613,-4.46668,38.82816,-58.04076,8.63199,-3.97393,5.01204,3.38362,-1.78286,1.24552,-0.28712,-0.38972,0.41311,0.30115,1.6843,-1.44393,0.46851,0.09473,-0.00719,-0.011,0.29689,-0.39585,0.13342
2572,2.06254,5.84997,-0.66272,-1.22138,-0.29643,0.00012,-3.56225,5.01416,-0.67914,-7.66281,-1.54029,-2.08881,0.94109,7.84682,-1.04163,0.33922,-0.20083,0.03966,-14.14615,9.52666,-1.81362,52.32868,-52.62723,-0.70904,-2.9084,5.49545,2.34778,-1.76297,3.17406,-0.83906,-0.24898,0.72071,0.43519,1.58542,-1.07337,0.55214,0.14037,0.16464,0.05946,0.30381,-0.42284,0.17409
2573,3.35659,5.75781,-0.69382,-0.6417,-0.4313,-0.1585,3.75217,-0.02241,0.39041,-1.84661,-1.74099,-1.13397,1.11756,8.95516,-1.23838,0.39015,-0.37633,-0.11138,8.78185,2.5049,2.46185,50.5587,-30.22341,-7.3326,-4.1461,4.20358,2.17219,-3.54566,4.01255,-1.06821,-1.10953,0.46416,0.67802,0.29901,-0.25538,0.28237,-0.02485,0.22898,0.16317,0.07091,-0.22543,0.11433
2574,4.10719,6.19619,-0.6507,-0.88121,0.32377,-0.3012,5.00759,-2.23819,1.82231,-0.11435,1.47891,-0.88787,1.33352,10.04017,-1.39196,0.37879,-0.43417,-0.17475,13.71318,1.11731,6.30072,30.69057,-16.75543,-3.4304,-6.88948,4.50328,2.88255,-5.29774,3.26117,-0.85018,-2.33903,0.45694,0.78946,-0.99021,0.40405,-0.17027,-0.26803,0.21089,0.19805,-0.18848,0.02907,-0.02511
2575,5.16286,6.4859,-0.66556,-1.57034,2.03663,-0.17418,5.58038,-1.23655,1.9844,-2.1475,7.03877,-0.14386,1.61483,11.18898,-1.58144,0.27491,-0.23485,-0.05011,8.78125,7.10877,8.18278,7.64746,-19.66861,3.56269,-6.09068,5.59269,2.34777,-5.56266,0.04653,0.11498,-2.16449,0.49917,0.44106,-1.25422,-0.14188,-0.41527,-0.3279,0.14918,0.11552,-0.28537,0.0817,-0.13188
2576,6.7373,7.28563,-1.11324,-1.66171,3.27565,0.14466,8.50191,2.40021,0.23673,-3.33923,8.97873,1.30303,1.90792,12.4591,-1.90645,0.18942,0.0114,0.12158,7.9269,13.45377,6.63013,1.69047,-24.84698,4.30008,-2.47301,4.82593,0.85741,-3.59725,-4.20269,1.48828,-0.96081,-0.14227,-0.05866,-0.25822,-1.68958,-0.12733,-0.22514,0.01303,0.00328,-0.15374,-0.08606,-0.09209
2577,6.94594,8.86694,-1.79713,-0.79125,2.82155,0.32552,6.774,5.99556,-1.61285,-1.25733,4.97474,2.11297,2.10388,13.66014,-2.38077,0.19312,0.03851,0.16334,7.18575,12.40041,2.55456,15.45531,-25.56884,0.70815,0.47768,3.2282,-0.18118,-0.25582,-6.34724,2.2098,0.05587,-0.96269,-0.3064,1.11561,-2.87408,0.4793,-0.09433,-0.14151,-0.05907,0.05528,-0.28357,0.05779
2578,4.83407,10.67832,-2.25462,0.43864,1.38265,0.17774,-1.55298,9.26815,-2.13058,3.60171,0.77833,1.76679,2.20243,14.59098,-2.88956,0.27196,-0.17778,0.06263,4.99008,10.86322,-0.76422,32.36902,-28.42765,-1.21742,2.37805,2.02905,-0.77286,1.4778,-4.69383,1.56922,0.74307,-1.20332,-0.33333,1.48679,-2.69235,0.79474,0.03512,-0.19777,-0.0789,0.12577,-0.34661,0.1688
2579,2.82031,12.00752,-2.42623,1.53167,0.25705,-0.14196,-6.28482,13.43011,-1.93993,9.21959,0.66063,1.06666,2.32627,15.34124,-3.28382,0.40612,-0.44715,-0.06357,11.05535,17.9074,-1.54852,36.86283,-32.39298,-1.15229,2.55193,0.06192,-0.98041,-0.08216,-0.8027,0.13616,0.90018,-1.17987,-0.35139,0.66235,-1.46931,0.59191,0.11985,-0.1549,-0.09268,0.07901,-0.26499,0.17781
2580,3.10555,11.76595,-2.36666,2.416,-1.31515,-0.00211,-1.80911,14.14085,-1.55386,11.66902,0.15593,0.792,2.53172,16.06976,-3.51826,-0.24913,-0.44064,0.2299,22.06955,21.62183,-0.59465,29.45033,-28.00169,-2.27733,0.07008,-1.51996,-0.39893,-3.07987,2.06341,-0.8309,0.38215,-1.13627,-0.45838,-0.30677,-0.42778,0.18624,0.1293,-0.08012,-0.11764,0.05221,-0.16838,0.12929
2581,4.6118,9.77423,-2.12096,1.47807,-2.155,0.12805,5.1478,6.94691,-0.84613,7.64953,-5.20813,0.0178,2.76475,16.78836,-3.67252,-0.59135,-0.2083,0.29238,25.95383,7.58009,-0.04901,22.03318,-17.78471,-4.6914,-2.32972,0.65079,0.5471,-4.69954,2.58095,-0.87778,0.06753,-0.66208,-0.50277,-0.64889,-0.21212,-0.08312,0.13799,-0.00205,-0.13769,0.02172,-0.13846,0.05752
2582,5.22688,7.98952,-1.97569,0.16189,-2.96163,0.36608,7.55149,-2.09983,-0.46388,3.10603,-12.66383,-0.17263,2.97746,17.46681,-3.85289,-1.11142,0.13724,0.35969,22.80687,-14.67612,-0.20399,20.36449,-15.99875,-3.73215,-2.98537,5.64413,1.31716,-4.27519,1.81662,-0.52731,0.0712,0.11223,-0.26065,-0.49713,-0.45658,-0.14813,0.12497,0.03497,-0.09779,-0.08831,-0.11722,-0.02867
2583,4.78329,8.38972,-2.20454,-0.26014,-3.69865,0.49247,5.88042,-1.55016,-1.43061,3.50636,-15.09019,0.89025,3.18626,18.08201,-4.066,-1.67099,0.42462,0.3873,21.94198,-18.12109,-1.15,18.95339,-26.41094,4.12349,-3.65888,9.22386,1.90502,-2.97232,1.04696,-0.26736,-0.42949,0.73794,0.23526,-0.24967,-0.44539,-0.14841,0.00021,0.02047,0.03244,-0.18283,-0.00748,-0.10675
2584,4.55239,10.55045,-2.70135,0.12513,-4.69481,0.35024,3.50344,10.05199,-3.4983,5.99951,-11.78506,1.86118,3.40737,18.58111,-4.23791,-2.21062,0.62442,0.3313,21.38031,1.59069,-4.08031,14.44297,-35.17705,14.27271,-3.38756,9.7246,2.04807,-1.6297,0.14446,0.0222,-0.72446,1.16996,0.7324,0.05171,-0.24171,-0.12353,-0.07466,0.04,0.178,-0.09925,0.10061,-0.1169
2585,4.96265,11.83805,-2.98621,0.69638,-6.26217,-0.07753,1.12857,19.55091,-4.61848,4.94851,-8.82426,0.68908,3.60822,18.87098,-4.33975,-2.73792,0.77782,0.18515,11.64074,16.82294,-8.30639,11.2569,-28.67774,17.22775,-0.33476,8.21506,1.41049,-0.00316,-1.40188,0.49986,0.17723,1.17495,0.89157,0.60675,-0.60458,0.09781,0.07476,0.12265,0.21564,0.13622,0.00434,-0.01375
2586,5.11345,10.37793,-2.71207,0.92419,-8.06668,-0.62731,-2.13688,15.47469,-3.18792,-0.09436,-9.98429,-2.48621,3.75237,18.96474,-4.44178,-3.297,0.96089,0.0069,-5.85709,7.0591,-10.48517,12.94327,-10.99221,9.45906,2.32089,5.88783,0.31015,1.56773,-2.47603,0.7672,0.95517,0.5284,0.41827,1.24547,-1.43806,0.46728,0.20289,0.18092,0.10369,0.30993,-0.2493,0.12756
2587,4.25419,7.69455,-2.22722,0.81894,-9.77897,-1.11473,-5.40897,3.84903,-0.78613,-3.36006,-13.98233,-5.09552,3.83091,19.12638,-4.64354,-3.99013,1.28208,-0.1704,-15.21699,-14.3817,-9.72489,17.36195,-0.73178,-2.29097,1.47614,3.14792,-0.47811,1.37051,-1.3592,0.37788,0.56884,-0.46755,-0.45172,1.3051,-1.72386,0.58983,0.13678,0.12697,-0.07322,0.2598,-0.39383,0.16662
2588,3.05779,6.79099,-2.2089,0.845,-10.94103,-1.4196,-6.23828,-1.69208,-0.37693,-0.93111,-17.3509,-4.7962,3.86079,19.57627,-4.92347,-4.90037,1.84415,-0.36945,-7.14359,-24.22531,-8.21732,19.36682,-8.4332,-7.27269,-0.74647,1.32907,-0.26351,-1.42722,1.13337,-0.25891,0.16488,-1.03391,-0.82333,0.49577,-1.27363,0.34207,0.09904,0.00506,-0.14075,0.04275,-0.33157,0.09513
2589,2.60324,8.00909,-2.67202,1.0872,-10.97541,-1.52711,-4.99732,1.28028,-1.873,3.08606,-17.58478,-2.16991,3.84849,20.08014,-5.13617,-5.91379,2.5982,-0.59966,5.14658,-20.25,-7.01189,16.28707,-21.34521,-1.71139,-1.35351,1.98202,0.79461,-4.95691,1.8587,-0.15193,0.5264,-0.79189,-0.30579,-0.52477,-0.96401,0.08946,0.16556,-0.08231,-0.05503,-0.1304,-0.19239,0.0264
2590,2.94594,9.53828,-3.10929,0.55831,-10.61989,-1.69497,-4.52952,7.00218,-2.8989,2.05283,-15.39436,-0.26966,3.77599,20.3049,-5.23198,-6.85499,3.31068,-0.8764,3.86775,-12.19514,-6.6631,10.49192,-23.36015,8.53634,-1.10973,4.3769,1.80975,-5.57677,-0.43344,0.84794,0.81359,-0.14955,0.41248,-0.67433,-1.15214,0.15168,0.15369,-0.0647,0.06161,-0.10005,-0.08051,0.02402
2591,3.204,10.32447,-3.33434,-1.34994,-10.4553,-2.12801,-5.18417,11.75609,-2.83481,-2.96725,-10.6291,-0.37595,3.61075,20.36965,-5.34423,-7.74285,3.92581,-1.16202,-6.88548,-1.01242,-7.35117,4.58734,-17.71219,15.75995,-0.75063,6.66153,2.25207,-1.9769,-3.38934,1.69466,0.74706,0.57036,0.87837,0.21297,-1.33833,0.42985,0.08632,0.0988,0.16666,0.05429,-0.01389,0.05168
2592,2.8024,10.12805,-3.4684,-3.79477,-9.75966,-2.65041,-4.8154,12.98031,-2.84424,-5.81049,-3.52282,-1.12216,3.34746,20.53963,-5.55097,-8.66503,4.62081,-1.38191,-11.0067,11.31964,-8.14054,-0.81403,-13.25298,15.67998,1.47004,7.59342,2.13488,2.61402,-4.4638,1.62334,1.11953,1.11479,1.3492,1.1504,-1.32434,0.66594,0.1599,0.29087,0.28728,0.13466,-0.0415,0.07503
2593,1.73318,8.63769,-3.4351,-6.01117,-8.62701,-3.099,-4.08037,8.10745,-2.83248,-6.05982,-0.22015,-2.17288,3.02713,20.76652,-5.76597,-9.61871,5.41606,-1.57882,-8.99978,11.076,-9.162,-2.73282,-10.03215,8.35211,4.49862,6.77042,1.48619,4.54159,-3.17737,0.81052,1.66172,1.04945,1.56891,1.43306,-1.3246,0.74594,0.29375,0.30898,0.32161,0.11081,-0.18443,0.10488
2594,0.38358,6.88282,-3.23882,-7.68008,-8.01208,-3.52068,-5.59399,0.35977,-1.88635,-7.44733,-4.83446,-4.19284,2.718,20.9437,-5.90662,-10.54149,6.10239,-1.83308,-12.49318,-5.09273,-11.15244,3.09711,-8.42598,-1.42388,4.52125,4.10986,0.30801,3.33611,-0.41295,-0.25133,1.30292,0.17438,0.81547,1.20383,-1.24436,0.64053,0.23481,0.11429,0.13764,0.08242,-0.30359,0.11853
2595,-0.75578,7.22239,-3.30353,-8.65032,-7.78519,-3.90948,-9.29758,-1.92074,-1.02443,-9.95496,-10.67656,-5.91456,2.43404,21.16356,-6.0115,-11.4301,6.5516,-2.15381,-21.58583,-16.93496,-13.30902,13.36499,-10.92398,-6.16796,1.75873,0.79898,-0.8672,0.49281,1.91392,-0.84558,0.23123,-0.92726,-0.48816,0.77029,-0.95208,0.39126,-0.00079,-0.10793,-0.13662,0.079,-0.24837,0.07793
2596,-1.63339,9.88471,-3.88261,-9.68011,-6.5567,-4.10121,-12.22103,3.24527,-1.97027,-11.80253,-7.74713,-5.02292,2.10327,21.48543,-6.17338,-12.38426,6.94264,-2.49848,-27.03599,-6.57817,-13.31371,15.25531,-15.84055,-1.71218,0.5537,-0.4029,-1.0383,-2.22505,2.18194,-0.55001,-0.26294,-1.2969,-0.81241,0.25948,-0.72967,0.15068,-0.13632,-0.15122,-0.18069,0.05751,-0.09311,0.01142
2597,-2.25317,12.40017,-4.62682,-12.67528,-3.599,-4.04088,-11.03422,9.21175,-4.13777,-17.54917,4.50944,-2.19418,1.71731,21.84225,-6.41186,-13.46474,7.55007,-2.80545,-28.79162,18.86436,-10.80698,0.64347,-18.63783,8.23862,2.76815,1.20972,0.08687,-3.24849,0.86054,0.08359,0.49174,-1.00581,0.36566,-0.14427,-0.88244,0.08285,-0.01038,-0.06366,0.07398,0.0112,-0.0438,-0.00884
2598,-3.26104,12.91372,-5.01913,-17.5658,-0.07993,-3.93025,-8.99513,10.7448,-5.41248,-29.86261,16.85087,-0.63272,1.36913,22.22556,-6.69342,-14.53711,8.35745,-3.02496,-36.08377,38.83179,-9.22313,-19.29721,-15.70348,15.51307,4.81189,3.69999,1.60013,-2.67842,-0.60779,0.45275,1.58272,-0.65016,1.69328,-0.30641,-1.39554,0.22133,0.19714,0.02295,0.31083,-0.02519,-0.1716,0.04512
2599,-5.38873,12.26123,-5.03342,-22.00553,2.30741,-3.95934,-12.65134,9.55265,-5.32843,-42.24495,21.21362,-1.57379,1.14989,22.75155,-6.97133,-15.50756,9.14742,-3.16495,-51.93697,42.80035,-11.43002,-24.07523,-9.43395,15.46545,3.11595,5.46343,2.29148,-1.30821,-1.76837,0.70289,1.72907,-0.38852,1.67397,-0.07841,-1.92446,0.48992,0.23738,0.07825,0.25634,-0.00605,-0.33213,0.12338
2600,-8.12613,12.20239,-4.98742,-25.5196,3.72805,-4.02132,-20.88268,9.00976,-4.94989,-50.82267,20.44587,-3.10654,1.06767,23.42517,-7.18243,-16.51201,9.85759,-3.25364,-71.59458,38.5752,-14.46527,-9.87686,-6.83788,10.10142,-0.25368,5.97968,1.86997,0.97558,-2.5915,0.96576,0.97571,-0.1949,0.62695,0.63391,-1.97735,0.76459,0.12051,0.10548,0.04603,0.06894,-0.33752,0.14874
2601,-10.60862,13.37247,-5.0271,-29.4652,5.58093,-3.91012,-27.49097,10.44921,-4.54513,-59.41034,23.14444,-3.66835,1.01615,24.01954,-7.30389,-17.67125,10.54773,-3.25443,-91.27264,40.60615,-14.10357,6.49419,-10.18376,3.2888,-1.37136,4.55096,0.89183,2.6067,-2.06612,0.80878,0.22007,-0.12085,-0.13939,1.17572,-1.46147,0.83158,0.00701,0.11312,-0.03331,0.09256,-0.19682,0.1032
2602,-12.01808,15.37054,-5.15956,-33.52835,8.08814,-3.59061,-28.54509,13.9267,-3.98282,-69.08286,31.16844,-3.48561,0.83725,24.3753,-7.36005,-19.00911,11.20627,-3.10368,-105.81846,52.7534,-11.41787,9.66055,-16.40059,-2.27207,-0.09396,0.7535,-0.28565,0.80486,0.18443,0.11276,-0.02578,-0.55977,-0.43822,0.6426,-0.87209,0.54293,-0.01544,0.03937,-0.01076,-0.03092,-0.06919,0.03704
2603,-12.04057,17.04946,-5.39477,-36.00665,10.33017,-3.12361,-24.77181,16.57456,-3.87287,-74.27446,39.45686,-2.35526,0.43618,24.62854,-7.40509,-20.57243,11.74908,-2.83441,-107.33955,65.35097,-8.77224,-1.55897,-22.94874,-1.95247,1.13341,-2.15505,-1.12529,-2.84924,1.76493,-0.27475,0.02138,-1.11339,-0.67339,-0.45506,-0.75748,0.19578,-0.00743,-0.06595,-0.05849,-0.18624,-0.04044,0.01477
2604,-11.97731,17.05917,-5.60066,-37.54203,11.65401,-2.65531,-21.91261,14.55554,-4.33768,-74.46581,45.0128,-0.0209,-0.1151,24.95721,-7.51163,-22.37408,12.07351,-2.603,-101.44079,70.37647,-5.59552,-18.58277,-29.43749,6.73018,1.59512,-0.54688,-0.71488,-3.4514,0.60529,0.16417,0.11482,-0.86759,-0.39372,-0.62812,-1.17069,0.26102,-0.02529,-0.05928,-0.09561,-0.16614,-0.10446,0.05929
2605,-12.89749,15.58729,-5.61719,-41.04781,12.46826,-2.26761,-24.42217,9.56222,-4.60353,-78.7214,48.99833,2.17466,-0.56433,25.34401,-7.66433,-24.34675,12.24911,-2.46864,-106.56107,71.32752,-2.16384,-29.44978,-33.62799,16.19748,1.82823,3.39112,0.65653,-0.64886,-1.48897,0.5878,0.18246,-0.02125,0.56459,0.15577,-1.6548,0.56045,-0.0592,0.06381,0.01694,-0.00737,-0.21218,0.10385
2606,-14.3481,14.4739,-5.52755,-46.798,13.95942,-1.73329,-30.54616,6.749,-4.39642,-89.95415,51.84295,2.99512,-0.71524,25.69654,-7.7795,-26.39932,12.56616,-2.22868,-124.8599,72.42777,-0.85112,-27.15907,-29.0435,16.09667,1.68275,4.66788,1.45097,1.20868,-1.80411,0.27872,0.17969,0.37568,1.20512,0.58804,-1.80848,0.55071,-0.06553,0.15474,0.18742,0.0779,-0.28401,0.07916
2607,-15.41539,14.61725,-5.49884,-51.75527,16.25043,-0.92943,-34.93363,6.77297,-4.06305,-98.95724,52.2977,2.69622,-0.61743,25.96736,-7.83129,-28.42238,13.10211,-1.71289,-137.22318,70.88743,-1.87567,-17.90345,-13.82256,8.22599,1.68772,2.78531,1.24082,0.16148,-0.43053,-0.211,0.29964,0.06006,1.18552,0.27496,-1.56445,0.25196,0.01069,0.11677,0.29298,0.04141,-0.25082,0.02228
2608,-15.96137,15.26096,-5.54624,-54.97233,18.02323,-0.14452,-35.29997,7.71089,-3.9515,-101.01621,51.60615,2.30517,-0.42132,26.16783,-7.86064,-30.38431,13.62817,-1.0713,-136.18393,68.59671,-2.9358,-12.27655,0.94998,3.40664,3.0796,1.13559,1.08038,-1.65004,0.86823,-0.18813,0.77161,-0.39901,1.34396,-0.06938,-1.0118,0.09727,0.15367,0.0069,0.32552,-0.00309,-0.10384,0.00492
2609,-16.50344,15.99717,-5.62833,-58.87547,19.02881,0.50308,-34.42104,11.19196,-4.48835,-103.11472,54.41393,3.18425,-0.18698,26.34757,-7.87333,-32.42078,14.10072,-0.5247,-135.6985,76.98038,-2.66606,-10.69731,2.10034,4.69787,4.6939,1.03653,1.13269,-1.80032,1.32221,0.05454,1.2411,-0.84511,1.54053,0.06736,-0.52132,0.30051,0.25043,-0.10339,0.24724,0.01147,0.03179,0.05054
2610,-16.84916,17.05012,-5.73667,-64.51366,20.18477,1.25077,-33.98249,18.15079,-5.64139,-111.84581,61.37656,5.41248,0.03515,26.54957,-7.83587,-34.67115,14.75481,-0.03941,-145.42194,96.7176,-2.04951,-9.67746,-8.56511,5.9179,3.56919,0.96129,0.46714,-0.44604,1.05835,0.01093,0.99569,-1.26585,0.69097,0.47553,-0.72158,0.68124,0.19049,-0.16803,0.05107,0.0483,-0.00861,0.11968
2611,-16.2591,17.60647,-5.7926,-69.75782,21.04542,2.09171,-32.40413,21.91899,-6.26714,-124.93611,66.17572,6.99469,0.1313,26.83025,-7.7744,-37.14822,15.76414,0.55823,-160.21596,107.94901,-1.68396,-11.16179,-18.11333,4.89521,0.78936,0.026,-0.41029,0.71597,-0.30152,0.11281,0.26088,-1.40722,-0.42347,0.76811,-1.67392,0.91623,0.03678,-0.17424,-0.05378,0.06769,-0.18308,0.13549
2612,-15.00224,16.65805,-5.68797,-72.96279,20.39026,2.71197,-29.93332,16.93899,-5.45281,-135.74048,64.4979,6.48508,0.10006,27.22037,-7.75081,-39.79374,17.11442,1.30644,-172.57806,98.2391,-0.73133,-13.81547,-19.37278,4.25544,0.38346,-0.92881,-0.11668,0.36759,-2.48668,0.81059,-0.03754,-1.26182,-0.0618,0.6343,-2.5591,0.79094,-0.05622,-0.15196,0.06342,0.02813,-0.30467,0.06529
2613,-14.20283,15.17877,-5.47141,-75.06799,18.7949,3.03438,-29.32032,9.4418,-3.89524,-140.1557,60.10623,4.94537,0.09419,27.58736,-7.7538,-42.52328,18.65472,2.07903,-179.35872,82.54422,0.84779,-11.59708,-14.37265,3.74664,2.17399,-1.09309,0.78486,-1.36443,-3.54718,1.39997,0.19875,-1.04037,1.06692,0.00753,-2.59819,0.37643,-0.05874,-0.10802,0.17565,-0.08777,-0.28871,-0.02373
2614,-14.19825,15.04731,-5.32659,-77.27823,18.25609,3.36106,-31.22728,8.22457,-2.96328,-138.57536,59.07739,4.70435,0.2015,27.77016,-7.70951,-45.30774,20.26542,2.75484,-179.96767,79.78726,2.80147,-6.20456,-7.56019,3.24494,3.04063,-0.71167,0.8444,-2.36524,-2.34926,1.12955,0.47345,-1.04195,1.15962,-0.43944,-1.87885,0.13022,-0.00838,-0.06814,0.10623,-0.15629,-0.19834,-0.02509
2615,-14.28078,16.47869,-5.37791,-79.54429,19.26406,3.90461,-33.37173,12.29553,-3.26121,-135.18718,61.14553,6.64794,0.3313,27.8437,-7.60402,-48.17414,22.01595,3.29842,-177.16006,86.83826,5.18953,-5.26523,-4.23252,5.85637,2.33562,0.16271,0.34716,-1.34296,-0.54168,0.42442,0.60315,-1.13861,0.46914,-0.16104,-1.33107,0.35338,0.05701,-0.02092,0.02752,-0.08285,-0.17527,0.06979
2616,-13.87798,17.73957,-5.57003,-81.34851,19.52745,4.32677,-33.40518,14.7664,-4.46675,-133.88992,59.57035,8.78857,0.34845,27.9409,-7.51066,-50.97167,23.93627,3.70108,-174.77502,87.09937,6.22608,-10.654,-8.1985,10.57627,1.82665,1.1616,0.35449,0.63338,0.58643,-0.17769,0.71003,-1.09604,0.30737,0.49609,-1.27486,0.74648,0.11007,0.01444,0.08458,0.04237,-0.21572,0.14791
2617,-12.7754,17.28588,-5.72328,-82.74458,16.95576,4.11428,-29.80753,12.57212,-5.81732,-135.41377,50.19043,8.32437,0.26681,27.99878,-7.45201,-53.37551,25.80209,3.93919,-173.23083,73.74532,3.20507,-19.01757,-16.07171,11.25631,2.72104,0.9431,0.7067,2.06536,1.56178,-0.70073,0.85978,-1.18864,0.75305,0.95425,-1.2078,0.94097,0.15224,-0.05412,0.13826,0.09756,-0.21338,0.13962
2618,-11.18168,15.78729,-5.69535,-84.34701,13.43801,3.45408,-23.78749,8.84535,-6.43065,-138.25507,39.31588,5.5871,0.24475,27.92182,-7.35188,-55.22836,27.38603,4.0456,-170.77092,58.35225,-2.31076,-24.85259,-20.25185,5.9843,4.10761,-0.49311,0.61423,1.65454,2.35386,-0.9459,0.9269,-1.58044,0.91585,0.84284,-0.96597,0.78216,0.17208,-0.19492,0.03964,0.05364,-0.15471,0.0744
2619,-10.2662,15.10149,-5.4598,-86.71118,12.41947,3.00047,-21.20131,8.24132,-5.65521,-140.83049,37.15424,3.61819,0.36664,27.73499,-7.17623,-56.62191,28.63882,4.08744,-169.81099,56.73373,-4.80569,-22.41568,-17.61102,0.72027,3.95093,-0.76018,0.22917,-0.78924,2.01861,-0.50327,0.75967,-1.84188,0.52116,0.18859,-0.73068,0.2915,0.13872,-0.25899,-0.0898,-0.03997,-0.06528,-0.00682
2620,-10.55009,15.6126,-5.12398,-89.49487,13.77259,2.92105,-24.89557,11.33946,-3.94213,-142.9292,43.38622,3.66742,0.56204,27.50199,-6.97969,-57.63668,29.59458,4.10451,-174.67967,68.22015,-2.52018,-12.63052,-11.6291,1.11642,1.92404,1.1408,0.32348,-2.99344,0.12387,0.52551,0.40928,-1.64349,0.2267,-0.39496,-0.7356,-0.11096,0.05332,-0.20921,-0.03659,-0.09219,0.00775,-0.04808
2621,-10.746,16.01475,-4.86708,-91.31669,14.85965,2.90148,-29.37158,13.38609,-2.75404,-144.42108,47.11483,3.98691,0.75362,27.27113,-6.79768,-58.23383,30.31669,4.14602,-182.41251,74.44897,0.1843,-1.57703,-8.1702,4.90016,0.51507,2.63773,1.08978,-2.26779,-2.48641,1.44778,0.18368,-1.32379,0.72452,-0.22732,-1.19874,0.1169,-0.02902,-0.14331,0.20579,-0.03793,-0.02755,0.01671
2622,-10.24154,15.7503,-4.77703,-91.01827,14.58861,2.73048,-30.12385,11.33045,-2.84118,-143.04523,41.23927,2.89214,0.90107,27.01385,-6.62356,-58.36366,30.78053,4.23846,-184.15048,63.18367,-0.8083,6.83864,-9.63074,5.6827,1.35021,1.52068,1.76016,0.08601,-3.60974,1.51324,0.26934,-1.26106,1.6025,0.3234,-1.62852,0.59594,-0.0504,-0.11523,0.41247,0.05294,-0.11697,0.10971
2623,-9.71821,15.74136,-4.77785,-88.41061,13.41801,2.37672,-28.38894,9.10366,-3.57174,-135.6035,29.68019,1.04815,0.93624,26.60674,-6.42319,-58.02952,30.80247,4.30512,-172.89648,44.55703,-4.48308,8.40651,-13.44377,2.15603,2.72576,-1.26582,1.33863,0.21939,-1.60517,0.62363,0.48251,-1.41562,1.58675,0.2666,-1.12083,0.41058,0.00151,-0.11134,0.35299,0.05404,-0.06735,0.07678
2624,-9.29652,16.31979,-4.73298,-84.0469,11.891,1.93848,-25.92729,10.10884,-4.05698,-122.98528,20.26859,0.34069,0.79519,26.01433,-6.16242,-57.28452,30.33076,4.26997,-150.38594,34.02986,-7.0412,-1.04865,-15.74313,-0.64048,3.05452,-3.38054,0.16079,-2.08746,1.85665,-0.41371,0.61294,-1.68001,0.62766,-0.37088,-0.00587,-0.29003,0.0806,-0.13148,0.10847,-0.02748,0.11272,-0.04562
2625,-8.73774,16.44586,-4.56495,-78.78392,10.54529,1.57977,-23.03021,11.09154,-3.94541,-110.35062,16.76722,1.11314,0.51664,25.30015,-5.86748,-56.15257,29.56211,4.1798,-125.95647,32.88357,-6.71251,-15.43447,-16.17065,0.77312,2.8527,-3.14339,-0.33462,-3.49175,3.12852,-0.70988,0.62995,-1.88712,0.04868,-0.70036,0.26684,-0.56888,0.11101,-0.15269,-0.03494,-0.08952,0.17604,-0.10191
