PaulMeinheit/Bachelor_Muay_Thai/processed_Data/N2/roundhouse/sliced/JointMoments/sliced1.csv
Unnamed: 0_level_0,R_KNEE_MOMENT,R_KNEE_MOMENT,R_KNEE_MOMENT,L_KNEE_MOMENT,L_KNEE_MOMENT,L_KNEE_MOMENT,R_HIP_MOMENT,R_HIP_MOMENT,R_HIP_MOMENT,L_HIP_MOMENT,L_HIP_MOMENT,L_HIP_MOMENT,R_ANKLE_MOMENT,R_ANKLE_MOMENT,R_ANKLE_MOMENT,L_ANKLE_MOMENT,L_ANKLE_MOMENT,L_ANKLE_MOMENT,WAIST_JOINT_MOMENT,WAIST_JOINT_MOMENT,WAIST_JOINT_MOMENT,NECK_MOMENT,NECK_MOMENT,NECK_MOMENT,L_SHOULDER_MOMENT,L_SHOULDER_MOMENT,L_SHOULDER_MOMENT,R_SHOULDER_MOMENT,R_SHOULDER_MOMENT,R_SHOULDER_MOMENT,L_ELBOW_MOMENT,L_ELBOW_MOMENT,L_ELBOW_MOMENT,R_ELBOW_MOMENT,R_ELBOW_MOMENT,R_ELBOW_MOMENT,L_WRIST_MOMENT,L_WRIST_MOMENT,L_WRIST_MOMENT,R_WRIST_MOMENT,R_WRIST_MOMENT,R_WRIST_MOMENT
ITEM,X,Y,Z,X,Y,Z,X,Y,Z,X,Y,Z,X,Y,Z,X,Y,Z,X,Y,Z,X,Y,Z,X,Y,Z,X,Y,Z,X,Y,Z,X,Y,Z,X,Y,Z,X,Y,Z
467,-3.10779,6.7789,-0.0157,-34.73758,24.69941,4.2008,-7.56449,4.25028,-0.20452,-16.75897,7.52246,3.1654,-0.14018,10.5209,-0.74223,-49.14572,39.22416,6.28058,-40.16669,3.83009,-1.52069,34.42567,-5.35854,3.68523,2.89176,4.6426,1.11034,-5.31642,1.45836,0.37843,0.63826,-1.45682,0.05197,-1.08115,-1.17631,0.07973,-0.05092,0.12763,0.08264,-0.20075,-0.22076,0.07298
468,-1.9232,6.41264,-0.2843,-40.83548,31.10403,5.16049,-3.99444,2.85624,-0.84265,-27.10003,19.93489,4.32753,-0.19138,10.40022,-0.87092,-51.71675,41.31691,6.64033,-50.61017,16.95982,0.66376,28.1258,-13.48893,1.1457,0.68824,3.31566,0.95682,-5.94601,2.69451,-0.11473,0.38785,-0.98601,-0.07448,-1.30967,-0.8797,-0.03019,-0.12703,0.16131,0.07929,-0.25485,-0.17405,0.05734
469,-2.1094,9.08455,-0.76836,-46.60484,37.02122,5.83945,-4.11039,12.29678,-1.83598,-32.77531,30.70412,5.26758,-0.3004,10.56938,-1.05932,-54.67459,43.66907,6.83094,-59.53566,38.87275,-1.30799,19.15333,-13.74846,-2.60762,-1.28048,0.00313,0.42472,-6.64496,2.87057,-0.04673,0.34381,-0.94541,-0.16903,-1.4504,-0.63241,-0.24117,-0.10557,0.09907,0.05121,-0.2321,-0.05938,-0.00595
470,-2.90427,12.11826,-1.23884,-51.17297,40.71553,5.98759,-6.85516,22.63582,-2.60547,-33.69834,34.45786,5.49085,-0.36829,10.78749,-1.28321,-57.92371,46.10925,6.81248,-63.90472,52.29948,-4.52435,15.31636,-10.16929,-3.35287,-0.55563,-1.96261,-0.07687,-6.59719,1.91615,0.64306,0.61673,-1.48442,-0.20818,-1.20303,-0.54302,-0.34036,0.03109,-0.09832,0.03628,-0.12892,0.04471,-0.06378
471,-3.44436,12.1333,-1.4291,-54.76004,42.53495,5.73016,-8.3478,22.15236,-2.68939,-32.32597,34.22953,5.28868,-0.39644,10.75634,-1.51778,-61.22454,48.48343,6.66435,-61.44765,50.30551,-4.2407,15.94062,-12.50576,3.70921,1.95265,-0.47328,0.21002,-5.53685,0.34132,1.58744,0.87217,-2.20482,-0.09503,-0.62398,-0.64203,-0.20763,0.16404,-0.34221,0.06669,-0.01044,0.04929,-0.06158
472,-3.07923,9.39049,-1.39929,-59.29487,43.85539,5.21979,-4.72507,13.51523,-2.5286,-34.41467,34.57647,5.02989,-0.38836,10.55368,-1.7224,-64.42931,50.77891,6.38024,-55.79745,42.75297,-1.74706,16.14884,-17.51387,13.61564,3.64058,2.69798,1.26483,-4.39345,-0.88714,2.11688,0.76206,-2.6261,0.19957,-0.2805,-0.89074,-0.01128,0.19714,-0.47635,0.10416,0.01376,-0.05466,-0.01535
473,-2.04397,7.09456,-1.38484,-66.18603,45.54078,4.44231,1.42564,8.74966,-2.63793,-44.75736,35.52936,4.25039,-0.30662,10.50227,-1.86523,-67.51364,53.04748,5.87498,-58.17005,41.40896,-2.65478,13.81982,-15.67929,15.77422,3.29754,3.48047,1.95097,-3.92043,-1.03712,1.82234,0.38474,-2.58798,0.51947,-0.44754,-1.09075,0.04195,0.15232,-0.45274,0.11347,-0.06809,-0.16271,0.01764
474,-1.82449,7.606,-1.52396,-73.77241,47.75731,3.48678,2.06165,12.7256,-2.83188,-59.24396,36.409,2.70006,-0.19518,10.76753,-2.00503,-70.49351,55.31512,5.16899,-74.27462,47.93989,-7.49767,11.82546,-12.64527,8.99219,1.59946,1.0172,1.62686,-4.34389,-0.04603,0.88629,0.12593,-2.29302,0.67037,-0.92022,-1.0558,-0.12152,0.08474,-0.35451,0.13256,-0.16124,-0.18137,0.00548
475,-2.92821,10.45109,-1.82767,-79.17733,49.79642,2.49293,-5.00145,19.71564,-2.75426,-69.46687,36.96822,0.85678,-0.12558,11.24718,-2.20572,-73.31061,57.51653,4.38428,-96.41261,54.09423,-11.50791,16.01367,-18.88327,1.61779,0.00218,-1.38438,0.89674,-5.82458,1.46995,-0.02995,0.21683,-2.02991,0.49033,-1.54099,-0.74317,-0.50895,0.04067,-0.26667,0.15204,-0.22223,-0.10133,-0.05876
476,-4.06855,12.82454,-2.15924,-81.94476,50.47816,1.40881,-13.24727,22.14745,-2.49382,-75.08545,36.22462,-0.93876,-0.09946,11.61802,-2.43934,-75.65012,59.30686,3.5792,-116.10821,52.32349,-12.27172,28.56031,-25.13106,-1.15346,-0.17925,-1.41134,0.41219,-7.43215,1.95004,-0.0029,0.46119,-1.79797,0.03897,-2.0247,-0.48884,-0.83596,0.05857,-0.18284,0.06814,-0.25809,-0.00392,-0.12357
477,-4.13638,12.50526,-2.35196,-84.26961,49.90459,0.19053,-15.99933,18.40533,-2.37603,-82.72912,35.90189,-2.48732,-0.09218,11.59335,-2.64866,-77.05633,60.20579,2.70093,-131.38202,47.18124,-11.32103,41.86179,-18.69955,0.31558,1.46597,0.25933,0.34228,-7.45947,0.56509,1.08478,0.55988,-1.61808,-0.33672,-1.90615,-0.71048,-0.69607,0.15396,-0.0821,-0.14432,-0.24407,0.00911,-0.10784
478,-3.35989,10.64073,-2.47908,-87.37913,49.17336,-1.00558,-12.96341,13.32071,-2.69029,-92.62846,37.82096,-3.45085,-0.11057,11.30769,-2.82691,-77.26499,60.10865,1.73745,-138.50137,46.7981,-11.01895,42.74338,-9.37229,5.20255,3.75034,2.26709,0.8082,-5.78109,-0.81595,1.86038,0.50419,-1.72168,-0.34049,-1.23201,-1.11533,-0.23298,0.25215,-0.01409,-0.30169,-0.17094,-0.03682,-0.03795
479,-2.91943,9.63288,-2.6994,-89.18142,48.02219,-2.0507,-9.77685,10.69169,-3.29584,-96.35686,37.62155,-4.04758,-0.20008,11.099,-3.01874,-76.21155,59.22456,0.80709,-133.20984,45.93032,-12.62148,27.16141,-10.08786,11.59676,4.87805,3.4759,1.53275,-4.08952,-0.49256,1.46224,0.44938,-2.10576,-0.04359,-0.60671,-1.1823,0.04076,0.2334,-0.04966,-0.21818,-0.08765,-0.05501,-0.00498
480,-3.71692,9.85293,-2.93427,-87.29619,45.25875,-2.97049,-11.5171,9.5823,-3.45914,-90.41759,31.05141,-4.98507,-0.36553,11.01629,-3.23179,-73.86047,57.54729,0.02992,-119.88976,36.10044,-15.10898,8.50395,-12.46345,14.60551,4.49661,2.98365,1.55209,-3.75495,-0.15522,1.17216,0.3646,-2.0872,0.19834,-0.44867,-1.22692,0.04947,0.08745,-0.11346,-0.00052,-0.05781,-0.09686,-0.00156
481,-5.39879,10.35726,-3.03014,-82.26942,41.07994,-3.71324,-17.30432,8.71124,-2.81789,-81.80285,22.6784,-6.13429,-0.56606,10.91338,-3.40958,-70.18786,54.85461,-0.55778,-108.55941,23.94181,-15.9004,2.53178,-5.18982,10.65447,3.54793,1.03395,0.43756,-4.59018,-1.80578,2.19828,0.23656,-1.33238,0.11408,-0.69488,-1.83026,0.09146,-0.03787,-0.09274,0.09504,-0.11041,-0.25064,0.03549
482,-6.66484,10.56163,-3.04646,-75.85442,36.78056,-4.13464,-21.69951,8.78519,-2.09463,-77.27223,20.25633,-6.64752,-0.82019,10.73297,-3.52497,-65.19244,51.0384,-0.97963,-103.51974,22.65166,-14.29922,6.01059,2.25131,3.05858,2.54159,-0.66635,-0.65682,-5.14421,-3.53333,3.17456,0.1785,-0.62102,-0.13278,-0.93488,-2.49048,0.24587,-0.04175,-0.02431,0.02406,-0.1948,-0.39069,0.08506
483,-6.74484,10.37481,-3.12987,-68.33557,32.41476,-4.37644,-21.09713,11.15443,-2.19795,-74.3503,23.16371,-6.71124,-1.17776,10.47142,-3.60881,-58.88658,46.12096,-1.32803,-98.21844,33.3229,-13.30766,5.09294,-4.48024,-0.74756,1.54166,-0.74861,-0.33993,-3.98962,-2.6536,2.28188,0.20328,-0.82294,-0.12161,-0.67457,-2.37177,0.42617,0.00588,-0.04457,-0.01344,-0.19338,-0.36412,0.10579
484,-6.5404,10.14195,-3.34046,-59.41613,27.09178,-4.67316,-17.98934,16.096,-3.32598,-67.24678,22.52995,-7.30218,-1.65284,10.13348,-3.71493,-51.4467,40.30866,-1.68138,-85.61795,43.07854,-16.22233,-0.59572,-17.99715,1.14843,1.17869,-0.05836,0.85351,-1.70633,-0.25075,0.28326,0.22364,-1.67428,0.24738,-0.01737,-1.65374,0.51482,0.01346,-0.18077,0.10177,-0.0817,-0.2323,0.09466
485,-7.4121,9.89389,-3.63313,-49.93375,21.12767,-4.83213,-16.95092,19.57956,-4.91248,-56.91372,12.77587,-8.31202,-2.24899,9.77729,-3.89245,-43.31926,34.07625,-1.96998,-70.03196,37.15332,-21.58907,-0.11585,-20.02367,3.66566,2.27958,-0.33209,1.09566,-0.96908,1.10583,-0.71632,0.23012,-2.19497,0.57892,0.19691,-0.9507,0.27169,0.00449,-0.27896,0.22189,0.0071,-0.07882,0.0222
486,-9.10464,8.94048,-3.81864,-40.55158,15.74286,-4.48716,-18.11413,16.1498,-5.64891,-46.88315,-0.34019,-8.4506,-2.90323,9.48645,-4.11448,-34.92946,27.80783,-2.03189,-55.53268,16.37675,-23.33521,9.4026,-9.71777,4.15962,4.22697,-1.32476,0.09058,-3.11589,0.75192,0.06127,0.28473,-2.09189,0.48055,-0.41254,-0.56266,-0.27732,0.03747,-0.24594,0.17156,-0.02571,0.07643,-0.10882
487,-10.36507,7.38407,-3.73366,-30.66532,11.73648,-3.61997,-19.07312,8.74417,-4.51141,-34.65374,-5.60205,-6.70879,-3.45825,9.32006,-4.29967,-26.55648,21.64691,-1.80123,-35.32858,1.99244,-17.84665,17.74149,-1.83487,5.12165,5.03903,-1.3898,-0.60613,-5.82791,-0.65634,1.68444,0.29879,-1.81187,0.11983,-1.0996,-0.72036,-0.60553,0.0703,-0.17746,0.02289,-0.11751,0.13023,-0.18797
488,-10.96989,6.75397,-3.58245,-20.50131,9.23374,-2.56879,-20.30486,7.87264,-2.66211,-18.03819,-0.24941,-3.62316,-3.83462,9.32598,-4.46039,-18.67623,15.87648,-1.41394,-8.55178,11.81674,-10.11197,15.56538,-5.03911,7.00889,4.07544,-0.41699,-0.15968,-5.95637,-2.15452,2.66593,0.20084,-1.72862,-0.03621,-1.01732,-1.50629,-0.27763,0.03798,-0.19529,-0.01563,-0.15122,-0.03537,-0.10473
489,-12.08152,7.08403,-3.69668,-11.81254,7.60327,-1.70012,-23.84699,13.91043,-2.34254,-2.31432,7.70287,-0.75254,-4.1494,9.49872,-4.73828,-11.91773,10.93504,-1.08807,11.93608,34.10012,-6.32476,7.98506,-14.79521,7.02322,2.86057,0.23559,0.63922,-3.36628,-2.63706,2.29911,0.07033,-1.81302,0.17034,-0.20218,-2.40204,0.50317,-0.03125,-0.25825,0.09264,-0.0881,-0.32997,0.10391
490,-14.27355,6.58044,-4.06323,-5.4672,5.42021,-1.2467,-28.12737,16.20283,-3.82601,7.10637,9.763,0.75046,-4.51178,9.73286,-5.1978,-6.57551,6.94581,-0.93494,19.43477,43.50774,-5.80967,6.01283,-21.69162,6.20721,2.55171,0.21229,1.00613,-0.43985,-2.43233,1.49901,0.00429,-1.82419,0.42865,0.67383,-2.81774,1.14904,-0.03673,-0.23778,0.15518,0.02977,-0.52029,0.28452
491,-16.16389,5.31603,-4.46892,-0.7246,1.60635,-1.28119,-28.86779,12.76682,-5.47817,11.42593,3.21751,0.54334,-4.80843,9.97408,-5.6877,-2.63534,3.74344,-0.92786,22.53521,34.02599,-6.7312,8.44035,-21.3887,9.16569,2.90634,0.34829,1.14438,1.21425,-3.31076,1.73635,-0.03908,-1.7097,0.50817,1.15156,-2.84857,1.35422,0.06065,-0.12967,0.05171,0.16472,-0.51349,0.34959
492,-17.26055,4.69316,-4.79496,2.01855,-2.10662,-0.24291,-28.62243,8.76456,-6.08794,12.07057,-5.39003,1.12523,-4.93683,10.36351,-6.10473,0.36966,-0.51953,-0.11806,23.21373,18.82836,-6.78074,6.67954,-17.80852,13.57792,3.47329,0.74228,1.24878,1.30755,-4.855,2.74739,-0.15372,-1.56102,0.53641,1.12737,-2.6603,1.17645,0.16349,-0.04843,-0.08493,0.24474,-0.37694,0.30764
493,-18.38229,4.80228,-5.06921,3.10725,-3.81716,-0.45843,-32.77081,6.00413,-5.95744,13.417,-14.03901,-0.03901,-4.98577,11.01342,-6.51577,0.48359,-0.61566,-0.1791,20.53708,1.72257,-10.1757,-0.40156,-14.93675,11.1651,3.99014,0.49817,0.79517,0.20756,-4.42396,2.86455,-0.17485,-1.37561,0.50616,0.78633,-2.03378,0.82952,0.16801,-0.06801,-0.0884,0.18042,-0.19359,0.18942
494,-19.32277,5.21061,-5.36746,3.47311,-3.14499,-0.36649,-39.22848,6.90176,-5.77264,16.51285,-15.8851,-0.76368,-5.06811,11.70645,-6.9635,0.37145,-0.41545,-0.10761,19.08249,-2.40893,-13.59057,-9.27469,-12.57594,3.68236,4.10722,-0.43254,-0.23738,-0.59012,-2.22759,1.83387,-0.13307,-0.96778,0.41139,0.56101,-1.26874,0.63023,0.03807,-0.07548,0.02765,0.01312,-0.06738,0.06691
495,-19.84872,6.01736,-5.72173,-4.92065,0.90695,-0.97883,-43.90277,12.43657,-5.51107,8.75568,-9.14113,-2.55818,-5.22819,12.14558,-7.43235,-7.96793,3.88208,-0.42803,7.06631,11.7446,-17.19839,-16.01681,-14.4239,3.98854,3.67331,-0.63469,-0.74131,-0.03264,-1.5074,1.23776,-0.19045,-0.49274,0.28042,0.65529,-1.34193,0.78302,-0.10735,0.04904,0.07155,-0.10937,-0.13472,0.04433
496,-20.60347,7.00203,-6.14181,-14.68891,4.66491,-0.89522,-46.62007,15.7067,-5.1921,-6.94993,1.04243,-3.22621,-5.47872,12.43465,-7.91696,-15.76825,7.19991,-0.21925,-13.31244,30.34376,-15.80808,-13.53439,-21.78424,15.5213,2.92133,0.84666,0.12688,0.68685,-3.34621,2.01334,-0.23474,-0.42371,0.06965,0.85475,-2.41748,1.11716,-0.10026,0.19769,-0.06341,-0.09156,-0.37057,0.14236
497,-21.5212,7.57467,-6.63298,-27.26314,8.69307,-0.68638,-47.41462,11.9277,-5.4394,-32.09684,12.95772,-2.23258,-5.81087,12.92156,-8.39592,-26.50132,11.83126,-0.01749,-45.42257,42.41816,-10.57069,-2.18146,-22.75215,26.01942,2.42513,2.83898,1.90603,0.84111,-5.56222,3.25769,-0.26266,-0.99604,0.08467,1.05214,-3.30037,1.32654,0.00176,0.15642,-0.17331,0.03894,-0.4941,0.2552
498,-21.58836,7.93776,-7.19467,-42.2975,13.23279,-0.35578,-44.4857,7.38343,-6.6093,-59.30863,24.28874,0.47938,-6.19262,13.74943,-8.8449,-40.35822,17.78593,0.15092,-76.11073,49.98731,-6.6041,5.10564,-10.70705,25.18319,2.71707,3.16603,3.26931,2.05364,-6.16598,3.67827,-0.48429,-2.01935,0.72845,1.50736,-3.04459,1.43091,-0.00094,-0.1368,-0.00196,0.19633,-0.33424,0.28935
499,-20.76112,8.52457,-7.74748,-59.00475,17.83649,-0.14706,-38.9075,9.11181,-8.01921,-80.44324,32.65265,3.29541,-6.54081,14.73823,-9.29004,-56.98333,24.69181,0.3012,-93.91348,57.52369,-7.55765,1.3935,1.35228,14.74861,3.5997,1.17433,2.9404,4.6998,-5.03968,3.10057,-1.02549,-2.50142,1.78061,2.28566,-2.06201,1.61966,-0.18542,-0.41519,0.37603,0.3304,-0.09599,0.28834
500,-20.21821,9.04161,-8.15,-78.12817,22.11551,-0.21338,-35.66835,16.01434,-8.6686,-102.02383,40.57819,4.01232,-6.69021,15.539,-9.75353,-75.63734,32.06925,0.48465,-114.49511,69.22169,-12.29261,-5.94822,-0.59601,3.39741,4.13279,-1.31598,1.11857,6.41648,-2.95223,2.12723,-1.51243,-1.75225,2.37995,2.93477,-1.18645,1.81198,-0.38262,-0.41335,0.63137,0.41974,-0.03038,0.31783
501,-20.88489,9.57783,-8.43342,-99.59622,26.37372,-0.26335,-38.05191,21.79986,-8.66354,-133.67293,50.8302,2.35687,-6.53489,16.12876,-10.21426,-95.43269,39.60763,0.84566,-157.05215,82.97946,-17.12583,-10.43307,-13.98981,-0.44643,3.67286,-2.08791,-0.56031,5.60779,-0.90772,1.27968,-1.47489,-0.3836,2.01924,2.97143,-0.74458,1.76497,-0.38708,-0.1771,0.54642,0.41576,-0.10969,0.32837
502,-22.15457,10.71898,-8.81822,-120.72421,30.93351,0.12063,-42.23067,21.04349,-8.94571,-172.05911,62.10038,0.99787,-6.18166,16.89535,-10.65478,-115.5154,47.01909,1.45858,-212.75751,89.65182,-18.03037,-13.66286,-26.49053,5.23736,2.69541,-1.12731,-0.9916,3.16855,0.12338,0.77679,-0.98111,0.47114,1.12565,2.37003,-0.74666,1.4159,-0.20948,0.07042,0.22683,0.27688,-0.17467,0.2374
503,-23.07698,12.04462,-9.35125,-139.37207,35.09439,0.80193,-43.38313,14.8956,-9.59963,-210.21504,74.09878,1.92699,-5.89005,17.84002,-11.10676,-135.07587,53.71687,2.12702,-265.04095,91.52869,-14.15446,-17.06967,-30.93324,14.27047,2.0585,0.12828,-0.31568,1.07825,0.02535,0.498,-0.43462,0.229,0.4355,1.66333,-1.08918,0.98752,-0.01365,0.14194,-0.04854,0.10594,-0.17464,0.09115
504,-23.40171,12.72692,-9.82976,-154.38092,37.79001,1.33048,-43.23757,10.01213,-9.81007,-243.53181,86.8711,3.86126,-5.81929,18.4685,-11.55194,-153.17635,59.01447,2.69777,-308.61862,100.05997,-9.88297,-16.19514,-27.88182,17.94483,1.77591,0.96122,0.61303,1.09503,-0.65631,0.48616,-0.08592,-0.49447,0.13432,1.60743,-1.49857,0.89231,0.06999,0.06539,-0.14,0.10032,-0.16412,0.05555
505,-23.56242,13.05055,-10.19543,-164.96651,38.77414,1.6158,-46.59617,10.07184,-9.48117,-268.02252,95.90968,4.47562,-5.94662,18.66596,-11.96404,-168.96426,62.58458,3.23023,-343.44846,112.35487,-10.22585,-10.24534,-20.80109,14.94055,1.23925,1.81607,1.15721,3.82597,-1.88621,1.32918,-0.12401,-0.47267,0.03734,2.53426,-1.85667,1.45606,-0.0069,0.07827,-0.12073,0.29295,-0.21123,0.22384
506,-23.68672,14.40748,-10.69524,-171.6075,38.47879,1.90336,-50.95168,14.47455,-9.84124,-283.11475,97.97808,3.74571,-6.13363,18.91291,-12.36428,-181.95718,64.44678,3.76428,-366.25433,118.60565,-14.88727,-7.17133,-17.10154,12.23399,0.09761,3.54366,1.85585,7.43056,-2.88047,2.59206,-0.65665,0.55983,0.17496,3.82466,-2.0769,2.3955,-0.19347,0.29382,-0.08438,0.48367,-0.30764,0.46245
507,-23.11795,17.52569,-11.44679,-175.31516,37.89995,2.4076,-48.97318,21.56002,-11.54273,-291.69864,98.07529,3.78458,-6.19463,19.62518,-12.72676,-191.96687,64.77979,4.32223,-373.47086,122.26547,-19.01901,-8.30076,-23.5066,14.25135,-1.59756,5.96564,3.67297,8.52324,-1.60271,2.42436,-1.41754,1.54803,0.81214,4.22782,-1.65376,2.81004,-0.37948,0.48641,0.04347,0.4767,-0.29789,0.52945
508,-22.04973,20.92245,-12.13757,-175.35809,37.70563,3.02939,-42.33568,27.10468,-12.88629,-293.70505,102.68405,5.77575,-6.0972,20.64932,-13.04682,-198.85005,63.80119,4.94226,-369.59445,129.55249,-18.37943,-5.03744,-33.4481,19.08882,-3.27354,7.34318,6.40691,6.38729,0.5295,1.02687,-2.16828,1.42958,2.27193,3.35169,-0.91342,2.28869,-0.53521,0.38339,0.4192,0.30141,-0.15656,0.37542
509,-21.42381,22.89961,-12.51111,-172.07036,36.78089,3.35182,-38.75769,27.8506,-12.17601,-291.02151,109.67677,7.69845,-5.98495,21.54929,-13.39845,-202.68527,61.66952,5.40095,-367.67639,135.94379,-14.69373,5.45496,-31.10321,22.23022,-3.89195,6.22422,8.42386,4.24854,-1.0664,1.02221,-2.80892,0.30269,4.24756,2.35388,-1.32626,1.45551,-0.65353,0.02519,0.94319,0.15938,-0.1429,0.18394
510,-21.89583,23.71161,-12.73719,-167.95877,33.81724,3.17419,-41.00927,25.47609,-10.50164,-288.98358,111.80495,7.28186,-5.92987,22.33481,-13.8393,-203.86865,58.48811,5.38283,-373.84695,134.45103,-13.61586,13.99004,-14.15288,19.65301,-2.78155,3.63475,8.14719,5.44395,-5.90289,3.05557,-2.97978,-0.71974,5.37964,2.76774,-2.93174,1.31897,-0.66821,-0.25697,1.20959,0.25739,-0.36203,0.18642
511,-23.36758,24.88379,-13.06925,-163.9064,29.66653,2.83366,-46.26844,23.53824,-10.04508,-287.90918,106.80317,5.6486,-5.80232,23.54254,-14.30391,-202.75899,54.38065,4.93109,-379.77441,125.68044,-16.91688,6.97719,-2.4858,13.00742,-0.44963,1.94446,5.21678,9.47072,-7.90853,4.95015,-2.40021,-0.57076,4.26497,4.60816,-3.75662,2.29131,-0.57237,-0.16192,0.90563,0.57403,-0.53833,0.43271
512,-24.73536,26.87897,-13.45244,-158.18292,26.12036,2.68978,-50.68658,23.37867,-10.96399,-282.2991,99.31882,5.66213,-5.47415,25.4262,-14.66737,-199.47417,49.52727,4.33807,-374.94604,116.37967,-20.33915,-15.07524,-13.35141,8.6313,1.39511,1.33782,0.40698,12.42531,-4.12541,4.83968,-1.02818,0.35495,0.69978,6.117,-2.76059,3.60572,-0.35407,0.1735,0.10755,0.80631,-0.46989,0.70261
513,-25.2468,29.09735,-13.77053,-150.32558,22.93097,2.64059,-52.40743,25.24026,-11.93889,-270.77167,92.15158,7.29862,-5.09991,27.63006,-14.9685,-194.07944,44.13957,3.71948,-359.20023,111.33387,-21.04067,-31.25786,-31.88677,9.87536,0.82166,0.53549,-3.33365,11.86389,2.08018,2.98896,0.42498,0.80145,-2.93946,6.03819,-1.0471,4.1749,-0.06355,0.32261,-0.60547,0.7651,-0.29692,0.76622
514,-25.45225,31.29888,-14.10045,-142.4593,18.81844,2.44734,-51.32024,28.14576,-12.24511,-260.33737,84.07774,7.74709,-4.95266,29.77416,-15.38064,-186.82133,38.4901,3.05481,-342.43054,108.67262,-20.43633,-25.52371,-31.52538,15.8955,-2.31447,0.56747,-1.85399,9.44113,5.17304,1.45957,0.4799,0.68757,-2.82399,5.16148,-0.26238,3.88273,0.05739,0.1808,-0.53716,0.60357,-0.22359,0.6385
515,-26.13834,33.65945,-14.46934,-135.53954,14.65991,2.09471,-48.53574,30.45798,-11.92152,-254.36838,77.85921,6.46292,-4.9987,31.81472,-15.92499,-178.16745,32.88191,2.42665,-330.49396,107.90915,-18.90467,-11.55274,-19.59416,24.11698,-6.04027,3.57238,4.45376,7.98514,2.25228,2.09915,-1.43485,1.34361,1.31117,4.97702,-1.1307,3.40569,-0.15235,0.12543,0.23991,0.53433,-0.29808,0.49287
516,-27.33476,36.38308,-14.76139,-128.26781,12.31248,1.62928,-46.87629,32.92112,-11.39274,-247.36041,77.64236,5.30389,-4.96904,33.88938,-16.40733,-168.69028,27.487,1.90002,-319.43195,112.37063,-16.38387,-13.28103,-23.02545,30.65339,-8.35665,8.71082,9.84716,8.00514,-3.93668,4.24839,-3.72324,2.98925,4.86478,5.65436,-2.76289,3.19999,-0.49112,0.35144,0.89462,0.57872,-0.42062,0.44763
517,-28.39389,39.17992,-14.90118,-119.80663,11.13259,1.07406,-48.48078,35.08473,-11.15305,-237.214,79.35699,4.42092,-4.78817,36.23789,-16.66755,-158.90498,22.27435,1.36015,-308.79703,116.33408,-15.21017,-25.01193,-40.10293,32.62751,-8.16582,12.7221,10.84203,7.97574,-6.25467,5.23484,-3.81071,3.45618,4.50033,5.95348,-3.09664,3.24865,-0.54511,0.50866,0.9189,0.61255,-0.39806,0.48879
518,-28.85867,41.73323,-14.90052,-110.41759,9.04284,0.54875,-51.95428,34.30375,-10.98894,-225.85872,76.55532,3.80962,-4.60442,39.07286,-16.74239,-149.11699,17.14747,0.66723,-300.24152,111.90401,-14.90404,-18.93024,-50.53393,33.43426,-5.65894,13.92747,10.42148,6.90364,-0.81708,3.77178,-0.78139,1.11731,2.47633,4.97251,-1.28128,3.41146,-0.09737,0.21916,0.61788,0.53598,-0.17305,0.51123
519,-28.76679,44.09409,-14.76148,-100.94697,5.92004,0.17796,-53.22574,31.75638,-10.38195,-212.31004,69.48403,4.62369,-4.47697,42.29283,-16.75921,-139.3886,12.23606,-0.11852,-287.37604,104.05999,-12.75932,6.0904,-49.39892,36.74797,-5.19557,11.82556,11.0133,5.23285,6.13677,1.63918,2.57165,-1.78465,1.4851,3.44002,0.56239,3.29543,0.4478,-0.25888,0.39479,0.40808,-0.01442,0.42167
520,-28.31963,46.13137,-14.50452,-93.04787,3.64253,-0.09047,-50.83367,31.94643,-9.7134,-198.90643,61.621,5.31718,-4.35169,45.56087,-16.80501,-129.71112,7.96468,-0.76155,-269.87384,100.53044,-11.78156,21.74582,-41.2196,37.49541,-11.86459,5.62782,10.31472,3.9577,6.05005,0.87451,2.08412,-2.11425,0.45977,2.79978,0.21584,2.55322,0.34258,-0.38809,0.25564,0.35789,-0.14293,0.25164
521,-27.41292,47.94625,-14.2632,-87.01637,3.2147,-0.45886,-47.61278,36.13855,-9.71636,-189.17625,56.08442,3.67138,-4.23719,48.69171,-16.87527,-120.21656,4.59819,-1.12565,-254.19388,102.50616,-15.18124,18.23513,-29.8865,29.91257,-21.22174,-2.21256,6.61614,3.56111,0.49474,1.26749,-1.47687,-0.93223,-2.15096,3.19559,-1.40411,1.65429,-0.27393,-0.24596,-0.00215,0.34882,-0.34887,0.1049
522,-26.24385,49.77774,-14.10866,-80.70336,3.20077,-0.98422,-46.64197,39.75801,-9.93489,-178.60007,54.07998,1.3701,-4.20308,51.73366,-16.94712,-111.18115,1.93538,-1.29458,-236.92677,106.84279,-18.49859,10.65729,-24.43834,18.51502,-22.64954,-5.44631,1.5302,4.78833,-2.11875,2.2294,-3.49583,-1.03545,-5.49421,3.71895,-1.92555,1.70256,-0.59452,-0.19174,-0.5046,0.27413,-0.33618,0.0755
523,-25.85599,50.92472,-13.81173,-72.13605,2.46946,-1.38069,-48.30311,37.44965,-9.19666,-159.81862,53.71499,1.57263,-4.23909,54.69687,-17.05544,-102.73215,-0.33156,-1.30683,-210.00154,107.43758,-16.29517,11.01548,-29.65161,15.13307,-12.85434,1.14809,0.1253,6.79852,0.13586,3.43547,-1.35369,-1.93999,-5.68089,3.77494,-1.09343,2.58437,-0.30028,-0.20602,-0.72722,0.19551,-0.19166,0.12466
524,-26.61097,50.28129,-13.02419,-63.06358,1.96634,-1.40574,-50.234,28.82223,-7.16279,-137.48701,51.98426,3.58764,-4.20311,57.41166,-17.16969,-94.8488,-2.26802,-1.07952,-180.43576,97.86765,-9.99927,20.81158,-32.44557,17.74096,0.42063,11.5745,2.49742,5.57142,1.25418,3.14941,3.38443,-1.70425,-2.3351,3.29244,-0.49078,2.61012,0.35336,-0.07233,-0.37935,0.21494,-0.11355,0.1482
525,-27.02156,48.26316,-11.73678,-56.54988,2.2295,-1.20232,-49.25438,18.73738,-4.42925,-123.56601,48.36124,4.20062,-3.9632,59.67483,-17.09028,-87.58764,-3.85502,-0.63985,-162.34937,80.56778,-4.19754,32.98492,-24.98529,12.92756,7.64961,10.97224,1.50736,0.05057,-0.46676,0.65719,7.11285,-1.80524,-1.31831,2.51582,-0.45806,1.54099,0.96229,-0.03238,-0.24143,0.25266,-0.04546,0.20273
526,-25.5406,46.94756,-10.37986,-53.02666,2.49715,-1.05809,-44.72416,14.01395,-1.79536,-121.38899,47.15886,3.26947,-3.58402,61.31796,-16.63743,-81.15913,-5.1309,-0.12004,-157.20312,72.47395,-0.02335,37.28387,-21.98964,2.36803,5.71256,-2.22833,-3.55681,-5.83823,-0.26535,-2.10959,7.50392,-4.04002,-4.63716,1.58235,-0.28931,0.73285,1.20498,-0.40691,-0.72445,0.19698,0.03359,0.25588
527,-23.1323,47.42213,-9.31663,-50.85155,2.47973,-0.97247,-40.6147,16.76181,0.21859,-124.71344,52.59387,3.93501,-3.34846,62.13981,-15.91647,-75.7618,-6.07617,0.45435,-159.41618,85.66506,5.11182,36.62999,-29.17481,-3.66261,-0.74471,-13.98574,-6.33386,-9.36945,2.76275,-3.97026,5.25843,-6.29285,-7.48108,0.55247,-0.14167,0.22755,1.01785,-0.85942,-1.13717,0.09766,-0.03519,0.06808
528,-21.76067,48.21422,-8.42267,-48.20107,2.35804,-0.65398,-39.99166,21.58107,1.39839,-124.37968,60.57878,8.03553,-3.51562,62.02702,-15.16339,-71.33771,-6.6586,1.11358,-162.97041,105.72251,13.23742,44.03908,-28.59052,-4.11434,-4.50917,-14.84165,-4.5966,-11.56747,3.97798,-5.79838,3.328,-6.10597,-6.63014,-0.47433,-0.33657,-0.91859,0.72323,-0.88792,-0.95287,-0.00511,-0.18964,-0.35127
529,-21.23192,46.74921,-7.2355,-44.8504,0.12343,0.12131,-39.80615,22.47363,1.84803,-114.23726,56.76686,11.87991,-4.08716,61.04326,-14.38178,-67.69981,-7.12571,1.66094,-158.07478,102.38082,19.25271,53.06746,-12.00616,-3.10838,-4.04788,-9.29851,-1.90401,-13.22876,1.3405,-7.67449,3.12343,-4.51742,-4.25972,-1.36334,-0.44677,-2.36515,0.56156,-0.62873,-0.53544,-0.16796,-0.17041,-0.6359
530,-19.93791,41.18841,-5.35914,-41.31451,-5.22184,1.13952,-35.32702,16.79406,2.26349,-95.53272,35.24711,10.7766,-4.92491,59.17635,-13.38149,-64.77425,-7.81135,1.90698,-137.72237,65.76969,17.05237,43.65166,3.95892,-4.64512,-1.35142,-6.72562,-1.7298,-13.79456,-2.19724,-8.76835,3.99211,-3.9669,-3.44944,-2.43762,-0.1002,-3.47953,0.55525,-0.52644,-0.40134,-0.46633,0.06336,-0.69403
531,-16.19024,32.76122,-3.22821,-37.75365,-8.83955,1.68049,-23.09753,6.23951,3.01051,-76.92341,14.70398,6.92838,-5.81894,56.21041,-11.96177,-62.61378,-8.7267,2.05773,-104.92349,24.33286,12.03468,21.8725,6.73529,-11.39872,4.40326,-8.6706,-3.97074,-12.9159,-4.10126,-9.00811,5.59249,-4.48522,-4.0886,-3.77871,0.39979,-4.43313,0.72826,-0.59146,-0.53628,-0.82357,0.30702,-0.77755
532,-11.15751,24.57764,-1.38553,-34.59668,-6.70589,1.31825,-8.20822,-4.23918,4.78233,-67.7225,14.09871,5.48099,-6.5829,51.83944,-10.14977,-61.16621,-9.77693,2.34255,-76.71545,8.27876,13.82956,15.40985,8.2319,-21.66196,13.13056,-10.28776,-6.47092,-11.51201,-5.2833,-9.34439,7.67241,-4.57971,-4.53992,-4.57835,0.56729,-5.42079,1.00639,-0.59497,-0.68385,-1.00433,0.38999,-0.96725
533,-9.07741,16.65298,1.1456,-32.45452,-1.38881,0.4404,-2.36074,-12.70376,8.86674,-70.76162,29.96936,7.73486,-7.28757,45.74431,-8.21994,-60.19278,-10.92436,2.66009,-73.20374,17.0447,23.8452,29.74244,24.93988,-30.79209,20.73044,-9.1662,-7.61256,-11.59893,-6.77618,-11.08369,9.69228,-3.89168,-4.2773,-4.49288,0.33936,-6.50424,1.28705,-0.5151,-0.75017,-0.93199,0.32491,-1.1764
534,-10.04641,7.37683,4.93371,-30.54777,2.26005,-0.29112,-3.59262,-19.28992,13.69822,-78.48619,46.27035,11.27122,-7.9679,37.93817,-6.22465,-59.48164,-12.04526,2.81243,-86.63235,32.86464,34.92487,42.56829,51.98019,-35.12076,22.6878,-5.87628,-6.61457,-14.00808,-7.34049,-14.27488,10.80528,-2.63234,-3.31326,-4.25787,-0.01855,-7.65161,1.47436,-0.35741,-0.66874,-0.79144,0.21849,-1.3633
535,-10.26758,-1.04081,8.15488,-27.81741,2.14263,-0.63006,-0.04354,-22.90367,16.07808,-79.59306,52.05944,13.17644,-8.39251,29.37517,-4.12537,-59.09837,-13.01047,2.72282,-88.93667,40.48413,40.64521,37.8581,69.56158,-33.7159,18.02449,-1.38683,-3.81414,-16.92303,-6.4873,-17.15462,9.86019,-0.83586,-1.6168,-4.45104,-0.30739,-8.51189,1.36818,-0.073,-0.37664,-0.74786,0.13415,-1.4729
536,-7.97715,-3.01528,8.03957,-24.3949,-0.67356,-0.81541,12.05313,-22.9938,15.59773,-71.5226,49.1723,12.86539,-8.29233,21.83999,-2.23026,-59.13677,-13.8527,2.4087,-69.74549,33.89433,43.32874,22.75073,67.16339,-28.98715,12.16234,2.56126,-1.29241,-17.28136,-5.2491,-17.18349,7.61634,0.84651,0.10579,-4.49776,-0.44887,-8.12481,1.03113,0.21927,-0.0387,-0.69275,0.05681,-1.35002
537,-5.55883,3.82528,3.83438,-21.20202,-3.75729,-1.12536,25.01458,-20.18405,14.53669,-65.2658,46.14087,11.31249,-7.71206,16.4282,-0.99191,-59.42677,-14.65756,1.96827,-52.59174,17.33598,47.9851,15.7568,53.71698,-25.04058,12.69813,3.66951,-1.30069,-14.63597,-3.42534,-13.6018,6.61414,1.30606,0.63699,-3.74481,-0.35095,-5.85567,0.86179,0.28479,0.08432,-0.46643,-0.03207,-0.95853
538,-6.51561,13.43278,-1.32475,-18.97746,-5.77918,-1.51623,30.05168,-13.98488,14.51833,-71.19231,45.22357,8.84967,-6.99865,12.36796,-0.43603,-59.8187,-15.4636,1.50295,-61.06149,2.33657,51.83206,26.84285,45.46804,-24.50653,19.80604,2.12344,-3.60811,-12.58662,-0.48441,-9.66817,7.63476,0.50933,-0.20442,-2.80196,-0.05291,-3.05962,1.0206,0.11517,-0.02058,-0.20336,-0.10408,-0.58386
539,-9.16443,16.81086,-3.6472,-16.87425,-8.17936,-1.67368,29.94289,-3.25634,14.87561,-82.15047,39.03566,5.36509,-6.12209,8.2991,-0.10221,-60.40919,-16.41755,0.9555,-79.00624,-3.1413,48.03165,46.7597,48.22571,-28.03824,25.8878,0.74437,-5.7719,-14.11976,1.85837,-9.79956,9.13345,-0.34748,-1.32648,-2.74979,0.14812,-2.20544,1.27759,-0.03595,-0.15055,-0.17371,-0.12647,-0.55119
540,-7.67563,11.54883,-3.22857,-13.41988,-11.55373,-1.56878,34.5014,6.80244,14.85508,-83.8978,25.77755,1.9607,-4.58029,4.05128,0.28661,-61.3121,-17.64865,0.31347,-76.86784,-3.30864,37.92693,57.36589,55.1623,-35.06357,26.21868,0.70321,-6.27621,-17.22553,1.5484,-13.71065,10.0595,-0.55503,-1.97207,-3.55043,0.04109,-3.80823,1.44824,-0.04228,-0.20928,-0.38906,-0.06037,-0.81315
541,-1.19724,2.7979,-2.38602,-9.16022,-13.70241,-1.6192,43.74658,4.01834,15.49073,-74.57242,15.09797,0.32287,-2.38888,0.51207,0.51859,-62.3821,-19.07899,-0.25997,-57.46781,-11.67743,29.87433,52.31553,56.78473,-43.99415,23.96531,0.15068,-5.86578,-18.28468,-0.86051,-17.39705,10.6694,-0.57919,-2.44197,-4.15059,-0.24121,-6.06433,1.54542,-0.04267,-0.28385,-0.60874,0.10734,-1.07727
542,2.23194,-5.55272,-0.00894,-5.71777,-13.12302,-2.18358,46.17366,-22.41796,19.8702,-63.89879,16.07539,1.07884,0.11476,-3.99644,0.41805,-63.26087,-20.55756,-0.69615,-46.766,-40.55371,31.7604,41.93499,48.93461,-52.60684,23.72021,-1.69014,-5.69806,-17.71071,-2.17033,-18.45201,11.17403,-0.77843,-2.96309,-4.23427,-0.16622,-6.88456,1.58238,-0.12941,-0.41706,-0.69127,0.32222,-1.12066
543,2.3207,-6.07613,1.27815,-3.55945,-11.72029,-3.0083,45.18041,-44.68453,23.54285,-61.67325,24.81781,2.7336,0.37108,-3.64078,0.58988,-63.78176,-21.97526,-1.16349,-46.04756,-60.45968,38.77503,35.76266,37.24519,-59.57063,25.90064,-1.7072,-5.91668,-18.32227,0.21263,-17.32255,11.25641,-0.6312,-2.9329,-4.46255,0.75383,-5.52222,1.51989,-0.18162,-0.49511,-0.68736,0.48861,-0.8869
544,1.84573,-4.3526,1.27346,-1.89486,-13.29246,-3.28282,54.37693,-56.54995,31.33962,-68.49792,25.67229,2.22851,0.48839,-2.54659,0.60029,-64.13765,-23.24451,-1.83901,-37.52171,-77.47259,54.02262,29.9938,35.66181,-64.25092,27.74625,2.53858,-6.15926,-19.84966,3.64345,-16.01298,10.52121,0.04724,-2.03502,-4.63959,1.66855,-3.53052,1.35167,-0.12858,-0.43185,-0.6196,0.43978,-0.5947
545,5.78311,-1.98643,-3.27168,0.37854,-17.89088,-2.81839,75.34314,-44.48033,40.37583,-74.0758,13.45582,-1.16825,1.14246,-1.44993,0.22314,-64.49806,-24.28215,-2.61508,-13.00947,-78.04403,67.74394,18.38525,51.50721,-63.84471,26.29836,7.9285,-6.03494,-19.85943,3.38382,-15.91168,8.77368,0.48765,-0.9915,-4.18421,1.18995,-3.0017,1.06672,-0.08044,-0.28948,-0.50966,0.1135,-0.5455
546,10.88741,-0.23731,-8.95878,3.63514,-21.06312,-2.43252,86.92104,-20.65199,45.05423,-66.93204,0.0603,-4.75983,2.18541,-0.89724,-0.13233,-64.73603,-25.0981,-3.20319,11.35632,-65.49162,68.02696,4.51772,71.95479,-56.1096,21.15718,9.42462,-5.17654,-17.169,-0.39228,-15.64323,6.49325,0.25405,-0.49254,-3.16232,-0.3647,-3.60191,0.66577,-0.09587,-0.13553,-0.38101,-0.26474,-0.65217
547,12.36744,-0.23786,-9.51913,6.81845,-20.32409,-2.62522,72.6785,-7.54683,38.47743,-49.43204,-6.87739,-6.97148,2.97283,-0.90781,0.03321,-64.72446,-25.81358,-3.49542,15.02723,-61.91998,45.77803,-4.5612,77.27022,-46.78176,16.11973,5.80353,-4.18149,-12.82806,-4.02248,-13.67845,5.15753,-0.28518,-0.78133,-1.88717,-1.57437,-3.75704,0.3417,-0.12526,-0.04969,-0.20262,-0.42659,-0.64527
548,10.95453,-1.73864,-4.4281,9.24191,-18.08765,-2.93073,43.45264,-8.30317,21.72177,-33.76649,-12.50122,-8.52179,3.16927,-1.09358,0.65772,-64.4407,-26.52783,-3.63636,-2.24579,-75.42192,8.16587,-6.85638,68.62833,-45.49794,16.185,0.103,-4.76051,-10.16826,-3.78821,-11.2756,6.21034,-0.80425,-2.14098,-1.14827,-1.21328,-2.97964,0.46461,-0.16745,-0.22158,-0.05615,-0.25838,-0.47328
549,9.24571,-2.48215,0.1626,11.20472,-16.78332,-3.00144,25.61517,-9.98552,9.51629,-25.90337,-17.47171,-8.98054,2.89512,-1.04227,1.23785,-63.80854,-27.2038,-3.74284,-16.68772,-85.80264,-16.13257,-2.63987,68.44683,-50.04226,20.31033,-3.17241,-6.79102,-10.63259,1.21034,-9.91663,8.99352,-1.10852,-3.88432,-1.29404,0.89401,-1.64629,1.08052,-0.20014,-0.58757,-0.05873,0.17453,-0.2344
550,7.17773,-0.24411,-2.69245,12.3819,-16.11968,-3.16745,31.01098,-5.67705,14.0728,-23.83896,-14.56529,-7.67483,2.45727,-0.63896,1.18086,-62.82418,-27.77263,-3.81357,-8.78298,-75.03039,-6.90026,7.85496,83.06718,-47.57714,19.98242,-2.17087,-7.34464,-12.50872,6.07985,-10.16106,10.05491,-1.08019,-4.49098,-1.88726,2.82998,-0.91427,1.46273,-0.17188,-0.75079,-0.25856,0.56267,-0.15791
551,5.50791,4.0492,-13.08281,13.09508,-14.38904,-3.8205,49.58489,0.20465,31.10069,-23.56812,-1.1044,-5.27796,2.1333,-0.10274,0.37602,-61.61959,-28.22851,-3.81193,17.67542,-49.59829,26.26829,20.80004,84.73943,-35.55719,11.15586,1.26572,-5.19399,-14.9449,6.33703,-12.32923,7.32732,-0.86464,-3.9085,-2.90801,2.81228,-1.82606,1.03497,-0.12053,-0.64839,-0.64077,0.6366,-0.44212
552,6.56422,7.56834,-22.90986,14.39122,-11.13052,-4.75295,63.76944,1.19228,44.86335,-23.09737,14.80985,-2.92481,1.99198,0.3792,-0.67629,-60.26608,-28.59496,-3.73318,41.21014,-31.06457,55.04672,26.40806,54.16601,-25.56861,1.51827,4.07334,-3.11305,-17.52207,3.70203,-15.19953,3.19024,-0.69675,-3.67305,-4.10385,1.49198,-3.64301,0.27546,-0.11923,-0.62484,-0.96608,0.39351,-0.84326
553,9.7407,8.50854,-23.38548,15.83755,-8.91446,-5.25921,64.68919,-5.55393,43.22589,-22.43115,19.77014,-2.12653,1.94141,0.78793,-1.27605,-58.68032,-28.87165,-3.64938,44.74929,-37.50222,56.09078,15.50809,16.93775,-25.03515,-1.00884,2.87672,-4.56729,-18.42104,0.3903,-16.3569,0.4831,-0.71749,-5.09507,-4.46089,-0.08382,-4.63552,-0.19049,-0.19666,-0.91145,-0.8664,-0.03257,-0.81527
554,11.51261,6.85206,-14.2432,16.27116,-10.26962,-4.97546,56.44513,-15.51074,31.06712,-21.31301,10.41948,-3.40676,1.87047,1.08683,-0.9983,-56.77795,-29.02,-3.62485,30.96967,-60.49051,33.19056,-9.05458,12.17457,-28.07009,2.34104,-2.06572,-8.1355,-16.43014,-3.7961,-14.56233,-0.48825,-0.65639,-6.3832,-3.82009,-1.67693,-4.25119,-0.34938,-0.22423,-1.13195,-0.37721,-0.42952,-0.29802
555,11.44227,4.54571,-3.95388,16.84392,-12.75731,-4.44867,44.97617,-16.80389,25.13389,-14.58786,2.22531,-3.83988,1.81736,1.22766,0.03758,-54.65396,-28.99165,-3.57547,17.19388,-60.58004,14.38545,-32.72901,42.56727,-26.63738,6.83376,-6.17405,-8.98633,-12.07491,-9.3976,-10.13175,-0.34264,-0.48833,-4.41824,-2.6976,-3.66472,-2.78032,-0.3987,-0.12337,-0.7277,-0.03364,-0.71088,0.19204
556,12.80578,4.69935,0.8116,19.20776,-12.99346,-4.20254,30.23323,-3.55299,30.35779,1.76068,4.15325,-1.43627,1.91245,1.24448,1.31848,-52.59145,-28.8449,-3.46545,14.39087,-24.39848,13.73648,-40.50342,76.69734,-25.22793,10.41293,-7.66692,-7.25508,-7.39837,-9.07121,-5.93627,0.35441,-0.59151,-0.53898,-1.52088,-3.65933,-0.90325,-0.38914,-0.02324,0.01177,-0.09063,-0.56765,0.21675
557,14.8345,8.28609,0.24235,20.89835,-12.94839,-4.06657,15.85325,12.79248,34.53127,17.62815,0.97661,0.43265,2.04501,1.13251,2.19595,-50.80282,-28.80754,-3.51,17.45583,0.77008,16.00109,-28.13661,83.44437,-31.3315,10.74357,-8.97426,-7.30357,-2.84107,6.58162,-5.991,0.8497,-0.77128,0.56397,-0.20697,1.94513,-0.49135,-0.26479,-0.00902,0.22346,-0.14352,0.32099,-0.21632
558,12.45218,13.049,-4.56362,19.61091,-15.87031,-3.90482,12.21187,16.48614,31.36065,21.84723,-16.06441,-1.57667,1.89574,0.90234,2.04579,-49.15283,-29.11619,-3.86032,23.48655,-20.60154,12.15274,-8.61688,56.74527,-31.22519,5.87799,-10.09478,-9.21261,3.2696,22.25027,-5.61262,1.20931,-0.68844,-2.55291,1.8592,7.99263,-1.12528,0.03918,-0.0624,-0.28267,0.0903,1.15455,-0.57946
559,6.8321,16.70239,-10.50486,17.99291,-19.95566,-4.00452,19.34007,8.45382,31.9936,19.24434,-29.09713,-5.29798,1.47983,0.76395,0.93904,-47.43275,-29.765,-4.29237,33.79657,-52.12292,18.49627,-1.00334,22.33848,-13.7217,-0.20444,-7.86021,-9.59383,3.70812,13.70893,0.2479,1.73881,-0.44194,-6.65765,2.0211,5.61968,-0.97816,0.28677,-0.09009,-0.87397,0.11064,0.81693,-0.5178
560,3.98639,18.82722,-11.22232,20.14604,-22.45682,-4.31429,22.05311,2.101,42.66026,24.21511,-25.17653,-6.41739,1.06088,0.90106,-0.14201,-45.64531,-30.6741,-4.60235,43.16167,-48.10807,38.07586,-17.23532,12.9383,2.88571,-1.41573,-2.40507,-8.45099,-3.07714,-7.59462,6.99884,1.57841,0.11217,-8.25282,-0.93397,-2.11813,0.24552,0.10157,0.10594,-0.99836,-0.3691,-0.23602,-0.19092
561,3.29997,19.33914,-7.08451,25.2014,-22.99015,-4.69761,12.81596,3.04607,47.75532,39.32444,-11.46085,-4.10441,0.63434,1.15808,-0.47715,-43.96767,-31.83716,-4.87721,45.37747,-15.41708,41.4234,-51.22194,30.42601,0.78412,1.46934,0.92175,-8.66559,-6.81244,-17.34824,8.57539,0.01754,1.12949,-6.83616,-2.64834,-6.3707,2.2363,-0.41387,0.46781,-0.64764,-0.57351,-0.83185,0.24474
562,0.90673,16.08364,-3.30975,29.7201,-21.99956,-5.30243,2.76761,3.97468,37.48657,54.81667,1.68308,-0.9514,0.24432,0.83773,-0.09692,-42.53082,-33.1964,-5.23629,46.7882,11.23307,19.08493,-76.68143,45.7117,-10.81718,2.28384,-1.32998,-10.00147,-7.62229,-14.20789,2.9018,-1.83909,1.97894,-3.78459,-1.70972,-5.006,2.8532,-0.76289,0.61434,-0.132,-0.19206,-0.58352,0.43211
563,-0.29056,7.68859,0.16289,32.70721,-21.35901,-5.96424,4.74188,-4.85816,32.15116,61.50533,6.93327,0.42437,0.39987,-0.45286,0.52484,-41.28284,-34.72956,-5.73374,55.2318,7.65137,10.23102,-73.31882,41.55834,-13.31144,-0.76146,-5.65156,-9.46539,-6.8601,-4.60584,-6.06548,-2.26034,1.84735,-1.03697,0.09482,-0.42565,0.55249,-0.6748,0.4359,0.11821,0.27206,0.14969,0.06115
564,3.33773,-0.87264,5.10809,35.03958,-22.28762,-6.43532,20.68779,-24.33471,51.08955,55.00867,3.05186,-0.79846,1.05239,-1.5614,0.68984,-39.97421,-36.48675,-6.34339,64.43967,-24.93905,42.63121,-47.8343,33.46674,-7.4265,-3.04761,-6.78485,-6.57956,2.18194,9.80656,-12.44312,-0.86164,0.67101,-0.46494,3.21018,4.81525,-2.97389,-0.23045,0.13396,-0.0919,0.6678,0.83054,-0.50525
565,5.4689,-2.87264,6.30198,37.63492,-23.52983,-6.91577,43.79966,-43.79588,75.22301,38.50426,-4.85273,-4.11256,0.93337,-1.15283,-0.242,-38.31801,-38.458,-6.98379,65.37202,-64.74585,77.17593,-24.35817,40.24144,4.3831,-2.30391,-4.04962,-3.24443,14.9263,14.93022,-7.13572,0.79816,-0.48919,-1.96777,6.25797,5.62493,-2.85611,0.17555,-0.08493,-0.39975,0.89779,0.76902,-0.45101
566,-5.3522,4.04421,-6.90332,40.83932,-22.55268,-7.87282,56.58863,-43.72291,60.07806,21.78304,-8.92064,-7.96715,-1.06643,0.86595,-2.83939,-36.26528,-40.40118,-7.53433,50.24653,-74.36045,44.33691,-17.02476,48.13644,19.90837,-2.62819,-0.14403,-0.73267,8.10399,-0.42286,8.23607,0.7864,0.05558,-3.92949,2.90654,-0.49293,2.1084,0.10868,0.04375,-0.42346,0.30777,-0.19883,0.39318
567,-31.0182,16.99913,-35.811,44.09423,-18.59567,-9.3573,38.53052,-12.52017,-9.09744,12.96822,-4.12794,-9.98061,-4.58506,3.94946,-6.77751,-33.97234,-41.95373,-7.91822,10.78302,-28.68159,-62.73787,-15.94767,36.48735,26.19321,-5.59078,1.95671,0.86714,-6.45182,-14.99285,18.45507,-0.27498,1.47306,-5.15591,-2.1761,-5.66683,6.60979,-0.19316,0.33288,-0.26525,-0.42749,-0.93536,1.11913
568,-57.08889,27.13814,-64.47266,46.27695,-14.74166,-10.67279,-10.26926,33.74218,-93.36532,12.34843,5.41725,-9.21563,-8.16739,6.48964,-9.25513,-31.58449,-42.97098,-8.23069,-46.50413,45.70186,-167.2775,-22.16902,14.77446,17.8238,-8.23314,1.01102,0.95948,-6.7957,-16.87205,18.70632,-0.87673,1.91326,-5.08715,-1.93639,-5.54288,7.38069,-0.35409,0.42628,-0.20688,-0.39456,-0.80343,1.06318
569,-67.16046,25.87318,-81.95099,47.28718,-13.55868,-11.36362,-66.77502,66.16874,-152.91196,16.61487,13.38884,-7.83738,-9.70414,4.63927,-7.97984,-29.29544,-43.3555,-8.54616,-98.84116,100.30473,-209.59846,-45.05238,8.1092,1.22903,-8.92927,-1.57029,-0.97759,-5.84847,-15.29018,14.16572,-0.76614,1.42198,-4.14737,-0.74318,-3.74937,6.08134,-0.32387,0.30407,-0.40203,-0.13531,-0.33553,0.62186
570,-69.19839,19.94164,-103.48721,48.60607,-14.96597,-11.3633,-108.76421,81.73576,-201.31516,23.68096,14.92426,-8.27857,-8.50983,-2.56613,-7.80095,-27.37547,-42.88553,-8.81534,-130.73192,123.52234,-234.11322,-61.70641,14.16791,-16.51345,-7.26142,-2.80816,-1.48123,-5.18819,-7.77391,1.39089,-0.25736,0.45131,-2.79493,0.32338,-1.1585,2.40368,-0.18767,0.05131,-0.59419,0.12006,0.04932,0.06288
571,-76.51666,21.31838,-124.10481,51.1284,-18.0455,-10.52175,-118.54093,93.51054,-240.98674,30.69583,8.15898,-9.4813,-7.69794,-7.81307,-10.5616,-25.92092,-41.47058,-8.97222,-133.47244,128.31587,-280.2421,-51.9736,10.91837,-14.46112,-2.10555,-0.41374,3.7457,12.92334,6.43703,-14.37616,0.25212,-0.87441,-0.83796,5.06086,1.9504,-2.77986,-0.04999,-0.09196,-0.30388,0.62817,0.21141,-0.51144
572,-70.25189,23.89124,-119.08719,53.4259,-21.3175,-8.99524,-77.90177,101.15842,-248.73738,32.87965,-1.9643,-8.60068,-6.9296,-5.79945,-9.44297,-24.79812,-39.26361,-8.93109,-93.24771,119.22946,-314.4158,-42.76926,13.08783,43.70414,5.38402,3.7421,11.60974,30.4215,5.52947,-2.09608,0.54318,-2.53677,0.62342,8.58402,1.20402,-1.48664,0.05395,-0.0961,0.24019,0.91566,-0.03951,-0.36114
573,-67.67989,28.76497,-95.85801,53.33097,-24.1518,-7.03919,-61.70368,113.38247,-228.90143,28.013,-13.35784,-5.64673,-7.4492,0.97315,-6.59238,-23.82112,-36.51831,-8.60491,-87.5652,117.82658,-308.65784,-59.84407,25.22873,112.61128,9.0951,4.91904,13.53762,7.30072,-8.39216,27.78382,0.47513,-3.79296,-0.49863,1.94791,-2.47971,4.60954,0.00973,-0.21961,0.28119,0.20322,-0.29907,0.50094
574,-69.02529,31.59184,-74.76193,50.96346,-25.9552,-5.06295,-87.51208,115.47382,-192.02046,23.96136,-26.22145,-3.31551,-7.33894,5.20267,-6.30463,-22.78312,-33.40244,-7.99023,-117.29074,107.27372,-256.54916,-65.28113,27.83474,124.16357,5.52714,2.10226,7.35843,-17.82918,-15.07316,40.73047,0.14112,-3.64245,-3.31005,-5.454,-4.24706,8.53391,-0.19347,-0.40944,-0.18743,-0.7257,-0.23503,1.21281
575,-50.07198,23.43605,-43.51384,47.6405,-26.44795,-3.50568,-98.60722,77.92435,-110.47344,29.89996,-38.73716,-3.39731,-4.5127,4.62639,-5.18712,-21.60935,-30.17805,-7.27613,-104.85897,44.6926,-131.61127,-22.78,10.43871,85.87494,-0.07901,-1.23379,0.51349,-4.49012,-14.59568,35.01697,-0.03837,-2.79459,-4.74997,-1.78586,-4.17639,9.76362,-0.31342,-0.53385,-0.53132,-0.28074,-0.24221,1.42793
576,-20.45475,10.205,-8.54761,43.33562,-25.97448,-2.55183,-84.40974,23.75167,-18.2352,40.48393,-46.03944,-4.8643,-1.2698,2.32908,-3.05258,-20.39303,-27.17985,-6.67367,-54.35204,-35.58662,4.75981,29.83685,-20.41128,36.92488,-1.48202,-2.05794,0.02493,20.77815,-10.59033,21.54177,-0.0343,-2.49924,-3.76963,6.64778,-3.69623,8.02501,-0.26896,-0.55097,-0.48741,1.05066,-0.37106,1.17549
577,1.35013,0.59819,10.89045,37.66618,-24.27064,-2.19344,-63.60184,-2.38458,22.8406,40.81072,-44.43436,-5.45424,0.63288,0.54262,-1.57557,-19.07544,-24.47054,-6.1579,-22.43729,-64.50799,59.23657,36.0097,-31.10414,22.57305,0.47016,-0.8456,4.27543,24.90138,-9.49393,18.71964,-0.09359,-2.58366,-1.43856,8.37479,-3.80462,7.21942,-0.15185,-0.46403,-0.23981,1.41917,-0.40968,0.97986
578,9.15301,-2.75284,17.89174,31.16618,-21.54528,-2.13128,-59.55272,9.20542,11.37589,24.79429,-40.0475,-4.70196,1.07792,-0.24226,-0.66275,-17.48909,-21.94455,-5.61941,-45.79328,-38.4567,31.17621,5.13495,-20.43347,38.3832,1.02913,1.15075,9.68603,13.53963,-10.57873,20.91862,-0.01554,-1.6019,1.27458,5.21991,-3.66452,7.20947,0.07389,-0.19362,0.14631,0.87758,-0.34069,0.85699
579,9.79895,-2.7346,19.53084,24.849,-18.82476,-2.04412,-60.19795,32.98332,-18.2656,3.80593,-39.08055,-3.91192,0.75242,-0.29574,0.00853,-15.60828,-19.58774,-5.04014,-82.03918,-10.22873,-21.98085,-15.14744,-14.66609,51.52067,-1.07534,3.87363,15.52019,4.74601,-9.88803,15.06923,0.49125,0.88305,3.61288,3.4547,-2.84264,5.49348,0.45839,0.3515,0.67494,0.4699,-0.27425,0.61382
580,7.69201,-2.37081,12.3679,18.88737,-15.56666,-2.15387,-38.0029,41.31448,-39.13401,-7.38568,-33.76809,-3.58103,0.23918,-0.15912,0.54867,-13.62081,-17.28549,-4.34514,-69.62862,-3.50538,-55.87664,-6.7095,-19.44545,47.01821,-3.24497,5.89409,17.85112,4.90758,-8.48032,8.11005,1.02078,3.13023,4.36562,4.14916,-2.65788,4.27598,0.7541,0.84701,1.0379,0.53826,-0.37635,0.62684
581,1.12195,-0.80967,-0.70627,12.43843,-11.33955,-2.53768,-12.1357,33.60279,-42.10719,-9.11084,-20.53,-3.17517,-0.46681,-0.07872,0.80448,-11.88098,-14.86786,-3.47711,-32.87862,1.59539,-57.94577,4.62544,-17.3077,32.80385,-3.54863,4.93725,12.58241,9.41608,-8.82493,11.10135,0.94138,3.2146,2.95583,4.80246,-3.69125,6.01412,0.63059,0.80967,0.87147,0.71228,-0.62223,1.08617
582,-9.18804,3.21291,-7.69237,6.90846,-6.85459,-2.85068,-18.02045,25.39784,-30.89298,-8.07059,-8.2125,-2.88824,-1.463,0.19568,0.8526,-10.45755,-12.34983,-2.53201,-30.64376,17.30336,-40.45707,-1.29412,4.24238,23.7003,-2.99297,2.03919,3.61868,9.38646,-9.56879,19.65703,0.45117,1.91111,0.37615,3.41339,-4.29318,7.92835,0.18121,0.37581,0.23038,0.5814,-0.66276,1.35072
583,-19.21593,8.56765,-3.45043,3.84159,-3.84693,-2.67978,-42.34656,21.53241,-12.30673,-7.40555,-4.24959,-3.18554,-2.55667,0.8257,1.1305,-9.07354,-9.99617,-1.72096,-56.62333,27.09671,-19.64531,-7.22243,25.86377,27.01093,-2.62912,0.62953,-0.52612,7.68682,-9.76712,24.0022,0.16343,1.14186,-1.13426,2.36478,-3.81462,7.4607,-0.15501,0.05604,-0.29847,0.40003,-0.45977,1.0626
584,-23.5747,11.66182,3.91699,1.3824,-3.5007,-1.97922,-42.68995,17.10192,0.83049,-8.61876,-6.33028,-3.3911,-3.31215,1.45397,1.46929,-7.60739,-8.02713,-1.16082,-58.81096,15.07653,-7.756,-2.97285,11.8945,36.88887,-1.00885,2.44216,4.03827,6.42759,-9.55497,21.88019,0.04095,0.8331,-0.32687,2.25081,-3.0062,5.75093,-0.14669,0.05486,-0.27076,0.28427,-0.23943,0.58898
585,-23.11024,11.37206,4.58359,-1.93925,-3.90152,-1.28852,-18.56968,12.24194,-1.76722,-9.47906,-6.37374,-2.89315,-3.52216,1.64116,1.24808,-6.22318,-6.31599,-0.72877,-27.4189,-4.10726,-10.25601,4.16612,-31.49894,42.21658,3.01171,5.72972,12.72462,3.54602,-8.31631,16.27729,-0.35573,-0.412,1.72691,1.63786,-2.52043,4.50932,0.05797,0.14758,0.14626,0.12053,-0.18391,0.38407
586,-22.55237,9.47449,-2.71419,-3.95854,-2.94586,-0.93435,-2.89819,8.97899,-12.84778,-3.51169,-2.33957,-2.49989,-3.21187,1.33859,0.06547,-4.97909,-4.66784,-0.28667,5.22095,-8.39187,-22.14233,14.77941,-51.92576,37.35172,6.50991,6.90768,17.0327,2.0643,-5.7725,9.34909,-0.9047,-2.37591,3.15687,1.25621,-2.17969,3.47236,0.22732,0.07617,0.60507,0.05644,-0.27256,0.43452
587,-23.37407,7.54066,-11.48367,-3.41749,-1.93532,-0.59079,-6.35034,4.56101,-14.54629,7.66186,-1.22925,-2.89996,-2.5744,0.89022,-1.59929,-3.79175,-3.19215,0.08605,17.39354,-2.48246,-29.64368,25.53374,-24.83893,21.14704,5.53761,4.6417,12.91703,3.67425,-2.17372,1.30821,-0.88704,-2.72523,3.11026,1.81823,-1.20672,1.49475,0.30597,-0.02548,0.90916,0.18302,-0.28256,0.36475
588,-25.19448,6.31885,-16.86363,-2.56629,-2.03878,-0.13785,-16.11467,0.66303,-8.49129,12.8947,-4.47442,-3.12942,-2.0426,0.64808,-2.7597,-2.68981,-2.07462,0.28239,9.27177,2.8308,-30.63673,20.84548,12.20856,0.82192,1.38566,0.9685,3.92309,3.62599,-0.31615,-2.74381,-0.20353,-0.68762,1.95962,1.91985,-0.34637,0.24637,0.29773,0.03699,0.86996,0.31347,-0.19162,0.23215
589,-27.00479,5.58246,-18.61593,-3.95367,-1.65025,0.0155,-24.64907,1.90335,-9.52631,5.42045,-3.59976,-2.17385,-1.82816,0.59036,-2.90754,-1.80307,-1.26054,0.38273,-12.21161,11.19512,-31.27779,1.7646,15.38785,-6.30262,-1.40569,-1.80312,-3.0154,-0.16814,-3.29798,3.07167,0.25599,0.87828,0.39458,0.74089,-1.20456,1.88371,0.11536,-0.00224,0.42019,0.29128,-0.20948,0.37498
590,-26.46092,5.13365,-15.97985,-2.08511,-1.27257,-0.10198,-29.90603,5.13777,-13.3774,2.4746,0.95765,-0.33515,-1.74734,0.56037,-2.17894,0.25515,-0.21105,-0.14865,-20.35558,19.06588,-25.90961,-8.73224,-13.07453,6.48867,-1.31029,-2.28849,-2.80644,-4.43307,-6.5445,10.96549,0.03114,-0.41306,-0.74486,-0.62509,-2.49032,3.59906,-0.13107,-0.38913,-0.05071,0.13364,-0.277,0.49798
591,-23.17402,5.62728,-9.42832,-3.7789,-1.67253,0.30519,-27.91845,5.40151,-9.4816,-3.91686,3.58923,2.15994,-1.649,0.57816,-1.14446,0.13289,-0.24919,-0.03089,-23.96797,18.6584,-11.355,-0.25725,-38.87221,21.88458,0.72191,0.26492,3.40226,-2.71428,-2.98277,7.9482,-0.33688,-2.67656,-0.35767,0.17393,-1.58264,2.0255,-0.13539,-0.66397,-0.09969,0.13266,-0.14865,0.19986
592,-20.65039,6.71277,-4.56381,-3.10539,-2.00038,0.92294,-21.47856,5.349,-8.66802,-0.6626,1.96116,4.76318,-1.64024,0.69631,-0.55595,0.0832,-0.17107,0.14621,-14.35984,12.94608,-8.42915,9.02491,-36.6382,20.09711,3.57832,3.50084,7.621,4.71089,4.09548,-2.36835,-0.34159,-2.73776,1.46583,2.6929,0.64486,-0.53206,0.06881,-0.35892,0.14252,0.34507,0.08865,-0.1274
593,-20.27703,6.60962,-4.67927,-0.28472,-0.73994,1.05996,-16.60175,7.35089,-21.3122,8.17643,0.62739,5.83186,-1.65292,0.7633,-0.59568,0.26589,0.01625,0.29218,-2.84868,8.98772,-28.31446,1.81949,-11.71237,6.76388,4.96222,3.49257,4.50476,3.82142,3.94852,-4.62563,-0.0826,-0.67066,2.39565,2.43923,0.52863,-0.05149,0.17574,0.22021,0.19556,0.32207,0.01956,0.06296
594,-18.58401,5.0021,-5.71337,2.11776,0.95567,0.5615,-13.10039,8.35152,-32.96628,13.52965,0.33902,3.95696,-1.33238,0.57721,-0.64552,0.5586,0.13562,0.26517,3.1202,6.40801,-50.04419,-8.50492,11.37422,1.98237,3.20368,0.97545,-1.16502,-3.21208,-4.08712,2.92096,0.11588,0.66622,0.45046,0.24318,-2.09777,2.58167,0.09072,0.47027,-0.08893,0.11449,-0.36,0.54712
595,-13.49813,4.16751,-3.22315,1.65015,1.70298,-0.18828,-8.3064,6.86888,-24.07204,9.82156,1.30552,0.55943,-0.63258,0.23412,-0.14674,0.66245,0.10563,0.08542,3.44211,7.76384,-45.29454,-7.11203,15.92304,6.19335,1.10399,-0.08215,-2.70048,-6.42983,-8.57627,7.55049,0.08185,-0.78535,-2.68025,-0.81348,-3.39318,3.43535,-0.06673,0.12658,-0.37667,-0.03889,-0.54291,0.69136
596,-8.17548,6.43925,1.84761,-0.6348,1.29551,-0.6096,-1.71677,5.32545,3.72533,2.27896,3.67248,-1.37487,0.02034,0.06664,0.65611,0.50555,0.00684,-0.08918,5.52727,14.14937,-12.56953,-2.9364,11.59778,6.78611,3.02341,1.0288,-1.11088,-5.23476,-5.845,5.23268,-0.12261,-3.82519,-3.52385,-0.53214,-2.35718,2.24889,-0.17383,-0.45703,-0.38264,-0.12789,-0.4006,0.45296
597,-7.4339,11.02131,5.16455,-2.45477,1.04104,-0.66529,3.46969,5.57217,27.83976,-1.95559,6.9826,-1.32271,0.16353,0.2105,1.01402,0.22855,0.01166,-0.12061,10.79161,20.01129,19.35492,-6.86147,14.25513,-1.8039,7.45985,1.36037,-0.91075,-2.24358,-0.36264,0.32937,-0.3071,-5.13871,-1.28191,0.40044,-0.57391,0.71877,-0.15761,-0.60046,-0.1275,-0.09591,-0.13308,0.10734
598,-11.11346,13.9466,4.45267,-3.10217,1.81587,-0.7375,2.67898,6.59719,29.22345,-1.63378,8.32835,-1.11055,-0.16692,0.40598,0.70081,0.04892,0.12573,-0.05173,12.11022,18.09956,23.38148,-10.27937,19.27099,-11.54158,7.884,-0.77435,-2.20326,-1.11548,4.79861,-4.64419,-0.31246,-3.48998,1.1909,1.04824,1.0769,-0.65423,-0.06572,-0.15689,0.17089,0.05744,0.16818,-0.22208
599,-13.27791,12.94653,2.16732,-2.86748,3.12135,-0.99316,-2.90402,7.25535,15.918,1.34435,7.18313,-1.44291,-0.37444,0.38357,0.33592,0.11935,0.1904,-0.0372,8.14456,13.6204,7.16527,-0.5026,16.31147,-11.07887,2.32766,-2.86245,-1.88418,-3.86627,7.78471,-8.14283,-0.12388,-1.25847,0.77343,0.75216,2.1077,-1.64597,-0.00743,0.3062,0.17983,0.20054,0.41657,-0.42516
600,-9.80311,10.76236,1.70761,-2.1826,4.27008,-1.26616,-3.66717,7.86863,11.49743,4.98923,7.86097,-1.48709,0.0314,0.24845,0.47656,0.32207,0.18344,-0.09814,8.68666,18.8655,-0.26285,10.83148,14.01985,-2.73352,-2.9378,-2.22779,0.208,-7.25068,6.90009,-7.99385,0.16997,-0.92168,-1.54988,0.16709,1.87102,-1.58268,0.00459,0.29133,-0.09171,0.26353,0.41412,-0.33938
601,-4.86285,9.27886,1.95238,-1.80672,4.43923,-1.25416,5.87277,5.95448,16.24632,6.81566,9.92598,-0.9329,0.77273,0.10575,0.7263,0.3463,0.18623,-0.12548,17.87115,24.40692,2.19781,2.95924,22.30148,1.05417,-2.33935,-0.84662,0.80358,-7.83681,3.05068,-4.67872,0.51661,-2.33849,-2.58425,-0.06396,0.4166,-0.57252,0.02555,-0.18446,-0.2708,0.1881,0.08681,-0.05443
602,-5.13705,7.13547,0.6179,-1.35065,3.4064,-0.82771,17.85664,-1.58916,12.45769,8.42614,8.21186,-0.04918,1.09771,-0.11457,0.42957,0.14923,0.21904,-0.04199,29.09599,9.08243,-6.63167,-15.11328,23.50737,-1.58388,2.32037,-1.25186,-1.14814,-7.46192,-1.3748,-1.15509,0.79669,-3.89061,-1.66228,-0.40385,-1.59911,0.40899,0.07333,-0.75321,-0.22468,-0.05544,-0.38298,0.15821
603,-9.10612,6.24902,-0.94895,0.93601,1.80588,-0.13074,24.66632,-8.27195,5.02832,15.66072,2.80726,1.14832,0.78537,-0.21233,-0.14248,0.07023,0.21702,0.12637,41.94775,-17.99377,-18.49615,-18.03181,-3.46665,-1.38889,6.54448,-1.32061,-2.80609,-8.6807,-3.82113,0.1915,0.82392,-4.37829,-0.11312,-1.03563,-2.80594,0.62104,0.08211,-0.9623,-0.11259,-0.30401,-0.60672,0.18615
604,-9.07286,9.7706,-1.08416,4.37155,-0.60934,0.65968,32.10738,-5.21628,13.26702,25.62099,-3.74643,2.45363,0.47786,0.02394,-0.25008,0.33661,0.05962,0.25312,61.6986,-30.40721,-5.7446,-4.31889,-36.19115,3.69374,8.62098,1.70126,-2.18754,-9.95224,-2.58019,-0.69264,0.60764,-3.74544,1.21624,-1.3841,-1.90473,0.22689,0.02263,-0.68442,-0.01213,-0.36783,-0.33279,0.10693
605,-2.48801,14.0637,-0.63794,5.48359,-4.32579,1.44649,45.8097,2.16643,31.70531,26.24978,-12.98664,3.33608,0.81914,0.25075,0.16208,0.74852,-0.26087,0.2212,80.55991,-30.44713,25.34048,6.75884,-30.58993,4.26586,8.39917,5.60599,-0.53665,-10.62723,0.99435,-2.92387,0.43286,-2.91708,1.65395,-1.84951,0.28841,-0.61153,-0.03685,-0.29541,0.07073,-0.38988,0.1856,-0.07073
606,4.89852,11.94134,-0.49318,2.89755,-7.81957,2.00871,56.67559,-0.35001,35.91904,14.42677,-25.03645,3.48692,1.60917,-0.09026,0.47689,0.93492,-0.52801,0.06571,81.03358,-41.97617,38.28529,1.92745,12.86482,-4.47175,5.99598,5.701,0.14421,-12.46638,3.99906,-5.93622,0.5364,-2.60111,0.83427,-3.07867,1.71372,-1.9923,-0.01414,-0.18051,0.1077,-0.56129,0.47856,-0.38354
607,8.54058,3.25684,0.01524,-0.86191,-8.52541,1.96321,56.74843,-14.54885,21.57665,0.90502,-32.61518,2.52536,2.29268,-0.96219,0.40232,0.76214,-0.51815,-0.07201,63.48532,-65.97034,21.74014,-12.87466,47.95362,-14.43712,3.45394,1.36947,-0.91845,-13.78248,5.13262,-7.97415,0.81371,-2.5265,-0.34968,-3.97694,1.77416,-3.06578,0.08511,-0.27651,0.08743,-0.68256,0.41606,-0.62152
608,10.76574,-4.25311,0.95916,-3.13257,-6.00352,1.18073,52.48874,-24.81164,8.22986,-4.56708,-28.09247,0.21128,2.74481,-1.60352,0.28599,0.37811,-0.29712,-0.1215,47.85243,-74.0048,1.6915,-18.71299,45.48174,-17.27218,3.17659,-2.80861,-2.87634,-11.56891,5.23122,-7.38947,1.00173,-2.32772,-0.92604,-3.62854,1.69319,-2.95797,0.14955,-0.32513,-0.0318,-0.56851,0.28804,-0.58842
609,14.99727,-4.94,1.06301,-3.49713,-2.17026,0.07484,52.9591,-18.1733,9.33169,-2.16581,-14.0621,-2.31378,3.11657,-1.43549,0.45669,0.03346,-0.10303,-0.11853,47.88095,-50.3693,0.25844,-7.02495,23.81073,-13.61529,4.50581,-2.76676,-3.55307,-7.58682,4.69222,-5.05565,0.97522,-1.94866,-0.50695,-2.9334,2.04977,-2.24732,0.12482,-0.22134,-0.12844,-0.39516,0.28942,-0.42777
610,20.08889,-1.03082,-0.09052,-2.6245,0.53033,-0.63824,58.92306,-1.77046,18.0733,1.9592,-1.93212,-3.02024,3.41371,-0.80142,0.78539,-1.27908,-0.45267,-0.05808,58.26244,-18.96745,11.39405,7.97751,13.63638,-8.06675,4.68209,0.70225,-1.74188,-6.19078,2.78688,-3.32394,0.75345,-1.2792,0.63249,-2.91375,1.8869,-2.14982,0.06236,0.02007,-0.00266,-0.40254,0.27536,-0.411
611,22.30048,2.45854,-1.4431,0.66173,1.1108,-0.68546,67.73223,4.82618,20.93135,9.38258,0.04252,-1.51977,3.51109,-0.35656,0.95522,-1.17862,-0.85874,-0.07078,78.75719,-11.86517,17.62336,5.80464,18.8856,-4.72646,3.13984,3.68011,0.4371,-8.36776,0.67062,-3.61245,0.43374,-0.47286,1.24406,-3.58525,0.99993,-2.9115,-0.00683,0.2796,0.16607,-0.6363,0.17038,-0.61762
612,19.96318,3.08362,-1.89234,3.7228,-0.76298,-0.23709,77.60863,-9.6088,13.712,12.78453,-5.67773,0.00713,3.2962,-0.22113,0.83859,-1.02172,-1.45067,-0.14856,96.38387,-38.92102,13.97193,-14.40353,26.87282,-7.74814,2.82342,3.49209,-0.21155,-11.2438,1.24315,-5.28463,0.2771,-0.18138,0.72904,-4.47196,0.79531,-3.56661,-0.06517,0.35364,0.06495,-0.92017,0.18123,-0.82435
613,15.11946,0.86211,-1.17125,5.40732,-3.57582,0.15069,81.40069,-33.69833,3.74553,8.01627,-11.42773,-0.17856,2.78644,-0.25951,0.53499,-0.98434,-2.24153,-0.29675,96.00102,-75.73401,8.47232,-32.56563,32.85368,-16.91481,5.5556,0.99952,-3.24782,-12.64395,4.31961,-6.69671,0.56372,-0.76994,0.26734,-4.99517,1.67447,-3.38821,-0.04918,0.15701,-0.1443,-0.97388,0.34759,-0.76805
614,11.52864,-2.0969,-0.21764,6.26461,-5.31598,0.14745,70.98042,-41.45739,0.43825,-1.48876,-12.18624,-1.14634,2.34365,-0.57334,0.21396,-0.95532,-3.18117,-0.43118,70.99449,-84.22868,8.23819,-31.81168,35.72332,-24.56693,8.05636,-1.08533,-4.90867,-13.16252,6.44252,-7.05621,0.99092,-1.4686,0.71586,-4.87956,2.33679,-2.85825,0.03837,-0.09594,-0.09513,-0.73063,0.41971,-0.52131
615,12.3607,-4.39168,0.03321,8.05122,-4.96343,-0.37896,54.62901,-25.50918,4.42699,-4.36371,-6.20718,-1.51529,2.5504,-1.35016,-0.0254,-0.72411,-4.21003,-0.48127,45.05957,-53.73059,10.70949,-15.95336,31.8232,-24.69167,6.11921,-2.01738,-3.46519,-13.62087,5.44988,-6.40608,0.83591,-1.29357,1.03471,-4.47539,1.98071,-2.72113,0.08121,-0.1637,0.12308,-0.46349,0.29229,-0.36573
616,18.29502,-6.97102,-0.24242,11.80182,-3.87952,-1.26579,55.3969,-7.65349,9.93875,4.56427,2.24966,-1.94895,3.48657,-2.40792,-0.17951,-0.33372,-5.35122,-0.49615,53.14354,-18.13253,12.07777,-1.55942,25.66043,-21.14816,0.93646,-2.86853,-1.0731,-12.34158,2.63883,-4.70364,-0.02258,-0.19183,0.33776,-3.96277,1.15024,-2.64254,0.03403,-0.06451,0.19633,-0.38275,0.09507,-0.35604
617,25.65906,-9.63075,-0.55239,16.20328,-5.03214,-1.79207,85.85957,-8.70298,13.52337,15.36528,3.51649,-3.27523,4.38674,-3.09479,-0.2308,-0.07366,-6.65903,-0.56548,99.38701,-18.68145,16.07485,1.77746,24.70816,-22.74065,-2.42605,-3.69884,-0.47622,-8.19674,1.17315,-2.63638,-0.93285,1.05831,-0.69548,-3.21216,0.80871,-1.9073,-0.03956,0.06228,0.06363,-0.41119,0.01059,-0.32017
618,28.73428,-11.51049,-0.30876,20.38423,-8.73461,-1.54531,128.40582,-31.20781,13.30383,21.27592,-4.31131,-3.94046,4.38293,-2.95943,-0.15301,-0.0484,-8.0507,-0.68204,154.38461,-61.92389,24.32221,-1.3131,21.51912,-32.15789,-0.8986,-3.83159,-2.35531,-4.72748,2.27081,-1.96467,-1.16396,1.40978,-1.07609,-2.63574,1.06848,-1.08447,-0.10705,0.10982,-0.14493,-0.43837,0.10018,-0.23937
619,25.88861,-13.14988,0.70949,26.01672,-12.9075,-1.05311,152.06131,-63.43686,8.76711,30.16772,-13.3387,-2.11628,3.41147,-2.22231,-0.03301,-0.04335,-9.492,-0.88074,189.46454,-117.61366,31.01414,-1.99729,6.53282,-41.43801,4.06363,-3.40437,-5.26235,-5.52787,4.39138,-3.25422,-0.53402,0.50927,-0.58906,-2.82342,1.41902,-1.17429,-0.15825,0.03513,-0.27305,-0.46807,0.28592,-0.25682
620,19.32558,-14.64627,1.90766,33.92068,-16.63874,-1.00709,143.0612,-87.42747,2.87408,45.92764,-18.09784,0.91264,2.04733,-1.41788,0.00137,0.07339,-11.07668,-1.26981,193.15971,-150.84004,31.57944,2.05322,-10.38488,-39.54921,7.99943,-2.80835,-6.56112,-8.43036,6.03265,-4.73871,0.44948,-0.76751,0.3574,-3.26531,1.77492,-1.65668,-0.13288,-0.07773,-0.18337,-0.48051,0.4807,-0.33751
621,10.73219,-14.79999,2.69303,41.11024,-19.75825,-1.48946,110.14442,-93.11783,-1.16988,55.42388,-18.0403,2.38965,0.87198,-0.89798,-0.04376,0.16484,-12.72452,-1.73681,162.70773,-152.02345,28.05422,7.36421,-17.56494,-24.33126,7.02455,-1.38819,-4.36279,-9.39869,6.3904,-4.66031,0.90857,-1.05875,1.10394,-2.85771,1.91965,-1.46303,-0.03237,-0.03726,0.0872,-0.41448,0.52824,-0.32842
622,1.8226,-13.8423,3.12883,45.26379,-21.60818,-2.21105,71.40538,-87.18962,-3.05353,48.05003,-13.39892,1.72399,0.17416,-0.74759,-0.10581,0.21451,-14.22825,-1.96797,109.47477,-137.34303,25.17725,7.4729,-22.66774,-4.91416,2.12605,1.62728,-0.16232,-8.97353,5.02218,-3.59411,0.42237,0.01769,1.22226,-1.93162,1.22843,-1.03192,0.013,0.19813,0.26023,-0.34613,0.30019,-0.29645
623,-4.2127,-12.78887,3.30965,48.13459,-22.13842,-3.11169,41.68281,-79.47844,-3.98427,31.5052,-5.29434,0.1791,-0.05285,-0.78284,-0.15033,0.40313,-15.63798,-1.93133,60.36612,-121.48205,24.17673,0.95498,-35.13715,6.3138,-1.69232,4.38262,1.78911,-10.21751,3.24333,-3.21985,-0.46099,0.99889,0.43772,-1.70332,-0.0909,-1.24993,-0.1009,0.32159,0.08655,-0.38467,-0.06481,-0.36617
624,-5.15565,-10.85847,2.90934,52.70531,-22.78084,-4.25233,26.96264,-68.50354,-4.50818,22.1842,1.70825,-1.13752,0.04045,-0.73297,-0.11882,0.8302,-17.26747,-2.01532,38.38556,-103.80692,21.55662,2.54267,-48.59899,2.81738,-1.72438,3.65362,-0.26638,-12.84467,3.10216,-3.5724,-0.83934,0.23431,-1.17269,-1.94922,-0.88458,-1.58942,-0.26384,0.08761,-0.29414,-0.43366,-0.26659,-0.41433
625,-2.49926,-7.59449,1.87785,59.60986,-24.99358,-5.41106,23.19085,-51.59807,-4.79012,27.92064,2.90783,-1.72705,0.26378,-0.57578,-0.01525,1.3828,-19.23369,-2.50854,41.75933,-83.02167,13.85809,26.72035,-54.75268,-11.57646,0.21117,0.30943,-3.00769,-14.28032,4.15058,-3.37582,-0.29597,-1.6266,-2.40773,-1.64429,-0.70136,-1.2494,-0.25223,-0.2203,-0.47615,-0.34696,-0.1967,-0.30382
626,0.31156,-3.83614,0.68965,66.98055,-28.51713,-6.22367,21.14183,-31.73303,-4.64315,42.16273,-0.72633,-1.58961,0.44791,-0.40954,0.08608,1.83328,-21.21437,-3.1722,50.09304,-60.86281,3.30737,61.05894,-57.87465,-25.19453,1.63656,-1.40177,-2.92109,-13.42194,4.91706,-2.29982,0.9009,-2.75025,-2.10151,-0.67328,-0.09461,-0.38502,-0.0231,-0.27688,-0.31939,-0.12525,-0.01642,-0.07925
627,1.33081,-0.57674,-0.16819,72.58685,-32.32883,-6.39963,16.71008,-13.52091,-3.49767,53.29895,-5.84526,-1.03844,0.51574,-0.25986,0.12383,2.02257,-22.84328,-3.56989,51.51458,-41.76313,-3.15001,79.8328,-64.65537,-27.27839,1.79796,0.53751,-0.53395,-10.70225,5.26761,-1.12764,1.98636,-2.76002,-0.84881,0.43047,0.41504,0.49947,0.21311,-0.21653,-0.08418,0.12712,0.10459,0.15013
628,1.01177,1.55659,-0.5613,76.47136,-35.99715,-6.01607,12.59082,-0.41872,-1.46089,59.64189,-11.52289,-0.14571,0.5008,-0.13945,0.10376,2.00323,-24.10313,-3.62176,53.29169,-33.04311,-2.33234,74.7626,-72.07713,-17.00803,0.95825,4.31604,1.60888,-7.82997,4.7453,-0.32496,2.22633,-2.50243,-0.04379,1.10803,0.43807,0.96516,0.23047,-0.23226,0.0065,0.26081,0.11057,0.27432
629,0.02759,2.60478,-0.60024,80.68974,-39.70549,-5.53474,8.87092,7.04556,0.64707,69.98806,-19.38722,0.68726,0.4236,-0.09653,0.05549,1.91946,-25.18149,-3.60008,63.89509,-37.91083,-0.1189,56.78342,-74.33417,-3.20521,0.28108,7.08497,2.22969,-7.26976,3.25234,-0.08092,1.89105,-2.48907,0.14118,0.87203,-0.1076,0.7059,0.11269,-0.25989,0.0434,0.15967,0.03338,0.20612
630,-1.51059,2.69035,-0.39123,86.13161,-43.56599,-5.3035,3.57997,9.46853,1.99264,88.77502,-30.29173,0.43586,0.28341,-0.18898,-0.01765,1.79627,-26.13061,-3.70572,81.31107,-52.68334,-3.42318,40.83804,-72.08743,5.65376,-0.223,7.54418,2.07545,-8.92813,3.03546,-0.87539,1.48712,-2.64054,0.00672,0.05359,-0.57672,0.05876,0.05207,-0.24712,0.10314,-0.08048,-0.05307,0.00798
631,-2.72418,2.32244,-0.1315,91.19295,-47.28306,-5.23359,-1.04211,8.86865,2.47721,107.82435,-42.21569,-1.59354,0.18505,-0.33708,-0.06021,1.63755,-26.85669,-3.87619,97.14996,-68.98917,-11.46338,35.67149,-71.29691,8.95153,-2.0166,6.94326,2.39173,-9.62676,4.68997,-2.2131,0.76523,-2.51797,-0.51184,-0.17469,-0.68219,-0.24194,-0.00449,-0.24078,0.06721,-0.19884,-0.1492,-0.12045
632,-2.96831,2.59853,-0.06264,93.70798,-50.73073,-4.98331,-2.61208,9.0419,2.66437,114.59132,-53.5243,-5.12199,0.22563,-0.37054,-0.02235,1.58251,-27.42688,-4.01877,100.97112,-81.17435,-19.47619,44.15939,-80.01771,9.91745,-3.05209,7.32788,2.77414,-7.45034,4.52772,-2.24517,0.38488,-1.96356,-0.72078,0.67307,-1.20666,0.00482,-0.02847,-0.26877,-0.03804,-0.07725,-0.32749,-0.06517
633,-2.79057,3.65493,-0.20432,93.51786,-53.37601,-4.59868,-1.92491,11.56052,2.84526,107.2918,-61.97009,-8.15748,0.3274,-0.28041,0.03061,1.80816,-28.08384,-4.16787,92.01944,-86.36512,-23.83424,63.51921,-98.71767,9.47164,-0.7386,8.89972,2.23122,-3.75275,0.49696,-0.32677,1.11993,-1.17254,-0.01684,1.83462,-2.4685,0.4441,0.08986,-0.23315,-0.04981,0.14734,-0.54356,0.10132
634,-2.88448,4.17478,-0.33188,92.32888,-53.70121,-4.70264,-0.46997,13.75913,2.93423,96.79209,-61.32076,-8.1097,0.33886,-0.22174,0.00037,2.3313,-28.89676,-4.3373,82.30754,-79.308,-22.23468,79.98979,-110.89085,7.9885,2.45408,10.68442,1.52699,-0.97757,-3.19299,1.45801,2.19535,-0.47768,0.96793,2.38116,-3.20083,0.726,0.24812,-0.0405,0.06195,0.26812,-0.57098,0.22053
635,-2.96677,3.71242,-0.30202,91.12459,-51.72929,-5.46104,2.163,12.79734,3.30716,90.38795,-50.80646,-5.60755,0.25994,-0.24349,-0.07967,3.00198,-29.70563,-4.46394,78.30103,-63.78437,-15.52942,77.27729,-100.30855,6.77294,2.84139,11.61876,1.88528,-1.36034,-1.45186,0.93142,2.57179,-0.47577,1.26312,1.87351,-2.12214,0.63317,0.30299,0.10977,0.16609,0.19485,-0.27104,0.17838
636,-2.35644,3.02857,-0.15746,89.66175,-49.53597,-6.28834,7.42969,7.16839,3.95521,85.18507,-38.97187,-3.95263,0.20538,-0.24315,-0.10359,3.67731,-30.37775,-4.50233,75.96883,-56.89108,-7.96198,57.36522,-78.03394,6.09273,0.27144,10.85963,2.79127,-5.23079,4.18654,-1.08817,1.86341,-1.14352,0.63007,0.56919,0.00052,0.18107,0.17627,0.01564,0.12188,0.03597,0.1342,0.01909
637,-0.99007,2.14849,-0.00362,88.32407,-48.6291,-6.7184,14.76487,-2.53565,3.77258,80.56781,-33.10853,-4.02964,0.21982,-0.17688,-0.04974,4.31121,-30.91534,-4.48845,77.15012,-66.84113,-3.2142,37.29672,-67.32936,5.68952,-1.72478,8.1453,2.73242,-8.82897,6.94487,-2.00437,0.90693,-1.81266,-0.19077,-0.4171,0.86397,-0.26531,0.00903,-0.19871,-0.01382,-0.00445,0.24299,-0.08835
638,0.43769,0.76907,0.05269,87.54076,-48.7906,-6.73166,20.48212,-11.39673,2.0762,80.70508,-33.43244,-3.86652,0.25,-0.112,0.03156,4.92362,-31.3355,-4.47202,86.26981,-81.20153,-2.05756,26.36952,-67.24107,5.92305,-1.41397,4.99154,1.72397,-8.42623,3.51801,-0.89586,0.53097,-1.9063,-0.51954,-0.43244,-0.47252,-0.40667,-0.03759,-0.27264,-0.09165,0.04337,-0.04161,-0.08554
639,1.68343,-1.02839,0.00819,86.13161,-48.9763,-6.54682,22.57894,-16.46829,-0.41523,82.65797,-35.34274,-2.92137,0.30632,-0.1595,0.10311,5.55672,-31.62072,-4.44768,94.86994,-86.38795,-2.40229,23.40499,-61.45795,6.34854,-0.66278,4.46517,1.21878,-5.59898,-1.86455,0.76947,0.49193,-1.26828,-0.35438,-0.22115,-2.30361,-0.31212,-0.02314,-0.15654,-0.0769,-0.05315,-0.39207,-0.0634
640,2.50466,-2.42511,-0.02733,82.83549,-48.91969,-6.37794,20.28735,-18.22386,-2.2802,78.54407,-35.70206,-3.11927,0.43301,-0.33467,0.14219,6.2084,-31.8156,-4.44272,87.49185,-82.47515,-3.43171,26.88593,-49.60005,6.01561,-0.54287,7.3147,1.66887,-3.85237,-3.43056,1.347,0.58217,-0.37534,0.0259,-0.3932,-2.55516,-0.13334,0.00735,-0.02521,-0.0228,-0.27269,-0.45844,-0.05127
641,1.89233,-2.08076,-0.01609,78.86143,-48.68873,-6.41779,11.48679,-13.70924,-2.38206,69.65667,-34.62354,-5.09464,0.54667,-0.49781,0.10877,6.78616,-31.93459,-4.49586,62.20293,-71.99972,-7.1517,32.99954,-41.92496,5.06205,-0.1824,9.70759,1.94305,-3.42554,-0.94966,0.7016,0.92368,-0.11831,0.29587,-0.45089,-1.37913,0.06767,0.09367,-0.01266,0.02691,-0.3485,-0.26628,-0.01038
642,-0.0687,0.08339,-0.03454,76.12447,-48.13956,-6.62574,-0.40123,-1.19034,-0.64768,64.27304,-33.56301,-6.66081,0.52184,-0.50479,0.00281,7.17145,-31.889,-4.58316,36.95131,-56.65371,-12.36896,33.50855,-38.80655,4.36607,1.06066,7.92752,1.0815,-2.91502,1.62382,-0.11098,1.35082,-0.84434,0.2416,-0.07597,-0.33077,0.22876,0.17301,-0.09932,0.04487,-0.20669,-0.06654,0.04648
643,-1.7816,2.34613,-0.09429,75.32355,-48.22126,-6.63668,-5.86321,10.82592,1.5083,68.01564,-35.20111,-5.89983,0.34335,-0.33845,-0.09654,7.44995,-31.72092,-4.71126,34.61526,-47.90752,-14.32744,24.78706,-35.0144,5.32307,2.32887,4.05379,-0.31675,-1.98166,1.71344,-0.17584,1.38305,-1.67524,-0.02224,0.35937,-0.1884,0.3227,0.11967,-0.17477,0.01975,-0.01232,-0.00481,0.09089
644,-1.89682,3.03668,-0.14253,75.80397,-49.40464,-6.36107,-0.4522,11.84897,2.30685,77.86999,-39.16168,-3.70268,0.14844,-0.12609,-0.10571,7.87578,-31.54749,-4.84529,56.45592,-54.9451,-11.67248,16.15611,-34.00356,7.68063,2.36492,2.61416,-0.95475,-1.07645,-0.6204,0.64355,0.95933,-1.68718,-0.22661,0.65651,-1.02358,0.41711,-0.00082,-0.1929,-0.03144,0.11364,-0.14916,0.13628
645,-0.93001,2.06291,-0.14699,75.10762,-50.11337,-5.99672,8.34035,3.66371,1.43864,82.06287,-41.85486,-2.39781,0.06643,-0.05041,-0.05098,8.45507,-31.27597,-4.81331,74.9563,-68.93248,-8.21308,18.81778,-39.69981,7.70302,1.21733,3.6775,-0.52609,-0.7251,-3.71232,1.8134,0.58144,-1.12614,-0.28301,0.92154,-2.40934,0.51199,-0.00976,-0.18715,-0.07622,0.17357,-0.42833,0.17563
646,-0.28248,0.58831,-0.07921,71.59457,-48.8376,-5.68387,11.1742,-4.01084,0.32954,73.63619,-41.20319,-2.90155,0.11512,-0.16618,-0.00796,8.94084,-30.72381,-4.5232,69.51479,-75.11566,-6.43952,28.15688,-44.85817,3.81716,0.08355,4.10656,0.1297,-1.09362,-4.88662,2.33193,0.51765,-0.80035,-0.28344,1.04226,-2.96592,0.39867,0.06777,-0.16055,-0.08638,0.17326,-0.52695,0.12696
647,-0.44654,-0.04487,0.0603,66.51927,-45.59033,-5.63455,7.50227,-5.89307,0.24825,58.92452,-35.99146,-4.29781,0.24844,-0.3193,0.01798,9.21204,-29.88269,-4.12462,48.72112,-66.97957,-5.20068,30.92312,-45.08765,1.12098,-0.01762,3.48491,0.30384,-1.6097,-2.53695,1.3773,0.66965,-0.87655,-0.25385,0.80176,-1.74972,-0.02833,0.09644,-0.08837,-0.05475,0.08317,-0.26701,-0.03443
648,-0.90571,0.63272,0.15291,62.53453,-41.7496,-5.93843,2.71808,-2.45621,0.80048,50.33329,-27.64285,-5.26908,0.35296,-0.30262,0.04927,9.3951,-28.9038,-3.85137,32.80407,-48.90829,-4.61978,25.04152,-45.51683,3.85075,0.67033,3.78387,0.20416,-1.40101,1.60772,-0.56886,0.90979,-0.84722,-0.13828,0.48804,0.15215,-0.43067,0.08063,0.00588,-0.00721,-0.02341,0.09898,-0.17473
649,-0.80693,1.54322,0.07579,61.10818,-38.73624,-6.33022,1.37195,2.24568,0.78514,54.48366,-21.95036,-5.0976,0.32132,-0.10788,0.06687,9.62189,-27.87354,-3.75565,34.12441,-35.30758,-6.34804,18.40618,-44.55415,7.94145,1.22818,4.71739,0.18549,-0.57748,3.86322,-1.75441,1.10884,-0.67474,-0.01683,0.58221,0.90827,-0.39229,0.08764,0.01001,0.00886,0.00385,0.22984,-0.15308
650,0.12891,1.14853,-0.08635,60.90371,-37.25247,-6.38711,3.3583,2.69528,0.01463,65.63515,-24.29386,-4.32069,0.2162,0.02907,0.04134,9.82634,-26.75101,-3.71258,49.50037,-40.06782,-9.83384,17.46097,-36.90313,7.13468,1.5061,4.51228,0.0823,-0.92384,2.22552,-0.823,1.22144,-0.83166,-0.0376,0.68545,-0.02599,0.04369,0.11068,-0.13221,-0.02852,0.13203,0.05922,0.00573
651,1.04251,-0.43804,-0.14635,59.09364,-37.05851,-5.99459,5.02197,-2.03606,-0.50672,70.79527,-31.45664,-4.26603,0.20821,-0.11171,-0.03418,9.83337,-25.45322,-3.61901,61.96849,-57.23283,-11.86274,23.49616,-29.48568,1.42929,1.84515,3.40601,-0.27523,-3.02832,-1.27764,1.33415,1.24446,-1.20237,-0.18283,0.28819,-1.49062,0.4593,0.09276,-0.27397,-0.08551,0.21085,-0.20187,0.14873
652,1.06866,-1.29415,-0.06846,54.54416,-36.98298,-5.44225,4.46692,-6.08091,-0.03184,63.75288,-34.26215,-5.25863,0.34534,-0.42889,-0.10583,9.58688,-23.94663,-3.47665,57.69834,-64.95976,-10.33263,30.5956,-32.29046,-3.94409,1.92315,2.48007,-0.60173,-4.21553,-2.67346,2.2146,1.08545,-1.28806,-0.3172,-0.09763,-1.96156,0.51303,0.0335,-0.26061,-0.11227,0.17721,-0.31426,0.16329
653,0.28679,-0.586,0.05326,49.01822,-35.83887,-4.96688,3.24712,-6.46868,0.54449,52.62066,-30.11095,-5.63468,0.47846,-0.59086,-0.07783,9.24091,-22.29543,-3.29195,42.6854,-57.60953,-7.18573,28.46228,-41.08889,-4.2562,1.23098,1.51106,-0.524,-2.39536,-1.27006,1.0046,0.756,-1.16647,-0.34463,0.00203,-1.33655,0.27626,0.0206,-0.16746,-0.08926,0.04017,-0.25696,0.08903
654,-0.46739,0.15909,0.08269,44.61797,-33.37107,-4.47728,4.2622,-6.7824,-0.14346,47.52559,-24.64216,-3.72494,0.43846,-0.46407,0.03575,8.9559,-20.57732,-2.99795,33.84507,-49.53628,-5.00756,16.06834,-41.17957,-0.76516,0.87887,0.30265,-0.32051,0.34826,-0.02489,-0.31957,0.75965,-1.21661,-0.22707,0.20737,-0.65869,0.06621,0.13899,-0.14392,-0.03243,-0.1082,-0.15552,0.02562
655,-0.28077,-0.52108,-0.0616,41.64763,-30.32425,-3.89308,8.509,-9.18288,-1.63566,47.93338,-21.52516,-0.60995,0.2575,-0.25752,0.08617,8.71324,-18.82173,-2.55684,37.2215,-47.39138,-3.45144,6.28157,-29.45051,1.09961,2.40528,-0.07403,-0.60145,0.6908,-0.51916,-0.01408,1.53011,-1.32419,-0.00648,0.23364,-0.56566,0.02739,0.34969,-0.15294,0.01882,-0.10555,-0.10866,0.00622
656,0.6357,-1.83813,-0.24362,38.09118,-27.20883,-3.34976,12.29305,-10.98293,-2.19092,45.22298,-18.21015,0.90305,0.08882,-0.16467,0.00733,8.33756,-17.04638,-2.07911,40.71,-43.09724,-1.17756,9.0453,-22.53304,0.84319,4.14923,1.30279,-1.03653,-1.38571,-1.27439,1.23154,2.23732,-1.05691,0.1653,0.35301,-0.85001,0.10392,0.44187,-0.09172,0.02989,0.08674,-0.13841,0.02208
657,1.13859,-1.80254,-0.23026,32.64937,-24.2627,-2.92736,11.46107,-8.31871,-0.9839,36.34792,-13.63995,-0.04999,0.01363,-0.13614,-0.08074,7.78267,-15.32986,-1.72356,34.79465,-31.75088,1.36532,17.19426,-29.77513,3.28593,2.89639,3.39629,-0.75848,-3.01784,-1.05203,1.85284,1.53392,-0.54794,0.11966,0.67898,-1.04204,0.23985,0.22109,-0.06556,-0.00138,0.29303,-0.18482,0.06817
658,0.97417,-0.182,0.00699,26.90396,-21.88474,-2.56529,7.80736,-2.05843,1.21273,26.78806,-10.51522,-1.88414,0.09753,-0.12334,-0.05986,7.20528,-13.76724,-1.50221,25.20835,-19.49407,3.05274,17.00818,-35.90047,8.00889,-0.21285,3.90591,-0.10377,-2.54939,-0.2334,1.36384,-0.04931,-0.43018,-0.11969,0.78436,-0.8383,0.37045,-0.14337,-0.17628,-0.04453,0.30431,-0.15644,0.11884
659,0.55486,1.14579,0.2615,22.5863,-20.11398,-2.15619,4.65953,1.58691,2.71048,21.55929,-11.42967,-2.98458,0.31932,-0.17168,0.02078,6.6565,-12.33113,-1.29151,18.66157,-17.13767,2.50181,7.5419,-27.3122,7.69054,-0.78353,1.50896,-0.25797,-1.32441,1.01147,0.1773,-0.51836,-1.05662,-0.36666,0.29171,-0.14216,0.31404,-0.26238,-0.28065,-0.0685,0.09923,-0.02294,0.10704
660,0.1124,1.22777,0.33038,19.15505,-18.02416,-1.63437,1.97518,1.02778,2.49628,20.31281,-15.25042,-2.79667,0.47286,-0.2346,0.06642,5.98864,-10.84876,-0.98124,14.44704,-23.53311,-1.23604,1.81928,-17.08814,0.20576,1.69866,-2.30958,-1.18359,-1.70583,2.45318,-0.86285,0.5541,-2.03839,-0.52206,-0.65218,0.56415,-0.00943,-0.0458,-0.25412,-0.07494,-0.16771,0.10328,0.0028
661,-0.15217,0.83439,0.21071,15.99387,-14.48967,-1.13422,-1.15738,1.44198,1.30077,19.86003,-15.72037,-1.76492,0.45143,-0.28338,0.05043,5.19708,-9.20114,-0.52198,9.30152,-22.4822,-5.66367,8.71218,-27.43556,-5.86991,3.39832,-3.52777,-1.5521,-3.47615,2.99829,-1.09739,1.56968,-2.30993,-0.53474,-1.3185,0.54107,-0.3307,0.21297,-0.16626,-0.08145,-0.31042,0.08099,-0.10748
662,0.08949,0.63828,0.07714,13.37983,-10.4911,-0.72707,-2.83973,3.37004,0.47073,16.63046,-10.59142,-0.80004,0.4018,-0.35636,0.01393,4.45308,-7.56114,-0.00151,2.6232,-10.99154,-5.84821,22.36567,-55.27172,-3.60041,2.15083,-0.05272,-0.68344,-3.76441,2.24531,-0.83046,1.41611,-1.33365,-0.31929,-1.00549,-0.1928,-0.28561,0.26324,-0.1145,-0.07888,-0.24533,-0.07814,-0.09591
663,0.89958,0.67441,0.04995,10.82646,-7.54147,-0.30904,0.56598,1.979,0.32535,10.17757,-3.6876,0.07745,0.41206,-0.37084,0.0215,3.78184,-6.16142,0.39132,0.56938,-2.48194,-0.10769,30.84653,-70.44969,1.80466,-0.08303,4.63598,0.47464,-1.611,0.9948,-0.61254,0.65793,-0.12294,0.02103,0.00092,-1.00923,0.09866,0.15008,-0.14047,-0.04641,-0.0632,-0.26427,0.03815
664,1.83267,0.60896,0.0554,7.846,-5.26517,0.09273,8.67949,-2.54998,0.28404,5.22226,2.43691,1.40761,0.38888,-0.26917,0.06975,3.07603,-4.97335,0.57231,8.793,-1.14258,7.09578,27.31668,-53.85759,2.36504,-0.21681,5.52896,0.51525,0.38532,0.18642,-0.37072,0.413,-0.05221,0.20032,0.70274,-1.30931,0.37617,0.07145,-0.24358,-0.00805,0.06802,-0.35185,0.14047
665,2.03473,0.19087,-0.00959,5.12753,-3.63368,0.40708,14.50705,-4.86002,0.01415,5.17208,4.86237,2.76659,0.27393,-0.16695,0.0819,2.3254,-3.89434,0.59512,18.79889,-3.1363,9.51849,11.79382,-22.76338,-0.17029,2.27287,2.60299,-0.64158,-0.30589,0.30595,0.09315,1.03913,-0.91505,0.17066,0.46278,-0.82266,0.26963,0.14344,-0.303,0.01005,0.06011,-0.24186,0.10466
666,0.96041,-0.05557,-0.08444,3.29169,-3.81697,0.71026,11.00457,-1.79893,-0.2218,6.43715,0.58776,3.24208,0.12917,-0.12581,0.03655,1.66758,-3.00011,0.52706,14.72672,-5.83877,5.67191,-5.51885,-9.20022,-0.42001,4.94131,-0.02878,-1.73267,-2.79047,1.3027,0.45493,1.87825,-1.36333,0.1486,-0.33417,0.13312,-0.00455,0.26885,-0.14588,0.02928,-0.01914,0.00604,0.00235
667,-0.67947,0.07417,-0.07812,1.89171,-5.23492,1.01873,0.4346,2.77566,-0.25254,3.77611,-6.43304,2.76142,0.04124,-0.10287,-0.01338,1.23217,-2.38266,0.43329,-3.49642,-6.56821,0.08722,-8.74716,-21.9752,0.56579,5.16817,-0.34837,-1.8165,-4.26599,2.51751,0.36949,1.97944,-1.0887,0.1158,-0.69425,0.84228,-0.16546,0.23385,0.15651,0.04613,-0.03465,0.20213,-0.06141
668,-1.36395,-0.45021,-0.04057,0.3646,-5.63342,1.22674,-6.24696,0.19099,-0.34529,-1.75426,-9.26779,2.0316,0.05439,-0.12226,-0.03559,0.96159,-1.92492,0.41204,-16.09841,-9.25166,-1.34835,4.1997,-41.13948,0.2844,2.81225,0.40763,-1.08823,-3.99518,3.03722,0.05783,1.16155,-0.90116,-0.10726,-0.45999,0.84483,-0.2187,0.00435,0.33724,0.02489,-0.02859,0.23157,-0.08487
669,-0.35353,-2.03932,-0.03728,-0.49592,-2.43297,0.47164,-2.47587,-10.47005,-0.54999,-2.52042,-5.60838,0.88546,0.18186,-0.24888,-0.03536,0.38513,-0.5355,-0.03955,-6.12677,-16.13569,1.19288,19.84064,-50.44592,-0.42993,0.31378,1.38653,-0.24453,-3.41787,2.92835,-0.30325,0.34426,-0.99521,-0.33758,-0.34119,0.32105,-0.21506,-0.15968,0.28006,-0.01549,-0.11827,0.12081,-0.08715
670,1.2483,-2.98056,-0.02161,-1.24193,-1.07006,0.43647,5.57306,-17.1821,-0.37487,-2.4665,-3.70095,0.50057,0.36268,-0.40335,-0.0193,0.25813,-0.4035,0.08982,7.00886,-23.85155,3.99092,27.50191,-53.52714,-2.8603,-0.16626,2.19282,0.08007,-3.18219,3.87234,-1.1744,0.27364,-0.98207,-0.33132,-0.44841,0.12117,-0.15039,-0.0733,0.05322,-0.04495,-0.19886,0.01897,-0.05224
671,2.16479,-1.47053,0.08766,-1.4422,0.15147,0.23476,10.96794,-10.83692,0.52529,-0.07057,-3.25355,-0.26473,0.47375,-0.38602,0.02927,0.16314,-0.31214,0.1407,16.26536,-16.8115,2.31697,23.81522,-52.98488,-9.26756,1.13694,1.1209,-0.46932,-3.44908,5.96333,-2.20766,0.59534,-1.02982,-0.25496,-0.62916,0.62578,-0.10067,0.11933,-0.21568,-0.07145,-0.18578,0.03062,-0.00709
672,2.28301,1.02744,0.18588,-0.83754,0.99775,-0.09792,13.73427,0.90403,1.35227,4.05061,-2.10334,-0.97725,0.44736,-0.21133,0.07101,0.19326,-0.32076,0.08973,21.97203,0.77965,-1.08877,10.63899,-46.67241,-14.90145,2.57767,-1.98224,-1.44165,-3.97435,6.52449,-2.2056,0.77384,-1.62488,-0.31476,-0.89128,1.02459,-0.15561,0.20868,-0.41075,-0.07804,-0.1814,0.07254,-0.01354
673,1.84578,1.48793,0.08091,-0.17279,0.9972,-0.25068,13.06171,4.47649,0.92698,6.39399,-0.32801,-0.85179,0.35508,-0.13451,0.02641,0.25374,-0.33693,-0.00406,19.80593,10.78936,-2.49778,-3.31881,-43.39066,-10.97262,2.71017,-3.16792,-1.54744,-3.50213,4.34994,-1.11694,0.87316,-2.40861,-0.33256,-0.8234,0.60127,-0.24678,0.19464,-0.47612,-0.0438,-0.1823,0.03199,-0.06045
674,1.16909,-0.03362,-0.12229,-0.60156,-0.05287,-0.04345,7.57001,-1.3485,-0.33282,2.83341,-1.18824,-0.00396,0.32699,-0.25576,-0.06835,0.22701,-0.31744,-0.1029,4.97226,3.27211,-1.4419,-9.3485,-50.1406,1.93014,1.42819,0.31831,-0.35498,-2.12995,1.74597,-0.02789,0.94802,-2.42588,-0.13885,-0.26734,-0.20841,-0.2043,0.15256,-0.40623,-0.00029,-0.10166,-0.06251,-0.0691
675,0.77447,-1.38596,-0.15718,-1.4289,-0.6111,0.18385,1.63398,-7.17341,-0.81763,-2.19904,-3.25214,0.64396,0.37292,-0.41936,-0.10045,0.19256,-0.28144,-0.13623,-8.00677,-9.64655,0.33543,-2.30762,-57.41454,9.63961,0.84779,4.23948,0.50758,-2.06936,1.67148,0.28147,0.92903,-1.81286,0.06756,0.0704,-0.36571,-0.04343,0.08551,-0.27062,0.006,-0.01329,-0.07055,-0.0189
676,0.57503,-1.86779,-0.01506,-1.21334,0.30125,0.09626,-0.63165,-7.18786,-0.04961,-2.79832,-2.13744,0.40662,0.38216,-0.47116,-0.04335,0.27307,-0.26618,-0.06063,-6.79226,-10.79791,1.3039,15.15331,-56.30432,3.51855,1.80147,3.60557,-0.11609,-3.82159,3.93639,-0.10562,0.68495,-1.4013,0.02949,-0.09566,0.28683,0.08708,-0.03363,-0.1468,-0.02586,0.02137,0.03247,0.03967
677,-0.29843,-1.98553,0.08068,-0.33988,0.98289,-0.0953,-2.38292,-4.03311,0.70618,-1.8523,0.95104,-0.4112,0.27942,-0.40565,0.01456,0.41115,-0.31349,0.03177,-4.28855,-1.3111,1.03867,24.96062,-49.43937,-5.11868,1.9953,0.98202,-0.85261,-4.58984,5.81742,-0.81717,0.20224,-1.11122,-0.18145,-0.06655,0.89442,0.11794,-0.16448,-0.01551,-0.05781,0.086,0.12855,0.06057
678,-1.48616,-1.8602,0.00978,0.06625,0.30511,-0.11594,-5.01042,-2.19771,0.49143,-1.74202,2.14695,-0.98711,0.16238,-0.32383,-0.00837,0.46947,-0.38227,0.04837,-8.1354,5.34461,-0.16183,11.98329,-40.12851,-3.72755,0.9482,0.65574,-0.5093,-2.93957,5.35421,-1.36051,0.04894,-0.80678,-0.26616,0.40686,0.60818,0.11792,-0.14866,0.08182,-0.05743,0.18063,0.08814,0.05462
679,-1.49267,-1.53919,-0.12907,-0.34443,-0.02448,-0.09653,-4.5277,-2.84901,-0.17514,0.12582,2.77077,-1.02245,0.20446,-0.32318,-0.08765,0.38889,-0.38009,0.00239,-7.47633,4.56799,-1.39289,-11.57323,-29.91929,3.27782,0.86393,1.29839,0.0086,-1.55823,3.23349,-1.2073,0.59089,-1.09575,-0.11801,0.52262,-0.44906,0.16874,0.07788,0.00366,-0.01439,0.16509,-0.09703,0.06274
680,-0.20248,-1.07726,-0.16543,-0.87901,1.50782,-0.21195,-0.28163,-3.6268,-0.5054,3.41797,6.78103,-0.62001,0.36791,-0.35853,-0.10935,0.25852,-0.28213,-0.02775,0.41178,5.22534,-1.25207,-20.01033,-24.93604,5.84585,1.60489,0.3732,-0.07194,-2.57649,1.96944,-0.54998,1.09783,-2.09069,-0.02195,-0.15817,-1.09947,0.20432,0.30007,-0.24156,0.0395,-0.01951,-0.24389,0.07962
681,0.91087,0.00348,-0.04733,-0.57079,3.43494,-0.3074,3.60128,-1.34531,-0.48337,4.14685,12.10435,0.28523,0.41247,-0.29472,0.0029,0.23539,-0.16235,0.00532,4.92292,13.13788,0.57835,-6.14254,-30.33026,2.45732,1.48874,-0.47533,-0.29928,-4.6338,2.98279,-0.12596,0.86643,-2.67047,-0.14632,-1.00018,-0.51395,0.10162,0.27983,-0.38955,0.04728,-0.24311,-0.16344,0.05774
682,0.91305,1.28762,0.08894,0.31198,3.69909,-0.21936,3.94395,2.26536,-0.5734,0.80792,13.0313,1.26815,0.28036,-0.1724,0.157,0.33843,-0.12862,0.05881,0.02442,20.02595,2.10676,11.86723,-39.89227,-1.86304,1.35363,1.21309,-0.38818,-5.48795,4.74203,-0.16559,0.33169,-1.92184,-0.19541,-1.18824,0.53944,-0.07668,0.07383,-0.2458,0.00474,-0.31444,0.05655,-0.00304
683,0.23575,1.07408,0.09866,0.40324,2.95369,-0.09475,0.51646,0.94301,-0.91087,-4.59364,10.41365,1.25482,0.21282,-0.19726,0.18988,0.424,-0.18324,0.08968,-11.59965,16.16247,1.8344,12.99955,-42.27587,-2.71095,2.00521,3.83166,-0.49261,-4.61697,4.8839,-0.32748,0.04491,-0.57227,-0.08253,-0.75656,0.77985,-0.13303,-0.10575,0.00459,-0.05012,-0.22004,0.15984,-0.04101
684,-0.43865,-0.89603,0.01342,-0.96311,2.74342,-0.07788,-4.38763,-6.32904,-1.20188,-9.30334,8.89841,0.16505,0.34178,-0.38146,0.09334,0.36973,-0.21113,0.09843,-23.01262,3.8277,0.88373,-2.97169,-35.98263,0.19443,1.51911,4.39792,-0.29513,-3.20503,3.41002,-0.37019,-0.14034,0.26106,-0.09238,-0.36973,0.17111,-0.03019,-0.16634,0.1255,-0.084,-0.11192,0.06524,-0.01697
685,-0.91046,-2.51011,-0.06916,-3.0505,2.34366,-0.04223,-6.6528,-12.02487,-1.25541,-11.25259,6.60705,-0.6875,0.44588,-0.4649,-0.00232,0.17672,-0.1677,0.0373,-25.27207,-8.72519,-0.0329,-17.8163,-28.20947,2.59724,-0.43164,2.88547,0.40791,-2.84027,2.14393,-0.24376,-0.23103,0.31869,-0.13924,-0.42131,-0.39619,0.06882,-0.12737,0.1132,-0.06117,-0.07858,-0.09445,0.03588
686,-1.56175,-2.42473,-0.18435,-3.83531,0.50747,0.05346,-5.71716,-11.39881,-1.39616,-8.10191,-0.19466,-0.70636,0.32424,-0.34352,-0.05505,0.02168,-0.15725,-0.09863,-15.78444,-17.35722,-2.46245,-15.10364,-23.99218,-0.0417,-0.93644,1.77003,1.02459,-3.701,2.04227,-0.01322,0.09041,-0.11853,0.13381,-0.67299,-0.46073,0.05057,-0.01615,0.0531,0.02715,-0.07531,-0.16407,0.05782
687,-2.38185,-1.30035,-0.33266,-2.32411,-1.87426,0.0633,-4.5694,-7.71274,-1.84018,-0.97811,-8.61319,-0.76487,0.15352,-0.21856,-0.09288,0.0896,-0.27818,-0.18872,-3.48717,-21.89709,-6.83169,2.48027,-23.45274,-5.17686,0.47174,2.45323,1.00341,-4.30265,2.3005,0.15054,0.4539,-0.68309,0.40326,-0.70572,-0.37358,-0.01342,0.07771,-0.0223,0.09544,-0.06058,-0.11581,0.03282
688,-2.60559,-0.03039,-0.36907,0.13828,-2.73736,-0.03647,-4.50541,-5.05228,-2.16056,5.21404,-12.88706,-1.30488,0.19393,-0.22646,-0.09391,0.31749,-0.43539,-0.12072,1.75271,-23.37554,-10.31731,15.14172,-22.48192,-5.42341,0.85596,3.30033,0.42033,-4.01785,1.9168,0.25791,0.14134,-1.03559,0.02565,-0.57588,-0.49416,-0.049,0.04066,-0.07357,0.04899,-0.07905,-0.03547,-0.01347
689,-1.84589,0.37985,-0.29239,1.82995,-1.84411,-0.08252,-4.90506,-4.7356,-2.05042,7.10702,-12.06847,-1.45785,0.42435,-0.3508,-0.09241,0.48891,-0.48573,0.04932,-1.77311,-23.89656,-9.74955,10.48376,-17.6432,0.69282,-0.84607,2.30189,-0.29229,-4.12696,1.08022,0.50855,-0.70165,-0.90423,-0.80398,-0.70206,-0.68607,-0.08931,-0.10809,-0.00898,-0.06869,-0.16202,-0.01361,-0.04652
690,-0.88219,-0.62735,-0.29799,2.01178,-1.2391,0.04344,-5.80205,-5.17708,-1.80047,5.19562,-10.83956,-0.53413,0.59401,-0.52557,-0.18106,0.47199,-0.45237,0.12608,-8.95105,-23.88424,-6.29992,0.65133,-13.46862,7.17356,-2.61037,0.50091,-0.57387,-5.14452,0.62627,0.80253,-1.2112,-0.37626,-1.24126,-1.06756,-0.70265,-0.12527,-0.21304,0.15635,-0.12632,-0.22568,-0.05993,-0.03533
691,-1.56785,-1.86548,-0.49599,0.81161,-1.5165,0.20881,-10.1554,-3.99978,-2.08398,1.84399,-10.86139,0.75045,0.46797,-0.61358,-0.34667,0.30868,-0.37255,0.04006,-16.82033,-19.97634,-4.61456,5.41504,-17.72817,9.1064,-2.47893,0.42208,-0.07216,-5.48795,0.56718,0.82502,-0.82589,-0.01799,-0.83438,-1.13044,-0.64734,-0.05552,-0.14053,0.23806,-0.05735,-0.1756,-0.12631,0.02426
692,-4.6006,-1.60047,-0.74595,-0.77868,-9.37109,-0.07405,-18.99377,-1.61241,-3.01825,0.35689,-23.36253,0.692,0.08356,-0.5012,-0.45676,-2.50044,-0.73134,-0.90445,-25.81714,-27.94011,-7.82386,24.61927,-29.34528,7.02759,-0.56535,2.4151,0.94359,-3.95151,0.39084,0.48072,0.18036,-0.1502,0.11911,-0.67979,-0.68575,0.09744,0.06771,0.14896,0.08712,-0.07087,-0.1571,0.07695
693,-7.73339,0.48764,-0.80943,-0.97176,-9.70034,-0.32887,-24.68019,0.34029,-3.45881,-0.21165,-19.22711,-0.42024,-0.28722,-0.21999,-0.41465,-3.3642,-0.49133,-1.02678,-29.23581,-18.95679,-8.56682,37.85966,-36.99797,4.23602,1.53597,4.7875,1.81568,-2.05845,0.32436,0.00118,1.04146,-0.33148,0.99247,-0.33589,-0.63994,0.09874,0.23323,0.03221,0.20634,-0.08155,-0.11251,0.04292
694,-8.16499,3.50904,-0.5885,-0.85381,-10.19302,-0.58073,-18.49007,2.18753,-2.40057,-0.18531,-16.16428,-1.45792,-0.45023,0.12092,-0.22626,-4.33827,-0.26276,-1.15188,-21.29756,-14.69691,-5.99649,31.63647,-31.45502,2.29335,2.04095,5.83233,2.0195,-2.02614,0.92942,-0.26687,1.1316,-0.16034,1.17765,-0.58109,-0.36479,-0.14084,0.23379,0.01516,0.22015,-0.23001,-0.02079,-0.06865
695,-6.59359,6.45908,-0.27533,-0.85073,-11.62765,-0.64381,-6.3147,4.80512,-0.98904,1.3782,-21.36829,-0.89412,-0.47471,0.43873,0.0122,-5.54284,0.05602,-1.37357,-8.78904,-22.52098,-4.10325,17.11273,-18.13674,-0.52404,0.22438,4.6773,1.4109,-3.21199,1.99813,-0.2333,0.39648,0.03327,0.42451,-0.81982,-0.04168,-0.3328,0.1095,0.04936,0.11518,-0.2997,0.06047,-0.14293
696,-5.70542,8.34315,-0.14866,0.01602,-14.4246,-0.54806,-1.68287,7.47867,-0.84741,5.24282,-35.06606,0.63563,-0.48257,0.63253,0.14304,-6.82375,0.51261,-1.62842,-5.24275,-40.25069,-6.43823,13.40726,-13.00345,-4.7319,-2.15331,1.94476,0.3647,-3.57697,2.19482,0.089,-0.50287,-0.18325,-0.62247,-0.50098,-0.05995,-0.20111,-0.01089,0.04684,-0.01427,-0.16823,0.08887,-0.09784
697,-5.74273,8.41061,-0.18284,1.51521,-17.87124,-0.56555,-5.43888,8.96533,-1.07455,8.62317,-46.72781,0.76489,-0.41286,0.58509,0.07787,-8.02337,1.05633,-1.83015,-10.56097,-52.5452,-9.2813,18.46696,-21.83354,-5.84405,-2.35286,-0.26052,-0.33885,-3.1767,0.80209,0.66965,-0.76601,-0.62359,-0.8934,-0.17402,-0.49057,0.08395,-0.04792,0.01387,-0.03889,-0.01234,0.05963,0.00893
698,-5.91041,7.53557,-0.19603,2.89369,-19.90873,-0.87859,-10.52055,10.267,-0.23239,11.66848,-46.85529,-1.26357,-0.23108,0.34778,-0.10469,-9.16376,1.73954,-1.94873,-13.4183,-48.03596,-8.88068,15.76166,-32.05841,-1.09504,-0.51249,-0.40346,-0.21479,-3.12497,-0.7271,1.06046,-0.36694,-0.75977,-0.27627,-0.41133,-0.83032,0.1628,-0.02782,0.01965,0.04072,-0.01797,0.02773,0.05441
699,-7.1599,7.43959,-0.24927,4.53221,-19.10272,-1.30349,-16.35457,12.88845,0.39132,17.3398,-38.36896,-3.22857,-0.14183,0.13977,-0.2859,-10.29742,2.73129,-2.00269,-12.51799,-33.5196,-8.27775,4.79532,-31.2579,4.56242,0.82731,0.80724,0.37661,-2.9998,-1.16157,0.86438,0.0797,-0.39246,0.35098,-0.73993,-0.93892,0.05397,-0.01218,0.09657,0.10519,-0.10302,-0.02071,0.03065
700,-9.75143,8.02971,-0.42879,5.6305,-16.18222,-1.56462,-24.30536,14.48322,-1.17066,21.30085,-30.91407,-3.13223,-0.28622,0.10593,-0.39725,-11.45458,4.08778,-2.07877,-19.71842,-25.4102,-11.46063,0.36593,-21.01074,5.54392,0.56173,1.89764,0.72778,-2.43348,-1.23949,0.55455,0.18889,0.11404,0.36856,-0.6212,-1.15019,-0.00488,-0.01108,0.18666,0.08146,-0.09643,-0.14531,0.02503
701,-10.96526,7.58652,-0.52439,4.43375,-13.36801,-1.63786,-29.01646,11.79068,-3.93087,16.10639,-29.48197,-1.80088,-0.43646,0.18608,-0.36174,-12.56643,5.61329,-2.24501,-38.45059,-30.77389,-16.53552,7.59911,-10.50264,3.23002,-0.35318,2.64463,0.65056,-3.02858,-1.19872,0.68454,0.04537,0.27245,-0.06709,-0.55136,-1.21523,-0.09162,0.00295,0.20495,0.00629,-0.03412,-0.24369,0.03159
702,-8.64404,4.96734,-0.37966,2.09738,-12.11659,-1.66803,-25.40108,4.89698,-5.39697,5.80022,-31.01819,-1.03547,-0.34055,0.20619,-0.19407,-13.41694,7.06036,-2.42455,-53.45427,-41.77362,-18.06799,18.8197,-8.58182,2.40918,-1.11548,3.39058,0.52559,-4.82143,0.00691,0.74375,-0.15962,-0.06606,-0.48338,-0.92277,-0.60535,-0.35272,0.03236,0.11624,-0.04214,-0.05117,-0.14736,-0.02737
703,-3.6686,1.44515,-0.11487,1.87079,-12.7703,-1.76206,-14.61759,-1.59814,-4.35181,2.71291,-32.48461,-1.36869,-0.03661,0.09904,0.00573,-13.91028,8.3025,-2.53835,-46.75614,-48.82006,-14.14328,25.51911,-17.48442,4.85097,-1.85857,4.05242,0.6841,-4.70086,1.84373,0.16642,-0.34694,-0.57128,-0.60885,-1.00369,0.29513,-0.51268,0.04737,-0.02002,-0.02845,-0.11437,0.08737,-0.12069
704,0.70171,-0.61271,0.05978,4.691,-14.60956,-1.92384,-3.23836,-3.29464,-1.80358,11.79429,-33.91425,-2.07557,0.252,-0.07712,0.15401,-14.23898,9.44126,-2.61129,-20.57806,-50.09453,-8.63858,22.83821,-28.23853,8.06102,-2.1082,4.4563,1.04178,-1.93466,2.22882,-0.43158,-0.36018,-0.7999,-0.39213,-0.35943,0.47883,-0.26662,0.04494,-0.09472,0.02712,-0.12129,0.20698,-0.13065
705,1.36678,-0.28631,0.13279,7.78003,-14.75416,-2.06608,1.09201,-1.32259,-0.02809,24.56915,-31.67033,-2.07975,0.34885,-0.25667,0.22669,-14.69188,10.83743,-2.65061,1.22185,-45.507,-5.59816,13.47332,-29.18774,8.04883,-1.11401,4.33323,1.18402,-0.10493,0.87058,-0.24594,-0.13848,-0.70103,-0.02053,0.19104,-0.27603,0.14945,0.03719,-0.06996,0.06997,-0.10255,0.08589,-0.04219
706,-1.03008,1.98211,0.16239,7.83679,-11.00028,-2.17366,-2.73631,1.61527,-0.02718,28.05262,-22.45863,-1.491,0.28009,-0.34684,0.24037,-15.35972,12.63584,-2.67214,-2.38662,-34.01679,-5.45264,9.98062,-19.5542,3.26251,0.1307,3.12444,0.88246,-1.67084,-0.64687,0.6094,0.05168,-0.55309,0.16603,-0.10347,-1.16165,0.28906,0.02348,-0.00427,0.07046,-0.12547,-0.12579,0.04373
707,-3.60412,4.42133,0.07416,5.45597,-5.90306,-2.33864,-10.38478,3.69538,-1.19572,20.6548,-13.07009,-1.57195,0.14069,-0.30305,0.11869,-16.00202,14.49176,-2.73549,-27.48279,-23.03834,-7.57291,19.4575,-9.96723,-3.28409,-0.1172,0.97726,0.43002,-4.81134,-1.14691,1.42429,-0.01834,-0.46873,0.06573,-0.80007,-1.37807,0.09922,0.00998,0.0456,0.05747,-0.15116,-0.19594,0.05448
708,-5.00741,4.72961,-0.0507,3.66848,-3.66712,-2.50531,-17.21329,2.4679,-2.69415,13.03821,-13.45921,-2.50399,-0.01815,-0.20622,-0.15999,-16.37683,16.17868,-2.80423,-50.70129,-26.07735,-11.27839,29.1059,-9.37199,-6.33739,-1.56288,-0.33987,0.16789,-6.38736,-0.67316,1.57662,-0.31094,-0.30146,-0.18943,-1.09943,-0.98343,-0.14353,-0.01578,0.07406,0.04036,-0.13421,-0.09548,0.00352
709,-4.92316,3.35924,-0.06207,3.58727,-4.54903,-2.45571,-18.06228,-0.04621,-3.32276,13.12932,-22.83345,-3.16251,-0.08342,-0.12446,-0.33799,-16.54001,17.90578,-2.71021,-53.48032,-41.6849,-14.53707,24.30856,-13.30923,-3.8243,-2.04206,0.87352,0.1263,-5.22686,-0.07619,1.02892,-0.55714,-0.02607,-0.38845,-0.81855,-0.59787,-0.22453,-0.057,0.0837,0.00423,-0.08605,-0.00881,-0.04235
710,-3.54309,2.44051,-0.00053,3.87836,-5.74787,-2.1341,-11.946,0.89505,-2.12161,16.99884,-31.25887,-2.88304,0.0083,-0.12843,-0.2291,-16.71041,19.79481,-2.39742,-42.34562,-52.65928,-14.89814,12.34491,-8.89192,0.4177,-0.94658,3.75088,0.23688,-2.74353,0.11128,0.32152,-0.51268,0.18899,-0.37644,-0.35367,-0.43027,-0.16208,-0.06213,0.06924,-0.02063,-0.03008,-0.02678,-0.03869
711,-2.72872,1.79792,0.24282,3.43226,-5.65377,-1.68803,-7.08282,2.82431,-0.22304,17.04114,-32.79239,-1.67532,0.0895,-0.31419,-0.03352,-17.10436,21.65396,-2.03454,-40.26765,-52.81247,-11.79208,7.13293,6.30485,1.65073,-0.29316,5.72465,0.39639,-1.49062,0.55917,-0.17591,-0.34821,0.34412,-0.28409,-0.26864,-0.17454,-0.11885,-0.01386,0.06521,-0.00511,-0.03517,-0.02018,-0.02284
712,-3.50536,0.53741,0.74311,2.37268,-3.5899,-1.2568,-9.58575,1.03797,0.23549,11.96699,-26.08436,-0.06114,0.04036,-0.56655,0.04766,-17.83875,23.34115,-1.70384,-55.30674,-45.35756,-7.25691,8.44946,14.26313,1.12275,-0.97937,5.29952,0.42327,-2.37373,1.72226,-0.50769,-0.29911,0.4471,-0.26669,-0.66937,0.10024,-0.16162,0.03241,0.10494,0.02588,-0.15125,0.07138,-0.04484
713,-3.77514,-0.54202,0.97532,1.12295,1.2121,-0.89451,-12.46802,-2.13367,-0.77646,6.20864,-10.00463,0.65661,0.00314,-0.67008,0.0649,-18.78444,24.84543,-1.23732,-68.75201,-25.94784,-4.01979,12.57773,-4.43113,3.32342,-1.28968,3.05879,0.24191,-3.51302,2.32808,-0.5778,-0.24777,0.26102,-0.23113,-0.93842,-0.12052,-0.16497,0.02573,0.1547,0.03361,-0.26288,0.09024,-0.07382
714,-2.00637,-1.0046,0.60677,-0.15521,6.43737,-0.54872,-8.31136,-4.04505,-1.46293,3.29134,6.93003,-0.21059,0.08036,-0.62354,0.08006,-19.65387,26.08623,-0.53946,-64.9922,-2.61978,-3.21738,23.59704,-40.0063,7.23129,-0.24489,0.88114,0.00334,-3.2236,1.2576,-0.2065,-0.08673,-0.30157,-0.11745,-0.62803,-0.80999,-0.06993,-0.03349,0.164,0.009,-0.21046,-0.06107,-0.0532
715,0.55374,-1.27568,0.1055,-1.50189,7.86312,-0.04539,-0.56529,-5.70284,-0.68006,2.66962,10.50216,-1.34507,0.2282,-0.52356,0.11967,-20.24517,27.01909,0.25874,-52.09226,2.05715,-3.32763,39.05865,-55.6327,7.23158,1.13905,0.28939,-0.00302,-2.73975,-0.60866,0.42465,0.14224,-0.85903,0.03909,-0.31633,-1.25345,-0.07811,-0.0752,0.11861,-0.01113,-0.05348,-0.22602,-0.01034
716,1.40919,-1.56856,0.13827,-3.54042,5.71967,0.73045,2.03127,-8.08475,1.01963,0.57565,2.0743,-0.87582,0.3098,-0.4479,0.16277,-20.58737,27.79514,1.01565,-49.84055,-14.86873,-1.69179,42.73771,-30.29358,2.09493,1.71387,0.75078,0.2557,-3.72024,-1.90463,0.9683,0.34608,-1.01451,0.19991,-0.66109,-1.17872,-0.27222,-0.03392,0.00278,0.00256,-0.01531,-0.23658,-0.01074
717,-0.04443,-1.59808,0.63793,-7.23403,3.99802,1.66051,-2.26264,-11.01227,2.27678,-7.52483,-3.88114,1.30051,0.21986,-0.4562,0.13926,-20.88853,28.46141,1.66759,-67.34406,-32.85238,2.43416,26.7414,9.65847,-2.59532,0.61211,0.00956,0.33446,-5.15561,-2.14903,1.25173,0.17009,-1.09032,0.12209,-1.14562,-0.93223,-0.34284,0.03722,-0.2162,0.00404,-0.11238,-0.10389,-0.03754
718,-1.67962,-1.14891,0.88456,-11.37084,5.09383,2.52176,-6.40623,-13.41737,2.43553,-19.34375,0.95743,3.51536,0.06187,-0.54122,0.05392,-21.28222,28.75212,2.28634,-90.44364,-33.87511,7.26764,3.71223,21.63442,-1.50532,-1.8474,-2.44914,-0.00936,-5.08606,-1.48425,1.17797,-0.47799,-1.54719,-0.3016,-1.02301,-0.77391,-0.08103,0.05704,-0.43657,-0.03614,-0.16746,0.03792,-0.02155
719,-1.74742,-0.8842,0.67635,-14.42046,7.42097,3.16921,-5.3719,-13.40792,2.04752,-29.0623,10.49093,4.24127,0.01795,-0.66917,-0.0054,-21.85739,28.46628,2.94066,-101.70525,-20.10825,9.69177,-9.38501,1.64445,3.5954,-2.97839,-3.82989,-0.27956,-3.38302,-0.29339,0.64086,-0.75359,-1.85809,-0.57372,-0.53635,-0.75482,0.25725,0.06578,-0.40104,-0.05574,-0.14996,0.04433,0.03935
720,-0.59648,-1.27203,0.41592,-16.47944,8.36439,3.63721,-2.09208,-10.08037,1.35212,-32.48339,15.15187,3.80886,0.14049,-0.7742,0.03836,-22.71548,27.83503,3.58096,-98.70584,-5.21048,8.03722,-5.58549,-18.26723,5.43646,-1.38516,-2.2608,-0.09284,-1.88557,1.52853,-0.31244,-0.16509,-1.41543,-0.35146,-0.31984,-0.56655,0.25977,0.09526,-0.07522,-0.01665,-0.1317,-0.05448,0.06598
721,0.41899,-1.67355,0.27547,-17.49931,7.75746,4.13238,-1.34834,-5.68788,-0.20653,-27.814,12.55508,4.00793,0.30905,-0.77796,0.14841,-23.78057,27.27087,4.19429,-88.17204,0.41725,4.09496,9.15948,-15.65465,0.10979,1.34194,0.41373,0.28173,-2.65891,4.10562,-1.24896,0.69866,-0.71461,0.12884,-0.54919,0.12256,-0.15368,0.12269,0.22799,0.06143,-0.09589,-0.09239,0.02129
722,1.08211,-1.32871,-0.02228,-17.60808,6.68419,4.74287,-0.77038,-3.04269,-1.84037,-19.6309,3.94152,5.36046,0.39787,-0.69578,0.23374,-24.86012,26.88098,4.79139,-75.75627,-7.06949,0.81069,22.03181,1.18406,-8.2597,3.20122,1.36161,0.44248,-5.44699,5.79927,-1.43852,1.11334,-0.61886,0.50892,-0.97905,0.77497,-0.58471,0.13039,0.22146,0.1301,-0.0395,-0.02887,-0.03747
723,1.84441,-0.42656,-0.44871,-18.24151,5.37471,5.20169,2.22717,-2.9742,-1.45017,-16.36995,-6.66683,6.02513,0.41156,-0.61518,0.27044,-25.89223,26.37587,5.26388,-68.31132,-21.1705,0.01976,27.73462,7.6571,-11.60707,3.01317,0.2408,0.31092,-7.16322,3.88998,-0.41739,0.81539,-1.16482,0.55169,-1.17229,0.31342,-0.50742,0.08388,-0.04997,0.13371,-0.03583,-0.00013,-0.03434
724,2.29871,-0.60761,-0.29625,-20.27034,4.05806,5.29511,3.15166,-7.47783,1.47136,-20.04042,-11.70617,5.00938,0.4123,-0.64395,0.29736,-26.97177,25.56849,5.52071,-71.24231,-31.00432,3.08965,30.64266,-7.51106,-5.72728,1.57324,-0.62246,0.17346,-5.54959,-0.85885,1.11701,0.39174,-1.64647,0.33754,-0.8658,-1.01682,0.05335,0.05919,-0.29557,0.07852,-0.11265,-0.04518,0.01269
725,2.24632,-2.38106,0.42994,-22.6191,3.32009,5.25816,1.41715,-15.21115,4.3349,-25.1392,-9.91484,4.0877,0.40435,-0.77971,0.34057,-28.20687,24.68911,5.64242,-76.99657,-34.1792,8.32335,31.21024,-26.65913,4.76905,1.03016,0.11642,0.2502,-2.63927,-3.88735,1.81005,0.61331,-1.73028,0.12497,-0.44408,-1.64099,0.45686,0.14555,-0.35592,0.0011,-0.2108,-0.01393,0.0114
726,1.91263,-3.67286,0.825,-23.77185,3.02848,5.31894,1.59827,-18.71284,4.56979,-26.32727,-8.05211,4.34955,0.32819,-0.8608,0.34673,-29.57953,23.96179,5.75178,-74.45724,-34.66826,10.48574,24.73818,-26.49678,11.01164,1.49455,0.49365,0.37289,-2.14159,-3.46642,1.52375,1.09448,-1.86464,-0.0325,-0.55868,-1.25525,0.31449,0.21442,-0.35411,-0.07501,-0.26107,0.08532,-0.05003
727,1.14806,-3.00519,0.6532,-23.68936,2.09155,5.3384,2.26831,-14.1691,2.8863,-24.18876,-11.60785,4.32576,0.2038,-0.76354,0.25582,-30.94985,23.30039,5.87069,-68.09514,-36.12702,6.82502,15.1472,-9.10281,8.77006,1.27922,-1.63275,0.28778,-3.90556,-2.06163,1.06493,1.04321,-2.44588,-0.15443,-1.04194,-1.07546,-0.05476,0.16546,-0.40075,-0.10167,-0.21535,0.01264,-0.07626
728,-0.0075,-0.98615,0.28641,-23.16902,0.44776,5.25988,-0.06008,-5.83373,1.17792,-22.67599,-18.0559,3.4716,0.10872,-0.51808,0.09457,-32.20879,22.66439,6.00431,-67.86197,-37.44332,1.01687,14.07691,5.30657,1.16429,0.00702,-4.08807,0.04066,-4.6022,-0.66166,0.48971,0.5894,-2.80572,-0.1435,-1.03883,-1.21601,-0.2316,0.1102,-0.36696,-0.03991,-0.06526,-0.22132,-0.02014
729,-0.47871,0.713,-0.1347,-22.43215,-0.66392,5.23508,-1.88643,0.31912,-0.05778,-21.17994,-20.93951,3.31772,0.08004,-0.26215,-0.02832,-33.39923,22.18498,6.1324,-67.40781,-34.10402,-1.5967,22.36112,5.95097,-5.79487,-0.87371,-3.47833,-0.18779,-4.18756,1.74929,-0.42556,0.39164,-2.31249,-0.01458,-0.79528,-0.73438,-0.3119,0.15224,-0.19419,0.04452,0.00468,-0.3087,0.0212
730,0.15243,1.15828,-0.50011,-21.49831,-1.57669,5.16401,-0.33007,1.62266,-0.82278,-15.64598,-21.82995,4.24022,0.09239,-0.08622,-0.04461,-34.63727,21.84977,6.09194,-56.7238,-31.41958,-0.81726,28.1326,-0.83091,-8.74155,-0.1372,-1.39027,-0.40027,-4.55242,4.06408,-1.09989,0.64846,-1.81215,0.01425,-0.96463,0.20688,-0.42177,0.22314,-0.10715,0.04129,-0.12035,-0.13146,-0.02001
731,0.46497,0.38528,-0.35775,-20.28706,-3.75586,4.7635,-0.05489,-3.18085,-0.13366,-6.081,-27.57686,4.65161,0.06659,-0.03578,-0.00037,-35.85745,21.47696,5.7725,-42.33721,-43.23478,0.89256,25.97267,-4.65344,-8.8277,1.7577,-2.35753,-0.6306,-4.67456,3.60982,-0.77603,1.11218,-2.48399,-0.16789,-1.0063,0.3378,-0.27492,0.24615,-0.30304,-0.05832,-0.22186,0.06952,-0.05874
732,-0.02591,-1.00621,0.30546,-19.26374,-6.97295,3.99026,-3.02423,-11.1762,2.27282,0.33755,-36.48359,3.34549,0.00805,-0.11942,0.05336,-36.83685,20.94314,5.27679,-36.77313,-64.88576,2.2217,20.72668,-2.67412,-8.26507,3.24954,-6.60021,-0.68465,-3.91632,0.31194,0.46659,1.47987,-3.80646,-0.39564,-0.6596,-0.78965,0.20347,0.23862,-0.61541,-0.16317,-0.18555,0.06399,-0.02037
733,0.2041,-2.20529,0.81658,-19.13276,-9.6743,3.11714,-3.17582,-15.4488,4.59894,-1.91698,-40.96562,1.03039,0.04513,-0.28011,0.13312,-37.47916,20.32963,4.78769,-38.71646,-74.90808,2.60656,15.28277,1.17075,-6.08864,3.43586,-9.26241,-0.37792,-3.78644,-2.75991,1.74791,1.63158,-4.18884,-0.42277,-0.53181,-1.9752,0.5783,0.2396,-0.71363,-0.18708,-0.1379,-0.07051,0.04832
