PaulMeinheit/Bachelor_Muay_Thai/processed_Data/N2/roundhouse/sliced/JointMoments/sliced3.csv
Unnamed: 0_level_0,R_KNEE_MOMENT,R_KNEE_MOMENT,R_KNEE_MOMENT,L_KNEE_MOMENT,L_KNEE_MOMENT,L_KNEE_MOMENT,R_HIP_MOMENT,R_HIP_MOMENT,R_HIP_MOMENT,L_HIP_MOMENT,L_HIP_MOMENT,L_HIP_MOMENT,R_ANKLE_MOMENT,R_ANKLE_MOMENT,R_ANKLE_MOMENT,L_ANKLE_MOMENT,L_ANKLE_MOMENT,L_ANKLE_MOMENT,WAIST_JOINT_MOMENT,WAIST_JOINT_MOMENT,WAIST_JOINT_MOMENT,NECK_MOMENT,NECK_MOMENT,NECK_MOMENT,L_SHOULDER_MOMENT,L_SHOULDER_MOMENT,L_SHOULDER_MOMENT,R_SHOULDER_MOMENT,R_SHOULDER_MOMENT,R_SHOULDER_MOMENT,L_ELBOW_MOMENT,L_ELBOW_MOMENT,L_ELBOW_MOMENT,R_ELBOW_MOMENT,R_ELBOW_MOMENT,R_ELBOW_MOMENT,L_WRIST_MOMENT,L_WRIST_MOMENT,L_WRIST_MOMENT,R_WRIST_MOMENT,R_WRIST_MOMENT,R_WRIST_MOMENT
ITEM,X,Y,Z,X,Y,Z,X,Y,Z,X,Y,Z,X,Y,Z,X,Y,Z,X,Y,Z,X,Y,Z,X,Y,Z,X,Y,Z,X,Y,Z,X,Y,Z,X,Y,Z,X,Y,Z
1056,5.11221,9.03649,-1.95827,-20.72573,5.93155,4.58972,12.48485,5.38267,-0.60967,-44.36177,29.18299,6.67423,0.45782,12.06363,-2.1327,-37.1203,50.59238,7.10621,-76.41155,31.2913,6.79917,30.46345,-16.94754,-8.27801,1.86351,-3.91415,-1.20846,-5.02592,1.68252,-0.0827,1.66741,-2.4356,-1.06089,-0.93617,-1.42947,-0.55237,0.40861,-0.32016,-0.20929,-0.18464,-0.16863,-0.14983
1057,6.8752,9.29223,-2.22301,-22.18596,3.72279,4.7505,20.13639,6.17456,-2.34298,-47.88595,29.1824,6.50141,0.53171,14.94205,-2.72465,-38.2014,49.5972,7.44194,-66.25517,34.8825,5.33821,24.63676,-21.15148,-2.66571,2.11997,-2.0154,-1.23934,-5.74827,0.32215,0.74957,1.40558,-2.18689,-1.16392,-0.94956,-2.19692,-0.35889,0.30152,-0.20341,-0.29247,-0.09369,-0.29221,-0.00537
1058,9.00403,9.58737,-2.31963,-24.28137,0.75891,4.81007,25.66137,7.7086,-2.58333,-53.87847,31.04813,5.83398,0.65946,18.0896,-3.36026,-39.23481,48.70126,7.7035,-64.58167,43.61718,4.77576,9.06635,-23.48304,4.39333,1.31958,0.04756,-0.34787,-5.54345,0.74601,0.53585,0.57115,-1.68852,-0.47484,-0.90744,-1.87655,-0.31901,0.0493,-0.06353,-0.19084,-0.05043,-0.2668,0.06651
1059,10.3872,11.21861,-2.54562,-25.41214,-2.60441,4.65939,28.32222,10.41257,-1.89496,-55.25835,30.00039,5.46804,0.84106,21.35901,-4.01799,-40.18062,47.76821,7.88428,-61.15582,47.25094,4.84826,-3.80175,-17.60239,7.30496,0.73347,0.90448,1.19397,-4.21762,2.16727,-0.46445,-0.2018,-1.747,0.87922,-0.67864,-1.11098,-0.25665,-0.14295,-0.06144,0.08264,-0.0534,-0.17883,0.05162
1060,10.22839,13.18449,-2.79834,-26.06318,-4.9745,4.51395,26.31013,10.94004,-1.16102,-53.70399,24.61082,5.74204,1.06974,24.45173,-4.69807,-41.07957,46.80848,7.98306,-58.32187,39.08638,5.21973,3.15507,-7.62586,2.93501,1.16461,0.38131,2.12008,-2.9934,3.04268,-1.08339,-0.21912,-2.35701,1.76408,-0.32785,-0.7041,-0.10882,-0.10987,-0.20161,0.31231,-0.04666,-0.11621,0.00772
1061,8.69582,14.16006,-2.87178,-27.12081,-6.05152,4.46885,18.35546,6.70122,-0.40807,-54.77664,17.67221,5.94362,1.33806,27.26557,-5.42288,-42.01582,45.89237,7.9877,-65.07866,23.00681,5.93476,25.07113,-3.89916,-5.57821,1.9043,-0.54034,1.45834,-3.24832,3.07963,-0.87815,0.44688,-2.50923,1.24813,-0.21796,-0.79963,-0.10032,0.07148,-0.30049,0.29197,-0.04907,-0.10414,-0.04462
1062,7.43781,14.99208,-3.0846,-28.16779,-7.24818,4.22173,10.929,2.45021,-0.21259,-57.10812,11.3393,5.31382,1.66821,29.94801,-6.18694,-42.98391,45.06424,7.86587,-71.63141,10.03011,5.14402,37.42471,-6.10762,-11.4575,1.98475,-1.24852,-0.46037,-4.763,2.53839,-0.24823,1.14596,-1.58472,-0.37084,-0.53885,-1.31667,-0.26596,0.22253,-0.23347,0.02345,-0.12319,-0.15524,-0.10306
1063,8.03418,17.4627,-3.89178,-27.95238,-9.40094,3.46936,11.96196,6.40655,-1.67918,-53.68139,6.31251,4.08711,2.11556,32.59531,-6.93921,-43.7888,44.32941,7.66112,-59.14072,10.21919,1.05716,28.54517,-8.67594,-9.43651,1.40234,-1.67127,-2.07652,-5.77836,1.51469,0.27886,1.44392,-0.46328,-1.71934,-0.95621,-2.08037,-0.29133,0.27107,-0.11053,-0.23487,-0.23867,-0.25274,-0.12701
1064,9.70059,20.86719,-4.92587,-26.0146,-11.94596,2.27055,17.44545,17.76108,-4.06416,-42.49333,2.15872,2.49299,2.71924,35.04916,-7.61901,-44.20312,43.63686,7.47234,-32.46687,20.27708,-4.8538,11.39593,-15.21107,0.53938,0.99775,-1.38676,-1.76656,-5.23145,0.926,0.12908,1.33087,-0.67556,-1.50973,-1.04523,-2.43846,-0.12294,0.23579,-0.11181,-0.217,-0.2791,-0.30126,-0.09235
1065,10.45807,22.39748,-5.29838,-23.45298,-14.48633,0.96717,16.97578,25.48441,-4.90476,-29.98084,-2.91984,0.30667,3.44366,37.067,-8.17836,-44.19641,42.90006,7.29593,-14.83739,24.04385,-8.79439,0.71694,-27.83547,12.66267,1.72289,-0.09284,0.35504,-3.99904,1.30478,-0.51779,0.89508,-2.25619,0.07329,-0.80065,-1.94361,-0.08932,0.13244,-0.20726,0.01081,-0.17878,-0.22618,-0.03691
1066,9.97786,21.54502,-4.96122,-21.44693,-16.95818,-0.01662,9.23916,24.28193,-3.77728,-23.65558,-9.27205,-1.69178,4.1629,38.61312,-8.61033,-43.88732,42.13885,7.11865,-16.26288,15.46091,-9.18307,-1.9982,-34.69183,19.27971,3.50296,1.45925,2.34965,-3.23809,1.29138,-0.438,0.30373,-3.48339,1.5283,-0.48433,-1.16885,-0.21472,-0.01478,-0.21005,0.17531,-0.0169,-0.07941,-0.00571
1067,9.45185,20.81622,-4.78641,-19.25783,-18.88781,-0.51517,1.93459,20.69822,-2.9136,-21.86725,-15.30947,-1.95512,4.75882,39.83109,-8.98164,-43.39416,41.49227,7.08306,-22.6176,5.23218,-8.07704,1.3988,-27.07775,16.34305,4.54213,1.67426,2.21991,-2.65744,-0.03474,0.81887,0.12919,-3.0767,1.4141,-0.1399,-1.0303,0.06227,-0.08193,-0.07941,0.12038,0.07408,-0.0016,0.04882
1068,9.42862,21.42105,-5.19942,-15.11616,-20.365,-0.88992,-0.45207,19.5213,-3.474,-15.34223,-21.07833,-0.69807,5.19541,40.82259,-9.39293,-42.80384,41.00976,7.30628,-16.0114,-1.43686,-7.74328,9.45575,-15.00188,6.93616,3.4572,-0.21338,0.18167,-2.20038,-1.14421,1.95601,0.6395,-1.67139,-0.00827,0.1433,-1.59067,0.77476,0.0166,0.02149,-0.05782,0.06038,-0.0647,0.16202
1069,9.25438,21.74899,-5.76376,-9.6093,-21.61655,-1.39505,-0.49018,17.40744,-4.54867,-2.7533,-26.60936,0.30285,5.4171,41.6508,-9.90829,-42.16963,40.64931,7.71064,1.60399,-10.11977,-8.38915,15.3324,-11.53807,-0.95567,1.50342,-2.44113,-1.28248,-2.77447,-0.30131,1.59686,1.10938,-0.83708,-0.92797,0.08033,-2.1412,1.0517,0.16135,-0.03595,-0.14361,-0.00026,-0.19734,0.21896
1070,8.40879,20.70257,-6.12784,-5.08916,-21.86694,-1.71589,-1.20159,13.24369,-5.712,7.63601,-29.3669,0.51639,5.28805,42.3772,-10.50763,-41.45718,40.39597,8.18783,16.54629,-19.24484,-9.54105,13.61483,-14.65777,-1.65358,1.20387,-2.36524,-0.47352,-3.77044,1.64659,0.21404,0.77166,-1.18043,-0.27895,-0.13128,-2.20823,0.69167,0.19601,-0.17742,-0.06285,-0.03459,-0.27311,0.149
1071,7.57128,19.48291,-6.47105,-2.55624,-20.14301,-1.52093,-0.53549,12.64584,-7.33463,11.33014,-26.99833,0.75559,4.75569,42.9157,-11.07536,-40.66853,40.22473,8.72116,25.91646,-17.762,-11.24485,8.68669,-15.74718,4.27655,2.957,-0.41906,1.40107,-3.74055,2.09975,-0.26099,0.02057,-1.9849,0.99574,-0.0844,-2.07737,0.46316,0.12744,-0.26545,0.07531,-0.02602,-0.27069,0.06623
1072,7.33071,19.36531,-6.95269,-1.38602,-16.93072,-0.96078,4.54288,18.18531,-8.71241,10.77524,-20.99,1.00628,3.96419,43.05562,-11.51859,-39.98374,40.0486,9.28843,35.31324,-3.8975,-13.25154,6.54382,-14.66761,11.83217,4.25021,0.28242,1.83252,-2.7469,0.22261,1.03853,0.03591,-2.44725,1.23632,0.18152,-2.04005,0.72435,0.07621,-0.27832,0.15169,-0.00551,-0.24433,0.07565
1073,6.87155,19.88916,-7.37904,0.02488,-14.27103,-0.48994,10.89742,24.25881,-8.66934,11.17821,-16.4367,0.72926,3.15105,42.73947,-11.85975,-39.56374,39.81869,9.8588,45.30537,8.59131,-14.55881,2.95357,-14.71977,15.69899,3.15727,-0.99426,0.45797,-2.0664,-1.91937,2.63428,0.97052,-2.4168,0.25739,0.26356,-1.90256,0.91812,0.072,-0.25823,0.16084,-0.01382,-0.20285,0.10211
1074,5.13481,20.20881,-7.6463,2.97865,-12.90771,-0.24336,12.22522,26.31525,-8.02641,16.96198,-15.35293,1.05729,2.47272,42.21037,-12.18281,-39.37466,39.68353,10.47443,53.27957,11.70522,-14.43646,-7.15911,-14.56795,13.44189,1.05093,-1.67426,-0.29679,-2.31207,-2.11174,2.59729,1.43583,-2.32728,-0.29958,-0.03488,-1.60404,0.614,0.02969,-0.27842,0.20607,-0.06933,-0.15469,0.05221
1075,2.27515,20.33412,-7.91245,6.17425,-10.80206,0.16636,7.95738,26.58543,-8.54384,25.96672,-12.48615,3.46884,1.96615,41.76911,-12.54354,-39.33997,39.86916,11.16393,58.67862,15.29393,-12.81917,-14.43453,-12.49645,6.66817,0.51631,-0.45256,1.03586,-2.72158,-0.49439,0.96056,0.50991,-2.4075,0.6323,-0.36027,-1.40466,0.20577,-0.07773,-0.34177,0.31687,-0.11292,-0.13792,-0.00744
1076,-0.57299,20.31028,-8.1397,6.5501,-6.16869,1.04234,2.3929,27.10384,-9.42332,29.27601,-1.91232,6.71203,1.65192,41.44323,-12.90423,-39.47874,40.36152,11.81672,57.30396,29.16807,-9.08729,-9.57445,-11.31889,1.90152,2.08327,0.84673,2.49596,-1.83325,0.66157,-0.41098,-0.71548,-2.16002,1.73307,-0.13393,-1.55787,0.38541,-0.12883,-0.27061,0.30107,-0.06075,-0.19402,0.04958
1077,-2.8006,19.89969,-8.11434,3.44377,-0.62351,2.11651,-3.37621,25.73287,-8.47769,22.97868,12.70135,8.37568,1.52692,41.08385,-13.19863,-39.85319,40.89712,12.25474,43.07293,45.43594,-3.00232,0.82409,-16.62707,5.1621,4.20644,0.70806,1.70117,0.12792,0.1497,-0.31714,-0.6073,-1.2639,1.19008,0.54558,-1.88823,1.06867,-0.00192,0.03587,-0.01415,0.04905,-0.27899,0.18592
1078,-4.60688,19.11837,-7.92078,-0.63123,3.39019,3.04741,-10.62198,21.51964,-6.43817,13.12062,22.16107,8.81531,1.521,40.68261,-13.41325,-40.48484,41.35744,12.44834,20.00221,51.1321,3.0612,6.98959,-27.15782,12.16851,5.12988,-0.08805,-0.67238,0.9759,-0.82638,0.70808,0.60033,-0.14149,-0.60722,0.96125,-2.0041,1.55038,0.19921,0.36816,-0.42994,0.10936,-0.29024,0.27693
1079,-6.12518,18.51722,-7.92091,-3.5311,5.74549,3.84337,-17.85145,18.94126,-6.45169,5.73543,23.60004,9.84095,1.54945,40.36746,-13.56723,-41.30894,41.89001,12.52917,-0.27887,49.0537,4.26227,6.93559,-30.11175,12.34267,4.15374,-1.04375,-2.28068,0.27805,-1.41582,1.82265,1.44798,0.36557,-1.76179,0.94287,-1.8785,1.63906,0.29113,0.37103,-0.54211,0.12468,-0.20913,0.31503
1080,-6.98218,18.60196,-8.26968,-5.17514,7.15678,4.45202,-21.32438,21.37113,-9.10668,2.84144,20.70732,11.22997,1.55421,40.1577,-13.67626,-42.16839,42.53019,12.57565,-7.23494,48.31099,-0.72727,1.02837,-16.81533,5.30569,2.45504,-2.58954,-2.06632,-0.37122,-1.79786,2.43315,1.2876,-0.13975,-1.30377,0.80544,-1.63286,1.48029,0.27071,0.02454,-0.26931,0.11864,-0.09045,0.27697
1081,-7.18207,19.2188,-8.70678,-6.95825,8.84402,4.8566,-20.84325,24.38381,-11.17184,3.15847,19.75474,11.93799,1.53082,39.9375,-13.76755,-42.93481,43.11277,12.56045,-2.54313,49.04607,-4.99272,-9.69438,0.71716,3.55544,1.86504,-3.42151,-0.48403,-0.54877,-1.71255,2.14228,0.41785,-1.06105,0.15005,0.59649,-1.34098,1.04278,0.1996,-0.26822,0.0659,0.0433,-0.02051,0.10635
1082,-7.24063,20.05888,-8.92909,-9.88197,11.771,5.25272,-20.81892,23.05466,-10.11634,1.27653,24.31396,11.75843,1.56572,39.65213,-13.84492,-43.53779,43.4244,12.46564,-2.63864,48.50928,-2.66803,-19.14091,3.89102,12.64361,2.66678,-2.10779,1.19196,-0.8841,-1.26357,1.45911,-0.30307,-1.64126,1.21742,0.35425,-1.28456,0.56068,0.14752,-0.23945,0.14572,-0.04859,-0.09003,-0.04933
1083,-7.25163,20.92033,-8.95068,-13.18195,15.69495,5.78626,-23.88853,19.54354,-7.31173,-5.31554,32.92276,11.70051,1.68729,39.38363,-13.87699,-43.91567,43.3907,12.31802,-15.41095,50.75965,3.34049,-18.98249,-6.1474,19.8938,3.83352,-0.21096,1.63554,-1.22938,-0.77263,0.8999,-0.35286,-1.50121,1.16903,0.25942,-1.33609,0.32806,0.13004,-0.02444,0.00641,-0.02773,-0.19625,-0.02941
1084,-7.00597,22.05597,-9.15248,-15.66792,19.02729,6.34188,-26.81505,19.9239,-6.39476,-12.15718,39.87114,12.93038,1.73892,39.27705,-13.89599,-44.05767,43.15932,12.09346,-27.20487,59.45943,6.32169,-10.64335,-13.39861,14.87533,4.72512,0.37629,0.98238,-1.16723,-0.19273,0.25368,-0.24138,-0.83526,0.66614,0.24913,-1.18354,0.29179,0.04926,0.11072,-0.06686,0.06972,-0.18393,0.08863
1085,-6.3365,23.25908,-9.72707,-17.46894,19.73222,6.62629,-24.03914,24.58929,-8.89706,-17.66964,40.80533,14.60934,1.62906,39.32221,-13.9436,-44.02338,42.85952,11.70481,-27.59717,69.47211,4.21728,-7.8324,-12.2394,7.56756,5.22501,0.30558,0.71257,-0.54571,-0.29515,0.00645,-0.62049,-0.42002,0.72771,0.28867,-1.14442,0.47586,-0.14594,0.05011,0.08325,0.11946,-0.12659,0.18852
1086,-5.85,23.63376,-10.29182,-19.33645,18.26478,6.52957,-17.09022,28.35779,-12.56059,-25.92636,38.70649,14.69866,1.47546,39.32182,-14.00098,-43.86184,42.45364,11.14828,-28.13573,75.80493,-0.19805,-15.02368,-11.57329,10.35389,4.86391,0.64845,1.23683,0.72917,-1.96388,1.2367,-1.11291,-0.62367,1.20369,0.62089,-1.39143,0.9866,-0.31897,-0.09662,0.2963,0.13086,-0.11931,0.2602
1087,-6.64073,23.65622,-10.52168,-21.03231,17.87591,6.27944,-13.98605,29.03621,-14.22521,-34.69769,39.28026,13.23876,1.36715,39.21068,-14.07475,-43.54063,41.94999,10.55736,-37.4788,79.30717,-3.57369,-17.45608,-17.50334,17.13449,3.67032,0.7913,1.48597,2.27387,-4.53158,3.64495,-0.92711,-1.05983,1.20821,1.30622,-1.76337,1.71509,-0.28099,-0.17388,0.3127,0.17627,-0.15485,0.33315
1088,-7.98508,24.6411,-10.57414,-22.52382,19.97966,6.11834,-16.46556,27.58673,-12.70833,-38.11613,42.1365,11.64124,1.26145,39.08635,-14.16336,-43.07123,41.47815,10.00613,-45.7051,78.40867,-4.05251,-6.8425,-24.62261,16.67576,2.86059,0.00368,1.09275,3.84302,-6.54052,5.42635,-0.30621,-1.39223,0.77074,2.04813,-2.26841,2.42887,-0.06684,-0.1801,0.14303,0.24009,-0.22686,0.41038
1089,-7.76723,26.42577,-10.6794,-23.98909,22.03125,5.93461,-17.62661,25.94876,-9.38688,-37.02532,42.39954,9.92043,1.12167,38.93765,-14.20059,-42.55922,41.03312,9.45567,-43.292,72.61503,-3.14283,4.26689,-25.62682,13.09387,3.45896,-0.67323,1.0723,5.3445,-7.29164,5.52568,-0.17857,-1.68892,0.74858,2.43508,-2.69144,2.79236,0.08512,-0.19714,0.03082,0.25485,-0.29272,0.43843
1090,-6.65712,27.44425,-10.78625,-24.68248,22.06425,5.60809,-16.24187,25.4675,-6.87096,-37.95848,41.33439,8.36975,0.92921,38.69809,-14.22796,-42.10529,40.49873,8.92918,-41.28988,70.49408,-2.26194,4.78614,-21.62675,16.85502,4.82616,0.48102,2.05149,5.93892,-6.60072,4.52507,-0.66849,-1.92337,1.27862,2.27885,-2.4627,2.57718,0.04502,-0.20231,0.07103,0.20689,-0.25903,0.37655
1091,-7.28801,26.5312,-10.80309,-24.22933,21.46633,5.3954,-18.30207,24.70687,-7.18377,-45.61067,44.72986,8.89295,0.69647,38.49706,-14.38715,-41.77642,39.96902,8.50671,-55.73106,77.72395,-0.25071,-1.14988,-18.65558,25.05355,4.80685,3.15845,3.01778,4.72783,-4.30968,3.0679,-1.17063,-1.4661,1.54748,1.68642,-1.4849,1.88181,-0.11472,-0.05195,0.10508,0.12411,-0.1268,0.24612
1092,-9.00011,24.554,-10.87198,-23.36599,21.22375,5.38386,-22.95529,22.88079,-10.20739,-55.32042,49.45309,11.17459,0.57495,38.54113,-14.62763,-41.57999,39.63823,8.13665,-75.77566,85.01938,1.05215,-7.99464,-19.55904,25.98852,2.29069,4.6912,2.56323,2.47374,-1.60386,1.49913,-1.36822,0.08205,1.08072,1.02345,-0.6756,1.10947,-0.27265,0.25853,0.03441,0.05007,-0.06548,0.12075
1093,-10.4059,23.86056,-11.08875,-22.13674,20.54477,5.18152,-27.72333,22.34866,-12.8981,-54.49346,46.67093,11.92907,0.61124,38.72504,-14.84112,-41.41502,39.52309,7.71248,-78.31828,80.52768,-2.41521,-15.93033,-19.62495,17.91877,-0.37726,3.39613,0.93811,1.93505,-1.02736,0.91704,-1.41267,1.74295,0.46896,0.95751,-0.83709,0.90552,-0.36872,0.45975,0.00711,0.05859,-0.15308,0.09752
1094,-11.71683,25.48016,-11.35572,-21.26549,18.83977,4.5902,-32.21702,24.58248,-12.44889,-43.72566,35.8713,9.02091,0.63646,38.73827,-15.03636,-41.3133,39.55978,7.19902,-64.44988,65.52042,-10.32127,-23.14103,-10.2784,11.05196,-0.04434,1.15449,-0.01203,4.8413,-3.5377,2.32472,-1.62689,2.13336,0.6189,1.89153,-1.66407,1.64772,-0.43207,0.3491,0.17511,0.18032,-0.24419,0.22151
1095,-11.96744,27.60835,-11.57837,-22.31497,16.11547,3.94167,-32.30256,26.31281,-9.80408,-39.77234,24.72946,3.74211,0.5581,38.53347,-15.18925,-41.48836,39.73649,6.6518,-53.6318,49.37827,-17.32072,-24.47535,4.32224,12.27519,2.62899,0.83162,0.75961,8.92522,-6.36869,4.54201,-2.00696,1.23309,1.44628,3.32897,-2.24759,2.85361,-0.4858,0.09909,0.39834,0.36871,-0.20229,0.43893
1096,-11.24866,28.43578,-11.76603,-24.25578,13.94917,3.61206,-29.86925,25.80164,-8.03437,-48.43535,20.97647,-0.25126,0.40025,38.33563,-15.32178,-42.02123,40.0591,6.21509,-59.2176,43.37577,-19.37437,-20.77765,4.53057,16.02705,4.11411,1.97411,2.00359,10.12861,-5.20661,4.60939,-2.15025,0.22318,1.93083,4.12338,-1.74534,3.47407,-0.48071,-0.0062,0.39976,0.51619,-0.03665,0.59759
1097,-11.07819,28.41322,-12.00728,-24.98186,14.02099,3.58767,-31.28758,26.90712,-8.84644,-61.09656,26.08509,-0.57043,0.26304,38.28892,-15.4753,-42.84977,40.41948,5.91457,-81.23429,54.36923,-18.24571,-20.7507,-16.73454,14.15811,2.31335,2.08544,2.06723,7.09201,0.06522,1.50129,-2.11206,0.22208,1.66034,3.36504,-0.42886,2.8119,-0.43609,0.0823,0.19078,0.44744,0.08685,0.50091
1098,-11.86479,28.51678,-12.32378,-23.80713,15.4454,3.59652,-34.57634,30.71119,-11.50422,-70.18456,34.82029,1.95863,0.19321,38.34833,-15.62798,-43.87017,40.66396,5.63276,-105.37838,74.60964,-16.91594,-26.95818,-39.93943,10.18025,-1.97027,1.81239,1.45635,2.90804,3.60091,-1.62664,-2.32228,1.49385,1.19147,1.64874,0.01258,1.3856,-0.43195,0.26792,0.01286,0.14236,-0.03957,0.16631
1099,-12.18962,28.64733,-12.58609,-21.53318,16.02986,3.42805,-30.40564,32.50682,-13.78347,-72.02383,39.56247,4.33634,0.12441,38.39209,-15.70737,-45.03492,40.82088,5.27666,-106.51974,85.3752,-16.31907,-31.63366,-45.5055,14.04383,-5.31226,4.01126,2.01043,2.16579,1.15517,-1.25109,-2.93136,3.1654,1.22206,1.09587,-1.41928,0.7649,-0.49008,0.49601,-0.05135,-0.0613,-0.38826,-0.04591
1100,-11.25467,28.77262,-12.70096,-19.41963,15.20086,3.05077,-19.38367,30.75777,-13.9224,-66.044,36.83474,3.89926,-0.02517,38.30113,-15.69363,-46.35012,41.05632,4.86483,-80.36716,77.76999,-17.75233,-31.38623,-37.55027,26.20023,-4.79225,8.64672,4.74558,5.59934,-3.7496,1.80463,-3.9922,3.76383,2.45762,2.82171,-3.4194,1.81505,-0.67245,0.66826,0.01222,0.13468,-0.64709,0.15928
1101,-10.25635,29.54823,-12.84163,-18.44331,13.62489,2.63927,-14.35673,30.12587,-12.74352,-61.63778,31.21842,0.85772,-0.26072,38.11357,-15.70027,-47.76724,41.38553,4.454,-62.38141,64.65131,-22.64171,-28.67277,-30.36325,36.31329,-2.52339,12.87108,9.07723,9.12452,-5.81475,4.04961,-5.27072,2.86471,5.06899,5.12014,-4.29006,3.34145,-1.05533,0.60618,0.42924,0.50746,-0.62421,0.5665
1102,-10.52137,30.72342,-13.1496,-18.7853,12.55192,2.46516,-21.28621,32.2068,-12.34275,-69.1778,31.00207,-1.5606,-0.47533,38.07817,-15.85769,-49.15553,41.67259,4.11318,-80.63255,63.51378,-28.05129,-20.51952,-25.49846,35.21429,-2.93898,14.12918,12.33808,9.82014,-5.28659,4.11964,-5.78693,1.78966,7.41219,6.05238,-4.27393,3.80271,-1.38694,0.34784,1.1841,0.69433,-0.52445,0.75146
1103,-11.88516,31.86464,-13.5573,-19.69294,13.24439,2.62932,-32.06344,34.81943,-13.21378,-83.71397,37.47293,-0.96388,-0.50483,38.42107,-16.16181,-50.35906,41.8214,3.93223,-116.88032,75.94044,-29.37776,-8.22606,-19.11571,27.62359,-6.53785,12.84072,12.30633,10.14013,-4.72902,3.62142,-4.91847,1.68674,7.38049,6.25654,-4.24679,3.65102,-1.28208,0.18606,1.66196,0.73234,-0.55018,0.724
1104,-12.87702,32.87024,-13.85547,-20.23644,15.39901,2.94419,-36.53737,35.87638,-13.85897,-92.06822,43.59496,1.43059,-0.25236,39.08045,-16.4638,-51.27142,41.7695,3.87849,-136.76268,88.00689,-26.20146,-5.09816,-17.17263,26.29594,-9.78855,11.33478,9.46654,12.38225,-4.25669,4.03944,-2.60017,1.57451,4.41867,6.94677,-4.07924,4.08217,-0.64195,0.13489,1.28756,0.81477,-0.61965,0.76691
1105,-12.64867,33.27426,-13.82203,-20.17833,17.15554,3.03275,-33.81112,33.38236,-12.64722,-89.82941,43.68167,2.44572,0.1844,39.84667,-16.65551,-51.93654,41.41437,3.70471,-131.00586,86.00854,-22.08641,-18.35974,-25.71362,31.07226,-9.69775,9.26196,4.89583,13.74002,-3.17231,4.67987,0.4974,0.30444,-0.24618,7.40203,-3.53311,4.6921,0.21432,-0.02148,0.26253,0.86809,-0.61606,0.842
1106,-11.81636,33.42507,-13.57899,-20.29851,17.38202,2.64847,-29.73474,29.48685,-9.99038,-84.6479,40.50892,0.61832,0.57987,40.73691,-16.79618,-52.48654,40.67587,3.22012,-116.37321,74.7418,-20.77095,-36.89619,-40.20572,32.08858,-7.83834,6.04736,0.7104,11.81939,-2.46184,4.53255,1.9816,-0.81327,-3.54374,6.91522,-3.2135,4.52827,0.59745,-0.13615,-0.49769,0.78193,-0.61113,0.76117
1107,-11.23393,35.16776,-13.70641,-21.67158,16.8786,2.05529,-28.46063,30.16179,-8.41655,-86.38983,40.2985,-2.21193,0.79649,42.06385,-17.02293,-52.90066,39.55281,2.58942,-111.93852,71.69441,-23.30022,-42.2324,-50.92206,27.48053,-8.13124,4.52351,0.27892,9.34463,-2.46935,3.95763,0.57382,-0.23051,-3.04704,6.5502,-3.48585,4.03596,0.26263,-0.02059,-0.34871,0.72792,-0.70003,0.62211
1108,-10.92882,38.96651,-14.50953,-24.22528,17.20481,1.73809,-29.34487,34.40359,-9.43439,-97.51887,45.27303,-2.93102,0.90097,44.03612,-17.38353,-53.07038,38.03432,2.08667,-123.72595,81.68428,-25.98997,-29.65219,-51.29136,24.12454,-10.84721,7.44997,4.44723,9.70864,-1.4898,3.7314,-1.73259,1.37481,0.27597,6.93923,-3.56893,4.09747,-0.23705,0.18148,0.37243,0.82686,-0.76876,0.59349
1109,-10.14122,42.9914,-15.61116,-26.22885,18.32995,1.64954,-29.1782,36.40354,-11.92181,-113.19222,53.32746,-1.06011,1.07214,46.47912,-17.81337,-53.0814,36.00123,1.65916,-146.64217,96.05909,-25.16609,-14.20958,-41.54333,26.81945,-13.63557,12.97299,9.59883,11.95691,0.85303,4.08074,-2.69337,2.43963,3.01914,6.87664,-2.60165,4.46184,-0.43913,0.29025,0.87003,0.84001,-0.58737,0.61597
1110,-8.99465,45.98609,-16.52816,-25.87019,18.41485,1.42847,-27.86553,36.85294,-14.20493,-125.15596,58.63325,0.24357,1.38822,49.18086,-18.32164,-53.03887,33.42617,1.14242,-168.57413,106.1867,-24.81961,-10.76876,-26.93009,31.58035,-15.0404,15.0535,11.03395,12.50424,2.06415,4.63938,-1.938,1.92118,2.72854,5.6363,-1.17994,4.37934,-0.3031,0.25221,0.80034,0.59918,-0.20346,0.58755
1111,-9.0419,47.24706,-16.82811,-22.88732,18.34443,1.20007,-29.20159,36.01565,-14.71591,-124.47839,59.9054,0.61986,1.79916,52.1659,-19.00551,-52.74867,30.6793,0.80408,-173.04347,107.62373,-26.29664,-14.5208,-18.03498,30.32434,-13.47962,10.28018,7.93313,9.69943,0.34007,4.35896,0.26261,-0.26078,0.24017,4.44422,-0.90444,3.54943,0.17536,0.04885,0.37237,0.35206,-0.01745,0.48432
1112,-10.30076,47.18098,-16.43902,-19.24915,19.99821,1.31614,-31.3944,31.34311,-12.51468,-113.30921,60.89102,2.38354,2.29422,55.56085,-19.82834,-52.1048,28.10856,0.93686,-155.4678,101.34113,-23.63046,-13.74435,-25.19383,20.07882,-9.54384,1.57874,2.68948,5.25603,-2.64959,2.50813,2.57384,-2.85127,-2.49814,4.38265,-2.09757,2.11601,0.74509,-0.26022,-0.1745,0.34182,-0.22889,0.24729
1113,-11.13561,47.77117,-15.86954,-16.53438,22.48419,1.63804,-28.20437,24.0,-8.14671,-103.71962,63.88783,5.25225,2.80617,59.31799,-20.65694,-51.38797,25.57161,1.31506,-130.27243,92.62877,-13.60963,-11.11735,-42.20817,7.79327,-5.99029,-5.53855,-1.93145,2.22947,-3.41949,0.49996,3.16977,-4.78366,-4.50231,4.67527,-2.93213,1.00948,0.91415,-0.60664,-0.68489,0.44165,-0.48466,-0.04603
1114,-10.41371,49.87091,-15.6515,-14.13158,23.41771,1.6706,-19.1863,18.30897,-3.8586,-104.66996,67.02231,5.6344,3.16713,63.1071,-21.39283,-50.94632,22.70017,1.46156,-118.39595,85.33643,-3.60591,-11.98103,-50.19322,4.33192,-3.26614,-6.53286,-3.35305,1.24433,-0.79369,0.23246,2.66854,-5.57648,-4.75301,4.17581,-2.10944,1.23247,0.69197,-0.84267,-0.84217,0.45191,-0.45035,-0.14254
1115,-10.02775,51.83569,-15.61078,-10.96565,22.98351,1.16201,-16.07042,17.24885,-1.83455,-116.5385,70.8071,2.40949,3.24973,66.51105,-22.05662,-50.86656,19.42353,1.22324,-136.71323,86.49078,-2.42927,-8.20027,-42.42226,11.69159,-1.71676,-1.81463,-1.42537,0.27788,2.62931,1.09103,2.7054,-4.90513,-3.28296,3.30309,-0.74863,2.38893,0.50747,-0.75721,-0.54796,0.43603,-0.27104,0.03222
1116,-10.82547,52.56143,-15.38363,-7.39005,23.23686,0.28472,-22.71259,21.757,-2.99811,-130.69234,78.48314,-0.24932,3.15689,69.36577,-22.56567,-50.96562,16.04384,0.83017,-171.74829,104.39348,-7.86852,8.20079,-28.04151,21.29579,-1.73065,2.79833,0.90457,-1.7856,4.19491,1.33332,3.42725,-3.56301,-1.82061,2.91926,-0.14177,3.37281,0.5234,-0.43971,-0.19432,0.45875,-0.16365,0.32458
1117,-9.76003,52.18337,-14.90715,-4.95053,23.66854,-0.49579,-25.0962,27.28529,-5.65537,-134.07689,86.78337,1.57578,3.06524,71.63179,-22.64467,-51.0449,12.96656,0.53011,-182.68745,127.15952,-9.44331,31.38375,-14.85559,24.3099,-1.97273,2.64594,1.13241,-4.63843,2.91182,-0.06952,3.93892,-2.90078,-1.63193,2.33968,-0.1061,3.00208,0.59642,-0.24342,-0.15758,0.32572,-0.07645,0.47318
1118,-7.484,50.24337,-13.82996,-4.61281,23.50413,-0.83018,-20.7595,25.69215,-5.52451,-122.7969,91.4679,7.58066,2.7576,72.94153,-22.29956,-51.00539,10.5372,0.47168,-161.92668,132.94453,-0.27802,46.60878,-2.71642,17.14942,-1.05813,-2.22731,-0.58671,-8.04661,-1.42821,-4.16227,3.8533,-3.52628,-2.40821,0.56898,-0.15915,-0.06369,0.67027,-0.37898,-0.38265,-0.09218,0.09117,0.13066
1119,-6.29648,46.41802,-11.98099,-5.89227,23.97608,-0.93438,-17.47387,15.28943,-1.55485,-107.51719,94.32996,14.05096,1.96399,72.82715,-21.642,-50.77136,8.84375,0.64128,-137.92781,120.66326,14.84538,43.59706,10.87086,0.06905,1.68569,-8.67408,-2.81593,-11.50159,-6.06285,-10.17737,3.96093,-4.95355,-3.28514,-1.72028,-0.10769,-4.94778,0.78426,-0.6776,-0.59299,-0.56567,0.27711,-0.70328
1120,-4.9748,41.29832,-9.84886,-7.23624,24.99369,-1.24027,-15.87207,3.17028,2.92855,-99.5354,96.67014,16.63196,0.82759,71.15047,-20.54376,-50.311,7.72108,0.78665,-129.43109,106.50932,24.23738,30.58788,22.39984,-19.78902,6.3825,-12.03612,-4.5605,-13.51791,-5.33094,-12.98082,5.2544,-5.8097,-3.7901,-3.35026,0.28906,-7.17509,0.92301,-0.77909,-0.6665,-0.82054,0.36717,-1.28891
1121,-2.46621,35.32918,-7.68306,-6.15841,25.2357,-1.81471,-13.23018,-3.78257,5.67288,-95.82469,96.73925,14.94217,-0.38883,67.90372,-18.89285,-49.60812,7.1559,0.68567,-127.12032,100.08266,23.20886,26.07144,22.27523,-29.7124,11.90351,-9.20349,-5.43463,-12.69734,1.50725,-8.74052,7.53498,-4.79782,-3.73385,-4.07423,0.80782,-4.12157,1.07416,-0.53665,-0.66867,-0.8239,0.32478,-1.01537
1122,-0.70736,27.88984,-4.90042,-1.88394,24.17843,-2.3338,-9.27323,-7.98976,8.19051,-87.62038,92.7277,12.30188,-1.71139,62.86452,-16.79648,-48.58873,7.36114,0.32005,-114.6894,93.09732,19.55126,32.54751,8.75284,-26.34068,14.86472,-4.14161,-5.22924,-9.92479,6.89456,-2.45714,8.9577,-2.73395,-3.25464,-4.03571,0.86508,-0.0003,1.15463,-0.22063,-0.65694,-0.67696,0.19905,-0.43214
1123,-1.38443,18.79477,-1.1075,2.25789,22.53173,-2.56869,-4.06822,-15.30914,12.31386,-78.61704,85.54446,10.41292,-3.31287,55.80261,-14.35905,-47.18447,8.51229,-0.21056,-95.99182,75.98827,21.93767,36.5208,-4.4097,-19.95951,13.03605,-3.46066,-3.91862,-8.17154,5.49927,-1.73826,8.12231,-1.73216,-2.68909,-3.56461,0.48732,0.06835,1.03423,-0.14719,-0.58242,-0.52387,0.07545,-0.37317
1124,-3.71911,9.73247,2.97261,3.37923,22.7465,-2.75471,1.75521,-24.62496,16.83154,-77.82891,80.53989,8.93871,-5.10779,46.89212,-11.53203,-45.26222,10.66354,-0.72302,-86.93525,56.15416,30.07158,30.05691,-0.42589,-20.74727,10.16387,-6.15467,-2.64915,-9.09563,1.06882,-6.16189,6.36747,-2.01651,-2.21962,-3.27803,0.17596,-2.71793,0.81917,-0.2493,-0.42196,-0.48782,0.04033,-0.67455
1125,-5.20976,3.43141,5.75099,2.62146,26.17997,-3.20383,7.21846,-29.39305,18.85696,-83.25301,81.72993,8.08713,-6.52546,36.96687,-8.32274,-42.61339,13.73343,-1.1261,-89.13938,47.17381,38.5216,19.40219,21.5546,-29.22622,12.01696,-6.58607,-3.1915,-12.06341,-1.32856,-10.80211,6.28589,-2.12804,-1.99839,-3.57664,0.17428,-4.71803,0.84349,-0.26226,-0.29345,-0.61608,0.1242,-0.81796
1126,-3.25849,1.98815,5.41764,2.57208,31.47478,-3.84493,14.17156,-25.9042,17.05131,-86.54146,88.88013,8.39846,-6.81678,27.52309,-5.16084,-39.23848,17.71165,-1.44749,-90.42356,54.16001,44.12219,17.59812,46.05674,-36.97911,16.74373,-3.89048,-4.94305,-15.47968,-1.92723,-14.26666,7.78434,-1.46615,-2.03589,-4.13173,0.3383,-5.60313,1.09344,-0.13747,-0.26164,-0.82007,0.26101,-0.90962
1127,0.47167,5.44039,1.76939,4.37715,37.06901,-4.37899,21.73012,-17.09172,13.17306,-85.2946,98.384,8.5336,-6.05032,19.91128,-2.82948,-35.42726,22.79149,-1.69701,-87.94543,68.9821,45.68219,32.51636,61.72269,-36.53427,18.41719,-1.43887,-5.6478,-17.80454,-2.39148,-17.00767,8.76025,-0.56422,-2.10148,-4.43723,0.43608,-6.40562,1.20813,0.02403,-0.25151,-0.9132,0.34224,-1.1784
1128,0.04106,10.86946,-2.23391,7.84211,43.23642,-4.70755,21.43002,-10.42426,10.69886,-81.72534,104.80484,6.3394,-5.24261,14.31497,-1.62531,-31.39008,29.10684,-1.89603,-91.55381,74.92445,42.05924,59.65558,68.93742,-31.43651,17.23456,-1.25974,-5.21919,-18.3089,-2.61287,-18.39332,8.67319,-0.06672,-2.28022,-4.31436,0.34754,-6.9378,1.12434,0.13124,-0.26356,-0.78232,0.29161,-1.40284
1129,-6.13919,14.13911,-3.26481,11.48085,49.81729,-4.80037,9.58617,-9.82988,10.63945,-79.825,102.25912,0.76015,-4.8873,9.98837,-1.028,-27.11101,36.43515,-2.19083,-107.51402,61.63526,31.8274,83.85661,69.23676,-31.82617,17.86707,-1.83704,-5.58922,-17.47398,-2.17535,-18.22304,8.58236,0.04791,-2.80378,-3.77266,0.09253,-6.67914,1.1196,0.15781,-0.38543,-0.4993,0.14269,-1.2877
1130,-11.31369,12.13887,-1.18799,14.69305,55.70326,-4.55594,0.21636,-14.70451,12.48423,-81.97919,91.98358,-6.25463,-4.33606,6.20626,-0.48898,-22.52815,44.32626,-2.6618,-122.46203,36.02018,20.97705,87.76077,61.93745,-40.96156,21.85579,-0.8335,-7.63286,-16.04834,-1.28339,-16.92856,9.08665,0.24006,-3.50794,-3.02331,-0.16677,-5.65622,1.30108,0.14232,-0.60555,-0.25533,0.00989,-0.92129
1131,-9.79347,6.21884,1.07256,19.31183,62.01706,-4.16548,9.99579,-21.29074,16.84343,-83.61232,87.24156,-9.5023,-3.14351,2.95759,-0.00191,-17.65407,52.51058,-3.12501,-113.14252,21.11325,23.0415,65.9659,50.57293,-50.28843,25.45013,0.60325,-9.90885,-14.21264,-0.38101,-14.69981,9.55977,0.20474,-4.20616,-2.42897,-0.23828,-4.35836,1.45122,0.0526,-0.80412,-0.15795,-0.04364,-0.65126
1132,-7.10049,-1.21827,2.91403,26.71494,70.91209,-3.96385,27.72298,-32.81049,25.88451,-77.31371,97.85824,-6.21718,-1.53824,-2.14923,0.28196,-12.52721,60.97561,-3.38038,-85.14679,21.30373,42.6065,35.11568,44.05703,-50.8436,24.58105,0.0987,-10.54281,-13.24446,0.09767,-13.0405,9.20475,-0.49537,-4.79863,-2.33337,-0.12221,-3.55219,1.36675,-0.12419,-0.86902,-0.17034,-0.05717,-0.65896
1133,-1.73056,-2.61947,0.44589,35.63274,81.99129,-3.97167,39.39872,-32.02871,26.71053,-64.28107,116.90876,-0.59135,-1.04046,-2.63735,0.43932,-7.16223,69.70242,-3.43787,-59.12284,45.38398,50.54172,21.77313,45.83852,-45.87754,20.43398,-1.74019,-9.61557,-15.36807,-0.28775,-14.70119,8.18725,-1.36056,-5.09943,-2.92959,-0.01138,-3.9093,1.10234,-0.27976,-0.7954,-0.26791,-0.06099,-0.83229
1134,-0.39451,-2.84838,0.02659,43.74844,92.17024,-3.81548,29.3911,-39.35102,25.93218,-55.76546,128.38499,0.23358,-0.4643,-2.85887,0.63034,-1.57626,78.4491,-3.42691,-67.29832,46.21008,42.95876,33.6334,49.18455,-44.69307,17.16193,-2.47017,-8.43256,-19.38968,-1.17586,-18.77811,7.15458,-1.53715,-4.85875,-3.81612,0.02693,-4.91603,0.82053,-0.31293,-0.65224,-0.43717,-0.00335,-0.94908
1135,-0.57208,-5.61649,5.6695,50.52219,99.02746,-3.11114,15.87446,-56.38604,31.70979,-57.32442,122.93637,-6.06881,0.14679,-2.96108,1.16191,4.2222,86.86158,-3.41521,-91.41582,15.83205,33.54422,49.53452,49.32962,-49.65951,16.69712,-1.12991,-7.73495,-20.79597,-0.9349,-20.09756,6.35006,-0.89281,-3.97685,-3.99932,0.22712,-4.78991,0.61063,-0.23413,-0.4833,-0.5235,0.12672,-0.81455
1136,3.30397,-9.0561,10.56154,57.88991,104.27765,-2.06696,23.36841,-59.58962,40.40611,-56.34449,108.70203,-14.08959,1.06295,-2.69415,1.51692,10.26071,94.75933,-3.36434,-83.23219,-2.37352,33.33908,45.33921,48.37574,-55.8962,18.24496,1.05364,-7.72356,-18.84786,1.66566,-16.99345,5.88481,-0.09333,-2.97559,-3.44791,0.90595,-3.00035,0.53245,-0.12444,-0.34298,-0.45017,0.26104,-0.45956
1137,12.02893,-8.37915,3.01501,66.18164,110.90942,-1.30947,51.06482,-29.79491,39.63138,-42.28316,102.32795,-17.17122,2.43066,-1.96916,0.85638,16.44073,102.09112,-3.32618,-30.39852,31.08826,36.51184,22.53085,46.19338,-57.95541,19.10046,1.11044,-8.13067,-16.90602,4.0758,-14.26562,5.97596,0.04004,-3.04493,-3.048,1.46137,-1.80182,0.62494,-0.08035,-0.36656,-0.3379,0.26799,-0.27995
1138,17.67071,-3.1802,-13.38952,73.03978,118.12207,-0.93561,73.00311,7.94648,31.45993,-25.57742,106.60652,-15.03935,3.49317,-1.12965,-0.31579,22.5425,108.76881,-3.42364,21.07135,80.42752,37.62192,0.79772,43.71023,-57.30026,17.86648,-2.40377,-8.86674,-16.3718,2.31494,-15.3539,6.59935,-0.66999,-4.8164,-3.15933,0.7104,-3.08779,0.80428,-0.16215,-0.62736,-0.32252,0.04099,-0.57422
1139,15.80927,1.81658,-24.22377,78.93451,123.93444,-0.45704,76.04929,18.62989,27.95528,-14.92058,112.23415,-11.53429,3.45518,-0.54374,-0.91005,28.51879,114.75341,-3.55925,41.58852,90.71368,38.84078,-9.74429,52.46625,-61.70713,18.01347,-4.95659,-10.60052,-15.74769,-1.67494,-16.88803,7.5111,-1.31064,-6.86498,-3.46,-0.60563,-4.99679,0.91359,-0.27899,-0.90042,-0.41181,-0.19865,-0.97564
1140,11.44922,2.63945,-22.54422,86.33663,128.75417,0.25111,66.52621,2.9966,29.98032,-3.64098,114.57186,-9.54822,2.66584,-0.4223,-0.70727,34.39467,119.98677,-3.54376,45.08393,63.34625,37.7485,-11.39093,75.85532,-69.99781,21.89442,-2.18444,-12.8713,-14.06509,-2.14044,-14.86214,8.23957,-1.1912,-7.22353,-3.31901,-0.36495,-4.60158,0.87902,-0.2975,-0.88104,-0.46381,-0.08015,-0.9149
1141,8.09627,0.44098,-11.5532,94.33818,134.02809,0.63672,50.2199,-19.53297,29.16502,10.7613,117.25426,-9.6875,1.89138,-0.60783,-0.05634,39.94956,124.31837,-3.37384,42.71387,30.57999,28.53736,-1.51736,89.65836,-66.45835,23.43309,2.60036,-12.81366,-12.53588,1.07757,-11.30473,7.88601,-0.74981,-5.74275,-2.39985,1.18562,-2.27497,0.7107,-0.23477,-0.61159,-0.35344,0.26192,-0.42781
1142,6.49427,-1.55989,-1.0917,100.49336,138.85854,0.57022,37.33821,-32.64923,26.98832,21.50466,121.88909,-10.856,1.69293,-0.64616,0.45267,44.86616,127.62029,-3.20004,40.41121,16.24587,19.70669,21.67552,72.25843,-43.46338,15.24232,3.40908,-8.65583,-12.99444,1.53661,-11.01562,5.70353,-0.70753,-4.07361,-1.38691,1.02346,-0.89521,0.40997,-0.22915,-0.47348,-0.15824,0.20913,-0.04698
1143,7.67166,-1.27645,-0.73906,104.32251,140.42072,0.67557,36.60403,-28.96854,32.17535,26.57668,123.58117,-11.82425,2.20738,-0.32588,0.53448,48.98971,129.79488,-3.12927,46.78475,24.63956,24.10251,41.37181,41.31172,-18.06298,1.54004,0.00127,-3.55974,-15.32653,-1.3037,-13.89288,2.66559,-1.09655,-3.98343,-1.62794,-0.9931,-1.51048,0.12003,-0.35086,-0.72664,-0.15005,-0.27069,-0.03711
1144,10.33773,1.75345,-10.58613,106.93246,139.78444,1.09594,43.6692,-17.46917,42.80901,30.94739,124.33416,-11.09917,2.80908,0.1115,0.35966,52.31439,130.82045,-3.00012,61.12598,44.34133,37.91545,36.56129,27.9628,-10.14176,-6.16694,-3.88793,-2.54136,-15.47164,-1.69902,-14.62476,0.66249,-1.5378,-5.68187,-2.52224,-1.5812,-2.33018,-0.01002,-0.55196,-1.26455,-0.30965,-0.45796,-0.15999
1145,12.33021,5.54859,-20.32409,109.08623,140.11095,1.53747,47.27729,-11.05162,44.46531,35.53555,127.8012,-8.2373,2.82805,0.37379,0.17272,54.82725,130.79826,-2.60106,68.18544,58.62861,40.82689,8.58078,36.12212,-16.32614,-3.91235,-5.02687,-5.40149,-10.46514,0.13848,-10.19969,0.41904,-1.54615,-7.11245,-2.27225,-0.16489,-1.94899,-0.03874,-0.63044,-1.63302,-0.36044,-0.10904,-0.23015
1146,13.76388,7.24501,-19.857,110.05084,139.0166,2.29048,39.98821,-7.47855,28.15486,36.01701,122.32594,-6.20175,2.37107,0.42924,0.30355,56.38738,129.84015,-2.10119,52.5603,56.39517,15.98698,-21.62742,49.79523,-24.40949,3.53314,-3.41537,-8.41073,-4.22152,0.05335,-4.15503,1.34916,-1.06565,-6.59993,-1.01535,0.76669,-0.93212,-0.04465,-0.43073,-1.42047,-0.27553,0.19334,-0.26338
1147,14.56482,6.64091,-11.31728,109.91166,134.02332,3.57546,24.43902,1.74178,5.95723,37.92158,103.23825,-6.60173,1.86812,0.42605,0.71445,57.01247,128.17963,-1.65616,28.46202,48.46064,-22.35394,-35.65406,56.17455,-32.65371,8.94368,-2.81172,-10.53628,-2.39613,-2.23387,-1.39891,1.6615,-0.58647,-5.45586,-0.03245,0.05056,-0.10807,-0.17857,-0.09717,-0.7607,-0.13134,0.04404,-0.15344
1148,12.11001,5.81578,-4.81421,110.25415,128.6683,4.91045,11.42228,9.35809,-1.96161,52.64287,87.71061,-6.35374,1.39468,0.5517,0.86628,57.08696,126.15417,-1.06472,29.74677,48.11885,-39.18178,-27.68999,54.88408,-38.12656,7.57485,-5.36406,-11.72082,-5.01691,-1.57922,-3.03313,1.13594,-0.59008,-5.82969,0.07949,-0.17534,-0.04923,-0.31681,0.07484,-0.1777,0.04364,-0.14049,0.04213
1149,6.23268,6.6715,-6.20937,109.56855,124.09721,5.9431,9.50861,4.46248,9.88412,69.86892,82.44926,-4.05841,0.92079,0.79937,0.62435,56.8027,123.74605,-0.337,54.27095,45.89097,-20.93488,-6.91424,52.13379,-27.95384,-0.5053,-8.71038,-10.28708,-6.88589,3.04489,-5.59527,0.54995,-1.04051,-7.72669,-0.09173,1.22171,-0.84816,-0.38547,-0.02847,-0.17084,0.19098,0.0132,0.02433
1150,1.43986,10.30865,-12.83562,105.46749,118.33785,6.5991,15.4821,-6.8032,30.59831,69.22258,80.1212,-2.08368,0.62531,0.92037,0.43276,55.95467,120.79407,0.29658,66.19122,38.61277,13.65565,5.03976,48.60875,-2.30305,-8.04138,-7.93681,-5.51081,-6.40338,1.98592,-4.42048,-0.58684,-0.73114,-7.53821,-0.4588,0.8871,-1.40221,-0.62407,0.02823,-0.5582,0.11058,0.07598,-0.17397
1151,1.82026,15.44072,-16.11628,102.36145,112.7317,7.10828,20.14341,-11.20189,45.44986,59.69932,81.15092,-1.08254,0.70296,0.72399,0.43603,54.79027,117.47092,0.89091,61.04729,43.44193,39.1243,-2.08472,41.56289,15.79048,-5.61889,-2.38402,0.03055,-4.44079,-5.75072,1.24569,-1.22452,0.28318,-2.44059,-0.83565,-1.79901,-0.26891,-0.67015,0.27224,-0.57891,-0.12241,-0.1306,-0.15896
1152,5.84085,18.16473,-10.90726,103.85669,109.94915,7.59739,18.57327,-6.58727,51.28894,59.96135,90.30669,1.03319,0.91066,0.25715,0.26048,53.90652,114.08347,1.64676,57.84528,68.49919,50.85648,-14.56909,31.25704,12.05761,2.12921,2.77537,3.89514,0.05558,-7.47334,5.59417,-0.59875,0.68593,3.7603,0.13647,-2.3204,1.67442,-0.27988,0.35813,-0.00295,-0.0731,-0.0916,0.09709
1153,8.03638,16.5127,-2.52725,105.66117,107.35468,8.26411,10.41339,-1.20407,53.88957,66.30835,97.00606,4.12656,0.77722,-0.29238,-0.31746,53.3438,110.57115,2.4652,55.39571,89.40913,56.91059,-19.13124,23.95435,-4.064,3.09124,2.40738,2.6937,1.3985,-3.30271,3.00788,0.04753,0.72448,3.27055,0.87545,-0.69363,1.69911,-0.00494,0.37498,0.36534,0.04489,0.12275,0.13556
1154,6.21756,12.1362,2.24121,105.0531,102.0396,9.35934,0.74148,-2.49549,53.49163,70.37481,90.88032,6.11929,0.4512,-0.74674,-0.70242,52.82323,106.81339,3.21785,49.89386,83.33877,58.55797,-18.37611,26.06127,-13.5906,-2.85071,-3.08989,-5.14015,-2.16106,-2.28889,-1.45364,0.11129,1.14644,-4.15244,0.07614,-0.24999,0.4105,-0.07749,0.40384,-0.09758,-0.07211,0.03843,-0.03581
1155,1.31166,4.12398,1.27299,103.77876,96.41816,10.48283,2.14283,-14.82097,41.16189,69.19464,81.20707,7.00128,0.25835,-1.21876,-0.47245,52.23006,103.02773,3.97005,48.19106,58.56459,46.07342,-24.61333,31.85515,-6.47186,-8.50705,-7.25985,-11.63666,-2.97501,-4.20454,-1.12076,-0.75378,2.49292,-8.69506,-0.05988,-0.87196,0.16245,-0.28104,0.53153,-0.56745,-0.06379,-0.244,-0.00483
1156,-6.52627,-5.20611,-10.37507,102.66805,92.20998,11.33346,23.71419,-31.54123,8.81415,60.61251,75.48783,7.73821,-0.16841,-1.26624,-0.80207,51.58293,99.3721,4.72551,54.40482,34.16512,3.38341,-51.02122,39.42384,9.67767,-9.28745,-6.05676,-9.67018,-0.59079,-7.12911,3.60623,-2.07556,4.31695,-4.33728,0.61833,-1.55245,1.20341,-0.37813,0.78163,-0.17954,0.07615,-0.40591,0.22405
1157,-15.53749,-4.52292,-28.87171,101.60834,89.6561,11.82887,49.11794,-31.35642,-26.96077,49.00362,74.71833,8.67674,-1.21085,-0.1219,-2.40325,51.03199,95.83355,5.46868,58.34678,35.70699,-55.14437,-79.78001,57.90168,21.16609,-5.07096,-2.064,-3.46721,-1.06554,-10.86081,8.96691,-2.37594,4.43394,2.61147,0.28846,-2.19753,2.73563,-0.29689,0.80687,0.48382,-0.02173,-0.34587,0.4313
1158,-22.20158,4.74875,-39.89096,100.47157,88.55659,11.89573,48.52623,-6.79031,-48.62184,41.68538,80.44948,9.88448,-2.48504,1.13117,-4.24984,50.70065,92.26334,6.18243,42.01407,74.38046,-95.34303,-59.61885,75.1066,24.81299,-0.73501,1.09538,1.39155,-3.10726,-10.16658,9.42214,-1.3721,1.75605,2.96852,-0.01276,-1.86848,3.45783,-0.22696,0.41232,0.45738,-0.10072,-0.10884,0.49513
1159,-27.01508,9.58812,-49.1425,99.24682,86.98713,11.87498,14.43462,27.84314,-78.22015,41.71375,87.655,10.92934,-3.53429,1.11231,-6.64926,50.49907,88.46803,6.79931,4.32554,126.92685,-121.81171,10.66508,64.31329,29.62806,-0.66815,2.79372,6.96488,-2.49811,-3.65605,3.59332,-0.10267,-2.07217,-2.59659,0.72808,-0.82927,2.70657,-0.24238,-0.10441,-0.00529,0.04006,0.01793,0.45686
1160,-41.17654,18.13705,-69.56342,98.21909,84.76479,11.97296,-54.66819,66.88971,-125.17161,48.20586,90.23241,11.39812,-5.17217,1.11474,-9.74221,50.21957,84.59384,7.34628,-59.20507,179.57291,-147.70953,48.35419,27.75254,41.56755,-2.84639,3.7244,14.91786,-1.17996,1.20593,-1.35143,0.65058,-4.53078,-6.08111,0.72645,-0.48738,1.42998,-0.14924,-0.36047,-0.16397,0.03949,-0.08973,0.3505
1161,-67.32322,34.09531,-95.18748,98.15178,83.25404,12.11879,-114.92648,93.02605,-171.01555,58.83382,89.20888,11.73912,-7.36988,1.84044,-11.41012,49.78215,80.85761,7.88505,-108.65665,211.04065,-186.17273,-0.12089,-4.83588,50.6129,-4.24196,3.1108,17.44253,-0.72565,-0.61231,1.57999,0.75145,-3.86621,-4.51125,-0.53353,-0.98288,1.03443,0.02949,-0.32341,-0.11384,-0.22325,-0.19902,0.19085
1162,-82.30624,42.95439,-109.59026,99.68639,81.17106,12.51768,-97.27005,89.17347,-200.8158,69.08837,86.91176,12.1736,-8.13698,2.76668,-10.47927,49.25396,77.10673,8.34732,-76.22832,196.75806,-238.42592,-74.80212,-4.69739,46.47451,-5.92088,-0.01727,7.41866,1.22507,-6.7349,11.07294,0.34035,-0.5424,-2.31464,-0.74085,-1.80418,2.32057,0.00741,-0.12958,-0.32363,-0.32906,-0.19281,0.16786
1163,-83.83118,45.60631,-109.15427,100.6448,78.15377,12.93412,-52.07959,79.29012,-204.25807,68.78654,84.53469,11.91817,-8.17246,4.54205,-8.88481,48.45238,73.41953,8.69103,-25.84626,169.9959,-261.38901,-88.35854,28.03808,34.55898,-8.3983,-3.82806,-7.03649,2.48383,-12.77153,19.76962,-0.14809,2.38345,-2.8635,0.56236,-2.90206,4.92955,-0.19587,0.12566,-0.64481,-0.07624,-0.20231,0.45003
1164,-81.95782,45.92647,-104.15993,99.2015,75.16714,13.21289,-57.33275,83.54491,-188.88855,58.48839,78.18493,11.20914,-8.44068,5.98293,-8.95116,47.06578,70.17621,8.9522,-38.36378,158.66823,-231.11508,-36.49251,42.48128,19.99199,-8.83069,-4.62144,-11.17867,1.17587,-14.83587,20.75292,-0.35677,2.45195,-4.22265,1.77919,-3.78045,7.17511,-0.28784,0.24485,-0.60532,0.27427,-0.2758,0.88972
1165,-67.65121,37.72875,-85.85519,97.28688,71.92891,13.74144,-82.81248,80.94143,-150.88422,53.77296,66.47065,11.56662,-7.71605,5.04897,-8.60405,45.16299,67.40963,9.1438,-63.67154,140.32497,-157.03143,21.11725,-10.08105,0.88643,-4.84668,-1.30616,-2.63215,7.80506,-10.52646,13.0382,-0.4669,0.31553,-3.6688,3.8775,-3.28843,6.83525,-0.24646,0.11665,-0.2663,0.60481,-0.29001,1.03621
1166,-48.77211,26.86236,-44.20208,96.42754,68.53531,14.3367,-97.30112,63.75261,-85.7933,59.57925,55.87802,12.21042,-6.79716,3.39725,-5.22702,43.06715,64.80034,9.26036,-70.35545,117.1769,-70.90151,34.74653,-77.86134,-5.57128,-0.20419,2.31246,6.61737,22.66485,-5.39595,8.99127,-0.64269,-1.38389,-2.05866,6.64798,-2.14624,4.94412,-0.1872,-0.06599,0.02687,0.79688,-0.24137,0.77976
1167,-38.01468,23.44651,-5.30009,96.08033,65.98624,14.37826,-106.15437,60.22316,-41.34753,67.7353,50.71118,11.03839,-6.69388,2.92836,-1.59805,40.91648,62.05072,9.29241,-75.43105,116.03818,-32.76404,-0.45987,-64.09853,13.66625,-0.34285,2.7007,7.45811,20.61141,-3.05332,13.84211,-0.36209,-0.64815,-0.44346,6.13362,-1.38785,3.34331,0.04022,-0.07969,0.32311,0.77789,-0.19165,0.42319
1168,-29.44281,22.19617,7.08042,95.6844,63.65917,14.11906,-104.24931,78.1645,-47.72929,72.50465,45.36431,8.93525,-5.43786,3.03684,-0.78077,38.55093,59.06542,9.21699,-71.90781,124.65961,-53.78681,-39.05232,32.21558,45.75311,-3.73569,1.50412,4.27157,2.41744,-1.76149,19.04865,0.54888,1.68196,1.42853,2.61813,-1.06477,2.45769,0.41876,0.10982,0.61353,0.57766,-0.13231,0.22622
1169,-16.06727,14.61108,2.75883,94.75159,59.08912,14.43933,-80.36622,88.6583,-68.10679,74.86273,31.09057,8.62507,-2.17241,2.11483,-1.29594,35.79392,55.88142,9.0168,-42.64041,106.1262,-81.73536,-38.59206,116.01035,84.65714,-4.79127,1.57059,5.35288,-8.75939,-6.43277,26.73423,0.9825,2.1287,2.29969,-0.90326,-1.74418,4.33619,0.47751,0.1814,0.52124,0.13027,-0.03393,0.29213
1170,-2.61889,3.53813,-3.32294,93.76205,52.62199,15.26297,-38.7867,70.55573,-63.44654,79.20419,12.06052,10.4772,0.78109,0.36277,-1.40479,32.82165,52.52662,8.70427,9.31844,56.41893,-79.64988,-9.03578,90.67452,105.00243,-1.74385,3.2124,11.90311,-6.6756,-11.86189,26.51959,0.142,-0.80967,1.13506,-1.80483,-2.73512,7.16603,0.10601,-0.11841,0.03319,-0.0443,-0.04784,0.6674
1171,5.51019,-4.04567,-4.10863,93.93809,46.52596,15.72806,6.07106,28.48909,-27.64386,86.97047,-2.22431,12.02476,1.98853,-0.82608,-0.75305,30.02104,48.71163,8.24953,66.40903,-6.67566,-44.94854,15.48934,-15.44361,82.16854,3.87905,5.96463,19.08452,5.10665,-9.03073,7.77906,-1.11058,-4.34755,-0.35388,1.90718,-2.37933,5.55931,-0.17955,-0.36091,-0.30212,0.53331,-0.25014,0.79386
1172,10.21337,-6.70964,0.80884,94.75008,42.4133,15.08208,39.63753,-12.25848,12.55731,94.18308,-6.60502,11.22866,2.60299,-1.09832,0.52581,27.58303,44.01567,7.61716,109.38425,-55.86708,-2.88229,19.75245,-70.76562,47.78139,9.12163,8.41735,20.92078,18.3361,-5.70736,-0.84383,-1.52685,-4.97778,-0.27293,5.67064,-2.01602,3.40712,-0.07296,-0.07529,-0.1584,0.80485,-0.46041,0.79508
1173,12.43222,-6.97498,4.66624,93.38978,40.3189,13.13231,44.36018,-27.10505,23.25403,94.59587,-0.84251,8.32909,3.284,-1.15375,1.49512,25.33514,38.30024,6.81451,116.4993,-62.1133,13.79786,11.5292,-34.38101,31.52165,10.19673,7.52291,14.873,10.77238,-7.5208,18.94573,-0.98535,-2.61385,1.51622,3.27552,-3.01756,6.85429,0.21137,0.3186,0.25224,0.19921,-0.5541,1.3932
1174,7.33783,-4.50075,2.44178,89.89094,38.59643,10.554,14.49768,-16.64005,5.91558,90.04571,9.19516,5.11848,2.41411,-0.91916,1.01826,23.1592,31.68705,5.86258,85.20231,-28.36226,4.96235,-0.40818,15.87185,18.35908,7.04967,3.33713,5.91088,-4.47826,-8.99071,36.00901,-0.34927,-0.06962,3.63398,-0.68946,-3.58642,10.13358,0.36524,0.29711,0.59169,-0.44631,-0.47706,1.78336
1175,-10.49925,4.95353,-4.34534,87.54529,37.02754,7.97215,-31.85699,5.18156,-13.01298,85.83736,19.73086,3.28483,-1.33982,0.62583,-0.44549,21.26361,24.49759,4.79707,35.48877,19.95638,-8.21418,-15.03205,28.04346,5.2661,3.96021,0.81824,2.2719,0.68026,-8.60874,29.1683,-0.16381,0.7999,4.34719,0.24613,-2.80239,8.45017,0.37038,0.15445,0.69926,-0.40874,-0.24371,1.31776
1176,-27.67382,15.67299,-8.19786,87.04168,35.6887,5.49084,-55.49832,20.51479,-13.73479,79.64614,28.59116,2.93188,-4.78119,2.42738,-1.04422,19.75363,17.11431,3.61403,0.70225,48.73986,-8.92051,-22.27404,-8.72654,-3.48661,4.06818,3.57279,7.43326,4.95431,-1.41603,3.67144,-0.41239,-0.19172,3.33574,1.37367,-0.72863,2.68626,0.36734,0.28433,0.56717,-0.03049,0.00778,0.49611
1177,-24.73515,16.21728,-4.64985,86.75967,32.57949,3.28988,-37.25051,17.74705,0.61031,70.47031,30.28228,2.53749,-4.13739,2.40018,-0.44538,18.51637,9.80252,2.30665,2.98996,35.84794,4.01,4.13356,-57.66663,9.99917,5.74759,8.9217,16.19149,1.53543,5.01954,-12.40287,-0.90512,-2.36838,1.54556,1.19153,0.72312,-1.62578,0.29749,0.45201,0.21787,0.28345,0.12946,-0.22975
1178,-8.64417,10.29517,3.07924,86.33118,26.90989,1.44813,-9.33091,6.6205,13.90607,64.66646,25.64004,0.91952,-1.22819,1.23197,0.59448,17.52854,2.70276,0.96204,23.50762,4.99237,19.89399,50.80643,-65.52902,30.48926,4.17727,9.30068,16.70389,1.56908,3.71127,-10.32529,-1.07728,-3.74054,-0.31983,1.98193,0.67061,-2.57687,0.04009,0.22989,-0.1577,0.50451,0.16847,-0.78931
1179,0.82813,5.23559,5.32007,86.89761,19.94796,-0.11094,4.20207,-1.49135,12.5703,68.70637,22.49676,-1.19386,0.3869,0.43885,0.91515,16.81369,-4.17534,-0.30478,46.7794,-9.98734,21.14961,71.51324,-22.36298,24.24673,-2.47219,0.82197,3.56299,6.21229,-2.05222,-3.10761,-0.32287,-2.08072,-1.89617,3.7927,-0.00651,-1.62682,-0.2184,-0.28425,-0.1622,0.7443,0.17647,-0.94091
1180,-0.55006,-1.69819,-1.7141,88.59807,13.51196,-1.43355,13.18544,-5.45242,-7.17661,78.67953,25.27766,-1.94128,0.34645,-0.2243,0.16458,16.27222,-10.70947,-1.38856,73.14961,-3.3677,-2.48996,46.75448,28.02283,-0.50398,-8.18344,-9.86823,-11.54531,6.64656,-6.81208,3.74321,0.71865,1.12581,-2.00444,3.72258,-0.94725,1.14482,-0.14623,-0.75399,0.41648,0.73544,0.05577,-0.30746
1181,-2.6129,-8.2641,-7.10238,89.07569,8.83769,-2.54681,14.03256,-5.55425,-23.15706,79.16421,29.68107,-0.67717,0.26118,-0.9463,-0.44812,15.84126,-16.58027,-2.19665,73.50907,13.83908,-23.67627,9.02015,49.29699,-6.20667,-6.8808,-11.72731,-13.19519,-0.76377,-8.42591,13.08543,0.98827,2.05856,-0.45221,0.29206,-2.22439,5.19773,0.17728,-0.86827,1.03319,0.19067,-0.20888,0.81484
1182,-0.35723,-7.78614,-4.57333,87.13778,5.41079,-3.39781,-3.11446,-0.9336,-17.79848,65.38941,28.66846,0.9601,0.6001,-1.1422,-0.33496,15.65065,-21.62683,-2.75524,30.67823,28.5401,-19.61496,-7.26751,41.49785,7.2956,0.69316,-3.59459,-2.40289,-7.42915,-5.11008,17.53631,0.30482,-0.47706,1.69809,-2.57621,-2.65171,6.38369,0.34413,-0.61428,1.03425,-0.29512,-0.37689,1.36223
1183,-0.44727,-3.8372,-2.11966,85.70548,2.42411,-4.05503,-18.187,4.10397,-8.19974,56.14802,23.72444,1.01431,0.48684,-0.83885,-0.30572,15.75695,-25.93262,-3.21685,-3.92308,28.77735,-12.42536,-5.99903,21.1192,17.29357,8.06709,4.73666,6.6793,-4.50357,-0.30618,14.26474,-0.54932,-3.14752,3.31206,-0.91551,-1.92831,4.21827,0.25776,-0.2401,0.57624,-0.03308,-0.34762,1.02293
1184,-7.24462,-2.11787,-4.44975,86.1676,-0.14332,-4.73796,-9.29297,3.4131,-8.71605,64.27875,21.99097,-0.40709,-0.38515,-0.49734,-0.74068,15.84253,-29.5667,-3.70048,16.20457,14.55988,-19.08433,-5.59228,2.66984,17.09209,8.56392,5.75582,5.78433,7.40743,0.35939,8.87046,-0.65005,-1.97991,3.1696,3.33144,-0.88241,1.76266,0.16384,0.24861,0.12154,0.55282,-0.1644,0.34274
1185,-13.98975,-1.67338,-6.94028,85.73217,-3.39824,-5.2235,11.27019,-1.027,-11.77157,78.44085,21.75238,-1.57051,-1.18218,-0.26911,-1.09002,15.55027,-32.50072,-4.178,62.60662,-2.23187,-26.98974,-12.21517,-11.20683,5.64775,3.54455,1.44015,-0.51236,12.63069,0.04396,0.43586,-0.19581,1.37156,1.19746,4.51152,0.17159,-0.07904,0.11196,0.67455,-0.1362,0.61994,0.03998,-0.10141
1186,-13.44582,-0.59457,-5.9427,83.75451,-7.43154,-5.19246,18.18597,-3.65781,-10.77412,87.78603,19.13308,-1.22507,-1.17351,-0.08752,-0.99149,14.96119,-34.6373,-4.49534,87.52886,-9.34694,-25.02152,-17.20355,-15.15257,-3.59655,-0.88765,-1.68281,-4.45804,1.06961,-0.52064,-4.76804,0.20949,2.38568,-1.71532,0.72236,0.2225,-0.13274,-0.01752,0.64947,-0.3273,0.03227,0.05227,-0.0341
1187,-7.76425,-1.01956,-3.48102,81.46068,-10.55274,-4.91131,9.08451,-4.83746,-10.9018,90.08165,16.3196,-0.34595,-0.48127,-0.11703,-0.659,14.30689,-35.99852,-4.59116,81.49007,-7.83193,-20.31712,-10.88467,-9.51624,-0.85021,-1.98922,-0.76542,-3.68266,-10.68966,-2.5276,-2.60089,0.37761,0.43441,-3.77288,-2.97717,-0.67174,1.08903,-0.18765,0.2504,-0.49526,-0.53748,-0.06351,0.19611
1188,-3.08441,-2.91447,-1.69183,78.29804,-12.21631,-4.79531,-0.63682,-6.1738,-13.29446,83.76301,15.06034,-0.69345,0.29311,-0.36454,-0.23141,13.65839,-36.71543,-4.56917,60.99204,-7.35417,-19.15149,3.12273,0.2574,6.24321,-0.36519,2.42899,-0.76956,-10.61538,-3.5891,1.6548,0.31588,-1.65968,-3.68381,-2.93169,-1.27279,1.81713,-0.27224,-0.08752,-0.53947,-0.5307,-0.13293,0.28739
1189,-1.09047,-2.76888,-0.45523,73.24477,-12.96357,-4.90897,-0.17951,-6.09371,-11.67243,71.51109,14.59842,-2.16514,0.70678,-0.48884,0.25212,12.97366,-36.83335,-4.53983,45.2259,-12.23317,-18.36617,15.21095,15.68183,11.83194,3.29543,5.64432,1.65208,-4.26529,-3.60343,5.23457,0.10098,-2.31093,-1.70152,-0.39175,-1.35649,2.13973,-0.21953,-0.18189,-0.39554,-0.03547,-0.17406,0.3799
1190,-0.75967,-0.87105,0.15839,67.28137,-13.01428,-5.119,6.56259,-4.36793,-4.95243,63.30059,14.9144,-3.30311,0.69695,-0.47376,0.52442,12.16296,-36.45071,-4.56162,44.95623,-17.83173,-16.70753,15.38524,28.43976,11.81749,6.90049,6.37103,2.42268,0.01365,-2.9461,6.11754,-0.03767,-2.01223,0.84998,1.54208,-1.15049,2.19295,-0.05596,-0.17923,-0.06489,0.37013,-0.21085,0.49778
1191,-1.82431,0.07731,-0.01241,63.22679,-12.47801,-5.28227,9.62356,-2.39168,5.46477,67.3577,16.94162,-3.44119,0.49707,-0.60686,0.43796,11.25125,-35.79197,-4.6362,58.34584,-14.95187,-11.75822,1.25437,27.84701,4.88002,6.709,2.34747,1.19095,-0.78429,-1.60928,3.47807,0.07395,-1.4055,2.22752,1.23039,-0.74358,1.54801,0.1296,-0.1915,0.30925,0.30624,-0.16349,0.41269
1192,-3.7043,0.7085,-0.50208,62.37791,-12.13296,-5.22544,8.22917,0.18853,19.27935,79.51704,18.93097,-3.06737,0.40882,-0.81072,0.22894,10.35395,-35.02093,-4.70962,75.1915,-3.79599,0.86284,-9.87551,21.60563,0.3535,2.1246,-3.48031,-0.54699,-3.48959,-1.12411,1.13814,0.25422,-0.75779,1.55814,0.04646,-0.54388,0.85519,0.19829,-0.07734,0.4393,0.06873,-0.06221,0.18081
1193,-6.24912,2.47634,-1.12555,62.89386,-12.44464,-4.86714,6.52766,3.04049,27.52789,88.62858,18.03878,-2.36466,0.37082,-0.70155,0.10147,9.49761,-34.20215,-4.73062,83.30129,2.94041,10.94897,-1.74335,22.21595,6.4628,-2.57702,-5.01308,-0.66552,-4.48336,-2.40562,1.98277,0.24312,-0.374,-0.09388,-0.35409,-0.88951,0.98874,0.09923,0.20092,0.21227,-0.00232,-0.04919,0.10941
1194,-9.67791,3.65687,-1.80819,62.01821,-12.50292,-4.37176,5.68329,1.6018,18.77669,88.45879,14.09044,-1.10179,0.12147,-0.27121,-0.03368,8.75732,-33.40687,-4.66718,78.52086,-6.48101,1.19266,13.29621,27.5247,15.67385,-3.48168,-1.84935,0.59358,-4.42004,-4.13459,3.95731,0.17041,-0.55214,-0.89752,-0.33628,-1.5107,1.52728,-0.03569,0.32646,-0.09084,-0.00293,-0.16,0.22547
1195,-12.62385,2.00135,-2.02905,58.38563,-11.2347,-4.03436,8.55377,-7.78719,-2.59866,78.52814,8.50022,0.06974,-0.23186,-0.03349,-0.23536,8.29271,-32.70402,-4.49316,68.07287,-33.09579,-25.13996,13.0288,30.12063,14.19071,-1.25501,0.39974,1.0623,-4.46397,-4.4001,4.04287,0.30251,-1.16875,-0.56086,-0.46422,-1.73112,1.54665,-0.04868,0.10978,-0.1592,-0.0503,-0.23824,0.27237
1196,-13.42968,-0.4765,-1.70896,53.14316,-9.14017,-3.99842,17.40967,-18.64327,-16.88177,62.73916,3.9076,0.19272,-0.35514,-0.26197,-0.35573,8.06526,-32.12082,-4.25696,59.90762,-60.82756,-42.69853,-2.36867,29.32723,1.65815,1.39312,-1.12115,-0.31133,-4.61097,-3.05382,2.27775,0.53012,-1.65964,-0.28131,-0.58932,-1.33542,0.9382,0.02672,-0.1884,-0.04192,-0.10456,-0.15829,0.12109
1197,-11.01221,1.17691,-1.7128,49.21268,-7.45851,-4.20615,29.03356,-17.7057,-8.31333,49.19779,5.68073,-0.65319,-0.08488,-0.47953,-0.2195,7.87525,-31.68046,-4.1043,57.35921,-61.54032,-29.52528,-15.20592,24.77452,-7.41213,3.58811,-2.56903,-1.97457,-5.18803,-1.48274,0.43076,0.68837,-2.0486,-0.5801,-0.64492,-0.73281,0.14432,0.05806,-0.33815,0.02309,-0.14398,-0.00508,-0.11771
1198,-6.08625,5.91117,-2.17315,48.39182,-6.63631,-4.54562,38.45652,-6.40345,12.83444,43.45859,15.32158,-1.91011,0.41112,-0.33331,0.12736,7.61836,-31.40512,-4.13791,59.38633,-34.27008,3.14914,-12.91313,15.38563,-2.40796,5.67226,0.35152,-1.48787,-5.55796,-0.43594,-0.58843,0.98957,-2.67322,-0.27776,-0.47491,-0.19765,-0.39516,0.0758,-0.37824,0.05573,-0.13468,0.08428,-0.25228
1199,-2.97435,7.18044,-2.0172,50.09379,-6.96058,-4.79096,41.13525,-2.61709,20.90644,45.67526,23.04234,-3.22896,0.66688,-0.16432,0.384,7.27481,-31.28785,-4.30141,61.61019,-17.96986,20.19556,3.56886,5.95114,10.03925,6.3819,5.45591,0.947,-4.18327,0.10383,-0.60552,1.366,-2.83671,1.10297,0.1514,0.1276,-0.25352,0.14444,-0.29678,0.18743,-0.02834,0.05684,-0.15935
1200,-4.52092,3.85304,-1.07247,51.71539,-7.99835,-4.78458,38.8131,-12.87394,10.99399,51.97974,20.3706,-3.96342,0.4703,-0.22127,0.34013,6.76529,-31.24409,-4.42539,65.14153,-35.06079,10.46721,23.28417,3.53216,15.12331,4.16572,6.97899,2.56627,-2.17975,-0.30798,0.0894,1.25672,-1.8795,1.90643,0.63624,-0.20869,0.44516,0.16948,-0.07256,0.31007,0.0622,-0.11045,0.07882
1201,-7.3666,0.95893,-0.41013,52.00484,-8.41553,-4.57125,39.10941,-23.25483,0.87004,59.48299,12.27992,-3.11701,0.18891,-0.26367,0.1583,6.1361,-31.15251,-4.40717,78.55761,-60.3884,-4.15442,31.4899,12.83619,7.5936,0.60314,3.67687,1.85554,-2.38244,-2.21868,0.93307,0.65528,-0.74774,0.99084,0.19508,-1.34921,0.91259,0.07083,0.12031,0.22265,-0.00758,-0.34273,0.22879
1202,-5.77783,1.59613,-0.61644,53.59596,-7.87511,-4.25217,42.89711,-19.11122,2.82268,69.10316,9.39667,-0.81237,0.36792,-0.11312,0.18352,5.73269,-30.98257,-4.32263,100.83251,-58.18984,-5.04588,21.8758,30.06969,-4.66633,-1.30467,-0.4857,-0.17303,-4.69224,-4.57784,1.47432,0.21027,-0.71591,-0.8723,-0.74338,-2.39933,0.68551,-0.10404,0.11778,-0.13454,-0.14956,-0.43405,0.17707
1203,1.22141,4.08372,-1.30495,57.70608,-7.65472,-4.06525,43.12224,-0.51963,12.7251,77.29754,14.3493,0.56431,1.12111,0.01639,0.47824,5.78388,-30.86362,-4.33535,113.06542,-23.72298,4.22378,5.66227,41.11981,-12.26319,-0.28523,-1.83205,-1.80977,-6.30401,-4.94163,1.12088,0.30231,-1.59617,-2.13526,-1.0554,-2.24196,0.15953,-0.2634,0.00132,-0.5674,-0.16674,-0.29479,0.05075
1204,8.22538,6.23388,-2.12011,60.49815,-7.76043,-4.37885,37.84411,20.95594,20.92148,75.46539,22.41311,-1.04742,1.93572,-0.033,0.75175,6.04865,-30.87617,-4.47369,101.30984,18.88098,11.07885,0.96775,38.96033,-14.01246,2.92431,-0.19083,-2.18462,-6.24446,-2.39192,-0.63757,0.88496,-2.39495,-1.82068,-0.6809,-0.86735,-0.26535,-0.29349,-0.08099,-0.70807,-0.07931,-0.05166,-0.04505
1205,10.20704,7.75267,-2.89192,58.40039,-6.78237,-5.1931,37.18208,28.77277,21.15134,60.5336,28.21748,-4.36936,2.27113,-0.05023,0.81655,6.0985,-30.93281,-4.6452,76.47124,35.49023,9.99057,13.89005,30.13603,-12.79422,5.2529,2.3838,-1.35066,-6.1138,0.61756,-2.99775,1.46534,-2.31439,-0.42796,-0.61291,0.43273,-0.72021,-0.12805,-0.08479,-0.39336,-0.07598,0.11573,-0.16639
1206,8.26558,6.86851,-2.58626,53.60843,-4.09647,-6.0679,48.10084,8.71243,11.87528,41.01771,30.49798,-6.57939,2.1359,0.00726,0.75263,5.73932,-30.82489,-4.76139,59.3468,4.24409,3.53608,33.01865,23.604,-10.26437,4.02716,3.59783,-0.10298,-6.17904,1.14603,-4.03345,1.33365,-1.24583,0.65857,-0.96088,0.45607,-1.06256,0.1344,-0.05505,0.08964,-0.15639,0.11305,-0.27059
1207,7.17618,2.12565,-0.64892,52.77123,-0.84107,-6.43533,62.35886,-29.68233,0.00425,34.39841,31.42444,-6.4626,1.93118,-0.11092,0.6547,5.20068,-30.31394,-4.74331,64.28879,-54.01914,-1.52066,38.54752,26.36636,-9.26266,1.35599,2.31471,0.36984,-4.98813,-0.2355,-3.07793,0.73148,-0.38067,0.65199,-0.78636,-0.39862,-0.7681,0.29028,-0.09087,0.29476,-0.13939,-0.00519,-0.19759
1208,9.41727,-3.19852,1.3006,57.85031,0.17734,-6.00686,68.51509,-52.37967,-3.70024,46.39866,30.58052,-4.85343,1.9142,-0.42248,0.52826,4.78646,-29.30805,-4.58244,87.96876,-86.88475,0.25697,20.8118,33.52754,-12.43657,1.26757,-0.72773,-0.43073,-3.26719,-0.61858,-1.9852,0.66458,-0.93283,-0.1514,-0.06558,-0.79262,-0.05753,0.22175,-0.18923,0.11407,-0.01556,-0.11036,-0.00654
1209,12.29887,-5.03139,1.58101,63.52266,-2.62108,-5.04125,62.473,-41.49073,1.00834,62.30922,25.37503,-2.9383,1.89914,-0.65339,0.37415,4.5315,-27.92727,-4.39084,107.25079,-72.46355,5.3133,-5.70198,27.68873,-17.65531,3.35,-3.57325,-1.70151,-3.80572,1.22373,-3.02306,1.17004,-2.22171,-1.01754,0.0565,-0.24913,0.03321,0.00352,-0.19046,-0.15762,0.01116,-0.14586,0.0075
1210,11.63082,-3.19165,0.44773,65.30637,-6.80711,-4.13023,49.27554,-14.54616,5.69275,68.73097,17.4185,-1.23055,1.63907,-0.69285,0.2032,4.26621,-26.39317,-4.28176,106.74152,-40.63404,6.47708,-16.0114,9.72754,-20.91986,3.93899,-3.83377,-2.00451,-7.33309,3.72631,-6.0321,1.3959,-2.61029,-1.2184,-0.90102,0.51011,-0.92521,-0.17955,-0.03339,-0.19804,-0.16803,-0.14928,-0.27662
1211,6.9621,-0.3679,-0.78568,64.49727,-7.90991,-3.81072,39.0004,4.32914,6.94814,68.30378,14.04891,-0.09462,1.20694,-0.76561,-0.02188,3.85187,-24.84128,-4.1946,96.17287,-21.69408,4.60086,-0.49374,3.94771,-21.66093,1.60962,-1.18657,-1.06342,-10.90271,5.3139,-8.66207,0.94566,-1.78472,-0.73894,-2.06463,0.95149,-2.04636,-0.21685,0.11146,-0.03827,-0.40489,-0.10901,-0.61103
1212,2.75359,0.71377,-1.22333,64.22097,-6.1541,-3.95123,39.66385,8.89359,8.20365,68.40804,16.06016,0.02209,0.88744,-1.02472,-0.29582,3.32289,-23.35978,-4.07026,93.25274,-17.82889,6.76502,28.29519,13.56596,-21.14559,-1.2941,1.09356,-0.29258,-11.66447,6.61942,-9.48335,0.25896,-1.07117,-0.53449,-2.71739,1.52232,-2.36224,-0.1592,0.0431,0.00942,-0.5125,0.09341,-0.67749
1213,3.51819,-2.14236,-0.50884,65.34378,-5.99971,-3.87862,52.02268,-0.4346,10.69756,70.96859,15.73566,-0.50589,0.89907,-1.40836,-0.49311,2.81768,-21.9589,-3.99471,105.56887,-27.9454,15.18699,46.776,11.89915,-19.22689,-1.68453,0.63705,-0.73915,-11.02245,7.57384,-9.28344,0.05715,-1.39034,-1.04281,-3.1659,2.13388,-2.20421,-0.08409,-0.2095,-0.17289,-0.48499,0.37891,-0.48199
1214,7.92306,-8.04796,0.86166,66.97562,-8.85962,-3.34492,66.17757,-21.91792,11.3078,75.71172,8.39255,-0.79678,1.14292,-1.72606,-0.51198,2.43146,-20.56162,-4.01681,125.54141,-55.82712,22.34642,42.60836,-5.14848,-17.59071,1.42397,-0.88378,-1.73132,-12.06903,6.15117,-9.11482,0.7599,-2.09324,-1.33917,-3.63355,1.82646,-2.47478,0.04422,-0.41252,-0.34912,-0.42757,0.45475,-0.32507
1215,11.5035,-12.31772,1.72153,67.67721,-11.44924,-2.89074,71.38276,-44.80278,8.50085,80.5995,-1.24426,-1.01399,1.38949,-1.76662,-0.39045,2.16083,-19.23014,-4.06367,137.06673,-91.94862,20.08972,29.49387,-8.49194,-19.67739,6.08167,-1.11796,-2.05256,-13.4556,2.7942,-8.27691,1.96043,-2.06634,-0.61761,-3.3085,0.69499,-2.64016,0.20946,-0.36737,-0.28085,-0.34067,0.24361,-0.28279
1216,12.52576,-12.52646,1.65177,66.78316,-11.31133,-3.00563,67.54041,-57.9574,4.51132,81.7956,-5.49986,-1.91551,1.54466,-1.54788,-0.25786,1.99149,-18.16078,-4.06478,132.50496,-117.29742,10.80308,26.55492,10.01494,-24.32425,8.46194,-0.85736,-1.47787,-11.53156,0.7187,-5.90342,2.74109,-1.47657,0.34555,-1.7389,-0.19452,-1.62777,0.31498,-0.14591,-0.04934,-0.16135,-0.04558,-0.17278
1217,12.67729,-9.90493,1.085,65.17709,-9.91815,-3.39433,64.28258,-56.45089,2.46197,77.94818,-3.56826,-3.07893,1.5841,-1.19621,-0.13075,1.93028,-17.37448,-3.99335,123.40347,-118.09418,4.74994,31.94004,23.94213,-25.73168,6.59892,-1.77584,-0.6615,-7.615,1.46002,-3.70468,2.69076,-1.32597,0.40837,-0.40703,-0.19515,-0.39584,0.34064,-0.00892,0.07074,-0.04556,-0.15146,-0.09139
1218,12.48098,-6.50107,0.58316,64.7141,-9.06392,-3.53337,64.46309,-42.88092,2.81868,71.32259,2.16803,-3.00092,1.39161,-0.80249,0.04168,1.99579,-16.70682,-3.82247,117.53552,-93.6273,7.13628,33.23854,14.89853,-19.40874,2.48191,-2.60983,-0.18782,-5.91537,3.01437,-3.48481,2.02961,-1.61815,-0.22115,-0.60891,0.30042,-0.50174,0.29274,-0.05934,-0.00493,-0.15836,-0.04659,-0.24663
1219,9.48752,-4.33316,0.48344,65.59196,-8.81497,-3.39905,56.31714,-28.52963,3.61455,62.22151,10.00144,-1.25998,0.90408,-0.50241,0.18143,2.17125,-16.14629,-3.61427,97.64306,-61.45143,13.37642,29.37892,-8.38522,-8.21714,-0.64311,-1.08013,-0.20944,-7.3532,3.04659,-4.48735,1.14451,-1.6253,-0.63569,-1.5361,0.48518,-1.56792,0.15907,-0.17483,-0.12176,-0.3343,0.05399,-0.50143
1220,3.31073,-4.23575,0.71501,66.43773,-8.87781,-3.25776,34.54939,-23.18107,3.48922,52.03279,15.91026,0.9513,0.33707,-0.4075,0.20438,2.46428,-15.80418,-3.49031,57.35075,-43.76406,16.87758,29.18085,-26.59146,-1.87855,-0.67707,1.60946,-0.52989,-9.47033,2.62547,-5.17891,0.8578,-1.37292,-0.49367,-1.95669,0.47107,-2.06928,0.0824,-0.22821,-0.13912,-0.35118,0.0611,-0.54815
1221,-2.43094,-4.87257,0.89788,66.71227,-9.02746,-3.28145,12.04815,-24.10708,2.62781,46.34172,16.66077,2.17636,-0.02695,-0.46016,0.16587,2.91319,-15.63176,-3.44886,23.21692,-42.55854,15.565,35.27082,-28.60826,-6.65472,2.52446,1.47458,-0.88222,-10.42124,3.46262,-5.22629,1.80949,-1.49991,-0.15913,-1.97931,0.7706,-1.69292,0.22973,-0.20341,-0.08065,-0.2779,0.09071,-0.38096
1222,-5.16245,-5.08878,0.81509,66.21155,-9.08731,-3.5547,-0.31097,-24.42891,1.40917,46.27602,14.16884,1.40685,-0.13864,-0.53435,0.11501,3.39621,-15.47933,-3.39158,12.69321,-45.4136,9.91535,38.85933,-18.53217,-16.25256,5.48731,-1.99544,-0.98184,-10.24765,4.56254,-4.90753,2.85219,-1.94809,-0.08583,-2.01702,1.14074,-1.21895,0.41609,-0.14923,-0.03919,-0.24962,0.17596,-0.21977
1223,-5.45598,-4.87916,0.57139,64.79904,-9.47947,-4.00708,-4.95075,-22.43934,0.1623,47.07399,12.31468,-1.20566,-0.08131,-0.555,0.05404,3.71434,-15.29987,-3.29783,13.455,-45.06738,1.63637,34.95051,-7.30935,-20.02902,4.72808,-4.43015,-0.64729,-9.57622,4.07088,-4.3532,2.64091,-2.07791,-0.23537,-1.7336,0.8386,-1.05102,0.39815,-0.13269,-0.04623,-0.22249,0.14429,-0.17835
1224,-3.80855,-4.0504,0.32996,62.95858,-10.97821,-4.34779,-3.35164,-18.69626,-0.39345,44.42664,12.30002,-3.87427,0.09872,-0.49817,0.01735,3.86048,-15.13971,-3.25236,13.38768,-41.17107,-3.99183,30.30799,-4.29318,-16.55192,1.09415,-2.50733,-0.07402,-9.27321,2.53657,-4.00451,1.54707,-1.64407,-0.30335,-1.09774,-0.15194,-1.1219,0.23862,-0.16975,-0.06921,-0.16826,-0.07576,-0.23744
1225,0.05235,-2.60186,0.12895,61.43488,-13.50493,-4.34285,8.58114,-14.55015,0.0626,39.45247,12.25806,-4.60913,0.31685,-0.3771,0.01235,3.99043,-15.01874,-3.30427,19.65215,-36.69221,-1.96232,27.54581,-14.61113,-10.03525,-2.77851,2.28911,0.54087,-9.9261,2.05614,-4.19358,0.56766,-0.92438,-0.21311,-0.823,-0.86548,-1.2707,0.10992,-0.18029,-0.06784,-0.17105,-0.2466,-0.30795
1226,4.14887,-1.13408,-0.01699,60.62008,-16.02007,-4.07335,24.7675,-11.58049,0.92777,37.65723,9.66633,-3.42473,0.42943,-0.23972,-0.00038,4.20387,-14.87909,-3.36963,36.4727,-35.06725,4.41503,19.53391,-34.217,-1.91144,-4.46045,5.702,1.00204,-10.80276,2.60976,-4.30011,0.42035,-0.47054,-0.10665,-1.07649,-0.732,-1.29145,0.08404,-0.11202,-0.04429,-0.21721,-0.16925,-0.28081
1227,5.19172,-0.12104,-0.03524,59.23892,-17.84528,-3.75816,29.77549,-9.34822,1.50822,38.44918,4.03307,-2.25881,0.41231,-0.17585,-0.00839,4.41829,-14.66713,-3.35407,45.7903,-36.40073,7.14072,12.5892,-53.08107,4.72559,-2.33822,4.60979,0.8575,-10.96384,2.8082,-3.78128,1.29964,-0.83205,-0.141,-1.29932,-0.15591,-1.10553,0.1436,-0.05838,-0.03981,-0.20954,0.06003,-0.15248
1228,2.89175,-0.09308,0.06554,56.05847,-18.68691,-3.56659,19.30204,-7.65112,1.55331,36.8419,-0.98774,-1.97596,0.35951,-0.26603,0.00596,4.52297,-14.40701,-3.26933,33.48284,-37.22051,4.52539,25.57997,-63.58625,2.80199,2.00199,0.39352,0.12034,-10.8652,3.16951,-3.33001,2.58679,-1.79573,-0.27532,-1.25734,0.28126,-0.90526,0.29083,-0.11431,-0.0675,-0.1676,0.21191,-0.07575
1229,0.10326,-0.94553,0.15385,52.44048,-18.32354,-3.61465,4.29821,-6.51882,1.24327,34.28777,-1.58644,-1.76862,0.33209,-0.44029,0.0002,4.50789,-14.15906,-3.16955,12.79444,-33.8366,0.70459,51.33077,-61.64636,-7.32166,4.63899,-3.07171,-0.53408,-10.68033,4.32359,-3.48354,3.22508,-2.56841,-0.38917,-1.02165,0.22081,-0.87246,0.48223,-0.23645,-0.10041,-0.16657,0.14834,-0.16824
1230,-1.17783,-1.34791,0.12832,50.19082,-17.45672,-3.86588,-4.36455,-5.09171,0.85111,34.98001,0.62538,-1.522,0.317,-0.50706,-0.04928,4.3614,-13.9611,-3.09404,2.60524,-28.1111,-2.13045,56.09532,-49.80755,-13.86981,4.23009,-4.16308,-0.86052,-9.11238,3.99919,-3.32483,2.85624,-2.89109,-0.5287,-0.59914,-0.41816,-0.9921,0.57,-0.33954,-0.13302,-0.21301,-0.02768,-0.33987
1231,-1.38859,-1.04921,-0.02214,48.7149,-17.59348,-4.066,-4.34896,-5.2801,0.19624,36.21739,0.83439,-2.02083,0.26068,-0.42721,-0.12447,4.06569,-13.7963,-3.08369,3.84978,-28.42842,-4.18852,29.91479,-40.50567,-8.80231,3.78058,-3.09312,-1.33217,-5.95288,0.29811,-2.05234,2.5567,-2.8574,-0.7273,0.07112,-1.41054,-1.11778,0.55237,-0.36905,-0.1934,-0.20722,-0.15064,-0.39984
1232,-1.12376,-1.2206,-0.2277,46.15266,-19.20834,-3.95731,1.72551,-8.22244,-0.83036,31.78776,-3.17354,-3.35708,0.15985,-0.32798,-0.17181,3.67523,-13.53605,-3.12368,8.25887,-36.64211,-5.46449,1.50246,-43.93684,1.10571,5.46479,-1.47511,-2.03027,-3.41956,-4.24755,-0.50624,3.1684,-2.7181,-0.90909,0.99656,-2.46534,-1.08734,0.55899,-0.35477,-0.27513,-0.00356,-0.29248,-0.26204
1233,-0.31729,-1.73418,-0.34837,41.98277,-20.64049,-3.59921,8.65259,-8.98027,-1.6133,21.81163,-7.57668,-4.4111,0.0946,-0.27564,-0.13008,3.24291,-12.9581,-3.08408,10.36463,-40.20967,-5.66659,-3.56873,-55.64076,6.1135,6.53649,-1.41538,-2.18112,-3.27469,-5.48476,0.09251,3.54836,-2.88122,-0.92811,1.72587,-3.131,-0.82219,0.53511,-0.38938,-0.2853,0.29382,-0.5178,-0.04022
1234,0.61596,-1.1228,-0.26615,37.73741,-19.91503,-3.32266,11.18674,-3.0972,-1.28806,14.44395,-5.95537,-3.98539,0.13026,-0.25688,-0.01545,2.74893,-11.93546,-2.82405,9.21351,-27.33767,-4.12905,10.08643,-62.60221,6.63553,3.45197,-1.68614,-1.1948,-4.90298,-3.20179,-0.29772,2.31128,-2.99954,-0.65268,1.57097,-3.00608,-0.54577,0.33599,-0.44536,-0.16331,0.32994,-0.63124,0.03248
1235,1.23234,0.26876,0.00211,34.96436,-17.89256,-3.21666,9.27992,4.76128,0.37729,16.29711,0.43408,-2.69095,0.27855,-0.3138,0.08011,2.13592,-10.61334,-2.38489,8.56273,-7.27386,-1.26249,23.50696,-57.92801,6.77789,-1.76174,0.45076,0.257,-6.62647,-0.444,-0.81422,0.41046,-2.15686,-0.2374,0.59081,-2.1326,-0.48938,0.0725,-0.3413,-0.0109,0.01776,-0.43175,-0.09204
1236,1.62894,0.38256,0.28798,33.03309,-16.93398,-3.01599,6.71486,5.30872,2.30383,22.80633,4.09369,-2.04144,0.47495,-0.45004,0.10203,1.38885,-9.24526,-1.95905,9.39887,-1.4913,1.10279,23.64587,-47.41288,6.12384,-3.52296,3.41173,0.77611,-7.40165,0.53289,-1.03833,-0.08129,-0.8182,-0.07083,-0.36977,-1.32546,-0.72944,-0.00671,-0.09388,0.01896,-0.33541,-0.10976,-0.2835
1237,2.1664,-0.50272,0.4212,29.59851,-17.14984,-2.49324,6.971,-1.92093,2.78653,22.83512,1.762,-1.83231,0.55241,-0.44014,0.12019,0.56284,-7.95111,-1.69753,7.81707,-15.35221,2.46041,11.44909,-40.57881,4.58918,-0.42022,3.83468,-0.00394,-6.73839,-0.27918,-1.09735,1.02682,-0.38578,-0.21866,-0.5998,-1.38128,-1.0991,0.11617,0.02509,-0.06925,-0.4495,-0.01497,-0.42789
1238,2.48027,-0.71146,0.32145,24.24038,-16.52714,-1.89228,9.13993,-8.99884,1.23304,14.39701,-1.93298,-1.02188,0.40431,-0.18621,0.16183,-0.2877,-6.74102,-1.608,3.06429,-31.35408,3.49431,1.73021,-40.30465,4.98369,3.36591,2.47346,-1.00576,-4.78133,-1.27295,-0.94644,2.19007,-0.89717,-0.36224,-0.04696,-1.92279,-1.11735,0.27077,-0.06645,-0.14927,-0.31273,-0.16469,-0.42519
1239,1.5777,-0.87442,-0.01248,19.44127,-13.97842,-1.79622,8.02144,-10.73269,-1.03185,6.10135,0.27451,-0.31639,0.19166,-0.07221,0.08949,-1.13438,-5.57674,-1.59859,-3.24875,-28.98852,3.82447,7.42704,-44.10466,6.29969,4.16722,1.37183,-1.34692,-3.20561,-1.25533,-0.59994,2.38057,-1.66774,-0.40194,0.81519,-2.29406,-0.68704,0.33687,-0.2557,-0.17154,-0.05566,-0.39529,-0.26635
1240,-0.32881,-1.36659,-0.38726,15.95221,-11.75148,-2.0285,2.59984,-5.89401,-2.02183,2.21012,4.22603,-1.17824,0.12909,-0.32634,-0.12785,-1.93053,-4.43753,-1.65174,-11.10892,-11.98015,1.36683,23.4886,-46.18359,4.00165,3.25675,0.11934,-1.27513,-2.52497,-0.60101,-0.08629,2.15392,-2.52102,-0.46942,1.66107,-2.29658,-0.03425,0.36959,-0.453,-0.18028,0.22294,-0.54695,-0.00988
1241,-2.04265,-0.82513,-0.52373,13.21137,-11.87024,-1.90689,-3.46264,2.42777,-1.36915,2.79394,0.96738,-2.67663,0.16456,-0.57484,-0.3036,-2.55431,-3.27638,-1.69707,-17.07364,-2.15578,-4.09084,34.11934,-40.14786,-2.50422,3.3199,-2.03956,-1.22024,-1.6716,0.2318,0.46421,2.22269,-3.19479,-0.51957,2.22911,-1.71417,0.63224,0.42676,-0.5613,-0.18359,0.41892,-0.43069,0.24413
1242,-2.00053,0.99156,-0.29368,10.75576,-12.90698,-1.30208,-5.10115,8.37693,-0.04259,5.2354,-6.34265,-2.77887,0.21894,-0.46926,-0.25371,-3.05025,-1.98847,-1.58823,-17.18373,-5.57776,-7.89695,29.55715,-27.00111,-7.5131,3.681,-3.62706,-1.01104,-1.11643,1.81238,0.58664,2.01236,-3.01008,-0.38416,2.04268,-0.47981,1.01626,0.34893,-0.45321,-0.12001,0.4287,-0.04859,0.35436
1243,-0.22301,2.33362,0.09078,9.0105,-12.44679,-0.65248,-0.86802,8.67567,0.89957,7.50927,-7.81463,-1.06484,0.27437,-0.17153,-0.03891,-3.50035,-0.58786,-1.25191,-10.70674,-9.33729,-5.84422,14.16207,-15.96353,-5.01854,2.40506,-2.08806,-0.42003,-1.61689,3.68398,0.17036,0.91918,-1.56821,-0.03284,1.05466,0.80093,0.91702,0.02732,-0.09957,0.03053,0.26455,0.30243,0.27576
1244,1.21182,1.60855,0.27782,8.76168,-10.89608,-0.2169,4.17808,3.36441,1.00784,10.1181,-3.49152,1.28869,0.28073,-0.03731,0.11889,-3.80954,0.6175,-0.79314,-1.8772,-9.38788,0.58768,2.60464,-14.61599,3.21375,-0.20357,2.09855,0.29089,-2.01627,3.20655,-0.20473,-0.39778,0.32449,0.27922,-0.02812,0.97239,0.39087,-0.30115,0.25626,0.15099,0.03562,0.32486,0.09744
1245,1.34243,-0.8597,0.2352,8.88494,-10.77304,0.18392,5.51443,-5.1589,0.96869,11.83435,-2.88124,2.8675,0.28359,-0.19806,0.12069,-3.96898,1.30701,-0.48116,3.25378,-15.4238,6.88862,4.27423,-21.54783,8.94786,-2.25657,4.67774,0.58076,-1.23581,-0.67379,-0.03469,-0.97968,1.05356,0.17983,-0.38478,-0.45371,-0.23366,-0.33925,0.25941,0.09508,-0.12025,0.02563,-0.04513
1246,1.13396,-3.08345,0.17204,6.94178,-12.40858,0.65767,4.51631,-11.73218,1.35736,10.36019,-10.60688,3.13322,0.33743,-0.46349,0.04838,-4.16047,1.58978,-0.51547,3.96774,-29.91168,9.04744,12.32093,-28.84599,7.50882,-2.22549,2.50999,0.24095,-0.26178,-4.43377,0.45347,-0.53876,-0.00066,-0.29072,0.02762,-2.15642,-0.51914,-0.08443,-0.07647,-0.08458,-0.1357,-0.29147,-0.0861
1247,1.28076,-3.58417,0.13333,2.43664,-13.2251,0.95535,4.57174,-13.70825,1.31715,5.82228,-20.45507,2.52726,0.35458,-0.54235,0.00842,-4.45637,1.83148,-0.80837,2.72382,-43.88164,6.28049,14.33902,-29.45129,2.61793,-0.1424,-2.25063,-0.36713,0.00502,-4.52086,0.75017,0.52247,-1.70121,-0.61789,0.69555,-2.52171,-0.26967,0.21217,-0.35309,-0.18088,-0.04269,-0.3752,-0.0322
1248,1.50878,-2.69053,0.04559,-2.9669,-11.46252,0.8966,6.12743,-13.81527,0.0885,-1.19227,-24.21149,1.6792,0.26646,-0.36774,0.02829,-4.752,2.16333,-1.13032,-2.27276,-50.19786,2.0503,7.5412,-23.88386,0.95049,2.54335,-4.43051,-0.68398,0.21253,-2.12978,0.68838,1.52566,-2.36803,-0.38855,1.19574,-1.76242,0.24076,0.3544,-0.29197,-0.09848,0.09019,-0.27395,0.0798
1249,1.71957,-1.50298,-0.00792,-7.67869,-8.09743,0.64382,7.5963,-12.96432,-1.14394,-10.01975,-20.82759,0.94658,0.18288,-0.16538,0.07562,-4.94832,2.45177,-1.34313,-11.53354,-46.18143,-0.22889,0.3561,-20.18912,4.41993,3.81032,-2.17883,-0.41102,0.46232,-0.64283,0.42507,1.87873,-1.63752,0.20373,1.11867,-1.1531,0.4561,0.3314,-0.03367,0.06551,0.14377,-0.1786,0.14917
1250,1.79116,-0.81811,0.06986,-10.682,-4.98374,0.39815,7.13397,-8.99862,-0.75764,-17.07945,-14.29583,0.35086,0.22183,-0.16717,0.0919,-4.98888,2.60675,-1.39424,-19.26171,-31.6065,-0.53879,0.13788,-23.33487,8.86598,2.39804,1.28551,0.20644,-0.42197,-1.08572,0.17967,1.34486,-0.74975,0.50245,0.24681,-1.20529,0.07554,0.20465,0.10714,0.15519,-0.0,-0.17735,0.0658
1251,1.08614,-0.77537,0.14215,-11.3526,-3.49495,0.24932,4.05984,-3.36622,0.79042,-18.03794,-10.18472,-0.23405,0.31154,-0.3176,0.03415,-4.85087,2.64385,-1.28609,-20.0075,-15.8203,-0.75473,3.23161,-28.39097,8.93405,-0.69509,1.78336,0.45459,-2.37564,-2.14665,0.14416,0.27779,-1.00632,0.06346,-0.80306,-1.56012,-0.54823,0.05607,-0.01871,0.09193,-0.24683,-0.23364,-0.11366
1252,0.05639,-0.96015,0.07025,-9.99882,-4.09817,0.25196,1.72648,-1.13482,1.5128,-13.27018,-13.15686,-0.59581,0.33914,-0.39407,-0.04733,-4.56948,2.56532,-1.09945,-13.5415,-14.44621,-2.02352,3.60084,-28.16913,3.45081,-3.19184,-1.32831,-0.00848,-2.81644,-2.35233,0.31548,-0.64047,-2.27515,-0.86189,-0.85153,-1.51581,-0.6726,-0.04117,-0.31015,-0.08061,-0.28409,-0.23168,-0.17701
1253,-0.38159,-1.27225,-0.14697,-7.82291,-5.5099,0.3321,2.21278,-4.70127,0.27939,-8.13067,-20.11828,-0.37956,0.2891,-0.34564,-0.08942,-4.23216,2.37356,-0.95217,-7.60714,-28.93978,-3.75645,2.87319,-21.09951,-2.8802,-3.75246,-3.85823,-0.46535,-0.43028,-1.40863,0.4436,-0.82786,-2.9794,-1.40357,0.28115,-0.80747,-0.11335,-0.04394,-0.48229,-0.21131,-0.02568,-0.10598,-0.05247
1254,-0.36372,-1.52809,-0.35698,-5.97273,-5.72265,0.27269,2.39429,-9.03223,-1.77436,-6.74354,-21.75762,0.0802,0.21211,-0.26368,-0.07521,-3.94757,2.14219,-0.91094,-10.29811,-39.479,-4.83655,3.06463,-13.50844,-2.87279,-2.28137,-1.41936,-0.13542,2.06533,-0.52953,0.4613,-0.13224,-2.12743,-0.90322,1.36089,-0.35605,0.51372,0.04558,-0.35923,-0.17366,0.20135,-0.00628,0.10313
1255,-0.22199,-1.58513,-0.3607,-4.98424,-4.17329,-0.01926,-0.14357,-8.98654,-2.59366,-8.48203,-14.20761,-0.06771,0.20871,-0.24693,-0.01969,-3.76698,1.99321,-0.92983,-19.1821,-30.63472,-4.57577,1.84041,-16.512,5.15992,0.64593,4.36569,0.55879,1.58926,-0.78663,0.57009,0.95422,-0.6604,0.27294,1.32207,-0.99992,0.65614,0.15097,-0.08088,-0.01131,0.14185,-0.08927,0.15314
1256,-0.35393,-2.01009,-0.26138,-4.5813,-2.10762,-0.3585,-4.42437,-7.7001,-1.88819,-9.23125,-4.33018,-0.83977,0.29199,-0.37703,-0.01916,-3.60654,1.94955,-0.9065,-24.91204,-14.11511,-2.99981,1.07519,-29.58558,12.94096,3.37219,7.24656,0.71146,-0.98005,-1.43329,0.67915,1.6266,-0.00981,1.09543,0.55787,-2.05319,0.4125,0.20265,0.11161,0.12514,-0.02687,-0.27017,0.12196
1257,-0.55204,-2.40901,-0.21388,-4.25987,-1.38814,-0.49205,-6.25077,-7.5314,-0.83105,-5.73961,-2.45506,-1.36435,0.37741,-0.56379,-0.09887,-3.36022,1.85207,-0.84289,-19.7809,-9.32498,-1.93079,6.66971,-34.20496,9.78714,3.60454,4.01181,0.21619,-2.39576,-0.41467,0.24924,1.36695,-0.38659,0.87607,0.23488,-2.00215,0.20821,0.19221,0.12742,0.14715,-0.02669,-0.29054,0.08059
1258,-0.243,-1.98724,-0.20535,-3.88069,-2.41687,-0.42919,-3.5984,-5.24945,-0.31898,0.64404,-9.30415,-1.34383,0.43324,-0.63828,-0.15372,-3.02641,1.56763,-0.81516,-5.93655,-14.98806,-4.02044,16.10946,-21.56874,-3.18394,1.04058,-1.67054,-0.3294,-1.92838,1.96895,-0.56683,0.39126,-0.94289,-0.0598,0.50513,-0.80861,0.17417,0.11268,0.04908,0.08725,0.07503,-0.08705,0.04055
1259,-0.17625,-1.50039,-0.28452,-4.02041,-3.61439,-0.32884,-1.71444,-2.54297,-0.90818,3.94907,-15.83278,-1.07927,0.4227,-0.56135,-0.14047,-2.68878,1.18163,-0.84514,2.04502,-21.24292,-8.39344,17.8697,-8.92932,-11.74966,-1.80166,-4.01652,-0.41005,-1.32194,2.0406,-0.46809,-0.50545,-0.94739,-0.7247,0.6272,-0.29515,0.22282,-0.03582,0.01984,0.02252,0.06326,0.04251,0.02179
1260,-0.72475,-1.47327,-0.37726,-4.93915,-3.24027,-0.24951,-4.10451,-4.23552,-2.19842,-0.14709,-15.21368,-0.70992,0.32596,-0.39467,-0.08486,-2.38659,0.89097,-0.85604,-5.9008,-25.64503,-10.21491,9.41438,-10.95328,-6.56056,-2.70828,-1.52057,-0.00873,-1.52839,-1.46737,1.07761,-0.7392,-0.40633,-0.6178,0.39563,-1.31869,0.34268,-0.17122,0.09909,-0.00329,-0.0338,-0.11426,0.05863
1261,-1.4301,-1.15083,-0.36076,-5.43939,-1.52026,-0.21301,-9.27487,-7.01121,-2.98448,-7.84866,-8.72579,-0.51614,0.23465,-0.28495,-0.04892,-2.06094,0.74415,-0.75958,-24.54897,-23.74351,-8.11495,5.68134,-19.34838,4.46499,-1.60128,3.04822,0.51249,-2.38168,-4.58471,2.56858,-0.24726,0.08591,-0.03452,0.12089,-2.57907,0.46354,-0.1515,0.1851,0.01537,-0.07256,-0.38494,0.12194
1262,-2.82398,-0.28091,-0.42637,-1.96932,1.17312,0.01396,-15.80563,-5.24642,-3.27559,-8.1975,0.15128,-0.18371,0.16147,-0.30374,-0.1219,0.12948,-0.20073,-0.07055,-36.5714,-9.80932,-5.31257,19.46797,-23.06922,7.25769,-0.1794,6.0953,0.75633,-3.23569,-3.68058,2.32654,0.42659,0.03977,0.3695,0.02244,-2.69197,0.44182,0.01288,0.15948,0.0464,-0.03397,-0.50006,0.14444
1263,-4.56749,0.41263,-0.65105,-2.35948,1.56164,0.03049,-19.02832,-1.32753,-3.44168,-11.71867,3.64617,-0.11594,0.03915,-0.33176,-0.26191,0.05801,-0.14429,-0.07224,-46.41476,1.8097,-3.95668,41.29419,-24.90434,-0.59734,-0.00327,5.14049,0.63956,-3.18826,-0.1668,0.67095,0.69154,-0.62878,0.25916,0.21442,-1.7541,0.28027,0.16271,0.01405,0.06571,0.03488,-0.39852,0.10112
1264,-4.97029,0.2893,-0.73622,-2.99817,2.18565,0.01337,-14.71368,-0.44926,-2.56145,-12.56955,7.15825,-0.0399,-0.05109,-0.32665,-0.33664,0.01841,-0.12814,-0.08144,-38.7276,9.32045,-0.96324,49.13173,-27.96056,-8.42837,-0.3325,0.81549,0.39611,-2.10829,1.98437,-0.62815,0.69067,-1.70557,0.02324,0.55178,-0.74511,0.119,0.22624,-0.16727,0.09411,0.08084,-0.17512,0.02073
1265,-4.1154,0.04779,-0.53588,-3.11838,2.01715,-0.01047,-7.2976,-1.90632,-0.40608,-10.50202,7.3643,-0.49414,-0.0419,-0.32764,-0.31633,0.09299,-0.22068,-0.04883,-20.65081,8.25773,2.07642,34.56049,-26.59681,-7.13234,0.09317,-2.81774,0.07719,-0.91186,0.92609,-0.48953,0.68436,-2.50863,-0.06377,0.65277,-0.48933,0.09398,0.20473,-0.23888,0.10051,0.04663,0.02061,-0.04126
1266,-3.36448,0.99851,-0.2548,-2.23718,0.2383,0.02022,-2.79293,-1.04393,1.47848,-5.73377,0.69572,-1.14064,-0.0192,-0.28364,-0.26601,0.22382,-0.41376,-0.00362,-4.66052,-1.50893,1.56561,13.39652,-22.06355,-0.81071,-0.09185,-2.99326,-0.64318,-0.69308,-0.95721,0.26516,0.29869,-2.56016,-0.67276,0.37358,-0.86753,0.18917,0.05712,-0.17896,-0.06003,-0.04349,0.07232,-0.04425
1267,-3.7708,3.12604,-0.20325,-0.80542,-1.06563,0.0148,-3.73744,3.8321,1.42948,-1.21153,-5.57987,-1.36667,-0.06723,-0.17162,-0.26728,0.31581,-0.55529,0.03017,-1.40509,-7.66496,-2.46604,8.26983,-24.95803,1.36212,-2.3606,-0.75711,-1.46857,-1.96153,-0.32413,0.30259,-0.50436,-2.15979,-1.90874,-0.12842,-1.09792,0.2357,-0.14513,-0.11637,-0.33268,-0.10654,-0.01154,0.00175
1268,-6.02268,5.27859,-0.50619,0.70256,-0.68796,-0.05262,-11.09198,8.8583,-0.91903,1.7891,-5.22669,-0.89898,-0.22481,-0.01011,-0.34887,0.39037,-0.58165,0.06459,-11.20296,-2.64219,-6.77489,21.34224,-32.84309,0.13655,-4.48671,2.41188,-1.21375,-3.95978,2.11261,-0.22389,-0.85822,-1.57716,-2.23105,-0.56187,-0.93307,0.16693,-0.19315,-0.08093,-0.35546,-0.1033,-0.12927,0.05214
1269,-9.30844,6.86468,-0.91969,1.7607,0.035,-0.0607,-20.93095,9.74995,-4.00262,4.30274,-2.10694,0.14488,-0.50035,0.27377,-0.44142,0.46049,-0.53795,0.08411,-22.02997,4.97692,-7.97143,32.8518,-32.71453,2.5445,-3.31592,5.28421,0.31681,-5.12114,2.85779,-0.24057,-0.2544,-1.03227,-0.75905,-0.66448,-0.84562,0.10536,-0.02344,-0.05815,-0.03362,-0.05374,-0.20323,0.07305
1270,-11.27207,8.00101,-1.06902,1.4699,0.45262,-0.016,-25.87014,7.94582,-5.48736,5.71403,-1.18801,0.97927,-0.77305,0.67556,-0.46413,0.40609,-0.39916,0.0417,-24.52097,6.4378,-6.26785,29.24248,-27.08758,6.79048,0.12759,5.35489,1.52205,-4.77404,1.50756,0.26803,0.58361,-1.00235,0.9798,-0.38529,-1.03898,0.13723,0.1604,-0.10303,0.2445,0.0082,-0.23268,0.06664
1271,-10.06701,8.03204,-0.85782,0.20869,1.09968,-0.01698,-22.83163,7.12267,-4.68326,6.57986,-3.10253,1.15417,-0.79488,0.88854,-0.40079,0.21077,-0.15616,-0.03619,-17.47105,2.18988,-5.23305,18.58567,-28.39852,4.92283,2.13852,2.10946,1.17027,-3.58759,0.33894,0.53342,0.7441,-1.44466,1.2098,0.02808,-1.30097,0.22573,0.1616,-0.19028,0.19571,0.03736,-0.2495,0.05555
1272,-6.37772,6.45956,-0.47274,-0.52873,1.58293,-0.0251,-15.95758,8.40839,-2.90924,7.68918,-5.38464,1.0871,-0.4726,0.63627,-0.25951,0.07338,-0.00712,-0.06204,-7.45546,-0.30918,-6.3714,15.48491,-34.09886,-2.05329,1.52518,-0.42172,0.14343,-2.5457,-0.17556,0.54878,0.32306,-1.50273,0.33599,0.21646,-1.45915,0.30666,0.04143,-0.16111,0.02113,0.01058,-0.23972,0.04795
1273,-3.25321,4.2783,-0.15924,-0.09327,1.21819,-0.01016,-12.19693,9.59289,-1.93636,6.9285,-3.64697,0.7454,-0.0395,0.0807,-0.08721,0.14517,-0.13616,0.0059,-5.95703,5.33812,-7.16386,23.41951,-33.30392,-5.31004,-0.25241,0.85098,-0.10126,-2.2003,-0.52437,0.62721,-0.04432,-0.80596,-0.24797,0.08016,-1.32356,0.3172,-0.0405,0.03322,-0.0014,-0.02707,-0.1622,0.03778
1274,-2.51027,2.62929,-0.00654,0.53694,0.54355,-0.02615,-12.34631,6.65468,-2.09788,2.56347,2.3932,-0.22966,0.21991,-0.3873,0.04698,0.31568,-0.38568,0.10605,-14.02128,11.81103,-5.00453,32.65555,-26.10385,-1.3833,-1.77116,3.15892,0.34336,-2.44307,-0.13366,0.52878,-0.10298,-0.3547,-0.30675,-0.16875,-0.80835,0.22753,-0.04186,0.18069,0.06996,-0.02568,-0.04431,0.02619
1275,-3.2577,2.04773,0.02429,0.16995,0.32058,-0.01988,-12.08113,0.5669,-2.18674,-3.14582,5.78203,-1.01042,0.22177,-0.552,0.07956,0.379,-0.46414,0.13695,-20.7564,6.84947,-1.37871,32.72057,-20.34901,4.44966,-2.45315,3.03042,0.36059,-2.53703,1.2256,-0.00435,-0.04821,-1.02697,-0.53476,-0.25636,-0.1765,0.07135,-0.01142,0.08301,0.03433,0.00591,0.02391,0.01621
1276,-4.23199,2.83409,-0.02697,-0.94316,0.0082,0.09515,-11.25359,-0.27287,-1.48523,-6.09649,0.82733,-0.56662,0.05213,-0.43773,-0.03058,0.30762,-0.40674,0.06412,-20.61866,-4.47572,-0.79666,26.81795,-19.01209,5.39729,-2.42091,1.53937,-0.28393,-1.7651,2.5244,-0.70924,-0.03967,-2.24818,-1.12369,-0.00755,0.08,-0.01624,0.02798,-0.19178,-0.11098,0.0415,-0.02783,0.02062
1277,-5.01035,4.6354,-0.12835,-1.70107,-1.01539,0.23997,-13.87131,8.37789,-1.21967,-5.53978,-8.5479,0.51642,-0.12633,-0.16013,-0.20999,0.21304,-0.4229,-0.04483,-20.74539,-6.56456,-5.04155,25.43884,-20.89559,1.56829,-2.04679,0.92253,-0.58572,-1.12034,2.36925,-0.84188,0.03503,-2.83306,-1.30425,0.22547,-0.42341,0.11905,0.09134,-0.39383,-0.15189,0.03457,-0.18354,0.06242
1278,-5.76235,6.25798,-0.25769,-2.00465,-1.67693,0.29041,-20.67628,17.8456,-2.9057,-4.83612,-12.59247,1.05112,-0.22803,0.15169,-0.32945,0.12839,-0.4476,-0.10646,-29.34744,2.40358,-10.09918,28.71821,-26.55074,-0.52761,-1.53245,1.04775,0.05129,-2.40675,0.56914,0.11462,0.2063,-2.24896,-0.56476,-0.1125,-1.31997,0.38271,0.13727,-0.32953,0.00385,-0.04335,-0.30023,0.11671
1279,-6.33458,6.37993,-0.35098,-1.61182,-0.49514,0.20361,-25.34207,17.53487,-5.20726,-3.20974,-6.23045,0.88686,-0.28454,0.33875,-0.3468,0.09031,-0.31262,-0.06662,-35.92318,12.61356,-10.48216,26.19688,-33.98717,2.61591,-0.96015,0.95839,0.88671,-4.86347,-1.55757,1.64896,0.30659,-1.12097,0.38805,-0.70517,-1.73708,0.51371,0.10335,-0.0934,0.14266,-0.10218,-0.25088,0.12502
1280,-5.71346,4.78063,-0.32071,-0.30125,1.8414,0.01008,-21.0871,8.83768,-5.33907,0.71855,4.85437,0.28503,-0.28694,0.28276,-0.26738,0.1379,-0.11123,0.03523,-26.73888,17.53492,-6.4074,14.64082,-34.47863,6.93664,-0.25523,0.43236,1.02264,-5.11128,-2.97896,2.59873,0.30522,-0.63999,0.66752,-0.61933,-1.55067,0.51558,0.03563,0.01862,0.07053,-0.04074,-0.11665,0.09371
1281,-3.35076,2.62792,-0.20852,0.54075,2.79474,-0.18915,-9.73481,0.45065,-3.17456,1.37258,9.67939,-0.63962,-0.16928,0.01921,-0.10221,0.16588,-0.06066,0.04217,-11.92538,13.68211,-2.94438,6.96054,-23.96216,6.68076,0.67668,-0.33638,0.54497,-2.14288,-3.60729,2.37951,0.2928,-1.15371,0.38122,0.17284,-1.47145,0.60239,0.01758,-0.09564,-0.08934,0.07074,-0.08036,0.08398
1282,-1.09347,1.41918,-0.14121,-0.19565,1.39678,-0.29017,-1.0458,-2.551,-1.04825,-3.44958,5.50201,-1.21976,-0.00503,-0.29217,0.02848,0.08439,-0.20874,-0.13345,-8.58795,3.57831,-2.49191,12.63187,-13.58321,1.45609,1.16386,-1.07462,-0.01107,0.29706,-2.8142,1.30942,0.20375,-1.87678,0.0033,0.65057,-1.74526,0.71196,0.02423,-0.24668,-0.12429,0.10425,-0.18047,0.10915
1283,-1.38347,1.438,-0.06981,-0.96137,-0.46665,-0.26417,-2.2542,-2.09263,-0.38008,-5.23412,-0.36692,-0.62921,0.02719,-0.51011,-0.0155,0.03742,-0.41882,-0.31455,-14.03619,-4.45023,-2.56993,21.29904,-15.89582,-3.21424,0.4294,-1.11752,-0.27661,-0.9337,-0.13062,0.07473,0.03116,-2.17458,-0.2812,0.32277,-1.81693,0.57703,0.02088,-0.27772,-0.00915,0.08679,-0.29194,0.12376
1284,-3.29297,1.08833,0.19002,0.13255,-0.67386,-0.10683,-9.76505,-4.29732,-0.34138,1.31491,-2.35435,0.61002,-0.06045,-0.63484,-0.14191,0.19764,-0.49749,-0.21255,-15.35491,-9.63177,-0.50534,20.28052,-24.57599,-1.84365,-0.88849,0.8104,0.02098,-3.89055,2.79393,-0.71353,0.0026,-1.94249,-0.29571,-0.28942,-1.3431,0.21324,0.04526,-0.18636,0.15163,0.07869,-0.29173,0.09516
1285,-3.86487,-1.18957,0.65666,2.01992,0.53667,0.12461,-14.93433,-11.51631,0.21488,8.97148,-1.55507,1.07901,-0.08228,-0.77545,-0.12862,0.44065,-0.37886,0.14587,-10.59408,-16.68607,2.8664,14.64076,-24.36637,3.98707,-1.56664,3.96462,0.56781,-5.03547,3.40772,-0.7794,0.20241,-1.40729,-0.14748,-0.7445,-0.85166,-0.03352,0.10404,-0.05312,0.2074,-0.00772,-0.2059,0.04775
1286,-2.23609,-3.89926,1.01816,-2.12911,-3.87129,-0.84122,-13.48175,-16.71397,1.03203,4.07922,-10.51139,-0.75404,0.03117,-0.94294,0.07044,-4.01898,0.87595,-0.80914,-15.16092,-32.30455,2.01704,15.92448,-15.28867,7.01005,-1.21403,4.59648,0.60772,-4.0812,1.43295,-0.29744,0.42492,-1.10988,-0.1678,-1.02909,-1.00047,0.02927,0.1476,0.01336,0.11283,-0.20247,-0.16266,0.02104
1287,0.30133,-4.0717,0.87836,-5.44759,-5.70559,-1.34754,-6.11162,-12.86899,1.44241,-3.91815,-12.76952,-1.86097,0.19037,-0.98588,0.31457,-6.72482,2.11807,-1.32265,-18.60129,-29.85768,-0.22816,22.71407,-8.27219,3.67167,-0.10721,1.26121,0.18471,-3.36333,-1.16465,0.46475,0.47396,-1.20653,-0.14548,-1.18261,-1.503,0.16017,0.13827,0.01054,0.0405,-0.34776,-0.17833,0.00445
1288,2.21734,-2.4451,0.4371,-8.73768,-7.92039,-1.94069,2.79602,-6.12716,1.76172,-10.51762,-16.41877,-2.39477,0.29291,-0.87247,0.46499,-9.94352,3.66892,-1.96062,-19.46794,-26.81222,-2.64755,22.62036,-6.34059,-1.74741,0.79186,-2.47512,0.0143,-3.87422,-2.21992,1.1611,0.33235,-1.52352,0.16077,-1.11205,-1.22954,0.0334,0.08089,-0.04061,0.08779,-0.29877,-0.08203,-0.03626
1289,2.73006,-2.30005,0.32704,-10.81185,-9.32402,-2.47669,7.45575,-6.29447,2.42004,-10.98425,-21.50737,-2.54219,0.29729,-0.7944,0.48926,-13.50933,5.72409,-2.45858,-15.33534,-34.0228,-3.25323,9.08027,-4.96023,-2.86369,-0.05221,-2.39012,0.1447,-4.38177,-0.98988,1.23611,0.01329,-1.80811,0.14982,-0.80339,-0.00106,-0.2501,-0.01485,-0.13775,0.07136,-0.10479,0.15281,-0.07436
1290,1.94977,-3.53851,0.58566,-12.85812,-9.57489,-3.00844,5.23557,-10.16016,2.56588,-9.08962,-25.54037,-2.78825,0.21635,-0.82984,0.41094,-17.56308,8.34535,-2.88866,-14.9549,-42.65956,-4.25338,-5.26717,-2.60233,1.5631,-1.90149,1.3701,0.26565,-3.67075,0.89297,0.61157,-0.31122,-1.72883,-0.32237,-0.43106,0.74371,-0.2819,-0.107,-0.19974,-0.06991,0.05068,0.26524,-0.04935
1291,0.55226,-3.23653,0.63789,-15.69043,-9.41813,-3.66092,-1.33983,-8.94194,1.30595,-9.48173,-27.63793,-3.59071,0.10969,-0.81022,0.25201,-22.18412,11.3598,-3.39146,-25.39178,-41.62997,-7.89179,1.75873,-5.41123,6.34646,-1.39682,3.7473,0.52274,-2.31778,1.1402,0.1305,-0.21955,-1.62802,-0.20328,-0.11086,0.00848,0.07002,-0.08721,-0.21223,-0.10965,0.08408,0.10414,0.03558
1292,-0.37138,-1.13011,0.2743,-18.25856,-9.04815,-4.38362,-6.01664,-4.35182,-0.30136,-10.70766,-28.64262,-5.0655,0.06616,-0.64018,0.09436,-27.08734,14.58537,-3.85453,-38.50465,-36.20925,-11.60573,29.99237,-18.91634,6.07076,1.70848,0.99679,0.5561,-2.00464,-0.53765,0.56111,0.25635,-1.79723,0.49355,0.06735,-1.58532,0.54753,0.03627,-0.19145,-0.02055,0.04914,-0.20113,0.13034
1293,0.10823,-0.41586,0.0133,-20.18177,-7.65667,-4.95672,-3.96646,-6.13454,-0.07305,-10.5192,-27.80713,-6.52401,0.12517,-0.4833,0.07737,-31.90138,18.02424,-4.10739,-42.00971,-37.81264,-10.4134,48.85962,-31.38096,1.26815,3.06063,-3.95309,-0.30306,-3.15312,-2.18435,1.36329,0.5346,-1.8787,0.2804,-0.11196,-2.7298,0.75933,0.12292,-0.13968,-0.02147,-0.03012,-0.43875,0.17915
1294,1.69683,-2.41473,0.20297,-22.625,-5.31689,-5.24033,2.75867,-15.2175,2.03067,-11.08162,-25.3437,-6.93875,0.22034,-0.46456,0.2106,-36.5149,21.76899,-4.174,-38.09166,-46.96061,-4.81595,36.83937,-23.85414,-3.58492,0.95049,-5.9211,-1.24217,-3.90808,-2.02673,1.38121,0.45107,-1.86135,-0.74836,-0.46036,-2.7027,0.5708,0.13897,-0.14744,-0.08755,-0.126,-0.47418,0.14295
1295,2.95034,-4.09284,0.39777,-26.36717,-2.94545,-5.32773,7.65532,-19.77452,3.33854,-14.94459,-22.89596,-6.29379,0.24966,-0.45111,0.30908,-41.00868,25.71217,-4.18753,-38.76823,-50.87296,-1.82578,10.56105,-3.30723,-5.62434,-1.21368,-4.45866,-1.187,-3.33574,-0.90899,0.70249,0.29849,-1.97007,-1.103,-0.6136,-2.04758,0.22566,0.12983,-0.25622,-0.07318,-0.17691,-0.33249,0.04139
1296,2.89617,-3.14942,0.23421,-30.78436,-0.31458,-5.37176,7.41366,-13.36434,2.48884,-20.48847,-19.25278,-5.61772,0.19746,-0.35731,0.27187,-45.39777,29.49326,-4.17555,-48.5326,-40.1531,-5.01989,-1.69258,3.57058,-4.1867,-0.78025,-2.27679,-0.38024,-2.90345,-0.73337,0.3675,0.21506,-2.09255,-0.4627,-0.64115,-1.69552,-0.03953,0.09186,-0.33561,-0.0172,-0.17218,-0.16915,-0.05645
1297,2.26254,-1.39689,0.0335,-34.45564,3.45166,-5.33529,4.98909,-4.64485,1.28754,-24.22262,-12.24698,-5.36546,0.15219,-0.30929,0.22992,-49.55082,32.7839,-4.02331,-60.49099,-22.21823,-9.05825,4.14881,-7.35754,-0.57117,0.63657,-0.31442,0.45603,-3.47412,-1.30856,0.56921,0.15008,-2.08911,0.32032,-0.6939,-1.75425,-0.17539,0.02519,-0.27661,0.02396,-0.13904,-0.12548,-0.08552
1298,1.86278,-1.19531,0.18766,-36.43905,7.53075,-5.09745,3.82793,-3.55281,1.62499,-24.48748,-5.17661,-5.00514,0.16801,-0.34299,0.266,-53.34145,35.47938,-3.65162,-66.53735,-12.65403,-7.91267,13.50064,-14.61199,1.54931,0.47581,1.28866,0.80817,-3.85595,-0.86494,0.54174,0.07834,-2.0819,0.48461,-0.58513,-1.7515,-0.11667,-0.02217,-0.1799,0.04434,-0.09225,-0.19492,-0.03391
1299,1.47676,-1.93036,0.53945,-36.95665,10.11103,-4.70504,3.81397,-8.15667,3.08916,-21.20407,-3.91896,-4.37829,0.22064,-0.30879,0.2925,-56.79009,37.66609,-3.1146,-64.69631,-16.20807,-3.50616,15.48836,-9.64904,1.21013,-0.5806,1.61264,0.71137,-2.84568,0.99202,-0.08629,0.07567,-2.09487,0.25373,-0.15977,-1.45159,0.15573,-0.01287,-0.17119,0.04751,-0.03447,-0.25011,0.0458
1300,1.46421,-1.32123,0.50345,-37.4722,11.36203,-4.34084,5.04965,-9.37666,4.06715,-16.93299,-6.78962,-4.20486,0.30125,-0.13713,0.28782,-60.02729,39.42072,-2.55061,-58.64421,-20.40662,-1.73149,13.19515,-5.38811,1.19645,-0.19572,0.64587,0.64812,-1.13972,2.48433,-0.67605,0.18277,-1.93863,0.36774,0.3001,-0.97257,0.40719,0.03271,-0.21571,0.07234,0.03127,-0.19064,0.08785
1301,3.00184,0.96093,-0.14454,-39.51377,13.10685,-4.06982,9.78683,-3.75932,3.71931,-16.32724,-6.18256,-4.71309,0.4408,0.01989,0.39439,-63.07885,40.6634,-2.07276,-52.26914,-13.27957,-4.03651,18.39314,-7.74953,1.57922,1.49369,-1.17786,0.68726,-0.87181,1.54318,-0.23096,0.30459,-1.7614,0.79896,0.30413,-0.68508,0.35594,0.07116,-0.25021,0.13006,0.07104,-0.05238,0.07566
1302,6.06158,2.4222,-0.82969,-43.3753,15.81071,-3.70637,17.89759,1.80937,2.54284,-21.84153,0.21351,-4.58725,0.64847,-0.04547,0.70478,-65.73504,41.35511,-1.67008,-49.20716,-1.31993,-6.23582,31.18939,-8.76649,-0.1247,1.97521,-3.9388,0.39843,-2.93061,-1.60461,1.2752,0.32258,-1.90687,0.77122,-0.24531,-0.92135,0.03042,0.07881,-0.2773,0.15322,0.03966,0.0365,0.04495
1303,8.97486,1.09705,-0.89958,-48.24699,18.02806,-3.05927,24.47548,-1.20408,1.72793,-31.65878,8.19716,-2.49194,0.86766,-0.35129,1.07796,-67.81562,41.70555,-1.24425,-55.11608,1.44242,-3.5779,36.15015,-6.08136,-3.16621,0.05218,-6.02541,-0.26858,-5.19633,-4.03037,2.40694,0.2243,-2.19071,-0.00765,-0.85243,-1.42523,-0.26806,0.05983,-0.28565,0.08475,-0.05362,-0.00534,0.0274
1304,10.18725,-1.66228,-0.47485,-53.77047,18.66294,-2.30589,24.68152,-9.94011,1.74648,-44.32382,14.82193,0.2412,0.97847,-0.69737,1.23219,-69.58028,41.92827,-0.78128,-74.45958,-2.34041,2.30642,27.00797,-6.29073,-4.40042,-2.34603,-4.78444,-0.7273,-5.33087,-3.60058,1.94664,0.13222,-2.24105,-0.86292,-1.06164,-1.73654,-0.36396,0.04277,-0.25962,-0.02152,-0.16137,-0.16053,0.00621
1305,9.41005,-3.25008,-0.11855,-59.74133,18.05063,-1.88743,18.69958,-12.45545,1.82064,-59.38184,20.7089,0.34588,0.86577,-0.93279,1.00981,-71.48763,41.83505,-0.37146,-102.86085,3.99148,3.8771,14.89515,-10.97898,-3.4807,-2.59297,-1.35648,-0.60144,-3.74857,-1.58934,0.52924,0.18041,-2.17341,-1.01399,-0.8879,-1.92051,-0.30761,0.0522,-0.22242,-0.05285,-0.23155,-0.34139,-0.03406
1306,9.61257,-1.4844,-0.21483,-64.5649,16.41609,-1.93651,14.60187,-2.92198,0.87197,-71.81297,23.97644,-2.72374,0.88177,1.81326,0.35965,-73.52653,40.9986,-0.04684,-120.92555,23.43706,-2.24025,7.96251,-14.2635,-3.02674,-0.74016,-0.12031,-0.20175,-2.53518,0.14934,-0.5501,0.34735,-2.27335,-0.47544,-0.65648,-1.99668,-0.26669,0.08032,-0.20245,0.01106,-0.24218,-0.38386,-0.08103
1307,7.92426,0.31896,-0.53824,-67.6531,14.02317,-1.97319,9.23923,5.36406,-0.73745,-77.70702,21.49618,-5.06499,0.69568,3.31577,-0.30134,-75.35876,39.52053,0.23722,-131.1955,32.82943,-9.23588,5.10218,-13.5885,-3.94454,0.89945,-1.96858,0.08906,-2.46965,1.87911,-0.94386,0.50246,-2.54229,0.10232,-0.47649,-1.38996,-0.29366,0.10388,-0.21387,0.07004,-0.18002,-0.13877,-0.11188
1308,6.55996,3.07105,-1.16891,-70.35014,11.97904,-1.50068,6.85912,7.54687,-2.5283,-79.41263,16.5487,-3.40881,0.61813,5.54341,-0.85534,-76.85337,37.96734,0.53533,-133.04938,28.26277,-10.47014,6.45441,-13.05711,-3.45744,1.14283,-3.21307,0.2367,-2.38284,3.16986,-0.70343,0.56179,-2.77972,0.28819,-0.10106,-0.2432,-0.17232,0.11145,-0.25265,0.04759,-0.02409,0.22703,-0.08196
1309,5.97356,5.26302,-1.44258,-73.72587,10.61899,-0.73973,6.56192,4.34191,-2.35342,-81.34717,15.55476,0.31001,0.733,8.18654,-1.26073,-78.06018,36.47554,0.83615,-131.79431,20.47714,-4.86402,12.63514,-14.01496,0.1503,0.89884,-2.15274,0.26484,-1.61323,1.7684,0.23797,0.52349,-2.87638,0.17841,0.41697,0.0148,0.16357,0.10439,-0.30862,-0.01724,0.15083,0.26654,0.02567
1310,6.42971,6.17299,-1.18946,-78.04516,9.03268,-0.26114,8.16012,0.93088,-0.01651,-87.1327,19.9193,2.13612,1.00079,10.7815,-1.60909,-79.12231,34.83607,1.02999,-132.06288,20.25523,2.59651,19.90758,-12.72606,4.12488,0.93169,-1.04123,0.19813,-1.03715,-2.06499,1.46156,0.43913,-2.82848,0.08751,0.66139,-1.19923,0.44483,0.09159,-0.35662,-0.02702,0.20245,-0.13526,0.13636
1311,7.62205,7.03418,-1.12431,-82.05756,5.94615,-0.29035,12.03344,2.36841,1.21043,-95.7504,23.02369,1.16384,1.20393,13.33262,-2.05706,-80.18076,33.10416,1.0593,-134.76421,26.38889,4.56173,24.90352,-11.52138,5.16337,0.84612,-1.30262,0.20493,-1.75346,-4.39112,1.95295,0.4234,-2.73898,0.16941,0.3396,-2.42966,0.31418,0.09461,-0.36128,0.04034,0.06585,-0.49557,0.11265
1312,9.35939,8.31361,-1.55868,-84.79375,1.87158,-0.51229,18.33951,6.36513,-0.12748,-105.18666,20.73089,-0.48338,1.29545,16.10139,-2.63008,-81.24281,31.60764,1.00807,-137.3495,29.84948,0.72655,25.18418,-16.06364,3.71706,0.69524,-1.98776,0.32321,-3.39877,-2.58043,1.16771,0.59865,-2.92056,0.30786,-0.31035,-2.28228,-0.18803,0.14049,-0.35104,0.09312,-0.14717,-0.38352,-0.04731
1313,10.79222,9.27058,-1.98448,-86.75217,-1.69975,-0.52321,23.49209,6.05218,-1.40224,-115.03107,16.99999,-0.83246,1.45085,19.17949,-3.28811,-82.19849,30.55085,1.01115,-140.51151,25.76248,-1.34613,15.92815,-22.24481,2.95263,1.70821,-2.26483,0.48191,-4.31491,1.1466,-0.21133,0.90475,-3.45297,0.49476,-0.66518,-1.40224,-0.56936,0.22198,-0.39314,0.08329,-0.24264,-0.04837,-0.17295
1314,10.52435,10.1056,-2.12639,-88.30521,-4.2478,-0.2888,22.76421,2.04904,-1.12246,-122.2116,17.25283,0.62027,1.76137,22.44589,-4.06313,-82.95725,29.9086,1.13647,-144.07468,21.53291,2.09606,2.07484,-22.61169,3.06137,3.81315,-2.21041,0.71909,-4.03932,2.99954,-1.07484,1.06193,-3.76379,0.83471,-0.49643,-1.18141,-0.61127,0.2763,-0.45328,0.07421,-0.16226,0.0218,-0.16011
1315,9.26759,11.91093,-2.41473,-89.57995,-6.00573,-0.0892,18.59808,2.62087,-1.3501,-123.72359,22.01373,2.96829,2.21119,25.71618,-4.93964,-83.58035,29.588,1.29291,-142.53145,28.92709,5.90499,1.58559,-17.52578,-0.03161,4.49955,-2.25817,0.8951,-3.84641,2.2637,-1.06468,0.96676,-3.57471,1.0332,-0.23297,-1.71877,-0.60304,0.26673,-0.4621,0.10244,-0.03713,-0.17812,-0.07619
1316,9.00049,14.41443,-3.0002,-90.8424,-7.59244,-0.32695,16.10654,9.45777,-2.62376,-122.13193,26.61057,3.66663,2.74333,28.79926,-5.81213,-84.19961,29.45737,1.27023,-136.98532,44.49814,4.93198,13.45685,-11.47239,-5.77722,2.64642,-2.76775,0.79274,-4.34665,0.93792,-0.72064,0.87319,-3.41282,0.79965,-0.27428,-2.21965,-0.73683,0.2365,-0.42831,0.14463,-0.02452,-0.32708,-0.04681
1317,9.68506,16.51519,-3.49451,-91.65434,-10.35422,-1.2499,14.24904,15.14698,-2.4659,-121.80975,24.12449,0.52905,3.29137,31.59961,-6.63003,-84.74605,29.3713,0.98639,-137.07381,49.51124,0.16557,12.74538,-10.01616,-6.67536,0.55684,-3.947,0.35313,-4.53499,0.41702,-0.5053,0.96863,-3.65345,0.25699,-0.43883,-2.22143,-0.78122,0.22898,-0.39439,0.11622,-0.09878,-0.29678,-0.07185
1318,9.6032,17.97295,-3.72698,-91.36017,-14.33789,-2.44744,9.69829,14.42586,-0.39397,-122.60006,13.1899,-4.36893,3.86123,34.18889,-7.414,-84.95213,29.38478,0.64605,-143.38805,35.13316,-4.11337,-3.78941,-17.10595,-0.22773,0.32729,-5.13267,-0.22166,-4.08379,0.41364,-0.35253,1.13934,-4.05306,-0.29437,-0.47302,-1.83007,-0.66492,0.24234,-0.39346,-0.04826,-0.1397,-0.2026,-0.08514
1319,8.03172,19.17123,-3.95981,-89.97861,-17.25349,-3.16355,3.18814,10.58732,0.60226,-120.9173,1.34582,-6.28531,4.46742,36.66945,-8.17744,-84.69976,29.61962,0.47966,-145.49843,15.75774,-5.71153,-12.14176,-28.05019,6.4606,1.10572,-4.68479,-0.50793,-3.99433,0.91628,-0.30556,1.22632,-4.28941,-0.60506,-0.42783,-1.31998,-0.64675,0.25883,-0.42775,-0.24727,-0.12407,-0.13143,-0.10525
1320,6.43918,20.33261,-4.43045,-86.95489,-17.90135,-3.43757,-1.1618,9.72737,-1.13799,-114.21571,-4.72341,-4.3505,5.02145,38.99723,-8.89014,-84.09886,29.8749,0.43086,-137.14374,8.07662,-6.16582,-5.61445,-34.12854,7.29396,1.3891,-2.54055,-0.28922,-4.22008,2.29564,-0.5427,1.23608,-4.33485,-0.5177,-0.24256,-1.0375,-0.64898,0.26714,-0.46756,-0.28768,-0.07631,-0.08684,-0.143
1321,7.12689,21.7874,-5.19505,-82.25319,-17.5975,-3.9362,0.68564,13.87882,-4.09827,-105.07965,-7.28234,-2.55663,5.42114,41.01674,-9.46422,-83.24138,29.90262,0.25897,-122.14505,10.27517,-8.93857,0.63812,-31.76918,3.84155,1.54361,-0.77547,0.34231,-3.78877,3.55712,-0.88589,1.16137,-4.1415,0.07887,0.12095,-1.25051,-0.449,0.24505,-0.47074,-0.08067,-0.0283,-0.07964,-0.1667
1322,9.4077,22.93219,-5.89655,-77.0807,-17.95097,-4.94687,5.77105,18.24064,-5.79957,-96.19823,-11.59117,-3.82609,5.60264,42.50742,-9.88071,-81.94054,29.7604,-0.11458,-106.58531,8.65455,-14.05729,-0.29187,-22.70613,1.49011,2.2655,-0.71505,1.06562,-3.01754,3.38476,-0.92974,0.91117,-3.61653,0.93867,0.3566,-1.67274,-0.21154,0.17178,-0.42305,0.2434,-0.02064,-0.08125,-0.15762
