PaulMeinheit/Bachelor_Muay_Thai/processed_Data/N3/teep/sliced/JointAngles/sliced4.csv
Unnamed: 0_level_0,L_MTP_ANGLE,L_MTP_ANGLE,L_MTP_ANGLE,R_MTP_ANGLE,R_MTP_ANGLE,R_MTP_ANGLE,L_ANKLE_ANGLE,L_ANKLE_ANGLE,L_ANKLE_ANGLE,R_ANKLE_ANGLE,R_ANKLE_ANGLE,R_ANKLE_ANGLE,L_KNEE_ANGLE,L_KNEE_ANGLE,L_KNEE_ANGLE,R_KNEE_ANGLE,R_KNEE_ANGLE,R_KNEE_ANGLE,L_HIP_ANGLE,L_HIP_ANGLE,L_HIP_ANGLE,R_HIP_ANGLE,R_HIP_ANGLE,R_HIP_ANGLE,L_SHOULDER_ANGLE,L_SHOULDER_ANGLE,L_SHOULDER_ANGLE,R_SHOULDER_ANGLE,R_SHOULDER_ANGLE,R_SHOULDER_ANGLE,L_ELBOW_ANGLE,L_ELBOW_ANGLE,L_ELBOW_ANGLE,R_ELBOW_ANGLE,R_ELBOW_ANGLE,R_ELBOW_ANGLE,L_WRIST_ANGLE,L_WRIST_ANGLE,L_WRIST_ANGLE,R_WRIST_ANGLE,R_WRIST_ANGLE,R_WRIST_ANGLE,NECK_ANGLE,NECK_ANGLE,NECK_ANGLE,NECK_ANGLE_SHADOW,NECK_ANGLE_SHADOW,NECK_ANGLE_SHADOW,Trunk_Joint_Angle,Trunk_Joint_Angle,Trunk_Joint_Angle
ITEM,X,Y,Z,X,Y,Z,X,Y,Z,X,Y,Z,X,Y,Z,X,Y,Z,X,Y,Z,X,Y,Z,X,Y,Z,X,Y,Z,X,Y,Z,X,Y,Z,X,Y,Z,X,Y,Z,X,Y,Z,X,Y,Z,X,Y,Z
1275,-1.75582,0.0,-0.0,-0.74356,0.0,-0.0,-6.00606,-0.8372,18.10611,22.82289,3.41002,-9.76456,-20.88132,-3.17088,-0.00013,-12.92058,-0.28379,-5e-05,38.40633,3.61396,10.07626,-1.42706,3.38881,-16.52299,30.33188,8.97172,-11.32808,41.21969,-3.49363,25.76759,84.63933,-0.00282,-50.26082,70.97226,0.0021,52.94536,-3.34232,11.82308,-0.00822,-5.62814,-9.28858,0.00035,-0.76854,-0.16934,4.78797,-23.19845,-1.98687,4.36042,-0.30848,-2.09458,12.58368
1276,-1.90431,0.0,0.0,-0.57613,0.0,0.0,-6.04308,-0.81637,18.3002,22.89809,3.29842,-9.9759,-20.89258,-3.25022,-4e-05,-13.12207,-0.23757,-1e-05,38.31519,3.60657,9.94636,-1.45617,3.37118,-16.29412,30.00587,9.24216,-11.181,40.74703,-3.58914,25.96793,84.88898,-0.00302,-48.32914,71.46146,0.00478,52.42436,-2.54981,11.96464,-0.00288,-5.45661,-9.43059,4e-05,-0.76545,-0.07746,4.80134,-23.19378,-1.90704,4.40786,-0.41956,-2.13703,12.39321
1277,-2.12846,-0.0,0.0,-0.67328,0.0,-0.0,-6.0048,-0.92844,18.61525,22.98658,2.91843,-10.21811,-20.96703,-3.3491,1e-05,-13.27594,-0.22693,4e-05,38.25946,3.71994,9.75291,-1.46732,3.44518,-15.89819,29.66639,9.34668,-11.16388,40.25478,-3.80573,26.18395,85.12409,-0.00127,-46.91852,71.94133,-0.0015,52.18993,-2.48969,12.41921,-0.00411,-5.3004,-9.71348,-0.00017,-0.81566,-0.12118,4.83199,-23.24365,-1.95915,4.41952,-0.53738,-2.07727,12.36048
1278,-2.10286,0.0,-0.0,-0.99715,0.0,0.0,-6.00441,-0.93429,18.80659,23.08363,2.48026,-10.21722,-21.07982,-3.39842,-4e-05,-13.37731,-0.24987,4e-05,38.33551,3.85111,9.69604,-1.3889,3.54716,-15.77914,29.29806,9.26084,-11.07882,39.733,-4.04117,26.2575,85.40284,0.00065,-46.54702,72.39698,-0.00513,52.56429,-2.58866,12.62797,-0.00439,-5.11732,-10.03806,-0.00061,-0.8112,-0.1536,4.91534,-23.23714,-2.02091,4.48423,-0.56556,-1.98286,12.38387
1279,-1.85942,0.0,0.0,-1.40531,-0.0,0.0,-6.05866,-0.87152,18.88925,23.16146,2.15828,-10.00505,-21.18008,-3.37959,-4e-05,-13.44058,-0.26338,-1e-05,38.48915,3.87876,9.73489,-1.26521,3.58498,-15.98969,28.95274,9.08196,-10.88288,39.259,-4.21663,26.19552,85.73612,0.00237,-47.09161,72.76177,-0.00233,52.93462,-2.60754,12.33013,-0.00286,-4.87593,-10.32619,-0.00057,-0.69737,-0.1004,5.04327,-23.11872,-2.02054,4.62287,-0.52986,-1.95568,12.35393
1280,-1.649,-0.0,0.0,-1.81972,0.0,0.0,-6.1179,-0.83416,18.98228,23.20198,2.02397,-9.83909,-21.24483,-3.34469,3e-05,-13.47484,-0.249,-4e-05,38.63099,3.80891,9.69632,-1.16611,3.56192,-16.24763,28.68951,8.91634,-10.72246,38.92469,-4.32901,26.11083,86.08361,0.00378,-48.30772,72.99469,0.00052,52.87194,-2.91009,11.86981,-0.00153,-4.61891,-10.45856,0.00019,-0.49471,-0.04659,5.17533,-22.91119,-2.02116,4.76556,-0.50839,-2.00786,12.26151
1281,-1.58154,0.0,0.0,-2.15876,0.0,0.0,-6.17104,-0.77249,19.02987,23.20047,2.1051,-9.86006,-21.29557,-3.33109,6e-05,-13.47953,-0.23615,-2e-05,38.72274,3.75414,9.58599,-1.12034,3.55705,-16.34305,28.50754,8.80538,-10.71295,38.73144,-4.40574,26.07679,86.40026,0.00388,-49.94487,73.12756,0.00073,52.62725,-3.76063,11.7253,-0.00476,-4.40667,-10.39402,0.00053,-0.27692,-0.08252,5.26203,-22.6911,-2.08743,4.83206,-0.54508,-2.06102,12.16701
1282,-1.59935,0.0,-0.0,-2.2977,0.0,-0.0,-6.2476,-0.58941,18.90574,23.14922,2.3656,-10.00375,-21.3572,-3.3187,1e-05,-13.45364,-0.23258,3e-05,38.77772,3.78592,9.56469,-1.11799,3.60497,-16.28064,28.37875,8.74987,-10.82388,38.59448,-4.47328,26.07841,86.64787,0.00171,-51.45954,73.23265,0.00045,52.51488,-4.81575,11.96702,-0.00667,-4.24007,-10.25254,-3e-05,-0.11161,-0.16868,5.2609,-22.52706,-2.16665,4.79812,-0.61961,-2.05409,12.11846
1283,-1.648,0.0,-0.0,-2.21426,0.0,0.0,-6.3422,-0.27881,18.63918,23.03863,2.68898,-10.14692,-21.43572,-3.28726,-4e-05,-13.40576,-0.21559,8e-05,38.83062,3.88418,9.69705,-1.12775,3.67285,-16.17185,28.31131,8.7505,-10.96566,38.43073,-4.56066,26.06917,86.77637,-0.00017,-52.07069,73.36566,0.00128,52.37035,-5.51702,12.37284,-0.00321,-4.01234,-10.20256,-0.00107,0.00061,-0.19103,5.17862,-22.41776,-2.15594,4.71348,-0.68036,-1.99782,12.1167
1284,-1.71962,0.0,0.0,-2.0068,0.0,-0.0,-6.40394,0.06313,18.34707,22.87051,2.95535,-10.18334,-21.51709,-3.24388,-4e-05,-13.36506,-0.19732,0.0001,38.87788,4.00443,9.93708,-1.1274,3.7154,-16.12854,28.32736,8.8038,-11.08143,38.2294,-4.66876,26.03923,86.76027,0.00089,-51.48376,73.52253,0.0019,52.01844,-5.70557,12.83344,0.00055,-3.66507,-10.29599,-0.00166,0.12371,-0.09044,5.08405,-22.29623,-2.02688,4.66439,-0.71883,-1.94684,12.14652
1285,-1.83211,-0.0,-0.0,-1.80443,0.0,-0.0,-6.39954,0.30038,18.08027,22.69334,3.08848,-10.0777,-21.56892,-3.17939,1e-05,-13.37201,-0.20085,7e-05,38.88132,4.10255,10.22871,-1.11536,3.70419,-16.16803,28.39651,8.87967,-11.16235,38.03093,-4.75355,26.00573,86.63509,0.00166,-50.37642,73.66167,0.00112,51.81122,-5.57766,13.4099,0.00264,-3.35992,-10.41507,-0.00116,0.30723,0.0791,5.06277,-22.11118,-1.86204,4.70941,-0.77577,-1.9397,12.19045
1286,-2.01533,0.0,-0.0,-1.69224,0.0,0.0,-6.3438,0.32967,17.86366,22.59353,3.0696,-9.93028,-21.57065,-3.07327,8e-05,-13.44374,-0.18997,-3e-05,38.83429,4.13616,10.48396,-1.09998,3.6389,-16.17849,28.44288,8.93577,-11.25768,37.84715,-4.79141,25.96937,86.46491,-0.0,-49.75067,73.7835,0.00031,52.03878,-5.31971,14.15639,0.00331,-3.29471,-10.42368,-0.00075,0.52315,0.19781,5.173,-21.89029,-1.79434,4.85665,-0.87927,-1.95775,12.21898
1287,-2.23223,0.0,-0.0,-1.6006,0.0,0.0,-6.27938,0.15626,17.75069,22.59704,2.9934,-9.86742,-21.54615,-2.94688,7e-05,-13.55471,-0.11668,-0.00013,38.7707,4.11334,10.61088,-1.09261,3.55178,-16.07172,28.41632,8.96309,-11.43717,37.64219,-4.81629,25.93595,86.31155,-0.00133,-50.05088,73.93446,0.0002,52.43621,-5.12357,14.99061,0.00105,-3.49053,-10.35332,-0.00058,0.69301,0.1955,5.4165,-21.71239,-1.8893,5.08099,-1.01112,-1.95358,12.20902
1288,-2.37807,0.0,0.0,-1.42399,0.0,-0.0,-6.24923,-0.13291,17.81892,22.64514,2.97083,-9.91554,-21.53156,-2.87335,0.0,-13.65543,0.01103,-0.0001,38.71212,4.08838,10.55583,-1.11069,3.4799,-15.89666,28.31882,8.98871,-11.67819,37.3926,-4.85853,25.94307,86.23312,-0.00026,-51.07514,74.11458,4e-05,52.80349,-5.23613,15.63387,-0.00118,-3.90265,-10.34943,0.00042,0.77049,0.12388,5.69956,-21.62603,-2.06338,5.31554,-1.13269,-1.91695,12.15335
1289,-2.37036,-0.0,0.0,-1.26787,0.0,0.0,-6.28247,-0.47544,18.12108,22.69014,2.96943,-10.03058,-21.52398,-2.90353,-6e-05,-13.71378,0.1541,2e-05,38.65486,4.08727,10.30047,-1.16384,3.4345,-15.75327,28.15771,9.0503,-11.87007,37.12272,-4.90126,26.00323,86.26337,0.00115,-52.2249,74.24982,0.0001,53.32254,-5.68186,15.77758,0.00096,-4.52364,-10.47563,0.00167,0.78615,0.08781,5.86493,-21.60493,-2.15973,5.45479,-1.21853,-1.88332,12.05865
1290,-2.19605,0.0,0.0,-1.30439,0.0,0.0,-6.36818,-0.83752,18.5666,22.72539,2.89551,-10.15073,-21.50227,-2.98469,-8e-05,-13.73984,0.27606,6e-05,38.59902,4.10192,9.94613,-1.22859,3.4109,-15.67194,27.9178,9.20438,-11.97342,36.86694,-4.91063,26.05491,86.38789,0.00032,-52.80602,74.28534,0.00086,54.0298,-6.17482,15.4152,0.00281,-5.27102,-10.66013,0.00137,0.80835,0.12258,5.83814,-21.58321,-2.11738,5.44325,-1.26257,-1.87985,11.97263
1291,-1.97392,-0.0,-0.0,-1.4621,-0.0,-0.0,-6.42916,-1.14772,18.94278,22.73158,2.74055,-10.21765,-21.46997,-3.01991,-6e-05,-13.75961,0.35326,5e-05,38.54699,4.14136,9.698,-1.27052,3.40951,-15.59471,27.61776,9.49071,-12.06059,36.6365,-4.87754,26.03574,86.54549,-0.00113,-52.49632,74.24727,0.00093,54.53648,-6.41869,14.90001,0.00147,-5.92318,-10.82412,-0.00027,0.88016,0.18825,5.70616,-21.51526,-2.00638,5.34619,-1.28107,-1.89396,11.95912
1292,-1.93742,0.0,-0.0,-1.52629,0.0,-0.0,-6.37234,-1.31315,19.13836,22.68387,2.56214,-10.19871,-21.44247,-3.00575,-3e-05,-13.77696,0.39346,2e-05,38.49936,4.22158,9.63801,-1.28004,3.42697,-15.47227,27.36721,9.83256,-12.16983,36.4544,-4.82666,25.98243,86.65251,-0.00053,-51.5345,74.18046,-0.00026,54.33495,-6.36297,14.6238,0.0007,-6.27239,-10.99215,-0.00156,1.00699,0.26132,5.6079,-21.39096,-1.90138,5.28314,-1.30535,-1.89853,12.00797
1293,-2.18669,0.0,-0.0,-1.44272,0.0,0.0,-6.19538,-1.30216,19.21704,22.59787,2.43988,-10.0888,-21.42488,-3.017,-3e-05,-13.77777,0.41857,1e-05,38.48175,4.32718,9.67241,-1.25371,3.44568,-15.35232,27.29797,10.05029,-12.22748,36.37153,-4.79607,25.98895,86.6556,0.00084,-50.50651,74.08964,-0.00161,53.38361,-6.21034,14.66435,0.00086,-6.32837,-11.22605,-0.00171,1.18326,0.34757,5.60763,-21.21363,-1.82154,5.31577,-1.3437,-1.88618,12.04805
1294,-2.52512,0.0,-0.0,-1.30702,0.0,-0.0,-6.0105,-1.19704,19.24581,22.50241,2.45598,-9.91164,-21.41964,-3.06986,-1e-05,-13.75137,0.42401,0.0,38.52891,4.42818,9.73652,-1.18414,3.45459,-15.31219,27.42762,10.0337,-12.16037,36.3976,-4.81678,26.08615,86.56489,0.00049,-49.97477,73.98389,-0.00161,52.32006,-6.18826,14.77964,0.00054,-6.26933,-11.51056,-0.00087,1.40804,0.39587,5.69986,-20.98496,-1.81202,5.4195,-1.37455,-1.86528,12.06121
1295,-2.66941,0.0,0.0,-1.16999,0.0,-0.0,-5.94682,-1.15296,19.21177,22.3956,2.62462,-9.75408,-21.42467,-3.09761,-0.0,-13.69278,0.39858,-0.0,38.62837,4.51041,9.84176,-1.09806,3.46984,-15.34065,27.63708,9.8635,-12.03045,36.46696,-4.89769,26.22487,86.42508,-0.00085,-50.09584,73.91649,-0.0009,51.83855,-6.31089,14.74081,-9e-05,-6.18797,-11.74147,9e-05,1.66838,0.30863,5.85693,-20.71998,-1.95252,5.53155,-1.39585,-1.83345,12.08558
1296,-2.5054,0.0,-0.0,-1.04954,-0.0,0.0,-6.05843,-1.2469,19.09743,22.27585,2.86951,-9.725,-21.42392,-3.04821,-1e-05,-13.60296,0.361,2e-05,38.7289,4.57529,9.95459,-1.04774,3.51757,-15.37454,27.79058,9.72599,-12.00829,36.51122,-5.01142,26.34531,86.27288,-0.00119,-50.5355,73.92947,-0.00079,51.9613,-6.47878,14.60024,-0.00161,-6.06314,-11.80546,0.00071,1.91284,0.08714,6.02739,-20.47226,-2.22223,5.60486,-1.43871,-1.77259,12.13203
1297,-2.10745,-0.0,-0.0,-1.03933,-0.0,0.0,-6.29372,-1.3997,18.93686,22.18189,3.08515,-9.80263,-21.41064,-2.94362,-5e-05,-13.51073,0.33938,4e-05,38.79489,4.6382,10.01681,-1.04786,3.59193,-15.40701,27.84846,9.72845,-12.21386,36.51136,-5.11254,26.40704,86.11835,-0.00045,-50.83203,74.00578,-0.00041,52.16959,-6.65792,14.62432,-0.00312,-5.96132,-11.68927,0.00057,2.07643,-0.12716,6.13566,-20.30795,-2.46161,5.62337,-1.52331,-1.67691,12.20335
1298,-1.71201,0.0,-0.0,-1.234,0.0,0.0,-6.49532,-1.53113,18.83076,22.17657,3.18669,-9.85955,-21.42261,-2.84941,-0.00011,-13.47328,0.35311,-1e-05,38.84111,4.71004,10.00193,-1.05833,3.64918,-15.45182,27.85043,9.83261,-12.586,36.44704,-5.1774,26.38931,85.94968,0.00044,-50.793,74.12894,0.0009,52.11969,-6.72402,15.0068,-0.00071,-6.02114,-11.48684,-0.00014,2.1607,-0.19465,6.13242,-20.22492,-2.52278,5.59465,-1.62948,-1.57282,12.31044
1299,-1.65435,-0.0,-0.0,-1.595,0.0,-0.0,-6.49252,-1.68308,18.91036,22.29953,3.1742,-9.89776,-21.51959,-2.8208,1e-05,-13.51763,0.41466,-0.00011,38.92608,4.77243,9.86826,-1.03162,3.65842,-15.44207,27.83234,9.93863,-12.92076,36.26241,-5.22416,26.31972,85.76534,0.00086,-50.48301,74.33363,0.00247,51.8601,-6.40905,15.66657,0.00566,-6.23823,-11.31094,-0.00035,2.25698,-0.10054,6.03485,-20.13073,-2.39861,5.54023,-1.71433,-1.49514,12.40737
1300,-2.10447,0.0,0.0,-1.96712,-0.0,0.0,-6.26257,-1.86088,19.20413,22.51913,3.18235,-10.03376,-21.71622,-2.87589,0.00033,-13.60769,0.50367,-0.00012,39.08912,4.8113,9.59245,-0.95539,3.63836,-15.30874,27.7971,9.9799,-13.06584,35.94148,-5.30406,26.27419,85.60764,0.0006,-50.19035,74.6249,0.00216,51.67532,-5.77326,16.29575,0.0074,-6.48236,-11.19989,-0.00031,2.44726,0.05434,5.90111,-19.94299,-2.20446,5.47551,-1.75195,-1.44608,12.43177
1301,-2.796,0.0,0.0,-2.15955,0.0,0.0,-5.97168,-1.91576,19.53345,22.72873,3.36144,-10.22548,-21.96052,-2.97475,0.00041,-13.69478,0.56494,-2e-05,39.29564,4.84483,9.28355,-0.85492,3.62932,-15.15214,27.72481,9.96523,-13.04898,35.57386,-5.45096,26.31167,85.55123,0.00119,-50.4411,74.91069,4e-05,52.03207,-5.41802,16.61389,0.00422,-6.71885,-11.07658,-0.00081,2.70997,0.13297,5.79822,-19.68289,-2.09257,5.41028,-1.75719,-1.39384,12.38945
1302,-3.14935,-0.0,0.0,-2.03254,-0.0,0.0,-5.83138,-1.74474,19.65543,22.813,3.68306,-10.27226,-22.16809,-3.02957,0.00012,-13.7628,0.56758,4e-05,39.46545,4.88307,9.14461,-0.76927,3.63876,-15.15923,27.59219,9.97539,-13.00853,35.28751,-5.62953,26.43021,85.63246,0.00295,-51.44627,75.09278,-0.00028,53.05235,-5.80636,16.63978,0.0022,-7.02148,-10.87326,-0.00136,2.9652,0.05739,5.79129,-19.42899,-2.15981,5.37506,-1.77678,-1.32648,12.32355
1303,-2.84972,0.0,-0.0,-1.6505,0.0,-0.0,-5.91136,-1.43789,19.52942,22.73543,3.95585,-10.10549,-22.27929,-2.99387,-0.00011,-13.80952,0.54532,4e-05,39.57156,4.91685,9.27114,-0.70075,3.63713,-15.33419,27.42897,10.10231,-13.06525,35.12777,-5.77062,26.58344,85.78151,0.00236,-52.72383,75.17699,0.00083,54.10535,-6.67847,16.62401,0.0004,-7.37232,-10.66493,-0.00094,3.18689,-0.1145,5.90347,-19.20584,-2.36147,5.41333,-1.8341,-1.27858,12.27762
1304,-2.19643,0.0,0.0,-1.29048,0.0,-0.0,-6.09372,-1.14169,19.32462,22.56673,4.05068,-9.88196,-22.30927,-2.92486,-0.00014,-13.82565,0.56415,3e-05,39.66213,4.95929,9.55637,-0.61938,3.60237,-15.47369,27.32125,10.37328,-13.23945,35.02676,-5.84915,26.72143,85.86929,-0.00031,-53.739,75.23869,0.00103,54.6189,-7.40184,16.63228,-0.00073,-7.60419,-10.57344,-0.0001,3.41973,-0.21919,6.08621,-18.96803,-2.52787,5.54252,-1.90379,-1.28055,12.28922
1305,-1.72845,0.0,0.0,-1.17198,0.0,-0.0,-6.19286,-0.95845,19.22314,22.42039,4.04283,-9.78912,-22.33703,-2.92376,3e-05,-13.81681,0.65504,5e-05,39.75208,5.04251,9.79178,-0.54446,3.54207,-15.41507,27.2812,10.73384,-13.4185,34.88567,-5.89873,26.84355,85.85754,-0.00146,-54.51652,75.31743,-2e-05,54.97523,-7.56805,16.41982,-0.00296,-7.63573,-10.61698,0.00022,3.68592,-0.14444,6.25938,-18.69406,-2.52471,5.7313,-1.97628,-1.31702,12.34356
1306,-1.66915,0.0,0.0,-1.2357,0.0,0.0,-6.11646,-0.90156,19.26727,22.35334,4.12707,-9.82913,-22.4409,-3.03478,0.00035,-13.81288,0.75624,4e-05,39.81379,5.18015,9.8325,-0.52012,3.49119,-15.2457,27.18393,11.09441,-13.45511,34.6836,-5.9776,27.00696,85.84872,1e-05,-55.37235,75.38358,-0.00062,55.99181,-7.1721,15.87521,-0.00588,-7.70238,-10.70831,0.00014,3.94013,0.06274,6.37428,-18.43201,-2.37686,5.91658,-2.07071,-1.3457,12.37589
1307,-1.79274,0.0,0.0,-1.23765,0.0,-0.0,-5.94345,-0.80921,19.29228,22.32934,4.4034,-9.80548,-22.63523,-3.20125,0.00036,-13.81988,0.74783,-2e-05,39.87999,5.35561,9.736,-0.51791,3.49634,-15.23839,26.93929,11.38882,-13.34411,34.49667,-6.12636,27.23837,85.94167,0.00182,-56.37307,75.38297,0.00055,57.70961,-6.47127,15.29504,-0.00388,-8.09122,-10.74059,-0.00065,4.15456,0.26101,6.44458,-18.21175,-2.22027,6.05716,-2.17129,-1.33343,12.35292
1308,-1.75853,0.0,-0.0,-1.0753,0.0,-0.0,-5.81467,-0.58014,19.12831,22.29412,4.72206,-9.59952,-22.8603,-3.32895,-0.00016,-13.79933,0.61769,-0.00012,40.00239,5.53216,9.6604,-0.49352,3.56816,-15.48261,26.64388,11.60471,-13.22691,34.38802,-6.33312,27.47348,86.10129,0.00127,-57.24176,75.29407,0.00102,59.27865,-5.70832,14.95191,-0.00034,-8.67111,-10.69756,-0.00149,4.37188,0.32867,6.51557,-17.99053,-2.18471,6.14863,-2.25706,-1.27076,12.30502
1309,-1.51419,0.0,0.0,-0.93749,-0.0,-0.0,-5.74828,-0.44287,18.88806,22.26119,4.82457,-9.34007,-23.06519,-3.39211,-0.00063,-13.73514,0.50976,-3e-05,40.15803,5.68336,9.61029,-0.47895,3.66456,-15.73591,26.46921,11.7803,-13.22474,34.31324,-6.55076,27.64631,86.19982,-0.00022,-57.70311,75.16192,-0.00033,60.10625,-4.97268,14.71318,-0.00044,-9.11745,-10.66909,-0.00165,4.61118,0.22554,6.59116,-17.74967,-2.30884,6.17932,-2.3656,-1.16192,12.27987
1310,-1.27516,-0.0,0.0,-1.01219,0.0,0.0,-5.66152,-0.56736,18.81124,22.26487,4.68514,-9.15705,-23.29369,-3.44747,-0.00035,-13.66458,0.5032,9e-05,40.32938,5.82207,9.47007,-0.50096,3.76392,-15.81658,26.48172,11.97457,-13.37506,34.18642,-6.75898,27.79302,86.1188,7e-05,-57.78432,75.07191,-0.00146,60.64121,-4.38588,14.41506,-0.00084,-9.5102,-10.67041,-0.00195,4.80498,0.02784,6.62005,-17.55784,-2.50267,6.13078,-2.52638,-1.00883,12.2869
1311,-1.22727,0.0,-0.0,-1.22885,0.0,-0.0,-5.51375,-0.68846,18.9576,22.28057,4.53076,-9.02959,-23.63766,-3.57557,0.00087,-13.60722,0.4921,0.0,40.57961,5.99343,9.19702,-0.50459,3.91414,-15.81389,26.62881,12.23692,-13.70909,33.99054,-6.99197,27.99916,85.82428,0.00209,-57.72197,75.06549,-0.00171,61.69021,-4.21393,14.26692,-0.00119,-10.17307,-10.6095,-0.00213,4.90158,-0.12184,6.57236,-17.46573,-2.62294,6.02962,-2.69514,-0.8091,12.288
1312,-1.35272,0.0,-0.0,-1.40371,-0.0,-0.0,-5.33021,-0.49357,19.15847,22.2624,4.48782,-8.93228,-24.12435,-3.78356,0.00166,-13.53506,0.37718,-0.00017,40.93351,6.22512,8.89705,-0.45796,4.14786,-15.83279,26.82109,12.59931,-14.27378,33.75176,-7.29167,28.25198,85.4022,0.00347,-57.74889,75.1062,-0.00052,63.11465,-4.59603,14.56109,-0.00529,-10.9797,-10.54982,-0.00115,4.96161,-0.16427,6.4908,-17.4097,-2.63114,5.93795,-2.8394,-0.57782,12.25524
1313,-1.44523,0.0,0.0,-1.44438,-0.0,0.0,-5.14416,-0.05322,19.10117,22.20483,4.43815,-8.83891,-24.68894,-3.93511,0.00045,-13.43776,0.20534,-0.00018,41.27841,6.48884,8.82249,-0.43456,4.40073,-15.89831,26.99479,13.07421,-15.0462,33.45997,-7.64936,28.40022,84.97828,0.00088,-58.20236,75.14132,0.00108,63.79096,-5.31629,15.21035,-0.0071,-11.25426,-10.71886,-0.00331,5.0937,-0.17389,6.43257,-17.28007,-2.61787,5.88039,-3.01492,-0.36669,12.23054
1314,-1.33258,0.0,-0.0,-1.41494,-0.0,0.0,-4.95722,0.3025,18.63755,22.15014,4.25363,-8.69743,-25.22675,-3.89928,-0.00127,-13.34904,0.06475,-4e-05,41.48621,6.73253,9.11676,-0.50338,4.58824,-16.00403,27.14857,13.6425,-15.86029,33.11139,-8.01811,28.32702,84.57455,-0.00596,-59.46762,75.13541,0.00032,63.01917,-5.96428,15.82057,-0.00278,-10.47542,-11.15503,-0.00845,5.33866,-0.2191,6.40404,-17.03701,-2.64881,5.83675,-3.27557,-0.23275,12.28973
1315,-1.07448,-0.0,0.0,-1.45961,-0.0,0.0,-4.74822,0.36293,18.03864,22.15534,4.01998,-8.54571,-25.6631,-3.74529,-0.00145,-13.28863,-0.02756,3e-05,41.55937,6.93319,9.55951,-0.63297,4.70331,-16.06755,27.31109,14.25839,-16.46959,32.78923,-8.37178,28.14315,84.11525,-0.0095,-61.28744,75.0397,-0.00232,61.43947,-6.25557,16.13585,0.00067,-8.96138,-11.59466,-0.00574,5.64472,-0.26017,6.40494,-16.73166,-2.68713,5.82193,-3.57916,-0.18335,12.44725
1316,-0.82786,-0.0,0.0,-1.58305,-0.0,-0.0,-4.51573,0.25627,17.69788,22.21291,3.98003,-8.46347,-26.01412,-3.64821,-0.00063,-13.22267,-0.10262,-5e-05,41.59408,7.11055,9.8445,-0.76357,4.78373,-16.01444,27.43953,14.8899,-16.74007,32.60534,-8.72634,28.10959,83.59506,-0.0027,-62.59464,74.82659,-0.00244,60.3876,-6.25241,16.18968,0.00031,-7.73695,-11.74237,-0.00011,5.92709,-0.24532,6.48502,-16.44589,-2.70388,5.90172,-3.84953,-0.17547,12.64881
1317,-0.65295,0.0,-0.0,-1.63673,-0.0,-0.0,-4.27864,0.2655,17.76588,22.23279,4.24725,-8.44745,-26.37445,-3.69793,0.00025,-13.10236,-0.16415,-8e-05,41.69455,7.30311,9.93027,-0.86088,4.84399,-15.87933,27.41718,15.54515,-16.75931,32.59483,-9.09281,28.38422,83.14484,0.00507,-62.68681,74.55376,-0.00046,60.63926,-6.35536,16.06751,0.00062,-7.64517,-11.49973,-0.00447,6.14351,-0.22404,6.69931,-16.22049,-2.76575,6.10822,-4.05264,-0.1674,12.84034
1318,-0.53193,0.0,-0.0,-1.57796,-0.0,0.0,-4.03807,0.48385,18.16632,22.15706,4.6252,-8.44279,-26.81542,-3.88475,0.00092,-12.92497,-0.17228,6e-05,41.92658,7.52335,9.93284,-0.89171,4.86572,-15.73461,27.19232,16.248,-16.69846,32.74184,-9.42486,28.93413,82.88065,0.0044,-62.16801,74.26913,0.00164,61.95889,-6.92207,15.75255,0.00404,-8.56769,-11.01476,-0.01013,6.31804,-0.29203,7.04876,-16.03266,-2.96156,6.40591,-4.18627,-0.15414,12.97504
1319,-0.42985,0.0,-0.0,-1.52681,0.0,-0.0,-3.78323,0.7723,18.69084,22.04598,4.78942,-8.39198,-27.31296,-4.1546,0.00098,-12.74614,-0.10088,0.00017,42.27248,7.73805,9.90911,-0.83948,4.82309,-15.61837,26.84442,17.01986,-16.62458,33.05977,-9.6539,29.66075,82.76929,0.00042,-62.18367,73.88264,0.00582,63.69639,-7.75417,15.20413,0.00466,-9.6335,-10.62316,-0.00579,6.50932,-0.47234,7.47244,-15.82655,-3.28939,6.7297,-4.26566,-0.15767,12.99849
1320,-0.29096,-0.0,-0.0,-1.54152,-0.0,0.0,-3.52524,0.97464,19.08443,22.00322,4.61625,-8.22773,-27.79898,-4.43448,0.00045,-12.62312,0.0135,8e-05,42.64619,7.90175,9.85013,-0.73807,4.71428,-15.5616,26.47918,17.89673,-16.50222,33.5748,-9.78959,30.51801,82.69546,-0.00191,-63.02197,73.29263,0.00701,65.3051,-8.13463,14.53001,-0.00153,-10.23339,-10.57497,-2e-05,6.78991,-0.69193,7.86344,-15.53309,-3.64106,7.00845,-4.33467,-0.20393,12.9013
1321,-0.06352,-0.0,-0.0,-1.54112,0.0,-0.0,-3.282,1.06584,19.22108,22.06014,4.29958,-7.91323,-28.25977,-4.66977,-5e-05,-12.55618,0.0923,-7e-05,42.97673,8.00148,9.76596,-0.64951,4.56928,-15.62076,26.10427,18.9051,-16.27987,34.26603,-9.93683,31.49579,82.59715,-0.00167,-63.93721,72.56567,0.00135,66.38971,-7.52861,14.05884,-0.00225,-10.52301,-10.71681,-0.0004,7.21776,-0.84099,8.14653,-15.09552,-3.88644,7.21415,-4.4497,-0.30629,12.7534
1322,0.20355,0.0,-0.0,-1.49067,-0.0,0.0,-3.03115,1.12771,19.16784,22.17662,4.16958,-7.51118,-28.75961,-4.84298,-0.0004,-12.51316,0.08452,-0.00011,43.27767,8.07046,9.71901,-0.5934,4.42252,-15.8278,25.63255,19.99277,-15.93859,35.06765,-10.19532,32.53599,82.49648,-0.00025,-64.16001,71.82582,-0.00219,66.99003,-6.15184,14.07564,0.00711,-10.87705,-10.59134,-0.00496,7.76191,-0.83843,8.34317,-14.54171,-3.95872,7.39745,-4.61359,-0.44173,12.66007
1323,0.35827,0.0,0.0,-1.44788,0.0,-0.0,-2.70559,1.23161,19.04308,22.29343,4.39581,-7.12942,-29.36638,-4.9468,-0.0009,-12.46611,0.01578,-6e-05,43.59475,8.16294,9.80466,-0.5578,4.27908,-16.13789,25.00321,21.05893,-15.54511,35.8976,-10.58171,33.52946,82.44646,0.00046,-63.58431,71.08391,-0.00077,67.51626,-4.83312,14.45486,0.01007,-11.27217,-9.97166,-0.00589,8.28893,-0.67335,8.49904,-14.0026,-3.86511,7.60477,-4.77308,-0.55965,12.69723
1324,0.36259,0.0,0.0,-1.40781,0.0,-0.0,-2.26831,1.35187,18.94635,22.34982,4.86755,-6.79829,-30.04907,-5.00575,-0.00092,-12.36202,-0.03674,7e-05,43.88647,8.30684,10.05562,-0.58716,4.10506,-16.45641,24.29218,22.0725,-15.22033,36.67136,-11.02463,34.40795,82.44179,0.00135,-62.63134,70.31345,-0.00144,68.11758,-4.38217,14.765,0.00532,-11.39411,-9.15759,-0.00119,8.66167,-0.42211,8.63108,-13.61678,-3.68271,7.82268,-4.89892,-0.65233,12.85983
1325,0.42581,-0.0,0.0,-1.35227,0.0,-0.0,-1.78096,1.38854,19.01708,22.31763,5.35821,-6.48905,-30.67959,-5.11851,9e-05,-12.12783,-0.02698,0.00024,44.06279,8.48225,10.32071,-0.74668,3.87496,-16.6685,23.68579,23.07106,-14.9722,37.33649,-11.40036,35.19102,82.33762,0.00186,-61.91909,69.55709,-0.00563,68.68787,-4.88769,14.81838,0.00296,-11.10463,-8.64654,-0.00037,8.83793,-0.2112,8.79858,-13.4266,-3.55101,8.0581,-4.99169,-0.77426,13.05479
1326,0.78064,0.0,0.0,-1.38198,-0.0,-0.0,-1.34575,1.28227,19.31388,22.22293,5.73776,-6.2094,-31.17618,-5.34717,0.00085,-11.74992,0.01497,0.00016,44.13656,8.65579,10.40729,-1.00686,3.63346,-16.67234,23.29915,24.0521,-14.62565,37.91741,-11.62952,35.93428,81.94344,-0.00262,-61.93097,68.85261,-0.00743,69.27773,-5.51501,14.91958,0.0046,-10.60477,-8.63961,-0.00427,8.89874,-0.1262,9.09397,-13.34761,-3.58422,8.36426,-5.02962,-0.9485,13.17805
1327,1.40928,-0.0,0.0,-1.56429,-0.0,-0.0,-0.99052,1.121,19.63811,22.1013,5.99225,-6.01699,-31.59786,-5.57872,0.00012,-11.31231,0.04381,-7e-05,44.25106,8.8147,10.38481,-1.22955,3.45423,-16.44023,22.99738,24.96108,-13.98291,38.49388,-11.75865,36.65322,81.27832,-0.00915,-62.75873,68.16617,0.0005,70.29951,-5.32886,15.41105,0.0127,-10.23236,-8.86164,-0.00532,8.98449,-0.17432,9.51213,-13.2392,-3.787,8.73388,-4.95563,-1.11071,13.21674
1328,2.06075,-0.0,0.0,-1.73574,0.0,-0.0,-0.65655,1.10528,19.71126,21.96699,6.14204,-5.97281,-32.04923,-5.64215,-0.00162,-10.94559,0.07326,-9e-05,44.52122,8.94709,10.51665,-1.28517,3.32312,-16.0314,22.47745,25.78478,-13.03628,39.11228,-11.90171,37.30445,80.62067,-0.00863,-64.15517,67.46848,0.01334,72.26744,-4.36204,16.17413,0.01511,-10.1096,-8.86737,-0.00301,9.15425,-0.32463,9.92096,-13.0491,-4.08071,9.0563,-4.7229,-1.20605,13.26097
1329,2.53175,0.0,0.0,-1.62749,0.0,0.0,-0.29775,1.36259,19.53676,21.83167,6.229,-6.08081,-32.54171,-5.55856,-0.00217,-10.74241,0.15204,-8e-05,44.87074,9.02333,10.86026,-1.19463,3.12705,-15.55211,21.56364,26.60856,-11.98871,39.73485,-12.12447,37.84653,80.24883,-0.00185,-65.73011,66.8221,0.01449,74.94778,-3.46656,16.78172,0.00585,-9.96272,-8.53742,6e-05,9.33762,-0.51823,10.17795,-12.85546,-4.35705,9.22153,-4.37519,-1.29546,13.40271
1330,2.90627,0.0,-0.0,-1.1881,0.0,-0.0,0.05802,1.81808,19.43301,21.71879,6.28852,-6.26927,-33.0058,-5.56142,-0.00047,-10.69847,0.29933,-0.00021,45.11998,9.02924,11.13184,-1.1007,2.79123,-15.0996,20.33332,27.55964,-11.01925,40.29713,-12.42759,38.31009,80.24578,0.00312,-67.13629,66.34667,0.00344,77.25114,-3.20916,16.97259,-0.0001,-9.45762,-8.14385,0.00022,9.46546,-0.65407,10.22616,-12.72863,-4.50103,9.21484,-4.035,-1.48222,13.63179
1331,3.243,0.0,0.0,-0.62202,0.0,0.0,0.43608,2.22821,19.62002,21.63008,6.2694,-6.42485,-33.41757,-5.79794,0.00139,-10.72648,0.47811,-0.00025,45.17862,8.9864,11.11265,-1.11952,2.35952,-14.74624,18.97967,28.66159,-10.05936,40.8094,-12.80004,38.81702,80.52516,0.00366,-68.32594,66.09346,-0.00399,78.3367,-3.36248,16.79978,0.0004,-8.74547,-7.97976,-0.00309,9.59103,-0.64913,10.10722,-12.61018,-4.45153,9.10625,-3.81821,-1.78122,13.84838
1332,3.23498,0.0,0.0,-0.0665,-0.0,-0.0,1.00543,2.26221,19.93661,21.51401,6.09709,-6.47039,-33.83834,-6.10238,0.00122,-10.75727,0.61211,-0.00019,45.06437,8.89269,11.01214,-1.26842,1.8922,-14.55763,17.6673,29.7626,-8.88156,41.35904,-13.24317,39.54286,80.90542,0.00188,-69.62868,65.99646,-0.00294,78.45186,-3.32155,16.43059,-0.00037,-8.4732,-8.07422,-0.00312,9.82652,-0.52691,9.93189,-12.38175,-4.27212,8.98979,-3.78127,-2.15259,13.95557
1333,2.81906,0.0,0.0,0.54227,-0.0,0.0,1.82208,1.69018,20.11995,21.32593,5.84062,-6.4647,-34.31471,-6.21198,-0.00069,-10.83642,0.64105,-1e-05,44.85786,8.69654,11.15586,-1.45345,1.38137,-14.5415,16.45827,30.66951,-7.38369,41.98522,-13.76721,40.59376,81.21709,-0.00086,-71.32897,65.97208,-0.00014,78.49075,-2.65201,15.97861,-0.00382,-9.02081,-8.30139,0.00057,10.18086,-0.38985,9.80796,-12.03102,-4.09838,8.9267,-3.85786,-2.58665,13.92195
1334,2.58375,-0.0,-0.0,1.22487,0.0,0.0,2.6454,0.68587,20.06733,21.09912,5.69063,-6.53005,-34.82345,-6.07706,-0.00231,-11.09163,0.55803,0.00029,44.677,8.39391,11.56634,-1.52398,0.82786,-14.63773,15.26973,31.34106,-5.70784,42.5966,-14.38604,41.87578,81.44898,-0.00176,-73.13988,66.01792,-0.00096,78.99155,-1.39225,15.50001,-0.00442,-9.93106,-8.63917,0.00189,10.52243,-0.27976,9.76239,-11.68923,-3.97923,8.92612,-3.86684,-3.07525,13.79841
1335,3.0352,0.0,-0.0,1.84661,-0.0,0.0,3.21586,-0.20966,19.79239,20.90425,5.6964,-6.72108,-35.32829,-5.86053,-0.0022,-11.60994,0.40412,-0.00018,44.60316,8.07608,12.01184,-1.3952,0.31241,-14.75815,13.96513,31.91216,-4.10407,43.06067,-15.10374,43.16059,81.73,0.00088,-74.41244,66.19011,-0.00539,79.82158,-0.0706,15.01139,0.00192,-10.48999,-9.18345,-0.00171,10.72297,-0.11408,9.72672,-11.48655,-3.81237,8.9558,-3.66205,-3.57546,13.68035
1336,4.08851,-0.0,-0.0,2.34157,0.0,-0.0,3.54254,-0.61195,19.49482,20.75297,5.62976,-7.11542,-35.80732,-5.80041,-0.0004,-12.38226,0.24022,-0.00209,44.59622,7.83603,12.18261,-1.11922,-0.05825,-14.72339,12.57735,32.55555,-2.77594,43.33292,-15.9273,44.29657,82.0948,0.0051,-75.09087,66.56309,-0.00852,80.50508,0.612,14.56331,0.01013,-10.57988,-9.88713,-0.00568,10.77831,0.19147,9.58739,-11.43216,-3.47682,8.94228,-3.27518,-4.04607,13.62391
1337,5.31107,0.0,0.0,2.81173,0.0,0.0,3.82547,-0.57659,19.47888,20.57877,5.31357,-7.82409,-36.23667,-6.05049,0.00149,-13.36935,0.07163,-0.00337,44.5165,7.68777,11.89452,-0.82322,-0.2314,-14.36667,11.39596,33.31323,-1.85219,43.45793,-16.91218,45.28208,82.30571,0.0013,-76.04097,67.2374,-0.00305,80.56902,0.19512,14.40965,0.00266,-10.56396,-10.35405,-0.00608,10.74214,0.57367,9.27002,-11.4789,-3.003,8.79275,-2.88524,-4.45956,13.61679
1338,6.31836,-0.0,0.0,3.33867,0.0,-0.0,4.1944,-0.28846,19.78411,20.31863,4.9632,-8.79275,-36.60986,-6.53561,0.00198,-14.60389,-0.19025,-0.00081,44.29761,7.58203,11.28309,-0.53051,-0.22787,-13.79154,10.72256,34.02472,-1.38689,43.48572,-18.13933,46.15545,82.01649,-0.01902,-77.98489,68.27186,0.01134,79.79736,-1.40338,14.86443,-0.02525,-10.56862,-10.17607,-0.00313,10.60199,0.86519,8.78957,-11.6413,-2.55138,8.45796,-2.60528,-4.76492,13.61956
1339,7.04703,-0.0,0.0,3.83633,0.0,0.0,4.61898,0.15893,20.13609,19.97288,4.90823,-9.79428,-36.94691,-7.00174,0.00111,-16.22471,-0.61368,0.0048,44.00471,7.45918,10.69869,-0.10068,-0.11906,-13.25834,10.51313,34.46323,-1.32754,43.428,-19.61849,46.91623,81.20353,-0.03088,-80.54031,69.56307,0.0227,78.38549,-3.92063,15.72504,-0.03497,-10.32882,-9.52025,0.00256,10.29258,0.96958,8.2042,-11.98106,-2.23307,7.95538,-2.37396,-4.9036,13.60691
1340,7.72101,0.0,0.0,4.15204,-0.0,0.0,5.03968,0.62677,20.24823,19.5373,5.12736,-10.68342,-37.257,-7.21158,-0.00025,-18.42223,-1.11036,0.0071,43.70021,7.29669,10.42674,0.63751,0.00907,-12.80914,10.36967,34.56745,-1.51535,43.291,-21.25994,47.59272,80.32957,-0.01465,-82.75434,70.88674,0.02018,76.85015,-6.65049,16.18363,-0.00499,-9.81999,-8.99284,0.00531,9.8003,0.93384,7.57199,-12.5061,-2.02638,7.35652,-2.075,-4.87359,13.57769
1341,8.57889,0.0,0.0,4.32086,0.0,-0.0,5.45334,0.91552,20.01739,18.91051,5.31007,-11.56686,-37.52903,-7.08712,-0.00111,-21.34686,-1.48702,0.00259,43.39739,7.10884,10.50902,1.79132,0.10111,-12.23885,9.96802,34.46974,-1.75788,43.10391,-22.94374,48.27184,79.89409,0.00519,-84.20846,72.09721,0.00072,75.9357,-8.5954,15.67821,0.01389,-9.47493,-8.92257,0.00647,9.20531,0.87012,6.99484,-13.12915,-1.86615,6.79816,-1.65696,-4.73331,13.51083
1342,9.51969,0.0,0.0,4.59288,-0.0,0.0,5.89365,0.92973,19.50453,17.91572,5.21785,-12.62271,-37.76369,-6.72717,-0.00106,-25.03749,-1.6451,-0.00051,43.06392,6.89879,10.76004,3.35459,0.15746,-11.45003,9.39567,34.30079,-1.96557,42.88024,-24.59547,48.96418,79.93098,0.00964,-85.17456,73.19907,-0.02652,76.40753,-9.25428,14.49285,-0.00044,-9.41195,-9.21782,0.00367,8.635,0.8531,6.5957,-13.71725,-1.73018,6.42237,-1.20189,-4.5503,13.33076
1343,10.20582,0.0,0.0,5.11992,0.0,-0.0,6.35773,0.77572,18.82839,16.37932,4.83675,-13.81329,-37.95883,-6.33291,-0.00022,-29.40445,-1.65079,0.00563,42.60757,6.66264,10.9529,5.21362,0.20526,-10.60482,8.95891,34.0698,-2.23694,42.60367,-26.21491,49.56347,80.1412,0.00466,-86.00214,74.19569,-0.03389,78.07708,-9.18335,13.31196,-0.00976,-9.02355,-9.87959,-0.0149,8.17531,0.88519,6.36387,-14.18635,-1.61232,6.22011,-0.88593,-4.36096,12.97868
1344,10.68756,0.0,-0.0,5.60853,0.0,-0.0,6.72447,0.68489,18.06886,14.22878,4.29769,-14.90668,-38.05214,-6.09905,0.00062,-34.27189,-1.56118,0.01144,41.96873,6.42942,10.9798,7.28835,0.23919,-9.89731,8.77069,33.72734,-2.7216,42.26738,-27.8487,50.02117,80.36176,0.00053,-86.84435,75.03557,-0.01144,79.37355,-9.3791,12.52476,-0.00366,-7.88966,-11.03162,-0.03783,7.80394,0.93527,6.11397,-14.5674,-1.47093,6.00803,-0.77124,-4.1624,12.4782
1345,11.31023,-0.0,0.0,5.29362,0.0,0.0,6.88755,0.76423,17.23804,11.66384,3.72209,-15.69697,-37.94192,-6.11455,0.00021,-39.45471,-1.29841,0.00426,41.17335,6.23083,10.85315,9.58378,0.19982,-9.41351,8.69258,33.24272,-3.41238,41.85119,-29.5265,50.41539,80.67884,-0.00067,-87.71133,75.7975,0.01279,79.12224,-10.11663,12.09137,0.00274,-6.68044,-12.30127,-0.03366,7.42984,0.99393,5.69623,-14.9572,-1.25766,5.64403,-0.73807,-3.93883,11.87507
1346,12.09203,-0.0,0.0,3.55836,0.0,-0.0,6.93952,0.86502,16.3591,9.24966,3.12346,-16.12923,-37.59246,-6.34315,-0.0013,-44.8347,-0.76791,-0.01281,40.25738,6.0614,10.61045,12.08514,0.03686,-9.15879,8.57925,32.61843,-4.16571,41.285,-31.20254,50.7929,81.20515,-0.00239,-88.43506,76.71181,0.01438,78.06897,-10.76516,11.91162,0.00485,-6.39706,-12.88999,-0.01888,6.99729,1.08155,5.18885,-15.40745,-0.98337,5.20829,-0.66979,-3.68712,11.17678
1347,12.89924,0.0,-0.0,0.8024,0.0,0.0,7.02502,0.8183,15.55603,7.65739,2.47069,-16.28279,-37.11133,-6.69539,-0.00211,-50.39311,0.00022,-0.02641,39.26265,5.9262,10.22822,14.74036,-0.18815,-9.03428,8.40969,31.8959,-4.92234,40.5416,-32.77677,51.09807,81.9603,-0.00211,-88.92846,77.88687,-0.00344,77.57779,-10.87503,12.07461,0.00483,-6.98627,-12.55723,-0.01295,6.51715,1.21961,4.78626,-15.90037,-0.70228,4.88879,-0.57632,-3.39482,10.39339
1348,13.6066,0.0,0.0,-1.65066,0.0,-0.0,7.18323,0.67871,14.9497,7.1904,1.78051,-16.22889,-36.73372,-7.06066,-0.00105,-56.14916,0.8299,-0.02214,38.2818,5.90475,9.66146,17.50685,-0.29221,-8.96075,8.26424,31.16225,-5.87021,39.72259,-34.20652,51.28827,82.89682,0.0047,-89.48236,79.21928,-0.02003,78.0073,-10.92693,12.61184,-0.00048,-7.52966,-11.84723,-0.00243,6.03736,1.41896,4.55329,-16.38691,-0.42917,4.74952,-0.55319,-2.99232,9.58606
1349,13.80361,0.0,0.0,-2.82217,0.0,0.0,7.43531,0.59206,14.45251,7.64173,1.12786,-15.94034,-36.66399,-7.2963,6e-05,-62.06471,1.48633,-0.00117,37.37394,6.09774,8.97328,20.32761,-0.14046,-9.07049,8.29112,30.52035,-7.30894,38.95922,-35.56264,51.37896,83.89694,0.01003,-90.31403,80.62492,-0.01893,78.85615,-11.54112,13.27036,-0.00653,-7.49796,-11.23326,0.00708,5.63597,1.66789,4.40381,-16.79254,-0.14206,4.70635,-0.71546,-2.38569,8.82972
1350,13.33179,0.0,0.0,-2.94629,-0.0,-0.0,7.74602,0.58681,13.80639,8.60453,0.68925,-15.4207,-36.86592,-7.29021,-0.0004,-68.05067,1.87937,0.01305,36.48774,6.47572,8.35083,23.16273,0.16078,-9.52121,8.63684,30.01708,-9.27496,38.30312,-36.94768,51.38208,84.82605,0.00579,-91.07943,82.13827,0.00454,79.30152,-12.31939,13.779,-0.00301,-7.2059,-10.72682,0.00697,5.39571,1.88771,4.26888,-17.037,0.11259,4.66557,-1.13493,-1.58682,8.12532
1351,12.83972,0.0,0.0,-2.87235,0.0,-0.0,7.93764,0.59315,12.83366,9.74032,0.67608,-14.8147,-37.08799,-7.01072,-0.00065,-74.02615,2.13573,0.00992,35.5693,6.84363,8.00031,26.0939,0.33854,-10.20991,9.3215,29.59452,-11.40917,37.77717,-38.38281,51.30246,85.70574,-0.00153,-91.33855,83.7432,0.02596,78.87684,-12.12835,14.11986,0.00543,-7.26433,-10.25319,0.00116,5.33005,1.94315,4.17888,-17.1055,0.19816,4.60359,-1.76812,-0.74954,7.38657
1352,13.07472,0.0,0.0,-3.05018,-0.0,-0.0,7.86518,0.52666,11.60637,10.80272,1.07602,-14.29552,-37.11599,-6.49669,0.00059,-79.91151,2.37868,0.00943,34.66111,7.03049,8.00144,29.29671,0.25365,-10.88506,10.17045,29.14381,-13.31589,37.45247,-39.77184,51.20131,86.74561,-0.00505,-91.1433,85.28841,0.01601,78.16677,-10.52803,14.38142,0.00904,-7.85564,-9.87695,-0.00164,5.35607,1.77758,4.20169,-17.07865,0.03642,4.56147,-2.46195,-0.02156,6.55828
1353,14.18664,-0.0,0.0,-3.38718,-0.0,-0.0,7.56671,0.35457,10.43753,11.68068,1.59245,-13.90617,-36.91336,-5.89922,0.00155,-85.61135,2.60427,0.02023,33.82358,7.06862,8.13984,32.88032,0.02788,-11.38671,10.93331,28.60411,-14.93555,37.40323,-40.97117,51.19163,88.07431,-0.00529,-90.81619,86.65026,-0.00732,78.05578,-8.46559,14.63359,0.00475,-8.55342,-9.65013,-4e-05,5.37665,1.5179,4.32805,-17.05441,-0.25181,4.57913,-3.0788,0.58941,5.70961
1354,15.85228,0.0,0.0,-3.64866,-0.0,0.0,7.18345,0.18659,9.64667,12.42872,1.83167,-13.47254,-36.5714,-5.43711,0.00075,-91.04899,2.88146,0.01759,33.06719,7.11329,8.0385,36.8106,-0.1727,-11.6316,11.5111,27.98956,-16.4464,37.58993,-41.91808,51.29182,89.50512,-0.00508,-90.55939,87.89914,-0.01079,78.43865,-7.37021,15.06492,-0.00655,-8.77724,-9.48532,0.00228,5.37556,1.36482,4.43664,-17.05251,-0.43472,4.62106,-3.59942,1.16358,4.95218
1355,17.38817,-0.0,-0.0,-3.54011,-0.0,0.0,6.89189,0.17434,9.23814,13.11251,1.50536,-12.63418,-36.25613,-5.16262,-0.00057,-96.20531,3.46372,-0.01492,32.38985,7.24263,7.65234,40.97897,-0.36335,-11.4821,11.99278,27.35695,-17.91957,37.85612,-42.68411,51.34123,90.72992,-0.00641,-90.43717,89.22095,0.0043,78.56248,-7.6677,15.92029,-0.0178,-8.29445,-9.30203,0.00355,5.41309,1.37804,4.43255,-17.01506,-0.42095,4.62233,-4.10395,1.73615,4.31815
1356,18.11926,0.0,-0.0,-2.75048,-0.0,-0.0,6.84732,0.2134,8.98565,13.73469,0.75956,-11.20439,-36.14553,-4.9286,-0.00153,-101.08966,4.49356,-0.04845,31.75947,7.43991,7.28021,45.26505,-0.62601,-10.86197,12.46779,26.76799,-19.23978,38.07143,-43.39061,51.15234,91.70668,-0.00493,-90.50897,90.6936,0.01306,78.26941,-8.45555,17.1182,-0.01051,-7.30841,-9.17998,0.00207,5.56415,1.44182,4.35517,-16.86622,-0.33248,4.57515,-4.71673,2.30817,3.77397
1357,18.10063,-0.0,-0.0,-1.38725,0.0,0.0,7.05294,0.0219,8.82491,14.3622,0.27064,-9.56534,-36.27074,-4.6637,-0.00198,-105.64952,5.6424,-0.04047,31.0519,7.71647,6.97916,49.54193,-0.89482,-10.08512,12.92999,26.25047,-20.3221,38.2336,-44.09502,50.70641,92.70428,0.00899,-91.03541,92.19738,0.00725,78.07656,-8.7239,18.04974,0.005,-6.31752,-9.27954,4e-05,5.87807,1.45475,4.2743,-16.55472,-0.28968,4.50536,-5.56191,2.95266,3.29465
1358,17.81874,0.0,0.0,-0.07076,0.0,-0.0,7.37967,-0.37988,8.83814,15.12995,0.57936,-8.38631,-36.43302,-4.43895,-0.00131,-109.76415,6.32452,-0.00112,30.11112,8.07246,6.50431,53.7277,-1.09572,-9.74411,13.35809,25.79778,-21.23056,38.45202,-44.75708,50.16553,93.99976,0.02512,-92.20537,93.54089,0.00054,78.37202,-8.39706,17.97912,0.00462,-5.85152,-9.67747,0.00127,6.35463,1.46553,4.20991,-16.08007,-0.25514,4.44998,-6.68866,3.74088,2.83342
1359,17.33483,-0.0,0.0,0.73019,-0.0,0.0,7.71981,-0.62234,8.90674,16.08495,1.4104,-7.95334,-36.36707,-4.24939,0.00041,-113.36044,6.29516,0.02464,28.88591,8.37899,5.83823,57.86825,-1.38437,-10.1239,13.77322,25.4213,-22.08528,38.87727,-45.28762,49.7219,95.6367,0.01418,-93.45097,94.63366,-0.00169,79.23578,-7.94485,16.78952,-0.00208,-5.93872,-10.35206,-0.00036,6.93202,1.57373,4.20492,-15.50268,-0.15323,4.48666,-8.02622,4.58849,2.2591
1360,16.49125,0.0,0.0,1.14439,0.0,-0.0,8.02647,-0.49443,8.75845,17.1284,2.00469,-8.04001,-35.96511,-3.99871,0.00224,-116.46127,5.75265,0.02354,27.43663,8.5031,5.24492,62.07132,-1.98635,-11.03592,14.20564,25.1608,-22.98029,39.62998,-45.64334,49.48982,97.44711,-0.0144,-93.95831,95.53742,-0.00474,80.68127,-7.66294,15.20813,-0.00232,-5.99024,-11.27313,-0.01059,7.49683,1.76451,4.32571,-14.93408,-0.02297,4.67106,-9.45594,5.35509,1.46898
1361,15.57564,0.0,0.0,1.50403,0.0,-0.0,8.29547,-0.18703,8.39886,18.15997,1.98112,-8.3166,-35.32052,-3.72694,0.00183,-119.09692,4.97682,0.01157,25.84212,8.52912,4.75103,66.34572,-2.87517,-12.18953,14.67125,25.02128,-23.97709,40.74637,-45.8863,49.53067,99.22276,-0.02183,-93.86475,96.3865,-0.01029,82.60664,-7.68257,14.12455,0.00021,-5.62471,-12.26585,-0.0169,7.91455,1.90409,4.55616,-14.50897,0.01819,4.93723,-10.90932,6.07977,0.55569
1362,15.13415,-0.0,-0.0,1.96999,-0.0,0.0,8.57784,0.02381,8.16926,19.15467,1.60963,-8.64366,-34.65331,-3.5999,-0.00057,-121.24109,4.11976,0.00249,24.18764,8.71879,4.02157,70.59344,-3.79305,-13.45535,15.19213,24.93608,-25.08938,42.12954,-46.14513,49.83283,100.85707,-0.00691,-93.96316,97.26741,-0.01072,84.60358,-8.16766,13.77515,0.00031,-5.14364,-12.97413,-0.00976,8.09671,1.8694,4.79181,-14.31889,-0.10371,5.14172,-12.37655,6.99534,-0.26445
1363,15.40283,0.0,0.0,2.68484,0.0,0.0,8.93437,0.08281,8.25499,20.0358,1.45227,-9.04001,-34.21567,-3.62629,-0.00155,-122.85821,3.2373,-0.00079,22.56575,9.25244,2.88227,74.70991,-4.56455,-14.7765,15.77483,24.80647,-26.23448,43.58288,-46.51171,50.23111,102.37286,0.00675,-94.6237,98.1457,-0.00135,85.99911,-9.09593,13.72931,0.00064,-4.87088,-13.32891,0.00152,8.06508,1.64144,4.94079,-14.34575,-0.37123,5.19246,-13.89207,8.29761,-0.87518
1364,16.13353,0.0,-0.0,3.70382,-0.0,-0.0,9.35811,0.07798,8.44518,20.67436,1.8815,-9.51251,-34.13002,-3.62045,-0.00107,-123.94856,2.39606,-0.00124,20.9666,10.07545,1.60078,78.60341,-5.23046,-15.96945,16.36066,24.57931,-27.22209,44.99059,-46.9464,50.52448,103.8219,0.00963,-95.67226,98.90641,0.0072,86.43545,-9.96715,13.57727,0.00032,-4.75472,-13.60542,0.00981,7.93146,1.30355,4.97695,-14.47932,-0.69738,5.09706,-15.53282,9.936,-1.31107
1365,16.64662,0.0,-0.0,4.59477,0.0,0.0,9.83296,0.03684,8.51399,21.10427,2.72118,-9.92824,-34.287,-3.46713,-0.00059,-124.5138,1.71927,-0.0007,19.26016,10.99036,0.51666,82.20043,-5.87861,-16.76955,16.87301,24.31027,-27.87279,46.44599,-47.28463,50.73158,105.17875,0.00568,-96.85995,99.49204,0.00762,86.20361,-10.16724,13.38566,-0.00099,-4.84091,-13.69051,0.0073,7.80808,0.98996,4.9262,-14.60614,-0.96793,4.93057,-17.33976,11.6488,-1.61692
1366,16.39466,0.0,0.0,4.55639,0.0,-0.0,10.39261,-0.09964,8.52992,21.61304,3.38904,-10.11928,-34.48817,-3.24286,-6e-05,-124.5565,1.29666,0.00025,17.40543,11.84159,-0.34437,85.53965,-6.51127,-17.08509,17.29821,24.14333,-28.1646,48.10496,-47.39869,51.07053,106.40549,-5e-05,-98.01009,99.9752,0.0043,85.84578,-9.5656,13.43196,0.0026,-5.52468,-12.97327,-0.01679,7.74479,0.80905,4.82862,-14.67383,-1.09797,4.77135,-19.22648,13.19889,-1.77794
1367,15.92742,0.0,-0.0,3.14914,-0.0,0.0,10.96704,-0.32907,8.61941,22.4823,3.5869,-10.13698,-34.65151,-3.0748,0.00022,-124.15071,1.05111,-0.00265,15.54334,12.61059,-1.13073,88.79437,-7.09036,-17.09462,17.64688,24.19536,-28.23906,49.9383,-47.3672,51.6247,107.59764,-0.00421,-98.92189,100.42396,0.00145,85.74421,-8.47871,13.74061,0.00644,-7.01419,-11.4072,-0.03803,7.73118,0.76524,4.69053,-14.69209,-1.0858,4.62698,-21.04821,14.53534,-1.77925
1368,16.47994,0.0,0.0,0.69216,0.0,-0.0,11.37006,-0.50973,8.66753,23.62052,3.6316,-10.2318,-34.83044,-2.97895,-0.00015,-123.42339,0.81286,-0.01345,13.81035,13.37424,-1.78905,92.12903,-7.60281,-17.02724,17.87804,24.44506,-28.28738,51.75727,-47.42899,52.19984,108.9193,-0.00281,-99.52763,100.69595,-0.00269,85.67706,-7.37897,14.04497,0.00388,-8.60762,-10.25626,-0.03172,7.73181,0.74749,4.51417,-14.69693,-1.03493,4.45718,-22.74381,15.73944,-1.64224
1369,18.19455,0.0,0.0,-2.17526,-0.0,-0.0,11.6182,-0.50353,8.49184,24.59239,3.84709,-10.5296,-35.10317,-2.89584,-0.00069,-122.42624,0.65893,-0.02471,12.21744,14.20901,-2.11464,95.57951,-8.06523,-16.82375,17.9439,24.74977,-28.4254,53.44717,-47.76138,52.58264,110.35526,0.00297,-100.00288,100.50722,-0.0172,84.81413,-6.62114,14.19867,0.0009,-8.96278,-11.1266,-0.06946,7.70907,0.62633,4.37827,-14.72449,-1.09507,4.2853,-24.31046,16.90041,-1.39368
1370,19.83234,0.0,-0.0,-4.96001,-0.0,0.0,11.98887,-0.3392,8.17923,25.03033,3.94429,-10.86567,-35.47773,-2.8566,-0.00031,-121.09251,1.07731,-0.01817,10.74063,15.13408,-2.15284,99.0835,-8.49468,-16.04432,17.88924,25.00978,-28.66828,55.03691,-48.33728,52.80127,111.67152,0.00521,-100.41061,99.82214,-0.03046,82.90945,-6.13857,14.44761,0.00301,-7.55159,-13.94054,-0.12993,7.60607,0.3847,4.377,-14.82947,-1.31793,4.19189,-25.68238,18.04077,-1.04022
1371,20.48857,0.0,-0.0,-6.93644,0.0,0.0,12.62564,-0.16766,7.98281,24.86223,3.4332,-10.95008,-35.88649,-2.95395,0.00056,-119.35062,2.61975,0.01491,9.3658,16.10287,-2.18387,102.50987,-8.87852,-14.20424,17.82898,25.27255,-28.99183,56.59257,-48.97263,53.09459,112.69897,0.00403,-100.59882,99.04888,-0.02139,80.96297,-5.64459,15.00663,0.00692,-5.62136,-16.47396,-0.08912,7.34335,0.12951,4.48417,-15.09167,-1.59471,4.19356,-26.7902,19.10658,-0.58865
1372,20.48035,0.0,-0.0,-6.70162,0.0,-0.0,13.37915,-0.08627,7.98931,24.24463,2.48833,-10.5791,-36.26371,-3.1526,0.00052,-117.25376,5.35976,0.05296,7.98963,17.03917,-2.31378,105.61825,-9.17748,-11.309,17.82077,25.59152,-29.3222,58.1385,-49.49153,53.68681,113.51386,0.00189,-100.46987,98.65038,-0.01048,80.0396,-5.0388,15.67553,0.00979,-5.13905,-16.69582,-0.03526,6.8883,-0.05721,4.58709,-15.54595,-1.80657,4.21745,-27.74396,20.04377,-0.05719
1373,20.47274,-0.0,0.0,-3.30677,0.0,-0.0,14.08239,-0.06367,8.12658,23.50876,1.93673,-9.77923,-36.59725,-3.32614,-0.00018,-114.97073,8.64605,0.05888,6.434,17.87576,-2.41271,108.18712,-9.35741,-8.08824,17.81305,25.88416,-29.495,59.6015,-49.88551,54.54236,114.24619,-0.00392,-99.82712,98.60418,-0.00967,80.3559,-4.34369,16.36064,0.01448,-6.67557,-15.12066,-0.00973,6.3069,-0.22685,4.61527,-16.12869,-1.97413,4.17873,-28.76644,20.85023,0.54111
1374,20.83712,0.0,0.0,1.98001,0.0,-0.0,14.68048,-0.03047,8.37979,23.04687,2.33553,-8.88023,-36.89286,-3.45684,-0.00048,-112.62717,11.36373,0.02024,4.67485,18.53676,-2.37956,110.30055,-9.37261,-5.62964,17.69955,26.06714,-29.36948,60.78279,-50.31387,55.29631,114.86967,-0.0078,-98.46503,98.35117,0.00776,81.79047,-3.75733,17.50355,0.00982,-8.75675,-14.40668,0.02991,5.7039,-0.4411,4.55599,-16.73627,-2.14953,4.04207,-29.86723,21.48932,1.16803
1375,21.73343,0.0,-0.0,6.50302,-0.0,0.0,15.13578,-0.02468,8.76663,22.98819,3.40091,-8.27319,-37.14599,-3.61844,-0.00035,-110.18347,12.64768,-0.03697,2.95826,18.95087,-2.18905,112.3385,-9.15058,-4.66235,17.38815,26.21995,-28.98655,61.48215,-50.93577,55.50758,115.29899,-0.00331,-96.85986,97.25225,0.04372,84.03088,-3.83858,19.42796,-0.02039,-9.23496,-16.99406,-0.08859,5.13963,-0.63485,4.402,-17.30744,-2.26981,3.82563,-30.74301,21.84888,1.73658
1376,23.04287,0.0,-0.0,9.07373,0.0,0.0,15.45023,-0.13752,9.16257,23.05522,4.46035,-8.02846,-37.37481,-3.80246,-0.00026,-107.54335,12.60843,-0.06511,1.56095,19.14412,-1.81287,114.5564,-8.74032,-4.99951,16.88633,26.48471,-28.54394,61.68569,-51.76935,55.06272,115.58067,0.00356,-95.94595,95.15558,0.04418,86.1558,-4.96177,21.6136,-0.04112,-7.13038,-22.87549,-0.31725,4.62148,-0.74693,4.13423,-17.83386,-2.27115,3.53514,-31.11631,21.91614,2.17692
1377,24.47187,0.0,0.0,10.4639,0.0,-0.0,15.7096,-0.29526,9.39337,22.955,5.17055,-7.99293,-37.62175,-3.95143,2e-05,-104.75957,12.30195,-0.03778,0.47066,19.2599,-1.39397,116.75661,-8.41593,-5.6123,16.35963,26.90175,-28.26586,61.57797,-52.72167,54.332,115.88268,0.00696,-96.01207,92.62552,-0.00403,87.08981,-6.7348,23.09713,-0.01545,-3.45842,-29.24392,-0.25268,4.13283,-0.8464,3.73209,-18.33294,-2.20945,3.12523,-31.06297,21.91558,2.44296
1378,25.81365,0.0,-0.0,11.35058,0.0,0.0,16.02147,-0.33582,9.43685,22.77138,5.53071,-8.13498,-37.91656,-4.08463,0.00064,-102.00145,12.7211,0.01074,-0.58019,19.45055,-1.25551,118.48794,-8.43347,-5.52211,16.02369,27.41182,-28.28947,61.37458,-53.71099,53.89846,116.33972,0.00405,-96.42177,90.55861,-0.03366,86.59025,-8.3273,23.47394,0.01738,-0.58088,-32.69364,0.03426,3.64779,-0.98267,3.22312,-18.8297,-2.14085,2.6025,-30.89561,22.12431,2.44693
1379,26.99872,0.0,0.0,11.55408,0.0,0.0,16.43407,-0.29404,9.32945,22.68098,5.44308,-8.44145,-38.27625,-4.20018,0.00068,-99.30771,13.91063,0.03279,-1.7714,19.77537,-1.44,119.52014,-8.77179,-4.68332,15.9466,27.90288,-28.5501,61.19687,-54.72545,54.11836,116.94821,-0.00363,-96.40607,89.47865,-0.01817,85.48346,-9.09058,23.16342,0.0195,-0.43956,-31.74913,0.03923,3.13787,-1.08904,2.73263,-19.34883,-2.05161,2.10836,-30.82372,22.60153,2.13773
1380,28.14176,-0.0,-0.0,11.19591,-0.0,0.0,16.89053,-0.34636,9.03887,22.52155,4.70698,-8.74727,-38.71698,-4.20413,-0.00061,-96.50024,15.21782,0.02581,-3.02868,20.20872,-1.57831,119.9446,-9.2383,-3.80332,15.99409,28.23976,-28.78514,61.06992,-55.80342,54.90251,117.58765,-0.00649,-95.90128,89.16409,0.00586,84.90794,-8.896,22.72848,0.00554,-3.02494,-27.22247,-0.18944,2.57108,-1.12504,2.39261,-19.92052,-1.95484,1.78028,-30.8521,23.2104,1.63731
1381,29.48094,0.0,0.0,11.0482,-0.0,-0.0,17.29034,-0.51889,8.54149,22.00292,3.42643,-9.01377,-39.24593,-4.05569,-0.00234,-93.38417,16.08183,0.01759,-4.19283,20.69283,-1.34262,119.91808,-9.73406,-3.46365,15.97391,28.37647,-28.77177,60.92968,-56.99818,55.83468,118.13,-0.00163,-95.54124,88.92619,0.02065,85.25445,-8.22953,22.35692,-0.0032,-6.78765,-21.39997,-0.23427,1.91183,-1.13197,2.15915,-20.58246,-1.87194,1.56185,-30.89038,23.81154,1.16065
1382,31.07802,0.0,0.0,11.58974,0.0,0.0,17.6197,-0.66742,7.94584,21.10249,2.06143,-9.42784,-39.84349,-3.87344,-0.00244,-89.94367,16.36004,0.02699,-5.18175,21.13737,-0.81335,119.54633,-10.32754,-3.64102,15.81086,28.42818,-28.53727,60.64823,-58.33197,56.51027,118.52625,0.00225,-95.75419,88.24276,0.01908,85.75787,-7.78335,22.0904,-0.00274,-10.06868,-16.80242,-0.06624,1.16418,-1.1264,1.82162,-21.33321,-1.73767,1.25204,-30.79415,24.3346,0.76149
1383,32.59574,0.0,-0.0,12.79385,0.0,0.0,17.97205,-0.69751,7.55425,19.93287,0.86189,-9.995,-40.43629,-3.90877,-0.00015,-86.24612,16.02732,0.03307,-6.01692,21.44999,-0.43122,118.87663,-11.08166,-4.125,15.56414,28.53908,-28.25897,60.12897,-59.75997,56.8355,118.79404,0.00044,-96.04954,87.13937,-0.00537,85.17583,-7.69648,22.0288,0.00079,-12.09843,-14.60337,0.06168,0.42453,-1.10301,1.25819,-22.07637,-1.50049,0.74034,-30.42936,24.74668,0.28463
1384,33.57153,-0.0,-0.0,14.77796,0.0,0.0,18.40993,-0.67188,7.61381,18.45896,-0.5589,-10.43218,-40.92309,-4.33617,0.0017,-82.18476,14.85432,-0.0031,-6.79501,21.63292,-0.50092,117.80795,-11.88395,-5.14281,15.3574,28.71737,-28.0786,59.34129,-61.20468,56.96266,118.93748,-0.00178,-95.60228,85.98933,-0.03048,82.78784,-7.51292,22.05518,0.0029,-13.01277,-14.2554,0.06421,-0.14566,-1.11613,0.59365,-22.64859,-1.25833,0.12131,-29.80747,25.02871,-0.37184
1385,34.0357,-0.0,-0.0,17.46695,0.0,0.0,18.84817,-0.74678,7.93244,16.75354,-2.47258,-10.57866,-41.2681,-4.97541,0.00096,-77.49934,12.69292,-0.07118,-7.56971,21.74934,-0.76658,116.13688,-12.54967,-7.04588,15.3665,28.8621,-28.08585,58.24628,-62.64445,56.93839,118.89881,0.00037,-94.43273,85.08982,-0.03032,79.08221,-7.05684,21.66741,0.00398,-13.14665,-14.61275,0.01896,-0.43565,-1.2074,0.02659,-22.93871,-1.12567,-0.43751,-29.04249,25.16632,-1.1367
1386,34.56634,0.0,0.0,19.65377,0.0,0.0,19.12576,-1.03148,8.0598,15.40821,-3.70489,-10.54,-41.50641,-5.44679,-0.00062,-72.16901,9.91584,-0.10621,-8.28014,21.79329,-0.79415,113.81933,-13.07239,-9.5264,15.73666,28.89852,-28.27958,56.74729,-64.12685,56.55203,118.60516,0.00309,-93.32285,84.51756,-0.00883,76.09434,-6.75504,20.45517,0.01095,-12.70994,-14.847,-0.00901,-0.50661,-1.29181,-0.42873,-23.00826,-1.02943,-0.89045,-28.17949,25.14557,-1.96432
1387,35.4817,0.0,0.0,19.63278,-0.0,0.0,19.19762,-1.48835,7.77262,15.12939,-2.12982,-10.40854,-41.62661,-5.60669,-0.00108,-66.71124,7.23083,-0.07293,-8.91767,21.72527,-0.52499,111.07368,-13.64742,-11.75031,16.38911,28.85134,-28.4817,54.71437,-65.65697,55.53273,118.04897,0.00186,-92.77541,84.20275,0.00992,76.20402,-6.91886,18.89702,0.0132,-11.83704,-14.61384,-0.01131,-0.58956,-1.2477,-0.93446,-23.08717,-0.79519,-1.34075,-27.19946,24.95262,-2.94173
1388,36.34508,-0.0,-0.0,16.96531,-0.0,0.0,19.20437,-2.01714,7.10304,15.86444,2.58227,-10.24858,-41.53336,-5.57789,-0.00025,-61.9604,5.21401,-0.00835,-9.68289,21.57088,-0.12419,108.20066,-14.43652,-13.13027,17.05128,28.81586,-28.51784,52.03669,-67.14449,53.76126,117.32687,-0.00301,-92.83398,84.01257,0.0155,79.66884,-7.40447,18.16414,-0.00295,-10.5164,-14.03576,-0.00415,-0.89278,-1.08921,-1.59193,-23.38268,-0.39728,-1.88747,-26.17082,24.57204,-4.13349
1389,36.65871,0.0,0.0,13.31358,0.0,-0.0,19.30349,-2.57396,6.15147,16.74246,7.67609,-10.13716,-41.1449,-5.49191,0.0008,-58.47419,4.16975,0.03245,-10.7729,21.3542,0.34267,105.47813,-15.38865,-13.60138,17.55127,28.8615,-28.48874,48.66263,-68.50518,51.26403,116.63638,-0.00637,-93.4333,83.88017,0.01032,84.18126,-8.06276,18.54464,-0.01529,-8.81606,-13.31984,0.00321,-1.41855,-0.94092,-2.28805,-23.89811,0.00592,-2.47387,-25.2238,23.9763,-5.4255
1390,36.65277,0.0,0.0,11.48994,0.0,-0.0,19.52277,-3.09079,5.08111,16.9464,10.08318,-10.12932,-40.47708,-5.41847,0.00088,-56.1821,4.16969,0.03505,-12.10549,21.04657,0.87921,103.16859,-16.30647,-13.36007,17.93646,28.96928,-28.65648,44.58854,-69.72955,48.09298,116.17271,-0.00406,-94.21539,83.87157,0.00276,87.29532,-8.97165,18.76002,0.00209,-7.19639,-12.3753,0.00591,-2.03903,-0.85637,-2.79787,-24.50951,0.27892,-2.91258,-24.38564,23.15139,-6.57457
1391,36.82836,0.0,0.0,13.00221,-0.0,0.0,19.87018,-3.4103,4.08979,16.45026,9.57345,-10.53242,-39.66517,-5.42165,-0.00035,-54.61597,5.07013,0.02295,-13.42878,20.66147,1.4281,101.39677,-17.06408,-12.56219,18.28586,29.06274,-29.08836,39.84021,-70.83835,44.27994,115.94619,9e-05,-94.49548,84.05073,0.00066,88.53239,-10.19971,17.71473,0.03043,-6.1729,-11.11669,-0.00037,-2.6828,-0.77472,-3.03841,-25.14863,0.44629,-3.10363,-23.57597,22.16562,-7.45066
1392,37.10212,-0.0,0.0,16.35087,-0.0,0.0,20.42055,-3.45775,3.27583,15.86815,8.0505,-11.6865,-38.92047,-5.5243,-0.00131,-53.34021,6.52249,0.01551,-14.56959,20.27982,1.88599,100.05164,-17.70986,-11.26182,18.56391,29.07408,-29.53694,34.49651,-71.85397,39.86602,115.77599,0.00375,-93.86463,84.36219,-0.00032,88.97343,-11.57668,16.10184,0.02627,-5.75377,-9.81911,-0.00583,-3.33278,-0.68164,-3.18597,-25.79584,0.58869,-3.20443,-22.74431,21.16134,-8.1736
1393,37.19287,0.0,0.0,18.55478,0.0,0.0,21.13464,-3.31942,2.60955,15.79473,6.86774,-13.35919,-38.39564,-5.63741,-0.00098,-52.08737,7.9414,0.01046,-15.51559,19.94605,2.25163,98.87094,-18.30527,-9.67819,18.73032,28.98203,-29.65193,28.6902,-72.80294,34.89977,115.51669,0.00586,-92.58627,84.71514,-0.00348,89.61277,-12.63868,15.30107,0.00098,-5.55468,-8.91325,-0.00459,-3.90953,-0.69019,-3.47966,-26.36599,0.69298,-3.47911,-21.99831,20.25132,-8.90861
1394,37.2783,0.0,0.0,18.22567,0.0,0.0,21.79624,-3.09243,2.03663,16.323,5.98486,-14.89159,-38.0904,-5.6007,-0.00032,-50.65427,8.6672,0.00033,-16.33869,19.60758,2.65887,97.60041,-18.76873,-8.3445,18.898,28.80659,-29.27146,22.56015,-73.67667,29.40323,115.20102,0.00339,-91.3354,85.10107,-0.00568,90.5024,-12.86625,15.46725,-0.00882,-5.29487,-8.62408,-0.00321,-4.26827,-0.89475,-3.92636,-26.7127,0.6745,-3.97006,-21.57659,19.4538,-9.63135
1395,37.28648,0.0,0.0,16.18822,-0.0,0.0,22.30204,-2.88196,1.51642,17.01473,5.07914,-15.88254,-37.91526,-5.29436,9e-05,-48.83997,8.45382,-0.01009,-17.01295,19.15506,3.15895,96.14714,-18.9906,-7.65511,19.27098,28.57491,-28.53009,16.19444,-74.40909,23.34384,114.93842,-0.00108,-90.63467,85.59203,-0.00306,91.07929,-12.19541,15.70437,-0.01015,-4.83243,-8.81987,-0.00352,-4.2719,-1.23722,-4.28406,-26.70498,0.49446,-4.43137,-21.60972,18.72244,-10.2268
1396,36.57206,0.0,-0.0,13.63664,0.0,0.0,22.77001,-2.85949,1.0064,17.32581,4.37968,-16.3946,-37.78125,-4.70722,0.00076,-46.46745,7.66122,-0.01105,-17.37103,18.5253,3.55288,94.55318,-19.03974,-7.42161,19.97179,28.29545,-27.73685,9.59946,-74.9259,16.6635,114.74707,-0.00299,-90.46365,86.26448,0.00437,90.92747,-11.13786,15.60953,-0.00865,-4.05631,-9.07925,-0.00078,-3.85001,-1.56957,-4.3652,-26.27984,0.21821,-4.63317,-21.98398,18.03143,-10.73223
1397,34.99985,0.0,-0.0,10.88058,0.0,0.0,23.26969,-3.1126,0.5273,17.05443,4.39808,-16.59077,-37.62355,-3.95715,0.00158,-43.41366,6.76611,-0.00896,-17.35511,17.80944,3.57496,92.73986,-19.11123,-7.25303,21.00994,27.97831,-27.16249,2.92328,-75.17592,9.57077,114.5189,-0.00142,-90.39442,87.0858,0.011,90.11095,-10.28601,15.63111,-0.00213,-3.11637,-9.04608,0.00374,-3.0766,-1.76482,-4.25366,-25.50973,-0.0048,-4.60461,-22.55915,17.44227,-11.32445
1398,33.11008,0.0,-0.0,7.68939,0.0,-0.0,23.71091,-3.57806,0.21536,16.3701,5.18258,-16.53909,-37.43528,-3.27947,0.00135,-39.6291,5.91766,-0.01417,-17.15355,17.19755,3.14119,90.46002,-19.26241,-7.10462,22.31196,27.66418,-26.87895,-3.08751,-75.13451,2.96666,114.14079,0.00214,-90.05529,87.83259,0.00998,88.88,-9.87449,16.06361,0.00078,-2.39618,-8.80073,0.00333,-2.21059,-1.74397,-4.13844,-24.64721,-0.02948,-4.4902,-23.36638,17.03184,-12.10138
1399,31.36241,-0.0,-0.0,3.90278,0.0,0.0,23.96981,-4.08363,0.14912,15.4271,6.022,-16.35331,-37.26627,-2.86314,0.00041,-35.15643,5.13843,-0.01256,-16.91543,16.71525,2.39339,87.66263,-19.36697,-6.99142,23.69257,27.39045,-26.78232,-7.3413,-74.84674,-1.9296,113.60767,0.00363,-89.47748,88.18802,2e-05,87.40006,-9.79284,16.58424,-0.00028,-2.074,-8.70936,0.00094,-1.60702,-1.49539,-4.08062,-24.04547,0.17822,-4.34191,-24.39907,16.71824,-13.00909
1400,30.05829,0.0,0.0,-0.36095,-0.0,-0.0,23.97283,-4.33653,0.14094,14.0188,6.03901,-16.23583,-37.14202,-2.64295,7e-05,-30.15696,4.59102,0.00776,-16.5131,16.12002,1.64858,84.71269,-19.33141,-6.53151,24.93776,27.14092,-26.7844,-9.49304,-74.40605,-4.73526,112.96162,0.00207,-89.06309,87.97617,-0.01072,85.86458,-9.84143,16.82691,-0.00197,-2.01902,-8.92718,0.00103,-1.54017,-1.11432,-4.09733,-23.97905,0.53681,-4.2119,-25.39051,16.26509,-13.93259
1401,29.23842,0.0,0.0,-4.52797,0.0,-0.0,23.77724,-4.13066,-0.04695,11.7203,5.09219,-16.27929,-37.05794,-2.44645,0.00015,-24.95334,4.33321,0.01978,-15.78118,15.21459,1.15502,82.03455,-19.19135,-5.45821,25.98762,26.8667,-26.89235,-10.19506,-73.87396,-6.1125,112.14545,0.00457,-89.08104,87.27297,-0.01219,84.63526,-9.87784,16.82943,-0.00371,-2.11135,-9.19882,0.00149,-2.07557,-0.75433,-4.31919,-24.50995,0.95422,-4.27955,-26.07269,15.5406,-14.75893
1402,28.57339,0.0,-0.0,-7.58008,0.0,-0.0,23.52823,-3.62849,-0.39577,8.48146,4.02009,-16.28564,-37.04735,-2.2665,6e-05,-20.04307,4.10184,0.00365,-14.84909,14.14371,0.86913,79.66718,-19.01587,-4.36123,26.92803,26.53185,-27.08836,-10.22152,-73.27882,-6.82204,110.98137,0.01409,-89.33566,86.29683,-0.00605,84.03397,-9.75459,16.91003,-0.00266,-2.41738,-9.16499,-0.00109,-3.09624,-0.50551,-4.87119,-25.51604,1.3948,-4.69493,-26.53974,14.68423,-15.42098
1403,27.90951,0.0,0.0,-8.58622,-0.0,0.0,23.23142,-3.23341,-0.76758,4.9755,3.8771,-15.92824,-37.14985,-2.18107,2e-05,-16.01142,3.68309,-0.01106,-14.01317,13.22312,0.62114,77.4026,-18.88587,-4.19062,27.82132,26.11323,-27.27818,-9.94077,-72.62007,-7.17892,109.3034,0.01263,-89.69483,85.24358,0.00087,84.12942,-9.30661,17.41269,0.00514,-3.02084,-8.76953,-0.00487,-4.4184,-0.3633,-5.67393,-26.81273,1.83225,-5.3831,-27.08093,13.9398,-15.95137
1404,27.32744,0.0,0.0,-7.36707,-0.0,-0.0,22.77022,-3.19367,-1.1056,2.17413,5.04674,-15.21458,-37.33009,-2.18193,5e-05,-13.38174,3.30629,-0.00436,-13.34715,12.57342,0.37224,75.27389,-18.9004,-5.05079,28.66064,25.6123,-27.40176,-9.44702,-71.86627,-7.23843,107.14107,-0.01474,-90.56113,84.18011,0.0078,84.87089,-8.49721,18.40547,0.01386,-3.74705,-8.26526,-0.00445,-5.86058,-0.29036,-6.48452,-28.22483,2.20832,-6.10531,-27.74176,13.37344,-16.42752
1405,26.65191,0.0,-0.0,-4.59923,0.0,0.0,22.16334,-3.42263,-1.37773,0.64399,7.19998,-14.58043,-37.4935,-2.21455,8e-05,-12.48706,3.38046,-0.0022,-12.65582,12.05291,0.23486,73.64105,-19.0822,-6.0621,29.4512,25.07102,-27.51208,-8.71755,-71.03526,-6.98681,104.78646,-0.03816,-92.2208,83.04143,0.01211,86.09311,-7.53091,19.43218,0.0112,-4.2088,-7.87722,-0.00115,-7.24911,-0.25061,-7.08976,-29.58823,2.47525,-6.6504,-28.27748,12.84475,-16.84731
1406,25.7646,0.0,0.0,-1.41991,0.0,0.0,21.56058,-3.65542,-1.50944,0.28274,9.67324,-14.33939,-37.57041,-2.25854,0.00021,-13.38667,3.93561,-0.01548,-11.756,11.5124,0.33144,72.80486,-19.27834,-6.41254,30.19214,24.52495,-27.69144,-7.74221,-70.24503,-6.42775,102.62716,-0.0269,-94.18753,81.75671,0.00664,87.33559,-6.81213,19.80785,0.00288,-4.22462,-7.6136,0.00044,-8.41977,-0.20809,-7.39518,-30.74579,2.63063,-6.91702,-28.45969,12.24502,-17.10974
1407,25.06223,0.0,0.0,0.86641,0.0,0.0,21.01822,-3.7108,-1.42827,0.58213,11.68247,-14.28853,-37.55625,-2.33011,0.00038,-15.86563,4.52679,-0.0154,-10.62425,11.00022,0.65808,72.72421,-19.19287,-6.09768,30.73922,24.00866,-27.87471,-6.58323,-69.61149,-5.61342,100.93917,0.00023,-95.70803,80.34628,-0.00364,88.13991,-6.65476,19.33979,0.00238,-4.05277,-7.45674,0.00041,-9.24679,-0.13457,-7.38741,-31.57447,2.69569,-6.88187,-28.25257,11.65196,-17.09919
1408,24.83416,0.0,0.0,1.26993,-0.0,0.0,20.48863,-3.62698,-1.08882,1.0959,12.49137,-14.09245,-37.46915,-2.4704,0.00011,-19.5238,4.69512,0.00687,-9.33364,10.68756,1.0362,73.09764,-18.60317,-5.65391,30.81095,23.65025,-27.83068,-5.2756,-69.12995,-4.59925,99.85686,0.01384,-96.51793,78.88864,-0.00485,88.57372,-6.9631,18.55586,0.0026,-4.1356,-7.54018,0.00239,-9.67205,-0.01842,-7.11889,-32.01387,2.70109,-6.58902,-27.76243,11.23562,-16.76865
1409,24.67569,0.0,0.0,-0.18508,0.0,0.0,19.97448,-3.55076,-0.44804,1.71235,11.71785,-13.8801,-37.29149,-2.72082,-0.0011,-23.91854,4.40956,0.01941,-8.00702,10.63385,1.16687,73.58435,-17.56993,-5.51649,30.25327,23.61404,-27.42082,-3.82035,-68.70479,-3.48572,99.37584,0.01081,-96.88657,77.48061,-0.00038,88.9908,-7.48533,18.02799,0.00022,-4.62151,-7.96003,0.00581,-9.70944,0.14078,-6.72642,-32.07082,2.69907,-6.16504,-27.1751,11.09434,-16.19297
1410,24.11944,0.0,0.0,-2.6108,-0.0,0.0,19.50286,-3.49059,0.46471,2.5274,9.79006,-14.12476,-36.9804,-3.03802,-0.00245,-28.73779,3.97641,0.00566,-6.78552,10.66051,0.85092,73.97334,-16.38911,-5.70936,29.25245,23.87562,-26.78726,-2.26459,-68.27837,-2.42161,99.29016,0.00341,-97.1379,76.21951,-0.00149,89.43637,-8.25184,17.69696,0.00461,-5.16607,-8.5514,0.00451,-9.44142,0.3355,-6.37569,-31.82029,2.74565,-5.76614,-26.6763,11.18098,-15.56256
1411,23.28632,-0.0,0.0,-5.05895,0.0,0.0,19.01649,-3.28457,1.4154,3.54043,7.8655,-14.95646,-36.53004,-3.23183,-0.0019,-33.86014,3.59792,-0.01061,-5.73035,10.51594,0.28758,74.24299,-15.30159,-6.05215,28.20101,24.18849,-26.19015,-0.65712,-67.89674,-1.42598,99.25548,0.00053,-97.24207,75.14994,-0.00422,89.84146,-9.28951,17.19414,0.01377,-5.34264,-9.01475,0.00063,-8.99166,0.53614,-6.1694,-31.38202,2.85262,-5.49867,-26.30763,11.3564,-15.04185
1412,22.49568,0.0,-0.0,-6.90065,0.0,-0.0,18.4433,-2.83685,2.08512,4.57345,6.8064,-15.91575,-35.98806,-3.09284,0.00064,-39.21225,3.18909,-0.00723,-4.76682,10.13879,-0.01481,74.48357,-14.29963,-6.49252,27.38838,24.3333,-25.78817,0.98233,-67.63631,-0.36979,98.9971,0.00402,-96.9495,74.23698,-0.00161,90.4407,-10.20301,16.61633,0.01523,-5.16695,-9.21152,-0.00035,-8.45868,0.68715,-6.14005,-30.85304,2.98106,-5.41389,-25.94221,11.49996,-14.61224
1413,21.73359,0.0,-0.0,-7.84363,0.0,0.0,17.80429,-2.27505,2.39687,5.42032,6.50899,-16.50012,-35.39746,-2.61126,0.00293,-44.62879,2.59964,0.00712,-3.74431,9.66017,0.25526,74.77879,-13.24287,-7.07831,26.85329,24.30648,-25.63355,2.55118,-67.48967,0.75094,98.44953,0.00593,-96.3652,73.43001,0.00362,91.52946,-10.67566,16.44782,0.01174,-4.98707,-9.19241,0.00038,-7.89289,0.74017,-6.27326,-30.28345,3.08083,-5.517,-25.40865,11.54004,-14.12932
1414,20.79077,0.0,0.0,-7.88837,0.0,0.0,17.14923,-1.82675,2.55983,5.99624,6.42862,-16.71895,-34.75759,-1.98664,0.00337,-49.8966,1.83,0.01434,-2.54582,9.20834,0.98535,75.15182,-12.04859,-7.76612,26.43244,24.24906,-25.67949,3.89006,-67.36332,1.75212,97.74454,-9e-05,-96.07243,72.72401,0.00624,93.1013,-11.08827,16.80028,0.007,-5.03024,-9.02763,0.00079,-7.34701,0.69148,-6.46622,-29.72933,3.10929,-5.71424,-24.5864,11.43087,-13.51658
1415,19.84129,0.0,0.0,-7.34895,0.0,0.0,16.42128,-1.57874,2.83516,6.38997,6.27428,-16.91363,-34.06065,-1.47264,0.00152,-54.88008,0.9978,0.01193,-1.15879,8.80724,1.82206,75.55027,-10.72848,-8.4459,25.89614,24.29182,-25.72687,5.05344,-67.1888,2.60011,97.09174,-0.00407,-96.27961,72.11717,0.00463,94.78128,-12.02391,17.32686,0.00091,-5.26843,-8.83179,0.00111,-6.89216,0.58028,-6.54817,-29.26905,3.03766,-5.83252,-23.45291,11.17723,-12.83817
1416,19.49825,0.0,0.0,-6.8775,0.0,-0.0,15.49788,-1.45852,3.32903,6.83399,6.04215,-17.24273,-33.32956,-1.24114,-0.00131,-59.54326,0.21742,0.00729,0.33056,8.4301,2.41753,75.83781,-9.35202,-9.05879,25.12172,24.482,-25.57184,6.31214,-66.99603,3.50827,96.63951,-0.00114,-96.44547,71.56895,0.0002,95.9699,-13.52171,17.77629,-0.00267,-5.52986,-8.74821,0.00125,-6.56361,0.45352,-6.45282,-28.9417,2.88416,-5.79256,-22.11281,10.86577,-12.19973
1417,19.96307,0.0,-0.0,-7.00197,0.0,0.0,14.38042,-1.41175,3.87818,7.56707,5.73773,-17.57101,-32.5931,-1.27589,-0.00247,-63.87699,-0.43439,0.0039,1.81096,8.07878,2.69304,75.84412,-8.01505,-9.58907,24.17934,24.77003,-25.22633,7.81826,-66.87765,4.62173,96.43192,0.0007,-96.09174,71.0228,-0.00302,96.35796,-15.15381,18.13702,-0.00182,-5.67951,-8.70152,0.00031,-6.32776,0.33337,-6.30003,-28.70948,2.71487,-5.69691,-20.7343,10.61132,-11.63045
1418,20.50686,0.0,0.0,-7.56845,0.0,-0.0,13.2541,-1.43559,4.19115,8.616,5.3268,-17.70472,-31.84846,-1.41247,-0.00134,-67.9024,-0.88674,0.0001,3.18875,7.76467,2.88089,75.46362,-6.79293,-9.94417,23.22804,25.04402,-24.81677,9.58858,-66.90565,5.97433,96.44188,-0.00188,-95.09838,70.42353,-0.00315,96.22339,-16.31065,18.41783,0.0027,-5.76179,-8.4219,-0.00121,-6.13867,0.22116,-6.21912,-28.52148,2.58031,-5.66479,-19.44622,10.44331,-11.10454
1419,20.1768,0.0,-0.0,-7.95705,-0.0,-0.0,12.33658,-1.49814,4.14743,9.73139,4.89113,-17.56757,-31.07345,-1.51939,0.00047,-71.74144,-1.07512,-0.00491,4.37943,7.43509,3.18955,74.70821,-5.73201,-9.9201,22.35911,25.20882,-24.34331,11.66191,-67.05779,7.64564,96.57749,-0.00425,-93.44109,69.797,-0.00265,95.94014,-16.42284,18.5515,0.00481,-5.84375,-7.84093,-0.00182,-6.01625,0.13443,-6.18039,-28.39906,2.48536,-5.662,-18.29427,10.26971,-10.67615
1420,19.05765,0.0,0.0,-7.75127,0.0,-0.0,11.62585,-1.52202,3.82942,10.58621,4.59102,-17.1973,-30.24289,-1.57685,0.00152,-75.55428,-1.0004,-0.00855,5.3743,6.9764,3.54597,73.69221,-4.90943,-9.39049,21.5821,25.24969,-23.73536,13.90271,-67.22308,9.58003,96.70155,-0.00206,-91.44482,69.33502,-0.00169,95.64329,-15.41616,18.41459,-0.00098,-5.87682,-7.29934,-0.00087,-5.99934,0.10682,-6.07523,-28.38564,2.4198,-5.5752,-17.21524,9.96721,-10.51743
1421,18.3361,0.0,-0.0,-6.99552,0.0,0.0,10.85102,-1.48593,3.38358,11.02847,4.42261,-16.63432,-29.32892,-1.63944,0.00096,-79.35665,-0.73935,-0.009,6.27833,6.33362,3.74325,72.5244,-4.40522,-8.49435,20.8975,25.24095,-23.05802,15.92107,-67.30835,11.44552,96.74094,0.00122,-89.74066,69.23357,0.00046,95.35579,-13.89057,17.90459,-0.00825,-5.90763,-7.20318,0.00113,-6.03399,0.13522,-5.87608,-28.42804,2.37019,-5.38007,-16.09496,9.48952,-10.72788
1422,18.77093,0.0,-0.0,-5.98791,0.0,-0.0,9.79787,-1.56784,2.97563,11.15808,4.28292,-15.86912,-28.37087,-1.80243,-0.00083,-82.97294,-0.38159,-0.00645,7.23287,5.63322,3.74386,71.19727,-4.18188,-7.55887,20.30174,25.30154,-22.48541,17.50427,-67.291,12.95761,96.75002,0.00162,-88.59132,69.42281,0.00218,94.94944,-12.60911,17.08407,-0.00689,-6.14243,-7.52632,0.00365,-6.01069,0.18683,-5.65253,-28.4134,2.33273,-5.15354,-14.89486,8.896,-11.1485
1423,19.80248,0.0,0.0,-4.98722,0.0,-0.0,8.57932,-1.98149,2.6851,11.16729,4.277,-14.967,-27.53496,-2.12902,-0.00143,-86.20094,-0.005,-0.00107,8.38,5.11421,3.78691,69.66333,-4.09467,-6.87184,19.76004,25.51624,-22.11946,18.89301,-67.15515,14.1725,96.80089,0.00044,-87.67364,69.59037,0.00143,94.3017,-11.90536,16.29994,-0.00037,-6.64584,-7.84894,0.003,-5.89863,0.26885,-5.47073,-28.30875,2.33925,-4.95403,-13.63678,8.28825,-11.48425
1424,20.33974,0.0,0.0,-4.01871,0.0,-0.0,7.5221,-2.56338,2.41665,11.09129,4.51215,-14.21523,-26.9733,-2.59096,-0.00029,-88.97229,0.32936,0.00483,9.77461,4.90532,4.18117,67.93372,-4.0012,-6.52432,19.22502,25.88356,-21.93444,20.47337,-66.88386,15.34765,96.88739,-0.0004,-86.60971,69.48573,0.00031,93.62719,-11.67753,15.9982,0.00216,-7.26147,-7.86717,-0.00036,-5.75327,0.41314,-5.31876,-28.1706,2.4147,-4.75836,-12.35119,7.71655,-11.57249
1425,19.89539,0.0,0.0,-3.07331,0.0,0.0,6.86817,-2.78009,2.08464,10.82141,4.65594,-13.9718,-26.64059,-3.13346,6e-05,-91.35432,0.62649,0.00673,11.24612,4.91296,4.97011,66.01036,-3.81135,-6.3867,18.67636,26.33382,-21.84828,22.314,-66.53281,16.58703,96.98956,-0.0005,-85.47479,69.15742,0.00152,93.29943,-11.65862,16.25159,0.00099,-7.86018,-7.68657,-0.00227,-5.62355,0.58811,-5.14593,-28.04911,2.51052,-4.53166,-11.12733,7.15334,-11.45794
1426,18.90344,0.0,0.0,-2.40981,0.0,0.0,6.5956,-2.34412,1.76998,10.34025,4.18314,-14.27378,-26.37241,-3.70865,-0.00084,-93.43049,1.01424,0.00144,12.5268,4.92654,5.89667,63.82267,-3.49879,-6.18685,18.14202,26.77749,-21.79094,24.07786,-66.22377,17.66595,97.12542,0.00016,-84.67268,68.89626,0.00016,93.56071,-11.56168,16.65289,0.00012,-8.33585,-7.53786,-0.00241,-5.52919,0.71044,-4.95725,-27.96238,2.55162,-4.31038,-10.08718,6.55665,-11.2616
1427,18.15141,0.0,0.0,-2.17772,-0.0,-0.0,6.4911,-1.64729,1.53496,9.73406,2.9765,-14.7879,-26.09887,-4.17347,-0.00083,-95.17893,1.68477,-0.00641,13.52351,4.80125,6.76667,61.27382,-3.10488,-5.68542,17.67239,27.14895,-21.72993,25.3923,-66.04432,18.2843,97.28439,0.00126,-84.47533,68.94363,-0.00682,94.48388,-11.26328,16.80689,-0.00061,-8.5039,-7.36608,-0.0013,-5.48866,0.76692,-4.81458,-27.92685,2.54938,-4.15681,-9.26981,5.93763,-11.05444
1428,18.18193,-0.0,-0.0,-1.99859,0.0,0.0,6.34423,-1.36136,1.28082,9.07769,1.48207,-15.27087,-25.87453,-4.3182,0.00022,-96.49065,2.60926,-0.00673,14.34179,4.53489,7.67652,58.32257,-2.69455,-4.9389,17.28451,27.43854,-21.65638,26.21781,-65.99993,18.4361,97.3903,0.00124,-84.90163,69.284,-0.00991,95.62527,-10.92333,16.73069,-0.00136,-8.25636,-6.95365,0.00214,-5.50588,0.83996,-4.74718,-27.94717,2.59116,-4.06655,-8.61006,5.35115,-10.8421
1429,19.07847,0.0,0.0,-1.51735,0.0,0.0,6.05897,-1.72983,0.99047,8.50945,0.3588,-15.85513,-25.74603,-4.11938,0.00062,-97.29674,3.37532,-0.00076,15.11892,4.20102,8.7578,55.04635,-2.28616,-4.34547,16.95103,27.67465,-21.56633,26.81117,-66.06869,18.4021,97.37294,-0.00044,-85.85221,69.73887,-0.00288,95.95159,-10.75411,16.70108,-0.00378,-7.67086,-6.36071,0.00455,-5.55125,0.98264,-4.73072,-27.99551,2.71676,-3.99679,-8.00775,4.82975,-10.58687
1430,20.36445,0.0,-0.0,-1.05169,-0.0,-0.0,5.65575,-2.40031,0.96416,8.26835,-0.06647,-16.72391,-25.67862,-3.85859,8e-05,-97.60654,3.59079,0.00064,15.95346,3.83612,9.83593,51.64762,-1.86557,-4.2101,16.66065,27.86319,-21.49155,27.46896,-66.23808,18.49393,97.2367,-0.00202,-87.11241,70.17217,0.00482,94.81104,-10.77508,16.83007,-0.00903,-7.06629,-5.95874,0.0032,-5.58082,1.15681,-4.75097,-28.02779,2.88546,-3.94894,-7.35841,4.3199,-10.22514
1431,21.1871,-0.0,0.0,-1.15595,-0.0,-0.0,5.2383,-2.83817,1.56228,8.45223,-0.0311,-17.7424,-25.60601,-3.89065,-0.00093,-97.43747,3.39237,-0.00279,16.92424,3.40689,10.52827,48.35696,-1.47044,-4.33869,16.46313,27.97173,-21.53945,28.38089,-66.47169,18.91016,97.04063,-0.00217,-88.40315,70.54877,0.00536,92.62074,-11.03228,16.85375,-0.00997,-6.88729,-6.0288,0.00346,-5.55741,1.3111,-4.81381,-28.00578,3.05205,-3.9481,-6.56455,3.70204,-9.7182
1432,20.88058,-0.0,-0.0,-1.75052,0.0,0.0,4.95477,-2.80487,2.62757,8.832,0.04988,-18.59983,-25.52406,-4.29401,-0.00157,-96.79105,3.3024,-0.00048,18.01667,2.90281,10.74805,45.23965,-1.16899,-4.2687,16.40664,27.98091,-21.82585,29.56292,-66.70524,19.66401,96.8505,-0.00131,-89.54728,70.88366,0.00202,90.26061,-11.87357,16.37787,0.00642,-7.17504,-6.46923,0.00468,-5.46704,1.43745,-4.88147,-27.91626,3.19465,-3.96239,-5.63658,2.92264,-9.09874
1433,19.52301,-0.0,0.0,-2.25529,0.0,0.0,4.94654,-2.46609,3.48874,9.0941,0.07804,-19.17658,-25.5216,-4.84108,-0.00121,-95.67831,3.63739,0.01057,19.06048,2.42102,10.83145,42.10369,-0.93958,-3.79801,16.45184,27.91329,-22.34142,30.84245,-66.89998,20.57044,96.72803,-4e-05,-90.48364,71.20992,0.00096,88.14411,-13.58008,15.2942,0.03308,-7.4372,-6.9167,0.00259,-5.34828,1.53443,-4.85588,-27.80027,3.27451,-3.90161,-4.76927,2.07253,-8.43242
1434,17.85844,0.0,-0.0,-2.45315,0.0,0.0,5.26468,-2.10676,3.78671,9.17731,0.19241,-19.60955,-25.70614,-5.32494,-0.00051,-94.09118,4.20048,0.01984,19.91876,2.10197,11.02021,38.72869,-0.66573,-3.16211,16.50471,27.81146,-22.92729,32.00546,-67.06046,21.40108,96.70686,0.00097,-91.23819,71.55102,0.00189,86.20741,-15.7114,13.92506,0.03518,-7.35377,-7.05841,0.0009,-5.28644,1.57338,-4.6582,-27.74429,3.23503,-3.70378,-4.14661,1.28978,-7.7233
1435,16.50248,0.0,0.0,-2.50217,-0.0,0.0,5.80225,-1.78908,3.89124,9.18972,0.38244,-20.03411,-26.10378,-5.75287,0.00019,-91.98062,4.50003,0.01702,20.69657,1.99481,11.23911,35.17323,-0.27335,-2.77258,16.48696,27.72605,-23.37662,32.98852,-67.19202,22.05755,96.75894,0.00121,-91.89548,71.89288,0.00114,84.51755,-17.23002,12.80756,0.00883,-7.20951,-6.77852,-0.00111,-5.34747,1.54123,-4.29968,-27.81313,3.06839,-3.38439,-3.68561,0.615,-6.89191
1436,15.5774,0.0,0.0,-2.29107,-0.0,-0.0,6.34366,-1.32192,4.34499,9.14983,0.49501,-20.43085,-26.63114,-6.24902,0.0011,-89.32076,4.18942,0.00448,21.59104,2.05271,11.39519,31.70826,0.19564,-2.85401,16.32651,27.69761,-23.55338,33.94558,-67.26861,22.6392,96.8558,-4e-05,-92.3069,72.19709,-0.00118,83.37672,-17.54262,12.28187,-0.01019,-7.42764,-6.17852,-0.00506,-5.52361,1.50052,-3.85895,-27.99787,2.86239,-2.9923,-3.15856,-0.02112,-5.86492
1437,15.13163,0.0,-0.0,-1.54714,-0.0,-0.0,6.70603,-0.6109,5.26545,9.04498,0.51641,-20.79864,-27.16719,-6.8909,0.00139,-86.14252,3.2651,-0.01085,22.61777,2.23248,11.51622,28.4892,0.66744,-3.36195,15.96529,27.71204,-23.42988,35.1744,-67.24667,23.4072,97.03117,-0.00349,-92.02573,72.40891,-0.002,83.02065,-17.00886,12.32048,-0.00951,-8.01275,-5.55739,-0.00476,-5.7348,1.55951,-3.42862,-28.21816,2.75242,-2.57174,-2.50825,-0.67594,-4.6522
1438,15.42386,-0.0,0.0,-0.41111,-0.0,0.0,6.82415,0.08198,6.35909,9.00289,0.54937,-21.2983,-27.65454,-7.58617,0.00018,-82.48399,1.91035,-0.02862,23.63899,2.50394,11.684,25.45061,1.12452,-4.16373,15.43332,27.7205,-23.0072,36.88885,-67.10171,24.56661,97.28578,-0.00593,-90.92386,72.46919,0.00046,83.52169,-16.12085,12.82753,0.00349,-8.58446,-5.18029,0.0007,-5.86436,1.76512,-3.08795,-28.35696,2.81215,-2.178,-1.87524,-1.32642,-3.32893
1439,16.51137,0.0,0.0,0.61308,0.0,0.0,6.77379,0.38747,7.33303,9.20696,0.61386,-22.03885,-28.12388,-8.15436,-0.00133,-78.38335,0.36044,-0.04231,24.59228,2.80163,11.97602,22.50461,1.56471,-5.09321,14.84578,27.7166,-22.27749,38.99176,-66.83709,26.0315,97.50877,-0.00366,-89.49896,72.39523,0.00299,84.78429,-14.94859,13.84342,0.02002,-8.81816,-5.00069,0.00521,-5.83518,2.04283,-2.86707,-28.33614,2.98425,-1.86739,-1.35178,-1.9453,-1.97982
1440,17.60067,0.0,0.0,1.22145,0.0,0.0,6.78781,0.23536,8.20181,9.70131,0.73059,-22.8607,-28.63111,-8.59122,-0.00093,-73.91364,-1.03866,-0.03439,25.56566,3.0694,12.34702,19.68587,1.92686,-5.86804,14.30452,27.72624,-21.34389,41.14283,-66.46468,27.5193,97.60179,-0.00018,-88.37895,72.31808,0.00128,86.38596,-13.75533,15.23881,0.02026,-8.80657,-4.75809,0.00552,-5.68579,2.25046,-2.71546,-28.19277,3.11809,-1.64764,-0.84891,-2.56197,-0.67079
1441,17.68882,0.0,0.0,1.59724,0.0,0.0,7.06225,-0.05185,9.12439,10.30156,0.99428,-23.48826,-29.18334,-9.0701,0.00101,-69.14354,-1.89511,-0.00247,26.65656,3.29825,12.64353,17.05081,2.09589,-6.22861,13.86949,27.73304,-20.47694,43.0301,-66.02839,28.81456,97.62226,0.00215,-88.04738,72.38776,-0.00187,87.66765,-13.24217,16.43084,0.00582,-8.96414,-4.26734,0.00021,-5.50912,2.2974,-2.53975,-28.01891,3.09424,-1.4672,-0.24812,-3.21501,0.55796
1442,16.94666,0.0,0.0,2.06635,0.0,0.0,7.48913,-0.05531,10.06631,10.68604,1.37548,-23.78444,-29.74174,-9.63913,0.00165,-64.0915,-2.04393,0.03115,27.85314,3.46097,12.83569,14.5663,1.96722,-6.19505,13.60028,27.69104,-19.91475,44.50704,-65.64264,29.82068,97.72844,0.00603,-88.77936,72.66985,-0.00097,88.20662,-13.70074,16.7413,0.00405,-9.54516,-3.48981,-0.00718,-5.31733,2.22745,-2.29301,-27.82797,2.93523,-1.26595,0.42199,-3.91743,1.70532
1443,16.26834,0.0,-0.0,2.57531,0.0,-0.0,7.82067,0.3127,10.8574,10.6657,1.71939,-23.74639,-30.29441,-10.1419,0.00014,-58.77713,-1.66491,0.04247,29.06929,3.48906,13.05631,12.15993,1.51042,-6.0458,13.52286,27.59953,-19.636,45.57008,-65.41357,30.48407,97.99963,0.00789,-90.12976,73.10641,0.003,87.98027,-14.40421,16.12945,0.00527,-10.36317,-2.55544,-0.00767,-5.07937,2.1821,-2.0167,-27.59125,2.78762,-1.02795,1.02688,-4.68875,2.80834
1444,15.79837,0.0,-0.0,2.82235,0.0,0.0,8.00678,0.82704,11.41393,10.36274,1.89208,-23.34435,-30.86658,-10.45747,-0.00183,-53.26873,-1.12864,0.02441,30.23972,3.36426,13.40798,9.81234,0.80346,-6.12508,13.55864,27.50134,-19.40631,46.32061,-65.29502,30.78787,98.36069,0.00283,-91.00121,73.53972,0.00402,87.24526,-14.23126,15.34833,0.00194,-11.00472,-1.84186,-0.0008,-4.83788,2.26163,-1.7756,-27.35269,2.76884,-0.77464,1.4863,-5.55416,3.89489
1445,15.22182,0.0,0.0,2.9458,-0.0,0.0,8.1146,1.30229,11.76781,10.13713,1.80649,-22.5764,-31.43884,-10.66905,-0.00243,-47.68327,-0.75253,-0.00633,31.36383,3.18442,13.84235,7.57987,0.015,-6.69028,13.55247,27.42436,-19.00266,46.93623,-65.0895,30.79745,98.70648,-0.00272,-90.7887,73.81445,0.00078,86.41522,-12.81355,15.18781,0.01357,-11.18535,-1.80849,0.0019,-4.64914,2.43393,-1.56093,-27.16811,2.84586,-0.5102,1.84371,-6.49615,4.92087
1446,14.84467,0.0,-0.0,3.57931,0.0,0.0,8.12026,1.6496,12.07357,10.43038,1.55837,-21.71267,-31.95287,-10.97081,-0.00134,-42.23974,-0.59573,-0.02063,32.46684,3.10232,14.19329,5.54555,-0.68104,-7.7292,13.38975,27.38326,-18.35769,47.61444,-64.60211,30.69359,99.04642,-0.00306,-89.94724,73.88639,-0.00229,85.7383,-10.91615,15.71705,0.02136,-10.90594,-2.56714,-0.00258,-4.47999,2.59747,-1.29348,-27.00273,2.8946,-0.20035,2.17959,-7.44299,5.78165
1447,15.09421,-0.0,0.0,4.92522,0.0,0.0,8.02127,1.82061,12.50578,11.5738,1.39173,-21.23373,-32.44899,-11.446,0.00097,-37.29384,-0.46799,-0.00984,33.56941,3.23132,14.3568,3.77644,-1.1821,-8.91347,13.07315,27.40726,-17.56212,48.44381,-63.77277,30.67595,99.47467,0.00042,-89.24494,73.87041,-0.00243,85.18505,-9.65551,16.36796,0.00968,-10.42065,-3.61716,-0.00431,-4.25906,2.69312,-0.91877,-26.78366,2.83957,0.18252,2.51492,-8.28939,6.42949
1448,15.70013,0.0,-0.0,6.1964,0.0,-0.0,7.93852,1.89841,13.04187,13.5731,1.31679,-21.42616,-33.10004,-11.97787,0.0035,-33.18514,-0.18997,0.00552,34.7099,3.62603,14.42317,2.31887,-1.44493,-9.86446,12.68743,27.48597,-16.77292,49.31026,-62.70922,30.78648,100.03937,0.00328,-88.93831,73.9966,-0.00027,84.7125,-9.3959,16.56375,-0.00039,-10.14733,-4.21143,-0.00307,-3.96254,2.71209,-0.46581,-26.4863,2.68376,0.60822,2.82192,-8.91839,6.97287
1449,16.21408,0.0,-0.0,6.44834,0.0,0.0,7.96243,1.98433,13.51797,16.0448,1.08416,-22.14025,-34.04454,-12.36882,0.00375,-29.98537,0.20537,0.00828,35.91751,4.27797,14.54557,1.16454,-1.45395,-10.45881,12.31995,27.52341,-16.09358,50.03487,-61.62013,30.92249,100.68608,0.00175,-88.74303,74.42831,0.00117,84.34752,-9.54182,16.1594,-0.00429,-10.43903,-4.07307,-0.00612,-3.60778,2.64155,-0.02159,-26.12794,2.44863,0.99148,3.05617,-9.25783,7.59549
1450,16.62393,0.0,-0.0,5.74315,0.0,-0.0,8.06453,1.98954,13.86903,18.43975,0.60481,-22.95143,-35.2424,-12.47714,0.00064,-27.4331,0.54602,0.00163,37.15876,5.07926,14.75385,0.2238,-1.23635,-10.87636,12.01843,27.44495,-15.52576,50.58337,-60.65457,30.99993,101.30154,-0.00238,-88.27686,75.08545,-0.00028,84.10082,-9.30045,15.47223,-0.00777,-11.26016,-3.57971,-0.00555,-3.20891,2.49949,0.33319,-25.7242,2.18167,1.2647,3.16633,-9.34274,8.35821
1451,17.09097,0.0,-0.0,4.9908,0.0,-0.0,8.171,1.7602,14.12616,20.41578,0.03821,-23.48497,-36.53316,-12.26123,-0.00335,-25.16468,0.71544,-0.00476,38.37962,5.85678,14.99409,-0.59169,-0.87281,-11.40741,11.79467,27.3125,-15.02688,51.05045,-59.77512,31.00178,101.77756,-0.00396,-87.47629,75.72284,-0.00302,83.94308,-8.4043,15.08596,-0.00231,-12.17377,-3.33867,0.00464,-2.75698,2.41366,0.59241,-25.2687,2.00322,1.47123,3.13831,-9.30618,9.13354
1452,17.58666,0.0,-0.0,4.80197,-0.0,0.0,8.19871,1.32583,14.27953,21.9974,-0.51117,-23.59369,-37.77656,-11.78508,-0.00511,-23.03465,0.75251,-0.00543,39.57215,6.49392,15.26123,-1.26347,-0.47496,-12.19035,11.64711,27.23911,-14.58961,51.50305,-58.83512,30.93095,102.07434,-0.00181,-86.73973,76.20519,-0.0033,83.76682,-7.25325,15.47664,0.00598,-12.69024,-3.77109,0.00978,-2.23679,2.53182,0.8508,-24.74731,2.01354,1.75511,3.02003,-9.29976,9.74428
1453,18.02836,0.0,0.0,5.04687,0.0,0.0,8.03444,0.9381,14.32872,23.39293,-1.06417,-23.34423,-38.89186,-11.19185,-0.0039,-21.21601,0.80356,-0.0016,40.73628,7.00825,15.58238,-1.70541,-0.13908,-13.06524,11.57199,27.23388,-14.26314,51.92988,-57.78992,30.81415,102.28779,0.002,-86.60817,76.62751,0.00161,83.34245,-6.64675,16.49338,0.00074,-12.5178,-4.99371,-0.00574,-1.66313,2.81889,1.22141,-24.17273,2.13701,2.20731,2.85331,-9.38524,10.11992
1454,18.45236,0.0,0.0,5.33295,0.0,0.0,7.6055,0.88218,14.39981,24.71827,-1.58005,-22.85951,-39.8279,-10.64255,-0.00115,-20.00867,0.9841,0.00097,41.82877,7.52606,15.88789,-1.87446,0.12009,-13.70355,11.56699,27.21709,-14.12665,52.28818,-56.75259,30.69958,102.61646,0.00571,-87.15163,77.15213,0.00936,82.48474,-7.29386,17.27149,0.00667,-11.57722,-6.81043,-0.03048,-1.07034,3.06905,1.70067,-23.57563,2.18489,2.74563,2.62985,-9.47176,10.31563
1455,18.76304,0.0,-0.0,5.35636,0.0,-0.0,7.01151,1.19964,14.69631,25.93665,-1.8798,-22.10087,-40.55953,-10.26837,0.0013,-19.58078,1.24901,0.00041,42.79823,8.16988,15.9687,-1.78859,0.37679,-13.99238,11.6228,27.14156,-14.21546,52.52956,-55.8061,30.604,103.1673,0.00457,-87.79087,77.84544,0.00945,81.50221,-9.22376,17.09782,0.03747,-10.19166,-8.5666,-0.02954,-0.45763,3.14449,2.16507,-22.95476,2.07712,3.20323,2.33862,-9.40041,10.42451
1456,18.61743,0.0,-0.0,5.02398,0.0,-0.0,6.48522,1.65099,15.33422,26.97136,-1.76207,-20.89331,-41.09219,-10.11884,0.00222,-19.853,1.42292,0.00067,43.61303,8.92523,15.61691,-1.50776,0.70184,-14.22543,11.68018,27.0054,-14.40719,52.63778,-54.84517,30.52044,103.80757,-0.00091,-87.86844,78.70031,-0.00262,81.1469,-11.41495,16.3994,0.04481,-9.1745,-9.30181,-0.01017,0.20238,3.08477,2.54676,-22.28538,1.87614,3.53272,1.96062,-9.09964,10.4814
1457,17.83011,0.0,0.0,4.5683,-0.0,0.0,6.19477,1.95925,16.26336,27.7386,-1.27799,-19.25294,-41.45301,-10.10889,0.00154,-20.57446,1.43381,0.00187,44.26196,9.65117,14.82588,-1.11532,1.08393,-14.72561,11.62977,26.78898,-14.46692,52.64953,-53.68167,30.44693,104.31333,-0.00348,-87.23007,79.69395,-0.01311,81.66357,-12.38766,16.34209,0.03818,-9.15869,-8.59728,-0.01166,0.89798,2.99142,2.94184,-21.57892,1.63901,3.86172,1.43805,-8.61505,10.45297
1458,16.47842,-0.0,0.0,4.26044,-0.0,0.0,6.15563,1.99207,17.30801,28.18482,-0.79293,-17.50558,-41.68711,-10.05053,0.00022,-21.50058,1.4364,0.0005,44.78778,10.24349,13.84505,-0.65162,1.45442,-15.41693,11.43087,26.47376,-14.34068,52.57449,-52.26946,30.34626,104.6653,-0.00286,-86.22768,80.7773,-0.01163,82.4543,-11.7102,17.28427,0.04442,-9.93962,-7.12524,-0.01679,1.57399,2.92377,3.45451,-20.88825,1.38082,4.30913,0.76107,-8.02928,10.33045
1459,14.4587,0.0,-0.0,3.98986,0.0,-0.0,6.30197,1.79407,18.21298,28.39683,-0.56545,-16.01002,-41.84583,-9.77673,-0.00075,-22.46303,1.60858,-0.00227,45.27297,10.71969,13.03089,-0.11538,1.76627,-15.98251,11.19356,26.08058,-14.28668,52.34766,-50.75274,30.15661,105.06361,-0.00049,-85.42827,81.88239,-0.00384,82.93263,-10.59901,18.22954,0.0344,-10.79906,-5.9775,-0.00511,2.18803,2.89077,4.01211,-20.25697,1.13763,4.81132,0.03217,-7.41678,10.17982
1460,11.69966,0.0,-0.0,3.49823,0.0,-0.0,6.49703,1.55342,18.76356,28.52364,-0.50946,-14.94361,-41.94821,-9.2931,-0.00081,-23.29365,1.96109,-0.00271,45.74962,11.15774,12.58018,0.43651,2.04033,-16.24082,11.05907,25.62558,-14.55377,51.88502,-49.32241,29.87811,105.61567,0.00426,-85.27372,82.98466,0.00726,82.88819,-10.43617,18.0761,0.02933,-11.25325,-5.69117,0.00493,2.72788,2.86804,4.45801,-19.70205,0.94664,5.21433,-0.62587,-6.84045,10.07531
1461,8.96994,0.0,0.0,2.87621,0.0,0.0,6.49043,1.46035,18.96749,28.59496,-0.47346,-14.34169,-41.95952,-8.81728,-0.00032,-23.80783,2.40133,-0.00032,46.16993,11.62494,12.37022,0.86976,2.34882,-16.20735,11.03836,25.09113,-15.04875,51.10498,-48.07656,29.54496,106.15256,0.00564,-85.71866,84.1256,0.01799,82.25605,-11.06951,16.85854,0.02678,-11.27542,-6.13204,0.00352,3.17368,2.83175,4.76639,-19.24504,0.79561,5.48523,-1.17196,-6.34019,10.02677
1462,7.3434,0.0,-0.0,2.37194,-0.0,-0.0,6.1147,1.50149,19.02626,28.56946,-0.44213,-14.11882,-41.84013,-8.56643,-0.00026,-23.90225,2.80418,0.00216,46.46003,12.14055,12.14564,1.06449,2.76232,-16.01816,11.02729,24.48532,-15.45482,49.92347,-46.95749,29.09872,106.43146,0.0023,-86.26807,85.34438,0.01191,81.38321,-11.27197,15.43991,0.00584,-10.91773,-6.93554,-0.00382,3.47731,2.79886,5.02821,-18.93147,0.6655,5.71445,-1.64599,-5.93491,9.98252
1463,6.81545,0.0,-0.0,1.9153,0.0,-0.0,5.52951,1.44012,19.10456,28.48262,-0.48407,-14.05867,-41.5955,-8.51715,-0.00033,-23.61003,3.0084,0.00191,46.54807,12.67434,11.84909,0.97751,3.31187,-15.86022,10.91012,23.86891,-15.56683,48.30825,-45.77613,28.42794,106.4281,0.00012,-86.53729,86.62675,-0.01662,81.08743,-10.4025,14.42556,-0.00895,-10.20949,-7.75096,-0.00795,3.59746,2.81801,5.25763,-18.80248,0.59587,5.93362,-2.11865,-5.6362,9.89207
1464,6.61745,0.0,-0.0,1.31785,0.0,-0.0,5.0087,1.08535,19.24373,28.39284,-0.66298,-13.995,-41.24121,-8.49476,-0.00013,-23.05096,2.90898,-0.00056,46.39037,13.19801,11.60432,0.65773,3.99525,-15.77607,10.6045,23.28178,-15.41941,46.34291,-44.3569,27.60135,106.3332,-0.0003,-86.60107,87.95216,-0.03507,81.62972,-8.92726,13.79257,-0.00871,-9.57751,-8.21792,-0.00637,3.53738,2.91576,5.37065,-18.85845,0.64323,6.07523,-2.62609,-5.43064,9.76291
1465,6.4474,0.0,-0.0,0.73057,0.0,-0.0,4.57538,0.496,19.47079,28.25741,-0.92247,-13.96769,-40.76401,-8.42904,-0.00044,-22.36623,2.55178,-0.00229,46.05435,13.71634,11.42825,0.26184,4.78839,-15.5974,10.11417,22.69948,-15.21538,44.21431,-42.69492,26.9043,106.28177,-0.00135,-86.80162,89.32425,-0.00713,81.82636,-7.68732,13.3833,-0.00301,-9.63217,-8.07971,-0.00889,3.33635,3.0671,5.36154,-19.06056,0.78662,6.12449,-3.11468,-5.26669,9.64989
1466,6.40455,0.0,0.0,0.52044,0.0,0.0,4.0669,-0.11322,19.80366,27.97995,-1.05998,-14.06931,-40.16148,-8.361,-0.00126,-21.6914,2.07082,-0.00187,45.72523,14.22126,11.21887,0.00535,5.61901,-15.21004,9.57535,22.1001,-15.21428,42.10791,-40.95425,26.49926,106.20382,-0.00334,-87.34874,90.71101,0.04066,80.27465,-7.12216,13.28705,0.00036,-10.26468,-7.42405,-0.01067,3.06992,3.21108,5.33504,-19.32891,0.92982,6.15488,-3.47657,-5.10868,9.61171
1467,6.30698,0.0,0.0,0.80007,0.0,-0.0,3.41382,-0.53982,20.13918,27.54502,-0.91401,-14.24681,-39.48293,-8.25307,-0.00095,-21.12353,1.5731,-0.00052,45.54649,14.64649,11.02952,0.01516,6.35936,-14.72764,9.16249,21.51636,-15.58265,40.10931,-39.31046,26.20934,105.99117,-0.00288,-87.92739,92.00076,0.0456,77.52324,-7.01955,13.61891,0.00093,-10.70288,-6.59075,-0.00296,2.87811,3.30354,5.3341,-19.52135,1.01567,6.18926,-3.6687,-5.00239,9.68844
1468,5.73427,0.0,0.0,1.24537,0.0,0.0,2.70406,-0.67537,20.31127,27.04603,-0.54949,-14.36068,-38.78764,-7.98788,0.00048,-20.67807,1.1055,0.0002,45.48171,14.90792,11.07959,0.23141,6.89147,-14.32833,8.9496,20.97706,-16.27021,38.21393,-37.79424,25.80151,105.68439,0.00084,-87.9304,93.05728,0.00779,75.79843,-6.85695,14.20515,0.00234,-10.59804,-5.83776,0.0036,2.91376,3.37631,5.28569,-19.48821,1.10136,6.1723,-3.76623,-5.04451,9.87868
1469,4.58626,0.0,-0.0,1.41258,0.0,-0.0,2.03262,-0.54205,20.31027,26.58266,-0.18708,-14.36152,-38.06883,-7.5724,0.00092,-20.31058,0.70155,0.00028,45.4126,14.97643,11.41244,0.52425,7.17724,-14.06435,8.8909,20.44836,-17.06845,36.38743,-36.2717,25.311,105.40698,0.00241,-87.29836,93.81281,-0.01972,76.48854,-6.45556,14.69662,0.00153,-10.33057,-5.28593,0.00266,3.20912,3.51004,5.13597,-19.20003,1.28196,6.08509,-3.84222,-5.27471,10.12647
1470,3.27375,0.0,-0.0,1.17467,0.0,-0.0,1.39388,-0.3191,20.3118,26.17522,0.03854,-14.32078,-37.25078,-7.15551,-5e-05,-19.98256,0.41356,0.00035,45.29271,14.87349,11.79133,0.84632,7.24835,-13.87024,8.88296,19.88441,-17.81374,34.57698,-34.58534,24.91207,105.21883,0.00084,-86.5428,94.29515,-0.01715,78.91643,-6.16545,14.92375,-0.00182,-10.25815,-5.03166,-0.00019,3.64791,3.73298,4.92546,-18.77182,1.56816,5.97585,-3.86675,-5.63289,10.35927
1471,2.25296,0.0,-0.0,0.74645,0.0,-0.0,0.74581,-0.26707,20.4451,25.79832,0.2108,-14.28415,-36.26653,-6.82116,-0.00054,-19.66864,0.26677,0.00036,45.10157,14.6237,12.02232,1.17153,7.14707,-13.69097,8.83752,19.30752,-18.50483,32.69407,-32.72307,24.60104,105.1155,-0.001,-86.09906,94.60498,-0.00442,81.5048,-6.36508,14.95884,-0.00355,-10.28673,-5.05334,-0.00159,4.0943,3.98395,4.7413,-18.3356,1.87024,5.9017,-3.80997,-6.0357,10.54348
1472,1.60133,0.0,-0.0,0.36738,0.0,-0.0,0.09662,-0.50134,20.63102,25.43579,0.48786,-14.145,-35.13666,-6.51783,0.0005,-19.32293,0.21341,3e-05,44.80389,14.26636,12.17562,1.42746,6.91735,-13.58438,8.72689,18.79111,-19.22304,30.65516,-30.80862,24.18991,105.09515,-0.00137,-86.26583,94.85583,0.00316,83.19411,-7.03945,14.82335,-0.00131,-10.09595,-5.12574,-0.00124,4.48405,4.16351,4.66407,-17.95124,2.06562,5.89901,-3.70804,-6.44282,10.68975
1473,1.14798,0.0,-0.0,0.09157,-0.0,-0.0,-0.50906,-0.89594,20.70972,25.06292,0.81909,-13.79012,-33.97742,-6.18719,0.00147,-18.89205,0.19352,-0.00021,44.42395,13.88456,12.41259,1.56122,6.64018,-13.62101,8.56398,18.37617,-19.99433,28.48372,-28.93598,23.59309,105.16407,0.00048,-87.24666,95.09493,0.00471,83.80585,-7.86932,14.34561,0.0029,-9.49412,-4.97449,0.00214,4.80339,4.19463,4.73062,-17.62969,2.06905,5.97228,-3.59395,-6.8223,10.80567
1474,0.78245,0.0,0.0,-0.136,0.0,-0.0,-1.03409,-1.26363,20.66597,24.64847,0.97283,-13.35901,-32.91865,-5.85746,0.00079,-18.36638,0.21591,0.00012,44.02477,13.56807,12.73306,1.56143,6.41882,-13.69453,8.36335,18.03238,-20.76582,26.3492,-27.11225,22.97748,105.31548,0.00355,-88.9417,95.28901,0.00272,83.84515,-8.52234,13.42074,0.00298,-8.63863,-4.48414,0.00528,5.08955,4.06666,4.90358,-17.33489,1.88494,6.08299,-3.5015,-7.10682,10.88265
1475,0.46728,0.0,0.0,-0.32943,-0.0,0.0,-1.45586,-1.51601,20.63188,24.21698,0.91848,-13.11719,-32.00808,-5.59083,-0.00051,-17.79672,0.3014,0.00042,43.62992,13.34543,13.00115,1.43839,6.30511,-13.65203,8.14772,17.70193,-21.49405,24.43769,-25.34799,22.56745,105.51226,0.00459,-90.95235,95.39294,0.00046,83.84442,-8.88263,12.35657,-0.00108,-7.87956,-3.82515,0.00347,5.44043,3.85291,5.0937,-16.97375,1.61501,6.17684,-3.49373,-7.23916,10.94118
1476,0.16532,0.0,-0.0,-0.47472,-0.0,0.0,-1.78141,-1.68925,20.7452,23.85111,0.87443,-13.1196,-31.1927,-5.39948,-0.00093,-17.25363,0.41114,0.00016,43.24137,13.15281,13.11012,1.24104,6.26276,-13.53943,7.95354,17.3898,-22.20656,22.77871,-23.67813,22.40288,105.68349,0.0019,-92.59008,95.4182,-0.00029,83.69341,-9.10121,11.77633,-0.0043,-7.41328,-3.40373,0.00043,5.92082,3.66657,5.22594,-16.48603,1.39244,6.22781,-3.60327,-7.24906,11.0153
1477,-0.06852,0.0,0.0,-0.61144,0.0,0.0,-2.07482,-1.9149,21.07509,23.60833,0.93988,-13.24,-30.38919,-5.24929,-0.00046,-16.77732,0.51266,-2e-05,42.90428,12.89122,13.01404,1.06131,6.22761,-13.49017,7.79367,17.18199,-22.94553,21.25491,-22.11282,22.37448,105.78226,-0.00104,-93.18449,95.42628,8e-05,83.02782,-9.37287,11.94885,-0.00516,-7.21416,-3.52763,0.00156,6.46683,3.56594,5.2732,-15.93717,1.28143,6.23306,-3.77665,-7.22813,11.07695
1478,-0.12045,-0.0,-0.0,-0.78245,0.0,0.0,-2.42131,-2.27756,21.57583,23.45582,1.00836,-13.39745,-29.5673,-5.11174,7e-05,-16.36879,0.63344,0.00027,42.6856,12.53703,12.73339,0.98042,6.17692,-13.50957,7.66131,17.11964,-23.69711,19.75995,-20.65804,22.40188,105.82155,-0.00163,-92.82851,95.4523,0.00022,81.99781,-9.69955,12.38817,-0.00254,-7.09887,-4.1277,0.00347,6.93253,3.50407,5.24792,-15.47199,1.23384,6.18615,-3.90328,-7.22475,11.06729
1479,-0.01485,-0.0,0.0,-0.94071,-0.0,-0.0,-2.855,-2.62784,22.06496,23.30585,1.00202,-13.54582,-28.75629,-4.98471,0.00024,-16.01902,0.77641,0.00041,42.57391,12.16726,12.41282,1.00305,6.12479,-13.54642,7.5896,17.09166,-24.43174,18.28027,-19.35803,22.46901,105.8084,-0.00063,-92.2448,95.44852,-0.00056,81.14483,-9.92803,12.40804,0.0002,-6.7255,-4.92649,-0.00034,7.19992,3.38976,5.20161,-15.20559,1.14579,6.09982,-3.90483,-7.2019,11.00716
1480,0.07084,0.0,0.0,-1.0154,0.0,-0.0,-3.34518,-2.62257,22.32029,23.09982,0.93623,-13.57418,-27.99478,-4.87309,0.00021,-15.72493,0.85817,1e-05,42.48315,11.86355,12.24821,1.07414,6.09309,-13.65635,7.63415,16.92178,-25.1474,16.85265,-18.27062,22.56259,105.701,0.00076,-91.81522,95.32713,-0.00045,80.8624,-9.94306,11.88568,-0.00079,-5.80951,-5.74647,-0.00796,7.23062,3.18164,5.2152,-15.17289,0.9482,6.03303,-3.7903,-7.08442,10.97465
1481,0.01895,0.0,0.0,-1.03132,0.0,0.0,-3.83465,-2.1046,22.28528,22.84259,0.81514,-13.41294,-27.28968,-4.7792,4e-05,-15.48063,0.81063,-0.00041,42.36262,11.63163,12.29087,1.15974,6.09075,-13.90366,7.8003,16.54573,-25.82135,15.52595,-17.40645,22.70318,105.45676,0.00122,-91.47264,95.06339,0.00114,81.22705,-9.79653,11.23419,-0.00268,-4.51796,-6.49517,-0.0104,7.08453,2.91823,5.3256,-15.31312,0.66266,6.03457,-3.63026,-6.84057,10.98575
1482,-0.09474,0.0,-0.0,-1.07165,-0.0,0.0,-4.28389,-1.41186,22.18103,22.57652,0.65131,-13.19153,-26.60905,-4.71839,-0.00045,-15.28658,0.67827,-0.00038,42.21749,11.43252,12.38635,1.2721,6.0989,-14.15882,8.06624,16.06234,-26.40564,14.3686,-16.69456,23.01248,105.08774,-0.00049,-91.28516,94.73975,0.00207,82.15475,-9.62865,10.72506,-0.00385,-3.60524,-7.00702,-0.0062,6.91082,2.6847,5.47139,-15.48014,0.39126,6.08023,-3.50779,-6.53908,10.99354
1483,-0.13145,0.0,0.0,-1.16627,0.0,-0.0,-4.68655,-1.07975,22.29941,22.34879,0.54389,-13.1239,-25.92253,-4.69817,-0.00084,-15.1666,0.54573,-5e-05,42.04966,11.24724,12.35853,1.42854,6.09014,-14.20838,8.41529,15.63204,-26.90731,13.4516,-16.02556,23.6423,104.68379,-0.00222,-91.35434,94.46565,0.00138,83.5711,-9.54066,10.1816,-0.00389,-3.88411,-7.16027,-0.00522,6.83296,2.54222,5.59256,-15.55277,0.21342,6.13789,-3.47311,-6.29649,10.97368
1484,-0.08947,0.0,0.0,-1.28277,-0.0,0.0,-5.03296,-1.23446,22.65292,22.20321,0.62211,-13.22212,-25.25158,-4.67277,-0.00045,-15.14969,0.43381,0.00022,41.85851,11.09055,12.23624,1.62528,6.06255,-14.06059,8.77903,15.35722,-27.4103,12.80306,-15.34967,24.60108,104.3756,-0.00165,-91.47102,94.25994,-0.00025,85.16027,-9.67785,9.46644,-0.00105,-5.25298,-7.1131,-0.00543,6.82514,2.47754,5.7407,-15.55441,0.09725,6.25011,-3.50553,-6.14891,10.94426
1485,-0.10565,-0.0,-0.0,-1.40926,0.0,-0.0,-5.29716,-1.55756,22.98905,22.16669,0.90307,-13.31834,-24.6416,-4.58143,0.00034,-15.22945,0.33566,0.00025,41.65429,10.98223,12.19819,1.82921,6.03196,-13.8956,9.06895,15.23178,-27.98722,12.40455,-14.70764,25.70547,104.22522,-0.0006,-91.55187,94.04523,-0.00253,86.20893,-10.17611,8.81105,0.00122,-6.67029,-7.18763,-0.00222,6.78938,2.44415,5.98269,-15.57991,-0.02565,6.46096,-3.55836,-6.02781,10.93232
1486,-0.29013,0.0,0.0,-1.55463,-0.0,0.0,-5.47597,-1.79072,23.14734,22.20256,1.25348,-13.35883,-24.0856,-4.43456,0.00064,-15.3513,0.28144,7e-05,41.4271,10.91735,12.30701,1.98584,6.0059,-13.74956,9.299,15.17356,-28.60575,12.22231,-14.14862,26.73007,104.17042,-0.00037,-91.93802,93.74741,-0.00389,86.38406,-10.86781,8.45786,-0.00014,-7.41072,-7.52087,-0.00075,6.71915,2.43307,6.26621,-15.6377,-0.14368,6.71871,-3.64597,-5.86986,10.9504
1487,-0.60382,0.0,-0.0,-1.67251,-0.0,0.0,-5.60826,-1.92313,23.18999,22.20309,1.52574,-13.41613,-23.53581,-4.30232,0.00029,-15.44846,0.28747,-7e-05,41.16293,10.88154,12.44941,2.07074,5.99581,-13.54476,9.56438,15.10804,-29.14464,12.21716,-13.65953,27.57096,104.10907,-0.0004,-92.65563,93.36554,-0.00172,86.2184,-11.29432,8.37349,-0.00207,-7.76068,-7.96851,-0.00073,6.67139,2.45287,6.47777,-15.67583,-0.20575,6.92173,-3.81432,-5.67023,10.99314
1488,-0.88986,0.0,0.0,-1.73253,-0.0,0.0,-5.75125,-1.97883,23.23174,22.08807,1.63849,-13.49339,-22.99271,-4.23345,-0.00021,-15.49124,0.3256,-7e-05,40.8913,10.87522,12.50432,2.10835,6.02447,-13.31829,9.90542,15.00468,-29.48796,12.33024,-13.2062,28.26605,104.00449,0.00017,-93.1601,92.96809,0.00153,86.31069,-10.99314,8.35229,-0.00409,-8.32472,-8.28436,-0.00247,6.63168,2.46637,6.5695,-15.71126,-0.2281,7.01163,-4.05277,-5.42439,11.03189
1489,-1.01265,0.0,-0.0,-1.76666,0.0,-0.0,-5.95117,-1.9081,23.29411,21.88619,1.54506,-13.49935,-22.51581,-4.22162,-0.00037,-15.50024,0.37216,-3e-05,40.66156,10.88839,12.48215,2.12701,6.08453,-13.2085,10.26252,14.85234,-29.60722,12.46741,-12.79567,28.88887,103.89477,0.00031,-93.21992,92.64442,0.00179,86.58544,-9.83324,8.21994,-0.00619,-9.15201,-8.40834,-0.0056,6.51438,2.42323,6.58698,-15.82781,-0.27464,7.01137,-4.29634,-5.11808,11.00841
1490,-0.95873,0.0,0.0,-1.71346,0.0,0.0,-6.22568,-1.6615,23.2979,21.68166,1.31349,-13.32499,-22.13238,-4.22804,-0.00015,-15.5213,0.40486,6e-05,40.48906,10.87836,12.52215,2.14831,6.11704,-13.33813,10.55847,14.66549,-29.59888,12.53092,-12.45687,29.45396,103.82748,-0.00039,-93.05649,92.44032,0.0003,86.55232,-8.28605,8.0333,-0.00259,-9.74155,-8.6071,-0.00736,6.2613,2.3415,6.60635,-16.08016,-0.35759,6.99821,-4.47695,-4.78631,10.87893
1491,-0.82448,-0.0,-0.0,-1.47732,0.0,-0.0,-6.51702,-1.34888,23.21828,21.54091,1.16063,-12.97367,-21.8043,-4.22473,8e-05,-15.58802,0.39042,0.0002,40.35732,10.81112,12.69304,2.20096,6.07564,-13.69169,10.78539,14.49558,-29.61784,12.50481,-12.19612,29.95343,103.79375,-0.00076,-92.69701,92.35391,-3e-05,85.99677,-7.14877,8.07587,0.00323,-9.82427,-9.07684,-0.0079,5.88841,2.28505,6.65497,-16.45092,-0.42827,7.02169,-4.56098,-4.49297,10.68179
1492,-0.74122,0.0,0.0,-1.19286,-0.0,-0.0,-6.68509,-1.29497,23.19998,21.49996,1.21849,-12.66493,-21.50531,-4.22096,7e-05,-15.69783,0.3386,0.00024,40.23315,10.71638,12.84111,2.27646,5.99513,-14.01546,10.99314,14.38258,-29.72933,12.47237,-11.99358,30.42402,103.7306,-0.00017,-92.06509,92.39173,-4e-05,85.31979,-6.91012,8.60775,-0.00105,-9.83709,-9.53555,-0.00655,5.47369,2.27509,6.71661,-16.86277,-0.46089,7.07487,-4.59009,-4.24957,10.5195
1493,-0.7841,-0.0,-0.0,-1.13194,-0.0,0.0,-6.65556,-1.71433,23.35133,21.56017,1.35145,-12.64547,-21.26003,-4.23289,-4e-05,-15.82913,0.31899,3e-05,40.08566,10.65759,12.79044,2.32409,5.94594,-14.01475,11.23751,14.31292,-29.87691,12.52369,-11.81818,30.88824,103.58466,0.0006,-91.30343,92.56206,-0.00205,85.17548,-7.51854,9.62227,-0.01208,-10.29458,-9.61612,-0.00692,5.12773,2.27999,6.79963,-17.20478,-0.48788,7.15347,-4.65499,-4.01978,10.45351
1494,-0.91612,0.0,0.0,-1.3588,0.0,-0.0,-6.55614,-2.36258,23.53938,21.67758,1.30715,-12.89347,-21.08083,-4.24631,-8e-05,-15.97597,0.38368,-0.0003,39.93463,10.64357,12.57615,2.33951,5.94267,-13.6972,11.56356,14.23926,-30.00494,12.69434,-11.64407,31.28395,103.36399,0.00064,-90.57882,92.81393,-0.00325,85.65588,-8.5636,10.76579,-0.01353,-10.92243,-9.41595,-0.00642,4.92821,2.27422,6.93611,-17.39777,-0.54503,7.27742,-4.78989,-3.78467,10.44384
1495,-1.03286,0.0,-0.0,-1.65044,0.0,-0.0,-6.60203,-2.77092,23.58099,21.77803,1.00953,-13.16627,-20.91129,-4.24577,-0.00013,-16.14863,0.4931,-0.00037,39.81721,10.62113,12.35005,2.37978,5.94507,-13.35027,11.97602,14.1203,-30.12518,12.98839,-11.47565,31.5491,103.15848,-0.00015,-89.91648,93.06379,-0.00106,86.08894,-9.56847,11.56939,-0.00412,-10.98972,-9.29144,-0.00448,4.83602,2.25399,7.13414,-17.48032,-0.6389,7.4528,-4.95463,-3.56364,10.41167
1496,-1.06525,0.0,-0.0,-1.72987,-0.0,0.0,-6.86535,-2.75229,23.4697,21.82474,0.68079,-13.28157,-20.67306,-4.23787,-0.00017,-16.3571,0.54079,5e-05,39.72154,10.5488,12.21783,2.49222,5.91518,-13.23245,12.40461,13.94218,-30.2678,13.38304,-11.3508,31.72125,103.11256,-0.00027,-89.45163,93.29351,0.00047,86.04355,-10.36454,11.86781,0.00287,-10.43699,-9.37032,-0.00333,4.69849,2.2071,7.36079,-17.60668,-0.76826,7.64454,-5.10331,-3.39171,10.32552
1497,-1.02795,-0.0,0.0,-1.53005,0.0,0.0,-7.22428,-2.50424,23.28413,21.85918,0.62052,-13.21757,-20.36594,-4.21259,-3e-05,-16.60441,0.4568,0.00071,39.62609,10.43269,12.2377,2.68345,5.84069,-13.40346,12.75762,13.73332,-30.45018,13.80172,-11.30375,31.86177,103.31615,0.00255,-89.52344,93.56195,-0.00131,85.92017,-11.12135,11.86098,0.00363,-9.99328,-9.53423,-0.00063,4.37579,2.12713,7.52766,-17.92126,-0.90552,7.76848,-5.20526,-3.28514,10.21536
1498,-0.98282,0.0,0.0,-1.24866,0.0,-0.0,-7.49855,-2.32572,23.09059,21.93865,0.85047,-13.05296,-20.07209,-4.14038,0.00017,-16.87607,0.29619,0.00082,39.54097,10.30178,12.40065,2.91855,5.72366,-13.71757,13.03859,13.57993,-30.69252,14.15917,-11.33501,31.95622,103.71069,0.00464,-90.13522,93.90501,-0.00288,86.05332,-11.90661,11.76403,0.00285,-10.15791,-9.69314,0.00251,3.85969,2.05405,7.51749,-18.43833,-0.96929,7.73135,-5.24027,-3.22057,10.14431
1499,-0.97929,0.0,-0.0,-1.13607,-0.0,0.0,-7.61125,-2.33572,22.99089,22.06171,1.09819,-12.93514,-19.85858,-4.03068,0.00019,-17.14128,0.20993,0.00017,39.48726,10.18528,12.56893,3.14793,5.57293,-13.91221,13.36763,13.58408,-30.99752,14.46369,-11.40972,31.98798,104.12778,0.00203,-90.75188,94.26482,-0.00073,86.02083,-12.6157,11.71685,0.00156,-10.64144,-9.90387,0.00335,3.263,2.03512,7.30063,-19.04615,-0.90454,7.52363,-5.20614,-3.14991,10.15335
1500,-1.06014,0.0,-0.0,-1.23579,0.0,0.0,-7.63397,-2.42198,23.064,22.17431,1.1241,-12.98158,-19.72661,-3.94979,4e-05,-17.38412,0.2871,-0.00052,39.4847,10.12052,12.57548,3.36267,5.42159,-13.83441,13.85,13.75715,-31.28609,14.83351,-11.46344,32.03991,104.41326,-0.00092,-90.98486,94.53632,0.00169,85.2023,-13.25351,11.99048,-0.00259,-10.84767,-10.32674,-0.00046,2.72252,2.05216,7.0113,-19.60079,-0.77899,7.26258,-5.12852,-3.0377,10.20728
1501,-1.29971,0.0,-0.0,-1.38849,-0.0,0.0,-7.67202,-2.45312,23.29375,22.22403,0.91818,-13.16436,-19.63905,-3.96713,-0.00013,-17.61804,0.45989,-0.00065,39.53641,10.13929,12.37171,3.59023,5.32345,-13.56457,14.48349,13.99792,-31.42762,15.38305,-11.43241,32.23261,104.52064,-0.00105,-90.89105,94.6595,0.00088,83.56713,-13.86904,12.80772,-0.00673,-10.57119,-11.12064,-0.00708,2.31206,2.06801,6.85787,-20.01853,-0.70608,7.12676,-5.06594,-2.89103,10.21814
