PaulMeinheit/Bachelor_Muay_Thai/processed_Data/N3/teep/sliced/JointAngles/sliced1.csv
Unnamed: 0_level_0,L_MTP_ANGLE,L_MTP_ANGLE,L_MTP_ANGLE,R_MTP_ANGLE,R_MTP_ANGLE,R_MTP_ANGLE,L_ANKLE_ANGLE,L_ANKLE_ANGLE,L_ANKLE_ANGLE,R_ANKLE_ANGLE,R_ANKLE_ANGLE,R_ANKLE_ANGLE,L_KNEE_ANGLE,L_KNEE_ANGLE,L_KNEE_ANGLE,R_KNEE_ANGLE,R_KNEE_ANGLE,R_KNEE_ANGLE,L_HIP_ANGLE,L_HIP_ANGLE,L_HIP_ANGLE,R_HIP_ANGLE,R_HIP_ANGLE,R_HIP_ANGLE,L_SHOULDER_ANGLE,L_SHOULDER_ANGLE,L_SHOULDER_ANGLE,R_SHOULDER_ANGLE,R_SHOULDER_ANGLE,R_SHOULDER_ANGLE,L_ELBOW_ANGLE,L_ELBOW_ANGLE,L_ELBOW_ANGLE,R_ELBOW_ANGLE,R_ELBOW_ANGLE,R_ELBOW_ANGLE,L_WRIST_ANGLE,L_WRIST_ANGLE,L_WRIST_ANGLE,R_WRIST_ANGLE,R_WRIST_ANGLE,R_WRIST_ANGLE,NECK_ANGLE,NECK_ANGLE,NECK_ANGLE,NECK_ANGLE_SHADOW,NECK_ANGLE_SHADOW,NECK_ANGLE_SHADOW,Trunk_Joint_Angle,Trunk_Joint_Angle,Trunk_Joint_Angle
ITEM,X,Y,Z,X,Y,Z,X,Y,Z,X,Y,Z,X,Y,Z,X,Y,Z,X,Y,Z,X,Y,Z,X,Y,Z,X,Y,Z,X,Y,Z,X,Y,Z,X,Y,Z,X,Y,Z,X,Y,Z,X,Y,Z,X,Y,Z
415,-3.28638,0.0,0.0,-1.76377,0.0,-0.0,-9.11786,-1.74872,16.66112,19.0138,5.81528,-9.55403,-14.15709,-3.74956,1e-05,-10.59914,-0.49547,-0.00011,35.23283,6.11219,10.80154,-0.04094,-1.14161,-14.00234,10.4684,17.29921,-29.12993,13.79663,-15.32189,35.94699,107.09083,0.00032,-89.17847,99.27082,0.0001,85.19617,-10.98709,7.72364,0.00174,-6.55571,-10.92375,-0.01049,5.46383,-1.60675,13.22928,-16.5558,-6.51376,11.64935,-1.96089,-0.44492,7.71506
416,-3.04943,0.0,0.0,-1.72058,-0.0,-0.0,-9.12513,-1.71381,16.52386,19.00844,5.74277,-9.44238,-14.10153,-3.74448,5e-05,-10.50229,-0.4908,8e-05,35.2109,6.1083,10.86106,-0.09766,-1.11313,-14.1007,10.4465,17.17724,-29.05425,13.7956,-15.4437,35.79226,107.07079,0.00041,-89.27068,99.41982,-0.00084,85.3307,-10.21972,8.09705,0.0024,-6.16814,-11.02036,-0.01038,5.427,-1.73184,13.14689,-16.60439,-6.59883,11.52528,-1.97671,-0.51572,7.81115
417,-3.1441,0.0,-0.0,-1.77903,-0.0,0.0,-9.0344,-2.0382,16.58448,19.07689,5.14708,-9.48249,-14.0598,-3.72815,7e-05,-10.42358,-0.33436,0.00014,35.14154,6.1142,10.89561,-0.19464,-1.14653,-13.92821,10.46719,17.00422,-29.01976,13.80408,-15.59622,35.6599,107.10876,0.0002,-89.27049,99.58554,-0.00104,85.44936,-9.63723,8.14985,0.00023,-6.20617,-10.43268,-0.01215,5.42381,-1.829,13.03101,-16.62069,-6.64543,11.38049,-2.05814,-0.62943,7.96628
418,-3.119,0.0,-0.0,-1.71469,0.0,-0.0,-9.02659,-2.28497,16.57153,19.13531,4.58953,-9.52082,-14.08203,-3.67648,-1e-05,-10.36003,-0.15821,1e-05,35.10516,6.10593,10.984,-0.30007,-1.20107,-13.78301,10.64452,16.89956,-29.10433,13.8791,-15.68708,35.56897,107.11893,0.00027,-89.1589,99.62409,-0.0019,85.14451,-9.56101,7.89876,0.00077,-6.49731,-9.76183,-0.01389,5.47003,-1.85349,12.86673,-16.58793,-6.60648,11.21803,-2.14488,-0.76396,8.08759
419,-2.72584,0.0,0.0,-1.56737,-0.0,-0.0,-9.15174,-2.26156,16.34612,19.14741,4.65603,-9.50733,-14.17772,-3.60338,-0.00012,-10.27674,-0.08125,-0.00012,35.14694,6.0851,11.12476,-0.39794,-1.22596,-13.84582,11.02242,16.92608,-29.40331,13.9855,-15.70936,35.48982,107.04956,0.00063,-88.86164,99.52186,-0.00362,84.2072,-9.9738,7.69368,0.00072,-6.39367,-9.85904,-0.01994,5.48438,-1.83932,12.69462,-16.58577,-6.52874,11.06291,-2.15266,-0.88016,8.11688
420,-2.30068,0.0,0.0,-1.60849,-0.0,-0.0,-9.25174,-2.31524,16.17351,19.16133,5.27198,-9.61023,-14.28319,-3.55016,-0.00011,-10.1476,-0.08375,-0.00013,35.21676,6.0556,11.17534,-0.50266,-1.21863,-13.90336,11.49301,17.03385,-29.88203,14.03455,-15.70892,35.39546,106.94672,0.00056,-88.46006,99.40742,-0.00339,83.1256,-10.54488,7.82295,-0.00088,-5.82965,-10.64773,-0.02457,5.39081,-1.83054,12.55959,-16.68889,-6.46988,10.94036,-2.07377,-0.9765,8.09218
421,-2.26705,0.0,-0.0,-1.93576,-0.0,0.0,-9.19472,-2.70952,16.32858,19.21823,5.8237,-9.90405,-14.33121,-3.55628,-8e-05,-9.98877,-0.08447,-6e-05,35.25257,6.01519,11.0448,-0.60761,-1.21388,-13.7319,11.85018,17.1385,-30.34518,14.00099,-15.72051,35.29016,106.90657,0.00013,-88.1516,99.40132,-0.00282,82.80157,-10.94699,8.22698,-0.00052,-5.52299,-11.10538,-0.02212,5.26114,-1.81959,12.45465,-16.82574,-6.4203,10.84668,-1.9685,-1.07965,8.09559
422,-2.56854,0.0,0.0,-2.33823,0.0,-0.0,-9.0358,-3.16487,16.67016,19.28398,5.86079,-10.17411,-14.33077,-3.62437,-7e-05,-9.83385,-0.04678,1e-05,35.26322,5.97159,10.85926,-0.67975,-1.23971,-13.48198,11.94397,17.21885,-30.5936,13.95709,-15.73947,35.19985,106.97121,0.00011,-88.06642,99.46941,-0.00266,83.49087,-11.12832,8.57278,0.00077,-5.88121,-10.67176,-0.02232,5.26902,-1.79262,12.35823,-16.82368,-6.35907,10.76704,-1.8857,-1.20052,8.162
423,-2.81728,0.0,-0.0,-2.56201,-0.0,0.0,-8.91441,-3.28847,16.87106,19.30764,5.45955,-10.1786,-14.3378,-3.72154,1e-05,-9.68589,0.0324,0.00011,35.27117,5.93613,10.81857,-0.73783,-1.30625,-13.43548,11.81881,17.29698,-30.59176,13.98397,-15.75676,35.1382,107.07989,0.00024,-88.17897,99.47125,-0.00139,84.4917,-11.19435,8.63891,0.00104,-6.34644,-9.97743,-0.0166,5.4833,-1.79391,12.27806,-16.61521,-6.33012,10.69185,-1.85095,-1.32882,8.26836
424,-2.79718,0.0,-0.0,-2.53492,-0.0,0.0,-8.88807,-3.00019,16.83987,19.28176,5.04093,-9.92681,-14.4008,-3.82015,0.00015,-9.52356,0.14118,0.00019,35.27483,5.91901,10.94076,-0.84694,-1.38955,-13.64092,11.67629,17.36226,-30.45708,14.08581,-15.8009,35.10526,107.1188,2e-05,-88.37375,99.34592,-0.00056,85.23064,-11.18298,8.53178,0.00057,-6.3281,-9.84892,-0.01013,5.77746,-1.89827,12.24107,-16.32806,-6.4129,10.61787,-1.87448,-1.43173,8.37265
425,-2.55847,0.0,0.0,-2.31865,0.0,0.0,-8.94413,-2.43093,16.69573,19.216,4.95673,-9.59589,-14.53961,-3.90032,0.00019,-9.34854,0.23623,0.00011,35.29381,5.92651,11.07653,-1.01501,-1.43102,-13.97607,11.66602,17.37352,-30.31025,14.20372,-15.8977,35.11875,107.0212,-0.00019,-88.54677,99.18594,-0.00051,85.89729,-11.12177,8.46181,0.00016,-6.03145,-10.31082,-0.00597,5.98225,-2.11641,12.26939,-16.13065,-6.62566,10.56163,-1.92704,-1.46536,8.42718
426,-2.2131,-0.0,0.0,-1.99684,0.0,-0.0,-9.06786,-1.78105,16.5453,19.12335,5.17886,-9.3297,-14.71923,-3.93042,2e-05,-9.19488,0.26939,-5e-05,35.3554,5.94791,11.12583,-1.17197,-1.39847,-14.3247,11.75426,17.32428,-30.19061,14.2848,-16.00349,35.19298,106.83298,-7e-05,-88.68677,99.1148,-0.00065,86.56348,-11.14748,8.46989,1e-05,-5.85329,-10.90071,-0.00207,6.064,-2.34847,12.35392,-16.05326,-6.87244,10.55245,-1.95321,-1.43167,8.40254
427,-1.97428,0.0,-0.0,-1.73483,0.0,0.0,-9.15839,-1.36657,16.49794,19.05455,5.37883,-9.23186,-14.87478,-3.90632,-0.00014,-9.09406,0.24394,-9e-05,35.43356,5.97157,11.07146,-1.2652,-1.31905,-14.52157,11.81676,17.26653,-30.10239,14.32185,-16.04545,35.29502,106.67984,0.00044,-88.91784,99.14789,5e-05,86.63174,-11.37352,8.45113,0.00026,-5.74225,-11.32555,-0.00048,6.08918,-2.45912,12.42625,-16.02804,-7.00215,10.57792,-1.93921,-1.39397,8.33222
428,-2.1469,0.0,-0.0,-1.759,0.0,-0.0,-9.03188,-1.43906,16.66653,19.07385,5.3511,-9.37154,-14.99463,-3.88905,-7e-05,-9.05,0.20983,-3e-05,35.48045,6.00732,10.8971,-1.30792,-1.24067,-14.39579,11.79156,17.24924,-30.05549,14.33553,-16.0245,35.36634,106.64877,0.00125,-89.35835,99.20386,0.00033,85.84563,-11.6954,8.34069,0.00052,-5.46716,-11.55653,-0.00036,6.08896,-2.40354,12.39089,-16.02821,-6.93737,10.56604,-1.92644,-1.40828,8.29155
429,-2.78182,0.0,-0.0,-2.14262,0.0,0.0,-8.64779,-1.85572,16.98668,19.18682,5.2482,-9.67785,-15.12741,-3.94553,0.00018,-9.04785,0.203,1e-05,35.50732,6.06359,10.64465,-1.32211,-1.19782,-14.0074,11.70885,17.24345,-30.03059,14.34228,-16.01492,35.38263,106.68822,0.00106,-89.92272,99.21027,-0.00017,84.9168,-11.82743,8.22696,0.00065,-4.99402,-11.68406,-0.00048,6.05551,-2.25582,12.22902,-16.06638,-6.73962,10.47116,-1.94096,-1.46795,8.31944
430,-3.58453,0.0,-0.0,-2.77752,0.0,0.0,-8.18596,-2.24692,17.27791,19.3605,5.28089,-9.99989,-15.2944,-4.0715,0.00034,-9.07371,0.22707,0.0,35.56492,6.12284,10.41576,-1.30405,-1.20294,-13.60105,11.61208,17.16404,-29.94588,14.36071,-16.05939,35.37302,106.64878,-0.00039,-90.42923,99.15096,0.00041,84.63754,-11.53485,8.26264,0.00185,-4.53193,-11.79123,0.00018,6.01086,-2.11278,12.04539,-16.11754,-6.538,10.35425,-1.96187,-1.52441,8.38829
431,-4.08911,-0.0,0.0,-3.35444,-0.0,-0.0,-7.90278,-2.36468,17.4288,19.53892,5.44634,-10.18702,-15.44592,-4.19491,0.00021,-9.11705,0.26111,-1e-05,35.65871,6.15499,10.29736,-1.25922,-1.24847,-13.41685,11.526,16.99371,-29.7522,14.42713,-16.12197,35.36927,106.45033,-0.00131,-90.79551,99.03457,0.00165,85.05204,-10.88845,8.45134,0.00241,-4.31032,-11.88283,0.00172,5.99762,-2.01139,11.9623,-16.13219,-6.4128,10.31528,-1.96626,-1.55375,8.45388
432,-3.87981,0.0,0.0,-3.3975,-0.0,0.0,-7.96307,-2.17329,17.36852,19.60573,5.65943,-10.07747,-15.53147,-4.22551,-4e-05,-9.1581,0.26089,0.0,35.73724,6.14573,10.35971,-1.22653,-1.31108,-13.60933,11.52404,16.83916,-29.58618,14.55881,-16.16686,35.34721,106.17369,-0.00065,-90.94672,98.88943,0.00159,85.57752,-10.28136,8.60399,0.00058,-4.29818,-11.87598,0.00241,6.03339,-1.958,11.98173,-16.09282,-6.37065,10.35362,-1.96819,-1.57595,8.51964
433,-3.02729,0.0,0.0,-2.81135,0.0,0.0,-8.28277,-1.87162,17.08435,19.48184,5.86106,-9.66925,-15.57662,-4.1164,-0.00026,-9.16771,0.20722,-1e-05,35.77269,6.11552,10.60217,-1.23739,-1.35266,-14.08655,11.69716,16.78924,-29.649,14.71464,-16.22796,35.25545,105.95538,0.00027,-90.7988,98.7832,0.00032,85.814,-10.06452,8.49008,-0.00016,-4.35826,-11.58252,-0.00071,6.10993,-1.98707,12.01121,-16.01547,-6.40868,10.37006,-1.99554,-1.59332,8.62659
434,-2.15916,-0.0,-0.0,-2.16214,0.0,-0.0,-8.56157,-1.75626,16.73179,19.26336,5.97549,-9.23033,-15.6514,-3.93044,-0.00037,-9.13301,0.14061,-1e-05,35.8008,6.11351,10.88864,-1.27061,-1.34364,-14.50111,11.9892,16.7851,-29.8935,14.83303,-16.34746,35.10124,105.86152,0.00033,-90.50784,98.77077,-0.00102,86.11179,-10.22269,7.92538,0.00177,-4.6144,-10.9005,-0.00802,6.2107,-2.11951,12.00406,-15.92085,-6.52867,10.31319,-2.04926,-1.57438,8.77869
435,-1.8502,0.0,-0.0,-2.02137,0.0,-0.0,-8.55461,-1.9263,16.55655,19.14228,5.94589,-9.0617,-15.79517,-3.82356,-2e-05,-9.0741,0.10575,0.0,35.86592,6.17725,11.03199,-1.28318,-1.29367,-14.56747,12.20292,16.73204,-30.07431,14.8845,-16.49122,34.94805,105.89516,0.00023,-90.38524,98.83282,-0.00128,86.67635,-10.50056,6.87839,0.00256,-5.16621,-10.13055,-0.0104,6.30142,-2.27388,11.99392,-15.83756,-6.66785,10.24519,-2.10398,-1.52321,8.91866
436,-2.13544,0.0,0.0,-2.34161,-0.0,-0.0,-8.2811,-2.17231,16.64343,19.1945,5.79199,-9.22,-15.99875,-3.89425,0.00054,-9.0145,0.10194,1e-05,35.98418,6.28849,10.96976,-1.25745,-1.24225,-14.30379,12.23324,16.64845,-30.11266,14.87362,-16.57516,34.83847,106.01878,4e-05,-90.46502,98.90582,-0.00016,86.81532,-10.67666,5.72638,0.00049,-5.61607,-9.78245,-0.00587,6.32331,-2.31536,12.01813,-15.81584,-6.71539,10.25201,-2.11892,-1.49674,8.99033
437,-2.63755,0.0,-0.0,-2.67668,0.0,-0.0,-7.96259,-2.23674,16.80961,19.3075,5.5586,-9.49927,-16.22199,-4.0661,0.00057,-8.94036,0.11002,2e-05,36.14487,6.38366,10.8438,-1.21047,-1.22152,-13.95695,12.17541,16.61758,-30.15508,14.83999,-16.54504,34.7968,106.12958,-0.00036,-90.49019,98.93018,-2e-05,86.0285,-10.6335,5.15278,0.0002,-5.50198,-9.9809,-0.00392,6.24598,-2.2203,12.08549,-15.88433,-6.6527,10.35085,-2.06067,-1.53848,8.98497
438,-3.01437,-0.0,0.0,-2.76842,0.0,0.0,-7.77742,-2.15033,16.83677,19.33018,5.27358,-9.64932,-16.41645,-4.18121,0.0001,-8.82269,0.12366,5e-05,36.31335,6.41588,10.83211,-1.17497,-1.2315,-13.7644,12.17515,16.65953,-30.28874,14.84943,-16.42082,34.86124,106.10984,1e-05,-90.281,98.8643,-0.0008,84.81444,-10.35133,5.45285,0.00329,-4.94552,-10.32015,-0.00116,6.12672,-2.10276,12.18947,-15.99121,-6.58294,10.49231,-1.94497,-1.63265,8.91454
439,-3.19938,0.0,-0.0,-2.73098,0.0,-0.0,-7.72325,-2.14873,16.72427,19.24427,5.01432,-9.60476,-16.55913,-4.1796,-0.00021,-8.67631,0.13626,4e-05,36.46252,6.40222,10.92865,-1.15875,-1.24086,-13.77669,12.27638,16.70707,-30.42426,14.93434,-16.29201,35.01808,105.93324,0.00107,-89.85484,98.71888,-0.0002,83.94223,-9.92704,6.20812,0.00455,-4.47078,-10.32978,0.00343,6.0653,-2.05417,12.30392,-16.04244,-6.58098,10.61739,-1.8329,-1.72013,8.79153
440,-3.23816,0.0,0.0,-2.75312,0.0,-0.0,-7.72336,-2.29124,16.6035,19.13757,4.92873,-9.48754,-16.66254,-4.12824,-0.00018,-8.55148,0.12893,0.0,36.58855,6.40778,11.02204,-1.13798,-1.21823,-13.87502,12.44008,16.69874,-30.47122,15.06858,-16.26497,35.16611,105.67533,0.00158,-89.32479,98.58347,0.00102,83.63863,-9.52111,6.92697,0.00306,-4.44847,-9.89574,0.00269,6.10361,-2.04926,12.39484,-15.99744,-6.61062,10.704,-1.78194,-1.75296,8.65857
441,-3.14792,-0.0,0.0,-2.85112,-0.0,0.0,-7.74251,-2.38048,16.52834,19.06748,5.09722,-9.43186,-16.74467,-4.10654,-4e-05,-8.47059,0.09684,-1e-05,36.68261,6.47648,11.11168,-1.10357,-1.17334,-13.92808,12.6287,16.65732,-30.47401,15.21423,-16.38209,35.23003,105.42307,0.00105,-88.86094,98.5638,0.00114,83.66491,-9.2899,7.64891,0.00036,-4.97141,-9.16612,-0.00517,6.19973,-2.02552,12.44248,-15.89686,-6.60653,10.75739,-1.81128,-1.73774,8.58543
442,-3.01906,0.0,-0.0,-2.92538,0.0,-0.0,-7.76499,-2.25689,16.45797,19.01928,5.41287,-9.44992,-16.8094,-4.12675,4e-05,-8.40931,0.06558,1e-05,36.72367,6.58437,11.27789,-1.08869,-1.1477,-13.91887,12.83269,16.65268,-30.54588,15.34675,-16.57799,35.24663,105.19892,-0.00021,-88.66713,98.67369,0.00035,83.96221,-9.39271,8.59825,-0.00444,-6.04846,-8.30619,-0.01409,6.27492,-1.96693,12.43116,-15.81995,-6.54799,10.76903,-1.90387,-1.71553,8.60896
443,-2.98129,-0.0,0.0,-2.88656,0.0,0.0,-7.76607,-1.99134,16.3694,18.95395,5.67133,-9.44885,-16.85752,-4.16685,8e-05,-8.33459,0.05413,2e-05,36.69899,6.67936,11.5087,-1.14049,-1.15749,-13.92231,13.05345,16.69927,-30.73848,15.45085,-16.73538,35.28403,104.9729,-0.00176,-88.88091,98.81225,0.00035,84.69312,-9.90662,9.55808,-0.00581,-7.48191,-7.57212,-0.01146,6.27637,-1.88759,12.35832,-15.82034,-6.4471,10.73118,-2.03711,-1.70935,8.70837
444,-2.99246,0.0,0.0,-2.69574,-0.0,0.0,-7.73657,-1.77333,16.29466,18.84715,5.75184,-9.35424,-16.90556,-4.21656,0.00013,-8.24087,0.04635,-2e-05,36.62807,6.7492,11.701,-1.26128,-1.17024,-13.98153,13.27789,16.72138,-30.98434,15.5496,-16.79266,35.35459,104.73732,-0.00231,-89.40615,98.85287,0.00088,85.50206,-10.60166,10.01577,-0.00051,-8.72344,-7.35473,0.00044,6.22428,-1.79256,12.27876,-15.87411,-6.32914,10.69301,-2.19809,-1.71358,8.84027
445,-2.87995,0.0,-0.0,-2.38356,-0.0,0.0,-7.68952,-1.70131,16.24515,18.70403,5.6646,-9.18135,-16.99376,-4.25174,6e-05,-8.15609,0.03107,-4e-05,36.59316,6.81129,11.80032,-1.36854,-1.15252,-14.06746,13.48379,16.65077,-31.17668,15.7191,-16.77806,35.45113,104.53794,-0.0011,-89.84199,98.73884,-0.00198,85.51961,-10.98159,9.85232,0.00138,-9.32144,-7.83297,0.00426,6.18847,-1.69204,12.27911,-15.90574,-6.23613,10.73137,-2.35139,-1.72244,8.9616
446,-2.62608,0.0,-0.0,-2.09838,0.0,-0.0,-7.63657,-1.74074,16.19508,18.56748,5.46781,-9.00055,-17.1524,-4.21885,-0.00026,-8.11625,0.04472,-6e-05,36.6931,6.84995,11.82907,-1.35845,-1.12783,-14.13527,13.71269,16.52735,-31.32559,16.03081,-16.74275,35.58764,104.4125,0.00047,-89.7419,98.49863,-0.00614,84.44805,-10.79471,9.52393,-0.0006,-9.28788,-8.67292,-8e-05,6.20881,-1.63636,12.38104,-15.87577,-6.22285,10.84741,-2.44225,-1.74573,9.02684
447,-2.44747,-0.0,0.0,-2.08478,0.0,0.0,-7.56445,-1.85836,16.18108,18.49947,5.21171,-8.9085,-17.35908,-4.10837,-0.00051,-8.11915,0.12168,-9e-05,36.91811,6.82915,11.78598,-1.23807,-1.14643,-14.13056,14.09199,16.43599,-31.56213,16.48288,-16.70031,35.77034,104.33276,0.00135,-89.06393,98.19949,-0.00429,83.14359,-10.38357,9.44459,-0.0007,-8.9149,-9.26851,-0.0017,6.26019,-1.68763,12.52367,-15.81612,-6.32395,10.96093,-2.47663,-1.78942,9.00323
448,-2.55432,0.0,0.0,-2.48363,0.0,-0.0,-7.4353,-2.02516,16.28699,18.52892,4.97693,-8.99258,-17.57701,-4.00375,-0.00034,-8.11296,0.21546,-0.00011,37.16076,6.77004,11.62932,-1.11861,-1.19449,-14.00356,14.67157,16.38827,-31.92538,16.98546,-16.64415,35.97341,104.22708,0.00106,-88.30123,97.9018,0.00286,82.83675,-10.29388,9.39604,0.00096,-8.52617,-9.31238,-1e-05,6.2862,-1.83298,12.64318,-15.78748,-6.50354,11.01735,-2.52288,-1.83103,8.89581
449,-2.93368,-0.0,-0.0,-3.17214,-0.0,-0.0,-7.20319,-2.11875,16.49366,18.63636,4.88653,-9.23937,-17.82541,-3.9964,0.0001,-8.05661,0.24205,-0.00018,37.36789,6.74267,11.37504,-1.06668,-1.20792,-13.79437,15.28335,16.36478,-32.25097,17.41269,-16.59009,36.1594,104.04149,-0.00128,-88.04999,97.64533,0.00637,83.71643,-10.6577,8.81984,0.00344,-8.27906,-9.0486,0.00137,6.26113,-1.96715,12.71654,-15.81296,-6.65543,11.03499,-2.60038,-1.85108,8.74669
450,-3.39325,0.0,-0.0,-3.93959,0.0,-0.0,-6.83153,-2.06908,16.66415,18.78824,4.96146,-9.51304,-18.16367,-4.08931,0.00049,-7.96901,0.20948,-0.00017,37.56444,6.7754,11.12967,-1.06893,-1.18596,-13.62015,15.70677,16.41179,-32.37551,17.69884,-16.56719,36.31082,103.77959,-0.004,-88.45026,97.44301,0.00293,84.60387,-11.14631,7.69068,-0.00118,-8.11143,-8.96381,0.00197,6.23038,-2.00353,12.73902,-15.84365,-6.69759,11.04219,-2.66605,-1.88203,8.60764
451,-3.6928,-0.0,-0.0,-4.67264,0.0,0.0,-6.34321,-2.01444,16.66102,18.91822,5.011,-9.62876,-18.6228,-4.21664,0.00047,-7.88602,0.22726,1e-05,37.74935,6.83347,11.03077,-1.13206,-1.20323,-13.58069,15.92836,16.57812,-32.3421,17.89402,-16.56796,36.4239,103.48636,-0.0034,-89.03335,97.25311,-0.00173,84.52488,-11.33757,6.80222,-0.00618,-7.87279,-9.33231,0.00026,6.25662,-1.97571,12.70811,-15.81847,-6.6602,11.0239,-2.72257,-1.96783,8.49938
452,-3.68053,-0.0,0.0,-5.21397,0.0,-0.0,-5.83233,-2.09791,16.44637,18.9032,4.81941,-9.43901,-19.18643,-4.31695,6e-05,-7.80757,0.35884,0.0002,37.89507,6.89663,11.15247,-1.28412,-1.28669,-13.7269,16.10808,16.812,-32.28759,18.1135,-16.54865,36.48605,103.19399,0.00126,-89.02184,96.98614,-0.00178,83.94981,-10.88761,7.02921,0.01096,-7.38553,-10.07379,-0.0041,6.32625,-1.97492,12.64393,-15.75352,-6.63535,10.96435,-2.8332,-2.0784,8.40827
453,-3.40678,-0.0,-0.0,-5.26813,-0.0,0.0,-5.38738,-2.19456,16.10223,18.65573,4.44024,-8.9184,-19.82039,-4.37182,-0.00032,-7.71304,0.52937,0.00017,38.03548,7.0092,11.43081,-1.47858,-1.35318,-14.06231,16.34199,16.99998,-32.21401,18.435,-16.49577,36.49469,102.90357,0.00542,-88.04438,96.59545,0.00227,83.83393,-9.65814,8.38514,0.03731,-6.60251,-10.90453,-0.005,6.37499,-2.01109,12.6116,-15.70872,-6.65673,10.92053,-3.01652,-2.11812,8.33336
454,-3.03337,-0.0,-0.0,-4.65959,-0.0,0.0,-5.05933,-2.04127,15.77543,18.22987,4.17968,-8.23487,-20.47706,-4.40166,-0.00029,-7.58643,0.62147,-4e-05,38.23839,7.21135,11.69781,-1.62588,-1.31651,-14.5014,16.60053,17.08254,-32.01518,18.85849,-16.4563,36.48989,102.60462,0.00382,-86.73527,96.15598,0.00368,84.30724,-8.11517,9.88847,0.03074,-5.82631,-11.47854,0.00067,6.3875,-2.01722,12.69249,-15.69056,-6.6928,10.99362,-3.22109,-2.03046,8.29473
455,-2.70894,0.0,0.0,-3.6223,0.0,-0.0,-4.8712,-1.63019,15.62241,17.7996,4.25017,-7.72201,-21.08155,-4.44372,6e-05,-7.42858,0.61193,-0.00018,38.49712,7.47101,11.79323,-1.70844,-1.19196,-14.82604,16.90266,17.11344,-31.72529,19.36017,-16.48629,36.54399,102.28792,-0.00186,-86.12123,95.80435,0.00135,84.96264,-7.24656,10.46136,0.00995,-5.57343,-11.49146,0.00151,6.39867,-1.98165,12.91387,-15.66139,-6.74296,11.21353,-3.4165,-1.85021,8.30289
456,-2.51181,0.0,-0.0,-2.65027,0.0,-0.0,-4.79566,-1.24173,15.66981,17.52975,4.56305,-7.61126,-21.58217,-4.5121,0.00019,-7.27263,0.56439,-0.00012,38.75227,7.74071,11.70866,-1.76179,-1.04393,-14.85445,17.39123,17.20003,-31.56906,19.96047,-16.58186,36.72453,101.96711,-0.00467,-86.37399,95.58829,0.0005,85.71329,-7.59289,9.93827,0.01001,-6.15145,-10.87924,-0.00881,6.42993,-1.99493,13.22504,-15.60711,-6.87201,11.4988,-3.61751,-1.64351,8.36323
457,-2.33095,-0.0,-0.0,-2.05991,-0.0,-0.0,-4.772,-1.07812,15.70283,17.45298,4.90962,-7.73883,-22.02151,-4.57219,-0.00022,-7.16026,0.52661,-0.0,38.998,8.02576,11.64596,-1.78935,-0.89958,-14.7037,18.1467,17.37131,-31.68489,20.73683,-16.6722,37.09892,101.69326,-0.00261,-86.77608,95.41676,0.00204,86.60931,-8.719,9.06489,0.00807,-7.32967,-9.91436,-0.01443,6.48203,-2.13835,13.54948,-15.53641,-7.12656,11.74742,-3.80869,-1.44856,8.48225
458,-1.95747,0.0,0.0,-1.8519,-0.0,-0.0,-4.74492,-1.08196,15.50367,17.47702,5.19956,-7.70069,-22.5132,-4.59211,-0.00071,-7.09605,0.48396,1e-05,39.28644,8.35952,11.80404,-1.76921,-0.74991,-14.66523,19.03158,17.54877,-31.91952,21.77705,-16.67631,37.75688,101.50994,6e-05,-86.68583,95.17007,0.00143,87.22472,-9.82729,8.68436,-0.0052,-8.43951,-9.06492,-0.00653,6.55134,-2.35742,13.82735,-15.45561,-7.43373,11.92415,-3.9257,-1.27723,8.64647
459,-1.41802,-0.0,-0.0,-1.91176,-0.0,0.0,-4.64497,-1.09665,15.17021,17.50422,5.43367,-7.32321,-23.13862,-4.60585,-0.00048,-7.05616,0.41485,-5e-05,39.63932,8.7414,12.11681,-1.70786,-0.60371,-14.81378,19.81544,17.66787,-31.94729,23.09282,-16.55061,38.72404,101.40676,0.00098,-85.97173,94.80738,-0.00323,86.97552,-10.36114,9.08602,-0.00854,-8.90133,-8.76844,-0.00077,6.61332,-2.50808,14.02076,-15.38559,-7.64582,12.04793,-3.94196,-1.13947,8.81944
460,-1.01196,-0.0,-0.0,-2.1489,0.0,-0.0,-4.38726,-1.05281,15.01843,17.50507,5.57577,-6.8244,-23.87069,-4.68005,0.00049,-7.03149,0.36327,-8e-05,40.00066,9.11299,12.33283,-1.65084,-0.51929,-14.94348,20.38422,17.74839,-31.51648,24.56864,-16.30313,39.83688,101.34323,0.00087,-84.83362,94.35991,-0.00583,85.91565,-10.01953,9.97698,0.00301,-8.64478,-9.11237,-0.00442,6.61718,-2.54136,14.12641,-15.37487,-7.71621,12.13411,-3.9255,-1.05891,8.97034
461,-0.94624,0.0,-0.0,-2.50152,0.0,-0.0,-3.95926,-0.98831,15.20521,17.4823,5.62796,-6.50501,-24.6101,-4.83088,0.00113,-7.02648,0.40785,-8e-05,40.31446,9.40857,12.31078,-1.62727,-0.55318,-14.88018,20.76399,17.83741,-30.61104,26.0384,-15.99545,40.83665,101.29563,0.00037,-83.67235,93.88252,-0.00206,84.75548,-8.77079,10.90355,0.01259,-8.05883,-9.64133,-0.00462,6.52113,-2.56936,14.18157,-15.46786,-7.7628,12.17509,-3.94554,-1.04521,9.09718
462,-1.08118,-0.0,-0.0,-2.91352,-0.0,0.0,-3.47559,-0.97118,15.57312,17.42286,5.73746,-6.42422,-25.29886,-4.99892,0.00077,-7.02465,0.55694,-2e-05,40.61611,9.61539,12.14835,-1.60889,-0.68851,-14.68929,21.05713,17.97366,-29.49167,27.42644,-15.72211,41.62744,101.2608,-0.00024,-82.983,93.41987,0.00197,83.95488,-7.00723,11.55668,0.00759,-7.6482,-9.8591,0.00058,6.3393,-2.71104,14.2553,-15.65099,-7.92175,12.19049,-3.96545,-1.06368,9.2231
463,-1.10303,0.0,-0.0,-3.26047,-0.0,0.0,-3.0782,-1.05229,15.86853,17.31777,5.99681,-6.44136,-25.95737,-5.10373,-0.00025,-6.99738,0.72484,4e-05,40.96297,9.76757,12.05884,-1.56998,-0.84491,-14.53034,21.44718,18.21313,-28.58291,28.77666,-15.56456,42.33034,101.2384,-0.00063,-82.99368,92.98563,0.00115,83.2177,-5.43118,11.68126,-0.00412,-7.69322,-9.88407,0.00453,6.16831,-2.93119,14.42193,-15.82,-8.1882,12.26309,-3.92373,-1.07031,9.3842
464,-0.84453,0.0,0.0,-3.37679,0.0,0.0,-2.80218,-1.23514,15.99274,17.19352,6.25836,-6.47027,-26.59661,-5.11625,-0.00115,-6.94764,0.81842,3e-05,41.32931,9.90853,12.16518,-1.53065,-0.94053,-14.43593,22.13203,18.60863,-28.22022,30.14945,-15.53772,43.06554,101.25396,-0.00074,-83.34978,92.58316,-0.00056,82.18176,-4.64248,11.09042,-0.00212,-8.0874,-10.11637,0.00577,6.14416,-3.09532,14.68978,-15.83097,-8.44052,12.45167,-3.84522,-1.05467,9.60635
465,-0.37545,-0.0,0.0,-3.30531,0.0,0.0,-2.58388,-1.42273,16.01348,17.10464,6.4103,-6.56395,-27.15911,-5.09306,-0.00119,-6.91089,0.81213,0.0,41.65797,10.05102,12.39463,-1.49528,-0.95607,-14.34367,23.14614,19.15468,-28.43935,31.55297,-15.56707,43.80184,101.38067,-0.00074,-83.52984,92.21989,-7e-05,80.97552,-4.83041,9.98457,0.01272,-8.46279,-10.53491,0.00326,6.31574,-3.14776,14.96864,-15.63883,-8.5933,12.69295,-3.76839,-1.03955,9.86883
466,0.1073,0.0,0.0,-3.37022,0.0,-0.0,-2.35913,-1.43099,16.06416,17.08848,6.63745,-6.73702,-27.58806,-5.16126,-0.0004,-6.90325,0.73242,-1e-05,41.93534,10.17031,12.54256,-1.43783,-0.95073,-14.26732,24.36,19.81648,-28.99692,32.99409,-15.54554,44.46119,101.65365,-0.00026,-83.53722,91.85155,4e-05,79.90719,-5.82941,8.99834,0.01551,-8.50775,-10.82823,0.00059,6.57187,-3.1475,15.13986,-15.36803,-8.65696,12.85344,-3.67037,-1.06316,10.12436
467,0.43547,0.0,-0.0,-3.84678,-0.0,-0.0,-2.11841,-1.14186,16.25175,17.12829,7.09862,-6.84651,-27.9133,-5.42178,0.0006,-6.8906,0.61589,-5e-05,42.17484,10.25606,12.45417,-1.3646,-0.98606,-14.29589,25.66167,20.58245,-29.56224,34.52461,-15.44092,45.0689,101.98845,-0.00043,-83.64686,91.37799,-0.0018,79.0949,-7.39293,8.73862,-0.0025,-8.19351,-10.90422,0.00036,6.75536,-3.14859,15.12987,-15.18547,-8.65424,12.84366,-3.52852,-1.14712,10.37869
468,0.59022,-0.0,0.0,-4.65546,-0.0,0.0,-1.87723,-0.6485,16.54681,17.19373,7.54208,-6.78985,-28.23907,-5.82033,0.00109,-6.82978,0.52247,-7e-05,42.39582,10.32284,12.1868,-1.3181,-1.07458,-14.42698,26.94714,21.42482,-29.84999,36.16667,-15.32962,45.71723,102.30074,-0.00171,-83.85708,90.77232,-0.00234,78.53474,-9.31467,9.2969,-0.02059,-7.75627,-10.90355,0.0006,6.8332,-3.1333,14.93969,-15.12302,-8.56909,12.67131,-3.35792,-1.2887,10.68713
469,0.65706,-0.0,0.0,-5.324,-0.0,0.0,-1.60178,-0.16649,16.74372,17.27843,7.57429,-6.66411,-28.66702,-6.16639,0.00032,-6.73307,0.51974,-4e-05,42.58559,10.35718,11.99804,-1.34917,-1.22946,-14.55489,27.99394,22.28302,-29.66206,37.84177,-15.30989,46.42828,102.65563,-5e-05,-84.19639,90.16359,0.0005,78.3986,-11.23744,10.28117,-0.0175,-7.42501,-10.90017,-0.00027,6.88894,-3.05582,14.64273,-15.08792,-8.38631,12.42257,-3.20012,-1.50411,11.05626
470,0.6827,-0.0,0.0,-5.22185,-0.0,0.0,-1.2073,0.19112,16.60631,17.34597,7.2192,-6.53713,-29.23453,-6.32088,-0.00116,-6.67185,0.58343,-0.00013,42.66324,10.32469,12.12401,-1.50612,-1.48188,-14.68657,28.60307,23.14046,-28.95694,39.45802,-15.40652,47.18126,103.18551,0.00592,-84.87939,89.74024,0.0011,78.92785,-12.67141,11.27174,-0.00066,-7.29987,-10.80725,-0.00334,6.97641,-2.90544,14.32371,-15.01855,-8.12759,12.18095,-3.12848,-1.82612,11.41053
471,0.69075,0.0,-0.0,-4.12289,-0.0,0.0,-0.666,0.4636,16.10797,17.33149,6.93559,-6.2934,-29.89897,-6.33492,-0.00128,-6.72079,0.58805,-0.0,42.57263,10.23383,12.53905,-1.77853,-1.81621,-14.97578,28.83232,24.03666,-27.86373,41.03077,-15.55194,48.06617,103.92754,0.01038,-85.82978,89.58681,-0.00281,79.96845,-13.4464,12.04362,0.01025,-7.60378,-10.54376,-0.0076,7.06703,-2.73288,14.03648,-14.94209,-7.86013,11.97763,-3.19222,-2.22676,11.65939
472,0.80099,0.0,0.0,-2.58044,0.0,-0.0,-0.06873,0.70347,15.52524,17.24571,7.0787,-5.9321,-30.56137,-6.37785,0.00043,-6.91384,0.45494,0.00053,42.38831,10.14076,12.96988,-2.05274,-2.15397,-15.40343,28.93764,24.97692,-26.53258,42.63509,-15.6734,49.22831,104.80087,0.00633,-86.60658,89.62898,-0.00462,80.78181,-13.50504,12.48257,0.01122,-8.58436,-10.23709,-0.0064,7.13221,-2.61386,13.82238,-14.88788,-7.66961,11.82254,-3.33124,-2.60363,11.80118
473,1.09017,0.0,-0.0,-1.43015,0.0,-0.0,0.48428,0.86573,15.23821,17.19149,7.52625,-5.73665,-31.12778,-6.5074,0.00144,-7.25983,0.24379,0.00083,42.24072,10.06874,13.19766,-2.18015,-2.44999,-15.67712,29.1347,25.90835,-25.00535,44.2485,-15.8602,50.6274,105.68313,-0.00647,-86.68497,89.76101,-0.00174,80.62162,-12.12608,12.60321,0.00595,-10.02434,-10.11703,0.00101,7.18744,-2.57619,13.68025,-14.84194,-7.58145,11.704,-3.40983,-2.88626,11.98693
474,1.36239,-0.0,-0.0,-0.92842,0.0,0.0,1.00644,0.84583,15.40892,17.26636,7.88696,-5.91061,-31.57907,-6.5441,0.00021,-7.79664,0.06402,0.00027,42.1926,9.93347,13.30505,-2.07355,-2.76934,-15.64102,29.47715,26.8287,-23.34486,45.72191,-16.37937,52.00357,106.504,-0.01558,-85.90661,89.99556,0.00154,79.71294,-8.72173,12.51238,-0.00235,-11.20006,-10.16515,0.00431,7.22944,-2.58151,13.53553,-14.81147,-7.53213,11.5668,-3.32199,-3.12211,12.39915
475,1.47149,0.0,-0.0,-0.69101,0.0,0.0,1.54337,0.61017,15.91716,17.4751,7.90829,-6.36869,-31.97171,-6.29901,-0.00157,-8.57868,-0.03849,-0.00122,42.23481,9.60452,13.46983,-1.75425,-3.19013,-15.43307,29.89926,27.87101,-21.86402,46.9222,-17.40899,53.11282,107.30354,-0.00648,-85.0592,90.40649,0.00084,79.01409,-4.6349,12.23134,-0.00343,-11.38308,-10.17271,0.00381,7.19466,-2.56932,13.31584,-14.8625,-7.43845,11.36625,-3.04192,-3.40758,12.9934
476,1.73922,0.0,0.0,-0.29973,0.0,-0.0,2.04388,0.29288,16.51958,17.71702,7.57809,-7.0117,-32.3724,-5.88607,-0.00153,-9.59859,-0.09103,-0.00293,42.30538,9.06863,13.62847,-1.36277,-3.65292,-15.12759,30.29972,29.20029,-20.98717,47.83139,-18.83283,53.92042,108.18134,0.01355,-85.2713,90.96849,-0.00192,79.01444,-2.45232,11.76813,0.01139,-10.48414,-10.08534,0.00449,7.00781,-2.48924,13.01985,-15.06775,-7.25316,11.12027,-2.62949,-3.76417,13.47521
477,2.52082,0.0,0.0,0.35038,0.0,0.0,2.43228,0.13849,16.94851,17.87887,7.04363,-7.82584,-32.80417,-5.60114,0.00021,-10.83646,-0.16092,-0.00295,42.2982,8.45951,13.63332,-1.02641,-4.03952,-14.65531,30.57556,30.81853,-20.73471,48.52675,-20.39246,54.60641,109.15336,0.01767,-86.48401,91.55286,-0.00273,79.56003,-3.13114,11.37443,0.01751,-9.28782,-9.9658,0.00435,6.64623,-2.31696,12.69483,-15.44516,-6.97143,10.8823,-2.18336,-4.14855,13.63159
478,3.53355,-0.0,0.0,1.04786,0.0,-0.0,2.75693,0.21679,17.02749,17.98402,6.57095,-8.73241,-33.23652,-5.52639,0.00113,-12.39645,-0.32725,0.00065,42.13268,7.89672,13.5664,-0.68267,-4.36486,-14.05386,30.62022,32.53921,-20.54376,49.15781,-21.9334,55.46406,110.09346,0.00273,-87.63728,92.06723,-0.00164,80.41484,-5.13164,11.41882,0.00397,-8.89702,-9.76408,-0.0016,6.17883,-2.07137,12.38693,-15.92375,-6.62814,10.68824,-1.76765,-4.5287,13.55791
479,4.02634,0.0,-0.0,1.47068,0.0,0.0,3.17144,0.28788,16.78506,18.11964,6.40799,-9.59387,-33.6092,-5.47267,0.00032,-14.45764,-0.62486,0.00597,41.80213,7.37829,13.60956,-0.15097,-4.73475,-13.4609,30.3742,34.14779,-19.83775,49.8903,-23.45794,56.68998,110.87483,-0.00596,-88.35061,92.53995,0.00032,81.31625,-6.52782,11.89418,-0.00035,-9.86525,-9.35226,-0.01399,5.75192,-1.80804,12.09127,-16.3604,-6.27296,10.51247,-1.416,-4.87812,13.48195
480,3.65485,0.0,0.0,1.62319,-0.0,0.0,3.73565,0.14834,16.42742,18.14581,6.57458,-10.33491,-33.85837,-5.31638,-0.00042,-17.10961,-0.97113,0.00603,41.35164,6.85029,13.71596,0.67789,-5.17544,-12.87485,29.92409,35.52272,-18.6494,50.75721,-25.06421,58.151,111.50783,-0.00014,-89.16703,93.03359,0.0018,82.00926,-6.91841,12.32942,0.00489,-11.77389,-8.77659,-0.01739,5.46984,-1.58309,11.74549,-16.65743,-5.93441,10.27564,-1.15566,-5.15401,13.50952
481,2.95674,0.0,0.0,1.9104,0.0,0.0,4.33415,-0.0929,16.20356,17.68088,6.8511,-10.98433,-33.95116,-5.16736,-0.00037,-20.33535,-1.21074,9e-05,40.82489,6.30862,13.63284,1.79863,-5.60573,-12.1463,29.51178,36.6571,-17.48271,51.62311,-26.85137,59.47635,112.02734,0.00695,-90.37773,93.49502,0.00142,82.64875,-7.02248,12.35891,0.00756,-13.63248,-8.33237,-0.00471,5.26672,-1.40541,11.30503,-16.8835,-5.6039,9.93301,-0.99248,-5.32463,13.59507
482,2.68758,-0.0,-0.0,2.55545,0.0,-0.0,4.87913,-0.20629,16.17283,16.44839,7.01136,-11.57991,-33.93699,-5.13781,-0.00021,-24.09815,-1.30431,-0.00112,40.21023,5.80444,13.2545,3.1371,-5.91477,-11.30424,29.38674,37.64588,-16.72715,52.36503,-28.81833,60.45872,112.32372,0.00664,-91.44536,93.77923,0.00159,83.66816,-7.25682,12.20889,0.00626,-14.69105,-8.24606,0.00543,4.94791,-1.23137,10.78419,-17.22989,-5.24628,9.51457,-0.92013,-5.37488,13.62758
483,3.05141,0.0,0.0,3.2738,-0.0,0.0,5.43283,-0.09173,16.14905,14.47534,6.96293,-12.15609,-33.92561,-5.18106,-0.00011,-28.36457,-1.34225,0.00345,39.46321,5.37976,12.70745,4.6031,-6.03029,-10.60014,29.58852,38.60572,-16.40415,52.97481,-30.89582,61.20386,112.30674,0.00497,-91.65617,93.83845,0.0027,85.05199,-7.37709,12.3638,0.00405,-14.71457,-8.44836,0.00201,4.37678,-1.03399,10.19671,-17.83083,-4.84166,9.04346,-0.9361,-5.27584,13.4807
484,3.89191,-0.0,0.0,3.63945,-0.0,-0.0,6.02836,0.18775,15.96311,11.982,6.65339,-12.82843,-33.96825,-5.23496,-0.00012,-33.08369,-1.32502,0.00151,38.57924,5.01413,12.07985,6.15778,-5.96444,-10.13541,29.89604,39.55396,-16.34303,53.42648,-33.08097,61.8559,112.17428,0.00378,-91.14342,93.79754,0.00138,86.17461,-7.15043,12.86146,0.00325,-13.83509,-8.74952,-0.00662,3.59498,-0.84359,9.51728,-18.64655,-4.40846,8.48479,-1.02766,-5.00861,13.06019
485,5.00309,-0.0,-0.0,3.33387,-0.0,0.0,6.57148,0.50381,15.57646,9.30185,6.04535,-13.58991,-34.01208,-5.29995,-0.0003,-38.21356,-1.17452,-0.00216,37.62155,4.63632,11.39607,7.86865,-5.83267,-9.85472,30.07914,40.36396,-16.40175,53.60264,-35.45665,62.38913,112.23653,0.00318,-90.76604,93.8381,-0.00092,86.58934,-6.70427,13.32551,0.00141,-12.65274,-8.9149,-0.00983,2.75434,-0.68273,8.72774,-19.52568,-3.96051,7.8133,-1.15316,-4.63163,12.37527
486,6.16121,0.0,0.0,2.11833,0.0,0.0,6.9857,0.77967,14.97734,6.93249,5.20551,-14.12152,-34.03066,-5.367,-0.00039,-43.74773,-0.93678,0.00522,36.71807,4.21349,10.7544,9.8954,-5.77673,-9.78767,30.16193,40.84282,-16.52705,53.4639,-38.07329,62.74188,112.51866,0.00397,-91.0143,94.06206,-0.00123,86.5569,-6.24089,13.56172,0.0001,-12.02351,-8.69402,-0.01011,1.99893,-0.50243,7.86917,-20.31933,-3.46793,7.08587,-1.25262,-4.24237,11.54469
487,7.54026,0.0,0.0,0.08114,0.0,0.0,7.25493,1.03818,14.23716,5.44761,4.30358,-14.17091,-34.13723,-5.45879,0.00025,-49.65481,-0.67498,0.00949,36.01783,3.83343,10.15832,12.35774,-5.816,-9.86999,30.34433,40.89593,-16.72393,53.17885,-40.86128,62.97227,112.78577,0.00258,-91.71954,94.41216,0.00207,86.32899,-5.85454,13.69683,0.00032,-12.22877,-8.2212,-0.00796,1.44553,-0.21919,7.02319,-20.90485,-2.88447,6.40997,-1.2952,-3.85347,10.69705
488,9.63054,0.0,0.0,-2.28012,0.0,0.0,7.3816,1.33712,13.51371,5.17565,3.51507,-13.90411,-34.46337,-5.6544,0.00158,-55.81374,-0.29523,-0.0043,35.56258,3.64562,9.46496,15.20802,-5.83493,-9.84136,30.71824,40.65139,-17.01484,52.96547,-43.66651,63.17591,112.89021,2e-05,-92.52828,94.67921,0.00562,85.62834,-5.68916,13.8879,-0.00026,-12.69907,-8.02174,-0.00053,1.14854,0.19178,6.26098,-21.22608,-2.21441,5.86089,-1.30733,-3.39039,9.87746
489,12.19804,0.0,-0.0,-4.5015,0.0,0.0,7.47049,1.62852,12.8373,5.9606,2.94976,-13.65786,-34.94042,-5.94551,0.00176,-62.05305,0.28006,-0.02007,35.19671,3.70262,8.71948,18.29139,-5.753,-9.56233,31.14836,40.38174,-17.34813,52.86911,-46.32697,63.3644,112.89323,-0.00122,-93.00613,94.64169,0.00291,84.36109,-5.82373,14.16899,-0.0017,-12.66967,-8.32236,0.00166,1.02582,0.64664,5.65432,-21.36602,-1.56281,5.47295,-1.34605,-2.82746,9.05813
490,14.10645,-0.0,-0.0,-6.21611,0.0,0.0,7.71756,1.7691,12.08477,7.26556,2.66983,-13.60989,-35.31119,-6.1817,0.00039,-68.23326,0.93793,-0.01867,34.67233,3.89214,8.21986,21.50507,-5.62558,-9.11202,31.42422,40.27417,-17.55188,52.80245,-48.70844,63.50796,112.92223,-0.00117,-93.01054,94.21365,-0.00636,82.85538,-5.96176,14.4563,-0.0015,-11.74335,-8.85463,-0.00325,0.9439,1.01607,5.28232,-21.45803,-1.07952,5.26975,-1.46545,-2.26533,8.20114
491,14.47657,0.0,-0.0,-6.83613,-0.0,0.0,8.21716,1.74255,11.16661,8.50591,2.61715,-13.71518,-35.39404,-6.18849,-5e-05,-74.27667,1.49276,-0.00529,33.8756,4.01687,8.1514,24.85021,-5.55762,-8.61221,31.49587,40.30819,-17.51068,52.72063,-50.74134,63.61726,113.05132,0.00053,-93.16502,93.45084,-0.01818,81.27354,-5.66386,14.65166,-4e-05,-10.00777,-9.37002,-0.00872,0.86814,1.26017,5.12829,-21.53765,-0.79515,5.22041,-1.69255,-1.84604,7.29293
492,13.68574,0.0,-0.0,-6.00743,-0.0,0.0,8.81902,1.69414,10.1258,9.40119,2.53223,-13.76937,-35.25265,-5.89956,0.00095,-80.13869,1.8704,0.00347,32.92653,3.93447,8.34891,28.36033,-5.60709,-8.16647,31.52971,40.33836,-17.36375,52.61477,-52.48177,63.72425,113.2759,0.00249,-94.00864,92.48881,-0.01895,79.89298,-4.80009,14.77165,0.00117,-8.12372,-9.83424,-0.00913,0.81354,1.46589,5.02638,-21.59486,-0.56613,5.20464,-1.99302,-1.61795,6.35603
493,13.17873,0.0,0.0,-4.35354,0.0,0.0,9.21051,1.6617,9.11445,10.12984,2.21146,-13.59892,-35.07905,-5.41415,0.00138,-85.76556,2.10929,0.00585,32.01611,3.65247,8.43636,32.01267,-5.7699,-7.8666,31.7031,40.2465,-17.39146,52.38491,-54.10519,63.80697,113.55408,0.00245,-95.20866,91.50481,-0.00316,79.61036,-3.62464,14.86376,0.00076,-7.09206,-10.16764,-0.00499,0.72776,1.71764,4.79374,-21.68795,-0.24474,5.08563,-2.29494,-1.50269,5.45104
494,14.07223,0.0,0.0,-3.01392,0.0,0.0,9.23407,1.50785,8.25974,11.06844,1.74745,-13.19958,-35.03213,-4.89223,0.00038,-91.06954,2.23616,0.01193,31.22281,3.32242,8.16626,35.72901,-5.97549,-7.78143,31.98961,40.03453,-17.73149,51.88564,-55.77326,63.78324,113.87212,0.00238,-96.32269,90.62611,0.00959,81.02792,-2.66725,14.86795,-0.0007,-7.40621,-10.26846,-0.00366,0.54221,1.98479,4.37307,-21.88729,0.1626,4.79886,-2.56429,-1.34964,4.6344
495,15.99111,-0.0,-0.0,-2.45215,0.0,0.0,9.09879,1.16545,7.54977,12.35409,1.33625,-12.6387,-35.22488,-4.39824,-0.00154,-95.94836,2.27095,0.01913,30.55413,3.13914,7.58559,39.46912,-6.11699,-7.9206,32.22938,39.80326,-18.3072,51.12134,-57.47877,63.61397,114.2103,0.0025,-97.40842,89.80437,0.00846,83.52506,-2.51023,14.70908,0.00093,-8.63106,-10.32102,-0.00055,0.24971,2.17231,3.83842,-22.19661,0.53985,4.37658,-2.81754,-1.01553,3.89391
496,17.73278,0.0,0.0,-2.24173,0.0,0.0,9.13137,0.72001,6.96244,13.81231,1.06377,-11.95311,-35.69486,-3.94869,-0.00256,-100.35767,2.35526,0.01329,29.9939,3.18318,6.81709,43.2531,-6.17282,-8.15963,32.37592,39.63047,-18.99619,50.27649,-59.05809,63.35455,114.45484,7e-05,-98.55086,88.85465,0.00229,85.99272,-3.38149,14.43716,0.00463,-9.99337,-10.69165,0.00561,-0.13662,2.22632,3.32123,-22.59748,0.78716,3.91955,-3.10837,-0.47181,3.15534
497,18.62602,0.0,-0.0,-1.89167,0.0,0.0,9.40912,0.30664,6.54732,15.19282,0.91465,-11.15413,-36.31716,-3.61703,-0.00128,-104.34096,2.73005,-0.00808,29.42204,3.36768,5.85221,47.08481,-6.25627,-8.26184,32.56006,39.48917,-19.75351,49.55414,-60.37604,63.07961,114.46165,-0.00226,-99.47675,87.68036,-0.00028,88.01143,-4.91772,14.19255,0.00481,-10.9846,-11.40418,0.00436,-0.58778,2.1621,2.91544,-23.05836,0.88276,3.52025,-3.54599,0.17694,2.36561
498,18.45577,0.0,0.0,-1.32116,0.0,0.0,9.83822,0.09637,6.22271,16.29262,0.76135,-10.2318,-36.89236,-3.43469,0.00035,-107.94877,3.50664,-0.02819,28.64777,3.59553,4.7196,50.93655,-6.46313,-8.07805,32.87505,39.31471,-20.53234,49.11713,-61.43941,62.87727,114.23058,-0.00014,-99.75288,86.38602,-0.00056,89.85597,-6.43338,14.0929,0.00195,-11.35966,-12.03047,-0.00272,-1.00927,2.03566,2.60931,-23.48596,0.88287,3.18918,-4.25937,0.84477,1.54012
499,17.1273,0.0,0.0,-0.56212,0.0,0.0,10.38716,0.19855,5.78369,17.0086,0.40342,-9.23547,-37.33757,-3.32164,0.00083,-111.15868,4.45933,-0.0269,27.57028,3.89095,3.58815,54.79824,-6.7483,-7.76459,33.17925,39.11809,-21.15945,49.10081,-62.30336,62.88134,113.92463,0.00255,-99.23327,85.10181,-0.00585,91.70293,-7.45153,14.20738,0.00067,-10.94522,-12.22143,-0.00446,-1.31742,1.94054,2.32309,-23.79935,0.90434,2.88847,-5.28626,1.55479,0.7129
500,15.46711,0.0,0.0,0.38515,-0.0,0.0,10.98118,0.45573,5.21667,17.48105,-0.19688,-8.39758,-37.69187,-3.2114,0.00099,-113.8744,5.08316,-0.00457,26.24187,4.33938,2.54661,58.67604,-7.00059,-7.79112,33.22184,38.98241,-21.41154,49.45442,-62.95344,63.09685,113.68559,0.00234,-98.1151,83.7944,-0.01245,93.40711,-7.88798,14.68777,0.00285,-9.6794,-12.01662,0.00148,-1.53452,1.98598,2.02673,-24.02221,1.05961,2.63213,-6.51538,2.35135,-0.11507
501,14.92607,-0.0,0.0,1.20836,0.0,0.0,11.45637,0.52742,4.66161,18.07122,-0.73227,-8.03553,-38.02826,-3.0806,0.00092,-115.97232,4.96374,0.01542,24.78659,5.01417,1.56446,62.53579,-7.15614,-8.62852,32.92577,38.9405,-21.23105,49.854,-63.36512,63.26352,113.51942,0.00106,-96.59242,82.36013,-0.00594,95.05689,-7.8927,15.8005,0.00593,-7.80709,-11.57346,0.00902,-1.70615,2.17883,1.78146,-24.19957,1.33155,2.47941,-7.79853,3.26894,-0.94115
502,15.76864,0.0,0.0,1.27032,0.0,-0.0,11.82961,0.23874,4.11303,19.05218,-0.73229,-8.27046,-38.44543,-2.86317,-0.0003,-117.40158,4.14678,0.01613,23.28082,5.93284,0.6692,66.27768,-7.26015,-10.29209,32.42924,38.90286,-20.7815,49.99239,-63.64087,63.13076,113.42203,-0.00048,-95.0473,80.82559,0.01514,97.15466,-7.75344,17.54143,0.00309,-5.89531,-11.02735,0.00954,-1.79753,2.37379,1.61588,-24.29553,1.57498,2.40112,-9.1191,4.37918,-1.71018
503,16.74466,-0.0,-0.0,0.31375,0.0,0.0,12.34268,-0.27325,3.53766,20.37766,-0.01696,-8.9065,-39.0094,-2.50027,-0.00219,-118.25076,3.07399,0.00543,21.70177,6.98058,-0.09877,69.80145,-7.46365,-12.23846,31.88215,38.76027,-20.27561,49.84676,-63.98835,62.75233,113.51888,0.00211,-94.28056,79.34779,0.02733,99.90256,-7.71041,19.27446,-0.00355,-4.57241,-10.66349,0.00372,-1.75711,2.43909,1.40401,-24.25911,1.71631,2.23046,-10.57009,5.71029,-2.33045
504,16.70099,0.0,0.0,-0.9987,-0.0,-0.0,13.15537,-0.7341,3.1453,21.75985,1.04485,-9.60797,-39.6414,-2.03189,-0.00258,-118.64602,2.14648,-0.00267,19.98267,7.93848,-0.7945,73.10563,-7.88465,-13.83117,31.30853,38.55701,-19.80931,49.53176,-64.53008,62.32245,113.94393,0.01129,-94.78187,78.05949,0.01329,102.61549,-7.72269,20.1645,-0.00615,-4.1231,-10.78949,0.00295,-1.63341,2.38198,0.9948,-24.1403,1.82004,1.83071,-12.164,7.12281,-2.7344
505,15.93502,0.0,-0.0,-1.72659,0.0,0.0,14.12923,-0.92942,3.2184,22.92221,1.80961,-10.1074,-40.16631,-1.57722,-0.00087,-118.61509,1.50961,-0.00399,18.08097,8.65888,-1.50942,76.27398,-8.47506,-14.79016,30.66422,38.48341,-19.36984,49.12516,-65.16879,61.92778,114.59634,0.01339,-96.03795,76.94076,-0.01292,104.25742,-7.65456,20.07523,-0.00556,-4.22009,-11.46001,0.00373,-1.56211,2.2487,0.46463,-24.07286,1.89971,1.29001,-13.78299,8.38594,-2.93808
506,15.75838,0.0,0.0,-1.80671,0.0,-0.0,14.95984,-0.80417,3.778,23.77737,1.95,-10.21852,-40.52755,-1.28938,0.00132,-118.14155,1.21879,-0.00091,15.97367,9.19407,-2.36424,79.31761,-9.11014,-15.14738,29.93134,38.64339,-18.92063,48.79934,-65.68977,61.65471,115.1723,0.00417,-97.0433,75.80038,-0.02464,104.61826,-7.6045,19.60738,-0.00313,-4.24707,-12.60874,-0.00385,-1.6407,2.0488,0.08627,-24.15166,1.8598,0.86397,-15.37823,9.41548,-3.04697
507,16.89056,0.0,0.0,-1.99559,0.0,0.0,15.50383,-0.52324,4.54317,24.35871,1.7666,-9.90117,-40.88437,-1.2567,0.0028,-117.31517,1.26171,-0.00033,13.66063,9.71185,-3.45045,82.14455,-9.75619,-15.04954,29.11706,38.92577,-18.43093,48.87799,-65.98357,61.73563,115.48159,-0.00269,-97.33167,74.44417,-0.00972,104.61926,-7.75351,19.21425,-0.00088,-3.97314,-14.09739,-0.01242,-1.8386,1.82634,0.00148,-24.34737,1.68673,0.70043,-17.07953,10.32864,-3.17074
508,18.88304,0.0,-0.0,-2.76604,0.0,-0.0,15.88894,-0.35197,5.17477,24.67818,1.8127,-9.44342,-41.42022,-1.36716,0.00267,-116.30124,1.45011,-0.00749,11.25833,10.27626,-4.6243,84.79388,-10.44994,-14.66405,28.23169,39.18103,-17.88553,49.48969,-66.12408,62.30289,115.60773,-0.00266,-97.22509,72.94419,0.0132,105.23672,-8.06624,18.83321,0.00034,-3.62477,-15.33264,-0.01135,-2.03475,1.67072,0.05556,-24.5416,1.52227,0.6908,-18.94674,11.21693,-3.32507
509,20.87936,0.0,-0.0,-3.80112,0.0,0.0,16.34914,-0.38018,5.56954,24.74284,2.19295,-9.27187,-42.12595,-1.39959,0.00054,-115.12956,1.69467,-0.01325,8.99653,10.8147,-5.5978,87.49499,-11.15848,-14.03271,27.29209,39.42467,-17.30036,50.28204,-66.26875,63.07939,115.75219,0.00011,-97.2281,71.65877,0.01598,106.57314,-8.42562,18.2699,0.00217,-3.3392,-15.47792,-0.00357,-2.1345,1.62715,0.0184,-24.64107,1.49623,0.63979,-20.76753,12.03498,-3.4258
510,22.20408,0.0,-0.0,-4.32045,-0.0,-0.0,17.06083,-0.47254,5.81507,24.56407,2.50512,-9.43966,-42.85607,-1.22765,-0.00226,-113.61584,2.27029,-0.00277,6.97549,11.35925,-6.15855,90.32175,-11.7272,-13.03819,26.30393,39.78352,-16.69349,50.67436,-66.52419,63.5161,116.02288,0.00178,-97.44465,70.87007,0.0032,108.1832,-8.8175,17.47194,0.00444,-2.93503,-14.42812,0.00594,-2.14549,1.65781,-0.1388,-24.65298,1.58471,0.5063,-22.32982,12.75942,-3.33154
511,22.60874,0.0,0.0,-3.52795,0.0,0.0,18.03718,-0.49141,5.93132,24.06724,2.46508,-9.53825,-43.53273,-0.90779,-0.00372,-111.55621,3.43162,0.01983,5.07572,12.1353,-6.20556,93.03921,-11.98291,-11.68242,25.26645,40.3083,-16.07024,50.38195,-66.87543,63.28099,116.36292,0.00064,-97.56654,70.46106,-0.00494,109.69614,-9.16485,16.61672,0.00394,-2.2795,-12.95843,0.00902,-2.14202,1.68816,-0.27639,-24.65025,1.6654,0.39082,-23.69032,13.47603,-2.89797
512,22.43134,0.0,-0.0,-1.115,0.0,0.0,19.10974,-0.46178,5.93374,23.20572,2.19419,-9.16156,-44.22227,-0.69788,-0.00237,-108.95143,4.97003,0.03092,3.2321,13.28912,-5.903,95.44526,-11.91305,-10.22511,24.22562,40.91323,-15.47903,49.66459,-67.23679,62.59865,116.62614,-0.00071,-97.32183,70.04649,-0.00735,110.81745,-9.29518,16.09406,0.00201,-1.49598,-11.8255,0.00392,-2.16531,1.6726,-0.32499,-24.67348,1.66962,0.33997,-24.97029,14.24675,-2.10739
513,22.15207,0.0,0.0,2.23834,0.0,0.0,20.10621,-0.56801,5.93232,22.21008,2.08597,-8.32089,-45.0343,-0.83892,0.00049,-106.01449,6.41558,0.01832,1.55576,14.65772,-5.63824,97.59416,-11.70033,-8.89869,23.28833,41.48107,-15.04298,49.00248,-67.56835,61.99598,116.69817,-0.0001,-96.83144,69.37443,-0.01137,111.32517,-9.22968,16.22403,0.00078,-0.7342,-11.26795,-0.00069,-2.20508,1.61169,-0.37789,-24.71269,1.63359,0.26777,-26.1345,14.98787,-1.15616
514,21.8724,0.0,-0.0,5.14944,0.0,-0.0,21.01009,-0.94276,5.99557,21.47519,2.69263,-7.4469,-45.99196,-1.32874,0.00269,-102.97661,7.43179,-0.00823,0.11486,15.9242,-5.6518,99.60055,-11.52833,-7.73556,22.54525,41.97814,-14.87479,48.50387,-67.9225,61.67543,116.54388,0.00078,-96.43661,68.5388,-0.01033,111.63543,-9.23554,17.00603,-0.00331,-0.16815,-11.11177,-0.00137,-2.27588,1.52895,-0.56766,-24.78279,1.62977,0.06076,-27.09648,15.54396,-0.29095
515,21.77507,0.0,-0.0,6.86207,0.0,0.0,21.83218,-1.40903,6.10227,21.11639,4.22799,-7.06866,-47.01179,-2.0651,0.00398,-99.89823,7.94905,-0.02841,-1.14438,16.93985,-5.90898,101.47971,-11.40882,-6.70355,21.96742,42.46101,-14.92877,47.81429,-68.40342,61.36522,116.2028,0.00085,-96.3092,67.81291,-0.00325,112.73637,-9.48022,18.1009,-0.00707,-0.1666,-10.9149,-0.00528,-2.43364,1.47871,-0.94372,-24.93969,1.72726,-0.30593,-27.81515,15.84833,0.43387
516,22.50776,0.0,-0.0,7.90497,-0.0,0.0,22.47037,-1.67821,6.16663,20.89461,5.99528,-7.45233,-48.00229,-2.95086,0.00405,-96.68609,8.21376,-0.02007,-2.25282,17.78644,-6.20817,103.1908,-11.27169,-5.71465,21.40288,42.99828,-14.98531,46.6609,-69.06999,60.8363,115.78408,0.00046,-96.4259,67.30264,-0.00031,114.80753,-9.81838,18.92439,-0.00411,-0.96438,-10.29021,-0.01687,-2.70431,1.53823,-1.47418,-25.20919,1.98523,-0.77328,-28.24497,15.97467,1.10011
517,24.43604,0.0,-0.0,8.99235,-0.0,0.0,22.84054,-1.77394,6.07952,20.63044,6.88041,-8.53842,-48.95184,-3.81011,0.00221,-93.2429,8.64643,0.0181,-3.22988,18.5991,-6.31295,104.61417,-11.1317,-4.62016,20.69787,43.60083,-14.84916,45.19495,-69.85685,60.21459,115.39595,-0.00071,-96.81256,66.85262,-0.00097,116.83215,-10.0185,19.01523,0.00077,-2.17363,-9.27515,-0.02017,-3.03921,1.72724,-2.10621,-25.54251,2.40165,-1.28498,-28.39597,16.05573,1.71488
518,27.07027,0.0,0.0,10.14134,0.0,-0.0,22.98729,-1.95245,5.79244,20.40262,6.4714,-10.14077,-49.88227,-4.42801,-0.0012,-89.51929,9.35573,0.04985,-4.21586,19.44818,-6.05228,105.50043,-11.0404,-3.49651,19.80384,44.22467,-14.51145,43.57298,-70.65668,59.5424,115.05719,-0.00235,-97.52443,66.37847,-0.00307,118.18793,-9.99737,18.45362,0.00188,-2.96907,-8.18926,-0.00638,-3.34063,1.98831,-2.79068,-25.84146,2.90467,-1.81766,-28.45136,16.16615,2.22943
519,29.48582,0.0,-0.0,11.26968,0.0,0.0,23.00709,-2.28349,5.37844,20.26917,5.31535,-11.98176,-50.7608,-4.74796,-0.00282,-85.47498,9.87294,0.03623,-5.39023,20.30503,-5.45941,105.63049,-10.98764,-2.7594,18.78277,44.82932,-14.07672,41.48378,-71.46161,58.38055,114.72778,-0.00269,-98.37628,66.11691,-0.00788,119.29267,-9.71561,17.64417,-0.00026,-2.88909,-7.15403,0.00878,-3.54566,2.26943,-3.45279,-26.04326,3.41759,-2.32214,-28.63175,16.28035,2.63211
520,31.08328,-0.0,0.0,12.61689,0.0,0.0,22.96502,-2.57241,5.03662,20.04835,4.19534,-13.62981,-51.52413,-4.96613,-0.0005,-81.08789,9.61495,-0.01157,-6.74627,21.05618,-4.9265,105.02831,-10.98569,-2.74805,17.77495,45.40871,-13.6467,38.56531,-72.31643,56.34184,114.38301,-0.00111,-99.0045,66.27954,-0.01124,120.30972,-9.16571,16.76908,-0.0021,-2.29049,-6.06988,0.01171,-3.70426,2.53681,-3.99225,-26.19928,3.87085,-2.7186,-28.94354,16.35412,2.8778
521,31.96224,0.0,-0.0,14.31744,0.0,0.0,22.88185,-2.71082,4.8806,19.45944,3.47425,-14.70827,-52.16116,-5.20815,0.00129,-76.3525,8.52697,-0.04667,-8.10407,21.60956,-4.84851,103.88365,-11.15228,-3.35276,16.92666,45.95561,-13.29959,35.09098,-73.1797,53.75203,114.02361,0.00147,-99.17738,66.60573,-0.0084,120.5712,-8.55278,15.80984,0.00032,-1.75786,-5.07762,0.00558,-3.93217,2.72054,-4.369,-26.42494,4.18458,-2.99672,-29.21816,16.41889,2.87056
522,32.53477,0.0,0.0,16.30425,-0.0,0.0,22.79714,-2.8747,4.73958,18.38486,3.0526,-15.21297,-52.7152,-5.24665,-0.00084,-71.21703,7.06114,-0.04853,-9.32855,21.98413,-5.11485,102.3075,-11.61025,-4.20988,16.24083,46.43973,-13.03888,31.73561,-73.95345,51.29922,113.67259,0.00343,-98.88797,66.6271,-0.00781,119.71729,-8.15701,14.9443,0.00457,-1.31387,-4.64219,-0.00123,-4.3113,2.77744,-4.64124,-26.80002,4.34118,-3.22684,-29.32445,16.55501,2.56902
523,33.01228,0.0,0.0,18.59062,0.0,0.0,22.79705,-3.25018,4.36716,17.05434,2.67002,-15.4228,-53.19023,-4.85637,-0.00318,-65.63935,5.69571,-0.02907,-10.41224,22.26681,-5.35034,100.29388,-12.34377,-5.04769,15.5206,46.86493,-12.76827,28.76649,-74.58678,49.23808,113.37299,0.00271,-98.44045,66.2875,-0.0044,118.50743,-8.12676,14.46443,0.00459,-0.64134,-5.08587,-0.00949,-4.90533,2.80322,-4.86189,-27.3899,4.44929,-3.42118,-29.20052,16.75889,1.99213
524,33.54458,0.0,-0.0,21.13039,0.0,0.0,22.87672,-3.74289,3.72904,15.96895,2.25648,-15.41068,-53.49734,-4.21784,-0.002,-59.8222,4.68279,-0.00363,-11.40339,22.48168,-5.41772,97.89584,-13.1961,-5.68581,14.53708,47.30455,-12.41272,25.88255,-75.07983,47.30592,113.15556,9e-05,-98.33786,65.98624,0.0028,118.05634,-8.54381,14.36489,0.00179,0.26459,-6.25028,-0.01441,-5.77902,2.95197,-5.01217,-28.26463,4.64414,-3.50323,-28.79468,16.8464,1.15588
525,34.44596,-0.0,-0.0,23.4583,0.0,-0.0,22.88143,-4.10366,2.96338,15.51324,2.16327,-14.89884,-53.56498,-3.74688,-1e-05,-54.3153,4.06742,0.01459,-12.31503,22.5687,-5.42294,95.35248,-13.9935,-5.93859,13.22906,47.80909,-11.99487,22.68544,-75.45103,45.14638,113.00398,-0.00221,-98.8191,66.10396,-2e-05,118.74917,-9.36597,14.38321,0.00187,1.18503,-7.56798,-0.01112,-6.88868,3.2489,-5.09908,-29.38179,4.95168,-3.46972,-28.0863,16.57177,0.11359
526,35.84666,0.0,0.0,24.8623,-0.0,0.0,22.70815,-4.24364,2.19483,15.60454,2.8182,-13.78953,-53.47383,-3.70162,0.00015,-49.71012,3.76622,0.01902,-13.11305,22.51803,-5.44438,92.98439,-14.64108,-5.72381,11.72069,48.30286,-11.53377,18.96043,-75.74419,42.51517,112.86042,-0.00296,-99.61433,66.71459,-0.01026,120.16456,-10.21085,14.44391,0.00555,2.10182,-8.36802,-0.00178,-8.01611,3.60392,-5.25338,-30.51786,5.33863,-3.4762,-27.13173,15.87161,-0.97519
527,37.35223,0.0,-0.0,25.03182,-0.0,0.0,22.44383,-4.27854,1.44317,15.80692,3.95867,-12.51556,-53.3984,-4.04319,2e-05,-46.22531,3.64846,0.01402,-13.81013,22.40486,-5.42935,90.959,-15.12852,-5.19212,10.20477,48.65047,-10.97388,14.61283,-76.01297,39.24858,112.67814,-0.00062,-99.97028,67.68171,-0.01519,121.64465,-10.46184,14.76001,0.01231,3.08052,-8.17378,0.01216,-8.88805,3.98055,-5.64422,-31.39451,5.83583,-3.69336,-26.09481,14.88731,-1.93249
528,38.35439,0.0,-0.0,24.32861,-0.0,-0.0,22.21987,-4.33352,0.60502,15.87148,4.70742,-11.62886,-53.45448,-4.54101,0.00029,-43.65898,3.57637,0.00718,-14.49541,22.30152,-5.27145,89.20489,-15.5107,-4.6606,8.8504,48.82533,-10.3204,9.52116,-76.25837,35.1626,112.46553,0.00305,-99.21168,68.86997,-0.00985,122.62986,-9.92033,15.31725,0.01517,3.97968,-6.86466,0.02091,-9.33129,4.40365,-6.30081,-31.83795,6.47738,-4.13894,-25.22161,13.7802,-2.71202
529,38.58374,0.0,0.0,23.38399,0.0,0.0,22.05493,-4.46792,-0.46165,15.98956,4.65489,-11.40251,-53.66941,-4.95143,0.00018,-41.64997,3.41969,0.00199,-15.1911,22.24222,-4.9011,87.58864,-15.85078,-4.35143,7.77776,48.9299,-9.75117,3.59625,-76.43715,30.11333,112.2547,0.00356,-97.59182,70.21888,0.00204,122.75257,-9.20506,15.62845,0.0087,4.51545,-4.76158,0.0125,-9.30459,4.81316,-7.08693,-31.80662,7.15562,-4.71014,-24.66741,12.6569,-3.37623
530,38.25578,0.0,0.0,22.7667,0.0,0.0,21.89922,-4.71508,-1.72302,16.35053,4.38489,-11.94591,-54.02974,-5.19334,1e-05,-39.88087,3.09121,-0.00215,-15.7179,22.17794,-4.38168,86.16277,-16.13582,-4.10221,7.03985,49.01962,-9.43184,-2.9526,-76.572,24.28039,112.0386,0.00035,-96.07357,71.65826,0.01156,121.95058,-9.07619,15.33931,0.00668,4.40702,-2.50869,-0.00833,-8.8702,5.03798,-7.82745,-31.35845,7.64561,-5.31077,-24.31245,11.59635,-3.95432
531,37.84373,0.0,-0.0,23.02252,0.0,-0.0,21.71805,-5.0844,-2.92181,16.64737,4.79531,-13.37409,-54.48624,-5.35762,0.00039,-38.08015,2.62684,-0.00623,-15.80273,21.91828,-3.91549,85.12777,-16.31471,-3.34803,6.62929,48.99121,-9.31314,-9.68007,-76.7697,18.10839,111.7635,-0.00427,-95.30451,73.06446,0.0123,120.4817,-9.644,14.72052,0.00832,3.48338,-0.72163,-0.02175,-8.16199,4.94247,-8.37547,-30.62472,7.76606,-5.85669,-23.88207,10.60042,-4.41998
532,37.73117,0.0,0.0,24.3658,-0.0,0.0,21.49475,-5.55327,-3.85596,16.30317,6.13992,-15.66072,-54.97131,-5.49645,0.00028,-35.93368,2.18904,-0.01167,-15.34703,21.2713,-3.6355,84.46416,-16.4297,-1.65857,6.53515,48.70407,-9.26062,-16.20588,-77.05926,11.97796,111.37124,-0.00634,-95.10622,74.34209,0.00906,118.69135,-10.52895,14.35387,0.00339,1.83599,0.26901,-0.01695,-7.32335,4.54101,-8.61248,-29.75591,7.48521,-6.2316,-23.29597,9.5918,-4.79655
533,37.91956,-0.0,-0.0,26.08432,0.0,0.0,21.26332,-6.01761,-4.56996,15.08088,7.63983,-18.38775,-55.45212,-5.51905,-0.00099,-33.07912,1.91344,-0.017,-14.55724,20.31177,-3.44381,83.7158,-16.64083,0.54512,6.75223,48.13722,-9.28136,-22.11868,-77.31915,6.3136,110.84972,-0.00245,-94.75542,75.43718,0.00714,116.72049,-11.4393,14.54643,-0.00399,-0.25893,0.43324,-0.00174,-6.50201,3.96297,-8.51395,-28.91089,6.91339,-6.36227,-22.79687,8.58507,-5.18392
534,38.08555,0.0,-0.0,26.70416,0.0,0.0,21.15829,-6.29952,-5.15715,13.17928,7.97117,-20.9194,-55.92046,-5.39698,-0.00166,-29.24617,1.87838,-0.00856,-13.81546,19.3757,-3.2219,82.26231,-17.14102,2.1985,7.2202,47.37242,-9.48605,-26.83229,-77.42876,1.73382,110.25243,0.00414,-93.68053,76.23952,0.00174,114.54713,-12.35887,15.11644,-0.00668,-2.57661,-0.13312,0.01652,-5.9277,3.36593,-8.19322,-28.32397,6.23943,-6.29344,-22.73298,7.77128,-5.68191
535,37.97515,0.0,0.0,24.98992,0.0,0.0,21.31907,-6.32551,-5.54421,10.79204,6.55371,-22.83485,-56.33996,-5.31971,-0.00045,-24.42578,2.20381,0.02219,-13.38539,18.71631,-3.1057,79.81067,-18.04821,2.67881,7.83254,46.49136,-9.89269,-30.02154,-77.37545,-1.43859,109.65536,0.00732,-91.90481,76.63342,-0.00738,112.11298,-13.24211,15.64807,-0.00307,-4.87972,-1.35977,0.02907,-5.84334,2.88315,-7.78455,-28.23745,5.6376,-6.09904,-23.26122,7.32249,-6.35013
536,37.6538,0.0,-0.0,20.59056,0.0,0.0,21.72997,-6.17046,-5.62054,7.81811,4.44703,-23.81871,-56.65264,-5.48934,0.00097,-18.95424,2.89092,0.04557,-13.17105,18.25031,-3.34811,76.66174,-19.36805,2.16863,8.54479,45.54128,-10.4158,-32.17753,-77.18171,-3.73105,109.10813,0.0061,-89.88284,76.70247,-0.01022,109.32756,-13.85443,15.76613,0.00205,-6.79226,-2.91634,0.01892,-6.24564,2.60251,-7.35025,-28.64689,5.21283,-5.80357,-24.2052,7.17927,-7.21498
537,37.35268,0.0,-0.0,13.71611,0.0,0.0,22.22428,-5.90697,-5.43955,4.11684,3.47227,-23.34183,-56.81543,-5.87646,0.00089,-13.45636,3.62878,0.02912,-12.8228,17.67025,-3.98184,73.51655,-21.01226,0.9934,9.40673,44.57814,-11.03257,-34.2203,-76.83727,-6.05548,108.62404,0.00349,-88.16074,76.70243,-0.00512,106.44204,-14.09862,15.26402,0.00336,-8.04405,-3.89886,-0.00492,-6.82556,2.57695,-6.98237,-29.23982,5.04911,-5.47223,-25.17312,7.09881,-8.25386
538,37.12728,0.0,-0.0,4.94488,0.0,0.0,22.65901,-5.58916,-5.14298,-0.15432,4.43308,-21.24153,-56.80072,-6.30994,-0.00021,-8.58965,4.05747,-0.00563,-12.14001,16.7604,-4.75654,70.95965,-22.7507,-0.63239,10.43538,43.68037,-11.79241,-36.19651,-76.36668,-8.41885,108.16679,0.00149,-87.1984,76.69543,-0.00319,104.33163,-14.12258,14.33503,0.00166,-8.63605,-3.5687,-0.01221,-7.29462,2.78932,-6.80661,-29.72244,5.17846,-5.22797,-25.85377,6.88023,-9.3749
539,36.64794,0.0,-0.0,-4.12158,0.0,0.0,23.07659,-5.30913,-4.777,-4.60232,6.65681,-18.5076,-56.59487,-6.67891,-0.00108,-4.7828,4.12078,-0.02227,-11.29479,15.58321,-5.35128,69.1125,-24.22573,-2.26971,11.51916,42.87827,-12.663,-36.96365,-75.92513,-9.71006,107.66398,-0.00132,-87.27198,76.36329,-0.00046,103.77748,-14.03815,13.5257,-0.00043,-8.60015,-2.48143,-0.00495,-7.66645,3.05597,-6.7634,-30.10518,5.40847,-5.08572,-26.23462,6.52054,-10.44777
540,35.52937,0.0,0.0,-11.1432,0.0,0.0,23.63135,-5.1498,-4.29626,-8.6658,8.95959,-16.62898,-56.22776,-6.9383,-0.00096,-2.28585,3.96853,-0.019,-10.62672,14.37855,-5.56962,67.75706,-25.10768,-3.37863,12.52802,42.12278,-13.53927,-35.60873,-75.68627,-9.10181,107.08299,-0.00542,-88.41306,75.39276,0.01054,104.65037,-13.89121,13.11252,-0.00077,-7.91275,-2.02919,-0.01121,-8.10683,3.10958,-6.60398,-30.55284,5.39725,-4.91737,-26.54441,6.16582,-11.34374
541,33.9648,0.0,0.0,-14.88763,0.0,0.0,24.35312,-5.07682,-3.69396,-11.57423,10.52445,-16.23955,-55.78937,-7.0418,7e-05,-1.37534,3.68211,-0.00637,-10.27729,13.34816,-5.3673,66.71606,-25.25325,-3.74642,13.48646,41.37802,-14.42425,-32.52954,-75.60967,-6.97754,106.45807,-0.00754,-90.33538,73.94999,0.01859,106.31627,-13.8262,12.774,0.00262,-6.70592,-2.73269,-0.02338,-8.62281,2.87323,-6.20746,-31.07328,5.0276,-4.6405,-26.97811,5.92733,-11.93234
542,32.54981,0.0,0.0,-15.86949,-0.0,-0.0,25.11206,-4.92117,-3.05229,-12.68052,11.22163,-16.83565,-55.40371,-6.94041,0.00105,-2.31763,3.26003,0.0136,-10.06881,12.5542,-4.79595,66.03912,-24.78045,-3.53773,14.53482,40.71036,-15.45655,-28.98283,-75.47657,-4.41474,105.81749,-0.0072,-92.48916,72.5388,0.01583,108.33958,-14.09084,12.16793,0.00914,-5.22637,-3.7404,-0.0129,-9.06135,2.53228,-5.71685,-31.51565,4.52533,-4.31667,-27.50021,5.78359,-12.12571
543,31.52985,-0.0,-0.0,-15.31349,-0.0,-0.0,25.77794,-4.58083,-2.44771,-12.03523,11.50251,-17.58808,-55.17293,-6.60853,0.00086,-5.14182,2.77419,0.03249,-9.69081,11.9252,-4.01089,65.85889,-24.02016,-3.04293,15.71392,40.23338,-16.70472,-25.92257,-75.12193,-2.15663,105.12973,-0.00595,-94.35886,71.44424,0.00587,110.22647,-14.89546,11.58955,0.00603,-3.60568,-4.12289,0.00923,-9.32583,2.26388,-5.31639,-31.78359,4.12445,-4.04866,-27.91076,5.65345,-11.99766
544,30.72515,0.0,0.0,-14.44963,0.0,0.0,26.29208,-4.15742,-1.87089,-10.36292,11.83446,-18.0675,-55.1302,-6.05882,-0.00061,-9.55999,2.42911,0.03047,-8.95244,11.29575,-3.24374,66.19455,-23.31964,-2.45804,16.89059,39.9639,-18.01396,-23.48331,-74.53966,-0.27028,104.33461,-0.00026,-95.5524,70.54778,-0.00416,111.21677,-16.14689,11.75468,-0.01383,-1.97335,-3.93562,0.01469,-9.43123,2.00877,-5.02276,-31.89004,3.77659,-3.87453,-28.04655,5.49132,-11.77701
545,29.97269,0.0,0.0,-14.03819,0.0,-0.0,26.64059,-3.76248,-1.27693,-8.45321,12.23501,-18.07319,-55.23609,-5.34727,-0.00222,-15.09927,2.47067,-0.00227,-7.90789,10.52542,-2.64681,66.87681,-22.8265,-1.87484,17.88568,39.77268,-19.08752,-21.36738,-73.83153,1.43691,103.43392,0.01007,-95.7584,69.63153,-0.01124,110.93085,-17.28553,12.89867,-0.02294,-0.69786,-3.81338,0.00474,-9.4142,1.62329,-4.74687,-31.87094,3.31502,-3.76674,-27.92095,5.31356,-11.64037
546,29.42624,0.0,-0.0,-13.92004,-0.0,0.0,26.80508,-3.33714,-0.59901,-6.7685,12.51292,-17.30355,-55.38589,-4.63435,-0.00249,-21.26076,3.01407,-0.04424,-6.77324,9.62999,-2.28196,67.61848,-22.44171,-1.33821,18.59409,39.50047,-19.69831,-19.27156,-73.1216,3.09694,102.57085,0.01306,-95.11091,68.6155,-0.01545,109.67988,-17.59777,14.26785,-0.01104,-0.17663,-4.13018,0.00024,-9.29581,1.18146,-4.47754,-31.75023,2.80384,-3.68655,-27.69284,5.17391,-11.55341
547,29.25837,0.0,-0.0,-13.4693,0.0,-0.0,26.78239,-2.83357,0.23735,-5.53536,12.64042,-15.65868,-55.43618,-4.12747,-0.00174,-27.60984,3.87432,-0.05495,-5.68669,8.74324,-2.1845,68.22244,-21.93245,-0.89388,19.0377,39.10482,-19.86922,-17.06712,-72.47638,4.72239,101.93108,0.00516,-94.29717,67.52961,-0.01676,107.97977,-16.90228,14.8475,-0.00836,-0.43811,-4.78313,0.00359,-9.0996,0.93754,-4.28901,-31.55429,2.50642,-3.60543,-27.46947,5.10333,-11.35076
548,29.02873,-0.0,0.0,-12.47724,0.0,0.0,26.69489,-2.41418,1.17875,-4.84026,12.6117,-13.58238,-55.29446,-3.78869,-0.00083,-33.83678,4.62368,-0.0254,-4.56012,7.95863,-2.18127,68.73681,-21.07788,-0.66664,19.35156,38.66912,-19.84545,-14.91612,-71.85632,6.15914,101.52591,-0.00191,-93.8017,66.48019,-0.00995,106.35842,-15.83599,14.48335,-0.01032,-1.18349,-5.41794,0.00376,-8.85995,0.96649,-4.16237,-31.31812,2.48481,-3.47723,-27.1403,5.07046,-10.90764
549,28.04458,-0.0,0.0,-11.46348,-0.0,-0.0,26.73878,-2.23854,2.13238,-4.42707,12.27997,-11.88283,-54.96645,-3.34142,0.00048,-39.79393,4.94479,0.00863,-3.22912,7.25956,-1.92343,69.32109,-19.77599,-0.78601,19.64478,38.28662,-19.82108,-13.12283,-71.17075,7.20917,101.19448,-0.00297,-93.4931,65.63067,0.00183,105.39577,-15.21515,13.79128,-0.00192,-2.09994,-5.72362,-0.00091,-8.61943,1.03708,-3.95192,-31.0835,2.46965,-3.2556,-26.49201,5.01797,-10.20286
550,26.27162,0.0,0.0,-11.21798,0.0,0.0,26.98066,-2.18739,3.2637,-3.73644,11.57165,-11.16265,-54.4966,-2.68067,0.00109,-45.46108,4.83689,0.02129,-1.68387,6.57923,-1.34987,69.9798,-18.08744,-1.27729,19.87343,37.97263,-19.74959,-11.7373,-70.37506,7.91836,100.80058,-0.00069,-93.12701,65.0593,0.00633,105.25765,-15.2411,13.28571,0.00547,-3.00196,-5.67633,-0.00363,-8.42087,0.8992,-3.58788,-30.89036,2.20314,-2.97169,-25.459,4.93223,-9.2998
551,24.32517,0.0,0.0,-11.9836,-0.0,-0.0,27.29059,-1.99902,4.85562,-2.43956,10.5723,-11.36268,-53.92317,-1.94092,0.00045,-50.8501,4.42951,0.02198,-0.0111,5.88304,-0.76412,70.55289,-16.20462,-2.16008,19.90287,37.68198,-19.46789,-10.55309,-69.48693,8.52136,100.33387,0.0024,-92.59311,64.6633,0.00363,105.54844,-15.43258,13.09519,0.00585,-3.86129,-5.5203,-0.00166,-8.29425,0.53817,-3.16562,-30.76706,1.70814,-2.71936,-24.11597,4.86848,-8.32266
552,23.03711,0.0,-0.0,-13.08935,0.0,-0.0,27.39581,-1.58791,6.84138,-0.71443,9.35653,-11.94939,-53.29115,-1.17827,8e-05,-55.93903,3.82775,0.0197,1.76385,5.19638,-0.39149,70.87779,-14.36535,-3.45909,19.66133,37.36381,-18.90006,-9.50465,-68.54483,9.07411,99.89549,0.0032,-91.86604,64.27234,0.00131,105.93176,-15.19294,13.0801,0.00215,-4.73096,-5.4582,0.00128,-8.24382,0.11994,-2.78065,-30.71934,1.17451,-2.52346,-22.53527,4.90853,-7.41154
553,22.98411,-0.0,-0.0,-13.57906,0.0,0.0,27.04526,-1.07655,8.7828,1.06756,8.01663,-12.47115,-52.65544,-0.30941,0.00032,-60.69784,3.19116,0.01024,3.61962,4.53452,-0.20145,70.83607,-12.76154,-4.98526,19.20429,36.99564,-18.10858,-8.7181,-67.58175,9.41463,99.61575,0.0009,-91.1534,63.8167,0.0012,106.39279,-14.40945,12.96261,-0.0042,-5.5003,-5.43593,0.00209,-8.24129,-0.19233,-2.40354,-30.72088,0.74179,-2.29435,-20.82081,5.06781,-6.67651
554,23.68981,-0.0,0.0,-13.15198,0.0,0.0,26.26208,-0.62943,10.27749,2.66089,6.79579,-12.78283,-52.06836,0.71819,0.00038,-65.13326,2.70374,-0.00192,5.47798,3.83015,-0.07634,70.36644,-11.4842,-6.35766,18.68713,36.59614,-17.25551,-8.20955,-66.62457,9.45969,99.50368,-0.00075,-90.70592,63.3703,0.00079,106.93244,-13.52757,12.68511,-0.0077,-5.91831,-5.28654,0.00249,-8.23989,-0.35575,-1.97267,-30.72496,0.42603,-1.95871,-19.1419,5.25735,-6.17516
555,23.95501,0.0,0.0,-12.25058,0.0,-0.0,25.29299,-0.45223,11.19962,3.95682,5.94255,-12.8609,-51.55447,1.90999,0.00106,-69.26408,2.41779,-0.00686,7.30011,3.00766,0.10852,69.50164,-10.52479,-7.33263,18.30629,36.20302,-16.53646,-7.85398,-65.68515,9.26018,99.3989,-0.00065,-90.50493,63.05911,-0.00048,107.49046,-13.03274,12.6352,-0.00629,-6.01216,-4.97274,0.00316,-8.16521,-0.42553,-1.53252,-30.65534,0.19321,-1.57871,-17.62406,5.38029,-5.87833
556,23.54435,-0.0,0.0,-11.41433,0.0,0.0,24.25601,-0.68928,11.67331,4.98808,5.54413,-12.62348,-51.07492,3.20383,0.00268,-73.06696,2.27711,-0.00575,9.11248,2.10741,0.373,68.28824,-9.80784,-7.9424,18.19275,35.83923,-16.05842,-7.62712,-64.7297,8.78802,99.1422,-0.0007,-90.41997,62.94882,-0.00115,107.95312,-12.88856,13.26284,-0.00126,-6.18855,-4.59529,0.00195,-7.89331,-0.41828,-1.2138,-30.38649,0.07798,-1.28147,-16.29626,5.43674,-5.66528
557,23.49633,0.0,-0.0,-10.65999,-0.0,-0.0,23.06223,-1.06371,12.00712,5.92281,5.5768,-11.98539,-50.52242,4.32764,0.00246,-76.44524,2.24143,-0.00445,10.89847,1.25534,0.46575,66.67763,-9.22227,-8.36073,18.27967,35.52719,-15.74438,-7.57082,-63.70067,8.02556,98.75505,-0.00111,-90.39097,63.02489,0.00023,108.05112,-12.68056,14.56102,0.00829,-6.82391,-4.22828,-0.00163,-7.34968,-0.27722,-1.06422,-29.84415,0.15109,-1.0893,-15.13121,5.49161,-5.43304
558,24.49799,0.0,-0.0,-9.30579,0.0,0.0,21.67936,-0.99947,12.57058,6.83121,5.87221,-11.03139,-49.74309,4.92965,-0.00202,-79.25374,2.28104,-0.00298,12.54524,0.48511,0.15076,64.59774,-8.65355,-8.71349,18.3017,35.31805,-15.39136,-7.48332,-62.61347,7.34057,98.38552,0.00014,-90.21647,63.2216,0.0026,107.59984,-12.28866,16.19713,0.01152,-7.98559,-3.84703,-0.00606,-6.6556,-0.03063,-0.9287,-29.15135,0.32706,-0.86975,-14.05502,5.52511,-5.21069
559,25.81733,0.0,0.0,-6.6821,0.0,0.0,20.25994,-0.31447,13.54918,7.5682,6.12217,-10.04479,-48.61658,4.95888,-0.00717,-81.40758,2.32735,-0.00026,13.92145,-0.31987,-0.31516,62.09497,-8.03231,-8.94055,18.00364,35.25486,-14.84924,-6.97565,-61.56739,7.33881,98.13144,0.00257,-89.51167,63.42366,0.00285,106.69731,-12.05512,17.9966,0.00043,-9.38585,-3.47328,-0.00635,-6.07523,0.13745,-0.56791,-28.57297,0.3443,-0.47209,-12.97513,5.37425,-5.0818
560,26.09459,0.0,-0.0,-3.22565,0.0,-0.0,19.01241,0.53774,14.75011,8.00796,6.15942,-9.28908,-47.22067,4.73209,-0.0062,-82.96557,2.33361,0.00132,15.03479,-1.22118,-0.37119,59.33245,-7.37452,-8.86925,17.34879,35.3131,-14.15741,-5.94841,-60.5937,8.14906,98.01926,0.00322,-88.24977,63.49709,4e-05,105.46053,-12.32311,19.83938,-0.01325,-10.40662,-3.28133,-0.00234,-5.80722,0.06694,0.0731,-28.30569,0.03387,0.09315,-11.84074,4.92623,-5.00498
561,24.84098,-0.0,-0.0,-0.31951,0.0,-0.0,18.03157,0.98371,15.71178,8.17978,6.06206,-8.78719,-45.8758,4.59083,-0.00066,-84.05949,2.33863,0.00048,16.11578,-2.03021,0.22933,56.48421,-6.72213,-8.46458,16.50747,35.41127,-13.51723,-4.78441,-59.5844,9.19105,98.10474,0.00208,-87.00362,63.37758,-0.00327,103.98151,-13.10585,21.22593,-0.00923,-10.50276,-3.3698,-0.00111,-5.87867,-0.19529,0.77655,-28.3758,-0.47757,0.64272,-10.6293,4.33246,-4.79109
562,22.87463,-0.0,-0.0,1.16374,0.0,0.0,17.23717,0.82381,16.08739,8.15259,5.88059,-8.39988,-44.89416,4.61887,0.00249,-84.75843,2.39002,-0.00085,17.43062,-2.43482,1.25507,53.63992,-6.02875,-7.89479,15.68717,35.47113,-13.11285,-3.97359,-58.45448,9.82384,98.43848,0.00088,-86.21855,63.11594,-0.00383,102.49876,-14.05386,21.55689,0.00739,-9.79559,-3.55841,-0.00099,-6.1869,-0.4669,1.27072,-28.68259,-0.9176,0.99538,-9.30375,3.91313,-4.27327
563,21.38018,0.0,-0.0,1.60358,-0.0,-0.0,16.47581,0.26499,15.91299,8.03326,5.52888,-8.14214,-44.28148,4.70373,0.00267,-85.02635,2.45975,-0.00099,18.98755,-2.33726,2.32542,50.75473,-5.20686,-7.31288,14.98438,35.47765,-12.92556,-3.67571,-57.25924,9.96018,98.94109,-0.00136,-85.65125,62.81841,-0.00206,101.23761,-14.57373,20.89267,0.00947,-9.04133,-3.60133,0.00019,-6.57387,-0.65374,1.47926,-29.06939,-1.17,1.11659,-7.8588,3.84853,-3.48994
564,20.93196,-0.0,-0.0,1.88877,0.0,-0.0,15.65683,-0.28855,15.49922,8.02017,5.03647,-8.3281,-43.773,4.72813,0.00259,-84.77794,2.48987,0.00065,20.53246,-1.9646,3.19614,47.69406,-4.29286,-6.71051,14.36031,35.49875,-12.73718,-3.71531,-56.09438,9.91727,99.44016,-0.00257,-84.93698,62.56775,0.0001,100.35969,-14.20895,19.96935,0.00108,-8.87836,-3.44013,-0.00055,-6.90816,-0.81933,1.53633,-29.40464,-1.34483,1.10594,-6.39454,4.04272,-2.69248
565,21.3825,0.0,0.0,2.47673,0.0,-0.0,14.75883,-0.52451,15.16645,8.21019,4.65512,-9.29922,-43.13952,4.61574,0.00213,-83.95448,2.45437,0.00528,21.80853,-1.61305,3.79426,44.36132,-3.43916,-6.00379,13.7244,35.61674,-12.34442,-3.84678,-54.99652,9.98845,99.8364,-0.00027,-84.23848,62.41938,0.0012,100.02261,-13.06761,19.38839,0.00143,-9.32132,-3.1893,-0.00135,-7.1418,-1.05293,1.62526,-29.63992,-1.59468,1.09871,-5.08452,4.27749,-2.12601
566,22.12649,0.0,0.0,3.28922,0.0,0.0,13.79218,-0.41561,15.14672,8.41758,4.5754,-11.04121,-42.35907,4.2541,-0.00057,-82.56105,2.34384,0.01242,22.74316,-1.39358,4.11235,40.8027,-2.74107,-5.10984,13.01064,35.84694,-11.7332,-3.92805,-53.9645,10.29974,100.16394,0.00292,-83.92771,62.41492,0.00076,100.08967,-11.75837,19.15498,0.0052,-10.0172,-3.01983,3e-05,-7.2848,-1.35507,1.83206,-29.78493,-1.95294,1.17414,-4.04873,4.40324,-1.78167
567,22.57004,0.0,-0.0,4.08991,-0.0,0.0,12.79338,-0.08984,15.55891,8.39678,4.6734,-13.12627,-41.53013,3.51472,-0.0047,-80.64938,2.07863,0.01368,23.48461,-1.24272,4.16551,37.23562,-2.17183,-4.00197,12.16938,36.15809,-11.01112,-3.91935,-52.97052,10.82613,100.52017,0.0031,-83.93149,62.53679,-0.00022,100.17271,-10.79861,18.99622,0.00449,-10.59951,-2.97712,0.00131,-7.35714,-1.64249,2.12676,-29.85891,-2.33122,1.33643,-3.22578,4.3814,-1.40781
568,22.56362,0.0,-0.0,4.64279,0.0,-0.0,11.84617,0.36233,16.24928,8.21569,4.6324,-14.97325,-40.74469,2.48095,-0.00562,-78.27847,1.42349,-0.00226,24.29049,-1.07728,4.15817,33.91315,-1.67479,-2.8637,11.13909,36.52009,-10.23219,-3.82823,-51.94436,11.42637,100.99939,-0.00036,-83.83614,62.66949,-0.00114,100.19994,-10.2866,18.69648,0.00144,-10.76608,-2.90423,0.00188,-7.37848,-1.82569,2.45255,-29.88013,-2.6251,1.56739,-2.414,4.2373,-0.77395
569,22.05809,-0.0,-0.0,4.73384,-0.0,-0.0,11.14208,0.83656,16.83761,8.21402,4.30781,-16.15017,-40.07053,1.50482,-0.00194,-75.50799,0.18769,-0.02505,25.28478,-0.89224,4.45105,30.87939,-1.25312,-2.01057,9.90552,36.88405,-9.38715,-3.67771,-50.82783,11.98059,101.64294,-0.00407,-83.47713,62.65646,-0.00044,100.49325,-10.16457,18.16442,0.00012,-10.42049,-2.67997,0.0028,-7.35201,-1.90222,2.78592,-29.85125,-2.82331,1.84625,-1.51162,4.01793,0.11604
570,20.84831,0.0,0.0,4.33535,0.0,0.0,10.87915,1.17672,17.14844,8.57989,3.92139,-16.56246,-39.58046,0.84147,0.00181,-72.43839,-1.38405,-0.02538,26.38602,-0.74174,5.09103,27.97261,-0.97851,-1.50441,8.61668,37.18571,-8.56753,-3.46242,-49.64519,12.52188,102.39435,-0.00368,-83.05847,62.42025,0.00262,101.28239,-10.37808,17.46272,0.00078,-9.82102,-2.36207,0.00227,-7.22845,-1.9837,3.10122,-29.72511,-3.01917,2.10654,-0.63304,3.78106,1.06321
571,19.04228,-0.0,0.0,3.65259,0.0,-0.0,11.01452,1.31761,17.34615,9.14726,3.82899,-16.43911,-39.31647,0.44756,0.0027,-69.21365,-2.76808,-0.00533,27.46176,-0.67522,5.76277,25.06365,-0.92134,-1.13038,7.5557,37.43102,-7.99065,-3.12196,-48.48113,13.16793,103.1358,0.00093,-82.9044,62.02343,0.00491,102.4782,-10.79839,16.68806,0.00187,-9.4002,-2.00699,-0.00021,-6.92541,-2.21219,3.356,-29.4232,-3.32769,2.25457,0.022,3.58756,1.88814
572,17.05187,0.0,0.0,2.90095,0.0,0.0,11.2966,1.35372,17.58668,9.63057,4.18297,-16.06812,-39.22359,0.20981,0.00183,-65.92801,-3.78707,0.00025,28.4427,-0.69685,6.3397,22.16985,-1.07807,-0.80957,6.8572,37.72807,-7.73751,-2.61695,-47.39062,13.94046,103.8049,0.00372,-83.12353,61.60956,0.00374,103.81705,-11.28773,15.89871,0.00247,-9.37066,-1.603,-0.00267,-6.41237,-2.62144,3.55271,-28.91691,-3.781,2.27957,0.35079,3.45459,2.58655
573,15.30095,0.0,-0.0,2.17814,0.0,0.0,11.49135,1.40823,17.8959,9.86152,4.87714,-15.54823,-39.16209,0.0569,0.00047,-62.55058,-4.61191,-0.01181,29.35288,-0.77637,6.96852,19.40303,-1.40578,-0.62405,6.27287,38.16848,-7.5574,-2.00052,-46.35786,14.74417,104.47411,0.00086,-83.42733,61.28673,0.00039,104.94222,-11.69494,15.21634,0.00077,-9.53787,-1.25232,-0.00321,-5.74612,-3.07898,3.74044,-28.26013,-4.27547,2.27762,0.4553,3.31493,3.27172
574,14.34559,0.0,-0.0,1.64044,-0.0,0.0,11.4467,1.49151,18.32161,9.73881,5.67558,-14.81073,-39.00997,-0.13919,-0.00114,-58.98759,-5.18721,-0.00983,30.27941,-0.89166,7.66605,16.87771,-1.93916,-0.47498,5.41865,38.69355,-7.10067,-1.33393,-45.36079,15.55415,105.26508,-0.00394,-83.51835,61.05187,-0.00201,105.50896,-11.79861,14.74072,-0.0024,-9.58172,-1.20645,-0.00335,-5.01714,-3.40529,3.92644,-27.53804,-4.64802,2.32434,0.56425,3.06325,4.00662
575,14.37156,0.0,0.0,1.66733,0.0,0.0,11.14871,1.55441,18.86858,9.18983,6.34403,-13.74342,-38.78218,-0.50541,-0.00231,-55.18807,-5.23979,0.01096,31.30401,-1.02616,8.30557,14.64172,-2.77995,-0.22614,4.28599,39.14248,-6.34135,-0.61153,-44.42506,16.48406,106.15411,-0.00452,-83.49572,60.82935,-0.00222,105.51022,-11.62817,14.40599,-0.00339,-9.54609,-1.56105,-0.00339,-4.29288,-3.52035,4.0611,-26.81529,-4.80579,2.40471,0.82133,2.65559,4.72022
576,14.5724,0.0,-0.0,2.63154,0.0,0.0,10.79103,1.64673,19.3913,8.42015,6.75871,-12.36754,-38.63428,-1.04908,-0.00161,-51.14999,-4.78989,0.0244,32.44508,-1.11497,8.84996,12.62836,-3.89743,-0.09023,3.29796,39.4563,-5.62557,0.13249,-43.55536,17.55517,106.95442,-0.00029,-83.70224,60.59615,-0.00081,105.31947,-11.63553,14.05581,-0.00018,-9.83618,-2.03449,-0.00281,-3.58208,-3.43484,4.12114,-26.10076,-4.74975,2.49312,1.1653,2.16089,5.27243
577,13.99521,0.0,-0.0,4.40324,0.0,0.0,10.60118,1.85339,19.76192,8.09906,6.94058,-11.0549,-38.70771,-1.71529,0.00048,-46.89044,-4.15203,0.02245,33.61428,-1.05176,9.28882,10.65694,-5.04897,-0.38547,2.80483,39.75126,-5.26645,0.76488,-42.67816,18.54921,107.54169,0.00452,-84.35431,60.42314,0.00036,105.20802,-12.09836,13.5775,0.00426,-10.61343,-2.29396,-0.00369,-2.82127,-3.22318,4.14241,-25.33299,-4.56236,2.59412,1.38944,1.71269,5.60722
578,12.89351,0.0,-0.0,6.33736,0.0,0.0,10.56412,2.10747,20.00001,8.9322,7.00983,-10.30014,-39.00662,-2.45617,0.00205,-42.49444,-3.57078,0.01327,34.70584,-0.76629,9.56833,8.62694,-5.97464,-1.09358,2.72039,40.14506,-5.22104,1.23247,-41.73818,19.26418,107.98403,0.00635,-85.25107,60.34777,-4e-05,105.03458,-12.66067,13.04074,0.00435,-11.53575,-2.39112,-0.00288,-1.93806,-3.0654,4.18381,-24.44429,-4.43242,2.69302,1.3483,1.42084,5.84473
579,12.53727,-0.0,-0.0,7.8297,-0.0,0.0,10.42455,2.29617,20.12365,10.97257,7.18062,-10.11322,-39.44696,-3.18695,0.00201,-38.15959,-3.19836,-0.00354,35.76867,-0.23965,9.76194,6.72699,-6.57374,-2.03325,2.69916,40.61448,-5.19089,1.69111,-40.79685,19.80266,108.41037,0.00217,-85.69234,60.27314,-0.00153,104.60122,-12.78329,12.72588,0.00276,-12.27726,-2.57347,-0.00039,-0.94635,-3.13375,4.30554,-23.45241,-4.54209,2.77942,1.12899,1.34044,6.18257
580,13.4423,0.0,-0.0,8.46748,-0.0,0.0,10.03549,2.44147,20.0991,13.64399,7.67648,-10.04361,-39.93489,-3.81271,0.00093,-34.13809,-3.13558,-0.01841,36.91463,0.50408,10.05066,5.24981,-6.89511,-3.12394,2.5341,41.07727,-4.95975,2.33328,-39.94883,20.43337,108.85802,-0.00563,-84.94691,60.06598,-0.00126,104.16019,-12.36168,12.77944,0.00326,-12.89855,-2.82914,6e-05,0.04905,-3.3854,4.55656,-22.46015,-4.87051,2.91506,0.91504,1.45713,6.69562
581,14.52542,0.0,-0.0,7.93367,0.0,0.0,9.56438,2.6035,20.03574,16.36149,8.37668,-9.86983,-40.3553,-4.33417,-0.0002,-30.6343,-3.23458,-0.01341,38.06744,1.34347,10.45297,4.2467,-7.0722,-4.19697,2.29821,41.51627,-4.57103,3.18123,-39.18761,21.2597,109.28115,-0.00813,-83.07034,59.71886,0.00217,104.24525,-11.73232,12.9591,0.00196,-13.51457,-2.95274,-0.00147,0.92819,-3.6222,4.94744,-21.58104,-5.23863,3.18589,0.72036,1.65737,7.26528
582,14.46398,0.0,-0.0,6.4093,0.0,-0.0,9.23969,2.78362,20.15468,18.79446,8.8413,-9.73531,-40.58414,-4.78739,-0.00106,-27.74927,-3.20666,0.00253,39.04483,2.07258,10.82533,3.58556,-7.23682,-5.02779,2.1009,41.94977,-4.13453,4.12685,-38.45654,22.19273,109.64024,-0.00329,-80.98923,59.36215,0.00381,104.99508,-11.20252,12.95284,-0.00067,-13.96372,-2.90156,-0.00181,1.61798,-3.73239,5.43482,-20.88415,-5.5266,3.59485,0.44423,1.79672,7.69726
583,13.01359,-0.0,0.0,4.6396,0.0,0.0,9.10248,2.96599,20.51027,20.74323,8.90803,-9.67914,-40.57528,-5.09959,-0.00113,-25.49075,-3.01506,0.00856,39.81697,2.53474,11.09846,3.21608,-7.4246,-5.68559,1.8757,42.3461,-3.61545,5.10372,-37.77034,23.1783,109.92607,0.00231,-79.5128,59.10804,0.00188,106.05016,-10.76765,12.73711,-0.00108,-14.05628,-2.81763,-0.00054,2.13097,-3.75157,5.94026,-20.35892,-5.7373,4.05572,0.08141,1.83901,7.87823
584,10.81757,0.0,-0.0,3.19356,-0.0,0.0,9.06223,3.10763,20.93785,22.15322,8.82472,-9.5354,-40.39217,-5.15758,-0.00021,-23.80084,-2.87547,0.00368,40.48036,2.73207,11.30718,3.14513,-7.5626,-6.42643,1.57035,42.63939,-2.98699,6.14951,-37.14779,24.23722,110.08691,0.00368,-78.77896,58.91578,-0.00066,106.9715,-10.43762,12.49759,0.00139,-13.93695,-2.86309,0.00075,2.57156,-3.74738,6.39074,-19.90528,-5.90533,4.47483,-0.32656,1.86921,7.84066
585,8.79493,0.0,-0.0,2.08862,0.0,-0.0,8.97903,3.13834,21.21349,23.14924,8.85765,-9.15391,-40.15186,-4.96042,0.0005,-22.58594,-2.98571,-0.00246,41.10869,2.82667,11.4944,3.31838,-7.51739,-7.36149,1.37488,42.79824,-2.41948,7.30018,-36.48261,25.2849,110.01443,-0.00142,-78.82906,58.67887,-0.00337,107.39535,-10.57221,12.3719,0.00256,-13.9251,-3.12038,0.00209,3.051,-3.73286,6.75287,-19.41397,-6.03004,4.81615,-0.81231,1.98483,7.70412
586,7.61123,0.0,0.0,1.20022,-0.0,0.0,8.73122,3.01258,21.22232,23.88092,9.04586,-8.51717,-39.95903,-4.61471,0.00032,-21.7844,-3.38875,-0.00397,41.74734,3.02519,11.6805,3.69667,-7.1864,-8.40339,1.5458,42.84558,-2.14412,8.47309,-35.64122,26.1142,109.66277,-0.00944,-79.69102,58.41973,-0.00475,107.3307,-11.47534,12.43057,-0.0028,-14.07952,-3.45012,0.00247,3.57506,-3.67052,7.04083,-18.8778,-6.08221,5.10716,-1.40592,2.23139,7.56925
587,7.19147,0.0,0.0,0.56191,0.0,-0.0,8.34471,2.72922,21.07583,24.41634,9.1634,-7.83424,-39.8371,-4.26449,1e-05,-21.39724,-3.92449,-0.00114,42.41494,3.4164,11.83493,4.30437,-6.61199,-9.27415,2.11651,42.82225,-2.24636,9.52256,-34.66901,26.61346,109.12113,-0.00926,-80.76848,58.26948,-0.00392,107.26751,-12.76654,12.84827,-0.00866,-14.12438,-3.59726,0.00162,4.06387,-3.53003,7.28517,-18.37469,-6.04546,5.38775,-2.04688,2.60284,7.48949
588,6.98919,-0.0,0.0,0.23408,0.0,0.0,7.93061,2.36982,20.97327,24.78581,8.98957,-7.47802,-39.68888,-4.029,0.00011,-21.40042,-4.33061,0.00121,43.04485,3.92677,11.91787,5.11019,-5.97294,-9.62691,2.91591,42.75624,-2.65096,10.39831,-33.75977,26.88324,108.5275,0.00096,-81.1106,58.26867,-0.00283,107.3243,-13.54237,13.81948,0.00225,-13.81155,-3.58073,0.00014,4.468,-3.34806,7.51929,-17.95457,-5.96643,5.67478,-2.65687,3.04215,7.48577
589,6.86044,0.0,0.0,0.15554,0.0,0.0,7.44384,2.14638,20.92955,25.02212,8.6821,-7.6761,-39.37678,-3.9499,1e-05,-21.68558,-4.46823,0.00075,43.50461,4.42936,11.96369,5.96446,-5.44342,-9.35377,3.7842,42.67966,-3.24628,11.16967,-33.03628,27.12291,107.96353,0.01024,-80.34393,58.33882,-0.0017,107.01443,-13.26876,15.19782,0.02295,-13.22789,-3.63814,-0.00189,4.78925,-3.23321,7.82191,-17.6169,-5.97546,5.99963,-3.23247,3.45876,7.51599
590,7.07421,0.0,-0.0,0.17834,0.0,0.0,6.74346,2.22186,20.83304,25.14206,8.56661,-8.30693,-38.84851,-4.00845,-0.00059,-22.12707,-4.38143,-0.00063,43.68317,4.85833,12.03818,6.69535,-5.09524,-8.68423,4.68543,42.62733,-4.01598,11.90739,-32.47572,27.48762,107.47357,0.00946,-79.09252,58.45019,8e-05,106.18667,-12.37537,16.32412,0.02521,-12.64615,-3.76315,-0.00168,5.01905,-3.27775,8.28822,-17.36951,-6.19403,6.41544,-3.83089,3.78787,7.49192
591,7.29881,0.0,0.0,0.19286,-0.0,-0.0,5.94271,2.42348,20.68117,25.12185,8.60635,-8.95825,-38.1521,-4.14822,-0.00077,-22.63562,-4.19486,-0.00077,43.52569,5.2178,12.2065,7.20464,-4.91741,-7.99933,5.64682,42.57146,-5.00879,12.60996,-32.00485,28.01433,107.11365,0.00212,-78.50674,58.68111,0.00247,105.24701,-11.78521,16.47457,0.01796,-12.19134,-3.695,0.00079,5.13985,-3.45028,8.89767,-17.22883,-6.5852,6.91543,-4.51654,4.01906,7.38187
592,6.68956,0.0,0.0,0.15643,0.0,-0.0,5.3321,2.43474,20.53226,24.94979,8.49296,-9.2084,-37.36916,-4.28701,-0.00018,-23.15138,-4.03341,0.00056,43.06748,5.53949,12.55346,7.51243,-4.86891,-7.59529,6.63225,42.41254,-6.14859,13.2311,-31.54315,28.60821,106.90372,-0.00188,-79.05272,59.09728,0.00358,104.55532,-11.82171,15.68332,0.01549,-11.76992,-3.36387,0.00258,5.14504,-3.61762,9.48977,-17.20277,-6.96476,7.40173,-5.29536,4.1685,7.23574
593,5.34236,0.0,0.0,-0.01928,0.0,0.0,4.91892,2.24564,20.37194,24.72408,8.15981,-9.01709,-36.58406,-4.39416,-2e-05,-23.6558,-3.93688,0.00157,42.5141,5.87025,13.06471,7.78547,-4.88962,-7.47824,7.5255,42.0946,-7.21124,13.7192,-30.99051,29.10901,106.79482,-0.00112,-79.98981,59.67841,0.00139,104.20958,-11.94455,14.76952,0.00856,-11.222,-3.04765,0.00108,5.0082,-3.68678,9.92211,-17.32085,-7.19272,7.77738,-6.0398,4.27185,7.10636
594,4.37923,0.0,-0.0,-0.49024,0.0,0.0,4.44362,2.0511,20.16473,24.59153,7.83266,-8.74069,-35.89103,-4.50732,-0.00059,-24.18077,-3.79312,0.00033,42.16602,6.25477,13.57725,8.2422,-4.92642,-7.37153,8.29439,41.69332,-8.08599,14.03269,-30.28549,29.39347,106.73198,0.00038,-80.48078,60.38654,-0.00571,104.22536,-11.64888,14.34149,0.00255,-10.50143,-3.04057,-0.00293,4.70439,-3.69412,10.20743,-17.60987,-7.30766,8.04009,-6.56233,4.37974,7.02199
595,4.32725,-0.0,-0.0,-1.20576,0.0,-0.0,3.82475,1.87153,19.8967,24.57243,7.70731,-8.63189,-35.36544,-4.62189,-0.00064,-24.75703,-3.44845,-0.00246,42.14772,6.67178,13.99794,8.93243,-4.99697,-7.04678,9.08533,41.34107,-8.90856,14.16628,-29.47797,29.45279,106.69083,0.00052,-80.52485,61.23075,-0.01438,104.58497,-11.05434,14.29904,0.00064,-9.78249,-3.30786,-0.00423,4.29693,-3.74781,10.47014,-18.0056,-7.45684,8.26409,-6.82949,4.50673,6.98985
596,4.38805,0.0,0.0,-1.68406,0.0,-0.0,3.25619,1.64269,19.49459,24.528,7.8951,-8.50114,-34.99101,-4.63964,0.00047,-25.34158,-2.94277,-0.00331,42.29565,7.00776,14.46444,9.6771,-5.17546,-6.61153,10.04542,41.08179,-9.8448,14.17375,-28.69342,29.42961,106.65855,-0.00034,-80.61752,62.24536,-0.01071,104.93767,-10.55627,14.36098,0.00014,-9.38192,-3.55631,-0.00214,3.9248,-3.89598,10.79504,-18.36692,-7.71693,8.50997,-6.99208,4.6074,6.95229
597,3.59498,0.0,-0.0,-1.42962,-0.0,-0.0,2.86757,1.51601,18.83601,24.30762,8.54709,-8.03264,-34.64165,-4.47718,0.00204,-25.81075,-2.54042,-0.00122,42.40095,7.16091,15.17167,10.29802,-5.47166,-6.35483,11.11507,40.85025,-10.87348,14.13646,-28.01397,29.54642,106.63848,-0.00085,-81.24456,63.44777,0.01203,104.54723,-10.37998,14.48506,-0.00025,-9.48049,-3.59786,-0.00103,3.66675,-4.06668,11.15768,-18.61286,-8.01207,8.78254,-7.14236,4.63549,6.81012
598,2.17779,0.0,-0.0,-0.55069,0.0,-0.0,2.53336,1.65883,18.04948,23.91238,9.55785,-7.32353,-34.17382,-4.23954,0.00172,-26.0402,-2.39205,0.00067,42.4183,7.16602,15.98119,10.75825,-5.76076,-6.28578,12.09907,40.58439,-11.85811,14.10125,-27.41147,29.91539,106.66469,0.00027,-82.53905,64.82491,0.02812,103.1908,-10.51504,14.75211,-0.00147,-9.87001,-3.47479,-0.00076,3.478,-4.16032,11.4867,-18.78695,-8.22309,9.05346,-7.22172,4.61461,6.53414
599,1.26593,0.0,-0.0,0.43365,0.0,-0.0,2.09009,1.82619,17.64621,23.49788,10.26085,-6.84468,-33.54321,-4.19691,-0.00175,-26.00064,-2.30955,0.00144,42.35626,7.16599,16.37795,11.03233,-5.8764,-6.03691,12.92878,40.27043,-12.76835,14.06861,-26.8218,30.43563,106.79382,0.00191,-84.06709,66.34022,0.0109,101.77814,-10.83525,15.14401,-0.00247,-10.01923,-3.22004,0.00136,3.28719,-4.17041,11.72302,-18.96377,-8.32172,9.27002,-7.23309,4.62643,6.21261
600,1.41757,0.0,0.0,1.21477,-0.0,0.0,1.56658,1.59663,17.91804,23.19343,10.03639,-6.80368,-32.83789,-4.45026,-0.00424,-25.769,-2.10162,0.00166,42.20397,7.27174,16.10117,11.08264,-5.74055,-5.44201,13.76608,39.8788,-13.7534,14.03098,-26.2594,30.91779,107.07713,0.00068,-85.15614,67.95565,-0.01835,101.24835,-11.20254,15.46991,-0.00154,-9.5322,-2.79681,0.00424,3.09946,-4.1628,11.81677,-19.14521,-8.35007,9.3604,-7.29396,4.73155,5.98363
601,2.03014,0.0,0.0,1.72564,-0.0,-0.0,1.11991,0.97963,18.44221,22.99281,9.07673,-6.88213,-32.18246,-4.75982,-0.00234,-25.45215,-1.90794,0.0006,42.00426,7.47746,15.55563,10.97925,-5.39912,-4.88749,14.79796,39.35943,-14.96775,13.98386,-25.79643,31.27795,107.50568,-0.00291,-85.4818,69.63872,-0.02122,101.3342,-11.5561,15.5257,0.00058,-8.67754,-2.40364,0.00354,2.95995,-4.17599,11.74775,-19.28978,-8.33622,9.29095,-7.44592,4.90671,5.92887
602,2.20648,-0.0,0.0,1.83676,0.0,0.0,0.81005,0.40941,18.60477,22.86592,8.11303,-6.74079,-31.60783,-4.84252,0.00119,-25.12518,-1.96124,-0.00099,41.81428,7.69302,15.31842,10.86528,-4.98412,-4.8235,15.97587,38.69614,-16.34751,13.91962,-25.44483,31.59638,107.98539,-0.00347,-85.31356,71.3318,0.00041,101.11391,-11.95132,15.33013,0.00193,-8.31798,-2.53934,0.00991,2.85277,-4.18639,11.56113,-19.40907,-8.27535,9.11289,-7.60856,5.06015,6.02069
603,1.76172,-0.0,0.0,1.43719,0.0,-0.0,0.53013,0.1779,18.33087,22.81203,7.57688,-6.44253,-31.05445,-4.68304,0.00267,-24.81351,-2.21602,-0.00121,41.63274,7.83855,15.49627,10.80496,-4.63588,-5.23518,17.04266,37.89174,-17.62783,13.85831,-25.13783,31.99861,108.41743,-3e-05,-85.20146,72.95625,0.01487,100.2534,-12.41975,15.08899,0.00158,-9.00401,-3.50182,0.02841,2.72026,-4.14468,11.33488,-19.55301,-8.15125,8.91787,-7.71281,5.12861,6.15887
604,1.24161,0.0,0.0,0.72345,0.0,-0.0,0.15149,0.11205,18.06798,22.80463,7.29011,-6.28899,-30.47841,-4.49682,0.00115,-24.49543,-2.39441,8e-05,41.42424,7.90639,15.69952,10.73094,-4.40359,-5.72227,17.80129,36.92936,-18.58564,13.8548,-24.82218,32.49209,108.78967,0.00244,-85.35886,74.49299,0.00814,99.18867,-12.85489,14.879,0.00062,-10.24652,-4.93511,0.02822,2.58752,-4.03579,11.14285,-19.69131,-7.97787,8.78055,-7.78276,5.14937,6.2485
605,1.10914,0.0,0.0,0.10169,0.0,0.0,-0.33478,-0.04736,18.15895,22.7886,6.92895,-6.39543,-29.89191,-4.46142,-0.00114,-24.16187,-2.33161,0.00117,41.16967,7.94459,15.59574,10.57322,-4.23963,-5.95773,18.27631,35.81446,-19.19755,13.94044,-24.49032,32.96896,109.14243,0.00095,-85.44962,76.00564,-0.00697,98.40437,-13.13143,14.51742,-0.00129,-11.0596,-6.16061,0.00648,2.56152,-3.90169,11.05902,-19.7152,-7.82208,8.75374,-7.87264,5.18701,6.26372
606,1.19527,0.0,-0.0,-0.21461,0.0,0.0,-0.81864,-0.22242,18.44861,22.72203,6.49659,-6.54145,-29.3104,-4.52768,-0.00154,-23.86955,-2.12024,0.00083,40.86194,7.98647,15.33596,10.36773,-4.11577,-5.97587,18.63203,34.63547,-19.58946,14.09263,-24.14092,33.35823,109.48447,-0.00178,-85.11007,77.52784,-0.01291,97.87128,-13.18873,13.86584,-0.00595,-11.02902,-6.95072,-0.00801,2.67341,-3.80045,11.10703,-19.59523,-7.74654,8.83721,-7.99168,5.21368,6.26009
607,1.0948,-0.0,-0.0,-0.33214,-0.0,-0.0,-1.18857,-0.28141,18.60939,22.60296,6.19707,-6.51223,-28.71985,-4.53137,-0.0002,-23.6637,-1.90796,4e-05,40.48874,8.0181,15.24089,10.17203,-4.05567,-5.9682,19.02896,33.52175,-19.9192,14.28134,-23.78625,33.70516,109.77338,-0.00194,-84.48446,79.00948,-0.00567,97.13844,-12.91246,13.18443,-0.00791,-10.49743,-7.6171,-0.0098,2.81674,-3.76856,11.2219,-19.44339,-7.76047,8.95645,-8.1239,5.15387,6.30575
608,0.74415,-0.0,-0.0,-0.42952,0.0,-0.0,-1.44115,-0.3487,18.56327,22.4514,6.13334,-6.38551,-28.10826,-4.40154,0.00106,-23.48784,-1.73417,-7e-05,40.08104,8.01171,15.33313,9.9894,-4.05224,-5.99727,19.55265,32.5293,-20.28916,14.51798,-23.47219,34.10702,109.9328,-0.00044,-84.03045,80.43672,0.00392,95.884,-12.12103,13.0805,0.00604,-9.96298,-8.28934,-0.00547,2.8558,-3.8029,11.32595,-19.39982,-7.83157,9.04031,-8.24111,5.01516,6.39417
609,0.37583,0.0,0.0,-0.54571,0.0,0.0,-1.67271,-0.55729,18.48633,22.28393,6.23093,-6.35005,-27.48621,-4.2031,0.00098,-23.25619,-1.5845,0.00027,39.71915,7.95419,15.38908,9.81656,-4.05169,-6.01207,20.1748,31.60091,-20.70983,14.84,-23.23213,34.60756,109.89536,-0.00027,-83.97692,81.91891,0.00587,94.30272,-10.85341,13.96989,0.02807,-9.61935,-8.57274,-0.00034,2.72518,-3.83254,11.36707,-19.52949,-7.87454,9.06731,-8.29652,4.87509,6.46586
610,0.18637,0.0,-0.0,-0.66283,0.0,0.0,-1.96025,-0.81167,18.57389,22.11881,6.32439,-6.41976,-26.87559,-4.04101,4e-05,-22.95928,-1.48506,0.00021,39.45125,7.85895,15.24451,9.67163,-4.00065,-5.98799,20.75711,30.64664,-21.1291,15.25473,-23.04916,35.16365,109.68032,-0.00096,-84.15894,83.57753,0.00366,92.80008,-9.60767,15.50173,0.02578,-9.37671,-8.17067,0.00272,2.44631,-3.75459,11.29389,-19.80875,-7.77475,9.0289,-8.25708,4.77424,6.50911
611,0.18251,0.0,0.0,-0.85334,0.0,0.0,-2.29681,-0.90569,18.80005,21.98104,6.34172,-6.41981,-26.30457,-3.94163,-0.00037,-22.62813,-1.50014,-0.00035,39.2719,7.76639,14.97528,9.56682,-3.87481,-5.99997,21.15672,29.63248,-21.49823,15.72266,-22.8887,35.71232,109.41556,-0.00095,-84.30703,85.38613,0.00559,91.45511,-9.05132,16.72984,0.00559,-9.12181,-7.43028,0.00299,2.09829,-3.53473,11.12114,-20.15603,-7.50597,8.95192,-8.11694,4.69145,6.56817
612,0.23031,0.0,-0.0,-1.20003,0.0,-0.0,-2.63811,-0.78708,18.98302,21.8854,6.35893,-6.23389,-25.79236,-3.86049,-9e-05,-22.25849,-1.62084,-0.00056,39.13794,7.71293,14.7906,9.46874,-3.70423,-6.11045,21.33897,28.58367,-21.82097,16.19565,-22.7265,36.22614,109.26547,0.00012,-84.44198,87.17251,0.00638,90.16855,-9.36694,16.95832,-0.00017,-8.89859,-6.91937,0.00164,1.74835,-3.23104,10.96438,-20.50055,-7.16563,8.92184,-7.9011,4.59396,6.65823
613,0.20108,0.0,-0.0,-1.64591,-0.0,-0.0,-2.94233,-0.63189,19.08769,21.8238,6.451,-5.97859,-25.32824,-3.79294,-3e-05,-21.82519,-1.734,3e-05,38.96669,7.70196,14.76145,9.29744,-3.5547,-6.2376,21.36477,27.53989,-22.13957,16.65227,-22.52947,36.69057,109.35286,0.00303,-84.84555,88.76054,-0.00027,89.05111,-9.96281,16.28424,-0.00083,-8.78406,-6.83572,0.00139,1.3992,-2.93859,10.9139,-20.8391,-6.87587,8.98637,-7.67629,4.47318,6.73516
614,0.08911,0.0,0.0,-2.0317,0.0,0.0,-3.18674,-0.62078,19.24207,21.7705,6.60737,-5.83569,-24.88041,-3.77685,-0.00035,-21.33373,-1.77154,0.00049,38.70118,7.71558,14.76523,9.01346,-3.44779,-6.28922,21.32151,26.53797,-22.46965,17.13104,-22.25235,37.11024,109.70036,0.00505,-85.49509,90.0768,-0.00787,88.25421,-9.93778,15.4674,-0.00503,-8.59725,-7.08202,0.00039,1.02684,-2.74586,10.93841,-21.20129,-6.70673,9.08264,-7.5056,4.34081,6.74562
615,-0.02571,0.0,0.0,-2.21067,0.0,-0.0,-3.38748,-0.76965,19.48484,21.6844,6.75848,-5.80688,-24.41911,-3.80662,-0.00046,-20.82951,-1.79191,-1e-05,38.37416,7.74336,14.70779,8.68564,-3.3442,-6.31985,21.30766,25.61789,-22.78271,17.73325,-21.8921,37.54527,110.1756,0.0027,-85.85265,91.15889,-0.00843,87.68685,-8.89837,15.39045,0.00884,-7.98856,-7.54413,-0.00428,0.65054,-2.6696,10.93743,-21.57428,-6.63576,9.11077,-7.39024,4.19757,6.69335
616,-0.15914,-0.0,-0.0,-2.10548,-0.0,0.0,-3.55936,-1.00318,19.68639,21.51616,6.79653,-5.76007,-23.95196,-3.82462,-7e-05,-20.35857,-1.85113,-0.00063,38.07399,7.78572,14.65952,8.42194,-3.21723,-6.42906,21.40752,24.804,-23.07238,18.51662,-21.53022,38.04461,110.55535,-0.00017,-85.35758,92.12541,0.00029,86.99214,-7.28528,16.40896,0.02748,-6.90845,-8.16393,-0.00917,0.33304,-2.60829,10.83804,-21.89514,-6.54145,9.0416,-7.27329,4.03573,6.64815
617,-0.43579,0.0,-0.0,-1.78888,0.0,-0.0,-3.66315,-1.2535,19.73509,21.25845,6.63457,-5.6611,-23.53621,-3.79105,0.00038,-19.92413,-1.88038,-0.0003,37.86893,7.84244,14.69112,8.24915,-3.08268,-6.58398,21.62004,24.07366,-23.4017,19.40462,-21.25393,38.56414,110.75189,-0.00244,-83.82036,93.10004,0.00911,85.90453,-5.89667,18.03576,0.01731,-5.81224,-8.94063,-0.00607,0.12902,-2.46099,10.6604,-22.10355,-6.33796,8.93236,-7.09341,3.88515,6.67057
618,-0.83371,0.0,-0.0,-1.47497,-0.0,0.0,-3.68467,-1.39922,19.66288,20.97634,6.32459,-5.59774,-23.20337,-3.73356,0.00037,-19.4984,-1.78194,0.00055,37.7522,7.91632,14.74462,8.10405,-2.95736,-6.65228,21.85401,23.36516,-23.83681,20.26661,-21.04241,39.02497,110.93154,-0.00638,-81.70128,94.09269,0.00607,84.69514,-5.26107,19.27094,-0.00476,-5.33643,-9.89507,0.00734,0.0587,-2.29518,10.49595,-22.1768,-6.12231,8.84248,-6.83485,3.79679,6.75802
619,-1.09306,0.0,-0.0,-1.329,0.0,0.0,-3.72731,-1.2616,19.55575,20.74931,6.02382,-5.60792,-22.89345,-3.72152,-0.00011,-19.07436,-1.57329,0.00089,37.64508,8.00006,14.75901,7.92168,-2.85094,-6.58343,22.02041,22.63486,-24.33155,21.02219,-20.81516,39.38637,111.31484,-0.00183,-80.2687,95.01238,-0.00193,83.72578,-5.4469,19.35039,-0.00369,-5.65072,-10.92715,0.01754,0.09325,-2.27367,10.38009,-22.1482,-6.05858,8.7429,-6.53184,3.77,6.86395
620,-0.99039,0.0,0.0,-1.37122,0.0,0.0,-3.91428,-0.8837,19.49429,20.61094,5.78112,-5.66193,-22.52326,-3.79195,-0.0007,-18.67746,-1.34236,0.00062,37.46361,8.04699,14.73685,7.67781,-2.78989,-6.44055,22.1035,21.89856,-24.73463,21.64565,-20.55372,39.62338,111.92036,0.01206,-80.59676,95.83349,-0.0036,82.84243,-6.19359,18.26222,0.01213,-6.16878,-11.69619,0.01352,0.13728,-2.40781,10.23446,-22.11802,-6.12765,8.55638,-6.24737,3.74538,6.92851
621,-0.62428,0.0,-0.0,-1.5368,-0.0,0.0,-4.23035,-0.57054,19.51764,20.54109,5.55043,-5.72588,-22.10669,-3.90121,-0.00076,-18.32262,-1.16693,5e-05,37.20732,8.01248,14.69949,7.38697,-2.7786,-6.33084,22.14253,21.18449,-24.94575,22.19569,-20.27325,39.74299,112.57488,0.01421,-82.26604,96.64165,-0.00264,81.8117,-7.07343,16.6571,0.01362,-6.28741,-11.83994,0.00494,0.08639,-2.51943,9.98941,-22.18727,-6.13819,8.28597,-6.03128,3.6743,6.92445
622,-0.34006,-0.0,0.0,-1.71915,0.0,-0.0,-4.53028,-0.47483,19.52229,20.48596,5.4062,-5.74316,-21.75757,-3.96264,-0.00029,-17.9809,-1.11004,-0.0006,36.97089,7.93106,14.69955,7.09167,-2.75459,-6.36513,22.18738,20.45857,-25.04144,22.85141,-19.93248,39.84966,113.10543,0.00332,-83.99279,97.51035,-0.0037,80.7478,-7.71197,15.30376,0.00159,-6.26163,-11.32645,-0.00589,-0.0617,-2.47495,9.69696,-22.34954,-5.98625,8.03105,-5.87977,3.57114,6.8921
623,-0.3453,0.0,0.0,-1.84028,0.0,0.0,-4.69435,-0.5032,19.37216,20.40385,5.45393,-5.69454,-21.55195,-3.94007,5e-05,-17.59758,-1.15668,-0.00072,36.82775,7.88222,14.76561,6.8073,-2.65625,-6.5339,22.27262,19.64911,-25.22459,23.78165,-19.47708,40.07351,113.47996,-0.00357,-85.24556,98.42818,0.00022,79.62938,-8.13977,14.43904,-0.00207,-6.70778,-10.51175,-0.0165,-0.22222,-2.32238,9.47544,-22.51591,-5.76113,7.88336,-5.75792,3.48553,6.88154
624,-0.50588,0.0,-0.0,-1.87453,-0.0,0.0,-4.74224,-0.58762,19.08327,20.28261,5.61512,-5.644,-21.42691,-3.86782,0.00016,-17.14184,-1.20063,-0.00012,36.75221,7.8903,14.85911,6.51491,-2.50524,-6.69487,22.37771,18.75102,-25.62345,24.94495,-18.93494,40.39081,113.79153,-0.00213,-86.3321,99.32027,0.0109,78.0384,-8.75652,13.67655,0.00806,-7.48182,-9.94378,-0.01389,-0.36362,-2.15878,9.37988,-22.65618,-5.57354,7.85694,-5.62496,3.43775,6.87986
625,-0.59039,0.0,-0.0,-1.81101,-0.0,0.0,-4.77342,-0.73277,18.76612,20.12686,5.72382,-5.64656,-21.25888,-3.7871,0.00023,-16.64116,-1.17712,0.00045,36.67726,7.92194,14.95675,6.21703,-2.35908,-6.77448,22.42697,17.86738,-26.15572,26.09059,-18.39399,40.60574,114.13393,0.00079,-87.41142,100.09822,0.01341,76.03809,-9.65507,12.69126,0.0152,-7.88287,-9.95323,-0.00612,-0.53735,-2.00906,9.36005,-22.82548,-5.42749,7.89558,-5.43845,3.40642,6.8438
626,-0.55915,0.0,-0.0,-1.74783,-0.0,0.0,-4.8243,-0.98751,18.54176,19.98095,5.70424,-5.72353,-21.00651,-3.72634,0.00015,-16.16304,-1.10933,0.00053,36.54552,7.95772,15.02062,5.91324,-2.2272,-6.80179,22.40248,17.12416,-26.66133,26.97377,-17.90787,40.54443,114.51157,0.00055,-88.24501,100.73531,0.00265,74.63626,-10.35989,11.66485,0.0073,-7.74561,-10.37405,-0.00227,-0.75292,-1.88088,9.33492,-23.03782,-5.29936,7.92106,-5.21461,3.37313,6.7754
627,-0.5116,0.0,0.0,-1.8527,0.0,0.0,-4.85811,-1.38527,18.46782,19.90242,5.62652,-5.8499,-20.73071,-3.7135,-5e-05,-15.76167,-1.04573,0.00022,36.33887,8.01224,14.97901,5.58529,-2.08647,-6.8298,22.40881,16.55142,-27.10481,27.54387,-17.47021,40.21445,114.85638,-0.00079,-88.73843,101.30013,-0.00986,74.66256,-10.52615,10.91799,-0.00268,-7.63232,-10.78687,-0.00034,-0.92945,-1.79777,9.2682,-23.21498,-5.19717,7.89074,-5.02744,3.34279,6.73035
628,-0.48862,0.0,-0.0,-2.11479,-0.0,-0.0,-4.86832,-1.78091,18.45548,19.87565,5.67047,-5.91234,-20.49809,-3.7577,-0.00018,-15.44858,-1.03396,-0.00018,36.11534,8.09066,14.86216,5.27123,-1.94427,-6.95218,22.54992,16.06692,-27.53538,27.93683,-17.06487,39.759,115.09428,-0.00098,-89.24322,101.88221,-0.01416,75.80822,-10.39888,10.53667,-0.00492,-8.06215,-10.87562,-0.0025,-1.01262,-1.74527,9.16527,-23.30176,-5.10957,7.81515,-4.8935,3.31085,6.75707
629,-0.44762,0.0,0.0,-2.36421,-0.0,0.0,-4.89833,-1.96437,18.40525,19.83958,5.93005,-5.85341,-20.31677,-3.83752,-0.00016,-15.20738,-1.07789,-0.00029,35.95939,8.15601,14.76671,5.04573,-1.84128,-7.2102,22.81595,15.57301,-27.96578,28.32015,-16.7078,39.29675,115.19981,-0.00114,-90.1496,102.50571,-0.00794,77.02791,-10.42871,10.40048,-0.00218,-8.89578,-10.59297,-0.00525,-1.04806,-1.67545,9.03594,-23.34157,-4.99594,7.72166,-4.7553,3.24783,6.83995
630,-0.37196,0.0,-0.0,-2.47855,-0.0,-0.0,-4.98057,-1.89504,18.33732,19.78091,6.24893,-5.78092,-20.17084,-3.91149,-6e-05,-15.02267,-1.10187,-8e-05,35.8974,8.16225,14.70291,4.91995,-1.79925,-7.49166,23.13646,15.04648,-28.40021,28.76723,-16.4376,38.86019,115.21555,-0.00155,-91.29745,103.13516,0.00238,77.46961,-10.84387,10.22808,0.00388,-9.57067,-10.20283,-0.00293,-1.08761,-1.56451,8.88028,-23.38548,-4.83425,7.61941,-4.58372,3.13717,6.91973
631,-0.31042,0.0,-0.0,-2.38647,0.0,0.0,-5.11877,-1.62381,18.24803,19.71569,6.35709,-5.77945,-20.06563,-3.93464,6e-05,-14.88965,-1.03505,0.00011,35.89997,8.11132,14.67334,4.84924,-1.79617,-7.68395,23.45457,14.53059,-28.8469,29.27351,-16.26401,38.48027,115.21132,-0.0015,-91.96356,103.72102,0.00795,76.98428,-11.50017,9.73437,0.0089,-9.78803,-10.07353,-0.00017,-1.10575,-1.43908,8.71045,-23.40826,-4.65379,7.50956,-4.40644,3.00152,6.95664
632,-0.31078,0.0,0.0,-2.07295,0.0,0.0,-5.29275,-1.20021,18.04589,19.63715,6.1477,-5.79833,-20.00505,-3.89418,8e-05,-14.7965,-0.90187,0.00012,35.92497,8.05213,14.76727,4.8003,-1.79431,-7.80266,23.73408,14.07838,-29.23397,29.82875,-16.12249,38.22305,115.20645,-0.00047,-91.45849,104.2087,0.00594,76.00308,-11.87424,8.98648,0.00511,-9.66146,-10.29843,0.00034,-1.0638,-1.35651,8.57922,-23.37033,-4.52761,7.41922,-4.24838,2.8805,6.94097
633,-0.36372,0.0,-0.0,-1.76699,0.0,-0.0,-5.43428,-0.83703,17.81746,19.56886,5.72929,-5.85695,-19.94965,-3.86189,-8e-05,-14.71811,-0.76647,0.0001,35.90993,8.04049,14.94652,4.73812,-1.76191,-7.82131,23.96357,13.7311,-29.43367,30.4052,-15.91325,38.08263,115.15967,0.00201,-89.73847,104.54521,0.00083,75.08159,-11.44762,8.37102,-0.00067,-9.30385,-10.60886,0.00109,-0.98548,-1.35103,8.55124,-23.29324,-4.51192,7.39536,-4.11884,2.79975,6.88323
634,-0.43767,0.0,0.0,-1.81961,-0.0,-0.0,-5.45692,-0.8411,17.86168,19.5791,5.26352,-6.0762,-19.84857,-3.95401,-0.00043,-14.64861,-0.65909,0.0001,35.78579,8.1083,14.93808,4.6091,-1.66793,-7.62389,24.15047,13.51237,-29.41918,30.91211,-15.61607,37.92513,115.05479,0.0031,-87.47446,104.72426,-0.0019,74.50322,-10.25872,8.12491,1e-05,-8.73119,-10.75115,0.00249,-0.92399,-1.39862,8.61646,-23.22995,-4.5807,7.43775,-4.03644,2.75934,6.82992
635,-0.53521,0.0,-0.0,-2.21482,0.0,-0.0,-5.36401,-1.20107,18.2275,19.65365,4.89575,-6.37389,-19.71104,-4.17611,-0.00054,-14.59702,-0.6035,3e-05,35.57131,8.23131,14.58353,4.40125,-1.50425,-7.29896,24.299,13.39036,-29.32168,31.25888,-15.33371,37.61317,114.94025,0.00127,-85.47788,104.80655,-0.00165,74.22084,-8.84513,8.16307,0.00197,-8.16357,-10.78637,0.00269,-0.9091,-1.4309,8.65464,-23.21415,-4.62504,7.46088,-4.00059,2.7306,6.83651
636,-0.65281,0.0,0.0,-2.52092,0.0,-0.0,-5.28462,-1.576,18.55751,19.64285,4.76308,-6.45268,-19.59022,-4.38298,-0.0002,-14.51973,-0.61923,-0.00015,35.37074,8.33423,14.08298,4.15052,-1.31195,-7.16845,24.4257,13.26424,-29.29831,31.45742,-15.1802,37.14577,114.84939,-0.00034,-84.08467,104.86318,-0.0005,74.06612,-7.64914,8.32231,0.00184,-7.90329,-10.90682,0.00222,-0.95105,-1.38258,8.5208,-23.26125,-4.52956,7.3551,-3.97693,2.67636,6.90446
637,-0.7212,0.0,0.0,-2.42033,-0.0,0.0,-5.33908,-1.76305,18.5627,19.42028,4.89596,-6.2068,-19.50436,-4.44586,0.00013,-14.3334,-0.67205,-0.00026,35.23843,8.3706,13.71786,3.86942,-1.13544,-7.37911,24.57729,13.037,-29.39552,31.58468,-15.14984,36.64805,114.74693,-0.00037,-83.21706,104.91595,0.0003,74.04169,-6.78756,8.53065,0.00105,-7.91561,-11.17966,0.0017,-1.05074,-1.26367,8.18833,-23.3735,-4.29334,7.09199,-3.94685,2.60334,6.97127
638,-0.6955,-0.0,0.0,-2.06207,0.0,0.0,-5.49116,-1.88351,18.37007,19.0574,5.15505,-5.88951,-19.42182,-4.39161,0.00018,-14.03275,-0.69079,-3e-05,35.1395,8.36732,13.52253,3.5567,-0.98117,-7.69908,24.78915,12.69342,-29.5599,31.66568,-15.14033,36.24939,114.59153,-0.00037,-82.81013,104.95496,0.00091,74.36565,-6.29934,8.77347,0.00026,-7.91028,-11.57881,0.00038,-1.19081,-1.18292,7.81317,-23.5287,-4.07613,6.77487,-3.91601,2.55872,6.97989
639,-0.68086,0.0,0.0,-1.84186,-0.0,0.0,-5.60402,-2.08992,18.27497,18.75123,5.3753,-5.79523,-19.31458,-4.33848,1e-05,-13.7035,-0.64103,0.00029,35.03642,8.36336,13.36876,3.251,-0.854,-7.8164,25.03745,12.30362,-29.72029,31.66782,-15.08642,35.98189,114.39963,-0.00077,-82.84044,104.99664,0.00162,75.03454,-6.23155,9.02917,-0.00036,-7.73316,-12.03472,-0.00088,-1.35248,-1.24023,7.6102,-23.70097,-4.052,6.56487,-3.87378,2.54855,6.94295
640,-0.82436,-0.0,-0.0,-1.9221,-0.0,0.0,-5.62429,-2.29016,18.31249,18.58544,5.54991,-5.90666,-19.19187,-4.34409,-0.00014,-13.40368,-0.56551,0.00026,34.93738,8.35157,13.23241,2.99591,-0.7739,-7.73116,25.25833,11.98713,-29.82613,31.58633,-15.01044,35.80572,114.22254,-0.00068,-83.13615,105.09675,0.00187,75.66902,-6.5369,9.26867,-0.00068,-7.55528,-12.36341,-0.00135,-1.55109,-1.39827,7.64248,-23.90251,-4.21044,6.53454,-3.79268,2.51302,6.89232
