PaulMeinheit/Bachelor_Muay_Thai/processed_Data/N3/teep/sliced/JointAngles/sliced0.csv
Unnamed: 0_level_0,L_MTP_ANGLE,L_MTP_ANGLE,L_MTP_ANGLE,R_MTP_ANGLE,R_MTP_ANGLE,R_MTP_ANGLE,L_ANKLE_ANGLE,L_ANKLE_ANGLE,L_ANKLE_ANGLE,R_ANKLE_ANGLE,R_ANKLE_ANGLE,R_ANKLE_ANGLE,L_KNEE_ANGLE,L_KNEE_ANGLE,L_KNEE_ANGLE,R_KNEE_ANGLE,R_KNEE_ANGLE,R_KNEE_ANGLE,L_HIP_ANGLE,L_HIP_ANGLE,L_HIP_ANGLE,R_HIP_ANGLE,R_HIP_ANGLE,R_HIP_ANGLE,L_SHOULDER_ANGLE,L_SHOULDER_ANGLE,L_SHOULDER_ANGLE,R_SHOULDER_ANGLE,R_SHOULDER_ANGLE,R_SHOULDER_ANGLE,L_ELBOW_ANGLE,L_ELBOW_ANGLE,L_ELBOW_ANGLE,R_ELBOW_ANGLE,R_ELBOW_ANGLE,R_ELBOW_ANGLE,L_WRIST_ANGLE,L_WRIST_ANGLE,L_WRIST_ANGLE,R_WRIST_ANGLE,R_WRIST_ANGLE,R_WRIST_ANGLE,NECK_ANGLE,NECK_ANGLE,NECK_ANGLE,NECK_ANGLE_SHADOW,NECK_ANGLE_SHADOW,NECK_ANGLE_SHADOW,Trunk_Joint_Angle,Trunk_Joint_Angle,Trunk_Joint_Angle
ITEM,X,Y,Z,X,Y,Z,X,Y,Z,X,Y,Z,X,Y,Z,X,Y,Z,X,Y,Z,X,Y,Z,X,Y,Z,X,Y,Z,X,Y,Z,X,Y,Z,X,Y,Z,X,Y,Z,X,Y,Z,X,Y,Z,X,Y,Z
141,-4.82521,0.0,0.0,-4.50517,-0.0,-0.0,-9.47673,-3.16351,14.38513,18.33638,4.8136,-8.42396,-12.70008,-1.6359,0.00016,-9.91088,0.26386,4e-05,32.58106,7.01309,7.48498,0.34409,1.41895,-11.74838,1.0186,15.12346,-20.73594,0.06718,-16.22507,21.79521,26.43131,-0.00154,-94.68553,29.45522,-0.00054,92.37476,-1.17663,-7.40397,-0.00126,-0.87049,6.35061,-0.00255,4.15086,2.81007,-2.75764,-18.36835,3.65119,-1.47199,2.66488,1.37735,5.99424
142,-4.33178,-0.0,-0.0,-4.13296,-0.0,-0.0,-9.48561,-3.37484,14.3455,18.21162,4.7126,-8.20693,-12.77137,-1.67153,4e-05,-9.84874,0.26797,5e-05,32.54587,7.04652,7.48667,0.25275,1.40997,-11.98624,0.85675,15.12475,-20.56981,-0.01446,-16.14783,21.6587,26.33497,-0.00089,-94.92231,29.43929,-0.00044,92.60088,-1.05039,-7.38885,-0.00064,-1.37144,6.6377,-0.00058,4.36469,2.80035,-1.77494,-18.161,3.26624,-0.56741,2.55718,1.36033,5.99838
143,-3.86125,0.0,-0.0,-3.43145,0.0,0.0,-9.51356,-3.71672,14.19771,17.89208,4.8094,-8.03005,-12.86559,-1.65118,-8e-05,-9.73538,0.28051,3e-05,32.43424,7.0624,7.61339,0.07148,1.37743,-12.19803,0.70735,15.1961,-20.64749,-0.10812,-16.03266,21.36551,26.25005,0.00093,-94.68563,29.36263,-0.00019,92.63301,-1.10685,-7.3099,-0.00059,-1.95791,6.69461,0.00114,4.39947,2.81236,-0.91253,-18.12743,2.94732,0.23403,2.35841,1.33051,6.05134
144,-3.56958,-0.0,-0.0,-3.00947,0.0,-0.0,-9.55179,-4.09895,14.00938,17.61313,5.05991,-8.03697,-12.95243,-1.60924,-8e-05,-9.61595,0.27099,-2e-05,32.3641,7.10364,7.78274,-0.06763,1.38612,-12.2618,0.67127,15.31651,-20.86485,-0.20559,-15.92405,20.99871,26.19012,0.00205,-93.99918,29.24677,0.00018,92.76163,-1.13743,-7.3469,-0.00103,-2.53255,6.67269,0.00072,4.28138,2.82026,-0.12465,-18.24251,2.65314,0.96482,2.166,1.33332,6.16002
145,-3.34545,-0.0,-0.0,-3.01552,-0.0,0.0,-9.64362,-4.36925,13.82151,17.52363,5.23265,-8.17441,-12.9685,-1.57482,-0.0,-9.52524,0.24022,-2e-05,32.34608,7.16257,7.94151,-0.12894,1.43935,-12.19766,0.74452,15.37343,-20.87876,-0.30316,-15.84546,20.67099,26.1026,0.00042,-93.67155,29.12379,6e-05,93.02944,-1.03592,-7.47451,-0.00136,-2.93618,6.68125,-0.00011,4.1005,2.82917,0.58031,-18.41745,2.39169,1.61928,2.02292,1.36047,6.2735
146,-3.04716,-0.0,-0.0,-3.15128,0.0,0.0,-9.79768,-4.37438,13.61481,17.55656,5.16156,-8.27035,-12.90853,-1.54194,3e-05,-9.4717,0.21786,1e-05,32.35275,7.19028,8.08883,-0.1447,1.50004,-12.14154,0.85465,15.31013,-20.55978,-0.4083,-15.79425,20.41741,25.8836,-0.00509,-94.31556,29.00627,-0.00021,93.25772,-0.89893,-7.39518,-0.00037,-3.09808,6.62912,-0.00032,3.94909,2.82157,1.13788,-18.56176,2.17142,2.13121,1.92596,1.38452,6.3191
147,-2.80721,0.0,0.0,-3.17586,-0.0,-0.0,-9.89626,-4.17514,13.44461,17.57576,4.91184,-8.26232,-12.85968,-1.5004,-1e-05,-9.46039,0.2331,-0.0,32.4122,7.1629,8.1895,-0.11456,1.53511,-12.14861,0.95634,15.18902,-20.13982,-0.51761,-15.75586,20.17705,25.46223,-0.00889,-95.54802,28.88275,0.0004,93.47768,-0.79981,-6.80122,0.00169,-3.11055,6.41265,-0.00028,3.90176,2.7342,1.5351,-18.60179,1.93883,2.46451,1.87881,1.4044,6.27467
148,-2.78881,0.0,0.0,-3.05767,0.0,-0.0,-9.8506,-3.99119,13.42654,17.53629,4.65523,-8.20995,-12.89806,-1.46523,-3e-05,-9.49729,0.29145,-6e-05,32.54915,7.09359,8.17064,-0.02243,1.51882,-12.17201,1.07514,15.10126,-19.94038,-0.60371,-15.72612,19.8996,24.86514,-0.00421,-96.42676,28.7323,0.00165,93.83149,-0.72996,-5.76816,0.00275,-3.08933,6.08535,-1e-05,4.00971,2.56196,1.87074,-18.48597,1.6514,2.70848,1.87562,1.41918,6.1875
149,-2.89902,-0.0,0.0,-2.82117,0.0,-0.0,-9.73172,-3.97296,13.56643,17.46368,4.47321,-8.16696,-13.00549,-1.45733,1e-05,-9.56354,0.36487,-7e-05,32.70757,7.01979,8.03428,0.09423,1.45436,-12.17229,1.27557,15.07551,-20.09067,-0.62705,-15.71934,19.646,24.19586,0.00464,-96.35627,28.53404,0.00158,94.15966,-0.762,-4.77826,0.00142,-3.09136,5.78824,0.0005,4.26977,2.41824,2.26488,-18.21693,1.36798,3.01744,1.86431,1.41279,6.13675
150,-2.90514,0.0,0.0,-2.46234,0.0,0.0,-9.67564,-4.04713,13.67715,17.37016,4.38547,-8.13675,-13.1136,-1.46636,3e-05,-9.61508,0.40053,-3e-05,32.82915,6.98894,7.91964,0.19195,1.39528,-12.17972,1.58395,15.08113,-20.46395,-0.55666,-15.74917,19.53492,23.56758,0.00822,-95.43363,28.25927,-0.00112,94.01442,-1.00435,-4.23925,0.00045,-3.11701,5.56734,0.00081,4.58401,2.40287,2.72187,-17.89272,1.17918,3.43354,1.80882,1.38766,6.17715
151,-2.68903,-0.0,0.0,-2.0309,0.0,0.0,-9.74759,-3.99588,13.54584,17.26688,4.44455,-8.09215,-13.17939,-1.4584,-0.0,-9.62512,0.36134,-2e-05,32.92691,7.01958,7.99374,0.27876,1.39626,-12.26682,1.9449,15.09505,-20.85056,-0.38656,-15.80002,19.59692,23.06975,0.00466,-94.18468,27.87765,-0.0035,93.25877,-1.44124,-4.13298,0.00078,-3.05985,5.35024,0.00025,4.79311,2.46226,3.12864,-17.6742,1.07872,3.83186,1.73565,1.36601,6.29353
152,-2.41243,-0.0,0.0,-1.7446,0.0,0.0,-9.87661,-3.80892,13.24498,17.22228,4.64365,-8.02717,-13.20654,-1.42703,-3e-05,-9.60963,0.27133,-3e-05,33.00916,7.07862,8.23137,0.3462,1.45138,-12.44738,2.26497,15.13804,-21.17339,-0.13123,-15.83244,19.76453,22.75631,-0.00034,-93.1288,27.38761,-0.00266,92.33916,-1.94985,-4.21192,0.00083,-2.78387,5.09439,-0.00085,4.81409,2.45706,3.39798,-17.64608,0.9711,4.0786,1.65077,1.3522,6.4113
153,-2.46332,0.0,-0.0,-1.88465,0.0,0.0,-9.89125,-3.77159,13.12585,17.30972,4.85703,-7.99243,-13.23042,-1.41538,-0.0,-9.60058,0.20724,-3e-05,33.0629,7.1208,8.35643,0.36143,1.51293,-12.63599,2.49562,15.22008,-21.44949,0.19594,-15.83348,20.00756,22.60052,-0.00175,-92.47028,26.82621,-0.00148,91.60732,-2.38549,-4.30052,0.00029,-2.38123,4.84079,-0.00102,4.7362,2.3213,3.5576,-17.71877,0.7847,4.17413,1.5221,1.33977,6.46232
154,-3.06508,0.0,0.0,-2.47231,-0.0,0.0,-9.69238,-4.02566,13.3661,17.47813,4.97216,-8.02105,-13.2845,-1.46844,0.0001,-9.60811,0.23124,-3e-05,33.14757,7.15001,8.1429,0.37758,1.55867,-12.74135,2.66855,15.29315,-21.62663,0.573,-15.83202,20.31532,22.49196,-0.00014,-92.05264,26.25563,-0.00091,91.03007,-2.6698,-4.336,-0.00027,-2.14469,4.6475,-0.00048,4.73648,2.09934,3.6872,-17.7139,0.53011,4.20905,1.3856,1.35059,6.4395
155,-3.93332,0.0,0.0,-3.15687,0.0,-0.0,-9.39622,-4.36515,13.73514,17.5834,4.96458,-8.0977,-13.36451,-1.57453,0.00017,-9.61464,0.34176,0.0,33.34822,7.20345,7.71448,0.49807,1.60132,-12.7269,2.83044,15.3138,-21.60036,0.93072,-15.85021,20.54087,22.36759,0.00126,-91.69876,25.73982,0.00103,90.64475,-2.81025,-4.31162,-0.00058,-2.16288,4.5338,-0.00064,4.9052,1.87538,3.82061,-17.54082,0.27221,4.24676,1.33451,1.40692,6.39486
156,-4.48047,-0.0,-0.0,-3.49197,-0.0,0.0,-9.23334,-4.56649,13.91061,17.56565,4.87915,-8.22504,-13.44253,-1.67265,0.00013,-9.60146,0.47539,6e-05,33.62181,7.27564,7.40568,0.70196,1.64376,-12.613,2.96649,15.31234,-21.38536,1.17379,-15.87866,20.45478,22.2893,0.00137,-91.47095,25.29639,0.003,90.54614,-2.84509,-4.21231,-0.00078,-2.18086,4.48413,-0.0011,5.17614,1.71306,3.92114,-17.26683,0.08382,4.27765,1.37785,1.47828,6.39758
157,-4.41264,-0.0,-0.0,-3.32489,-0.0,-0.0,-9.28456,-4.58092,13.81077,17.50053,4.84994,-8.37794,-13.52496,-1.71705,5e-05,-9.57938,0.53498,8e-05,33.8329,7.3219,7.39498,0.85534,1.67947,-12.51952,3.07051,15.3416,-21.18851,1.28205,-15.91438,20.00033,22.2799,0.00159,-91.3632,24.88296,0.00271,90.58019,-2.82964,-3.97089,-0.00079,-1.92727,4.53817,0.00013,5.41171,1.62649,3.93645,-17.03079,-0.00203,4.25875,1.41562,1.52369,6.48543
158,-3.91085,0.0,0.0,-2.89097,0.0,-0.0,-9.43723,-4.44773,13.53875,17.47192,5.0021,-8.41395,-13.64387,-1.70662,-5e-05,-9.57596,0.46774,0.00012,33.92077,7.32537,7.62069,0.88898,1.70823,-12.61927,3.24469,15.38963,-21.20437,1.36966,-15.98896,19.41036,22.20371,0.00244,-91.15516,24.46067,-0.00027,90.39309,-2.75779,-3.57456,-5e-05,-1.39546,4.81668,0.00318,5.53269,1.56886,3.88483,-16.91127,-0.0356,4.18906,1.34944,1.55236,6.64166
159,-3.22877,0.0,-0.0,-2.50704,0.0,-0.0,-9.60447,-4.23735,13.19707,17.46353,5.25121,-8.20277,-13.7801,-1.65923,-0.0001,-9.57999,0.33656,0.00013,33.93888,7.30669,7.95566,0.85494,1.71667,-12.9537,3.59375,15.39834,-21.36955,1.59562,-16.1234,19.01207,21.96561,0.00216,-90.84987,24.03366,-0.00313,89.78253,-2.57182,-3.18992,0.00074,-0.84583,5.35233,0.0037,5.5617,1.46915,3.8749,-16.8826,-0.12396,4.14181,1.17176,1.58916,6.80516
160,-2.62494,0.0,-0.0,-2.39053,0.0,-0.0,-9.7634,-4.05099,12.94423,17.43343,5.34814,-7.87009,-13.87105,-1.61372,-4e-05,-9.53905,0.25452,0.00013,33.97929,7.28696,8.20778,0.83924,1.69969,-13.3251,4.07281,15.34974,-21.45881,2.00185,-16.26128,18.90135,21.68059,4e-05,-90.80523,23.62094,-0.0026,89.00126,-2.38363,-3.04482,0.00087,-0.65976,5.94826,0.00033,5.56419,1.30611,4.01126,-16.87656,-0.3267,4.20557,0.96936,1.62527,6.90326
161,-2.5531,0.0,-0.0,-2.71479,0.0,0.0,-9.8078,-3.99722,13.04836,17.42472,5.16411,-7.71954,-13.90151,-1.62784,6e-05,-9.44328,0.25371,0.00016,34.0942,7.26721,8.10572,0.88905,1.6866,-13.45975,4.55312,15.28159,-21.36239,2.47896,-16.30384,18.88045,21.50565,-0.00094,-91.30856,23.24644,0.00013,88.51297,-2.39526,-3.16229,0.0014,-1.05909,6.31267,-0.00074,5.5955,1.13554,4.30103,-16.83744,-0.59493,4.40824,0.83501,1.62843,6.90387
162,-3.18498,0.0,-0.0,-3.39512,0.0,0.0,-9.64978,-4.07533,13.55735,17.47624,4.80874,-7.84139,-13.91451,-1.70384,0.00015,-9.35875,0.27996,0.00012,34.26254,7.2241,7.62521,1.00981,1.67966,-13.31078,4.95406,15.22797,-21.1436,2.90737,-16.23411,18.74623,21.46439,-4e-05,-92.26012,22.95002,0.00136,88.46684,-2.54386,-3.2646,0.00188,-1.8497,6.32402,0.00161,5.69697,1.0415,4.66795,-16.72524,-0.82181,4.7115,0.77855,1.57349,6.8439
163,-3.95397,0.0,0.0,-3.98084,0.0,-0.0,-9.40823,-4.1736,14.11889,17.53366,4.45971,-8.01721,-13.93256,-1.76376,0.00015,-9.34294,0.29729,4e-05,34.41088,7.13505,7.14021,1.17038,1.6178,-13.07942,5.26662,15.19778,-20.95591,3.28217,-16.14547,18.49746,21.50988,0.0008,-93.22055,22.75211,0.00056,88.67037,-2.59703,-2.9756,0.00217,-2.56577,6.09472,0.00203,5.87858,1.06457,5.01288,-16.53228,-0.932,5.03915,0.73418,1.46156,6.80062
164,-4.24696,0.0,0.0,-4.23424,-0.0,0.0,-9.25198,-4.24971,14.43721,17.58083,4.2226,-8.0509,-13.93547,-1.77012,4e-05,-9.38226,0.32272,-1e-05,34.47718,7.02398,6.96007,1.31186,1.46252,-12.93478,5.5523,15.20598,-20.99049,3.68806,-16.1237,18.22715,21.61151,0.00038,-93.71819,22.60628,-3e-05,88.97245,-2.55843,-2.15891,0.00066,-2.92072,5.80222,0.00036,6.10013,1.15122,5.27204,-16.30124,-0.95065,5.31177,0.62836,1.3182,6.8344
165,-4.20595,0.0,0.0,-4.46263,0.0,-0.0,-9.1688,-4.31934,14.60979,17.70176,4.14287,-7.9698,-13.9197,-1.79981,-7e-05,-9.42508,0.37179,2e-05,34.46151,6.94644,6.97522,1.38217,1.26114,-12.88367,5.91751,15.26489,-21.29633,4.20228,-16.16247,17.99279,21.75747,-0.00043,-93.63498,22.42302,0.0008,89.40034,-2.61893,-1.1127,-0.00253,-2.98061,5.55228,-0.00064,6.30049,1.18763,5.47224,-16.09342,-0.99326,5.51073,0.42707,1.16754,6.93867
166,-4.25616,0.0,0.0,-4.85435,-0.0,-0.0,-9.07856,-4.28938,14.78934,17.89341,4.20432,-7.87283,-13.92068,-1.92969,-2e-05,-9.42207,0.43261,9e-05,34.41045,6.92341,6.96904,1.36405,1.08495,-12.89413,6.43077,15.33415,-21.64811,4.82477,-16.21343,17.8227,21.93132,-0.00021,-93.28389,22.15429,0.00173,89.9352,-2.77074,-0.41006,-0.00333,-2.93036,5.39529,-0.00073,6.43743,1.13386,5.68365,-15.94897,-1.12348,5.6857,0.15079,1.01799,7.05474
167,-4.25135,0.0,0.0,-4.96419,0.0,-0.0,-9.03493,-3.9915,14.86101,17.97767,4.36057,-7.73807,-13.97079,-2.13014,0.00014,-9.35041,0.46652,5e-05,34.38116,6.93674,6.98094,1.29413,0.96572,-13.00233,7.08035,15.34312,-21.81898,5.46884,-16.26086,17.73546,22.07614,0.00065,-92.98759,21.85139,0.00104,90.35323,-2.81658,-0.41051,-0.00309,-2.88803,5.36176,-0.00089,6.50411,1.08056,5.90091,-15.87434,-1.25549,5.8663,-0.11956,0.88219,7.15692
168,-3.74795,-0.0,0.0,-4.35126,0.0,-0.0,-9.11677,-3.46953,14.68388,17.82359,4.60386,-7.4849,-14.07609,-2.31087,0.0002,-9.24164,0.42429,-0.0001,34.4046,6.97947,7.15343,1.23593,0.91108,-13.23448,7.79281,15.26917,-21.84185,6.02527,-16.32136,17.75322,22.11776,0.00077,-92.79118,21.62701,-5e-05,90.42986,-2.77927,-0.90824,-0.00229,-2.93188,5.39845,-0.00108,6.52091,1.11575,6.05234,-15.85125,-1.28058,6.01974,-0.29926,0.7892,7.27677
169,-2.92639,0.0,-0.0,-3.41704,0.0,-0.0,-9.19763,-3.13283,14.43412,17.56077,4.88504,-7.17732,-14.23113,-2.40766,7e-05,-9.16015,0.32055,-0.00012,34.46678,7.05637,7.4062,1.21416,0.91686,-13.46224,8.48435,15.14709,-21.85095,6.46884,-16.40973,17.9385,22.04679,-0.00056,-92.70382,21.53001,-5e-05,90.24767,-2.98185,-1.37878,-0.001,-3.1078,5.2909,-0.0001,6.51653,1.2007,6.0981,-15.85308,-1.21944,6.0944,-0.38803,0.75937,7.42685
170,-2.46017,0.0,0.0,-2.96459,0.0,0.0,-9.07304,-3.37181,14.42949,17.42379,5.04491,-6.95508,-14.41854,-2.40855,-0.00016,-9.13248,0.25129,-4e-05,34.55045,7.13579,7.51261,1.21975,0.93728,-13.52616,9.13773,15.01469,-21.89652,6.90019,-16.53345,18.37921,21.92857,-0.00252,-92.76231,21.4829,0.00034,90.10165,-3.60686,-1.51555,-0.0019,-3.39064,4.83881,0.00158,6.54421,1.23266,6.05411,-15.82692,-1.17314,6.06588,-0.4494,0.76909,7.56651
171,-2.55419,0.0,0.0,-3.15496,0.0,0.0,-8.76465,-4.0755,14.72638,17.45166,4.95865,-6.78802,-14.60287,-2.34495,-0.00031,-9.11565,0.27854,6e-05,34.66729,7.1546,7.41478,1.25159,0.89864,-13.48605,9.76703,14.88395,-21.91691,7.44837,-16.69112,19.05418,21.89133,-0.00198,-92.88142,21.40691,0.00051,90.08703,-4.4152,-1.42215,-0.00242,-3.69867,4.24148,0.00143,6.68559,1.1672,5.9748,-15.68925,-1.20349,5.96762,-0.5249,0.75937,7.65286
172,-2.83951,0.0,0.0,-3.54232,-0.0,0.0,-8.47574,-4.75699,15.1105,17.50962,4.69903,-6.54073,-14.76119,-2.28752,-0.00029,-9.04907,0.35655,0.00013,34.81557,7.09927,7.2529,1.2955,0.779,-13.51601,10.2826,14.76495,-21.71548,8.14217,-16.84978,19.73481,22.16469,0.00655,-93.14703,21.34616,0.00047,90.00019,-4.97059,-1.39699,-0.00166,-3.89673,4.05911,0.00085,6.95666,1.03128,5.93422,-15.42092,-1.31374,5.87834,-0.62937,0.69422,7.68576
173,-3.00337,-0.0,0.0,-3.76934,0.0,0.0,-8.31758,-5.00744,15.34707,17.50766,4.49765,-6.2176,-14.91736,-2.31234,-0.00012,-8.92395,0.39941,6e-05,34.95367,7.04456,7.17478,1.30162,0.64759,-13.65551,10.58553,14.68161,-21.15033,8.91462,-16.9491,20.17242,22.87891,0.02083,-93.93849,21.3718,0.00039,89.69685,-5.02822,-1.59493,-0.00217,-3.84528,4.57334,0.00324,7.23766,0.8724,5.99159,-15.13914,-1.48249,5.8709,-0.78804,0.59666,7.69038
174,-3.01482,-0.0,0.0,-3.78509,0.0,-0.0,-8.22915,-4.69228,15.29589,17.45504,4.54482,-5.9778,-15.1346,-2.43928,0.00017,-8.76787,0.36566,-0.00013,35.06304,7.0889,7.22197,1.22783,0.62376,-13.84369,10.85178,14.64174,-20.4463,9.71766,-16.94361,20.38103,23.67127,0.0196,-95.34134,21.4267,0.00013,89.36492,-4.75039,-1.81455,-0.00226,-3.57261,5.39907,0.00427,7.37314,0.74539,6.18198,-14.99745,-1.6724,5.99863,-1.01553,0.52929,7.65615
175,-2.98568,0.0,-0.0,-3.76087,0.0,0.0,-8.09775,-3.96421,14.93948,17.4025,4.83145,-5.9665,-15.45953,-2.62259,0.00037,-8.58829,0.27382,-0.00024,35.19068,7.2771,7.34155,1.08958,0.78731,-14.0279,11.43451,14.62627,-20.00781,10.57679,-16.82854,20.55947,23.90467,-0.00016,-96.93442,21.36645,0.00099,89.35938,-4.52631,-1.67286,-0.00229,-3.29009,5.89419,0.00123,7.33099,0.70858,6.49941,-15.02704,-1.82721,6.27829,-1.28045,0.54401,7.54215
176,-3.11648,-0.0,0.0,-4.0037,-0.0,-0.0,-7.8663,-3.22724,14.43132,17.40414,5.15201,-6.19504,-15.85996,-2.80866,0.00034,-8.39181,0.17894,-0.00014,35.40337,7.5773,7.44813,0.974,1.09764,-14.13154,12.37915,14.61412,-19.87648,11.51877,-16.63396,20.78703,23.52043,-0.0114,-98.26794,21.14364,0.00281,89.82709,-4.54041,-1.06377,-0.00378,-3.1696,5.80967,-0.00139,7.23454,0.77733,6.86172,-15.10704,-1.90138,6.63969,-1.50869,0.63924,7.35524
177,-3.61257,0.0,0.0,-4.65149,0.0,0.0,-7.56211,-2.82077,14.0009,17.47317,5.28634,-6.52775,-16.24622,-2.98263,0.00025,-8.21967,0.12238,3e-05,35.75502,7.89788,7.46318,1.01025,1.4249,-14.10415,13.31468,14.60487,-19.70535,12.50366,-16.40935,21.01064,23.24954,-0.01032,-98.97602,20.87944,0.00238,90.49199,-4.63577,-0.28625,-0.00334,-3.28336,5.41276,-0.00198,7.24161,0.89382,7.16481,-15.08474,-1.9088,6.96446,-1.60614,0.76848,7.14181
178,-4.45533,0.0,-0.0,-5.37302,-0.0,0.0,-7.26699,-2.6915,13.74706,17.55267,5.23497,-6.7579,-16.55551,-3.14169,0.00019,-8.10157,0.0913,4e-05,36.2318,8.13057,7.36136,1.23796,1.65992,-14.03317,13.90867,14.60561,-19.26774,13.47358,-16.20605,21.28421,23.76577,-0.01446,-98.79804,20.72083,0.00045,90.83424,-4.57116,0.41111,0.00021,-3.74012,5.04594,-0.00146,7.39393,0.96887,7.37676,-14.92147,-1.91986,7.18913,-1.54919,0.87964,6.93054
179,-5.36007,0.0,-0.0,-5.65659,0.0,0.0,-7.03492,-2.62459,13.62086,17.56017,5.20833,-6.76864,-16.78834,-3.23871,-3e-05,-8.01589,0.05491,-6e-05,36.68456,8.21669,7.22007,1.50784,1.76569,-14.03446,14.21826,14.59781,-18.72982,14.4304,-16.05859,21.79296,24.96712,-0.01499,-98.01245,20.68098,-0.00015,90.56367,-4.27828,1.20102,0.00496,-4.60588,4.74445,0.00057,7.59526,0.9533,7.5203,-14.71341,-1.98875,7.31607,-1.46692,0.9446,6.76553
180,-6.0853,0.0,0.0,-5.49392,0.0,-0.0,-6.8194,-2.64243,13.59392,17.48314,5.37322,-6.64804,-16.98795,-3.21288,-0.00035,-7.9329,0.02182,-9e-05,36.98072,8.18738,7.14635,1.6628,1.7603,-14.08032,14.57228,14.5581,-18.4633,15.42421,-15.96416,22.62133,26.22445,-0.00399,-97.22971,20.67128,0.00026,89.91451,-3.92704,2.3265,0.00565,-5.69556,4.35567,0.00272,7.73033,0.88182,7.60622,-14.5751,-2.08749,7.36845,-1.49603,0.96718,6.71595
181,-6.55952,0.0,0.0,-5.38297,0.0,0.0,-6.5562,-2.86543,13.69413,17.39012,5.68739,-6.57111,-17.19866,-3.09121,-0.00044,-7.84847,0.02421,-2e-05,37.18042,8.12436,7.15583,1.73846,1.68051,-14.07045,15.24043,14.50391,-18.7431,16.4783,-15.87731,23.62961,27.10092,0.00351,-96.64243,20.65189,0.00066,89.45447,-3.79109,3.54109,0.00076,-6.6792,3.83762,0.00193,7.77436,0.84489,7.63971,-14.52994,-2.13436,7.38543,-1.60404,0.95241,6.79372
182,-6.70073,0.0,-0.0,-5.53623,0.0,0.0,-6.30723,-3.17,13.86751,17.31799,5.94346,-6.57027,-17.42473,-2.98644,-0.00016,-7.76278,0.06688,6e-05,37.41197,8.09748,7.20932,1.85619,1.55996,-13.99894,16.22629,14.48609,-19.56946,17.55841,-15.74441,24.55013,27.69254,0.00238,-96.01821,20.69819,-0.00061,89.57683,-3.96494,4.26627,-0.00146,-7.36015,3.24022,-0.00033,7.79829,0.89178,7.64447,-14.50512,-2.09279,7.40764,-1.67813,0.88687,6.94387
183,-6.4014,-0.0,0.0,-5.57254,0.0,-0.0,-6.20735,-3.32253,13.9615,17.21157,5.93952,-6.53026,-17.63403,-2.96897,7e-05,-7.66921,0.11446,6e-05,37.67586,8.1377,7.31081,2.03141,1.44051,-13.95239,17.32889,14.52211,-20.6681,18.63161,-15.5464,25.19264,28.34653,0.00095,-95.24566,20.92683,-0.0036,90.16618,-4.26595,4.25286,0.00025,-7.74924,2.55691,-0.00122,7.88238,0.96839,7.65083,-14.41967,-2.02433,7.44262,-1.70399,0.78179,7.11464
184,-5.56913,0.0,0.0,-5.08238,-0.0,-0.0,-6.30702,-3.27766,13.87732,16.99294,5.70152,-6.3665,-17.80335,-3.00884,1e-05,-7.5652,0.11659,-5e-05,37.85929,8.22277,7.48962,2.15564,1.36428,-14.02193,18.33286,14.56182,-21.65031,19.70067,-15.3113,25.62726,29.26398,0.00537,-94.50229,21.42008,-0.00443,90.7656,-4.45795,3.79502,0.00066,-7.98821,1.84502,-0.00066,8.01189,0.9569,7.70437,-14.28766,-2.05527,7.48781,-1.77791,0.70031,7.25885
185,-4.24854,0.0,0.0,-4.26576,-0.0,-0.0,-6.50771,-3.10827,13.68404,16.69203,5.52573,-6.11011,-17.96548,-3.0736,0.00011,-7.46119,0.05244,-0.00014,37.92142,8.30174,7.7076,2.14847,1.33676,-14.23569,19.11271,14.56549,-22.27379,20.74648,-15.09962,26.12947,30.47672,0.00762,-93.8404,22.2323,-0.00019,90.97915,-4.45431,3.37251,0.00014,-8.18459,1.35157,-0.00058,8.09851,0.7814,7.86939,-14.19527,-2.28025,7.57396,-1.95552,0.69919,7.3221
186,-2.81638,0.0,-0.0,-3.83353,0.0,-0.0,-6.62708,-2.85068,13.55005,16.47265,5.66547,-5.85009,-18.20793,-3.185,0.0006,-7.3722,-0.03551,-0.0001,37.97573,8.36588,7.87854,2.06186,1.32824,-14.49414,19.68289,14.57636,-22.61441,21.72731,-14.9524,26.91289,31.95408,-0.00088,-92.92728,23.36691,0.00544,90.70889,-4.35841,3.28953,0.00027,-8.24448,1.2363,-0.00129,8.12061,0.49318,8.15655,-14.16323,-2.65584,7.73047,-2.17549,0.75979,7.31008
187,-1.75873,0.0,-0.0,-4.20189,-0.0,-0.0,-6.56155,-2.54688,13.5364,16.45243,6.01467,-5.65251,-18.5782,-3.32469,0.00072,-7.29722,-0.0637,4e-05,38.1433,8.44403,8.00097,1.99951,1.30418,-14.63106,20.21036,14.65306,-22.93259,22.66443,-14.83927,27.99925,33.57439,-0.01101,-91.48286,24.73434,0.00519,90.15174,-4.3794,3.55241,-0.00012,-8.04595,1.28795,-0.00211,8.15973,0.23469,8.46313,-14.11298,-3.01126,7.91639,-2.35912,0.80574,7.3019
188,-1.24454,0.0,-0.0,-4.98355,-0.0,-0.0,-6.36701,-2.30153,13.53085,16.54587,6.22789,-5.52317,-19.00458,-3.39858,-5e-05,-7.22227,0.01006,0.00016,38.41753,8.53117,8.16498,2.01511,1.24047,-14.60351,20.89565,14.7813,-23.40614,23.64395,-14.68894,29.34724,35.16353,-0.01296,-89.63919,26.225,-0.0005,89.57439,-4.63312,3.96643,-0.00096,-7.80757,1.19086,-0.00194,8.2873,0.12215,8.64373,-13.97811,-3.18385,8.04106,-2.49261,0.77533,7.36037
189,-1.02425,-0.0,0.0,-5.38585,0.0,-0.0,-6.16147,-2.23074,13.43462,16.55644,6.1299,-5.41029,-19.37936,-3.36774,-0.00066,-7.13789,0.1219,0.0001,38.69789,8.60592,8.40834,2.08859,1.14497,-14.53963,21.81949,14.91131,-24.07304,24.72655,-14.47263,30.9341,36.63852,-0.01068,-87.73647,27.79239,-0.00418,89.05174,-5.05965,4.38076,-0.00142,-7.95512,0.91299,0.00028,8.49441,0.17255,8.64815,-13.76971,-3.13887,8.06428,-2.61815,0.66335,7.48733
190,-0.75201,-0.0,-0.0,-5.10447,0.0,-0.0,-5.99083,-2.35632,13.3613,16.41548,5.88303,-5.29744,-19.69543,-3.33978,-0.00022,-7.03897,0.16929,-6e-05,38.92071,8.68187,8.60061,2.16169,1.057,-14.54415,22.88646,15.02966,-24.89052,25.89058,-14.23721,32.64319,38.09456,-0.00815,-86.14321,29.42107,-0.00179,88.46243,-5.50592,4.82369,-0.00116,-8.55386,0.6031,0.00149,8.73292,0.28609,8.56431,-13.53339,-3.00204,8.02966,-2.77483,0.51718,7.65606
191,-0.37586,0.0,0.0,-4.55744,-0.0,-0.0,-5.82206,-2.52557,13.50544,16.23347,5.74036,-5.24439,-20.03818,-3.43782,0.0007,-6.92118,0.14536,-0.00012,39.12824,8.76215,8.57799,2.20565,0.98038,-14.5826,23.8782,15.14451,-25.70738,27.0479,-14.05553,34.2382,39.75338,-0.0011,-85.20816,31.0971,0.00387,87.68166,-5.75527,5.35622,0.00075,-9.20302,0.30513,0.00057,8.96957,0.30265,8.51751,-13.29891,-2.96898,7.99258,-2.93609,0.39101,7.84541
192,-0.12882,0.0,0.0,-4.18111,-0.0,0.0,-5.63069,-2.46824,13.79436,16.10125,5.79015,-5.25562,-20.47189,-3.62256,0.00088,-6.79628,0.13675,0.0,39.39565,8.80324,8.43491,2.25038,0.85279,-14.60601,24.62881,15.25467,-26.31394,28.11982,-13.93693,35.55141,41.75172,0.0134,-85.10352,32.829,0.00604,86.7582,-5.61474,5.83417,0.002,-9.52976,-0.01618,-0.00065,9.18819,0.15767,8.55665,-13.08113,-3.11798,7.97383,-3.02587,0.28937,8.04054
193,-0.20339,0.0,0.0,-4.1268,-0.0,0.0,-5.40934,-2.07735,13.95956,16.02738,5.95618,-5.26942,-20.9844,-3.76705,0.00032,-6.70499,0.19684,7e-05,39.72564,8.78458,8.43122,2.33602,0.63038,-14.59401,25.17208,15.37053,-26.62855,29.10897,-13.79999,36.63741,43.9897,0.02442,-85.70251,34.63027,0.00281,85.91313,-5.15732,5.94452,-0.00035,-9.50797,-0.3071,-0.00044,9.36157,-0.04269,8.66099,-12.90648,-3.34293,7.9945,-3.00269,0.17388,8.21111
194,-0.46951,0.0,-0.0,-4.46947,-0.0,-0.0,-5.12846,-1.63111,13.93575,16.04127,6.11634,-5.28486,-21.51925,-3.83237,-3e-05,-6.6882,0.28445,2e-05,40.0119,8.74652,8.63827,2.42034,0.35386,-14.49451,25.64684,15.52,-26.74642,30.07308,-13.57958,37.71221,46.27505,0.01636,-86.55533,36.49674,0.00231,85.28394,-4.73992,5.54821,-0.00153,-9.28336,-0.53923,0.00026,9.4582,-0.16506,8.82277,-12.80395,-3.51748,8.09804,-2.93528,0.01767,8.32749
195,-0.54381,0.0,-0.0,-4.97985,0.0,-0.0,-4.7775,-1.50618,13.83259,16.13771,6.21929,-5.29325,-22.03097,-3.836,-0.00015,-6.7406,0.32794,2e-05,40.13913,8.71388,8.96994,2.40119,0.08948,-14.34467,26.11884,15.70971,-26.78958,31.05499,-13.32722,38.96857,48.54033,-0.00588,-87.09721,38.42368,0.00711,84.80589,-4.65449,4.88009,0.0004,-8.95272,-0.92218,-0.00086,9.50399,-0.2017,9.06978,-12.74551,-3.64494,8.31319,-2.95326,-0.17444,8.39186
196,-0.25029,0.0,0.0,-5.20449,-0.0,0.0,-4.38076,-1.71439,13.69338,16.22962,6.29708,-5.20513,-22.52613,-3.7794,-0.00018,-6.81953,0.31015,4e-05,40.17481,8.65381,9.34882,2.29292,-0.14288,-14.31257,26.61221,15.90968,-26.80042,32.079,-13.12826,40.42302,50.82087,-0.01651,-87.16522,40.40589,0.00495,84.51591,-4.83342,4.32218,0.00018,-8.58667,-1.68197,-0.0026,9.60354,-0.21887,9.40424,-12.62749,-3.78743,8.6169,-3.07541,-0.38384,8.40811
197,0.11409,-0.0,-0.0,-5.09514,0.0,-0.0,-3.94345,-1.95804,13.56752,16.28887,6.36282,-5.02858,-23.05467,-3.69209,0.00014,-6.9061,0.27428,-5e-05,40.33987,8.53737,9.64768,2.25744,-0.35802,-14.43704,27.23161,16.07618,-26.80555,33.14331,-12.98856,41.88045,53.09172,-0.00438,-87.1403,42.44677,-0.00808,84.65241,-4.91992,4.06988,-0.00151,-8.27248,-2.65549,-0.00252,9.83263,-0.24382,9.74797,-12.37894,-3.94051,8.92637,-3.17269,-0.59712,8.37758
198,0.13074,0.0,0.0,-4.87394,-0.0,-0.0,-3.44812,-2.01388,13.54071,16.37025,6.40001,-4.93556,-23.64773,-3.60557,0.00037,-7.04204,0.26349,-0.00025,40.72606,8.37122,9.78564,2.40409,-0.5876,-14.5377,28.09832,16.17643,-26.92949,34.16957,-12.90047,43.06941,55.22169,0.00929,-87.3433,44.59966,-0.01603,85.22972,-4.58145,4.12743,0.00079,-8.10141,-3.3973,-0.0018,10.11712,-0.28164,9.95622,-12.08293,-4.05423,9.10532,-3.1306,-0.82346,8.37529
199,-0.25254,-0.0,0.0,-4.50631,-0.0,0.0,-2.90048,-1.89456,13.58218,16.48334,6.46057,-5.03824,-24.27583,-3.48847,2e-05,-7.29468,0.26986,-0.00035,41.19075,8.15375,9.89304,2.6842,-0.88113,-14.4815,29.18828,16.21713,-27.36575,35.05897,-12.92006,43.89553,57.11355,0.00512,-87.59983,46.91025,-0.007,85.85902,-3.80826,4.51439,0.0069,-8.21238,-3.71457,-0.0017,10.29367,-0.36437,9.90381,-11.91178,-4.11102,9.02533,-2.95827,-1.094,8.53526
200,-0.68065,-0.0,0.0,-3.90866,0.0,0.0,-2.34585,-1.73899,13.57922,16.58659,6.65494,-5.24205,-24.87551,-3.30247,-0.0004,-7.69388,0.24454,-0.00014,41.5462,7.85656,10.13839,2.98565,-1.27155,-14.35167,30.32966,16.25484,-28.20418,35.83599,-13.07949,44.55083,58.88108,-0.00947,-87.61343,49.28424,0.00656,86.18671,-3.02089,5.24923,0.0074,-8.71751,-3.90972,0.00097,10.30136,-0.50655,9.58791,-11.92661,-4.12321,8.67823,-2.75864,-1.42491,8.90026
201,-0.78519,0.0,0.0,-3.25693,-0.0,0.0,-1.84166,-1.62455,13.47259,16.67497,7.00425,-5.37641,-25.41167,-3.06234,-0.00053,-8.22014,0.1474,0.00013,41.73017,7.46096,10.51468,3.23247,-1.73041,-14.32026,31.35478,16.35351,-29.32206,36.63671,-13.31903,45.30065,60.80923,-0.01676,-87.46059,51.5287,0.00531,86.28211,-2.80718,6.15789,-0.00125,-9.49823,-4.41181,0.00596,10.2435,-0.66196,9.13382,-12.01426,-4.09517,8.19789,-2.64555,-1.78698,9.35515
202,-0.56289,0.0,-0.0,-2.76496,-0.0,-0.0,-1.4004,-1.5275,13.28763,16.79112,7.35458,-5.42907,-25.90823,-2.81271,-0.00047,-8.83418,-0.02382,-0.00023,41.78576,7.00013,10.8857,3.39457,-2.17199,-14.42745,32.21746,16.53322,-30.46019,37.53282,-13.57564,46.21712,63.06515,-0.00747,-87.52236,53.56161,-0.00682,86.41164,-3.35375,6.91914,-0.00649,-10.22198,-5.29725,0.00565,10.24071,-0.75634,8.66626,-12.04443,-4.00532,7.7283,-2.66335,-2.1262,9.74409
203,-0.2999,-0.0,-0.0,-2.47707,-0.0,-0.0,-0.97081,-1.44102,13.13569,16.9689,7.52687,-5.58136,-26.41305,-2.60791,-0.00012,-9.52015,-0.24847,-0.00138,41.76717,6.55942,11.11133,3.48828,-2.51245,-14.51888,32.96861,16.77404,-31.38202,38.45344,-13.87258,47.19637,65.5262,0.0112,-88.11395,55.51473,-0.00955,86.55837,-4.19715,7.33027,-0.00301,-10.61222,-6.29352,-0.00013,10.29091,-0.73343,8.19379,-12.01734,-3.80488,7.29888,-2.76743,-2.41285,10.0149
204,-0.20176,0.0,0.0,-2.30277,0.0,0.0,-0.50446,-1.36597,13.11288,17.17941,7.53689,-5.92972,-26.94762,-2.49094,0.00047,-10.34494,-0.5296,-0.00226,41.71546,6.21965,11.1513,3.61476,-2.73487,-14.4677,33.63842,17.06181,-31.98046,39.28016,-14.29444,48.14396,67.98101,0.02143,-89.21934,57.62831,0.00596,86.40186,-4.68555,7.43521,0.00082,-10.67142,-7.13818,-0.00356,10.29551,-0.58224,7.66415,-12.03413,-3.46389,6.8655,-2.86821,-2.67022,10.23393
205,-0.23847,0.0,-0.0,-2.10933,-0.0,-0.0,-0.00766,-1.25149,13.1665,17.36012,7.52755,-6.33197,-27.50077,-2.45212,0.00074,-11.45625,-0.89891,-0.00198,41.65616,5.98473,11.09021,3.91485,-2.90234,-14.32748,34.18045,17.41935,-32.32223,39.95726,-14.92164,49.07064,70.40411,0.01331,-90.44835,60.04796,0.02288,85.79116,-4.59824,7.40972,0.00144,-10.67925,-7.75753,-0.00225,10.16372,-0.35653,7.09237,-12.1864,-3.03779,6.42173,-2.89856,-2.95497,10.49413
206,-0.24442,0.0,-0.0,-1.84544,0.0,-0.0,0.48772,-1.08906,13.16598,17.4982,7.54858,-6.67653,-28.04719,-2.42651,0.00028,-12.99319,-1.36035,-0.00058,41.56247,5.78302,11.04057,4.44597,-3.09508,-14.13299,34.55382,17.89364,-32.61573,40.52701,-15.78958,50.06197,72.92117,-0.00494,-91.32964,62.68053,0.01697,85.04149,-4.29126,7.35898,0.00122,-10.92686,-8.11512,-0.00051,9.86769,-0.16784,6.55021,-12.50132,-2.65705,5.99159,-2.86273,-3.29117,10.83423
207,-0.06023,0.0,-0.0,-1.51883,0.0,-0.0,0.95291,-0.92215,13.03013,17.60869,7.59589,-7.08863,-28.54873,-2.34069,-0.00055,-15.03636,-1.88393,0.00245,41.38464,5.53844,11.06023,5.19115,-3.32668,-13.79373,34.82129,18.50278,-33.04412,41.09101,-16.87444,51.15335,75.5629,-0.01258,-91.74069,65.25018,-0.00697,84.6319,-4.38502,7.27327,0.00174,-11.35727,-8.12476,-0.00034,9.44453,-0.10175,6.0566,-12.94239,-2.40801,5.5599,-2.81235,-3.62301,11.20403
208,0.34365,0.0,0.0,-1.06046,0.0,-0.0,1.35652,-0.7627,12.79756,17.63783,7.72549,-7.75543,-28.95243,-2.20129,-0.00076,-17.6466,-2.44076,0.00659,41.11811,5.20521,11.08565,6.16383,-3.55295,-13.26663,35.12614,19.18599,-33.5927,41.72234,-18.11332,52.23119,78.16457,0.00074,-91.97709,67.51865,-0.01903,84.65581,-5.25453,7.18192,0.00159,-11.55045,-7.84169,0.00082,8.98801,-0.10527,5.58455,-13.41579,-2.23141,5.12175,-2.79678,-3.86575,11.46172
209,0.88939,0.0,0.0,-0.3401,-0.0,-0.0,1.67997,-0.64439,12.66639,17.41708,7.92871,-8.68128,-29.2253,-2.1416,-0.00015,-20.88451,-2.97547,0.0065,40.77192,4.78246,10.90815,7.39606,-3.74888,-12.59176,35.57401,19.83777,-34.09915,42.40636,-19.44087,53.1436,80.53506,0.01387,-92.24589,69.4277,-0.00517,84.63897,-6.62582,7.21387,-0.00053,-11.14695,-7.57113,6e-05,8.6062,-0.02982,5.16718,-13.81031,-2.00255,4.76442,-2.86173,-3.98296,11.46687
210,1.48179,-0.0,0.0,0.68803,0.0,0.0,1.94699,-0.62055,12.7968,16.68705,8.04683,-9.65345,-29.3911,-2.27801,0.00039,-24.75297,-3.39301,-0.00188,40.32779,4.34313,10.37558,8.8821,-3.91502,-11.80773,36.12565,20.42083,-34.45621,43.06779,-20.81463,53.88996,82.67313,0.00444,-92.21107,71.02386,0.01343,84.10657,-7.75852,7.48091,-0.00065,-10.24163,-7.61948,-0.00473,8.33259,0.17839,4.87819,-14.09036,-1.69986,4.57659,-3.02219,-3.9713,11.22804
211,1.95231,0.0,-0.0,1.81542,0.0,0.0,2.21926,-0.63868,13.04159,15.22434,7.88915,-10.44203,-29.49481,-2.53147,0.00041,-29.16903,-3.65249,-0.01139,39.77685,3.98873,9.62152,10.61285,-4.02611,-11.00254,36.58376,21.0141,-34.67727,43.64075,-22.23582,54.6021,84.76254,-0.01373,-91.49088,72.31445,0.01164,83.37564,-8.21794,7.99624,0.0017,-9.33787,-7.9947,-0.00586,8.09626,0.40889,4.70179,-14.32964,-1.4195,4.50143,-3.21643,-3.82472,10.89646
212,2.07811,0.0,0.0,2.51734,0.0,-0.0,2.56452,-0.62018,13.09689,13.02492,7.3647,-11.05919,-29.54911,-2.71741,0.00017,-34.05584,-3.83558,-0.0097,39.12056,3.75492,8.93564,12.60676,-4.02701,-10.32082,36.73674,21.72276,-34.79256,44.1235,-23.74495,55.39389,86.97072,-0.01772,-90.32973,73.24574,-0.00106,83.20223,-8.24997,8.69693,0.00157,-8.87574,-8.51278,-0.00175,7.81906,0.52283,4.52587,-14.61104,-1.24706,4.38226,-3.38243,-3.55819,10.58153
213,1.79429,0.0,0.0,2.24583,0.0,0.0,3.02584,-0.62753,12.8307,10.38422,6.59938,-11.73785,-29.57685,-2.76734,4e-05,-39.40937,-4.06775,0.00609,38.36207,3.60524,8.45646,14.87264,-3.87503,-9.85668,36.58806,22.56354,-34.7925,44.58342,-25.37938,56.29739,89.29773,-0.01175,-89.21098,73.80613,-0.00517,83.69724,-8.28223,9.43318,-0.00054,-8.8757,-9.05118,0.00177,7.52492,0.49356,4.28064,-14.9124,-1.18053,4.14437,-3.56266,-3.21316,10.23754
214,1.28515,0.0,-0.0,0.93326,0.0,0.0,3.57931,-0.77487,12.26841,7.85555,5.864,-12.60918,-29.67136,-2.74758,-3e-05,-45.20255,-4.38256,0.02523,37.56046,3.51018,8.13619,17.37458,-3.56853,-9.61449,36.42397,23.46011,-34.69781,45.0765,-27.14868,57.24812,91.59125,-0.00691,-88.31054,74.11815,-0.00346,84.41999,-8.48206,9.92019,-6e-05,-9.09476,-9.44504,0.00234,7.31961,0.41455,4.01697,-15.12537,-1.15291,3.87045,-3.84288,-2.82101,9.76754
215,0.82156,0.0,0.0,-0.81432,0.0,0.0,4.12008,-1.0593,11.42173,6.07335,5.22609,-13.54223,-29.92954,-2.71913,-0.00023,-51.2902,-4.66838,0.03248,36.83363,3.48247,7.94047,20.0567,-3.15694,-9.53263,36.591,24.34131,-34.60887,45.54803,-29.04337,58.08366,93.65897,-6e-05,-87.71693,74.36085,-0.00396,85.10757,-8.83279,9.90323,0.00264,-9.29074,-9.51332,0.00158,7.26235,0.41016,3.81673,-15.18772,-1.08051,3.68369,-4.20849,-2.40226,9.16018
216,0.5975,0.0,0.0,-2.12919,-0.0,0.0,4.55018,-1.36886,10.3211,5.40432,4.48852,-14.35407,-30.35198,-2.6892,-0.00043,-57.47647,-4.71475,0.01799,36.27095,3.52402,7.90072,22.8884,-2.75167,-9.49639,37.19564,25.19345,-34.61036,45.85549,-31.02813,58.64507,95.3869,0.00884,-87.61026,74.55405,-0.00692,85.53535,-9.1229,9.47602,0.00223,-9.29095,-9.5171,-0.00039,7.27742,0.53165,3.65506,-15.17576,-0.9065,3.58065,-4.5342,-1.9943,8.45599
217,0.868,0.0,0.0,-2.6338,-0.0,0.0,4.86345,-1.60211,9.154,5.7421,3.60083,-15.0464,-30.86445,-2.68377,-0.00011,-63.62941,-4.30676,-0.01454,35.86613,3.59709,7.94389,25.85601,-2.48778,-9.35045,38.05332,25.99432,-34.65858,45.90218,-33.02896,58.91391,96.7558,0.01282,-87.99872,74.48043,-0.00911,85.56411,-8.9761,9.12168,0.00012,-9.07561,-10.08503,-0.00459,7.1948,0.71864,3.4043,-15.26328,-0.6379,3.42033,-4.71922,-1.62864,7.66212
218,2.09664,0.0,0.0,-2.62975,0.0,0.0,5.07973,-1.69782,8.16728,6.67695,2.79388,-15.74835,-31.38625,-2.75871,0.00054,-69.69019,-3.39078,-0.04018,35.54998,3.68804,7.89601,28.96275,-2.41268,-8.99025,38.89196,26.68974,-34.63356,45.73721,-34.96182,59.03734,97.78145,0.00962,-88.59075,73.87901,-0.00128,85.7364,-8.37412,9.39664,0.00092,-8.81496,-11.42899,-0.00684,6.87559,0.85518,2.99489,-15.59094,-0.35531,3.09418,-4.75559,-1.28356,6.80129
219,4.44362,0.0,0.0,-2.41127,-0.0,0.0,5.19754,-1.59773,7.38375,7.76709,2.19204,-16.47966,-31.84787,-2.90552,0.00051,-75.60293,-2.19502,-0.03514,35.24797,3.84007,7.73916,32.24126,-2.44633,-8.49693,39.53012,27.31115,-34.47301,45.5256,-36.79401,59.21607,98.54525,0.00031,-88.8915,72.73302,0.01719,86.79669,-7.79536,10.53278,-0.00198,-8.66479,-12.96757,-0.00711,6.31622,0.86516,2.51866,-16.15943,-0.16408,2.65796,-4.68906,-0.89905,5.97088
220,7.15689,0.0,-0.0,-1.85551,0.0,-0.0,5.30385,-1.35543,6.63522,8.71815,1.59018,-17.08705,-32.20902,-3.04203,-0.00013,-81.27513,-1.06029,-0.01055,34.8672,4.07131,7.61564,35.66593,-2.50323,-8.09322,39.93246,28.03027,-34.22306,45.40508,-38.57302,59.54238,99.23251,-0.0136,-88.39574,71.38678,0.02437,88.8444,-7.4848,12.2206,-0.00508,-8.58574,-13.69842,-0.00703,5.63994,0.77331,2.12326,-16.84229,-0.0978,2.25752,-4.63434,-0.43815,5.24043
221,9.30205,0.0,0.0,-0.99687,0.0,-0.0,5.53295,-1.18785,5.89296,9.55021,0.68906,-17.42021,-32.48993,-3.14164,-0.00025,-86.6002,-0.13683,0.00275,34.32534,4.32195,7.50679,39.10367,-2.59616,-7.93768,40.21461,28.99735,-34.00933,45.3671,-40.37165,59.95195,99.98471,-0.02025,-87.1833,70.32859,0.00694,91.46581,-7.18628,13.80933,-0.00188,-8.42493,-12.82506,-0.00044,4.98876,0.67551,1.86038,-17.49724,-0.08764,1.97724,-4.74847,0.08822,4.54037
222,10.92461,-0.0,-0.0,-0.48014,0.0,0.0,5.86865,-1.26486,5.31707,10.59492,-0.55163,-17.4711,-32.76279,-3.26879,0.00045,-91.48917,0.64143,-0.00092,33.65859,4.54303,7.16877,42.44238,-2.75237,-8.0415,40.55142,30.17559,-33.96357,45.26477,-42.2019,60.29914,100.74292,-0.00677,-86.45438,69.77341,-0.01586,94.17239,-6.91904,14.78626,0.00076,-8.10298,-10.31251,0.0108,4.4334,0.63477,1.691,-18.05476,-0.0605,1.80517,-5.06182,0.65522,3.75525
223,12.55978,0.0,-0.0,-0.94935,0.0,0.0,6.21852,-1.55059,4.95384,12.1006,-1.79354,-17.32597,-33.10769,-3.42567,0.00088,-95.89958,1.27717,0.00275,33.00891,4.7731,6.50418,45.72967,-2.89393,-8.39175,41.02293,31.40706,-34.11834,44.93325,-44.00632,60.42429,101.3283,0.00935,-87.61246,69.45427,-0.01826,96.64725,-7.28125,15.01146,0.00688,-7.65752,-7.16576,0.01404,3.97927,0.6388,1.57641,-18.51023,-0.01294,1.70084,-5.42559,1.24726,2.90796
224,14.19775,0.0,-0.0,-2.28375,-0.0,-0.0,6.57895,-1.85244,4.5805,13.86468,-2.57099,-17.06477,-33.54355,-3.47194,-7e-05,-99.87127,1.60062,0.02135,32.45732,5.03822,5.79604,49.14395,-2.93032,-8.99849,41.60787,32.58961,-34.38346,44.36123,-45.72968,60.25351,101.60725,0.00696,-90.39455,68.86221,-0.00288,98.78188,-8.43108,14.64632,0.01415,-7.10239,-5.01871,0.00446,3.61872,0.66329,1.49857,-18.87165,0.03946,1.63829,-5.70535,1.81552,2.15431
225,15.52178,-0.0,0.0,-3.66412,0.0,-0.0,6.94167,-1.95692,3.90798,15.38974,-2.71428,-16.67397,-33.97341,-3.27412,-0.00123,-103.50906,1.64954,0.02392,31.90367,5.23001,5.43109,52.80684,-2.96723,-9.65091,42.30691,33.73392,-34.66824,43.74713,-47.36827,59.93319,101.54268,-0.00024,-92.88504,67.69455,0.0061,100.55379,-9.47101,14.06593,0.00818,-6.42181,-4.96017,-0.0107,3.34967,0.70791,1.40456,-19.14173,0.11664,1.56851,-5.95587,2.25276,1.58306
226,16.38056,0.0,0.0,-4.04561,-0.0,-0.0,7.2518,-1.82964,2.87841,16.30648,-2.54108,-15.99361,-34.25508,-2.88476,-0.00101,-106.87224,1.88408,-0.00451,31.14771,5.22372,5.45969,56.63186,-3.23908,-9.88805,43.1298,34.91385,-34.94478,43.34034,-48.94532,59.7695,101.21137,0.00212,-93.71825,66.04438,-0.00352,101.90698,-9.51356,13.66055,-0.00175,-5.6878,-6.71869,-0.01676,3.17617,0.76443,1.18298,-19.31749,0.25363,1.38542,-6.35743,2.49895,1.11156
227,16.5992,-0.0,0.0,-2.76856,0.0,-0.0,7.56026,-1.69037,1.76477,16.66881,-2.52209,-14.91216,-34.3575,-2.5507,-0.00039,-109.86495,2.60022,-0.02729,30.09542,5.13209,5.49777,60.4133,-3.76926,-9.60929,43.96104,36.22013,-35.1413,43.22913,-50.46399,59.91711,100.80734,0.00408,-93.30219,64.20397,-0.00985,102.98985,-8.82167,13.49884,-0.00276,-4.94097,-9.09492,-0.01165,3.1046,0.81612,0.76015,-19.39257,0.46314,1.01458,-7.01798,2.68374,0.61507
228,16.13693,0.0,0.0,-0.35149,0.0,-0.0,7.9937,-1.72734,0.95702,16.96382,-2.72049,-13.64862,-34.39485,-2.54225,-3e-05,-112.30032,3.43436,-0.01714,28.87006,5.27156,5.10007,64.06194,-4.29709,-9.39254,44.61912,37.6988,-35.1577,43.2725,-51.91335,60.18449,100.51066,0.00014,-92.9031,62.41587,0.0064,104.43861,-8.49391,13.28377,0.00607,-4.08242,-10.96831,-0.00279,3.10497,0.87941,0.21153,-19.39528,0.73153,0.53196,-7.84886,3.03867,0.08172
229,15.43384,0.0,0.0,1.69894,-0.0,-0.0,8.58899,-1.83923,0.61145,17.67241,-2.8058,-12.61281,-34.5167,-2.92589,0.00107,-114.10709,3.83036,0.00447,27.70337,5.80151,4.19886,67.67159,-4.59287,-9.81821,45.09043,39.27856,-35.07418,43.20831,-53.3326,60.25075,100.31218,-0.00246,-93.15714,60.82153,0.02285,106.70705,-9.29124,12.78636,0.01934,-3.09005,-11.88473,0.00586,3.11686,0.99126,-0.30128,-19.38513,1.0311,0.101,-8.64588,3.63476,-0.41656
230,14.94512,0.0,0.0,2.43304,0.0,-0.0,9.31141,-1.87231,0.52321,18.78902,-2.65227,-11.98937,-34.81579,-3.48864,0.00195,-115.40931,3.69385,0.01261,26.69178,6.55649,3.11301,71.3203,-4.69958,-10.80593,45.5569,40.79338,-35.13068,42.84098,-54.8221,59.99936,100.02075,0.00218,-93.49591,59.47709,0.01576,109.28307,-10.88571,12.2696,0.01706,-2.19532,-12.00539,0.00836,3.1404,1.14995,-0.69779,-19.36271,1.32944,-0.20458,-9.32597,4.34429,-0.84597
231,14.82835,0.0,-0.0,2.30682,-0.0,0.0,10.091,-1.87841,0.34938,19.94025,-2.51326,-11.62503,-35.29808,-3.91126,0.00063,-116.3868,3.40135,0.00711,25.69989,7.29219,2.22174,74.90563,-4.82841,-11.78276,46.14849,42.10614,-35.41039,42.18436,-56.42776,59.5682,99.45249,0.01106,-93.17791,58.31323,-0.00525,111.16187,-12.30166,12.25003,0.00287,-1.683,-11.72323,0.0037,3.24598,1.32383,-1.0078,-19.25819,1.60869,-0.42444,-10.02802,5.04452,-1.23028
232,15.22994,0.0,0.0,2.29043,-0.0,0.0,10.80136,-1.96246,-0.02501,20.85267,-2.59565,-11.31955,-35.89723,-4.05012,-0.00142,-117.11093,3.39221,-0.00044,24.53556,7.96378,1.66718,78.26441,-5.08371,-12.26622,46.7649,43.2174,-35.71008,41.45991,-58.04677,59.20288,98.63885,0.00983,-92.5265,57.16505,-0.01904,111.91839,-12.96559,12.78247,-0.00159,-1.57883,-11.26906,-0.00117,3.45518,1.49463,-1.24672,-19.05016,1.85791,-0.5798,-10.94035,5.7324,-1.56926
233,16.1401,0.0,-0.0,2.64823,-0.0,0.0,11.38687,-2.10354,-0.39114,21.58225,-2.81948,-11.11659,-36.54782,-4.03459,-0.00158,-117.53274,3.80692,-0.00147,23.15163,8.71407,1.29074,81.35526,-5.37177,-12.26687,47.18307,44.24496,-35.77692,40.91138,-59.53173,59.09299,97.84261,-0.00115,-92.47683,55.91996,-0.01496,112.03508,-13.04821,13.28904,0.00119,-1.62424,-10.58575,-0.00116,3.69649,1.6424,-1.36795,-18.81029,2.04081,-0.63522,-12.10074,6.46985,-1.80474
234,17.25766,0.0,-0.0,2.75821,0.0,-0.0,11.94217,-2.21734,-0.56306,22.35843,-2.90359,-11.23748,-37.24613,-4.05309,-0.0006,-117.61304,4.38243,0.00204,21.62717,9.64216,0.84855,84.24294,-5.61175,-12.20733,47.27154,45.29018,-35.54263,40.56764,-60.85786,59.17996,97.32307,-0.00569,-93.46925,54.59879,0.00128,112.24391,-12.99288,13.15582,0.00448,-1.53584,-9.62928,0.00209,3.88536,1.75144,-1.3733,-18.62292,2.14359,-0.5984,-13.42925,7.29199,-1.91504
235,18.41192,0.0,0.0,1.95283,0.0,-0.0,12.5371,-2.32539,-0.62768,23.24687,-2.56823,-11.7608,-38.01925,-4.15263,-0.00036,-117.42641,4.65739,0.00213,20.00464,10.6434,0.21055,86.98041,-5.9369,-12.45264,47.02672,46.38484,-35.06513,40.22353,-62.08598,59.13322,97.1384,-0.00145,-95.2868,53.26806,0.01507,112.80738,-13.00051,12.29151,0.00572,-1.23992,-8.67347,0.00187,3.95794,1.86695,-1.36589,-18.55206,2.24747,-0.5473,-14.89139,8.15515,-2.03251
236,19.7142,0.0,-0.0,0.29396,0.0,0.0,13.08159,-2.5492,-0.76207,24.04778,-1.79848,-12.50693,-38.84993,-4.29898,-0.00061,-117.08268,4.37157,-0.00448,18.25633,11.5119,-0.60952,89.58792,-6.53481,-12.94184,46.47197,47.55756,-34.3737,39.69709,-63.20413,58.69707,97.19427,0.00259,-97.33205,51.9267,0.0151,113.36038,-12.86985,11.15013,0.00082,-0.75192,-8.06648,-0.00168,3.85205,2.05235,-1.44329,-18.66057,2.44836,-0.54777,-16.49765,8.93371,-2.36002
237,21.32686,0.0,0.0,-1.52101,0.0,-0.0,13.43825,-2.83709,-0.97496,24.54236,-0.92635,-13.24621,-39.65769,-4.52865,0.00057,-116.56092,3.75359,-0.0141,16.4013,12.15228,-1.51223,92.10835,-7.33957,-13.26412,45.68516,48.82354,-33.53545,39.03958,-64.14892,58.00893,97.37164,0.0023,-98.99381,50.51871,0.00337,113.3015,-12.32537,10.29352,-0.0041,0.08488,-7.77871,-0.00021,3.55465,2.26826,-1.60703,-18.96107,2.71047,-0.61632,-18.17738,9.4848,-2.91158
238,23.14813,0.0,-0.0,-2.69794,0.0,0.0,13.6372,-2.91396,-1.10635,24.68345,-0.37746,-13.78698,-40.39074,-4.92279,0.00263,-115.70588,3.42282,-0.01626,14.54686,12.65899,-2.39916,94.58485,-8.06775,-12.99467,44.85656,50.11609,-32.75056,38.39571,-64.95486,57.37888,97.57921,0.00058,-100.17096,49.0364,-0.00897,112.39399,-11.44501,9.96933,-0.00279,1.33498,-7.39465,0.00869,3.15242,2.39648,-1.7694,-19.36497,2.89104,-0.7172,-19.78993,9.77896,-3.44951
239,24.53451,0.0,-0.0,-2.76493,0.0,-0.0,13.93315,-2.67566,-1.1352,24.54947,-0.22291,-13.85035,-41.12312,-5.35429,0.00131,-114.40213,3.95222,-0.00186,12.80183,13.2264,-3.07146,96.98522,-8.53815,-11.91952,44.06771,51.34599,-32.10851,37.73996,-65.74652,56.86024,97.78159,-0.00031,-101.13918,47.5886,-0.01844,110.70728,-10.50502,10.14291,0.00223,2.48264,-6.46522,0.00795,2.76471,2.39869,-1.81946,-19.75248,2.91223,-0.76262,-21.24086,9.98194,-3.74206
240,24.94356,0.0,0.0,-1.75072,0.0,0.0,14.53742,-2.37098,-1.26395,24.251,-0.08393,-13.18463,-41.98174,-5.51208,-0.00429,-112.6651,5.44779,0.02365,11.19792,13.99973,-3.27753,99.21471,-8.81377,-10.11602,43.08337,52.51267,-31.35743,36.90737,-66.5995,56.2662,97.97965,-0.00161,-101.89745,46.32957,-0.01929,108.43886,-9.63454,10.82481,0.00763,2.73526,-4.92277,-0.01415,2.4285,2.37279,-1.74117,-20.08858,2.85835,-0.7002,-22.52159,10.35207,-3.76691
241,24.73206,0.0,0.0,0.04858,-0.0,0.0,15.36768,-2.26578,-1.47044,23.84501,0.34676,-11.92564,-42.99554,-5.35928,-0.00715,-110.53497,7.48669,0.04489,9.71353,14.99743,-3.12279,101.21224,-9.02469,-7.98853,41.65135,53.68208,-30.22301,35.79856,-67.48143,55.45358,98.09728,-0.00316,-102.19344,45.28728,-0.00351,106.43085,-8.98869,12.16681,0.00455,1.97681,-3.33325,-0.02599,2.09382,2.4443,-1.64461,-20.42504,2.88747,-0.58355,-23.65371,11.00268,-3.60059
242,24.50435,0.0,0.0,2.35855,-0.0,0.0,16.19674,-2.36818,-1.35662,23.3252,0.98298,-10.63727,-44.09716,-5.2369,-0.00259,-107.98937,9.34979,0.04185,8.34729,16.12205,-3.04462,103.00302,-9.16786,-6.19,39.93863,54.85947,-28.85861,34.36148,-68.33756,54.31555,97.95016,-0.00221,-101.98732,44.34523,0.01801,105.80634,-8.83763,14.04488,-0.00878,1.12957,-2.50471,-0.01458,1.72646,2.63603,-1.64447,-20.79622,3.06452,-0.50988,-24.63771,11.78133,-3.23797
243,24.49014,0.0,0.0,4.7761,0.0,0.0,16.86817,-2.5582,-0.66841,22.74194,1.68988,-9.84165,-45.23935,-5.40855,0.0041,-105.05328,10.28387,0.00189,7.12837,17.22803,-3.30291,104.63998,-9.18545,-5.39646,38.44507,55.92462,-27.74073,32.41167,-69.21331,52.64991,97.41004,0.00097,-101.44891,43.45061,0.02328,106.56362,-9.11822,15.72063,-0.01237,1.22762,-2.64745,-0.01041,1.37542,2.84626,-1.7836,-21.15125,3.31195,-0.55779,-25.47793,12.44784,-2.64429
244,24.98348,0.0,-0.0,6.79584,-0.0,0.0,17.30129,-2.75695,0.32387,22.23367,2.54004,-9.60139,-46.44422,-5.7793,0.0064,-101.92396,9.90075,-0.0463,6.06204,18.22309,-3.81344,106.11449,-9.16986,-5.89879,37.56,56.70862,-27.23488,29.69456,-70.23039,50.36227,96.54771,0.00409,-100.7199,42.71379,0.01013,107.57579,-9.3775,16.35053,-0.00566,2.19041,-3.17611,-0.01007,1.12353,2.96746,-2.06359,-21.40467,3.53104,-0.77003,-26.22249,12.93936,-1.91685
245,26.22447,0.0,0.0,8.38776,0.0,0.0,17.51239,-2.88557,1.09855,21.86903,3.59144,-9.69809,-47.74991,-6.08241,0.00371,-98.83298,8.59412,-0.05347,5.08323,19.09632,-4.36261,107.32673,-9.2922,-7.23263,37.29325,57.14965,-27.38401,26.09195,-71.43184,47.60626,95.56679,0.00684,-99.81204,42.26528,-0.0021,108.08425,-9.34763,15.915,-0.00362,2.95525,-3.43519,-0.00466,0.97465,3.02308,-2.45024,-21.55248,3.73035,-1.10605,-26.94021,13.35809,-1.25847
246,27.83801,0.0,0.0,10.12096,-0.0,0.0,17.62329,-2.87286,1.41181,21.5251,4.68388,-10.05074,-49.14193,-6.14934,-0.00074,-95.80283,7.31034,-0.01507,4.08046,19.82973,-4.7656,108.16238,-9.53931,-8.4196,37.24178,57.37389,-27.88842,21.65229,-72.71516,44.4784,94.68132,0.00644,-98.76189,42.13289,-0.00608,108.32804,-9.12912,15.31209,-0.00264,2.81277,-3.37205,-0.00172,0.83044,3.11827,-2.84068,-21.69583,3.96765,-1.43045,-27.65329,13.74973,-0.80514
247,29.21652,0.0,0.0,12.37761,-0.0,0.0,17.73588,-2.78965,1.43871,21.06958,5.58178,-10.71963,-50.54341,-5.95226,-0.00433,-92.67442,6.69028,0.02628,2.96794,20.35318,-4.90012,108.59242,-9.72159,-8.81043,36.73178,57.61743,-28.16865,16.64452,-73.91623,40.96819,94.09119,0.00207,-97.93046,42.2303,-0.00722,108.75271,-8.79785,15.36633,0.00228,2.11523,-3.32747,0.00056,0.60115,3.26486,-3.07658,-21.92674,4.19328,-1.59227,-28.32747,14.03722,-0.57054
248,30.1713,0.0,0.0,14.82608,0.0,0.0,17.8709,-2.81346,1.46792,20.63997,6.21198,-11.6768,-51.85579,-5.55392,-0.00495,-89.3354,6.55463,0.03118,1.69916,20.62133,-4.77216,108.63987,-9.73581,-8.64739,35.24517,58.05273,-27.71274,11.68713,-74.9293,37.42578,93.91396,0.00106,-97.77149,42.36345,-0.00626,109.37851,-8.24947,16.0416,0.00708,1.61666,-3.38699,0.00158,0.27201,3.36836,-3.03304,-22.25926,4.27223,-1.51223,-28.93452,14.1489,-0.52516
249,30.88532,0.0,0.0,16.99033,0.0,0.0,18.02834,-3.03814,1.63462,20.49799,6.49204,-12.78422,-52.98258,-5.11842,-0.00173,-85.80399,6.35588,0.00739,0.26651,20.67441,-4.59304,108.328,-9.66745,-8.64054,32.87056,58.65921,-26.53512,7.46992,-75.74997,34.57383,94.02325,0.00337,-98.20982,42.28131,0.00097,110.17371,-7.48952,16.72614,0.00435,1.58591,-3.33019,0.0016,-0.16586,3.37293,-2.7152,-22.70017,4.15486,-1.21661,-29.43287,14.09384,-0.64565
250,31.7007,0.0,0.0,18.84239,0.0,-0.0,18.19233,-3.37565,1.85856,20.60643,6.09984,-13.91297,-53.8261,-4.77125,0.00156,-82.09505,5.89988,-0.01145,-1.29221,20.62495,-4.56296,107.65694,-9.63114,-9.12875,30.25432,59.26802,-25.19382,4.18369,-76.42596,32.81811,94.07194,0.0027,-98.72164,41.83645,0.0145,111.41422,-6.7574,16.97514,-0.00209,1.70751,-3.11574,0.00098,-0.75806,3.31365,-2.26227,-23.29385,3.92682,-0.82072,-29.7375,13.9324,-0.87975
251,32.83297,0.0,0.0,20.32345,-0.0,0.0,18.35058,-3.62576,1.91524,20.59197,5.01482,-14.90847,-54.3335,-4.42617,0.002,-78.09212,5.34865,-0.01704,-2.95594,20.60787,-4.59216,106.53334,-9.61888,-9.88986,27.99423,59.71285,-24.24823,1.2691,-77.02121,31.67663,93.81059,-0.00104,-99.09747,41.18467,0.02078,113.15173,-6.29954,16.86511,-0.00356,1.59874,-2.96652,0.00049,-1.51072,3.26062,-1.86911,-24.04686,3.7274,-0.47774,-29.84272,13.74987,-1.12011
252,33.89424,0.0,-0.0,20.97201,0.0,0.0,18.59683,-3.68011,1.67663,20.05014,3.99313,-15.36422,-54.5611,-3.96971,0.00124,-73.57423,4.85865,-0.01459,-4.71867,20.6929,-4.50762,104.83464,-9.54596,-10.49912,26.09323,59.92096,-23.73873,-2.42897,-77.61407,29.77845,93.34647,-0.00425,-99.49306,40.77266,0.01259,114.86055,-6.16206,16.71547,-0.00119,1.34366,-2.97434,0.00186,-2.35541,3.2765,-1.70308,-24.89238,3.67854,-0.31822,-29.8418,13.6238,-1.27377
253,34.18502,0.0,0.0,20.73134,0.0,0.0,19.0785,-3.65366,1.22784,18.77912,3.88263,-14.69332,-54.61917,-3.4661,0.00086,-68.36237,4.5505,0.00052,-6.49204,20.84077,-4.32235,102.59139,-9.40122,-10.59703,24.06772,59.92086,-23.23915,-8.13721,-78.24138,25.59044,93.00827,-0.00455,-99.71656,41.00169,0.0026,116.09434,-6.18202,16.53113,0.00074,1.40322,-2.91773,0.00586,-3.22143,3.36922,-1.82895,-25.76043,3.81234,-0.3989,-29.73175,13.57382,-1.36664
254,33.64747,0.0,-0.0,20.3072,-0.0,0.0,19.7921,-3.76369,0.7046,16.96309,4.84812,-12.75865,-54.55892,-3.07108,0.00075,-62.5279,4.50473,0.01965,-8.09695,20.99096,-4.17465,100.00146,-9.33255,-10.05928,21.53112,59.78577,-22.32413,-16.36186,-78.81528,18.5535,92.96994,-0.00514,-99.38687,41.90959,-0.00676,117.05933,-6.17005,15.98654,0.00065,1.8416,-2.50612,0.00877,-4.05931,3.46236,-2.17807,-26.59949,4.03195,-0.68576,-29.35718,13.58184,-1.57247
255,33.04311,-0.0,0.0,20.24556,0.0,0.0,20.53903,-4.11266,0.19437,15.21634,6.49904,-10.32528,-54.36985,-2.94,7e-05,-56.48592,4.61848,0.02326,-9.37824,21.142,-4.24489,97.27818,-9.56367,-9.03716,18.58922,59.56443,-20.93388,-26.41901,-79.14149,9.55623,93.07197,-0.00469,-98.69397,43.21111,-0.01827,118.23518,-5.93154,15.13019,0.00053,2.00715,-1.69899,0.00075,-4.81625,3.47546,-2.62931,-27.3541,4.2167,-1.09781,-28.58783,13.6205,-2.12744
256,33.1327,-0.0,-0.0,20.67477,-0.0,0.0,21.1007,-4.62165,-0.25392,14.22107,8.14255,-8.66673,-54.04753,-3.12425,-0.00096,-50.76664,4.68409,0.01317,-10.33531,21.25892,-4.59111,94.54266,-10.17472,-7.71835,15.66087,59.28894,-19.34925,-36.79842,-79.0334,0.26389,93.0271,-0.00129,-98.09366,44.57307,-0.02068,119.60677,-5.17064,14.66271,0.00901,1.25256,-0.75909,-0.0114,-5.49958,3.42774,-3.11843,-28.03169,4.35975,-1.56837,-27.45699,13.56618,-3.17901
257,33.93976,0.0,-0.0,21.965,-0.0,0.0,21.4209,-5.11493,-0.65276,14.25374,8.83638,-8.67214,-53.60958,-3.47781,-0.00121,-45.64134,4.56296,0.00129,-11.15628,21.21233,-4.95728,91.82946,-10.95866,-6.23339,12.98642,58.99915,-17.86359,-46.10032,-78.44115,-7.92898,92.73985,0.00404,-97.46608,45.82595,-0.00818,120.4917,-3.88678,15.12292,0.01884,-0.39152,-0.0347,-0.01034,-6.22534,3.4119,-3.62984,-28.75078,4.54071,-2.04742,-26.14881,13.18677,-4.64234
258,34.85283,0.0,-0.0,24.44158,-0.0,-0.0,21.61352,-5.42247,-1.07327,15.06499,8.03056,-10.17575,-53.08968,-3.82428,-0.00087,-41.05062,4.18975,-0.00983,-12.04702,20.93974,-4.98099,89.17644,-11.56385,-4.87583,10.4175,58.68872,-16.50196,-53.90117,-77.51602,-14.63629,92.39934,0.00653,-96.31244,46.99966,0.00827,120.23505,-2.7481,16.08797,0.00777,-2.36493,0.27622,0.00152,-7.10329,3.48019,-4.1048,-29.62369,4.7854,-2.46058,-24.87572,12.36792,-6.19814
259,35.35392,0.0,0.0,27.64102,0.0,-0.0,21.78719,-5.47279,-1.63117,16.15491,6.3973,-12.1031,-52.56731,-4.11938,-0.0005,-36.89859,3.55279,-0.01797,-12.972,20.53799,-4.54839,86.73421,-11.81116,-4.0372,7.65543,58.2901,-15.05136,-60.58982,-76.48413,-20.30026,92.32004,0.00145,-94.69368,48.21143,0.01554,118.91854,-2.57961,16.47849,0.0021,-4.02798,0.19048,0.00914,-8.10309,3.59606,-4.43939,-30.62149,5.02034,-2.72565,-23.70716,11.2507,-7.53339
260,35.49787,0.0,0.0,30.59444,0.0,-0.0,21.90308,-5.34075,-2.44272,17.06748,5.3928,-13.42105,-52.1635,-4.36729,-3e-05,-33.24357,2.75509,-0.01676,-13.67431,20.10185,-3.7911,84.72775,-11.78837,-3.7382,4.5986,57.78266,-13.33406,-66.3726,-75.45699,-25.24012,92.69557,-0.0024,-93.30649,49.49982,0.01147,117.14765,-3.53678,15.50066,0.02899,-4.91841,-0.16823,0.00672,-9.07589,3.69442,-4.6043,-31.59457,5.17423,-2.84046,-22.56846,10.01657,-8.55396
261,35.65774,0.0,0.0,32.48848,0.0,-0.0,21.85586,-5.16283,-3.50098,17.40999,5.83087,-13.92507,-51.96554,-4.56027,0.00036,-30.12299,2.03642,-0.00628,-13.97903,19.59853,-2.94008,83.20549,-11.67988,-3.47423,1.48674,57.25093,-11.44016,-70.99612,-74.40037,-29.28156,93.41495,9e-05,-92.50587,50.78535,0.0041,115.37098,-4.94146,13.29678,0.04236,-4.88585,-0.71176,-0.00163,-9.85098,3.75607,-4.69582,-32.37006,5.26615,-2.90147,-21.44844,8.67827,-9.32508
262,36.08682,0.0,0.0,32.77417,0.0,-0.0,21.61514,-5.04366,-4.62585,17.04329,7.2609,-14.14004,-51.96556,-4.73209,0.00046,-27.33978,1.64544,0.00406,-13.95762,18.98213,-2.3154,81.87114,-11.65793,-2.69713,-1.19455,56.7886,-9.73169,-74.32179,-73.19938,-32.26387,94.06758,0.00362,-91.93255,51.99493,0.00036,113.73557,-5.86873,10.93079,0.01593,-4.12247,-1.42029,-0.00988,-10.27783,3.80902,-4.82555,-32.79623,5.36464,-3.0012,-20.49804,7.21488,-9.94792
263,36.69364,-0.0,0.0,31.00449,0.0,0.0,21.24494,-5.1097,-5.5701,16.32729,8.7062,-14.6553,-52.07196,-4.95754,0.00041,-24.51461,1.63571,0.00519,-13.78433,18.32755,-2.23311,80.29262,-11.87,-1.36779,-2.95677,56.39274,-8.65114,-76.56605,-71.75703,-34.32599,94.20319,0.00487,-91.36841,53.11484,0.00108,112.30885,-5.92333,9.56753,-0.00554,-3.06223,-2.21432,-0.01145,-10.25549,3.87356,-5.01594,-32.77231,5.49701,-3.15265,-19.87578,5.76446,-10.52155
264,37.03725,0.0,0.0,27.2195,0.0,-0.0,20.87681,-5.48981,-6.1823,15.65723,9.61178,-15.56834,-52.17857,-5.28128,0.00021,-21.30694,1.8565,-0.00042,-13.53886,17.75808,-2.73458,78.28539,-12.37776,0.00274,-3.62003,55.94581,-8.41198,-77.9975,-70.15675,-35.60367,93.68623,-0.00259,-91.2477,54.07758,0.00451,111.03999,-5.52468,9.42803,-0.00538,-2.23835,-2.88415,-0.00546,-9.80861,3.91698,-5.2042,-32.32296,5.60904,-3.31026,-19.58737,4.5373,-11.11415
265,36.799,0.0,-0.0,22.60328,-0.0,0.0,20.65411,-6.11575,-6.50784,14.7863,9.94132,-16.50873,-52.2277,-5.6541,-9e-05,-17.61469,2.21353,0.0021,-13.20556,17.31225,-3.47366,75.99624,-13.12445,0.80753,-3.46225,55.26823,-8.77593,-78.78828,-68.6873,-36.08406,92.78577,-0.01152,-91.91454,54.71238,0.00566,109.51759,-5.37341,9.71293,-0.00104,-2.09376,-3.32445,0.00141,-9.1119,3.88881,-5.27298,-31.62366,5.60929,-3.3848,-19.54592,3.63612,-11.7513
266,36.16859,0.0,0.0,18.77426,0.0,-0.0,20.65065,-6.70082,-6.72108,13.04591,9.76426,-17.15575,-52.21721,-5.94411,-0.00018,-13.66466,2.78011,0.01541,-12.81623,16.95533,-3.99115,73.64532,-14.01315,0.82642,-2.96006,54.24379,-9.25438,-79.06176,-67.58676,-35.79131,91.88524,-0.00656,-92.96149,54.85618,-0.00552,107.20457,-5.72719,9.57373,0.00558,-2.82793,-3.66915,0.00613,-8.39146,3.82204,-5.1114,-30.90434,5.48589,-3.26086,-19.73331,3.05039,-12.43135
267,35.52093,0.0,-0.0,16.22974,0.0,0.0,20.8784,-6.9481,-6.94818,10.16074,9.18712,-17.46723,-52.17994,-6.04221,-3e-05,-9.9212,3.54191,0.01971,-12.48694,16.65273,-4.09269,71.34273,-14.98733,0.27998,-2.33802,52.92862,-9.62598,-78.82064,-66.79247,-34.86388,91.13358,0.00742,-93.61161,54.46172,-0.02439,104.27442,-6.35316,8.96356,0.00939,-4.31101,-4.01096,0.00642,-7.81904,3.83872,-4.73512,-30.3403,5.35752,-2.90607,-20.21977,2.72183,-13.12233
268,35.14053,0.0,0.0,14.22072,0.0,0.0,21.32417,-6.67616,-7.18567,6.51275,8.48075,-17.36714,-52.14956,-5.9604,7e-05,-6.82413,4.2646,0.00787,-12.29291,16.37206,-3.9063,69.16475,-16.02245,-0.49904,-1.46752,51.51535,-10.10949,-77.9399,-66.01562,-33.50129,90.4036,0.01209,-93.64977,53.63394,-0.03036,101.77172,-7.00921,8.46492,0.00517,-5.95867,-4.31239,0.00138,-7.48493,4.02904,-4.3224,-30.02045,5.37555,-2.45082,-21.04005,2.54705,-13.75551
269,35.17227,0.0,-0.0,11.74769,0.0,0.0,21.92133,-5.9344,-7.36048,2.7208,7.97039,-16.62976,-52.11009,-5.82621,-3e-05,-4.61217,4.73907,-0.00515,-12.19763,16.05976,-3.66581,67.25966,-17.06934,-1.35254,-0.20117,50.18646,-10.96756,-76.40024,-65.04124,-31.9642,89.54031,-0.00192,-93.83681,52.58646,-0.0181,100.75927,-7.7307,8.44386,-0.00279,-6.89057,-4.66155,-0.0056,-7.38503,4.37808,-4.07958,-29.93711,5.60508,-2.0917,-22.11538,2.3902,-14.25561
270,35.34087,-0.0,-0.0,8.25204,-0.0,0.0,22.54972,-5.13447,-7.40267,-0.75393,7.94904,-15.29338,-52.00291,-5.7912,-0.00045,-3.42349,4.98542,-0.01158,-12.10189,15.64123,-3.56229,65.83929,-18.04522,-2.23971,1.33707,48.99768,-12.09926,-74.39888,-63.92797,-30.49492,88.52911,-0.01405,-94.74921,51.47845,0.00461,101.83237,-8.53061,8.79811,-0.00926,-6.5643,-5.15954,-0.01107,-7.4234,4.78537,-4.08047,-29.99132,5.98155,-1.93546,-23.27673,2.13983,-14.6166
271,34.99894,0.0,-0.0,3.81254,-0.0,0.0,23.12776,-4.80743,-7.28673,-3.60841,8.48318,-13.86513,-51.81974,-5.89094,-0.00076,-3.43827,5.14888,-0.01586,-11.89178,15.06175,-3.68183,65.08708,-18.87267,-3.01476,2.86125,47.88633,-13.12818,-72.16593,-62.92723,-29.13697,87.41074,-0.00264,-95.67965,50.29786,0.02797,105.00004,-9.06003,9.50708,-0.00872,-5.19643,-5.62908,-0.00731,-7.48525,5.10089,-4.24108,-30.06413,6.33431,-1.96225,-24.33573,1.77332,-14.9331
272,33.82361,0.0,-0.0,-1.21669,-0.0,-0.0,23.67207,-5.03581,-7.05468,-5.43713,9.13716,-12.89857,-51.64413,-5.96175,-0.00031,-4.81321,5.24476,-0.01396,-11.4777,14.35221,-3.90441,65.03075,-19.44818,-3.46662,4.23809,46.77147,-13.8242,-69.81379,-62.2244,-27.73611,86.19255,0.01241,-95.86559,48.96978,0.03469,109.38672,-8.90061,10.75718,0.00525,-3.48283,-5.86607,0.00127,-7.5079,5.1959,-4.41252,-30.08856,6.4876,-2.08419,-25.18551,1.38016,-15.28928
273,32.37326,0.0,0.0,-6.43982,0.0,0.0,24.1811,-5.29451,-6.74978,-5.79948,9.44284,-12.59986,-51.55944,-5.79713,0.00024,-7.55796,5.07519,0.00602,-10.80754,13.58487,-3.98532,65.56794,-19.62719,-3.49347,5.56835,45.62992,-14.29316,-67.34994,-61.80157,-26.13094,84.92319,0.0071,-95.76361,47.5008,0.0206,113.66835,-7.9173,12.42218,0.02494,-2.07579,-5.95879,0.00408,-7.46847,5.05896,-4.47172,-30.04235,6.3838,-2.19188,-25.82242,1.06702,-15.6454
274,31.48493,0.0,-0.0,-10.83095,0.0,0.0,24.54193,-5.11825,-6.31483,-4.82145,9.5771,-12.94154,-51.57812,-5.39675,0.00019,-11.52153,4.51828,0.02956,-9.86993,12.75776,-3.85335,66.59557,-19.38145,-3.07283,6.97411,44.467,-14.78089,-64.75138,-61.57166,-24.29116,83.74477,-0.00535,-96.09026,45.93292,0.00522,117.0462,-6.41239,13.91794,0.02713,-1.29241,-6.03129,0.00302,-7.34206,4.79674,-4.34842,-29.90675,6.09451,-2.17902,-26.28583,0.853,-15.90078
275,31.16892,0.0,0.0,-12.86447,-0.0,0.0,24.66985,-4.7106,-5.67354,-3.38415,9.9218,-13.82156,-51.68097,-4.90498,-0.00036,-16.41755,3.81782,0.0229,-8.76035,11.85517,-3.63823,67.939,-18.89475,-2.28949,8.42928,43.25857,-15.43973,-62.0014,-61.54174,-22.27075,82.77517,-0.00601,-96.75368,44.26885,4e-05,119.40334,-5.31494,14.66448,0.01518,-1.09292,-5.92622,0.00122,-7.10671,4.52282,-4.02716,-29.66501,5.7187,-1.9874,-26.66336,0.73236,-16.03044
276,30.78425,0.0,0.0,-12.18285,0.0,0.0,24.6382,-4.5216,-4.91927,-2.39896,10.32621,-14.88617,-51.83776,-4.37546,-0.00099,-21.87836,3.34353,-0.00579,-7.62314,10.9916,-3.42671,69.31538,-18.3966,-1.52278,9.82179,42.00608,-16.27292,-59.06941,-61.71962,-20.08872,81.97216,0.00222,-97.19988,42.52956,-0.00155,120.80677,-5.51335,14.63189,0.01161,-1.28203,-5.43373,-0.00143,-6.7823,4.28675,-3.57096,-29.33742,5.32622,-1.65636,-27.03236,0.74717,-16.10122
277,29.92007,0.0,-0.0,-10.47291,-0.0,-0.0,24.60143,-4.55688,-4.24346,-2.0574,10.40433,-15.57179,-51.96817,-3.82567,-0.00106,-27.57225,3.13248,-0.01152,-6.48005,10.36613,-3.25368,70.54296,-17.93995,-1.33578,11.09774,40.80767,-17.2268,-55.97864,-61.93692,-17.76165,81.19969,0.00678,-97.21786,40.79844,-0.0045,121.28971,-6.76495,14.36661,0.00557,-1.74537,-4.70266,-0.00251,-6.44203,4.10749,-3.12437,-28.99539,4.98983,-1.3124,-27.31487,0.91431,-16.13304
278,28.42017,-0.0,0.0,-9.67672,0.0,-0.0,24.68437,-4.52768,-3.67151,-1.91462,10.10574,-15.5866,-51.94028,-3.39082,-0.00103,-33.26636,2.94067,0.01064,-5.30517,10.10917,-3.19168,71.5905,-17.36751,-2.01304,12.27518,39.76626,-18.28112,-52.93358,-61.9666,-15.43285,80.44181,0.0018,-97.22638,39.16451,-0.00879,120.91393,-8.13997,14.2486,-0.00446,-2.47589,-4.13347,-0.00026,-6.16542,3.98395,-2.81989,-28.71718,4.75925,-1.07844,-27.36176,1.18801,-15.98833
279,26.31992,0.0,0.0,-9.84085,0.0,0.0,24.91823,-4.36744,-3.04994,-1.51988,9.66498,-15.16456,-51.64593,-3.16405,-0.00158,-38.8161,2.71753,0.01508,-4.14364,10.16778,-3.19992,72.50565,-16.51229,-3.21937,13.34081,38.8769,-19.37731,-50.16949,-61.80398,-13.30039,79.84026,-0.00397,-97.60492,37.68275,-0.01395,119.75824,-9.27278,14.00673,-0.00353,-3.43284,-3.89868,0.00138,-5.98104,3.85754,-2.66007,-28.52994,4.58136,-0.97933,-27.11691,1.49408,-15.51798
280,24.17798,0.0,0.0,-9.76376,0.0,0.0,25.19525,-4.21419,-2.25734,-0.75318,9.25642,-14.81545,-51.07923,-3.00742,-0.00122,-44.17455,2.72245,-0.01684,-3.00752,10.27571,-3.06607,73.41944,-15.41517,-4.23566,14.22793,38.07087,-20.33543,-47.65614,-61.65167,-11.43863,79.46687,-0.00321,-98.00668,36.40577,-0.01446,118.001,-10.44877,13.25572,0.0087,-4.45107,-3.84203,-0.00155,-5.8706,3.65693,-2.54009,-28.41426,4.35018,-0.94558,-26.59146,1.72011,-14.80544
281,22.6363,0.0,-0.0,-8.88535,-0.0,-0.0,25.34314,-4.09565,-1.28281,0.27312,8.80559,-14.86323,-50.3124,-2.7068,0.00062,-49.37236,3.06023,-0.04182,-1.8748,10.12677,-2.68898,74.36949,-14.2813,-4.7096,14.90567,37.28682,-20.98723,-45.20497,-61.64048,-9.86934,79.18555,0.00181,-97.79111,35.42578,-0.00621,116.07288,-11.88465,12.06564,0.01706,-5.23134,-3.75617,-0.00538,-5.8079,3.39376,-2.37608,-28.34518,4.04435,-0.89513,-25.85653,1.76559,-14.12382
282,21.80774,0.0,0.0,-7.68749,0.0,-0.0,25.21178,-3.92989,-0.16473,1.40152,8.16015,-15.28452,-49.40812,-2.22155,0.00159,-54.44497,3.37591,-0.01903,-0.76328,9.63345,-2.26006,75.19022,-13.23878,-5.00163,15.38918,36.47563,-21.31233,-42.79107,-61.7044,-8.70253,78.82024,0.00667,-96.84557,34.85253,0.00336,114.67558,-13.29821,10.85419,0.00821,-5.3607,-3.45001,-0.00072,-5.76054,3.15919,-2.16015,-28.2929,3.74509,-0.78566,-25.02999,1.642,-13.65203
283,21.43828,-0.0,-0.0,-6.94961,-0.0,0.0,24.70968,-3.72963,1.00871,2.55571,7.37328,-15.95674,-48.41225,-1.65982,0.00063,-59.38003,3.23285,0.02946,0.34681,8.95677,-1.98015,75.74231,-12.2125,-5.63162,15.66537,35.62362,-21.35376,-40.55345,-61.71146,-8.00798,78.34994,0.00611,-95.69308,34.71304,0.00262,114.53854,-14.01302,10.08334,-0.0033,-4.5692,-2.70556,0.01571,-5.685,3.03121,-1.9266,-28.21534,3.53751,-0.61896,-24.14134,1.43047,-13.31733
284,21.24206,-0.0,0.0,-7.03173,0.0,0.0,23.87356,-3.56193,2.06099,3.7353,6.58962,-16.7753,-47.39121,-1.07815,-0.00024,-64.1326,2.67181,0.04691,1.52616,8.29199,-1.72262,76.05516,-11.06406,-6.62196,15.71781,34.78393,-21.14373,-38.54839,-61.61537,-7.56552,77.86858,0.00102,-94.95115,34.87323,-0.00397,115.63176,-13.53471,10.09353,0.0078,-3.18127,-1.49057,0.02452,-5.56876,3.01415,-1.73961,-28.09938,3.4502,-0.45271,-23.13048,1.15438,-12.91246
285,21.10392,0.0,0.0,-7.69222,-0.0,-0.0,22.84052,-3.34545,2.83001,4.92248,5.76776,-17.4954,-46.38842,-0.45107,0.00045,-68.68085,2.20633,0.01442,2.77874,7.67203,-1.22607,76.17628,-9.84133,-7.5146,15.62635,34.02172,-20.80544,-36.63487,-61.4974,-6.89327,77.46443,-0.00282,-94.9491,35.0823,-0.00475,116.77228,-12.1351,10.83808,0.02552,-2.05708,-0.11931,0.01018,-5.44836,3.05446,-1.67042,-27.9801,3.46095,-0.37329,-22.00468,0.77379,-12.34956
286,20.88901,0.0,-0.0,-8.3101,0.0,-0.0,21.7505,-2.93614,3.32256,6.01283,4.77188,-17.74245,-45.37263,0.20858,0.00205,-73.02094,2.24376,-0.0291,4.01504,6.99804,-0.49456,76.02292,-8.79436,-7.92532,15.53196,33.31837,-20.56466,-34.60149,-61.51463,-5.62398,77.21922,-0.00155,-95.71329,35.14722,-0.00339,116.74743,-10.74936,11.65444,0.01911,-1.81776,0.95745,-0.00647,-5.34136,3.094,-1.6928,-27.87396,3.50604,-0.3788,-20.88119,0.29997,-11.78615
287,20.28717,0.0,0.0,-8.31485,-0.0,0.0,20.69153,-2.40019,3.681,6.88472,3.67762,-17.32639,-44.27566,0.80788,0.00279,-77.13605,2.6525,-0.03923,5.1366,6.22335,0.21587,75.4423,-8.10822,-7.92976,15.45696,32.59705,-20.51213,-32.36508,-61.76728,-3.82047,77.23033,0.00183,-96.77565,35.09047,-0.00301,115.53877,-10.12141,11.78824,0.00589,-2.29872,1.4727,-0.00685,-5.21266,3.09973,-1.6562,-27.74549,3.49733,-0.34277,-19.88095,-0.16706,-11.4723
288,19.30027,0.0,0.0,-7.63041,0.0,0.0,19.66064,-2.00494,4.02506,7.54648,2.78265,-16.43894,-43.05873,1.2198,0.00152,-81.03535,2.9486,-0.01214,6.1445,5.42846,0.70423,74.42097,-7.70067,-7.89887,15.23841,31.85653,-20.45378,-30.02208,-62.19958,-1.86756,77.52934,-0.001,-97.23972,35.09068,-0.00208,114.0425,-10.10824,11.27235,0.00269,-2.8558,1.4311,-0.00147,-5.06673,3.03734,-1.43467,-27.59851,3.35493,-0.16203,-18.98062,-0.56249,-11.4934
289,18.32195,0.0,0.0,-6.58491,0.0,-0.0,18.63492,-1.9585,4.3553,8.1053,2.28679,-15.42512,-41.75687,1.367,-0.00059,-84.76275,2.78006,0.02238,7.20208,4.73203,1.0046,73.17682,-7.34659,-8.1339,14.70271,31.19857,-20.14239,-27.76434,-62.65335,-0.1531,78.01028,-0.00679,-96.67368,35.3111,-0.00329,113.03181,-10.01373,10.82645,0.00409,-2.98804,0.98869,-0.00179,-5.00899,2.88477,-1.05701,-27.53752,3.06949,0.12833,-17.96211,-0.95145,-11.71803
290,17.67902,0.0,0.0,-5.50356,-0.0,-0.0,17.64418,-2.26034,4.60028,8.63056,2.22704,-14.47054,-40.47367,1.25544,-0.00198,-88.30965,2.248,0.03119,8.45969,4.21452,1.25229,71.87601,-6.96144,-8.65033,13.87393,30.69513,-19.61374,-25.80305,-63.00238,1.10675,78.50105,-0.00575,-95.63182,35.85981,-0.00392,112.54801,-9.50388,10.89306,0.00703,-2.67133,0.40067,-0.00386,-5.13653,2.73084,-0.68687,-27.66138,2.78567,0.41122,-16.65846,-1.42851,-11.9611
291,17.46827,0.0,-0.0,-4.38415,0.0,0.0,16.71294,-2.77066,4.71564,9.06466,2.70874,-13.59527,-39.29259,0.93583,-0.00239,-91.56703,1.79952,0.01164,9.83882,3.90765,1.49206,70.36998,-6.65597,-9.19829,12.9938,30.29759,-19.17008,-24.27551,-63.22519,1.90311,78.88795,-0.00044,-94.95267,36.79381,0.00215,112.10548,-8.9236,11.18772,0.00544,-2.30342,0.00898,-0.00282,-5.40046,2.74313,-0.50475,-27.92493,2.72733,0.58416,-15.20032,-1.97302,-12.11007
292,17.49117,-0.0,-0.0,-2.72499,0.0,-0.0,15.84012,-3.28169,4.67667,9.17356,3.69797,-12.83863,-38.19012,0.49264,-0.0023,-94.39163,1.76081,-0.00864,11.17845,3.78807,1.74162,68.44872,-6.52247,-9.5368,12.35467,29.90476,-19.04478,-23.14612,-63.37143,2.36918,79.13979,0.00202,-95.00767,38.04397,0.01156,111.37292,-8.71182,11.23674,0.00214,-2.28335,0.00823,-0.00229,-5.6435,2.95031,-0.56546,-28.17215,2.94194,0.60755,-13.81337,-2.46999,-12.12899
293,17.42118,-0.0,0.0,-0.19305,0.0,0.0,14.99261,-3.52997,4.45037,8.6876,4.63987,-12.34083,-37.07865,0.03,-0.00181,-96.70475,2.08939,-0.0122,12.45855,3.78629,2.08434,66.15643,-6.47902,-9.64034,12.08725,29.48642,-19.19442,-22.22383,-63.49381,2.66912,79.25754,0.00058,-95.74368,39.424,0.01528,110.46439,-8.83164,11.02508,0.00091,-2.5524,0.24361,-0.00242,-5.76417,3.17413,-0.74253,-28.2981,3.21643,0.52988,-12.52351,-2.84664,-12.03075
294,17.0893,-0.0,0.0,2.32421,-0.0,0.0,14.09454,-3.40314,4.05001,7.59463,4.87432,-12.24882,-35.93779,-0.36385,-0.00025,-98.52373,2.58465,-0.00607,13.71173,3.82185,2.59319,63.65053,-6.32138,-9.56869,12.07367,29.12223,-19.42084,-21.28134,-63.61359,2.96826,79.27727,-0.00099,-96.95043,40.78111,0.00688,109.78461,-8.90629,10.91557,0.00097,-2.68557,0.43569,-0.00142,-5.78205,3.23197,-0.84342,-28.31758,3.30846,0.4589,-11.25207,-3.15116,-11.84446
295,16.57421,-0.0,0.0,3.15784,0.0,-0.0,13.09466,-3.09962,3.58858,6.23142,4.34309,-12.58357,-34.84157,-0.64836,0.00157,-99.90673,3.15762,-0.00187,14.85145,3.82546,3.22969,60.91496,-5.905,-9.26801,12.0625,28.90967,-19.60637,-20.21727,-63.72477,3.38559,79.30023,0.00052,-98.34702,42.08825,-0.0119,109.82279,-8.68122,11.08396,0.002,-2.45759,0.5358,-0.0003,-5.76621,3.12773,-0.78689,-28.29929,3.19054,0.47109,-10.04223,-3.50221,-11.58539
296,16.34232,-0.0,0.0,1.59649,0.0,0.0,12.0021,-2.85631,3.25278,5.09448,3.45842,-13.21858,-33.84092,-0.86128,0.00158,-100.87482,3.84956,-0.00134,15.743,3.74324,3.85591,57.79259,-5.30212,-8.63753,11.8757,28.82374,-19.78413,-19.15253,-63.83584,3.90626,79.4278,0.00272,-99.54517,43.37711,-0.02427,110.65787,-8.28212,11.29632,0.00173,-2.08588,0.67606,0.00039,-5.7759,3.03444,-0.65081,-28.30656,3.0523,0.56099,-9.0002,-3.97322,-11.25583
297,16.82231,0.0,0.0,-1.3734,-0.0,0.0,10.90219,-2.71137,3.22584,4.56009,2.56377,-14.032,-32.90582,-1.09616,-0.0006,-101.36968,4.65217,5e-05,16.38339,3.57163,4.35058,54.23325,-4.72325,-7.76175,11.51723,28.71134,-20.0097,-18.2894,-64.00309,4.43191,79.65694,0.00182,-100.10372,44.64351,-0.01349,111.53586,-8.06691,11.25592,0.00157,-1.87913,0.85884,0.00022,-5.84277,3.11087,-0.56526,-28.37465,3.09016,0.66934,-8.11017,-4.52098,-10.84377
298,17.43968,-0.0,0.0,-4.11622,-0.0,-0.0,9.99292,-2.63684,3.54536,4.66418,1.86524,-15.04467,-32.01501,-1.40112,-0.00251,-101.28123,5.40398,0.00268,16.89598,3.37754,4.73052,50.3699,-4.26107,-6.91821,11.1051,28.46952,-20.23326,-17.64137,-64.29042,4.94262,79.91324,-0.00109,-99.82217,45.85223,0.00849,111.49808,-8.13484,10.95251,0.00237,-1.89567,0.96818,-9e-05,-5.95516,3.32084,-0.57318,-28.49157,3.28713,0.74262,-7.26888,-5.02546,-10.3221
299,16.88084,0.0,-0.0,-5.70883,-0.0,-0.0,9.47969,-2.63055,3.96587,5.10989,1.52815,-16.27561,-31.22001,-1.6827,-0.00164,-100.5527,5.91828,0.00332,17.42385,3.22875,5.19602,46.41369,-3.81685,-6.30886,10.71533,28.17633,-20.33009,-16.9931,-64.69432,5.5482,80.1833,-0.00384,-98.86214,46.99984,0.01469,110.54431,-8.11626,10.62144,0.00194,-2.01051,1.04553,-0.00041,-6.07979,3.47009,-0.58979,-28.61963,3.43134,0.78459,-6.3995,-5.40812,-9.68653
300,14.89955,-0.0,0.0,-6.23653,-0.0,0.0,9.31095,-2.64306,4.16203,5.53637,1.60266,-17.48569,-30.57507,-1.79467,0.0006,-99.26155,6.15,0.00268,18.07834,3.11376,5.94722,42.55766,-3.29099,-5.89446,10.31055,27.98506,-20.2517,-16.20627,-65.12408,6.30941,80.52074,-0.00418,-97.65783,48.14854,0.00506,109.49695,-7.74193,10.49908,0.0019,-2.14302,1.21463,-0.00059,-6.22339,3.44549,-0.50173,-28.7622,3.37492,0.85647,-5.44421,-5.71025,-8.96419
301,12.85937,0.0,0.0,-6.2025,0.0,0.0,9.16172,-2.57896,4.11492,5.74316,2.02812,-18.28618,-30.07789,-1.7399,0.00151,-97.55829,6.15362,0.00316,18.90397,2.9576,6.91778,38.91527,-2.72657,-5.52679,9.82627,27.94221,-20.09981,-15.46439,-65.46422,7.05922,80.93193,-0.00085,-96.76674,49.38803,0.00042,108.74803,-7.33599,10.62923,0.00158,-2.35263,1.35968,0.00059,-6.44504,3.34296,-0.29345,-28.98028,3.20053,1.00946,-4.36427,-6.05585,-8.16058
302,11.87177,0.0,0.0,-5.96283,0.0,-0.0,8.82233,-2.36964,4.09974,5.68089,2.65477,-18.54095,-29.71538,-1.68783,0.00105,-95.52325,5.95973,0.00491,19.8802,2.71936,7.82691,35.5201,-2.21561,-5.11647,9.28602,27.98069,-20.01612,-15.01505,-65.66528,7.57941,81.36594,0.00185,-96.4218,50.72815,0.00294,108.08431,-7.38774,10.88408,-0.00054,-2.73565,1.24167,0.00326,-6.76342,3.32651,-0.07112,-29.29667,3.10029,1.20847,-3.18375,-6.53471,-7.23471
303,11.5522,-0.0,-0.0,-5.54821,-0.0,-0.0,8.43561,-2.03336,4.38193,5.39842,3.22618,-18.50015,-29.48366,-1.81051,0.00077,-93.0985,5.56485,0.0053,20.94485,2.45589,8.44848,32.34889,-1.75943,-4.65299,8.78555,28.0409,-20.04987,-14.76228,-65.76897,7.89295,81.80869,0.00054,-96.38092,52.04778,-0.00036,107.53144,-7.97744,11.19935,-0.00323,-3.21175,0.86598,0.00387,-7.07416,3.43521,0.0323,-29.60881,3.16112,1.34568,-1.98358,-7.11712,-6.13546
304,11.0095,0.0,0.0,-4.78681,-0.0,-0.0,8.2458,-1.66529,5.05883,5.04891,3.55942,-18.53618,-29.33317,-2.16282,0.00092,-90.13679,4.93983,0.00092,21.99081,2.26857,8.7245,29.29142,-1.30258,-4.23635,8.38196,28.107,-20.14089,-14.34325,-65.84802,8.20382,82.30142,-0.0025,-96.35117,53.19627,-0.00366,107.24294,-8.75213,11.62532,-0.00346,-3.48768,0.39576,0.00038,-7.22897,3.56307,-0.00527,-29.76672,3.29359,1.36008,-0.85217,-7.68334,-4.86146
305,10.23925,-0.0,-0.0,-3.68888,0.0,0.0,8.2264,-1.33583,6.05768,4.82908,3.67812,-18.82265,-29.15825,-2.71235,0.00027,-86.5013,4.0781,-0.00337,22.91862,2.22296,8.67234,26.1834,-0.84918,-4.06594,8.04018,28.1515,-20.18108,-13.50638,-65.93913,8.67704,82.87431,-0.0014,-96.35861,54.13309,0.00204,106.8967,-9.32842,12.02365,0.00104,-3.34396,-0.12265,-0.0042,-7.19279,3.59114,-0.07415,-29.73178,3.34587,1.30725,0.16715,-8.12026,-3.50083
306,9.97848,0.0,-0.0,-2.62363,0.0,-0.0,8.10253,-1.05653,7.15211,4.85877,3.6126,-19.26582,-28.86625,-3.41409,-0.00161,-82.14836,3.08477,-0.00029,23.71869,2.34941,8.36586,22.95128,-0.46167,-4.24673,7.68408,28.13491,-20.09233,-12.27913,-66.02867,9.34344,83.49907,0.00577,-96.77878,54.9501,0.00494,106.29214,-9.76133,12.08827,0.00694,-2.88528,-0.62573,-0.00508,-7.06749,3.51428,-0.08738,-29.60488,3.27994,1.26552,1.08732,-8.38103,-2.17194
307,10.24319,0.0,0.0,-1.93114,-0.0,-0.0,7.77894,-0.87438,8.04644,5.15762,3.33564,-19.71837,-28.45009,-4.19451,-0.00307,-77.1431,2.07046,-0.0019,24.43522,2.66573,8.09508,19.66897,-0.16707,-4.67072,7.28103,28.06493,-19.8502,-10.87574,-66.0779,10.06726,84.0938,0.00871,-97.64298,55.78589,-0.00477,105.99353,-10.24435,11.92267,0.01112,-2.38528,-0.86807,-0.00166,-6.97854,3.42146,-0.09015,-29.51394,3.19527,1.22734,1.93184,-8.49678,-0.88491
308,9.87131,-0.0,0.0,-1.58539,0.0,-0.0,7.54007,-0.86811,8.61323,5.69755,2.99273,-20.14928,-28.0224,-4.93307,-0.00219,-71.63155,0.98963,-0.02393,25.09448,3.1387,8.2594,16.46143,0.04935,-5.17335,6.88106,27.99469,-19.47551,-9.50858,-66.05679,10.6366,84.58056,0.00155,-98.05799,56.70665,-0.01299,106.37474,-10.44047,12.05515,0.01695,-1.94627,-0.69939,0.00171,-6.96504,3.35934,-0.17036,-29.49975,3.16858,1.12943,2.70139,-8.56306,0.47183
309,8.1168,0.0,0.0,-1.4181,0.0,-0.0,7.65414,-1.00725,9.08883,6.42153,2.87721,-20.54126,-27.76912,-5.54339,0.00025,-65.86656,-0.19588,-0.04524,25.74596,3.6306,8.87041,13.441,0.15244,-5.67379,6.56766,27.95688,-19.05609,-8.18543,-65.96745,11.02584,84.96559,-0.00452,-97.42631,57.60593,-0.00547,106.745,-10.01559,12.55692,0.02338,-1.46328,-0.32923,0.00216,-6.93411,3.28385,-0.34198,-29.46842,3.16451,0.94196,3.39026,-8.69379,1.96389
310,5.88669,0.0,-0.0,-1.41266,0.0,0.0,7.98178,-1.14197,9.84185,7.25997,3.12759,-20.7611,-27.80747,-6.01846,0.0019,-60.21349,-1.2416,-0.03046,26.50312,3.94189,9.45442,10.721,0.03345,-6.07313,6.36502,27.94134,-18.7052,-6.64063,-65.83771,11.5494,85.33188,-0.0016,-96.63141,58.25389,0.00403,106.36913,-9.55923,12.85552,0.02078,-0.93188,-0.12847,0.00019,-6.73017,3.17011,-0.5305,-29.26312,3.13158,0.72419,4.00816,-8.96765,3.48554
311,4.5862,0.0,-0.0,-1.57724,-0.0,-0.0,8.18911,-1.16617,10.84003,8.11279,3.61194,-20.61566,-28.09172,-6.34218,0.00145,-54.93573,-1.76374,0.00982,27.45333,3.9569,9.6897,8.36352,-0.37328,-6.23356,6.22823,27.91838,-18.45532,-4.5837,-65.68135,12.60714,85.72982,0.00465,-96.74238,58.54195,0.00475,105.63013,-9.87736,12.74289,0.01265,-0.592,-0.28757,-0.00022,-6.30251,3.08601,-0.61825,-28.8341,3.08748,0.61086,4.57654,-9.3838,4.82288
312,4.44984,0.0,-0.0,-1.77788,-0.0,0.0,8.15862,-1.0819,11.62647,8.8043,4.10312,-19.98186,-28.47329,-6.46229,-9e-05,-49.94731,-1.65853,0.03479,28.56291,3.74736,9.79615,6.30292,-0.97142,-6.18327,6.12105,27.84181,-18.24552,-2.04987,-65.46355,14.22185,86.13856,0.00776,-97.70979,58.65438,0.00312,105.37775,-10.74139,12.64866,0.00128,-0.61193,-0.72097,0.00141,-5.76681,3.11222,-0.5412,-28.29861,3.08221,0.69209,5.10135,-9.84126,5.82585
313,4.65037,0.0,-0.0,-1.84042,-0.0,-0.0,8.00881,-0.90111,11.93753,9.15723,4.49864,-18.85886,-28.84163,-6.41242,-0.00068,-44.9553,-1.20035,0.02687,29.73816,3.50696,10.08892,4.42314,-1.56177,-6.17694,6.04028,27.67691,-18.00233,0.64986,-65.11883,15.99805,86.54684,0.00757,-98.89569,58.90052,0.00065,105.80873,-11.26788,12.72888,-0.0051,-0.80534,-1.16018,0.00119,-5.26984,3.2333,-0.35543,-27.80316,3.12297,0.91014,5.56075,-10.20608,6.50902
314,4.44354,0.0,0.0,-1.58419,-0.0,0.0,7.873,-0.63579,12.00467,9.149,4.82209,-17.36675,-29.22476,-6.32664,8e-05,-39.87098,-0.72896,0.00356,30.95045,3.37111,10.54286,2.71198,-2.02779,-6.4689,5.97284,27.46589,-17.70717,3.30308,-64.59377,17.5867,86.97849,0.0026,-99.53059,59.39759,-0.00332,106.6635,-11.08709,12.69431,-0.0062,-0.87682,-1.28084,-0.0003,-4.84814,3.3277,-0.1573,-27.38209,3.13436,1.12934,5.93728,-10.44395,6.99008
315,3.89117,0.0,0.0,-0.77491,0.0,0.0,7.7642,-0.40315,12.2016,8.99287,5.04518,-15.84034,-29.72932,-6.28748,0.00101,-34.96298,-0.32907,-0.00574,32.24009,3.33403,10.96944,1.2715,-2.40584,-7.03645,5.89423,27.30112,-17.39264,5.89809,-63.8793,18.94266,87.43861,-0.0059,-98.92976,60.01334,-0.0059,107.81158,-10.51745,12.49813,-0.00412,-0.80154,-0.9254,-0.0012,-4.43273,3.27062,0.03932,-26.96391,3.0064,1.289,6.23849,-10.65083,7.38119
316,3.66691,-0.0,0.0,0.66191,-0.0,0.0,7.57567,-0.37742,12.67284,9.04642,5.02679,-14.80255,-30.37068,-6.24334,0.00073,-30.64071,0.13442,0.00268,33.62261,3.33579,11.31561,0.20732,-2.76314,-7.59727,5.79705,27.21671,-17.0636,8.44893,-63.03267,20.15327,87.9173,-0.00997,-97.21867,60.55753,-0.0032,108.96204,-9.93847,12.40058,0.00052,-0.82206,-0.4087,-0.00033,-3.94489,3.06057,0.28188,-26.46984,2.7196,1.43241,6.4741,-10.91323,7.74705
317,4.11466,0.0,-0.0,2.28206,0.0,-0.0,7.21384,-0.5876,13.30363,9.58948,4.69675,-14.52711,-31.03533,-6.08199,-0.00066,-27.19377,0.70403,0.0082,35.04085,3.3623,11.65549,-0.46058,-3.07828,-7.99477,5.67582,27.17052,-16.65387,10.98214,-62.13566,21.31557,88.42386,-0.00517,-95.43587,60.90268,0.00068,109.37072,-9.4673,12.50439,0.00406,-1.17845,-0.40931,0.00692,-3.35601,2.81763,0.5581,-25.87402,2.38952,1.59434,6.62979,-11.18322,8.10698
318,4.7014,-0.0,-0.0,3.19761,-0.0,0.0,6.73649,-0.88036,13.93094,10.68149,4.28487,-14.70014,-31.61538,-5.77759,-0.00138,-24.66884,1.19741,0.00261,36.38211,3.45609,12.00771,-0.84329,-3.27614,-8.438,5.52006,27.1161,-16.1225,13.58901,-61.19791,22.52791,88.95016,0.00314,-94.50732,61.00089,-0.00174,108.40052,-9.21193,12.74725,0.00277,-1.84103,-1.20657,0.01411,-2.66723,2.65151,0.78891,-25.18014,2.14778,1.74382,6.66087,-11.33753,8.46157
319,4.73647,-0.0,-0.0,2.86523,0.0,-0.0,6.29685,-1.08726,14.55061,12.15828,4.22974,-14.75556,-32.09491,-5.45671,-0.00068,-22.84613,1.40345,-0.00514,37.52802,3.67398,12.24668,-1.14556,-3.31189,-9.2361,5.36279,27.03085,-15.54955,16.29311,-60.1358,23.78055,89.41843,0.00667,-94.4624,60.91685,-0.00614,106.27686,-9.3738,13.28734,-0.00467,-2.48904,-2.21769,0.0092,-1.90042,2.56913,0.94916,-24.41025,2.01039,1.86024,6.51483,-11.31487,8.82535
320,4.31856,0.0,-0.0,1.73416,0.0,0.0,5.9651,-1.17753,15.2768,13.69712,4.68643,-14.45073,-32.49164,-5.26989,0.00041,-21.36295,1.29848,-0.00808,38.42219,4.03243,12.22981,-1.51141,-3.18841,-10.41629,5.27884,26.90434,-15.05191,18.95101,-58.86925,24.89743,89.74448,0.00437,-94.73322,60.8045,-0.00473,103.88261,-9.85646,14.40268,-0.00948,-2.84665,-2.67705,0.00058,-1.13537,2.48596,1.11249,-23.64203,1.87108,1.97921,6.17104,-11.15448,9.21911
321,4.05449,-0.0,0.0,0.77669,0.0,0.0,5.68676,-1.24479,16.14444,15.01108,5.2282,-13.94328,-32.77865,-5.23298,0.00074,-19.97816,1.05598,-0.00562,39.07855,4.47393,11.98073,-1.92028,-2.96233,-11.71358,5.30354,26.74888,-14.6673,21.38754,-57.41949,25.71432,89.95885,-0.0004,-94.6552,60.80214,0.00059,101.73168,-10.20209,15.90104,-0.00239,-2.9381,-2.52962,-0.00225,-0.47888,2.28638,1.36592,-22.97976,1.58979,2.13683,5.64854,-10.93955,9.62786
322,4.10476,0.0,-0.0,0.49724,-0.0,-0.0,5.40224,-1.29355,17.03141,16.05209,5.3052,-13.4375,-32.91085,-5.2485,0.00042,-18.72167,0.89776,-0.00071,39.5288,4.88986,11.6725,-2.27224,-2.74487,-12.8676,5.40431,26.59346,-14.39072,23.55664,-55.88734,26.28977,90.18734,-0.00518,-93.84303,60.9641,0.00439,99.87582,-10.19013,17.03254,0.00415,-2.9358,-2.27633,-0.00166,0.02255,1.92082,1.72491,-22.46967,1.11478,2.32845,4.98367,-10.73189,9.96735
323,4.07864,-0.0,0.0,0.66262,-0.0,-0.0,5.11578,-1.12704,17.74398,16.96634,4.93066,-12.97096,-32.90666,-5.2116,0.00016,-17.7696,0.93707,0.00216,39.82919,5.193,11.48438,-2.49254,-2.63454,-13.78688,5.53074,26.44643,-14.22955,25.53618,-54.33498,26.86196,90.50233,-0.00591,-92.65681,61.23924,0.00345,98.56659,-10.16129,17.18507,0.00493,-2.97374,-2.2744,-0.00023,0.39294,1.48464,2.12795,-22.0903,0.55768,2.53387,4.24317,-10.54374,10.12354
324,3.74516,0.0,0.0,0.84313,-0.0,-0.0,4.84282,-0.63623,18.14717,17.87418,4.60389,-12.51142,-32.84792,-5.05418,1e-05,-17.2009,1.13313,0.00177,40.10508,5.38281,11.52618,-2.52141,-2.63717,-14.42324,5.65269,26.29915,-14.17632,27.39923,-52.72231,27.54807,90.86249,-0.00207,-91.87522,61.49342,0.00011,98.08047,-10.56883,16.51437,0.00727,-3.12576,-2.58366,0.00144,0.67862,1.15427,2.50319,-21.79726,0.10898,2.75419,3.54205,-10.35376,10.0692
325,3.33114,0.0,0.0,0.89659,-0.0,0.0,4.57213,-0.08781,18.26486,18.73862,4.63079,-12.07288,-32.80307,-4.7743,-0.00028,-16.89703,1.36201,0.0004,40.48386,5.54382,11.76782,-2.33027,-2.6577,-14.6964,5.77032,26.16461,-14.21259,29.07711,-50.98419,28.11728,91.19831,0.00134,-91.8119,61.65285,-0.00293,98.29338,-11.47329,15.69202,0.00576,-3.33352,-3.17009,0.00159,0.92779,1.01691,2.85078,-21.54141,-0.15079,3.02283,2.96247,-10.12913,9.91348
326,3.04304,0.0,-0.0,0.89199,0.0,0.0,4.28506,0.14607,18.26515,19.44666,4.89674,-11.65965,-32.76431,-4.45497,-0.00051,-16.68742,1.51038,-0.00042,40.95868,5.75478,12.00681,-1.98725,-2.59075,-14.66283,5.90601,26.06974,-14.33727,30.39524,-49.14438,28.22062,91.48399,0.00299,-92.34325,61.85473,-0.00599,98.76918,-12.52056,15.15143,-0.00015,-3.41585,-3.87167,-0.00033,1.18074,0.98801,3.24267,-21.28014,-0.32722,3.37388,2.45935,-9.84427,9.79677
327,2.81488,0.0,0.0,0.89497,-0.0,-0.0,3.91744,0.03912,18.30713,19.95124,5.20875,-11.24163,-32.63935,-4.19314,-0.00037,-16.5353,1.54076,-0.00055,41.4024,6.00294,12.04773,-1.59789,-2.43513,-14.53503,6.06316,26.01103,-14.53307,31.2844,-47.31451,27.86162,91.72417,0.00357,-93.30349,62.35547,-0.00527,98.97011,-13.18682,14.88597,-0.00309,-3.32253,-4.33766,-0.0012,1.44165,0.89566,3.72628,-21.00795,-0.59727,3.78551,1.9412,-9.50687,9.77679
328,2.59233,0.0,0.0,0.95751,-0.0,0.0,3.35499,-0.13739,18.39916,20.29752,5.51812,-10.82841,-32.33525,-3.99859,0.00015,-16.50292,1.49377,-0.0002,41.71983,6.22668,11.92959,-1.19568,-2.2785,-14.44982,6.20537,25.94692,-14.75499,31.8615,-45.59252,27.42627,91.94199,0.00174,-94.21375,63.26873,0.00219,98.50762,-13.14356,14.80027,-0.00145,-3.24715,-4.29993,-0.0011,1.66908,0.6413,4.26339,-20.76762,-1.0374,4.18482,1.40643,-9.15364,9.84348
329,2.33122,0.0,0.0,1.0641,0.0,-0.0,2.59644,-0.15969,18.45065,20.56662,5.87716,-10.43258,-31.86567,-3.81297,0.00065,-16.58005,1.42232,0.00013,41.90893,6.4089,11.84803,-0.78581,-2.1741,-14.44525,6.306,25.8303,-14.9951,32.2541,-43.99184,27.19939,92.18977,-0.00281,-94.33907,64.4843,0.00941,97.37269,-12.52711,14.81257,0.00042,-3.37108,-3.86649,-0.00156,1.81856,0.28482,4.76423,-20.60669,-1.558,4.51182,0.90213,-8.81165,9.97496
330,1.90592,0.0,0.0,1.07434,0.0,-0.0,1.81415,-0.00199,18.46706,20.81073,6.28302,-10.01404,-31.33013,-3.62893,0.00036,-16.66821,1.36145,0.00015,42.01435,6.60115,11.86725,-0.39934,-2.08461,-14.56619,6.40052,25.63427,-15.31413,32.43647,-42.45915,27.04918,92.5097,-0.00604,-93.53291,65.82919,0.01037,95.85316,-11.77425,14.75786,-3e-05,-3.66162,-3.38071,-0.00102,1.9068,-0.04708,5.12798,-20.51118,-2.00355,4.72157,0.43022,-8.46818,10.15778
331,1.32581,0.0,-0.0,0.8725,-0.0,-0.0,1.15866,0.21753,18.57278,21.02687,6.58556,-9.54756,-30.80281,-3.50084,-0.00045,-16.73228,1.34211,-4e-05,42.08192,6.87209,11.8924,-0.02878,-1.95193,-14.80578,6.56277,25.36386,-15.79363,32.30362,-40.92594,26.67299,92.88453,-0.00322,-92.52088,67.20435,0.00601,94.28211,-11.29686,14.51268,0.0008,-4.02093,-3.06362,0.00012,2.019,-0.32096,5.27165,-20.39837,-2.31152,4.74996,-0.03047,-8.09315,10.3971
332,0.76991,0.0,0.0,0.51686,0.0,0.0,0.61496,0.38352,18.78817,21.18705,6.65671,-9.08538,-30.28641,-3.42748,-0.00051,-16.84204,1.37443,-0.00026,42.13165,7.22215,11.89877,0.37881,-1.77546,-15.07836,6.82243,25.06033,-16.45478,31.86397,-39.32368,26.02424,93.28186,0.00234,-92.07708,68.57858,4e-05,92.9192,-11.31516,14.10451,0.00323,-4.47255,-2.90691,0.00022,2.22606,-0.59417,5.21003,-20.19765,-2.54058,4.58865,-0.48807,-7.68717,10.67004
333,0.37277,0.0,0.0,0.1655,0.0,-0.0,0.09317,0.52195,18.93545,21.26375,6.59654,-8.71141,-29.75264,-3.33309,0.00041,-17.04264,1.42641,-0.00028,42.15926,7.58383,11.97574,0.84083,-1.57947,-15.318,7.1096,24.77528,-17.19748,31.30226,-37.59245,25.39423,93.7249,0.00303,-92.17058,69.93981,-0.00222,91.8348,-11.73866,13.67974,0.00264,-5.04713,-2.81675,-0.00051,2.51609,-0.86481,5.1232,-19.915,-2.75763,4.40495,-0.94951,-7.26878,10.86772
334,0.14742,-0.0,0.0,-0.08438,-0.0,-0.0,-0.42026,0.67308,18.9115,21.24332,6.58028,-8.47046,-29.18575,-3.19484,0.00097,-17.28494,1.44897,-5e-05,42.16217,7.9136,12.12356,1.33322,-1.35875,-15.48572,7.2991,24.53823,-17.84878,30.82716,-35.71688,25.10335,94.27702,-0.00167,-92.21663,71.26695,-0.00115,90.91237,-12.28863,13.33728,0.00134,-5.59712,-2.76878,-0.00075,2.8245,-1.03605,5.26599,-19.60563,-2.97039,4.47165,-1.40719,-6.84646,10.87809
335,0.07959,0.0,-0.0,-0.22157,0.0,0.0,-0.84826,0.6859,18.89102,21.14341,6.58559,-8.3555,-28.58875,-3.10461,0.00014,-17.48656,1.42294,9e-05,42.14703,8.21498,12.16165,1.82863,-1.10734,-15.53212,7.32793,24.36437,-18.31767,30.47653,-33.75047,25.21171,94.95788,-0.00371,-92.03476,72.52765,-0.00217,90.1104,-12.86449,12.91547,0.00646,-5.97014,-2.82532,-8e-05,3.07703,-1.05392,5.74112,-19.33858,-3.16811,4.9046,-1.81897,-6.439,10.70901
336,0.13791,0.0,0.0,-0.23911,-0.0,-0.0,-1.10614,0.41341,19.02421,20.98046,6.50766,-8.29465,-27.97351,-3.14405,-0.00098,-17.58549,1.35674,-2e-05,42.1047,8.48828,11.96761,2.27749,-0.84902,-15.50556,7.25396,24.26121,-18.67892,30.12659,-31.80968,25.58149,95.67609,0.0002,-91.97357,73.72172,-0.00344,89.46329,-13.49739,12.30884,0.01387,-6.29756,-2.99384,0.00102,3.21357,-0.99026,6.38793,-19.17813,-3.35574,5.52777,-2.15601,-6.07078,10.47427
337,0.2378,0.0,0.0,-0.10643,0.0,-0.0,-1.15037,-0.0659,19.16156,20.74223,6.35974,-8.21653,-27.34631,-3.26047,-0.00076,-17.55458,1.27267,-0.00016,41.99332,8.71896,11.70272,2.6142,-0.62496,-15.50151,7.18072,24.19269,-19.07745,29.6736,-30.02273,26.10105,96.28288,0.00415,-92.21874,74.91112,-0.00018,88.85172,-13.97057,11.92217,0.0152,-6.7521,-3.14204,0.00107,3.23991,-0.95782,6.95249,-19.12918,-3.54067,6.06305,-2.45081,-5.74098,10.30833
338,0.32903,0.0,-0.0,0.11471,-0.0,-0.0,-1.01653,-0.59746,19.10806,20.45905,6.16502,-8.18501,-26.69362,-3.34877,0.0004,-17.42032,1.22409,-5e-05,41.76275,8.89291,11.6225,2.81537,-0.47768,-15.42537,7.17189,24.07332,-19.60572,29.12521,-28.43728,26.70661,96.71079,0.00466,-92.57819,76.13425,0.00451,88.12543,-13.98003,12.25801,0.01523,-7.00718,-3.1912,-0.00133,3.21783,-1.00407,7.31909,-19.13715,-3.7229,6.38508,-2.75866,-5.43202,10.29075
339,0.41388,0.0,0.0,0.19005,-0.0,-0.0,-0.85056,-1.03959,18.88788,20.24215,5.92325,-8.28328,-25.99916,-3.39344,0.00092,-17.24573,1.24522,0.00013,41.41027,8.99759,11.77548,2.91154,-0.42491,-15.15515,7.26542,23.85409,-20.29772,28.5049,-26.9787,27.26189,97.02237,0.00161,-92.64268,77.3155,0.00546,87.31861,-13.60359,13.24402,0.01389,-6.45272,-3.30104,-0.00762,3.17091,-1.12157,7.52237,-19.17828,-3.90887,6.52868,-3.08802,-5.13415,10.38577
340,0.44379,-0.0,0.0,-0.05927,-0.0,0.0,-0.82669,-1.27785,18.68699,20.15841,5.73615,-8.41234,-25.27805,-3.46288,0.00012,-17.0616,1.28701,9e-05,40.99954,9.03841,11.96755,2.94014,-0.42752,-14.84361,7.4805,23.58913,-21.1409,27.75692,-25.51049,27.59435,97.34455,-0.00366,-92.05605,78.3542,0.00248,86.59339,-13.24932,14.26556,0.0067,-5.15071,-3.63761,-0.01253,3.07392,-1.31098,7.62838,-19.27569,-4.12435,6.55475,-3.39933,-4.84712,10.47289
341,0.35576,0.0,0.0,-0.49371,0.0,0.0,-1.01664,-1.40054,18.7349,20.11909,5.70577,-8.44997,-24.55563,-3.61258,-0.00126,-16.83733,1.29378,2e-05,40.60317,9.05393,11.92056,2.91826,-0.40725,-14.68938,7.74932,23.37251,-22.03627,26.81635,-23.93929,27.66347,97.78716,-0.0054,-91.07427,79.25195,-0.00276,86.17457,-13.26642,14.70495,0.00201,-3.99509,-4.09481,-0.00734,2.93466,-1.56936,7.68543,-19.41977,-4.385,6.50911,-3.65771,-4.5653,10.46779
342,0.1871,0.0,-0.0,-0.79604,0.0,0.0,-1.41532,-1.56712,19.06525,19.97674,5.78882,-8.44394,-23.81626,-3.80469,-0.00152,-16.53507,1.28072,9e-05,40.26083,9.06655,11.56801,2.87498,-0.32175,-14.67258,7.92437,23.24826,-22.8252,25.72669,-22.28566,27.59702,98.38875,0.00019,-90.44928,80.06885,-0.00629,86.19504,-13.66085,14.4169,0.0042,-3.61893,-4.49377,0.00017,2.79203,-1.82915,7.73045,-19.56825,-4.64238,6.45173,-3.83997,-4.27317,10.373
343,0.03257,-0.0,-0.0,-0.8033,0.0,0.0,-2.02854,-1.61366,19.33431,19.70562,5.89014,-8.46164,-23.02617,-3.91745,9e-05,-16.17032,1.26424,1e-05,39.99182,9.03395,11.2216,2.86321,-0.20246,-14.76373,7.93476,23.19735,-23.43358,24.60544,-20.66432,27.53699,99.10339,0.00657,-90.51895,80.83865,-0.00354,86.44579,-14.07509,13.71554,0.00451,-3.72012,-4.84214,0.00159,2.66775,-1.99789,7.7847,-19.6955,-4.81906,6.43763,-3.92411,-3.95856,10.22527
344,-0.07149,-0.0,-0.0,-0.60482,0.0,-0.0,-2.79096,-1.23793,19.20689,19.41643,5.95628,-8.47014,-22.19877,-3.87723,0.00189,-15.80885,1.21834,-0.00027,39.78139,8.91815,11.23499,2.9042,-0.10117,-15.0284,7.90479,23.14603,-23.96204,23.51278,-19.19909,27.51228,99.82511,0.00676,-90.93685,81.59952,0.0035,86.57836,-14.04856,12.98336,-9e-05,-3.75549,-5.18086,-0.00033,2.61492,-2.0943,7.86456,-19.74801,-4.93859,6.47489,-3.94086,-3.61367,10.08265
345,-0.16754,0.0,0.0,-0.41762,-0.0,0.0,-3.46625,-0.60914,18.87076,19.20704,5.91258,-8.46655,-21.39251,-3.75713,0.00173,-15.50997,1.16283,-0.00023,39.55372,8.77908,11.54156,2.94729,-0.0335,-15.3553,8.0585,22.99644,-24.5669,22.42883,-17.96352,27.5025,100.44462,0.00206,-91.17416,82.41615,0.00831,86.54163,-13.32051,12.40761,-0.00391,-3.72446,-5.42041,-0.00077,2.72887,-2.25316,8.00406,-19.63332,-5.13853,6.54363,-3.99631,-3.22731,10.0449
346,-0.32138,0.0,0.0,-0.42566,0.0,-0.0,-3.81637,-0.34574,18.84841,19.07067,5.6607,-8.51702,-20.6458,-3.69621,-0.0,-15.2825,1.18885,0.00016,39.2124,8.71646,11.73969,2.91641,-0.00192,-15.44009,8.48059,22.71443,-25.25711,21.34796,-16.95337,27.55055,100.92593,-0.00343,-90.86946,83.30762,0.0046,86.65388,-12.05303,11.99887,-0.00393,-3.90661,-5.46728,-0.00018,3.0133,-2.54315,8.24528,-19.34851,-5.49841,6.65667,-4.17132,-2.81482,10.17168
347,-0.55174,0.0,0.0,-0.63038,0.0,-0.0,-3.8489,-0.77087,19.3364,18.93368,5.26092,-8.6083,-19.93867,-3.74753,-0.00124,-15.10052,1.32431,0.00036,38.74062,8.74194,11.60793,2.8089,-0.03055,-15.20178,8.98497,22.37251,-25.87078,20.31094,-16.07999,27.7406,101.34535,-0.00587,-90.08441,84.22639,-0.00798,87.37262,-10.81788,11.64045,-0.00226,-4.32848,-5.31114,-0.00065,3.33097,-2.8797,8.60852,-19.02722,-5.94768,6.86524,-4.40693,-2.43999,10.37516
348,-0.77579,0.0,-0.0,-0.81509,0.0,0.0,-3.84414,-1.50059,19.94622,18.72236,4.98514,-8.63374,-19.2225,-3.8409,-0.00091,-14.94335,1.46642,0.00015,38.24316,8.77987,11.34482,2.72879,-0.12916,-14.91835,9.26701,22.08595,-26.27555,19.33752,-15.23403,28.11374,101.83556,-0.00176,-89.44122,85.13356,-0.01722,88.75155,-10.18197,11.11922,0.00147,-4.86736,-4.97343,-0.00231,3.54585,-3.16825,9.0704,-18.80246,-6.38997,7.18392,-4.54077,-2.1534,10.48884
349,-0.87788,0.0,-0.0,-0.78237,0.0,-0.0,-4.15253,-1.93943,20.16722,18.43451,5.01037,-8.57569,-18.4772,-3.88156,0.00022,-14.80846,1.51878,-0.00012,37.85161,8.76323,11.24944,2.7788,-0.25908,-14.81823,9.18503,21.9261,-26.52131,18.42441,-14.37132,28.65287,102.47234,0.00621,-89.53356,86.01555,-0.0101,89.99094,-10.32666,10.34466,0.00725,-5.46987,-4.53994,-0.00301,3.63974,-3.4088,9.55354,-18.6953,-6.79581,7.54098,-4.48788,-1.93079,10.43763
350,-0.90676,-0.0,-0.0,-0.63754,0.0,-0.0,-4.88874,-2.0192,19.98316,18.18028,5.17089,-8.60276,-17.73251,-3.85754,0.0006,-14.70209,1.52445,-0.0001,37.58099,8.6791,11.31053,2.92422,-0.3785,-14.75605,8.85911,21.87687,-26.74799,17.63441,-13.51903,29.32845,103.21404,0.00809,-90.20284,86.81494,0.00677,89.98703,-11.06597,9.57045,0.00724,-6.08678,-4.2116,-0.00071,3.68014,-3.60901,9.94356,-18.64407,-7.12891,7.82711,-4.36329,-1.71262,10.27854
351,-1.10027,0.0,-0.0,-0.66243,0.0,0.0,-5.86452,-2.16951,19.79133,18.07827,5.20307,-8.86382,-17.039,-3.82638,-1e-05,-14.63646,1.58614,5e-05,37.32299,8.54981,11.28095,3.03252,-0.49004,-14.47175,8.5184,21.85096,-27.01223,17.07071,-12.72359,30.11163,103.94365,0.00254,-90.82435,87.43096,0.01441,88.42967,-11.97541,9.22897,0.00013,-6.68921,-4.19825,0.00304,3.73426,-3.73025,10.15793,-18.58442,-7.32232,7.98018,-4.35816,-1.47378,10.11604
352,-1.5765,-0.0,0.0,-0.91502,0.0,-0.0,-6.85067,-2.57314,19.75871,18.09137,5.13184,-9.18556,-16.4304,-3.80761,-0.00039,-14.62858,1.68778,0.00013,37.00751,8.41049,11.08533,3.05703,-0.60986,-14.06839,8.29588,21.77641,-27.25393,16.7018,-12.0097,30.91722,104.56692,-0.00196,-91.11384,87.842,0.00824,86.29339,-12.5631,9.51882,-0.00235,-7.30879,-4.46789,0.00387,3.82318,-3.76578,10.21715,-18.49407,-7.37763,8.0217,-4.49815,-1.22204,10.02434
353,-2.08867,-0.0,0.0,-1.16,0.0,0.0,-7.77159,-2.89864,19.67957,18.05922,5.15981,-9.23733,-15.90104,-3.75783,-9e-05,-14.67303,1.70598,0.0002,36.688,8.29509,10.89088,3.08096,-0.71283,-13.89917,8.18174,21.66655,-27.40436,16.3003,-11.36151,31.57255,105.07092,-0.00267,-91.18431,88.18253,-0.0039,85.19813,-12.62226,10.22421,0.00146,-7.94042,-4.64822,-0.0002,3.92409,-3.78203,10.21334,-18.39416,-7.39122,8.01193,-4.62221,-0.95447,10.0272
354,-2.26922,0.0,-0.0,-1.19431,-0.0,-0.0,-8.62128,-2.84746,19.42817,17.89117,5.27753,-9.01173,-15.40629,-3.65381,0.00027,-14.71472,1.60035,0.0002,36.43377,8.21547,10.82633,3.16756,-0.75358,-14.01153,8.14208,21.56869,-27.49476,15.64213,-10.73917,31.91912,105.48333,-0.00179,-91.14465,88.61542,-0.01542,85.94633,-12.45693,10.9445,0.00148,-8.48053,-4.43471,-0.00389,3.99795,-3.86681,10.21742,-18.32428,-7.47119,7.98325,-4.59568,-0.65005,10.1094
355,-2.10379,-0.0,-0.0,-1.07019,0.0,-0.0,-9.33636,-2.52333,19.14802,17.653,5.31418,-8.81908,-14.89538,-3.52803,0.0002,-14.68258,1.46873,0.00013,36.23427,8.14926,10.86288,3.2744,-0.73433,-14.10632,8.19432,21.47968,-27.60862,14.74518,-10.13321,31.99335,105.80513,3e-05,-91.08999,89.14322,-0.01584,87.77142,-12.53938,11.44586,-0.00219,-8.78138,-4.05387,-0.00322,4.02224,-4.05719,10.26535,-18.30703,-7.66546,7.95492,-4.44252,-0.30515,10.21515
356,-1.94585,0.0,-0.0,-0.97018,0.0,-0.0,-9.84992,-2.20334,19.03153,17.4662,5.28116,-8.83687,-14.34266,-3.42383,-0.00015,-14.56116,1.39922,0.00012,36.02838,8.05828,10.90694,3.3248,-0.71301,-14.00705,8.32046,21.36639,-27.727,13.83616,-9.60236,32.06804,106.03139,0.00227,-91.14112,89.62817,-0.00474,89.175,-12.84744,11.74781,-0.00311,-8.82788,-4.03534,-0.00157,4.00655,-4.29271,10.37337,-18.3292,-7.92426,7.96518,-4.27576,0.04006,10.26451
357,-2.03014,-0.0,0.0,-0.97391,0.0,-0.0,-10.20074,-2.03087,19.12555,17.37348,5.35873,-8.93904,-13.75396,-3.3463,-0.00021,-14.40008,1.36363,2e-05,35.76661,7.92197,10.90039,3.28814,-0.74166,-13.84609,8.39404,21.23196,-27.7235,13.09789,-9.22862,32.42179,106.21483,0.00307,-91.20663,89.97371,0.00414,89.28014,-12.85112,11.99127,4e-05,-8.83809,-4.59649,-0.00021,3.98656,-4.46216,10.51313,-18.35076,-8.13395,8.03032,-4.17761,0.33077,10.21631
358,-2.25056,0.0,0.0,-1.04591,-0.0,-0.0,-10.48402,-2.03143,19.36492,17.33601,5.56981,-8.95838,-13.16312,-3.25885,0.00024,-14.25292,1.29175,-0.00013,35.43687,7.74554,10.83988,3.17814,-0.81882,-13.79386,8.28589,21.11083,-27.52552,12.55119,-9.00132,33.05318,106.44943,-0.0003,-90.86985,90.19244,0.00501,88.31913,-12.20714,12.29998,0.0046,-8.98307,-5.41034,-0.00025,4.00518,-4.51961,10.65682,-18.32746,-8.24154,8.14212,-4.16228,0.55186,10.09657
359,-2.48195,0.0,-0.0,-1.20262,-0.0,-0.0,-10.69466,-2.26144,19.71716,17.34186,5.67906,-8.93676,-12.6182,-3.14091,0.00058,-14.14303,1.19466,-0.00011,35.06299,7.54644,10.70961,3.02427,-0.91322,-13.79835,8.00531,21.02388,-27.18084,12.14704,-8.78497,33.68496,106.78945,-0.00683,-89.73684,90.34039,0.00264,87.02595,-11.07651,12.65439,0.00585,-9.04741,-5.88426,0.00012,4.07108,-4.50062,10.83298,-18.25077,-8.29068,8.31357,-4.20284,0.73237,9.94888
360,-2.80637,0.0,0.0,-1.5209,0.0,-0.0,-10.73139,-2.72877,20.19009,17.43222,5.48208,-9.05167,-12.1546,-3.04265,0.00018,-14.07384,1.14754,2e-05,34.69651,7.35979,10.46639,2.87005,-1.00043,-13.66227,7.68695,20.96217,-26.78009,11.83272,-8.46338,34.05276,107.19524,-0.00836,-88.08418,90.48595,0.00061,86.0176,-9.87974,12.87747,0.00244,-8.61032,-5.61191,0.00983,4.12942,-4.43199,11.05843,-18.17584,-8.31253,8.55004,-4.25149,0.90831,9.7908
361,-3.24903,0.0,0.0,-1.91496,-0.0,-0.0,-10.60889,-3.18254,20.68937,17.58545,5.09201,-9.32365,-11.77277,-3.03717,-0.0005,-14.03669,1.16206,8e-05,34.39314,7.23388,10.16512,2.7708,-1.06822,-13.34077,7.46251,20.89769,-26.40064,11.54159,-8.07974,34.14021,107.5543,-0.00253,-86.83129,90.70129,-0.002,85.75533,-9.03681,12.85452,-9e-05,-7.5534,-4.7264,0.01988,4.12395,-4.30885,11.30068,-18.16035,-8.29023,8.8231,-4.25431,1.09528,9.63477
362,-3.52766,0.0,-0.0,-2.0655,0.0,-0.0,-10.54844,-3.2264,20.96315,17.67949,4.83481,-9.50752,-11.44986,-3.10293,-0.00059,-14.01315,1.15016,3e-05,34.17728,7.16937,10.03059,2.75714,-1.12469,-13.07715,7.35512,20.81174,-26.10374,11.22071,-7.78635,34.13568,107.77645,0.00204,-86.4522,91.00819,-0.00423,86.35718,-8.68726,12.78491,0.00066,-6.22605,-3.8905,0.01193,4.08556,-4.14692,11.54036,-18.17538,-8.23097,9.10863,-4.18682,1.27891,9.51161
363,-3.38539,0.0,0.0,-1.78394,-0.0,0.0,-10.7076,-2.82098,20.84628,17.62797,4.86197,-9.40666,-11.17994,-3.11952,-5e-05,-13.97979,1.04435,-5e-05,34.02356,7.09762,10.22139,2.78634,-1.18927,-13.10951,7.28835,20.71536,-25.9299,10.88183,-7.69713,34.2222,107.87473,0.0022,-86.52461,91.36535,-0.00268,87.35004,-8.61964,13.00252,0.00166,-5.08841,-3.72768,-0.00342,4.09144,-3.9909,11.76584,-18.14699,-8.17173,9.37864,-4.08759,1.43594,9.43442
364,-3.06419,0.0,0.0,-1.33481,0.0,-0.0,-10.91849,-2.45572,20.56387,17.49267,4.98722,-9.17747,-10.97898,-3.03065,0.00029,-13.92342,0.89007,-4e-05,33.87498,6.97245,10.5399,2.76251,-1.25188,-13.31353,7.1926,20.62683,-25.88773,10.58916,-7.815,34.45314,107.93061,0.00123,-86.61623,91.73597,0.00097,88.12758,-8.64326,13.47453,0.00204,-4.31842,-4.20909,-0.00764,4.15079,-3.88151,11.93144,-18.07117,-8.13297,9.57493,-4.03077,1.57226,9.36438
365,-3.03695,0.0,0.0,-1.11987,-0.0,0.0,-10.91999,-2.52221,20.51471,17.40893,4.98036,-9.11159,-10.84621,-2.93556,0.00013,-13.85318,0.77173,8e-05,33.70744,6.82639,10.63728,2.64994,-1.28822,-13.3848,7.06816,20.54174,-25.94281,10.38901,-8.04876,34.77134,107.9989,0.00071,-86.65942,92.12012,0.00194,88.62807,-8.76044,13.8032,0.00267,-3.82913,-4.7783,-0.00296,4.20891,-3.84143,12.01157,-18.00571,-8.1261,9.665,-4.02786,1.71005,9.24321
366,-3.3232,0.0,-0.0,-1.18662,-0.0,-0.0,-10.72992,-2.78054,20.74296,17.42398,4.88689,-9.25211,-10.75741,-2.95115,-0.0001,-13.77814,0.70304,0.00014,33.57492,6.69685,10.48901,2.52511,-1.31986,-13.27192,6.93881,20.44117,-26.03204,10.26758,-8.28239,35.07834,108.08778,0.00018,-86.52814,92.5116,-0.00011,89.23339,-8.8945,13.765,0.00266,-3.53577,-5.03717,0.00117,4.24681,-3.86297,12.05803,-17.96595,-8.16357,9.70013,-3.99147,1.84439,9.04583
367,-3.41115,0.0,-0.0,-1.29585,-0.0,-0.0,-10.59363,-2.73403,20.90394,17.46664,4.95401,-9.40013,-10.69571,-3.06563,-0.00012,-13.68502,0.62175,-3e-05,33.54268,6.57913,10.40276,2.47134,-1.38376,-13.18987,6.79671,20.32064,-26.10603,10.17347,-8.48027,35.32697,108.20544,-0.00068,-86.11271,92.88623,-0.00155,90.09309,-8.75402,13.47685,-0.00017,-3.48581,-5.07445,0.00195,4.29471,-3.88072,12.14293,-17.91348,-8.21202,9.77258,-3.8427,1.95297,8.79984
368,-2.86311,0.0,0.0,-1.30316,0.0,0.0,-10.64418,-2.2531,20.79256,17.45494,5.27662,-9.39693,-10.65432,-3.19727,-4e-05,-13.55747,0.47341,-0.0003,33.58783,6.47237,10.55956,2.47207,-1.46222,-13.29166,6.60824,20.21038,-26.13764,10.05105,-8.70518,35.55462,108.36385,-0.00107,-85.57837,93.24439,-0.00122,90.9442,-8.10626,13.11609,-0.00372,-3.74617,-5.12277,0.00152,4.36422,-3.80415,12.27157,-17.83129,-8.18963,9.92187,-3.61059,2.02933,8.55954
