PaulMeinheit/Bachelor_Muay_Thai/processed_Data/N3/teep/sliced/JointAngles/sliced7.csv
Unnamed: 0_level_0,L_MTP_ANGLE,L_MTP_ANGLE,L_MTP_ANGLE,R_MTP_ANGLE,R_MTP_ANGLE,R_MTP_ANGLE,L_ANKLE_ANGLE,L_ANKLE_ANGLE,L_ANKLE_ANGLE,R_ANKLE_ANGLE,R_ANKLE_ANGLE,R_ANKLE_ANGLE,L_KNEE_ANGLE,L_KNEE_ANGLE,L_KNEE_ANGLE,R_KNEE_ANGLE,R_KNEE_ANGLE,R_KNEE_ANGLE,L_HIP_ANGLE,L_HIP_ANGLE,L_HIP_ANGLE,R_HIP_ANGLE,R_HIP_ANGLE,R_HIP_ANGLE,L_SHOULDER_ANGLE,L_SHOULDER_ANGLE,L_SHOULDER_ANGLE,R_SHOULDER_ANGLE,R_SHOULDER_ANGLE,R_SHOULDER_ANGLE,L_ELBOW_ANGLE,L_ELBOW_ANGLE,L_ELBOW_ANGLE,R_ELBOW_ANGLE,R_ELBOW_ANGLE,R_ELBOW_ANGLE,L_WRIST_ANGLE,L_WRIST_ANGLE,L_WRIST_ANGLE,R_WRIST_ANGLE,R_WRIST_ANGLE,R_WRIST_ANGLE,NECK_ANGLE,NECK_ANGLE,NECK_ANGLE,NECK_ANGLE_SHADOW,NECK_ANGLE_SHADOW,NECK_ANGLE_SHADOW,Trunk_Joint_Angle,Trunk_Joint_Angle,Trunk_Joint_Angle
ITEM,X,Y,Z,X,Y,Z,X,Y,Z,X,Y,Z,X,Y,Z,X,Y,Z,X,Y,Z,X,Y,Z,X,Y,Z,X,Y,Z,X,Y,Z,X,Y,Z,X,Y,Z,X,Y,Z,X,Y,Z,X,Y,Z,X,Y,Z
2303,-1.20459,0.0,-0.0,-0.60686,0.0,-0.0,-5.83501,-2.16237,14.05073,20.74226,4.44491,-8.39627,-19.18177,-3.15582,-0.0,-13.09226,-0.81653,-0.00103,36.59706,4.59729,10.03567,1.28568,1.84583,-12.79011,21.68091,15.06858,-28.25118,26.76826,-11.01463,38.46136,108.36834,0.00099,-80.78362,101.6888,4e-05,79.15652,-7.07587,18.99089,-0.00464,-9.4642,-13.79771,0.00048,-4.55132,-1.0101,5.46976,-26.97471,-3.02413,4.67016,-0.59933,-2.24465,6.8648
2304,-1.28842,0.0,-0.0,-0.56168,-0.0,0.0,-5.75042,-2.40474,14.30418,21.02396,3.99857,-8.46057,-19.25008,-3.22578,6e-05,-13.43759,-0.43224,-0.00242,36.60365,4.52287,9.93627,1.36735,1.57282,-12.66206,21.7067,15.0806,-28.0727,26.74353,-11.11896,38.50424,108.29523,0.00059,-80.12036,101.73985,-0.00088,78.93097,-6.10024,18.69663,-0.00425,-9.35312,-13.70937,6e-05,-4.40201,-1.06904,5.62415,-26.82173,-3.13749,4.79055,-0.66673,-2.35264,6.77536
2305,-1.39893,0.0,0.0,-0.59521,0.0,0.0,-5.66483,-2.43663,14.52832,21.32718,3.51488,-8.36279,-19.31187,-3.31138,3e-05,-13.8477,-0.0231,-0.00175,36.6007,4.45329,9.791,1.46742,1.26868,-12.68998,21.55727,15.10019,-27.85174,26.75761,-11.18424,38.57263,108.2963,0.00032,-79.89027,101.71741,-0.00109,78.90054,-5.53869,18.3457,-0.00081,-9.55162,-13.7451,-0.0005,-4.30011,-1.08248,5.64894,-26.71932,-3.15937,4.80837,-0.73191,-2.4428,6.7093
2306,-1.47676,0.0,-0.0,-0.68254,-0.0,-0.0,-5.60476,-2.20246,14.59531,21.49612,3.16774,-8.15254,-19.32473,-3.38619,-3e-05,-14.1228,0.22118,-9e-05,36.5854,4.41685,9.72373,1.54992,1.04597,-12.86489,21.21655,15.17702,-27.61087,26.80854,-11.21044,38.64947,108.37853,0.00054,-80.08043,101.66803,-0.0009,79.1552,-5.29741,18.08972,0.0014,-10.09076,-13.70576,-0.00353,-4.28332,-1.03689,5.56463,-26.70427,-3.08507,4.74774,-0.76766,-2.50846,6.70136
2307,-1.48195,0.0,0.0,-0.83262,-0.0,-0.0,-5.59061,-1.88052,14.53244,21.52076,2.99427,-8.0066,-19.29704,-3.4315,-3e-05,-14.17609,0.28934,0.00054,36.58524,4.41614,9.75393,1.59231,0.95156,-13.00234,20.82438,15.31655,-27.42077,26.84999,-11.20775,38.70592,108.47946,0.00041,-80.39709,101.63741,-0.00061,79.89181,-5.18818,17.95173,0.00138,-10.83443,-13.39788,-0.00605,-4.37722,-0.96121,5.43161,-26.80082,-2.96439,4.65353,-0.75635,-2.56106,6.72645
2308,-1.42875,0.0,0.0,-1.06931,0.0,0.0,-5.63088,-1.70869,14.46009,21.49225,2.9249,-7.99786,-19.27042,-3.43291,-1e-05,-14.08607,0.30892,0.00039,36.62039,4.42495,9.80697,1.59792,0.93513,-12.98484,20.59534,15.44523,-27.35193,26.85817,-11.19286,38.69409,108.50715,-0.00018,-80.64587,101.60849,-0.00015,80.8115,-5.1025,17.88177,-2e-05,-11.34086,-12.9729,-0.00307,-4.56458,-0.89818,5.31963,-26.99041,-2.86341,4.57397,-0.71421,-2.61238,6.74129
2309,-1.35662,0.0,0.0,-1.35154,0.0,0.0,-5.69378,-1.75067,14.42918,21.46654,2.92994,-8.01065,-19.27207,-3.3785,-4e-05,-13.98573,0.34992,0.00012,36.67192,4.42193,9.83382,1.58212,0.93408,-12.89996,20.66772,15.47514,-27.4143,26.86246,-11.20052,38.60769,108.39744,-0.00092,-80.87983,101.54776,-0.00017,81.31724,-5.08604,17.95252,-0.00264,-11.27786,-12.76486,0.00027,-4.74131,-0.88012,5.29124,-27.16766,-2.83588,4.55459,-0.69482,-2.64807,6.72502
2310,-1.27518,0.0,-0.0,-1.5654,-0.0,0.0,-5.73363,-1.83829,14.37256,21.43374,3.06371,-7.92616,-19.299,-3.2778,-7e-05,-13.94979,0.36825,-2e-05,36.7147,4.41177,9.87231,1.56877,0.93787,-12.88632,20.99684,15.40664,-27.55873,26.90043,-11.25659,38.53436,108.19242,-0.00109,-81.1757,101.45849,-0.00075,81.10875,-5.27109,18.20579,-0.00516,-10.89002,-12.9294,0.00149,-4.77953,-0.89952,5.34336,-27.20466,-2.8737,4.59542,-0.73119,-2.64417,6.68196
2311,-1.17426,-0.0,-0.0,-1.62997,0.0,0.0,-5.75414,-1.78186,14.25647,21.3935,3.30817,-7.77524,-19.32682,-3.18731,-4e-05,-13.98869,0.32944,-2e-05,36.74417,4.41621,9.96712,1.58945,0.94463,-12.92914,21.37169,15.32835,-27.72923,26.98171,-11.34101,38.5878,108.04671,-0.00029,-81.48645,101.36002,-0.00073,80.50795,-5.77936,18.32279,-0.00135,-10.77265,-13.33155,0.00357,-4.64361,-0.91932,5.40011,-27.06737,-2.91365,4.64037,-0.80001,-2.6133,6.65402
2312,-1.09196,0.0,0.0,-1.58754,0.0,0.0,-5.78645,-1.60233,14.19427,21.3853,3.49732,-7.64344,-19.34178,-3.17464,1e-05,-14.08662,0.28388,-2e-05,36.77515,4.45125,10.06401,1.66919,0.9236,-12.92639,21.55796,15.3113,-27.87701,27.08486,-11.41886,38.76291,108.08696,0.00045,-81.72378,101.27795,-8e-05,80.23197,-6.57993,17.80452,0.00931,-11.10631,-13.57974,0.00326,-4.42717,-0.93395,5.40482,-26.85107,-2.92897,4.63915,-0.8509,-2.58756,6.69798
2313,-1.0883,0.0,-0.0,-1.53929,0.0,0.0,-5.82766,-1.49305,14.31229,21.4284,3.48741,-7.54784,-19.35623,-3.23925,3e-05,-14.2021,0.29037,-3e-05,36.82534,4.50551,10.05564,1.79533,0.86328,-12.88408,21.49309,15.35362,-27.9544,27.1662,-11.4838,38.92011,108.27088,0.00042,-81.86318,101.25283,-0.00012,80.5637,-7.41581,16.59884,0.01238,-11.4249,-13.34076,0.00244,-4.2758,-0.95506,5.38006,-26.70087,-2.93904,4.60817,-0.85312,-2.57078,6.79641
2314,-1.14002,0.0,-0.0,-1.53536,0.0,-0.0,-5.8544,-1.56992,14.55964,21.47078,3.33066,-7.46389,-19.37786,-3.30068,1e-05,-14.2632,0.334,7e-05,36.87931,4.54671,9.95177,1.90113,0.79791,-12.87983,21.35306,15.41846,-27.97174,27.18865,-11.54567,38.94846,108.43207,1e-05,-81.99902,101.31335,-0.00049,81.04027,-8.067,15.32319,0.00366,-11.34776,-12.71676,0.00333,-4.26371,-0.94623,5.37029,-26.68891,-2.92714,4.6025,-0.82439,-2.56078,6.86192
2315,-1.17119,0.0,-0.0,-1.59226,0.0,-0.0,-5.86731,-1.72866,14.74296,21.42975,3.23223,-7.37738,-19.38915,-3.28125,-2e-05,-14.21325,0.3478,0.00011,36.88964,4.55996,9.90233,1.91477,0.76459,-12.90507,21.34832,15.47183,-28.0118,27.14953,-11.60921,38.87888,108.45262,-0.00057,-82.26996,101.45086,-0.00017,81.18392,-8.61891,14.65845,-0.00515,-11.11279,-12.07915,0.00097,-4.34532,-0.87208,5.38329,-26.76869,-2.86356,4.64285,-0.81497,-2.57689,6.85835
2316,-1.16611,0.0,0.0,-1.71202,0.0,-0.0,-5.87899,-1.7964,14.73609,21.26877,3.36728,-7.24812,-19.36842,-3.17937,2e-05,-14.05781,0.27686,-0.00012,36.83669,4.55679,9.99778,1.83288,0.7683,-12.92149,21.43871,15.49319,-28.09251,27.07801,-11.68505,38.81558,108.34895,-0.00078,-82.66323,101.61701,0.00041,80.91946,-9.15453,14.68757,-0.00713,-11.13343,-11.71009,-0.00185,-4.42921,-0.77291,5.42322,-26.84947,-2.78712,4.71767,-0.8479,-2.62115,6.83053
2317,-1.14248,0.0,0.0,-1.8193,0.0,0.0,-5.88652,-1.73548,14.59208,21.01945,3.77791,-6.99538,-19.30832,-3.05039,6e-05,-13.84363,0.11214,-0.00043,36.75944,4.53629,10.15141,1.72112,0.78406,-13.00541,21.38622,15.485,-28.09813,27.0225,-11.79813,38.82235,108.2149,-0.00031,-82.99953,101.73392,0.00039,80.39452,-9.39505,14.96942,-0.00332,-11.47609,-11.70887,-0.00149,-4.46338,-0.71015,5.51579,-26.87952,-2.76441,4.82731,-0.88594,-2.65808,6.81778
2318,-1.09813,0.0,0.0,-1.86533,0.0,-0.0,-5.87506,-1.65721,14.47502,20.76064,4.35092,-6.63818,-19.21629,-2.95113,4e-05,-13.6123,-0.0949,-0.00046,36.70922,4.48594,10.20987,1.63971,0.78923,-13.22956,21.11692,15.47081,-27.95468,27.03564,-11.95905,38.8907,108.14244,3e-05,-83.13815,101.74271,0.00013,79.94815,-9.09617,15.05873,-0.00133,-11.97003,-11.94398,-0.00068,-4.42488,-0.68714,5.65159,-26.83616,-2.7949,4.96177,-0.88465,-2.64995,6.81685
2319,-1.06136,0.0,-0.0,-1.99292,0.0,-0.0,-5.83264,-1.71008,14.51574,20.57658,4.84189,-6.35688,-19.12366,-2.91286,-1e-05,-13.39126,-0.24781,-0.00012,36.70055,4.42877,10.11759,1.59272,0.79031,-13.4833,20.83267,15.47419,-27.76601,27.14181,-12.12429,38.96717,108.16676,-0.00018,-83.04493,101.65611,0.00025,79.83967,-8.50809,14.87712,-0.00195,-12.4338,-12.13608,-0.0011,-4.29088,-0.65878,5.75743,-26.69808,-2.80903,5.07055,-0.86127,-2.59377,6.81299
2320,-1.08879,0.0,-0.0,-2.3603,0.0,-0.0,-5.76363,-1.93917,14.68382,20.49027,5.05262,-6.26353,-19.08524,-2.9204,-3e-05,-13.19882,-0.28208,0.00021,36.72441,4.4088,9.96902,1.55263,0.80283,-13.62166,20.73247,15.49589,-27.68785,27.30945,-12.21335,38.99485,108.22382,6e-05,-82.6972,101.54195,0.00028,80.00345,-8.06989,14.67834,-0.00251,-12.68036,-12.14046,-0.00093,-4.0789,-0.59323,5.78419,-26.48398,-2.75863,5.12033,-0.87611,-2.52742,6.78497
2321,-1.1793,0.0,-0.0,-2.82377,0.0,0.0,-5.68779,-2.21001,14.79625,20.44415,5.02341,-6.23727,-19.13274,-2.91475,-7e-05,-13.03711,-0.23126,0.00024,36.77583,4.42818,9.90774,1.50355,0.82716,-13.69036,20.811,15.51083,-27.75944,27.45744,-12.18726,38.95005,108.19575,0.00128,-82.14635,101.46484,6e-05,80.32175,-7.89614,14.68132,-0.00417,-12.58787,-12.07297,-6e-05,-3.86099,-0.51924,5.78734,-26.26462,-2.69143,5.15148,-0.95575,-2.49215,6.70488
2322,-1.25652,0.0,-0.0,-3.03117,-0.0,-0.0,-5.63045,-2.31913,14.71334,20.38379,4.95768,-6.13907,-19.22803,-2.85726,-0.00011,-12.89789,-0.17789,9e-05,36.84893,4.44551,9.97739,1.45584,0.85078,-13.80749,20.9274,15.50034,-27.88309,27.50156,-12.09139,38.85663,108.0358,0.00162,-81.64917,101.44635,-0.00012,80.58149,-7.68711,14.88273,-0.00414,-12.25525,-12.17156,-1e-05,-3.69461,-0.4963,5.86486,-26.09514,-2.69975,5.23198,-1.05426,-2.49548,6.58618
2323,-1.22069,0.0,0.0,-2.84426,0.0,0.0,-5.62389,-2.18575,14.5087,20.32289,4.97178,-6.02995,-19.29729,-2.7882,-7e-05,-12.78887,-0.15058,-2e-05,36.9308,4.43487,10.09322,1.4403,0.84684,-13.93717,20.93796,15.48018,-27.91574,27.42509,-12.00606,38.76627,107.79775,-0.00014,-81.55121,101.46368,-1e-05,80.30299,-7.09369,15.32222,0.00212,-11.90586,-12.52635,0.00013,-3.58377,-0.53259,6.04331,-25.97865,-2.80131,5.38331,-1.0946,-2.52336,6.49936
2324,-0.99673,-0.0,-0.0,-2.49759,0.0,-0.0,-5.70045,-1.91929,14.39219,20.30445,5.04242,-6.0071,-19.30539,-2.78896,-7e-05,-12.74799,-0.11903,-0.00015,37.00197,4.40768,10.14001,1.48112,0.77511,-13.9816,20.81017,15.479,-27.80653,27.30572,-11.97475,38.71497,107.54455,-0.00208,-81.97663,101.48061,0.0,79.354,-6.17001,16.15461,0.00938,-11.565,-12.94373,0.001,-3.50147,-0.5685,6.25075,-25.88944,-2.91352,5.56164,-1.058,-2.56694,6.4905
2325,-0.63603,-0.0,-0.0,-2.39777,0.0,0.0,-5.83225,-1.81923,14.5375,20.37511,5.11938,-6.04626,-19.26371,-2.88362,-0.00015,-12.81492,-0.05365,-0.00035,37.0276,4.36751,10.05148,1.55842,0.60774,-13.92952,20.6952,15.49627,-27.66805,27.24196,-11.99276,38.70411,107.31591,-0.00194,-82.63219,101.47687,1e-05,78.52694,-5.33479,17.13305,0.00659,-11.1053,-13.1772,0.00244,-3.38827,-0.54684,6.36914,-25.77138,-2.93858,5.6795,-1.02027,-2.6298,6.52069
2326,-0.35785,-0.0,0.0,-2.76858,0.0,-0.0,-5.90143,-2.13256,14.92033,20.56653,5.16632,-6.11651,-19.2037,-2.99695,-0.0001,-12.96892,0.04374,-0.00041,36.99204,4.29719,9.86512,1.62356,0.37912,-13.80482,20.83107,15.49744,-27.68553,27.2611,-12.04388,38.7225,107.17004,-0.00046,-83.02264,101.45322,0.00028,78.70841,-4.96264,17.47705,0.00246,-10.64675,-13.21286,0.00314,-3.1605,-0.47431,6.32848,-25.54375,-2.85604,5.66951,-1.06035,-2.70874,6.52321
2327,-0.35656,0.0,-0.0,-3.42694,0.0,-0.0,-5.80625,-2.67705,15.27844,20.82979,5.13092,-6.22411,-19.17953,-3.03126,0.0,-13.11378,0.14525,-0.00017,36.94952,4.21221,9.72228,1.65608,0.18933,-13.62029,21.30036,15.44795,-27.93337,27.32882,-12.11814,38.76374,107.14435,0.00019,-82.94637,101.4206,0.00024,79.60852,-5.14181,16.79502,0.00749,-10.49048,-13.13996,0.00217,-2.7947,-0.41124,6.18714,-25.18207,-2.74389,5.56273,-1.16256,-2.76889,6.48798
2328,-0.58904,0.0,0.0,-3.97607,0.0,-0.0,-5.58422,-3.01753,15.39245,21.04483,4.92526,-6.33346,-19.24208,-2.97567,-4e-05,-13.14756,0.23109,0.0001,36.97738,4.16554,9.72505,1.66831,0.11011,-13.3729,21.90622,15.35695,-28.28795,27.41871,-12.20043,38.82798,107.17469,0.0001,-82.69341,101.38853,-0.00026,80.15926,-5.71869,15.72487,0.00887,-10.65434,-12.89868,0.00042,-2.38614,-0.40747,6.09553,-24.77682,-2.70551,5.47937,-1.25739,-2.77258,6.45799
2329,-0.80426,0.0,-0.0,-4.08231,-0.0,-0.0,-5.38104,-2.93338,15.29251,21.11055,4.55233,-6.35253,-19.39285,-2.89436,-0.00016,-13.03365,0.28813,0.00013,37.10368,4.18212,9.84738,1.67725,0.12193,-13.10051,22.36251,15.2944,-28.57094,27.52544,-12.27338,38.92272,107.14972,-0.00055,-82.74511,101.36433,-0.00051,79.93793,-6.57993,15.11569,0.00198,-10.86585,-12.4432,-0.00023,-2.07411,-0.45107,6.16299,-24.46311,-2.77152,5.52518,-1.29967,-2.73045,6.4531
2330,-0.80433,-0.0,0.0,-3.67877,0.0,-0.0,-5.289,-2.55097,15.11649,21.0402,4.20684,-6.21875,-19.60906,-2.83475,-0.00028,-12.82518,0.29588,-4e-05,37.32186,4.24672,9.99201,1.70626,0.17556,-12.9209,22.59145,15.33676,-28.75954,27.62894,-12.3283,39.0447,107.04057,-0.00138,-83.29048,101.35649,-0.00021,79.42539,-7.79628,15.04605,-0.00234,-10.94857,-11.94118,-0.0001,-1.92918,-0.48619,6.37539,-24.31088,-2.88488,5.70842,-1.27691,-2.67968,6.44019
2331,-0.64425,0.0,-0.0,-3.15593,0.0,0.0,-5.25469,-2.1712,14.97717,20.97737,4.08999,-5.99273,-19.89109,-2.81372,-0.00022,-12.64188,0.27433,-0.00012,37.62683,4.3509,10.04278,1.78994,0.2479,-12.91013,22.74113,15.48849,-28.95701,27.69302,-12.36252,39.16242,106.90355,-0.00089,-83.98037,101.36158,-0.0,79.00318,-9.23704,15.09641,-0.00028,-10.91513,-11.62343,-0.00075,-1.93174,-0.47532,6.62501,-24.30352,-2.96985,5.94368,-1.1979,-2.62719,6.39325
2332,-0.48984,0.0,0.0,-3.16122,0.0,-0.0,-5.19196,-1.98008,14.98085,21.06854,4.19431,-5.84441,-20.22948,-2.86441,0.00021,-12.58059,0.30125,-0.00018,37.99552,4.49334,9.90314,1.94217,0.31481,-13.00114,22.94189,15.67425,-29.20143,27.70655,-12.38177,39.23611,106.78638,0.00039,-84.27971,101.34349,-0.00068,78.47662,-10.40908,15.00635,0.00239,-10.8165,-11.62679,-0.00137,-2.0101,-0.43312,6.79073,-24.37437,-2.99389,6.11321,-1.09242,-2.55506,6.34365
2333,-0.36834,0.0,-0.0,-3.93468,0.0,0.0,-5.10743,-1.94169,15.20215,21.31869,4.36162,-5.90841,-20.56711,-3.0099,0.0006,-12.62813,0.42843,-0.00028,38.34845,4.651,9.58006,2.10861,0.34158,-13.06136,23.16488,15.81134,-29.42266,27.71557,-12.40401,39.26212,106.68396,0.00098,-84.09624,101.24577,-0.00175,77.82079,-11.0815,14.72735,0.00347,-10.78497,-11.92615,0.00041,-2.06107,-0.398,6.81139,-24.4238,-2.96927,6.14572,-1.01343,-2.45899,6.34634
2334,-0.19584,0.0,-0.0,-4.84367,0.0,-0.0,-5.04251,-1.93516,15.55649,21.56535,4.50664,-6.09752,-20.8558,-3.1812,0.00037,-12.67421,0.6077,-0.00017,38.58405,4.7837,9.25233,2.18249,0.31514,-13.06431,23.33089,15.89249,-29.54612,27.80636,-12.45578,39.2957,106.55154,0.00039,-83.84004,101.04966,-0.0012,77.5719,-11.52905,14.34861,0.00365,-11.02667,-12.30122,0.00327,-1.97,-0.38324,6.73162,-24.3357,-2.92528,6.07749,-1.0257,-2.35565,6.40389
2335,0.02564,0.0,0.0,-4.99304,-0.0,0.0,-4.96536,-1.87553,15.81355,21.61851,4.67865,-6.18487,-21.12093,-3.25986,-0.00018,-12.59702,0.74033,-5e-05,38.68969,4.86891,9.1358,2.10713,0.26339,-13.08369,23.45329,15.99472,-29.55061,28.03174,-12.56588,39.40058,106.35963,-0.00087,-83.90347,100.81539,0.00051,78.24894,-11.92876,14.09317,0.00191,-11.52986,-12.42103,0.00245,-1.67169,-0.37838,6.66991,-24.03978,-2.89729,6.02219,-1.15119,-2.25904,6.45219
2336,0.20515,0.0,-0.0,-4.37076,0.0,0.0,-4.80047,-1.76575,15.83949,21.45906,4.86382,-6.11999,-21.42828,-3.2244,-0.00047,-12.34877,0.78596,-0.00011,38.7766,4.93295,9.23432,1.94362,0.24685,-13.08656,23.6034,16.19977,-29.45123,28.35357,-12.73383,39.57919,106.15897,-0.00125,-84.29904,100.6218,0.00119,79.87094,-12.10587,14.0237,-0.00146,-12.07646,-12.06016,-0.0009,-1.21444,-0.37991,6.70209,-23.58126,-2.91096,6.0514,-1.32543,-2.16152,6.44126
2337,0.31666,0.0,0.0,-3.78474,-0.0,0.0,-4.54425,-1.71497,15.72773,21.23766,4.88951,-6.03405,-21.80093,-3.15769,-0.00035,-12.00548,0.78621,-8e-05,38.94757,5.01728,9.36876,1.80035,0.29616,-12.95387,23.7904,16.51444,-29.28606,28.66476,-12.89787,39.7817,106.05045,-0.00062,-84.69995,100.47266,0.00118,81.85078,-11.87571,13.88794,-0.00628,-12.60868,-11.39416,-0.00207,-0.74499,-0.37502,6.79352,-23.108,-2.94122,6.13793,-1.4579,-2.05962,6.39743
2338,0.40521,0.0,-0.0,-3.72047,0.0,0.0,-4.27799,-1.82533,15.63691,21.08947,4.67578,-5.96601,-22.20269,-3.1207,-0.00025,-11.72147,0.78529,3e-05,39.18061,5.11869,9.42729,1.72337,0.36711,-12.73299,23.94762,16.88057,-29.10499,28.86407,-12.986,39.9624,106.06819,-0.00056,-84.63133,100.32368,0.00084,83.34615,-11.10057,13.58565,-0.00535,-13.20269,-10.91526,0.00048,-0.40349,-0.31685,6.86574,-22.76239,-2.9149,6.22697,-1.52814,-1.98055,6.38316
2339,0.47594,0.0,0.0,-3.89706,0.0,0.0,-4.05107,-2.01059,15.6002,21.03707,4.44562,-5.82447,-22.61484,-3.12148,-0.00027,-11.58682,0.76775,4e-05,39.40099,5.22637,9.43834,1.6861,0.41033,-12.63235,24.02349,17.2445,-28.92903,28.95313,-13.01834,40.12894,106.13223,-3e-05,-83.7173,100.15969,-0.00035,83.88632,-9.58085,13.54426,0.01485,-13.78516,-10.88358,0.00285,-0.21388,-0.17909,6.9102,-22.5683,-2.80442,6.3206,-1.58434,-1.94157,6.42752
2340,0.47043,0.0,-0.0,-3.82114,-0.0,0.0,-3.81064,-2.00489,15.52492,21.02359,4.49619,-5.52166,-23.09608,-3.17515,1e-05,-11.55138,0.69772,-3e-05,39.604,5.39142,9.48254,1.65051,0.44044,-12.78764,24.04421,17.58751,-28.7377,29.0735,-13.1096,40.3493,106.14948,0.0023,-82.04471,99.96224,-0.00265,83.4794,-7.51706,14.17005,0.03652,-14.21847,-11.17141,0.00243,-0.07028,-0.02615,7.02012,-22.41721,-2.70476,6.48061,-1.67492,-1.90822,6.51801
2341,0.37196,-0.0,0.0,-3.35009,0.0,0.0,-3.48337,-1.6514,15.34537,20.97742,4.83547,-5.03149,-23.70419,-3.30215,0.00053,-11.52175,0.59574,-0.0001,39.83683,5.67411,9.61802,1.61404,0.48364,-13.14859,24.06454,17.90567,-28.49715,29.38808,-13.34379,40.66733,106.13779,0.00458,-80.37292,99.66593,-0.00427,82.48959,-5.80179,15.08092,0.02578,-14.49941,-11.62618,0.0016,0.15181,0.03613,7.29437,-22.18188,-2.7514,6.75826,-1.81029,-1.83431,6.63827
2342,0.2997,0.0,-0.0,-2.7639,0.0,0.0,-3.08222,-1.1697,15.16884,20.88113,5.20538,-4.45552,-24.37279,-3.49381,0.00072,-11.4783,0.53154,-9e-05,40.10932,6.04175,9.79648,1.61227,0.5166,-13.5029,24.08527,18.20424,-28.17086,29.92484,-13.68538,41.03429,106.17261,0.00661,-79.70406,99.2304,-0.0017,81.60802,-5.17271,15.47458,0.00529,-14.67163,-12.19476,0.0009,0.46589,-0.01858,7.71313,-21.84945,-2.96108,7.12531,-1.95988,-1.72219,6.78174
2343,0.38691,-0.0,-0.0,-2.39477,-0.0,0.0,-2.67298,-0.98767,15.19123,20.75861,5.41957,-3.99941,-24.97432,-3.71632,0.00055,-11.44934,0.53527,-3e-05,40.40103,6.40069,9.88201,1.68128,0.517,-13.62688,24.08552,18.51877,-27.74937,30.57642,-14.03592,41.38598,106.19604,0.00458,-80.50745,98.69444,0.00148,81.28324,-5.4835,15.1841,-0.00083,-14.68566,-12.84101,-0.00167,0.78004,-0.12613,8.13401,-21.517,-3.22032,7.47438,-2.06757,-1.60244,6.938
2344,0.60213,0.0,-0.0,-2.3258,0.0,-0.0,-2.27224,-1.31121,15.45226,20.62208,5.50513,-3.80142,-25.496,-3.92336,0.00055,-11.42799,0.57158,2e-05,40.7203,6.71395,9.81445,1.81011,0.52385,-13.46789,24.10201,18.91427,-27.29231,31.21647,-14.33796,41.72376,106.00581,-0.0062,-82.44933,98.11504,-0.00034,81.24599,-6.2293,14.73749,-0.00251,-14.44202,-13.5265,-0.00622,1.01746,-0.23743,8.41923,-21.26761,-3.4315,7.69643,-2.09682,-1.47328,7.09652
2345,0.8047,0.0,-0.0,-2.45631,-0.0,0.0,-1.86379,-1.91815,15.73431,20.4975,5.54053,-3.82498,-26.0352,-4.06293,0.00049,-11.38961,0.60953,8e-05,41.08398,7.01354,9.71107,1.9442,0.57991,-13.16108,24.1744,19.4427,-26.87775,31.76715,-14.60547,42.04489,105.50407,-0.01519,-84.73539,97.51777,-0.00203,81.17892,-7.13147,14.48664,-0.0032,-13.92261,-14.0844,-0.00799,1.17759,-0.37017,8.54664,-21.104,-3.60263,7.76413,-2.067,-1.3145,7.25933
2346,0.86711,-0.0,0.0,-2.52297,-0.0,-0.0,-1.47527,-2.28014,15.66806,20.41166,5.57771,-3.86609,-26.65702,-4.08409,-0.00045,-11.35341,0.64509,0.0001,41.48035,7.30663,9.82101,2.04963,0.6517,-12.97322,24.2577,20.09992,-26.50422,32.19849,-14.89818,42.27304,104.83295,-0.01155,-86.57261,96.92245,0.00192,81.3522,-8.03587,14.31704,-0.00138,-13.15744,-14.21106,-0.00215,1.307,-0.54655,8.57901,-20.97723,-3.77812,7.72712,-2.02633,-1.14978,7.41898
2347,0.71304,0.0,0.0,-2.19296,0.0,0.0,-1.13808,-1.99154,15.04928,20.32885,5.72322,-3.71115,-27.35328,-3.96886,-0.00193,-11.33523,0.65358,-0.0,41.89284,7.54276,10.31429,2.13388,0.67164,-13.14963,24.29213,20.82186,-26.07784,32.53189,-15.28261,42.35187,104.18843,0.00021,-87.38026,96.36286,0.00554,81.98317,-8.73553,14.13679,0.00013,-12.02662,-13.78419,0.00887,1.48531,-0.73481,8.57805,-20.80379,-3.95194,7.65467,-2.00675,-1.0359,7.53706
2348,0.39587,0.0,-0.0,-1.48867,0.0,0.0,-0.81474,-1.17371,14.14149,20.19743,6.06495,-3.3666,-28.07817,-3.78852,-0.00234,-11.2744,0.59205,-0.00031,42.29641,7.69616,11.05227,2.18609,0.6316,-13.62217,24.30194,21.52444,-25.4904,32.84657,-15.77847,42.36367,103.62679,0.01155,-86.83197,95.84446,0.00327,82.62766,-8.90488,14.10879,0.00214,-10.45007,-13.07274,0.01287,1.80488,-0.88859,8.61077,-20.48666,-4.10664,7.62655,-2.02793,-0.99339,7.59261
2349,0.14937,0.0,-0.0,-0.88105,0.0,0.0,-0.47173,-0.32525,13.51488,20.04606,6.46913,-3.05976,-28.75638,-3.7043,-0.00085,-11.10627,0.47157,-0.00056,42.61613,7.82375,11.65723,2.15891,0.57721,-13.97951,24.33682,22.18311,-24.70752,33.24901,-16.32193,42.49343,103.1204,0.01477,-85.23637,95.27888,-0.00123,82.80315,-8.34212,14.34979,0.00613,-8.92911,-12.534,0.00475,2.29639,-1.01246,8.77305,-19.99029,-4.28281,7.72997,-2.11827,-0.99747,7.62912
2350,0.26367,0.0,-0.0,-0.76635,-0.0,0.0,-0.14901,0.13631,13.5765,19.958,6.65499,-3.01992,-29.32147,-3.8644,0.00136,-10.86108,0.37606,-0.00033,42.77203,8.00664,11.82166,2.02431,0.53938,-13.8444,24.36206,22.87944,-23.78359,33.80763,-16.78971,42.88829,102.68581,0.00676,-83.87539,94.50747,-0.00396,82.60137,-7.46404,14.68289,0.00676,-8.31618,-12.48943,0.00112,2.89129,-1.13692,9.11417,-19.3811,-4.52727,7.99919,-2.29812,-1.02145,7.69838
2351,0.8503,0.0,0.0,-1.04437,0.0,0.0,0.12999,0.08698,14.26797,19.94916,6.55775,-3.29109,-29.7967,-4.24353,0.00247,-10.6108,0.36526,7e-05,42.78976,8.25267,11.55226,1.80542,0.5168,-13.23695,24.28805,23.72657,-22.79957,34.5038,-17.0945,43.54189,102.369,-0.00249,-84.08951,93.44958,-0.00499,82.34656,-7.08251,14.7993,0.00571,-8.7728,-12.96359,0.00647,3.47275,-1.2425,9.56102,-18.77848,-4.79423,8.37388,-2.54235,-1.04891,7.78077
2352,1.74071,0.0,-0.0,-1.34253,0.0,-0.0,0.42525,-0.3559,15.11446,19.96786,6.42033,-3.73892,-30.29398,-4.60195,0.00136,-10.38284,0.41257,0.00022,42.80819,8.47175,11.16731,1.55715,0.48927,-12.53692,24.10411,24.76271,-21.82919,35.24812,-17.29611,44.28344,102.13996,-0.00448,-85.77493,92.21989,-0.00447,82.23258,-7.56438,14.67061,0.00484,-9.47558,-13.66783,0.00586,3.94667,-1.26681,9.9696,-18.28198,-4.97134,8.74412,-2.77643,-1.07031,7.80854
2353,2.62719,0.0,-0.0,-1.48117,-0.0,-0.0,0.80418,-0.92164,15.57559,20.00531,6.48533,-4.17395,-30.91179,-4.69892,-0.00159,-10.17466,0.46123,0.00014,42.95492,8.57497,11.02199,1.331,0.43772,-12.13998,23.90348,25.94499,-20.95855,35.94151,-17.5934,44.89776,101.86692,-0.0007,-87.49738,91.0587,-0.00178,82.45052,-8.63413,14.65034,-0.00185,-9.58124,-14.15078,0.00281,4.28501,-1.18888,10.25947,-17.92386,-5.00879,9.043,-2.92518,-1.08026,7.75913
2354,3.18788,0.0,-0.0,-1.47898,0.0,-0.0,1.28426,-1.25468,15.4004,20.0751,6.78985,-4.36063,-31.65234,-4.53318,-0.00364,-9.99457,0.46875,-2e-05,43.24379,8.58637,11.22244,1.15186,0.3772,-12.23342,23.75274,27.18808,-20.24667,36.52937,-18.16137,45.28763,101.43926,0.00508,-88.20255,90.12207,0.00108,83.20291,-9.85141,14.96672,-0.0078,-9.142,-14.1002,0.00452,4.52888,-1.06091,10.47233,-17.66274,-4.97071,9.28933,-2.96953,-1.06302,7.6947
2355,3.15213,-0.0,0.0,-1.3229,-0.0,0.0,1.86688,-1.12268,14.71749,20.1413,7.19704,-4.06865,-32.4191,-4.31673,-0.00276,-9.87052,0.41494,-0.00013,43.58641,8.60814,11.59831,1.02716,0.34005,-12.76573,23.60437,28.38717,-19.62599,37.03771,-19.00047,45.55562,100.91303,0.00621,-88.18334,89.34059,0.00319,84.45107,-10.94745,15.36465,-0.00457,-8.91169,-13.5263,0.00025,4.7559,-0.95737,10.69114,-17.41859,-4.95744,9.53191,-2.95413,-1.00731,7.70362
2356,2.58982,0.0,0.0,-1.09318,0.0,-0.0,2.5306,-0.6687,13.92411,20.19717,7.4736,-3.40826,-33.08484,-4.28542,-0.00028,-9.83781,0.33353,-0.00021,43.84711,8.70832,11.85169,0.93656,0.32591,-13.37831,23.36354,29.47568,-18.90854,37.56834,-19.95911,45.93674,100.47865,0.00293,-88.32992,88.51379,0.0045,85.85598,-11.86768,15.48272,0.00208,-9.42363,-12.64772,-0.00971,5.04797,-0.92202,10.95306,-17.10846,-5.02351,9.78876,-2.97262,-0.93776,7.81864
2357,2.03762,-0.0,0.0,-1.06774,0.0,0.0,3.19238,-0.27372,13.46042,20.32088,7.47602,-2.90588,-33.59479,-4.55394,0.00145,-9.91476,0.28034,-0.0003,43.89982,8.87391,11.75976,0.80672,0.3027,-13.55706,23.01455,30.4915,-17.95978,38.20219,-20.88936,46.56939,100.2326,0.00143,-88.94764,87.52323,0.00387,87.06136,-12.61256,15.33668,0.00444,-10.40733,-11.68146,-0.01072,5.44126,-0.9467,11.23732,-16.6972,-5.15352,10.0437,-3.13744,-0.90669,8.00759
2358,1.9345,0.0,0.0,-1.34278,-0.0,0.0,3.76818,-0.09316,13.49146,20.53947,7.35322,-2.90528,-34.00413,-5.03537,0.00166,-10.09305,0.23082,-0.00013,43.74062,9.01819,11.374,0.59958,0.23208,-13.20114,22.62974,31.56384,-16.8134,38.88127,-21.76244,47.31325,100.03373,0.00214,-89.56365,86.40224,0.00131,87.95668,-13.01867,15.30587,0.00452,-11.16008,-10.78598,-0.00133,5.85938,-0.97966,11.46058,-16.26511,-5.26815,10.23888,-3.45868,-0.96325,8.21954
2359,2.18321,0.0,-0.0,-1.64458,-0.0,-0.0,4.2318,0.06191,13.83039,20.76063,7.38065,-3.20889,-34.38689,-5.50315,0.00074,-10.3554,0.1008,0.00039,43.51985,9.02085,10.95189,0.40248,0.08198,-12.76579,22.19319,32.81593,-15.53185,39.43825,-22.66534,47.90109,99.68259,0.00337,-89.77311,85.25604,-0.00465,88.53008,-12.92443,15.72807,0.00746,-11.34527,-10.06977,0.00606,6.15215,-0.9838,11.50509,-15.96943,-5.28874,10.27872,-3.77824,-1.12512,8.41365
2360,2.57992,0.0,-0.0,-1.75785,0.0,0.0,4.57986,0.34214,14.24329,20.91029,7.56951,-3.53894,-34.75332,-5.79529,-0.00034,-10.70794,-0.11546,0.00059,43.38378,8.82007,10.63033,0.33369,-0.14493,-12.60458,21.49927,34.26535,-14.05941,39.75546,-23.73409,48.26769,99.16643,0.00321,-89.78582,84.18008,-0.0093,88.76791,-12.60906,16.51038,0.00718,-11.22464,-9.48184,0.00512,6.24514,-0.97805,11.33805,-15.88762,-5.2205,10.12553,-3.92863,-1.35229,8.56591
2361,3.18125,0.0,0.0,-1.73109,-0.0,0.0,4.83632,0.62088,14.66514,21.01549,7.67275,-3.91908,-35.08771,-5.90942,-0.00069,-11.20755,-0.32875,-0.0003,43.35079,8.4583,10.34742,0.43692,-0.41903,-12.58188,20.37142,35.81332,-12.34212,39.85483,-25.06,48.60254,98.60303,0.00229,-89.98994,83.18497,-0.00136,89.03586,-12.67608,17.18871,0.00258,-11.25814,-8.80718,-0.00161,6.20335,-0.96661,11.07636,-15.94649,-5.11129,9.8865,-3.88393,-1.58261,8.67179
2362,4.0108,-0.0,0.0,-1.56711,-0.0,0.0,5.06085,0.72176,15.12608,21.12057,7.55396,-4.48772,-35.37373,-5.91706,-0.00038,-11.9613,-0.4752,-0.00219,43.34335,8.00401,10.08045,0.7198,-0.75021,-12.39453,18.91152,37.32269,-10.48953,39.83777,-26.61032,49.06948,98.05043,0.00151,-90.55753,82.13991,0.0133,89.87666,-13.37304,17.43826,0.00194,-11.60592,-8.01727,-0.00746,6.13629,-0.88487,10.85049,-16.0256,-4.95041,9.70748,-3.7048,-1.82655,8.75691
2363,4.89238,0.0,-0.0,-1.18717,0.0,0.0,5.26501,0.67974,15.63967,21.20296,7.32016,-5.28448,-35.57019,-5.85965,7e-05,-13.08478,-0.59145,-0.00364,43.28032,7.4832,9.93286,1.20842,-1.17411,-11.90808,17.38543,38.70533,-8.6828,39.75299,-28.25828,49.57127,97.51485,-0.0002,-91.68806,80.83466,0.00867,91.01295,-14.38567,17.35627,0.00315,-11.90705,-7.50536,-0.00955,6.0956,-0.71491,10.64309,-16.0742,-4.71478,9.57909,-3.42456,-2.15394,8.87825
2364,5.54842,0.0,-0.0,-0.66618,0.0,0.0,5.43575,0.62131,16.14723,21.18955,7.14343,-6.2342,-35.66626,-5.69305,0.00011,-14.62928,-0.78726,-0.00311,43.1209,6.90532,10.0087,1.88946,-1.6454,-11.22811,15.93906,39.93909,-6.96311,39.51588,-29.91097,49.84018,97.05756,-0.00166,-93.80338,79.14616,-0.01728,91.55597,-15.23375,17.07616,0.00252,-11.70252,-7.68964,-0.01359,6.07846,-0.57968,10.35147,-16.10566,-4.47948,9.3594,-3.05991,-2.56709,9.07849
2365,5.63865,0.0,0.0,-0.10319,0.0,-0.0,5.68475,0.51444,16.5432,21.00937,7.10275,-7.19295,-35.7373,-5.33477,-0.00055,-16.56282,-1.1537,-0.00165,42.83594,6.29747,10.31237,2.6574,-2.03645,-10.58256,14.5457,41.01754,-5.19488,38.99995,-31.58896,49.77271,96.74259,-0.00237,-97.00844,77.15805,-0.0248,91.45095,-15.50493,16.46485,-0.00317,-11.1719,-8.49008,-0.01149,6.08378,-0.60574,9.97269,-16.1243,-4.36052,8.99779,-2.6894,-2.96664,9.33319
2366,5.2085,0.0,0.0,0.59943,0.0,-0.0,6.13037,0.28969,16.80841,20.61593,7.13245,-8.07751,-35.85795,-4.84072,-0.00111,-18.87341,-1.67369,-0.00106,42.44035,5.70003,10.67128,3.47288,-2.24931,-10.05936,13.16177,41.92937,-3.25686,38.22832,-33.37487,49.61052,96.48569,-0.00592,-100.32819,75.11511,-0.0015,91.53924,-15.01628,15.50163,-0.01097,-11.0023,-9.44575,0.00069,6.12808,-0.75936,9.63099,-16.10451,-4.37353,8.62231,-2.3945,-3.23743,9.5574
2367,4.91426,-0.0,-0.0,1.57643,0.0,0.0,6.66216,0.08351,17.02101,19.94105,7.05876,-8.9276,-36.00283,-4.44354,-0.00068,-21.66049,-2.25822,0.0028,42.01147,5.15664,10.79588,4.48102,-2.26027,-9.56376,11.84667,42.70303,-1.23804,37.37657,-35.29633,49.65915,96.05791,-0.00419,-102.19824,73.24745,0.01987,92.26976,-14.02946,14.51254,-0.00976,-11.39966,-10.13212,0.0065,6.20632,-0.90117,9.41735,-16.04251,-4.42392,8.37016,-2.17604,-3.32332,9.66166
2368,5.19714,0.0,-0.0,2.77575,0.0,-0.0,7.07713,0.07182,17.13949,18.83536,6.75996,-9.80941,-36.10514,-4.29446,-2e-05,-25.06684,-2.859,0.0155,41.58064,4.70756,10.5789,5.83382,-2.08045,-9.05717,10.71643,43.41509,0.61644,36.54363,-37.26924,49.88437,95.27237,0.01322,-101.88714,71.6292,0.01858,93.27904,-13.01791,13.8377,-0.00163,-11.78883,-10.30914,0.00421,6.26278,-0.94424,9.27594,-15.99515,-4.41024,8.22255,-2.02424,-3.23481,9.58951
2369,5.82704,0.0,-0.0,3.90731,-0.0,0.0,7.31052,0.19439,16.97358,17.13611,6.29864,-10.77213,-36.14685,-4.2989,0.00013,-29.15592,-3.43149,0.0287,41.1194,4.35917,10.21221,7.56819,-1.76808,-8.58282,9.78775,44.11787,2.14577,35.63714,-39.17635,49.96379,94.13357,0.03016,-99.94423,70.17333,-0.00226,93.9004,-12.24731,13.61629,0.004,-11.65753,-9.99652,0.00394,6.22563,-0.9153,9.07254,-16.04251,-4.30641,8.04479,-1.94385,-3.0279,9.31879
2370,6.47706,0.0,0.0,4.42958,0.0,0.0,7.40321,0.25976,16.47418,14.81209,5.82824,-11.8175,-36.11875,-4.30184,3e-05,-33.89253,-3.80548,0.0214,40.62302,4.04998,9.88973,9.69773,-1.48139,-8.10258,8.91979,44.80427,3.39197,34.52888,-40.97923,49.66282,92.83982,0.0243,-97.5498,68.72717,-0.02672,93.74607,-11.76246,13.7992,0.0042,-11.13844,-9.48197,0.00402,6.0586,-0.89361,8.70941,-16.22803,-4.1487,7.71613,-1.89173,-2.78219,8.86639
2371,7.03443,0.0,-0.0,3.72957,-0.0,0.0,7.43827,0.19643,15.83701,12.02516,5.38999,-12.83171,-35.97128,-4.2784,-0.0001,-39.19135,-3.73862,-0.01326,40.07722,3.69699,9.57842,12.22293,-1.39866,-7.52775,7.95267,45.44466,4.50118,33.23526,-42.69832,49.00647,91.6701,0.00398,-95.66175,67.16211,-0.02927,93.18861,-11.55469,14.17315,0.00172,-10.56178,-9.08668,0.00241,5.77032,-0.90867,8.16942,-16.54362,-3.95775,7.20961,-1.83,-2.54551,8.28358
2372,7.42742,0.0,0.0,1.61044,0.0,-0.0,7.55518,0.06862,15.26028,9.14189,4.89975,-13.65803,-35.68269,-4.2672,-0.00017,-44.92092,-3.16081,-0.04836,39.39287,3.30135,9.18465,15.02763,-1.52937,-6.84239,6.88275,45.99522,5.58786,31.92967,-44.32136,48.20187,90.7956,-0.00885,-94.56398,65.40685,0.0013,93.21235,-11.59348,14.5049,0.00049,-9.97408,-8.96754,0.0001,5.41314,-0.89983,7.54375,-16.92949,-3.7119,6.63299,-1.82124,-2.28219,7.62265
2373,7.80405,0.0,0.0,-1.32774,0.0,0.0,7.82902,-0.02971,14.75801,6.69065,4.30911,-14.18351,-35.326,-4.25936,-2e-05,-50.88731,-2.34304,-0.04492,38.50093,2.97178,8.76111,17.92352,-1.66598,-6.15542,5.88267,46.40381,6.67094,30.8047,-45.81226,47.50896,90.17941,-0.01065,-94.18832,63.46748,0.03538,94.38365,-11.78618,14.63891,0.00136,-9.29097,-9.16634,-0.00367,5.09393,-0.78024,7.02819,-17.26797,-3.40525,6.20086,-1.95576,-1.91134,6.92721
2374,8.62175,0.0,-0.0,-3.95597,-0.0,-0.0,8.14334,-0.03634,14.23896,5.14548,3.66733,-14.3216,-35.01837,-4.2406,0.00011,-56.89334,-1.72786,-0.00299,37.48286,2.81135,8.42381,20.83237,-1.6036,-5.69755,5.18091,46.6789,7.62659,29.91805,-47.18584,47.07892,89.70287,-0.00733,-94.38398,61.42908,0.03499,96.16759,-11.91511,14.47365,0.00098,-8.57968,-9.62258,-0.0062,4.92413,-0.53595,6.77515,-17.44285,-3.08306,6.0596,-2.21609,-1.40979,6.24966
2375,9.95835,-0.0,0.0,-5.47791,0.0,0.0,8.34256,0.01849,13.65713,4.67941,3.11069,-14.11041,-34.83001,-4.24113,0.0001,-62.81382,-1.51531,0.0339,36.49948,2.79772,8.19041,23.81807,-1.38035,-5.6576,4.91513,46.91921,8.21975,29.19447,-48.50251,46.87274,89.33041,-0.00213,-94.69151,59.39318,0.00387,97.55171,-11.68472,14.03178,-0.0032,-8.105,-10.05456,-0.00457,4.91552,-0.25985,6.72051,-17.44828,-2.80693,6.1142,-2.51372,-0.85615,5.62412
2376,11.31839,0.0,0.0,-5.97971,0.0,0.0,8.40313,0.05795,12.99722,5.12187,2.83546,-13.81886,-34.75906,-4.25217,4e-05,-68.58619,-1.50901,0.03587,35.64499,2.82379,8.02981,26.96581,-1.18848,-5.95662,5.03518,47.2368,8.30901,28.55792,-49.79604,46.76523,89.08391,0.00081,-94.64542,57.42319,-0.02206,98.08134,-11.10566,13.49907,-0.00638,-8.0659,-10.10578,-0.00266,4.9688,-0.08742,6.66451,-17.39417,-2.62617,6.12804,-2.80095,-0.35378,5.02674
2377,12.48315,0.0,0.0,-5.97083,0.0,-0.0,8.36745,0.08818,12.17579,6.09942,2.86184,-13.74211,-34.76718,-4.1668,-0.0002,-74.1784,-1.38132,0.01353,34.92731,2.82519,7.99051,30.30962,-1.11922,-6.30992,5.33085,47.67236,8.0105,28.00434,-51.04972,46.67534,88.94379,-0.00035,-94.55354,55.55668,-0.01952,98.17722,-10.88483,13.07122,-0.00523,-8.22362,-9.67624,-0.00055,4.97683,-0.08357,6.52163,-17.39186,-2.56825,5.99724,-3.08447,0.06657,4.39789
2378,13.72867,0.0,-0.0,-5.58716,-0.0,0.0,8.28155,0.15987,11.09068,7.2518,2.86424,-13.90343,-34.81734,-3.88962,-0.00058,-79.57504,-0.94894,-0.00903,34.3037,2.80246,8.14575,33.81466,-1.15404,-6.52227,5.5795,48.18123,7.59686,27.55615,-52.23659,46.59853,88.87169,-0.00175,-95.34531,53.80152,-0.00336,98.47027,-11.99615,12.80873,-0.00376,-8.11991,-9.00009,0.00288,4.89549,-0.17762,6.37346,-17.48065,-2.59881,5.82425,-3.38802,0.45171,3.67498
2379,15.29081,0.0,0.0,-4.71987,-0.0,0.0,8.18969,0.23716,9.79284,8.44161,2.52482,-14.06859,-34.86762,-3.47755,-0.00062,-84.74174,-0.21684,-0.01908,33.68895,2.75585,8.41261,37.37856,-1.31166,-6.59094,5.68698,48.68487,7.26474,27.18675,-53.34172,46.55445,88.89724,0.00086,-97.28456,52.09617,0.00469,99.05135,-14.51695,12.59774,-0.00088,-7.72216,-8.4792,0.00242,4.71932,-0.22505,6.28728,-17.66096,-2.60986,5.7264,-3.72439,0.85491,2.79955
2380,17.11558,0.0,-0.0,-3.78628,-0.0,0.0,8.10967,0.22026,8.50718,9.77597,1.90843,-13.96839,-34.86136,-3.08207,-0.00018,-89.62846,0.70043,-0.01751,32.97417,2.64588,8.56871,40.8954,-1.65489,-6.55335,5.75117,49.12832,6.99985,26.79813,-54.36106,46.48538,89.0963,0.00264,-99.30616,50.33025,0.00762,99.7336,-17.17593,12.2059,0.00165,-7.42865,-8.43379,0.00023,4.44666,-0.15394,6.18925,-17.93615,-2.50679,5.66277,-4.09467,1.26092,1.76253
2381,18.64873,-0.0,0.0,-3.53919,0.0,-0.0,8.13107,0.0528,7.41595,11.35579,1.21689,-13.44536,-34.78611,-2.74941,0.00019,-94.22643,1.65345,-0.01041,32.06201,2.41229,8.52487,44.30823,-2.20475,-6.41524,6.02401,49.46346,6.63148,26.2738,-55.33721,46.2515,89.4539,-0.00235,-100.12628,48.45524,0.00819,100.49376,-18.44731,11.59414,-0.00399,-7.46345,-8.89456,0.00055,4.09957,-0.02992,5.94856,-18.29021,-2.30045,5.4873,-4.53963,1.59149,0.66618
2382,19.04655,0.0,0.0,-3.95209,0.0,0.0,8.44453,-0.2605,6.53258,13.04712,0.47827,-12.53319,-34.70994,-2.42169,0.00017,-98.53953,2.50738,-0.00303,30.88665,2.08367,8.38441,47.57676,-2.86769,-6.2428,6.68588,49.6156,6.06294,25.60389,-56.35852,45.80579,89.83743,-0.00667,-99.59396,46.5848,-0.0034,101.20753,-17.91241,11.14155,-0.00271,-7.56823,-9.53618,0.00073,3.75219,0.0395,5.57625,-18.64981,-2.0944,5.16928,-5.17264,1.83431,-0.32004
2383,18.04273,-0.0,0.0,-4.0313,-0.0,0.0,9.11701,-0.7016,5.8215,14.52631,-0.24002,-11.44134,-34.6987,-2.12815,6e-05,-102.50823,3.18413,0.00017,29.45294,1.86505,8.18268,50.70693,-3.42453,-6.17238,7.57843,49.56448,5.46541,25.02029,-57.44694,45.36017,90.16822,-0.00431,-98.64021,44.9258,-0.01657,101.71152,-16.4236,11.20834,0.00734,-7.33851,-9.7841,0.00326,3.50413,0.02847,5.30472,-18.90715,-2.0011,4.91389,-6.08209,2.12185,-1.0972
2384,16.33653,0.0,-0.0,-3.07767,0.0,0.0,9.94351,-1.26023,5.32184,15.5063,-0.62678,-10.38083,-34.72761,-2.01037,0.00016,-106.07112,3.67334,-0.00246,27.87909,1.9828,7.77968,53.86386,-3.70147,-6.29137,8.34958,49.44194,5.10767,24.93409,-58.50517,45.2895,90.50178,0.00251,-98.36717,43.54517,-0.00634,102.45019,-15.27592,11.63863,0.00495,-6.80416,-9.21236,0.00667,3.41584,0.00347,5.37104,-18.9936,-2.0495,4.96569,-7.20019,2.58798,-1.70822
2385,15.31292,0.0,0.0,-1.60252,0.0,0.0,10.55664,-1.85274,5.0936,15.93853,-0.42778,-9.43173,-34.70056,-2.16247,-0.00015,-109.26167,3.94794,-0.00378,26.34498,2.45999,7.02349,57.29692,-3.76317,-6.66894,8.9561,49.42993,4.94862,25.55159,-59.43678,45.72854,90.86678,0.00754,-99.25954,42.26866,0.02137,104.1616,-15.21623,11.98642,-0.00219,-6.37183,-8.0394,0.00217,3.47539,0.05429,5.69189,-18.92237,-2.12481,5.28191,-8.32989,3.2331,-2.27369
2386,16.17138,0.0,0.0,-0.51942,0.0,-0.0,10.70505,-2.22564,5.01645,16.02549,0.20863,-8.6088,-34.53917,-2.5175,-0.00089,-112.14638,3.87139,0.00363,24.94929,3.14901,5.96173,61.05544,-3.84546,-7.49949,9.80677,49.58204,4.55384,26.57338,-60.25801,46.29025,91.15926,0.00436,-100.8623,40.89849,0.02794,106.56322,-16.06184,11.88048,0.00271,-6.08288,-7.04297,-0.00434,3.6434,0.24302,5.86774,-18.74543,-2.0173,5.51655,-9.31813,4.00195,-2.89846
2387,18.56626,-0.0,-0.0,0.12699,0.0,0.0,10.54342,-2.12679,4.76096,16.0987,0.88168,-7.99056,-34.26045,-2.8977,-0.00093,-114.73026,3.33051,0.0129,23.59668,3.89355,4.87707,64.85134,-4.15027,-8.93981,11.32056,49.80969,3.49928,27.43418,-61.0725,46.34514,91.25899,-0.0018,-102.18582,39.47772,0.00154,108.43674,-17.14632,11.07775,0.01113,-5.44089,-6.7867,-0.0097,3.92554,0.57094,5.57594,-18.46993,-1.60294,5.37161,-10.21668,4.85398,-3.64484
2388,20.70985,-0.0,0.0,0.95562,-0.0,0.0,10.54983,-1.64546,4.10156,16.5278,1.3108,-7.74407,-33.97364,-3.1716,-0.00027,-116.98575,2.45251,0.01328,22.0698,4.59601,4.0529,68.29419,-4.71223,-10.81034,13.48029,49.97804,1.8179,27.75833,-61.98981,45.51891,91.13944,-0.00183,-102.52037,38.25385,-0.01969,109.4196,-17.83111,9.7396,0.0064,-4.15837,-7.1015,-0.01119,4.34592,0.95608,4.8861,-18.06984,-0.98396,4.88057,-11.23873,5.71518,-4.50206
2389,21.30796,0.0,0.0,2.04906,0.0,0.0,11.05174,-1.22542,3.14189,17.59343,1.4692,-8.00689,-33.79092,-3.33646,0.00015,-118.91329,1.53291,0.0064,20.2692,5.24314,3.56499,71.2808,-5.37775,-12.698,15.86674,50.01106,-0.01194,27.54693,-63.06797,43.92113,90.83215,0.00329,-101.84851,37.39074,-0.01891,110.40695,-17.76146,8.67397,0.00084,-2.61703,-7.47864,-0.00454,4.82373,1.30438,4.14963,-17.61308,-0.3811,4.33277,-12.50157,6.48514,-5.33501
2390,20.47255,-0.0,0.0,2.71813,-0.0,-0.0,11.97394,-1.24641,2.19468,19.22868,1.49437,-8.6862,-33.7597,-3.47815,0.00026,-120.51738,0.80627,-0.00053,18.34269,5.91125,3.29654,74.07613,-5.95349,-14.28973,18.00402,49.94675,-1.48106,27.11527,-64.28132,42.05733,90.39353,0.00591,-100.71492,36.76079,-0.01058,112.03745,-17.11945,8.66594,0.00738,-1.39298,-7.71014,0.00139,5.16116,1.61889,3.65622,-17.28905,0.0979,3.99695,-13.87362,7.12086,-5.9681
2391,19.13214,0.0,-0.0,2.45746,-0.0,0.0,12.98055,-1.62894,1.52279,20.91099,1.51057,-9.41142,-33.87188,-3.6893,0.00048,-121.74622,0.38192,-0.00401,16.53173,6.68314,3.04337,76.98906,-6.41357,-15.48588,19.60666,49.87343,-2.36217,26.87981,-65.5377,40.48517,89.93991,0.00294,-99.81834,36.05653,-0.00143,114.1013,-16.56475,9.57081,0.00673,-0.72796,-7.88531,0.00232,5.22334,1.95254,3.44235,-17.23319,0.4879,3.92682,-15.14067,7.66667,-6.36874
2392,18.46783,-0.0,-0.0,1.60768,-0.0,0.0,13.70862,-1.96996,1.12639,22.02224,1.52814,-9.8428,-34.07881,-3.98635,0.00062,-122.52021,0.24684,-0.0034,14.90826,7.56752,2.6752,80.06926,-6.8884,-16.3486,20.65901,49.82489,-2.72303,27.09891,-66.74541,39.47585,89.59715,-0.0009,-99.57884,35.05494,0.00782,116.26594,-16.68385,10.53347,-0.0012,-0.65034,-7.99094,0.0005,5.09196,2.26687,3.36825,-17.36788,0.80668,3.97847,-16.27097,8.20142,-6.66915
2393,19.19187,0.0,0.0,0.95293,0.0,0.0,14.01328,-2.10839,0.79927,22.40257,1.55654,-9.99639,-34.30847,-4.31561,0.00037,-122.8538,0.21045,-0.00138,13.31812,8.51722,2.21547,83.15423,-7.47458,-17.05744,21.41822,49.76719,-2.84644,27.83702,-67.85516,39.02344,89.36506,-0.00273,-100.02876,33.69436,0.0141,118.39193,-17.49424,10.91973,-1e-05,-1.12242,-7.86684,-0.00308,4.98753,2.4346,3.28751,-17.47546,0.9925,3.968,-17.43542,8.77238,-7.00822
2394,21.07947,0.0,-0.0,0.76103,0.0,0.0,14.0373,-2.2741,0.41053,22.47796,1.681,-10.08681,-34.53775,-4.63889,-0.00015,-122.90107,0.01418,-0.00257,11.59173,9.49282,1.72274,86.07764,-8.18067,-17.78235,22.20792,49.65781,-3.06542,29.11483,-68.85577,39.03883,89.13407,-0.00318,-100.89626,31.99398,0.00963,120.2698,-18.43705,10.71365,0.00409,-1.87041,-7.49046,-0.00452,5.03269,2.38445,3.13868,-17.43382,1.00298,3.81139,-18.79505,9.39962,-7.43277
2395,23.41841,0.0,-0.0,0.40892,0.0,0.0,14.00706,-2.62102,-0.04877,22.78267,1.89693,-10.17326,-34.83728,-4.9308,-0.00137,-122.8243,-0.31572,-0.00782,9.69372,10.52695,1.26478,88.72983,-8.99508,-18.45752,23.06562,49.47958,-3.47032,30.88123,-69.77258,39.31834,88.85939,-0.00181,-101.69838,30.05854,-0.00511,121.61996,-18.73103,10.3183,0.00462,-2.48342,-7.06911,-0.00174,5.12896,2.19079,2.95068,-17.34096,0.89581,3.56376,-20.38233,10.134,-7.89912
2396,25.42351,0.0,0.0,-0.66241,0.0,0.0,14.09615,-3.02687,-0.60197,23.37158,2.06212,-10.15809,-35.30093,-5.14764,-0.00334,-122.62483,-0.28793,-0.01094,7.65701,11.74354,0.99361,91.04343,-9.87193,-18.7115,23.70975,49.24423,-3.85756,32.87506,-70.66283,39.44297,88.61891,-0.00018,-102.0981,28.094,-0.01247,122.4809,-17.88048,10.17927,0.00983,-2.75365,-6.84893,0.00087,5.09105,2.01686,2.78553,-17.38169,0.79817,3.34475,-22.1495,11.04663,-8.26066
2397,26.4833,0.0,0.0,-1.86862,0.0,-0.0,14.42394,-3.35929,-1.15436,23.78784,2.15448,-9.95089,-35.97352,-5.36215,-0.00291,-122.14042,0.70332,-0.00112,5.56765,13.25843,0.90137,93.07143,-10.74632,-18.11335,23.91842,48.97603,-4.08873,34.73043,-71.58347,39.009,88.48853,-0.00021,-102.15345,26.28272,-0.00299,123.28873,-16.1149,10.33708,0.01217,-2.6959,-6.88666,0.00081,4.85117,1.98709,2.63568,-17.62468,0.82791,3.19497,-23.97803,12.14119,-8.34073
2398,26.81181,-0.0,0.0,-1.99292,0.0,0.0,14.94342,-3.55974,-1.40764,23.61215,2.32381,-9.48291,-36.87423,-5.81224,0.00204,-121.20495,2.76375,0.01975,3.61715,15.04931,0.63202,94.9903,-11.62442,-16.56417,23.79822,48.66392,-4.3224,36.20053,-72.56812,37.90083,88.43507,0.00014,-101.90192,24.68739,0.00964,124.38691,-14.2771,10.34978,0.00182,-2.36052,-7.02136,4e-05,4.48909,2.10162,2.38753,-17.99262,1.02855,3.00959,-25.70133,13.31716,-8.1198
2399,27.47544,0.0,-0.0,-0.60873,0.0,0.0,15.37153,-3.56385,-1.28816,22.92672,2.56342,-8.7425,-38.01909,-6.56805,0.00551,-119.76589,5.27185,0.02905,1.98365,16.93562,0.02289,96.94073,-12.50639,-14.49141,23.63124,48.25262,-4.77587,37.21948,-73.64629,36.24814,88.34525,0.00361,-101.06834,23.33212,0.0083,125.57104,-13.16831,9.87787,-0.00356,-1.84899,-7.06093,0.00022,4.12579,2.26257,1.93477,-18.36575,1.35031,2.65303,-27.24402,14.41366,-7.7449
2400,29.1056,0.0,0.0,1.31052,0.0,-0.0,15.4525,-3.40578,-1.12451,22.27487,2.68582,-7.95665,-39.37652,-7.37332,0.00245,-117.86624,7.34162,0.01055,0.70862,18.66234,-0.50479,98.99449,-13.22604,-12.57929,23.60421,47.69997,-5.44395,37.86627,-74.85532,34.28568,88.1178,0.00685,-99.70639,22.30277,-0.00293,126.3699,-13.05484,9.12251,0.00176,-1.39749,-6.86687,0.00038,3.8507,2.39221,1.32408,-18.65194,1.70356,2.1387,-28.62756,15.2596,-7.31163
2401,31.10194,0.0,0.0,2.15807,0.0,0.0,15.25503,-3.21529,-1.07376,22.18668,2.69476,-7.6053,-40.83595,-8.04604,-0.00062,-115.59069,8.51186,-0.02222,-0.23397,20.05972,-0.55619,101.2535,-13.53088,-11.25712,23.73938,47.03183,-6.15735,38.33121,-76.1825,32.24857,87.7193,0.00109,-98.72108,21.68388,-0.00877,126.86224,-13.64254,8.5133,0.00396,-1.21837,-6.33003,-0.00097,3.69563,2.52013,0.75762,-18.81579,2.03838,1.66459,-29.81307,15.7371,-6.76231
2402,32.73744,-0.0,-0.0,1.43549,0.0,-0.0,15.02339,-2.98478,-0.86371,22.59661,2.68091,-8.04626,-42.2588,-8.6953,0.00163,-113.04875,9.03261,-0.03742,-0.94016,21.17566,-0.27049,103.71712,-13.38695,-10.44603,23.91386,46.35113,-6.76125,38.87927,-77.51368,30.32784,87.21758,-0.01033,-99.10007,21.41426,-0.00711,127.76743,-14.27304,8.27895,0.00149,-1.30153,-5.49816,-0.00222,3.59557,2.74986,0.43923,-18.92257,2.37239,1.45859,-30.73624,15.88283,-6.04644
2403,34.21289,0.0,-0.0,0.64628,-0.0,-0.0,14.85168,-2.56578,-0.29735,22.83437,2.45318,-9.09858,-43.56664,-9.39909,0.00403,-110.35966,9.61007,-0.01748,-1.65392,22.19296,0.03228,106.09171,-13.09903,-9.66766,23.85793,45.78938,-7.14837,39.75753,-78.7111,28.69559,86.8128,-0.01045,-100.77991,21.28181,-0.00069,129.60551,-14.29589,8.38056,0.00122,-1.50731,-4.65522,-0.00127,3.40816,3.13214,0.41397,-19.11677,2.73518,1.58183,-31.46821,15.89793,-5.29618
2404,35.82152,-0.0,-0.0,1.8109,0.0,-0.0,14.70603,-1.98095,0.43886,22.33669,1.85192,-10.14494,-44.77497,-9.97914,0.00128,-107.57304,10.77864,0.02129,-2.61987,23.19949,0.29714,107.99073,-12.96807,-8.45423,23.31849,45.41342,-7.26571,41.06389,-79.73576,27.46807,86.72981,-0.00029,-102.67456,21.06833,0.00729,132.08659,-13.63044,8.57067,0.0012,-1.77898,-4.10874,0.00081,3.04641,3.55161,0.56573,-19.4849,3.06459,1.88288,-32.17109,15.96409,-4.73415
2405,37.21027,0.0,-0.0,5.39281,0.0,0.0,14.60487,-1.54478,1.06041,21.19228,1.18093,-10.73081,-45.92955,-10.20316,-0.0042,-104.61237,12.41552,0.04821,-3.89101,24.10454,0.6733,109.26826,-12.94563,-6.81797,22.3538,45.16286,-7.20046,42.81364,-80.65931,26.79237,86.95722,0.00365,-103.77507,20.68105,0.00692,134.2003,-12.97704,8.5229,0.00128,-2.14907,-3.90323,0.0019,2.58252,3.79693,0.7495,-19.95148,3.22091,2.14667,-32.93835,16.08184,-4.43763
2406,38.18634,0.0,-0.0,10.13576,-0.0,0.0,14.59216,-1.5577,1.49955,19.90489,0.97902,-10.92243,-47.01492,-10.09388,-0.00544,-101.39122,13.89181,0.04464,-5.33825,24.74715,1.0959,110.04456,-12.81761,-5.22667,21.3503,44.87716,-7.16818,45.05157,-81.61374,27.00212,87.1906,0.00136,-104.0471,20.20818,-0.00259,134.88202,-13.12959,8.1028,0.00617,-2.60133,-3.7951,0.0008,2.1964,3.80992,0.84633,-20.33646,3.19588,2.24105,-33.73511,16.14975,-4.32998
2407,39.10018,0.0,-0.0,14.43777,0.0,-0.0,14.67263,-1.97357,1.86207,18.87383,1.64007,-11.03663,-47.96777,-9.93196,-0.00076,-97.94094,14.56104,0.01378,-6.74946,25.02923,1.13677,110.52988,-12.56142,-4.17674,20.66313,44.40371,-7.33697,47.6266,-82.75079,28.32393,87.13297,-0.00248,-104.22332,19.85675,-0.00596,133.93059,-14.06583,7.57764,0.00715,-3.03473,-3.50914,-0.00114,2.02029,3.77437,0.70693,-20.51383,3.21635,2.09872,-34.43427,16.11049,-4.35137
2408,40.24693,0.0,-0.0,17.43832,-0.0,0.0,14.79657,-2.46076,2.17989,18.1751,3.28897,-11.15707,-48.77826,-9.8864,0.00314,-94.30051,14.13365,-0.0212,-7.93993,24.99941,0.54031,110.85909,-12.29553,-3.9159,20.30753,43.74833,-7.68171,50.18916,-84.13156,30.53415,86.74677,-0.00634,-104.81373,19.74897,-0.00053,132.28647,-15.02186,7.58005,0.00501,-3.34146,-2.99625,-0.00147,2.00771,3.86104,0.22847,-20.53441,3.47939,1.6903,-34.89682,15.95721,-4.48799
2409,41.8094,0.0,0.0,19.06033,0.0,0.0,14.79399,-2.74402,2.33087,17.59266,5.69773,-11.10731,-49.51826,-9.76818,0.00124,-90.33211,12.83399,-0.03833,-8.86375,24.85572,-0.31428,110.96786,-12.03572,-4.41468,20.02268,43.12435,-8.01322,52.95438,-85.58403,33.3791,86.16872,-0.00461,-105.52114,19.7879,0.00308,131.4776,-15.38939,8.70481,0.01826,-3.48318,-2.4804,-0.0003,1.95451,3.99761,-0.43474,-20.59723,3.85922,1.13045,-35.07806,15.71285,-4.70626
2410,43.90392,0.0,0.0,19.70382,0.0,-0.0,14.50956,-2.81107,2.23364,16.8192,8.24475,-10.96035,-50.2588,-9.33622,-0.00306,-85.77654,11.19656,-0.03555,-9.64638,24.81682,-0.91681,110.57534,-11.72881,-5.44327,19.56046,42.74862,-8.1634,57.78788,-86.78214,37.902,85.56004,0.0011,-105.61343,19.78753,0.00374,132.71162,-15.24772,10.74283,0.03611,-3.54189,-2.23166,0.00065,1.69262,4.00708,-0.90813,-20.86227,4.0491,0.69693,-35.10136,15.47869,-4.99258
2411,45.9809,0.0,0.0,19.91379,-0.0,0.0,14.10382,-2.88873,1.97517,15.89226,10.20023,-11.26268,-50.99614,-8.6846,-0.00382,-80.48396,9.66102,-0.02357,-10.47367,24.93448,-1.33795,109.35544,-11.42062,-6.64872,18.87496,42.58817,-8.13541,68.05758,-87.5433,47.13528,85.1103,-0.00024,-104.50668,19.7158,-0.00056,135.67009,-14.87665,12.348,0.02695,-3.66491,-2.26209,0.00062,1.26246,3.8579,-0.95097,-21.28862,3.92771,0.60001,-35.17337,15.40339,-5.41789
2412,46.99027,0.0,0.0,19.5018,-0.0,0.0,13.95744,-3.26678,1.6712,15.42295,11.38528,-12.29976,-51.6596,-8.06936,-0.00151,-74.55274,8.41712,-0.0098,-11.4135,25.07248,-1.96347,107.18845,-11.24955,-7.64845,18.13924,42.42542,-8.05054,85.1161,-87.99306,63.00019,84.9465,-0.00843,-101.95782,19.79413,-0.00315,138.22543,-13.8492,12.15093,-0.03207,-3.90758,-2.3398,-0.00088,0.82318,3.66863,-0.69809,-21.72194,3.65615,0.76082,-35.37464,15.53022,-6.07844
2413,46.64113,0.0,-0.0,17.2124,0.0,0.0,14.21288,-3.97414,1.3368,16.04667,12.5721,-13.30203,-52.15376,-7.52419,0.00027,-68.32566,7.5039,0.00233,-12.3837,25.10379,-2.74094,104.28208,-11.32739,-8.24909,17.64997,42.15579,-8.0445,110.85894,-88.46461,88.2752,84.91887,-0.005,-98.34013,20.31982,0.02194,138.29057,-11.28752,10.36596,-0.09545,-4.26306,-2.30757,-0.00232,0.437,3.55566,-0.54683,-22.1046,3.49394,0.85713,-35.56341,15.7184,-6.9471
2414,45.72401,-0.0,-0.0,12.26509,-0.0,0.0,14.64518,-4.68719,0.90381,17.65798,14.87498,-13.14795,-52.38354,-6.92317,0.00135,-62.31677,6.87957,0.00699,-13.27541,25.05124,-3.18071,101.09156,-11.65832,-8.61536,17.58098,41.89176,-8.28593,167.08508,-88.83703,145.15878,84.70538,0.00678,-94.94627,21.29777,0.05275,135.74872,-7.39926,8.68168,-0.05627,-4.82798,-2.31228,0.00037,0.04782,3.56854,-0.85406,-22.49556,3.62339,0.57831,-35.48708,15.73732,-7.82227
2415,45.03608,-0.0,-0.0,5.79939,0.0,-0.0,14.99933,-5.07577,0.3047,19.50977,18.49828,-11.81737,-52.2795,-6.33384,0.00148,-57.08905,6.45051,0.00406,-14.0744,24.99858,-3.05762,98.07907,-12.11684,-9.06634,17.75052,41.76569,-8.93688,-137.64041,-87.96973,-158.06087,84.19807,0.00277,-93.27874,22.26128,0.03806,132.22554,-3.942,8.47795,0.01884,-5.64589,-2.65359,0.00676,-0.4283,3.72245,-1.67114,-22.97691,4.0782,-0.11734,-34.98407,15.41934,-8.49469
2416,44.73824,0.0,0.0,0.09247,-0.0,0.0,15.25801,-5.09663,-0.41178,21.05578,22.2964,-10.42981,-51.86822,-6.02407,-0.00088,-53.0705,6.17918,0.00456,-14.85742,24.9208,-2.6661,95.53207,-12.49595,-9.59451,17.7691,41.74176,-9.98347,-119.75248,-86.63943,-138.36935,83.56994,-0.00909,-93.72791,22.67108,0.0015,129.41142,-2.59793,9.63508,0.01003,-6.44084,-3.34612,0.0075,-1.082,4.01353,-2.72184,-23.63537,4.74906,-0.97641,-34.07667,14.72492,-8.94496
2417,44.63805,0.0,-0.0,-3.26753,-0.0,-0.0,15.5755,-4.96315,-1.12586,22.16637,24.85425,-9.94256,-51.34408,-6.06999,-0.00273,-50.31745,6.13561,0.01415,-15.6071,24.68493,-2.33924,93.59543,-12.65872,-9.72948,17.48803,41.65834,-11.25526,-113.01721,-85.56785,-129.85501,83.00248,-0.00997,-95.33443,22.56999,-0.01017,127.82923,-3.42311,10.97989,-0.01955,-6.85051,-4.01296,0.00196,-1.93495,4.406,-3.68836,-24.49307,5.48124,-1.71901,-32.86805,13.72426,-9.32214
2418,44.49732,-0.0,-0.0,-4.39046,0.0,0.0,16.06293,-4.94134,-1.82145,22.59622,25.79004,-10.27785,-50.97879,-6.26137,-0.00161,-48.38373,6.26112,0.02407,-16.12701,24.26262,-2.18172,92.23749,-12.64912,-9.17654,17.1383,41.41269,-12.62509,-109.29044,-84.62303,-124.42008,82.58875,-0.00278,-96.81356,22.55125,-0.00306,127.12094,-5.17451,11.33598,-0.00356,-6.84472,-4.38339,-0.00112,-2.82791,4.8257,-4.49227,-25.39162,6.17626,-2.30097,-31.45774,12.58119,-9.78079
2419,44.17595,0.0,-0.0,-4.68432,-0.0,-0.0,16.64876,-5.13753,-2.57955,22.01411,25.76566,-10.73122,-50.89832,-6.4285,0.0,-46.50394,6.14672,0.02093,-16.24751,23.82089,-2.2609,91.14211,-12.55379,-8.4256,16.94472,41.0878,-13.99312,-106.16426,-83.49355,-119.72893,82.41413,0.00083,-97.49299,23.02298,-0.00056,127.01783,-6.66819,10.41001,0.01476,-6.65826,-4.5796,-0.00065,-3.51454,5.19323,-5.24841,-26.08119,6.8047,-2.8591,-29.98052,11.47742,-10.37795
2420,43.70019,0.0,-0.0,-5.27425,-0.0,-0.0,17.15324,-5.45903,-3.44796,20.34462,25.41322,-10.83386,-51.01411,-6.51064,0.00026,-43.99188,5.36887,0.00162,-15.99937,23.48973,-2.53185,89.90543,-12.26656,-8.20653,16.8261,40.86773,-15.15423,-103.24857,-82.13346,-115.56784,82.47263,-0.00188,-97.3502,23.86828,-0.00826,127.59793,-7.60977,9.12735,0.00607,-6.48232,-4.71902,0.0006,-3.87099,5.47759,-6.02278,-26.43473,7.36316,-3.4666,-28.58582,10.45873,-11.03765
2421,43.23635,0.0,-0.0,-5.8911,-0.0,-0.0,17.47755,-5.75961,-4.39969,17.70303,24.96654,-10.69788,-51.15187,-6.38777,-0.00013,-40.53758,3.97368,-0.02094,-15.56376,23.18214,-2.6638,88.35421,-11.51357,-8.50793,16.59133,40.82137,-15.88728,-100.59982,-80.67139,-112.07449,82.5698,-0.00294,-96.52602,24.79344,-0.01244,128.7417,-8.38102,8.74526,-0.01384,-6.46638,-4.65649,9e-05,-3.93844,5.67835,-6.70846,-26.49514,7.81038,-4.02468,-27.36312,9.42539,-11.58723
2422,42.99554,-0.0,-0.0,-5.58859,-0.0,-0.0,17.65462,-5.98362,-5.33913,14.39784,24.93842,-10.67033,-51.16604,-5.99164,0.00019,-36.24899,2.29973,-0.04467,-15.14835,22.72008,-2.41672,86.53103,-10.20752,-8.68688,16.23618,40.84108,-16.15213,-98.22093,-79.2014,-109.12302,82.48561,0.00385,-94.98537,25.59083,-0.00343,129.62971,-9.26363,9.47357,-0.02411,-6.85174,-4.33083,-0.00249,-3.8332,5.76592,-7.13507,-26.38249,8.05406,-4.38658,-26.34771,8.28666,-11.94673
2423,42.99688,0.0,0.0,-3.50859,0.0,0.0,17.76415,-6.19524,-6.11582,11.17348,25.89699,-10.87124,-50.98036,-5.48667,0.00038,-31.42475,0.59069,-0.07133,-14.87741,21.99867,-2.06562,84.42812,-8.70073,-8.3021,15.92025,40.81724,-16.11619,-95.98949,-77.77353,-106.3927,82.18118,0.01276,-92.74532,26.10456,0.00424,129.23663,-9.94028,10.49309,-0.01365,-7.75118,-4.01693,-0.00213,-3.69987,5.70519,-7.2727,-26.24173,8.05047,-4.53783,-25.56577,7.03157,-12.28972
2424,42.93568,0.0,0.0,1.58966,-0.0,0.0,17.87509,-6.49301,-6.61207,9.04228,27.22097,-11.39141,-50.58022,-5.11126,-0.00076,-26.17712,-0.8164,-0.06492,-14.80131,21.06074,-2.1004,81.81814,-7.60769,-7.34471,15.73914,40.75432,-15.96828,-93.66267,-76.46115,-103.60394,81.78374,0.01198,-90.49077,26.22258,-0.00234,127.54652,-9.84728,11.19383,0.00252,-8.73316,-3.99882,-3e-05,-3.68983,5.53027,-7.27462,-26.22225,7.88964,-4.60731,-25.07442,5.71782,-12.9227
2425,42.57114,0.0,0.0,10.13833,0.0,0.0,18.02246,-6.85267,-6.83379,8.22675,27.10706,-12.51219,-49.96018,-4.89952,-0.00151,-20.36795,-1.30058,0.01052,-15.02658,20.12374,-2.66504,78.32693,-7.45164,-5.9418,15.65167,40.66843,-15.78139,-91.09515,-75.38357,-100.72849,81.4142,0.00192,-89.48483,25.90588,-0.0066,125.91215,-8.92312,11.64985,0.00999,-8.96707,-4.14986,0.00016,-3.8952,5.34969,-7.31309,-26.41691,7.73751,-4.71285,-24.98682,4.5084,-14.05468
2426,42.16006,0.0,0.0,18.40179,0.0,0.0,18.18709,-7.07859,-6.83164,7.308,24.31684,-14.11044,-49.10081,-4.70283,-0.00014,-14.07679,-0.46813,0.10275,-15.67601,19.46205,-3.51359,73.81459,-8.42266,-4.3275,15.6084,40.51853,-15.62573,-88.42188,-74.62396,-97.91667,81.05415,-0.00765,-90.33939,25.20311,0.00486,125.83015,-7.77667,11.97154,0.00612,-7.99922,-4.0748,0.00701,-4.30868,5.28419,-7.45667,-26.82236,7.73175,-4.87144,-25.35527,3.62372,-15.6951
2427,42.08332,-0.0,-0.0,18.83881,-0.0,-0.0,18.33217,-7.02808,-6.60033,4.54538,19.57335,-15.47059,-48.01439,-4.42371,0.00211,-7.93951,1.30083,0.11327,-16.64754,19.16183,-4.26666,68.77193,-10.25808,-3.0205,15.59603,40.29899,-15.66481,-85.98151,-74.10571,-95.31916,80.59582,-0.00948,-92.19257,24.27499,0.01329,127.49561,-7.14646,11.9503,0.0006,-6.12726,-3.62825,0.01564,-4.88683,5.41093,-7.74134,-27.39765,7.95736,-5.08676,-25.96245,3.09963,-17.62354
2428,42.22985,0.0,-0.0,6.42466,0.0,0.0,18.44631,-6.84225,-6.22429,-0.00064,14.91507,-15.90486,-46.79153,-4.09246,0.00317,-2.79838,3.18235,0.04652,-17.6038,19.00887,-4.57056,64.09962,-12.37076,-2.60398,15.52852,40.08225,-15.97217,-84.11137,-73.64685,-93.08454,80.03803,-0.00263,-93.76987,23.30687,0.00724,130.01158,-7.29649,11.39867,0.00385,-3.93566,-3.10446,0.0102,-5.62621,5.71368,-8.23399,-28.13626,8.42477,-5.4273,-26.39946,2.64353,-19.47126
2429,42.22398,0.0,-0.0,-14.55302,0.0,0.0,18.51789,-6.79241,-6.00758,-4.71901,11.91278,-15.22327,-45.59106,-3.79366,0.00213,0.77862,4.66787,-0.01551,-18.29083,18.69555,-4.29142,60.41411,-14.25163,-3.2254,15.21937,39.92907,-16.36775,-82.99086,-73.15921,-91.4212,79.5981,0.00705,-94.99679,22.33842,0.00387,132.67705,-7.92059,10.39457,0.00852,-1.83548,-2.90507,-0.00464,-6.53413,6.03281,-8.92374,-29.03642,8.98223,-5.94497,-26.42602,1.88869,-20.95498
2430,42.00682,0.0,0.0,-31.88023,0.0,-0.0,18.52649,-6.95681,-6.25513,-8.05881,10.79227,-13.97636,-44.57435,-3.6274,-0.00024,2.46443,5.68921,-0.03797,-18.69212,18.12662,-3.63419,57.78326,-15.64937,-4.49791,14.50555,39.81931,-16.5555,-82.53214,-72.67288,-90.55402,79.54743,0.01646,-96.54771,21.29499,0.01123,135.39468,-8.48104,9.31989,0.00567,-0.10195,-3.11641,-0.01081,-7.54587,6.14557,-9.67081,-30.0235,9.37057,-6.59654,-26.06967,0.74769,-21.97278
2431,41.80295,0.0,-0.0,-37.83662,-0.0,0.0,18.48748,-7.19927,-6.98571,-9.34873,10.85496,-12.92988,-43.81844,-3.66512,-0.00188,2.04067,6.22186,-0.02948,-18.8447,17.45507,-2.96062,56.0475,-16.45416,-5.84042,13.39653,39.68504,-16.36283,-82.36602,-72.15961,-90.58088,79.90707,0.0143,-98.076,20.1992,0.01389,138.05591,-8.57318,8.79808,0.00301,1.03776,-3.40737,-0.00388,-8.50528,5.98279,-10.38904,-30.93881,9.49295,-7.32867,-25.40557,-0.58263,-22.48821
2432,41.6775,0.0,-0.0,-33.3012,-0.0,-0.0,18.45409,-7.42126,-7.93439,-9.14755,11.25202,-12.13286,-43.29716,-3.87953,-0.00165,-0.33888,6.20354,-0.00636,-18.72785,16.87001,-2.60025,55.01575,-16.78237,-6.83897,12.13725,39.50309,-15.83532,-82.04819,-71.48927,-91.34779,80.39254,0.00087,-98.43382,19.21606,0.00311,140.08357,-8.16753,9.24074,0.00667,1.51393,-3.25586,0.00332,-9.20826,5.70188,-11.16809,-31.58312,9.52863,-8.16372,-24.53303,-1.83774,-22.55211
2433,41.42677,-0.0,-0.0,-23.69828,0.0,0.0,18.44677,-7.69474,-8.77219,-8.89117,11.43024,-10.99635,-42.97132,-4.14598,-8e-05,-4.00907,5.73968,0.00893,-18.34802,16.44224,-2.78092,54.38924,-17.0136,-7.42476,11.07701,39.36293,-15.14734,-81.36434,-70.5867,-92.52679,80.71877,-0.00452,-97.51745,18.51867,-0.00515,140.71902,-7.54404,10.36579,0.00568,1.44551,-2.35983,0.00168,-9.45175,5.51471,-12.08487,-31.76117,9.70235,-9.0918,-23.7158,-2.81563,-22.42679
2434,40.99763,0.0,-0.0,-15.74381,-0.0,-0.0,18.41661,-8.0407,-9.33273,-9.39906,11.29911,-9.33459,-42.87195,-4.32055,0.00129,-8.226,5.02469,0.01441,-17.72677,16.14168,-3.43252,53.9073,-17.35974,-7.71492,10.37861,39.4216,-14.40187,-80.41201,-69.54707,-93.84895,80.86263,-0.00228,-96.42043,18.20805,0.00358,139.57469,-7.04655,11.31947,-0.00291,0.97014,-0.95083,-0.00484,-9.13916,5.49732,-12.99661,-31.38886,10.03033,-9.95088,-23.18982,-3.42274,-22.40134
2435,40.74683,0.0,0.0,-13.25606,0.0,-0.0,18.32536,-8.20199,-9.71777,-10.16229,11.2595,-7.71036,-43.07518,-4.29845,0.00082,-12.6281,4.14646,0.02221,-16.83322,15.90716,-4.08141,53.56297,-17.57337,-7.69968,9.86007,39.77104,-13.4953,-79.4331,-68.65168,-95.26888,80.95752,-0.00087,-96.02793,18.20484,0.01188,136.74323,-7.11418,11.39459,-0.0024,0.10502,0.4223,-0.00927,-8.42486,5.52914,-13.65617,-30.63108,10.30814,-10.55608,-22.86219,-3.69478,-22.4902
2436,40.99401,0.0,-0.0,-14.89935,-0.0,-0.0,18.21252,-7.92639,-10.15031,-10.30598,11.72955,-6.59806,-43.60403,-4.04328,-0.00119,-17.1725,3.20786,0.02341,-15.68484,15.69308,-4.24532,53.41796,-17.33224,-7.29962,9.20518,40.36801,-12.24618,-78.62389,-68.24164,-96.94524,81.0406,-0.00093,-96.15608,18.1836,-0.00674,132.57642,-8.17531,10.66916,0.01074,-1.16674,1.37169,-0.00694,-7.63655,5.39197,-13.97375,-29.81035,10.30053,-10.90625,-22.47115,-3.74412,-22.49932
2437,41.55569,0.0,-0.0,-16.97783,0.0,0.0,18.11736,-7.39385,-10.68828,-9.51755,12.46506,-5.8353,-44.35777,-3.61427,-0.00221,-21.81124,2.46239,0.00566,-14.40742,15.4893,-3.9172,53.34935,-16.6722,-6.63166,8.31817,41.09447,-10.66421,-78.02048,-68.40829,-99.02949,81.01215,0.00276,-95.75314,17.90166,-0.0319,127.6888,-10.01094,9.73583,0.01355,-2.67242,1.7346,0.00243,-6.97357,4.99168,-14.08225,-29.11231,9.97055,-11.16127,-21.92023,-3.64962,-22.29759
2438,41.95063,-0.0,-0.0,-17.37651,-0.0,-0.0,18.00362,-7.08038,-11.18608,-8.07889,12.76879,-5.02122,-45.15937,-3.11505,-0.00122,-26.43332,2.10751,-0.01573,-13.09148,15.3064,-3.40847,53.21871,-15.83187,-5.94633,7.35852,41.8623,-8.98067,-77.50157,-68.87163,-101.39456,80.77431,0.01204,-94.09344,17.58739,-0.02511,123.08424,-11.58983,8.96782,0.00209,-3.98601,1.48429,0.00865,-6.4157,4.48672,-14.18111,-28.51423,9.53985,-11.4468,-21.25216,-3.43586,-21.88062
2439,41.91364,0.0,0.0,-16.1466,-0.0,-0.0,17.82393,-7.2965,-11.50503,-6.47257,12.30427,-4.04019,-45.87637,-2.59055,9e-05,-31.03712,2.0585,-0.01766,-11.74305,15.15455,-2.87989,53.06915,-14.90503,-5.42745,6.48807,42.65689,-7.46687,-76.89117,-69.26895,-103.58925,80.32153,0.01287,-91.91168,17.74412,-0.00552,119.77159,-12.05514,8.39121,-0.00758,-4.72704,0.88549,0.00482,-5.94484,4.15814,-14.36834,-28.00828,9.30555,-11.74738,-20.49618,-3.1442,-21.26903
2440,41.69194,0.0,0.0,-13.93849,-0.0,0.0,17.59585,-7.95997,-11.6283,-4.93672,11.35812,-3.11885,-46.48072,-2.01477,0.00037,-35.75177,2.06746,-0.00272,-10.38799,15.01873,-2.34288,52.98358,-13.87337,-5.1642,5.75931,43.50667,-6.33424,-76.08192,-69.45307,-105.15354,79.7292,-0.0022,-90.79546,18.62002,-0.00686,118.00007,-11.64533,7.93778,-0.00807,-4.94882,0.40379,-3e-05,-5.68562,4.155,-14.6132,-27.72934,9.39434,-11.97796,-19.69979,-2.84599,-20.49236
2441,41.7369,-0.0,-0.0,-11.23627,-0.0,-0.0,17.41919,-8.64996,-11.59906,-3.34644,10.40509,-2.58686,-47.02397,-1.38772,0.00014,-40.6827,2.02153,0.00507,-9.03809,14.8473,-1.96174,52.98096,-12.81457,-5.12571,5.16956,44.44805,-5.66918,-75.15438,-69.48403,-105.94435,79.10313,-0.0134,-91.22144,20.0221,-0.01282,117.00192,-11.19735,7.60723,-0.00353,-5.09058,0.25895,-0.00114,-5.77782,4.37636,-14.86141,-27.81539,9.69241,-12.12638,-18.92454,-2.58478,-19.6437
2442,42.01827,-0.0,-0.0,-8.59622,-0.0,-0.0,17.4383,-8.91083,-11.43807,-1.54286,9.66263,-2.66249,-47.58057,-0.79562,0.00032,-45.80321,2.01018,-0.00418,-7.61877,14.58464,-2.02292,53.09458,-11.84669,-5.14531,4.63347,45.51509,-5.30222,-74.3457,-69.4894,-106.12592,78.52802,-0.00721,-92.01136,21.56874,-0.0019,115.56255,-10.92013,7.55482,0.00199,-5.51619,0.33815,-0.00223,-6.19274,4.60817,-15.14698,-28.22195,10.01409,-12.30597,-18.14742,-2.35292,-18.83778
2443,42.05518,0.0,0.0,-6.66759,-0.0,0.0,17.70185,-8.66117,-11.15434,0.37761,9.08456,-3.33611,-48.1842,-0.30277,0.0005,-50.9556,2.08452,-0.01072,-6.08381,14.17568,-2.57515,53.36108,-10.93966,-5.09869,3.94011,46.7013,-4.80293,-73.73242,-69.62951,-105.96291,78.01151,0.00396,-92.11401,23.00152,0.0145,112.91634,-10.25809,7.88039,0.00895,-6.25345,0.50508,-0.00451,-6.74859,4.74766,-15.52365,-28.75558,10.28415,-12.60642,-17.28864,-2.15463,-18.12218
2444,41.66213,0.0,0.0,-5.62193,-0.0,-0.0,18.06916,-8.26383,-10.81781,2.12858,8.5758,-4.38618,-48.79299,0.17934,-0.00027,-55.93505,2.11356,0.00097,-4.52479,13.52607,-3.28084,53.74046,-9.9568,-5.03235,2.88101,47.9217,-3.76258,-73.0034,-70.08439,-105.6153,77.45023,0.00865,-91.76641,24.28559,0.01939,109.25105,-9.00794,8.39904,0.01077,-7.15554,0.6104,-0.00395,-7.29879,4.83363,-15.88815,-29.28035,10.4999,-12.91608,-16.32963,-2.07539,-17.48119
2445,41.24662,0.0,0.0,-4.9397,0.0,0.0,18.30359,-8.13073,-10.55643,3.46989,8.03107,-5.51928,-49.31055,0.80345,-0.00089,-60.59068,1.98039,0.01595,-3.09837,12.54918,-3.70914,54.11847,-8.85892,-5.02313,1.43548,49.06371,-2.12056,-71.69296,-70.92266,-105.03194,76.70232,0.00661,-91.63972,25.54082,0.00855,105.48833,-7.91062,8.87219,0.00346,-8.08299,0.34571,0.00154,-7.82276,4.90159,-16.02811,-29.79684,10.61511,-13.02176,-15.35456,-2.22549,-16.88494
2446,41.32398,-0.0,-0.0,-4.06957,-0.0,-0.0,18.24763,-8.30911,-10.42217,4.41536,7.29638,-6.47951,-49.66016,1.57375,-0.00013,-64.8274,1.80798,0.01264,-1.86644,11.28537,-3.7245,54.35994,-7.76177,-5.03196,-0.23894,50.05804,-0.11899,-69.57316,-72.02245,-104.05363,75.73832,-0.00103,-92.06491,26.91963,-0.01312,102.53394,-7.8824,9.26548,-0.00558,-8.92871,-0.47064,0.00578,-8.3339,4.92383,-15.84263,-30.3257,10.56656,-12.83896,-14.47306,-2.59644,-16.3305
2447,41.91375,0.0,-0.0,-2.9356,0.0,-0.0,17.95852,-8.48419,-10.31119,5.21576,6.32087,-7.03797,-49.86049,2.32223,0.00073,-68.53691,1.85186,-0.00412,-0.74201,9.91997,-3.52515,54.34113,-6.80366,-4.99484,-1.96025,50.86539,1.99971,-66.81134,-73.17705,-102.59748,74.69642,-0.01155,-93.23502,28.50808,-0.02918,100.54235,-9.03686,9.6269,-0.00915,-9.65364,-1.57567,0.00434,-8.79408,4.90284,-15.40059,-30.82204,10.38204,-12.43173,-13.72746,-3.03211,-15.86821
2448,42.57967,0.0,0.0,-1.64631,0.0,-0.0,17.64458,-8.35402,-10.12285,6.06946,5.34742,-6.95669,-49.99283,2.90577,0.00067,-71.60719,2.18302,-0.01248,0.36375,8.6638,-3.32056,53.95391,-6.01824,-4.98492,-3.59668,51.46429,4.07639,-63.77241,-74.23354,-100.65055,73.78749,-0.01394,-95.14309,30.28599,-0.02067,98.78602,-10.64691,9.91523,-0.00514,-10.30828,-2.53708,0.00073,-9.1489,4.93862,-14.85975,-31.22366,10.2129,-11.91046,-13.11902,-3.37718,-15.54275
2449,42.95241,-0.0,-0.0,-0.2547,-0.0,0.0,17.41576,-7.91351,-9.90253,6.92859,4.81244,-6.11206,-50.10015,3.31007,0.00023,-74.01018,2.62158,-0.00698,1.42117,7.61902,-3.11046,53.15459,-5.3463,-5.14702,-5.08751,51.89871,5.96217,-60.60397,-75.1517,-98.16551,73.16483,-0.004,-97.11392,32.13596,0.00714,96.2871,-11.91209,10.02176,0.0008,-10.88285,-3.27585,-0.00201,-9.40912,5.15146,-14.39826,-31.53456,10.23715,-11.3963,-12.66609,-3.61367,-15.30173
2450,42.9504,-0.0,0.0,1.00828,0.0,-0.0,17.20159,-7.3476,-9.70884,7.6309,4.98471,-4.68213,-50.18888,3.54892,-0.00011,-75.8345,2.97952,0.00091,2.3896,6.7453,-2.81088,52.04361,-4.74033,-5.51063,-6.47923,52.25691,7.62657,-57.13367,-75.97585,-95.12589,72.85434,0.00524,-98.14228,33.93748,0.02784,92.69256,-12.56015,9.87432,0.0024,-11.16233,-4.04793,-0.00559,-9.6532,5.54297,-14.12402,-31.82636,10.49682,-10.98915,-12.36967,-3.81294,-15.02635
2451,42.58425,0.0,-0.0,1.75029,-0.0,0.0,16.90417,-6.82633,-9.52837,8.12301,5.71015,-3.11891,-50.29556,3.60119,-0.00019,-77.21746,3.22822,0.00341,3.33689,5.93971,-2.42114,50.81792,-4.21445,-5.96953,-7.89648,52.56874,9.27454,-53.23511,-76.75925,-91.63476,72.79089,0.00529,-97.89156,35.70018,0.02549,88.58543,-12.64358,9.55374,0.00018,-10.96854,-4.85195,-0.00734,-9.93917,5.94263,-13.9938,-32.15028,10.81794,-10.71347,-12.17731,-4.02041,-14.65489
2452,41.83833,-0.0,-0.0,1.89296,0.0,-0.0,16.4949,-6.47734,-9.41329,8.48967,6.49557,-1.94985,-50.46943,3.46046,0.00011,-78.26038,3.4535,0.00159,4.384,5.13627,-1.98837,49.63863,-3.78045,-6.35443,-9.45972,52.8008,11.16062,-48.92359,-77.53243,-87.6959,72.91664,0.001,-96.9564,37.52996,0.00329,84.97099,-12.12314,9.31242,-0.00014,-10.5485,-5.24627,-0.00265,-10.26466,6.11773,-13.84504,-32.49916,10.92408,-10.50658,-11.99809,-4.26789,-14.21011
2453,40.8908,0.0,0.0,1.89032,0.0,0.0,15.9764,-6.34449,-9.48343,8.79548,6.83028,-1.57988,-50.70728,3.1428,0.00055,-79.01194,3.70238,-8e-05,5.59702,4.34128,-1.5259,48.59084,-3.38348,-6.52702,-11.20229,52.95858,13.28646,-44.05605,-78.27795,-83.0476,73.20148,-0.00147,-96.10318,39.45609,-0.01624,82.35825,-11.07305,9.39231,0.00345,-10.39032,-5.02326,0.00129,-10.59742,5.97328,-13.52342,-32.84408,10.66932,-10.26087,-11.74197,-4.61425,-13.69293
2454,40.16644,0.0,-0.0,2.29574,0.0,-0.0,15.35633,-6.30499,-9.76481,8.99681,6.45792,-2.11655,-50.96075,2.67758,0.00052,-79.50779,3.87482,0.00038,6.96736,3.60635,-1.03093,47.71572,-2.94966,-6.52211,-13.01432,53.09636,15.3954,-38.43199,-78.89019,-77.56588,73.57894,-0.00107,-95.6257,41.39547,-0.01114,80.36871,-10.0026,9.82239,0.00321,-10.53827,-4.67509,0.00079,-10.84429,5.64929,-13.03456,-33.10171,10.18529,-9.92793,-11.38726,-5.06673,-13.04149
2455,39.78638,-0.0,0.0,3.15088,-0.0,0.0,14.66996,-6.20886,-10.19339,9.06182,5.44899,-3.31401,-51.21146,2.18146,-0.00041,-79.77879,3.83059,0.00128,8.47748,2.97826,-0.49766,47.02195,-2.46765,-6.5229,-14.69906,53.20558,17.23144,-32.17097,-79.25738,-71.63779,73.96786,0.00057,-95.49139,43.25212,0.00836,78.38934,-9.51071,10.35067,-0.00207,-10.41059,-4.88658,-0.00795,-10.84976,5.39526,-12.59283,-33.11936,9.78362,-9.6125,-10.98816,-5.5084,-12.22723
2456,39.34729,0.0,-0.0,3.91712,0.0,0.0,13.96279,-6.06519,-10.70914,9.10631,4.17883,-4.75554,-51.50214,1.82583,-0.00166,-79.79722,3.57326,0.00071,10.13373,2.47765,0.09037,46.46333,-1.96418,-6.62362,-16.08363,53.1869,18.65776,-25.61753,-79.4054,-65.77205,74.36247,0.00175,-95.59464,44.97443,0.01577,76.38457,-9.77218,10.52164,-0.00069,-9.61026,-5.80936,-0.01942,-10.57965,5.32039,-12.44319,-32.85403,9.65786,-9.50141,-10.59797,-5.7632,-11.28887
2457,38.73717,0.0,0.0,4.09482,0.0,0.0,13.22895,-5.90298,-11.20448,9.29776,3.16799,-6.09879,-51.8909,1.6111,-0.00152,-79.45931,3.23282,-0.00098,11.93505,2.10225,0.68228,45.94815,-1.44474,-6.71571,-17.044,52.97363,19.58889,-19.12179,-79.45548,-60.16666,74.77042,0.00136,-95.71561,46.60123,0.00269,74.90414,-10.50654,10.00737,0.00731,-8.73227,-6.94711,-0.01325,-10.24098,5.29364,-12.60161,-32.5034,9.69289,-9.65977,-10.22888,-5.72699,-10.27226
2458,38.53572,0.0,-0.0,3.82077,0.0,-0.0,12.42564,-5.62553,-11.49913,9.63044,2.71545,-7.15655,-52.41764,1.34942,0.00088,-78.65298,2.92482,-0.0016,13.86889,1.82964,1.149,45.40217,-0.9102,-6.6301,-17.53508,52.60435,20.04642,-13.06327,-79.45227,-54.87999,75.08205,0.00034,-95.61391,48.2999,-0.01576,74.36497,-11.24385,9.00367,0.00763,-8.90728,-7.60042,-0.00618,-10.0703,5.12865,-12.82966,-32.30702,9.62618,-9.93636,-9.88769,-5.42564,-9.24909
2459,39.0921,0.0,0.0,3.60921,0.0,-0.0,11.57027,-5.23807,-11.48719,9.95251,2.70424,-7.90282,-53.09304,0.95725,0.00306,-77.32033,2.70919,0.00087,15.92341,1.64037,1.43123,44.80297,-0.36798,-6.28625,-17.70605,52.124,20.30246,-7.54016,-79.32315,-49.86459,75.17235,-0.00012,-95.33675,50.22566,-0.02168,74.52783,-11.56919,8.12927,0.00105,-10.52213,-7.46314,-0.01715,-10.072,4.81536,-12.88161,-32.28541,9.35573,-10.10508,-9.60346,-4.95392,-8.35232
2460,39.79573,0.0,-0.0,3.61862,0.0,-0.0,10.7808,-5.00203,-11.24666,10.23014,2.79527,-8.43747,-53.84728,0.59375,0.00202,-75.46544,2.59313,0.00518,18.04842,1.51106,1.62807,44.15716,0.17771,-5.71618,-17.89558,51.48598,20.7526,-2.03148,-78.99027,-44.73133,75.12669,-0.00064,-95.22556,52.32816,-0.01056,74.81407,-11.30603,7.84923,0.00011,-12.79864,-6.85183,-0.0192,-10.08179,4.52127,-12.71208,-32.28873,9.0196,-10.05923,-9.4049,-4.40471,-7.6915
2461,39.81217,0.0,0.0,3.65155,-0.0,-0.0,10.16413,-5.14112,-10.94666,10.5922,2.74275,-8.81915,-54.49936,0.4723,-0.00057,-73.13098,2.49918,0.00698,20.08949,1.35729,1.92341,43.43662,0.68262,-5.02032,-18.38642,50.61983,21.55162,4.09288,-78.43842,-39.03951,75.20694,-0.00013,-95.45693,54.44776,0.00965,74.78389,-10.63368,8.08788,0.00322,-14.66879,-6.25856,-0.00496,-9.97662,4.39875,-12.43622,-32.19476,8.8022,-9.84839,-9.33567,-3.87243,-7.26058
2462,39.33578,0.0,-0.0,3.68444,0.0,0.0,9.6718,-5.52363,-10.60657,11.13572,2.58784,-8.97219,-54.85598,0.61706,-0.00096,-70.3666,2.30523,0.00371,21.84589,1.05251,2.4056,42.56925,1.04589,-4.28698,-19.16586,49.56877,22.46553,10.8032,-77.67939,-32.88827,75.56273,0.00125,-95.8745,56.51514,0.02,74.34093,-10.03204,8.35623,0.00388,-15.66041,-5.82665,0.00645,-9.70512,4.42976,-12.17918,-31.94187,8.73395,-9.59648,-9.47784,-3.44547,-6.97069
2463,39.31446,0.0,-0.0,3.75716,0.0,-0.0,9.22076,-5.7951,-9.98348,11.85049,2.56115,-8.84773,-54.86299,0.82876,-5e-05,-67.22522,1.93209,-0.00362,23.27195,0.53681,2.93932,41.56986,1.19758,-3.5602,-19.94548,48.51109,23.10481,17.43786,-76.73594,-26.91517,76.0639,0.00153,-96.32341,58.47846,0.00394,73.90206,-9.97088,8.23421,0.00616,-15.96215,-5.50505,0.0105,-9.24093,4.48214,-12.01839,-31.49101,8.72175,-9.42631,-9.85432,-3.14761,-6.73275
2464,40.00955,-0.0,0.0,3.55978,0.0,-0.0,8.88079,-5.81306,-8.83175,12.62828,2.81298,-8.59284,-54.61591,0.88104,-0.00037,-63.77957,1.37616,-0.01067,24.52193,-0.13663,3.28609,40.59946,1.18034,-2.85593,-20.35837,47.62652,23.22601,23.17935,-75.65973,-21.8718,76.45245,0.00019,-96.73497,60.23388,-0.01748,73.94897,-10.4438,7.8029,0.00801,-15.98369,-5.45057,0.01043,-8.62538,4.47725,-12.00374,-30.8761,8.7117,-9.4145,-10.36703,-2.93527,-6.47521
2465,40.89579,0.0,0.0,2.67019,0.0,0.0,8.68307,-5.81409,-7.25907,13.21252,3.29849,-8.47004,-54.24034,0.73272,-0.00112,-60.10715,0.72583,-0.01005,25.75586,-0.86716,3.35486,39.8051,1.11191,-2.12988,-20.20234,46.94825,22.83709,27.38995,-74.50681,-18.27815,76.62417,-0.00079,-97.0352,61.82167,-0.00577,74.07639,-10.89765,7.48115,0.00505,-15.8687,-5.99759,0.002,-7.97563,4.41569,-12.12585,-30.215,8.70081,-9.55208,-10.91194,-2.75297,-6.1357
2466,41.93509,-0.0,-0.0,1.05916,0.0,0.0,8.38564,-6.07568,-5.69459,13.28172,3.85596,-8.62947,-53.80547,0.53843,-0.00052,-56.28238,0.14151,0.00022,26.97445,-1.57858,3.27894,39.16271,1.08839,-1.27403,-19.63914,46.35587,22.11788,30.02139,-73.27301,-16.04052,76.71358,0.00034,-97.32016,63.46157,0.03048,73.36316,-10.90466,7.4035,0.00245,-15.41191,-7.37984,-0.01968,-7.39924,4.28901,-12.25993,-29.62262,8.63413,-9.72574,-11.48521,-2.55237,-5.69713
2467,43.81382,0.0,-0.0,-0.85463,0.0,0.0,7.71543,-6.49851,-4.5578,12.74788,4.33891,-8.9797,-53.31588,0.46466,0.0012,-52.4684,-0.30445,0.00817,28.03408,-2.22556,3.28621,38.5364,1.13624,-0.26812,-19.08514,45.71394,21.25235,31.89521,-71.89123,-14.24935,76.88168,0.00254,-97.8346,65.22364,0.03795,71.95765,-10.68778,7.28514,0.00175,-14.63955,-9.41734,-0.03252,-6.95928,4.09885,-12.2525,-29.17234,8.45528,-9.79152,-12.14603,-2.29623,-5.20894
2468,46.5849,0.0,0.0,-2.53362,-0.0,0.0,6.78698,-6.65876,-4.00761,11.93387,4.70033,-9.26327,-52.75068,0.50448,0.00205,-49.01258,-0.75939,0.00392,28.84376,-2.76659,3.50107,37.9156,1.2337,0.69976,-18.80037,44.99498,20.31755,34.12119,-70.34467,-11.78174,77.09349,0.0026,-98.61034,66.83228,0.00634,71.16074,-10.64654,6.97339,0.00173,-14.35879,-11.27475,-0.02215,-6.70163,3.93338,-12.13405,-28.91327,8.25743,-9.74418,-12.89037,-1.98256,-4.73195
2469,49.01308,0.0,0.0,-3.68241,-0.0,-0.0,6.04214,-6.34826,-3.91794,11.33577,5.00886,-9.22974,-52.10527,0.49821,0.00097,-46.31268,-1.43926,-0.00339,29.51935,-3.16489,3.8317,37.50857,1.35387,1.38698,-18.68156,44.25159,19.33761,37.05388,-68.72858,-8.32506,77.20505,0.00049,-99.3666,67.90488,-0.01364,71.76932,-10.66453,6.72588,0.00059,-15.53458,-11.97209,-0.02987,-6.60412,3.89901,-12.15076,-28.81278,8.23191,-9.7729,-13.61625,-1.64104,-4.26686
2470,49.8745,-0.0,0.0,-4.35897,-0.0,0.0,5.76334,-5.88584,-4.06786,11.17985,5.39111,-8.76318,-51.38131,0.34628,-0.00094,-44.50812,-2.36855,-0.0032,30.23586,-3.42477,4.08804,37.49673,1.46406,1.73349,-18.46967,43.51409,18.35968,40.14616,-67.18169,-4.551,77.19912,-0.00099,-99.69695,68.29752,-0.00566,73.26036,-10.26744,6.78927,0.00047,-17.96769,-11.43525,-0.04489,-6.4873,3.95447,-12.48345,-28.67686,8.40866,-10.0623,-14.28397,-1.29108,-3.75789
2471,49.33517,0.0,0.0,-4.83574,0.0,0.0,5.82198,-5.69973,-4.27831,11.26969,5.91008,-8.00134,-50.56544,0.0926,-0.0027,-43.35104,-3.30961,0.00161,31.02353,-3.59917,4.1508,37.81985,1.5093,1.91595,-18.02175,42.75965,17.41939,42.78497,-65.78043,-1.28591,77.19203,-0.00234,-99.21768,68.19814,0.00253,74.50162,-9.22732,7.08276,0.00274,-20.23287,-10.54821,-0.02262,-6.10088,3.89171,-13.02574,-28.2493,8.55469,-10.59281,-15.00676,-0.90335,-3.18441
2472,48.53789,0.0,0.0,-5.45257,0.0,-0.0,5.88028,-5.81777,-4.42231,11.24414,6.47576,-7.27053,-49.65569,-0.17079,-0.0035,-42.40314,-3.96453,0.00505,31.81228,-3.74474,4.01905,38.29047,1.44404,2.15231,-17.35713,41.97764,16.48644,44.90524,-64.4504,1.19542,77.24095,-0.00328,-97.78789,67.91974,0.00025,74.81416,-7.73152,7.47467,0.00817,-21.01844,-10.1269,0.00183,-5.36141,3.55855,-13.51659,-27.45524,8.4305,-11.17844,-15.89668,-0.40758,-2.63105
2473,48.08304,0.0,0.0,-6.36539,0.0,0.0,5.70671,-5.9978,-4.52293,10.84301,6.89337,-6.68223,-48.6852,-0.30761,-0.00149,-41.34747,-4.2817,0.00484,32.53926,-3.89323,3.86718,38.77647,1.26546,2.43334,-16.54646,41.22915,15.46238,46.79,-62.99767,3.09109,77.26749,-0.001,-95.79244,67.62792,-0.00277,74.58952,-6.24382,8.01304,0.0139,-20.05642,-10.31758,-0.00198,-4.43142,3.07005,-13.77752,-26.47869,8.07568,-11.60784,-16.94091,0.22558,-2.20968
2474,47.47081,-0.0,-0.0,-7.24211,-0.0,0.0,5.31549,-6.15134,-4.77213,9.93771,7.07305,-5.99537,-47.69878,-0.16806,0.00237,-40.14811,-4.46595,0.00134,33.15619,-4.06047,3.96424,39.23273,1.00743,2.61252,-15.66101,40.58129,14.26818,48.59266,-61.282,4.6609,77.18433,0.00186,-93.98682,67.2979,-0.001,74.84498,-5.3676,8.80386,0.01018,-17.94861,-10.82774,-0.01219,-3.53382,2.69467,-13.77823,-25.56149,7.72799,-11.75071,-18.0695,0.90873,-1.91184
2475,46.03901,-0.0,0.0,-7.54252,-0.0,0.0,4.8833,-6.36363,-5.32689,8.5418,7.17378,-5.03256,-46.73019,0.23574,0.00416,-38.96312,-4.69423,-0.00214,33.68248,-4.25438,4.35982,39.70813,0.71755,2.68594,-14.8147,39.99006,12.97457,50.22455,-59.3538,6.09268,77.01179,0.00148,-92.94362,66.88998,0.00252,76.10802,-5.52312,9.94783,-0.00731,-15.65903,-11.25481,-0.00888,-2.75811,2.56719,-13.59085,-24.79402,7.5396,-11.6239,-19.20034,1.49734,-1.6107
2476,43.86304,0.0,0.0,-7.28692,0.0,-0.0,4.55598,-6.59946,-6.14641,6.88132,7.41584,-3.93026,-45.81424,0.71681,0.00251,-37.93686,-4.95768,-0.00293,34.26755,-4.47387,4.76737,40.33834,0.42017,2.70487,-14.14063,39.33581,11.7677,51.57745,-57.38819,7.56894,76.84044,-0.00032,-92.90312,66.41759,0.00481,78.07916,-6.67134,11.44636,-0.02643,-14.19995,-11.25937,-0.00286,-2.06789,2.6257,-13.34589,-24.12555,7.50197,-11.37296,-20.1982,1.94417,-1.21751
2477,41.65189,0.0,-0.0,-7.23549,-0.0,0.0,4.32287,-6.66258,-6.99038,5.31892,7.81962,-2.93057,-44.98654,1.10595,-0.00029,-37.08356,-5.11429,-0.00111,35.05801,-4.70991,4.8305,41.20023,0.09268,2.60409,-13.65929,38.57992,10.73963,52.65088,-55.51336,9.14882,76.73959,-0.00046,-93.89636,65.81009,0.00667,80.10702,-8.387,12.97388,-0.0253,-14.13163,-10.85236,-0.00543,-1.4101,2.7693,-13.19524,-23.48627,7.57852,-11.17786,-20.9478,2.34863,-0.75743
2478,40.16911,0.0,0.0,-8.13325,0.0,0.0,4.06025,-6.46199,-7.52549,4.10443,8.28494,-2.16715,-44.24595,1.35763,-0.00193,-36.33743,-5.01492,0.00159,35.99348,-4.95989,4.43115,42.17171,-0.30168,2.36006,-13.22562,37.81226,9.81273,53.45587,-53.75556,10.60488,76.70803,0.00038,-95.50798,64.9439,0.00344,81.57159,-10.0556,14.05397,-0.00538,-14.96401,-10.47047,-0.00425,-0.75199,2.97125,-13.26385,-22.83327,7.79142,-11.16534,-21.51818,2.81693,-0.28142
2479,39.77616,0.0,0.0,-9.90795,0.0,-0.0,3.69573,-6.13158,-7.56215,3.20694,8.74448,-1.61835,-43.54904,1.53111,-0.00174,-35.65218,-4.64815,0.00291,36.84433,-5.22312,3.76093,43.02641,-0.74605,2.0844,-12.69636,37.15189,8.89135,53.93242,-52.09003,11.60717,76.65821,0.00055,-96.86179,63.91724,-0.0052,82.15444,-11.2009,14.57496,0.00888,-15.50314,-10.46626,-0.00137,-0.08168,3.24988,-13.57843,-22.1539,8.16768,-11.35352,-22.13118,3.33897,0.20643
2480,40.1403,-0.0,0.0,-11.65807,0.0,-0.0,3.33028,-5.85392,-7.22935,2.42816,9.03592,-1.14894,-42.87049,1.74129,-0.00033,-35.02246,-4.16731,0.00198,37.47015,-5.46674,3.13599,43.6627,-1.14984,1.82814,-12.10242,36.6637,7.95888,54.01706,-50.45985,12.07708,76.46462,0.00174,-97.31631,63.04708,-0.00805,82.06753,-11.7935,14.76562,0.01069,-15.04881,-10.73574,-0.00308,0.53964,3.57319,-14.02376,-21.51617,8.6343,-11.64721,-22.89593,3.85872,0.71477
2481,40.40665,0.0,0.0,-12.3988,0.0,0.0,3.12209,-5.69076,-6.82164,1.65137,8.89828,-0.61999,-42.22885,2.06312,0.0009,-34.43966,-3.75925,-0.0,37.91839,-5.64639,2.7335,44.13689,-1.4337,1.47613,-11.55985,36.33631,7.02529,53.73836,-48.79265,12.23205,76.0818,0.00284,-97.00601,62.50435,-0.00303,81.9604,-12.01539,14.62251,0.00692,-13.96969,-10.964,-0.00226,0.97118,3.84847,-14.4163,-21.06967,9.0365,-11.91006,-23.7,4.36876,1.22214
2482,40.18877,-0.0,-0.0,-11.98121,-0.0,0.0,3.00469,-5.5999,-6.50261,0.94052,8.34897,-0.00738,-41.62465,2.45371,0.00108,-33.86158,-3.51815,-0.0015,38.24638,-5.77788,2.49963,44.4748,-1.62621,0.9052,-11.09381,36.07382,6.10473,53.2174,-47.06097,12.32624,75.59772,0.0012,-96.49551,62.16613,0.00185,82.40977,-11.85241,13.83784,-0.00325,-13.12671,-10.99225,0.00038,1.12393,4.01249,-14.63978,-20.90885,9.27219,-12.05706,-24.42864,4.87989,1.68415
2483,39.9641,0.0,0.0,-11.31623,0.0,0.0,2.71674,-5.52478,-6.24808,0.42748,7.80688,0.54776,-41.01409,2.79628,0.00045,-33.22452,-3.40376,-0.00135,38.43438,-5.92962,2.27074,44.61701,-1.82757,0.18208,-10.6607,35.7606,5.25013,52.59688,-45.29766,12.4516,75.13611,1e-05,-96.04912,61.84305,0.001,83.36278,-11.13768,12.45882,-0.01569,-13.04347,-10.93328,0.00158,1.08468,4.05344,-14.68794,-20.94671,9.32817,-12.08662,-25.10592,5.39024,2.06008
2484,39.92772,-0.0,-0.0,-11.41849,0.0,-0.0,2.21013,-5.45284,-6.0415,0.13317,7.63253,0.83348,-40.3794,3.02242,-0.00017,-32.49081,-3.29209,0.00039,38.52748,-6.13578,1.96271,44.59268,-2.08998,-0.4474,-10.26684,35.39193,4.52772,51.98699,-43.54156,12.5564,74.73599,0.0016,-95.50148,61.45672,-0.00445,84.34453,-9.86145,11.18926,-0.01245,-13.63295,-10.96136,0.00233,1.0607,3.96631,-14.62189,-20.97071,9.22269,-12.05785,-25.74791,5.8932,2.33792
2485,39.57327,0.0,0.0,-12.31997,0.0,-0.0,1.73541,-5.40462,-5.94948,-0.0784,7.77968,0.7618,-39.77881,3.15314,-0.00034,-31.69982,-3.11685,0.00174,38.66907,-6.36635,1.62076,44.56057,-2.37138,-0.77714,-9.97161,35.09756,3.95071,51.45143,-41.79204,12.53263,74.34747,0.00226,-94.8536,60.98561,-0.0056,85.31585,-8.46568,10.72884,0.00315,-14.46048,-11.04364,0.00136,1.19522,3.80121,-14.56437,-20.8309,9.04812,-12.0667,-26.29387,6.34845,2.54568
2486,38.76114,0.0,0.0,-13.27111,-0.0,-0.0,1.44716,-5.38186,-5.96723,-0.34035,7.9785,0.45583,-39.31213,3.23466,-0.00036,-30.94798,-2.95143,0.00109,38.939,-6.57336,1.28564,44.60942,-2.5816,-0.84419,-9.8035,35.01295,3.48401,50.99507,-40.0212,12.25353,73.92071,-0.0014,-94.58307,60.38551,0.00338,86.78384,-7.69618,10.96368,0.0079,-15.12351,-11.0542,-0.00041,1.44647,3.72981,-14.685,-20.56556,9.02705,-12.20679,-26.74661,6.69577,2.74044
2487,38.04565,0.0,-0.0,-13.80542,0.0,-0.0,1.21621,-5.37463,-6.02341,-0.60593,7.99032,0.14832,-39.04178,3.33213,-0.00029,-30.30489,-2.90845,-0.00043,39.2981,-6.72493,0.96884,44.67926,-2.65937,-0.90324,-9.72794,35.16151,3.10686,50.56468,-38.23055,11.66328,73.49654,-0.00496,-95.07802,59.61942,0.01456,88.94063,-7.82285,11.03512,0.00691,-15.50389,-11.04841,-0.00058,1.66352,3.913,-15.06948,-20.32772,9.34062,-12.49757,-27.18528,6.94092,2.98655
2488,37.97797,0.0,0.0,-14.04648,-0.0,0.0,0.84932,-5.42632,-6.15348,-0.72685,7.71046,0.00541,-38.92981,3.5319,-7e-05,-29.77359,-2.99805,-0.00107,39.68462,-6.81021,0.75231,44.70305,-2.62677,-1.16777,-9.7191,35.43892,2.84811,50.10099,-36.48561,10.93375,73.19314,-0.00293,-96.08001,58.71566,0.01479,91.23476,-8.26701,10.31392,0.00458,-15.7617,-11.21194,0.00094,1.75885,4.27404,-15.61394,-20.20887,9.87868,-12.87129,-27.62238,7.1608,3.32008
2489,38.46211,0.0,-0.0,-14.1032,0.0,0.0,0.33087,-5.65348,-6.43768,-0.69322,7.29155,0.00663,-38.87762,3.81749,0.00023,-29.32076,-3.1381,-0.00079,40.05859,-6.83648,0.69005,44.68416,-2.56819,-1.60881,-9.826,35.672,2.77184,49.59883,-34.87264,10.42739,73.05569,0.00087,-97.03893,57.75391,0.00334,92.90012,-8.34972,9.15516,-0.00215,-16.03663,-11.59982,0.00261,1.76542,4.5298,-16.13512,-20.17352,10.31016,-13.26371,-27.99883,7.41419,3.71185
2490,38.57987,0.0,0.0,-13.95194,0.0,0.0,-0.14688,-6.11915,-6.80399,-0.62059,7.05519,-0.0211,-38.83968,4.00596,0.00036,-28.9211,-3.24923,-0.00027,40.41168,-6.81248,0.64141,44.66597,-2.55187,-2.03125,-10.08367,35.73485,2.89622,49.10241,-33.43539,10.39614,72.94482,0.00172,-97.73172,56.81882,-0.00901,93.5693,-8.18147,8.40823,-0.00317,-16.27734,-12.0371,0.00248,1.77365,4.48315,-16.53927,-20.12551,10.41728,-13.66139,-28.28195,7.69615,4.0881
2491,37.60455,0.0,0.0,-13.76853,-0.0,0.0,-0.40741,-6.66156,-7.09729,-0.53638,7.09777,-0.20207,-38.8382,3.91991,0.00042,-28.56951,-3.28451,0.00015,40.79396,-6.72924,0.41831,44.71262,-2.58514,-2.28655,-10.36897,35.6381,3.10228,48.63237,-32.18122,10.7704,72.62783,0.00086,-98.21638,55.99731,-0.012,93.48259,-8.56534,8.38085,-0.0033,-16.50533,-12.25749,-0.0001,1.85514,4.18906,-16.82534,-19.99739,10.25066,-14.04185,-28.47958,7.96097,4.40811
2492,36.26476,0.0,0.0,-13.77499,0.0,-0.0,-0.53691,-7.00052,-7.34198,-0.38029,7.19858,-0.47576,-38.86694,3.60498,0.00035,-28.25459,-3.23322,0.0003,41.22179,-6.56784,0.0869,44.82517,-2.63345,-2.38981,-10.47234,35.48344,3.2123,48.13063,-31.11241,11.28632,71.97614,0.00071,-98.53804,55.37427,-0.00559,93.3914,-10.0307,8.67861,-0.0028,-17.01758,-12.09704,-0.0058,2.00138,3.84424,-17.02668,-19.80905,10.00525,-14.3615,-28.65644,8.15186,4.71134
2493,35.82551,0.0,-0.0,-14.00795,-0.0,-0.0,-0.73122,-7.061,-7.72274,-0.15836,7.17019,-0.71957,-38.87729,3.2763,0.00013,-27.96506,-3.12477,0.00013,41.61686,-6.32759,-0.09752,44.92502,-2.66555,-2.45007,-10.34889,35.34745,3.21121,47.50114,-30.20321,11.71874,71.08163,0.00051,-98.75783,54.97112,0.00017,93.95984,-12.09217,8.87417,0.0018,-17.96245,-11.60385,-0.00943,2.13534,3.60692,-17.19316,-19.64349,9.84658,-14.60755,-28.90891,8.22485,5.0707
2494,36.33846,0.0,0.0,-14.39298,-0.0,0.0,-0.98046,-6.98518,-8.26877,0.02864,7.03807,-0.90879,-38.85911,3.04248,8e-05,-27.71974,-2.98344,-0.00016,41.96564,-6.03126,-0.06317,45.02518,-2.6818,-2.53075,-10.18924,35.23876,3.29662,46.70963,-29.37594,11.92102,70.17723,-0.00152,-99.02525,54.6951,-0.00026,95.07357,-13.71805,8.94729,0.00284,-18.79976,-11.04297,-0.00412,2.21395,3.51908,-17.3219,-19.54656,9.81265,-14.76171,-29.20856,8.18352,5.50346
2495,37.02185,-0.0,0.0,-14.83958,-0.0,-0.0,-1.17344,-6.86108,-8.79218,0.06899,6.91174,-1.09307,-38.8392,2.81531,9e-05,-27.51752,-2.80051,-0.00023,42.34568,-5.70475,-0.01666,45.20868,-2.70069,-2.63537,-10.1809,35.12878,3.65206,45.84644,-28.53576,11.7798,69.40884,-0.00328,-99.40789,54.3762,-0.00366,96.09122,-14.3933,9.13902,0.00125,-18.68484,-10.75004,-0.00035,2.28718,3.54126,-17.31137,-19.4758,9.82936,-14.74347,-29.43803,8.09908,5.9506
2496,37.42178,0.0,-0.0,-15.19585,-0.0,0.0,-1.33837,-6.70968,-9.18209,-0.09611,6.84005,-1.27418,-38.80328,2.52705,-8e-05,-27.28437,-2.5803,1e-05,42.72065,-5.38434,-0.13418,45.40624,-2.73502,-2.7729,-10.2913,34.97788,4.25584,45.07878,-27.61437,11.28443,68.72953,-0.00085,-99.67953,53.86886,-0.0035,96.80473,-14.33365,9.60422,0.00167,-17.45795,-10.90194,-0.00655,2.42691,3.60743,-17.06362,-19.36459,9.79907,-14.48553,-29.6264,8.0484,6.33297
2497,37.60708,0.0,0.0,-15.34945,0.0,-0.0,-1.58493,-6.63963,-9.54084,-0.43274,6.7864,-1.38063,-38.69502,2.28371,-0.00011,-26.94434,-2.36595,0.00021,42.97156,-5.11728,-0.33279,45.47777,-2.7759,-2.93364,-10.36563,34.77186,4.95546,44.50051,-26.59945,10.59981,68.04287,0.00497,-99.49799,53.15145,0.00294,97.68868,-13.9299,10.27649,0.00298,-15.81155,-11.39222,-0.00994,2.6306,3.63565,-16.59246,-19.20775,9.65053,-14.03197,-29.90343,8.01738,6.61702
2498,37.8763,0.0,0.0,-15.45347,0.0,0.0,-1.92595,-6.75989,-9.98343,-0.80403,6.70908,-1.3528,-38.50096,2.2346,0.00033,-26.50672,-2.19118,0.00026,43.11903,-4.91658,-0.41385,45.45245,-2.79501,-3.06581,-10.33945,34.56786,5.62481,44.02936,-25.56057,9.99209,67.35491,0.0071,-98.91319,52.34921,0.00703,99.11588,-13.42471,10.99197,0.00295,-14.53498,-11.89334,-0.00372,2.83379,3.57406,-16.03657,-19.0521,9.38678,-13.53315,-30.26306,7.92132,6.83499
2499,38.12956,0.0,0.0,-15.6077,-0.0,0.0,-2.21415,-7.05005,-10.46426,-1.09614,6.62011,-1.17373,-38.28738,2.38718,0.00061,-26.03139,-2.05233,0.00031,43.27295,-4.75248,-0.31633,45.43803,-2.78042,-3.15204,-10.25414,34.45864,6.19134,43.49543,-24.61685,9.65661,66.74869,0.00287,-98.45129,51.61302,0.00322,100.84992,-12.93833,11.52649,0.00067,-14.05452,-12.14174,0.00316,2.99202,3.47918,-15.60492,-18.92673,9.13803,-13.164,-30.6004,7.72045,7.03532
2500,37.71332,0.0,0.0,-15.59887,-0.0,0.0,-2.26186,-7.42803,-10.82862,-1.32763,6.56485,-0.86385,-38.13309,2.59549,0.00031,-25.54889,-1.94841,0.00022,43.48394,-4.5796,-0.15726,45.46421,-2.73299,-3.23486,-10.16642,34.46604,6.61935,42.82692,-23.83422,9.58447,66.27772,-0.00168,-98.52216,50.93206,-0.00048,102.42776,-12.52135,11.57436,-0.00203,-14.46527,-12.20565,0.00614,3.09064,3.46391,-15.41907,-18.8435,9.0546,-12.99549,-30.83301,7.46407,7.22528
2501,36.22108,0.0,0.0,-15.3464,-0.0,-0.0,-1.99936,-7.79904,-11.00714,-1.55793,6.53306,-0.46899,-38.05194,2.72799,-2e-05,-25.05966,-1.91056,-0.00022,43.79852,-4.34842,-0.03252,45.5792,-2.62265,-3.37436,-10.14957,34.48929,6.96471,42.10111,-23.17646,9.61036,65.91945,-0.0032,-99.07109,50.13437,0.00135,103.63046,-12.24033,11.01528,-0.00121,-15.47523,-12.25836,0.00565,3.09388,3.56907,-15.3827,-18.84972,9.13858,-12.9216,-30.84308,7.2233,7.37276
2502,34.06664,-0.0,-0.0,-15.08232,-0.0,0.0,-1.5079,-8.05515,-11.09377,-1.78454,6.45827,-0.02757,-37.98735,2.78904,-8e-05,-24.58067,-1.95576,-0.00062,44.23598,-4.0406,0.09402,45.84199,-2.42398,-3.62166,-10.2828,34.37629,7.36839,41.42299,-22.58669,9.6236,65.61314,-0.00297,-99.85252,49.12993,0.00342,104.47108,-12.20878,10.2297,0.0018,-16.50059,-12.20833,0.00154,2.97956,3.75468,-15.27615,-18.98446,9.27098,-12.75139,-30.56987,7.0135,7.44517
2503,32.29077,0.0,0.0,-15.05202,0.0,-0.0,-0.99377,-8.14932,-11.1426,-1.96805,6.3799,0.39095,-37.87456,2.81187,-0.00017,-24.14641,-2.0338,-0.00048,44.67355,-3.71073,0.1995,46.16003,-2.18574,-3.97872,-10.52944,34.07889,7.87263,40.82009,-22.08317,9.67229,65.31208,-0.00075,-100.52591,48.05899,1e-05,104.91875,-12.46377,9.90586,-5e-05,-17.11121,-11.89961,-0.00088,2.82921,3.96195,-14.96886,-19.17346,9.34841,-12.38466,-30.21638,6.79438,7.44192
2504,31.77789,0.0,-0.0,-15.25085,0.0,-0.0,-0.68127,-8.11284,-11.08448,-2.11335,6.38443,0.69633,-37.70977,2.78264,-0.0003,-23.76804,-2.07344,-0.00014,44.96613,-3.45294,0.13473,46.36337,-1.99195,-4.3951,-10.69724,33.72002,8.31038,40.24952,-21.73106,9.79976,64.99483,0.00295,-100.68473,47.13636,-0.00494,104.89619,-12.89543,10.39107,-0.00501,-17.23268,-11.43878,0.00015,2.78243,4.13952,-14.51374,-19.26831,9.34275,-11.89067,-30.09081,6.5376,7.39621
2505,32.30546,0.0,0.0,-15.27064,-0.0,0.0,-0.61804,-8.03013,-10.94149,-2.3213,6.36782,0.89144,-37.5325,2.74955,-5e-05,-23.41849,-2.05353,-1e-05,45.10539,-3.3233,-0.12795,46.40289,-1.8789,-4.79987,-10.60834,33.46261,8.49874,39.63713,-21.53184,9.85997,64.67104,0.00395,-100.41172,46.4423,-0.00474,104.58222,-13.27314,11.30633,-0.00481,-16.95808,-11.05288,0.00107,2.89644,4.28218,-14.05159,-19.19928,9.30176,-11.40351,-30.26706,6.25778,7.34493
2506,32.7453,0.0,-0.0,-14.77521,-0.0,0.0,-0.66161,-8.0683,-10.82861,-2.6778,6.19118,1.0228,-37.33957,2.79729,0.00037,-23.07001,-1.97773,6e-05,45.16641,-3.30319,-0.46126,46.36905,-1.82964,-5.07878,-10.27533,33.35639,8.46133,38.93242,-21.37607,9.63912,64.39603,0.00124,-100.46874,45.89618,0.00018,104.4193,-13.33745,11.88509,-0.00254,-16.49428,-10.83724,0.00032,3.12137,4.46501,-13.63764,-19.01674,9.31573,-10.94627,-30.55853,5.96052,7.29141
2507,32.56917,-0.0,0.0,-14.19738,0.0,0.0,-0.71695,-8.35387,-10.71887,-3.09136,5.9756,1.03706,-37.08421,2.87213,0.00015,-22.73026,-1.82998,0.00022,45.2192,-3.32556,-0.84415,46.38012,-1.8162,-5.12517,-9.86729,33.35133,8.35441,38.17717,-21.13976,9.14078,64.22399,-6e-05,-101.21056,45.34717,0.00451,104.63621,-13.01492,11.74057,-0.00386,-16.15928,-10.74813,-0.00063,3.3814,4.7588,-13.19874,-18.80655,9.42278,-10.42331,-30.75644,5.62544,7.19315
2508,32.53645,-0.0,-0.0,-14.14636,-0.0,-0.0,-0.88298,-8.73212,-10.52022,-3.4214,5.90719,0.89631,-36.76202,2.84298,-0.00067,-22.41662,-1.61305,0.00026,45.27418,-3.338,-1.34739,46.4431,-1.82581,-5.00857,-9.5204,33.39486,8.24733,37.45208,-20.84193,8.60055,64.12509,0.0016,-101.75273,44.70486,0.00381,104.94841,-12.48901,11.23874,-0.00304,-16.10148,-10.68363,-0.00087,3.62184,5.10366,-12.68673,-18.62279,9.54916,-9.81231,-30.84407,5.269,7.00028
2509,33.38637,0.0,0.0,-14.36199,0.0,0.0,-1.26472,-8.90549,-10.35905,-3.70493,5.88877,0.7533,-36.4229,2.73281,-0.00081,-22.11752,-1.38927,3e-05,45.28439,-3.32726,-1.8529,46.46018,-1.85044,-4.94796,-9.22468,33.45815,8.09046,36.73336,-20.66169,8.23034,64.01008,0.00361,-101.23833,44.03826,-0.00033,104.93099,-12.01034,10.92316,0.00081,-16.20082,-10.4801,-0.00114,3.80098,5.36421,-12.19,-18.49223,9.60283,-9.24795,-30.95277,4.9427,6.71452
2510,34.56388,0.0,0.0,-14.19476,0.0,-0.0,-1.72664,-8.85637,-10.49474,-4.03621,5.65059,0.77779,-36.10712,2.70912,-7e-05,-21.81003,-1.21979,-0.00013,45.27536,-3.28969,-2.09518,46.43327,-1.86657,-5.04094,-8.88761,33.50986,7.85407,35.9101,-20.75993,8.0415,63.84504,0.00305,-100.19019,43.48872,-0.00437,104.40643,-11.77706,10.83973,0.00303,-16.32895,-9.99868,-0.0018,3.88337,5.50626,-11.84098,-18.44029,9.60235,-8.86725,-31.10428,4.65314,6.39596
2511,35.04974,-0.0,-0.0,-13.74356,-0.0,0.0,-2.01625,-8.83311,-10.95709,-4.33229,5.14955,0.87164,-35.82005,2.8484,0.00048,-21.48454,-1.08838,0.00014,45.35945,-3.21946,-2.02802,46.48673,-1.84741,-5.16496,-8.43808,33.52362,7.58086,34.94979,-21.11519,7.84733,63.67646,0.00089,-99.54596,43.05838,-0.00774,103.44717,-11.91837,10.81837,0.00267,-16.42273,-9.40759,-0.00199,3.88457,5.61345,-11.71564,-18.45343,9.6541,-8.7089,-31.17637,4.36254,6.11589
2512,34.71928,-0.0,0.0,-13.6758,-0.0,-0.0,-2.05178,-8.93815,-11.50146,-4.44146,4.66031,0.80773,-35.5546,3.06358,0.00035,-21.14129,-0.95992,0.00048,45.56602,-3.11469,-1.86294,46.65708,-1.77633,-5.19263,-7.85648,33.48728,7.33213,33.94899,-21.56869,7.38769,63.54436,-0.00018,-99.49474,42.57034,-0.00505,102.58125,-12.40482,10.9558,-0.0003,-16.42283,-9.1921,-0.00178,3.89518,5.75372,-11.82425,-18.44557,9.82492,-8.75623,-31.12331,4.05969,5.91566
2513,34.22306,0.0,0.0,-14.1627,0.0,-0.0,-1.94504,-9.00334,-11.94392,-4.39944,4.42118,0.61388,-35.3125,3.27012,0.0001,-20.80023,-0.88268,0.00021,45.81386,-2.97885,-1.69093,46.86661,-1.64739,-5.16824,-7.1655,33.38225,7.14998,33.00433,-22.00274,6.5244,63.42702,-0.001,-99.95981,41.88818,0.00889,102.74178,-13.06756,11.35576,-0.00308,-16.3786,-9.61049,-0.001,3.98159,5.94064,-12.04735,-18.35832,10.08218,-8.89252,-31.02038,3.76218,5.78215
2514,34.2038,0.0,0.0,-14.6985,0.0,-0.0,-1.87503,-8.87324,-12.31878,-4.41651,4.4029,0.52483,-35.09996,3.4643,8e-05,-20.49149,-0.93008,-0.00038,46.03792,-2.82305,-1.39296,47.06046,-1.48158,-5.20398,-6.41607,33.20127,7.03264,32.08485,-22.42774,5.3186,63.28221,-0.00227,-101.04208,41.10921,0.01851,104.28926,-13.79094,11.83239,-0.00259,-16.39074,-10.31686,3e-05,4.11696,6.19506,-12.10302,-18.23704,10.33853,-8.84625,-30.93237,3.4663,5.65369
2515,34.92545,0.0,0.0,-14.99796,0.0,-0.0,-1.98302,-8.60281,-12.688,-4.62484,4.45604,0.59299,-34.91001,3.62869,0.00012,-20.20702,-1.06505,-0.00056,46.2463,-2.65388,-0.96475,47.24298,-1.31328,-5.28645,-5.65125,32.99902,6.91733,31.06761,-22.90951,3.90693,63.12195,-0.00177,-102.55859,40.44831,0.00976,106.41418,-14.55728,12.16513,0.0007,-16.38245,-10.77041,-6e-05,4.26368,6.51341,-11.73542,-18.13402,10.49384,-8.37954,-30.85779,3.13674,5.48892
2516,36.20673,0.0,-0.0,-15.42059,-0.0,0.0,-2.28582,-8.33733,-13.00795,-4.94006,4.46716,0.64955,-34.72923,3.69343,1e-05,-19.9107,-1.15879,-0.00019,46.49553,-2.45746,-0.63299,47.44999,-1.14955,-5.29569,-4.86753,32.87204,6.717,29.89567,-23.47854,2.40744,63.02933,0.00016,-103.76241,39.96486,-0.00379,107.98596,-15.31818,12.24776,0.00569,-16.20978,-10.75241,0.00032,4.41486,6.78852,-10.95902,-18.04411,10.45391,-7.54787,-30.75463,2.73998,5.31011
2517,37.40276,-0.0,0.0,-16.20545,0.0,-0.0,-2.66869,-8.171,-13.18744,-5.2429,4.41967,0.59994,-34.56399,3.59915,-0.0002,-19.5976,-1.13172,0.00028,46.81894,-2.21134,-0.62296,47.70067,-0.977,-5.21239,-4.03678,32.85973,6.40343,28.64423,-24.12465,0.94168,63.11037,-0.00147,-103.8798,39.52775,-0.00781,108.69674,-15.8999,11.88867,0.0069,-15.93157,-10.284,0.00127,4.53795,6.89046,-10.05357,-17.97168,10.20428,-6.66389,-30.61431,2.29085,5.14437
2518,37.6965,0.0,0.0,-16.92022,0.0,-0.0,-2.97463,-8.14129,-13.16815,-5.58049,4.36384,0.51762,-34.42964,3.34943,-0.00037,-19.28931,-1.00773,0.00044,47.16522,-1.90911,-0.9455,47.94924,-0.79645,-5.16835,-3.17573,32.88592,6.05414,27.39672,-24.83696,-0.42903,63.4293,-0.00471,-102.98998,39.03379,-0.00218,109.13419,-15.9771,10.90478,-0.0054,-15.71882,-9.41449,0.00143,4.60355,6.81412,-9.3158,-17.93255,9.85317,-6.00646,-30.5122,1.85438,4.97661
2519,36.80453,0.0,0.0,-17.10993,-0.0,0.0,-3.12817,-8.22694,-13.02773,-6.05246,4.26346,0.48808,-34.30496,3.05095,-0.00038,-18.98968,-0.85136,0.00036,47.45096,-1.57773,-1.3648,48.13684,-0.62408,-5.25409,-2.35337,32.8326,5.77651,26.12336,-25.62762,-1.79287,63.93884,-0.0019,-102.01296,38.51724,0.00395,109.85085,-15.34028,9.52477,-0.02038,-15.65898,-8.31692,0.00074,4.67619,6.66649,-8.85945,-17.86821,9.5431,-5.63923,-30.5226,1.47093,4.786
2520,35.26343,0.0,0.0,-16.89855,0.0,-0.0,-3.20474,-8.37514,-13.04064,-6.63178,4.01874,0.51242,-34.13046,2.89201,0.0002,-18.67944,-0.71523,0.00019,47.6537,-1.27415,-1.57391,48.26904,-0.47154,-5.43033,-1.61361,32.68105,5.58692,24.77202,-26.50974,-3.25924,64.45785,0.00287,-101.4738,38.00236,0.00186,110.56837,-14.29898,8.43974,-0.01462,-15.78704,-7.32337,0.00041,4.87719,6.57605,-8.60419,-17.67099,9.36235,-5.43698,-30.61436,1.11091,4.55994
2521,33.94729,0.0,0.0,-16.57407,-0.0,0.0,-3.34877,-8.54997,-13.48883,-7.2292,3.64823,0.59887,-33.85779,2.97692,0.00123,-18.33269,-0.63693,-0.00014,47.8144,-1.03909,-1.46954,48.39937,-0.33864,-5.65699,-0.94263,32.54285,5.45575,23.43438,-27.44274,-4.78336,64.78354,0.00382,-100.8907,37.36879,-0.00569,110.65218,-13.40226,8.29295,0.00213,-16.09958,-6.62391,0.00099,5.22992,6.66352,-8.32878,-17.33363,9.33819,-5.14693,-30.68212,0.71838,4.25554
2522,33.44662,0.0,0.0,-16.24335,-0.0,0.0,-3.58712,-8.73022,-14.31208,-7.78919,3.29818,0.82536,-33.48424,3.18878,0.0013,-17.93572,-0.62947,-0.00052,47.97393,-0.85543,-1.22316,48.57527,-0.21896,-5.93406,-0.32408,32.5145,5.44033,22.28491,-28.33722,-6.24777,64.85805,0.00364,-99.74983,36.47506,-0.00722,110.17282,-12.82413,9.10591,0.0099,-16.50615,-6.03083,0.00045,5.58729,6.9678,-7.78533,-17.01332,9.41193,-4.52352,-30.6477,0.25612,3.81877
2523,33.59742,0.0,-0.0,-16.09524,-0.0,0.0,-3.75921,-8.94371,-15.04213,-8.25768,3.11522,1.19579,-33.05636,3.29592,-0.0001,-17.50387,-0.65894,-0.00058,48.13414,-0.67589,-1.10956,48.80385,-0.10326,-6.19641,0.24533,32.54245,5.618,21.36079,-29.15671,-7.63811,64.78473,0.00278,-98.21093,35.34618,5e-05,109.74681,-12.45458,10.35389,0.00851,-16.92324,-5.27825,-0.0016,5.75913,7.34313,-6.90608,-16.88947,9.42277,-3.56089,-30.52168,-0.26615,3.26109
2524,33.65177,0.0,0.0,-16.35538,-0.0,-0.0,-3.70301,-9.21211,-15.27998,-8.60647,3.08342,1.58515,-32.62785,3.20803,-0.00118,-17.05458,-0.66225,-0.00019,48.26658,-0.47866,-1.25216,49.03296,0.01999,-6.36065,0.83215,32.49722,5.91518,20.53945,-29.97289,-9.05109,64.69283,0.00096,-96.80003,34.13241,0.00516,109.60159,-12.31464,11.5203,0.00377,-17.32652,-4.43667,-0.00241,5.71522,7.55876,-5.86423,-16.96843,9.22363,-2.51066,-30.40027,-0.77378,2.66811
2525,33.25461,0.0,0.0,-16.92927,-0.0,0.0,-3.47223,-9.39253,-15.14281,-8.91553,2.9885,1.90723,-32.19008,3.06817,-0.00052,-16.56742,-0.60091,0.00037,48.32812,-0.28227,-1.47464,49.1781,0.15331,-6.45568,1.5858,32.34835,6.14455,19.71587,-30.86584,-10.63447,64.6385,-0.00042,-96.10271,32.9561,0.00305,109.50291,-12.54974,12.40266,-0.00123,-17.60629,-3.76736,-0.00057,5.60638,7.53278,-4.89,-17.08927,8.82711,-1.61859,-30.40585,-1.20482,2.12748
2526,32.79032,0.0,-0.0,-17.49326,0.0,-0.0,-3.26404,-9.31844,-14.97748,-9.33382,2.71325,2.14929,-31.70723,3.05132,0.00093,-16.01171,-0.48873,0.00065,48.29588,-0.11534,-1.51599,49.20041,0.29001,-6.53741,2.60935,32.19609,6.19435,18.88535,-31.82399,-12.53414,64.5945,-0.00053,-96.27084,31.86488,-0.00209,109.23326,-13.15765,13.16178,-0.00638,-17.55403,-3.3457,0.00166,5.576,7.36667,-4.10515,-17.11679,8.37361,-0.95727,-30.59466,-1.59675,1.6701
2527,32.61257,0.0,-0.0,-17.87385,-0.0,0.0,-3.18485,-9.07652,-14.8463,-9.93853,2.45129,2.28435,-31.22328,3.14726,0.00126,-15.40056,-0.37611,0.00034,48.21202,0.02983,-1.37667,49.14069,0.43882,-6.59257,3.838,32.14835,6.10305,18.10557,-32.7947,-14.80921,64.49388,0.00125,-96.61447,30.82015,-0.00444,108.80978,-13.83366,14.11109,-0.00751,-17.11751,-3.09313,0.00205,5.64631,7.19144,-3.50633,-17.03965,7.98281,-0.4719,-30.91281,-2.00842,1.25856
