PaulMeinheit/Bachelor_Muay_Thai/processed_Data/N3/roundhouse/sliced/JointPositions/sliced6.csv
Unnamed: 0_level_0,Neck_Joint_Position,Neck_Joint_Position,Neck_Joint_Position,L_ANKLE_POSITION,L_ANKLE_POSITION,L_ANKLE_POSITION,R_ANKLE_POSITION,R_ANKLE_POSITION,R_ANKLE_POSITION,L_KNEE_POSITION,L_KNEE_POSITION,L_KNEE_POSITION,R_KNEE_POSITION,R_KNEE_POSITION,R_KNEE_POSITION,L_HIP_POSITION,L_HIP_POSITION,L_HIP_POSITION,R_HIP_POSITION,R_HIP_POSITION,R_HIP_POSITION,L_SHOULDER_POSITION,L_SHOULDER_POSITION,L_SHOULDER_POSITION,R_SHOULDER_POSITION,R_SHOULDER_POSITION,R_SHOULDER_POSITION,L_ELBOW_POSITION,L_ELBOW_POSITION,L_ELBOW_POSITION,R_ELBOW_POSITION,R_ELBOW_POSITION,R_ELBOW_POSITION,L_WRIST_POSITION,L_WRIST_POSITION,L_WRIST_POSITION,R_WRIST_POSITION,R_WRIST_POSITION,R_WRIST_POSITION
ITEM,X,Y,Z,X,Y,Z,X,Y,Z,X,Y,Z,X,Y,Z,X,Y,Z,X,Y,Z,X,Y,Z,X,Y,Z,X,Y,Z,X,Y,Z,X,Y,Z,X,Y,Z
2037,0.21438,0.44907,1.46116,0.12291,0.58087,0.07672,0.22022,0.08562,0.08061,0.09571,0.55699,0.47872,0.25208,0.21285,0.45835,0.06625,0.37954,0.85548,0.22696,0.28954,0.85646,0.02694,0.46813,1.39738,0.34966,0.34118,1.39112,-0.01777,0.59496,1.13077,0.45744,0.44745,1.13658,0.17472,0.71056,1.24081,0.37953,0.65223,1.22147
2038,0.21288,0.44738,1.46161,0.12279,0.58076,0.07672,0.22041,0.08554,0.0807,0.09599,0.55658,0.47874,0.25255,0.21253,0.45851,0.06652,0.37882,0.85535,0.22712,0.28865,0.8567,0.02682,0.46663,1.39768,0.34871,0.33957,1.39234,-0.01661,0.5949,1.13155,0.45851,0.44886,1.13995,0.17546,0.71053,1.24231,0.37828,0.65132,1.22817
2039,0.21124,0.44586,1.46215,0.1227,0.5807,0.0768,0.22058,0.0854,0.08076,0.09609,0.55621,0.47881,0.25315,0.21212,0.45862,0.06683,0.37818,0.85531,0.22737,0.28789,0.85686,0.02652,0.46536,1.39817,0.34785,0.3381,1.39365,-0.01555,0.59469,1.13233,0.45934,0.4501,1.1432,0.17582,0.71037,1.24425,0.37642,0.65018,1.23432
2040,0.20975,0.44447,1.46275,0.12264,0.58074,0.07694,0.22068,0.08529,0.08082,0.09613,0.55574,0.47892,0.2538,0.21155,0.45879,0.06728,0.37771,0.85545,0.22776,0.28732,0.85701,0.0261,0.46418,1.39883,0.34698,0.33684,1.39495,-0.01432,0.59446,1.1332,0.45975,0.45122,1.14615,0.17632,0.70993,1.24656,0.37429,0.64901,1.23988
2041,0.20861,0.44315,1.46328,0.12246,0.58086,0.07706,0.22068,0.08524,0.08081,0.09619,0.55507,0.47901,0.25429,0.21085,0.45895,0.06774,0.37745,0.85577,0.22811,0.28687,0.85712,0.02559,0.46298,1.39953,0.34611,0.33577,1.39614,-0.01272,0.59432,1.13412,0.45987,0.45227,1.14878,0.1772,0.70947,1.24899,0.37255,0.64806,1.24497
2042,0.20784,0.44181,1.46374,0.12203,0.58097,0.07712,0.22055,0.08517,0.08069,0.09619,0.55423,0.47904,0.25439,0.21016,0.45901,0.06803,0.37726,0.85613,0.22827,0.28644,0.85713,0.02498,0.46178,1.40011,0.34522,0.33483,1.39719,-0.01082,0.59447,1.13501,0.45994,0.45335,1.15124,0.17856,0.7092,1.25119,0.37159,0.64751,1.24975
2043,0.20723,0.44035,1.46425,0.12152,0.581,0.07714,0.22032,0.0851,0.0805,0.0961,0.55336,0.47902,0.25411,0.20964,0.45898,0.06813,0.3769,0.85636,0.22832,0.28599,0.8571,0.02431,0.46068,1.40039,0.34431,0.33393,1.39803,-0.00885,0.59517,1.13586,0.46012,0.45454,1.15361,0.18038,0.70911,1.25306,0.37132,0.64737,1.25432
2044,0.20656,0.43882,1.46487,0.1212,0.58096,0.07715,0.22008,0.08507,0.08038,0.09601,0.55253,0.47899,0.25377,0.20934,0.45895,0.06818,0.37634,0.85646,0.22842,0.28551,0.85714,0.02377,0.45984,1.40039,0.34358,0.33294,1.39865,-0.00695,0.59649,1.13667,0.46045,0.45592,1.15593,0.18246,0.70908,1.25489,0.37136,0.64754,1.25866
2045,0.20573,0.43741,1.46548,0.12116,0.5809,0.07718,0.2199,0.08506,0.0804,0.09601,0.55181,0.47898,0.2536,0.20917,0.45902,0.06837,0.37573,0.85652,0.22863,0.28495,0.85731,0.02351,0.45927,1.40034,0.34324,0.33186,1.3991,-0.00515,0.59808,1.13751,0.46088,0.45754,1.15813,0.18442,0.70907,1.25698,0.3713,0.6479,1.26276
2046,0.20486,0.43635,1.46595,0.12129,0.58082,0.07719,0.21985,0.08499,0.08049,0.09613,0.55122,0.47895,0.25358,0.20892,0.45917,0.06869,0.37522,0.85654,0.22887,0.28429,0.85756,0.02336,0.45885,1.40045,0.34318,0.33087,1.39954,-0.0036,0.59935,1.13834,0.46125,0.45926,1.16022,0.18584,0.70898,1.25926,0.37082,0.64824,1.26661
2047,0.20421,0.43559,1.46631,0.12146,0.5807,0.07711,0.21991,0.08489,0.08053,0.09639,0.55069,0.47885,0.25354,0.20852,0.45932,0.06904,0.37476,0.85648,0.2291,0.28362,0.85777,0.02296,0.45836,1.40068,0.34296,0.33014,1.4001,-0.00258,0.59996,1.13903,0.46139,0.46093,1.16226,0.18659,0.70872,1.26117,0.36978,0.64844,1.27023
2048,0.20387,0.43494,1.46665,0.12159,0.58056,0.07699,0.22001,0.08486,0.08046,0.09677,0.55012,0.47871,0.2534,0.20806,0.45941,0.06929,0.37429,0.85637,0.2293,0.28306,0.8579,0.02219,0.45772,1.40078,0.34225,0.32966,1.40076,-0.00202,0.60011,1.13943,0.4613,0.46243,1.16433,0.18695,0.70842,1.26227,0.36841,0.64851,1.27368
2049,0.20373,0.43423,1.46706,0.12163,0.58043,0.07696,0.22007,0.08486,0.08038,0.09708,0.54955,0.47866,0.25319,0.20767,0.45947,0.06935,0.37377,0.85633,0.22942,0.28266,0.85799,0.02137,0.45704,1.40062,0.34119,0.32926,1.4014,-0.00144,0.60031,1.13962,0.46116,0.46366,1.16635,0.18734,0.7084,1.26293,0.36719,0.64844,1.27696
2050,0.20356,0.43347,1.4675,0.12153,0.58035,0.07707,0.22013,0.08477,0.08037,0.09715,0.54905,0.47875,0.25298,0.20734,0.45957,0.0692,0.37326,0.8564,0.22937,0.28233,0.85809,0.0208,0.45646,1.40026,0.34016,0.32873,1.40192,-0.00034,0.60104,1.13984,0.46114,0.46453,1.16821,0.18808,0.70874,1.26404,0.36629,0.64814,1.28001
2051,0.20322,0.43281,1.46788,0.12134,0.58035,0.07724,0.22018,0.08461,0.0804,0.09695,0.54856,0.47888,0.25286,0.20704,0.45966,0.06893,0.37285,0.85656,0.22912,0.28194,0.85819,0.02048,0.45605,1.39989,0.33945,0.32799,1.40233,0.00124,0.60238,1.14031,0.4612,0.46519,1.16983,0.18912,0.70913,1.26613,0.3656,0.64772,1.28277
2052,0.20267,0.43242,1.46812,0.12116,0.58038,0.07738,0.2201,0.08443,0.08039,0.09663,0.54797,0.47896,0.25289,0.20678,0.45966,0.0687,0.37256,0.85679,0.22876,0.28141,0.85822,0.02024,0.45583,1.39965,0.33916,0.32716,1.40265,0.00269,0.60388,1.14093,0.46116,0.46597,1.17124,0.18992,0.70929,1.26884,0.36509,0.64759,1.28523
2053,0.20197,0.43228,1.46822,0.12108,0.58043,0.07746,0.21983,0.08426,0.08035,0.09641,0.54731,0.47898,0.25307,0.20658,0.4596,0.06858,0.37233,0.85701,0.2284,0.28078,0.85821,0.01997,0.45581,1.39964,0.33913,0.32649,1.40299,0.00344,0.6049,1.14144,0.46099,0.46693,1.17249,0.18998,0.70926,1.27121,0.36491,0.64798,1.28737
2054,0.20129,0.43209,1.4683,0.12111,0.58046,0.07748,0.21954,0.08411,0.08035,0.0964,0.54671,0.47895,0.25326,0.20639,0.45957,0.06855,0.37213,0.85716,0.22813,0.28015,0.85823,0.01962,0.45596,1.39977,0.33912,0.32613,1.40349,0.0035,0.60526,1.14168,0.46083,0.46782,1.17368,0.18939,0.70923,1.2727,0.36506,0.64864,1.28918
2055,0.20077,0.43156,1.46848,0.1212,0.58047,0.07742,0.21941,0.08403,0.08037,0.0965,0.54627,0.47884,0.25333,0.2061,0.45964,0.06853,0.372,0.85719,0.2279,0.27966,0.85832,0.01922,0.45611,1.39986,0.33895,0.32599,1.40411,0.0034,0.6054,1.14174,0.46083,0.4685,1.1749,0.18875,0.70932,1.27354,0.36521,0.64921,1.29072
2056,0.20046,0.43083,1.46873,0.12123,0.58047,0.07728,0.21948,0.08404,0.08039,0.09646,0.546,0.47868,0.25326,0.20567,0.45981,0.06849,0.37196,0.85714,0.2277,0.27936,0.85846,0.01882,0.45613,1.39975,0.33861,0.32592,1.4046,0.00366,0.60577,1.14179,0.46104,0.46918,1.17615,0.18855,0.70955,1.27434,0.36509,0.64957,1.29218
2057,0.20036,0.43038,1.4689,0.12111,0.5805,0.07714,0.21964,0.08406,0.08044,0.09619,0.54588,0.47852,0.25316,0.2051,0.46007,0.06838,0.37194,0.85703,0.22757,0.2793,0.85862,0.01854,0.45604,1.3995,0.33816,0.32593,1.40478,0.00434,0.60638,1.14189,0.46145,0.47,1.17731,0.18876,0.7098,1.27539,0.36474,0.64978,1.29365
2058,0.20036,0.43045,1.46896,0.12088,0.58057,0.07707,0.21977,0.08404,0.08057,0.09584,0.54589,0.47843,0.2531,0.20449,0.46041,0.06825,0.37185,0.85691,0.22752,0.27936,0.85883,0.0184,0.456,1.39926,0.33772,0.32607,1.40476,0.00509,0.60699,1.14199,0.46193,0.47083,1.17823,0.18906,0.70991,1.27649,0.36445,0.64992,1.29498
2059,0.20039,0.43078,1.46901,0.12064,0.58069,0.07707,0.21988,0.0841,0.08076,0.0956,0.54595,0.47843,0.25304,0.20396,0.4608,0.06809,0.37167,0.85681,0.22747,0.27937,0.85912,0.01832,0.45617,1.39908,0.33739,0.32626,1.40481,0.00551,0.60766,1.14207,0.46234,0.47143,1.17895,0.18928,0.70999,1.2773,0.36436,0.65008,1.29597
2060,0.20031,0.431,1.46915,0.12045,0.58086,0.07715,0.21998,0.08427,0.08089,0.0955,0.54594,0.4785,0.25288,0.20363,0.46111,0.06792,0.37143,0.85677,0.22732,0.27917,0.85941,0.01823,0.45651,1.39892,0.33722,0.32634,1.40507,0.0055,0.60859,1.14225,0.46261,0.47173,1.17959,0.18944,0.71024,1.27776,0.36443,0.65029,1.29658
2061,0.20004,0.43111,1.46923,0.12031,0.58096,0.07726,0.22004,0.08439,0.08091,0.09535,0.54584,0.47859,0.25258,0.20345,0.46125,0.06774,0.37115,0.85678,0.2271,0.27883,0.85959,0.01812,0.45682,1.39879,0.33719,0.32641,1.40546,0.00524,0.6097,1.14261,0.46285,0.47188,1.18019,0.1896,0.71056,1.27814,0.36453,0.6505,1.29696
2062,0.19963,0.43142,1.46904,0.12024,0.58093,0.07737,0.22007,0.08427,0.08081,0.09503,0.54575,0.47868,0.25227,0.20325,0.46121,0.06758,0.37093,0.85682,0.22693,0.27859,0.85956,0.01802,0.45696,1.39879,0.33724,0.32673,1.40582,0.00498,0.61066,1.1431,0.46325,0.47212,1.18069,0.18967,0.71076,1.27874,0.36459,0.65067,1.29728
2063,0.19928,0.43208,1.46865,0.12016,0.58073,0.07745,0.22006,0.08397,0.08066,0.0946,0.54583,0.47875,0.25203,0.2029,0.46109,0.06738,0.37084,0.85683,0.22678,0.27859,0.85938,0.01793,0.45708,1.39889,0.33731,0.32736,1.40602,0.00482,0.61143,1.1436,0.46379,0.47253,1.18102,0.18955,0.71101,1.27958,0.36459,0.65083,1.29754
2064,0.19908,0.43285,1.4683,0.12,0.58041,0.07745,0.21998,0.08373,0.0805,0.09426,0.54608,0.47879,0.25188,0.20245,0.46101,0.06708,0.37091,0.85679,0.22654,0.27877,0.85917,0.01776,0.4574,1.39897,0.33728,0.3281,1.40606,0.00481,0.61229,1.14401,0.46428,0.47302,1.18119,0.18933,0.71169,1.2804,0.36454,0.65107,1.29763
2065,0.1989,0.4335,1.46814,0.11984,0.58008,0.07742,0.21987,0.08363,0.08039,0.09413,0.54638,0.47883,0.2518,0.20209,0.46097,0.06671,0.37109,0.85675,0.2262,0.27897,0.85901,0.01743,0.45791,1.39898,0.33717,0.32878,1.40606,0.00484,0.61334,1.14432,0.46465,0.47344,1.18129,0.18925,0.71275,1.28084,0.36453,0.65144,1.29748
2066,0.19863,0.43405,1.46803,0.11992,0.5799,0.07749,0.21978,0.08361,0.08034,0.09413,0.54661,0.47892,0.2518,0.20198,0.46095,0.06639,0.37122,0.85677,0.22586,0.27908,0.85892,0.01705,0.45847,1.39893,0.33712,0.3295,1.4062,0.0047,0.61434,1.14453,0.46495,0.47379,1.18138,0.18946,0.7135,1.28075,0.36471,0.65197,1.2972
2067,0.19824,0.43463,1.46786,0.12033,0.57994,0.07766,0.21974,0.08359,0.08041,0.09413,0.54669,0.47907,0.25179,0.20209,0.46097,0.06615,0.37127,0.85689,0.22562,0.27913,0.85894,0.01681,0.45911,1.3988,0.33724,0.33035,1.40648,0.00426,0.61518,1.14454,0.46521,0.47413,1.18142,0.18981,0.71354,1.28028,0.36512,0.65258,1.29695
2068,0.19785,0.43528,1.46769,0.1209,0.58009,0.07777,0.21979,0.08352,0.0806,0.09405,0.54673,0.47912,0.25172,0.20227,0.46109,0.06595,0.37135,0.85696,0.22548,0.2793,0.85906,0.01681,0.46009,1.39854,0.33737,0.33133,1.40674,0.00367,0.61607,1.14426,0.46547,0.47451,1.18138,0.18999,0.71347,1.27964,0.36562,0.65314,1.29684
2069,0.1975,0.43597,1.46763,0.12133,0.58013,0.07765,0.21997,0.08332,0.08085,0.09391,0.54694,0.47898,0.25156,0.20241,0.46126,0.06573,0.37159,0.85682,0.2253,0.27962,0.8592,0.01689,0.46146,1.39815,0.33722,0.33238,1.40685,0.00318,0.61723,1.14377,0.46584,0.47496,1.18139,0.1898,0.71431,1.27896,0.366,0.65365,1.29677
2070,0.19719,0.4368,1.46765,0.12141,0.57995,0.07736,0.22023,0.08301,0.08103,0.09377,0.5475,0.47874,0.25136,0.20249,0.46136,0.06543,0.37191,0.85645,0.225,0.27996,0.85923,0.01681,0.46293,1.39768,0.33679,0.33347,1.4069,0.0029,0.61865,1.14327,0.46648,0.47552,1.18173,0.18928,0.71626,1.27842,0.36614,0.65423,1.29663
2071,0.19692,0.43799,1.4675,0.12113,0.57969,0.0771,0.2204,0.0827,0.08108,0.09366,0.54843,0.47858,0.2511,0.20261,0.46131,0.06506,0.37222,0.85599,0.22461,0.28023,0.85914,0.01659,0.46426,1.3971,0.33628,0.33463,1.40707,0.00273,0.62023,1.14284,0.46741,0.47622,1.18244,0.18858,0.71858,1.27819,0.36609,0.65501,1.29635
2072,0.1968,0.4397,1.46695,0.12068,0.57957,0.07697,0.22037,0.08258,0.08098,0.09364,0.54957,0.47858,0.25075,0.20287,0.46112,0.06471,0.3726,0.8556,0.2242,0.28052,0.85894,0.01644,0.46555,1.39642,0.33589,0.33592,1.40728,0.00237,0.622,1.14247,0.46846,0.47709,1.18323,0.18779,0.72052,1.27827,0.36616,0.65608,1.29594
2073,0.19691,0.44184,1.46605,0.12037,0.57968,0.07694,0.22024,0.08266,0.08075,0.09369,0.55077,0.47865,0.25026,0.20324,0.46082,0.06434,0.37321,0.85537,0.22375,0.281,0.85863,0.01656,0.467,1.39586,0.33562,0.33728,1.4073,0.00153,0.62389,1.14224,0.46936,0.47814,1.18376,0.18689,0.72194,1.27846,0.3666,0.6575,1.29547
2074,0.19714,0.44404,1.46513,0.12038,0.57993,0.07696,0.22009,0.08278,0.08043,0.09373,0.55193,0.47874,0.24963,0.20347,0.46051,0.0639,0.37406,0.85526,0.22322,0.28168,0.85823,0.01688,0.46863,1.39557,0.33537,0.33853,1.40708,0.00017,0.62566,1.14214,0.47002,0.47941,1.18409,0.18569,0.72308,1.27859,0.3672,0.65925,1.29497
2075,0.19717,0.44599,1.46444,0.12069,0.5801,0.07699,0.21995,0.08271,0.08014,0.0936,0.55306,0.4788,0.24895,0.20344,0.46024,0.06338,0.37494,0.85519,0.22262,0.28241,0.85782,0.01718,0.47034,1.39543,0.33513,0.33954,1.4068,-0.00145,0.62712,1.14197,0.47067,0.48097,1.18471,0.18407,0.7242,1.27868,0.36748,0.66126,1.29451
2076,0.19689,0.44773,1.46387,0.12107,0.58001,0.07701,0.21985,0.08245,0.07996,0.09339,0.55422,0.47887,0.24828,0.20332,0.46006,0.06288,0.37568,0.85503,0.22203,0.283,0.85751,0.01729,0.4721,1.39519,0.33495,0.3405,1.40673,-0.00289,0.62838,1.14155,0.47156,0.48288,1.1859,0.18223,0.72559,1.2787,0.36729,0.66348,1.29416
2077,0.19656,0.44951,1.46317,0.12128,0.57979,0.07701,0.21983,0.08217,0.0799,0.09333,0.55562,0.47895,0.24764,0.20334,0.45995,0.06251,0.37635,0.85473,0.22158,0.28353,0.85731,0.01714,0.47391,1.39472,0.3349,0.3418,1.40685,-0.00389,0.62994,1.14098,0.47264,0.48512,1.18734,0.18073,0.7275,1.27855,0.36684,0.66582,1.29394
2078,0.19649,0.45152,1.46229,0.12122,0.57976,0.07696,0.21996,0.08207,0.0799,0.09357,0.55744,0.47903,0.24701,0.20356,0.45991,0.0623,0.37726,0.85434,0.22123,0.28419,0.85719,0.01675,0.47578,1.39402,0.33501,0.34365,1.40701,-0.00449,0.63218,1.14053,0.47351,0.48763,1.18841,0.18,0.7299,1.27817,0.36627,0.66816,1.29384
2079,0.19667,0.45376,1.46138,0.12115,0.57998,0.07687,0.22025,0.08218,0.07995,0.09394,0.55954,0.47907,0.24644,0.20394,0.45993,0.06214,0.3786,0.85397,0.22078,0.28505,0.85712,0.01623,0.47772,1.39316,0.33533,0.34606,1.40711,-0.00503,0.63508,1.14027,0.4739,0.49031,1.18873,0.17985,0.73259,1.27752,0.36565,0.67044,1.29382
2080,0.19684,0.45613,1.46055,0.12131,0.58024,0.07676,0.22056,0.08235,0.08,0.09413,0.56149,0.47904,0.246,0.20444,0.45993,0.06186,0.38018,0.85373,0.2201,0.28598,0.85702,0.01573,0.4797,1.39215,0.33582,0.34891,1.40716,-0.00594,0.63828,1.14006,0.47408,0.49321,1.18861,0.17963,0.73547,1.27661,0.36512,0.6728,1.29387
2081,0.19674,0.4585,1.45982,0.1217,0.5804,0.07669,0.22075,0.08236,0.08001,0.09403,0.56302,0.479,0.24569,0.20497,0.4598,0.06139,0.38163,0.85362,0.21931,0.28687,0.85679,0.01536,0.48174,1.39098,0.33628,0.35203,1.40723,-0.00733,0.6416,1.13979,0.47463,0.49658,1.18891,0.17873,0.73859,1.27582,0.36481,0.67566,1.29416
2082,0.19637,0.46079,1.45921,0.12212,0.58051,0.07669,0.22068,0.08216,0.07996,0.09382,0.56424,0.479,0.24539,0.20531,0.45959,0.06082,0.38284,0.85358,0.21863,0.28788,0.85641,0.0151,0.48404,1.38975,0.33645,0.35519,1.40732,-0.00901,0.64503,1.13942,0.47579,0.50076,1.1903,0.17687,0.74184,1.27582,0.36451,0.67936,1.29484
2083,0.19591,0.46308,1.45865,0.12246,0.58061,0.07672,0.22037,0.08185,0.07991,0.09372,0.56554,0.47905,0.24495,0.20545,0.4594,0.06023,0.38402,0.85352,0.21815,0.28926,0.85596,0.01493,0.48684,1.38866,0.33627,0.35824,1.40741,-0.01061,0.64863,1.13898,0.47708,0.50566,1.19261,0.17435,0.74504,1.27691,0.36388,0.68378,1.29588
2084,0.19562,0.46562,1.45797,0.1227,0.58068,0.07672,0.22002,0.08158,0.07998,0.09378,0.56717,0.47909,0.24436,0.20573,0.45931,0.05966,0.38544,0.85341,0.2178,0.29104,0.85556,0.01493,0.49005,1.38781,0.33574,0.36116,1.40757,-0.01193,0.65243,1.13866,0.47785,0.51078,1.19516,0.17191,0.74838,1.27839,0.36286,0.68849,1.29716
2085,0.19564,0.46849,1.45713,0.1229,0.58069,0.07668,0.21982,0.08145,0.08019,0.09393,0.56914,0.4791,0.24377,0.20644,0.45927,0.05907,0.38715,0.85322,0.21735,0.29296,0.85527,0.0152,0.49334,1.3871,0.33515,0.36404,1.40785,-0.0131,0.65654,1.13865,0.47798,0.5159,1.19753,0.17013,0.75233,1.2793,0.36166,0.69327,1.29861
2086,0.19585,0.47146,1.45634,0.12307,0.58065,0.07663,0.21986,0.08148,0.08048,0.09413,0.57135,0.47911,0.24336,0.20754,0.45923,0.05837,0.38908,0.85302,0.21661,0.29483,0.85504,0.01551,0.49646,1.38627,0.33489,0.36713,1.40806,-0.01438,0.66106,1.13893,0.47786,0.52151,1.19968,0.16872,0.75712,1.27955,0.36017,0.69826,1.30027
2087,0.19588,0.47421,1.45581,0.1232,0.58063,0.0766,0.22004,0.08166,0.08081,0.09434,0.57367,0.47914,0.24327,0.20888,0.45919,0.05756,0.39113,0.85282,0.21566,0.29665,0.85484,0.01538,0.49938,1.3852,0.33504,0.37058,1.40794,-0.01608,0.66572,1.13922,0.47782,0.5281,1.20178,0.16652,0.76246,1.28004,0.35799,0.70357,1.30207
2088,0.19538,0.47675,1.45554,0.12323,0.58078,0.07661,0.2201,0.08197,0.08123,0.09442,0.5761,0.47919,0.24357,0.21054,0.45914,0.05678,0.39328,0.85264,0.21473,0.29855,0.85465,0.0147,0.50219,1.38408,0.33516,0.37433,1.40759,-0.01842,0.66998,1.1393,0.4778,0.53536,1.20406,0.16245,0.76778,1.28161,0.35497,0.70901,1.3039
2089,0.1943,0.47939,1.45526,0.12314,0.58116,0.07664,0.21992,0.0824,0.08172,0.09431,0.57867,0.47924,0.24419,0.21264,0.45901,0.05616,0.39559,0.85251,0.21397,0.30061,0.85442,0.01376,0.50499,1.38327,0.33473,0.37809,1.40735,-0.02135,0.67342,1.13922,0.47749,0.5425,1.20663,0.15672,0.7725,1.28413,0.35164,0.71439,1.30577
2090,0.1929,0.4824,1.45472,0.12291,0.58166,0.07666,0.21961,0.08285,0.08223,0.09417,0.58137,0.47927,0.24491,0.21509,0.45875,0.05571,0.39813,0.85243,0.21333,0.30284,0.8541,0.01286,0.50785,1.38307,0.3337,0.38157,1.40756,-0.02461,0.6761,1.13924,0.47671,0.54909,1.20961,0.15056,0.77628,1.28691,0.34858,0.71979,1.30786
2091,0.19153,0.48575,1.45398,0.12262,0.58206,0.07669,0.21946,0.08329,0.08277,0.09427,0.58408,0.47933,0.24565,0.21758,0.4585,0.05534,0.40087,0.85245,0.21273,0.30519,0.85378,0.01201,0.51072,1.38343,0.33246,0.38476,1.40822,-0.02807,0.67839,1.13961,0.47566,0.55549,1.21316,0.14484,0.77927,1.28945,0.34577,0.72548,1.31034
2092,0.19022,0.48923,1.45326,0.12232,0.58223,0.0768,0.21962,0.08376,0.08346,0.09461,0.58673,0.47946,0.24647,0.21994,0.45847,0.05499,0.40368,0.85258,0.21217,0.30765,0.8536,0.01102,0.51338,1.38397,0.33153,0.38825,1.40906,-0.03189,0.68065,1.14036,0.47484,0.5625,1.21722,0.13948,0.78203,1.29164,0.3428,0.73153,1.31315
2093,0.18868,0.49264,1.45282,0.12209,0.58229,0.07701,0.21998,0.08429,0.08441,0.0949,0.58938,0.47966,0.24749,0.22228,0.4587,0.05463,0.40642,0.85277,0.21175,0.3103,0.85364,0.00971,0.51569,1.38432,0.33108,0.3929,1.40984,-0.03631,0.68304,1.14134,0.47454,0.57058,1.2213,0.13388,0.78502,1.29352,0.33945,0.73782,1.31614
2094,0.18663,0.49589,1.45279,0.12199,0.58241,0.07723,0.22048,0.08482,0.0857,0.09491,0.59209,0.47984,0.24885,0.22491,0.45915,0.05426,0.40906,0.85287,0.21156,0.31324,0.85388,0.00791,0.51755,1.38438,0.33088,0.39897,1.41044,-0.04136,0.68544,1.14241,0.47458,0.57971,1.22501,0.12773,0.78833,1.29522,0.33565,0.74418,1.31914
2095,0.1841,0.49907,1.45307,0.122,0.58274,0.07734,0.22111,0.08533,0.08737,0.09463,0.59475,0.47986,0.25077,0.22799,0.45974,0.05388,0.41169,0.85287,0.2116,0.31655,0.85423,0.00551,0.51894,1.38438,0.33061,0.40584,1.41085,-0.04674,0.68772,1.14366,0.47449,0.58954,1.2285,0.12116,0.79184,1.29694,0.33127,0.75063,1.32202
2096,0.18149,0.5024,1.45343,0.12211,0.58333,0.07729,0.22196,0.08585,0.08937,0.09422,0.59718,0.47972,0.25333,0.23146,0.46046,0.05348,0.41446,0.85289,0.21175,0.32027,0.85465,0.00261,0.51997,1.38466,0.33004,0.41255,1.41134,-0.05209,0.68982,1.14523,0.4738,0.59951,1.23224,0.11447,0.79534,1.29902,0.32617,0.75721,1.32469
2097,0.17908,0.50593,1.45378,0.12236,0.58408,0.07719,0.22306,0.08646,0.0916,0.09383,0.59936,0.47952,0.25642,0.23527,0.46125,0.05307,0.41741,0.85307,0.21194,0.32422,0.85509,-0.00041,0.52098,1.38539,0.32902,0.41863,1.4123,-0.05728,0.69177,1.14714,0.47232,0.609,1.23645,0.10772,0.79864,1.30169,0.32057,0.76371,1.32726
2098,0.17681,0.50941,1.45432,0.12268,0.58472,0.07715,0.22439,0.08735,0.094,0.09345,0.60138,0.47938,0.26001,0.23942,0.4621,0.05276,0.42046,0.85343,0.21214,0.32817,0.85559,-0.00313,0.52218,1.38643,0.32744,0.42412,1.41388,-0.06241,0.69359,1.14921,0.4703,0.61759,1.24108,0.10086,0.80166,1.30476,0.31498,0.76984,1.32997
2099,0.17444,0.51261,1.45522,0.12283,0.58502,0.07719,0.22595,0.08862,0.09665,0.09299,0.60335,0.4793,0.2642,0.24396,0.46312,0.05259,0.42358,0.85394,0.21239,0.33203,0.85626,-0.0054,0.52338,1.38756,0.32536,0.42935,1.41579,-0.06767,0.69513,1.15136,0.46823,0.62539,1.24592,0.09385,0.80456,1.30777,0.30992,0.77563,1.33295
2100,0.17182,0.51561,1.45648,0.1226,0.58499,0.07726,0.22788,0.09024,0.09976,0.09237,0.60526,0.47925,0.26912,0.249,0.46443,0.05253,0.42684,0.85459,0.21271,0.33595,0.85719,-0.0075,0.52438,1.38875,0.32296,0.4348,1.41774,-0.07317,0.69619,1.15351,0.46641,0.63289,1.25075,0.08659,0.80748,1.31042,0.30561,0.78149,1.33601
2101,0.1688,0.51856,1.45797,0.12211,0.58484,0.0773,0.23031,0.09208,0.10349,0.09164,0.60701,0.47917,0.27476,0.2547,0.46608,0.05251,0.43022,0.85535,0.21314,0.34014,0.85839,-0.00995,0.52537,1.3901,0.32043,0.44068,1.41967,-0.07896,0.69672,1.15548,0.46475,0.64049,1.2555,0.07882,0.81039,1.31269,0.30182,0.78775,1.33903
2102,0.16528,0.5214,1.45966,0.12169,0.58483,0.07725,0.23324,0.09409,0.10783,0.09095,0.60853,0.47901,0.28106,0.26112,0.46798,0.05256,0.43366,0.85617,0.21378,0.34466,0.85976,-0.01295,0.52657,1.39174,0.31799,0.44672,1.42168,-0.08513,0.69687,1.15732,0.46287,0.64839,1.26031,0.0706,0.8132,1.31462,0.29777,0.79412,1.34225
2103,0.16133,0.52407,1.46155,0.12144,0.58502,0.07711,0.23657,0.09641,0.11259,0.09044,0.60982,0.47878,0.28799,0.2681,0.47005,0.05271,0.43713,0.85701,0.21466,0.3495,0.8612,-0.01627,0.52773,1.39371,0.31579,0.45259,1.42388,-0.09165,0.6969,1.15948,0.46053,0.65664,1.26541,0.06236,0.81597,1.31641,0.29264,0.79991,1.34603
2104,0.15719,0.52672,1.46354,0.12122,0.58531,0.07691,0.24006,0.0992,0.11759,0.09012,0.61101,0.47853,0.29549,0.27546,0.47221,0.05283,0.44061,0.85784,0.21563,0.35458,0.86255,-0.01977,0.52835,1.39579,0.31379,0.45832,1.42631,-0.09833,0.69702,1.16224,0.45807,0.66508,1.27095,0.0542,0.81884,1.31851,0.2865,0.80465,1.35027
2105,0.15297,0.52956,1.46547,0.12095,0.58548,0.07682,0.24352,0.10248,0.12286,0.08992,0.61223,0.47837,0.30349,0.28336,0.4744,0.0528,0.44403,0.85867,0.21653,0.35981,0.86376,-0.0236,0.52827,1.39777,0.31181,0.46397,1.42887,-0.10502,0.69716,1.16536,0.45604,0.67324,1.27688,0.04571,0.82175,1.3212,0.2803,0.80854,1.35447
2106,0.14859,0.53256,1.46724,0.12075,0.58548,0.07694,0.24699,0.1062,0.12861,0.08973,0.61349,0.4784,0.31188,0.2922,0.47659,0.05262,0.44729,0.85959,0.21738,0.36512,0.86486,-0.02785,0.52773,1.39972,0.30951,0.46934,1.4315,-0.11184,0.69692,1.16845,0.45438,0.68066,1.28299,0.03663,0.82441,1.32411,0.2747,0.81208,1.35818
2107,0.14399,0.53549,1.46884,0.12065,0.5855,0.07722,0.25064,0.11041,0.13496,0.08953,0.61473,0.47859,0.32054,0.30219,0.4788,0.05257,0.45045,0.86062,0.21839,0.37042,0.86598,-0.03229,0.527,1.40174,0.30653,0.4743,1.43417,-0.11901,0.69608,1.1714,0.45239,0.68733,1.2891,0.02726,0.82653,1.32668,0.26926,0.81577,1.36105
2108,0.13928,0.53802,1.47042,0.12049,0.58565,0.07744,0.25446,0.11515,0.14193,0.08936,0.61591,0.47874,0.3295,0.31316,0.48112,0.05287,0.45349,0.86161,0.21971,0.37563,0.86719,-0.03676,0.52606,1.40359,0.30286,0.47918,1.43691,-0.12655,0.69476,1.17414,0.44965,0.69378,1.29515,0.01787,0.82794,1.32885,0.26338,0.81998,1.36289
2109,0.1346,0.53997,1.47208,0.12011,0.58575,0.07749,0.25815,0.12037,0.14966,0.08934,0.61709,0.47873,0.33889,0.32496,0.48361,0.05353,0.45626,0.86233,0.22142,0.38075,0.86843,-0.04134,0.52481,1.40497,0.29894,0.48455,1.43982,-0.13439,0.6931,1.17652,0.44668,0.70056,1.30122,0.00798,0.82859,1.33112,0.25751,0.82505,1.36385
2110,0.12998,0.54143,1.47376,0.11965,0.58559,0.07743,0.2614,0.12588,0.15845,0.08957,0.61831,0.47861,0.34867,0.33752,0.48631,0.05441,0.45864,0.86276,0.2235,0.38593,0.8697,-0.04594,0.52343,1.40596,0.29528,0.49063,1.44299,-0.14275,0.69103,1.17858,0.44459,0.70757,1.30756,-0.00318,0.82851,1.33398,0.25302,0.83119,1.36438
2111,0.12543,0.54255,1.47531,0.11955,0.58526,0.0774,0.2641,0.13133,0.16854,0.0901,0.61958,0.47849,0.3584,0.3507,0.4893,0.05538,0.4608,0.86305,0.22582,0.39144,0.87109,-0.05009,0.52248,1.4068,0.29203,0.49724,1.44624,-0.15197,0.68861,1.18056,0.44411,0.71439,1.31428,-0.01588,0.82782,1.3375,0.25111,0.83844,1.36501
2112,0.12109,0.54335,1.47667,0.12011,0.58496,0.07748,0.26612,0.13655,0.17997,0.09096,0.62098,0.47845,0.36752,0.36428,0.49262,0.05638,0.46302,0.86336,0.22821,0.39737,0.87276,-0.05334,0.52225,1.40759,0.28893,0.50401,1.44914,-0.16203,0.68596,1.18275,0.44508,0.72071,1.32123,-0.02934,0.82666,1.34125,0.25175,0.84646,1.36615
2113,0.11689,0.54382,1.4779,0.12111,0.58473,0.07769,0.26743,0.14164,0.19264,0.09221,0.62264,0.4785,0.37582,0.37824,0.49623,0.0574,0.46536,0.86367,0.23053,0.40348,0.87472,-0.056,0.522,1.40839,0.28561,0.51056,1.45138,-0.17237,0.6829,1.18537,0.44672,0.72638,1.32824,-0.04235,0.82507,1.34478,0.25377,0.85449,1.36781
2114,0.11243,0.54401,1.47908,0.12207,0.58456,0.07803,0.26844,0.1469,0.20644,0.0939,0.62459,0.47868,0.38359,0.39277,0.50002,0.05847,0.46767,0.86394,0.23272,0.40936,0.8768,-0.05915,0.52039,1.40932,0.28173,0.51639,1.45318,-0.18257,0.67901,1.18847,0.44823,0.73111,1.3354,-0.05453,0.82279,1.34803,0.25585,0.86166,1.36938
2115,0.10732,0.54402,1.48029,0.1228,0.58456,0.07836,0.26981,0.15267,0.22138,0.09598,0.62655,0.47891,0.39122,0.40809,0.50407,0.05959,0.46986,0.86417,0.23474,0.41481,0.87886,-0.06351,0.51687,1.41046,0.27716,0.52106,1.45493,-0.19289,0.67393,1.19192,0.44927,0.73441,1.34285,-0.06649,0.81936,1.3513,0.25761,0.86761,1.36996
2116,0.1018,0.54401,1.48154,0.12344,0.58483,0.07854,0.2719,0.15925,0.23741,0.09809,0.62825,0.47903,0.39887,0.42428,0.50858,0.06073,0.472,0.86438,0.23666,0.42004,0.88096,-0.06856,0.51223,1.41179,0.27197,0.52451,1.45679,-0.20365,0.66772,1.1956,0.44988,0.73603,1.35045,-0.07887,0.81465,1.35487,0.25963,0.8727,1.36881
2117,0.0964,0.544,1.48275,0.1241,0.58526,0.07841,0.27459,0.16706,0.25438,0.09981,0.62972,0.47886,0.40645,0.44141,0.51368,0.06193,0.47435,0.86451,0.23853,0.42548,0.88321,-0.07327,0.5075,1.41323,0.26643,0.52725,1.45869,-0.21467,0.66069,1.19944,0.45034,0.73627,1.35775,-0.09163,0.80906,1.35874,0.26285,0.87766,1.36584
2118,0.09139,0.5438,1.48395,0.12472,0.58566,0.07799,0.27773,0.17631,0.27217,0.10101,0.63119,0.47835,0.41379,0.45972,0.51927,0.06321,0.47704,0.8645,0.24043,0.43143,0.88553,-0.07731,0.50289,1.4146,0.26096,0.5302,1.46051,-0.22568,0.65303,1.20339,0.45116,0.73583,1.36439,-0.10454,0.80299,1.36267,0.26823,0.88326,1.36175
2119,0.08664,0.54317,1.48527,0.12537,0.58606,0.07744,0.2815,0.18678,0.29083,0.10184,0.6327,0.47768,0.42077,0.47939,0.52511,0.06465,0.47992,0.86444,0.24247,0.43792,0.88772,-0.0811,0.49812,1.41581,0.25599,0.53387,1.46218,-0.2366,0.64464,1.2072,0.45301,0.735,1.37036,-0.11776,0.79649,1.3664,0.27665,0.88972,1.35739
2120,0.08195,0.54213,1.48676,0.12627,0.58654,0.07708,0.28614,0.19815,0.31042,0.10259,0.63416,0.4772,0.42729,0.50026,0.53112,0.06639,0.48255,0.86451,0.24488,0.44476,0.88979,-0.08483,0.49325,1.41693,0.25167,0.53784,1.46369,-0.24731,0.63532,1.21058,0.45612,0.73326,1.37588,-0.13157,0.78954,1.36979,0.28848,0.89631,1.35306
2121,0.07728,0.54093,1.48834,0.12737,0.58702,0.07726,0.29162,0.2102,0.33068,0.10354,0.63559,0.47725,0.43309,0.52188,0.53741,0.06854,0.48458,0.86491,0.24772,0.45161,0.89195,-0.08802,0.4888,1.41807,0.24782,0.54107,1.46504,-0.25784,0.62509,1.21373,0.45984,0.72995,1.38094,-0.14597,0.78216,1.37294,0.30296,0.90179,1.34823
2122,0.0728,0.53977,1.48986,0.12827,0.58731,0.07807,0.29785,0.22284,0.35108,0.10477,0.63728,0.47791,0.43787,0.54376,0.54421,0.07075,0.48622,0.86563,0.2505,0.4581,0.8943,-0.09027,0.48514,1.41916,0.24416,0.54285,1.46616,-0.26865,0.61428,1.2175,0.46303,0.72515,1.38514,-0.16056,0.77426,1.3764,0.31885,0.90558,1.34194
2123,0.06869,0.53871,1.49113,0.12865,0.5874,0.07915,0.30501,0.23615,0.37124,0.10612,0.63937,0.47879,0.4417,0.5657,0.55182,0.07227,0.48815,0.86646,0.2524,0.46419,0.89658,-0.09176,0.48206,1.42018,0.24024,0.5435,1.46695,-0.28022,0.6031,1.22271,0.46518,0.7193,1.38824,-0.17487,0.76568,1.38082,0.33609,0.90788,1.33362
2124,0.06494,0.53782,1.49196,0.12861,0.58754,0.07993,0.3133,0.25053,0.3914,0.10715,0.64162,0.47935,0.44528,0.58799,0.56051,0.07271,0.49086,0.86715,0.25305,0.47019,0.8984,-0.09304,0.47888,1.42134,0.23573,0.54382,1.46726,-0.29233,0.59147,1.22958,0.46665,0.71254,1.39039,-0.18874,0.75645,1.38636,0.35572,0.90867,1.32378
2125,0.06136,0.53709,1.49235,0.12845,0.58789,0.08017,0.32263,0.26629,0.41218,0.10744,0.64382,0.47936,0.44926,0.61091,0.5706,0.07253,0.49413,0.86753,0.253,0.47646,0.89985,-0.09452,0.47494,1.42284,0.23086,0.54413,1.46706,-0.30425,0.57935,1.2377,0.4679,0.70485,1.39169,-0.20214,0.74692,1.39269,0.3781,0.90754,1.31384
2126,0.05779,0.53631,1.49253,0.12851,0.58837,0.08013,0.33295,0.28315,0.43383,0.10702,0.64619,0.47902,0.45365,0.63426,0.58231,0.07267,0.4975,0.86763,0.25313,0.4831,0.9016,-0.09635,0.47009,1.42475,0.22628,0.54428,1.46653,-0.31527,0.56706,1.24633,0.46903,0.69655,1.39179,-0.21505,0.73736,1.39957,0.40232,0.90431,1.30464
2127,0.05434,0.53526,1.49276,0.12892,0.58876,0.08018,0.34458,0.30051,0.45611,0.1063,0.64914,0.47863,0.45801,0.65769,0.5956,0.07378,0.50089,0.86756,0.25396,0.49006,0.90426,-0.09856,0.46463,1.42704,0.22249,0.54445,1.46587,-0.32512,0.55499,1.25478,0.4702,0.68806,1.39025,-0.22751,0.7277,1.407,0.42757,0.89891,1.29573
2128,0.05128,0.53401,1.493,0.12947,0.58899,0.08044,0.35793,0.31824,0.47876,0.10555,0.65271,0.47829,0.46202,0.68121,0.61035,0.07574,0.50456,0.86748,0.25532,0.49734,0.90778,-0.10094,0.4591,1.42951,0.21967,0.54518,1.46506,-0.33394,0.54338,1.26285,0.47188,0.6794,1.38713,-0.2395,0.71787,1.41505,0.454,0.89092,1.28637
2129,0.04879,0.53278,1.49307,0.12978,0.58908,0.08076,0.37317,0.33685,0.5019,0.10465,0.65641,0.47794,0.46545,0.70541,0.62656,0.0779,0.5086,0.86748,0.2567,0.50498,0.9116,-0.10316,0.45394,1.43192,0.21783,0.54669,1.46384,-0.34203,0.5326,1.27093,0.4745,0.67024,1.3829,-0.25061,0.70825,1.42364,0.48183,0.87977,1.27683
2130,0.04677,0.53166,1.49282,0.1298,0.58908,0.08096,0.3901,0.35717,0.52587,0.10349,0.6597,0.4775,0.46765,0.73108,0.64447,0.07961,0.51272,0.86754,0.25755,0.5129,0.91513,-0.10506,0.44923,1.43415,0.21686,0.54879,1.46206,-0.34954,0.52306,1.27941,0.478,0.66042,1.37812,-0.26029,0.69951,1.43247,0.51024,0.86539,1.26788
2131,0.04496,0.5306,1.49218,0.1298,0.58908,0.08092,0.40808,0.37978,0.55079,0.1021,0.66242,0.47687,0.46771,0.75851,0.66439,0.08063,0.51653,0.86746,0.25765,0.52084,0.91815,-0.10678,0.44488,1.43628,0.2165,0.55105,1.45982,-0.35658,0.51479,1.28835,0.48176,0.65011,1.37309,-0.26844,0.69202,1.44116,0.53781,0.84817,1.25978
2132,0.04321,0.52956,1.49114,0.13008,0.58914,0.0806,0.42625,0.40477,0.57615,0.10051,0.66476,0.47598,0.46514,0.78716,0.68642,0.08117,0.51992,0.86707,0.25717,0.52858,0.92069,-0.1084,0.4409,1.4384,0.21632,0.55281,1.45735,-0.36323,0.50738,1.29767,0.48497,0.63953,1.36787,-0.27542,0.68558,1.44954,0.56369,0.82837,1.25232
2133,0.04163,0.52859,1.48975,0.13056,0.58917,0.08018,0.44395,0.43186,0.60103,0.09864,0.66705,0.47494,0.46026,0.81617,0.71029,0.08171,0.52325,0.86652,0.25656,0.53636,0.92293,-0.10982,0.43742,1.4405,0.21604,0.55334,1.45472,-0.36954,0.50042,1.3073,0.4872,0.62857,1.36247,-0.28165,0.67979,1.45773,0.58789,0.80564,1.24534
2134,0.04048,0.52767,1.48809,0.13098,0.58904,0.07998,0.46132,0.46068,0.62458,0.09648,0.66953,0.474,0.45403,0.8447,0.73579,0.08274,0.52706,0.8662,0.25628,0.54476,0.92533,-0.11108,0.43451,1.44236,0.2157,0.55234,1.4519,-0.37551,0.49392,1.31703,0.48872,0.61679,1.35699,-0.28747,0.67445,1.46598,0.61047,0.77956,1.23912
2135,0.03991,0.52667,1.48624,0.13127,0.58879,0.08017,0.47921,0.49084,0.6463,0.0941,0.67213,0.47336,0.44749,0.87195,0.76313,0.08445,0.53155,0.86635,0.25637,0.55395,0.92852,-0.11235,0.43206,1.4437,0.2155,0.55016,1.44885,-0.3812,0.48838,1.32659,0.49008,0.60361,1.35166,-0.2929,0.66974,1.47438,0.63096,0.75052,1.23425
2136,0.03972,0.52542,1.48428,0.13161,0.58863,0.08053,0.49804,0.52193,0.66589,0.09174,0.67462,0.47288,0.4411,0.89693,0.79251,0.08655,0.53645,0.86681,0.25645,0.56336,0.93266,-0.11362,0.43006,1.44435,0.21549,0.54735,1.44563,-0.3865,0.48427,1.33591,0.49151,0.58871,1.34663,-0.29752,0.66592,1.48293,0.64864,0.71954,1.23086
2137,0.03945,0.52393,1.48226,0.13212,0.58865,0.08076,0.51704,0.55359,0.68352,0.08949,0.67691,0.47232,0.43432,0.91886,0.82361,0.08849,0.54129,0.86717,0.25598,0.57208,0.93734,-0.11458,0.42856,1.44446,0.21555,0.5443,1.44231,-0.39113,0.48164,1.34512,0.49274,0.57251,1.34197,-0.30075,0.66313,1.49148,0.66323,0.68753,1.22834
2138,0.03882,0.52242,1.48021,0.13254,0.58887,0.08087,0.53503,0.58594,0.69991,0.08724,0.67922,0.47165,0.42587,0.93763,0.85576,0.0898,0.54592,0.86728,0.25466,0.57956,0.94222,-0.11505,0.42751,1.44429,0.21562,0.54116,1.43894,-0.39485,0.48012,1.35423,0.4935,0.55616,1.33767,-0.30245,0.6613,1.49971,0.67495,0.65518,1.22594
2139,0.03814,0.52105,1.47805,0.13247,0.5893,0.08113,0.55186,0.61997,0.7158,0.08486,0.68176,0.47114,0.4148,0.9536,0.88843,0.09032,0.55055,0.86744,0.25248,0.58592,0.9473,-0.11512,0.42678,1.44397,0.21581,0.53793,1.43553,-0.39767,0.47956,1.36307,0.49391,0.54078,1.33376,-0.30298,0.6605,1.50738,0.68425,0.62325,1.22341
2140,0.03807,0.5198,1.47559,0.13173,0.58986,0.08165,0.5683,0.65739,0.73176,0.08242,0.68436,0.47096,0.40113,0.9672,0.9214,0.09029,0.5554,0.86796,0.24976,0.59156,0.95273,-0.11499,0.42653,1.44331,0.21626,0.53444,1.43209,-0.39983,0.48021,1.37154,0.49424,0.52657,1.33028,-0.30276,0.66092,1.51454,0.6916,0.59231,1.22104
2141,0.03882,0.51865,1.47275,0.13072,0.59027,0.08229,0.58454,0.69986,0.74817,0.08012,0.68657,0.47099,0.38565,0.97866,0.95457,0.09025,0.56037,0.86883,0.24703,0.59686,0.95835,-0.11492,0.42697,1.44211,0.21698,0.53064,1.4286,-0.40159,0.48252,1.37965,0.49461,0.51283,1.3271,-0.3019,0.66274,1.52146,0.6973,0.56251,1.21913
2142,0.03974,0.51766,1.46975,0.12998,0.59031,0.08282,0.59917,0.74777,0.76526,0.07812,0.68814,0.47097,0.36944,0.98789,0.98767,0.09066,0.56523,0.86977,0.24474,0.60204,0.96374,-0.11509,0.42807,1.44051,0.21792,0.52672,1.42509,-0.403,0.48677,1.38734,0.49489,0.49863,1.32411,-0.30019,0.66586,1.52834,0.70127,0.5337,1.2174
2143,0.04005,0.51689,1.46692,0.12982,0.59007,0.08315,0.61034,0.79988,0.78324,0.07655,0.68926,0.47076,0.35383,0.9945,1.02036,0.09152,0.5701,0.87061,0.24304,0.60714,0.96858,-0.11545,0.42972,1.4389,0.21886,0.52282,1.42175,-0.40389,0.49285,1.39442,0.49477,0.48368,1.32155,-0.29729,0.66996,1.53512,0.70325,0.50577,1.21544
2144,0.03979,0.5161,1.46449,0.1303,0.58985,0.08329,0.61746,0.85462,0.80246,0.07563,0.69021,0.47041,0.33989,0.99808,1.052,0.09246,0.57538,0.87144,0.24176,0.61192,0.97294,-0.11573,0.43176,1.43742,0.21956,0.51868,1.4189,-0.40403,0.50037,1.40079,0.49401,0.46838,1.31968,-0.29301,0.67468,1.54158,0.70324,0.47898,1.21328
2145,0.03968,0.51499,1.46241,0.13125,0.58989,0.08333,0.62088,0.91116,0.82365,0.07557,0.69109,0.47008,0.328,0.99882,1.08139,0.09295,0.58119,0.87248,0.24061,0.61615,0.97688,-0.11577,0.43373,1.43601,0.2199,0.51385,1.41683,-0.40325,0.50885,1.40639,0.49264,0.45343,1.31852,-0.2875,0.67982,1.54746,0.70165,0.45373,1.21117
2146,0.04037,0.5135,1.46047,0.13232,0.59019,0.08337,0.62063,0.96867,0.84732,0.07622,0.69199,0.46991,0.31824,0.9977,1.10735,0.09266,0.58723,0.87371,0.23935,0.62008,0.98016,-0.11573,0.43518,1.4347,0.22006,0.50828,1.41569,-0.40164,0.51804,1.41111,0.49089,0.43921,1.31783,-0.28121,0.68543,1.55256,0.69904,0.43009,1.20918
2147,0.04182,0.51187,1.45863,0.13339,0.59062,0.08348,0.61633,1.02634,0.87344,0.07728,0.69315,0.46982,0.31086,0.99575,1.12966,0.09173,0.593,0.87487,0.23788,0.62423,0.98253,-0.11596,0.43633,1.43363,0.22026,0.50246,1.41531,-0.39955,0.52793,1.41484,0.48894,0.42555,1.31734,-0.27461,0.69152,1.55683,0.69576,0.4077,1.20727
2148,0.04339,0.51039,1.45695,0.13466,0.59112,0.08369,0.60782,1.0844,0.90256,0.07863,0.69473,0.46975,0.30607,0.99339,1.14865,0.09056,0.59815,0.87575,0.23635,0.6286,0.98413,-0.11673,0.43783,1.43277,0.22067,0.49701,1.41523,-0.3974,0.5386,1.41753,0.48684,0.41215,1.317,-0.26798,0.69788,1.56039,0.692,0.38613,1.20544
2149,0.04449,0.50924,1.45543,0.13617,0.59175,0.084,0.59494,1.14298,0.93655,0.08036,0.69656,0.46977,0.30363,0.99076,1.16429,0.08959,0.60249,0.87642,0.23502,0.6326,0.98537,-0.1179,0.43991,1.43185,0.22134,0.4924,1.41503,-0.39519,0.55,1.4193,0.48471,0.3992,1.31681,-0.26126,0.70447,1.56328,0.68789,0.36508,1.20383
2150,0.04511,0.50843,1.45403,0.13764,0.59244,0.08432,0.5772,1.19967,0.97716,0.08242,0.69821,0.46991,0.30254,0.98828,1.17659,0.08896,0.60607,0.87706,0.23398,0.63582,0.98666,-0.11909,0.44228,1.43057,0.22226,0.48893,1.41474,-0.39246,0.562,1.42047,0.4825,0.38712,1.3167,-0.25416,0.71148,1.56558,0.68344,0.34444,1.20265
2151,0.04547,0.5079,1.45284,0.13871,0.59301,0.08452,0.55452,1.24989,1.0239,0.08458,0.69944,0.47008,0.30117,0.98646,1.18611,0.08856,0.60916,0.87768,0.23309,0.6384,0.98805,-0.12,0.44461,1.42891,0.22322,0.48655,1.41451,-0.38876,0.57451,1.42129,0.47993,0.37592,1.31673,-0.24641,0.71907,1.56747,0.67837,0.32427,1.202
2152,0.04571,0.50752,1.45195,0.13918,0.59331,0.08453,0.52782,1.28986,1.07337,0.08656,0.70035,0.47014,0.29794,0.98548,1.19338,0.08825,0.61199,0.87817,0.2324,0.64047,0.98924,-0.12052,0.44692,1.42716,0.22401,0.48472,1.41438,-0.38401,0.58732,1.42173,0.47685,0.36515,1.31706,-0.2381,0.72703,1.5691,0.67249,0.3049,1.20171
2153,0.04611,0.50711,1.45132,0.13913,0.59335,0.08438,0.49841,1.31839,1.12052,0.08825,0.70118,0.47,0.29177,0.98498,1.19824,0.0881,0.6144,0.87838,0.23233,0.64152,0.98968,-0.12062,0.44957,1.42557,0.22462,0.48287,1.41437,-0.37845,0.60015,1.42172,0.47344,0.35463,1.31773,-0.22947,0.73506,1.57049,0.66603,0.28697,1.20136
2154,0.04698,0.50658,1.45076,0.13899,0.59335,0.08415,0.46804,1.33607,1.16097,0.08971,0.70224,0.46968,0.28261,0.98403,1.20062,0.08841,0.61605,0.87818,0.23345,0.64082,0.98898,-0.12017,0.45306,1.4242,0.22532,0.48094,1.4146,-0.37241,0.61286,1.42139,0.47014,0.34493,1.31835,-0.22061,0.743,1.57155,0.65958,0.27101,1.20063
2155,0.04822,0.5063,1.45007,0.13913,0.59353,0.08393,0.44038,1.34448,1.19267,0.09086,0.70384,0.46919,0.27211,0.98184,1.20132,0.08941,0.61691,0.87753,0.23578,0.63856,0.98722,-0.11912,0.45748,1.42279,0.22636,0.47933,1.41517,-0.36614,0.62525,1.42095,0.46732,0.3368,1.31859,-0.21154,0.75078,1.57217,0.65363,0.25711,1.19966
2156,0.04941,0.50697,1.44905,0.13941,0.59393,0.08376,0.42061,1.34646,1.21477,0.09141,0.7061,0.46851,0.26317,0.97912,1.20153,0.09086,0.61741,0.87647,0.23845,0.6363,0.98505,-0.11754,0.46237,1.42105,0.2277,0.47828,1.41599,-0.35982,0.63691,1.42037,0.46494,0.33019,1.31861,-0.20255,0.75821,1.57228,0.64827,0.24477,1.19901
2157,0.05038,0.50903,1.44759,0.13961,0.59433,0.0836,0.41211,1.34583,1.22586,0.09115,0.70872,0.46764,0.25754,0.97783,1.20166,0.09208,0.61805,0.87517,0.24017,0.63578,0.98325,-0.11566,0.46719,1.41915,0.22908,0.47755,1.41679,-0.35366,0.64752,1.41945,0.46249,0.32384,1.31883,-0.19403,0.76497,1.57194,0.64313,0.23319,1.199
2158,0.05131,0.51209,1.44584,0.13966,0.5946,0.0834,0.41432,1.34491,1.22622,0.09019,0.71105,0.4667,0.25497,0.979,1.2015,0.09243,0.61892,0.87389,0.24033,0.63745,0.9821,-0.11372,0.4718,1.41772,0.23038,0.47672,1.41714,-0.34781,0.65717,1.41796,0.45936,0.3164,1.31932,-0.18616,0.77091,1.57114,0.63781,0.22188,1.1992
2159,0.05237,0.5154,1.4442,0.13954,0.59477,0.08308,0.42361,1.34377,1.21934,0.0888,0.71259,0.46579,0.2549,0.98172,1.20075,0.09182,0.61981,0.87284,0.23933,0.6403,0.98123,-0.11198,0.47639,1.41723,0.23146,0.47562,1.41674,-0.34237,0.66635,1.41577,0.45542,0.30798,1.31958,-0.17887,0.77619,1.56982,0.63219,0.21119,1.19878
2160,0.05349,0.51846,1.44294,0.13916,0.59482,0.08267,0.43527,1.34263,1.2084,0.08711,0.71343,0.46496,0.2571,0.98477,1.19914,0.09071,0.62068,0.87201,0.23796,0.64304,0.98037,-0.11069,0.48119,1.41742,0.23206,0.47436,1.41559,-0.33734,0.67555,1.41299,0.45123,0.30003,1.31929,-0.17199,0.78109,1.56807,0.62664,0.2021,1.19743
2161,0.05451,0.52108,1.44204,0.1385,0.59456,0.08233,0.44605,1.34211,1.19358,0.08531,0.71409,0.46417,0.26092,0.98769,1.19687,0.08979,0.62173,0.87129,0.23666,0.64512,0.97995,-0.11002,0.48595,1.4176,0.23207,0.47315,1.414,-0.33265,0.68481,1.41009,0.44758,0.29373,1.3188,-0.16538,0.78582,1.56613,0.62159,0.19517,1.19545
2162,0.05545,0.52325,1.44135,0.1377,0.59404,0.08216,0.45464,1.34147,1.17337,0.08369,0.71495,0.46346,0.26467,0.99026,1.19471,0.08944,0.62285,0.87063,0.23546,0.64644,0.98038,-0.10986,0.48998,1.41719,0.23187,0.47224,1.41243,-0.32815,0.6935,1.40752,0.44491,0.28929,1.31841,-0.15895,0.79046,1.56403,0.61702,0.18988,1.19308
2163,0.05663,0.525,1.44084,0.1371,0.59367,0.08217,0.46096,1.33824,1.14721,0.08261,0.71599,0.46295,0.26631,0.99197,1.19311,0.08948,0.62353,0.87002,0.23446,0.64689,0.9812,-0.10974,0.4928,1.41591,0.23202,0.47189,1.41121,-0.3238,0.70072,1.40531,0.44318,0.28637,1.31797,-0.15285,0.79494,1.5616,0.61272,0.18517,1.19059
2164,0.05836,0.5263,1.44077,0.1369,0.59368,0.08231,0.46602,1.33025,1.11652,0.0822,0.71695,0.46274,0.2654,0.99259,1.19158,0.08951,0.62327,0.86953,0.23396,0.64639,0.98145,-0.10916,0.49479,1.41398,0.23293,0.47224,1.41054,-0.31977,0.7062,1.40322,0.44185,0.28429,1.31714,-0.14733,0.79894,1.55875,0.60875,0.18051,1.18835
2165,0.06066,0.52722,1.44139,0.13688,0.59391,0.08253,0.4715,1.31757,1.08335,0.08241,0.71764,0.46285,0.26387,0.99257,1.189,0.0894,0.62214,0.86922,0.23419,0.64509,0.98074,-0.10799,0.49699,1.41206,0.2346,0.47311,1.41046,-0.31643,0.71052,1.4011,0.44024,0.28224,1.3157,-0.14245,0.80214,1.55559,0.60533,0.17628,1.18636
2166,0.06313,0.52824,1.4426,0.13667,0.59399,0.08273,0.47839,1.30207,1.04891,0.0832,0.71796,0.46312,0.26439,0.99267,1.18445,0.08945,0.62061,0.86906,0.23512,0.64318,0.97951,-0.10645,0.50023,1.41079,0.23653,0.47402,1.41066,-0.31412,0.71446,1.39897,0.43814,0.27996,1.31374,-0.13825,0.80445,1.55227,0.60253,0.17313,1.18423
2167,0.06545,0.52985,1.44398,0.13631,0.59376,0.0828,0.48623,1.2854,1.01371,0.0844,0.71779,0.46338,0.26796,0.99329,1.17779,0.08988,0.61899,0.86898,0.23651,0.64085,0.9783,-0.1049,0.50418,1.41043,0.23813,0.47462,1.41073,-0.31287,0.71803,1.39682,0.43595,0.27785,1.31149,-0.13493,0.80603,1.54888,0.60032,0.17122,1.1818
2168,0.06752,0.53189,1.44538,0.13627,0.59336,0.08274,0.49403,1.26755,0.97808,0.08573,0.71704,0.46361,0.27326,0.9945,1.16939,0.09056,0.61733,0.869,0.23807,0.63833,0.97729,-0.10371,0.50772,1.41102,0.23921,0.47495,1.41058,-0.31234,0.72071,1.39444,0.43415,0.2764,1.30921,-0.13273,0.807,1.54552,0.59861,0.17027,1.17922
2169,0.06924,0.5338,1.4471,0.13684,0.59298,0.08266,0.5015,1.24737,0.94232,0.08697,0.71588,0.46388,0.27845,0.99628,1.15933,0.09113,0.61564,0.86915,0.2396,0.63574,0.97629,-0.10291,0.51045,1.41248,0.24003,0.47517,1.41058,-0.31225,0.72236,1.39168,0.43309,0.27597,1.3069,-0.1316,0.80757,1.54212,0.59748,0.17025,1.17649
2170,0.07028,0.5354,1.44952,0.13781,0.5927,0.08267,0.50889,1.2242,0.9068,0.08809,0.71459,0.46423,0.28299,0.99837,1.14735,0.09134,0.61391,0.86939,0.24108,0.63297,0.97494,-0.10206,0.51319,1.41455,0.24073,0.47526,1.41097,-0.31259,0.72336,1.38869,0.43294,0.27678,1.30439,-0.13115,0.80807,1.53847,0.59711,0.1715,1.17335
2171,0.07066,0.53704,1.4526,0.13866,0.59249,0.08276,0.51599,1.19848,0.87178,0.08888,0.71333,0.46465,0.28772,1.00039,1.13359,0.09117,0.6121,0.86968,0.24247,0.62995,0.9732,-0.10083,0.5165,1.41691,0.2412,0.47512,1.41157,-0.3133,0.72399,1.38579,0.43355,0.27865,1.30159,-0.13102,0.80872,1.53453,0.59739,0.17411,1.16953
2172,0.07112,0.53889,1.45586,0.13898,0.59232,0.0829,0.52184,1.17102,0.83723,0.08899,0.71197,0.46514,0.29366,1.00206,1.1188,0.09054,0.61031,0.87006,0.2434,0.62687,0.97148,-0.09964,0.51971,1.41948,0.24148,0.47468,1.41213,-0.31431,0.72409,1.38322,0.43436,0.28073,1.29865,-0.13113,0.80954,1.53044,0.59778,0.17751,1.16505
2173,0.07251,0.5406,1.45872,0.13889,0.59216,0.08302,0.52558,1.14227,0.80314,0.08839,0.71028,0.46566,0.3011,1.00337,1.10348,0.08918,0.60876,0.87063,0.24338,0.62402,0.97021,-0.09914,0.52203,1.42237,0.24193,0.474,1.41255,-0.31562,0.72347,1.38089,0.43486,0.28201,1.29584,-0.13171,0.8103,1.52636,0.59798,0.18108,1.16014
2174,0.07494,0.54178,1.46097,0.13858,0.5919,0.0831,0.52726,1.11236,0.76992,0.08731,0.70821,0.4662,0.3097,1.00417,1.0875,0.08691,0.60737,0.87133,0.24231,0.62146,0.96919,-0.09932,0.5236,1.42548,0.24295,0.47339,1.41274,-0.31737,0.72214,1.37857,0.43516,0.28237,1.29328,-0.13299,0.81069,1.52242,0.59826,0.18495,1.15503
2175,0.07786,0.54242,1.46262,0.13807,0.59153,0.08313,0.52752,1.08145,0.73823,0.08602,0.70599,0.46668,0.31882,1.00429,1.07048,0.08406,0.60579,0.87197,0.24075,0.61909,0.96786,-0.09967,0.52498,1.42841,0.24446,0.47308,1.4127,-0.31957,0.72014,1.37621,0.43569,0.28263,1.2908,-0.13503,0.81053,1.51871,0.59904,0.18967,1.1498
2176,0.08065,0.54288,1.46393,0.13745,0.59134,0.08307,0.52702,1.04921,0.70816,0.08465,0.704,0.46705,0.32802,1.0038,1.05201,0.08122,0.60389,0.87235,0.23936,0.61685,0.9659,-0.09985,0.52636,1.43093,0.24603,0.47295,1.41257,-0.32205,0.71756,1.37405,0.43668,0.28359,1.28809,-0.13756,0.80994,1.51533,0.60046,0.1956,1.14442
2177,0.08301,0.54345,1.46542,0.13682,0.59156,0.08295,0.52615,1.01468,0.67933,0.08316,0.7025,0.46731,0.3374,1.00264,1.03165,0.07874,0.60187,0.87247,0.23845,0.61464,0.96333,-0.0997,0.52777,1.4331,0.2473,0.47274,1.41251,-0.32456,0.71464,1.37238,0.43795,0.28553,1.28482,-0.14015,0.80918,1.51234,0.60236,0.20279,1.13876
2178,0.08494,0.54417,1.46762,0.13609,0.59216,0.08282,0.52484,0.97771,0.65148,0.08156,0.70144,0.46754,0.34739,1.00034,1.0091,0.07646,0.6,0.87249,0.23792,0.61222,0.96028,-0.099,0.52937,1.43508,0.24827,0.47249,1.41252,-0.32685,0.71156,1.37135,0.43916,0.28831,1.28084,-0.14258,0.80862,1.50974,0.60437,0.2112,1.13263
2179,0.0867,0.54487,1.47051,0.13514,0.5929,0.08275,0.52282,0.93955,0.62457,0.08009,0.70062,0.46783,0.35831,0.9962,0.9846,0.07402,0.59838,0.87257,0.2375,0.60938,0.95673,-0.09762,0.53126,1.43692,0.24913,0.47248,1.41246,-0.32884,0.70828,1.37083,0.44015,0.2917,1.27634,-0.14491,0.8084,1.50749,0.60624,0.22067,1.12609
2180,0.08864,0.5455,1.4734,0.13404,0.59346,0.08276,0.51983,0.90168,0.59843,0.079,0.69976,0.46823,0.37015,0.98987,0.95859,0.07115,0.59697,0.8728,0.2369,0.60619,0.95262,-0.09574,0.53352,1.43872,0.25002,0.47287,1.4123,-0.33063,0.70479,1.37047,0.44106,0.29549,1.2718,-0.14741,0.80825,1.50557,0.608,0.23087,1.11961
2181,0.09077,0.54621,1.47566,0.13298,0.59359,0.08282,0.51565,0.86456,0.57302,0.07832,0.69869,0.46868,0.38223,0.98159,0.93135,0.06794,0.5957,0.87314,0.23601,0.60299,0.94815,-0.09372,0.53616,1.44058,0.25096,0.47358,1.4122,-0.33235,0.70114,1.36984,0.4421,0.29953,1.26773,-0.15017,0.8078,1.50386,0.60973,0.24145,1.11367
2182,0.09283,0.54722,1.47723,0.13214,0.59333,0.08287,0.51035,0.82789,0.54889,0.07787,0.69737,0.46907,0.39349,0.97184,0.90317,0.06488,0.59444,0.87347,0.235,0.60005,0.94385,-0.09187,0.53883,1.44242,0.25198,0.47454,1.41231,-0.33389,0.69744,1.3687,0.44335,0.30373,1.26433,-0.15299,0.80697,1.50215,0.61141,0.25228,1.10838
2183,0.09458,0.54856,1.47852,0.13164,0.5929,0.08286,0.50451,0.79156,0.52685,0.07747,0.69593,0.46934,0.40321,0.96088,0.87464,0.06244,0.59308,0.8737,0.23417,0.59737,0.94015,-0.09042,0.54097,1.44407,0.25311,0.47573,1.41261,-0.33514,0.69388,1.36727,0.44472,0.3081,1.26132,-0.15556,0.806,1.50033,0.61298,0.26349,1.1035
2184,0.09609,0.55006,1.47986,0.1314,0.59253,0.08285,0.49886,0.75603,0.50684,0.07707,0.6947,0.46954,0.41135,0.94854,0.84622,0.06069,0.59178,0.87382,0.23371,0.59468,0.93691,-0.08955,0.54241,1.44534,0.25431,0.47703,1.41296,-0.33626,0.69073,1.36596,0.4461,0.31276,1.25827,-0.15781,0.80528,1.49849,0.61448,0.27554,1.09866
2185,0.09766,0.55167,1.48117,0.13113,0.59236,0.08297,0.49368,0.72193,0.48786,0.07674,0.69402,0.46979,0.41806,0.93463,0.81791,0.05925,0.59089,0.87397,0.23351,0.59178,0.93365,-0.08917,0.54361,1.44613,0.25544,0.47814,1.41333,-0.33758,0.6881,1.36501,0.44758,0.31782,1.25498,-0.16003,0.80496,1.49672,0.61595,0.289,1.09364
2186,0.09954,0.5534,1.4823,0.13064,0.59234,0.08326,0.48878,0.68941,0.46916,0.07655,0.69383,0.47017,0.42317,0.91922,0.78976,0.05787,0.59052,0.87425,0.23336,0.58867,0.93016,-0.08884,0.54524,1.44649,0.25646,0.47891,1.41373,-0.33921,0.68571,1.36435,0.44925,0.32329,1.25152,-0.1625,0.80493,1.49506,0.61726,0.3039,1.0884
2187,0.10179,0.55512,1.48322,0.13011,0.59246,0.08361,0.48399,0.65804,0.45089,0.07649,0.69372,0.47064,0.42662,0.90241,0.76215,0.0566,0.59031,0.87463,0.23318,0.58544,0.9268,-0.08801,0.54751,1.44671,0.25756,0.47961,1.41413,-0.3408,0.68315,1.36386,0.45111,0.32914,1.24801,-0.16513,0.80501,1.49354,0.61818,0.31962,1.08307
2188,0.10432,0.55662,1.48399,0.12977,0.59273,0.08382,0.47917,0.62698,0.43336,0.07644,0.69347,0.47103,0.42874,0.88403,0.73549,0.05555,0.58988,0.87493,0.23294,0.5821,0.92391,-0.08641,0.55011,1.44712,0.25882,0.4806,1.41438,-0.34178,0.68039,1.36357,0.45307,0.33533,1.24448,-0.16746,0.80523,1.49223,0.6187,0.33556,1.07783
2189,0.10675,0.5579,1.48463,0.12967,0.59302,0.08382,0.47377,0.59552,0.41626,0.07637,0.69327,0.47116,0.42987,0.86368,0.70962,0.05471,0.58929,0.87492,0.23264,0.57856,0.92131,-0.08432,0.55262,1.44783,0.26018,0.48193,1.41431,-0.34188,0.67794,1.36343,0.45508,0.34181,1.24088,-0.16908,0.80574,1.49124,0.61904,0.35164,1.07286
2190,0.10876,0.55919,1.48503,0.12961,0.59316,0.08365,0.4672,0.56357,0.39891,0.07633,0.69347,0.47097,0.42996,0.84126,0.68421,0.05399,0.58876,0.8745,0.23228,0.57484,0.91861,-0.08225,0.55488,1.44856,0.26169,0.48359,1.4139,-0.34135,0.67645,1.36339,0.45708,0.34835,1.23717,-0.16985,0.8066,1.49057,0.61932,0.36795,1.06834
2191,0.11054,0.5606,1.48513,0.12938,0.59305,0.08344,0.45968,0.53149,0.38121,0.07634,0.69415,0.47059,0.42887,0.81716,0.6593,0.05334,0.58825,0.87378,0.2319,0.57121,0.91565,-0.08047,0.5569,1.4489,0.26355,0.48562,1.41326,-0.34065,0.67589,1.36337,0.459,0.35476,1.23333,-0.17,0.80769,1.49002,0.61946,0.38443,1.06427
2192,0.11256,0.56192,1.48498,0.12903,0.59272,0.0833,0.45212,0.49966,0.36378,0.07637,0.69494,0.47021,0.42668,0.79198,0.63543,0.05273,0.58757,0.87297,0.23156,0.56797,0.91247,-0.0788,0.55876,1.44868,0.26571,0.48778,1.41253,-0.33999,0.67561,1.36329,0.46087,0.36095,1.22942,-0.16996,0.80873,1.48938,0.61927,0.401,1.06056
2193,0.11498,0.56298,1.48476,0.12873,0.59238,0.08323,0.44527,0.46837,0.34728,0.07641,0.69556,0.46993,0.42361,0.76617,0.61326,0.05221,0.58665,0.87225,0.23135,0.56502,0.90919,-0.07697,0.56052,1.44804,0.26779,0.48965,1.41172,-0.33926,0.67507,1.36291,0.4627,0.36694,1.22557,-0.16994,0.8095,1.48855,0.61858,0.4177,1.05724
2194,0.11765,0.56384,1.48453,0.12857,0.59231,0.08306,0.43895,0.43794,0.33185,0.07644,0.69604,0.46963,0.41979,0.73999,0.59319,0.05191,0.58561,0.87151,0.23131,0.56204,0.90594,-0.07488,0.56221,1.44722,0.26941,0.49085,1.41085,-0.33823,0.67439,1.36217,0.46458,0.37289,1.22192,-0.16969,0.81002,1.48758,0.61742,0.43456,1.05445
2195,0.12042,0.56475,1.48419,0.12841,0.59258,0.08256,0.43233,0.40863,0.31722,0.07646,0.69662,0.46908,0.41515,0.71361,0.57527,0.05192,0.58464,0.87053,0.2314,0.55874,0.90276,-0.07258,0.56381,1.44639,0.27064,0.49132,1.40997,-0.33677,0.67397,1.36133,0.46661,0.37905,1.21842,-0.16882,0.81049,1.48656,0.61598,0.45161,1.05219
2196,0.12318,0.56588,1.48363,0.12806,0.59296,0.08178,0.42481,0.3806,0.303,0.0765,0.69745,0.46823,0.40957,0.68719,0.55926,0.0521,0.58383,0.86923,0.23149,0.55518,0.89965,-0.07003,0.56527,1.44555,0.27192,0.49151,1.40909,-0.33488,0.67397,1.36066,0.46874,0.38544,1.21489,-0.1673,0.81131,1.48549,0.6144,0.4687,1.05039
2197,0.12592,0.56727,1.48282,0.12746,0.59319,0.08102,0.41658,0.35378,0.28909,0.0765,0.69849,0.46733,0.40315,0.66084,0.54488,0.05223,0.58309,0.86783,0.23143,0.5515,0.89639,-0.06716,0.56665,1.4445,0.27378,0.49226,1.40804,-0.33254,0.67444,1.36011,0.47072,0.39161,1.21109,-0.16523,0.81275,1.48422,0.61268,0.48549,1.0491
2198,0.1289,0.56876,1.48178,0.12688,0.59328,0.08056,0.40825,0.3279,0.27571,0.0764,0.6996,0.46666,0.39628,0.63467,0.53191,0.05223,0.58211,0.86655,0.23123,0.54747,0.89269,-0.06405,0.56807,1.44299,0.27645,0.49404,1.40673,-0.32982,0.67551,1.35939,0.47243,0.39724,1.20694,-0.16257,0.81463,1.48267,0.61068,0.50176,1.04828
2199,0.13242,0.57027,1.48048,0.12676,0.59338,0.08033,0.40018,0.30281,0.26312,0.07635,0.70053,0.46621,0.38924,0.60881,0.5203,0.05225,0.58067,0.8654,0.23097,0.54255,0.88849,-0.06082,0.56977,1.441,0.27966,0.49634,1.40523,-0.32693,0.67712,1.35837,0.47407,0.40247,1.20251,-0.15928,0.81642,1.48092,0.6083,0.51758,1.04779
2200,0.13629,0.57186,1.47893,0.12722,0.59354,0.08005,0.39243,0.27881,0.25119,0.07676,0.70119,0.46578,0.38196,0.58345,0.51,0.05246,0.57874,0.86417,0.23065,0.53653,0.88403,-0.05742,0.57204,1.43884,0.28287,0.49808,1.40355,-0.32399,0.67889,1.35705,0.47587,0.40758,1.19797,-0.15558,0.81764,1.47917,0.60556,0.53311,1.04753
2201,0.13989,0.57364,1.47719,0.12789,0.59367,0.07949,0.385,0.25639,0.23955,0.07804,0.70172,0.46518,0.37431,0.55878,0.50097,0.05271,0.57648,0.86264,0.23007,0.52974,0.87959,-0.05363,0.57501,1.43684,0.28572,0.49873,1.40155,-0.32081,0.68056,1.35535,0.47789,0.41246,1.1934,-0.15166,0.81838,1.47751,0.60244,0.5483,1.04765
2202,0.14299,0.57551,1.47538,0.12829,0.59353,0.07866,0.37782,0.2359,0.2281,0.08017,0.70209,0.46443,0.3664,0.53504,0.4932,0.05271,0.57396,0.86083,0.22905,0.52278,0.87528,-0.0494,0.57839,1.43512,0.28825,0.49859,1.3991,-0.31708,0.6824,1.35328,0.47994,0.41688,1.18868,-0.1474,0.8192,1.47585,0.59892,0.56294,1.04825
2203,0.14604,0.57721,1.47368,0.12823,0.59304,0.07777,0.37057,0.21749,0.21704,0.08263,0.70198,0.46375,0.35865,0.51255,0.48665,0.05236,0.57097,0.85899,0.22775,0.51602,0.87117,-0.04497,0.58156,1.4336,0.29069,0.49807,1.39625,-0.31273,0.68482,1.3511,0.48189,0.42083,1.1837,-0.14257,0.8207,1.47403,0.59509,0.57677,1.04924
2204,0.14985,0.57852,1.47217,0.1279,0.59238,0.0772,0.36271,0.20131,0.20651,0.08486,0.7013,0.46347,0.35161,0.49164,0.48124,0.05184,0.56731,0.85749,0.22647,0.50958,0.86728,-0.04056,0.58408,1.43216,0.2932,0.49724,1.39325,-0.30801,0.68771,1.34913,0.48368,0.42448,1.17849,-0.13719,0.82296,1.47183,0.5911,0.58949,1.05027
2205,0.15488,0.57941,1.47076,0.12757,0.5918,0.07718,0.35399,0.18738,0.1964,0.08669,0.70039,0.46377,0.34561,0.4724,0.47673,0.05128,0.5631,0.85646,0.22536,0.50332,0.86349,-0.03614,0.58627,1.43063,0.29587,0.49619,1.39027,-0.3032,0.69056,1.34718,0.48526,0.42796,1.17306,-0.13163,0.82556,1.4691,0.58707,0.6009,1.05086
2206,0.1608,0.58,1.46924,0.12722,0.59134,0.07758,0.3448,0.17539,0.18659,0.08826,0.69957,0.46448,0.34041,0.45454,0.47285,0.0507,0.55873,0.8557,0.22417,0.49693,0.85976,-0.03145,0.58887,1.42897,0.29888,0.49519,1.38727,-0.29833,0.69309,1.34482,0.48655,0.43122,1.16729,-0.12612,0.82805,1.46588,0.58319,0.61099,1.05088
2207,0.16688,0.58057,1.46743,0.12666,0.59092,0.07793,0.33588,0.16478,0.17702,0.08958,0.69873,0.46513,0.33507,0.43741,0.46954,0.04998,0.55447,0.8549,0.22253,0.49005,0.85628,-0.02639,0.59209,1.42728,0.3024,0.49458,1.38418,-0.29317,0.69553,1.34189,0.48747,0.43412,1.16104,-0.12038,0.8303,1.46234,0.57974,0.61988,1.05065
2208,0.17262,0.58138,1.46519,0.12598,0.59049,0.07789,0.32748,0.15509,0.16755,0.09063,0.69758,0.46545,0.32845,0.42026,0.46686,0.04899,0.5503,0.85388,0.22026,0.48255,0.8534,-0.02098,0.59552,1.42571,0.30641,0.49455,1.38102,-0.28749,0.69823,1.33858,0.48806,0.43647,1.15446,-0.11394,0.83241,1.4586,0.57687,0.62755,1.05049
2209,0.17795,0.58248,1.46248,0.12551,0.59017,0.07761,0.31906,0.14614,0.15804,0.09147,0.69609,0.46561,0.32004,0.40265,0.46479,0.04775,0.54603,0.85274,0.21755,0.47467,0.8512,-0.01542,0.59871,1.42426,0.31055,0.49487,1.37777,-0.28131,0.70128,1.3351,0.48842,0.43803,1.14792,-0.10673,0.83443,1.45478,0.57434,0.63372,1.05028
2210,0.18298,0.58365,1.45947,0.1253,0.59007,0.07753,0.31028,0.13799,0.14862,0.09231,0.69451,0.46602,0.31055,0.38492,0.46313,0.04651,0.54143,0.85172,0.21483,0.46668,0.84934,-0.01002,0.60148,1.4227,0.31434,0.49485,1.37433,-0.275,0.7046,1.33149,0.48861,0.43854,1.14161,-0.09911,0.83629,1.45086,0.57178,0.63812,1.04963
2211,0.18778,0.58457,1.45639,0.12515,0.59014,0.07787,0.30153,0.13078,0.13966,0.09336,0.693,0.46689,0.30124,0.36807,0.46151,0.04543,0.53648,0.85096,0.21238,0.45877,0.84736,-0.0051,0.60367,1.42085,0.31763,0.49377,1.37065,-0.26892,0.70798,1.32767,0.48855,0.43789,1.13535,-0.09144,0.83786,1.44666,0.56906,0.64078,1.0484
2212,0.19254,0.58501,1.45342,0.12501,0.59026,0.07844,0.29338,0.12452,0.13145,0.0946,0.69133,0.46803,0.29272,0.35292,0.45967,0.04437,0.53134,0.85037,0.21008,0.4511,0.84507,-0.00063,0.60519,1.41881,0.32081,0.49148,1.36689,-0.26306,0.71118,1.3236,0.48814,0.4363,1.12886,-0.08372,0.83919,1.44183,0.56642,0.64203,1.04666
2213,0.19751,0.5849,1.45056,0.12509,0.59036,0.07885,0.28612,0.11915,0.12406,0.09576,0.68921,0.46909,0.28472,0.33955,0.4577,0.04308,0.52612,0.84979,0.20767,0.44375,0.84268,0.0038,0.60615,1.41687,0.32434,0.48837,1.36322,-0.25695,0.71415,1.31935,0.48745,0.43425,1.12204,-0.07556,0.84052,1.43621,0.56409,0.64234,1.04437
2214,0.20268,0.58433,1.44781,0.12547,0.59045,0.0789,0.27983,0.11465,0.11743,0.09662,0.68649,0.46988,0.27684,0.32753,0.45591,0.04148,0.52086,0.84913,0.20507,0.43666,0.84054,0.00878,0.60682,1.41522,0.32828,0.48488,1.3597,-0.25,0.71717,1.31514,0.48654,0.43212,1.11502,-0.06642,0.84217,1.43003,0.56195,0.64206,1.04121
2215,0.20772,0.58348,1.44522,0.126,0.5904,0.07866,0.27456,0.11097,0.11149,0.09706,0.68312,0.47044,0.26915,0.31636,0.45454,0.03971,0.51559,0.84852,0.20243,0.42982,0.83883,0.01462,0.60739,1.41367,0.33238,0.48125,1.35634,-0.24201,0.72051,1.31116,0.4854,0.43002,1.10802,-0.05618,0.84445,1.42356,0.55979,0.64127,1.03695
2216,0.21242,0.5825,1.44273,0.12644,0.59009,0.07836,0.27025,0.1079,0.10627,0.09696,0.67901,0.47097,0.2621,0.30578,0.45365,0.03788,0.51022,0.84823,0.19992,0.42331,0.83748,0.02103,0.60782,1.41182,0.33651,0.47774,1.35315,-0.23337,0.72399,1.30719,0.4839,0.42777,1.1012,-0.04557,0.84741,1.41686,0.5577,0.6398,1.03188
2217,0.21703,0.58151,1.44011,0.12654,0.58952,0.07812,0.26676,0.10526,0.10183,0.09613,0.6741,0.47162,0.25603,0.29586,0.45318,0.03595,0.50465,0.84841,0.19753,0.41704,0.83645,0.02743,0.60807,1.40956,0.34062,0.47461,1.3501,-0.22476,0.72707,1.30275,0.48209,0.42513,1.09468,-0.03558,0.85066,1.40983,0.55593,0.63753,1.02654
2218,0.22199,0.58059,1.43722,0.12621,0.58891,0.07786,0.26415,0.103,0.09813,0.09456,0.6686,0.47229,0.25106,0.28684,0.45299,0.03397,0.49889,0.84889,0.19513,0.41066,0.8358,0.03335,0.60808,1.40723,0.34459,0.47177,1.34701,-0.21649,0.72936,1.29752,0.48022,0.42203,1.08849,-0.02647,0.85348,1.40249,0.55451,0.63452,1.02112
2219,0.22743,0.57955,1.43415,0.12561,0.5885,0.0775,0.26245,0.10116,0.09503,0.09254,0.66303,0.47282,0.24712,0.27876,0.45297,0.03211,0.49315,0.84937,0.19264,0.4039,0.83556,0.0386,0.60744,1.40521,0.34845,0.4688,1.34369,-0.20843,0.73094,1.29166,0.47851,0.41846,1.08245,-0.01771,0.85535,1.395,0.55342,0.6308,1.01532
2220,0.23307,0.57803,1.43127,0.12506,0.58832,0.07705,0.26137,0.0998,0.0924,0.09055,0.65785,0.47315,0.2442,0.2714,0.45317,0.0304,0.48771,0.84963,0.19001,0.39683,0.83571,0.04314,0.60577,1.40358,0.35238,0.46534,1.34021,-0.20038,0.73203,1.2856,0.47703,0.4145,1.07644,-0.00872,0.85622,1.38745,0.55263,0.62643,1.00874
2221,0.23845,0.57578,1.42883,0.12482,0.5881,0.07664,0.26059,0.09891,0.09019,0.08883,0.6531,0.47338,0.24221,0.26467,0.45362,0.02875,0.48263,0.84972,0.18728,0.38984,0.83614,0.04726,0.60342,1.40214,0.35641,0.46141,1.33679,-0.19239,0.73278,1.27967,0.47572,0.41045,1.07058,0.00056,0.85633,1.37983,0.55195,0.6216,1.00121
2222,0.24332,0.573,1.42682,0.12485,0.58764,0.07643,0.2601,0.09825,0.08845,0.08726,0.64851,0.47367,0.241,0.2587,0.45422,0.02705,0.47775,0.84986,0.18468,0.38337,0.8367,0.05147,0.60128,1.40075,0.36023,0.45729,1.33365,-0.18445,0.73315,1.2738,0.47439,0.40654,1.06515,0.00991,0.85598,1.37211,0.55099,0.61661,0.99293
2223,0.24763,0.5701,1.42501,0.12484,0.58697,0.07646,0.2601,0.09745,0.08723,0.08564,0.64388,0.47413,0.24049,0.25367,0.4548,0.02531,0.47287,0.85018,0.18243,0.37762,0.83725,0.05598,0.5998,1.39943,0.36356,0.45326,1.33085,-0.17636,0.7333,1.26769,0.47291,0.40281,1.0603,0.0192,0.85552,1.36437,0.54954,0.61155,0.98439
2224,0.25155,0.56736,1.42316,0.12452,0.5862,0.0766,0.26067,0.09632,0.08651,0.08394,0.63907,0.4747,0.24056,0.24958,0.45529,0.0236,0.46801,0.85073,0.18054,0.37247,0.83778,0.06043,0.59882,1.39834,0.36637,0.44947,1.32833,-0.16797,0.73362,1.26113,0.47128,0.39905,1.05602,0.0285,0.85523,1.35673,0.54772,0.60633,0.976
2225,0.25516,0.5649,1.42134,0.12396,0.58541,0.07675,0.2617,0.09492,0.08623,0.08232,0.63397,0.47528,0.24098,0.24634,0.45574,0.022,0.46331,0.8515,0.17888,0.36769,0.83838,0.06424,0.59811,1.39754,0.36868,0.44573,1.32596,-0.15954,0.73432,1.25424,0.46951,0.39519,1.05214,0.03783,0.85492,1.34926,0.54578,0.60085,0.9679
2226,0.25843,0.56268,1.41981,0.12345,0.58466,0.07686,0.26298,0.09336,0.08626,0.08084,0.62867,0.47581,0.24144,0.24375,0.45615,0.02061,0.4588,0.8524,0.17744,0.36312,0.8391,0.06722,0.59746,1.39688,0.37037,0.44174,1.32373,-0.15154,0.73499,1.24723,0.46757,0.39137,1.04857,0.04687,0.85405,1.34202,0.54386,0.59522,0.96006
2227,0.26121,0.56057,1.41874,0.12324,0.58408,0.07691,0.26425,0.09179,0.08637,0.07947,0.62341,0.47624,0.2417,0.24155,0.45645,0.01963,0.45443,0.85329,0.1764,0.35867,0.83988,0.06955,0.59653,1.39616,0.37146,0.43744,1.32178,-0.1442,0.73503,1.24029,0.46546,0.38774,1.04539,0.0553,0.85228,1.33506,0.54182,0.58964,0.95256
2228,0.26344,0.55837,1.41797,0.12335,0.58367,0.07693,0.26533,0.09037,0.08634,0.07823,0.61834,0.47653,0.24166,0.23948,0.45661,0.01918,0.45018,0.85408,0.17591,0.35436,0.84064,0.07159,0.59496,1.39539,0.37235,0.4332,1.3203,-0.13717,0.7342,1.23353,0.46328,0.38427,1.04274,0.06322,0.84983,1.3284,0.53939,0.58421,0.94558
2229,0.26523,0.55591,1.41734,0.12354,0.58334,0.0769,0.26623,0.08922,0.08618,0.07719,0.61345,0.47673,0.24135,0.2374,0.45675,0.01923,0.4461,0.85481,0.17598,0.35031,0.84142,0.07348,0.59269,1.39479,0.37334,0.42938,1.31925,-0.13003,0.7326,1.22694,0.46122,0.38066,1.04068,0.07089,0.84714,1.322,0.53657,0.57877,0.93928
2230,0.26692,0.55309,1.41694,0.12351,0.58301,0.07682,0.26703,0.08832,0.08604,0.07636,0.6087,0.47687,0.24098,0.23528,0.45701,0.01957,0.44226,0.85552,0.17644,0.34664,0.84228,0.07508,0.59002,1.39451,0.37437,0.426,1.31842,-0.12281,0.73047,1.22049,0.45938,0.37662,1.03908,0.07826,0.84446,1.31592,0.53366,0.57312,0.9338
2231,0.26881,0.54995,1.41682,0.12313,0.58265,0.07677,0.26769,0.08765,0.08598,0.07572,0.6042,0.47703,0.24076,0.23325,0.45742,0.02009,0.43875,0.85629,0.17707,0.3433,0.84321,0.07635,0.58736,1.39433,0.37526,0.42272,1.31766,-0.11594,0.72805,1.21434,0.45765,0.37207,1.03776,0.08513,0.84176,1.3101,0.53072,0.56722,0.9292
2232,0.27089,0.54672,1.41691,0.12256,0.5823,0.07684,0.26809,0.08721,0.08593,0.07533,0.60008,0.47731,0.24072,0.23136,0.45791,0.02076,0.43563,0.85715,0.17774,0.34016,0.84417,0.07747,0.58495,1.39397,0.37595,0.41938,1.31709,-0.10971,0.7256,1.20864,0.45569,0.36711,1.03671,0.09151,0.83908,1.30437,0.52745,0.56125,0.92549
2233,0.27281,0.54361,1.41711,0.1221,0.58203,0.07698,0.26821,0.08696,0.08575,0.07525,0.59634,0.47763,0.24061,0.22951,0.45832,0.02155,0.43284,0.85801,0.17841,0.33716,0.84503,0.07855,0.58273,1.39349,0.37655,0.41617,1.31696,-0.10392,0.72329,1.20345,0.45335,0.36202,1.03613,0.09769,0.83647,1.29872,0.52365,0.55544,0.92274
2234,0.27429,0.54067,1.4176,0.12192,0.58181,0.07696,0.26817,0.08673,0.08532,0.07533,0.59286,0.47775,0.24026,0.22755,0.45853,0.02232,0.4303,0.85863,0.17905,0.33443,0.84561,0.0794,0.58052,1.39323,0.3771,0.41334,1.31745,-0.0982,0.72114,1.19869,0.45085,0.35711,1.0362,0.10391,0.8339,1.29337,0.51957,0.55004,0.92103
2235,0.27528,0.53786,1.41853,0.12198,0.58161,0.07668,0.26809,0.08648,0.08463,0.07533,0.58945,0.47754,0.23971,0.22548,0.45849,0.02291,0.42791,0.85893,0.17967,0.33209,0.84583,0.07987,0.57832,1.3934,0.37753,0.41083,1.31845,-0.09247,0.71897,1.19419,0.44858,0.35258,1.03693,0.11008,0.83123,1.28853,0.51564,0.54521,0.92028
2236,0.27582,0.53528,1.41972,0.12214,0.58137,0.07624,0.268,0.08627,0.08379,0.07507,0.58597,0.47709,0.2391,0.2234,0.45829,0.02333,0.42549,0.85902,0.1803,0.33002,0.84582,0.08009,0.57631,1.39386,0.37766,0.40836,1.31975,-0.0869,0.71646,1.18981,0.44677,0.34841,1.0381,0.11586,0.82836,1.28412,0.51202,0.54094,0.92027
2237,0.27597,0.53298,1.42087,0.1223,0.58114,0.07582,0.2678,0.08607,0.08293,0.07457,0.58248,0.47662,0.23858,0.22134,0.45809,0.02378,0.4229,0.85906,0.18102,0.32789,0.84582,0.08033,0.57442,1.3943,0.37752,0.40566,1.32118,-0.08176,0.71334,1.18551,0.44538,0.34445,1.03949,0.12099,0.8252,1.2799,0.50854,0.53711,0.92074
2238,0.27589,0.53067,1.42182,0.12237,0.58096,0.07557,0.26741,0.08572,0.08219,0.07408,0.5793,0.4763,0.23829,0.21923,0.45799,0.02447,0.42017,0.85908,0.1819,0.32545,0.84598,0.08071,0.57227,1.39447,0.37741,0.40267,1.32269,-0.07712,0.70953,1.18136,0.44428,0.34052,1.04097,0.12551,0.82168,1.27564,0.50505,0.53355,0.92157
2239,0.27572,0.52796,1.42272,0.12229,0.58086,0.07544,0.26691,0.08513,0.08163,0.07396,0.57675,0.47615,0.23835,0.21704,0.45804,0.02554,0.4175,0.85903,0.18296,0.32271,0.84632,0.08109,0.56965,1.39438,0.37765,0.39951,1.32432,-0.07291,0.70521,1.17742,0.44339,0.33662,1.0425,0.12963,0.81777,1.27142,0.50165,0.53024,0.92281
2240,0.27556,0.52472,1.42375,0.12204,0.58081,0.07534,0.26658,0.08443,0.08127,0.07446,0.57492,0.47611,0.23881,0.21497,0.45821,0.02692,0.41512,0.85888,0.1841,0.31986,0.8468,0.08129,0.56675,1.39427,0.37825,0.39648,1.32609,-0.06892,0.70078,1.17373,0.44284,0.33299,1.04414,0.1336,0.81359,1.26748,0.49859,0.52738,0.9245
2241,0.27542,0.52118,1.42491,0.12173,0.58073,0.07521,0.26661,0.08381,0.08107,0.07543,0.57355,0.47612,0.23974,0.2132,0.45847,0.02844,0.41308,0.85867,0.18523,0.31709,0.84736,0.08125,0.56382,1.39446,0.37884,0.39371,1.32795,-0.06484,0.6966,1.17043,0.44279,0.32982,1.04594,0.13779,0.80936,1.26401,0.49594,0.5251,0.92658
2242,0.27521,0.51779,1.42615,0.12154,0.58056,0.07511,0.26699,0.08338,0.08096,0.07648,0.57229,0.47614,0.24119,0.21174,0.45878,0.02996,0.41124,0.85851,0.1863,0.31445,0.84794,0.08101,0.56085,1.39508,0.37896,0.39103,1.32983,-0.06048,0.69284,1.16766,0.4432,0.32706,1.04791,0.14243,0.80529,1.26099,0.49369,0.52333,0.92901
2243,0.27477,0.51483,1.42742,0.12152,0.58037,0.07514,0.26753,0.08304,0.08086,0.07745,0.57088,0.47624,0.2431,0.21046,0.4591,0.03139,0.4094,0.85848,0.18738,0.31196,0.84845,0.08064,0.55768,1.39594,0.37844,0.38811,1.33175,-0.05602,0.68943,1.16544,0.44386,0.32459,1.04999,0.14735,0.80145,1.25828,0.49177,0.52204,0.93198
2244,0.27403,0.51216,1.4287,0.12156,0.58017,0.0753,0.26801,0.08266,0.08074,0.07852,0.56931,0.47648,0.24531,0.20938,0.45931,0.03277,0.40742,0.85858,0.18857,0.30965,0.84884,0.08014,0.55432,1.39666,0.37764,0.38475,1.3337,-0.05199,0.68605,1.16352,0.44464,0.32243,1.05205,0.15184,0.79783,1.25565,0.49015,0.52145,0.93573
2245,0.27308,0.50937,1.43004,0.12155,0.57993,0.07554,0.26828,0.0822,0.08063,0.07981,0.56773,0.47682,0.24763,0.2087,0.4594,0.03417,0.40539,0.85875,0.1899,0.30751,0.84915,0.07951,0.55106,1.39699,0.37704,0.38107,1.33564,-0.049,0.68223,1.16152,0.44567,0.3206,1.05398,0.155,0.79434,1.25289,0.48872,0.52173,0.94039
2246,0.27196,0.50624,1.43149,0.12153,0.57969,0.0758,0.26827,0.08185,0.0806,0.08123,0.56626,0.47719,0.24989,0.2085,0.45944,0.03574,0.40357,0.85898,0.19136,0.30551,0.84953,0.07879,0.54815,1.39692,0.37672,0.37749,1.33751,-0.04726,0.67764,1.15921,0.44709,0.31905,1.05585,0.15628,0.79105,1.24998,0.48735,0.52273,0.94585
2247,0.27062,0.50291,1.43303,0.1217,0.5796,0.07609,0.26809,0.08188,0.08063,0.08259,0.56487,0.47756,0.25194,0.20871,0.45951,0.03751,0.40213,0.85938,0.19286,0.30363,0.85002,0.078,0.5456,1.39675,0.37638,0.37438,1.33938,-0.04632,0.67243,1.15669,0.44886,0.31785,1.05786,0.1561,0.78807,1.24716,0.48608,0.52418,0.95181
2248,0.26902,0.4997,1.43461,0.12206,0.5797,0.07647,0.26795,0.08228,0.08066,0.08384,0.56339,0.47796,0.25372,0.20916,0.4596,0.03934,0.4009,0.85996,0.19435,0.30186,0.8506,0.07709,0.54327,1.39681,0.37595,0.37169,1.34139,-0.04542,0.66713,1.15429,0.4508,0.31715,1.0601,0.15557,0.7853,1.24465,0.48507,0.52604,0.95811
2249,0.26733,0.49679,1.43617,0.12243,0.57985,0.07695,0.26803,0.08268,0.08068,0.0851,0.56185,0.47845,0.25534,0.20962,0.45966,0.04102,0.39949,0.86055,0.19581,0.3001,0.85116,0.07602,0.54103,1.39726,0.37564,0.36897,1.34366,-0.04417,0.66212,1.15219,0.45282,0.31697,1.06252,0.15562,0.78232,1.24255,0.48437,0.52835,0.96489
2250,0.26585,0.49405,1.43775,0.12266,0.5799,0.07744,0.26829,0.08268,0.08072,0.08658,0.56041,0.47898,0.25693,0.20993,0.45963,0.04249,0.39767,0.86092,0.19728,0.29828,0.8516,0.07482,0.53868,1.39797,0.37547,0.36582,1.3462,-0.04259,0.65736,1.15039,0.45495,0.31712,1.06512,0.15644,0.77869,1.24092,0.48368,0.53113,0.97247
2251,0.2648,0.49111,1.43943,0.12267,0.5798,0.07775,0.26857,0.08224,0.08074,0.08829,0.55909,0.47939,0.2585,0.2101,0.45948,0.04383,0.39559,0.86096,0.19878,0.29642,0.85189,0.07354,0.53598,1.39869,0.37519,0.36236,1.34891,-0.04079,0.65279,1.14879,0.45714,0.31749,1.0679,0.15784,0.77449,1.23972,0.48262,0.53434,0.98109
2252,0.264,0.48772,1.44123,0.12244,0.5796,0.07783,0.26871,0.08167,0.0807,0.08992,0.55787,0.47957,0.25993,0.21018,0.45925,0.04527,0.39361,0.86079,0.20035,0.2946,0.85209,0.07219,0.533,1.39926,0.37457,0.35915,1.35168,-0.03882,0.64857,1.1473,0.4592,0.31813,1.07087,0.15955,0.77028,1.23876,0.48099,0.53789,0.9906
2253,0.26284,0.48407,1.44309,0.12205,0.57933,0.07777,0.26866,0.08125,0.08061,0.09122,0.55685,0.4796,0.2611,0.21008,0.45908,0.04699,0.39189,0.86056,0.20207,0.29286,0.85235,0.07087,0.53012,1.39967,0.37363,0.35649,1.35447,-0.03676,0.64486,1.14587,0.46097,0.31916,1.07398,0.16137,0.76647,1.23798,0.47893,0.54164,1.00057
2254,0.26094,0.48057,1.44481,0.12173,0.57906,0.07772,0.26849,0.08109,0.08043,0.09224,0.55618,0.47962,0.26214,0.20967,0.45901,0.04893,0.39039,0.86033,0.20396,0.29122,0.85267,0.06966,0.52752,1.39992,0.37258,0.35412,1.35725,-0.03469,0.6418,1.14454,0.46248,0.32061,1.07708,0.16342,0.76279,1.23752,0.47683,0.54551,1.01057
2255,0.25867,0.47738,1.44626,0.12164,0.57899,0.07774,0.2684,0.08106,0.08017,0.09313,0.55582,0.4797,0.26331,0.20899,0.45899,0.0509,0.38899,0.86008,0.20591,0.28975,0.85293,0.06845,0.52487,1.40005,0.37164,0.35152,1.35994,-0.03255,0.63939,1.14343,0.46389,0.3224,1.08005,0.16606,0.75859,1.23763,0.47502,0.54941,1.02045
2256,0.25669,0.47437,1.44751,0.12177,0.57928,0.07776,0.26856,0.08096,0.0799,0.09397,0.55555,0.47974,0.26477,0.20821,0.45897,0.05286,0.38767,0.85978,0.20791,0.28848,0.85308,0.06708,0.52175,1.40018,0.37085,0.34856,1.36261,-0.03006,0.63731,1.14255,0.46526,0.32434,1.08297,0.1695,0.75352,1.23847,0.47361,0.5532,1.03039
2257,0.25519,0.47129,1.44878,0.12203,0.57984,0.07769,0.26899,0.08069,0.07973,0.09473,0.55523,0.47965,0.26648,0.20744,0.45897,0.05491,0.38652,0.85946,0.21,0.28735,0.85321,0.0655,0.51805,1.40037,0.37012,0.34564,1.36537,-0.02701,0.63518,1.14175,0.46664,0.32636,1.08606,0.17356,0.74773,1.2399,0.47251,0.55682,1.04066
2258,0.25394,0.46807,1.45026,0.12242,0.5804,0.0776,0.26954,0.08035,0.07965,0.09554,0.55484,0.47953,0.26833,0.20664,0.45905,0.05711,0.38552,0.85921,0.21218,0.28631,0.85339,0.06386,0.51415,1.40053,0.36933,0.34311,1.36818,-0.0236,0.6329,1.14088,0.46811,0.32846,1.08938,0.17775,0.74192,1.24139,0.47153,0.5603,1.05129
2259,0.25268,0.46482,1.45192,0.12281,0.58067,0.07767,0.27009,0.08012,0.07963,0.0965,0.55442,0.47959,0.27013,0.20573,0.45926,0.05932,0.3845,0.85913,0.21445,0.28535,0.85367,0.06231,0.51046,1.40048,0.36852,0.34084,1.37086,-0.02045,0.63054,1.13991,0.4698,0.33052,1.09276,0.18127,0.73712,1.24227,0.47062,0.56348,1.06212
2260,0.2512,0.46176,1.45355,0.12296,0.58057,0.07792,0.2706,0.0799,0.07969,0.0975,0.55402,0.47987,0.27176,0.20477,0.45956,0.06143,0.3834,0.8592,0.21675,0.28452,0.85404,0.06092,0.50707,1.40025,0.3678,0.33841,1.37325,-0.01807,0.62801,1.13891,0.47167,0.33239,1.09599,0.18345,0.73393,1.24234,0.46984,0.56622,1.073
2261,0.24941,0.45905,1.45494,0.12283,0.58023,0.07817,0.27107,0.07947,0.07985,0.09832,0.55374,0.48019,0.27319,0.20388,0.45987,0.06345,0.38232,0.85927,0.21904,0.28386,0.85442,0.05948,0.50358,1.40004,0.36716,0.33565,1.37523,-0.01636,0.62523,1.13809,0.47365,0.33448,1.0989,0.18447,0.73168,1.24232,0.46904,0.56892,1.08389
2262,0.24741,0.45664,1.45603,0.12268,0.57984,0.0783,0.2715,0.07885,0.08004,0.09892,0.55359,0.48038,0.27453,0.20312,0.4601,0.06544,0.38135,0.85921,0.2213,0.28329,0.85474,0.05774,0.49961,1.39996,0.3665,0.33276,1.37679,-0.01482,0.6224,1.13762,0.47562,0.33768,1.10153,0.18527,0.72893,1.24317,0.46775,0.57241,1.0948
2263,0.24553,0.45439,1.45692,0.12274,0.57947,0.07834,0.27189,0.07831,0.08016,0.09947,0.55342,0.48046,0.27578,0.20248,0.46024,0.06741,0.38043,0.85907,0.22349,0.28272,0.855,0.05575,0.49534,1.39997,0.36575,0.32998,1.37806,-0.01324,0.61974,1.13742,0.47747,0.34241,1.10409,0.18639,0.72503,1.24509,0.46553,0.57707,1.10588
2264,0.24393,0.45219,1.45774,0.12303,0.57913,0.0784,0.27221,0.0781,0.08018,0.10016,0.55316,0.48055,0.27683,0.2019,0.46038,0.06932,0.37949,0.85896,0.22561,0.28208,0.85528,0.05384,0.49146,1.40005,0.36491,0.32736,1.37926,-0.0117,0.61725,1.13728,0.47913,0.34824,1.10684,0.18755,0.7207,1.2474,0.46236,0.58237,1.11729
2265,0.24245,0.45,1.45862,0.12335,0.5788,0.07854,0.27235,0.07825,0.08018,0.10098,0.55293,0.48073,0.27769,0.20141,0.46057,0.07119,0.37854,0.85889,0.22768,0.28145,0.85566,0.05232,0.48847,1.40028,0.36413,0.32495,1.38054,-0.01021,0.61482,1.13705,0.48057,0.3543,1.10984,0.1884,0.71702,1.24947,0.45857,0.58746,1.1289
