PaulMeinheit/Bachelor_Muay_Thai/processed_Data/N3/roundhouse/sliced/JointPositions/sliced0.csv
Unnamed: 0_level_0,Neck_Joint_Position,Neck_Joint_Position,Neck_Joint_Position,L_ANKLE_POSITION,L_ANKLE_POSITION,L_ANKLE_POSITION,R_ANKLE_POSITION,R_ANKLE_POSITION,R_ANKLE_POSITION,L_KNEE_POSITION,L_KNEE_POSITION,L_KNEE_POSITION,R_KNEE_POSITION,R_KNEE_POSITION,R_KNEE_POSITION,L_HIP_POSITION,L_HIP_POSITION,L_HIP_POSITION,R_HIP_POSITION,R_HIP_POSITION,R_HIP_POSITION,L_SHOULDER_POSITION,L_SHOULDER_POSITION,L_SHOULDER_POSITION,R_SHOULDER_POSITION,R_SHOULDER_POSITION,R_SHOULDER_POSITION,L_ELBOW_POSITION,L_ELBOW_POSITION,L_ELBOW_POSITION,R_ELBOW_POSITION,R_ELBOW_POSITION,R_ELBOW_POSITION,L_WRIST_POSITION,L_WRIST_POSITION,L_WRIST_POSITION,R_WRIST_POSITION,R_WRIST_POSITION,R_WRIST_POSITION
ITEM,X,Y,Z,X,Y,Z,X,Y,Z,X,Y,Z,X,Y,Z,X,Y,Z,X,Y,Z,X,Y,Z,X,Y,Z,X,Y,Z,X,Y,Z,X,Y,Z,X,Y,Z
161,0.21544,0.34363,1.4683,0.14502,0.58512,0.07822,0.16843,0.07801,0.07729,0.12229,0.51087,0.47432,0.24745,0.18345,0.45483,0.11286,0.32044,0.84573,0.27445,0.23277,0.85712,0.03365,0.37037,1.39232,0.35295,0.22688,1.39065,-0.02875,0.43153,1.10679,0.45784,0.22666,1.11371,0.12384,0.61965,1.04468,0.4943,0.43759,1.01682
162,0.21573,0.34415,1.46829,0.14508,0.58526,0.07821,0.16863,0.07801,0.07716,0.12211,0.5109,0.47427,0.24696,0.18296,0.45498,0.11232,0.32071,0.8458,0.27364,0.23257,0.85726,0.03387,0.37082,1.39308,0.35241,0.22638,1.39227,-0.02689,0.43507,1.10787,0.45839,0.2303,1.11578,0.13059,0.62232,1.05623,0.49066,0.44599,1.02833
163,0.21571,0.34464,1.46817,0.14499,0.58556,0.07826,0.16877,0.07815,0.07705,0.12205,0.51091,0.47427,0.2465,0.18244,0.45518,0.11191,0.3208,0.84583,0.27306,0.23236,0.85743,0.03402,0.3712,1.39404,0.35229,0.22628,1.3936,-0.02435,0.43925,1.10921,0.45951,0.23432,1.11766,0.13797,0.62487,1.06766,0.4863,0.45419,1.03926
164,0.21582,0.34508,1.46792,0.14484,0.5858,0.07827,0.16886,0.07825,0.07707,0.12197,0.51093,0.47424,0.24629,0.1822,0.45534,0.11168,0.32094,0.84587,0.27278,0.23242,0.85756,0.0344,0.37168,1.39515,0.35276,0.22693,1.3945,-0.02093,0.44413,1.1108,0.46141,0.23875,1.11926,0.14608,0.62749,1.07898,0.48146,0.46216,1.0493
165,0.21641,0.34541,1.46764,0.14478,0.58586,0.07823,0.16886,0.07816,0.07723,0.12179,0.51095,0.47419,0.2463,0.18222,0.45547,0.11155,0.32119,0.84593,0.27265,0.23269,0.85767,0.03524,0.37224,1.39646,0.35352,0.22819,1.39503,-0.01683,0.44926,1.11269,0.4639,0.24351,1.12065,0.1543,0.63022,1.09034,0.47679,0.46991,1.05914
166,0.21731,0.34565,1.46743,0.14489,0.58576,0.07819,0.16878,0.07785,0.07751,0.12155,0.51104,0.47417,0.24638,0.18225,0.45563,0.11135,0.32141,0.84597,0.27242,0.23285,0.85783,0.03631,0.3727,1.39786,0.35409,0.22957,1.39526,-0.0127,0.45414,1.11479,0.46649,0.24871,1.12195,0.16167,0.6329,1.10169,0.47259,0.47771,1.06973
167,0.21805,0.34592,1.46738,0.14508,0.58559,0.07818,0.16877,0.07744,0.07782,0.1213,0.51128,0.47421,0.24635,0.18216,0.45586,0.11102,0.32161,0.84599,0.27195,0.23283,0.85807,0.03714,0.37307,1.39906,0.35442,0.23067,1.39534,-0.00918,0.45877,1.11679,0.46872,0.25446,1.12318,0.16774,0.63544,1.1128,0.46854,0.48563,1.08112
168,0.21837,0.3463,1.4675,0.14514,0.58546,0.07818,0.16894,0.07715,0.07802,0.12094,0.51161,0.47426,0.24614,0.18202,0.45609,0.11061,0.32196,0.84605,0.27136,0.23288,0.85831,0.03763,0.37363,1.39979,0.35478,0.23151,1.39542,-0.00637,0.46367,1.1185,0.47042,0.26074,1.12436,0.17309,0.63772,1.12359,0.46425,0.49347,1.09256
169,0.21846,0.3469,1.46761,0.14504,0.58543,0.07817,0.16918,0.07714,0.07804,0.12035,0.51192,0.47428,0.24574,0.18193,0.45627,0.1102,0.32245,0.84617,0.27081,0.23311,0.85845,0.03805,0.37473,1.40016,0.35517,0.23243,1.39557,-0.00381,0.46933,1.12005,0.47174,0.2676,1.12562,0.17893,0.63941,1.1344,0.45961,0.50121,1.10354
170,0.21856,0.34774,1.46755,0.14501,0.58548,0.07818,0.16926,0.07737,0.07797,0.11968,0.51215,0.47429,0.24515,0.18191,0.4564,0.10979,0.32286,0.84628,0.27027,0.2333,0.85856,0.03849,0.37632,1.40045,0.35531,0.23364,1.39579,-0.00099,0.47575,1.12166,0.4729,0.2752,1.1272,0.18577,0.64032,1.14549,0.4547,0.50911,1.11423
171,0.21868,0.34872,1.46737,0.14515,0.58554,0.07823,0.16917,0.07766,0.07792,0.1192,0.51233,0.47432,0.24448,0.18187,0.45656,0.10931,0.32304,0.84631,0.26964,0.23323,0.85872,0.03866,0.3781,1.40075,0.35515,0.23491,1.3961,0.00208,0.48246,1.12338,0.47392,0.28335,1.12918,0.19274,0.64084,1.15645,0.44962,0.51702,1.12481
172,0.21873,0.34971,1.46722,0.14531,0.58558,0.0783,0.16909,0.07784,0.07795,0.11898,0.51251,0.47439,0.24391,0.18171,0.45678,0.10876,0.32311,0.84631,0.26896,0.23308,0.85894,0.03847,0.37989,1.40106,0.35499,0.23601,1.39655,0.00485,0.48874,1.12504,0.47465,0.29127,1.13136,0.19836,0.6416,1.16641,0.44452,0.52427,1.13517
173,0.21872,0.35069,1.46712,0.14528,0.58553,0.07844,0.16911,0.07791,0.07806,0.11879,0.51275,0.47457,0.24355,0.18142,0.45706,0.10821,0.32332,0.84647,0.26832,0.23316,0.85919,0.03841,0.3817,1.40139,0.35513,0.23707,1.39715,0.00671,0.49421,1.12661,0.47514,0.29833,1.13344,0.20199,0.6427,1.17502,0.43947,0.53028,1.14517
174,0.21882,0.35161,1.46709,0.14502,0.58532,0.07871,0.16917,0.07793,0.07823,0.11845,0.51312,0.47494,0.24337,0.18118,0.45735,0.10764,0.32384,0.8469,0.2677,0.23357,0.85943,0.03894,0.38359,1.40176,0.35563,0.23836,1.39782,0.00765,0.49912,1.12819,0.47568,0.30452,1.13531,0.20426,0.64369,1.18272,0.43454,0.53502,1.15491
175,0.21917,0.35247,1.46712,0.14465,0.58494,0.07901,0.16917,0.07794,0.07842,0.11799,0.51365,0.4754,0.24324,0.1812,0.45756,0.10704,0.32459,0.84748,0.26704,0.23415,0.85959,0.03988,0.38551,1.40206,0.35632,0.23987,1.39839,0.00842,0.50409,1.12982,0.47659,0.31011,1.13704,0.20648,0.64436,1.19001,0.43006,0.5388,1.16438
176,0.21982,0.35335,1.46716,0.14433,0.58446,0.07916,0.16914,0.07797,0.07853,0.11749,0.51441,0.47576,0.24307,0.18149,0.45763,0.10638,0.32539,0.84785,0.26627,0.23472,0.85966,0.04064,0.38738,1.4022,0.35699,0.24134,1.39872,0.00995,0.50959,1.13148,0.47796,0.31536,1.13875,0.20966,0.64506,1.19699,0.42634,0.54199,1.17317
177,0.22057,0.35455,1.46707,0.1441,0.58411,0.07909,0.16915,0.07801,0.0785,0.11694,0.51546,0.47592,0.24281,0.18192,0.45755,0.10562,0.32612,0.84784,0.26536,0.23518,0.85961,0.04092,0.38915,1.40228,0.35751,0.24271,1.39893,0.0126,0.51568,1.13329,0.47951,0.32062,1.14057,0.21378,0.64644,1.20369,0.42323,0.54514,1.18097
178,0.2211,0.35623,1.46674,0.14394,0.58402,0.07895,0.16925,0.07798,0.07836,0.11632,0.51669,0.47597,0.24239,0.18236,0.45738,0.10475,0.32682,0.84761,0.26429,0.23553,0.85949,0.04103,0.39089,1.40246,0.35786,0.24415,1.39928,0.01581,0.52218,1.13545,0.48077,0.32631,1.14268,0.21811,0.64869,1.21028,0.42011,0.54874,1.18801
179,0.22125,0.35823,1.46624,0.14385,0.58411,0.0789,0.16938,0.07786,0.07823,0.11578,0.51793,0.47608,0.2418,0.18278,0.45724,0.10388,0.32755,0.84746,0.26316,0.23583,0.85939,0.04147,0.39273,1.40272,0.35801,0.24571,1.39991,0.01871,0.52879,1.13789,0.48138,0.33254,1.14508,0.22193,0.6513,1.21673,0.41653,0.55284,1.19482
180,0.2212,0.36024,1.46568,0.14374,0.58426,0.07898,0.16946,0.07776,0.07822,0.11547,0.51905,0.47631,0.24112,0.18314,0.45724,0.10312,0.32838,0.84752,0.26216,0.23623,0.85941,0.04246,0.39484,1.40299,0.35801,0.24719,1.40067,0.02073,0.53508,1.14026,0.48143,0.33889,1.14758,0.22485,0.65366,1.22276,0.41272,0.55697,1.20171
181,0.22132,0.36213,1.46515,0.14353,0.58445,0.07916,0.16936,0.07781,0.07835,0.11536,0.52011,0.47663,0.24044,0.18338,0.45743,0.10245,0.32931,0.84775,0.26133,0.23687,0.85955,0.04386,0.39744,1.40332,0.35789,0.24856,1.40132,0.0218,0.54077,1.1423,0.48132,0.34476,1.1499,0.22663,0.65575,1.22805,0.40941,0.56061,1.20859
182,0.22182,0.36403,1.46464,0.14332,0.58473,0.07934,0.16902,0.07804,0.07851,0.11517,0.52125,0.47696,0.23982,0.1835,0.45767,0.10174,0.33029,0.84797,0.26053,0.23769,0.85971,0.04531,0.4005,1.40375,0.35772,0.25007,1.40175,0.02213,0.54599,1.14402,0.48142,0.34982,1.15186,0.22743,0.65793,1.2326,0.40736,0.5636,1.21527
183,0.22262,0.36601,1.46418,0.1433,0.58504,0.07946,0.16853,0.0784,0.07859,0.11464,0.52261,0.47721,0.23922,0.18362,0.45783,0.10085,0.3313,0.84804,0.25952,0.2385,0.8598,0.04645,0.40362,1.40414,0.35756,0.25186,1.40203,0.02212,0.55112,1.14565,0.4818,0.35433,1.15351,0.22794,0.6602,1.23658,0.40658,0.56627,1.2216
184,0.22343,0.368,1.46378,0.1435,0.58523,0.07953,0.16803,0.07884,0.07856,0.11383,0.52416,0.47741,0.23858,0.18387,0.45789,0.09976,0.33237,0.84798,0.25825,0.23928,0.85982,0.04711,0.4063,1.40434,0.35758,0.25379,1.40225,0.02222,0.55637,1.14739,0.48232,0.35893,1.1551,0.2288,0.66235,1.24025,0.40626,0.56914,1.22743
185,0.22399,0.36998,1.46336,0.14373,0.58526,0.07961,0.16767,0.07928,0.07851,0.11303,0.5258,0.47766,0.23791,0.18419,0.45792,0.09852,0.33354,0.84797,0.25686,0.24018,0.8598,0.04748,0.40852,1.40435,0.35785,0.25574,1.40246,0.02263,0.56178,1.14928,0.48305,0.36392,1.15686,0.23016,0.66429,1.2439,0.40569,0.57246,1.23258
186,0.22423,0.37213,1.46276,0.1438,0.58521,0.07972,0.16746,0.07955,0.07846,0.11238,0.52748,0.47796,0.23728,0.18458,0.45792,0.09723,0.33477,0.84801,0.25551,0.24129,0.85973,0.04793,0.41085,1.40431,0.35818,0.25789,1.40266,0.02326,0.5674,1.15124,0.4842,0.3691,1.15884,0.23177,0.66595,1.24787,0.40502,0.57607,1.23698
187,0.22431,0.37453,1.46191,0.14369,0.58518,0.07979,0.16736,0.07957,0.07844,0.11174,0.52924,0.47825,0.23663,0.18511,0.45786,0.09601,0.33602,0.84801,0.25429,0.24253,0.85959,0.04872,0.41373,1.40428,0.35831,0.26042,1.40284,0.02389,0.5733,1.15311,0.48569,0.3742,1.16092,0.23329,0.66731,1.25233,0.40471,0.57979,1.24083
188,0.22446,0.3771,1.46093,0.14356,0.58524,0.07979,0.16734,0.0794,0.07845,0.11095,0.53114,0.47845,0.23591,0.18581,0.45776,0.09489,0.33734,0.84789,0.25317,0.24384,0.85942,0.04972,0.4171,1.40411,0.35823,0.26314,1.40302,0.02437,0.57939,1.15474,0.487,0.37919,1.16291,0.2343,0.66876,1.25707,0.40473,0.5836,1.24451
189,0.22485,0.37966,1.46003,0.1436,0.58546,0.07974,0.16739,0.07917,0.07852,0.10997,0.5332,0.47856,0.23517,0.18664,0.45766,0.09382,0.33882,0.8477,0.25203,0.24521,0.85927,0.05057,0.42055,1.40358,0.3581,0.26573,1.40323,0.02455,0.58548,1.15601,0.48772,0.38418,1.16476,0.23448,0.67088,1.26167,0.40454,0.58749,1.24814
190,0.22544,0.38209,1.45936,0.14388,0.58578,0.07969,0.16743,0.07898,0.07856,0.1089,0.53542,0.47864,0.2345,0.18748,0.45753,0.09268,0.3405,0.84749,0.25075,0.24667,0.85907,0.05095,0.42379,1.40266,0.358,0.26814,1.40342,0.02424,0.59145,1.15701,0.48808,0.38929,1.16656,0.23378,0.67392,1.26574,0.40377,0.59146,1.25157
191,0.22611,0.38449,1.45881,0.14427,0.58609,0.07968,0.16741,0.07887,0.07847,0.10786,0.53777,0.47875,0.23381,0.18821,0.45733,0.09145,0.34229,0.84729,0.24935,0.24815,0.85878,0.05085,0.42687,1.40155,0.35798,0.27055,1.40338,0.02342,0.59739,1.15797,0.48872,0.3946,1.16839,0.23251,0.67763,1.26919,0.40267,0.59548,1.25473
192,0.22676,0.38705,1.45818,0.14471,0.58632,0.07967,0.16732,0.07879,0.07826,0.10689,0.54004,0.47886,0.23296,0.18879,0.45706,0.0902,0.34406,0.84712,0.24792,0.24961,0.85841,0.05061,0.43008,1.40053,0.35805,0.27312,1.40302,0.02224,0.60337,1.15901,0.48999,0.40008,1.17027,0.23113,0.68149,1.27212,0.40158,0.59942,1.25776
193,0.22727,0.38998,1.45734,0.14512,0.58653,0.07962,0.16727,0.07869,0.07804,0.10595,0.54211,0.47889,0.23202,0.18936,0.45679,0.08908,0.34582,0.84698,0.24663,0.25105,0.85801,0.05067,0.43362,1.39976,0.35815,0.27581,1.40259,0.0209,0.60925,1.16011,0.49162,0.40543,1.17219,0.22979,0.68522,1.27465,0.40052,0.60306,1.26081
194,0.22751,0.39334,1.45631,0.14532,0.58674,0.07949,0.16734,0.07857,0.07792,0.10503,0.5441,0.47883,0.23124,0.19017,0.45655,0.0881,0.34766,0.84684,0.24552,0.25264,0.85767,0.05128,0.43752,1.3993,0.35824,0.27858,1.40247,0.01937,0.61489,1.16121,0.49319,0.41039,1.17418,0.22835,0.68892,1.27688,0.39944,0.60628,1.26389
195,0.22749,0.39709,1.45516,0.1452,0.58688,0.07929,0.1674,0.07862,0.07798,0.10421,0.5463,0.47879,0.2308,0.19133,0.45637,0.08714,0.34966,0.84668,0.24452,0.25456,0.85739,0.05221,0.44155,1.39902,0.35828,0.2816,1.40274,0.01756,0.62036,1.16239,0.49462,0.41507,1.17626,0.22659,0.69291,1.27887,0.39846,0.60938,1.26684
196,0.22747,0.40111,1.45394,0.14491,0.58695,0.07913,0.16724,0.07898,0.07819,0.10358,0.54884,0.47883,0.23066,0.19272,0.45626,0.08609,0.35184,0.84651,0.2435,0.25679,0.85717,0.05275,0.44537,1.39877,0.35827,0.28504,1.40327,0.01527,0.62569,1.16373,0.4961,0.41982,1.17847,0.22438,0.6972,1.28072,0.39774,0.61282,1.26949
197,0.22777,0.40523,1.45267,0.14473,0.58714,0.07908,0.16688,0.07956,0.07846,0.10314,0.55168,0.479,0.23066,0.19423,0.45619,0.08497,0.35411,0.84634,0.24241,0.25912,0.857,0.0524,0.44875,1.3985,0.35826,0.28879,1.40386,0.01236,0.63066,1.16511,0.49781,0.42497,1.18096,0.22154,0.70146,1.2824,0.39731,0.61687,1.27196
198,0.22848,0.4093,1.4514,0.14482,0.58766,0.07914,0.16661,0.08005,0.07877,0.10275,0.55462,0.47922,0.2307,0.19584,0.45611,0.08384,0.35645,0.8462,0.2412,0.26131,0.85686,0.05157,0.45183,1.39817,0.35829,0.2926,1.4043,0.00896,0.63516,1.16635,0.49986,0.43074,1.1839,0.21815,0.7055,1.28389,0.39708,0.62158,1.2746
199,0.22939,0.41327,1.45022,0.14508,0.58841,0.0792,0.16665,0.08026,0.07915,0.10227,0.55741,0.47936,0.23078,0.19755,0.45601,0.08271,0.35883,0.84609,0.23982,0.26328,0.85676,0.05115,0.4549,1.39777,0.35841,0.29629,1.40436,0.00554,0.63947,1.16752,0.50216,0.43736,1.18725,0.21471,0.70951,1.28529,0.39687,0.62698,1.27763
200,0.23017,0.41715,1.44913,0.14537,0.58909,0.07916,0.16692,0.08037,0.07956,0.10174,0.55995,0.47937,0.23088,0.19933,0.45593,0.08153,0.36122,0.84598,0.23832,0.26517,0.85669,0.05155,0.45811,1.39746,0.35856,0.29996,1.40402,0.00238,0.64391,1.16894,0.5043,0.44475,1.19072,0.21162,0.71366,1.28675,0.39653,0.63304,1.28095
201,0.23073,0.42094,1.44807,0.14565,0.58952,0.07902,0.16715,0.0807,0.07998,0.10122,0.56236,0.47928,0.23104,0.20122,0.45586,0.08028,0.3636,0.84583,0.23685,0.26719,0.85663,0.05226,0.46131,1.39744,0.35865,0.30389,1.40352,-0.00099,0.64838,1.17087,0.50583,0.45255,1.19391,0.20861,0.7178,1.28826,0.39596,0.63962,1.28415
202,0.23116,0.42467,1.44701,0.14594,0.58982,0.07882,0.16726,0.08132,0.08035,0.10078,0.56485,0.47914,0.23127,0.20325,0.45576,0.079,0.366,0.84559,0.23548,0.26946,0.85651,0.05238,0.46424,1.39769,0.35865,0.30837,1.40303,-0.00517,0.65266,1.1733,0.50673,0.46063,1.19665,0.20501,0.72177,1.28982,0.39494,0.64651,1.28699
203,0.23143,0.4284,1.44599,0.14623,0.59022,0.07858,0.1674,0.08198,0.08068,0.10043,0.56753,0.47896,0.23146,0.20544,0.45558,0.07767,0.36848,0.84525,0.23413,0.27192,0.8563,0.05156,0.46692,1.39791,0.3586,0.31346,1.40245,-0.01018,0.65689,1.17595,0.50739,0.46916,1.19918,0.20053,0.72578,1.29165,0.39319,0.65355,1.28957
204,0.2313,0.4322,1.44511,0.14651,0.59076,0.07834,0.16763,0.0824,0.08096,0.10012,0.57034,0.47878,0.23142,0.20768,0.4553,0.07627,0.37102,0.84485,0.23274,0.27449,0.85597,0.05027,0.46965,1.3978,0.35849,0.31889,1.40186,-0.01554,0.66127,1.17844,0.50817,0.47803,1.20193,0.19522,0.73015,1.29405,0.39066,0.66042,1.29213
205,0.23073,0.43616,1.44442,0.14682,0.59129,0.07814,0.16784,0.08261,0.08118,0.09972,0.57322,0.47861,0.2311,0.20973,0.45499,0.07478,0.37361,0.84445,0.23137,0.27726,0.85554,0.04908,0.47263,1.39729,0.35829,0.32432,1.40168,-0.02101,0.66566,1.18051,0.50892,0.48668,1.20509,0.18905,0.735,1.2971,0.3876,0.66685,1.29471
206,0.23,0.44037,1.44381,0.14716,0.59164,0.07799,0.16789,0.08281,0.08139,0.0992,0.5761,0.47846,0.23071,0.21147,0.45475,0.07328,0.37641,0.84418,0.23008,0.28037,0.85507,0.04805,0.47585,1.39647,0.35809,0.3297,1.40214,-0.02677,0.66981,1.18213,0.50924,0.49496,1.20838,0.18197,0.74013,1.30049,0.38415,0.67295,1.29715
207,0.22933,0.44489,1.44317,0.14744,0.59176,0.07782,0.16776,0.08321,0.08173,0.09869,0.57893,0.4783,0.23051,0.21303,0.45469,0.07184,0.37961,0.84416,0.22883,0.28386,0.85467,0.04689,0.47921,1.3955,0.35795,0.33528,1.40291,-0.03296,0.67378,1.18353,0.50892,0.50328,1.21138,0.17433,0.74526,1.30373,0.38016,0.6791,1.29924
208,0.22866,0.44966,1.4425,0.14767,0.59177,0.07769,0.16748,0.08378,0.08227,0.09826,0.58169,0.47816,0.23054,0.21471,0.4548,0.07046,0.38312,0.84436,0.22761,0.28758,0.8544,0.04552,0.48258,1.39461,0.35775,0.34129,1.40349,-0.0394,0.6777,1.18513,0.50815,0.51216,1.21406,0.16686,0.75017,1.30652,0.37559,0.68563,1.30093
209,0.22782,0.45452,1.44186,0.14792,0.59184,0.07766,0.16723,0.08442,0.08303,0.09799,0.58446,0.47813,0.23067,0.21671,0.45501,0.06917,0.38664,0.84465,0.22647,0.29129,0.85428,0.04411,0.48571,1.39419,0.35736,0.34763,1.40374,-0.04588,0.6813,1.18728,0.50732,0.52172,1.21691,0.15993,0.7548,1.3088,0.37056,0.69261,1.30238
210,0.22671,0.45934,1.44141,0.14819,0.59201,0.07772,0.16719,0.08505,0.08393,0.09787,0.58734,0.47818,0.23082,0.21909,0.45525,0.06806,0.38998,0.84488,0.22554,0.29492,0.85428,0.04272,0.48838,1.39451,0.3569,0.35403,1.4039,-0.05257,0.68405,1.19006,0.5066,0.5318,1.22036,0.15314,0.75916,1.31077,0.36526,0.69988,1.30393
211,0.22536,0.46416,1.44121,0.14839,0.59227,0.0778,0.16746,0.08561,0.08492,0.09784,0.59032,0.47825,0.23103,0.22167,0.45552,0.06724,0.39327,0.84505,0.22491,0.2985,0.85434,0.04125,0.4906,1.39548,0.35647,0.36049,1.40436,-0.05989,0.68566,1.19328,0.50576,0.54207,1.22425,0.14557,0.76318,1.31288,0.3598,0.70723,1.30566
212,0.22382,0.46913,1.44125,0.14854,0.5926,0.07785,0.16797,0.08608,0.086,0.09778,0.59332,0.47828,0.23145,0.22425,0.45583,0.06673,0.39668,0.84526,0.22453,0.30213,0.85444,0.03969,0.49258,1.39679,0.35589,0.36732,1.40514,-0.068,0.6863,1.19669,0.5045,0.55232,1.22797,0.1367,0.7667,1.31568,0.35435,0.71474,1.30722
213,0.22209,0.47421,1.4415,0.14865,0.59298,0.07794,0.16859,0.08654,0.08719,0.09768,0.59624,0.47833,0.23223,0.22693,0.45616,0.06635,0.40017,0.84558,0.2243,0.30584,0.85454,0.03817,0.49447,1.39813,0.35506,0.37462,1.40595,-0.07664,0.68645,1.20032,0.50267,0.56272,1.23121,0.12693,0.76962,1.31936,0.34881,0.72275,1.30819
214,0.22029,0.47929,1.44191,0.14867,0.59338,0.07808,0.16924,0.08713,0.08857,0.09771,0.59895,0.47845,0.23342,0.22999,0.4565,0.06599,0.40354,0.84603,0.2242,0.30962,0.85471,0.03684,0.49613,1.39943,0.3543,0.38206,1.40659,-0.08552,0.68639,1.2045,0.50022,0.57357,1.23416,0.11693,0.77215,1.32361,0.34286,0.73136,1.30865
215,0.21864,0.48429,1.44241,0.1486,0.59377,0.07827,0.1699,0.08807,0.09026,0.09806,0.60138,0.47866,0.23512,0.23364,0.45694,0.06576,0.40668,0.84656,0.2244,0.31347,0.85507,0.03569,0.4973,1.40085,0.35394,0.3892,1.40735,-0.09491,0.68561,1.20941,0.49708,0.58474,1.23714,0.10658,0.77456,1.32782,0.33618,0.74016,1.30902
216,0.21705,0.48929,1.44293,0.14864,0.59416,0.07844,0.1705,0.08951,0.09229,0.09875,0.60369,0.47886,0.23744,0.2378,0.45757,0.06579,0.40975,0.84711,0.225,0.31753,0.85567,0.0345,0.4981,1.40261,0.35382,0.39613,1.40873,-0.10545,0.68326,1.21474,0.49334,0.59583,1.24034,0.09486,0.77689,1.33151,0.32873,0.74858,1.30945
217,0.21502,0.49437,1.44355,0.14897,0.59458,0.07857,0.17102,0.09146,0.09457,0.09954,0.60614,0.479,0.24038,0.24222,0.45838,0.06609,0.41304,0.84763,0.22594,0.32194,0.85642,0.03299,0.49903,1.40465,0.35351,0.40341,1.41094,-0.11743,0.6791,1.21995,0.4893,0.60679,1.24392,0.08101,0.77894,1.33475,0.32065,0.75653,1.30982
218,0.21224,0.49949,1.4444,0.14954,0.59506,0.07874,0.17165,0.09362,0.09699,0.10019,0.60881,0.47911,0.24375,0.24672,0.45929,0.06648,0.4166,0.84819,0.22699,0.3267,0.85719,0.03112,0.50041,1.40667,0.35279,0.41155,1.4136,-0.13033,0.67358,1.2247,0.48538,0.61803,1.24781,0.06542,0.78029,1.33792,0.31253,0.76456,1.30995
219,0.209,0.50447,1.44561,0.14999,0.59552,0.07906,0.17269,0.09558,0.09952,0.10066,0.61155,0.47935,0.24722,0.25126,0.46022,0.06676,0.42026,0.84889,0.22796,0.33161,0.85793,0.02898,0.50209,1.40837,0.35178,0.42083,1.416,-0.14338,0.66732,1.22905,0.48207,0.62996,1.25173,0.04922,0.78075,1.34116,0.30538,0.77361,1.30965
220,0.20562,0.50919,1.44718,0.14987,0.59582,0.07951,0.17435,0.09707,0.10223,0.10113,0.61429,0.47977,0.25067,0.25597,0.46115,0.06688,0.42388,0.84973,0.22882,0.33657,0.85868,0.02634,0.50363,1.40977,0.35059,0.43155,1.41768,-0.15623,0.6608,1.23332,0.47988,0.64293,1.2555,0.03302,0.78062,1.34447,0.29986,0.78419,1.30886
221,0.20206,0.51375,1.44903,0.14914,0.59588,0.07996,0.1765,0.09825,0.10527,0.10182,0.61712,0.48025,0.25441,0.26098,0.46212,0.06694,0.42753,0.85057,0.22963,0.34162,0.85947,0.02271,0.50445,1.4111,0.349,0.44392,1.41888,-0.169,0.65421,1.23793,0.47897,0.65693,1.2594,0.01666,0.78031,1.34819,0.29545,0.79549,1.30767
222,0.19809,0.51828,1.45108,0.14825,0.59581,0.08037,0.17878,0.09956,0.10867,0.10284,0.62009,0.4807,0.25889,0.26633,0.46317,0.06701,0.43133,0.85136,0.23047,0.34691,0.86028,0.01801,0.50421,1.41244,0.34665,0.45719,1.42047,-0.18187,0.64741,1.24301,0.47869,0.67093,1.26369,-0.00023,0.77969,1.35272,0.29103,0.80585,1.30602
223,0.19374,0.52277,1.45326,0.14769,0.59585,0.08074,0.18104,0.10132,0.11237,0.10416,0.62301,0.4811,0.26415,0.2719,0.46435,0.06698,0.43526,0.85214,0.23132,0.35256,0.86111,0.01283,0.50335,1.41357,0.34347,0.46985,1.42315,-0.19484,0.64011,1.24822,0.47805,0.68341,1.26829,-0.01764,0.77822,1.35801,0.28621,0.81437,1.30371
224,0.18914,0.52717,1.45551,0.14766,0.5961,0.08101,0.18369,0.10346,0.11634,0.10546,0.62556,0.48135,0.26999,0.27786,0.46567,0.06678,0.43921,0.85294,0.23214,0.3586,0.86197,0.00779,0.50272,1.41437,0.33989,0.48085,1.42672,-0.20782,0.63198,1.25321,0.47675,0.69381,1.27304,-0.03529,0.77547,1.36354,0.28158,0.82169,1.30071
225,0.1842,0.53144,1.45786,0.14815,0.59648,0.08102,0.18727,0.10575,0.12081,0.1062,0.62758,0.48126,0.27642,0.28471,0.4671,0.06654,0.44306,0.85367,0.23306,0.36488,0.86295,0.00298,0.50281,1.41512,0.33633,0.49024,1.43042,-0.22081,0.62277,1.25799,0.47532,0.7028,1.27812,-0.0532,0.77149,1.36896,0.27814,0.82919,1.29699
226,0.17877,0.53548,1.4604,0.14905,0.59682,0.08067,0.19186,0.10822,0.12609,0.10617,0.62909,0.48072,0.2838,0.29295,0.4686,0.06657,0.44687,0.85426,0.23426,0.3713,0.86409,-0.0018,0.5036,1.41628,0.33267,0.49878,1.43389,-0.23385,0.61222,1.26292,0.47442,0.71107,1.28376,-0.07168,0.76653,1.37436,0.27669,0.83771,1.29241
227,0.17281,0.53934,1.46313,0.15007,0.59704,0.08009,0.19704,0.11117,0.13226,0.10578,0.63036,0.4799,0.29216,0.30263,0.47018,0.06702,0.45078,0.8548,0.23583,0.37786,0.86536,-0.00643,0.50465,1.41789,0.32836,0.50722,1.43738,-0.24661,0.60016,1.26837,0.47419,0.71869,1.29003,-0.09069,0.76061,1.38005,0.27754,0.84725,1.28707
228,0.16648,0.54314,1.4659,0.15082,0.59718,0.07961,0.20251,0.11481,0.13911,0.10556,0.63168,0.47921,0.30091,0.31348,0.47189,0.06779,0.45477,0.85548,0.23774,0.38467,0.86679,-0.01052,0.50511,1.41958,0.32315,0.5157,1.44112,-0.25834,0.58673,1.27435,0.47434,0.72552,1.29683,-0.10944,0.7537,1.38606,0.28025,0.85705,1.28144
229,0.16004,0.5469,1.46867,0.15115,0.59732,0.07954,0.2084,0.11927,0.14641,0.10576,0.63317,0.47901,0.30939,0.32535,0.47386,0.0688,0.45858,0.85644,0.24002,0.39178,0.86855,-0.01399,0.50432,1.42108,0.31737,0.52401,1.44487,-0.26849,0.5725,1.28056,0.47451,0.7317,1.30391,-0.1272,0.746,1.3922,0.28382,0.86611,1.27597
230,0.15362,0.55044,1.4716,0.15123,0.59743,0.07989,0.21494,0.12482,0.15409,0.10615,0.63466,0.47927,0.31757,0.33829,0.47626,0.06997,0.46195,0.85764,0.24268,0.39931,0.87081,-0.01735,0.50243,1.42253,0.31157,0.53202,1.44823,-0.27735,0.55798,1.2866,0.47461,0.73752,1.31081,-0.14404,0.73762,1.39835,0.28743,0.87374,1.27058
231,0.14725,0.55357,1.47476,0.15131,0.59754,0.08033,0.22224,0.13174,0.16228,0.10628,0.63582,0.47961,0.3259,0.35255,0.47912,0.07115,0.46493,0.8589,0.24552,0.4074,0.8735,-0.02136,0.50023,1.42412,0.30612,0.53983,1.45108,-0.2857,0.54324,1.29206,0.47483,0.74299,1.31704,-0.16053,0.72819,1.40457,0.29118,0.87998,1.26493
232,0.14106,0.55623,1.47801,0.15149,0.59764,0.0805,0.23028,0.14017,0.17106,0.10597,0.63659,0.47966,0.3347,0.36834,0.4824,0.07223,0.46783,0.86004,0.24825,0.4161,0.87641,-0.02638,0.49826,1.4258,0.30102,0.54735,1.45363,-0.29392,0.52842,1.29666,0.47516,0.74771,1.32236,-0.17674,0.71755,1.41079,0.29581,0.88557,1.25882
233,0.13529,0.55854,1.48102,0.15172,0.59772,0.08041,0.23908,0.15016,0.18049,0.10544,0.63723,0.47943,0.34419,0.38567,0.48608,0.07336,0.47093,0.86103,0.25086,0.42529,0.87942,-0.03201,0.49647,1.42741,0.29601,0.55424,1.45612,-0.3018,0.51413,1.30066,0.47536,0.75123,1.32679,-0.19176,0.70635,1.41674,0.30214,0.89142,1.25229
234,0.13002,0.56065,1.48361,0.15191,0.59783,0.08023,0.24858,0.16165,0.19081,0.10496,0.63811,0.47909,0.3546,0.4045,0.49027,0.07482,0.47439,0.86196,0.2535,0.43469,0.88254,-0.03739,0.49441,1.4289,0.29092,0.56031,1.45855,-0.30894,0.50096,1.30487,0.47537,0.7533,1.33035,-0.2047,0.69553,1.42236,0.3109,0.898,1.24538
235,0.12493,0.56263,1.48585,0.15201,0.59802,0.08007,0.2586,0.1746,0.20254,0.10451,0.6394,0.47876,0.366,0.42504,0.49517,0.07655,0.47833,0.86292,0.2561,0.44414,0.88576,-0.04205,0.49184,1.43053,0.28578,0.56586,1.46093,-0.31512,0.4888,1.30974,0.47552,0.75379,1.33295,-0.21562,0.68545,1.42787,0.32244,0.90486,1.23832
236,0.11958,0.56452,1.4879,0.15203,0.59826,0.07992,0.26895,0.18887,0.21621,0.10384,0.64076,0.47841,0.37785,0.44764,0.50095,0.07825,0.48268,0.86397,0.25839,0.45363,0.88914,-0.04603,0.48896,1.43265,0.28063,0.57132,1.4633,-0.32018,0.4771,1.31489,0.47601,0.75273,1.3344,-0.2255,0.67589,1.43341,0.33611,0.91108,1.23164
237,0.11378,0.56624,1.48991,0.15219,0.59848,0.07977,0.27962,0.20426,0.23208,0.10277,0.64156,0.47804,0.38918,0.47254,0.50761,0.07976,0.48692,0.86516,0.26031,0.46306,0.89271,-0.04946,0.48598,1.4353,0.27536,0.57667,1.46548,-0.32394,0.46531,1.31954,0.47635,0.75039,1.33462,-0.23515,0.66629,1.43892,0.35028,0.91594,1.2255
238,0.10782,0.56757,1.49197,0.15274,0.59866,0.07972,0.29069,0.22071,0.24997,0.1014,0.64151,0.47778,0.39926,0.49968,0.51507,0.08122,0.49039,0.86645,0.26203,0.47204,0.89639,-0.05248,0.48274,1.43811,0.26976,0.58154,1.46698,-0.32653,0.45332,1.32325,0.47587,0.74717,1.33362,-0.24461,0.65621,1.44429,0.36385,0.9192,1.21932
239,0.10217,0.56846,1.49413,0.15358,0.59895,0.08002,0.3023,0.23838,0.26953,0.10003,0.64129,0.47784,0.40793,0.5286,0.52352,0.08256,0.49301,0.86772,0.26344,0.48029,0.90007,-0.0554,0.47915,1.44072,0.26386,0.58574,1.46755,-0.32859,0.44175,1.32612,0.47464,0.74316,1.33157,-0.25345,0.64587,1.44948,0.37742,0.92092,1.21258
240,0.09708,0.56912,1.49631,0.15406,0.5995,0.08075,0.31467,0.25756,0.29042,0.0989,0.64201,0.47833,0.41543,0.55863,0.53353,0.08343,0.49534,0.86891,0.26413,0.48795,0.90382,-0.05855,0.47557,1.443,0.2582,0.58949,1.4675,-0.33077,0.43161,1.32842,0.47337,0.73821,1.32863,-0.26133,0.63612,1.45445,0.39215,0.9211,1.20549
241,0.09249,0.5697,1.49834,0.15365,0.60025,0.08174,0.32784,0.27836,0.31245,0.09793,0.64401,0.47911,0.42228,0.58917,0.54562,0.08368,0.49799,0.86997,0.26394,0.49535,0.90773,-0.06192,0.47247,1.44506,0.25353,0.59286,1.46732,-0.33322,0.4235,1.33032,0.47252,0.73242,1.32495,-0.26811,0.62774,1.45906,0.40818,0.91984,1.19869
242,0.08811,0.56994,1.50019,0.15257,0.60085,0.08268,0.34165,0.30043,0.33569,0.09694,0.64656,0.47984,0.4291,0.61972,0.55997,0.08373,0.50093,0.87089,0.26331,0.50256,0.91181,-0.0652,0.46981,1.44693,0.25008,0.5955,1.46701,-0.33574,0.41733,1.33194,0.47193,0.72617,1.32069,-0.27356,0.62087,1.46322,0.42469,0.9173,1.19244
243,0.08377,0.56949,1.50183,0.15147,0.60108,0.08331,0.35599,0.32312,0.36025,0.09587,0.64869,0.48026,0.43615,0.6499,0.57631,0.08423,0.50378,0.87162,0.26295,0.50948,0.91585,-0.06814,0.46721,1.44848,0.24733,0.59704,1.46611,-0.33824,0.41277,1.33338,0.47123,0.71964,1.316,-0.27743,0.61516,1.46706,0.44112,0.91333,1.18644
244,0.0796,0.56848,1.50307,0.15081,0.60103,0.08359,0.37112,0.34629,0.38596,0.09471,0.65019,0.48027,0.44296,0.6801,0.59407,0.08529,0.5065,0.87215,0.26307,0.51625,0.91933,-0.0708,0.46438,1.44962,0.24468,0.59742,1.46441,-0.34086,0.40955,1.33461,0.47021,0.71261,1.31088,-0.27988,0.61024,1.47075,0.45756,0.90763,1.18044
245,0.0759,0.5674,1.50366,0.15061,0.60093,0.0836,0.38759,0.37098,0.41235,0.09339,0.65156,0.47994,0.4484,0.71147,0.613,0.08645,0.50942,0.87244,0.26335,0.52334,0.92181,-0.07345,0.4613,1.4504,0.24203,0.59694,1.46216,-0.34377,0.40739,1.33557,0.46891,0.70482,1.30537,-0.28179,0.60597,1.47433,0.47407,0.89992,1.17453
246,0.07283,0.56655,1.50357,0.15072,0.60103,0.08348,0.40575,0.39867,0.43877,0.09191,0.65319,0.47938,0.45128,0.74478,0.63379,0.08735,0.5127,0.8725,0.26338,0.53094,0.92356,-0.07617,0.45806,1.45093,0.23944,0.59596,1.45972,-0.34692,0.40589,1.3363,0.46753,0.69639,1.29976,-0.28398,0.60232,1.47765,0.49031,0.89012,1.16878
247,0.07034,0.5658,1.50306,0.15112,0.60142,0.08332,0.42526,0.42974,0.46459,0.09045,0.65505,0.47875,0.45104,0.77909,0.65744,0.08809,0.5161,0.87244,0.26304,0.53862,0.92545,-0.07879,0.45494,1.45132,0.23677,0.59475,1.45719,-0.35007,0.40483,1.33703,0.46616,0.68764,1.29456,-0.28635,0.59941,1.48059,0.50573,0.87836,1.16316
248,0.06838,0.56492,1.50243,0.15182,0.60198,0.08322,0.44523,0.46319,0.48953,0.0892,0.65687,0.47817,0.44797,0.81248,0.68415,0.08899,0.51931,0.87236,0.26251,0.54587,0.92812,-0.0811,0.45228,1.45166,0.23402,0.59342,1.4546,-0.35302,0.40451,1.3379,0.46491,0.67885,1.29001,-0.28816,0.59745,1.48314,0.52002,0.86495,1.15758
249,0.06688,0.56379,1.50179,0.15267,0.60251,0.08317,0.46459,0.49774,0.51396,0.08813,0.65847,0.47766,0.44262,0.84374,0.7132,0.09025,0.52234,0.87234,0.26195,0.55281,0.93164,-0.08311,0.45039,1.45206,0.23167,0.592,1.45209,-0.35575,0.40538,1.33888,0.46402,0.67012,1.28593,-0.28892,0.59664,1.48545,0.53327,0.85021,1.15183
250,0.06561,0.56251,1.50107,0.15345,0.60282,0.08313,0.48292,0.53288,0.53863,0.08702,0.65987,0.47715,0.43562,0.87278,0.74388,0.09196,0.52553,0.87241,0.2614,0.56004,0.93584,-0.08501,0.4494,1.45243,0.2302,0.59059,1.44972,-0.35841,0.4077,1.33983,0.46374,0.66153,1.28201,-0.28871,0.59698,1.48761,0.54577,0.83443,1.14569
251,0.06435,0.56119,1.50013,0.1539,0.60287,0.08311,0.50067,0.56893,0.56374,0.08568,0.66128,0.47663,0.42766,0.89986,0.77599,0.09398,0.52921,0.8726,0.26083,0.56794,0.9403,-0.08691,0.4491,1.45247,0.22957,0.58932,1.44737,-0.36127,0.41129,1.34082,0.46408,0.65304,1.27812,-0.28777,0.59834,1.48962,0.55763,0.81784,1.1392
252,0.06324,0.55983,1.49887,0.15396,0.60272,0.08327,0.51847,0.60653,0.58874,0.08418,0.66292,0.47625,0.41908,0.92477,0.80952,0.09586,0.53337,0.87296,0.26008,0.57621,0.94453,-0.08869,0.44885,1.45209,0.22931,0.58814,1.44497,-0.36432,0.41578,1.34208,0.46475,0.64438,1.27436,-0.28635,0.60058,1.4914,0.56875,0.80031,1.13267
253,0.06252,0.55833,1.49734,0.15383,0.60249,0.08374,0.53652,0.64638,0.6131,0.08276,0.66487,0.47615,0.40934,0.94676,0.84438,0.09712,0.53757,0.8735,0.25887,0.58406,0.94834,-0.09013,0.44786,1.45156,0.22905,0.58676,1.4427,-0.36725,0.42084,1.34368,0.46541,0.63521,1.27099,-0.28479,0.60373,1.49294,0.57904,0.7816,1.12653
254,0.06215,0.55674,1.49569,0.15372,0.60237,0.08441,0.55453,0.68945,0.63732,0.08158,0.66692,0.47626,0.39726,0.96522,0.88044,0.09749,0.54138,0.87412,0.25692,0.59081,0.952,-0.09114,0.44595,1.45108,0.22876,0.58488,1.44075,-0.36971,0.42643,1.34533,0.46588,0.62561,1.26808,-0.28332,0.60778,1.49425,0.58853,0.76184,1.12108
255,0.06178,0.55539,1.49395,0.15369,0.60241,0.08496,0.57158,0.73658,0.66297,0.08054,0.66886,0.47631,0.38227,0.98014,0.9174,0.09713,0.54492,0.87464,0.25419,0.59657,0.95581,-0.09182,0.44376,1.45037,0.22864,0.58255,1.43896,-0.37162,0.43264,1.34667,0.46625,0.61603,1.26542,-0.28178,0.61259,1.49526,0.59713,0.74182,1.11623
256,0.06113,0.55447,1.49206,0.15361,0.60247,0.0852,0.58612,0.78711,0.69113,0.07945,0.67061,0.47607,0.36553,0.9918,0.95446,0.0966,0.54873,0.87501,0.25111,0.60208,0.95992,-0.09236,0.442,1.44909,0.22884,0.58027,1.43691,-0.3732,0.43954,1.34767,0.46681,0.60687,1.26266,-0.27985,0.61795,1.49593,0.6047,0.72243,1.11152
257,0.06038,0.55382,1.4899,0.15334,0.60251,0.08517,0.59725,0.83912,0.72134,0.07817,0.6722,0.47557,0.34961,1.00043,0.99069,0.09667,0.55355,0.87542,0.24844,0.6079,0.96452,-0.09292,0.44082,1.44737,0.2294,0.57845,1.43439,-0.37462,0.4469,1.34852,0.46773,0.5982,1.25972,-0.27753,0.62364,1.49639,0.61128,0.70384,1.10662
258,0.06006,0.55316,1.48751,0.15288,0.60256,0.08503,0.60557,0.89139,0.75273,0.0767,0.67355,0.475,0.33684,1.00622,1.02566,0.09771,0.55992,0.87619,0.24668,0.61408,0.97,-0.09376,0.44016,1.44587,0.23011,0.57673,1.43169,-0.37599,0.45436,1.34937,0.46886,0.58979,1.25696,-0.27528,0.62937,1.49687,0.61697,0.68525,1.10154
259,0.06025,0.55232,1.48507,0.15245,0.60261,0.08495,0.61169,0.94404,0.78548,0.07532,0.6745,0.47457,0.32771,1.00943,1.05929,0.09925,0.56769,0.87747,0.24541,0.62038,0.97639,-0.09513,0.44018,1.44503,0.23053,0.5744,1.42923,-0.37747,0.46182,1.35027,0.46974,0.58128,1.25479,-0.27346,0.63506,1.49757,0.62175,0.66562,1.0967
260,0.06059,0.55138,1.48293,0.15234,0.60264,0.08501,0.61484,0.99746,0.82046,0.07445,0.67515,0.47437,0.32086,1.01036,1.09121,0.10019,0.57586,0.87907,0.24366,0.62657,0.98285,-0.09684,0.44101,1.44473,0.23048,0.5714,1.42718,-0.379,0.46971,1.35131,0.47014,0.57254,1.25322,-0.27177,0.64113,1.49844,0.62568,0.64495,1.09268
261,0.06092,0.55047,1.48135,0.15243,0.60281,0.08512,0.61363,1.05183,0.85854,0.07422,0.6759,0.4743,0.31467,1.0094,1.12068,0.09983,0.58328,0.88058,0.2411,0.63259,0.988,-0.09809,0.44251,1.44444,0.23035,0.56866,1.42537,-0.37991,0.47847,1.35254,0.47037,0.5638,1.25198,-0.26949,0.6482,1.49926,0.62913,0.62445,1.08973
262,0.06144,0.54974,1.48032,0.15246,0.60318,0.08512,0.60731,1.10705,0.9006,0.07445,0.67701,0.4742,0.30851,1.00734,1.14691,0.09852,0.58955,0.88172,0.23832,0.63885,0.99104,-0.09824,0.44453,1.44382,0.23072,0.56703,1.42358,-0.3796,0.48798,1.35373,0.47097,0.55518,1.25084,-0.26627,0.65645,1.49969,0.63236,0.60523,1.08756
263,0.06205,0.5493,1.47952,0.1524,0.60361,0.08504,0.59594,1.16182,0.94741,0.07501,0.67837,0.47406,0.30254,1.0053,1.16948,0.09729,0.59502,0.88255,0.23606,0.64576,0.99253,-0.09756,0.447,1.44295,0.23173,0.56636,1.42185,-0.37823,0.49769,1.3545,0.47194,0.54658,1.24979,-0.26254,0.66527,1.49963,0.63504,0.58742,1.08565
264,0.06229,0.54925,1.47866,0.15241,0.60405,0.08498,0.57974,1.21361,0.99866,0.07593,0.67978,0.474,0.29699,1.00402,1.18843,0.09689,0.60002,0.88328,0.23449,0.6531,0.99361,-0.09696,0.44968,1.44206,0.233,0.56583,1.42038,-0.37662,0.50727,1.35464,0.4728,0.53811,1.24884,-0.25903,0.6739,1.49933,0.63668,0.5707,1.08364
265,0.06196,0.54955,1.47766,0.15249,0.60454,0.08498,0.55898,1.25964,1.0527,0.0772,0.68103,0.47408,0.29209,1.00315,1.20397,0.09742,0.60438,0.88398,0.23357,0.65979,0.99497,-0.09708,0.45202,1.44129,0.23408,0.56504,1.41932,-0.37531,0.51679,1.35434,0.47316,0.5303,1.24807,-0.25602,0.68221,1.49903,0.63717,0.55494,1.08162
266,0.06126,0.54997,1.47677,0.1525,0.60503,0.08502,0.53405,1.29747,1.10694,0.07862,0.68195,0.47431,0.2879,1.00189,1.2162,0.09872,0.60777,0.88467,0.23356,0.66453,0.99658,-0.09788,0.45348,1.4408,0.23474,0.56435,1.41869,-0.37412,0.52646,1.35399,0.47301,0.52353,1.24763,-0.25331,0.69068,1.49878,0.63683,0.54023,1.08002
267,0.06039,0.5504,1.47625,0.15238,0.60541,0.08525,0.5059,1.32531,1.1583,0.07996,0.68259,0.47476,0.28342,0.99995,1.2257,0.10059,0.6102,0.88541,0.2347,0.667,0.99817,-0.09896,0.45408,1.44079,0.23509,0.56429,1.41845,-0.3725,0.53632,1.35373,0.47249,0.51755,1.2477,-0.25047,0.69968,1.49847,0.63601,0.52658,1.07921
268,0.05957,0.55112,1.47609,0.15229,0.60566,0.0857,0.47714,1.34272,1.20346,0.0811,0.68321,0.47537,0.27732,0.99767,1.23354,0.10271,0.61198,0.88618,0.23655,0.66812,0.99958,-0.09995,0.45457,1.44123,0.23542,0.5651,1.41856,-0.37021,0.54635,1.35346,0.47183,0.5119,1.24832,-0.24707,0.70917,1.49788,0.63495,0.51387,1.07921
269,0.05916,0.55258,1.47601,0.15244,0.60591,0.08623,0.4525,1.35122,1.23826,0.0821,0.68402,0.47594,0.26977,0.99555,1.24053,0.10481,0.61342,0.88679,0.23825,0.66906,1.00091,-0.10079,0.45614,1.44184,0.23594,0.56673,1.41902,-0.36762,0.55656,1.35307,0.47109,0.50643,1.24942,-0.24294,0.71867,1.49696,0.63368,0.50187,1.07985
270,0.05935,0.5549,1.47582,0.15292,0.60636,0.08658,0.43694,1.35339,1.25899,0.08312,0.685,0.47628,0.26263,0.99372,1.2469,0.10696,0.61461,0.8871,0.23952,0.67031,1.00222,-0.10152,0.45944,1.44222,0.23661,0.56893,1.41995,-0.36535,0.56685,1.35265,0.47015,0.50133,1.25086,-0.23849,0.72778,1.49596,0.63207,0.4905,1.08094
271,0.05992,0.55772,1.47565,0.1536,0.60693,0.08665,0.43244,1.35108,1.26581,0.08425,0.68594,0.47636,0.25748,0.99175,1.25288,0.10931,0.6155,0.8871,0.24075,0.67176,1.00323,-0.1018,0.46411,1.4421,0.23734,0.57125,1.42144,-0.36335,0.57677,1.35232,0.46897,0.49689,1.25256,-0.23434,0.73648,1.49508,0.63008,0.4799,1.08237
272,0.06059,0.56051,1.47566,0.15432,0.6074,0.08657,0.43609,1.34532,1.26337,0.08532,0.68664,0.47629,0.25417,0.98926,1.25851,0.1116,0.61602,0.88693,0.24221,0.67332,1.00348,-0.10104,0.4689,1.44138,0.23806,0.57335,1.42336,-0.36091,0.58572,1.35201,0.46785,0.49311,1.25467,-0.23071,0.74496,1.4942,0.62788,0.4701,1.08417
273,0.0612,0.56304,1.47569,0.15499,0.60778,0.08649,0.44206,1.33792,1.25715,0.08613,0.6871,0.47622,0.25105,0.98667,1.26336,0.11328,0.61619,0.88675,0.24358,0.67508,1.00286,-0.09926,0.47271,1.44024,0.23871,0.57513,1.42544,-0.35755,0.59345,1.35151,0.46705,0.48962,1.25737,-0.22732,0.7531,1.49321,0.62577,0.46096,1.0865
274,0.06163,0.56541,1.47559,0.15571,0.60813,0.0865,0.44659,1.33067,1.24981,0.08681,0.68738,0.47623,0.24658,0.98484,1.26691,0.11422,0.61619,0.8867,0.24448,0.67706,1.00182,-0.09715,0.47551,1.43915,0.23921,0.57668,1.42747,-0.35359,0.60038,1.35073,0.46643,0.48613,1.26053,-0.22372,0.76065,1.49208,0.62385,0.45245,1.08937
275,0.06181,0.56785,1.47539,0.15659,0.60839,0.0866,0.45046,1.32331,1.24054,0.08778,0.68761,0.47635,0.24064,0.9841,1.26902,0.1149,0.61611,0.88679,0.24507,0.67895,1.00095,-0.09537,0.47833,1.43859,0.2395,0.57804,1.42935,-0.34968,0.60717,1.34977,0.46578,0.48266,1.26383,-0.21966,0.76761,1.49077,0.62203,0.44482,1.09247
276,0.06193,0.57054,1.47519,0.1574,0.60847,0.08674,0.45618,1.31417,1.22734,0.08925,0.68799,0.47655,0.23439,0.98417,1.26992,0.11596,0.61588,0.8869,0.24578,0.68031,1.00058,-0.09413,0.48196,1.43861,0.2396,0.5792,1.43114,-0.34627,0.61423,1.34863,0.46508,0.47948,1.26708,-0.21531,0.77419,1.48932,0.62025,0.43828,1.09552
277,0.06228,0.57354,1.47492,0.15789,0.60842,0.08684,0.46432,1.3026,1.20939,0.09102,0.68871,0.47671,0.22936,0.98476,1.26994,0.11764,0.6156,0.88689,0.24676,0.681,1.00082,-0.09343,0.48619,1.43867,0.23964,0.58031,1.43289,-0.3434,0.62157,1.34727,0.46443,0.47665,1.27033,-0.21109,0.78049,1.48788,0.61855,0.4327,1.09851
278,0.06314,0.57674,1.47463,0.15814,0.60831,0.08681,0.47265,1.28973,1.18755,0.09288,0.68975,0.47672,0.22629,0.98563,1.26956,0.11961,0.61555,0.8867,0.2478,0.68114,1.00156,-0.09319,0.49036,1.43822,0.23981,0.58167,1.43463,-0.34091,0.62902,1.34565,0.46389,0.47402,1.2737,-0.20746,0.78664,1.48663,0.61709,0.42789,1.10163
279,0.06458,0.58003,1.47452,0.15838,0.60823,0.08667,0.47785,1.27737,1.16307,0.09482,0.69094,0.47659,0.22484,0.98641,1.26901,0.12135,0.61573,0.8864,0.24873,0.68087,1.00241,-0.09332,0.49416,1.43733,0.24021,0.58348,1.43625,-0.33868,0.63632,1.34376,0.46349,0.4714,1.27724,-0.20467,0.79272,1.48558,0.61607,0.42393,1.10497
280,0.06644,0.58328,1.47474,0.15872,0.60815,0.08648,0.47833,1.26633,1.13641,0.09697,0.69215,0.47642,0.2242,0.98696,1.2678,0.12262,0.61585,0.88609,0.24973,0.6801,1.00288,-0.09378,0.49774,1.43661,0.24078,0.58545,1.43757,-0.33663,0.64322,1.34161,0.4633,0.46863,1.28094,-0.20266,0.79866,1.4845,0.6156,0.42103,1.10846
281,0.06839,0.58628,1.47541,0.15918,0.60801,0.08636,0.47532,1.25575,1.10738,0.09929,0.69315,0.47634,0.22381,0.98776,1.26492,0.12362,0.61572,0.88587,0.25127,0.67867,1.00279,-0.09445,0.50129,1.43657,0.24142,0.58692,1.43868,-0.33472,0.64954,1.33933,0.46343,0.46569,1.28467,-0.201,0.80431,1.48319,0.61577,0.41921,1.11193
282,0.07003,0.58866,1.47659,0.15982,0.60778,0.08634,0.47144,1.24426,1.07635,0.10148,0.69368,0.47638,0.22356,0.98961,1.25966,0.12491,0.61537,0.8858,0.25365,0.67673,1.00236,-0.09491,0.50501,1.43723,0.24216,0.58749,1.43987,-0.33288,0.65513,1.33721,0.46386,0.46279,1.28822,-0.19938,0.80958,1.48162,0.61654,0.41842,1.11522
283,0.07099,0.5904,1.47821,0.16058,0.60761,0.08631,0.46872,1.2315,1.04468,0.10331,0.69365,0.47648,0.22382,0.99292,1.25205,0.12681,0.61478,0.88579,0.25677,0.67471,1.00174,-0.09477,0.50909,1.43834,0.24295,0.58738,1.44127,-0.33114,0.65977,1.33544,0.4645,0.46024,1.29143,-0.19795,0.81443,1.4799,0.61778,0.41868,1.11827
284,0.07112,0.5921,1.47987,0.1614,0.60767,0.08617,0.4678,1.2179,1.01331,0.10478,0.69321,0.47656,0.22536,0.99748,1.2425,0.12905,0.61376,0.8857,0.2601,0.67282,1.00086,-0.09401,0.51346,1.43954,0.24364,0.58707,1.44261,-0.32977,0.66329,1.33403,0.46525,0.45818,1.29438,-0.19705,0.81871,1.4781,0.61925,0.4199,1.12109
285,0.07069,0.59435,1.4811,0.16224,0.60785,0.08591,0.46811,1.20368,0.98179,0.10607,0.69247,0.47655,0.22876,1.0028,1.23131,0.13115,0.61218,0.88549,0.26315,0.67082,0.99978,-0.09309,0.51756,1.44049,0.24414,0.5867,1.44363,-0.32897,0.66575,1.33295,0.46617,0.45643,1.29723,-0.19657,0.82219,1.47623,0.62075,0.42173,1.12371
286,0.07024,0.59699,1.48188,0.16301,0.60786,0.08556,0.4686,1.18827,0.94891,0.10719,0.69137,0.47649,0.23401,1.00873,1.21841,0.13298,0.61022,0.88521,0.26577,0.66851,0.99877,-0.09249,0.52071,1.44105,0.24458,0.58608,1.44442,-0.32861,0.66753,1.33217,0.46726,0.4547,1.30002,-0.19602,0.82493,1.4742,0.62212,0.42378,1.12603
287,0.07009,0.59936,1.4826,0.1635,0.6076,0.08522,0.46882,1.17052,0.91414,0.10798,0.68999,0.47644,0.24053,1.01536,1.20346,0.13458,0.60825,0.88499,0.26808,0.66606,0.99797,-0.09253,0.52297,1.4413,0.24511,0.58518,1.44531,-0.32854,0.66915,1.33131,0.46839,0.45286,1.3027,-0.1951,0.82713,1.4719,0.62327,0.42619,1.12803
288,0.07022,0.60127,1.48349,0.16367,0.60729,0.08503,0.46903,1.14955,0.87818,0.10833,0.68863,0.47649,0.24754,1.02259,1.18594,0.13578,0.60635,0.88488,0.27011,0.66365,0.99712,-0.09323,0.52514,1.44149,0.24568,0.58428,1.44638,-0.32871,0.67093,1.32986,0.46935,0.45108,1.30521,-0.19406,0.82877,1.46946,0.62427,0.42975,1.12984
289,0.0706,0.603,1.48453,0.16369,0.60715,0.08509,0.4693,1.1258,0.84232,0.1084,0.68751,0.47677,0.25418,1.02984,1.16544,0.13608,0.60423,0.88493,0.27165,0.66113,0.99588,-0.0942,0.52783,1.44173,0.24606,0.58356,1.44751,-0.32913,0.67276,1.32785,0.47009,0.44977,1.30747,-0.19323,0.82973,1.4672,0.62531,0.43517,1.13167
290,0.07125,0.60471,1.48568,0.16376,0.60722,0.08548,0.46888,1.10069,0.80739,0.1085,0.68657,0.47736,0.26002,1.03631,1.14224,0.13509,0.60173,0.88528,0.27242,0.65823,0.99424,-0.09486,0.53083,1.44197,0.24621,0.58298,1.4486,-0.32972,0.67404,1.32581,0.47078,0.44926,1.30936,-0.19257,0.82994,1.46515,0.62654,0.4423,1.13357
291,0.07206,0.60641,1.48695,0.16398,0.60735,0.08609,0.46696,1.07515,0.77342,0.10884,0.68554,0.47822,0.26575,1.04167,1.11735,0.13296,0.59902,0.88594,0.27233,0.6552,0.99247,-0.0951,0.53364,1.44228,0.24629,0.58249,1.44957,-0.33059,0.67423,1.3242,0.4716,0.44948,1.31085,-0.19192,0.82932,1.46293,0.62794,0.45047,1.13544
292,0.07282,0.60816,1.4883,0.16426,0.60745,0.08673,0.46356,1.04891,0.74021,0.10927,0.68425,0.47916,0.27279,1.04627,1.09163,0.13033,0.59652,0.88679,0.27161,0.6528,0.99071,-0.09532,0.53629,1.44305,0.24654,0.58205,1.45041,-0.33187,0.67335,1.32295,0.47266,0.4501,1.312,-0.1914,0.82805,1.46031,0.62947,0.45921,1.13725
293,0.07354,0.61002,1.48974,0.16441,0.60763,0.08721,0.45925,1.02152,0.70784,0.10949,0.68262,0.48,0.28172,1.05026,1.06498,0.12773,0.5944,0.88766,0.27071,0.65141,0.98881,-0.09576,0.53927,1.44463,0.24712,0.58149,1.45121,-0.33343,0.67197,1.32187,0.47403,0.45086,1.31284,-0.19141,0.82671,1.45757,0.63112,0.46845,1.139
294,0.07445,0.61185,1.49131,0.16433,0.6079,0.08747,0.45443,0.99309,0.67634,0.10921,0.68065,0.48065,0.29156,1.05304,1.03658,0.12538,0.59243,0.8884,0.27005,0.65051,0.9865,-0.09605,0.54277,1.44676,0.24807,0.58084,1.45204,-0.33492,0.67036,1.32097,0.47576,0.45191,1.31336,-0.1922,0.8258,1.45513,0.63292,0.47822,1.14068
295,0.07583,0.61346,1.49288,0.16403,0.60808,0.08759,0.4494,0.9638,0.64554,0.10832,0.67844,0.48112,0.30101,1.05383,1.00577,0.12321,0.59033,0.88895,0.26972,0.64944,0.98363,-0.0957,0.54639,1.44888,0.24943,0.58057,1.45282,-0.33609,0.66821,1.32028,0.47783,0.45366,1.31344,-0.19373,0.82517,1.45303,0.63489,0.48857,1.14221
296,0.07782,0.61479,1.49427,0.16357,0.60802,0.08766,0.44469,0.93353,0.61544,0.1069,0.67636,0.48141,0.30982,1.05236,0.97263,0.12106,0.58815,0.88924,0.26951,0.64823,0.98024,-0.09468,0.54966,1.45075,0.25121,0.58113,1.45331,-0.3369,0.66497,1.31961,0.48017,0.45633,1.31296,-0.19578,0.82418,1.45101,0.63706,0.49949,1.14345
297,0.08029,0.61595,1.49543,0.16289,0.60772,0.08767,0.44068,0.90244,0.58629,0.10507,0.67477,0.48147,0.3185,1.04851,0.9379,0.11874,0.58629,0.88926,0.26908,0.64718,0.97653,-0.09341,0.5524,1.45243,0.25327,0.58242,1.45344,-0.3375,0.66059,1.31872,0.48268,0.45981,1.31188,-0.19819,0.82227,1.44902,0.63935,0.51094,1.1444
298,0.08281,0.61719,1.49659,0.16189,0.60735,0.08758,0.43707,0.8711,0.55812,0.1029,0.6737,0.48133,0.32716,1.04202,0.90251,0.11602,0.58518,0.88912,0.26844,0.64624,0.97257,-0.09235,0.55472,1.45376,0.25531,0.58389,1.45339,-0.33825,0.65556,1.31764,0.48522,0.46397,1.31035,-0.20091,0.81942,1.44733,0.64152,0.52305,1.14516
299,0.085,0.61871,1.49795,0.16053,0.60711,0.08743,0.43318,0.83993,0.53066,0.10047,0.67295,0.48111,0.33498,1.0326,0.86701,0.11287,0.58498,0.88904,0.26787,0.64501,0.96839,-0.09153,0.55688,1.45437,0.25706,0.5851,1.45339,-0.3395,0.65042,1.31678,0.48773,0.46889,1.30853,-0.20395,0.81606,1.44609,0.64333,0.53586,1.1457
300,0.0869,0.62045,1.49952,0.15897,0.60708,0.08738,0.4287,0.80878,0.5039,0.09795,0.67234,0.481,0.34107,1.02018,0.83181,0.10958,0.58536,0.88917,0.26754,0.64325,0.96417,-0.09058,0.55909,1.45413,0.25859,0.58607,1.45345,-0.34112,0.64533,1.31644,0.49022,0.47466,1.30636,-0.20712,0.81273,1.44509,0.64472,0.54909,1.14574
301,0.08887,0.62222,1.50109,0.1576,0.60711,0.0875,0.42398,0.77692,0.47822,0.09561,0.67183,0.48106,0.34549,1.00487,0.79724,0.10652,0.58574,0.88944,0.26734,0.64107,0.96017,-0.08915,0.56118,1.45337,0.26029,0.58719,1.45349,-0.34255,0.64011,1.31653,0.49268,0.48119,1.30363,-0.21025,0.80976,1.44399,0.64582,0.56241,1.14501
302,0.09125,0.6239,1.50245,0.15678,0.60704,0.0878,0.41941,0.74357,0.45389,0.09364,0.6715,0.48121,0.34922,0.98673,0.76348,0.10381,0.5857,0.88967,0.26707,0.63881,0.95638,-0.08744,0.56291,1.4527,0.26247,0.58893,1.45346,-0.34346,0.63456,1.31673,0.49504,0.48841,1.30014,-0.21337,0.8071,1.44257,0.6467,0.57601,1.1435
303,0.09415,0.62549,1.50352,0.15661,0.60694,0.08813,0.41491,0.70855,0.43072,0.09217,0.67154,0.48132,0.35322,0.96569,0.73067,0.1013,0.5853,0.88971,0.26667,0.63662,0.95253,-0.0858,0.56456,1.45246,0.26508,0.59133,1.45324,-0.34399,0.62861,1.3168,0.49732,0.49641,1.29589,-0.21662,0.80445,1.44083,0.64732,0.59058,1.14149
304,0.09725,0.62714,1.5043,0.15692,0.60705,0.08832,0.41,0.67258,0.4082,0.09128,0.67209,0.48123,0.35759,0.94186,0.69913,0.09895,0.585,0.88947,0.26623,0.63453,0.94854,-0.08413,0.5667,1.45244,0.26784,0.59388,1.45264,-0.34436,0.62215,1.31691,0.49968,0.50521,1.29111,-0.21999,0.80129,1.43925,0.64771,0.60633,1.13922
305,0.10013,0.6291,1.50475,0.15737,0.60731,0.0882,0.40432,0.63696,0.38604,0.09066,0.67316,0.4808,0.36132,0.91582,0.66938,0.09689,0.58511,0.88886,0.26586,0.63273,0.9446,-0.0819,0.56949,1.45213,0.27065,0.59617,1.45151,-0.34451,0.6151,1.31751,0.50229,0.51458,1.28602,-0.22347,0.7973,1.43868,0.648,0.6227,1.13673
306,0.10278,0.63161,1.50473,0.15752,0.60739,0.08777,0.39824,0.60278,0.36433,0.08977,0.67462,0.47995,0.36329,0.88846,0.64193,0.09527,0.58563,0.88782,0.26562,0.63136,0.94087,-0.07894,0.57271,1.45135,0.27364,0.59833,1.4498,-0.34426,0.60756,1.31885,0.50515,0.52423,1.28064,-0.22718,0.79262,1.43956,0.64822,0.63905,1.13383
307,0.10554,0.63479,1.50409,0.15704,0.60718,0.08717,0.39243,0.57046,0.34317,0.08828,0.67628,0.47885,0.36284,0.86032,0.61703,0.094,0.58635,0.88651,0.26555,0.63016,0.93728,-0.07564,0.57615,1.4504,0.27699,0.60086,1.44752,-0.34352,0.59978,1.32061,0.50804,0.53413,1.27471,-0.2312,0.7877,1.44143,0.64814,0.65537,1.13021
308,0.10878,0.63848,1.50299,0.15595,0.60698,0.0866,0.38707,0.53983,0.3224,0.0863,0.67799,0.47779,0.35983,0.83154,0.59454,0.09279,0.58707,0.88521,0.26567,0.6284,0.93346,-0.07256,0.57948,1.44966,0.28076,0.60405,1.4448,-0.34235,0.59214,1.32231,0.5107,0.54447,1.26795,-0.23524,0.78299,1.44329,0.64746,0.67201,1.12568
309,0.1126,0.64221,1.50187,0.15464,0.60698,0.0861,0.38185,0.5106,0.30206,0.08428,0.67963,0.47686,0.35496,0.80215,0.5744,0.09141,0.58761,0.88402,0.26596,0.62537,0.92913,-0.06981,0.58235,1.44921,0.28489,0.60771,1.44179,-0.34081,0.58505,1.32384,0.51299,0.55536,1.26033,-0.23881,0.7788,1.44461,0.64607,0.6891,1.1203
310,0.11687,0.64552,1.50108,0.15358,0.60714,0.08548,0.37662,0.48273,0.28245,0.08268,0.68115,0.47589,0.34967,0.77237,0.55682,0.08987,0.58793,0.88278,0.26622,0.62101,0.92442,-0.06699,0.58493,1.44892,0.28918,0.6113,1.43851,-0.33876,0.57878,1.32535,0.51493,0.56675,1.2521,-0.24155,0.77524,1.44569,0.64407,0.70653,1.11428
311,0.12133,0.64837,1.50061,0.15296,0.60726,0.08476,0.37147,0.45657,0.26376,0.08174,0.68258,0.47486,0.34495,0.74262,0.54191,0.08832,0.58797,0.88144,0.2663,0.6159,0.91974,-0.06359,0.58775,1.44871,0.29343,0.61444,1.43482,-0.33585,0.57326,1.32692,0.51659,0.57853,1.24348,-0.24337,0.77224,1.44685,0.64167,0.72402,1.10785
312,0.12584,0.6512,1.50025,0.15254,0.60732,0.08417,0.36641,0.43259,0.24582,0.08135,0.68393,0.47402,0.34059,0.71332,0.5294,0.08693,0.58762,0.88022,0.26624,0.61078,0.91536,-0.05945,0.59107,1.44867,0.29756,0.61717,1.43063,-0.33179,0.5682,1.32836,0.51791,0.59051,1.23458,-0.24452,0.76971,1.44796,0.63913,0.7413,1.10126
313,0.13053,0.65441,1.49984,0.15219,0.60735,0.08392,0.36112,0.41113,0.22839,0.08122,0.68505,0.47359,0.33596,0.68469,0.51896,0.08578,0.5867,0.87931,0.26614,0.60597,0.91131,-0.05473,0.59459,1.44891,0.3016,0.61976,1.42605,-0.32664,0.56334,1.32951,0.51877,0.60239,1.22547,-0.24535,0.76756,1.44874,0.63668,0.75807,1.09481
314,0.13567,0.65801,1.49929,0.15219,0.60741,0.08388,0.35502,0.39236,0.21139,0.08112,0.68569,0.47342,0.33112,0.65689,0.51031,0.08471,0.58519,0.87862,0.26594,0.60123,0.90737,-0.04973,0.59789,1.44948,0.30565,0.62234,1.42142,-0.32072,0.55863,1.33036,0.51899,0.61382,1.2162,-0.24606,0.7656,1.44918,0.63417,0.77397,1.08854
315,0.14134,0.66168,1.49858,0.1527,0.60747,0.08376,0.34781,0.37625,0.19502,0.08104,0.68573,0.47319,0.32679,0.63029,0.50311,0.08336,0.58331,0.87793,0.26535,0.59621,0.90319,-0.04458,0.60093,1.45023,0.30982,0.62474,1.41702,-0.31434,0.55418,1.33102,0.51843,0.62459,1.20682,-0.24642,0.76367,1.44946,0.63116,0.78877,1.08214
316,0.14725,0.66513,1.49779,0.15328,0.60735,0.08341,0.33974,0.36252,0.17977,0.08106,0.68528,0.47281,0.32346,0.60531,0.49708,0.08151,0.58146,0.87719,0.26421,0.59074,0.89867,-0.03931,0.60411,1.45086,0.31414,0.62671,1.4128,-0.3077,0.55019,1.33158,0.51713,0.63475,1.19733,-0.24608,0.76181,1.44968,0.62731,0.80256,1.07522
317,0.15309,0.66839,1.49691,0.1533,0.60683,0.08291,0.3312,0.3508,0.16623,0.08116,0.6847,0.47234,0.32071,0.58212,0.49223,0.07941,0.57999,0.87648,0.26268,0.58473,0.89425,-0.03389,0.6079,1.45118,0.3186,0.62833,1.40847,-0.30087,0.54688,1.33216,0.51533,0.64449,1.18771,-0.24502,0.76037,1.44976,0.62263,0.81562,1.06767
318,0.15895,0.67175,1.49575,0.15251,0.60592,0.08245,0.32247,0.34092,0.15463,0.08113,0.68439,0.47189,0.31754,0.5606,0.48871,0.07747,0.57895,0.87584,0.26106,0.57802,0.89059,-0.0283,0.61249,1.4514,0.32323,0.62993,1.40384,-0.29374,0.54431,1.33283,0.51327,0.65391,1.17799,-0.24347,0.75974,1.44942,0.61741,0.82809,1.05958
319,0.16516,0.67539,1.49414,0.1512,0.60497,0.0822,0.31383,0.33291,0.14492,0.08091,0.68461,0.4716,0.31331,0.54076,0.48652,0.07584,0.57807,0.87524,0.25943,0.57065,0.88803,-0.02248,0.6177,1.45193,0.32807,0.63185,1.39905,-0.28607,0.54238,1.33356,0.51099,0.66282,1.16822,-0.24138,0.75998,1.44835,0.61185,0.8398,1.05112
320,0.17195,0.67916,1.4922,0.14991,0.6044,0.08225,0.30546,0.32658,0.13695,0.08079,0.68523,0.47162,0.30828,0.52284,0.48533,0.07438,0.57694,0.87478,0.25768,0.56304,0.88636,-0.01634,0.62318,1.45283,0.33313,0.63412,1.39436,-0.27773,0.54081,1.33428,0.50843,0.67077,1.15851,-0.2384,0.76078,1.4465,0.60601,0.85034,1.04257
321,0.17925,0.68271,1.49025,0.14908,0.60425,0.08247,0.29727,0.32127,0.13061,0.08113,0.68562,0.47193,0.30295,0.50707,0.48464,0.07301,0.57525,0.87449,0.25585,0.55575,0.88516,-0.00965,0.62853,1.45369,0.3383,0.63638,1.3898,-0.26881,0.53946,1.33507,0.50562,0.67727,1.14891,-0.23447,0.76189,1.44405,0.60005,0.85929,1.03419
322,0.18693,0.68583,1.48841,0.14897,0.60425,0.08252,0.28916,0.3164,0.12561,0.08212,0.68503,0.47229,0.29751,0.49336,0.4841,0.07177,0.57285,0.8743,0.25414,0.54898,0.88413,-0.00227,0.63351,1.45412,0.34352,0.63811,1.38516,-0.25957,0.53855,1.33605,0.5028,0.68215,1.13941,-0.23,0.7635,1.44116,0.5942,0.86652,1.02601
323,0.19489,0.68859,1.48643,0.1497,0.60412,0.08228,0.28117,0.31206,0.12146,0.08376,0.68307,0.47258,0.29201,0.48132,0.48358,0.07072,0.56994,0.87425,0.25264,0.54255,0.8832,0.00563,0.63823,1.45404,0.34879,0.6391,1.38026,-0.25038,0.53844,1.33714,0.50013,0.68547,1.12997,-0.2253,0.76597,1.43779,0.58856,0.87205,1.01781
324,0.20298,0.69132,1.48409,0.15107,0.60373,0.08191,0.27365,0.30893,0.11758,0.08595,0.67991,0.4729,0.28658,0.47054,0.4831,0.06979,0.56709,0.87453,0.25121,0.53626,0.88239,0.01351,0.64309,1.45352,0.35418,0.63958,1.37515,-0.24161,0.5393,1.33816,0.49755,0.68745,1.12049,-0.2204,0.76936,1.43383,0.58307,0.87595,1.0093
325,0.21089,0.69426,1.48138,0.15259,0.6031,0.08162,0.26695,0.30756,0.11364,0.08848,0.67604,0.4734,0.28141,0.46084,0.48268,0.06888,0.56478,0.87532,0.24965,0.53002,0.88168,0.02087,0.64845,1.45266,0.35982,0.6397,1.36996,-0.23347,0.54102,1.33892,0.49488,0.68847,1.11096,-0.21531,0.77342,1.42943,0.57768,0.8785,1.00032
326,0.21831,0.69742,1.47843,0.15368,0.60234,0.08149,0.26107,0.30784,0.10966,0.09101,0.67186,0.47413,0.27648,0.45209,0.48228,0.06794,0.56299,0.87651,0.24789,0.524,0.88105,0.02769,0.65417,1.45161,0.36572,0.63927,1.36468,-0.22587,0.54339,1.33935,0.49203,0.68904,1.10149,-0.21036,0.77788,1.42481,0.57225,0.88012,0.99076
327,0.22514,0.70054,1.47529,0.15401,0.60167,0.08157,0.2558,0.30906,0.10598,0.09322,0.66768,0.4751,0.27147,0.44413,0.48201,0.06687,0.56129,0.87795,0.24599,0.51845,0.88055,0.03431,0.65953,1.45053,0.3717,0.63819,1.35933,-0.21863,0.54617,1.33946,0.48909,0.68946,1.09233,-0.20589,0.7826,1.41988,0.56657,0.88113,0.98065
328,0.23162,0.70329,1.47207,0.15359,0.60126,0.08188,0.25123,0.31027,0.10302,0.09486,0.66362,0.47632,0.26618,0.43684,0.48204,0.06558,0.55937,0.87953,0.24393,0.51337,0.88034,0.04105,0.66367,1.44957,0.37738,0.63668,1.35398,-0.21167,0.54904,1.3393,0.48624,0.68977,1.08374,-0.202,0.78737,1.41434,0.56062,0.88152,0.97011
329,0.23825,0.70545,1.46877,0.1526,0.60101,0.08226,0.24769,0.31079,0.10099,0.09585,0.65959,0.47757,0.26082,0.43024,0.48238,0.06404,0.55733,0.8811,0.24165,0.50856,0.8805,0.048,0.66623,1.44869,0.38237,0.63502,1.3486,-0.20498,0.55177,1.33886,0.48354,0.68988,1.07573,-0.1986,0.79198,1.40807,0.55455,0.88117,0.95922
330,0.24537,0.70707,1.4653,0.15123,0.60056,0.08249,0.24527,0.31056,0.09974,0.0962,0.65549,0.47857,0.25601,0.42439,0.48291,0.06245,0.55536,0.88247,0.23929,0.50389,0.88091,0.05517,0.66784,1.44767,0.38657,0.63331,1.34326,-0.19847,0.55446,1.33824,0.4808,0.68969,1.06823,-0.19549,0.79643,1.40122,0.54851,0.87988,0.948
331,0.2528,0.70834,1.46156,0.14957,0.59974,0.08259,0.2438,0.30996,0.09898,0.09613,0.65156,0.4793,0.25238,0.41917,0.48355,0.06114,0.55353,0.88362,0.23717,0.49937,0.88147,0.06257,0.66973,1.44633,0.39041,0.63163,1.33833,-0.19187,0.55746,1.33761,0.47773,0.689,1.06123,-0.19239,0.80106,1.39407,0.5426,0.87738,0.93666
332,0.26017,0.70934,1.45776,0.14776,0.59875,0.08291,0.24306,0.3093,0.09856,0.09603,0.64823,0.48014,0.24999,0.41447,0.48429,0.06024,0.55175,0.88476,0.23545,0.49498,0.88217,0.07004,0.67266,1.44492,0.39437,0.63006,1.33415,-0.18504,0.56101,1.33707,0.47432,0.68754,1.05486,-0.18917,0.80599,1.38702,0.53692,0.87344,0.92551
333,0.26729,0.71002,1.45419,0.14618,0.59798,0.08368,0.24293,0.30849,0.09851,0.09612,0.64558,0.48136,0.24845,0.41028,0.48517,0.05948,0.54984,0.88607,0.23388,0.49069,0.88307,0.07703,0.6763,1.44388,0.39834,0.6284,1.33063,-0.17835,0.56486,1.3365,0.47079,0.6852,1.04916,-0.18603,0.81093,1.38031,0.53141,0.86807,0.91465
334,0.27424,0.71046,1.45096,0.14532,0.5977,0.08474,0.24335,0.30742,0.09892,0.0963,0.64309,0.48281,0.24748,0.40664,0.48626,0.05852,0.54776,0.88751,0.23222,0.48658,0.88423,0.08302,0.67989,1.4432,0.40185,0.62612,1.32721,-0.17233,0.56853,1.33569,0.46737,0.68205,1.04387,-0.18331,0.81543,1.37377,0.52592,0.86149,0.90393
335,0.28122,0.71086,1.44795,0.14524,0.59776,0.08562,0.24424,0.30623,0.09968,0.09628,0.64012,0.48403,0.24722,0.40354,0.48752,0.05746,0.5458,0.88887,0.23056,0.48295,0.88554,0.08828,0.68308,1.44249,0.4047,0.62304,1.3234,-0.16698,0.57189,1.33458,0.46404,0.67831,1.03858,-0.18085,0.81946,1.36689,0.52045,0.85406,0.89319
336,0.28845,0.71138,1.44492,0.14554,0.59781,0.08601,0.24563,0.30516,0.10054,0.09598,0.63654,0.48472,0.24799,0.40089,0.48878,0.05666,0.54432,0.89,0.22927,0.48012,0.88674,0.09371,0.68601,1.44145,0.40725,0.61965,1.31915,-0.16167,0.57529,1.33334,0.46047,0.6742,1.03299,-0.17774,0.82347,1.3594,0.51501,0.84608,0.88235
337,0.29584,0.71203,1.44158,0.14578,0.59766,0.08597,0.24755,0.30428,0.10122,0.09573,0.63265,0.48496,0.24968,0.39854,0.48982,0.0564,0.54321,0.89086,0.2286,0.47792,0.88763,0.09995,0.68881,1.44017,0.40996,0.61666,1.31466,-0.15596,0.57923,1.33215,0.45645,0.66985,1.02706,-0.17316,0.82794,1.35154,0.5095,0.83766,0.87139
338,0.30302,0.71269,1.43792,0.1459,0.59745,0.08574,0.24984,0.30336,0.10163,0.09591,0.62879,0.48504,0.2516,0.39628,0.49055,0.05656,0.5419,0.89149,0.22843,0.47575,0.88823,0.10667,0.69147,1.43884,0.41298,0.61436,1.31001,-0.15015,0.58393,1.33094,0.45225,0.66512,1.02091,-0.16712,0.83307,1.34391,0.50384,0.82884,0.86047
339,0.30964,0.71318,1.43423,0.14596,0.59734,0.08552,0.25228,0.30201,0.10185,0.09646,0.62507,0.48514,0.25321,0.39387,0.49103,0.05682,0.53989,0.89193,0.22846,0.47316,0.88865,0.11301,0.69407,1.43742,0.41612,0.61254,1.30519,-0.14492,0.58923,1.32952,0.4485,0.65979,1.01464,-0.16028,0.8387,1.3369,0.4983,0.81978,0.84992
340,0.31566,0.71349,1.43077,0.14599,0.59726,0.08534,0.25465,0.30019,0.10205,0.09693,0.62138,0.48526,0.25436,0.3913,0.4914,0.05698,0.53726,0.89223,0.22853,0.47026,0.88902,0.11837,0.69675,1.43575,0.41903,0.61067,1.30032,-0.14067,0.59468,1.32783,0.44551,0.65383,1.00854,-0.15325,0.84441,1.33044,0.49331,0.81048,0.84007
341,0.32126,0.71375,1.42753,0.14607,0.59704,0.08522,0.25671,0.29831,0.10232,0.0971,0.61768,0.48534,0.25525,0.38879,0.49182,0.05713,0.53456,0.89253,0.22866,0.4675,0.88943,0.12287,0.69937,1.43383,0.42144,0.6084,1.29591,-0.13722,0.59986,1.32604,0.44294,0.64739,1.00314,-0.14648,0.84974,1.32423,0.48907,0.8007,0.83116
342,0.32649,0.71412,1.42446,0.14633,0.59665,0.0852,0.25824,0.2969,0.10266,0.09715,0.61412,0.48545,0.25608,0.38657,0.49234,0.05748,0.5323,0.89292,0.22894,0.46509,0.88996,0.12705,0.70172,1.4319,0.42334,0.60601,1.29252,-0.13407,0.60478,1.32427,0.44034,0.6405,0.99888,-0.14028,0.85468,1.31812,0.4854,0.79,0.82331
343,0.33117,0.71457,1.42162,0.14675,0.59626,0.0853,0.25912,0.29619,0.103,0.0974,0.61089,0.48564,0.25678,0.38478,0.49292,0.05803,0.53059,0.89344,0.22936,0.46303,0.89058,0.13123,0.70377,1.43031,0.42497,0.60411,1.29015,-0.13094,0.60993,1.3225,0.43765,0.63319,0.99572,-0.1347,0.85974,1.31195,0.48201,0.77832,0.81633
344,0.33514,0.71496,1.41907,0.14713,0.59601,0.08545,0.25942,0.29606,0.10328,0.09789,0.60796,0.48589,0.25709,0.38351,0.49346,0.05865,0.52929,0.89402,0.22984,0.46138,0.8912,0.13532,0.70562,1.42921,0.42665,0.60287,1.28826,-0.12793,0.6158,1.32061,0.43527,0.6257,0.99313,-0.12947,0.86539,1.30543,0.47877,0.76616,0.80986
345,0.33835,0.71534,1.41675,0.14717,0.5959,0.08551,0.25937,0.29633,0.10344,0.09829,0.60517,0.48606,0.25695,0.38274,0.49386,0.05921,0.52832,0.89456,0.23035,0.46027,0.89171,0.13913,0.70737,1.42845,0.42853,0.60199,1.28634,-0.12514,0.62224,1.31856,0.4335,0.61841,0.9907,-0.12431,0.87147,1.29836,0.47575,0.75422,0.80367
346,0.34092,0.71603,1.41452,0.1468,0.59577,0.0854,0.25909,0.29681,0.10352,0.09827,0.60247,0.48605,0.25663,0.38227,0.49414,0.05968,0.52747,0.89494,0.23084,0.45949,0.8921,0.14275,0.70901,1.42781,0.43039,0.60127,1.2844,-0.12239,0.62862,1.31645,0.43238,0.61151,0.98844,-0.1191,0.87737,1.29113,0.47301,0.74274,0.79782
347,0.34312,0.71725,1.41242,0.14624,0.59549,0.08521,0.2586,0.29727,0.10355,0.09785,0.59992,0.4859,0.25648,0.38183,0.49438,0.06006,0.52652,0.89516,0.23129,0.45869,0.89245,0.14629,0.71058,1.42725,0.43194,0.60083,1.28269,-0.1195,0.63449,1.31441,0.4318,0.60482,0.98657,-0.11398,0.88268,1.2844,0.47054,0.73134,0.7924
348,0.34541,0.71864,1.41056,0.1458,0.59508,0.08512,0.25801,0.29755,0.10361,0.09727,0.59751,0.48582,0.2565,0.38128,0.49461,0.06041,0.52549,0.8954,0.23171,0.45783,0.89276,0.14966,0.71222,1.42669,0.43316,0.60073,1.28129,-0.11659,0.63986,1.3125,0.43162,0.5981,0.98517,-0.1093,0.88747,1.27836,0.46835,0.71954,0.7874
349,0.34815,0.71968,1.40902,0.14551,0.5947,0.08528,0.25745,0.29769,0.10363,0.0968,0.5951,0.48596,0.25651,0.38077,0.49478,0.06077,0.52465,0.89589,0.23214,0.45718,0.89298,0.15269,0.71418,1.42592,0.43441,0.60066,1.28009,-0.11397,0.64491,1.31075,0.43154,0.59135,0.98411,-0.10556,0.8919,1.27263,0.46636,0.70738,0.78277
350,0.35129,0.72031,1.40771,0.14523,0.59452,0.0856,0.25702,0.29788,0.10356,0.0966,0.59257,0.48629,0.25643,0.38052,0.49479,0.0611,0.52413,0.89661,0.2325,0.45676,0.89306,0.15528,0.71663,1.42482,0.43599,0.60029,1.27889,-0.11178,0.64966,1.30924,0.43124,0.5848,0.98319,-0.10281,0.89592,1.26677,0.46436,0.69538,0.77854
351,0.35451,0.72085,1.40645,0.14484,0.59457,0.08588,0.25685,0.29819,0.10341,0.09678,0.58998,0.48662,0.25631,0.38054,0.49471,0.06137,0.5238,0.89731,0.23272,0.45635,0.89308,0.15755,0.71941,1.42361,0.43778,0.59967,1.2776,-0.10986,0.65411,1.30786,0.43065,0.57853,0.9823,-0.10034,0.8995,1.26072,0.46239,0.68399,0.77474
352,0.35747,0.72154,1.40517,0.14436,0.59474,0.08599,0.25712,0.29849,0.10337,0.09731,0.58754,0.48681,0.25621,0.38059,0.49472,0.06165,0.52344,0.89781,0.23291,0.4558,0.89322,0.15973,0.72205,1.42265,0.43942,0.59911,1.27619,-0.10783,0.65835,1.30635,0.42999,0.57242,0.9814,-0.0973,0.90281,1.25482,0.46079,0.67317,0.77138
353,0.35994,0.72241,1.40397,0.14382,0.59482,0.08598,0.25775,0.2986,0.10358,0.09805,0.58544,0.4869,0.25621,0.38051,0.49497,0.06196,0.52293,0.89811,0.2332,0.45521,0.89358,0.16196,0.72424,1.42205,0.44074,0.5988,1.27473,-0.10552,0.66244,1.30455,0.42937,0.56629,0.9806,-0.09362,0.90604,1.24934,0.45969,0.66264,0.76845
354,0.36193,0.72336,1.40295,0.14321,0.59471,0.08606,0.25844,0.29852,0.1041,0.0987,0.58368,0.48708,0.25634,0.38039,0.49549,0.06224,0.52243,0.89844,0.23351,0.45479,0.89417,0.16399,0.72604,1.42158,0.44185,0.59866,1.27332,-0.1033,0.66628,1.30262,0.42876,0.56011,0.97999,-0.08984,0.90906,1.24427,0.45885,0.65229,0.76596
355,0.36374,0.72427,1.40213,0.14249,0.59446,0.08636,0.25893,0.29848,0.10481,0.09902,0.58214,0.48745,0.25656,0.38044,0.49618,0.06239,0.52214,0.89899,0.2337,0.45461,0.8949,0.16561,0.72759,1.42103,0.44302,0.59835,1.27205,-0.10155,0.66978,1.30082,0.42818,0.55407,0.97961,-0.08649,0.91168,1.2393,0.4581,0.64231,0.76391
356,0.36579,0.72498,1.40127,0.14181,0.59421,0.08679,0.25919,0.29867,0.10548,0.09908,0.58067,0.48793,0.25693,0.38072,0.49683,0.06258,0.52208,0.89968,0.23388,0.45452,0.89561,0.16716,0.72882,1.42039,0.44449,0.59761,1.27089,-0.09998,0.67299,1.29921,0.42787,0.54837,0.97935,-0.08378,0.91392,1.23424,0.45768,0.63289,0.76214
357,0.36827,0.72549,1.40009,0.14149,0.59407,0.08714,0.25928,0.29906,0.10596,0.09917,0.57922,0.48828,0.2576,0.38106,0.49733,0.06309,0.5221,0.90027,0.23432,0.45435,0.89619,0.16928,0.72975,1.41974,0.44616,0.59648,1.26967,-0.09791,0.67605,1.29772,0.42797,0.54301,0.97897,-0.08178,0.91603,1.22931,0.45795,0.62404,0.76046
358,0.37098,0.72592,1.39858,0.14168,0.59407,0.08729,0.25931,0.29947,0.10626,0.09951,0.57784,0.48839,0.25857,0.38131,0.49766,0.06397,0.52211,0.90062,0.2351,0.45409,0.8966,0.17222,0.73064,1.41908,0.44767,0.59522,1.26838,-0.09508,0.67899,1.29642,0.42843,0.53781,0.9785,-0.08047,0.91814,1.22484,0.45903,0.61549,0.75887
359,0.37356,0.72633,1.3972,0.14209,0.59421,0.08738,0.25946,0.29975,0.10647,0.10003,0.57662,0.48843,0.25956,0.38156,0.49788,0.06502,0.52219,0.90088,0.23601,0.45383,0.89691,0.17558,0.7318,1.41841,0.44874,0.59406,1.26727,-0.09192,0.68181,1.29548,0.42911,0.53266,0.97823,-0.07982,0.92015,1.2208,0.46058,0.60705,0.75759
360,0.37581,0.72674,1.39641,0.14238,0.59451,0.08765,0.2599,0.29995,0.10666,0.10052,0.57563,0.48866,0.26028,0.382,0.49802,0.06594,0.52244,0.90131,0.23678,0.45372,0.89715,0.17867,0.73324,1.4178,0.44947,0.59313,1.26655,-0.08905,0.68449,1.29485,0.42988,0.52765,0.97841,-0.0797,0.92192,1.21694,0.46217,0.59873,0.75679
361,0.37781,0.72715,1.39617,0.1424,0.59489,0.08808,0.2605,0.30031,0.10685,0.10093,0.57482,0.48908,0.26073,0.3827,0.49814,0.06663,0.52291,0.90191,0.23732,0.45384,0.89738,0.18112,0.73476,1.41729,0.45017,0.59255,1.26618,-0.08674,0.68696,1.29425,0.43068,0.52288,0.97901,-0.07971,0.9234,1.21316,0.46352,0.59057,0.75641
362,0.37979,0.72757,1.396,0.14232,0.59524,0.0884,0.26101,0.30088,0.10701,0.10129,0.57409,0.48939,0.26111,0.38356,0.49824,0.06724,0.52343,0.9024,0.23782,0.45409,0.89759,0.18297,0.73615,1.4168,0.45098,0.59232,1.26592,-0.08485,0.68914,1.29339,0.4315,0.51822,0.97986,-0.07939,0.92465,1.20952,0.46464,0.5825,0.7563
363,0.38176,0.72802,1.39555,0.1423,0.59548,0.08834,0.26126,0.30145,0.10712,0.10165,0.57336,0.48932,0.26157,0.38438,0.4983,0.06806,0.52383,0.9025,0.23857,0.45433,0.89777,0.18445,0.73733,1.41621,0.45188,0.59225,1.26563,-0.08323,0.69104,1.29224,0.43234,0.51347,0.98083,-0.07847,0.92574,1.20609,0.46579,0.57446,0.75639
364,0.38349,0.72857,1.39477,0.14242,0.59557,0.08791,0.26135,0.30181,0.10723,0.10194,0.57265,0.48886,0.26203,0.38505,0.49834,0.06917,0.52404,0.90222,0.23967,0.45449,0.89794,0.18572,0.73839,1.41545,0.45281,0.59204,1.26522,-0.08189,0.69275,1.29106,0.43301,0.50848,0.9818,-0.07714,0.92666,1.20281,0.46715,0.56651,0.75669
365,0.38488,0.72936,1.39374,0.14266,0.59548,0.08734,0.2615,0.30197,0.10747,0.10214,0.57201,0.48825,0.26233,0.38559,0.49849,0.0704,0.52423,0.90178,0.24092,0.45468,0.89821,0.18685,0.73963,1.41453,0.45375,0.59157,1.26454,-0.08079,0.69429,1.29012,0.43325,0.50322,0.98263,-0.07581,0.92736,1.19966,0.46866,0.55882,0.7571
366,0.38608,0.73047,1.39264,0.14294,0.59526,0.08687,0.26186,0.30221,0.10788,0.10227,0.57149,0.48775,0.26249,0.38604,0.49886,0.07153,0.52468,0.90147,0.24205,0.45512,0.89863,0.18797,0.74121,1.41357,0.45471,0.59108,1.26348,-0.07983,0.69571,1.28956,0.4331,0.49789,0.98322,-0.07488,0.92781,1.19664,0.47021,0.55151,0.75748
367,0.38725,0.73185,1.39163,0.14311,0.59505,0.08672,0.26237,0.30273,0.10841,0.10237,0.57114,0.48758,0.26271,0.38646,0.49941,0.0724,0.52544,0.90149,0.24295,0.45592,0.89914,0.18915,0.74289,1.41277,0.4557,0.59097,1.26216,-0.07889,0.69701,1.28941,0.43293,0.49291,0.98366,-0.07464,0.92807,1.19388,0.47188,0.54439,0.75774
368,0.38842,0.7333,1.39086,0.1431,0.59502,0.08691,0.26277,0.30334,0.1089,0.10242,0.57111,0.48778,0.26316,0.38687,0.49994,0.07305,0.52623,0.90182,0.2437,0.45695,0.89958,0.19035,0.74425,1.41229,0.45673,0.59137,1.26098,-0.07792,0.69817,1.28952,0.4331,0.48859,0.98425,-0.07504,0.92819,1.19151,0.47373,0.53719,0.75798
369,0.3895,0.73459,1.39042,0.14291,0.59517,0.08728,0.26294,0.30369,0.10926,0.10248,0.57137,0.48818,0.26376,0.3873,0.50029,0.07367,0.52673,0.90228,0.24449,0.45788,0.89985,0.19152,0.7451,1.41206,0.4577,0.59189,1.26031,-0.07695,0.69916,1.28965,0.4336,0.48495,0.9852,-0.07566,0.92827,1.18948,0.4756,0.52997,0.75845
370,0.39038,0.7356,1.39026,0.14268,0.59538,0.08764,0.26297,0.30369,0.10954,0.10258,0.57169,0.48858,0.26428,0.38782,0.50046,0.07435,0.52693,0.90271,0.24531,0.45843,0.90003,0.19268,0.74563,1.41184,0.45857,0.59196,1.26026,-0.07594,0.70009,1.28962,0.43417,0.48175,0.98648,-0.07599,0.92838,1.18758,0.47723,0.52323,0.75925
371,0.39109,0.73644,1.39017,0.14254,0.59557,0.08798,0.26304,0.3037,0.10983,0.10267,0.57181,0.48894,0.2646,0.38854,0.5006,0.07497,0.52702,0.9031,0.24592,0.4585,0.90029,0.19388,0.74624,1.41145,0.45948,0.5914,1.26067,-0.0749,0.70106,1.28947,0.43471,0.47877,0.9879,-0.076,0.92856,1.18569,0.47862,0.51723,0.7603
372,0.39194,0.73722,1.39,0.14245,0.59572,0.08833,0.26321,0.30411,0.11019,0.10267,0.57168,0.48928,0.26493,0.38962,0.50081,0.0754,0.52722,0.9035,0.24617,0.45826,0.90073,0.19502,0.7471,1.41095,0.46057,0.59049,1.2613,-0.07395,0.70201,1.28934,0.43533,0.47595,0.98938,-0.07615,0.92874,1.18392,0.48007,0.51167,0.76149
373,0.39329,0.73796,1.38981,0.14227,0.59575,0.08862,0.26339,0.30491,0.11058,0.10266,0.57142,0.48957,0.26559,0.39105,0.50106,0.07575,0.52759,0.90388,0.24627,0.45798,0.90124,0.19596,0.74803,1.41051,0.46174,0.58966,1.26195,-0.07318,0.70281,1.28934,0.43612,0.47323,0.99087,-0.07685,0.92885,1.18248,0.4818,0.50603,0.76273
374,0.39509,0.73872,1.38975,0.14197,0.59561,0.08879,0.2635,0.30575,0.11089,0.10281,0.57115,0.48978,0.2666,0.39267,0.50118,0.07622,0.52797,0.90418,0.24656,0.45794,0.90161,0.19666,0.74875,1.41024,0.46278,0.5893,1.26238,-0.07263,0.70338,1.28946,0.43704,0.47065,0.99227,-0.07801,0.92881,1.18138,0.48366,0.5001,0.76387
375,0.39687,0.73956,1.38987,0.14164,0.59542,0.08886,0.26358,0.30633,0.11104,0.10317,0.57087,0.4899,0.26773,0.39427,0.5011,0.07683,0.52827,0.90438,0.24718,0.45827,0.9017,0.19718,0.74929,1.41018,0.46364,0.58957,1.26239,-0.07221,0.70376,1.28968,0.43794,0.46829,0.99345,-0.07915,0.9286,1.18045,0.48523,0.49406,0.76474
376,0.39812,0.74048,1.3902,0.14131,0.59538,0.08884,0.26375,0.30669,0.11102,0.10361,0.5706,0.48994,0.26881,0.39572,0.50082,0.07751,0.5286,0.9045,0.24801,0.45898,0.90153,0.1976,0.74992,1.41036,0.46443,0.59025,1.26204,-0.07179,0.70407,1.28997,0.43873,0.46624,0.99435,-0.07989,0.9283,1.17958,0.48631,0.48814,0.76529
377,0.3986,0.74148,1.39071,0.14088,0.59552,0.08878,0.26396,0.30698,0.11099,0.10395,0.57046,0.48994,0.26987,0.39708,0.50053,0.07819,0.52912,0.90458,0.24885,0.45991,0.90129,0.19802,0.75098,1.41067,0.46515,0.59093,1.26167,-0.07125,0.70443,1.29028,0.43943,0.46444,0.99514,-0.08034,0.92807,1.17879,0.48711,0.48242,0.76576
378,0.39843,0.74261,1.39114,0.14037,0.59568,0.08876,0.26413,0.30729,0.11117,0.10411,0.5705,0.48997,0.27092,0.3985,0.50044,0.07891,0.52979,0.90472,0.24963,0.46074,0.90128,0.19848,0.75256,1.41092,0.46574,0.59137,1.26167,-0.07059,0.70486,1.29053,0.44011,0.46276,0.99615,-0.08075,0.92798,1.17808,0.488,0.4769,0.76655
379,0.39802,0.7439,1.3913,0.13986,0.59569,0.08884,0.26428,0.3077,0.1117,0.10409,0.57061,0.49011,0.27196,0.39999,0.50069,0.07969,0.5305,0.90496,0.25033,0.46122,0.90167,0.19894,0.75437,1.41107,0.46619,0.5917,1.26217,-0.06987,0.70527,1.29067,0.44085,0.4612,0.99754,-0.08119,0.9279,1.17738,0.4891,0.47173,0.76783
380,0.39796,0.74512,1.39134,0.13931,0.59554,0.08903,0.26449,0.30822,0.11244,0.10401,0.57064,0.49035,0.27296,0.40135,0.50122,0.08048,0.5311,0.9053,0.25096,0.46143,0.90236,0.19939,0.756,1.41129,0.4666,0.5921,1.26299,-0.06913,0.70549,1.29083,0.44167,0.4599,0.99917,-0.08163,0.92763,1.17671,0.49029,0.467,0.7694
381,0.39854,0.74601,1.39158,0.13867,0.59526,0.08927,0.26484,0.30873,0.11319,0.10398,0.57055,0.49065,0.27392,0.40238,0.50183,0.08126,0.53155,0.9057,0.25162,0.46156,0.90308,0.19996,0.75725,1.41179,0.46709,0.59267,1.26379,-0.06825,0.70548,1.29118,0.44254,0.45885,1.00076,-0.08226,0.92705,1.17612,0.49147,0.46255,0.77097
382,0.39945,0.74661,1.39206,0.13797,0.59496,0.08951,0.26533,0.30906,0.11384,0.10414,0.57042,0.49098,0.27491,0.40311,0.50237,0.08209,0.53196,0.90611,0.2524,0.46186,0.90367,0.20078,0.7582,1.41263,0.46769,0.59333,1.26436,-0.06709,0.7053,1.29175,0.44338,0.45783,1.00216,-0.08339,0.92617,1.17563,0.4926,0.45813,0.7724
383,0.4001,0.74723,1.39266,0.13739,0.59478,0.08975,0.26598,0.30921,0.11449,0.10455,0.57028,0.4913,0.27603,0.40385,0.50286,0.08298,0.53251,0.90653,0.25332,0.46249,0.90417,0.20171,0.75888,1.41374,0.46835,0.59384,1.26473,-0.06576,0.70511,1.29237,0.44415,0.45658,1.00344,-0.08508,0.92524,1.17534,0.49355,0.45369,0.77374
384,0.40025,0.74813,1.39336,0.13717,0.59487,0.09003,0.26678,0.30926,0.11526,0.10512,0.57014,0.49163,0.27725,0.40498,0.50336,0.08389,0.53319,0.90695,0.25432,0.46336,0.90469,0.2025,0.75922,1.41492,0.46897,0.59413,1.26516,-0.06456,0.70501,1.29284,0.4449,0.45512,1.00478,-0.08688,0.92458,1.17527,0.49422,0.44928,0.77513
385,0.40016,0.74931,1.39422,0.13739,0.59528,0.09038,0.26764,0.30938,0.11618,0.10567,0.57002,0.49197,0.27849,0.4066,0.5039,0.08479,0.53379,0.90737,0.25536,0.4643,0.90531,0.203,0.7593,1.41593,0.46938,0.59431,1.26589,-0.06372,0.70509,1.2931,0.44568,0.45375,1.00631,-0.08825,0.92427,1.17526,0.49468,0.44495,0.77668
386,0.40012,0.75062,1.39517,0.13789,0.59586,0.09072,0.26848,0.3098,0.11715,0.10607,0.56987,0.49226,0.27976,0.40862,0.50445,0.08563,0.53423,0.90773,0.25641,0.46526,0.90601,0.20319,0.75936,1.41674,0.46951,0.59451,1.26694,-0.06326,0.70532,1.29325,0.44648,0.45276,1.00795,-0.08908,0.92416,1.17504,0.49516,0.44082,0.77839
387,0.40021,0.75176,1.39623,0.13835,0.59639,0.09095,0.26925,0.31069,0.11804,0.10637,0.56969,0.49243,0.28117,0.41092,0.50496,0.08632,0.53468,0.90797,0.25739,0.46642,0.90665,0.20294,0.75968,1.41751,0.46943,0.59475,1.26812,-0.06321,0.70559,1.2934,0.44724,0.45215,1.00953,-0.08968,0.92395,1.17446,0.49577,0.43709,0.78013
388,0.40039,0.75248,1.39748,0.13849,0.59666,0.09102,0.26996,0.31195,0.11883,0.10665,0.56963,0.49248,0.28288,0.41361,0.50535,0.08683,0.53536,0.9081,0.25819,0.46782,0.90716,0.20224,0.76039,1.41835,0.46934,0.59511,1.26916,-0.06351,0.70574,1.29362,0.44791,0.45174,1.01093,-0.09032,0.9234,1.17349,0.49644,0.43377,0.78173
389,0.40058,0.75279,1.39887,0.13827,0.59665,0.091,0.27062,0.31329,0.1196,0.10697,0.56988,0.49253,0.28502,0.41686,0.50556,0.0873,0.53626,0.90821,0.25888,0.46928,0.90752,0.20137,0.76142,1.4192,0.46945,0.5957,1.26986,-0.06391,0.70571,1.29396,0.44854,0.45137,1.01212,-0.09107,0.9225,1.17233,0.49707,0.43073,0.78315
390,0.40069,0.75295,1.40017,0.13789,0.59649,0.09101,0.27121,0.31451,0.12048,0.10738,0.57042,0.49265,0.28768,0.42078,0.50562,0.08796,0.53711,0.90836,0.25969,0.47053,0.90779,0.2008,0.76257,1.41993,0.46982,0.59648,1.27024,-0.06405,0.70558,1.29434,0.44924,0.4509,1.01317,-0.09186,0.92149,1.1713,0.49763,0.42793,0.78439
391,0.40091,0.75313,1.40131,0.13762,0.5963,0.09102,0.27175,0.31564,0.12161,0.1079,0.57093,0.49275,0.29095,0.42536,0.50565,0.08896,0.53774,0.9085,0.26083,0.47151,0.9081,0.2007,0.76373,1.42049,0.47045,0.5972,1.27052,-0.06371,0.70542,1.29458,0.45015,0.45033,1.01417,-0.09256,0.9206,1.17051,0.49825,0.42539,0.78553
392,0.40153,0.75326,1.40248,0.13751,0.59608,0.0909,0.27234,0.31691,0.12309,0.10845,0.57116,0.49272,0.29479,0.43056,0.50581,0.09032,0.53827,0.90852,0.26232,0.47236,0.90855,0.20083,0.76483,1.42093,0.47132,0.59767,1.27095,-0.06306,0.70518,1.29455,0.45136,0.44976,1.01516,-0.09301,0.91979,1.16976,0.49907,0.42302,0.78665
393,0.40245,0.75328,1.40368,0.13737,0.59586,0.09067,0.27302,0.31855,0.12494,0.10886,0.57117,0.49254,0.29913,0.43642,0.50615,0.09191,0.53882,0.90844,0.26402,0.47322,0.90916,0.2009,0.7657,1.4213,0.47224,0.59805,1.27156,-0.06237,0.70477,1.29426,0.45278,0.44941,1.01616,-0.09314,0.91888,1.16881,0.50013,0.42081,0.7878
394,0.40302,0.75326,1.40471,0.13711,0.59564,0.09044,0.2738,0.32061,0.12716,0.10905,0.57122,0.49236,0.30385,0.44301,0.50664,0.09346,0.53921,0.90833,0.26576,0.4741,0.90986,0.20092,0.76611,1.42164,0.4729,0.59859,1.27227,-0.06177,0.70431,1.2938,0.45422,0.44942,1.01712,-0.0929,0.91787,1.1675,0.50133,0.41892,0.78896
395,0.40284,0.75317,1.40545,0.1368,0.59542,0.09018,0.27471,0.32293,0.12974,0.10906,0.57135,0.49214,0.30879,0.45044,0.5072,0.09479,0.53924,0.90815,0.26734,0.47485,0.91054,0.20103,0.76593,1.42189,0.47322,0.59916,1.27305,-0.0612,0.70402,1.29318,0.45554,0.44978,1.01796,-0.09221,0.9169,1.1657,0.50258,0.41756,0.79001
396,0.40214,0.75284,1.40599,0.13659,0.59515,0.08964,0.27598,0.32526,0.13267,0.10903,0.57138,0.49163,0.31378,0.45872,0.5077,0.0959,0.53901,0.90767,0.26871,0.47535,0.91106,0.20132,0.76536,1.42193,0.47343,0.59931,1.27392,-0.0606,0.70398,1.29233,0.45687,0.45031,1.01853,-0.09108,0.916,1.16331,0.50394,0.41678,0.79078
397,0.4015,0.75224,1.40646,0.13659,0.59488,0.08862,0.27781,0.32745,0.13579,0.10919,0.57125,0.49063,0.3187,0.46757,0.50806,0.09698,0.53872,0.90667,0.26999,0.4757,0.91126,0.20167,0.76475,1.42165,0.47384,0.59897,1.27471,-0.05994,0.70398,1.29115,0.45843,0.45092,1.01869,-0.08963,0.91507,1.16042,0.50556,0.41649,0.79109
398,0.40124,0.75157,1.40696,0.13684,0.59469,0.08722,0.28007,0.3297,0.13873,0.10975,0.57115,0.48926,0.32354,0.47637,0.50818,0.09815,0.53843,0.90531,0.27139,0.47614,0.91102,0.20197,0.76445,1.42113,0.47453,0.59853,1.27522,-0.05917,0.70381,1.28963,0.46026,0.45165,1.01847,-0.088,0.91396,1.15722,0.50743,0.41663,0.79096
399,0.40129,0.75097,1.4075,0.13727,0.5946,0.08589,0.28253,0.33236,0.14104,0.1107,0.57127,0.48797,0.32825,0.48441,0.50804,0.0993,0.53808,0.90399,0.27288,0.47679,0.91038,0.20223,0.76454,1.42064,0.47541,0.5983,1.27544,-0.05818,0.70343,1.28791,0.46226,0.4526,1.01796,-0.08642,0.91264,1.15389,0.50934,0.41706,0.79052
400,0.40147,0.75037,1.40806,0.13782,0.59452,0.08497,0.28541,0.33586,0.14241,0.11176,0.57167,0.48711,0.33258,0.4913,0.5078,0.10024,0.53755,0.90305,0.27421,0.47742,0.90955,0.20257,0.76488,1.42023,0.47633,0.59808,1.27562,-0.05694,0.70302,1.2861,0.46436,0.45382,1.01727,-0.08514,0.91119,1.15046,0.51122,0.41765,0.78988
401,0.40166,0.74969,1.40863,0.13845,0.59444,0.08451,0.28921,0.34053,0.14262,0.11267,0.57241,0.48672,0.3361,0.49701,0.5076,0.10089,0.53678,0.90253,0.27523,0.47769,0.90876,0.20308,0.7652,1.41969,0.47722,0.59746,1.27593,-0.05553,0.70272,1.28411,0.46664,0.45527,1.01637,-0.0841,0.90978,1.14686,0.51325,0.41838,0.78905
402,0.40199,0.74897,1.40925,0.13912,0.59441,0.08435,0.29423,0.34662,0.14139,0.11336,0.57367,0.48663,0.33842,0.50155,0.50737,0.10147,0.53591,0.90225,0.27605,0.47747,0.90803,0.20381,0.76526,1.41876,0.47818,0.59645,1.27621,-0.05398,0.70257,1.28172,0.46926,0.45681,1.01521,-0.08289,0.90856,1.14293,0.51561,0.4194,0.78792
403,0.40267,0.74839,1.40984,0.13962,0.59439,0.08432,0.30047,0.35419,0.13854,0.11386,0.57549,0.48669,0.33929,0.50477,0.50694,0.10227,0.53513,0.90206,0.27695,0.47697,0.90736,0.20479,0.76501,1.41743,0.47937,0.59551,1.27609,-0.05223,0.70254,1.27885,0.47215,0.45828,1.01376,-0.08112,0.90755,1.13861,0.51821,0.42076,0.78643
404,0.40366,0.74804,1.41021,0.13976,0.59431,0.08434,0.3076,0.36322,0.13427,0.11416,0.57768,0.48681,0.3387,0.50657,0.50626,0.1034,0.53452,0.90194,0.27814,0.47647,0.90679,0.20598,0.76466,1.41597,0.48083,0.59492,1.27541,-0.05023,0.70259,1.27573,0.47507,0.45964,1.01204,-0.07892,0.90661,1.13402,0.52086,0.42238,0.78461
405,0.40471,0.74796,1.41027,0.13958,0.59417,0.08441,0.31515,0.37361,0.12903,0.11426,0.57996,0.487,0.33694,0.50714,0.50532,0.10469,0.53406,0.90185,0.27949,0.47615,0.90624,0.20717,0.76435,1.41462,0.48249,0.59469,1.27441,-0.04815,0.70259,1.27263,0.47789,0.46115,1.01013,-0.07674,0.90553,1.12936,0.52348,0.42423,0.7826
406,0.40573,0.74814,1.41005,0.13943,0.59413,0.08451,0.32256,0.38505,0.12335,0.11419,0.58223,0.48718,0.33462,0.50697,0.50399,0.10581,0.53367,0.90175,0.28073,0.47608,0.90542,0.2082,0.76399,1.41336,0.48426,0.59488,1.27334,-0.04618,0.70233,1.26964,0.4807,0.46315,1.00814,-0.07481,0.90417,1.12483,0.5261,0.42649,0.78053
407,0.40693,0.74842,1.40956,0.13961,0.59431,0.08452,0.32935,0.39699,0.11764,0.11412,0.58451,0.48723,0.33244,0.50659,0.50218,0.10662,0.53319,0.90149,0.28176,0.4762,0.90406,0.2092,0.7633,1.41203,0.48627,0.59565,1.27216,-0.04425,0.7017,1.26667,0.48366,0.46564,1.0061,-0.0729,0.90249,1.1204,0.52871,0.42923,0.77839
408,0.40857,0.74851,1.40868,0.14014,0.59467,0.08432,0.33515,0.40896,0.11218,0.1142,0.58682,0.48704,0.33092,0.50639,0.49998,0.10736,0.53254,0.90094,0.28279,0.47644,0.90221,0.21039,0.76223,1.41063,0.4888,0.59689,1.27067,-0.04212,0.70072,1.26359,0.48676,0.46824,1.00395,-0.07071,0.90048,1.11591,0.5313,0.43235,0.77605
409,0.41053,0.74828,1.4073,0.1408,0.59498,0.08386,0.33976,0.42049,0.10722,0.11447,0.58924,0.48659,0.3302,0.50666,0.49757,0.10832,0.53172,0.90006,0.28408,0.47664,0.90003,0.21188,0.76086,1.40922,0.49198,0.59818,1.26884,-0.03963,0.69955,1.26039,0.4899,0.47058,1.00161,-0.06814,0.89823,1.11125,0.53386,0.43574,0.77344
410,0.41243,0.74789,1.40545,0.14143,0.59512,0.08325,0.34314,0.43077,0.10289,0.11479,0.59199,0.486,0.33014,0.50776,0.49506,0.10946,0.53077,0.89895,0.28548,0.47656,0.8976,0.21358,0.75933,1.4078,0.4955,0.59913,1.26678,-0.03689,0.69825,1.25714,0.49302,0.4727,0.999,-0.06529,0.89595,1.10668,0.53645,0.43944,0.77049
411,0.41396,0.74754,1.4032,0.14202,0.59527,0.08268,0.3453,0.43858,0.09927,0.11495,0.59536,0.48541,0.33046,0.50998,0.49243,0.11049,0.52967,0.89768,0.28666,0.476,0.89483,0.2153,0.75771,1.4063,0.49889,0.59972,1.26452,-0.03415,0.69671,1.25392,0.49609,0.47472,0.99607,-0.0623,0.89373,1.10253,0.53916,0.44353,0.7672
412,0.41515,0.74729,1.40063,0.14255,0.59566,0.08227,0.34633,0.44285,0.09642,0.11477,0.59952,0.48493,0.33092,0.51314,0.48977,0.11131,0.52831,0.89629,0.28753,0.47491,0.89183,0.21693,0.7562,1.40458,0.50182,0.60014,1.26203,-0.0315,0.69482,1.25068,0.49908,0.47662,0.99289,-0.05926,0.8915,1.09877,0.54204,0.44802,0.76366
413,0.41643,0.74698,1.39788,0.14284,0.59618,0.08198,0.3465,0.44346,0.09451,0.11415,0.60444,0.4845,0.33135,0.51665,0.48733,0.11207,0.52667,0.89469,0.28828,0.47337,0.88892,0.21849,0.75489,1.40244,0.50431,0.6005,1.25928,-0.02895,0.69265,1.24731,0.50194,0.47837,0.98951,-0.05614,0.88914,1.09506,0.54501,0.45283,0.75994
414,0.41813,0.74646,1.3951,0.14268,0.59651,0.08169,0.34618,0.44164,0.09341,0.11309,0.60991,0.48402,0.33169,0.51996,0.48526,0.11293,0.52494,0.89278,0.2891,0.47154,0.88632,0.22008,0.75367,1.39972,0.50675,0.60092,1.25622,-0.02653,0.69033,1.24371,0.50464,0.48,0.9859,-0.05278,0.88669,1.09111,0.54792,0.45779,0.75602
415,0.42011,0.74583,1.39225,0.14222,0.59657,0.08138,0.3457,0.43936,0.09255,0.11167,0.61568,0.48341,0.33205,0.52303,0.48333,0.11399,0.52335,0.89056,0.29011,0.46984,0.88385,0.22165,0.75221,1.39655,0.50949,0.60154,1.25275,-0.02429,0.68794,1.23987,0.50719,0.48164,0.98198,-0.04927,0.88418,1.08691,0.55067,0.46274,0.75184
416,0.42186,0.74534,1.38908,0.14185,0.5966,0.08114,0.34526,0.43809,0.09133,0.11005,0.62157,0.48274,0.33264,0.52634,0.48114,0.11534,0.52187,0.88812,0.29161,0.46886,0.88115,0.2232,0.7502,1.39329,0.51255,0.60231,1.24886,-0.02219,0.68536,1.23598,0.5097,0.48327,0.97772,-0.04597,0.88153,1.08274,0.55338,0.46763,0.74738
417,0.42302,0.74512,1.38538,0.1418,0.59673,0.08108,0.34487,0.43798,0.08968,0.10841,0.62738,0.48216,0.33366,0.5303,0.47858,0.11713,0.52032,0.8856,0.29384,0.46888,0.87813,0.22489,0.74758,1.3902,0.51557,0.60293,1.24474,-0.02004,0.68243,1.23232,0.51235,0.48484,0.97318,-0.04312,0.87855,1.07892,0.55626,0.4726,0.74267
418,0.4237,0.74508,1.38126,0.14192,0.59689,0.08123,0.34463,0.43829,0.0881,0.10691,0.63278,0.48174,0.33511,0.53481,0.47603,0.11926,0.51872,0.88316,0.29655,0.46944,0.87508,0.22695,0.7446,1.38726,0.51814,0.60329,1.24065,-0.01772,0.67922,1.22906,0.51525,0.48644,0.96855,-0.04048,0.87523,1.07547,0.55936,0.47781,0.73793
419,0.42427,0.74494,1.37713,0.14188,0.59699,0.08151,0.34476,0.4384,0.08714,0.10558,0.63753,0.48146,0.33679,0.53941,0.47396,0.12142,0.51725,0.88094,0.29918,0.46977,0.87237,0.22931,0.74161,1.38438,0.52019,0.60352,1.23684,-0.01527,0.67598,1.22615,0.51831,0.48824,0.96406,-0.03768,0.87175,1.0722,0.56244,0.48325,0.73333
420,0.42502,0.74452,1.37337,0.14161,0.59707,0.08178,0.34546,0.43825,0.08683,0.10434,0.6416,0.48122,0.33863,0.54375,0.47247,0.12338,0.51601,0.87892,0.30141,0.46962,0.87011,0.23161,0.73884,1.38163,0.522,0.60365,1.23337,-0.01286,0.67287,1.22338,0.5213,0.49025,0.9598,-0.03472,0.86838,1.06901,0.56515,0.48872,0.72896
421,0.42613,0.74391,1.37006,0.14141,0.59726,0.08193,0.34678,0.43807,0.08679,0.1032,0.64513,0.48089,0.34084,0.54771,0.47129,0.12509,0.5149,0.87695,0.30332,0.46926,0.86808,0.23359,0.73633,1.37913,0.5239,0.60361,1.23016,-0.01057,0.66981,1.22061,0.52402,0.49229,0.95574,-0.03197,0.86518,1.06602,0.56738,0.49396,0.72482
422,0.42755,0.7433,1.36705,0.14148,0.59753,0.08187,0.34853,0.43803,0.0866,0.10223,0.6481,0.4804,0.34355,0.55125,0.47007,0.12666,0.51377,0.87494,0.30507,0.46888,0.86597,0.23539,0.73403,1.37683,0.52601,0.60339,1.22718,-0.00824,0.66664,1.21787,0.52637,0.49404,0.95196,-0.02972,0.86197,1.06323,0.5694,0.49878,0.72102
423,0.42909,0.74276,1.36426,0.14173,0.59776,0.08162,0.35038,0.43818,0.08617,0.10148,0.65035,0.47978,0.3466,0.55445,0.46874,0.12812,0.51261,0.873,0.30669,0.46843,0.86372,0.23727,0.73198,1.37464,0.52811,0.6031,1.22442,-0.0057,0.66335,1.2152,0.52837,0.49533,0.94858,-0.02775,0.85853,1.06045,0.57155,0.50315,0.71775
424,0.4306,0.74212,1.36183,0.14199,0.59782,0.08126,0.35197,0.43845,0.08568,0.1008,0.65179,0.47915,0.3497,0.55729,0.46748,0.12945,0.51146,0.87131,0.30811,0.46778,0.86151,0.23935,0.73028,1.37256,0.52986,0.60289,1.22197,-0.00291,0.66002,1.21274,0.53009,0.49633,0.94566,-0.02568,0.8548,1.0576,0.57383,0.5072,0.71506
425,0.43212,0.74121,1.35981,0.14213,0.59775,0.08092,0.35318,0.43868,0.08531,0.1001,0.65257,0.4786,0.3527,0.5596,0.46646,0.13066,0.51019,0.86988,0.30941,0.46697,0.85958,0.24151,0.72895,1.37071,0.53119,0.6028,1.21986,-3e-05,0.65674,1.2107,0.53156,0.49739,0.94312,-0.02344,0.85098,1.05497,0.57593,0.51108,0.71279
426,0.4337,0.74018,1.35806,0.14204,0.59764,0.08064,0.35419,0.4387,0.08509,0.09953,0.653,0.4782,0.35552,0.5612,0.46573,0.13178,0.50871,0.86864,0.31068,0.46617,0.85811,0.24361,0.72779,1.36928,0.53237,0.60285,1.21804,0.00275,0.65353,1.20916,0.53282,0.4987,0.94082,-0.02136,0.84722,1.05287,0.57753,0.51492,0.71072
427,0.43531,0.73929,1.3564,0.14176,0.59752,0.08044,0.35517,0.43853,0.08496,0.09925,0.65333,0.47793,0.3581,0.56212,0.46524,0.13288,0.50709,0.86752,0.31199,0.46541,0.85706,0.24561,0.72647,1.36827,0.53374,0.60298,1.21641,0.00532,0.65052,1.20809,0.53392,0.50017,0.93869,-0.01972,0.84361,1.05118,0.57861,0.51874,0.70876
428,0.43682,0.73857,1.35487,0.14151,0.59741,0.0803,0.35606,0.43828,0.08481,0.09922,0.65365,0.47775,0.36037,0.56247,0.46488,0.134,0.50541,0.86649,0.31331,0.46454,0.85629,0.2475,0.72483,1.36749,0.53527,0.60306,1.21492,0.00751,0.64788,1.20733,0.53492,0.50157,0.93671,-0.01849,0.84011,1.04954,0.5794,0.52246,0.70694
429,0.43812,0.73789,1.35363,0.14151,0.5973,0.08027,0.35676,0.4381,0.08451,0.09919,0.65377,0.47769,0.36224,0.56233,0.46455,0.13509,0.50372,0.86563,0.31456,0.46349,0.85564,0.24914,0.72328,1.3667,0.53666,0.60295,1.21356,0.00922,0.6456,1.20679,0.53581,0.50278,0.93488,-0.01734,0.83675,1.04777,0.58015,0.52593,0.7053
430,0.43924,0.73719,1.35277,0.14178,0.59717,0.08036,0.35735,0.43802,0.08404,0.09896,0.65349,0.47775,0.36371,0.56186,0.4642,0.13607,0.50211,0.86506,0.31566,0.46241,0.8551,0.25038,0.72241,1.36577,0.53778,0.60277,1.21235,0.0105,0.64351,1.20641,0.53652,0.50378,0.93324,-0.01609,0.83353,1.04605,0.58082,0.52904,0.70388
431,0.44042,0.73653,1.35217,0.14212,0.59702,0.08054,0.35793,0.43795,0.08358,0.09857,0.65277,0.47793,0.36486,0.56114,0.46394,0.13691,0.50071,0.86485,0.31659,0.46148,0.85476,0.25138,0.72231,1.3648,0.53882,0.60271,1.21139,0.01162,0.64137,1.20627,0.53701,0.5047,0.93194,-0.01501,0.83035,1.0447,0.5813,0.53185,0.70279
432,0.44183,0.73599,1.35168,0.14233,0.59685,0.08077,0.35848,0.43777,0.08331,0.09824,0.65176,0.47821,0.36587,0.56014,0.46392,0.13765,0.49953,0.86496,0.31743,0.46074,0.85479,0.25248,0.72246,1.36393,0.53997,0.60273,1.21091,0.01275,0.63917,1.20658,0.53736,0.5056,0.93116,-0.01455,0.82704,1.04384,0.58151,0.53443,0.70219
433,0.44336,0.73557,1.35125,0.14233,0.59669,0.081,0.35877,0.43748,0.08329,0.09818,0.6506,0.47858,0.36688,0.55886,0.46421,0.13834,0.49848,0.86529,0.31818,0.45999,0.85518,0.25373,0.7224,1.36335,0.54115,0.60257,1.21098,0.01375,0.63712,1.20746,0.53771,0.50639,0.93091,-0.01493,0.82353,1.04328,0.58149,0.5368,0.70207
434,0.44464,0.73518,1.35102,0.14212,0.59652,0.08121,0.35872,0.43723,0.08346,0.09844,0.64934,0.47898,0.36798,0.55739,0.46474,0.13892,0.49745,0.86575,0.31878,0.45902,0.85576,0.25483,0.72208,1.36321,0.54218,0.60218,1.21127,0.01439,0.63546,1.20878,0.53807,0.50696,0.93089,-0.01592,0.82,1.04278,0.58137,0.53886,0.70216
435,0.44548,0.73476,1.35112,0.14172,0.59626,0.08136,0.35854,0.43719,0.08373,0.09889,0.64799,0.47937,0.36917,0.5559,0.46542,0.13927,0.49646,0.8663,0.31908,0.45779,0.8564,0.25559,0.72169,1.36346,0.543,0.60183,1.21144,0.01463,0.63421,1.21033,0.53835,0.50739,0.9308,-0.0171,0.81669,1.04233,0.58126,0.54046,0.70217
436,0.44612,0.73429,1.35158,0.14127,0.59587,0.08148,0.35856,0.4373,0.08407,0.09941,0.64651,0.47974,0.37039,0.55437,0.46623,0.13942,0.49558,0.86693,0.31913,0.45638,0.85709,0.25612,0.72144,1.36395,0.54363,0.60176,1.21151,0.01466,0.63318,1.21205,0.53861,0.50787,0.93069,-0.01829,0.81366,1.04214,0.58115,0.54156,0.70207
437,0.44686,0.73378,1.35228,0.1409,0.59545,0.08162,0.35891,0.43734,0.08447,0.09997,0.64488,0.48012,0.37153,0.55267,0.46714,0.13955,0.49478,0.86768,0.31911,0.45492,0.85791,0.25664,0.72134,1.36465,0.54415,0.60195,1.21177,0.01472,0.63222,1.21401,0.53897,0.50839,0.93084,-0.01964,0.81078,1.04236,0.58087,0.54231,0.70214
438,0.44769,0.73328,1.35304,0.14059,0.59506,0.08175,0.35938,0.4372,0.08485,0.10059,0.64298,0.48053,0.37248,0.5507,0.46805,0.13974,0.49388,0.86852,0.3192,0.45353,0.85884,0.25721,0.72121,1.36567,0.54467,0.60217,1.21239,0.01489,0.63127,1.21615,0.53936,0.50873,0.93143,-0.02127,0.80802,1.043,0.58041,0.54294,0.70262
439,0.44831,0.73293,1.35376,0.14028,0.59467,0.08181,0.35967,0.43689,0.08506,0.10128,0.64072,0.48091,0.37319,0.54845,0.46882,0.14,0.49283,0.86941,0.31941,0.45225,0.85978,0.2577,0.72088,1.36703,0.5452,0.60216,1.21331,0.01511,0.63031,1.21832,0.53957,0.50876,0.93234,-0.02309,0.80547,1.04399,0.57987,0.54361,0.7035
440,0.44859,0.73274,1.35442,0.14001,0.59428,0.08177,0.35964,0.43656,0.08507,0.10193,0.63822,0.48119,0.37368,0.54601,0.46941,0.14023,0.49184,0.8703,0.3196,0.45109,0.86065,0.25799,0.72051,1.36859,0.54551,0.60175,1.21439,0.01529,0.62934,1.22044,0.53942,0.50858,0.93335,-0.02492,0.80321,1.04528,0.57935,0.54423,0.70456
441,0.44867,0.73253,1.35507,0.13987,0.59393,0.0817,0.35943,0.43634,0.08491,0.10238,0.63572,0.48141,0.37395,0.54351,0.46987,0.14034,0.49122,0.87126,0.3196,0.45005,0.86143,0.25802,0.72034,1.37012,0.54547,0.60097,1.21537,0.01528,0.62839,1.2225,0.53896,0.50824,0.9342,-0.02674,0.8012,1.04672,0.57876,0.5446,0.7055
442,0.44882,0.73206,1.35576,0.13983,0.59366,0.0817,0.35926,0.4363,0.08468,0.10263,0.6334,0.48165,0.37404,0.54106,0.4703,0.14027,0.49101,0.8723,0.31938,0.44925,0.8622,0.2578,0.72026,1.37141,0.54528,0.6001,1.21611,0.01502,0.62746,1.22441,0.53843,0.50779,0.93481,-0.0286,0.79935,1.04811,0.57796,0.54463,0.70614
443,0.44917,0.7313,1.35656,0.13985,0.59347,0.08175,0.35928,0.43634,0.08444,0.10288,0.63124,0.4819,0.37407,0.53866,0.47072,0.14008,0.49091,0.87334,0.31907,0.44869,0.863,0.25753,0.71993,1.37244,0.54507,0.59929,1.2167,0.01458,0.6266,1.22605,0.53804,0.50724,0.93532,-0.03051,0.79769,1.04935,0.57694,0.54446,0.7066
444,0.44955,0.73037,1.35754,0.13988,0.59332,0.08176,0.3594,0.43632,0.08423,0.10326,0.62916,0.48212,0.37408,0.53631,0.47112,0.13989,0.49064,0.87427,0.31882,0.44821,0.86378,0.25746,0.71922,1.37335,0.54473,0.59828,1.21744,0.01419,0.62586,1.22752,0.53782,0.50656,0.93594,-0.03245,0.79627,1.05056,0.57584,0.5442,0.70715
445,0.4497,0.72944,1.35874,0.13985,0.59315,0.08169,0.35946,0.43615,0.08408,0.10375,0.6271,0.48227,0.37402,0.53409,0.47149,0.13978,0.49016,0.87502,0.31868,0.44761,0.8645,0.25758,0.71848,1.37433,0.54428,0.59685,1.21845,0.0139,0.6253,1.22907,0.53757,0.50575,0.93675,-0.03439,0.79503,1.05191,0.57484,0.54387,0.70791
446,0.44945,0.72859,1.36015,0.13978,0.59301,0.08159,0.35941,0.43586,0.08398,0.10422,0.62515,0.48237,0.37385,0.53205,0.47184,0.13972,0.48953,0.87563,0.31858,0.44685,0.86514,0.25759,0.71794,1.37545,0.54395,0.59535,1.21962,0.01351,0.6248,1.23082,0.53721,0.50492,0.9377,-0.0363,0.79391,1.05349,0.57403,0.54338,0.70885
447,0.44888,0.72776,1.36168,0.13977,0.59299,0.08152,0.35933,0.43558,0.08389,0.10464,0.62342,0.48247,0.37357,0.53014,0.47216,0.13966,0.48888,0.87614,0.3185,0.44607,0.86573,0.25725,0.71735,1.37659,0.54384,0.59435,1.22086,0.01278,0.62422,1.23262,0.53685,0.50425,0.93884,-0.03821,0.79294,1.05524,0.57339,0.54277,0.70995
448,0.44827,0.72687,1.36324,0.13988,0.59308,0.0815,0.35928,0.4354,0.08373,0.10506,0.62195,0.4826,0.37326,0.52829,0.47241,0.13963,0.48833,0.87662,0.31845,0.44541,0.86628,0.25671,0.71629,1.37756,0.54374,0.59393,1.22218,0.01171,0.62356,1.23423,0.53658,0.5037,0.94021,-0.04019,0.79217,1.05702,0.57288,0.54202,0.71125
449,0.44786,0.72584,1.36471,0.14005,0.59314,0.08151,0.3593,0.43533,0.08358,0.1055,0.62065,0.48272,0.37303,0.52659,0.47265,0.1397,0.48799,0.87711,0.31848,0.44488,0.86679,0.25621,0.71463,1.37845,0.54349,0.59347,1.22359,0.01056,0.62292,1.23559,0.53625,0.50308,0.94168,-0.04226,0.79161,1.05873,0.5724,0.54107,0.71264
450,0.44773,0.7246,1.36606,0.14013,0.5931,0.08154,0.35937,0.43527,0.08357,0.10591,0.6194,0.48286,0.37299,0.52524,0.47295,0.13984,0.48786,0.87763,0.31853,0.44441,0.86729,0.2558,0.71264,1.37962,0.54308,0.59233,1.22501,0.0096,0.62236,1.2368,0.53562,0.50209,0.94305,-0.04442,0.79127,1.06051,0.57184,0.53979,0.71398
451,0.44769,0.72314,1.36744,0.14006,0.59304,0.08157,0.35946,0.43516,0.08378,0.10625,0.61824,0.483,0.3732,0.52426,0.47335,0.13998,0.48786,0.87817,0.31857,0.44398,0.86778,0.25538,0.71069,1.38121,0.5425,0.59045,1.22631,0.00888,0.62186,1.23799,0.53465,0.5006,0.94423,-0.04667,0.79124,1.06262,0.57114,0.53822,0.71519
452,0.44752,0.72156,1.36903,0.13987,0.59301,0.08159,0.35956,0.43506,0.08404,0.10651,0.61727,0.48311,0.37349,0.52341,0.47378,0.14008,0.48795,0.87865,0.31855,0.44363,0.86826,0.25482,0.70901,1.38291,0.54176,0.58837,1.22751,0.00819,0.62141,1.23916,0.53373,0.4988,0.94535,-0.04895,0.79159,1.06509,0.57038,0.53653,0.71635
453,0.44704,0.71993,1.37083,0.13964,0.59297,0.08163,0.35969,0.43501,0.08419,0.10675,0.61659,0.48323,0.37363,0.52254,0.47411,0.14009,0.488,0.87903,0.3185,0.44338,0.86869,0.25406,0.70761,1.3844,0.54096,0.58656,1.2288,0.00734,0.621,1.2402,0.53324,0.49709,0.9466,-0.0511,0.79227,1.06763,0.56967,0.53487,0.71757
454,0.4463,0.71832,1.37274,0.13948,0.59291,0.08171,0.35984,0.43505,0.08418,0.10695,0.61622,0.48336,0.3735,0.52169,0.47431,0.13998,0.4879,0.87927,0.31837,0.44321,0.86903,0.25305,0.70641,1.38563,0.54013,0.58507,1.23014,0.00633,0.6206,1.24097,0.53302,0.49566,0.94791,-0.05299,0.79307,1.0699,0.56906,0.53322,0.71879
455,0.44535,0.71675,1.37466,0.13951,0.59288,0.08176,0.35998,0.43518,0.08409,0.10709,0.61614,0.48342,0.37313,0.52099,0.47442,0.13969,0.48766,0.87932,0.31812,0.44307,0.86927,0.25172,0.70531,1.38678,0.53915,0.58376,1.23127,0.00521,0.62008,1.2414,0.53238,0.49417,0.94908,-0.0547,0.79382,1.07183,0.56843,0.53142,0.71991
456,0.44415,0.71521,1.37657,0.13972,0.59289,0.08169,0.36011,0.43529,0.08406,0.10712,0.61623,0.48332,0.37272,0.52042,0.47456,0.13929,0.48737,0.87913,0.31778,0.4429,0.8695,0.25008,0.70408,1.38796,0.53805,0.5826,1.23208,0.00397,0.61937,1.24161,0.531,0.49229,0.95013,-0.05637,0.79451,1.07365,0.56765,0.52932,0.72102
457,0.44259,0.71378,1.37843,0.13997,0.59287,0.08152,0.36025,0.43527,0.08417,0.10699,0.61634,0.48312,0.37244,0.51995,0.47478,0.13898,0.48706,0.87881,0.31754,0.4428,0.86979,0.24819,0.70246,1.3892,0.53708,0.58166,1.233,0.00249,0.6186,1.24166,0.52936,0.49014,0.95146,-0.05784,0.7954,1.07544,0.56676,0.52705,0.72244
458,0.44076,0.71252,1.38026,0.14014,0.59284,0.08142,0.36034,0.43514,0.08435,0.10662,0.61643,0.48297,0.37234,0.5196,0.47501,0.13886,0.48677,0.87851,0.31752,0.44278,0.8701,0.24618,0.70057,1.39039,0.53639,0.58083,1.23454,0.00079,0.61811,1.24156,0.52822,0.48811,0.95341,-0.05879,0.79676,1.07705,0.56593,0.52483,0.72442
459,0.43888,0.71131,1.38209,0.14021,0.59281,0.08141,0.36031,0.43498,0.08447,0.10603,0.61659,0.48289,0.37235,0.51936,0.47515,0.13883,0.48659,0.87828,0.31754,0.44272,0.87027,0.24423,0.69888,1.39142,0.53574,0.58001,1.23673,-0.00096,0.61813,1.24134,0.52775,0.48635,0.95591,-0.05919,0.79862,1.07836,0.56525,0.52273,0.72683
460,0.43697,0.70992,1.38398,0.1402,0.59281,0.08141,0.36028,0.43489,0.08448,0.10536,0.61683,0.48282,0.3724,0.51924,0.47516,0.13869,0.4866,0.87809,0.31738,0.44262,0.87026,0.24239,0.69768,1.39227,0.53471,0.57917,1.23912,-0.00262,0.61852,1.24104,0.52747,0.48456,0.95859,-0.05937,0.80074,1.07946,0.56464,0.52052,0.72939
461,0.43484,0.70821,1.38605,0.14016,0.59288,0.08136,0.36043,0.43499,0.08443,0.10477,0.61703,0.48272,0.37247,0.51924,0.47514,0.13836,0.48674,0.87794,0.31701,0.44259,0.87017,0.2405,0.69667,1.39308,0.53312,0.57824,1.24121,-0.00425,0.619,1.24067,0.52677,0.48241,0.96107,-0.05958,0.8029,1.08053,0.56404,0.51801,0.73183
462,0.43233,0.70631,1.38843,0.14016,0.59306,0.08132,0.36083,0.43529,0.0844,0.10431,0.61717,0.48264,0.37249,0.51927,0.47518,0.13794,0.48692,0.87787,0.31657,0.44267,0.87016,0.23847,0.69536,1.39407,0.53116,0.57706,1.24283,-0.00591,0.61933,1.24025,0.5255,0.47987,0.96314,-0.05992,0.80494,1.08163,0.5635,0.51529,0.73399
463,0.42954,0.70447,1.39093,0.14019,0.59325,0.08135,0.36124,0.43554,0.08445,0.10405,0.61734,0.48264,0.37232,0.51914,0.47532,0.13756,0.48708,0.87788,0.31617,0.44274,0.87031,0.23634,0.69374,1.39521,0.5291,0.57556,1.2442,-0.00756,0.6195,1.23974,0.52394,0.47724,0.9649,-0.06038,0.80684,1.08277,0.56307,0.51246,0.73591
464,0.4267,0.70292,1.39312,0.14007,0.59333,0.08137,0.36151,0.43548,0.08457,0.10407,0.61758,0.48266,0.37191,0.51865,0.47555,0.13717,0.48729,0.87792,0.31578,0.44288,0.87066,0.2341,0.69223,1.39631,0.52706,0.57383,1.24576,-0.00913,0.61962,1.23905,0.52241,0.4748,0.9667,-0.06088,0.80865,1.08375,0.56272,0.50958,0.73785
465,0.42401,0.70172,1.39479,0.1397,0.59323,0.08126,0.36173,0.43517,0.08473,0.10437,0.61774,0.48259,0.37135,0.51775,0.47586,0.13662,0.48765,0.87799,0.31522,0.44316,0.87119,0.23162,0.69108,1.39732,0.52495,0.57206,1.2478,-0.01071,0.61976,1.23808,0.521,0.47253,0.96891,-0.06135,0.81034,1.08431,0.56237,0.50665,0.74014
466,0.4215,0.70068,1.39623,0.13929,0.59312,0.08105,0.36207,0.43488,0.08489,0.10483,0.61756,0.48247,0.37073,0.51645,0.47625,0.13583,0.4881,0.87818,0.31441,0.4434,0.87184,0.2288,0.6901,1.39831,0.52275,0.57047,1.25025,-0.01242,0.61988,1.23692,0.51959,0.47017,0.97163,-0.06179,0.81174,1.08434,0.56193,0.50371,0.74296
467,0.41911,0.69954,1.39782,0.1391,0.59312,0.08086,0.36245,0.43481,0.08499,0.10528,0.61683,0.48238,0.37006,0.51475,0.47671,0.13494,0.48845,0.87853,0.31342,0.44332,0.87255,0.22582,0.68917,1.39939,0.52067,0.5692,1.25282,-0.01421,0.61994,1.23581,0.51804,0.46753,0.97469,-0.06211,0.81278,1.084,0.5614,0.50077,0.74616
468,0.41675,0.69817,1.39958,0.13919,0.59319,0.08071,0.36263,0.43492,0.08504,0.10569,0.61561,0.48233,0.3693,0.51268,0.47722,0.13408,0.48859,0.87902,0.31242,0.4429,0.87332,0.22296,0.68833,1.40058,0.51894,0.56809,1.2553,-0.01591,0.62007,1.2349,0.51637,0.46468,0.97782,-0.06217,0.81362,1.08348,0.56079,0.49783,0.74948
469,0.41445,0.69673,1.40125,0.13942,0.59322,0.08055,0.36253,0.43502,0.08508,0.10616,0.61404,0.48228,0.36853,0.51027,0.47775,0.1332,0.4886,0.87956,0.31139,0.44231,0.87414,0.22033,0.68762,1.40188,0.51746,0.56668,1.25784,-0.01738,0.62045,1.23411,0.51468,0.46193,0.98085,-0.06191,0.81454,1.08288,0.56013,0.49495,0.7527
470,0.41221,0.69545,1.40268,0.13969,0.59318,0.08035,0.36236,0.43489,0.08516,0.10671,0.61217,0.48219,0.36784,0.50763,0.47832,0.13214,0.48867,0.88019,0.31015,0.44165,0.87496,0.21786,0.68702,1.4032,0.51581,0.56462,1.26064,-0.01864,0.62114,1.23322,0.51307,0.45952,0.98379,-0.06138,0.81578,1.08217,0.55946,0.49219,0.75578
471,0.40995,0.69447,1.40404,0.13998,0.59315,0.08009,0.36236,0.43455,0.08533,0.10727,0.60994,0.48205,0.36718,0.50477,0.47895,0.13087,0.48887,0.88091,0.30862,0.44086,0.8758,0.21542,0.68656,1.40436,0.51354,0.56216,1.26367,-0.01977,0.62202,1.23207,0.51145,0.45737,0.98669,-0.06057,0.81732,1.08134,0.55877,0.48955,0.7588
472,0.40755,0.69377,1.40555,0.14027,0.59311,0.07983,0.3625,0.43419,0.0856,0.10782,0.6074,0.48191,0.36635,0.50157,0.47973,0.12946,0.48904,0.88169,0.30689,0.43984,0.87679,0.21296,0.68638,1.40533,0.51064,0.55988,1.26669,-0.02085,0.6229,1.23078,0.50969,0.45523,0.98965,-0.05942,0.81895,1.08043,0.55807,0.48697,0.76192
473,0.4049,0.69327,1.4072,0.14044,0.59303,0.07967,0.36259,0.43398,0.086,0.10847,0.60469,0.48186,0.36527,0.49792,0.48071,0.12798,0.48894,0.88252,0.30509,0.43857,0.87803,0.21056,0.68662,1.40624,0.5076,0.55811,1.26963,-0.02186,0.62368,1.22964,0.5077,0.45289,0.99282,-0.05795,0.82032,1.07945,0.55734,0.48444,0.76533
474,0.40198,0.69277,1.40897,0.14039,0.59301,0.07965,0.36256,0.43388,0.08651,0.10931,0.60203,0.48199,0.36401,0.49387,0.48185,0.12642,0.48855,0.8834,0.30326,0.43717,0.87946,0.20829,0.68734,1.40719,0.50487,0.55681,1.2727,-0.02277,0.62441,1.22883,0.50562,0.45039,0.99634,-0.05618,0.82132,1.07838,0.55659,0.48204,0.76916
475,0.39907,0.69202,1.41098,0.14012,0.59318,0.07975,0.36253,0.43375,0.08708,0.11016,0.59949,0.48222,0.36258,0.4896,0.48303,0.12487,0.48814,0.88432,0.30141,0.43572,0.88097,0.20611,0.68836,1.40806,0.50245,0.55573,1.27608,-0.02371,0.6252,1.22817,0.50366,0.44791,1.00027,-0.05421,0.82213,1.07711,0.55588,0.47992,0.77343
476,0.39651,0.69079,1.41334,0.13977,0.5935,0.07987,0.36268,0.43344,0.08766,0.11077,0.59695,0.48244,0.36094,0.48529,0.48415,0.12344,0.48794,0.88526,0.29959,0.43419,0.88243,0.20378,0.68925,1.40872,0.50001,0.55459,1.27982,-0.02483,0.62614,1.22729,0.50195,0.44562,1.00446,-0.05216,0.82306,1.07562,0.55527,0.47809,0.77794
