PaulMeinheit/Bachelor_Muay_Thai/processed_Data/E1/roundhouse/sliced/JointPositions/sliced1.csv
Unnamed: 0_level_0,Neck_Joint_Position,Neck_Joint_Position,Neck_Joint_Position,L_ANKLE_POSITION,L_ANKLE_POSITION,L_ANKLE_POSITION,R_ANKLE_POSITION,R_ANKLE_POSITION,R_ANKLE_POSITION,L_KNEE_POSITION,L_KNEE_POSITION,L_KNEE_POSITION,R_KNEE_POSITION,R_KNEE_POSITION,R_KNEE_POSITION,L_HIP_POSITION,L_HIP_POSITION,L_HIP_POSITION,R_HIP_POSITION,R_HIP_POSITION,R_HIP_POSITION,L_SHOULDER_POSITION,L_SHOULDER_POSITION,L_SHOULDER_POSITION,R_SHOULDER_POSITION,R_SHOULDER_POSITION,R_SHOULDER_POSITION,L_ELBOW_POSITION,L_ELBOW_POSITION,L_ELBOW_POSITION,R_ELBOW_POSITION,R_ELBOW_POSITION,R_ELBOW_POSITION,L_WRIST_POSITION,L_WRIST_POSITION,L_WRIST_POSITION,R_WRIST_POSITION,R_WRIST_POSITION,R_WRIST_POSITION
ITEM,X,Y,Z,X,Y,Z,X,Y,Z,X,Y,Z,X,Y,Z,X,Y,Z,X,Y,Z,X,Y,Z,X,Y,Z,X,Y,Z,X,Y,Z,X,Y,Z,X,Y,Z
1001,0.09359,0.18872,1.53699,0.12538,0.54368,0.1198,0.06267,0.08659,0.07673,0.0872,0.50087,0.54125,0.13337,0.12241,0.49577,0.03336,0.27536,0.92293,0.15167,0.13349,0.9351,-0.0558,0.28584,1.47974,0.17977,0.04023,1.47881,-0.08084,0.43172,1.20918,0.34497,0.18648,1.26078,0.02572,0.52879,1.44158,0.26027,0.31814,1.47819
1002,0.09376,0.18901,1.53692,0.12547,0.54386,0.12011,0.06286,0.08642,0.07672,0.08744,0.50175,0.54165,0.13331,0.1222,0.49581,0.03335,0.27555,0.92289,0.15154,0.13359,0.93514,-0.05553,0.28621,1.47985,0.17976,0.04026,1.47874,-0.08074,0.43222,1.20938,0.34507,0.18723,1.26128,0.02598,0.52973,1.44152,0.26042,0.3183,1.47907
1003,0.0943,0.18943,1.53669,0.12563,0.54409,0.1206,0.06287,0.08641,0.07673,0.08764,0.50289,0.54224,0.13326,0.12192,0.49586,0.0332,0.27572,0.92285,0.15141,0.13379,0.93517,-0.05539,0.28639,1.47992,0.18036,0.04016,1.47876,-0.0807,0.43266,1.20959,0.3452,0.18817,1.26165,0.02619,0.53073,1.44141,0.26062,0.3185,1.47991
1004,0.09492,0.19002,1.53637,0.12579,0.54434,0.12119,0.06269,0.08651,0.07672,0.08786,0.50414,0.54292,0.1332,0.12167,0.49585,0.03307,0.27591,0.92285,0.15127,0.13396,0.93516,-0.05545,0.28662,1.47991,0.18108,0.04017,1.47878,-0.08075,0.43317,1.20974,0.34558,0.18912,1.26205,0.02622,0.53181,1.44128,0.26087,0.31877,1.48066
1005,0.09514,0.19069,1.53622,0.12579,0.54472,0.12178,0.06239,0.08661,0.07667,0.08819,0.50541,0.54363,0.13308,0.12153,0.4958,0.03303,0.27615,0.92288,0.15108,0.13407,0.9351,-0.05565,0.287,1.47979,0.18134,0.04047,1.47881,-0.08084,0.43376,1.20973,0.34613,0.18979,1.26255,0.02596,0.53292,1.44113,0.26129,0.31915,1.48129
1006,0.09476,0.19131,1.53633,0.12565,0.54532,0.12231,0.06212,0.08662,0.07662,0.08869,0.50661,0.54428,0.13298,0.12148,0.49572,0.03305,0.27649,0.92293,0.15086,0.13419,0.93502,-0.05586,0.28747,1.4795,0.18101,0.04105,1.47888,-0.08089,0.43438,1.2095,0.34669,0.19006,1.26309,0.02553,0.53398,1.44088,0.26209,0.31961,1.48181
1007,0.09414,0.19193,1.53652,0.12562,0.54613,0.12282,0.06196,0.08651,0.07659,0.08925,0.5077,0.54486,0.133,0.12136,0.49566,0.0331,0.27692,0.92304,0.1506,0.13435,0.93496,-0.05594,0.28801,1.47909,0.1805,0.04166,1.47893,-0.08081,0.43504,1.20915,0.34728,0.19013,1.26362,0.02528,0.53504,1.44051,0.26321,0.32003,1.48233
1008,0.09397,0.1926,1.53655,0.12583,0.54704,0.12344,0.06194,0.08632,0.07658,0.08971,0.50879,0.54552,0.13313,0.12108,0.49564,0.03314,0.27733,0.92322,0.15033,0.1345,0.93494,-0.05584,0.28877,1.47876,0.18017,0.04211,1.47888,-0.08051,0.4358,1.2088,0.34802,0.19033,1.26422,0.02548,0.53617,1.44005,0.26415,0.32045,1.48288
1009,0.09458,0.19319,1.53639,0.1261,0.54789,0.12428,0.06202,0.08615,0.07658,0.08999,0.51018,0.5464,0.13325,0.1207,0.49564,0.03319,0.27765,0.92342,0.15017,0.13463,0.93494,-0.05556,0.28986,1.47868,0.18008,0.04241,1.47877,-0.08001,0.43666,1.20857,0.3489,0.19077,1.26497,0.02615,0.53741,1.43957,0.26457,0.32095,1.48342
1010,0.09559,0.19352,1.53624,0.12622,0.54862,0.12529,0.0621,0.08614,0.07654,0.09014,0.512,0.54752,0.13335,0.1204,0.49563,0.03333,0.27792,0.92357,0.15022,0.13482,0.93492,-0.05524,0.29112,1.47888,0.18009,0.04271,1.47874,-0.0795,0.43755,1.20855,0.34974,0.19125,1.26573,0.02706,0.53877,1.43917,0.26472,0.32147,1.48388
1011,0.09636,0.1937,1.53626,0.12614,0.54927,0.12641,0.06212,0.08628,0.0765,0.09022,0.51414,0.54877,0.13347,0.12022,0.49559,0.0335,0.27815,0.92364,0.1504,0.13505,0.93486,-0.055,0.29217,1.47926,0.18017,0.04303,1.47883,-0.07911,0.43836,1.20879,0.35045,0.19152,1.26629,0.02786,0.54027,1.43891,0.26516,0.32188,1.48426
1012,0.09656,0.19407,1.53636,0.1259,0.55002,0.12755,0.06205,0.08637,0.07648,0.09019,0.51638,0.55005,0.13361,0.12006,0.49556,0.03354,0.27831,0.92361,0.15052,0.13527,0.93482,-0.05495,0.29271,1.47968,0.18042,0.04335,1.47905,-0.07885,0.43899,1.20923,0.35112,0.19156,1.26665,0.02829,0.54195,1.43881,0.26614,0.32219,1.48457
1013,0.0963,0.19492,1.53635,0.12547,0.55094,0.1287,0.06192,0.08625,0.07652,0.09001,0.51861,0.55133,0.13374,0.11976,0.49557,0.03333,0.27854,0.9236,0.15036,0.13553,0.93482,-0.05498,0.29288,1.47994,0.18084,0.04361,1.47928,-0.07866,0.43956,1.20969,0.35183,0.19161,1.26697,0.02832,0.54389,1.43872,0.26741,0.32251,1.48494
1014,0.09594,0.19614,1.5362,0.12488,0.55201,0.12996,0.06183,0.08593,0.07661,0.08971,0.5208,0.55269,0.13381,0.11932,0.49564,0.0329,0.27899,0.92382,0.14987,0.13592,0.93488,-0.05483,0.29313,1.47996,0.18127,0.04385,1.47931,-0.07853,0.44031,1.20999,0.35259,0.192,1.26737,0.02808,0.54601,1.43857,0.26855,0.32289,1.48551
1015,0.09577,0.1974,1.53609,0.1242,0.55328,0.13139,0.06183,0.08561,0.07673,0.08938,0.52299,0.55422,0.13375,0.1188,0.49578,0.03242,0.27966,0.92432,0.14918,0.1364,0.93501,-0.05443,0.29377,1.47981,0.18138,0.04431,1.47921,-0.07852,0.44136,1.2101,0.35336,0.19269,1.26795,0.02766,0.54812,1.43838,0.26941,0.32341,1.48622
1016,0.09582,0.1985,1.53618,0.12351,0.5549,0.13296,0.06188,0.08544,0.07679,0.089,0.5253,0.55587,0.1336,0.11831,0.49591,0.03208,0.28039,0.92494,0.14852,0.13682,0.93511,-0.05398,0.2947,1.47958,0.18099,0.04521,1.47927,-0.07861,0.44255,1.21005,0.35404,0.19329,1.26868,0.02709,0.55004,1.43822,0.27022,0.32421,1.48688
1017,0.09593,0.19948,1.53642,0.12293,0.55691,0.13463,0.06193,0.08539,0.07676,0.08837,0.52787,0.55757,0.13341,0.11798,0.49594,0.032,0.281,0.92542,0.14811,0.13714,0.93512,-0.05368,0.29573,1.47933,0.18031,0.04646,1.47967,-0.07865,0.44373,1.20992,0.35464,0.1936,1.26949,0.02638,0.55177,1.43813,0.27119,0.32524,1.48739
1018,0.09595,0.20037,1.53668,0.12259,0.55911,0.13638,0.06198,0.08534,0.07667,0.0875,0.53079,0.55933,0.13327,0.118,0.49587,0.03207,0.28148,0.92566,0.14809,0.13752,0.93504,-0.05353,0.29672,1.47912,0.1798,0.04776,1.48024,-0.07851,0.4449,1.2098,0.35532,0.19381,1.27028,0.02567,0.55355,1.43812,0.2723,0.32628,1.48785
1019,0.09593,0.20109,1.53692,0.1225,0.56117,0.13819,0.06207,0.08527,0.07663,0.08666,0.53393,0.56115,0.1332,0.11837,0.49583,0.0321,0.2819,0.92575,0.14841,0.13817,0.93497,-0.05339,0.29755,1.47894,0.17963,0.04892,1.48072,-0.07821,0.44608,1.2098,0.35619,0.19411,1.27103,0.02515,0.55559,1.43807,0.27339,0.3273,1.48824
1020,0.09605,0.20159,1.53716,0.12253,0.5629,0.13994,0.06216,0.08524,0.0767,0.08604,0.53705,0.56293,0.13316,0.11891,0.49587,0.03201,0.28238,0.92577,0.1489,0.13912,0.93497,-0.0531,0.29822,1.47878,0.17953,0.04994,1.48099,-0.07791,0.44728,1.20994,0.35712,0.19449,1.27175,0.02499,0.55801,1.43783,0.27448,0.32855,1.48849
1021,0.09627,0.20211,1.53741,0.12253,0.56433,0.14145,0.06222,0.08528,0.07678,0.08546,0.54002,0.56448,0.13309,0.11946,0.49593,0.032,0.28307,0.9258,0.14935,0.14018,0.93499,-0.05264,0.29897,1.47871,0.17917,0.05088,1.48108,-0.07762,0.44855,1.21018,0.35787,0.19504,1.2725,0.02515,0.56086,1.43736,0.27557,0.33026,1.48865
1022,0.09638,0.20298,1.53754,0.12248,0.56564,0.14271,0.06221,0.08542,0.07677,0.0846,0.54293,0.56576,0.13299,0.11993,0.49592,0.03216,0.28406,0.92586,0.1496,0.14124,0.93493,-0.05222,0.30003,1.47876,0.1786,0.05189,1.48104,-0.07732,0.44999,1.21045,0.35833,0.19602,1.27334,0.0254,0.56406,1.43677,0.27643,0.33236,1.48893
1023,0.09624,0.20445,1.53744,0.12243,0.567,0.14392,0.06208,0.08569,0.07668,0.0835,0.54595,0.56695,0.133,0.12038,0.49579,0.03235,0.28532,0.92596,0.1496,0.14233,0.93477,-0.0521,0.30135,1.47877,0.1781,0.05313,1.48095,-0.07706,0.45163,1.21062,0.35868,0.1976,1.27422,0.02549,0.56746,1.43613,0.27686,0.33453,1.48947
1024,0.09598,0.2064,1.53718,0.12232,0.56847,0.14525,0.06185,0.08603,0.0766,0.08243,0.54916,0.56828,0.13322,0.12083,0.49562,0.03237,0.28671,0.92611,0.14951,0.14361,0.93457,-0.0523,0.30276,1.47849,0.17785,0.05473,1.4809,-0.07695,0.45343,1.21053,0.35928,0.19954,1.27515,0.02534,0.57091,1.4353,0.27705,0.33653,1.4902
1025,0.09571,0.2084,1.53691,0.12216,0.56988,0.14667,0.06167,0.08622,0.07658,0.08148,0.55241,0.56971,0.13353,0.12132,0.49549,0.03219,0.28811,0.92628,0.14952,0.14514,0.9344,-0.05264,0.30422,1.47787,0.1778,0.05667,1.48097,-0.07693,0.45531,1.21012,0.36048,0.20142,1.2763,0.02502,0.57438,1.4342,0.27739,0.33843,1.49101
1026,0.09547,0.21014,1.53675,0.12198,0.57098,0.148,0.06167,0.08618,0.07659,0.08047,0.55543,0.57103,0.13371,0.12188,0.49542,0.03195,0.28935,0.92638,0.14971,0.14672,0.93428,-0.05285,0.30579,1.47712,0.17779,0.05878,1.48105,-0.07681,0.45726,1.20956,0.36233,0.20317,1.27779,0.02472,0.57804,1.43291,0.278,0.34037,1.4919
1027,0.09527,0.21159,1.5367,0.12182,0.57171,0.14912,0.06183,0.08614,0.0766,0.07938,0.55813,0.57213,0.13369,0.12258,0.4954,0.03181,0.29041,0.92638,0.14997,0.14811,0.9342,-0.0528,0.30746,1.47645,0.17779,0.06084,1.48097,-0.07655,0.45928,1.20907,0.36441,0.20496,1.27943,0.02459,0.58198,1.43155,0.27868,0.34237,1.49284
1028,0.09508,0.21303,1.53672,0.12168,0.57216,0.15014,0.062,0.08634,0.07663,0.07838,0.56064,0.57311,0.13368,0.12347,0.49539,0.03181,0.29144,0.92637,0.1502,0.14932,0.93417,-0.05255,0.30919,1.47585,0.17783,0.06269,1.48082,-0.07634,0.4613,1.20863,0.36618,0.20681,1.28089,0.02449,0.58614,1.43007,0.27926,0.3444,1.49371
1029,0.09472,0.21478,1.53671,0.12141,0.5725,0.15114,0.06209,0.08674,0.07675,0.07768,0.56316,0.57413,0.13392,0.12463,0.49542,0.03184,0.2926,0.92645,0.15039,0.15062,0.93419,-0.05239,0.31098,1.47532,0.17793,0.06446,1.4808,-0.07637,0.46312,1.20814,0.3674,0.20868,1.282,0.02412,0.59039,1.42834,0.27976,0.34652,1.49436
1030,0.09406,0.21692,1.53658,0.12086,0.57276,0.15208,0.06208,0.08714,0.077,0.07723,0.56563,0.57513,0.13447,0.12612,0.49548,0.03178,0.29394,0.92662,0.15057,0.15216,0.93425,-0.05263,0.31287,1.47505,0.17807,0.06651,1.4809,-0.07658,0.46459,1.20763,0.36816,0.21084,1.28279,0.0234,0.59475,1.42637,0.28023,0.34896,1.49484
1031,0.09336,0.21922,1.53629,0.12022,0.57292,0.15282,0.06201,0.08737,0.07727,0.0768,0.56793,0.57592,0.13525,0.12789,0.49545,0.03162,0.29542,0.92681,0.15068,0.15386,0.93426,-0.0533,0.31493,1.47513,0.17834,0.06899,1.48084,-0.0769,0.46595,1.20727,0.36881,0.21386,1.28348,0.02255,0.59947,1.42422,0.2806,0.35199,1.49542
1032,0.09297,0.22139,1.53591,0.11985,0.573,0.15328,0.06191,0.0875,0.07741,0.07613,0.57004,0.57636,0.13615,0.12979,0.49524,0.03133,0.297,0.9269,0.15071,0.15568,0.93408,-0.05414,0.31715,1.47526,0.1789,0.07178,1.4805,-0.07736,0.46761,1.20706,0.36975,0.21794,1.28446,0.02182,0.60475,1.42187,0.28081,0.35578,1.49628
1033,0.09294,0.2234,1.53553,0.11983,0.57307,0.15346,0.06183,0.08766,0.07736,0.07523,0.57205,0.57646,0.13709,0.13177,0.49482,0.03095,0.29862,0.92676,0.15078,0.15769,0.93369,-0.05501,0.31932,1.47507,0.17976,0.07482,1.48014,-0.07809,0.46963,1.20678,0.37111,0.22269,1.28587,0.02119,0.6106,1.41904,0.28096,0.3602,1.49739
1034,0.09295,0.22539,1.53519,0.11988,0.57299,0.15339,0.06182,0.08791,0.07721,0.0743,0.57407,0.57629,0.13799,0.13385,0.49431,0.03063,0.30031,0.9264,0.15106,0.15987,0.93319,-0.056,0.32114,1.47448,0.18079,0.0781,1.4801,-0.07927,0.4716,1.20629,0.37255,0.22758,1.28748,0.02049,0.61684,1.41543,0.2812,0.36499,1.49855
1035,0.09262,0.22745,1.53489,0.11979,0.57261,0.15316,0.06186,0.08819,0.07711,0.07359,0.57617,0.57597,0.13891,0.13604,0.49383,0.03059,0.30208,0.92591,0.15162,0.16216,0.93271,-0.05718,0.3226,1.47373,0.18191,0.08146,1.48039,-0.08111,0.47317,1.20565,0.37374,0.23238,1.28896,0.0197,0.62323,1.41085,0.28148,0.37001,1.49949
1036,0.09176,0.22966,1.53459,0.1196,0.57201,0.15288,0.06191,0.08845,0.07713,0.07318,0.57842,0.57564,0.14001,0.1383,0.49342,0.03085,0.30394,0.92535,0.15246,0.16453,0.93231,-0.05838,0.32407,1.47302,0.18318,0.08467,1.48067,-0.08374,0.47427,1.20487,0.37472,0.23727,1.29029,0.01896,0.62955,1.40518,0.28154,0.37527,1.50017
1037,0.09062,0.23219,1.53423,0.11946,0.57157,0.15263,0.06196,0.08877,0.07726,0.07304,0.58086,0.57533,0.14144,0.14063,0.49304,0.03123,0.3059,0.92473,0.15347,0.16706,0.93193,-0.05944,0.32575,1.47227,0.18465,0.08787,1.48061,-0.08706,0.47488,1.20374,0.37572,0.24271,1.29157,0.01833,0.63564,1.39825,0.28117,0.38079,1.50079
1038,0.08951,0.23514,1.53381,0.11943,0.57161,0.15232,0.06206,0.08925,0.07738,0.0732,0.58341,0.57498,0.14313,0.143,0.49261,0.03159,0.30803,0.92407,0.15449,0.16979,0.9315,-0.06047,0.32738,1.47128,0.18629,0.09162,1.48026,-0.09082,0.47496,1.20219,0.3768,0.24906,1.29281,0.01776,0.64155,1.38992,0.28041,0.38651,1.5016
1039,0.0884,0.23845,1.53336,0.11951,0.57209,0.15184,0.06224,0.08991,0.07737,0.07362,0.58595,0.57447,0.1449,0.14531,0.49207,0.03191,0.31039,0.92341,0.15546,0.17273,0.93094,-0.06159,0.32873,1.4701,0.18794,0.09635,1.47997,-0.09493,0.47459,1.20044,0.37784,0.2563,1.29403,0.01722,0.64752,1.38017,0.27916,0.39249,1.50258
1040,0.087,0.24186,1.53296,0.11975,0.57275,0.15114,0.0624,0.09063,0.07723,0.07425,0.58841,0.57375,0.14659,0.14755,0.49142,0.03225,0.313,0.92278,0.1564,0.17588,0.93025,-0.06279,0.33001,1.46905,0.18954,0.10187,1.48012,-0.09941,0.47387,1.19873,0.37864,0.26424,1.29548,0.01683,0.65364,1.36889,0.27711,0.39903,1.50357
1041,0.08532,0.24505,1.5327,0.12025,0.57347,0.15032,0.06249,0.0913,0.07709,0.075,0.59078,0.57289,0.14817,0.14979,0.49075,0.03264,0.31574,0.92216,0.15744,0.1792,0.92952,-0.06414,0.33151,1.46821,0.19123,0.10752,1.48075,-0.10416,0.47261,1.19692,0.37889,0.27295,1.29735,0.01659,0.65969,1.35569,0.27394,0.40656,1.50449
1042,0.0837,0.24788,1.53254,0.12093,0.57422,0.14958,0.06254,0.09196,0.07709,0.07582,0.59319,0.5721,0.14968,0.15214,0.49021,0.0331,0.31843,0.92155,0.15862,0.18254,0.92892,-0.06576,0.33316,1.46742,0.19323,0.11279,1.48154,-0.10887,0.47046,1.19465,0.37833,0.28263,1.29958,0.01607,0.66547,1.34006,0.26968,0.41522,1.50548
1043,0.08244,0.25053,1.53238,0.12153,0.57493,0.14909,0.06259,0.09267,0.0773,0.07669,0.59582,0.57155,0.15126,0.1546,0.48983,0.03364,0.32099,0.92091,0.1599,0.18581,0.92848,-0.06769,0.33479,1.46651,0.19551,0.11761,1.48205,-0.11335,0.46735,1.19182,0.37708,0.29324,1.30203,0.01447,0.67118,1.32181,0.26467,0.42463,1.50667
1044,0.08151,0.25336,1.53207,0.12182,0.57554,0.14882,0.06264,0.09336,0.07759,0.07766,0.59885,0.57123,0.15297,0.15706,0.48949,0.0343,0.32353,0.92015,0.16129,0.18906,0.92809,-0.06979,0.33626,1.46549,0.19799,0.1223,1.48206,-0.11748,0.4636,1.18869,0.37556,0.30453,1.30464,0.01133,0.67701,1.30117,0.25914,0.43424,1.50811
1045,0.08082,0.25654,1.53172,0.12184,0.5761,0.14867,0.06266,0.09384,0.07784,0.07875,0.60235,0.57101,0.15477,0.15947,0.48905,0.03508,0.32622,0.91926,0.16289,0.19255,0.92758,-0.07195,0.33738,1.46453,0.20078,0.12739,1.48177,-0.12124,0.45922,1.18554,0.37415,0.31651,1.30743,0.00657,0.68242,1.27844,0.2531,0.44372,1.50978
1046,0.08033,0.25992,1.53152,0.12169,0.57676,0.14862,0.06272,0.09406,0.07806,0.07989,0.60627,0.57087,0.15657,0.16199,0.4885,0.03596,0.3292,0.91835,0.16473,0.19648,0.92692,-0.07407,0.3381,1.46373,0.20402,0.13335,1.48162,-0.1249,0.45352,1.1823,0.37274,0.32934,1.31034,0.00014,0.68604,1.2536,0.24634,0.45303,1.51158
1047,0.07996,0.26323,1.5315,0.12145,0.57757,0.14872,0.06285,0.09425,0.07826,0.08104,0.61047,0.57086,0.15835,0.16481,0.48787,0.03695,0.33248,0.91757,0.16677,0.20078,0.92617,-0.07601,0.33873,1.46295,0.20753,0.14022,1.48181,-0.12881,0.44593,1.17865,0.37091,0.34298,1.31325,-0.00773,0.68643,1.22641,0.23849,0.46235,1.51324
1048,0.0796,0.26645,1.53145,0.12129,0.57848,0.14903,0.06296,0.09457,0.07844,0.0822,0.61486,0.57101,0.16019,0.16785,0.48716,0.03803,0.33591,0.91694,0.16884,0.20518,0.92534,-0.07767,0.33967,1.46189,0.21104,0.14762,1.48221,-0.13281,0.43672,1.17441,0.36831,0.35718,1.31618,-0.01649,0.6832,1.19686,0.22914,0.47174,1.51438
1049,0.07922,0.26981,1.53112,0.12139,0.57942,0.14958,0.06303,0.095,0.07859,0.08346,0.61941,0.57134,0.16223,0.17082,0.48638,0.03913,0.33927,0.91628,0.17083,0.20942,0.92444,-0.07904,0.34075,1.46054,0.21445,0.15516,1.48247,-0.13611,0.42664,1.16989,0.36506,0.37176,1.31931,-0.02604,0.67693,1.16528,0.21816,0.481,1.51492
1050,0.07891,0.27348,1.53051,0.1218,0.58041,0.15037,0.06312,0.09549,0.07874,0.08484,0.62418,0.57184,0.1645,0.17368,0.48555,0.0401,0.34242,0.91541,0.17266,0.21344,0.92352,-0.08011,0.34148,1.45916,0.21788,0.16282,1.48241,-0.13804,0.41615,1.1656,0.36152,0.38675,1.32291,-0.037,0.66806,1.1321,0.20583,0.49004,1.51492
1051,0.07883,0.2773,1.52981,0.12234,0.58154,0.15137,0.06326,0.09601,0.07891,0.08638,0.62926,0.57249,0.16677,0.1766,0.48471,0.04092,0.34548,0.9143,0.17439,0.21746,0.92259,-0.0808,0.34172,1.45783,0.22153,0.17077,1.48214,-0.13848,0.40548,1.16167,0.35769,0.4024,1.32712,-0.0502,0.65631,1.09782,0.19233,0.49916,1.51439
1052,0.07912,0.28091,1.52929,0.12272,0.58277,0.15241,0.06342,0.09652,0.07904,0.08807,0.63468,0.57316,0.16879,0.17973,0.48383,0.0418,0.34874,0.91306,0.17626,0.22178,0.9216,-0.0811,0.34169,1.45626,0.22559,0.17909,1.4819,-0.13775,0.39495,1.15782,0.35305,0.41886,1.33195,-0.06559,0.64119,1.06326,0.17724,0.5086,1.51311
1053,0.07982,0.28396,1.52914,0.12261,0.58395,0.15332,0.06361,0.09697,0.07908,0.0898,0.64037,0.57362,0.17055,0.18296,0.48288,0.04295,0.35247,0.91178,0.17844,0.22661,0.92048,-0.08122,0.34159,1.45391,0.23007,0.18768,1.48188,-0.13634,0.38513,1.15362,0.34695,0.43602,1.33737,-0.08216,0.62267,1.02942,0.15995,0.51807,1.5108
1054,0.08081,0.28658,1.52919,0.12209,0.5849,0.15399,0.06386,0.09745,0.07903,0.09142,0.64615,0.57378,0.17217,0.18618,0.48186,0.04439,0.35669,0.91058,0.18091,0.23195,0.91924,-0.08153,0.34163,1.45037,0.23486,0.19642,1.48212,-0.13484,0.37649,1.14862,0.33917,0.45347,1.34332,-0.09944,0.60132,0.99701,0.14044,0.52692,1.50731
1055,0.08174,0.28955,1.52898,0.12172,0.58565,0.15449,0.06415,0.09814,0.07898,0.093,0.65178,0.57368,0.17365,0.18946,0.48091,0.04586,0.36117,0.90947,0.18352,0.23768,0.918,-0.0821,0.3421,1.44553,0.23969,0.20546,1.48266,-0.13357,0.36883,1.14263,0.33014,0.47072,1.34972,-0.11826,0.57744,0.96647,0.11982,0.53474,1.50283
1056,0.08221,0.2936,1.52819,0.12197,0.58638,0.1549,0.06447,0.0991,0.07904,0.09466,0.65714,0.57343,0.17502,0.19286,0.48012,0.04697,0.36561,0.90834,0.18608,0.24375,0.91688,-0.08276,0.3431,1.43969,0.24396,0.21509,1.48356,-0.13259,0.36134,1.1359,0.32057,0.48749,1.35647,-0.13906,0.55055,0.93856,0.09966,0.5416,1.49806
1057,0.08207,0.29864,1.52701,0.1228,0.58718,0.15529,0.06482,0.1001,0.07925,0.09649,0.66227,0.57313,0.17645,0.19631,0.47946,0.04758,0.36995,0.90718,0.18838,0.25007,0.91584,-0.08324,0.34437,1.43348,0.2469,0.2255,1.48485,-0.13209,0.35338,1.12911,0.31093,0.50372,1.36355,-0.16087,0.52032,0.91443,0.08085,0.54785,1.49352
1058,0.08148,0.30404,1.52581,0.12396,0.58806,0.15565,0.06516,0.1009,0.07959,0.09844,0.66733,0.57276,0.17815,0.19969,0.47878,0.04789,0.37442,0.90605,0.19035,0.25652,0.91477,-0.08343,0.34556,1.4276,0.24828,0.23664,1.48639,-0.13246,0.34486,1.12313,0.30126,0.51961,1.37089,-0.18279,0.48722,0.89512,0.06328,0.55398,1.48904
1059,0.08062,0.30925,1.52474,0.12521,0.58902,0.15584,0.06545,0.10139,0.07997,0.10043,0.67242,0.57219,0.18014,0.203,0.47797,0.04821,0.3792,0.90495,0.19216,0.26313,0.91352,-0.08335,0.34618,1.42265,0.24867,0.24854,1.48796,-0.13398,0.33561,1.11862,0.29143,0.53555,1.37833,-0.2047,0.45186,0.88142,0.0466,0.56085,1.48414
1060,0.07959,0.31427,1.52375,0.12636,0.59001,0.15575,0.06573,0.10163,0.08042,0.10238,0.67759,0.57129,0.18239,0.20626,0.47707,0.04872,0.38434,0.90379,0.19416,0.2701,0.9121,-0.08302,0.34558,1.41884,0.24887,0.2615,1.4896,-0.13663,0.3251,1.11583,0.28105,0.55197,1.38563,-0.22625,0.41464,0.87347,0.03051,0.56928,1.47893
1061,0.07848,0.31948,1.52281,0.1274,0.59087,0.1554,0.06614,0.10175,0.08113,0.10432,0.68285,0.57003,0.18505,0.20958,0.47625,0.04971,0.38988,0.90262,0.19662,0.27752,0.91066,-0.08241,0.34358,1.41593,0.24914,0.27578,1.49163,-0.14043,0.31303,1.11459,0.2696,0.569,1.39255,-0.24674,0.37608,0.87065,0.0147,0.57938,1.47436
1062,0.07736,0.32543,1.52189,0.12862,0.59136,0.15485,0.06683,0.10177,0.0824,0.10626,0.68809,0.56845,0.18834,0.21314,0.47573,0.05133,0.3959,0.90168,0.19949,0.28517,0.9095,-0.08161,0.34082,1.41361,0.24942,0.29125,1.49437,-0.14556,0.29978,1.11473,0.25702,0.58627,1.39884,-0.26601,0.33686,0.87203,-0.00089,0.59075,1.47122
1063,0.07619,0.33216,1.52104,0.13023,0.59144,0.15412,0.06792,0.10158,0.08451,0.10818,0.693,0.56657,0.19245,0.2173,0.47564,0.05345,0.40234,0.90116,0.20246,0.29276,0.90885,-0.08091,0.33791,1.41179,0.24968,0.30741,1.4979,-0.15184,0.28606,1.11617,0.24434,0.6031,1.40433,-0.28422,0.29766,0.87716,-0.01559,0.60332,1.46924
1064,0.0748,0.33875,1.52045,0.13205,0.59141,0.15324,0.06953,0.10133,0.08761,0.11,0.69735,0.56458,0.19748,0.22241,0.47601,0.05568,0.40893,0.90118,0.20539,0.3003,0.90883,-0.08052,0.33468,1.41057,0.24973,0.32354,1.50192,-0.15865,0.27226,1.11884,0.23298,0.61901,1.409,-0.30121,0.25936,0.88582,-0.02843,0.61784,1.46762
1065,0.07294,0.34416,1.52035,0.13371,0.59161,0.15245,0.07179,0.1014,0.09177,0.11154,0.70126,0.56282,0.20362,0.22872,0.47686,0.05769,0.41552,0.90177,0.20838,0.30827,0.90943,-0.08043,0.33071,1.40998,0.24895,0.33905,1.5059,-0.16543,0.25831,1.12251,0.2234,0.63394,1.41311,-0.31701,0.22328,0.8976,-0.03925,0.6353,1.46593
1066,0.0702,0.34821,1.52078,0.13504,0.59213,0.15207,0.07497,0.10202,0.09713,0.11267,0.70509,0.56153,0.21121,0.23637,0.47828,0.05933,0.4222,0.90293,0.21158,0.31716,0.91064,-0.08064,0.3259,1.40983,0.24673,0.3537,1.50948,-0.17208,0.24406,1.1269,0.21488,0.64798,1.41671,-0.33247,0.19014,0.91206,-0.04864,0.65643,1.46427
1067,0.06629,0.35133,1.52159,0.1361,0.59275,0.15214,0.07947,0.10325,0.10387,0.11316,0.70896,0.56066,0.22058,0.2454,0.48039,0.06061,0.4291,0.90468,0.21491,0.32711,0.91254,-0.08131,0.32028,1.41001,0.24301,0.36768,1.51265,-0.17861,0.22945,1.13182,0.20655,0.66131,1.41953,-0.34805,0.15928,0.92897,-0.057,0.68184,1.46306
1068,0.06152,0.35372,1.52259,0.1369,0.59326,0.1524,0.08565,0.1053,0.11209,0.11269,0.71265,0.55992,0.23188,0.25592,0.48332,0.06163,0.4363,0.90698,0.21828,0.33799,0.91523,-0.08233,0.31368,1.41088,0.2383,0.38144,1.51549,-0.18477,0.21459,1.1374,0.1981,0.67425,1.42133,-0.36314,0.12993,0.94819,-0.06397,0.71167,1.46246
1069,0.05662,0.35524,1.52373,0.13725,0.5936,0.15246,0.09366,0.10849,0.12183,0.11108,0.71585,0.55901,0.24501,0.26825,0.48714,0.06248,0.44378,0.9098,0.22169,0.34974,0.91874,-0.08292,0.30585,1.41293,0.23314,0.39523,1.51809,-0.19023,0.19985,1.14394,0.18961,0.68704,1.42233,-0.37722,0.10261,0.96969,-0.06897,0.74479,1.46209
1070,0.05202,0.35582,1.52507,0.13698,0.5938,0.15211,0.1035,0.11297,0.13313,0.10856,0.71838,0.5578,0.25963,0.28284,0.49181,0.06329,0.45146,0.91297,0.22523,0.36232,0.92304,-0.0822,0.29701,1.4161,0.22777,0.40867,1.52057,-0.19503,0.1858,1.1515,0.18133,0.6994,1.4229,-0.39063,0.07834,0.99346,-0.07152,0.77922,1.46128
1071,0.04754,0.35569,1.52667,0.13625,0.59395,0.15138,0.11514,0.11855,0.14591,0.10563,0.72018,0.55641,0.27509,0.30003,0.49714,0.06413,0.459,0.91626,0.22889,0.37542,0.92801,-0.08019,0.28797,1.41985,0.22212,0.42108,1.52306,-0.19947,0.17277,1.15983,0.17378,0.7107,1.42305,-0.40387,0.0575,1.0194,-0.07077,0.8138,1.45972
1072,0.04285,0.35518,1.52843,0.13555,0.59405,0.15045,0.1283,0.12508,0.16011,0.10241,0.72114,0.555,0.29068,0.31993,0.50297,0.06479,0.46584,0.91947,0.23253,0.38876,0.93348,-0.07784,0.27978,1.42362,0.21602,0.43215,1.52559,-0.20389,0.16089,1.16851,0.16756,0.72067,1.42251,-0.41715,0.04011,1.04719,-0.0652,0.84864,1.45749
1073,0.03806,0.35459,1.5302,0.13543,0.5941,0.1495,0.14249,0.13277,0.17595,0.09852,0.72116,0.55374,0.30602,0.34261,0.50927,0.06498,0.47144,0.92245,0.23593,0.40243,0.93936,-0.07607,0.273,1.42716,0.20953,0.4421,1.52808,-0.20862,0.1503,1.17719,0.16307,0.72958,1.42126,-0.43064,0.02653,1.07634,-0.05381,0.8834,1.45412
1074,0.03372,0.35407,1.53203,0.136,0.59422,0.14875,0.15721,0.1421,0.19406,0.09362,0.72026,0.55277,0.3213,0.36825,0.51625,0.06465,0.47551,0.92519,0.23899,0.41668,0.94561,-0.07495,0.26737,1.43029,0.20298,0.45126,1.53054,-0.21413,0.14113,1.18574,0.1601,0.73781,1.41977,-0.44462,0.01704,1.10663,-0.03749,0.91642,1.44863
1075,0.03005,0.3535,1.5341,0.13688,0.59449,0.14844,0.17222,0.15355,0.21526,0.08781,0.71862,0.5523,0.33698,0.39706,0.52419,0.06427,0.4781,0.92784,0.24173,0.43135,0.95223,-0.07409,0.26226,1.43293,0.19655,0.45985,1.5331,-0.22074,0.13325,1.19427,0.15804,0.74557,1.41865,-0.45904,0.01141,1.13814,-0.01834,0.94603,1.44057
1076,0.02662,0.35244,1.53645,0.13775,0.59489,0.14869,0.1875,0.16751,0.23994,0.08145,0.71648,0.55238,0.35316,0.42889,0.5334,0.06445,0.47962,0.93058,0.24417,0.44567,0.9592,-0.07329,0.25735,1.43525,0.18988,0.46798,1.53589,-0.2282,0.12626,1.20303,0.15652,0.75303,1.41819,-0.47329,0.00929,1.17088,0.00231,0.97177,1.43046
1077,0.02288,0.35072,1.53894,0.13876,0.59534,0.14928,0.20323,0.18406,0.26764,0.07479,0.71372,0.55278,0.36907,0.46314,0.54422,0.06536,0.48053,0.93352,0.24622,0.45884,0.96654,-0.07275,0.25261,1.43756,0.18242,0.47577,1.5389,-0.23593,0.11974,1.21212,0.15622,0.76026,1.41809,-0.48663,0.01077,1.20438,0.0249,0.99379,1.41915
1078,0.0188,0.3488,1.54146,0.14026,0.59577,0.14968,0.22,0.20283,0.29738,0.06793,0.70969,0.55305,0.38321,0.49925,0.55696,0.06676,0.481,0.93663,0.24769,0.47069,0.97443,-0.07265,0.24812,1.43994,0.17397,0.48313,1.54216,-0.24373,0.11345,1.22153,0.15877,0.76686,1.41771,-0.49871,0.01598,1.23798,0.05086,1.01184,1.40708
1079,0.01476,0.34738,1.54403,0.14202,0.5961,0.14957,0.23862,0.22329,0.32837,0.06099,0.70393,0.55297,0.39415,0.53717,0.57163,0.06837,0.48102,0.93986,0.24843,0.48157,0.9829,-0.0728,0.24375,1.44224,0.165,0.48977,1.54575,-0.25196,0.10738,1.23149,0.16553,0.77183,1.41667,-0.50959,0.02472,1.27121,0.08148,1.02525,1.39455
1080,0.01105,0.34674,1.54671,0.14326,0.59615,0.14919,0.25947,0.24552,0.3604,0.05411,0.69681,0.55272,0.40149,0.57702,0.58804,0.07012,0.48067,0.94318,0.24847,0.49195,0.99154,-0.07272,0.23934,1.44441,0.15619,0.49543,1.54958,-0.26097,0.10174,1.24258,0.17593,0.77426,1.41511,-0.5194,0.0367,1.30397,0.1168,1.03349,1.38223
1081,0.00758,0.34659,1.54956,0.14349,0.59577,0.14896,0.28202,0.27004,0.39367,0.04727,0.68914,0.55262,0.40583,0.61845,0.60618,0.072,0.48017,0.94651,0.2479,0.50211,0.99987,-0.07224,0.23489,1.44673,0.14788,0.5002,1.55317,-0.27068,0.09685,1.25522,0.1875,0.77413,1.41314,-0.52794,0.05182,1.33631,0.15464,1.03657,1.3704
1082,0.00428,0.34633,1.55265,0.14311,0.59485,0.149,0.30567,0.29695,0.42827,0.04047,0.68115,0.55265,0.40781,0.66059,0.62629,0.07405,0.47956,0.94972,0.24679,0.51219,1.00775,-0.07157,0.23049,1.44954,0.14001,0.50437,1.55591,-0.28071,0.09299,1.26938,0.19807,0.77222,1.41065,-0.53468,0.06991,1.36812,0.19132,1.0349,1.35837
1083,0.00128,0.34542,1.55603,0.14291,0.5935,0.14906,0.33079,0.32591,0.464,0.03396,0.67249,0.55256,0.40739,0.7027,0.6485,0.07648,0.4788,0.95269,0.2452,0.52219,1.01534,-0.07087,0.22615,1.45288,0.13265,0.50805,1.55763,-0.29094,0.09054,1.28468,0.2077,0.76907,1.4078,-0.53935,0.0905,1.39903,0.22489,1.02916,1.34587
1084,-0.0012,0.34378,1.5596,0.14313,0.59189,0.14883,0.35811,0.35684,0.50051,0.02818,0.66277,0.55217,0.40397,0.7443,0.67271,0.07949,0.47805,0.9555,0.2432,0.53219,1.02289,-0.07022,0.22198,1.45633,0.12629,0.51108,1.55861,-0.30161,0.0901,1.30085,0.21804,0.7644,1.40489,-0.54227,0.11317,1.42866,0.25683,1.01978,1.33377
1085,-0.00308,0.34194,1.56318,0.14357,0.59008,0.14824,0.38738,0.38995,0.53757,0.0235,0.652,0.55156,0.39694,0.78478,0.69851,0.08292,0.47778,0.95844,0.24073,0.54231,1.03057,-0.06984,0.21833,1.45944,0.12137,0.51337,1.55923,-0.31293,0.09213,1.3177,0.23022,0.75754,1.40191,-0.54386,0.13773,1.4569,0.2894,1.00659,1.32288
1086,-0.00438,0.34065,1.56666,0.14389,0.58812,0.14752,0.41693,0.42534,0.57484,0.01993,0.64043,0.55102,0.38613,0.82327,0.72512,0.08624,0.4783,0.96181,0.2376,0.55251,1.03832,-0.07004,0.21563,1.46224,0.11789,0.51479,1.55977,-0.32458,0.09672,1.33505,0.24395,0.74806,1.3988,-0.54411,0.16377,1.4837,0.32269,0.98945,1.3133
1087,-0.00517,0.34032,1.57006,0.14385,0.5863,0.14707,0.44475,0.46286,0.6117,0.01718,0.62848,0.55092,0.37206,0.85907,0.75177,0.08917,0.47951,0.96572,0.23382,0.56269,1.04591,-0.07095,0.21423,1.46522,0.11559,0.51512,1.56043,-0.33601,0.1037,1.35281,0.25821,0.73614,1.39603,-0.54279,0.19087,1.5091,0.35516,0.96876,1.30511
1088,-0.00579,0.3408,1.57333,0.14347,0.58502,0.14736,0.47028,0.50267,0.64765,0.01498,0.61662,0.5516,0.35583,0.89213,0.77843,0.09214,0.48101,0.97004,0.22973,0.57272,1.05328,-0.07252,0.21424,1.46893,0.11425,0.51423,1.56129,-0.34696,0.11315,1.37108,0.27207,0.72243,1.39408,-0.53992,0.21923,1.53324,0.38524,0.94569,1.29855
1089,-0.00675,0.34184,1.57628,0.14299,0.58454,0.14851,0.4949,0.54585,0.68302,0.01342,0.60523,0.55311,0.33799,0.92293,0.80577,0.09591,0.48243,0.97447,0.22569,0.58248,1.06062,-0.07454,0.21533,1.47344,0.1136,0.51258,1.56231,-0.35748,0.12559,1.38976,0.28491,0.70777,1.39269,-0.53558,0.24948,1.55624,0.41224,0.92161,1.29351
1090,-0.00832,0.34333,1.57864,0.14269,0.58489,0.15018,0.52015,0.59414,0.71886,0.01288,0.59454,0.55512,0.31824,0.9516,0.83434,0.10051,0.48381,0.97878,0.2217,0.59165,1.06797,-0.07684,0.21707,1.47828,0.11324,0.51116,1.56342,-0.36754,0.14147,1.40837,0.29666,0.69252,1.39113,-0.52955,0.2818,1.5782,0.43657,0.897,1.2892
1091,-0.01047,0.34523,1.58027,0.14256,0.58609,0.15184,0.54539,0.64874,0.75604,0.01364,0.58465,0.55717,0.2963,0.97763,0.86408,0.10511,0.48545,0.98288,0.21775,0.59979,1.07512,-0.07946,0.21917,1.48301,0.11291,0.51053,1.5645,-0.3769,0.16058,1.42642,0.30765,0.6764,1.38905,-0.52146,0.31564,1.59918,0.45931,0.87104,1.2847
1092,-0.01298,0.34747,1.58121,0.14237,0.58828,0.15307,0.56796,0.70932,0.79467,0.01569,0.57574,0.55892,0.27264,1.00033,0.89459,0.10897,0.48762,0.98667,0.21408,0.60665,1.08182,-0.08242,0.22144,1.48753,0.1127,0.5103,1.56526,-0.38515,0.18213,1.44371,0.31825,0.65912,1.38688,-0.51136,0.34994,1.6189,0.48112,0.84283,1.27964
1093,-0.0156,0.35014,1.58173,0.14216,0.59136,0.15377,0.58516,0.77352,0.83437,0.01904,0.56799,0.56023,0.24872,1.01924,0.92554,0.11221,0.49011,0.98998,0.21093,0.61225,1.088,-0.08558,0.22366,1.49201,0.11277,0.50982,1.56547,-0.39175,0.20518,1.46004,0.32849,0.64111,1.38534,-0.49995,0.38363,1.63677,0.50176,0.81284,1.2746
1094,-0.01802,0.35342,1.5821,0.14251,0.59488,0.15416,0.59598,0.83743,0.87454,0.02374,0.56138,0.56121,0.22656,1.0342,0.95632,0.11561,0.49225,0.99273,0.20831,0.61674,1.09363,-0.08877,0.22583,1.49651,0.11315,0.50893,1.56522,-0.3964,0.22904,1.47507,0.33803,0.62324,1.38471,-0.48776,0.41605,1.65247,0.52075,0.78247,1.27055
1095,-0.02001,0.35741,1.5825,0.14406,0.59833,0.1546,0.6013,0.89828,0.91421,0.02966,0.55586,0.56206,0.20757,1.04561,0.98598,0.11974,0.49354,0.995,0.20608,0.62041,1.09855,-0.09203,0.22828,1.5011,0.11386,0.50787,1.56481,-0.39915,0.25342,1.48863,0.34648,0.60579,1.38447,-0.47456,0.44715,1.6663,0.5378,0.75252,1.26766
1096,-0.0215,0.36206,1.58295,0.14712,0.60137,0.15518,0.60251,0.95783,0.95244,0.0365,0.55147,0.56284,0.19171,1.05446,1.01401,0.12432,0.49437,0.99696,0.20398,0.62381,1.10265,-0.09548,0.23152,1.50581,0.115,0.50683,1.56421,-0.40027,0.27829,1.50089,0.35387,0.58837,1.3839,-0.45957,0.47745,1.67866,0.55293,0.72272,1.26516
1097,-0.02257,0.36728,1.58331,0.15173,0.6041,0.15553,0.59965,1.02181,0.98936,0.04406,0.54838,0.56323,0.17821,1.06204,1.04085,0.12853,0.49581,0.99859,0.20174,0.62768,1.10594,-0.09913,0.23628,1.51048,0.11663,0.50581,1.56311,-0.40009,0.30358,1.51189,0.36061,0.57053,1.38282,-0.44238,0.50711,1.68958,0.56654,0.69226,1.2622
1098,-0.02354,0.37304,1.58336,0.15769,0.60691,0.15512,0.59089,1.0947,1.02626,0.05231,0.54662,0.56277,0.16716,1.06933,1.06738,0.13162,0.49878,0.99964,0.19907,0.63256,1.10839,-0.10295,0.24328,1.51491,0.11866,0.50483,1.56131,-0.3991,0.32909,1.52124,0.36703,0.5525,1.38171,-0.42337,0.53555,1.69892,0.57908,0.66051,1.25864
1099,-0.02488,0.37927,1.58283,0.16451,0.61007,0.15384,0.5735,1.17483,1.06452,0.06112,0.546,0.56143,0.15966,1.07605,1.0939,0.13333,0.50311,1.00004,0.19606,0.63802,1.1102,-0.10685,0.25267,1.51888,0.12095,0.50396,1.55908,-0.39772,0.35471,1.52851,0.37304,0.53514,1.38104,-0.40347,0.5622,1.70655,0.59054,0.62783,1.25503
1100,-0.02671,0.38571,1.58165,0.17157,0.6134,0.15211,0.54501,1.25474,1.1037,0.07019,0.54622,0.55969,0.15606,1.08054,1.11964,0.13385,0.50734,1.0,0.19333,0.64235,1.11183,-0.11063,0.26341,1.5222,0.12335,0.50339,1.55694,-0.39573,0.38045,1.53367,0.37818,0.51904,1.38076,-0.38342,0.58698,1.71249,0.60053,0.59517,1.25215
1101,-0.0285,0.39197,1.58008,0.17821,0.61642,0.15035,0.50472,1.32565,1.14156,0.07917,0.547,0.55813,0.15533,1.0811,1.14344,0.13362,0.50973,0.99981,0.19156,0.64376,1.11361,-0.11405,0.27385,1.52463,0.12586,0.50335,1.55504,-0.3924,0.40607,1.53684,0.38209,0.50375,1.38021,-0.36353,0.60989,1.71686,0.6087,0.56333,1.25031
1102,-0.02967,0.39776,1.57857,0.18394,0.61875,0.14873,0.45607,1.3816,1.17688,0.08766,0.54821,0.55698,0.15696,1.07785,1.16479,0.13313,0.50978,0.99958,0.19072,0.64207,1.11557,-0.11708,0.28281,1.52592,0.12866,0.50373,1.55304,-0.38728,0.43098,1.53811,0.38462,0.48818,1.3785,-0.34383,0.63072,1.71976,0.61481,0.53269,1.24885
1103,-0.03031,0.40306,1.57733,0.18862,0.62044,0.14732,0.40725,1.42051,1.21024,0.09531,0.54995,0.55627,0.1615,1.07299,1.18355,0.13275,0.5088,0.99937,0.1902,0.63904,1.11773,-0.11991,0.29024,1.52587,0.1319,0.50402,1.5507,-0.38057,0.45463,1.53769,0.38577,0.4718,1.3754,-0.32426,0.64921,1.72141,0.6187,0.50341,1.24686
1104,-0.03095,0.40817,1.57627,0.19218,0.62176,0.14613,0.36735,1.44382,1.24013,0.10195,0.55256,0.55599,0.16803,1.06898,1.19958,0.13273,0.50881,0.99936,0.19008,0.63695,1.12003,-0.12262,0.29686,1.52441,0.13526,0.50393,1.54827,-0.37285,0.47675,1.53596,0.3857,0.4553,1.37183,-0.30479,0.66546,1.72181,0.62046,0.47525,1.2443
1105,-0.03165,0.41345,1.57521,0.19458,0.62282,0.1452,0.3408,1.45578,1.26231,0.1076,0.55638,0.55622,0.1731,1.06673,1.21332,0.13322,0.51089,0.99973,0.19128,0.63676,1.12244,-0.12523,0.30305,1.52185,0.13811,0.50395,1.54609,-0.36453,0.49728,1.53285,0.38477,0.44025,1.36911,-0.28542,0.6798,1.7205,0.62044,0.44773,1.24191
1106,-0.03208,0.41886,1.57414,0.19583,0.62361,0.14465,0.32569,1.4608,1.27496,0.11226,0.56134,0.55703,0.17329,1.06563,1.22494,0.13424,0.51453,1.0006,0.19428,0.63781,1.12498,-0.128,0.30832,1.5188,0.1402,0.50485,1.54433,-0.35553,0.5163,1.52787,0.38344,0.42807,1.36781,-0.26624,0.69246,1.71703,0.61906,0.4207,1.24053
1107,-0.03199,0.42389,1.57332,0.19616,0.62436,0.14459,0.31725,1.46124,1.28046,0.11587,0.5671,0.55835,0.16797,1.06447,1.23393,0.13547,0.51824,1.00181,0.19826,0.63876,1.12753,-0.13134,0.31241,1.51587,0.14188,0.50661,1.54325,-0.34565,0.53411,1.52075,0.38172,0.41873,1.36726,-0.24749,0.7036,1.7116,0.61646,0.39454,1.24041
1108,-0.03156,0.42807,1.57315,0.1961,0.62549,0.14483,0.31414,1.45791,1.28232,0.11856,0.57328,0.55977,0.15988,1.0626,1.23971,0.13631,0.52091,1.00291,0.20198,0.63884,1.12961,-0.13557,0.31615,1.51334,0.14356,0.50796,1.54316,-0.33499,0.55138,1.51171,0.37899,0.41087,1.36606,-0.22967,0.71353,1.70509,0.61212,0.37009,1.24052
1109,-0.03123,0.43113,1.57383,0.19601,0.62729,0.14493,0.31916,1.45183,1.28257,0.1207,0.57956,0.56082,0.15401,1.06075,1.24181,0.1365,0.52283,1.0035,0.20516,0.63818,1.13099,-0.14093,0.32059,1.51128,0.14487,0.50728,1.54391,-0.32377,0.56874,1.50128,0.37515,0.40368,1.36376,-0.21302,0.72278,1.69823,0.60582,0.34885,1.23901
1110,-0.03121,0.433,1.57526,0.19581,0.62961,0.14471,0.33428,1.44505,1.2816,0.12261,0.58557,0.56138,0.15514,1.06018,1.24072,0.13663,0.52524,1.00365,0.20874,0.63734,1.13212,-0.14717,0.32606,1.50956,0.14476,0.504,1.54458,-0.31216,0.58589,1.49024,0.37194,0.39739,1.36227,-0.1971,0.73172,1.69093,0.59826,0.33185,1.23475
1111,-0.03114,0.43407,1.57712,0.19535,0.63199,0.14437,0.358,1.43905,1.27896,0.12419,0.59104,0.56171,0.16445,1.06127,1.23768,0.13755,0.5289,1.00374,0.21389,0.63685,1.13332,-0.15296,0.33247,1.50799,0.14265,0.49925,1.54415,-0.30067,0.60164,1.47907,0.37156,0.39334,1.3636,-0.18116,0.74042,1.68215,0.58985,0.31775,1.2279
1112,-0.03058,0.43528,1.57905,0.19497,0.63397,0.14414,0.38646,1.43328,1.2744,0.12515,0.59594,0.56199,0.17806,1.06344,1.23351,0.13934,0.53334,1.00393,0.22058,0.63713,1.13393,-0.15653,0.33994,1.50645,0.13962,0.49525,1.54284,-0.29013,0.61515,1.46749,0.37295,0.3946,1.36496,-0.16498,0.74834,1.67091,0.58063,0.30431,1.22181
1113,-0.0298,0.43724,1.58075,0.19514,0.63513,0.14393,0.41592,1.42581,1.26823,0.12545,0.60025,0.56207,0.19014,1.0662,1.22839,0.14111,0.53745,1.00394,0.22718,0.63841,1.13305,-0.15741,0.34823,1.50491,0.13796,0.4935,1.5424,-0.28071,0.62641,1.45469,0.37243,0.39633,1.36407,-0.14996,0.7537,1.65837,0.57296,0.29245,1.21994
1114,-0.02953,0.43971,1.58208,0.19581,0.63505,0.14348,0.44376,1.4152,1.26098,0.12516,0.60381,0.56175,0.19688,1.06961,1.22229,0.14191,0.54058,1.00351,0.2316,0.6408,1.13072,-0.1571,0.35611,1.50339,0.13945,0.49349,1.54467,-0.27131,0.63552,1.44017,0.37041,0.39081,1.36487,-0.13854,0.75656,1.64634,0.56783,0.28193,1.22013
1115,-0.02998,0.44223,1.58327,0.19655,0.63361,0.1427,0.46799,1.40151,1.25277,0.12426,0.60651,0.56098,0.19779,1.07371,1.21513,0.14103,0.54278,1.00267,0.23247,0.64401,1.12783,-0.15738,0.36226,1.50204,0.14378,0.49369,1.55001,-0.26035,0.64233,1.42419,0.36357,0.37668,1.36503,-0.12864,0.75901,1.63353,0.56126,0.27111,1.21822
1116,-0.03081,0.44461,1.58467,0.19722,0.63112,0.14167,0.48782,1.38617,1.24311,0.12282,0.60853,0.55985,0.19528,1.07796,1.20695,0.13781,0.54429,1.00153,0.22963,0.64717,1.12504,-0.15868,0.36659,1.50109,0.14845,0.49325,1.55648,-0.24719,0.64676,1.40736,0.34973,0.3657,1.35789,-0.11813,0.76159,1.61935,0.55069,0.26355,1.21313
1117,-0.03165,0.44668,1.58654,0.19797,0.62817,0.1405,0.50471,1.37107,1.23167,0.12127,0.61022,0.55848,0.19324,1.08171,1.1979,0.13248,0.54534,1.00018,0.2245,0.64951,1.12246,-0.1606,0.37012,1.50052,0.15102,0.49245,1.56144,-0.23271,0.64888,1.39008,0.33894,0.3638,1.35084,-0.10856,0.76386,1.60491,0.54157,0.25987,1.20972
1118,-0.03233,0.44825,1.58878,0.1986,0.6253,0.13933,0.52148,1.3569,1.2181,0.12005,0.61167,0.55714,0.1947,1.08452,1.18814,0.12651,0.54606,0.99882,0.21962,0.65072,1.11985,-0.16271,0.37374,1.49989,0.15144,0.492,1.56396,-0.21881,0.64888,1.37238,0.33302,0.36216,1.34859,-0.10109,0.76525,1.59006,0.53438,0.25674,1.20675
1119,-0.03272,0.44954,1.59099,0.19871,0.62276,0.13832,0.53956,1.34319,1.20132,0.11908,0.61267,0.55602,0.20014,1.08609,1.17743,0.1213,0.5464,0.99764,0.21694,0.65074,1.11697,-0.16453,0.37775,1.49875,0.15125,0.49229,1.56488,-0.20713,0.64698,1.35449,0.33004,0.35998,1.34866,-0.09562,0.76595,1.57402,0.5285,0.25513,1.20239
1120,-0.03276,0.45113,1.59273,0.19815,0.62065,0.13752,0.55844,1.32953,1.1803,0.11785,0.6131,0.55515,0.20827,1.08655,1.1654,0.1175,0.54643,0.99673,0.21673,0.6498,1.11394,-0.16565,0.38197,1.49719,0.15133,0.49307,1.56513,-0.19844,0.64361,1.33726,0.3289,0.35901,1.349,-0.09154,0.76653,1.55691,0.52404,0.25578,1.1972
1121,-0.03249,0.45325,1.59398,0.19721,0.61912,0.13693,0.57729,1.31545,1.15503,0.11614,0.61306,0.55443,0.21749,1.08651,1.15209,0.11516,0.54651,0.99602,0.21818,0.64857,1.1111,-0.16602,0.38614,1.49568,0.15156,0.49386,1.56516,-0.19242,0.63921,1.32143,0.32839,0.35908,1.34887,-0.08838,0.76722,1.53954,0.52056,0.25814,1.19184
1122,-0.03213,0.45554,1.5951,0.19648,0.6182,0.1365,0.5956,1.3,1.12632,0.11414,0.61272,0.55376,0.22669,1.08631,1.13764,0.11373,0.54671,0.99543,0.22014,0.64748,1.10854,-0.16573,0.39012,1.49457,0.15166,0.49449,1.56528,-0.1876,0.63373,1.30672,0.32758,0.35978,1.34821,-0.08629,0.76789,1.52241,0.51772,0.26211,1.18669
1123,-0.03191,0.45768,1.59629,0.19622,0.61758,0.1362,0.61335,1.28235,1.09542,0.11206,0.61231,0.5531,0.23589,1.08563,1.12208,0.11208,0.54661,0.99482,0.22164,0.64631,1.10585,-0.16451,0.39368,1.49371,0.15173,0.49527,1.56577,-0.18201,0.62646,1.29217,0.32622,0.36129,1.34709,-0.08567,0.76821,1.50527,0.51547,0.26805,1.18196
1124,-0.03185,0.45983,1.59746,0.19623,0.61667,0.13598,0.63115,1.26226,1.06331,0.10992,0.61196,0.55245,0.24599,1.08408,1.10561,0.10949,0.5459,0.99411,0.22222,0.64488,1.10258,-0.16206,0.39635,1.49265,0.15203,0.49651,1.56659,-0.17473,0.6169,1.27746,0.32492,0.36395,1.34578,-0.08627,0.76797,1.48755,0.51391,0.27592,1.17753
1125,-0.03173,0.46216,1.59852,0.19624,0.61516,0.13571,0.6493,1.24004,1.03011,0.10776,0.61169,0.55173,0.25762,1.08178,1.08864,0.10623,0.54499,0.9933,0.22216,0.64349,1.0988,-0.15878,0.39789,1.49106,0.15275,0.49814,1.56747,-0.16703,0.60571,1.26335,0.32472,0.36791,1.34457,-0.0872,0.76725,1.46906,0.51324,0.28507,1.17317
1126,-0.03133,0.46458,1.59959,0.19609,0.61338,0.13528,0.66685,1.21653,0.99539,0.10566,0.61152,0.5509,0.27038,1.07894,1.07133,0.10324,0.54458,0.99242,0.2222,0.64239,1.09515,-0.15583,0.39889,1.48896,0.15393,0.50019,1.56811,-0.16122,0.59434,1.25047,0.32619,0.37321,1.34357,-0.08788,0.76639,1.44998,0.51354,0.29505,1.16873
1127,-0.0307,0.46703,1.60074,0.19564,0.6118,0.13475,0.68223,1.19248,0.95893,0.10363,0.61157,0.55002,0.28322,1.07521,1.05339,0.10116,0.54481,0.99158,0.22297,0.64125,1.09225,-0.15435,0.40051,1.48677,0.15549,0.50293,1.56846,-0.15829,0.58353,1.23859,0.32886,0.37968,1.34269,-0.08871,0.76556,1.43044,0.51463,0.30609,1.16423
1128,-0.0301,0.46966,1.6019,0.19493,0.61049,0.13435,0.69478,1.16774,0.92111,0.10163,0.61185,0.54933,0.29548,1.07004,1.03465,0.09968,0.54519,0.9909,0.22434,0.63953,1.09004,-0.15448,0.40323,1.48496,0.15716,0.50625,1.56871,-0.15759,0.57283,1.2274,0.33137,0.3865,1.3417,-0.09063,0.76466,1.41044,0.51618,0.31871,1.15997
1129,-0.02974,0.47251,1.60287,0.19413,0.60927,0.13419,0.70487,1.14155,0.88245,0.09962,0.61229,0.54889,0.30725,1.06335,1.01535,0.09769,0.54529,0.99041,0.22552,0.63727,1.08773,-0.1552,0.4064,1.48379,0.15855,0.50929,1.56911,-0.15827,0.56159,1.2173,0.33251,0.3925,1.34038,-0.09423,0.76362,1.39012,0.51815,0.33308,1.15657
1130,-0.02953,0.47537,1.60346,0.19337,0.60797,0.1341,0.71279,1.11375,0.84338,0.09763,0.61285,0.5485,0.3188,1.05556,0.99591,0.09445,0.5451,0.9899,0.2258,0.63489,1.08453,-0.15521,0.40919,1.48329,0.15934,0.51139,1.56966,-0.15997,0.54984,1.20888,0.33228,0.39729,1.33881,-0.09942,0.7625,1.3698,0.52034,0.34912,1.15417
1131,-0.02936,0.47808,1.60374,0.19262,0.60638,0.13384,0.71837,1.08511,0.80444,0.09568,0.61361,0.54792,0.33005,1.04702,0.97662,0.09043,0.54479,0.98914,0.2254,0.63262,1.08047,-0.15428,0.41164,1.48335,0.15954,0.51286,1.57009,-0.1625,0.53816,1.20222,0.33162,0.40152,1.33726,-0.10606,0.76122,1.35002,0.52217,0.36649,1.15222
1132,-0.02924,0.48087,1.60386,0.19191,0.60436,0.13333,0.72167,1.05657,0.76622,0.09378,0.61463,0.54707,0.34086,1.03779,0.95731,0.08699,0.54453,0.98806,0.22516,0.63047,1.07635,-0.15331,0.41425,1.48367,0.1596,0.51462,1.57026,-0.16569,0.52706,1.19692,0.33131,0.40606,1.33584,-0.11425,0.75958,1.33136,0.52337,0.38453,1.1503
1133,-0.02922,0.48405,1.60387,0.19126,0.60217,0.13261,0.72337,1.02854,0.7288,0.09195,0.61587,0.54597,0.3514,1.02765,0.9374,0.08486,0.54452,0.98676,0.22571,0.62846,1.07271,-0.15303,0.41709,1.48393,0.15996,0.51696,1.57021,-0.16928,0.51687,1.19257,0.33148,0.41118,1.33439,-0.1238,0.75754,1.31419,0.52441,0.40313,1.14867
1134,-0.02925,0.48768,1.60365,0.19062,0.60025,0.13178,0.72402,1.00059,0.69143,0.0905,0.61736,0.54482,0.36218,1.01623,0.91662,0.0835,0.54497,0.98544,0.22696,0.62654,1.06933,-0.15318,0.4201,1.4841,0.16059,0.51928,1.56989,-0.173,0.50772,1.18908,0.33204,0.41655,1.33267,-0.13363,0.75518,1.29862,0.52588,0.42284,1.14784
1135,-0.0292,0.49144,1.60321,0.18988,0.59866,0.13095,0.72321,0.97158,0.65331,0.08981,0.61914,0.54385,0.37353,1.00321,0.8954,0.08199,0.54599,0.98432,0.22855,0.62449,1.06575,-0.15327,0.42349,1.48451,0.16126,0.52095,1.56914,-0.17671,0.49948,1.18654,0.33305,0.42183,1.33064,-0.1425,0.75241,1.28472,0.52785,0.44393,1.14805
1136,-0.02899,0.49494,1.60276,0.18896,0.59726,0.13024,0.71997,0.94072,0.61461,0.08983,0.6212,0.54318,0.38511,0.98852,0.87436,0.08013,0.54741,0.98351,0.23019,0.62214,1.06206,-0.15332,0.42732,1.48539,0.16188,0.52217,1.56791,-0.18057,0.4916,1.18501,0.33464,0.42716,1.32844,-0.15048,0.74888,1.27268,0.52985,0.46623,1.14915
1137,-0.02863,0.49799,1.6024,0.18786,0.59609,0.12972,0.71397,0.90881,0.57669,0.09008,0.62335,0.54277,0.39621,0.97237,0.85395,0.07814,0.54888,0.98294,0.23164,0.61951,1.05857,-0.15386,0.43105,1.48661,0.16239,0.52354,1.5665,-0.18478,0.48345,1.18427,0.33679,0.43316,1.32644,-0.15934,0.74422,1.26262,0.53122,0.48956,1.15095
1138,-0.02816,0.50078,1.60202,0.18675,0.59516,0.1294,0.70594,0.87772,0.54094,0.09014,0.62545,0.54252,0.40629,0.95503,0.83439,0.07607,0.55021,0.98249,0.23282,0.61654,1.0553,-0.15521,0.43405,1.4877,0.16275,0.52538,1.5654,-0.18915,0.47485,1.18391,0.33929,0.44018,1.325,-0.17041,0.73842,1.25438,0.53155,0.51379,1.15355
1139,-0.02759,0.50372,1.60148,0.18585,0.59426,0.12928,0.69673,0.84824,0.50763,0.09003,0.62755,0.54235,0.41521,0.93664,0.81554,0.07399,0.55146,0.9821,0.23391,0.61315,1.05207,-0.15702,0.43633,1.48826,0.16326,0.52749,1.56483,-0.19322,0.46644,1.18348,0.34199,0.44785,1.32414,-0.18269,0.73208,1.2476,0.53073,0.53867,1.15709
1140,-0.02688,0.50719,1.60077,0.18523,0.59321,0.12922,0.68624,0.81922,0.47628,0.09003,0.6298,0.54216,0.42279,0.91749,0.79693,0.07233,0.55265,0.98167,0.23526,0.60946,1.04875,-0.15861,0.43863,1.48816,0.16445,0.52962,1.56455,-0.19682,0.45924,1.18284,0.34496,0.45538,1.32347,-0.19371,0.72615,1.24231,0.52868,0.56383,1.1614
1141,-0.02602,0.51134,1.59998,0.18481,0.59211,0.12892,0.67397,0.7892,0.44681,0.09029,0.63216,0.54169,0.42873,0.89804,0.77831,0.07153,0.55363,0.98091,0.237,0.60588,1.04542,-0.15955,0.44168,1.48766,0.16638,0.53185,1.56403,-0.20024,0.45381,1.1822,0.34837,0.46235,1.32264,-0.20204,0.72134,1.23883,0.52552,0.58877,1.16641
1142,-0.02496,0.51596,1.59911,0.18445,0.59134,0.12814,0.66011,0.75809,0.41946,0.09071,0.6345,0.54077,0.43322,0.87846,0.75992,0.0716,0.55418,0.97965,0.23897,0.60266,1.04217,-0.15975,0.44551,1.48715,0.16841,0.53437,1.56299,-0.20399,0.44992,1.18197,0.35212,0.46899,1.32176,-0.20844,0.71772,1.2372,0.52147,0.61306,1.1723
1143,-0.0236,0.52062,1.59815,0.18417,0.59123,0.127,0.64572,0.72676,0.39397,0.09117,0.63675,0.53955,0.43713,0.85823,0.74195,0.0721,0.55435,0.97804,0.241,0.59966,1.03882,-0.15927,0.44961,1.4869,0.16997,0.53707,1.56165,-0.20828,0.44697,1.18244,0.35593,0.47571,1.32109,-0.21485,0.71487,1.23691,0.5165,0.63656,1.17923
1144,-0.02197,0.52491,1.59705,0.18396,0.59156,0.12585,0.63177,0.6959,0.36981,0.09191,0.63899,0.53839,0.44104,0.83677,0.72429,0.07258,0.55447,0.97647,0.24311,0.59648,1.03502,-0.1584,0.45364,1.48699,0.17125,0.53957,1.56037,-0.21279,0.44442,1.18356,0.35974,0.4826,1.32069,-0.22239,0.71239,1.23731,0.51032,0.65945,1.18717
1145,-0.02016,0.52861,1.59585,0.18364,0.5916,0.12489,0.61827,0.6658,0.34704,0.0932,0.64122,0.53753,0.44435,0.81433,0.707,0.07277,0.55483,0.9752,0.24527,0.59278,1.03065,-0.15754,0.45768,1.48737,0.17292,0.54163,1.55927,-0.21696,0.44205,1.18516,0.36369,0.48958,1.32028,-0.23047,0.71002,1.238,0.50278,0.68185,1.19592
1146,-0.01814,0.53184,1.59466,0.18304,0.59057,0.12411,0.60464,0.63671,0.32638,0.09501,0.64334,0.53689,0.44593,0.79189,0.69055,0.07266,0.55539,0.97415,0.24722,0.58852,1.02614,-0.15674,0.46193,1.48794,0.17525,0.54339,1.55828,-0.22045,0.43986,1.18701,0.36777,0.49675,1.31958,-0.23766,0.70781,1.23888,0.49425,0.70344,1.2053
1147,-0.01575,0.53492,1.59358,0.18199,0.58837,0.12339,0.59038,0.60883,0.30834,0.09694,0.64537,0.53623,0.44527,0.77033,0.67541,0.07244,0.55605,0.9731,0.24877,0.58405,1.02204,-0.15559,0.46641,1.48855,0.17792,0.54515,1.55735,-0.2233,0.43823,1.189,0.37184,0.50438,1.31871,-0.24332,0.70614,1.24006,0.48548,0.72386,1.2153
1148,-0.01297,0.53817,1.59261,0.18037,0.5857,0.12255,0.57542,0.58214,0.29263,0.09858,0.64741,0.53537,0.44264,0.74983,0.66159,0.0723,0.55678,0.97186,0.24995,0.57985,1.01858,-0.15382,0.47092,1.48912,0.18051,0.54695,1.55637,-0.22589,0.43771,1.19111,0.37597,0.51272,1.31796,-0.24817,0.7055,1.24185,0.47663,0.74335,1.22601
1149,-0.00992,0.54169,1.59168,0.17832,0.58313,0.12146,0.55996,0.55651,0.27855,0.09978,0.64927,0.53423,0.43868,0.73003,0.64877,0.07233,0.55761,0.97044,0.25093,0.57609,1.01554,-0.15147,0.47533,1.48969,0.18307,0.5486,1.5552,-0.22851,0.43848,1.19335,0.38038,0.52194,1.31734,-0.25293,0.70601,1.2445,0.46701,0.7625,1.23732
1150,-0.00663,0.54526,1.5908,0.17615,0.58057,0.12013,0.54441,0.53197,0.26552,0.10063,0.65054,0.53282,0.43391,0.71044,0.63676,0.07249,0.55844,0.96889,0.25184,0.57242,1.01261,-0.14873,0.47967,1.49021,0.18604,0.55006,1.5537,-0.23118,0.44027,1.19566,0.38514,0.5321,1.31652,-0.25713,0.70741,1.24805,0.45605,0.78145,1.2489
1151,-0.003,0.5486,1.59003,0.17388,0.57783,0.1187,0.52918,0.50864,0.25332,0.10124,0.65116,0.53133,0.4288,0.69078,0.62565,0.07272,0.55898,0.96736,0.2527,0.56834,1.00966,-0.14576,0.48398,1.49047,0.18973,0.55144,1.55191,-0.23383,0.44279,1.1978,0.39015,0.54297,1.31531,-0.26001,0.7095,1.25226,0.44411,0.79962,1.26054
1152,0.00096,0.55169,1.58936,0.17118,0.5752,0.11748,0.51455,0.48645,0.24211,0.1017,0.65148,0.53011,0.42365,0.6711,0.61564,0.07296,0.5589,0.96605,0.2535,0.56365,1.00675,-0.14274,0.48827,1.49026,0.194,0.55283,1.54986,-0.23641,0.44619,1.19947,0.39532,0.55401,1.31388,-0.26164,0.71237,1.25687,0.43217,0.81612,1.27243
1153,0.00506,0.55481,1.58865,0.16805,0.57313,0.11663,0.5005,0.46517,0.2321,0.10225,0.65188,0.52941,0.41855,0.65171,0.60676,0.07318,0.55828,0.9651,0.25418,0.55847,1.00394,-0.13973,0.49269,1.48969,0.19848,0.55419,1.54772,-0.23883,0.4508,1.20067,0.40057,0.56455,1.31262,-0.2625,0.71628,1.26184,0.42091,0.83024,1.28485
1154,0.00911,0.55802,1.5878,0.16519,0.57179,0.11616,0.48678,0.44451,0.22323,0.10315,0.65246,0.52916,0.41348,0.63287,0.59878,0.07335,0.5576,0.96453,0.25476,0.5531,1.00116,-0.1366,0.49745,1.48916,0.20304,0.55556,1.54581,-0.24097,0.45684,1.20181,0.40577,0.5743,1.31179,-0.26277,0.72144,1.26737,0.41028,0.84182,1.29799
1155,0.01328,0.56107,1.58695,0.16344,0.57102,0.11596,0.47307,0.42421,0.21534,0.10433,0.65316,0.52909,0.4084,0.61453,0.59147,0.07351,0.55734,0.96418,0.25521,0.54782,0.99835,-0.13318,0.50264,1.48908,0.20779,0.55687,1.54451,-0.24293,0.46442,1.20342,0.41074,0.58356,1.31145,-0.26231,0.72802,1.27362,0.39964,0.85124,1.31163
1156,0.01794,0.56368,1.58633,0.16291,0.5705,0.11585,0.45907,0.40432,0.20848,0.10545,0.6539,0.52896,0.40328,0.59674,0.58497,0.07357,0.5574,0.96382,0.25535,0.54264,0.99564,-0.12953,0.50818,1.48964,0.2127,0.55775,1.54384,-0.24484,0.4733,1.20575,0.41527,0.59297,1.31159,-0.26074,0.73585,1.28059,0.38855,0.85922,1.32493
1157,0.02315,0.56583,1.58608,0.16295,0.57012,0.11575,0.44475,0.38523,0.20282,0.10629,0.65456,0.52876,0.39804,0.57981,0.57944,0.07335,0.55735,0.96339,0.25496,0.53737,0.99319,-0.12591,0.51411,1.49074,0.2173,0.55769,1.54333,-0.24648,0.48279,1.20862,0.41907,0.60277,1.31209,-0.25773,0.74421,1.2881,0.37755,0.86628,1.3369
1158,0.02868,0.56772,1.58614,0.16276,0.57001,0.11565,0.43035,0.36738,0.19819,0.10704,0.65501,0.52867,0.39258,0.56395,0.57477,0.07282,0.55701,0.96302,0.25409,0.53193,0.99102,-0.12233,0.52067,1.49207,0.22121,0.55666,1.54253,-0.24735,0.4923,1.21159,0.42184,0.61238,1.31262,-0.25334,0.75237,1.29594,0.36755,0.87244,1.34725
1159,0.03432,0.56964,1.58632,0.16188,0.57015,0.1156,0.41623,0.35082,0.19417,0.10814,0.65532,0.52885,0.38694,0.54888,0.57073,0.07228,0.5566,0.9629,0.25306,0.52655,0.98911,-0.11856,0.52777,1.49337,0.22452,0.55515,1.5415,-0.24727,0.50204,1.2143,0.42343,0.62102,1.31277,-0.24766,0.76042,1.3039,0.35887,0.87729,1.35676
1160,0.03998,0.57185,1.58645,0.1602,0.57025,0.11556,0.4025,0.33541,0.19044,0.10986,0.65566,0.52919,0.38129,0.53401,0.56725,0.07197,0.55639,0.96294,0.2521,0.52142,0.98751,-0.11438,0.5347,1.49458,0.22776,0.55361,1.5406,-0.24656,0.51284,1.21681,0.42413,0.62858,1.31249,-0.24045,0.7692,1.31184,0.35109,0.88058,1.3667
1161,0.04561,0.57433,1.58653,0.15762,0.56984,0.11544,0.3891,0.3211,0.18694,0.1119,0.65595,0.52946,0.37552,0.51912,0.56441,0.07181,0.55628,0.96292,0.25108,0.51642,0.98628,-0.10992,0.54084,1.4958,0.23141,0.55209,1.54004,-0.24569,0.52514,1.21935,0.42457,0.63571,1.31219,-0.23134,0.7791,1.31977,0.34367,0.88259,1.37765
1162,0.05109,0.57671,1.58669,0.15417,0.56882,0.11522,0.37617,0.30788,0.18369,0.11366,0.65584,0.52959,0.36937,0.50452,0.56207,0.07149,0.5558,0.96278,0.24977,0.51129,0.98529,-0.10555,0.54629,1.49709,0.23567,0.55059,1.53975,-0.24488,0.53836,1.22207,0.42525,0.64296,1.31227,-0.2206,0.78937,1.32787,0.33655,0.88385,1.38897
1163,0.05644,0.5785,1.58704,0.1502,0.56767,0.11493,0.36403,0.29559,0.18068,0.11485,0.65509,0.52969,0.36288,0.49064,0.55994,0.07091,0.55473,0.96262,0.24818,0.50597,0.98429,-0.10142,0.55165,1.49839,0.24042,0.54926,1.53949,-0.24404,0.55143,1.22495,0.42611,0.65024,1.31247,-0.20911,0.79879,1.33621,0.3302,0.88483,1.39935
1164,0.06182,0.57962,1.58751,0.14631,0.56693,0.11466,0.35279,0.28396,0.17794,0.11571,0.65393,0.52988,0.35649,0.47764,0.55788,0.07034,0.55334,0.96261,0.24661,0.50064,0.98316,-0.09732,0.55721,1.49976,0.24543,0.54796,1.53898,-0.24275,0.56384,1.22788,0.42682,0.65711,1.31226,-0.19752,0.807,1.34454,0.32521,0.88572,1.4081
1165,0.06738,0.5804,1.58795,0.14286,0.56669,0.11456,0.34222,0.27296,0.17561,0.11659,0.65278,0.53027,0.3506,0.46547,0.55608,0.07009,0.55209,0.96286,0.24528,0.49544,0.98208,-0.09324,0.56253,1.5013,0.25039,0.54624,1.53793,-0.24049,0.57596,1.23066,0.42746,0.66317,1.31169,-0.18599,0.81457,1.35264,0.32162,0.88617,1.41584
1166,0.07303,0.58123,1.58835,0.13984,0.56667,0.11478,0.33198,0.26272,0.17378,0.11749,0.65182,0.53091,0.34523,0.45414,0.55465,0.07015,0.55106,0.96339,0.24412,0.49032,0.98119,-0.08949,0.56697,1.50308,0.25497,0.54379,1.53643,-0.23719,0.58837,1.2332,0.42845,0.66817,1.31137,-0.17446,0.82209,1.36057,0.31877,0.8853,1.42364
1167,0.07853,0.58227,1.58865,0.13711,0.56665,0.11519,0.32191,0.25318,0.17232,0.11807,0.65082,0.53168,0.33993,0.44368,0.55346,0.0702,0.54997,0.96408,0.24288,0.48525,0.98044,-0.08623,0.57043,1.50495,0.25899,0.54074,1.53497,-0.23332,0.6012,1.23564,0.42966,0.67188,1.3116,-0.16268,0.82962,1.36838,0.31601,0.88265,1.43174
1168,0.08385,0.58333,1.58875,0.1346,0.56664,0.11549,0.31211,0.24418,0.17082,0.11815,0.64949,0.53236,0.33417,0.43372,0.55223,0.07002,0.54851,0.9647,0.24147,0.48028,0.97966,-0.08304,0.57339,1.50674,0.26241,0.53736,1.53412,-0.22921,0.61424,1.23827,0.43034,0.67412,1.31205,-0.15015,0.83694,1.37589,0.3133,0.87873,1.43938
1169,0.08925,0.58409,1.58858,0.13241,0.56676,0.11558,0.30272,0.23567,0.16891,0.11802,0.64799,0.53284,0.32778,0.42366,0.5509,0.06971,0.54668,0.96509,0.23996,0.47528,0.97879,-0.07925,0.57638,1.50832,0.26537,0.53373,1.53402,-0.22466,0.62727,1.24117,0.43014,0.67498,1.3124,-0.13653,0.84393,1.38285,0.31102,0.87439,1.4459
1170,0.09489,0.58438,1.58835,0.13066,0.56696,0.11568,0.2939,0.22775,0.16656,0.11824,0.64688,0.53326,0.32091,0.41327,0.54962,0.06956,0.54473,0.96526,0.23847,0.47003,0.97793,-0.07448,0.57977,1.50968,0.26816,0.52993,1.53438,-0.21927,0.6402,1.24417,0.42957,0.67478,1.31261,-0.12207,0.85052,1.38944,0.30949,0.86995,1.4514
1171,0.10079,0.58437,1.58818,0.12926,0.56705,0.1161,0.28583,0.22046,0.16412,0.11898,0.6466,0.53381,0.31369,0.40294,0.54857,0.0697,0.54279,0.96535,0.23699,0.4644,0.9773,-0.06876,0.58381,1.51085,0.27111,0.52605,1.53469,-0.21283,0.65303,1.2471,0.42931,0.67395,1.31261,-0.10736,0.85652,1.39627,0.3087,0.8651,1.45645
1172,0.10695,0.58434,1.58797,0.12812,0.56705,0.11692,0.27839,0.2139,0.16189,0.11994,0.647,0.5346,0.30627,0.39318,0.54785,0.07002,0.54081,0.96549,0.23544,0.45851,0.97701,-0.06226,0.58863,1.512,0.27443,0.52194,1.53437,-0.20546,0.66578,1.24999,0.42948,0.67282,1.31208,-0.09274,0.86185,1.40373,0.30849,0.85938,1.46152
1173,0.11333,0.58434,1.58752,0.1274,0.56722,0.11788,0.27119,0.2081,0.1598,0.12082,0.64752,0.53552,0.29902,0.38402,0.54731,0.07034,0.53879,0.96571,0.23377,0.45253,0.97686,-0.05533,0.59393,1.51331,0.27814,0.51714,1.53311,-0.19745,0.67847,1.25299,0.42985,0.67146,1.31088,-0.07812,0.86675,1.4114,0.30878,0.85271,1.46665
1174,0.11979,0.58409,1.58683,0.12737,0.56765,0.1186,0.26384,0.20291,0.15755,0.12158,0.64769,0.53631,0.29228,0.37509,0.54669,0.07062,0.53677,0.96588,0.23197,0.44663,0.97647,-0.04854,0.5989,1.5148,0.28208,0.51146,1.53121,-0.18916,0.69115,1.25629,0.43016,0.66962,1.30922,-0.06323,0.87182,1.41842,0.30964,0.84549,1.47147
1175,0.12624,0.58344,1.58605,0.12794,0.56817,0.11885,0.25623,0.19807,0.15504,0.12227,0.64729,0.53673,0.28589,0.3662,0.54586,0.07077,0.53474,0.96581,0.23006,0.44093,0.9757,-0.04243,0.6027,1.51633,0.28609,0.50546,1.52935,-0.18081,0.70381,1.25994,0.43028,0.66708,1.30731,-0.0479,0.87729,1.42433,0.31099,0.83812,1.4755
1176,0.13267,0.58244,1.58525,0.12859,0.56847,0.11866,0.24869,0.19343,0.15245,0.12283,0.64637,0.53677,0.27939,0.35761,0.54486,0.07069,0.53264,0.96547,0.22805,0.43555,0.97469,-0.03713,0.60518,1.51768,0.28997,0.50005,1.52801,-0.17237,0.71611,1.26369,0.43028,0.66395,1.30515,-0.03222,0.8824,1.42949,0.31257,0.83085,1.47856
1177,0.13908,0.58119,1.58437,0.1289,0.56839,0.11828,0.24167,0.18907,0.14991,0.12328,0.64516,0.5366,0.27262,0.34961,0.5438,0.07042,0.53036,0.96492,0.22605,0.43048,0.97364,-0.03222,0.60696,1.51861,0.29358,0.49556,1.5272,-0.16353,0.7276,1.26699,0.43031,0.66051,1.30288,-0.01654,0.88598,1.43461,0.31424,0.82386,1.4807
1178,0.14551,0.57972,1.58341,0.12884,0.56801,0.11789,0.23541,0.18527,0.14736,0.1237,0.64382,0.53639,0.26589,0.34209,0.54278,0.07021,0.52787,0.96432,0.22429,0.42558,0.97262,-0.02705,0.60887,1.51889,0.29691,0.49142,1.52673,-0.15385,0.73816,1.26926,0.43053,0.65665,1.30076,-0.00142,0.88781,1.44002,0.31614,0.81721,1.48218
1179,0.15196,0.57812,1.58242,0.12876,0.56758,0.11747,0.22987,0.18218,0.14476,0.12402,0.64228,0.53618,0.25947,0.33466,0.54194,0.07025,0.52529,0.9638,0.22284,0.42076,0.97172,-0.02122,0.61126,1.51853,0.30012,0.48687,1.52639,-0.14328,0.74782,1.27042,0.4311,0.65206,1.29885,0.0127,0.88863,1.44542,0.31872,0.81064,1.48324
1180,0.15827,0.57655,1.58136,0.12902,0.5673,0.11695,0.22496,0.17968,0.14225,0.12404,0.64036,0.53594,0.25325,0.32719,0.54141,0.07045,0.52284,0.96343,0.22156,0.41614,0.971,-0.015,0.61381,1.51784,0.30346,0.48187,1.52591,-0.13235,0.75646,1.27088,0.43211,0.64672,1.29681,0.02569,0.88914,1.45033,0.32207,0.80382,1.48385
1181,0.16428,0.57515,1.58013,0.12971,0.56718,0.11631,0.22065,0.17759,0.14004,0.12373,0.6381,0.53566,0.24707,0.31998,0.54117,0.07057,0.52073,0.96325,0.22015,0.41189,0.97047,-0.00879,0.61611,1.51723,0.30681,0.47683,1.52489,-0.12177,0.76393,1.27128,0.43347,0.64117,1.29432,0.03784,0.88939,1.45449,0.32556,0.79677,1.48385
1182,0.16989,0.57379,1.57866,0.13056,0.56708,0.11576,0.21695,0.1758,0.13808,0.12323,0.63586,0.53544,0.241,0.31345,0.54101,0.07047,0.51895,0.9632,0.21846,0.40794,0.97,-0.00252,0.61806,1.51694,0.30987,0.47176,1.52309,-0.11183,0.77015,1.27193,0.43502,0.63584,1.29151,0.04974,0.88895,1.45785,0.32861,0.78973,1.48327
1183,0.17507,0.57222,1.57709,0.13125,0.56695,0.11539,0.21388,0.17428,0.13619,0.12268,0.634,0.53533,0.23537,0.30773,0.54067,0.07024,0.51713,0.96314,0.21664,0.40399,0.96945,0.00415,0.61966,1.51682,0.31256,0.46633,1.52075,-0.10226,0.77525,1.27274,0.43676,0.63064,1.28881,0.06191,0.8875,1.46044,0.33134,0.78288,1.48242
1184,0.17981,0.57039,1.57566,0.13153,0.56672,0.11506,0.21139,0.173,0.13422,0.12204,0.63248,0.53518,0.2306,0.30257,0.54008,0.07006,0.51489,0.96285,0.21484,0.39967,0.96878,0.0112,0.62075,1.51664,0.31495,0.46045,1.51834,-0.09236,0.77974,1.27352,0.43873,0.62513,1.28644,0.0748,0.88531,1.46246,0.33424,0.77615,1.48151
1185,0.18432,0.56845,1.57451,0.1312,0.56625,0.11445,0.20928,0.17189,0.13215,0.12125,0.63085,0.53474,0.22685,0.29767,0.53927,0.06986,0.51228,0.96222,0.21286,0.39486,0.96802,0.01819,0.62146,1.51638,0.31677,0.4543,1.5161,-0.08129,0.7844,1.27418,0.44088,0.61891,1.28433,0.08879,0.88316,1.46419,0.33744,0.76923,1.4805
1186,0.18893,0.56655,1.57347,0.13022,0.56548,0.11343,0.2073,0.17091,0.13008,0.12028,0.62878,0.53392,0.22399,0.29296,0.53837,0.06939,0.50959,0.96128,0.2103,0.38967,0.96724,0.0249,0.6224,1.51624,0.31758,0.44807,1.51389,-0.06891,0.78948,1.27459,0.44303,0.61173,1.28217,0.10357,0.88148,1.46583,0.34069,0.76182,1.47908
1187,0.19367,0.56455,1.57233,0.12885,0.5645,0.11224,0.20542,0.17002,0.12817,0.11928,0.62643,0.53294,0.2217,0.28868,0.53749,0.0686,0.50695,0.96024,0.20726,0.38444,0.96654,0.03145,0.62383,1.51626,0.31761,0.44188,1.51167,-0.05622,0.7941,1.27454,0.4451,0.60355,1.27967,0.11788,0.87988,1.46719,0.3439,0.75393,1.47695
1188,0.19821,0.56201,1.57119,0.12751,0.56346,0.11119,0.20382,0.16913,0.12654,0.11849,0.62406,0.53209,0.21982,0.28498,0.53667,0.06776,0.50433,0.95932,0.20432,0.37952,0.96595,0.03784,0.62508,1.51628,0.31774,0.43582,1.5096,-0.04469,0.79689,1.27384,0.44708,0.59483,1.27677,0.1303,0.8776,1.46787,0.34724,0.74594,1.4742
1189,0.20216,0.55851,1.57041,0.12638,0.56251,0.11034,0.20267,0.16809,0.12511,0.11811,0.62164,0.53147,0.21827,0.28172,0.53588,0.06717,0.50178,0.95864,0.20201,0.37511,0.96539,0.04385,0.62538,1.51611,0.31859,0.42988,1.5078,-0.03472,0.79729,1.27243,0.44896,0.58625,1.27376,0.1405,0.87423,1.46778,0.35076,0.73843,1.47119
1190,0.20551,0.55422,1.57007,0.12534,0.56168,0.10964,0.20186,0.16686,0.12378,0.11812,0.61897,0.53105,0.21698,0.27875,0.53504,0.06694,0.4993,0.95824,0.20047,0.37124,0.96473,0.0494,0.62465,1.51571,0.32001,0.42388,1.5062,-0.02536,0.79611,1.27052,0.45074,0.57819,1.271,0.14949,0.86998,1.46738,0.3543,0.73156,1.46837
1191,0.20854,0.54976,1.56982,0.12428,0.56099,0.10908,0.20114,0.16558,0.12248,0.11829,0.61606,0.5308,0.21592,0.27612,0.53412,0.06702,0.49684,0.95811,0.19956,0.36772,0.96401,0.05464,0.62333,1.51503,0.3215,0.41776,1.5047,-0.01548,0.79468,1.26839,0.45252,0.57055,1.26867,0.15835,0.86551,1.46726,0.35773,0.72503,1.46598
1192,0.21155,0.5456,1.56928,0.12338,0.56044,0.1086,0.20029,0.16452,0.12123,0.11845,0.6131,0.53064,0.21518,0.27396,0.53315,0.06741,0.49431,0.9581,0.19904,0.36424,0.96333,0.0596,0.62175,1.51412,0.32283,0.41161,1.5033,-0.00483,0.79352,1.26622,0.45438,0.56308,1.26672,0.1674,0.86129,1.46754,0.36118,0.71857,1.46399
1193,0.21478,0.54178,1.56835,0.12297,0.55991,0.10806,0.19947,0.16375,0.12,0.11872,0.61016,0.5304,0.2149,0.27215,0.53218,0.06813,0.49181,0.95803,0.19871,0.36067,0.96272,0.06414,0.61997,1.51325,0.32409,0.40555,1.50206,0.006,0.79219,1.26411,0.45629,0.55568,1.26499,0.17634,0.85733,1.46789,0.36482,0.71226,1.4622
1194,0.21828,0.53799,1.56718,0.12323,0.55923,0.10738,0.19898,0.1631,0.11883,0.11942,0.60721,0.52999,0.21499,0.27039,0.53128,0.06912,0.48958,0.95785,0.19852,0.35726,0.96215,0.06811,0.61791,1.51274,0.32549,0.39974,1.50111,0.01626,0.78999,1.26213,0.45814,0.54832,1.26332,0.18486,0.8532,1.46795,0.36862,0.70618,1.46042
1195,0.2219,0.534,1.566,0.12399,0.55845,0.10665,0.19887,0.16236,0.1178,0.12063,0.60425,0.52951,0.21518,0.26857,0.53052,0.07028,0.48774,0.95767,0.19862,0.35437,0.9616,0.07154,0.6156,1.51251,0.327,0.39423,1.50064,0.0255,0.78675,1.26014,0.45986,0.54087,1.26177,0.19266,0.84844,1.46759,0.37237,0.7001,1.45867
1196,0.22529,0.52984,1.5649,0.12487,0.55781,0.10597,0.19877,0.16147,0.11692,0.12205,0.60141,0.52906,0.21529,0.2668,0.52986,0.07149,0.48615,0.95754,0.199,0.35198,0.96107,0.07476,0.61328,1.51215,0.32842,0.38882,1.50073,0.03373,0.78284,1.25784,0.4614,0.53309,1.26048,0.19955,0.84294,1.46683,0.37596,0.69368,1.45717
1197,0.22817,0.52573,1.56393,0.1255,0.55736,0.10525,0.19838,0.16056,0.11609,0.12326,0.59872,0.52858,0.2154,0.26516,0.52919,0.0727,0.48463,0.95736,0.19941,0.3497,0.96054,0.07821,0.61113,1.51142,0.32948,0.38319,1.50092,0.04115,0.77862,1.25513,0.46266,0.52511,1.25938,0.20565,0.837,1.46564,0.37934,0.68679,1.45609
1198,0.23049,0.52176,1.56314,0.12578,0.55687,0.1044,0.19776,0.15987,0.11518,0.12404,0.5961,0.52793,0.21565,0.26363,0.52845,0.07395,0.48303,0.95704,0.19968,0.34718,0.96,0.08202,0.60898,1.51054,0.33003,0.37739,1.50051,0.04799,0.77408,1.25229,0.46368,0.51739,1.25812,0.21129,0.83115,1.4641,0.38248,0.67953,1.45533
1199,0.23251,0.51776,1.56265,0.12606,0.55624,0.1035,0.19715,0.15946,0.11419,0.12446,0.59349,0.52721,0.21605,0.26217,0.52768,0.07531,0.48127,0.95665,0.19994,0.34441,0.95947,0.08586,0.60644,1.50977,0.33011,0.37183,1.4993,0.05454,0.76915,1.24967,0.46462,0.5102,1.25645,0.21668,0.82566,1.46251,0.38543,0.67207,1.4547
1200,0.2346,0.5135,1.56243,0.1269,0.55566,0.10279,0.19666,0.15916,0.11315,0.12478,0.59097,0.52666,0.21648,0.26065,0.5269,0.07683,0.47936,0.9564,0.20051,0.34164,0.95893,0.08924,0.60324,1.50919,0.33006,0.36681,1.49784,0.06098,0.76391,1.24747,0.46571,0.50336,1.25459,0.2219,0.82025,1.46128,0.38839,0.66469,1.45402
1201,0.2369,0.50888,1.56228,0.12836,0.55531,0.10242,0.19635,0.15875,0.11205,0.12533,0.58867,0.52644,0.21681,0.25897,0.52608,0.0786,0.47743,0.95641,0.20164,0.33912,0.95829,0.09188,0.59946,1.50876,0.33044,0.36219,1.49687,0.06717,0.75847,1.24567,0.46699,0.4966,1.25294,0.22688,0.81435,1.46051,0.39152,0.65771,1.45325
1202,0.23925,0.50401,1.56203,0.12981,0.55513,0.10228,0.19624,0.15813,0.1109,0.12614,0.58657,0.52645,0.217,0.25715,0.5252,0.08062,0.47553,0.9566,0.20322,0.33682,0.95756,0.09376,0.59544,1.50855,0.33149,0.35755,1.49669,0.07269,0.75279,1.24415,0.46831,0.48973,1.25169,0.2315,0.8078,1.45987,0.39471,0.65106,1.45252
1203,0.24145,0.49902,1.56173,0.13061,0.55494,0.10213,0.19621,0.15735,0.1098,0.12699,0.58454,0.52643,0.21713,0.25534,0.52433,0.0827,0.47349,0.95671,0.20487,0.33439,0.95685,0.09516,0.59134,1.50852,0.33295,0.35245,1.49701,0.0774,0.74679,1.24276,0.46945,0.48268,1.25078,0.23576,0.80109,1.459,0.39761,0.64434,1.45199
1204,0.24336,0.49396,1.56148,0.13071,0.55458,0.1018,0.19611,0.15643,0.10877,0.12757,0.58252,0.52621,0.21722,0.25355,0.5235,0.08466,0.47109,0.95653,0.20638,0.3316,0.95623,0.09649,0.58698,1.50847,0.33439,0.34681,1.49738,0.08163,0.74044,1.24138,0.47031,0.47554,1.25004,0.23971,0.79475,1.45782,0.39996,0.6373,1.4517
1205,0.24489,0.48884,1.56125,0.13044,0.55401,0.10131,0.19586,0.15543,0.10775,0.12788,0.58063,0.52581,0.21723,0.25168,0.52267,0.08646,0.46829,0.95604,0.20786,0.32853,0.95565,0.09809,0.58231,1.50824,0.33555,0.34096,1.49761,0.08578,0.73383,1.23991,0.47106,0.46855,1.24946,0.24345,0.78888,1.45646,0.40161,0.63015,1.45154
1206,0.24602,0.48379,1.561,0.13005,0.55336,0.10081,0.19555,0.15446,0.10666,0.1281,0.57888,0.52539,0.21723,0.24963,0.52182,0.0882,0.46528,0.95543,0.20949,0.32542,0.95502,0.10007,0.57756,1.5079,0.33632,0.33537,1.4978,0.08983,0.72712,1.23839,0.47195,0.46178,1.24912,0.24699,0.7832,1.45504,0.40252,0.62319,1.45136
1207,0.24685,0.47892,1.56074,0.12971,0.55278,0.10044,0.19523,0.15356,0.10552,0.12846,0.57716,0.52508,0.21737,0.24745,0.52094,0.09006,0.46238,0.95495,0.2112,0.32239,0.95431,0.10226,0.573,1.50763,0.33681,0.33019,1.498,0.09338,0.72044,1.23691,0.47295,0.45515,1.24886,0.25017,0.77746,1.45359,0.40317,0.61649,1.45105
1208,0.24766,0.47421,1.56051,0.1296,0.55235,0.10015,0.19488,0.15262,0.10442,0.12897,0.57539,0.52487,0.21777,0.24522,0.52009,0.09212,0.45978,0.95465,0.21282,0.31942,0.9536,0.10432,0.56859,1.5074,0.33724,0.32515,1.49795,0.0961,0.7138,1.23546,0.47381,0.44856,1.24828,0.25263,0.77165,1.4521,0.40452,0.61001,1.45053
1209,0.24881,0.4695,1.56039,0.12973,0.55208,0.09976,0.19444,0.15143,0.10341,0.12951,0.57369,0.52456,0.21852,0.24304,0.51923,0.09423,0.4573,0.95426,0.21426,0.31636,0.9529,0.10601,0.56414,1.50697,0.33783,0.31997,1.4974,0.09823,0.70727,1.23391,0.47446,0.44198,1.24708,0.25442,0.76601,1.45057,0.40705,0.60371,1.44974
1210,0.25046,0.46471,1.56041,0.12987,0.55201,0.09918,0.19401,0.14998,0.1025,0.12991,0.57225,0.52404,0.21952,0.24096,0.51838,0.09609,0.45463,0.95352,0.21557,0.31324,0.95223,0.10731,0.55959,1.50614,0.33866,0.31474,1.49642,0.10046,0.70095,1.23214,0.47508,0.43556,1.2454,0.25619,0.7606,1.44887,0.41014,0.59761,1.44863
1211,0.25242,0.45985,1.5605,0.1298,0.552,0.09853,0.19372,0.14842,0.10168,0.1302,0.57103,0.52345,0.22055,0.23889,0.51758,0.09762,0.45168,0.95254,0.21697,0.31016,0.9516,0.10834,0.55503,1.50495,0.33974,0.30975,1.49538,0.10305,0.69484,1.23012,0.47577,0.42957,1.24366,0.25852,0.7552,1.44685,0.41275,0.59183,1.44732
1212,0.25426,0.45503,1.56052,0.12953,0.55181,0.09804,0.19366,0.14691,0.10089,0.13056,0.56977,0.523,0.2214,0.23666,0.5169,0.09904,0.4485,0.95165,0.21866,0.30721,0.95104,0.10918,0.55051,1.50367,0.34106,0.30501,1.49456,0.10563,0.68884,1.22806,0.4765,0.42424,1.24226,0.26118,0.74977,1.44457,0.41432,0.58652,1.44615
1213,0.25578,0.45029,1.56036,0.12913,0.55137,0.09781,0.19371,0.14558,0.10011,0.13107,0.56829,0.52281,0.22216,0.23429,0.51629,0.10066,0.44528,0.95104,0.22073,0.30438,0.95052,0.10997,0.54595,1.50254,0.34248,0.30035,1.49403,0.10753,0.68285,1.22621,0.47726,0.41946,1.24132,0.26324,0.7446,1.44237,0.41517,0.58162,1.44534
1214,0.25713,0.44552,1.56,0.12884,0.5509,0.09775,0.19372,0.14448,0.09935,0.13173,0.56668,0.52279,0.22294,0.23199,0.51572,0.10262,0.44214,0.95066,0.22308,0.30156,0.95003,0.11094,0.54128,1.50174,0.3439,0.29572,1.49376,0.10821,0.67661,1.22463,0.47807,0.41484,1.24072,0.2637,0.73981,1.44053,0.41603,0.57689,1.44485
1215,0.25836,0.44056,1.55949,0.12898,0.5506,0.0978,0.19357,0.14349,0.09862,0.13262,0.56515,0.52288,0.22366,0.22989,0.51517,0.10499,0.43918,0.95043,0.22558,0.29872,0.94959,0.11213,0.53651,1.50135,0.34526,0.29129,1.49381,0.10751,0.66974,1.22326,0.47893,0.40998,1.24031,0.26241,0.73496,1.43898,0.4173,0.57209,1.44451
1216,0.25928,0.43537,1.55901,0.12966,0.55045,0.09794,0.1933,0.1425,0.09792,0.13386,0.56377,0.52306,0.22421,0.22786,0.51462,0.10763,0.43639,0.95028,0.22814,0.29586,0.94917,0.11329,0.53149,1.50135,0.34653,0.28725,1.49418,0.10576,0.66213,1.22209,0.47978,0.40491,1.23998,0.26033,0.72952,1.43738,0.41884,0.56719,1.44425
1217,0.25982,0.43004,1.55869,0.13059,0.55033,0.09819,0.19304,0.14159,0.09722,0.13531,0.5626,0.52333,0.22464,0.22573,0.51412,0.11019,0.43352,0.95011,0.23069,0.29298,0.94876,0.11405,0.52609,1.50145,0.34788,0.28347,1.49461,0.10361,0.65418,1.22111,0.4805,0.40013,1.23962,0.25864,0.72342,1.43548,0.4201,0.5624,1.44406
1218,0.26028,0.42466,1.55847,0.1314,0.55027,0.09848,0.19287,0.14092,0.09655,0.13663,0.56157,0.52364,0.22513,0.22343,0.51372,0.11234,0.43026,0.94978,0.23314,0.28999,0.94843,0.11432,0.52041,1.50137,0.34946,0.27953,1.49482,0.10164,0.64645,1.22019,0.48104,0.39593,1.23917,0.25797,0.71688,1.43323,0.4207,0.55791,1.44386
1219,0.26101,0.41922,1.55824,0.13196,0.55023,0.09866,0.19273,0.14045,0.09595,0.13765,0.56045,0.52384,0.22583,0.221,0.51344,0.11404,0.42656,0.94922,0.2355,0.28685,0.94822,0.11433,0.51466,1.50106,0.35111,0.27519,1.49474,0.10011,0.63922,1.21929,0.48161,0.39198,1.23872,0.25811,0.71048,1.43082,0.42081,0.55357,1.44358
1220,0.26212,0.41374,1.55796,0.13239,0.55009,0.09864,0.19254,0.13993,0.09543,0.13844,0.55907,0.52385,0.22675,0.2185,0.51321,0.11563,0.42264,0.94846,0.2379,0.28364,0.94806,0.11436,0.50889,1.50058,0.35235,0.27065,1.49446,0.09895,0.63254,1.21848,0.48247,0.38774,1.23838,0.25844,0.70482,1.42853,0.42094,0.54906,1.44324
1221,0.26346,0.40845,1.55765,0.13279,0.54972,0.09842,0.1923,0.13926,0.09483,0.13911,0.5575,0.52365,0.22776,0.21603,0.51284,0.11736,0.41885,0.9476,0.24038,0.2805,0.94775,0.11455,0.50305,1.49992,0.35302,0.26616,1.49407,0.09785,0.62625,1.2177,0.48364,0.38303,1.23815,0.25835,0.69998,1.42647,0.42141,0.5443,1.44283
1222,0.26482,0.40356,1.55726,0.13313,0.54914,0.0981,0.19208,0.13846,0.09397,0.13976,0.55592,0.52334,0.22868,0.21359,0.51218,0.11924,0.41535,0.94672,0.24287,0.27756,0.94712,0.11492,0.49715,1.49902,0.35348,0.26172,1.49361,0.09659,0.6201,1.21679,0.48491,0.37808,1.23787,0.25752,0.69552,1.42463,0.42219,0.53942,1.44235
1223,0.26604,0.39902,1.55671,0.13343,0.54851,0.09778,0.19188,0.13758,0.09285,0.14045,0.55442,0.52302,0.22942,0.21118,0.51124,0.1211,0.4121,0.94588,0.24528,0.2748,0.94618,0.11546,0.49133,1.498,0.3543,0.25736,1.49301,0.09528,0.61399,1.21577,0.48611,0.37344,1.23734,0.25617,0.69112,1.42302,0.42306,0.53458,1.44187
1224,0.26706,0.39464,1.55606,0.13378,0.54812,0.09749,0.19161,0.13666,0.0917,0.14119,0.55291,0.52274,0.23003,0.20885,0.51026,0.12283,0.40893,0.94508,0.2476,0.27217,0.94517,0.11618,0.48579,1.49711,0.35568,0.25323,1.49217,0.09421,0.6081,1.21486,0.48712,0.36959,1.23643,0.25498,0.68678,1.42161,0.42372,0.52978,1.44161
1225,0.268,0.39027,1.55556,0.1342,0.54816,0.09725,0.19125,0.13586,0.09075,0.14194,0.55135,0.52252,0.23056,0.20675,0.50945,0.12442,0.40571,0.94432,0.24986,0.26956,0.94436,0.11692,0.48064,1.49644,0.35729,0.24947,1.49106,0.0934,0.60258,1.21416,0.48779,0.36654,1.23517,0.25436,0.68264,1.42023,0.42402,0.52495,1.44161
1226,0.26906,0.38577,1.55532,0.13462,0.54852,0.09706,0.19089,0.13536,0.08998,0.14264,0.54977,0.52233,0.23095,0.20487,0.50884,0.12599,0.4024,0.94356,0.25212,0.26689,0.94378,0.1175,0.4759,1.49593,0.35875,0.246,1.4898,0.09256,0.59725,1.21351,0.4882,0.36388,1.23375,0.25395,0.67871,1.41871,0.42409,0.5202,1.44167
1227,0.27021,0.38119,1.55512,0.13491,0.54893,0.0969,0.19061,0.13516,0.08922,0.14329,0.54816,0.52217,0.23118,0.203,0.50831,0.12759,0.39897,0.94279,0.25447,0.26415,0.94326,0.11786,0.47155,1.49547,0.36015,0.24259,1.48858,0.09156,0.59179,1.2127,0.4886,0.36131,1.23241,0.25306,0.67492,1.41713,0.4241,0.51583,1.44156
1228,0.27113,0.37681,1.55462,0.13505,0.5491,0.09673,0.19037,0.13511,0.08834,0.14392,0.54642,0.52198,0.23137,0.20092,0.50771,0.1292,0.39548,0.94202,0.25687,0.26142,0.94263,0.11798,0.46745,1.495,0.36195,0.23899,1.48759,0.09043,0.58613,1.21169,0.48906,0.35872,1.23122,0.25141,0.67114,1.41576,0.42401,0.51182,1.44123
1229,0.27172,0.37286,1.55383,0.13517,0.54892,0.09653,0.19013,0.13512,0.0874,0.14456,0.54452,0.52175,0.23171,0.19866,0.50706,0.13083,0.39202,0.94126,0.25926,0.2587,0.94192,0.11803,0.4633,1.49451,0.36424,0.23516,1.48686,0.0892,0.58037,1.21066,0.48948,0.35607,1.23012,0.24918,0.66727,1.41472,0.42371,0.50786,1.44086
1230,0.2722,0.36932,1.55299,0.13546,0.54849,0.09639,0.18989,0.13518,0.08658,0.14527,0.54258,0.52158,0.23223,0.19645,0.5065,0.13249,0.38866,0.9406,0.26156,0.25594,0.94132,0.11827,0.45887,1.494,0.36649,0.23127,1.48625,0.08787,0.57463,1.20978,0.48987,0.3534,1.22919,0.24675,0.66343,1.41388,0.42318,0.50384,1.4406
1231,0.27284,0.36585,1.55231,0.13608,0.54819,0.09637,0.18968,0.13516,0.08592,0.14603,0.54088,0.52153,0.23286,0.19442,0.50605,0.13418,0.38543,0.94001,0.26361,0.25306,0.94088,0.11885,0.45422,1.49354,0.36804,0.2275,1.48561,0.08643,0.56904,1.20916,0.49026,0.35074,1.22853,0.24433,0.65972,1.4132,0.42252,0.49989,1.44052
1232,0.27372,0.36214,1.55178,0.13698,0.54831,0.09642,0.18951,0.13482,0.08537,0.14677,0.53957,0.52156,0.23344,0.1925,0.50564,0.13578,0.38232,0.93939,0.26533,0.25007,0.94053,0.11962,0.44957,1.4932,0.36877,0.22391,1.48497,0.08493,0.56371,1.20881,0.49058,0.34804,1.22812,0.24182,0.65614,1.41284,0.42189,0.49601,1.44065
1233,0.2747,0.35817,1.55135,0.1379,0.54881,0.09645,0.18938,0.13418,0.08483,0.14748,0.53848,0.52156,0.23388,0.1906,0.50521,0.13715,0.37936,0.9387,0.26674,0.24716,0.94016,0.12035,0.44499,1.49297,0.36913,0.22057,1.48449,0.08344,0.55857,1.20864,0.49073,0.34529,1.22782,0.23907,0.65257,1.41291,0.42134,0.49205,1.44095
1234,0.27551,0.3542,1.55106,0.13852,0.54935,0.09645,0.18936,0.13355,0.08429,0.14814,0.53725,0.52152,0.2342,0.18873,0.5048,0.13835,0.37662,0.93809,0.26804,0.24453,0.93978,0.12093,0.44043,1.4928,0.36976,0.21745,1.48424,0.08207,0.55342,1.20849,0.49069,0.34261,1.22747,0.23617,0.64889,1.41324,0.42077,0.48806,1.44132
1235,0.27602,0.35046,1.55094,0.13866,0.54964,0.09645,0.18946,0.13319,0.08378,0.14878,0.53569,0.52145,0.23456,0.18699,0.50444,0.13956,0.37412,0.93767,0.26935,0.24212,0.93943,0.12126,0.43592,1.49268,0.37102,0.21438,1.48414,0.08089,0.54826,1.20832,0.49052,0.3402,1.22703,0.23354,0.64519,1.41347,0.42011,0.48426,1.44166
1236,0.27636,0.34693,1.55095,0.1384,0.5496,0.09645,0.18968,0.13302,0.08333,0.1495,0.53392,0.52136,0.23507,0.18538,0.50414,0.14094,0.37168,0.93734,0.27077,0.23973,0.93915,0.12128,0.43149,1.49263,0.37285,0.21125,1.48408,0.07987,0.54332,1.20822,0.4903,0.33815,1.22655,0.23156,0.64174,1.41338,0.41931,0.4807,1.44199
1237,0.27678,0.34345,1.55092,0.13806,0.54928,0.09647,0.18989,0.13284,0.08299,0.1503,0.53206,0.52129,0.23568,0.18388,0.50392,0.14238,0.36911,0.937,0.27233,0.23727,0.93897,0.12107,0.42697,1.49262,0.37486,0.20822,1.48404,0.07896,0.53871,1.20828,0.49011,0.33652,1.2262,0.23007,0.63875,1.41308,0.41836,0.47735,1.44253
1238,0.27737,0.33995,1.55069,0.13791,0.54891,0.09658,0.19003,0.13257,0.08281,0.15094,0.53006,0.5213,0.23626,0.18245,0.50383,0.14368,0.36628,0.9367,0.27403,0.23484,0.93891,0.12093,0.42217,1.49258,0.37659,0.20541,1.48397,0.07816,0.53424,1.20847,0.49006,0.33531,1.22616,0.22855,0.63607,1.41292,0.41736,0.47423,1.4434
1239,0.27806,0.33647,1.55023,0.13796,0.5487,0.09682,0.1901,0.13228,0.08279,0.1512,0.52786,0.52145,0.23672,0.18107,0.5039,0.14473,0.3632,0.93651,0.27585,0.23253,0.93897,0.12101,0.41713,1.49245,0.37793,0.20259,1.48386,0.0774,0.52971,1.20867,0.49012,0.33428,1.2264,0.22667,0.63329,1.41306,0.41647,0.47141,1.44445
1240,0.27875,0.33308,1.54972,0.13798,0.54865,0.09713,0.19013,0.13202,0.08281,0.1512,0.52565,0.52165,0.23703,0.1797,0.50401,0.1456,0.36004,0.93634,0.27765,0.23031,0.93904,0.1211,0.41201,1.49229,0.37922,0.19957,1.48378,0.07645,0.52493,1.2088,0.49011,0.33307,1.22668,0.22454,0.63005,1.41326,0.41579,0.46884,1.44536
1241,0.27935,0.32971,1.54946,0.13786,0.54857,0.09736,0.19012,0.13177,0.0827,0.15132,0.52376,0.52177,0.23722,0.1783,0.50401,0.14645,0.35709,0.93605,0.27928,0.22817,0.93899,0.12084,0.40698,1.4922,0.38071,0.19649,1.48381,0.07513,0.51975,1.20882,0.48999,0.33154,1.22684,0.22235,0.62626,1.41319,0.41526,0.46636,1.44596
1242,0.27981,0.32623,1.54959,0.13767,0.54847,0.09749,0.19007,0.13144,0.08245,0.15173,0.52224,0.52179,0.23746,0.17685,0.50384,0.14741,0.35453,0.93565,0.28079,0.22618,0.93876,0.12021,0.40219,1.49223,0.38234,0.19372,1.48398,0.07353,0.51425,1.20873,0.49001,0.32983,1.22688,0.21995,0.6222,1.41291,0.41473,0.46385,1.44631
1243,0.28027,0.32256,1.55005,0.13766,0.54851,0.09762,0.19005,0.13102,0.08221,0.15221,0.52074,0.52181,0.23795,0.1754,0.50365,0.14838,0.35217,0.93533,0.28236,0.22446,0.93849,0.11961,0.3979,1.4923,0.38399,0.19131,1.48426,0.07205,0.50898,1.20856,0.49021,0.32814,1.22694,0.21726,0.61843,1.41281,0.41412,0.46123,1.44665
1244,0.28087,0.31889,1.55052,0.13794,0.54874,0.09786,0.1901,0.13054,0.08217,0.15247,0.51886,0.5219,0.23865,0.17387,0.50365,0.14916,0.34975,0.93521,0.28396,0.2229,0.93841,0.11942,0.39443,1.49237,0.38551,0.18896,1.48463,0.07106,0.50462,1.20841,0.49027,0.32657,1.22713,0.21472,0.61537,1.41307,0.41348,0.45842,1.44734
1245,0.28155,0.31565,1.5507,0.13835,0.549,0.09817,0.19024,0.13009,0.08231,0.15241,0.51654,0.52204,0.23928,0.1722,0.50386,0.14972,0.34727,0.93528,0.2852,0.22115,0.93856,0.11966,0.39178,1.49238,0.38658,0.18631,1.48497,0.0706,0.50136,1.20832,0.48989,0.32505,1.22749,0.21293,0.61284,1.4135,0.41288,0.45538,1.44853
1246,0.28219,0.31309,1.55046,0.1386,0.5491,0.09845,0.19044,0.12972,0.08239,0.15215,0.51411,0.52214,0.23959,0.17048,0.50406,0.15019,0.34495,0.93543,0.28589,0.21907,0.93876,0.11999,0.38934,1.49226,0.38706,0.18337,1.48522,0.0704,0.49876,1.20822,0.48927,0.32346,1.22803,0.212,0.61028,1.41388,0.41228,0.45223,1.44999
1247,0.28283,0.31089,1.54996,0.13849,0.54898,0.09865,0.19069,0.12943,0.08227,0.15188,0.51198,0.52217,0.2397,0.16887,0.50408,0.15062,0.3428,0.93547,0.28637,0.21698,0.93879,0.11995,0.38634,1.49203,0.38734,0.18048,1.48548,0.07006,0.4961,1.20818,0.48882,0.32183,1.22869,0.21124,0.60752,1.41418,0.41157,0.44925,1.45134
1248,0.28353,0.30854,1.5495,0.13812,0.54869,0.09882,0.19094,0.12921,0.082,0.15178,0.51027,0.5222,0.23992,0.16757,0.50391,0.15098,0.34064,0.93531,0.28713,0.21524,0.93861,0.11942,0.38248,1.49184,0.38808,0.17788,1.48601,0.06931,0.49287,1.20827,0.48853,0.32036,1.22943,0.20971,0.60485,1.41451,0.41062,0.44667,1.45249
1249,0.2841,0.30573,1.54932,0.13783,0.5484,0.09902,0.19107,0.12902,0.08168,0.15191,0.50885,0.52229,0.24042,0.16656,0.50362,0.15133,0.33833,0.93503,0.28837,0.2139,0.93828,0.11866,0.37815,1.49169,0.38962,0.17551,1.48698,0.06835,0.48914,1.20839,0.48807,0.31916,1.23029,0.20719,0.60252,1.41491,0.40932,0.44443,1.45364
1250,0.28432,0.30252,1.54947,0.13789,0.54821,0.09932,0.19101,0.12884,0.08134,0.15211,0.50753,0.52248,0.24114,0.16566,0.50326,0.15183,0.33587,0.93475,0.28993,0.21262,0.93786,0.11799,0.37401,1.49143,0.39169,0.17316,1.4883,0.06775,0.48557,1.20835,0.48731,0.31816,1.2313,0.20457,0.60035,1.41544,0.40772,0.4423,1.45497
1251,0.28435,0.29933,1.54966,0.13808,0.54812,0.09966,0.19079,0.12865,0.08107,0.15208,0.50609,0.52269,0.24182,0.1646,0.50295,0.1525,0.33342,0.93454,0.29133,0.21099,0.93754,0.11764,0.3705,1.49113,0.3935,0.17066,1.48948,0.0677,0.48281,1.20828,0.4866,0.3171,1.23237,0.20289,0.5981,1.41617,0.40601,0.44007,1.45634
1252,0.28453,0.29662,1.54952,0.138,0.548,0.09991,0.19051,0.12847,0.08095,0.15166,0.5044,0.5228,0.24221,0.16332,0.50284,0.15325,0.33121,0.93442,0.29216,0.20886,0.93746,0.11764,0.36751,1.49096,0.39432,0.16795,1.48994,0.06771,0.4808,1.2085,0.48647,0.3159,1.23334,0.20212,0.59575,1.41708,0.40435,0.43767,1.45741
1253,0.28489,0.29434,1.54909,0.13766,0.54783,0.10007,0.1903,0.12834,0.08092,0.15104,0.50253,0.52279,0.24232,0.16198,0.50287,0.15391,0.32924,0.93436,0.29251,0.20656,0.93757,0.11767,0.3645,1.49094,0.39428,0.16516,1.48952,0.06716,0.47885,1.20902,0.48705,0.31467,1.23406,0.20136,0.59334,1.41798,0.40296,0.43521,1.45806
1254,0.28517,0.29209,1.54877,0.13739,0.54767,0.10024,0.19022,0.12824,0.08087,0.15055,0.50063,0.52277,0.24234,0.16075,0.5029,0.15437,0.32731,0.93433,0.29281,0.20445,0.93765,0.11734,0.36117,1.49102,0.39407,0.16259,1.48868,0.06605,0.47628,1.20955,0.48791,0.31353,1.23445,0.20007,0.59085,1.41859,0.40209,0.43286,1.45844
1255,0.28522,0.28986,1.54877,0.13727,0.54754,0.10051,0.19024,0.12809,0.08078,0.15038,0.49881,0.52285,0.24238,0.15958,0.50288,0.15463,0.3253,0.93433,0.29319,0.20257,0.93766,0.11674,0.35789,1.49129,0.39392,0.1604,1.48801,0.06493,0.47303,1.20992,0.48846,0.3123,1.23462,0.19855,0.58832,1.41882,0.40157,0.43066,1.45872
1256,0.28519,0.28786,1.54882,0.13707,0.54744,0.10093,0.19022,0.12785,0.08075,0.15043,0.49716,0.52308,0.24243,0.15843,0.50291,0.15478,0.32327,0.93439,0.2935,0.20072,0.93773,0.11636,0.35516,1.49178,0.39362,0.15836,1.48775,0.06423,0.46959,1.21018,0.48839,0.31086,1.23481,0.19734,0.5859,1.41884,0.4009,0.4285,1.45905
1257,0.28534,0.28597,1.54869,0.13666,0.54734,0.10143,0.19002,0.12761,0.0808,0.15045,0.49571,0.5234,0.24253,0.1573,0.50299,0.15493,0.3213,0.93449,0.29378,0.1989,0.93785,0.11639,0.35287,1.49227,0.39331,0.15613,1.48782,0.06386,0.46638,1.21038,0.48791,0.3093,1.23522,0.19646,0.58368,1.41881,0.39987,0.42624,1.45961
1258,0.28571,0.28388,1.54841,0.13619,0.54726,0.10186,0.18966,0.12752,0.08084,0.15021,0.49437,0.52367,0.24278,0.15624,0.50302,0.15518,0.31943,0.93453,0.29418,0.1972,0.93793,0.11667,0.35058,1.4925,0.39337,0.15368,1.48806,0.06334,0.46349,1.21051,0.48744,0.30785,1.23588,0.19549,0.58163,1.41875,0.39872,0.42401,1.46041
1259,0.28601,0.28161,1.54807,0.13578,0.54722,0.10216,0.18933,0.12753,0.08083,0.1497,0.49301,0.5238,0.24319,0.15532,0.50297,0.1556,0.31771,0.93449,0.29469,0.19559,0.93794,0.11697,0.34819,1.49237,0.39375,0.15116,1.48837,0.06247,0.46089,1.21052,0.48716,0.30656,1.23669,0.19413,0.57966,1.41871,0.39777,0.42206,1.46129
1260,0.28588,0.27936,1.54775,0.13539,0.54727,0.10242,0.18916,0.12749,0.08075,0.14915,0.49162,0.52388,0.24363,0.1546,0.50287,0.15616,0.31621,0.93451,0.29522,0.19405,0.93789,0.11713,0.3459,1.49204,0.39413,0.14873,1.48864,0.06147,0.45853,1.21039,0.48698,0.3054,1.23754,0.19251,0.57766,1.41877,0.39698,0.42041,1.46214
1261,0.2852,0.27714,1.54745,0.13506,0.5474,0.10281,0.18903,0.12735,0.08061,0.14885,0.49033,0.52408,0.24397,0.15406,0.50269,0.15669,0.31478,0.93463,0.29587,0.19275,0.93774,0.11704,0.34369,1.4917,0.39444,0.14654,1.48886,0.06061,0.45627,1.21019,0.48676,0.30439,1.2383,0.19089,0.57558,1.41894,0.39626,0.41872,1.46306
1262,0.28432,0.27482,1.54719,0.13492,0.54757,0.10338,0.18881,0.12724,0.08038,0.14886,0.48926,0.52448,0.24422,0.15357,0.50242,0.15696,0.31317,0.93479,0.2967,0.19177,0.93745,0.11664,0.34134,1.49143,0.39488,0.14467,1.48906,0.05991,0.45401,1.21001,0.48658,0.30348,1.23889,0.18938,0.57345,1.41919,0.39568,0.41662,1.46409
1263,0.28371,0.27242,1.54704,0.13497,0.54776,0.10403,0.18857,0.1272,0.08016,0.14894,0.48843,0.52499,0.24451,0.15297,0.50216,0.15692,0.31132,0.93487,0.29757,0.19097,0.93714,0.11603,0.33879,1.49127,0.39544,0.14295,1.48929,0.05932,0.45174,1.20996,0.48657,0.30239,1.2393,0.18804,0.57134,1.41951,0.39527,0.41416,1.46503
1264,0.28348,0.2702,1.54702,0.13502,0.54797,0.10464,0.18847,0.12711,0.08002,0.14875,0.48771,0.52547,0.24485,0.15224,0.50201,0.15667,0.3094,0.93483,0.29819,0.19007,0.93696,0.11536,0.3362,1.49133,0.3959,0.14103,1.48949,0.05877,0.4495,1.21013,0.48669,0.30078,1.23958,0.18696,0.56931,1.41989,0.39499,0.41165,1.46558
1265,0.28341,0.26836,1.54712,0.13485,0.54813,0.1051,0.18855,0.12684,0.08,0.14821,0.48698,0.52581,0.24515,0.15152,0.50198,0.15639,0.30767,0.93473,0.29839,0.18891,0.93699,0.11477,0.33366,1.49165,0.39603,0.13877,1.48956,0.05824,0.44733,1.2106,0.4868,0.2987,1.23976,0.18622,0.56739,1.42034,0.39465,0.40934,1.46569
1266,0.28321,0.2668,1.54732,0.13436,0.54814,0.10546,0.18874,0.12647,0.08004,0.14753,0.48622,0.52607,0.24536,0.15094,0.50204,0.15616,0.30624,0.93468,0.29814,0.18746,0.93717,0.11441,0.33127,1.49213,0.39576,0.13646,1.48941,0.05773,0.44526,1.21124,0.48681,0.29671,1.23992,0.18564,0.56567,1.42082,0.39409,0.40719,1.46569
1267,0.28292,0.26521,1.54752,0.13363,0.54804,0.10583,0.18898,0.12618,0.08015,0.14696,0.48538,0.52633,0.24552,0.15041,0.50216,0.15601,0.30498,0.93474,0.29767,0.18583,0.93747,0.11428,0.32925,1.49255,0.39535,0.13451,1.48913,0.05738,0.44322,1.21169,0.48664,0.29537,1.24011,0.18487,0.56413,1.42124,0.39328,0.4051,1.46598
1268,0.28275,0.26339,1.54762,0.13288,0.54793,0.10624,0.18925,0.12598,0.08029,0.14653,0.48444,0.52659,0.24565,0.14983,0.50235,0.15602,0.30366,0.93484,0.29743,0.18422,0.93778,0.11424,0.32778,1.49276,0.39511,0.13301,1.48888,0.05729,0.44114,1.21166,0.48623,0.29477,1.24039,0.1837,0.56264,1.42153,0.39228,0.40314,1.46668
1269,0.28272,0.26154,1.54753,0.13228,0.5479,0.10663,0.18949,0.12581,0.08042,0.14609,0.48342,0.52683,0.24576,0.14925,0.50252,0.1562,0.3022,0.93486,0.29763,0.18279,0.93801,0.11407,0.32662,1.4928,0.39514,0.13158,1.48881,0.05742,0.43913,1.21131,0.48561,0.29443,1.24079,0.18244,0.56103,1.42177,0.39117,0.40145,1.46752
1270,0.2825,0.26001,1.54732,0.13179,0.54798,0.10702,0.18959,0.12569,0.08049,0.14559,0.48246,0.52706,0.24592,0.14877,0.5026,0.15642,0.30068,0.93482,0.29809,0.18156,0.93811,0.11372,0.32531,1.49278,0.39532,0.12985,1.48893,0.05763,0.43736,1.21099,0.48491,0.29375,1.24129,0.18146,0.55936,1.4221,0.38998,0.40002,1.46816
1271,0.28191,0.25883,1.54717,0.13128,0.54812,0.10746,0.18949,0.12569,0.08052,0.14516,0.48177,0.52737,0.2462,0.14834,0.5026,0.15658,0.29931,0.93481,0.2985,0.18049,0.93814,0.11316,0.32363,1.4928,0.39554,0.12787,1.48918,0.05782,0.43585,1.21093,0.48445,0.29261,1.24184,0.18078,0.55781,1.42257,0.38891,0.39869,1.46855
1272,0.28113,0.25772,1.54719,0.13077,0.54827,0.10801,0.18934,0.12584,0.08058,0.14492,0.48145,0.52783,0.24654,0.14793,0.50262,0.15668,0.29823,0.93493,0.29869,0.17951,0.93822,0.11242,0.32172,1.49286,0.39564,0.12601,1.48942,0.0578,0.43451,1.21107,0.48451,0.29127,1.24242,0.18022,0.55649,1.42302,0.38817,0.39728,1.46883
1273,0.28048,0.25633,1.54731,0.13036,0.54836,0.10867,0.18929,0.12609,0.08067,0.14483,0.48137,0.52846,0.24683,0.14753,0.5027,0.15681,0.29736,0.93519,0.29877,0.17857,0.93836,0.1116,0.31981,1.49289,0.39541,0.12452,1.48962,0.05748,0.43323,1.21126,0.485,0.28991,1.24297,0.17968,0.55528,1.42329,0.3878,0.3957,1.46911
1274,0.28015,0.25457,1.54736,0.13012,0.54842,0.10936,0.18936,0.12633,0.08075,0.14471,0.48127,0.52911,0.24701,0.14716,0.50279,0.15696,0.29651,0.93549,0.29887,0.17767,0.93851,0.11083,0.31808,1.49287,0.39481,0.12338,1.48983,0.05695,0.43184,1.21133,0.48558,0.28845,1.24339,0.17909,0.55394,1.42337,0.38774,0.39402,1.46935
1275,0.28009,0.25266,1.54738,0.12995,0.54857,0.10997,0.18943,0.12648,0.0808,0.14449,0.48109,0.52968,0.24714,0.14689,0.50286,0.15699,0.29553,0.93568,0.29902,0.17682,0.93861,0.11014,0.31642,1.49279,0.39408,0.12237,1.49005,0.0563,0.43021,1.21126,0.48604,0.28685,1.24367,0.17837,0.55231,1.42333,0.388,0.39263,1.46945
1276,0.28005,0.25088,1.54751,0.12971,0.54882,0.11044,0.18945,0.12643,0.0808,0.14429,0.48105,0.5301,0.24722,0.14676,0.50286,0.1568,0.29446,0.93563,0.29912,0.17609,0.93865,0.10939,0.31456,1.49263,0.3936,0.12133,1.49022,0.05555,0.42834,1.2111,0.48639,0.28535,1.24384,0.17754,0.55044,1.42321,0.38849,0.39176,1.46938
1277,0.2797,0.2493,1.54781,0.12938,0.54913,0.11079,0.18946,0.12614,0.08071,0.14419,0.48128,0.53042,0.24723,0.14667,0.50276,0.15648,0.29344,0.93539,0.29913,0.17549,0.93858,0.10837,0.31233,1.49244,0.39353,0.12024,1.4903,0.05484,0.42641,1.21097,0.48666,0.28415,1.24397,0.1767,0.54855,1.42314,0.38877,0.39113,1.46925
1278,0.27903,0.2478,1.54815,0.12899,0.54939,0.11111,0.18951,0.12574,0.08052,0.14413,0.48154,0.53073,0.24725,0.14648,0.50256,0.15617,0.29256,0.93518,0.29911,0.17496,0.93841,0.1072,0.31004,1.49233,0.3937,0.1191,1.49038,0.0544,0.42463,1.21092,0.48674,0.28316,1.24412,0.17585,0.54692,1.42324,0.38842,0.39022,1.46918
1279,0.27828,0.24631,1.54835,0.12858,0.5495,0.1115,0.1896,0.12547,0.08029,0.14396,0.48152,0.53109,0.24739,0.14619,0.50233,0.15589,0.29177,0.93518,0.29906,0.17445,0.93821,0.10625,0.30816,1.49234,0.39375,0.11788,1.49061,0.05422,0.42319,1.21097,0.48643,0.28209,1.2443,0.17492,0.54577,1.42355,0.38746,0.38886,1.46921
1280,0.27769,0.24493,1.54838,0.12814,0.54942,0.11192,0.1897,0.12541,0.08012,0.14354,0.48123,0.53148,0.24764,0.14586,0.50215,0.15556,0.29103,0.93535,0.29897,0.17399,0.93808,0.10571,0.30687,1.49244,0.39344,0.11664,1.49093,0.05388,0.42205,1.21109,0.48573,0.28085,1.24448,0.17384,0.54499,1.42388,0.38631,0.38727,1.46936
1281,0.2773,0.24383,1.54827,0.12775,0.54917,0.11227,0.18976,0.12549,0.08003,0.1429,0.481,0.53184,0.24791,0.14555,0.50204,0.15518,0.29032,0.93548,0.29885,0.17359,0.93803,0.10535,0.30604,1.49264,0.39278,0.11562,1.49118,0.05296,0.42098,1.2113,0.48496,0.27973,1.24462,0.17273,0.54431,1.42397,0.38549,0.38572,1.46968
1282,0.27695,0.24304,1.54811,0.12734,0.54884,0.11252,0.18973,0.12561,0.08002,0.1422,0.48107,0.53217,0.24813,0.14527,0.50202,0.15484,0.28965,0.93545,0.29866,0.17312,0.93806,0.10507,0.30549,1.49295,0.39202,0.11494,1.49127,0.05164,0.41988,1.21158,0.4845,0.27893,1.24475,0.17181,0.54352,1.42385,0.38522,0.38428,1.47019
1283,0.27647,0.24232,1.54799,0.12681,0.54853,0.11279,0.18962,0.12579,0.08011,0.14155,0.48125,0.53252,0.24826,0.145,0.50209,0.15463,0.28907,0.93542,0.29836,0.17242,0.93822,0.10491,0.30511,1.49329,0.39141,0.11428,1.49123,0.05056,0.41892,1.21186,0.48441,0.27833,1.24494,0.17114,0.54259,1.42388,0.38519,0.38295,1.47074
1284,0.27576,0.24134,1.54799,0.12618,0.5484,0.11313,0.18952,0.12609,0.08027,0.14097,0.48116,0.53286,0.24825,0.14479,0.50227,0.15458,0.28863,0.93558,0.29798,0.17158,0.93847,0.10483,0.3047,1.49348,0.39098,0.11319,1.49111,0.05009,0.41826,1.21203,0.48438,0.27758,1.2452,0.17053,0.54158,1.42432,0.38489,0.38177,1.47108
1285,0.27485,0.24016,1.5481,0.12561,0.54855,0.11344,0.18945,0.12646,0.08043,0.14042,0.48069,0.53308,0.24814,0.14469,0.50246,0.1546,0.28832,0.93585,0.29762,0.17081,0.93873,0.10473,0.30418,1.49344,0.39047,0.1117,1.49105,0.05009,0.41791,1.21204,0.48407,0.27648,1.24547,0.16988,0.54057,1.42508,0.38406,0.38078,1.47107
1286,0.27382,0.23911,1.5482,0.12522,0.54889,0.1136,0.18933,0.12675,0.08051,0.1399,0.48012,0.53309,0.24799,0.14471,0.50255,0.15456,0.288,0.93596,0.29738,0.17024,0.93887,0.10463,0.30359,1.49327,0.3897,0.11024,1.49112,0.05031,0.41774,1.21198,0.48343,0.27512,1.24567,0.16928,0.53966,1.4259,0.383,0.37991,1.47086
1287,0.27281,0.23839,1.54817,0.12499,0.54922,0.11362,0.18918,0.12687,0.08052,0.13948,0.4798,0.53301,0.24788,0.14478,0.50256,0.15444,0.28756,0.93581,0.29725,0.1698,0.93891,0.10447,0.30281,1.49305,0.38877,0.10907,1.49125,0.05053,0.41755,1.21192,0.4827,0.27373,1.24572,0.16872,0.53881,1.42665,0.38225,0.37898,1.47068
1288,0.27208,0.23775,1.54808,0.12489,0.54945,0.11368,0.1891,0.12683,0.08056,0.13922,0.47976,0.53303,0.2478,0.14485,0.5026,0.15426,0.28707,0.93562,0.2972,0.16948,0.93897,0.10401,0.30159,1.49273,0.38796,0.10821,1.49132,0.0506,0.41723,1.21187,0.48214,0.27246,1.24562,0.16802,0.53786,1.42738,0.3821,0.37794,1.47066
1289,0.27176,0.23682,1.54805,0.12493,0.54963,0.1139,0.18923,0.12673,0.08066,0.13913,0.47985,0.53324,0.24769,0.14497,0.50271,0.15403,0.28666,0.93559,0.29721,0.16936,0.93908,0.10314,0.29998,1.49228,0.38742,0.10762,1.49139,0.05056,0.41695,1.21182,0.48188,0.27138,1.24547,0.16719,0.53686,1.42816,0.38231,0.37698,1.47066
1290,0.27154,0.23551,1.54815,0.1251,0.54986,0.11422,0.1895,0.12666,0.08068,0.13911,0.47991,0.53354,0.24748,0.14509,0.50279,0.1537,0.28637,0.93573,0.29722,0.16948,0.93914,0.1021,0.29849,1.49182,0.38698,0.10722,1.49156,0.05046,0.41692,1.21179,0.48181,0.27041,1.2454,0.16648,0.536,1.42891,0.38219,0.37636,1.47041
1291,0.27098,0.23395,1.54834,0.12528,0.55018,0.11449,0.18972,0.12666,0.08051,0.13907,0.47999,0.53378,0.2472,0.14515,0.50269,0.15327,0.28608,0.93581,0.29724,0.16974,0.93898,0.10117,0.29755,1.49146,0.38648,0.10677,1.4918,0.05021,0.41704,1.21176,0.48169,0.26943,1.24544,0.166,0.53534,1.42944,0.38142,0.37612,1.4698
1292,0.27003,0.23246,1.54853,0.12535,0.55055,0.11465,0.18978,0.12678,0.08017,0.13899,0.48017,0.53391,0.24694,0.14514,0.5024,0.15285,0.28574,0.9357,0.29739,0.17009,0.93863,0.10039,0.29718,1.4912,0.38591,0.10607,1.49194,0.04977,0.41712,1.21163,0.48137,0.26848,1.24551,0.16551,0.53479,1.42967,0.3805,0.37607,1.46917
1293,0.2691,0.2314,1.54864,0.12519,0.55091,0.11472,0.18976,0.12699,0.07985,0.13895,0.48047,0.53396,0.24673,0.14518,0.50211,0.15255,0.28552,0.93552,0.29759,0.17052,0.93827,0.09959,0.29708,1.49097,0.38529,0.10512,1.49175,0.04932,0.41712,1.21138,0.48094,0.26781,1.24558,0.16476,0.53436,1.42981,0.37999,0.37602,1.46892
1294,0.26853,0.2309,1.5486,0.12473,0.55121,0.11475,0.18973,0.12719,0.07974,0.13896,0.48076,0.53398,0.24651,0.14531,0.50203,0.15234,0.28559,0.93543,0.29754,0.17079,0.93816,0.09874,0.29697,1.49085,0.38453,0.10401,1.49123,0.0489,0.41707,1.21121,0.48053,0.26751,1.24573,0.16368,0.53411,1.43009,0.37971,0.37594,1.46902
1295,0.26826,0.23061,1.54848,0.12407,0.55145,0.11477,0.18969,0.12731,0.0799,0.1389,0.48099,0.53398,0.24622,0.14542,0.50223,0.15209,0.28585,0.93544,0.29699,0.17066,0.9384,0.09786,0.29669,1.49099,0.38356,0.10286,1.49066,0.04833,0.41679,1.21129,0.48017,0.26723,1.24599,0.16241,0.53395,1.43048,0.37926,0.3758,1.46916
1296,0.26799,0.22992,1.54843,0.12357,0.55166,0.1148,0.18964,0.1274,0.08018,0.13867,0.4812,0.534,0.24594,0.14539,0.50254,0.15177,0.28609,0.93549,0.2961,0.1702,0.93882,0.09711,0.29626,1.49138,0.38256,0.10187,1.49044,0.04754,0.41619,1.21162,0.47983,0.26658,1.24625,0.16126,0.53375,1.43078,0.37882,0.37547,1.46922
1297,0.26746,0.22859,1.54859,0.12351,0.5519,0.11484,0.18958,0.12755,0.08039,0.13832,0.48143,0.53404,0.24574,0.14533,0.50278,0.15147,0.28628,0.93551,0.29525,0.16972,0.93915,0.09666,0.29587,1.49176,0.38179,0.10115,1.49058,0.04678,0.41559,1.21196,0.47946,0.26564,1.2464,0.16051,0.53351,1.43093,0.37874,0.375,1.46928
1298,0.26661,0.22692,1.54896,0.12374,0.55213,0.11484,0.18953,0.12775,0.08046,0.13794,0.48163,0.53406,0.24564,0.14545,0.50285,0.15124,0.28646,0.93552,0.29472,0.16953,0.93929,0.09643,0.29561,1.49188,0.38133,0.10063,1.49084,0.04642,0.41545,1.21216,0.47895,0.26484,1.24646,0.16022,0.53333,1.43111,0.37861,0.37475,1.46924
1299,0.26553,0.22522,1.54949,0.12379,0.55227,0.11482,0.18948,0.12788,0.08039,0.13762,0.48169,0.53404,0.24559,0.14568,0.50278,0.15105,0.28662,0.93554,0.29454,0.1697,0.93924,0.09595,0.29531,1.49163,0.38112,0.10022,1.49107,0.0466,0.41597,1.21214,0.47829,0.26445,1.24652,0.16011,0.53325,1.43156,0.3779,0.37503,1.46894
1300,0.26436,0.22361,1.54999,0.1235,0.55224,0.1148,0.18939,0.12783,0.08022,0.13735,0.48164,0.53401,0.24558,0.14582,0.50259,0.15082,0.2867,0.93557,0.29458,0.17011,0.93902,0.09493,0.2947,1.49118,0.38096,0.09985,1.49131,0.04704,0.41686,1.21209,0.47763,0.26435,1.24675,0.15985,0.53316,1.43238,0.3767,0.37582,1.46848
1301,0.26309,0.22222,1.55032,0.12311,0.55208,0.11477,0.18921,0.12761,0.08002,0.13709,0.48159,0.53399,0.24557,0.1458,0.50236,0.15056,0.28672,0.93559,0.29465,0.17052,0.93876,0.09363,0.29373,1.49087,0.38055,0.09929,1.49153,0.04719,0.41763,1.2123,0.4771,0.26423,1.24721,0.15937,0.53299,1.43342,0.3756,0.37677,1.46814
1302,0.26167,0.22123,1.55045,0.12289,0.55191,0.11469,0.18898,0.1274,0.07992,0.13669,0.48169,0.53397,0.2455,0.14576,0.50223,0.15031,0.28682,0.93556,0.2945,0.17075,0.93863,0.09256,0.29271,1.49095,0.37979,0.09846,1.49153,0.04675,0.4181,1.21294,0.47661,0.26393,1.24769,0.15888,0.53285,1.4344,0.37493,0.3775,1.468
1303,0.26022,0.22065,1.55047,0.12281,0.55174,0.11456,0.18875,0.12734,0.07998,0.1361,0.48196,0.53393,0.24524,0.14591,0.50229,0.15002,0.2871,0.93552,0.29406,0.17086,0.93871,0.09199,0.292,1.49139,0.37878,0.09756,1.4912,0.04586,0.41833,1.21386,0.47609,0.26358,1.24792,0.15857,0.5329,1.43512,0.37454,0.37782,1.46796
1304,0.25912,0.22026,1.5504,0.12277,0.55158,0.11446,0.18856,0.12743,0.08016,0.13544,0.48224,0.53392,0.2448,0.14628,0.50249,0.14963,0.28749,0.93554,0.29352,0.17106,0.93893,0.09171,0.29157,1.49191,0.37764,0.09694,1.49071,0.04478,0.41839,1.21474,0.47561,0.26332,1.24794,0.15827,0.53307,1.43554,0.37429,0.37784,1.46793
1305,0.25856,0.21985,1.55025,0.12272,0.55146,0.11442,0.18844,0.12755,0.08035,0.13493,0.48243,0.53395,0.24431,0.14677,0.50271,0.1492,0.28786,0.93566,0.29309,0.17144,0.93915,0.09128,0.29122,1.4922,0.37636,0.09673,1.4903,0.04381,0.41831,1.21525,0.47526,0.26317,1.24795,0.15763,0.5331,1.43582,0.37431,0.37791,1.468
1306,0.25822,0.21933,1.55022,0.1226,0.55142,0.11446,0.18842,0.12757,0.08047,0.13468,0.48261,0.53403,0.24389,0.14723,0.50287,0.14875,0.28816,0.93581,0.29277,0.17189,0.93929,0.09043,0.29085,1.49214,0.37504,0.09681,1.49006,0.04304,0.41831,1.21535,0.47478,0.26319,1.24801,0.15661,0.53285,1.43618,0.37456,0.37819,1.46825
1307,0.25775,0.2186,1.55051,0.12228,0.5515,0.11456,0.18851,0.12749,0.0805,0.13461,0.48297,0.53417,0.2436,0.1475,0.50293,0.14824,0.28841,0.93591,0.29238,0.1723,0.93936,0.08932,0.29051,1.49188,0.37389,0.09699,1.49,0.04237,0.41858,1.21529,0.4739,0.26337,1.24807,0.15545,0.53245,1.43671,0.37459,0.37868,1.46856
1308,0.25707,0.21769,1.551,0.12175,0.55175,0.11473,0.18869,0.1275,0.08046,0.13445,0.48361,0.53439,0.2434,0.1476,0.50294,0.14763,0.28868,0.93596,0.29184,0.17264,0.93939,0.08836,0.29031,1.49164,0.37303,0.09711,1.49018,0.04163,0.41906,1.21533,0.47276,0.26358,1.24818,0.1543,0.53211,1.43739,0.37392,0.37923,1.46871
1309,0.25622,0.21691,1.55138,0.12119,0.55215,0.1149,0.18888,0.12771,0.08044,0.13401,0.4844,0.53462,0.2432,0.14762,0.50298,0.14701,0.28901,0.93597,0.29119,0.17294,0.93946,0.08779,0.29037,1.49157,0.37226,0.09706,1.49054,0.04094,0.4196,1.2155,0.4717,0.2636,1.24848,0.15322,0.53196,1.4381,0.37265,0.37966,1.4687
1310,0.25515,0.21657,1.55143,0.12076,0.55252,0.11499,0.18896,0.12786,0.0805,0.13334,0.48503,0.53476,0.24297,0.14772,0.50308,0.1464,0.28932,0.93595,0.29056,0.17323,0.9396,0.08736,0.29063,1.49169,0.37135,0.09677,1.49087,0.04043,0.42016,1.21578,0.47094,0.26342,1.24895,0.15236,0.53212,1.43877,0.37146,0.37974,1.46884
1311,0.25389,0.21666,1.55119,0.12055,0.55267,0.11498,0.1889,0.1277,0.08059,0.1327,0.48537,0.53479,0.24277,0.14789,0.50317,0.14577,0.2895,0.93591,0.28997,0.17347,0.93973,0.0867,0.2909,1.49202,0.37032,0.09635,1.49098,0.03991,0.42071,1.21622,0.47045,0.26323,1.24944,0.15189,0.53258,1.43922,0.37091,0.37935,1.4694
1312,0.25264,0.21693,1.55082,0.12056,0.55259,0.11492,0.18885,0.12728,0.08063,0.1323,0.48553,0.53478,0.24265,0.148,0.50319,0.14514,0.28955,0.93586,0.28939,0.17358,0.9398,0.08568,0.29104,1.49248,0.36935,0.09598,1.49088,0.039,0.42104,1.21674,0.47004,0.26324,1.24983,0.15167,0.53308,1.43931,0.37084,0.37866,1.47032
1313,0.25166,0.21708,1.55047,0.12072,0.55235,0.11488,0.18889,0.12693,0.08058,0.13213,0.48577,0.53482,0.24248,0.14802,0.50315,0.14459,0.28958,0.9358,0.28879,0.17355,0.9398,0.08448,0.29101,1.49285,0.36849,0.09577,1.49074,0.03773,0.42105,1.21715,0.46952,0.26348,1.25016,0.15128,0.53335,1.43913,0.37062,0.37798,1.47126
1314,0.25105,0.21706,1.55028,0.12093,0.5521,0.11484,0.18892,0.12683,0.08051,0.13208,0.48624,0.5349,0.24216,0.1481,0.50311,0.14409,0.28967,0.93571,0.28816,0.17349,0.93981,0.08336,0.29085,1.49297,0.3677,0.09571,1.49071,0.03658,0.42092,1.21728,0.46886,0.26388,1.25049,0.15049,0.53335,1.43902,0.36982,0.37755,1.47196
1315,0.25071,0.21698,1.55027,0.1211,0.55195,0.11484,0.1888,0.12689,0.08052,0.13211,0.48686,0.53503,0.24183,0.14837,0.50314,0.14356,0.28989,0.93566,0.28752,0.17357,0.93988,0.08254,0.29074,1.49285,0.36698,0.09565,1.49079,0.03583,0.42094,1.21722,0.46811,0.26432,1.25092,0.14945,0.53324,1.43917,0.36854,0.37741,1.47245
