PaulMeinheit/Bachelor_Muay_Thai/processed_Data/E1/roundhouse/sliced/JointPositions/sliced3.csv
Unnamed: 0_level_0,Neck_Joint_Position,Neck_Joint_Position,Neck_Joint_Position,L_ANKLE_POSITION,L_ANKLE_POSITION,L_ANKLE_POSITION,R_ANKLE_POSITION,R_ANKLE_POSITION,R_ANKLE_POSITION,L_KNEE_POSITION,L_KNEE_POSITION,L_KNEE_POSITION,R_KNEE_POSITION,R_KNEE_POSITION,R_KNEE_POSITION,L_HIP_POSITION,L_HIP_POSITION,L_HIP_POSITION,R_HIP_POSITION,R_HIP_POSITION,R_HIP_POSITION,L_SHOULDER_POSITION,L_SHOULDER_POSITION,L_SHOULDER_POSITION,R_SHOULDER_POSITION,R_SHOULDER_POSITION,R_SHOULDER_POSITION,L_ELBOW_POSITION,L_ELBOW_POSITION,L_ELBOW_POSITION,R_ELBOW_POSITION,R_ELBOW_POSITION,R_ELBOW_POSITION,L_WRIST_POSITION,L_WRIST_POSITION,L_WRIST_POSITION,R_WRIST_POSITION,R_WRIST_POSITION,R_WRIST_POSITION
ITEM,X,Y,Z,X,Y,Z,X,Y,Z,X,Y,Z,X,Y,Z,X,Y,Z,X,Y,Z,X,Y,Z,X,Y,Z,X,Y,Z,X,Y,Z,X,Y,Z,X,Y,Z
1998,0.21124,0.18879,1.54651,0.11529,0.54868,0.12297,0.17675,0.10343,0.07943,0.12084,0.50348,0.54587,0.23022,0.13753,0.50116,0.11675,0.28239,0.93387,0.25845,0.16338,0.93934,0.04424,0.26104,1.49627,0.33226,0.06888,1.4864,-0.01712,0.39882,1.22728,0.45308,0.25557,1.27014,0.0918,0.51218,1.45104,0.33766,0.34523,1.49468
1999,0.21096,0.18952,1.54629,0.11527,0.54972,0.12372,0.17678,0.10348,0.0794,0.12056,0.50542,0.54671,0.23038,0.13817,0.50107,0.11651,0.28301,0.93395,0.2579,0.16363,0.93931,0.04449,0.26162,1.49624,0.33185,0.06896,1.486,-0.0172,0.3997,1.22747,0.45314,0.25631,1.27059,0.09156,0.51303,1.45132,0.33766,0.34568,1.49521
2000,0.21085,0.19005,1.5462,0.11514,0.5509,0.12442,0.17674,0.10352,0.07932,0.12031,0.5077,0.54753,0.23062,0.13889,0.5009,0.11631,0.28376,0.93388,0.25737,0.16399,0.93921,0.04452,0.26176,1.49608,0.3313,0.06894,1.4857,-0.01733,0.4006,1.22775,0.4529,0.25697,1.27105,0.09134,0.51391,1.45165,0.33754,0.34632,1.49574
2001,0.21088,0.19024,1.5463,0.11497,0.55214,0.12517,0.17661,0.10355,0.07921,0.12014,0.51014,0.5484,0.23099,0.1396,0.50067,0.11605,0.28454,0.93379,0.25692,0.16455,0.93904,0.04424,0.26174,1.496,0.33082,0.06892,1.48568,-0.0176,0.40154,1.22816,0.45255,0.25746,1.27155,0.09128,0.51494,1.45192,0.33741,0.34694,1.4963
2002,0.21095,0.1903,1.5464,0.11486,0.55344,0.1261,0.17638,0.10358,0.07913,0.12006,0.51254,0.54945,0.23148,0.14016,0.50045,0.11567,0.28528,0.93385,0.25647,0.16519,0.93887,0.04377,0.26205,1.49611,0.33043,0.0691,1.48581,-0.01795,0.40251,1.22858,0.45249,0.2579,1.2721,0.09126,0.51619,1.45204,0.33734,0.3474,1.49683
2003,0.21095,0.19049,1.54629,0.11485,0.55484,0.12727,0.17612,0.10364,0.07914,0.11998,0.51493,0.5507,0.23197,0.14055,0.50033,0.11524,0.28596,0.93409,0.25599,0.1658,0.9388,0.04329,0.26286,1.49627,0.32996,0.06957,1.48583,-0.01826,0.40347,1.22879,0.45289,0.25843,1.27266,0.0911,0.51753,1.45198,0.33736,0.34779,1.49727
2004,0.21073,0.19088,1.546,0.11483,0.55631,0.12856,0.17592,0.10372,0.07924,0.11976,0.51741,0.55209,0.2323,0.14088,0.50034,0.11481,0.28661,0.93437,0.25551,0.16637,0.93883,0.04288,0.26394,1.49626,0.32934,0.07023,1.48572,-0.01844,0.40447,1.22868,0.45344,0.25904,1.27318,0.09079,0.51883,1.45178,0.33747,0.34826,1.49761
2005,0.21034,0.19144,1.54572,0.11468,0.55792,0.12985,0.17585,0.10376,0.07937,0.1193,0.52004,0.55348,0.2324,0.14133,0.50041,0.11436,0.28725,0.93455,0.255,0.16695,0.93892,0.04266,0.26489,1.496,0.32867,0.07088,1.48568,-0.01845,0.40558,1.22846,0.45374,0.25964,1.27368,0.09057,0.52017,1.45155,0.33759,0.3489,1.498
2006,0.21006,0.19214,1.54556,0.11448,0.55984,0.13121,0.17586,0.10371,0.07944,0.11874,0.52296,0.55493,0.23232,0.14191,0.50044,0.11381,0.28791,0.93461,0.25443,0.16758,0.93898,0.04273,0.2655,1.49573,0.32812,0.07138,1.48579,-0.01841,0.40676,1.22849,0.45368,0.26031,1.27422,0.09056,0.52177,1.45138,0.33755,0.34964,1.49852
2007,0.21008,0.19288,1.54551,0.11442,0.56214,0.13278,0.17585,0.10358,0.07939,0.11834,0.52626,0.55659,0.23223,0.14242,0.50034,0.11322,0.28859,0.93464,0.25387,0.1683,0.93889,0.04297,0.26589,1.49568,0.32773,0.07172,1.48587,-0.01849,0.40786,1.22889,0.45353,0.2611,1.27486,0.09061,0.52366,1.45132,0.33717,0.35042,1.49904
2008,0.21028,0.19352,1.54549,0.11453,0.56464,0.13465,0.17576,0.10343,0.07922,0.11813,0.52994,0.55856,0.23223,0.14267,0.50011,0.11272,0.28927,0.93471,0.25346,0.16908,0.93865,0.04304,0.26635,1.4958,0.32742,0.07197,1.48571,-0.01874,0.40896,1.22943,0.45363,0.26201,1.27553,0.09059,0.52556,1.45131,0.33657,0.35129,1.49937
2009,0.21039,0.19412,1.54546,0.11469,0.56711,0.13673,0.17564,0.10331,0.07902,0.11788,0.53385,0.56076,0.23237,0.14273,0.49987,0.11238,0.28991,0.93479,0.25322,0.16982,0.93838,0.04268,0.26709,1.49584,0.32724,0.07233,1.48535,-0.01904,0.41037,1.22982,0.45404,0.26303,1.27613,0.09051,0.52723,1.45146,0.33609,0.35228,1.49951
2010,0.21025,0.19479,1.54542,0.11467,0.56941,0.13888,0.17563,0.10332,0.07892,0.11736,0.53782,0.56304,0.23263,0.1429,0.49971,0.11214,0.29053,0.93486,0.25305,0.1705,0.93822,0.04195,0.26809,1.49572,0.32728,0.07297,1.48508,-0.01917,0.41225,1.23003,0.45462,0.2642,1.27667,0.09034,0.52873,1.4519,0.33599,0.35327,1.49976
2011,0.20983,0.19559,1.54539,0.1143,0.57158,0.141,0.17586,0.10351,0.07893,0.11652,0.54175,0.56529,0.23305,0.14342,0.49966,0.1119,0.29126,0.93497,0.25285,0.17128,0.93818,0.04108,0.26908,1.49549,0.32746,0.07391,1.48514,-0.01921,0.41432,1.2302,0.45519,0.26547,1.27728,0.08997,0.53034,1.45247,0.33619,0.35402,1.50039
2012,0.20918,0.1964,1.54532,0.11364,0.57377,0.14305,0.17624,0.10386,0.07893,0.11549,0.54561,0.56745,0.23359,0.14426,0.49959,0.11166,0.2923,0.93522,0.25265,0.17236,0.93813,0.04035,0.26987,1.49524,0.3275,0.07492,1.48549,-0.01955,0.41616,1.23044,0.45559,0.26671,1.27806,0.08942,0.53224,1.45279,0.33646,0.35459,1.50135
2013,0.20851,0.19716,1.54516,0.113,0.57601,0.14498,0.17655,0.10425,0.0788,0.11439,0.54937,0.56948,0.23404,0.14514,0.4994,0.11142,0.29358,0.93553,0.25245,0.17368,0.93794,0.03994,0.27069,1.49502,0.32708,0.07572,1.4858,-0.02018,0.41782,1.23073,0.45573,0.26773,1.27892,0.08898,0.5344,1.45272,0.33662,0.35534,1.50233
2014,0.20798,0.19804,1.54497,0.1127,0.57824,0.14677,0.17662,0.10452,0.07859,0.11325,0.55303,0.57136,0.2341,0.14578,0.49915,0.11113,0.29487,0.93576,0.25222,0.17502,0.93765,0.03989,0.27195,1.49483,0.32601,0.07621,1.48577,-0.02052,0.41977,1.23099,0.4557,0.26849,1.2798,0.08897,0.53674,1.45261,0.33662,0.3565,1.50307
2015,0.20755,0.19927,1.54485,0.11278,0.58034,0.14848,0.17646,0.10465,0.07838,0.11203,0.55651,0.57315,0.2337,0.14621,0.49895,0.11078,0.29604,0.9359,0.2519,0.17623,0.93739,0.04001,0.27367,1.49465,0.32439,0.07667,1.48544,-0.02015,0.42237,1.23126,0.45568,0.26914,1.28066,0.08933,0.53924,1.45293,0.33646,0.35786,1.50358
2016,0.20704,0.20075,1.54478,0.11295,0.58217,0.15022,0.1762,0.10471,0.07824,0.11073,0.55984,0.57497,0.23308,0.14657,0.49883,0.1104,0.29713,0.9361,0.25153,0.17733,0.93721,0.04004,0.2755,1.49454,0.32274,0.07745,1.48509,-0.01937,0.42544,1.23167,0.45581,0.26991,1.28146,0.08969,0.54192,1.45376,0.33621,0.35905,1.504
2017,0.20648,0.20214,1.5447,0.11297,0.58371,0.15196,0.17594,0.10465,0.07814,0.10947,0.56321,0.57679,0.23251,0.14698,0.49873,0.11008,0.29822,0.93626,0.25119,0.1784,0.93705,0.03985,0.27725,1.49456,0.32165,0.07857,1.48484,-0.01875,0.42855,1.2323,0.45613,0.271,1.2821,0.08976,0.54474,1.4548,0.33607,0.36002,1.50445
2018,0.2061,0.20323,1.54458,0.11282,0.58498,0.15356,0.17571,0.10444,0.07803,0.10832,0.56671,0.57848,0.23201,0.14745,0.49857,0.10983,0.29935,0.93618,0.25093,0.1795,0.93684,0.03951,0.27909,1.49467,0.3212,0.0797,1.48456,-0.01856,0.43157,1.23297,0.4565,0.27239,1.28262,0.08966,0.5475,1.45576,0.3362,0.36103,1.50499
2019,0.20598,0.20433,1.5445,0.1127,0.58608,0.15495,0.17553,0.10411,0.0779,0.10717,0.57023,0.57996,0.23143,0.1481,0.4984,0.1096,0.30053,0.9359,0.25069,0.18068,0.93661,0.0391,0.28114,1.49469,0.32096,0.08074,1.48421,-0.01858,0.43475,1.23356,0.45684,0.2739,1.28311,0.0897,0.55017,1.45658,0.33671,0.36228,1.50568
2020,0.20599,0.20585,1.54449,0.1128,0.58714,0.15614,0.17546,0.10379,0.07778,0.10586,0.57348,0.58121,0.23065,0.14893,0.49825,0.10934,0.30183,0.93565,0.25045,0.18201,0.93641,0.03863,0.28328,1.49461,0.32051,0.08195,1.48396,-0.01856,0.43821,1.23417,0.45718,0.27535,1.28362,0.09005,0.55295,1.45738,0.33753,0.36376,1.50643
2021,0.20593,0.20785,1.5445,0.11319,0.58825,0.15704,0.17548,0.10358,0.07772,0.10435,0.57625,0.58212,0.22977,0.14985,0.49819,0.10909,0.3033,0.93555,0.25027,0.18354,0.93626,0.03818,0.28536,1.49461,0.31974,0.08355,1.4839,-0.01856,0.44182,1.23498,0.45761,0.27668,1.28413,0.09049,0.55617,1.45817,0.33842,0.36533,1.50709
2022,0.20565,0.20998,1.54442,0.11381,0.5895,0.15754,0.17555,0.10357,0.07774,0.10286,0.57856,0.5826,0.22905,0.15072,0.49821,0.10892,0.30502,0.93555,0.25013,0.18531,0.93619,0.03774,0.28738,1.49479,0.31878,0.08534,1.48386,-0.01892,0.44531,1.23603,0.45807,0.27795,1.28457,0.09066,0.55991,1.45884,0.33916,0.36691,1.50756
2023,0.20513,0.21185,1.54428,0.11451,0.59095,0.15767,0.17565,0.10381,0.07784,0.10163,0.58064,0.5827,0.22864,0.15148,0.49832,0.10882,0.30704,0.93558,0.24991,0.18719,0.9362,0.0372,0.2895,1.49508,0.31787,0.08698,1.48357,-0.01984,0.44865,1.23716,0.45851,0.27927,1.28492,0.09047,0.56398,1.45923,0.33977,0.36856,1.50787
2024,0.20463,0.21325,1.54416,0.11517,0.5925,0.15757,0.17578,0.10426,0.07794,0.10066,0.58275,0.58256,0.22845,0.15225,0.49842,0.10872,0.3093,0.93553,0.24945,0.18903,0.93622,0.03654,0.29185,1.49531,0.31715,0.08846,1.48297,-0.0211,0.45206,1.23818,0.459,0.28079,1.28521,0.09031,0.56815,1.4593,0.34042,0.37049,1.50808
2025,0.20441,0.21437,1.54412,0.11573,0.59408,0.15736,0.17585,0.10479,0.07794,0.0998,0.58494,0.58231,0.22823,0.15318,0.49842,0.10855,0.31161,0.93537,0.24878,0.19076,0.93617,0.03594,0.29452,1.49542,0.31655,0.09009,1.48227,-0.02229,0.45585,1.23912,0.45969,0.28253,1.28557,0.09056,0.57248,1.45922,0.34123,0.37288,1.50824
2026,0.20439,0.21561,1.54399,0.11622,0.59562,0.15709,0.17579,0.10525,0.07786,0.099,0.58711,0.582,0.22782,0.15432,0.4983,0.10828,0.31381,0.93506,0.24809,0.19246,0.93602,0.03549,0.29748,1.49546,0.31573,0.09213,1.48161,-0.02312,0.46018,1.24012,0.46065,0.28438,1.28603,0.09107,0.57724,1.4593,0.34234,0.37581,1.50833
2027,0.2043,0.21735,1.54364,0.11671,0.59715,0.1567,0.17565,0.1055,0.07776,0.09826,0.58912,0.58157,0.22727,0.15567,0.49812,0.10788,0.31581,0.93462,0.24751,0.19426,0.9358,0.035,0.30061,1.49545,0.31454,0.09454,1.48083,-0.02349,0.46508,1.24121,0.46189,0.28618,1.28645,0.09144,0.58271,1.45971,0.34407,0.37926,1.50833
2028,0.20397,0.21974,1.54301,0.11716,0.59872,0.15609,0.17557,0.10559,0.0777,0.0975,0.5909,0.58091,0.22681,0.15722,0.49792,0.10734,0.31776,0.93408,0.24699,0.19623,0.93557,0.0344,0.30383,1.49531,0.31312,0.09714,1.47964,-0.02354,0.47053,1.2424,0.46338,0.28789,1.28663,0.09157,0.58898,1.46036,0.34669,0.38319,1.50816
2029,0.20324,0.22258,1.54223,0.11745,0.6004,0.15512,0.17555,0.10572,0.07765,0.09654,0.59245,0.57987,0.22658,0.15907,0.49769,0.10671,0.31985,0.93344,0.2464,0.19837,0.93533,0.03388,0.30717,1.49499,0.31171,0.09984,1.47808,-0.02355,0.47663,1.24381,0.46513,0.28952,1.28652,0.09185,0.59592,1.46115,0.3502,0.38761,1.50776
2030,0.20191,0.22552,1.54146,0.11765,0.60213,0.15373,0.17539,0.10607,0.07756,0.09538,0.59392,0.57841,0.22664,0.1613,0.49733,0.10608,0.32213,0.9326,0.24574,0.20063,0.935,0.03347,0.31066,1.49464,0.3105,0.10281,1.47653,-0.02366,0.48349,1.2457,0.46708,0.29105,1.28609,0.09277,0.60337,1.46216,0.35457,0.39257,1.50703
2031,0.20012,0.22836,1.54077,0.11805,0.60364,0.15211,0.17497,0.10657,0.07741,0.09422,0.5956,0.57671,0.22716,0.16388,0.49678,0.10548,0.32452,0.93142,0.24506,0.20295,0.93453,0.03281,0.31418,1.49445,0.30967,0.10631,1.47538,-0.02381,0.49107,1.24825,0.46914,0.29247,1.28529,0.09463,0.61138,1.46339,0.35994,0.39832,1.50586
2032,0.19853,0.23115,1.54004,0.11892,0.60455,0.15046,0.17444,0.10709,0.07726,0.09319,0.59757,0.57496,0.22839,0.16669,0.49609,0.10489,0.3269,0.92997,0.24444,0.20532,0.93394,0.0317,0.31744,1.49445,0.30938,0.11028,1.47455,-0.02381,0.49888,1.25132,0.47099,0.29403,1.28393,0.0973,0.61997,1.46453,0.36649,0.40515,1.50418
2033,0.19766,0.23394,1.53911,0.12019,0.60459,0.14893,0.17416,0.10763,0.07723,0.0923,0.5996,0.57333,0.23032,0.16971,0.49541,0.10427,0.32922,0.92855,0.24388,0.20774,0.9334,0.03042,0.32025,1.49439,0.30953,0.11439,1.47362,-0.02379,0.50607,1.2543,0.47228,0.29606,1.28198,0.10009,0.62864,1.46505,0.37411,0.41312,1.50205
2034,0.19717,0.23665,1.53796,0.12156,0.60386,0.14767,0.17435,0.10825,0.07738,0.09158,0.6014,0.57195,0.23264,0.17295,0.49487,0.10358,0.33141,0.92746,0.24333,0.21012,0.93302,0.0293,0.32292,1.49405,0.30963,0.11849,1.47232,-0.02429,0.51213,1.25649,0.47294,0.29853,1.27962,0.10195,0.63679,1.46459,0.38245,0.42201,1.49948
2035,0.19622,0.2392,1.53668,0.12282,0.60266,0.14678,0.17489,0.10891,0.07759,0.09101,0.60303,0.57093,0.23492,0.17647,0.49438,0.10275,0.33342,0.92675,0.24271,0.21239,0.93269,0.02833,0.32607,1.4934,0.30906,0.12277,1.47069,-0.02564,0.5175,1.25771,0.47346,0.30101,1.27724,0.10251,0.64442,1.46327,0.39134,0.43157,1.4963
2036,0.1945,0.24176,1.53544,0.12401,0.60125,0.14615,0.1754,0.10952,0.07766,0.09053,0.60479,0.57016,0.23695,0.18025,0.4937,0.10175,0.33533,0.92611,0.24206,0.21472,0.93217,0.02731,0.32989,1.49255,0.30784,0.12735,1.46885,-0.02742,0.52306,1.25846,0.47449,0.30319,1.27514,0.10237,0.65224,1.46156,0.40097,0.44173,1.49234
2037,0.19255,0.24474,1.53433,0.12518,0.59982,0.14552,0.17558,0.11013,0.07752,0.09004,0.6069,0.56935,0.23891,0.18417,0.49271,0.10062,0.33727,0.92519,0.2415,0.21731,0.9313,0.02613,0.33403,1.49164,0.30671,0.13207,1.46686,-0.02892,0.52926,1.25934,0.47629,0.30523,1.27327,0.10225,0.66099,1.45991,0.41182,0.45247,1.48761
2038,0.1911,0.24833,1.53337,0.12625,0.59865,0.1447,0.17539,0.11079,0.07729,0.08949,0.60927,0.56832,0.24112,0.18812,0.49151,0.09945,0.33927,0.9239,0.24104,0.22017,0.93019,0.02472,0.33809,1.49084,0.30636,0.13668,1.46479,-0.03003,0.53572,1.26051,0.47837,0.30756,1.27133,0.10239,0.67068,1.4581,0.42426,0.46373,1.48219
2039,0.19019,0.25219,1.53255,0.12702,0.59807,0.14381,0.17497,0.1115,0.0772,0.08888,0.61174,0.56722,0.24365,0.19214,0.49032,0.09828,0.34125,0.92243,0.24067,0.22312,0.92906,0.02276,0.34197,1.49037,0.30666,0.14121,1.46279,-0.03139,0.54158,1.26161,0.47991,0.31058,1.2691,0.10278,0.68051,1.45521,0.43799,0.47556,1.47599
2040,0.18908,0.25589,1.53183,0.12742,0.59812,0.1431,0.17453,0.11219,0.07734,0.08826,0.61436,0.56633,0.24623,0.19624,0.48926,0.09709,0.34312,0.92099,0.24035,0.22608,0.92805,0.02001,0.34566,1.49018,0.30693,0.14598,1.46089,-0.03367,0.54621,1.26213,0.48042,0.3145,1.26667,0.10327,0.68976,1.45035,0.45211,0.48819,1.46868
2041,0.18713,0.25944,1.53116,0.1276,0.59857,0.14283,0.17418,0.11289,0.07761,0.0877,0.61732,0.56588,0.24862,0.20036,0.48833,0.09584,0.3449,0.91965,0.24001,0.22902,0.92715,0.01669,0.34913,1.48988,0.30661,0.15136,1.45898,-0.03684,0.54975,1.26186,0.48003,0.31929,1.26419,0.10374,0.69849,1.44324,0.46576,0.50172,1.45987
2042,0.18445,0.26314,1.53046,0.12779,0.59914,0.14294,0.17391,0.11365,0.07782,0.0872,0.62072,0.5658,0.25075,0.20444,0.48737,0.09442,0.34668,0.91833,0.23945,0.2319,0.92622,0.01338,0.35238,1.48903,0.30569,0.15736,1.45707,-0.04033,0.55276,1.26084,0.47912,0.3247,1.26178,0.10423,0.70732,1.43403,0.47868,0.516,1.44934
2043,0.18165,0.26716,1.52966,0.12791,0.5997,0.14321,0.17365,0.11443,0.07789,0.08667,0.62451,0.56582,0.25278,0.20843,0.48628,0.09286,0.34863,0.91694,0.23855,0.2347,0.92511,0.01066,0.35538,1.4876,0.30455,0.16353,1.45547,-0.04373,0.5553,1.25916,0.47783,0.33036,1.25961,0.10478,0.71649,1.42269,0.49086,0.53061,1.4371
2044,0.17905,0.27136,1.52868,0.12758,0.60022,0.1434,0.17337,0.11518,0.07786,0.08606,0.62849,0.56577,0.25481,0.21232,0.48506,0.09128,0.35088,0.91554,0.23746,0.23759,0.92383,0.00879,0.35806,1.48598,0.30392,0.16945,1.45451,-0.04722,0.55677,1.25688,0.47621,0.33633,1.25782,0.10521,0.72544,1.40887,0.50205,0.54526,1.42353
2045,0.17647,0.27576,1.5275,0.12651,0.60078,0.14353,0.17306,0.11594,0.07782,0.08532,0.6325,0.56569,0.25677,0.21605,0.48384,0.08982,0.35346,0.91432,0.2365,0.24081,0.92252,0.00761,0.36044,1.4845,0.30436,0.17524,1.45414,-0.05119,0.5567,1.25399,0.47435,0.34326,1.25642,0.10515,0.73344,1.39221,0.5115,0.56024,1.40912
2046,0.17372,0.28053,1.52618,0.12479,0.60144,0.1437,0.17281,0.11672,0.07783,0.08447,0.63656,0.56567,0.25858,0.21956,0.48273,0.08849,0.35633,0.91336,0.23576,0.24443,0.92128,0.00663,0.36278,1.48313,0.30571,0.1812,1.45393,-0.05558,0.55537,1.25043,0.47232,0.35157,1.25535,0.1042,0.74052,1.37278,0.51833,0.57611,1.39407
2047,0.17114,0.28558,1.52491,0.12286,0.6021,0.14392,0.1727,0.11736,0.07789,0.08372,0.6408,0.56568,0.26025,0.22287,0.48172,0.08734,0.35945,0.91246,0.23516,0.24825,0.92012,0.00527,0.36533,1.48165,0.30721,0.18734,1.45359,-0.05979,0.55332,1.24599,0.47003,0.3608,1.25455,0.10195,0.74736,1.35075,0.52221,0.59252,1.37848
2048,0.16942,0.29042,1.52388,0.12122,0.60265,0.14407,0.17277,0.11773,0.07796,0.08329,0.64521,0.56558,0.26173,0.22593,0.48077,0.0864,0.36264,0.91137,0.23469,0.25208,0.91901,0.0031,0.36797,1.47993,0.30821,0.19339,1.45327,-0.0634,0.55044,1.24037,0.46734,0.36991,1.25394,0.09803,0.75399,1.32576,0.52348,0.60818,1.36281
2049,0.16871,0.29477,1.52326,0.1202,0.60311,0.14411,0.17298,0.11792,0.07802,0.0831,0.6496,0.56527,0.26299,0.2286,0.47993,0.0856,0.36569,0.90998,0.23449,0.25598,0.91799,0.00012,0.37021,1.4779,0.3087,0.19929,1.45323,-0.06662,0.54606,1.2335,0.46435,0.37837,1.25342,0.09253,0.75919,1.29701,0.5222,0.62231,1.34789
2050,0.16846,0.29898,1.52297,0.11985,0.60355,0.14412,0.17327,0.11812,0.07809,0.08277,0.65393,0.56484,0.26406,0.23082,0.47926,0.08491,0.36861,0.90838,0.23465,0.2601,0.91714,-0.0031,0.37187,1.47547,0.30913,0.2054,1.45338,-0.06973,0.54006,1.22571,0.46142,0.38659,1.25289,0.08615,0.76145,1.26413,0.51702,0.63558,1.33471
2051,0.16799,0.30362,1.52266,0.12002,0.60391,0.14431,0.17357,0.11848,0.07819,0.08196,0.65831,0.56444,0.26497,0.2328,0.47877,0.08437,0.37158,0.9068,0.23507,0.26449,0.91645,-0.00595,0.3735,1.47268,0.30986,0.21216,1.45333,-0.07269,0.53304,1.21733,0.45871,0.39558,1.2523,0.07922,0.76019,1.22783,0.50596,0.64938,1.32392
2052,0.16707,0.30884,1.52203,0.12046,0.60411,0.14474,0.17373,0.11903,0.07835,0.08083,0.6628,0.56415,0.26569,0.23485,0.47837,0.08401,0.3748,0.90544,0.23555,0.26898,0.91585,-0.0082,0.37575,1.46965,0.31096,0.21967,1.45287,-0.07545,0.52518,1.20839,0.45575,0.40617,1.25169,0.07057,0.75562,1.18944,0.4879,0.66439,1.31546
2053,0.16579,0.31429,1.52111,0.1209,0.60436,0.14526,0.17371,0.11964,0.07853,0.07991,0.66735,0.56392,0.26623,0.23711,0.47794,0.08378,0.37836,0.90436,0.23596,0.2735,0.91523,-0.01014,0.37851,1.46632,0.31237,0.22772,1.45212,-0.07818,0.51576,1.19866,0.45152,0.41864,1.25112,0.05841,0.74763,1.15006,0.46329,0.67998,1.30891
2054,0.16431,0.31953,1.52018,0.12123,0.60511,0.14562,0.17356,0.12005,0.07871,0.07966,0.67197,0.56362,0.26661,0.23946,0.47741,0.08372,0.38227,0.90345,0.23641,0.27818,0.9145,-0.01221,0.38106,1.46237,0.31401,0.23627,1.45137,-0.08085,0.50421,1.18809,0.44536,0.43272,1.25044,0.04234,0.73559,1.11017,0.43364,0.6949,1.30433
2055,0.16289,0.32448,1.51945,0.1216,0.60637,0.14575,0.17345,0.12011,0.07885,0.0802,0.67666,0.5632,0.26695,0.24176,0.47677,0.0839,0.38654,0.90268,0.23722,0.28336,0.91363,-0.01464,0.38301,1.45769,0.3158,0.24558,1.45082,-0.08297,0.49095,1.177,0.4374,0.4479,1.24958,0.02332,0.71908,1.07002,0.40059,0.70802,1.30212
2056,0.16176,0.32954,1.51887,0.12233,0.60757,0.14572,0.17353,0.12003,0.07893,0.08122,0.68138,0.56259,0.2673,0.24403,0.47606,0.08444,0.39125,0.90207,0.23866,0.28938,0.91262,-0.01746,0.38451,1.45256,0.31762,0.25563,1.45065,-0.08404,0.47664,1.16588,0.42833,0.46358,1.24886,0.00211,0.69796,1.0303,0.36535,0.71848,1.30214
2057,0.16081,0.33517,1.51821,0.12363,0.60819,0.14559,0.1737,0.12006,0.07894,0.08232,0.68616,0.56168,0.26768,0.2464,0.47529,0.08528,0.39649,0.90156,0.24066,0.29634,0.91145,-0.02047,0.38585,1.44732,0.31935,0.26606,1.45097,-0.08395,0.4616,1.15519,0.41869,0.47932,1.24881,-0.02076,0.67202,0.99236,0.32865,0.72562,1.30366
2058,0.15949,0.34145,1.51747,0.12524,0.60828,0.1454,0.17372,0.12032,0.07891,0.08334,0.69108,0.56049,0.26818,0.24893,0.47441,0.08609,0.40217,0.90102,0.24281,0.30404,0.91005,-0.02325,0.38703,1.44206,0.32076,0.27674,1.45162,-0.08303,0.44617,1.14535,0.40853,0.49543,1.2499,-0.04443,0.64141,0.9578,0.29059,0.72928,1.30627
2059,0.15727,0.34805,1.51684,0.12662,0.6083,0.14526,0.17355,0.12077,0.07898,0.08453,0.69626,0.55928,0.26897,0.25171,0.47348,0.08638,0.40798,0.90034,0.24451,0.31206,0.90848,-0.02529,0.38789,1.43675,0.32156,0.28828,1.45221,-0.08195,0.43092,1.13667,0.39742,0.51293,1.25222,-0.06827,0.60687,0.92777,0.25125,0.72986,1.31012
2060,0.15413,0.35456,1.5165,0.12753,0.60863,0.14533,0.17345,0.12131,0.07941,0.08611,0.70155,0.55833,0.2702,0.25493,0.47268,0.08585,0.41355,0.89964,0.24543,0.32001,0.90698,-0.02634,0.38808,1.43136,0.32149,0.30149,1.45265,-0.08141,0.41617,1.12922,0.3847,0.5324,1.25541,-0.09238,0.56923,0.90287,0.21172,0.72798,1.31543
2061,0.15055,0.36066,1.51649,0.12818,0.60945,0.14561,0.17381,0.12178,0.08051,0.08788,0.7066,0.55774,0.27207,0.25882,0.47223,0.08458,0.41871,0.89912,0.24571,0.3278,0.90584,-0.02655,0.38703,1.42596,0.32045,0.31652,1.4534,-0.0819,0.40153,1.12292,0.37015,0.55308,1.25901,-0.11672,0.52879,0.88338,0.17409,0.72444,1.32204
2062,0.14685,0.3661,1.5166,0.12893,0.61064,0.14597,0.17482,0.12214,0.08244,0.08953,0.71117,0.55738,0.27478,0.26358,0.47217,0.08311,0.42358,0.89897,0.24593,0.3357,0.9051,-0.02639,0.38431,1.42089,0.31848,0.33271,1.4551,-0.08383,0.38615,1.11789,0.35426,0.57361,1.263,-0.14051,0.4859,0.86965,0.14009,0.72016,1.32956
2063,0.14276,0.3709,1.51659,0.12988,0.61192,0.14635,0.17638,0.12268,0.08523,0.09117,0.71547,0.55707,0.27851,0.26942,0.47242,0.08215,0.42855,0.89917,0.24672,0.34394,0.90474,-0.0266,0.38013,1.41669,0.31583,0.34929,1.45813,-0.08757,0.36938,1.11457,0.33787,0.59321,1.26777,-0.16314,0.44176,0.86192,0.11017,0.71601,1.33742
2064,0.13767,0.37532,1.51643,0.13087,0.61312,0.14678,0.17843,0.12378,0.08904,0.09312,0.71995,0.55675,0.2834,0.27662,0.4731,0.08221,0.4341,0.89968,0.24836,0.35263,0.90491,-0.02787,0.37506,1.41358,0.31271,0.36612,1.4624,-0.09315,0.35118,1.11312,0.32151,0.6121,1.27362,-0.18473,0.39778,0.85969,0.0837,0.7128,1.34492
2065,0.13147,0.37943,1.51643,0.13162,0.61425,0.14738,0.18129,0.1257,0.09425,0.09529,0.72479,0.5565,0.28957,0.28555,0.47452,0.08313,0.44048,0.90067,0.25062,0.36181,0.90595,-0.03023,0.36911,1.41123,0.30888,0.38347,1.46745,-0.09998,0.33171,1.11317,0.30515,0.63088,1.28039,-0.20552,0.35486,0.86195,0.05976,0.71134,1.35172
2066,0.12478,0.38292,1.51694,0.13195,0.6155,0.14816,0.18538,0.12866,0.10106,0.09701,0.72966,0.55641,0.297,0.29647,0.47691,0.08433,0.44761,0.90242,0.25307,0.37166,0.90805,-0.03281,0.36161,1.40945,0.3038,0.40139,1.47291,-0.10697,0.31104,1.11441,0.2886,0.64975,1.28769,-0.22582,0.3133,0.86813,0.03778,0.71253,1.35789
2067,0.11833,0.38557,1.51809,0.13194,0.617,0.149,0.1908,0.13293,0.10932,0.09768,0.7341,0.55647,0.30556,0.30942,0.48022,0.08539,0.45517,0.90501,0.25551,0.38241,0.91107,-0.03477,0.35213,1.40855,0.29744,0.41925,1.47863,-0.11334,0.28979,1.11692,0.27209,0.66816,1.29528,-0.246,0.2732,0.87836,0.01769,0.71721,1.36346
2068,0.11231,0.38746,1.51969,0.13179,0.61866,0.14989,0.19734,0.13869,0.1188,0.09723,0.738,0.55668,0.31517,0.32426,0.48426,0.08619,0.46274,0.90818,0.25806,0.39426,0.91473,-0.03592,0.3411,1.40884,0.29058,0.43599,1.48449,-0.11902,0.26914,1.1207,0.25617,0.68514,1.30294,-0.26625,0.23489,0.8928,-0.00047,0.72582,1.36819
2069,0.10633,0.38881,1.52146,0.13154,0.6201,0.15063,0.20479,0.14589,0.1295,0.09589,0.74127,0.55679,0.32574,0.34097,0.48894,0.08662,0.47002,0.91143,0.2606,0.4072,0.91886,-0.03641,0.32956,1.41036,0.28367,0.45085,1.49016,-0.12438,0.25003,1.12568,0.24117,0.69996,1.31028,-0.2863,0.19888,0.91132,-0.01673,0.73829,1.37189
2070,0.09988,0.38976,1.52332,0.13116,0.6209,0.15072,0.21301,0.15464,0.14172,0.09378,0.74347,0.5563,0.33712,0.35986,0.49437,0.08645,0.47688,0.91451,0.26274,0.42107,0.92354,-0.03607,0.31868,1.41308,0.276,0.46372,1.49548,-0.12954,0.23255,1.1321,0.22705,0.71247,1.31674,-0.30552,0.16568,0.93374,-0.03117,0.75426,1.37462
2071,0.09282,0.3902,1.52535,0.13093,0.62109,0.14986,0.22192,0.1651,0.15583,0.09097,0.74413,0.55506,0.34895,0.38135,0.50077,0.08585,0.48329,0.9175,0.26438,0.43564,0.92898,-0.03457,0.30922,1.4169,0.26653,0.47496,1.50063,-0.13429,0.21614,1.14031,0.21371,0.72299,1.322,-0.3233,0.13563,0.95982,-0.04373,0.77349,1.37632
2072,0.08553,0.38969,1.52766,0.13129,0.62115,0.14854,0.23149,0.17714,0.17199,0.08757,0.7434,0.55359,0.36073,0.40555,0.50815,0.08549,0.48907,0.92066,0.26602,0.45076,0.93529,-0.03198,0.30117,1.42145,0.25534,0.485,1.50581,-0.13831,0.2003,1.15011,0.20132,0.73202,1.32614,-0.33937,0.10874,0.98894,-0.05396,0.79572,1.37664
2073,0.07867,0.38802,1.53029,0.13245,0.62153,0.14763,0.2415,0.19045,0.19034,0.08367,0.7418,0.55269,0.37207,0.4322,0.51652,0.08588,0.49386,0.92411,0.26799,0.46611,0.94252,-0.02891,0.29408,1.42617,0.24367,0.494,1.51098,-0.14169,0.18506,1.16064,0.19035,0.73973,1.32934,-0.35407,0.08524,1.02023,-0.06098,0.82045,1.37514
2074,0.07265,0.38551,1.53323,0.13422,0.62229,0.14753,0.25144,0.205,0.21131,0.07931,0.73961,0.55267,0.38283,0.46107,0.52603,0.08694,0.49741,0.92779,0.26991,0.48102,0.95066,-0.02634,0.28763,1.43069,0.23266,0.50196,1.51606,-0.14528,0.17117,1.17108,0.18114,0.74593,1.33157,-0.36828,0.06574,1.05301,-0.06378,0.84687,1.37164
2075,0.06737,0.38271,1.53642,0.13613,0.6231,0.14796,0.26114,0.2209,0.23542,0.07452,0.73665,0.55321,0.39278,0.49225,0.53694,0.08837,0.49974,0.93152,0.27128,0.49482,0.95966,-0.02492,0.2816,1.43492,0.22256,0.50898,1.52107,-0.15027,0.15943,1.18101,0.17361,0.75058,1.3328,-0.38296,0.05084,1.08696,-0.06184,0.87401,1.36605
2076,0.06252,0.38004,1.53975,0.13778,0.62357,0.14832,0.27135,0.23801,0.26288,0.06938,0.7325,0.55375,0.40144,0.52592,0.54936,0.09006,0.50117,0.93519,0.27191,0.5075,0.9693,-0.02443,0.27568,1.43872,0.21289,0.51532,1.52602,-0.15732,0.14991,1.19047,0.16751,0.75411,1.33331,-0.3986,0.04086,1.12206,-0.05533,0.90075,1.35811
2077,0.05798,0.37756,1.54312,0.13893,0.62362,0.14827,0.28318,0.2565,0.29315,0.06403,0.72699,0.554,0.40826,0.56204,0.56311,0.09189,0.50213,0.93883,0.27175,0.51954,0.97907,-0.02417,0.26954,1.44193,0.20315,0.52112,1.5308,-0.16621,0.14194,1.19975,0.1629,0.75723,1.33369,-0.41488,0.03594,1.15838,-0.04489,0.92578,1.34757
2078,0.05383,0.375,1.54655,0.13952,0.62338,0.148,0.29675,0.27732,0.32504,0.05874,0.7205,0.55415,0.41302,0.60035,0.57806,0.09356,0.50297,0.94261,0.2707,0.53115,0.98845,-0.02369,0.26313,1.44471,0.19311,0.52638,1.53521,-0.17626,0.13493,1.20935,0.16021,0.76052,1.33443,-0.43073,0.03571,1.19577,-0.03114,0.94804,1.33462
2079,0.04989,0.37211,1.55006,0.13977,0.62297,0.14796,0.31131,0.30114,0.3576,0.05371,0.71357,0.55454,0.41566,0.6401,0.59445,0.09489,0.50383,0.94664,0.26883,0.54196,0.99728,-0.02295,0.25661,1.44755,0.18291,0.53115,1.53921,-0.18693,0.1287,1.21983,0.1597,0.76409,1.3357,-0.44494,0.0391,1.23368,-0.01406,0.96739,1.31976
2080,0.04586,0.36889,1.55357,0.14011,0.62242,0.14836,0.32666,0.32743,0.39069,0.04893,0.70635,0.55525,0.41616,0.68039,0.61271,0.09603,0.50463,0.95088,0.2665,0.55155,1.00574,-0.02209,0.25017,1.45079,0.17313,0.53539,1.54297,-0.19805,0.12312,1.23169,0.16116,0.76746,1.33749,-0.45713,0.04514,1.27143,0.00728,0.98413,1.3036
2081,0.04178,0.36553,1.55699,0.14077,0.62168,0.14891,0.34379,0.35533,0.42476,0.04428,0.69839,0.556,0.41439,0.72069,0.63311,0.09734,0.50515,0.9551,0.264,0.56017,1.01401,-0.02122,0.24404,1.45429,0.16446,0.53863,1.54676,-0.20962,0.11807,1.24513,0.16426,0.76956,1.33967,-0.46778,0.05399,1.3086,0.03405,0.99776,1.28721
2082,0.03805,0.36228,1.56027,0.14178,0.6205,0.14913,0.36404,0.38474,0.46024,0.03992,0.68909,0.55636,0.41031,0.76093,0.65572,0.09912,0.50523,0.959,0.26122,0.56857,1.0221,-0.02051,0.23849,1.45778,0.15698,0.54052,1.55078,-0.22155,0.11369,1.26,0.16885,0.76961,1.34198,-0.4772,0.06673,1.34499,0.06587,1.00678,1.27183
2083,0.03497,0.35937,1.56348,0.14332,0.61864,0.14872,0.38806,0.41606,0.49722,0.03644,0.67821,0.55609,0.40401,0.80088,0.68037,0.10146,0.50482,0.96246,0.25787,0.57737,1.02988,-0.0201,0.23357,1.46133,0.14999,0.54157,1.55485,-0.23363,0.1104,1.27602,0.17484,0.76782,1.34411,-0.48502,0.08394,1.38037,0.09995,1.01023,1.25805
2084,0.03248,0.35695,1.5667,0.14537,0.61642,0.14784,0.4148,0.44963,0.53544,0.03415,0.66601,0.55538,0.39509,0.83988,0.70632,0.10437,0.50414,0.96562,0.25386,0.5867,1.0371,-0.01996,0.22907,1.46518,0.14297,0.54245,1.55852,-0.24568,0.10856,1.29303,0.18196,0.76505,1.34604,-0.49068,0.10487,1.41447,0.13334,1.0088,1.24603
2085,0.0303,0.35501,1.56993,0.14733,0.6146,0.14693,0.44138,0.4856,0.5741,0.03276,0.65319,0.55473,0.38256,0.87716,0.73253,0.10766,0.50373,0.96883,0.24927,0.59645,1.04382,-0.02003,0.22494,1.46928,0.13617,0.54303,1.56152,-0.25775,0.10838,1.31113,0.18992,0.76163,1.3481,-0.49405,0.12812,1.44735,0.16533,1.00374,1.23607
2086,0.0281,0.35348,1.57304,0.14857,0.61359,0.14643,0.4655,0.52403,0.61222,0.03186,0.64048,0.55457,0.36595,0.91202,0.75862,0.11112,0.50417,0.97238,0.24407,0.60651,1.05064,-0.02047,0.22144,1.47334,0.13008,0.54272,1.56388,-0.27009,0.11017,1.33044,0.19887,0.757,1.3504,-0.49556,0.15281,1.47919,0.19709,0.9955,1.22837
2087,0.02561,0.35237,1.5758,0.14911,0.61339,0.14654,0.48757,0.56525,0.64956,0.03149,0.6284,0.55502,0.3462,0.94408,0.78517,0.11462,0.5056,0.97626,0.23809,0.61659,1.05817,-0.02148,0.21876,1.47727,0.12479,0.54162,1.56565,-0.28272,0.11451,1.35079,0.20943,0.75042,1.35244,-0.49559,0.17882,1.50996,0.22987,0.98406,1.22294
2088,0.02282,0.3517,1.57804,0.14927,0.61404,0.14712,0.50957,0.61047,0.6867,0.03202,0.61725,0.55597,0.32478,0.97351,0.81292,0.11822,0.50767,0.98023,0.23126,0.62635,1.06629,-0.02294,0.21646,1.48128,0.12028,0.54044,1.56674,-0.29517,0.12178,1.37157,0.22172,0.74186,1.35376,-0.494,0.20622,1.53926,0.26356,0.9699,1.2195
2089,0.02005,0.35132,1.57981,0.14927,0.6155,0.1478,0.53221,0.66144,0.72445,0.03395,0.60713,0.55713,0.30235,1.00081,0.84223,0.12195,0.50998,0.98404,0.22407,0.63537,1.07416,-0.02463,0.21403,1.4855,0.11669,0.53944,1.56712,-0.30687,0.13191,1.39218,0.23463,0.73219,1.35462,-0.49059,0.23478,1.56668,0.29673,0.95391,1.21764
2090,0.01758,0.35104,1.58136,0.14918,0.61751,0.14829,0.55378,0.71896,0.76338,0.03747,0.59807,0.55825,0.2787,1.02585,0.87306,0.12561,0.51242,0.98758,0.21757,0.64313,1.08102,-0.02653,0.21177,1.48975,0.11407,0.53817,1.56703,-0.31748,0.14466,1.4126,0.24676,0.72233,1.35562,-0.48547,0.26424,1.59222,0.32781,0.93675,1.21694
2091,0.01542,0.35084,1.58285,0.14922,0.61985,0.14864,0.57146,0.7813,0.80371,0.04221,0.59011,0.55923,0.25403,1.04749,0.90501,0.12881,0.51504,0.99085,0.21282,0.64915,1.08692,-0.02891,0.21088,1.49377,0.11241,0.53615,1.56684,-0.3269,0.15973,1.43297,0.25774,0.71211,1.35675,-0.4788,0.29461,1.61605,0.35632,0.91839,1.21709
2092,0.01326,0.35091,1.58418,0.14981,0.6224,0.14907,0.58331,0.84499,0.8451,0.04755,0.58335,0.56008,0.22956,1.06453,0.93753,0.13129,0.51773,0.9938,0.20968,0.65335,1.09245,-0.03205,0.21219,1.49756,0.11156,0.53363,1.56674,-0.33514,0.17671,1.45301,0.26803,0.70076,1.35745,-0.47051,0.32576,1.63806,0.3829,0.89847,1.21784
2093,0.01073,0.35168,1.58505,0.15151,0.62511,0.14964,0.58889,0.90762,0.88639,0.05318,0.5779,0.56076,0.20648,1.07698,0.96986,0.13313,0.51997,0.99629,0.20678,0.65615,1.09779,-0.03598,0.21516,1.50132,0.11091,0.53147,1.56663,-0.34234,0.19525,1.47205,0.27779,0.68838,1.35746,-0.46074,0.35711,1.65797,0.40793,0.87704,1.21873
2094,0.00771,0.35357,1.58526,0.15459,0.62803,0.15011,0.5888,0.97012,0.92628,0.05935,0.57385,0.5611,0.18527,1.086,1.00123,0.13472,0.52132,0.99813,0.20273,0.65831,1.10243,-0.04055,0.21834,1.50526,0.10961,0.53051,1.56633,-0.34854,0.21529,1.48966,0.28686,0.67599,1.35744,-0.45006,0.38797,1.67583,0.43116,0.85479,1.21965
2095,0.00442,0.35656,1.58499,0.15895,0.63121,0.15018,0.58368,1.03553,0.96469,0.06644,0.57142,0.56101,0.16637,1.09284,1.03137,0.13656,0.52202,0.99927,0.1975,0.66049,1.10597,-0.04555,0.22076,1.50937,0.10739,0.53082,1.5657,-0.35352,0.23668,1.50567,0.29536,0.66418,1.3581,-0.43881,0.41786,1.6919,0.45252,0.83239,1.22104
2096,0.0012,0.36017,1.58459,0.16429,0.63454,0.14975,0.57351,1.10548,1.00343,0.07442,0.57081,0.56058,0.15094,1.09815,1.06055,0.13894,0.52285,0.99986,0.19223,0.66289,1.10858,-0.05083,0.22251,1.51358,0.10478,0.53166,1.56466,-0.357,0.25896,1.51982,0.30354,0.65251,1.35947,-0.42677,0.44654,1.70618,0.47226,0.8099,1.2233
2097,-0.00179,0.36381,1.58426,0.1701,0.63798,0.14899,0.5573,1.17851,1.04506,0.08287,0.57193,0.56002,0.14002,1.1022,1.08913,0.14156,0.52462,1.00019,0.18807,0.66553,1.11088,-0.05635,0.22417,1.51776,0.10251,0.53241,1.5633,-0.35899,0.28181,1.53169,0.31148,0.64045,1.36113,-0.41346,0.47392,1.71854,0.49074,0.78728,1.22665
2098,-0.00462,0.36711,1.58392,0.1758,0.64164,0.14815,0.53302,1.25076,1.08975,0.09139,0.57429,0.55956,0.13312,1.10509,1.11695,0.14373,0.52777,1.00061,0.18545,0.66838,1.11357,-0.06228,0.22623,1.52135,0.10114,0.53308,1.56195,-0.35972,0.30529,1.54103,0.31912,0.62803,1.36273,-0.39841,0.50017,1.72894,0.50837,0.76467,1.23123
2099,-0.00724,0.3702,1.58335,0.1811,0.64543,0.14741,0.49855,1.31824,1.13308,0.09976,0.57747,0.55934,0.12839,1.10667,1.1433,0.14478,0.53197,1.00131,0.184,0.67115,1.1169,-0.06877,0.22928,1.52351,0.10104,0.53398,1.56089,-0.35937,0.32957,1.54805,0.32644,0.61565,1.36406,-0.38143,0.52549,1.73755,0.52528,0.74207,1.23655
2100,-0.00962,0.37384,1.58229,0.18595,0.64895,0.14667,0.45329,1.37888,1.16986,0.10777,0.58118,0.55924,0.12488,1.10681,1.16759,0.14454,0.53624,1.00203,0.18289,0.67337,1.12033,-0.07547,0.23428,1.52397,0.1022,0.53501,1.55998,-0.35796,0.35455,1.55301,0.33348,0.60362,1.36499,-0.3629,0.54962,1.7446,0.54101,0.71925,1.24115
2101,-0.01195,0.37869,1.5806,0.19023,0.65186,0.14579,0.40066,1.43002,1.20107,0.1151,0.58529,0.55912,0.12375,1.10587,1.18959,0.14345,0.53973,1.00246,0.18149,0.67493,1.12306,-0.08165,0.24189,1.52344,0.10418,0.53567,1.55896,-0.3555,0.37993,1.55595,0.34025,0.59195,1.36577,-0.34389,0.57198,1.75029,0.55491,0.69626,1.24404
2102,-0.01445,0.38445,1.57855,0.19375,0.65421,0.14497,0.35157,1.4663,1.23091,0.12145,0.58987,0.55916,0.12642,1.10478,1.20881,0.14225,0.54254,1.00274,0.18016,0.67637,1.12491,-0.08692,0.25136,1.52279,0.10639,0.53553,1.55783,-0.3521,0.40509,1.55684,0.34652,0.58054,1.3667,-0.32543,0.59207,1.7546,0.56676,0.67359,1.24581
2103,-0.0171,0.38988,1.57668,0.19647,0.65645,0.14463,0.31725,1.48658,1.25699,0.12669,0.59503,0.55969,0.13144,1.10406,1.22484,0.14121,0.54528,1.00325,0.17986,0.67816,1.12621,-0.09153,0.2609,1.52223,0.10868,0.5344,1.55673,-0.34776,0.4292,1.55584,0.352,0.56936,1.36754,-0.3078,0.60987,1.75719,0.57697,0.65163,1.24755
2104,-0.01979,0.39393,1.57537,0.19857,0.65911,0.14477,0.29757,1.49553,1.27402,0.13085,0.60062,0.5606,0.13493,1.10292,1.23811,0.13982,0.54788,1.00396,0.18087,0.67976,1.12722,-0.09604,0.26908,1.52152,0.11128,0.53221,1.55558,-0.34243,0.45182,1.55318,0.35661,0.55833,1.36757,-0.29067,0.62575,1.75777,0.58605,0.63043,1.24953
2105,-0.02275,0.39659,1.57456,0.20024,0.6626,0.14507,0.28639,1.49653,1.28187,0.13406,0.60645,0.56146,0.13387,1.09964,1.24872,0.13755,0.54936,1.00436,0.18281,0.67954,1.12796,-0.10098,0.27555,1.52039,0.11426,0.52914,1.55427,-0.3361,0.47306,1.54889,0.36046,0.54728,1.36646,-0.27377,0.64006,1.75628,0.59405,0.60994,1.2512
2106,-0.02624,0.39872,1.57396,0.2016,0.66687,0.14527,0.28044,1.49061,1.28418,0.13661,0.61242,0.56208,0.12807,1.09323,1.25663,0.13473,0.54919,1.00416,0.18579,0.67642,1.12857,-0.10676,0.28069,1.51858,0.11738,0.52577,1.55307,-0.32905,0.49306,1.54289,0.3636,0.53616,1.36469,-0.25704,0.65289,1.75278,0.60067,0.59037,1.25229
2107,-0.02995,0.40122,1.57333,0.20283,0.67156,0.14547,0.27944,1.47964,1.28429,0.1388,0.61839,0.56259,0.12003,1.08469,1.26231,0.13248,0.54858,1.00363,0.19072,0.67144,1.12928,-0.11349,0.28528,1.51587,0.12041,0.52296,1.55254,-0.32176,0.51189,1.53535,0.36607,0.52536,1.36316,-0.24054,0.66422,1.74745,0.60583,0.57193,1.25305
2108,-0.03299,0.40448,1.57272,0.20413,0.67622,0.14572,0.28435,1.46695,1.28367,0.14075,0.62414,0.56308,0.11367,1.07652,1.266,0.1318,0.54927,1.00325,0.19803,0.66681,1.13001,-0.12068,0.29014,1.5123,0.12333,0.52138,1.55298,-0.31451,0.52958,1.5267,0.36795,0.51565,1.36234,-0.22426,0.67422,1.74052,0.6096,0.5547,1.25343
2109,-0.03477,0.40806,1.57241,0.20563,0.68048,0.14591,0.29804,1.45443,1.28192,0.14226,0.62945,0.5634,0.11212,1.07089,1.26724,0.13261,0.55157,1.00302,0.20657,0.66367,1.13045,-0.12724,0.29569,1.50833,0.12602,0.52104,1.55416,-0.3071,0.54605,1.51712,0.36925,0.50754,1.36213,-0.20827,0.68317,1.7321,0.61182,0.53865,1.25273
2110,-0.03553,0.41106,1.57268,0.20732,0.68394,0.14579,0.32318,1.44104,1.27894,0.14307,0.63402,0.56328,0.11584,1.06859,1.26589,0.13401,0.55446,1.00262,0.21406,0.66181,1.13045,-0.13225,0.30168,1.5047,0.12807,0.52098,1.55545,-0.29901,0.56109,1.50638,0.36993,0.50074,1.36228,-0.19294,0.69134,1.72218,0.61227,0.52368,1.25037
2111,-0.03595,0.413,1.5735,0.20891,0.68609,0.14519,0.35732,1.42529,1.27591,0.14319,0.63749,0.56261,0.12266,1.06943,1.26268,0.13501,0.55727,1.00184,0.21869,0.66114,1.13022,-0.13576,0.3077,1.502,0.12904,0.51986,1.55621,-0.28993,0.57468,1.49416,0.37021,0.49434,1.36281,-0.17869,0.69888,1.71092,0.61116,0.50983,1.2467
2112,-0.03648,0.41433,1.57451,0.21017,0.6866,0.14416,0.39251,1.4077,1.27326,0.1429,0.63983,0.56154,0.12874,1.07291,1.25816,0.13511,0.5603,1.00091,0.2202,0.66224,1.12991,-0.13863,0.31368,1.50022,0.129,0.51688,1.55621,-0.27988,0.58711,1.48046,0.37049,0.4876,1.36374,-0.16556,0.70588,1.69866,0.60933,0.49735,1.24275
2113,-0.03722,0.41608,1.57519,0.21117,0.68556,0.14294,0.42128,1.39009,1.27031,0.14234,0.6413,0.56034,0.13071,1.07844,1.25226,0.13413,0.56393,1.00009,0.21919,0.66547,1.12942,-0.14183,0.31958,1.49903,0.12853,0.51239,1.55577,-0.2692,0.59846,1.46572,0.3709,0.48049,1.36483,-0.15318,0.71226,1.68566,0.60737,0.48647,1.23903
2114,-0.03828,0.41865,1.57529,0.2121,0.68343,0.14174,0.44139,1.37363,1.26677,0.14148,0.64216,0.55914,0.12828,1.0849,1.24495,0.13206,0.56767,0.99936,0.21638,0.66998,1.12858,-0.14608,0.3249,1.4982,0.12821,0.50763,1.55557,-0.25861,0.60805,1.45053,0.37108,0.47335,1.36568,-0.14147,0.7178,1.67193,0.60517,0.47721,1.23544
2115,-0.03982,0.42154,1.57507,0.21299,0.68089,0.14055,0.45534,1.35853,1.26219,0.14023,0.64258,0.55787,0.12446,1.09068,1.23657,0.12928,0.57055,0.99847,0.21284,0.67388,1.12736,-0.1515,0.3292,1.49749,0.12831,0.50391,1.55613,-0.24904,0.61507,1.43525,0.37039,0.46641,1.36584,-0.1308,0.72234,1.65729,0.60254,0.46935,1.23214
2116,-0.04178,0.42413,1.57503,0.21365,0.67841,0.13933,0.46759,1.34418,1.25536,0.13852,0.64269,0.55646,0.12277,1.09476,1.22761,0.12655,0.57198,0.99724,0.21,0.67584,1.12577,-0.15724,0.33288,1.49641,0.12875,0.50196,1.55727,-0.24091,0.61961,1.41965,0.36869,0.45997,1.36522,-0.12149,0.72596,1.64149,0.59968,0.46288,1.22953
2117,-0.04384,0.42633,1.57544,0.21416,0.67602,0.13815,0.48159,1.32908,1.24546,0.13636,0.64256,0.55498,0.12468,1.09723,1.21829,0.12451,0.572,0.99579,0.2086,0.67592,1.12386,-0.16203,0.33694,1.49464,0.12931,0.50153,1.55827,-0.23394,0.62255,1.40318,0.36655,0.45449,1.36405,-0.11341,0.72892,1.6244,0.59698,0.45834,1.22743
2118,-0.04568,0.42852,1.57614,0.21482,0.6737,0.13716,0.49811,1.31177,1.23273,0.13396,0.64236,0.55357,0.12951,1.09862,1.20853,0.12295,0.57098,0.99427,0.20824,0.67467,1.12173,-0.16527,0.34198,1.49242,0.12992,0.50165,1.55858,-0.22768,0.62437,1.38535,0.36466,0.45015,1.36246,-0.10642,0.73129,1.60591,0.59469,0.45585,1.22523
2119,-0.04711,0.43083,1.57684,0.21569,0.67168,0.13631,0.51592,1.29174,1.21741,0.1316,0.64212,0.55221,0.13596,1.09904,1.19806,0.12098,0.56927,0.99267,0.20812,0.67234,1.11938,-0.16716,0.34756,1.49018,0.13054,0.50159,1.5582,-0.22169,0.62452,1.36596,0.36318,0.44676,1.36049,-0.10081,0.73297,1.58598,0.59261,0.45475,1.22239
2120,-0.04801,0.433,1.57752,0.21649,0.67025,0.13549,0.53401,1.26892,1.19905,0.12935,0.64168,0.55083,0.14325,1.09854,1.18672,0.1179,0.56722,0.99101,0.20784,0.66913,1.11669,-0.16793,0.35281,1.48821,0.13091,0.50149,1.55748,-0.21519,0.62199,1.34531,0.36182,0.44407,1.35848,-0.09683,0.734,1.56492,0.59025,0.45404,1.21884
2121,-0.04838,0.43467,1.57835,0.21715,0.6694,0.13472,0.55239,1.2436,1.17715,0.127,0.6409,0.54943,0.15159,1.09788,1.17462,0.1138,0.56518,0.98934,0.20717,0.66586,1.1135,-0.1677,0.35724,1.48653,0.13081,0.50178,1.55682,-0.20725,0.6166,1.32443,0.36034,0.44203,1.3569,-0.09413,0.73484,1.54353,0.58736,0.45341,1.2151
2122,-0.04842,0.43587,1.57939,0.21786,0.66882,0.13399,0.57104,1.21745,1.15194,0.1245,0.63995,0.54796,0.16174,1.09803,1.16173,0.10927,0.56344,0.98767,0.20594,0.6635,1.10981,-0.16696,0.36104,1.4849,0.13038,0.50239,1.55649,-0.1979,0.60929,1.30456,0.35872,0.44072,1.3558,-0.09206,0.73601,1.52256,0.58435,0.454,1.21195
2123,-0.04824,0.43692,1.5805,0.21875,0.66822,0.13314,0.58922,1.19286,1.12408,0.12216,0.63916,0.54636,0.17391,1.09883,1.14777,0.10489,0.562,0.98588,0.20428,0.66205,1.10581,-0.16629,0.36455,1.48289,0.13002,0.50301,1.55659,-0.18848,0.60112,1.28629,0.35712,0.44011,1.35487,-0.09041,0.7376,1.50202,0.58171,0.45741,1.20984
2124,-0.04784,0.43822,1.58153,0.21965,0.66742,0.13213,0.60604,1.17043,1.09419,0.12029,0.63874,0.54471,0.18734,1.09905,1.13257,0.10075,0.56062,0.98397,0.20267,0.66054,1.10185,-0.16588,0.36765,1.4804,0.13001,0.50368,1.55697,-0.18068,0.5921,1.26942,0.35553,0.43979,1.3538,-0.08946,0.73916,1.48116,0.57944,0.46398,1.20869
2125,-0.04731,0.44011,1.58245,0.22029,0.66625,0.13109,0.62115,1.14831,1.06241,0.11878,0.63858,0.54322,0.20112,1.09775,1.11629,0.09659,0.55907,0.9821,0.2013,0.65828,1.09814,-0.1657,0.37011,1.47783,0.13051,0.50462,1.55734,-0.17549,0.58157,1.25356,0.35386,0.43934,1.35223,-0.08941,0.74006,1.45912,0.57705,0.47267,1.20781
2126,-0.04697,0.44276,1.58315,0.22045,0.66466,0.13019,0.63434,1.12468,1.02865,0.11721,0.63834,0.54197,0.21481,1.09511,1.0994,0.09232,0.55738,0.98044,0.20005,0.65553,1.0946,-0.16564,0.3722,1.47567,0.13162,0.50582,1.55737,-0.17303,0.56935,1.23863,0.35217,0.43892,1.34976,-0.09038,0.73999,1.4357,0.57434,0.48238,1.2065
2127,-0.04714,0.44597,1.5835,0.22009,0.66289,0.12945,0.64505,1.09993,0.99325,0.11535,0.63778,0.54093,0.22807,1.09193,1.08242,0.0882,0.55581,0.97908,0.19898,0.65314,1.09101,-0.16548,0.3746,1.47406,0.13316,0.50705,1.55689,-0.17309,0.55619,1.22491,0.35078,0.43912,1.34654,-0.09284,0.73934,1.41147,0.57171,0.49266,1.20478
2128,-0.0479,0.44931,1.58345,0.21938,0.66124,0.12876,0.65294,1.07567,0.95707,0.11332,0.63697,0.53996,0.24067,1.08875,1.06543,0.08453,0.55463,0.97793,0.19831,0.65149,1.08721,-0.16538,0.37761,1.47278,0.13463,0.50803,1.55591,-0.17508,0.54308,1.21272,0.35,0.44007,1.34327,-0.09763,0.739,1.38708,0.5694,0.50365,1.20328
2129,-0.04906,0.45238,1.58318,0.2187,0.65975,0.12799,0.65876,1.05266,0.92126,0.11124,0.63612,0.53885,0.25285,1.08503,1.04801,0.08134,0.55385,0.97677,0.19818,0.65003,1.0834,-0.16586,0.38075,1.47142,0.13546,0.50848,1.55461,-0.17805,0.53032,1.202,0.34965,0.44142,1.3405,-0.10474,0.7392,1.36256,0.5669,0.51584,1.20251
2130,-0.05056,0.45505,1.5829,0.21841,0.65805,0.12703,0.66371,1.03043,0.88627,0.10896,0.63533,0.53742,0.26521,1.07973,1.02999,0.07833,0.55335,0.97534,0.1985,0.64783,1.07977,-0.16733,0.38343,1.4696,0.1354,0.50827,1.55335,-0.18119,0.51784,1.19238,0.3491,0.44292,1.33822,-0.11279,0.73916,1.33771,0.56336,0.52957,1.20272
2131,-0.05243,0.45743,1.58265,0.21841,0.65573,0.12596,0.66805,1.00801,0.85135,0.10634,0.63454,0.53573,0.27816,1.07253,1.01165,0.07502,0.55299,0.97368,0.19894,0.64471,1.07615,-0.16974,0.38565,1.46732,0.13467,0.50769,1.5524,-0.1843,0.50587,1.18369,0.34791,0.44466,1.33612,-0.12024,0.73819,1.31295,0.55855,0.54457,1.2041
2132,-0.05462,0.45975,1.58226,0.21815,0.65268,0.12498,0.67086,0.9847,0.8155,0.10342,0.63366,0.53412,0.29142,1.06402,0.99331,0.07121,0.55259,0.97209,0.19921,0.64126,1.07223,-0.17284,0.38782,1.46507,0.13365,0.50721,1.55171,-0.18747,0.49467,1.17615,0.34629,0.44672,1.33412,-0.12676,0.73624,1.28902,0.55302,0.55993,1.20676
2133,-0.05681,0.46212,1.58159,0.21726,0.64927,0.12427,0.67112,0.96014,0.77864,0.10038,0.63257,0.5329,0.30441,1.05476,0.97475,0.06732,0.55187,0.97088,0.19936,0.63794,1.06798,-0.17634,0.39001,1.46346,0.13257,0.50701,1.55104,-0.19057,0.48368,1.16998,0.34466,0.44894,1.33226,-0.13362,0.73326,1.26617,0.5474,0.57476,1.21044
2134,-0.05874,0.46448,1.5807,0.21587,0.64617,0.12378,0.66874,0.93424,0.74151,0.09738,0.63128,0.53201,0.31679,1.04457,0.9556,0.064,0.55063,0.96998,0.19982,0.63457,1.06368,-0.17983,0.39205,1.46283,0.13151,0.50688,1.55029,-0.19336,0.47165,1.16519,0.34324,0.45117,1.33055,-0.1427,0.72857,1.24399,0.5417,0.58895,1.21476
2135,-0.06036,0.46679,1.57971,0.21447,0.64385,0.12325,0.66439,0.90716,0.70488,0.09464,0.63001,0.53113,0.32872,1.03297,0.93592,0.06145,0.54896,0.96904,0.20077,0.6307,1.0595,-0.18308,0.39411,1.46312,0.13048,0.5068,1.54949,-0.19566,0.45776,1.16162,0.34201,0.45351,1.32897,-0.15483,0.72129,1.22223,0.53532,0.6032,1.21943
2136,-0.06178,0.4692,1.57864,0.21354,0.64247,0.12257,0.65865,0.87951,0.66903,0.09227,0.62914,0.53004,0.34061,1.01977,0.91613,0.05933,0.54702,0.96777,0.20194,0.62623,1.05528,-0.18631,0.39656,1.46393,0.12945,0.50704,1.54863,-0.19735,0.44262,1.15919,0.34111,0.4561,1.32766,-0.16869,0.71131,1.20129,0.52758,0.61829,1.22424
2137,-0.06308,0.47178,1.57755,0.21317,0.64186,0.12189,0.65166,0.85187,0.63404,0.09029,0.62891,0.52889,0.35264,1.00521,0.89664,0.05704,0.545,0.96625,0.20288,0.62147,1.05085,-0.1899,0.39953,1.46458,0.12842,0.50763,1.54769,-0.19866,0.42827,1.15765,0.34072,0.45904,1.32681,-0.18191,0.70012,1.18215,0.51828,0.6343,1.22917
2138,-0.0643,0.47443,1.57656,0.21308,0.64159,0.1214,0.64318,0.82418,0.59997,0.08863,0.62921,0.52795,0.36467,0.98959,0.87738,0.0543,0.54323,0.96482,0.20343,0.61681,1.04619,-0.19385,0.40276,1.46433,0.12737,0.50832,1.5468,-0.20019,0.41692,1.15633,0.34077,0.46241,1.32641,-0.19304,0.69013,1.16563,0.5077,0.65076,1.23458
2139,-0.06558,0.477,1.57566,0.21293,0.64121,0.12107,0.63283,0.79574,0.56694,0.08729,0.62982,0.52728,0.37644,0.9731,0.85794,0.05138,0.54209,0.96368,0.20387,0.61255,1.04148,-0.19768,0.40586,1.46284,0.1263,0.50898,1.5461,-0.20241,0.40927,1.1545,0.34092,0.4664,1.32622,-0.20189,0.68272,1.15197,0.49625,0.66733,1.24093
2140,-0.06723,0.47937,1.57465,0.21267,0.64051,0.12077,0.62031,0.76598,0.53519,0.08622,0.63066,0.52677,0.38753,0.95581,0.83795,0.04889,0.54162,0.96278,0.20471,0.60872,1.03687,-0.20094,0.40874,1.46039,0.12512,0.50976,1.54549,-0.20523,0.4041,1.15206,0.34094,0.4713,1.32604,-0.20923,0.6773,1.14068,0.48419,0.68399,1.24846
2141,-0.06932,0.48147,1.57343,0.21242,0.63962,0.12054,0.60554,0.735,0.50504,0.08521,0.63167,0.52634,0.39747,0.93754,0.81739,0.04732,0.54135,0.96204,0.20627,0.60493,1.03252,-0.2035,0.41166,1.45755,0.12369,0.51072,1.54486,-0.20833,0.3994,1.14944,0.34088,0.47732,1.32592,-0.2163,0.67212,1.13092,0.47174,0.70072,1.25706
2142,-0.07157,0.48344,1.57206,0.2123,0.63894,0.12049,0.58881,0.70355,0.47685,0.08401,0.63287,0.52598,0.40577,0.91823,0.79668,0.04669,0.54079,0.96137,0.20842,0.60082,1.02855,-0.20559,0.41486,1.45476,0.12212,0.51161,1.54428,-0.21151,0.39369,1.14715,0.34086,0.48418,1.32606,-0.22417,0.6657,1.12202,0.45928,0.71699,1.26648
2143,-0.07367,0.48557,1.57052,0.21215,0.6389,0.12055,0.57073,0.67272,0.45103,0.08256,0.63434,0.52565,0.41232,0.89823,0.77651,0.04668,0.53986,0.96064,0.21077,0.59644,1.02503,-0.20743,0.41818,1.45225,0.12074,0.51229,1.54387,-0.21461,0.3867,1.14555,0.34107,0.49111,1.32656,-0.23318,0.6577,1.11402,0.44712,0.73201,1.27658
2144,-0.07558,0.48802,1.56873,0.21191,0.63949,0.1205,0.55205,0.64345,0.42775,0.08105,0.63613,0.5252,0.41735,0.87801,0.75747,0.04695,0.53875,0.95969,0.21296,0.59206,1.0219,-0.20904,0.42121,1.45017,0.11985,0.513,1.54346,-0.21737,0.3791,1.14478,0.34177,0.4976,1.32729,-0.24321,0.64874,1.10724,0.43501,0.74554,1.28717
2145,-0.07741,0.49059,1.56667,0.21174,0.64016,0.12026,0.53306,0.61581,0.40663,0.07973,0.6382,0.52459,0.4211,0.85757,0.73964,0.04733,0.53741,0.95844,0.2149,0.5876,1.01904,-0.21037,0.42382,1.4484,0.11934,0.51405,1.54282,-0.21963,0.37176,1.14457,0.34316,0.50382,1.32829,-0.25383,0.63967,1.10169,0.42242,0.75792,1.29787
2146,-0.07914,0.49308,1.56442,0.21171,0.64032,0.11996,0.51343,0.58898,0.38702,0.07874,0.64044,0.52399,0.42371,0.83645,0.72256,0.04776,0.53567,0.95699,0.21673,0.58272,1.01623,-0.21149,0.42625,1.44651,0.11888,0.51548,1.54188,-0.2215,0.36526,1.14437,0.3453,0.51013,1.32993,-0.26424,0.63119,1.09701,0.40941,0.76937,1.30841
2147,-0.08077,0.49546,1.56202,0.21163,0.6397,0.11968,0.49288,0.56205,0.36864,0.0781,0.64272,0.52351,0.42527,0.81434,0.70578,0.04822,0.53362,0.95552,0.21859,0.57732,1.01329,-0.21244,0.42883,1.44405,0.11824,0.51715,1.54075,-0.2233,0.35987,1.14366,0.34812,0.51654,1.33249,-0.27352,0.62387,1.093,0.39671,0.77966,1.31879
2148,-0.0823,0.49782,1.5594,0.21108,0.63843,0.11928,0.47161,0.53484,0.35164,0.0777,0.64487,0.52312,0.42581,0.79144,0.68919,0.04863,0.53165,0.95413,0.22047,0.57169,1.01014,-0.21327,0.43173,1.44091,0.11747,0.51891,1.53954,-0.22532,0.35537,1.14236,0.35128,0.52298,1.33575,-0.28146,0.61778,1.08971,0.38473,0.78871,1.32898
2149,-0.08373,0.5001,1.55662,0.20997,0.63674,0.11871,0.4501,0.50752,0.33622,0.07743,0.64682,0.52275,0.42516,0.76807,0.67293,0.04893,0.52994,0.95282,0.22223,0.56622,1.0069,-0.21398,0.43485,1.43734,0.11673,0.52073,1.53842,-0.22749,0.3513,1.14078,0.35435,0.52958,1.33924,-0.28867,0.61239,1.08716,0.37322,0.79683,1.33897
2150,-0.08505,0.5023,1.55386,0.20867,0.63486,0.1181,0.42881,0.48019,0.32242,0.07713,0.64854,0.52237,0.42305,0.74432,0.65721,0.04926,0.52845,0.95159,0.22384,0.56098,1.00387,-0.21449,0.43784,1.4338,0.11613,0.52248,1.53762,-0.22951,0.34743,1.13933,0.3571,0.53656,1.34281,-0.29573,0.60719,1.08525,0.36183,0.80436,1.3491
2151,-0.08618,0.5045,1.55128,0.20753,0.63301,0.11764,0.40797,0.45296,0.31013,0.07664,0.65011,0.52198,0.4192,0.72018,0.64232,0.04983,0.52705,0.95043,0.22549,0.55574,1.00135,-0.21449,0.44032,1.43062,0.11567,0.52397,1.53712,-0.23134,0.344,1.13814,0.35966,0.54388,1.34663,-0.30261,0.60237,1.08381,0.35044,0.81131,1.35979
2152,-0.08693,0.50666,1.54884,0.20651,0.63151,0.11733,0.38752,0.42629,0.29918,0.07597,0.65173,0.52164,0.41375,0.696,0.6285,0.05079,0.52553,0.94927,0.22733,0.55019,0.99924,-0.21374,0.44232,1.42779,0.11527,0.52506,1.53667,-0.2334,0.34136,1.13706,0.36222,0.55138,1.35081,-0.3091,0.59847,1.08275,0.33902,0.81752,1.371
2153,-0.08712,0.50863,1.54636,0.20556,0.63064,0.11718,0.36736,0.40069,0.28937,0.07534,0.65356,0.52145,0.40746,0.67221,0.61579,0.052,0.5236,0.94806,0.22933,0.54426,0.99706,-0.21248,0.44425,1.42504,0.11489,0.52591,1.53601,-0.23604,0.33963,1.13589,0.36473,0.55897,1.35516,-0.31534,0.59578,1.08219,0.32754,0.82293,1.38195
2154,-0.0868,0.51054,1.54368,0.20493,0.63049,0.11728,0.34754,0.37638,0.2804,0.0749,0.65544,0.52149,0.40114,0.64887,0.60406,0.05324,0.52131,0.9469,0.23137,0.53812,0.99442,-0.21134,0.44637,1.4222,0.1146,0.52682,1.53505,-0.23905,0.3387,1.13454,0.36711,0.56656,1.35933,-0.3216,0.59414,1.08242,0.31618,0.82759,1.39169
2155,-0.08636,0.51267,1.54072,0.20476,0.63081,0.11759,0.32818,0.3533,0.27188,0.07454,0.65712,0.52165,0.39476,0.62574,0.59316,0.05437,0.51904,0.94587,0.23334,0.53193,0.99142,-0.21068,0.44861,1.41937,0.11457,0.52786,1.53387,-0.24175,0.33834,1.13305,0.36942,0.574,1.36316,-0.32772,0.59315,1.08344,0.30532,0.83152,1.39994
2156,-0.08633,0.51505,1.53759,0.20475,0.63117,0.1179,0.30943,0.33126,0.26363,0.07423,0.65863,0.52179,0.38776,0.60266,0.58315,0.05535,0.51708,0.94492,0.23509,0.52569,0.9884,-0.21035,0.45081,1.41666,0.11491,0.52878,1.53251,-0.24381,0.33844,1.13142,0.37178,0.5814,1.36676,-0.33318,0.59267,1.08486,0.29515,0.8349,1.40729
2157,-0.08691,0.51734,1.53448,0.20451,0.6313,0.11807,0.29137,0.31016,0.25568,0.07411,0.66017,0.5219,0.37977,0.57973,0.57412,0.05619,0.51533,0.94396,0.23654,0.51925,0.98557,-0.21011,0.45295,1.41403,0.11553,0.52907,1.53105,-0.24554,0.339,1.12965,0.37403,0.589,1.3704,-0.33748,0.59285,1.0862,0.28538,0.83797,1.41435
2158,-0.08781,0.51916,1.53153,0.20402,0.63125,0.1182,0.27391,0.29004,0.24795,0.07431,0.66171,0.52213,0.37089,0.55706,0.56603,0.05688,0.51345,0.94302,0.23767,0.51249,0.98285,-0.20994,0.4552,1.41139,0.11614,0.5284,1.52959,-0.24747,0.33991,1.12783,0.37573,0.59682,1.37419,-0.34056,0.59385,1.08741,0.27549,0.84082,1.42101
2159,-0.08846,0.52047,1.52878,0.20349,0.63111,0.11833,0.25683,0.27096,0.24026,0.07485,0.66302,0.52249,0.36134,0.53466,0.55873,0.0574,0.51121,0.94212,0.23851,0.50546,0.98007,-0.20979,0.45768,1.40873,0.11655,0.52686,1.52822,-0.24989,0.341,1.12609,0.37657,0.60451,1.37796,-0.34266,0.59553,1.08874,0.2654,0.84331,1.42691
2160,-0.08849,0.52145,1.52625,0.20306,0.63081,0.11833,0.24006,0.2529,0.23265,0.07587,0.6639,0.52286,0.35126,0.51258,0.55216,0.05772,0.50858,0.94117,0.23901,0.49833,0.9772,-0.20951,0.46035,1.4061,0.1169,0.52489,1.52704,-0.25266,0.34219,1.12453,0.37671,0.6117,1.3815,-0.34416,0.59762,1.09029,0.25553,0.84522,1.4321
2161,-0.08791,0.52221,1.52396,0.20259,0.63023,0.11808,0.22374,0.23593,0.2253,0.07748,0.66441,0.52317,0.34069,0.49116,0.54634,0.05782,0.50564,0.9401,0.23918,0.49118,0.97431,-0.20903,0.46311,1.40349,0.11753,0.52299,1.52613,-0.25554,0.34367,1.12299,0.37669,0.61824,1.38476,-0.3454,0.60009,1.09201,0.24611,0.8463,1.43684
2162,-0.08685,0.52283,1.52186,0.20197,0.62937,0.11771,0.20816,0.2203,0.21823,0.07957,0.66468,0.52354,0.32957,0.47086,0.54128,0.05772,0.50232,0.93898,0.23903,0.48387,0.97151,-0.20832,0.46575,1.40078,0.1186,0.52148,1.52546,-0.25843,0.3458,1.12112,0.37696,0.62404,1.3878,-0.34663,0.60323,1.094,0.23694,0.84611,1.44125
2163,-0.08542,0.52343,1.51979,0.20128,0.62845,0.11752,0.19352,0.20613,0.21128,0.08178,0.66468,0.52412,0.31783,0.4518,0.53697,0.05746,0.49847,0.93791,0.23861,0.47622,0.96893,-0.20734,0.46798,1.39795,0.1199,0.52043,1.52492,-0.26141,0.34875,1.11872,0.37761,0.62877,1.39053,-0.34773,0.60729,1.09658,0.22824,0.8443,1.44543
2164,-0.08383,0.52396,1.51757,0.20072,0.62776,0.11755,0.17983,0.19326,0.2044,0.0838,0.66417,0.52489,0.30554,0.43385,0.53333,0.05705,0.49408,0.93693,0.23794,0.46815,0.9666,-0.20616,0.46956,1.39503,0.12108,0.51941,1.52436,-0.2645,0.3523,1.11583,0.37842,0.63207,1.39282,-0.3485,0.61207,1.10005,0.2206,0.84099,1.44959
2165,-0.08234,0.52423,1.51521,0.20036,0.62742,0.11752,0.16702,0.18147,0.19766,0.08561,0.66294,0.52555,0.29303,0.41701,0.53011,0.05649,0.48927,0.93595,0.23703,0.45968,0.96428,-0.20497,0.47058,1.39198,0.12203,0.51775,1.52363,-0.26764,0.35618,1.11252,0.37909,0.63405,1.39473,-0.34897,0.61715,1.10442,0.21428,0.83689,1.45364
2166,-0.08114,0.52413,1.51282,0.20023,0.62723,0.11717,0.15495,0.1706,0.1911,0.0874,0.66098,0.52588,0.28078,0.40139,0.52693,0.0558,0.48407,0.93471,0.23591,0.45083,0.96168,-0.20386,0.47137,1.38874,0.12293,0.51519,1.52261,-0.27075,0.36044,1.10886,0.37951,0.63531,1.39629,-0.349,0.62248,1.10927,0.20919,0.83297,1.45714
2167,-0.08019,0.52382,1.51047,0.20043,0.62684,0.11649,0.14336,0.16057,0.18469,0.08929,0.6585,0.52584,0.26901,0.38686,0.52364,0.05506,0.47832,0.93302,0.2347,0.44169,0.9587,-0.20275,0.47228,1.38547,0.12395,0.51229,1.5213,-0.27369,0.36521,1.10509,0.3798,0.63631,1.39729,-0.34806,0.62822,1.11397,0.20519,0.82969,1.45971
2168,-0.0793,0.52347,1.50822,0.20087,0.62599,0.11566,0.13196,0.1515,0.17844,0.09126,0.65576,0.52556,0.25764,0.37326,0.52036,0.05438,0.47202,0.93091,0.23354,0.43243,0.95554,-0.20166,0.47351,1.38241,0.12514,0.5097,1.51973,-0.27622,0.37033,1.10152,0.38024,0.63695,1.39747,-0.34583,0.63427,1.1181,0.20222,0.82672,1.46127
2169,-0.0781,0.52293,1.50613,0.20115,0.62476,0.11475,0.12079,0.14361,0.17245,0.09328,0.65272,0.52523,0.24659,0.36064,0.51735,0.05378,0.46547,0.92873,0.23244,0.42321,0.95249,-0.20066,0.4749,1.37968,0.12661,0.50728,1.51793,-0.27832,0.37557,1.09824,0.38113,0.63683,1.39689,-0.34272,0.64032,1.12156,0.20018,0.82338,1.46192
2170,-0.07638,0.52197,1.50419,0.20092,0.62331,0.11376,0.11009,0.1372,0.16679,0.09532,0.64914,0.52497,0.23601,0.34916,0.51478,0.05316,0.45893,0.92681,0.2313,0.4141,0.94978,-0.19979,0.47612,1.37724,0.12858,0.5043,1.51593,-0.28024,0.38101,1.09512,0.38254,0.6358,1.39581,-0.33936,0.64642,1.1243,0.19884,0.8193,1.46183
2171,-0.07428,0.52067,1.50227,0.2001,0.62154,0.11268,0.09988,0.13235,0.16142,0.09723,0.64489,0.52474,0.22618,0.33869,0.51263,0.0523,0.45257,0.92527,0.22987,0.40514,0.94742,-0.19909,0.47705,1.37494,0.13095,0.50047,1.51375,-0.28221,0.38697,1.09194,0.38413,0.63413,1.39436,-0.3358,0.65291,1.12645,0.19779,0.81464,1.46124
2172,-0.07212,0.51935,1.50025,0.19881,0.61923,0.11153,0.08992,0.12886,0.15612,0.09861,0.64019,0.52438,0.2174,0.32875,0.51063,0.05086,0.44662,0.92398,0.22776,0.39633,0.94513,-0.19854,0.47789,1.3726,0.13317,0.49624,1.5115,-0.28421,0.39358,1.08859,0.38532,0.63212,1.39242,-0.33143,0.65997,1.12854,0.19662,0.80976,1.46032
2173,-0.07003,0.51824,1.49814,0.19722,0.61656,0.11033,0.07998,0.1264,0.15056,0.09904,0.63545,0.52375,0.20961,0.31889,0.50837,0.04875,0.44129,0.92276,0.22481,0.38759,0.94256,-0.19789,0.47892,1.37016,0.13478,0.49205,1.50925,-0.28596,0.40064,1.08516,0.38584,0.62966,1.38987,-0.32597,0.66721,1.13124,0.19534,0.80483,1.45917
2174,-0.06788,0.51714,1.49609,0.19566,0.61406,0.1091,0.07023,0.12483,0.14443,0.09839,0.63105,0.52282,0.20231,0.30914,0.50563,0.04632,0.43645,0.92138,0.22134,0.37888,0.93949,-0.19682,0.48008,1.36776,0.13588,0.48772,1.50698,-0.28717,0.40771,1.08192,0.38595,0.6264,1.38675,-0.31998,0.67399,1.13482,0.19443,0.79974,1.45784
2175,-0.06556,0.51557,1.4942,0.19455,0.61207,0.10797,0.06121,0.12409,0.13768,0.09703,0.62716,0.52171,0.19493,0.29994,0.50248,0.04402,0.43149,0.91962,0.21796,0.37026,0.93606,-0.19531,0.48099,1.36565,0.13697,0.48278,1.50456,-0.2877,0.41458,1.07902,0.38613,0.62211,1.3832,-0.3143,0.68006,1.13898,0.19447,0.79447,1.45623
2176,-0.06315,0.51328,1.49248,0.19411,0.61061,0.10709,0.05337,0.12416,0.13066,0.09563,0.6237,0.52067,0.18742,0.29174,0.49921,0.04204,0.42587,0.91744,0.21503,0.3617,0.93258,-0.19358,0.4814,1.36395,0.13841,0.47699,1.50184,-0.28752,0.42157,1.07637,0.38672,0.61675,1.37927,-0.30906,0.68588,1.14316,0.19577,0.7891,1.45416
2177,-0.06088,0.51044,1.49079,0.19408,0.60967,0.1066,0.04663,0.1249,0.12406,0.09461,0.62053,0.52,0.18028,0.28476,0.49617,0.04021,0.41964,0.91512,0.21241,0.35319,0.92947,-0.19187,0.48143,1.36262,0.14021,0.47049,1.49888,-0.28664,0.42912,1.07385,0.38774,0.61044,1.37494,-0.30371,0.69206,1.14705,0.19815,0.7835,1.45163
2178,-0.0588,0.50744,1.48899,0.19391,0.60927,0.10653,0.04062,0.12597,0.11848,0.0937,0.61755,0.51982,0.17395,0.27893,0.49359,0.03831,0.41326,0.91305,0.20974,0.34477,0.92701,-0.19035,0.48131,1.36157,0.14229,0.46363,1.49598,-0.28532,0.43722,1.0715,0.38897,0.60343,1.37022,-0.29763,0.69864,1.15082,0.20087,0.77727,1.44879
2179,-0.05665,0.50443,1.48709,0.19335,0.60924,0.10683,0.03502,0.12702,0.11402,0.0924,0.61473,0.51999,0.16848,0.27396,0.49148,0.03629,0.40703,0.91132,0.20686,0.33643,0.92518,-0.18905,0.48101,1.36066,0.14452,0.45673,1.49347,-0.28406,0.4454,1.06944,0.39026,0.59598,1.36527,-0.29041,0.70509,1.15492,0.20331,0.7702,1.44572
2180,-0.05426,0.50116,1.48527,0.1925,0.60921,0.10735,0.02981,0.12789,0.11016,0.09056,0.61203,0.52029,0.16359,0.26935,0.4896,0.03419,0.40098,0.90979,0.20379,0.32808,0.92364,-0.18769,0.48032,1.35975,0.14665,0.45009,1.49136,-0.28314,0.4533,1.06775,0.39152,0.58815,1.36023,-0.28179,0.71086,1.15964,0.20533,0.76253,1.44212
2181,-0.05193,0.49732,1.48372,0.19154,0.60893,0.10793,0.0252,0.12843,0.10628,0.08837,0.60927,0.52057,0.15897,0.26455,0.48767,0.03202,0.39497,0.90829,0.20056,0.3196,0.92208,-0.18613,0.47907,1.35895,0.14823,0.44375,1.48943,-0.28236,0.46081,1.06652,0.39248,0.5798,1.35508,-0.27197,0.7158,1.1648,0.20709,0.7547,1.43764
2182,-0.05013,0.49286,1.48254,0.19048,0.6084,0.10836,0.02148,0.12842,0.10222,0.08602,0.60627,0.52067,0.15462,0.25928,0.48567,0.0298,0.38888,0.90669,0.19716,0.31096,0.9204,-0.18455,0.47727,1.3586,0.14897,0.43746,1.4875,-0.28128,0.46798,1.06591,0.39282,0.57066,1.34961,-0.26167,0.72006,1.1701,0.2088,0.74691,1.43238
2183,-0.04875,0.48804,1.48172,0.18933,0.6077,0.1086,0.01868,0.12775,0.09821,0.08365,0.60307,0.52059,0.15075,0.25366,0.48368,0.02747,0.38268,0.90491,0.19368,0.30234,0.91871,-0.18327,0.47515,1.35889,0.14908,0.43083,1.48548,-0.27957,0.47484,1.06591,0.39255,0.56059,1.34369,-0.25174,0.72375,1.17571,0.21076,0.73897,1.42684
2184,-0.04724,0.48306,1.48123,0.18803,0.60678,0.10886,0.01665,0.12649,0.09458,0.0814,0.59997,0.52056,0.14768,0.24802,0.48181,0.02495,0.37638,0.90299,0.19023,0.29419,0.91715,-0.18226,0.47303,1.35965,0.14908,0.4237,1.48328,-0.27722,0.48137,1.06635,0.39204,0.54976,1.33735,-0.24259,0.7267,1.18211,0.21318,0.73065,1.42139
2185,-0.04524,0.47804,1.48094,0.18642,0.60543,0.10924,0.01524,0.12477,0.09148,0.07949,0.59722,0.52085,0.1455,0.24261,0.48011,0.02225,0.37026,0.90117,0.18687,0.28683,0.91576,-0.18124,0.47104,1.36058,0.14932,0.41606,1.48092,-0.27442,0.48765,1.06707,0.39151,0.53855,1.33071,-0.23402,0.7289,1.18933,0.21581,0.72198,1.41593
2186,-0.04293,0.47309,1.48065,0.18444,0.60374,0.10967,0.01428,0.12263,0.08881,0.07819,0.59483,0.52143,0.14394,0.23745,0.47853,0.01948,0.36474,0.89964,0.18351,0.2802,0.9145,-0.17996,0.46901,1.36159,0.14995,0.40791,1.47859,-0.27138,0.49384,1.0681,0.39086,0.52719,1.32383,-0.22532,0.73067,1.19684,0.21828,0.71302,1.41019
2187,-0.04066,0.4683,1.48027,0.18228,0.60214,0.11,0.01354,0.12008,0.08634,0.07749,0.59255,0.52212,0.14256,0.23238,0.47701,0.0168,0.35985,0.89841,0.18004,0.27381,0.91329,-0.17844,0.4667,1.3627,0.15084,0.39913,1.47651,-0.26803,0.49989,1.06948,0.38998,0.51551,1.31687,-0.21589,0.73215,1.20408,0.2206,0.70377,1.4043
2188,-0.03863,0.46352,1.48001,0.18019,0.60089,0.11032,0.01279,0.1174,0.08393,0.07702,0.59011,0.52282,0.14097,0.22729,0.47556,0.01423,0.35504,0.8973,0.17651,0.26719,0.91215,-0.17694,0.46409,1.36385,0.1516,0.38981,1.47459,-0.26427,0.5054,1.07098,0.38882,0.50328,1.31006,-0.20577,0.73299,1.21084,0.22306,0.69418,1.39871
2189,-0.03687,0.45851,1.48005,0.1782,0.59979,0.11082,0.01195,0.1151,0.08164,0.07625,0.58739,0.52358,0.13914,0.22228,0.47435,0.01177,0.3498,0.89617,0.17313,0.2603,0.91123,-0.17565,0.46134,1.36486,0.15182,0.38036,1.47256,-0.26007,0.50993,1.07225,0.38738,0.4906,1.30352,-0.19559,0.73262,1.21729,0.22569,0.68428,1.39365
2190,-0.03529,0.45324,1.48035,0.17625,0.59866,0.11153,0.01111,0.11366,0.07968,0.07497,0.58444,0.5244,0.13733,0.21754,0.47358,0.00933,0.34421,0.89509,0.1699,0.25341,0.91075,-0.17447,0.45868,1.36563,0.15148,0.37117,1.4704,-0.25548,0.51323,1.07311,0.38576,0.47769,1.29725,-0.18593,0.73074,1.22356,0.22835,0.6741,1.38903
2191,-0.03364,0.44795,1.48068,0.17439,0.59761,0.11235,0.01047,0.11321,0.07825,0.07342,0.58137,0.52522,0.13595,0.2132,0.4734,0.00689,0.33874,0.89418,0.16666,0.24672,0.91089,-0.17312,0.45618,1.36628,0.15087,0.36221,1.46839,-0.25067,0.51538,1.07372,0.38399,0.46468,1.29126,-0.17693,0.72755,1.22971,0.23088,0.6637,1.38467
2192,-0.0317,0.44278,1.48102,0.17283,0.59669,0.11323,0.01021,0.11341,0.07739,0.07192,0.5783,0.52602,0.1352,0.20937,0.47369,0.00452,0.33377,0.89357,0.16332,0.24032,0.91154,-0.1715,0.45365,1.36721,0.15019,0.35329,1.46677,-0.24588,0.51726,1.07475,0.38201,0.45159,1.28561,-0.16803,0.72401,1.23593,0.23314,0.65314,1.38044
2193,-0.02951,0.43762,1.48159,0.17152,0.59583,0.11416,0.01029,0.11364,0.07693,0.07059,0.57534,0.52685,0.13497,0.20619,0.47414,0.00245,0.32925,0.89322,0.16016,0.23421,0.91237,-0.1697,0.4508,1.36889,0.14941,0.34441,1.46558,-0.24103,0.52018,1.07699,0.37958,0.43847,1.28012,-0.15836,0.72145,1.24264,0.2351,0.64257,1.37628
2194,-0.02738,0.43229,1.48268,0.17016,0.59506,0.11509,0.01055,0.11353,0.07667,0.06935,0.57245,0.5277,0.13493,0.20378,0.4745,0.00086,0.32487,0.893,0.15754,0.22833,0.91308,-0.16788,0.44741,1.37133,0.14845,0.33575,1.46482,-0.23569,0.52441,1.0805,0.37641,0.4253,1.27447,-0.14775,0.72017,1.24999,0.23682,0.63203,1.37221
2195,-0.02558,0.42679,1.48435,0.16858,0.59446,0.11595,0.01076,0.11314,0.07652,0.06813,0.56944,0.52851,0.13485,0.20203,0.47474,-0.00031,0.32039,0.89282,0.1555,0.22261,0.91362,-0.16625,0.44368,1.374,0.14741,0.32735,1.46449,-0.22974,0.52845,1.08436,0.37252,0.41197,1.26858,-0.13743,0.71885,1.2576,0.23839,0.62138,1.36825
2196,-0.02423,0.42132,1.48635,0.16691,0.59393,0.1167,0.01081,0.11277,0.07646,0.06704,0.5662,0.52922,0.13473,0.20057,0.47497,-0.00137,0.31596,0.89272,0.15367,0.21707,0.9141,-0.16493,0.44012,1.37643,0.14637,0.31915,1.46452,-0.22379,0.53049,1.08751,0.36833,0.39829,1.26281,-0.12895,0.71584,1.26481,0.24001,0.61041,1.36436
2197,-0.02326,0.41607,1.48824,0.16523,0.59332,0.11732,0.01062,0.11253,0.07644,0.06613,0.56288,0.52983,0.13466,0.19888,0.47524,-0.00256,0.31195,0.8928,0.15162,0.21181,0.91456,-0.16376,0.43716,1.37869,0.14532,0.31124,1.4648,-0.21861,0.53014,1.08981,0.36427,0.38411,1.25751,-0.1225,0.71073,1.27129,0.24197,0.59911,1.36045
2198,-0.02242,0.41098,1.48981,0.16362,0.59251,0.11781,0.01024,0.11222,0.07639,0.06533,0.5597,0.53034,0.13455,0.19657,0.47553,-0.00386,0.30856,0.89306,0.14928,0.20687,0.91501,-0.16257,0.43475,1.38102,0.14426,0.30377,1.46513,-0.21437,0.52838,1.09178,0.36055,0.36964,1.25277,-0.11709,0.70437,1.27712,0.24437,0.58758,1.35659
2199,-0.02145,0.40582,1.49118,0.16223,0.59148,0.1182,0.00981,0.11166,0.07632,0.06459,0.55669,0.53072,0.13412,0.19373,0.47594,-0.00516,0.30574,0.89348,0.14684,0.20239,0.91552,-0.16156,0.43253,1.38344,0.14324,0.29663,1.46539,-0.21056,0.5265,1.09382,0.35709,0.35528,1.24849,-0.1118,0.6979,1.28264,0.24704,0.57604,1.35304
2200,-0.02028,0.40045,1.49259,0.16111,0.59024,0.11852,0.00952,0.11096,0.0763,0.06396,0.55374,0.53101,0.13313,0.19088,0.47657,-0.00639,0.30336,0.89404,0.14451,0.19844,0.9162,-0.16099,0.43036,1.38591,0.14216,0.2893,1.46565,-0.20659,0.52515,1.096,0.35356,0.34134,1.2447,-0.10628,0.69188,1.28816,0.24963,0.56475,1.34989
2201,-0.01891,0.39495,1.49415,0.16,0.58874,0.11877,0.00939,0.11039,0.07638,0.06341,0.55076,0.53126,0.13155,0.18848,0.47746,-0.00758,0.30131,0.8948,0.14229,0.19495,0.91712,-0.1607,0.42833,1.38849,0.14079,0.28132,1.46606,-0.20234,0.52416,1.09833,0.34965,0.32807,1.24153,-0.10067,0.6862,1.29376,0.25171,0.55399,1.34711
2202,-0.01731,0.38941,1.49589,0.1586,0.58688,0.11896,0.00927,0.11015,0.07653,0.06286,0.54777,0.53154,0.12957,0.18651,0.4785,-0.00877,0.29947,0.89575,0.14005,0.19166,0.91819,-0.16021,0.42643,1.39127,0.13912,0.27266,1.46648,-0.19814,0.52298,1.10084,0.34557,0.31569,1.239,-0.09523,0.68061,1.29921,0.25305,0.54383,1.34469
2203,-0.01556,0.38376,1.49792,0.15672,0.58478,0.11914,0.00903,0.11016,0.07666,0.06228,0.54476,0.53193,0.12751,0.18466,0.47952,-0.01006,0.29768,0.89682,0.13763,0.18832,0.91923,-0.15923,0.42439,1.39416,0.13743,0.26372,1.4666,-0.19423,0.52147,1.10354,0.34183,0.30433,1.23684,-0.09,0.67513,1.30431,0.25374,0.53418,1.34261
2204,-0.01397,0.37795,1.50024,0.15432,0.58272,0.11932,0.00868,0.11012,0.07674,0.06169,0.54167,0.53242,0.12551,0.18282,0.4804,-0.01152,0.29583,0.89798,0.13506,0.18495,0.92014,-0.1578,0.42209,1.39697,0.13599,0.25501,1.46631,-0.19048,0.52005,1.10638,0.33856,0.29373,1.23461,-0.08458,0.67001,1.30906,0.25412,0.52481,1.34069
2205,-0.0128,0.37219,1.50259,0.15152,0.58103,0.11951,0.00831,0.10983,0.07681,0.06105,0.53853,0.53294,0.12346,0.18112,0.48121,-0.01303,0.29399,0.8992,0.13256,0.18174,0.92096,-0.15619,0.41969,1.39968,0.13482,0.24691,1.46584,-0.18654,0.51925,1.10938,0.33546,0.28342,1.23211,-0.07842,0.66548,1.31362,0.25462,0.51551,1.33878
2206,-0.01201,0.36679,1.50465,0.1486,0.57988,0.11972,0.00796,0.10944,0.077,0.06036,0.53544,0.53343,0.12129,0.17963,0.48211,-0.01441,0.29216,0.90038,0.13034,0.17877,0.92186,-0.15478,0.41728,1.40239,0.13377,0.23949,1.46546,-0.18225,0.51911,1.11259,0.33222,0.27306,1.22944,-0.07142,0.66151,1.31808,0.25549,0.50614,1.33698
2207,-0.01131,0.36174,1.5064,0.14577,0.57905,0.11997,0.00766,0.1093,0.07731,0.0597,0.53255,0.53392,0.11907,0.17825,0.48316,-0.01563,0.29032,0.90145,0.12838,0.17599,0.9229,-0.15382,0.41463,1.40507,0.13275,0.23248,1.46539,-0.17774,0.51907,1.11589,0.32881,0.26255,1.22691,-0.06437,0.65772,1.32254,0.25675,0.49666,1.33543
2208,-0.01035,0.35675,1.50805,0.14295,0.57802,0.12025,0.0075,0.1095,0.07759,0.05904,0.52996,0.53446,0.11697,0.17678,0.48424,-0.01687,0.28849,0.90237,0.12643,0.17329,0.92398,-0.15316,0.41136,1.40751,0.1318,0.22553,1.46573,-0.17332,0.51852,1.11903,0.32533,0.25206,1.22477,-0.05843,0.65361,1.3272,0.25826,0.48721,1.33424
2209,-0.00895,0.35176,1.50978,0.14008,0.57646,0.12049,0.00745,0.10969,0.07776,0.05829,0.52759,0.53503,0.11504,0.17503,0.48524,-0.01833,0.28671,0.90319,0.12414,0.17051,0.92497,-0.15242,0.40744,1.4097,0.13101,0.21853,1.46641,-0.16927,0.51714,1.12197,0.32182,0.24196,1.22298,-0.05417,0.649,1.33208,0.25968,0.47801,1.33339
2210,-0.00731,0.34694,1.51155,0.13725,0.57451,0.1207,0.00737,0.10953,0.07794,0.05746,0.52527,0.53558,0.11327,0.17304,0.48614,-0.02002,0.28507,0.904,0.1214,0.16761,0.92588,-0.15134,0.40316,1.41196,0.13029,0.21163,1.46722,-0.1658,0.51496,1.12491,0.31831,0.23251,1.22139,-0.05122,0.64416,1.33696,0.26058,0.46925,1.33276
2211,-0.00591,0.34236,1.5133,0.13447,0.57254,0.12089,0.00709,0.10904,0.0782,0.05671,0.52292,0.53611,0.11157,0.17109,0.48699,-0.02173,0.28371,0.90497,0.11843,0.16474,0.92674,-0.15007,0.39884,1.41454,0.12933,0.20495,1.4679,-0.16296,0.51215,1.128,0.31482,0.22372,1.21999,-0.04897,0.63942,1.34153,0.26075,0.46091,1.33222
2212,-0.00513,0.3378,1.51502,0.13158,0.57086,0.12111,0.00668,0.10847,0.0785,0.05606,0.52058,0.53666,0.10988,0.16939,0.48779,-0.02324,0.2827,0.9062,0.11557,0.16209,0.92754,-0.1489,0.39451,1.41722,0.12796,0.19854,1.46833,-0.16061,0.50892,1.13107,0.31137,0.21541,1.21874,-0.04697,0.63477,1.34562,0.26028,0.45289,1.33175
2213,-0.00478,0.33313,1.51672,0.12858,0.5695,0.12134,0.00628,0.10802,0.07876,0.0554,0.51829,0.5372,0.10813,0.1679,0.48854,-0.02453,0.28195,0.90758,0.11291,0.15967,0.92829,-0.14793,0.39023,1.4196,0.12648,0.19238,1.46858,-0.15859,0.50562,1.1338,0.30801,0.2075,1.21752,-0.04491,0.63003,1.34916,0.25946,0.44512,1.33135
2214,-0.00433,0.32845,1.51837,0.12562,0.56838,0.1215,0.00603,0.10769,0.07893,0.05468,0.51602,0.5376,0.10633,0.16646,0.48926,-0.0257,0.28129,0.90892,0.11035,0.15735,0.92899,-0.14706,0.38632,1.42155,0.12534,0.18645,1.46891,-0.15682,0.50254,1.13606,0.30477,0.2,1.21625,-0.04258,0.6252,1.35213,0.25857,0.4376,1.33109
2215,-0.00343,0.32393,1.51992,0.1228,0.56747,0.12151,0.00599,0.10735,0.07907,0.05401,0.51373,0.53781,0.10467,0.16491,0.48996,-0.02682,0.28053,0.90998,0.10783,0.15502,0.92969,-0.14623,0.383,1.42329,0.12458,0.18074,1.46946,-0.15521,0.49976,1.138,0.30161,0.19285,1.21503,-0.04004,0.62036,1.35474,0.25791,0.43039,1.33098
2216,-0.00212,0.31962,1.52133,0.12004,0.56672,0.12137,0.00606,0.10696,0.07924,0.0535,0.51149,0.53783,0.10324,0.16319,0.49067,-0.02783,0.27959,0.91072,0.10551,0.15269,0.93039,-0.14551,0.38013,1.42512,0.12389,0.17523,1.47003,-0.15367,0.49707,1.13987,0.29852,0.18603,1.21389,-0.03757,0.61551,1.3573,0.25756,0.42346,1.33104
2217,-0.00064,0.31543,1.52259,0.11743,0.56601,0.12113,0.00604,0.10661,0.0794,0.05319,0.50937,0.53776,0.10188,0.16134,0.49134,-0.02861,0.27869,0.91129,0.10355,0.15056,0.93106,-0.14498,0.37733,1.42716,0.12307,0.16992,1.47036,-0.15229,0.49411,1.14182,0.29548,0.17953,1.21268,-0.03532,0.61054,1.35987,0.25735,0.41675,1.3312
2218,0.00081,0.31118,1.52378,0.11509,0.56527,0.12086,0.00584,0.1063,0.07944,0.05303,0.50748,0.53766,0.10032,0.15948,0.4919,-0.02917,0.27808,0.9119,0.10195,0.14888,0.93162,-0.14457,0.37433,1.4294,0.12229,0.16491,1.4705,-0.15119,0.49067,1.14386,0.29234,0.1733,1.21121,-0.03325,0.60549,1.36224,0.25719,0.41013,1.33144
2219,0.00207,0.30672,1.52498,0.11305,0.56466,0.12066,0.00562,0.10597,0.07933,0.05295,0.50584,0.53761,0.09863,0.15761,0.49232,-0.02964,0.27773,0.91255,0.10053,0.14755,0.93205,-0.14402,0.37111,1.43165,0.12177,0.16023,1.47069,-0.15023,0.48698,1.14592,0.28892,0.16719,1.20948,-0.03121,0.60058,1.36435,0.25731,0.40344,1.3318
2220,0.00308,0.30207,1.52613,0.11114,0.56437,0.12067,0.00559,0.10557,0.07915,0.05283,0.50447,0.53772,0.09706,0.15575,0.49267,-0.03014,0.27738,0.91319,0.09906,0.14619,0.93241,-0.14308,0.3678,1.4336,0.1215,0.15561,1.47108,-0.14901,0.48347,1.14778,0.28525,0.1611,1.20769,-0.0292,0.59596,1.36636,0.25787,0.39661,1.33243
2221,0.00393,0.29752,1.52715,0.10927,0.56436,0.12089,0.00569,0.10516,0.07907,0.0526,0.50333,0.53801,0.09578,0.15394,0.49305,-0.03057,0.27682,0.91379,0.09757,0.14457,0.9328,-0.14188,0.36451,1.43509,0.12123,0.15073,1.47158,-0.14738,0.48031,1.14931,0.28167,0.15519,1.20614,-0.02734,0.59155,1.3684,0.25855,0.38983,1.33337
2222,0.00481,0.29346,1.52805,0.10755,0.56431,0.12115,0.00567,0.10486,0.07914,0.05241,0.50215,0.5383,0.09471,0.15227,0.49352,-0.03081,0.27613,0.91435,0.09622,0.14279,0.93326,-0.14083,0.3613,1.4364,0.12078,0.14573,1.47204,-0.14577,0.47732,1.1507,0.27848,0.14969,1.20496,-0.02575,0.58723,1.37047,0.25891,0.38339,1.3345
2223,0.00573,0.29008,1.52883,0.10615,0.56399,0.12122,0.00536,0.10472,0.07933,0.05246,0.50063,0.53838,0.09367,0.15073,0.49402,-0.03093,0.27545,0.91491,0.09504,0.1411,0.93376,-0.14023,0.35824,1.43798,0.12024,0.14111,1.47241,-0.1447,0.47423,1.15227,0.27559,0.1447,1.20395,-0.02441,0.58301,1.37245,0.25885,0.37741,1.33564
2224,0.00642,0.28722,1.52948,0.10504,0.56353,0.12115,0.00488,0.10462,0.07949,0.05263,0.4987,0.53825,0.09256,0.1493,0.49445,-0.03117,0.27482,0.91546,0.0939,0.13962,0.93419,-0.13997,0.35546,1.43996,0.11985,0.1372,1.47266,-0.14415,0.47102,1.15407,0.27278,0.14022,1.20281,-0.02313,0.57893,1.37429,0.25861,0.37181,1.33674
2225,0.00669,0.28446,1.53002,0.10401,0.56323,0.12111,0.00445,0.1044,0.07952,0.05267,0.49667,0.53807,0.0914,0.14797,0.49476,-0.03161,0.27414,0.91597,0.09278,0.13829,0.9345,-0.13969,0.35294,1.44205,0.11973,0.13374,1.4727,-0.14372,0.4679,1.15591,0.27009,0.13616,1.20141,-0.02177,0.5749,1.37605,0.25853,0.36649,1.33777
2226,0.00678,0.2815,1.53051,0.10288,0.56312,0.12122,0.00422,0.10402,0.07943,0.05255,0.49484,0.53802,0.09025,0.14661,0.49496,-0.03215,0.27331,0.91642,0.09173,0.13696,0.9347,-0.13932,0.35038,1.44389,0.11978,0.13028,1.4725,-0.14316,0.46504,1.15763,0.26773,0.13246,1.19988,-0.02033,0.57094,1.37781,0.2588,0.36147,1.33864
2227,0.00715,0.27822,1.53105,0.1016,0.56296,0.12147,0.00411,0.10353,0.07929,0.05237,0.49331,0.53817,0.08917,0.14511,0.49513,-0.03266,0.27228,0.91679,0.09082,0.13554,0.93486,-0.13905,0.34753,1.44533,0.11981,0.12665,1.47218,-0.14253,0.46238,1.15913,0.26575,0.12919,1.19847,-0.0191,0.56721,1.3795,0.25919,0.35692,1.33945
2228,0.008,0.27467,1.5317,0.10037,0.56262,0.12181,0.00398,0.10305,0.07924,0.05223,0.49198,0.53848,0.08823,0.14364,0.49533,-0.0331,0.27103,0.91707,0.09005,0.13398,0.93507,-0.13887,0.34443,1.44645,0.11969,0.12302,1.47198,-0.142,0.45968,1.16041,0.26399,0.12656,1.19742,-0.01834,0.56378,1.38099,0.25909,0.35297,1.34055
2229,0.00914,0.27113,1.53247,0.09938,0.56227,0.1222,0.00377,0.10259,0.07932,0.05209,0.49075,0.53881,0.08743,0.1424,0.49561,-0.0334,0.26968,0.9173,0.08942,0.13234,0.93534,-0.13836,0.34135,1.44746,0.11932,0.11961,1.47215,-0.14162,0.45674,1.16148,0.26219,0.12454,1.19686,-0.01803,0.56053,1.38225,0.25812,0.3496,1.34213
2230,0.01022,0.26783,1.53318,0.09864,0.56223,0.1226,0.00362,0.1022,0.07946,0.05195,0.48959,0.53908,0.08672,0.14137,0.49593,-0.03346,0.2685,0.91758,0.08888,0.13073,0.93564,-0.1373,0.33857,1.44846,0.11874,0.11654,1.4727,-0.14123,0.45368,1.16238,0.26017,0.12279,1.1967,-0.01786,0.55728,1.38336,0.25668,0.34662,1.34388
2231,0.01104,0.26476,1.53371,0.09792,0.56258,0.12295,0.00357,0.10197,0.07956,0.05187,0.48849,0.53925,0.08599,0.14032,0.49623,-0.03335,0.26763,0.91792,0.08837,0.12931,0.93594,-0.13597,0.33616,1.44939,0.11813,0.11376,1.47333,-0.14064,0.45082,1.16314,0.25793,0.12099,1.19653,-0.01748,0.55403,1.38442,0.25558,0.34373,1.34539
2232,0.01179,0.26174,1.53412,0.09702,0.56307,0.1232,0.00351,0.10195,0.07955,0.05193,0.48742,0.53933,0.08525,0.13917,0.49646,-0.03321,0.2671,0.91833,0.08783,0.12816,0.93617,-0.1349,0.33399,1.45021,0.11779,0.11111,1.47368,-0.1399,0.44832,1.16384,0.25566,0.11918,1.19593,-0.01678,0.55088,1.38544,0.25527,0.34069,1.34663
2233,0.0126,0.2587,1.53455,0.09601,0.56337,0.1233,0.00343,0.10205,0.07948,0.05204,0.48634,0.5393,0.08461,0.138,0.49661,-0.03315,0.26683,0.91875,0.08726,0.12731,0.93632,-0.13428,0.33188,1.45113,0.11791,0.10845,1.47362,-0.13933,0.44599,1.16467,0.25366,0.11765,1.19486,-0.01596,0.54784,1.38646,0.25534,0.33758,1.34785
2234,0.01331,0.25576,1.53516,0.09513,0.56329,0.12328,0.00342,0.10206,0.07941,0.05204,0.48515,0.53916,0.08411,0.13696,0.49673,-0.03315,0.26664,0.91919,0.08674,0.12664,0.93645,-0.13403,0.32978,1.45236,0.11838,0.10572,1.47334,-0.13907,0.44357,1.16577,0.25213,0.11668,1.19368,-0.0153,0.54491,1.38757,0.25492,0.33477,1.34928
2235,0.01375,0.25303,1.53589,0.09437,0.56292,0.12318,0.00349,0.10187,0.07941,0.05186,0.48384,0.53894,0.08368,0.136,0.49689,-0.03311,0.26633,0.9196,0.08635,0.12594,0.93661,-0.13396,0.32767,1.45385,0.11888,0.10303,1.47305,-0.13893,0.44113,1.16713,0.25108,0.11623,1.19276,-0.01482,0.54231,1.38881,0.25365,0.33247,1.3509
2236,0.01411,0.25043,1.53655,0.09356,0.56256,0.12304,0.00352,0.10167,0.07952,0.05159,0.48248,0.53866,0.08331,0.13509,0.49713,-0.03299,0.26579,0.91988,0.08618,0.12514,0.93686,-0.13384,0.32541,1.4553,0.119,0.1005,1.47279,-0.13854,0.43895,1.1686,0.25032,0.1159,1.19219,-0.01423,0.5402,1.39015,0.25189,0.33048,1.35259
2237,0.01466,0.24786,1.53691,0.09269,0.56248,0.12292,0.00343,0.10167,0.0797,0.05132,0.48123,0.53838,0.08302,0.13423,0.49742,-0.03285,0.26502,0.91995,0.08616,0.12426,0.93714,-0.13354,0.32286,1.45638,0.11868,0.09814,1.47254,-0.13774,0.43718,1.16999,0.24959,0.11533,1.19185,-0.01331,0.53828,1.39153,0.2502,0.32839,1.35427
2238,0.01533,0.24528,1.53701,0.09192,0.56273,0.12294,0.00321,0.1018,0.07982,0.05095,0.48023,0.53819,0.08271,0.1334,0.49763,-0.0328,0.26409,0.9199,0.08615,0.12331,0.93735,-0.133,0.32028,1.45711,0.11821,0.09583,1.47241,-0.13683,0.43572,1.17116,0.24862,0.11458,1.19159,-0.01215,0.53611,1.39289,0.24872,0.32613,1.35598
2239,0.01581,0.24261,1.53711,0.09134,0.56306,0.12309,0.00292,0.10181,0.07981,0.05033,0.47943,0.53811,0.08224,0.13255,0.49772,-0.0328,0.26311,0.91986,0.08606,0.12227,0.93743,-0.13227,0.31817,1.45772,0.11798,0.09348,1.47247,-0.13605,0.43441,1.1721,0.24742,0.11402,1.19133,-0.01103,0.53365,1.39415,0.24713,0.32404,1.35767
2240,0.01607,0.23978,1.5375,0.09083,0.56316,0.12323,0.00266,0.10161,0.07973,0.04956,0.47861,0.53803,0.08173,0.13177,0.49772,-0.0327,0.26215,0.91989,0.08602,0.12119,0.93742,-0.13146,0.31659,1.45841,0.11814,0.09116,1.47267,-0.13533,0.43313,1.17291,0.24612,0.11404,1.19104,-0.01009,0.53131,1.3953,0.24513,0.32251,1.35932
2241,0.01633,0.23691,1.53811,0.09028,0.56295,0.12315,0.00254,0.10141,0.07967,0.04887,0.47753,0.53777,0.08141,0.13123,0.49773,-0.03245,0.26129,0.91995,0.08621,0.12026,0.93741,-0.13069,0.31506,1.45914,0.11861,0.08905,1.47281,-0.13442,0.43181,1.17372,0.24484,0.11479,1.19064,-0.00921,0.52936,1.39641,0.24289,0.32154,1.36102
2242,0.01689,0.23422,1.53869,0.08985,0.56254,0.12284,0.00262,0.10137,0.07968,0.04834,0.47621,0.53726,0.08138,0.13099,0.49777,-0.03212,0.26054,0.91994,0.08663,0.11959,0.93744,-0.1301,0.31312,1.45985,0.11932,0.08715,1.4727,-0.13338,0.43032,1.17461,0.24366,0.11614,1.19001,-0.00828,0.52761,1.39747,0.24096,0.3208,1.36288
2243,0.0178,0.23185,1.539,0.08973,0.56213,0.12242,0.00285,0.10137,0.07971,0.04783,0.47494,0.53662,0.08149,0.13102,0.49782,-0.03186,0.2599,0.91981,0.08715,0.1192,0.93747,-0.12977,0.3108,1.46063,0.12021,0.08526,1.47235,-0.13248,0.42851,1.1756,0.24267,0.11767,1.18921,-0.00742,0.52577,1.3985,0.23973,0.31994,1.36486
2244,0.01882,0.22977,1.53903,0.08981,0.56177,0.12198,0.0031,0.10125,0.07971,0.04726,0.47392,0.53597,0.08158,0.13119,0.49784,-0.03166,0.25934,0.91959,0.08767,0.11895,0.93747,-0.12957,0.30848,1.4616,0.12122,0.08322,1.47199,-0.13182,0.42644,1.17666,0.242,0.11882,1.18851,-0.00684,0.52379,1.39957,0.23899,0.31887,1.3667
2245,0.01965,0.2278,1.53898,0.08975,0.56142,0.12151,0.00325,0.10102,0.07966,0.04677,0.473,0.53533,0.08159,0.13131,0.49779,-0.03144,0.25887,0.91934,0.08814,0.11871,0.9374,-0.1293,0.30649,1.46263,0.12216,0.08109,1.47175,-0.13131,0.42456,1.17774,0.24177,0.11943,1.18813,-0.00665,0.52186,1.40085,0.23829,0.31771,1.36827
2246,0.0203,0.22567,1.53907,0.08936,0.56111,0.12097,0.0033,0.10084,0.07956,0.04646,0.472,0.53466,0.08154,0.13116,0.4977,-0.03108,0.2585,0.91915,0.08855,0.11839,0.93731,-0.12882,0.305,1.46347,0.1229,0.07903,1.47156,-0.1308,0.42334,1.17869,0.24196,0.11986,1.18805,-0.00679,0.52011,1.40239,0.23736,0.31667,1.36978
2247,0.02103,0.22325,1.53937,0.0889,0.56088,0.12041,0.00333,0.10084,0.07944,0.04631,0.47094,0.53395,0.08151,0.13064,0.49763,-0.03057,0.25826,0.91903,0.08894,0.11805,0.93723,-0.12816,0.30384,1.46397,0.12351,0.07723,1.47136,-0.13023,0.42273,1.17942,0.24238,0.12057,1.18815,-0.00698,0.51851,1.40396,0.23632,0.31585,1.37146
2248,0.02192,0.22065,1.53986,0.0887,0.5607,0.1199,0.00335,0.10097,0.07934,0.04617,0.46988,0.53325,0.0815,0.12991,0.4976,-0.03003,0.25806,0.91894,0.08935,0.11775,0.93721,-0.12739,0.30262,1.46422,0.12413,0.07582,1.47117,-0.1296,0.42222,1.17997,0.24271,0.12166,1.18823,-0.00688,0.51699,1.40523,0.23552,0.31525,1.37329
2249,0.0228,0.21813,1.54041,0.08876,0.56047,0.11944,0.00338,0.10105,0.07926,0.04598,0.46874,0.53256,0.08144,0.12929,0.49758,-0.02958,0.25776,0.91884,0.08985,0.1175,0.93719,-0.12666,0.30112,1.46442,0.12479,0.07479,1.47096,-0.12898,0.42142,1.18047,0.24285,0.12292,1.18819,-0.0064,0.51547,1.40611,0.23507,0.31483,1.37497
2250,0.0235,0.21594,1.54083,0.08883,0.56018,0.11902,0.00344,0.10096,0.07918,0.04583,0.4674,0.53189,0.08133,0.12896,0.49754,-0.02922,0.25737,0.91878,0.0904,0.11728,0.93714,-0.12611,0.29952,1.46474,0.12542,0.07392,1.47069,-0.12842,0.42035,1.181,0.2429,0.12418,1.18804,-0.0058,0.51385,1.40685,0.23474,0.31454,1.37638
2251,0.02402,0.2142,1.54099,0.08875,0.55988,0.11863,0.00351,0.10083,0.07909,0.04579,0.46589,0.53123,0.0813,0.12887,0.49747,-0.0289,0.25699,0.91881,0.09092,0.11706,0.93705,-0.1257,0.29809,1.4652,0.12605,0.0729,1.47036,-0.12798,0.41926,1.18161,0.24305,0.12537,1.18791,-0.00539,0.5121,1.40775,0.23428,0.31424,1.37772
2252,0.02443,0.21283,1.54099,0.08865,0.55953,0.11826,0.00355,0.10087,0.07904,0.0458,0.46437,0.5306,0.08147,0.12887,0.4974,-0.02858,0.25669,0.91889,0.09134,0.11682,0.93697,-0.12521,0.29698,1.4658,0.12671,0.07159,1.4701,-0.12772,0.41832,1.18229,0.24343,0.12636,1.18797,-0.00525,0.5104,1.4088,0.23374,0.3137,1.37925
2253,0.02475,0.21155,1.541,0.08872,0.55913,0.1179,0.00352,0.10113,0.07905,0.04573,0.463,0.53,0.08172,0.12886,0.49737,-0.02825,0.25642,0.91895,0.09177,0.11661,0.93693,-0.12448,0.29617,1.46652,0.12732,0.07016,1.46999,-0.12765,0.41747,1.183,0.24402,0.12707,1.18828,-0.00517,0.50894,1.40975,0.23339,0.31291,1.38096
2254,0.02511,0.21002,1.5411,0.08896,0.55871,0.11749,0.00346,0.10146,0.07906,0.04557,0.46173,0.52935,0.08186,0.12878,0.49737,-0.02787,0.25615,0.91894,0.09235,0.11653,0.93692,-0.12358,0.29537,1.46722,0.12783,0.06882,1.47,-0.12761,0.41667,1.18371,0.2447,0.12765,1.18876,-0.00486,0.50768,1.4105,0.23331,0.31216,1.38268
2255,0.02572,0.20818,1.54121,0.0892,0.55828,0.11697,0.00351,0.1017,0.07899,0.0455,0.46041,0.52859,0.08183,0.12865,0.49734,-0.02741,0.25597,0.91888,0.09312,0.11662,0.93688,-0.12275,0.29416,1.46774,0.12849,0.06748,1.47009,-0.12736,0.4159,1.18443,0.24535,0.12847,1.1893,-0.00414,0.50647,1.41114,0.23322,0.31178,1.38431
2256,0.02665,0.2063,1.54127,0.08927,0.55786,0.11635,0.00374,0.10174,0.07882,0.04561,0.45891,0.52771,0.0818,0.1286,0.49723,-0.02691,0.25592,0.91882,0.09388,0.11678,0.93675,-0.12211,0.2924,1.46807,0.12953,0.06593,1.47026,-0.12686,0.41512,1.18518,0.24591,0.12967,1.18989,-0.00311,0.50523,1.41178,0.23288,0.31182,1.38592
2257,0.02763,0.20467,1.54133,0.08919,0.55747,0.11573,0.00404,0.10168,0.0786,0.04581,0.45732,0.52683,0.08196,0.12873,0.49702,-0.02637,0.25593,0.91883,0.09455,0.11687,0.93653,-0.1216,0.29029,1.46827,0.13082,0.06427,1.47049,-0.12633,0.4143,1.18594,0.24643,0.13106,1.19051,-0.00214,0.50402,1.41246,0.23236,0.31201,1.38758
2258,0.02842,0.20327,1.54147,0.08913,0.55716,0.11527,0.00424,0.10172,0.07841,0.04597,0.45592,0.52613,0.08234,0.12902,0.49679,-0.02574,0.25589,0.91891,0.09527,0.11687,0.93627,-0.12103,0.28822,1.46844,0.13196,0.0629,1.47063,-0.12598,0.41348,1.18667,0.24705,0.13244,1.1911,-0.00156,0.50282,1.41322,0.23199,0.31211,1.38926
2259,0.02905,0.20204,1.54168,0.08926,0.55692,0.11501,0.00428,0.10191,0.07828,0.04617,0.45489,0.52568,0.08285,0.12929,0.49656,-0.02506,0.25577,0.91901,0.09616,0.11688,0.93603,-0.12032,0.28653,1.46865,0.13279,0.06201,1.47053,-0.1258,0.41275,1.18733,0.24787,0.13379,1.19156,-0.00126,0.50152,1.41403,0.23198,0.31212,1.39088
2260,0.02968,0.20101,1.54179,0.08965,0.55674,0.11486,0.00421,0.10208,0.07816,0.04643,0.45416,0.52538,0.08337,0.12946,0.49632,-0.02447,0.25559,0.91905,0.09712,0.117,0.93578,-0.11951,0.28538,1.46894,0.13346,0.06142,1.47017,-0.12559,0.41218,1.18788,0.24887,0.13522,1.19186,-0.0009,0.49997,1.41488,0.23215,0.31212,1.39238
2261,0.03042,0.20017,1.54171,0.09013,0.55659,0.11468,0.00418,0.10212,0.07802,0.04662,0.45355,0.52505,0.0839,0.12962,0.49607,-0.02405,0.25545,0.919,0.09797,0.11721,0.93552,-0.11866,0.28468,1.46924,0.1341,0.06077,1.46972,-0.1252,0.41173,1.1883,0.24996,0.13666,1.19216,-0.00027,0.49821,1.41567,0.23215,0.31221,1.39376
2262,0.03136,0.19934,1.54155,0.09048,0.55644,0.11444,0.00437,0.10205,0.07787,0.04661,0.45301,0.52468,0.08448,0.12986,0.49583,-0.02371,0.25539,0.91893,0.09863,0.11741,0.93527,-0.11777,0.28409,1.46948,0.13473,0.05985,1.46944,-0.12467,0.41126,1.18861,0.251,0.13793,1.19267,0.00047,0.4965,1.41633,0.2318,0.31245,1.39504
2263,0.03251,0.19837,1.54147,0.09069,0.55624,0.11418,0.00476,0.10196,0.07774,0.04643,0.45259,0.52432,0.08512,0.13024,0.49563,-0.02329,0.25537,0.91888,0.09922,0.11753,0.93506,-0.11688,0.28344,1.4697,0.13541,0.05872,1.46942,-0.12411,0.41064,1.18885,0.25194,0.13903,1.1934,0.00109,0.49519,1.4168,0.23126,0.31286,1.39621
2264,0.0337,0.19741,1.5415,0.09098,0.55602,0.11394,0.00522,0.10193,0.07765,0.04619,0.45225,0.52399,0.08577,0.13065,0.49546,-0.02272,0.25527,0.91881,0.09997,0.11756,0.93489,-0.11614,0.28268,1.47001,0.13647,0.05761,1.46954,-0.12351,0.40982,1.18914,0.25287,0.14018,1.19413,0.00169,0.49435,1.41709,0.23081,0.31338,1.39733
2265,0.03466,0.19669,1.54157,0.09133,0.55582,0.11372,0.00554,0.10194,0.07755,0.046,0.45188,0.52367,0.08638,0.13098,0.49529,-0.02206,0.25499,0.91868,0.10101,0.11763,0.93469,-0.1155,0.28173,1.47043,0.13815,0.05683,1.46956,-0.1228,0.40888,1.18956,0.25404,0.14165,1.19462,0.00245,0.49375,1.41736,0.23067,0.31391,1.39848
2266,0.03545,0.19622,1.54161,0.09151,0.55572,0.11355,0.00566,0.10195,0.07743,0.0459,0.45156,0.52341,0.08688,0.13121,0.49508,-0.02139,0.25465,0.91855,0.10229,0.11782,0.93445,-0.11471,0.28045,1.47088,0.14039,0.05656,1.46948,-0.12208,0.40793,1.19016,0.25562,0.14348,1.19492,0.00341,0.4931,1.41772,0.23077,0.31437,1.39975
2267,0.03639,0.19583,1.54163,0.09136,0.55574,0.11349,0.00573,0.10196,0.07729,0.0459,0.45146,0.52334,0.08728,0.13141,0.49485,-0.02071,0.25445,0.91854,0.10358,0.11815,0.9342,-0.11368,0.27891,1.4713,0.14272,0.0567,1.46948,-0.12156,0.407,1.19088,0.25745,0.14535,1.19526,0.00439,0.49231,1.41813,0.23089,0.31477,1.40109
2268,0.03771,0.19539,1.54167,0.09104,0.55588,0.11355,0.00596,0.10204,0.07718,0.04593,0.45172,0.52347,0.08765,0.1317,0.49471,-0.02,0.25447,0.91867,0.10467,0.11848,0.93403,-0.11271,0.27747,1.47167,0.1447,0.05692,1.46964,-0.12126,0.40622,1.19156,0.25921,0.14697,1.19578,0.00525,0.49154,1.4185,0.23091,0.31514,1.40241
2269,0.03927,0.1948,1.54172,0.0909,0.55605,0.11371,0.00646,0.10218,0.07716,0.04598,0.45225,0.52375,0.08817,0.13212,0.49466,-0.0193,0.25462,0.91886,0.10555,0.11877,0.93396,-0.11213,0.27646,1.4719,0.14627,0.05694,1.46984,-0.12078,0.40569,1.19202,0.2607,0.14831,1.19639,0.00597,0.49098,1.41884,0.23092,0.3155,1.40361
2270,0.04077,0.19401,1.54177,0.09108,0.55624,0.11397,0.00709,0.10225,0.07717,0.04616,0.45285,0.52411,0.08893,0.13264,0.49461,-0.01867,0.25477,0.91906,0.10638,0.11908,0.93391,-0.11192,0.27593,1.47193,0.14766,0.05679,1.46993,-0.11972,0.40543,1.19215,0.26205,0.14951,1.19692,0.0066,0.49063,1.41923,0.23109,0.31572,1.40474
2271,0.04204,0.19312,1.54184,0.09139,0.55644,0.1143,0.00763,0.10221,0.07713,0.04659,0.45336,0.52452,0.08982,0.13319,0.49446,-0.01818,0.25483,0.91927,0.1073,0.11948,0.93375,-0.11166,0.27572,1.47185,0.14907,0.05676,1.46989,-0.11822,0.40525,1.19206,0.2635,0.15068,1.19731,0.00712,0.49032,1.41973,0.23148,0.31575,1.40588
2272,0.04319,0.1924,1.54194,0.09146,0.55671,0.11461,0.0079,0.1022,0.07703,0.04719,0.45383,0.52494,0.09064,0.13371,0.49422,-0.01777,0.25485,0.91943,0.10825,0.11996,0.9335,-0.11093,0.27554,1.47182,0.15048,0.05702,1.46977,-0.11688,0.40502,1.19198,0.2651,0.15186,1.19758,0.00752,0.48991,1.42025,0.23202,0.31571,1.40696
2273,0.04443,0.19212,1.542,0.09122,0.55705,0.11489,0.00796,0.10232,0.07695,0.04777,0.45448,0.52539,0.09134,0.13413,0.49399,-0.01735,0.25491,0.91955,0.10915,0.12044,0.93326,-0.1097,0.27517,1.47183,0.15185,0.05746,1.46962,-0.1161,0.40478,1.19206,0.26676,0.15305,1.19782,0.0078,0.48941,1.42069,0.23262,0.31584,1.40784
2274,0.04576,0.19223,1.542,0.09095,0.5574,0.11528,0.00798,0.1025,0.07698,0.04822,0.45545,0.52601,0.09201,0.1344,0.49387,-0.01685,0.25509,0.91978,0.11004,0.12095,0.93315,-0.10829,0.27452,1.47187,0.15328,0.05791,1.46947,-0.11578,0.40445,1.19228,0.26842,0.15432,1.19805,0.00804,0.48891,1.42102,0.23321,0.31627,1.40855
2275,0.04699,0.1924,1.542,0.09095,0.55768,0.11587,0.00806,0.10262,0.0771,0.04858,0.45669,0.52688,0.09264,0.13459,0.49388,-0.01622,0.25539,0.92021,0.11106,0.12158,0.93314,-0.10703,0.27366,1.472,0.15488,0.05827,1.46936,-0.11548,0.40398,1.19262,0.27003,0.15581,1.19835,0.00837,0.48849,1.42132,0.23361,0.31699,1.40924
2276,0.04804,0.19232,1.54211,0.09119,0.55788,0.11665,0.00813,0.10266,0.07723,0.04897,0.45807,0.52796,0.09314,0.13484,0.49391,-0.01552,0.25572,0.9208,0.11226,0.12234,0.93316,-0.10613,0.27271,1.47225,0.1566,0.05859,1.46937,-0.11487,0.40342,1.19306,0.27158,0.1576,1.19882,0.00893,0.48816,1.42171,0.23367,0.31802,1.41003
2277,0.04904,0.19194,1.54236,0.09135,0.55811,0.11754,0.00819,0.10261,0.07734,0.04942,0.45951,0.52917,0.09355,0.13521,0.49392,-0.01482,0.25598,0.92144,0.11357,0.12313,0.93314,-0.10548,0.27176,1.47254,0.15828,0.05902,1.46953,-0.114,0.403,1.19359,0.27316,0.15957,1.19951,0.00975,0.48792,1.4222,0.23349,0.31939,1.41085
2278,0.05016,0.19146,1.54274,0.0913,0.55839,0.11841,0.0083,0.10251,0.07743,0.04984,0.46089,0.53035,0.09394,0.13564,0.49391,-0.01412,0.25617,0.92205,0.11478,0.12376,0.9331,-0.10471,0.27087,1.47276,0.15998,0.05968,1.46985,-0.1132,0.40286,1.19416,0.27484,0.16148,1.20029,0.01076,0.48777,1.42266,0.23336,0.32092,1.41156
2279,0.05161,0.19112,1.54312,0.09113,0.55856,0.11913,0.00841,0.10243,0.07753,0.05012,0.46211,0.53136,0.09431,0.13607,0.4939,-0.01345,0.25634,0.92257,0.11572,0.12414,0.93307,-0.1035,0.27026,1.47295,0.16185,0.06048,1.47024,-0.11269,0.40302,1.19474,0.2765,0.16316,1.20092,0.0118,0.4878,1.42299,0.23365,0.32231,1.41214
2280,0.05337,0.1911,1.5434,0.09106,0.55836,0.11955,0.00847,0.10243,0.07761,0.05034,0.46315,0.5321,0.09468,0.13648,0.49389,-0.01284,0.25655,0.92294,0.11637,0.12436,0.93304,-0.10191,0.27009,1.47325,0.16402,0.06125,1.47069,-0.11233,0.4033,1.1953,0.27796,0.16467,1.20136,0.01278,0.488,1.42325,0.2344,0.3234,1.41274
2281,0.05515,0.1914,1.54358,0.09115,0.55785,0.11979,0.00847,0.1025,0.07769,0.0507,0.4642,0.53272,0.09513,0.13691,0.49385,-0.0122,0.25678,0.92317,0.11703,0.12458,0.93298,-0.10042,0.27015,1.47363,0.16639,0.06198,1.47118,-0.11175,0.40344,1.19576,0.27927,0.16622,1.20172,0.01351,0.48825,1.42358,0.23533,0.32426,1.41355
2282,0.05668,0.19196,1.54371,0.09135,0.5574,0.12014,0.00852,0.10252,0.07781,0.0513,0.46545,0.53349,0.09573,0.1374,0.49381,-0.01143,0.25702,0.92343,0.11798,0.12498,0.93292,-0.09945,0.27001,1.47385,0.16876,0.0628,1.47166,-0.11069,0.40323,1.19594,0.28059,0.168,1.20213,0.01375,0.48836,1.42408,0.23613,0.3251,1.41454
2283,0.05793,0.19271,1.54382,0.09155,0.5573,0.1208,0.00867,0.10254,0.078,0.05207,0.46686,0.53453,0.09645,0.13794,0.49385,-0.01053,0.25737,0.92393,0.11929,0.1257,0.93293,-0.09891,0.26972,1.47382,0.17093,0.06378,1.47203,-0.10921,0.40282,1.19582,0.28199,0.17,1.20258,0.01362,0.48834,1.42469,0.23666,0.32613,1.41552
2284,0.059,0.19365,1.54385,0.09173,0.5574,0.12157,0.00888,0.10271,0.07824,0.05287,0.4683,0.53566,0.09722,0.13844,0.49393,-0.00955,0.25806,0.92467,0.12067,0.12674,0.933,-0.0983,0.26979,1.47377,0.17286,0.06485,1.47227,-0.10759,0.40265,1.19561,0.28341,0.17203,1.203,0.01367,0.48839,1.42524,0.23688,0.32741,1.41624
2285,0.05995,0.19468,1.54386,0.09188,0.55732,0.12208,0.00908,0.10302,0.07839,0.05367,0.46974,0.53655,0.09797,0.13883,0.49396,-0.00848,0.25913,0.92541,0.12185,0.12787,0.93302,-0.09718,0.27049,1.47388,0.17459,0.0658,1.47251,-0.10623,0.40297,1.19553,0.28483,0.17382,1.20344,0.0143,0.48868,1.42556,0.23696,0.32887,1.41662
2286,0.06091,0.19558,1.54398,0.09199,0.55688,0.12215,0.00927,0.10329,0.07835,0.05446,0.47134,0.53711,0.09866,0.13914,0.49381,-0.00729,0.26035,0.92583,0.12289,0.12892,0.93286,-0.09559,0.27133,1.47409,0.17622,0.0664,1.4728,-0.10543,0.40351,1.19563,0.28631,0.17528,1.20401,0.01519,0.48919,1.42562,0.23722,0.33046,1.41682
2287,0.06211,0.19633,1.54417,0.0921,0.55618,0.12195,0.00945,0.10335,0.07819,0.05529,0.47312,0.53748,0.09926,0.13948,0.49353,-0.00602,0.26144,0.92589,0.12403,0.12986,0.93257,-0.09393,0.27178,1.47432,0.17781,0.06674,1.47309,-0.10507,0.40384,1.19585,0.28783,0.17674,1.20474,0.01582,0.48976,1.4256,0.23776,0.33226,1.41707
2288,0.06371,0.19728,1.54418,0.09227,0.55536,0.12174,0.0096,0.10326,0.0781,0.05622,0.4748,0.53783,0.0998,0.13988,0.49332,-0.00482,0.26228,0.92583,0.12534,0.13079,0.93233,-0.09254,0.27198,1.47464,0.17948,0.06727,1.47331,-0.10468,0.40387,1.19613,0.28941,0.17865,1.20548,0.01615,0.49034,1.42572,0.2384,0.33424,1.41754
2289,0.06562,0.19863,1.54386,0.0925,0.55448,0.12171,0.00971,0.10322,0.07818,0.05722,0.47612,0.53828,0.10032,0.14024,0.49327,-0.00384,0.26297,0.92593,0.12664,0.13179,0.93225,-0.09143,0.27239,1.47511,0.18135,0.06837,1.47346,-0.10393,0.40396,1.19647,0.29109,0.18108,1.20611,0.01664,0.49097,1.42598,0.23891,0.33626,1.41818
2290,0.06756,0.19997,1.54348,0.09267,0.55356,0.12181,0.00975,0.10334,0.07832,0.05815,0.47713,0.5388,0.10079,0.14062,0.4933,-0.00318,0.26369,0.92625,0.12765,0.13285,0.93225,-0.09043,0.27306,1.47558,0.18333,0.06987,1.47364,-0.10285,0.40437,1.19681,0.29271,0.18374,1.20665,0.0175,0.49174,1.4263,0.23929,0.33838,1.4188
2291,0.06929,0.20078,1.54344,0.09268,0.55265,0.12184,0.00969,0.10357,0.07832,0.05889,0.47806,0.53923,0.10109,0.1412,0.49319,-0.00273,0.26461,0.92663,0.12835,0.13399,0.93213,-0.08938,0.27372,1.47581,0.18521,0.0714,1.47391,-0.10168,0.40507,1.19705,0.29406,0.18634,1.20716,0.01852,0.49264,1.42655,0.2397,0.34072,1.41926
2292,0.07085,0.20122,1.54377,0.0927,0.55173,0.12159,0.00956,0.10365,0.07818,0.0595,0.47909,0.53937,0.10128,0.14208,0.4929,-0.00225,0.26572,0.92679,0.12898,0.13524,0.93182,-0.08823,0.27424,1.47576,0.18685,0.07284,1.47417,-0.1006,0.40589,1.19715,0.2952,0.18884,1.20767,0.01938,0.49365,1.42669,0.2403,0.34319,1.41966
2293,0.07243,0.2019,1.5442,0.09312,0.5508,0.12113,0.00949,0.10345,0.07806,0.06019,0.48023,0.53929,0.10165,0.14312,0.49256,-0.00157,0.26687,0.9267,0.12983,0.13655,0.93146,-0.08695,0.27486,1.47561,0.18832,0.0743,1.47432,-0.09973,0.40676,1.19714,0.29645,0.19139,1.20821,0.02003,0.49478,1.42668,0.24106,0.34561,1.42016
2294,0.07411,0.20312,1.54451,0.09415,0.54986,0.12067,0.00957,0.1031,0.07808,0.06119,0.48143,0.53918,0.10234,0.14402,0.49233,-0.00063,0.26802,0.92656,0.13101,0.13794,0.9312,-0.08556,0.27581,1.47552,0.18975,0.07581,1.4743,-0.09908,0.40779,1.19711,0.29797,0.1942,1.2088,0.02068,0.49602,1.42659,0.24171,0.348,1.42083
2295,0.07571,0.20473,1.54466,0.09552,0.54891,0.12028,0.00978,0.10286,0.07824,0.06253,0.48267,0.53913,0.10312,0.14462,0.49228,0.00053,0.26928,0.9265,0.13242,0.13944,0.93112,-0.08414,0.27715,1.47547,0.19128,0.07732,1.47406,-0.09845,0.40909,1.19709,0.29957,0.19745,1.20937,0.02143,0.49725,1.42653,0.24205,0.35052,1.42159
2296,0.07693,0.20641,1.54471,0.09679,0.548,0.11982,0.01,0.10288,0.07846,0.06404,0.48395,0.53904,0.10373,0.1451,0.49236,0.00175,0.2707,0.92644,0.13386,0.1411,0.93116,-0.08281,0.27857,1.47538,0.19283,0.07885,1.47366,-0.09766,0.41059,1.19706,0.30108,0.20104,1.2099,0.02225,0.49841,1.42661,0.24211,0.35327,1.42233
2297,0.07774,0.20791,1.54469,0.09765,0.54723,0.11918,0.01011,0.10313,0.07869,0.06547,0.48526,0.53875,0.10418,0.14583,0.49247,0.0028,0.2722,0.92619,0.13522,0.14293,0.93121,-0.08175,0.27953,1.47511,0.19419,0.08043,1.47333,-0.09667,0.41212,1.19707,0.30265,0.20458,1.21058,0.02311,0.49959,1.42682,0.24204,0.35613,1.42303
2298,0.07849,0.20916,1.5446,0.09814,0.54674,0.11839,0.01012,0.10347,0.07888,0.06669,0.48658,0.53828,0.10467,0.14696,0.49246,0.00358,0.27369,0.92574,0.13644,0.14488,0.93116,-0.08101,0.27975,1.47464,0.19544,0.08213,1.47332,-0.09559,0.41355,1.19716,0.3045,0.20777,1.21152,0.02398,0.50083,1.4271,0.24193,0.35889,1.4237
2299,0.07958,0.2103,1.54443,0.09851,0.54645,0.11764,0.01008,0.10379,0.079,0.06774,0.48785,0.5378,0.10539,0.14822,0.49231,0.00419,0.27518,0.92531,0.13757,0.14693,0.93098,-0.08039,0.27962,1.47409,0.19699,0.08407,1.47359,-0.09458,0.41478,1.19726,0.30649,0.21068,1.21244,0.02466,0.50203,1.42737,0.24185,0.36138,1.42431
2300,0.08112,0.21155,1.54421,0.099,0.54611,0.11708,0.01004,0.10404,0.07907,0.06873,0.48905,0.53749,0.10626,0.14926,0.49208,0.00483,0.27677,0.92516,0.13865,0.14897,0.93073,-0.07957,0.27987,1.47368,0.19906,0.08639,1.47393,-0.09374,0.41581,1.19723,0.30822,0.21367,1.21297,0.02495,0.50309,1.42762,0.24189,0.36362,1.42485
2301,0.0829,0.21305,1.54402,0.09963,0.54563,0.11667,0.01004,0.10426,0.07916,0.06973,0.49017,0.53732,0.10712,0.15012,0.4919,0.0056,0.2785,0.92529,0.13964,0.15092,0.93055,-0.07846,0.28084,1.47355,0.20132,0.08897,1.47415,-0.09298,0.41673,1.19709,0.30953,0.21695,1.21313,0.02501,0.50417,1.42778,0.24215,0.36572,1.42551
2302,0.08453,0.21479,1.5439,0.10019,0.54517,0.11625,0.01011,0.10454,0.07935,0.07069,0.49129,0.53713,0.10789,0.1512,0.49184,0.0065,0.28035,0.92549,0.14057,0.15278,0.93046,-0.07726,0.28235,1.47371,0.20327,0.09143,1.47422,-0.09214,0.41771,1.19701,0.3106,0.22041,1.21333,0.0252,0.5055,1.4279,0.24265,0.3678,1.42649
2303,0.08573,0.2167,1.54389,0.10048,0.54494,0.11566,0.01026,0.10492,0.07961,0.07162,0.49247,0.53677,0.10864,0.15278,0.49181,0.00745,0.28227,0.92553,0.14152,0.1547,0.93043,-0.07619,0.2841,1.47419,0.20467,0.09347,1.47426,-0.0912,0.41886,1.19721,0.31165,0.22372,1.21386,0.02576,0.50711,1.42811,0.24337,0.36984,1.42778
2304,0.08664,0.2187,1.54393,0.10041,0.54492,0.11492,0.01052,0.10534,0.07985,0.07264,0.49377,0.53626,0.10946,0.15475,0.49174,0.00843,0.28425,0.92538,0.1426,0.15679,0.93033,-0.07516,0.28593,1.47493,0.20574,0.0952,1.47436,-0.09026,0.42025,1.19774,0.31269,0.22674,1.2146,0.02663,0.5088,1.42856,0.24419,0.37187,1.42912
2305,0.08768,0.22086,1.5439,0.10015,0.54492,0.11414,0.01088,0.10564,0.08007,0.07378,0.49514,0.53574,0.11037,0.15673,0.49162,0.00947,0.28628,0.92519,0.1438,0.159,0.93019,-0.07398,0.28782,1.47567,0.2069,0.09702,1.47454,-0.08927,0.42186,1.19834,0.31365,0.22977,1.2153,0.02758,0.51054,1.42914,0.2449,0.37404,1.43033
2306,0.08889,0.2232,1.54382,0.09991,0.54488,0.11339,0.01122,0.10573,0.08033,0.075,0.49657,0.53525,0.11132,0.1585,0.49152,0.01055,0.28838,0.92504,0.145,0.16123,0.93007,-0.07264,0.28982,1.47605,0.20834,0.09919,1.47472,-0.08809,0.42377,1.19869,0.31458,0.23318,1.21591,0.02843,0.51249,1.42964,0.24528,0.37648,1.4314
2307,0.08999,0.2255,1.54386,0.09974,0.54488,0.11265,0.01145,0.10566,0.08072,0.0762,0.49807,0.53475,0.11234,0.16019,0.49149,0.01168,0.29055,0.92489,0.14615,0.16342,0.93002,-0.07135,0.29202,1.47595,0.2099,0.10166,1.47482,-0.08673,0.42609,1.19865,0.31565,0.23701,1.21652,0.02912,0.5148,1.42994,0.24523,0.37922,1.43238
2308,0.09078,0.2275,1.54413,0.09944,0.54506,0.1119,0.01159,0.1056,0.08118,0.07724,0.4996,0.53422,0.11342,0.16194,0.49147,0.01284,0.29282,0.92477,0.14722,0.1656,0.93,-0.07025,0.29453,1.47559,0.21135,0.10422,1.47483,-0.08532,0.42869,1.19832,0.31698,0.24098,1.21722,0.02963,0.51727,1.4301,0.24495,0.38214,1.43324
2309,0.09139,0.22921,1.5445,0.09891,0.54532,0.11117,0.01176,0.1057,0.0816,0.07796,0.50113,0.5337,0.11456,0.16373,0.49141,0.01394,0.29517,0.92474,0.1482,0.16782,0.92995,-0.06938,0.29724,1.4753,0.21267,0.10673,1.4748,-0.08399,0.43119,1.1979,0.31854,0.24471,1.21795,0.0301,0.51953,1.4302,0.24481,0.38506,1.43392
2310,0.09199,0.23099,1.54473,0.09821,0.54536,0.11052,0.01204,0.10593,0.08197,0.0783,0.50256,0.53324,0.11583,0.16542,0.49133,0.01485,0.29749,0.92484,0.1491,0.17013,0.92989,-0.06875,0.29977,1.47525,0.21394,0.10914,1.47485,-0.08274,0.43332,1.19763,0.32019,0.248,1.21864,0.03077,0.52143,1.4303,0.24513,0.38779,1.43452
2311,0.09268,0.23311,1.5448,0.09739,0.54504,0.10991,0.01238,0.10618,0.08244,0.07839,0.50387,0.53283,0.1173,0.16702,0.49131,0.01549,0.29966,0.92497,0.14997,0.17252,0.9299,-0.06827,0.3019,1.47537,0.21516,0.11152,1.47511,-0.08158,0.4353,1.19764,0.3218,0.25091,1.21935,0.03169,0.52306,1.43056,0.24588,0.39026,1.4352
