PaulMeinheit/Bachelor_Muay_Thai/processed_Data/E1/roundhouse/sliced/JointPositions/sliced0.csv
Unnamed: 0_level_0,Neck_Joint_Position,Neck_Joint_Position,Neck_Joint_Position,L_ANKLE_POSITION,L_ANKLE_POSITION,L_ANKLE_POSITION,R_ANKLE_POSITION,R_ANKLE_POSITION,R_ANKLE_POSITION,L_KNEE_POSITION,L_KNEE_POSITION,L_KNEE_POSITION,R_KNEE_POSITION,R_KNEE_POSITION,R_KNEE_POSITION,L_HIP_POSITION,L_HIP_POSITION,L_HIP_POSITION,R_HIP_POSITION,R_HIP_POSITION,R_HIP_POSITION,L_SHOULDER_POSITION,L_SHOULDER_POSITION,L_SHOULDER_POSITION,R_SHOULDER_POSITION,R_SHOULDER_POSITION,R_SHOULDER_POSITION,L_ELBOW_POSITION,L_ELBOW_POSITION,L_ELBOW_POSITION,R_ELBOW_POSITION,R_ELBOW_POSITION,R_ELBOW_POSITION,L_WRIST_POSITION,L_WRIST_POSITION,L_WRIST_POSITION,R_WRIST_POSITION,R_WRIST_POSITION,R_WRIST_POSITION
ITEM,X,Y,Z,X,Y,Z,X,Y,Z,X,Y,Z,X,Y,Z,X,Y,Z,X,Y,Z,X,Y,Z,X,Y,Z,X,Y,Z,X,Y,Z,X,Y,Z,X,Y,Z
445,0.1224,0.22584,1.53928,0.12766,0.47965,0.08552,0.11096,0.09257,0.07839,0.11849,0.44732,0.50954,0.1914,0.13888,0.49464,0.08909,0.26683,0.91696,0.24043,0.16117,0.93118,-0.0311,0.26663,1.44524,0.28011,0.12102,1.47289,-0.09189,0.26413,1.14291,0.359,0.09406,1.17412,0.01476,0.51176,1.18861,0.3658,0.36171,1.16458
446,0.12296,0.22657,1.53934,0.12787,0.47973,0.08559,0.11097,0.09267,0.07833,0.11819,0.44862,0.50968,0.19126,0.13963,0.49454,0.08854,0.26734,0.91673,0.23983,0.16163,0.93114,-0.03131,0.26775,1.44551,0.28008,0.12203,1.4726,-0.09244,0.26559,1.14324,0.35827,0.09407,1.17373,0.01516,0.5129,1.18846,0.36542,0.36168,1.16335
447,0.12373,0.22745,1.53932,0.12798,0.48002,0.08575,0.11096,0.09304,0.07827,0.11796,0.45013,0.50993,0.19097,0.14025,0.4945,0.08815,0.26809,0.91662,0.2393,0.16218,0.93113,-0.03145,0.26883,1.44563,0.27989,0.12307,1.47232,-0.09287,0.26747,1.14341,0.35745,0.09389,1.1734,0.01594,0.51428,1.18848,0.36519,0.36147,1.1624
448,0.12423,0.2287,1.53915,0.12794,0.48027,0.08593,0.11097,0.09339,0.07825,0.11779,0.45163,0.51019,0.19073,0.14061,0.49453,0.08793,0.26884,0.91655,0.2389,0.1627,0.93117,-0.03165,0.26998,1.44564,0.27961,0.12421,1.47219,-0.0932,0.26942,1.14345,0.35655,0.09402,1.17322,0.01694,0.51559,1.18873,0.36499,0.36155,1.1616
449,0.12417,0.23033,1.53889,0.12782,0.48031,0.08604,0.11105,0.09358,0.07826,0.11765,0.45299,0.51039,0.19067,0.1407,0.49458,0.08774,0.26943,0.9164,0.23862,0.16319,0.93123,-0.03205,0.27115,1.44561,0.27938,0.12543,1.47216,-0.09355,0.27098,1.14341,0.35572,0.09461,1.17309,0.01775,0.51657,1.18907,0.36474,0.36209,1.16069
450,0.12369,0.23213,1.53867,0.12767,0.48027,0.08608,0.11118,0.09369,0.07829,0.11757,0.45422,0.51051,0.19066,0.1407,0.49464,0.0875,0.26993,0.91617,0.23842,0.16377,0.93128,-0.03261,0.2723,1.44562,0.27926,0.12677,1.47203,-0.09407,0.27209,1.14341,0.35507,0.09541,1.17288,0.01805,0.51726,1.18924,0.3645,0.36282,1.1596
451,0.1232,0.23389,1.53857,0.12752,0.48033,0.08612,0.1113,0.09382,0.07834,0.1175,0.45542,0.51061,0.19055,0.14083,0.49474,0.08722,0.27054,0.91599,0.23819,0.1645,0.93136,-0.03295,0.27359,1.44566,0.27916,0.12827,1.47187,-0.0948,0.273,1.14353,0.35459,0.09604,1.17272,0.01789,0.51795,1.18919,0.36445,0.3634,1.1585
452,0.1229,0.23554,1.53853,0.12742,0.48052,0.08622,0.11139,0.09393,0.07845,0.11737,0.45663,0.51078,0.19029,0.14119,0.49489,0.08692,0.27129,0.91593,0.23786,0.16525,0.93149,-0.03284,0.27533,1.4457,0.2789,0.12987,1.47201,-0.0956,0.27395,1.14376,0.35421,0.09649,1.17296,0.01748,0.51879,1.18903,0.36467,0.36376,1.15759
453,0.12279,0.23716,1.53843,0.12739,0.48071,0.08638,0.11139,0.09395,0.07853,0.11715,0.45791,0.51099,0.18997,0.14174,0.49497,0.08655,0.27203,0.91589,0.23742,0.1659,0.93159,-0.03245,0.2776,1.44575,0.2785,0.13147,1.47254,-0.09623,0.27502,1.14403,0.35385,0.09701,1.17362,0.01703,0.51985,1.1889,0.36511,0.36416,1.15683
454,0.12288,0.23897,1.53819,0.12738,0.48082,0.0865,0.11126,0.09392,0.0785,0.11682,0.45927,0.51116,0.18966,0.14239,0.49489,0.08605,0.27274,0.91575,0.23686,0.16654,0.93153,-0.03219,0.28021,1.44589,0.27814,0.1331,1.47308,-0.09651,0.27621,1.1443,0.35341,0.09762,1.17426,0.01667,0.52113,1.18888,0.36544,0.36464,1.15606
455,0.12317,0.24114,1.53785,0.12735,0.48085,0.08648,0.111,0.09396,0.07832,0.11635,0.46076,0.5112,0.18945,0.14304,0.49464,0.08547,0.27356,0.91547,0.23624,0.16731,0.93131,-0.03223,0.2829,1.44606,0.2778,0.13484,1.47315,-0.09656,0.27755,1.1445,0.35284,0.09788,1.17445,0.01648,0.52254,1.18906,0.36528,0.3648,1.15499
456,0.12348,0.24361,1.53754,0.12738,0.4808,0.08636,0.11072,0.09403,0.07813,0.11587,0.46245,0.51115,0.18943,0.1436,0.49434,0.08496,0.27457,0.9151,0.23566,0.16822,0.93105,-0.03254,0.28543,1.44606,0.27731,0.13664,1.47267,-0.09666,0.27907,1.14447,0.35217,0.09737,1.17422,0.01647,0.52393,1.18951,0.36459,0.36419,1.15345
457,0.12368,0.24608,1.53733,0.12755,0.48072,0.08631,0.11053,0.09397,0.07805,0.1156,0.46438,0.51117,0.18961,0.14405,0.49413,0.08468,0.27573,0.91477,0.23521,0.16917,0.93088,-0.03299,0.28762,1.44581,0.27667,0.13841,1.47202,-0.09697,0.28095,1.1442,0.35143,0.09632,1.17393,0.01673,0.52537,1.19019,0.36382,0.363,1.1515
458,0.12384,0.24835,1.53721,0.12784,0.48066,0.08645,0.11052,0.09375,0.07812,0.11563,0.46644,0.51138,0.18991,0.14444,0.49406,0.0846,0.27695,0.91457,0.23486,0.17004,0.93086,-0.03343,0.28936,1.44546,0.27615,0.14014,1.47161,-0.09734,0.28339,1.14382,0.35068,0.09545,1.17384,0.0174,0.5271,1.19097,0.36342,0.36194,1.14945
459,0.1241,0.25037,1.53715,0.12809,0.48069,0.08671,0.11063,0.09356,0.07822,0.1157,0.4684,0.5117,0.19011,0.14487,0.49407,0.08451,0.27819,0.91454,0.2345,0.1709,0.93089,-0.03373,0.29082,1.44518,0.27599,0.14195,1.47148,-0.09749,0.28625,1.14348,0.34997,0.09516,1.1739,0.01844,0.52919,1.19174,0.36336,0.36144,1.14757
460,0.1244,0.25218,1.53712,0.12818,0.48087,0.08698,0.11073,0.09349,0.07819,0.11549,0.47016,0.512,0.19008,0.14546,0.49399,0.0842,0.27944,0.91459,0.23403,0.17193,0.93083,-0.03382,0.29247,1.44494,0.27606,0.14388,1.47138,-0.09721,0.28912,1.14315,0.34936,0.09526,1.17392,0.01951,0.53145,1.1925,0.36349,0.36132,1.14583
461,0.12452,0.25404,1.5371,0.12812,0.48116,0.08718,0.1107,0.09341,0.07807,0.115,0.47181,0.51222,0.18989,0.14622,0.49379,0.08365,0.28071,0.91462,0.23349,0.17317,0.93064,-0.03371,0.29478,1.44465,0.27611,0.14579,1.47118,-0.0966,0.29175,1.14275,0.34888,0.09564,1.17385,0.02016,0.53381,1.19334,0.36396,0.36147,1.14406
462,0.12431,0.25621,1.53706,0.12811,0.48146,0.08732,0.11046,0.09322,0.078,0.1145,0.47352,0.51238,0.18976,0.14702,0.49357,0.08306,0.28198,0.91457,0.23296,0.1745,0.93042,-0.03346,0.29777,1.44428,0.27603,0.14754,1.471,-0.09594,0.29431,1.1423,0.34864,0.09665,1.17375,0.02022,0.53636,1.19427,0.36513,0.36219,1.14222
463,0.12394,0.25871,1.53697,0.12828,0.48179,0.08745,0.1101,0.09318,0.07804,0.11415,0.47539,0.51251,0.18982,0.14775,0.49343,0.08262,0.28327,0.91442,0.23252,0.1758,0.9303,-0.03308,0.30102,1.44379,0.27584,0.14914,1.47101,-0.09558,0.29706,1.14182,0.3486,0.09845,1.17376,0.02003,0.53906,1.19522,0.36693,0.36364,1.14035
464,0.12378,0.26143,1.53674,0.12855,0.48223,0.08757,0.1098,0.09359,0.07809,0.11391,0.47743,0.51264,0.18998,0.14847,0.49335,0.08236,0.28462,0.91421,0.23215,0.17701,0.93024,-0.03265,0.30417,1.44324,0.27554,0.15062,1.47119,-0.0957,0.30005,1.14139,0.34853,0.10049,1.17391,0.02008,0.54166,1.1962,0.36855,0.36527,1.1383
465,0.12395,0.26432,1.53639,0.1287,0.48272,0.08773,0.10966,0.09441,0.07801,0.11366,0.47959,0.51279,0.19005,0.14936,0.49322,0.08216,0.28605,0.91402,0.23172,0.17814,0.93014,-0.03228,0.30717,1.44276,0.27518,0.1521,1.47129,-0.09616,0.30311,1.14108,0.34813,0.10201,1.17399,0.02038,0.54405,1.19726,0.3692,0.36636,1.1359
466,0.12423,0.26729,1.53607,0.12871,0.48305,0.08793,0.10967,0.09524,0.07782,0.11333,0.48173,0.51299,0.18997,0.15052,0.49301,0.08191,0.28759,0.91393,0.23114,0.17921,0.92998,-0.03208,0.31007,1.44237,0.27493,0.15379,1.47104,-0.09664,0.30607,1.14084,0.34729,0.10275,1.17376,0.02043,0.54639,1.1985,0.3689,0.3667,1.13325
467,0.12442,0.27017,1.53588,0.12871,0.48317,0.08814,0.10974,0.09573,0.07767,0.11284,0.48377,0.51319,0.18983,0.15194,0.49277,0.08156,0.28915,0.91391,0.23045,0.18028,0.92982,-0.03202,0.31292,1.442,0.27488,0.15594,1.47055,-0.09679,0.30893,1.14051,0.34613,0.10295,1.17334,0.02002,0.54894,1.19996,0.36833,0.36651,1.13064
468,0.12469,0.27295,1.53581,0.1288,0.48319,0.08835,0.1098,0.09589,0.07766,0.11223,0.48573,0.51336,0.18972,0.1535,0.4926,0.08117,0.29058,0.91384,0.22982,0.18139,0.92972,-0.03186,0.31585,1.44161,0.27485,0.15853,1.47021,-0.09645,0.31204,1.14008,0.34484,0.10299,1.17317,0.01951,0.5519,1.20174,0.36807,0.36608,1.12819
469,0.12534,0.27584,1.5358,0.12904,0.48333,0.08857,0.10988,0.09582,0.07777,0.11172,0.48776,0.51354,0.18971,0.15506,0.4925,0.08082,0.2919,0.91368,0.22932,0.18253,0.92969,-0.03141,0.31889,1.44131,0.27454,0.16123,1.47028,-0.09573,0.31576,1.13972,0.34369,0.10312,1.17352,0.01942,0.55536,1.20387,0.36813,0.36561,1.12577
470,0.1263,0.27896,1.53579,0.12944,0.48367,0.08883,0.11005,0.09564,0.07796,0.11155,0.48998,0.51375,0.18986,0.15645,0.49247,0.0806,0.29325,0.91347,0.22892,0.18366,0.92973,-0.03076,0.32189,1.44118,0.27393,0.16361,1.4706,-0.09486,0.32021,1.13952,0.34285,0.10348,1.1742,0.01991,0.5593,1.2062,0.36823,0.36527,1.12324
471,0.12725,0.28218,1.53579,0.12988,0.48417,0.08914,0.11031,0.09547,0.07818,0.11168,0.49228,0.51402,0.19015,0.15758,0.49248,0.08043,0.29471,0.9133,0.22853,0.18486,0.9298,-0.03026,0.32472,1.44111,0.27337,0.16561,1.47084,-0.09406,0.32517,1.13939,0.34234,0.10404,1.17475,0.02078,0.56356,1.20843,0.36835,0.36515,1.12067
472,0.12784,0.28533,1.53576,0.13022,0.48474,0.08952,0.11054,0.09543,0.07833,0.11184,0.49447,0.51435,0.19045,0.15854,0.49247,0.08011,0.29624,0.91326,0.22802,0.18615,0.92984,-0.03014,0.32768,1.44098,0.27319,0.16756,1.47073,-0.09354,0.33025,1.13918,0.34186,0.10469,1.17484,0.02172,0.56782,1.21032,0.36872,0.36516,1.11815
473,0.12795,0.28839,1.53572,0.13045,0.48526,0.08995,0.11058,0.09552,0.07839,0.11173,0.4966,0.51473,0.19064,0.15953,0.49237,0.07956,0.29773,0.91329,0.22729,0.18739,0.9298,-0.03027,0.33126,1.44077,0.27331,0.16983,1.47018,-0.09332,0.33513,1.13892,0.34101,0.1054,1.1744,0.02248,0.57188,1.21186,0.36938,0.36525,1.11567
474,0.12774,0.29148,1.53564,0.13073,0.48565,0.09038,0.11046,0.09566,0.07836,0.11136,0.4989,0.51508,0.19074,0.16073,0.49213,0.07897,0.29925,0.91322,0.22644,0.18855,0.92964,-0.03029,0.33563,1.44058,0.27336,0.17247,1.46936,-0.09316,0.33977,1.13869,0.33979,0.10632,1.17367,0.02296,0.57584,1.21333,0.37015,0.36553,1.11311
475,0.12752,0.29465,1.53549,0.13114,0.48592,0.09075,0.11029,0.09584,0.07828,0.11099,0.50149,0.51533,0.1908,0.16217,0.4918,0.07855,0.30091,0.91301,0.22569,0.18978,0.92939,-0.02996,0.34037,1.4404,0.27322,0.17525,1.46868,-0.09278,0.34437,1.1385,0.33854,0.10764,1.17307,0.02333,0.57982,1.21509,0.37072,0.36615,1.11053
476,0.12746,0.29783,1.53524,0.1317,0.48611,0.09109,0.11018,0.09613,0.0782,0.11082,0.50423,0.51554,0.19093,0.16382,0.49146,0.07825,0.30274,0.91274,0.22509,0.1912,0.92912,-0.02937,0.34492,1.44016,0.27309,0.1779,1.46841,-0.09223,0.34913,1.13827,0.33753,0.10926,1.17285,0.02395,0.58377,1.2172,0.37087,0.36707,1.10804
477,0.12749,0.30098,1.53492,0.13231,0.48637,0.0915,0.1102,0.09656,0.07816,0.11084,0.50698,0.5158,0.19114,0.16557,0.49116,0.07791,0.30467,0.91256,0.22447,0.19276,0.9289,-0.0288,0.34903,1.43985,0.27307,0.18035,1.46855,-0.0918,0.35393,1.138,0.33669,0.11094,1.17299,0.02483,0.58752,1.21935,0.3706,0.36803,1.10567
478,0.12738,0.30412,1.53463,0.13286,0.48686,0.09203,0.11029,0.09694,0.0782,0.111,0.50975,0.51619,0.19144,0.16727,0.49094,0.07742,0.30664,0.91249,0.22371,0.19437,0.92876,-0.0285,0.35278,1.43951,0.273,0.18274,1.46883,-0.09165,0.35855,1.1377,0.33581,0.11245,1.17331,0.02555,0.59111,1.22116,0.37012,0.36878,1.10333
479,0.12716,0.3074,1.53433,0.1333,0.48763,0.09262,0.11039,0.09703,0.07835,0.11122,0.51258,0.51666,0.19188,0.16881,0.49077,0.07688,0.30855,0.91242,0.2229,0.19592,0.92869,-0.02844,0.35631,1.43911,0.27269,0.18534,1.46898,-0.09157,0.36301,1.13732,0.33486,0.11374,1.17363,0.02578,0.59484,1.22256,0.36968,0.36926,1.101
480,0.12712,0.31106,1.53397,0.13362,0.48847,0.0932,0.11048,0.09672,0.07861,0.11141,0.51542,0.51711,0.19247,0.17015,0.49064,0.07645,0.31031,0.91226,0.22219,0.19734,0.92864,-0.02835,0.35966,1.43858,0.27217,0.18824,1.46881,-0.09124,0.36761,1.13677,0.334,0.1149,1.17383,0.02563,0.59901,1.22382,0.36939,0.36961,1.09869
481,0.12743,0.31512,1.53353,0.13376,0.48919,0.09372,0.11067,0.09624,0.07889,0.11147,0.51817,0.51749,0.19313,0.17133,0.49053,0.07609,0.31193,0.91201,0.22156,0.19865,0.9286,-0.02798,0.36295,1.43795,0.27162,0.19124,1.46842,-0.09063,0.37259,1.13614,0.33333,0.11606,1.17387,0.02551,0.60358,1.22524,0.36922,0.37003,1.09648
482,0.12791,0.31926,1.53309,0.13373,0.48977,0.09421,0.11098,0.09599,0.07905,0.11136,0.52079,0.51783,0.19375,0.17245,0.49037,0.07561,0.31351,0.91177,0.22082,0.19991,0.92852,-0.02728,0.36649,1.4374,0.27119,0.19405,1.46801,-0.08992,0.37796,1.13565,0.33277,0.11736,1.17382,0.0258,0.60826,1.22704,0.36922,0.37063,1.09443
483,0.12845,0.32318,1.53269,0.13363,0.49034,0.09474,0.11116,0.09626,0.07903,0.11108,0.52332,0.51821,0.19426,0.1737,0.4901,0.07493,0.31512,0.91162,0.21986,0.20115,0.92835,-0.02638,0.37052,1.43707,0.27091,0.19663,1.46771,-0.08921,0.38357,1.13542,0.33226,0.11884,1.17377,0.02657,0.61286,1.22925,0.3694,0.37142,1.0925
484,0.12915,0.32692,1.53237,0.13366,0.49098,0.09537,0.11102,0.09697,0.07892,0.11071,0.52586,0.51866,0.1947,0.1753,0.4897,0.07416,0.31687,0.91163,0.21879,0.20249,0.92805,-0.0255,0.37502,1.43694,0.27081,0.19924,1.46753,-0.08841,0.38928,1.13537,0.33185,0.12042,1.1738,0.02761,0.61746,1.23159,0.36963,0.37226,1.09056
485,0.13003,0.33065,1.53209,0.13398,0.49163,0.0961,0.11064,0.09779,0.07883,0.11033,0.52847,0.51919,0.19524,0.17733,0.48919,0.07342,0.31885,0.91178,0.21781,0.20408,0.92764,-0.0248,0.37973,1.43688,0.27092,0.20211,1.46748,-0.08751,0.39501,1.13531,0.33144,0.12196,1.17399,0.02868,0.62219,1.23368,0.36986,0.37298,1.08863
486,0.1308,0.33448,1.5317,0.13452,0.49221,0.09687,0.11027,0.09844,0.07881,0.11001,0.53118,0.51972,0.19602,0.17961,0.48861,0.07273,0.32099,0.91197,0.21694,0.20591,0.92717,-0.0242,0.38441,1.43675,0.2711,0.20536,1.46752,-0.08676,0.40078,1.13521,0.3308,0.12333,1.17439,0.0298,0.62699,1.23533,0.37024,0.37347,1.0869
487,0.13117,0.33846,1.53107,0.13508,0.49268,0.09767,0.11009,0.09881,0.07888,0.10972,0.534,0.52024,0.19702,0.18187,0.48806,0.07199,0.32301,0.91203,0.21611,0.20775,0.92673,-0.02349,0.38898,1.4365,0.27102,0.20904,1.46752,-0.0864,0.4067,1.13511,0.32996,0.1246,1.17492,0.03118,0.63177,1.23662,0.37081,0.37379,1.08538
488,0.13128,0.34266,1.53027,0.13551,0.49314,0.09844,0.11013,0.09902,0.07906,0.10944,0.53689,0.52073,0.19804,0.18385,0.48767,0.07122,0.32476,0.91184,0.21528,0.20941,0.92643,-0.02263,0.39346,1.43612,0.27051,0.21306,1.46735,-0.08632,0.41275,1.13499,0.32919,0.1259,1.17549,0.0328,0.63646,1.23769,0.37142,0.37409,1.08386
489,0.13152,0.34716,1.52948,0.13576,0.49364,0.09913,0.11033,0.09933,0.07929,0.10918,0.53972,0.52114,0.19888,0.18543,0.48749,0.0705,0.32633,0.91153,0.21446,0.21089,0.92632,-0.02179,0.39786,1.43568,0.26975,0.21713,1.46713,-0.08609,0.41862,1.13478,0.3286,0.12733,1.17611,0.03438,0.64111,1.23857,0.37195,0.37443,1.08208
490,0.13191,0.3519,1.52883,0.13574,0.49414,0.09971,0.11062,0.09986,0.07945,0.10892,0.54229,0.52147,0.19953,0.18668,0.48742,0.06989,0.32791,0.91128,0.21366,0.21224,0.9263,-0.02105,0.40224,1.43529,0.2691,0.22102,1.46725,-0.08541,0.42394,1.13447,0.32806,0.12899,1.17695,0.03562,0.64569,1.23917,0.37238,0.37476,1.07995
491,0.13223,0.35675,1.52833,0.13536,0.4946,0.10023,0.11094,0.10033,0.07953,0.10861,0.54457,0.52178,0.20013,0.18784,0.48729,0.06927,0.3295,0.91118,0.21277,0.2135,0.9262,-0.02034,0.40675,1.43497,0.26869,0.22482,1.46781,-0.08441,0.42859,1.1341,0.32744,0.13089,1.17808,0.03654,0.65007,1.23946,0.37267,0.37512,1.07765
492,0.13243,0.36153,1.52798,0.13464,0.49511,0.10069,0.11122,0.10025,0.07964,0.10821,0.54664,0.52207,0.20079,0.18908,0.48703,0.06846,0.33108,0.91116,0.21166,0.21471,0.926,-0.01959,0.41152,1.4347,0.26843,0.22875,1.46835,-0.08356,0.43288,1.13377,0.32676,0.13285,1.17918,0.03734,0.65419,1.23955,0.37295,0.37557,1.07559
493,0.1328,0.36609,1.52783,0.13374,0.49571,0.10107,0.11143,0.09955,0.07992,0.10779,0.54862,0.52232,0.20152,0.19039,0.48676,0.06745,0.33271,0.91115,0.21036,0.21594,0.92577,-0.01884,0.41642,1.4344,0.26809,0.23278,1.46838,-0.08326,0.43732,1.13353,0.32597,0.13454,1.1799,0.03826,0.65814,1.23962,0.3735,0.37602,1.07404
494,0.13342,0.37025,1.52792,0.13296,0.49632,0.10139,0.11154,0.09874,0.08036,0.1073,0.55052,0.52248,0.20232,0.19162,0.48658,0.06651,0.33442,0.91115,0.20909,0.21723,0.92563,-0.01821,0.42132,1.43403,0.26757,0.2366,1.468,-0.0834,0.44224,1.13333,0.3249,0.1359,1.18026,0.03937,0.66219,1.2398,0.37433,0.37626,1.07273
495,0.13388,0.37394,1.52815,0.1324,0.4968,0.10167,0.11156,0.09835,0.08082,0.10655,0.55229,0.52258,0.20309,0.19265,0.48655,0.06583,0.33611,0.91122,0.20805,0.21848,0.92561,-0.01774,0.42627,1.4337,0.26695,0.2401,1.46773,-0.08341,0.44756,1.13313,0.32348,0.1371,1.18065,0.04059,0.6666,1.24005,0.37503,0.37617,1.07127
496,0.13386,0.37734,1.52843,0.13196,0.49713,0.10198,0.11163,0.09847,0.08123,0.1055,0.5538,0.5227,0.20369,0.19345,0.48668,0.06532,0.33762,0.91139,0.20718,0.21954,0.92574,-0.01731,0.43151,1.43357,0.26641,0.24361,1.46788,-0.08288,0.45298,1.13299,0.32187,0.13835,1.18142,0.04174,0.67149,1.24026,0.37529,0.37591,1.06968
497,0.13353,0.38098,1.52873,0.13142,0.49742,0.10238,0.11185,0.0988,0.08163,0.10439,0.55501,0.52294,0.20406,0.19404,0.48699,0.06474,0.3389,0.91173,0.20619,0.22034,0.92604,-0.01668,0.43712,1.43369,0.26594,0.24755,1.46837,-0.08202,0.4583,1.13304,0.32034,0.13979,1.18263,0.04272,0.67675,1.24028,0.37514,0.37582,1.06835
498,0.13338,0.38524,1.52899,0.13075,0.49772,0.10289,0.11222,0.09911,0.08211,0.10351,0.55603,0.52333,0.20425,0.19436,0.4875,0.06397,0.34008,0.91222,0.205,0.22101,0.92653,-0.01566,0.44276,1.43392,0.26535,0.25182,1.46909,-0.08134,0.46352,1.13332,0.31915,0.14151,1.18421,0.04364,0.68208,1.24008,0.37485,0.37613,1.06748
499,0.13363,0.39011,1.52911,0.13009,0.49806,0.10344,0.1126,0.09949,0.0827,0.10289,0.55695,0.5238,0.20433,0.19439,0.48824,0.06316,0.34122,0.9128,0.20382,0.22173,0.92724,-0.01437,0.44801,1.43417,0.26466,0.25603,1.47008,-0.08106,0.46867,1.13378,0.3185,0.14362,1.18603,0.04472,0.68719,1.23969,0.37454,0.37689,1.06677
500,0.13414,0.39527,1.52906,0.12951,0.49834,0.10386,0.11291,0.09997,0.08336,0.10235,0.55769,0.52417,0.20422,0.19425,0.48914,0.06248,0.34227,0.91332,0.20295,0.22259,0.92807,-0.01317,0.45276,1.43444,0.26409,0.26003,1.47135,-0.08104,0.47355,1.13432,0.3185,0.14609,1.18802,0.04602,0.69187,1.23908,0.37411,0.37791,1.06578
501,0.13449,0.40035,1.52899,0.12898,0.49838,0.10403,0.11321,0.10031,0.084,0.10167,0.55814,0.52427,0.20387,0.19405,0.49005,0.06195,0.34318,0.91369,0.20235,0.22348,0.9289,-0.01247,0.45729,1.43471,0.26381,0.26407,1.47272,-0.08115,0.47781,1.13476,0.31886,0.14869,1.1901,0.04722,0.69605,1.2381,0.37352,0.37888,1.06439
502,0.13438,0.40504,1.52909,0.1284,0.4981,0.10393,0.11351,0.10024,0.08466,0.10075,0.55826,0.52409,0.20342,0.19372,0.49093,0.06145,0.34401,0.91394,0.20172,0.22423,0.92972,-0.0124,0.46195,1.43491,0.26371,0.26826,1.47409,-0.08149,0.48133,1.13498,0.31903,0.15127,1.19218,0.04798,0.69971,1.23662,0.37291,0.37967,1.06292
503,0.13385,0.40933,1.52944,0.12769,0.4977,0.10371,0.11379,0.09978,0.08544,0.09957,0.55814,0.5238,0.20309,0.19315,0.49187,0.06088,0.34488,0.91425,0.20083,0.22479,0.93057,-0.0127,0.46683,1.43499,0.26353,0.27235,1.47549,-0.08218,0.4844,1.13504,0.31867,0.15387,1.19417,0.04839,0.703,1.23477,0.37239,0.38043,1.06167
504,0.13317,0.41339,1.53003,0.12695,0.49755,0.10358,0.11403,0.09922,0.08635,0.09819,0.5579,0.52364,0.20298,0.19229,0.49294,0.06025,0.3458,0.9148,0.19975,0.22525,0.93154,-0.01291,0.47176,1.43501,0.26323,0.27608,1.47693,-0.08318,0.48747,1.13513,0.31773,0.15637,1.196,0.04886,0.70612,1.23281,0.37205,0.38118,1.06078
505,0.13265,0.4173,1.53079,0.12647,0.49776,0.10363,0.11428,0.09876,0.0874,0.0968,0.55756,0.5237,0.20301,0.19114,0.49419,0.05959,0.34674,0.91562,0.19863,0.22569,0.93265,-0.01282,0.47646,1.43507,0.26289,0.27946,1.47824,-0.08429,0.49067,1.13541,0.31643,0.15842,1.19771,0.04965,0.70913,1.23091,0.37193,0.3816,1.06027
506,0.13243,0.42095,1.53168,0.12641,0.49812,0.10381,0.11458,0.09829,0.08858,0.09565,0.55705,0.52393,0.20301,0.18982,0.49562,0.05889,0.34766,0.91666,0.1975,0.22616,0.93393,-0.0126,0.48079,1.43532,0.26255,0.28276,1.4792,-0.08517,0.49371,1.13586,0.31499,0.15968,1.19934,0.05077,0.71186,1.22919,0.37183,0.38139,1.06009
507,0.1325,0.42434,1.53261,0.1266,0.49842,0.10405,0.11484,0.09756,0.08982,0.09492,0.55635,0.52424,0.20274,0.18854,0.4971,0.05811,0.34847,0.91776,0.19643,0.22668,0.93524,-0.01248,0.48478,1.4357,0.26218,0.28608,1.47968,-0.08565,0.49619,1.13633,0.31344,0.16013,1.20089,0.05204,0.71406,1.22777,0.3714,0.3806,1.06014
508,0.13281,0.42767,1.53343,0.12673,0.49868,0.10423,0.11498,0.09646,0.09097,0.09462,0.55556,0.52453,0.20207,0.18742,0.49843,0.05734,0.34902,0.91872,0.19561,0.2272,0.93643,-0.01243,0.48843,1.43604,0.26189,0.28932,1.47986,-0.0859,0.49803,1.13668,0.31162,0.16006,1.2023,0.05317,0.71563,1.22663,0.37061,0.3795,1.06037
509,0.13321,0.43106,1.53403,0.12665,0.49899,0.10437,0.11503,0.09507,0.09193,0.09456,0.55483,0.52481,0.20111,0.18625,0.49956,0.05665,0.34929,0.91946,0.19506,0.22766,0.93741,-0.0125,0.49182,1.43627,0.26184,0.29234,1.48,-0.08632,0.49941,1.13694,0.30946,0.15988,1.20359,0.05397,0.7168,1.22552,0.36982,0.3784,1.06082
510,0.13344,0.43446,1.53434,0.12644,0.49929,0.10454,0.11513,0.09348,0.09276,0.0946,0.55428,0.52511,0.20018,0.18481,0.50057,0.05603,0.34944,0.92006,0.19455,0.22798,0.93826,-0.01284,0.4951,1.43649,0.26188,0.29502,1.48022,-0.0871,0.50053,1.13722,0.30712,0.15966,1.20481,0.05445,0.71779,1.22409,0.36911,0.37744,1.0616
511,0.13336,0.43778,1.53438,0.12634,0.49946,0.10481,0.11538,0.09167,0.09361,0.09472,0.55397,0.52546,0.19944,0.18326,0.50156,0.05546,0.3497,0.92064,0.19384,0.22812,0.93908,-0.01347,0.49833,1.43674,0.26159,0.29729,1.48054,-0.08808,0.50143,1.13752,0.30488,0.15928,1.20614,0.0547,0.71872,1.22226,0.36823,0.37649,1.06268
512,0.13317,0.4409,1.5343,0.1265,0.4995,0.10515,0.11562,0.08979,0.09454,0.09485,0.55378,0.52583,0.19888,0.18196,0.50253,0.05493,0.35006,0.92122,0.19291,0.22806,0.93991,-0.01409,0.50133,1.43685,0.26074,0.2992,1.48105,-0.089,0.50213,1.13769,0.30297,0.15882,1.20769,0.05482,0.71959,1.22024,0.36717,0.37542,1.06367
513,0.13315,0.4438,1.5342,0.12676,0.49957,0.10545,0.11561,0.08816,0.09555,0.09482,0.55353,0.52615,0.19838,0.18108,0.50347,0.05446,0.35037,0.92178,0.19194,0.22785,0.94078,-0.01441,0.50395,1.43666,0.25962,0.30102,1.48173,-0.08975,0.50271,1.13761,0.30148,0.15862,1.20935,0.05481,0.72036,1.21832,0.3662,0.37432,1.06423
514,0.13335,0.44652,1.53413,0.12684,0.49969,0.1057,0.11517,0.08705,0.09651,0.09461,0.55313,0.52644,0.19775,0.18041,0.50437,0.05408,0.35049,0.92233,0.19114,0.22755,0.94163,-0.01443,0.5062,1.43622,0.25865,0.30308,1.48234,-0.09041,0.50306,1.13735,0.30033,0.15881,1.21092,0.05465,0.72091,1.21664,0.36562,0.37343,1.06447
515,0.13372,0.44893,1.53409,0.12669,0.49983,0.10595,0.1143,0.08638,0.09725,0.09444,0.55267,0.52677,0.1969,0.17961,0.50514,0.05384,0.35039,0.92283,0.19059,0.22714,0.94236,-0.01435,0.50821,1.43574,0.25799,0.30538,1.48281,-0.09102,0.50295,1.13707,0.2993,0.15924,1.21234,0.05445,0.72097,1.21509,0.36544,0.37282,1.06473
516,0.13414,0.45087,1.53411,0.12654,0.49996,0.10621,0.1131,0.08582,0.09775,0.09445,0.55226,0.5271,0.19586,0.17854,0.50571,0.05379,0.35011,0.92323,0.19031,0.22662,0.94289,-0.01432,0.51,1.43526,0.25759,0.30753,1.4833,-0.09159,0.50221,1.13681,0.29814,0.15966,1.21366,0.0545,0.72031,1.21346,0.36532,0.37233,1.06521
517,0.13438,0.45232,1.53414,0.12649,0.50008,0.10643,0.11163,0.08512,0.09817,0.0945,0.55201,0.52738,0.19481,0.1774,0.50615,0.05387,0.34967,0.92341,0.1902,0.22601,0.94328,-0.01443,0.51144,1.43463,0.25737,0.30909,1.48387,-0.09224,0.501,1.1364,0.29681,0.15986,1.21482,0.05478,0.71896,1.21166,0.36486,0.37181,1.06575
518,0.13425,0.45336,1.53408,0.12642,0.50012,0.10661,0.10995,0.08429,0.09869,0.09437,0.55191,0.52758,0.19396,0.1765,0.50652,0.05385,0.34918,0.92342,0.18999,0.22537,0.94362,-0.01468,0.51245,1.43373,0.25728,0.30996,1.48435,-0.09316,0.49954,1.13576,0.29546,0.15978,1.21564,0.05481,0.71729,1.20974,0.36399,0.37124,1.06609
519,0.13371,0.45404,1.53396,0.12623,0.50005,0.10675,0.10804,0.08349,0.09928,0.09402,0.55184,0.5277,0.19333,0.17589,0.5068,0.05351,0.34877,0.92337,0.18941,0.22475,0.9439,-0.01501,0.51313,1.43272,0.25724,0.31027,1.4846,-0.09434,0.49791,1.13509,0.29421,0.15955,1.21602,0.05405,0.71577,1.2079,0.36307,0.37066,1.06612
520,0.13287,0.45446,1.5339,0.12604,0.49993,0.10685,0.10583,0.08274,0.09978,0.09367,0.55175,0.52778,0.19281,0.17535,0.50689,0.05291,0.34849,0.92333,0.1885,0.22415,0.944,-0.0153,0.51371,1.43189,0.25719,0.31017,1.4847,-0.0955,0.49615,1.13462,0.29309,0.15928,1.21607,0.05254,0.7146,1.20637,0.36244,0.37012,1.06602
521,0.13191,0.45468,1.53399,0.12604,0.49989,0.10696,0.10333,0.08188,0.10011,0.09352,0.55169,0.52789,0.19225,0.17466,0.50676,0.05232,0.34814,0.92324,0.18758,0.22344,0.94387,-0.01561,0.51421,1.43132,0.2571,0.3098,1.48475,-0.09631,0.49426,1.13434,0.29213,0.1589,1.21601,0.05092,0.71355,1.2052,0.36216,0.36958,1.06605
522,0.13106,0.45477,1.53412,0.1263,0.49996,0.10718,0.10061,0.08084,0.10035,0.09361,0.5517,0.5281,0.19159,0.17388,0.50649,0.05189,0.34752,0.92307,0.1869,0.22253,0.94361,-0.01605,0.51437,1.43082,0.25692,0.30932,1.48478,-0.0967,0.4922,1.13398,0.29135,0.15831,1.21602,0.04963,0.7123,1.20418,0.36192,0.36895,1.06626
523,0.13046,0.45476,1.534,0.12677,0.50008,0.10754,0.09769,0.07977,0.10057,0.09385,0.55171,0.52846,0.19083,0.17313,0.50614,0.05151,0.34658,0.92287,0.1865,0.22155,0.9433,-0.01659,0.51397,1.43017,0.25659,0.30888,1.48473,-0.09686,0.48986,1.13338,0.29078,0.15757,1.21612,0.04861,0.71071,1.20301,0.36152,0.36823,1.06646
524,0.13005,0.45464,1.53345,0.1273,0.50026,0.10799,0.09459,0.07886,0.10072,0.0941,0.55169,0.52891,0.18994,0.17237,0.50575,0.05101,0.34545,0.92266,0.18626,0.22068,0.94292,-0.01704,0.51303,1.42934,0.25607,0.30849,1.48451,-0.09701,0.48711,1.13263,0.29053,0.15682,1.21613,0.04758,0.70874,1.2016,0.36105,0.36755,1.06648
525,0.12977,0.45432,1.53262,0.12772,0.50054,0.10837,0.09146,0.07815,0.10075,0.09415,0.55163,0.5293,0.18895,0.17147,0.50531,0.05042,0.34427,0.92239,0.18615,0.21998,0.94247,-0.01716,0.51173,1.42842,0.25544,0.30798,1.48412,-0.09728,0.48394,1.13192,0.29068,0.15621,1.2159,0.04643,0.70636,1.20018,0.36081,0.36707,1.06625
526,0.12957,0.45368,1.5318,0.12791,0.50086,0.1085,0.08859,0.07756,0.10064,0.09393,0.55151,0.52945,0.18784,0.17046,0.50487,0.04996,0.34317,0.922,0.18608,0.2193,0.94199,-0.01706,0.51026,1.4275,0.25484,0.30716,1.48371,-0.09761,0.48043,1.1313,0.29113,0.15569,1.21545,0.045,0.70367,1.19921,0.36092,0.36675,1.06591
527,0.12944,0.4526,1.53118,0.12785,0.50116,0.10836,0.08609,0.0771,0.10038,0.09357,0.55131,0.52935,0.18658,0.16956,0.5044,0.04977,0.34221,0.92151,0.18598,0.21845,0.94152,-0.01712,0.50863,1.42664,0.25439,0.30595,1.48349,-0.09786,0.47667,1.13072,0.29149,0.15508,1.21502,0.04314,0.70087,1.19882,0.36105,0.36639,1.06572
528,0.12934,0.45108,1.53068,0.1276,0.50141,0.10819,0.08389,0.07678,0.0999,0.09337,0.55114,0.52923,0.18513,0.1688,0.50384,0.04975,0.34133,0.92103,0.18578,0.21736,0.94099,-0.0176,0.50671,1.42588,0.25409,0.30435,1.48349,-0.09804,0.47277,1.1301,0.29137,0.15418,1.21465,0.04089,0.6981,1.19873,0.36079,0.36589,1.06586
529,0.12921,0.44925,1.53017,0.12733,0.50162,0.10823,0.08198,0.07645,0.09916,0.09345,0.5511,0.52932,0.18356,0.16785,0.50315,0.0497,0.34037,0.92062,0.18551,0.21612,0.94034,-0.01836,0.50441,1.42518,0.25386,0.30225,1.48342,-0.09825,0.46891,1.12943,0.29086,0.15285,1.2141,0.03856,0.69538,1.19856,0.36016,0.36531,1.06634
530,0.12891,0.44727,1.52966,0.12723,0.50179,0.10848,0.08059,0.07603,0.09815,0.09361,0.55114,0.52961,0.18202,0.16648,0.5024,0.04956,0.33925,0.92025,0.18524,0.2148,0.93957,-0.01901,0.5017,1.42456,0.25367,0.29971,1.48298,-0.09855,0.46515,1.12885,0.2904,0.15116,1.21316,0.03649,0.69261,1.19821,0.35963,0.36466,1.06687
531,0.12824,0.44505,1.52939,0.12727,0.50193,0.10886,0.07994,0.07554,0.09694,0.09367,0.55108,0.53002,0.18061,0.16489,0.50162,0.04934,0.33793,0.91993,0.18501,0.2134,0.93876,-0.01943,0.49863,1.42412,0.25351,0.29698,1.48224,-0.09889,0.46145,1.12846,0.29027,0.14931,1.21194,0.03481,0.68968,1.19788,0.3596,0.36381,1.06717
532,0.12716,0.44237,1.52951,0.12722,0.5021,0.10932,0.07996,0.07504,0.09562,0.09364,0.5509,0.53052,0.17924,0.16334,0.50087,0.04905,0.33633,0.91963,0.18486,0.21187,0.938,-0.01977,0.49525,1.42387,0.25339,0.29422,1.48149,-0.09924,0.45773,1.12826,0.29036,0.14746,1.21072,0.03333,0.68659,1.19779,0.36002,0.36268,1.06718
533,0.12597,0.43931,1.52976,0.12695,0.50234,0.10986,0.08019,0.07446,0.09431,0.0936,0.55071,0.53113,0.17779,0.16182,0.50017,0.04877,0.3344,0.91924,0.18479,0.21012,0.9373,-0.02019,0.49159,1.42377,0.25326,0.29143,1.4809,-0.09964,0.45392,1.12817,0.2905,0.14567,1.20963,0.03171,0.6834,1.19796,0.36039,0.36145,1.06705
534,0.12515,0.4362,1.52976,0.12655,0.50261,0.11043,0.08015,0.07374,0.09312,0.09352,0.55061,0.53176,0.17625,0.16019,0.49954,0.04859,0.33224,0.91871,0.18478,0.20814,0.93668,-0.02055,0.4878,1.42371,0.25321,0.28855,1.48046,-0.10012,0.44999,1.12817,0.29064,0.14398,1.20858,0.02974,0.68026,1.19812,0.36028,0.36048,1.06696
535,0.12482,0.43321,1.52948,0.12622,0.50287,0.11098,0.07978,0.07291,0.09208,0.09334,0.5506,0.53236,0.17477,0.1585,0.49894,0.0486,0.33001,0.91807,0.18483,0.20597,0.9361,-0.02072,0.48405,1.42363,0.25339,0.28555,1.48008,-0.10056,0.44595,1.12819,0.29076,0.14237,1.20746,0.02757,0.67724,1.19801,0.35975,0.35986,1.06704
536,0.12464,0.43008,1.52927,0.12608,0.50315,0.11151,0.07938,0.07212,0.09112,0.09309,0.55053,0.53292,0.17352,0.15692,0.49834,0.0487,0.3278,0.91744,0.18487,0.20368,0.93554,-0.02083,0.48044,1.42345,0.25374,0.28239,1.47969,-0.10083,0.44183,1.12812,0.29085,0.14066,1.20628,0.0255,0.67415,1.19776,0.35914,0.35934,1.06738
537,0.12428,0.42647,1.52937,0.12603,0.50342,0.112,0.07916,0.07149,0.09015,0.09283,0.55024,0.53346,0.17251,0.15545,0.49773,0.04873,0.3256,0.91689,0.18475,0.20133,0.935,-0.02111,0.47687,1.42321,0.25395,0.27911,1.47917,-0.10092,0.4376,1.12792,0.29098,0.13864,1.2051,0.02375,0.67074,1.19782,0.35877,0.35863,1.06804
538,0.12375,0.42232,1.52968,0.12588,0.50356,0.11242,0.079,0.07098,0.08919,0.09253,0.54963,0.53394,0.17163,0.1539,0.49715,0.04856,0.32339,0.91646,0.18442,0.19895,0.93449,-0.0216,0.47313,1.42311,0.25376,0.27579,1.47841,-0.10088,0.43335,1.12775,0.29126,0.13625,1.20393,0.0223,0.66703,1.1985,0.35877,0.35759,1.06893
539,0.12313,0.41785,1.52991,0.12553,0.50356,0.11275,0.07872,0.07044,0.08834,0.09216,0.54866,0.53438,0.17082,0.15215,0.49666,0.04822,0.32114,0.91613,0.18404,0.19662,0.93405,-0.02212,0.46903,1.42331,0.25319,0.27242,1.47749,-0.10074,0.4292,1.12778,0.29181,0.13359,1.2028,0.02099,0.66329,1.19965,0.35906,0.35627,1.06988
540,0.12243,0.41336,1.52986,0.12512,0.50358,0.11308,0.07831,0.06985,0.0877,0.09178,0.54741,0.53485,0.17013,0.15033,0.49633,0.04784,0.31875,0.91592,0.18378,0.19436,0.93375,-0.02256,0.4645,1.4238,0.25256,0.26894,1.47661,-0.10065,0.42515,1.12806,0.29263,0.1309,1.20173,0.01976,0.65959,1.20099,0.35935,0.3549,1.07077
541,0.12171,0.40903,1.52967,0.12496,0.50378,0.11352,0.0778,0.06937,0.0873,0.0915,0.54605,0.53544,0.16964,0.14855,0.49618,0.04747,0.31621,0.91579,0.18366,0.19209,0.93364,-0.02295,0.45963,1.42441,0.25213,0.26533,1.47604,-0.10077,0.42116,1.12849,0.29352,0.12842,1.20079,0.01881,0.65573,1.20238,0.3594,0.35366,1.07154
542,0.12123,0.4048,1.52959,0.12525,0.50411,0.11409,0.07719,0.069,0.08706,0.09127,0.54467,0.53613,0.16924,0.14687,0.49613,0.04713,0.31355,0.91569,0.18354,0.18968,0.93366,-0.02338,0.45468,1.42498,0.25193,0.26157,1.4759,-0.10109,0.41727,1.12889,0.29419,0.12617,1.20004,0.01832,0.65157,1.2039,0.35925,0.35245,1.07221
543,0.12115,0.40047,1.52978,0.12586,0.50443,0.11464,0.07659,0.06855,0.08681,0.09094,0.54323,0.53677,0.16873,0.14531,0.49608,0.04691,0.31085,0.91558,0.1834,0.18711,0.93369,-0.02399,0.44985,1.42543,0.25178,0.25752,1.47603,-0.10146,0.41352,1.12914,0.29446,0.12392,1.19936,0.01816,0.64723,1.20564,0.35909,0.35105,1.07282
544,0.12127,0.39595,1.53011,0.1264,0.50469,0.11501,0.0762,0.06796,0.08641,0.09042,0.54164,0.53722,0.16796,0.14386,0.49593,0.04686,0.30827,0.91547,0.18334,0.18451,0.93362,-0.02484,0.44522,1.42582,0.25158,0.25294,1.47617,-0.10179,0.40986,1.12928,0.29447,0.12151,1.1985,0.01787,0.64298,1.20752,0.35912,0.34942,1.07338
545,0.12115,0.39126,1.53039,0.12662,0.50499,0.1152,0.07607,0.06739,0.08585,0.08974,0.53997,0.5375,0.16704,0.14234,0.49571,0.04691,0.3059,0.9154,0.18338,0.18211,0.93345,-0.02582,0.4407,1.42624,0.25127,0.24791,1.47614,-0.10211,0.40616,1.12944,0.29454,0.11899,1.19735,0.01709,0.63897,1.20929,0.35943,0.34776,1.07393
546,0.1207,0.38648,1.53058,0.12654,0.50539,0.11533,0.07599,0.06701,0.08529,0.08915,0.53827,0.53775,0.1662,0.14065,0.49555,0.04693,0.30365,0.91538,0.18349,0.17994,0.9333,-0.02678,0.43619,1.42672,0.25086,0.24301,1.47592,-0.10248,0.40231,1.12968,0.29492,0.1165,1.19615,0.01584,0.63515,1.21074,0.35982,0.34622,1.07452
547,0.12025,0.3816,1.53083,0.12635,0.50573,0.11546,0.07582,0.06682,0.08485,0.08885,0.53649,0.53803,0.16557,0.13897,0.49549,0.04687,0.30141,0.9154,0.18354,0.17782,0.93325,-0.02767,0.43164,1.42723,0.25043,0.23875,1.4757,-0.10293,0.39836,1.13001,0.29551,0.1141,1.19526,0.01441,0.63137,1.21198,0.35998,0.3448,1.07528
548,0.11992,0.37664,1.53119,0.12626,0.50572,0.11556,0.0756,0.06674,0.08451,0.08875,0.53448,0.53827,0.16512,0.13755,0.49543,0.04672,0.29907,0.91542,0.18341,0.17549,0.93325,-0.02852,0.42697,1.42774,0.24997,0.23496,1.47558,-0.10348,0.39449,1.13037,0.29602,0.11167,1.19469,0.01315,0.62749,1.21337,0.35988,0.34335,1.07628
549,0.11962,0.37165,1.53154,0.12642,0.50534,0.1156,0.07545,0.06665,0.08419,0.08858,0.5322,0.5384,0.16476,0.13635,0.49535,0.04644,0.29657,0.91541,0.18303,0.17289,0.93329,-0.02938,0.42208,1.42827,0.2493,0.23082,1.4755,-0.10409,0.39083,1.1307,0.29635,0.10906,1.19411,0.0124,0.62338,1.21518,0.35977,0.34176,1.07747
550,0.11938,0.36673,1.53183,0.12681,0.50481,0.11563,0.07533,0.06641,0.08389,0.08821,0.52981,0.53848,0.16452,0.13512,0.49524,0.04609,0.29397,0.91537,0.18253,0.17015,0.93332,-0.0303,0.41699,1.42883,0.24821,0.22582,1.47532,-0.10467,0.38729,1.13102,0.29658,0.10615,1.19326,0.01228,0.61896,1.21727,0.35982,0.33992,1.07867
551,0.11929,0.36198,1.5321,0.12716,0.50438,0.11569,0.07511,0.06595,0.08361,0.08775,0.52751,0.53857,0.16436,0.13378,0.49509,0.04573,0.29141,0.9153,0.18206,0.16746,0.93329,-0.03133,0.41181,1.42948,0.24685,0.22026,1.4751,-0.10521,0.38369,1.13138,0.2968,0.10304,1.19229,0.01263,0.61424,1.2194,0.35983,0.33784,1.07971
552,0.11909,0.35745,1.53236,0.12713,0.50415,0.11567,0.07471,0.06541,0.08329,0.0873,0.52543,0.53861,0.16413,0.13245,0.49487,0.04537,0.28897,0.91512,0.18163,0.16496,0.93316,-0.03246,0.40667,1.43019,0.24557,0.21481,1.475,-0.10578,0.3801,1.13182,0.29717,0.10001,1.19149,0.01317,0.60945,1.22143,0.3596,0.33575,1.08057
553,0.11844,0.35294,1.53257,0.12665,0.5041,0.11555,0.07421,0.06501,0.08285,0.08684,0.52357,0.53858,0.16362,0.13122,0.49456,0.04492,0.28668,0.91482,0.18116,0.16266,0.93293,-0.03368,0.40172,1.43098,0.24452,0.20977,1.47508,-0.10641,0.37672,1.13233,0.29781,0.09724,1.19097,0.01352,0.60501,1.22333,0.3592,0.33393,1.08149
554,0.11742,0.34805,1.53289,0.12612,0.50416,0.11546,0.07369,0.06485,0.08222,0.08637,0.52189,0.53858,0.16284,0.13004,0.49415,0.04436,0.28451,0.91449,0.18061,0.16049,0.93258,-0.03498,0.39716,1.43187,0.24368,0.20504,1.47515,-0.10705,0.3737,1.13293,0.29856,0.09451,1.19057,0.01349,0.60122,1.22506,0.35882,0.33232,1.08291
555,0.1165,0.34257,1.53341,0.12602,0.50415,0.11554,0.07323,0.06498,0.08144,0.08587,0.52034,0.53868,0.16199,0.12879,0.49367,0.0438,0.28238,0.91423,0.18003,0.15832,0.93215,-0.0362,0.39309,1.43282,0.24301,0.20037,1.47497,-0.10766,0.371,1.13363,0.29898,0.09135,1.19001,0.01337,0.59791,1.22664,0.35857,0.33056,1.08512
556,0.11577,0.33682,1.53398,0.12641,0.50405,0.11575,0.07293,0.06525,0.08065,0.08529,0.51878,0.53885,0.16123,0.1274,0.49323,0.04339,0.28018,0.91401,0.17957,0.15604,0.93176,-0.03717,0.38925,1.43371,0.24244,0.19558,1.47455,-0.10827,0.36855,1.13433,0.29898,0.08775,1.18925,0.01369,0.5946,1.2282,0.3585,0.32849,1.08786
557,0.11499,0.33127,1.53436,0.12693,0.50399,0.11594,0.07282,0.06535,0.08003,0.08456,0.51707,0.53897,0.16059,0.12596,0.49296,0.04311,0.27785,0.91379,0.17925,0.15367,0.93153,-0.03774,0.38518,1.43435,0.24179,0.19074,1.47428,-0.10886,0.36634,1.13486,0.29901,0.08437,1.18857,0.0146,0.5911,1.22986,0.35851,0.32652,1.09059
558,0.11413,0.32602,1.53457,0.12725,0.50407,0.11606,0.07278,0.06511,0.07963,0.08366,0.51523,0.53901,0.15997,0.12462,0.49283,0.04284,0.27545,0.91354,0.17896,0.15127,0.93146,-0.038,0.38064,1.4347,0.24093,0.18604,1.47449,-0.10942,0.36431,1.13513,0.29941,0.0818,1.18826,0.01568,0.58757,1.2315,0.35853,0.3251,1.09292
559,0.11353,0.32086,1.53473,0.12739,0.50418,0.11617,0.07265,0.06473,0.07934,0.08274,0.51345,0.53906,0.1593,0.12343,0.49277,0.04243,0.2731,0.91328,0.17855,0.14895,0.93146,-0.03826,0.37584,1.43486,0.23989,0.18144,1.47501,-0.10996,0.36211,1.13523,0.29992,0.07984,1.18815,0.01636,0.58411,1.23293,0.35858,0.32404,1.09486
560,0.11341,0.31567,1.53485,0.12758,0.50417,0.11638,0.07244,0.06456,0.07905,0.08208,0.5119,0.53921,0.15854,0.1223,0.49273,0.04187,0.27093,0.91304,0.17801,0.14684,0.93146,-0.03889,0.37112,1.43504,0.23889,0.17666,1.47533,-0.11046,0.35943,1.13529,0.29997,0.07771,1.18776,0.01642,0.58058,1.23418,0.35867,0.3227,1.0966
561,0.11352,0.31056,1.5348,0.12793,0.50406,0.11671,0.07225,0.06474,0.07874,0.08189,0.51055,0.53951,0.15779,0.12115,0.49272,0.04127,0.26888,0.91284,0.1775,0.14492,0.93148,-0.03984,0.36652,1.43538,0.23817,0.17159,1.47508,-0.11088,0.35641,1.13545,0.29936,0.07495,1.18675,0.01606,0.57699,1.23553,0.35874,0.32078,1.0983
562,0.11342,0.30568,1.53451,0.12833,0.50399,0.11709,0.07213,0.06504,0.07848,0.0821,0.5092,0.53988,0.15723,0.12,0.49275,0.0408,0.26685,0.9127,0.17707,0.14297,0.93155,-0.04068,0.3619,1.43594,0.23772,0.16644,1.47439,-0.11117,0.35362,1.13583,0.29851,0.07184,1.1853,0.01565,0.57361,1.23733,0.35864,0.31862,1.10008
563,0.11287,0.30111,1.53406,0.12866,0.50409,0.11739,0.07205,0.06522,0.07829,0.0824,0.50775,0.54019,0.15692,0.11895,0.49277,0.04046,0.26479,0.91254,0.17663,0.14083,0.93163,-0.04114,0.35734,1.43666,0.23724,0.16158,1.47369,-0.11135,0.35139,1.13642,0.29803,0.06905,1.18393,0.01539,0.57068,1.23953,0.3582,0.31694,1.10202
564,0.11196,0.29671,1.53374,0.12884,0.5043,0.11753,0.07193,0.06517,0.07816,0.08254,0.50623,0.54034,0.1568,0.11796,0.49276,0.04016,0.26273,0.91228,0.17613,0.13861,0.9317,-0.0415,0.35307,1.43738,0.23636,0.15709,1.47333,-0.11148,0.34959,1.13704,0.29797,0.06691,1.183,0.0152,0.56812,1.24184,0.35737,0.31602,1.10427
565,0.11098,0.29231,1.5337,0.12888,0.50446,0.11756,0.07174,0.06498,0.07801,0.08247,0.50477,0.54036,0.15679,0.11694,0.49267,0.03975,0.26075,0.91192,0.17554,0.13649,0.93169,-0.04211,0.34912,1.43797,0.23494,0.15273,1.47328,-0.11161,0.34789,1.13751,0.2979,0.06513,1.18246,0.01486,0.56572,1.244,0.35626,0.31545,1.10687
566,0.11014,0.28791,1.53372,0.12894,0.50449,0.11765,0.07151,0.06483,0.07776,0.08225,0.50344,0.54043,0.15684,0.11587,0.49248,0.0392,0.2588,0.91155,0.17493,0.1345,0.93156,-0.04294,0.34516,1.43847,0.2332,0.1483,1.4733,-0.11179,0.34603,1.13785,0.29738,0.0632,1.182,0.01429,0.56332,1.2459,0.35527,0.31462,1.10975
567,0.10937,0.28365,1.53359,0.12918,0.50451,0.11796,0.07132,0.06489,0.0774,0.08184,0.50223,0.54066,0.15685,0.1149,0.49221,0.03857,0.2568,0.91123,0.17435,0.13258,0.93135,-0.04379,0.34092,1.439,0.23144,0.14387,1.47311,-0.11207,0.34388,1.13827,0.29649,0.06092,1.18138,0.01361,0.56084,1.24744,0.35478,0.31325,1.11276
568,0.10849,0.27947,1.53343,0.12959,0.50459,0.11846,0.07122,0.06508,0.077,0.08118,0.50107,0.54102,0.15663,0.11422,0.49194,0.03796,0.25473,0.911,0.17391,0.1307,0.93114,-0.04474,0.3365,1.4396,0.22984,0.13969,1.47268,-0.11265,0.34138,1.13882,0.29562,0.05845,1.18063,0.01297,0.55812,1.24847,0.35495,0.31155,1.11586
569,0.10755,0.2752,1.53346,0.12998,0.50467,0.11898,0.07129,0.0652,0.07666,0.0804,0.49989,0.54139,0.15623,0.11374,0.49176,0.03749,0.25276,0.91088,0.17361,0.12891,0.931,-0.04592,0.33217,1.44018,0.22832,0.13581,1.47221,-0.11364,0.3385,1.13938,0.29527,0.05613,1.17999,0.0124,0.555,1.24903,0.35561,0.30995,1.11906
570,0.10671,0.27087,1.53357,0.13013,0.5047,0.1194,0.07151,0.06519,0.07639,0.07972,0.49865,0.54171,0.1559,0.11318,0.49167,0.0371,0.25106,0.91091,0.17322,0.1272,0.93096,-0.04723,0.32807,1.44063,0.22682,0.132,1.47199,-0.11483,0.33547,1.13982,0.29554,0.05415,1.17969,0.0118,0.55163,1.24948,0.35657,0.30866,1.12244
571,0.10598,0.26659,1.53363,0.12999,0.50457,0.11974,0.07169,0.06518,0.07617,0.07927,0.49745,0.54199,0.15583,0.11244,0.49158,0.03667,0.24962,0.91103,0.17259,0.1255,0.93092,-0.04856,0.32417,1.44097,0.2254,0.12803,1.472,-0.11577,0.33264,1.14011,0.29596,0.05231,1.17959,0.01106,0.54837,1.25038,0.35774,0.30745,1.12608
572,0.10518,0.26249,1.53371,0.12976,0.50434,0.12003,0.07169,0.06533,0.07593,0.07896,0.49634,0.54225,0.15591,0.11176,0.49143,0.03611,0.24824,0.91109,0.17174,0.12379,0.93082,-0.04996,0.32038,1.44137,0.22416,0.12394,1.47194,-0.11635,0.33014,1.14036,0.29601,0.0504,1.17928,0.01009,0.54539,1.25201,0.35892,0.30611,1.12994
573,0.10419,0.25871,1.53387,0.12965,0.50425,0.12033,0.07153,0.06557,0.07578,0.07868,0.49525,0.54251,0.15591,0.11129,0.49131,0.03549,0.24672,0.91102,0.17094,0.12208,0.93077,-0.05144,0.31661,1.44195,0.22309,0.11991,1.47161,-0.11691,0.32771,1.14079,0.29571,0.04856,1.1786,0.00888,0.54251,1.25403,0.35974,0.30483,1.13382
574,0.10294,0.25536,1.53398,0.12966,0.50443,0.12066,0.07135,0.06571,0.07579,0.07838,0.49408,0.54278,0.15575,0.11094,0.49138,0.03489,0.24499,0.91087,0.17039,0.12045,0.93088,-0.05282,0.31293,1.44277,0.2221,0.11597,1.47123,-0.11769,0.32518,1.14152,0.29556,0.04712,1.17783,0.0076,0.53969,1.25584,0.35983,0.30406,1.13753
575,0.10153,0.25235,1.53394,0.12963,0.5048,0.12102,0.07128,0.06557,0.07592,0.07812,0.49289,0.54306,0.15553,0.11052,0.49157,0.0344,0.24323,0.91075,0.17006,0.11892,0.9311,-0.05398,0.30961,1.44375,0.22107,0.11206,1.47112,-0.11849,0.32274,1.14246,0.29589,0.04619,1.17738,0.00652,0.53722,1.25714,0.35918,0.30399,1.14116
576,0.10017,0.24933,1.5338,0.12941,0.50522,0.12137,0.07129,0.06521,0.07601,0.07786,0.4918,0.54337,0.15541,0.11001,0.4917,0.03402,0.2417,0.91074,0.16971,0.11744,0.93125,-0.0549,0.30682,1.44473,0.2199,0.10812,1.47135,-0.11911,0.32071,1.14341,0.29666,0.04568,1.17737,0.00577,0.53533,1.25799,0.35836,0.3044,1.14521
577,0.09899,0.24595,1.53372,0.12906,0.50564,0.12176,0.07121,0.06492,0.07599,0.07756,0.49087,0.54371,0.15545,0.1095,0.49168,0.03368,0.24045,0.91086,0.16916,0.11595,0.93127,-0.05562,0.30419,1.44557,0.21847,0.10415,1.47166,-0.11966,0.31918,1.14426,0.29767,0.04536,1.17757,0.00531,0.53382,1.2587,0.35813,0.30492,1.15014
578,0.09788,0.24215,1.53381,0.12868,0.50609,0.12225,0.07098,0.06489,0.07595,0.07723,0.49013,0.54417,0.15557,0.10912,0.4916,0.03326,0.23929,0.91103,0.16847,0.11447,0.93123,-0.05633,0.30112,1.44627,0.21674,0.10029,1.47172,-0.12044,0.31786,1.14507,0.29882,0.0451,1.17773,0.00496,0.53227,1.25947,0.35876,0.30532,1.15599
579,0.09671,0.23818,1.53407,0.12833,0.50659,0.12289,0.07075,0.06507,0.07598,0.07687,0.48958,0.54477,0.15567,0.10889,0.49161,0.03272,0.23814,0.91119,0.16777,0.11312,0.93127,-0.05719,0.29749,1.44693,0.21496,0.09674,1.47151,-0.12155,0.3164,1.14592,0.3,0.04501,1.17773,0.0046,0.53048,1.26011,0.3599,0.30569,1.16244
580,0.09549,0.23443,1.53441,0.12795,0.50712,0.12359,0.07069,0.06521,0.0761,0.07653,0.48914,0.54543,0.1558,0.10865,0.49174,0.03212,0.23711,0.91141,0.16705,0.11195,0.93143,-0.05821,0.29386,1.44761,0.21352,0.09357,1.47124,-0.12288,0.3147,1.14679,0.30104,0.04526,1.1776,0.00429,0.52853,1.26031,0.36097,0.30624,1.16894
581,0.09429,0.23104,1.53468,0.12741,0.50762,0.12422,0.07078,0.06513,0.07627,0.07625,0.48869,0.54605,0.15611,0.10828,0.49189,0.03157,0.2363,0.91174,0.16624,0.11084,0.93161,-0.05918,0.29071,1.44828,0.21263,0.0907,1.47104,-0.12418,0.31286,1.14763,0.30195,0.04584,1.1774,0.00414,0.5266,1.26005,0.36168,0.307,1.17501
582,0.09321,0.22791,1.53483,0.12663,0.50807,0.12472,0.0709,0.06491,0.07638,0.076,0.48815,0.54657,0.15664,0.1078,0.49194,0.03115,0.23555,0.9121,0.16548,0.10967,0.9317,-0.05993,0.28789,1.449,0.21202,0.08783,1.47083,-0.12521,0.31113,1.14849,0.30287,0.04636,1.17716,0.00423,0.5249,1.25955,0.36203,0.30764,1.18046
583,0.09247,0.22483,1.53491,0.12575,0.50847,0.12519,0.07096,0.06474,0.07638,0.07568,0.48754,0.54705,0.15718,0.1074,0.49187,0.03085,0.23466,0.91239,0.16491,0.10844,0.93164,-0.0604,0.28498,1.44986,0.21127,0.08465,1.47053,-0.12596,0.30975,1.14953,0.30366,0.04627,1.17692,0.00448,0.52366,1.25912,0.36177,0.30766,1.18545
584,0.09214,0.22173,1.53499,0.12508,0.50884,0.12571,0.07088,0.06471,0.0763,0.07514,0.48694,0.54754,0.15744,0.10718,0.49173,0.03057,0.23358,0.91259,0.16451,0.1072,0.93152,-0.06059,0.2819,1.45073,0.21024,0.08115,1.47029,-0.12659,0.3088,1.15069,0.30383,0.04527,1.17675,0.00455,0.52294,1.25899,0.36052,0.30677,1.19027
585,0.092,0.21858,1.53511,0.1248,0.50919,0.12635,0.07069,0.06475,0.07621,0.07445,0.48646,0.5481,0.15736,0.10707,0.49163,0.03024,0.23243,0.91271,0.16418,0.10601,0.93143,-0.06056,0.27898,1.45126,0.20925,0.07764,1.4703,-0.12722,0.30813,1.15157,0.30325,0.04369,1.17665,0.004,0.5225,1.25934,0.35829,0.30523,1.1953
586,0.09166,0.21525,1.53533,0.12473,0.50953,0.12712,0.07054,0.0648,0.07617,0.07394,0.48622,0.54877,0.15718,0.10684,0.49163,0.02989,0.23136,0.91283,0.16383,0.10492,0.93142,-0.06051,0.27641,1.4513,0.20864,0.0744,1.47054,-0.12775,0.30749,1.15193,0.30252,0.0423,1.17664,0.00282,0.52208,1.26005,0.35564,0.30377,1.20091
587,0.09084,0.21163,1.53574,0.12452,0.51,0.12795,0.07056,0.06485,0.07619,0.0739,0.48626,0.5496,0.15711,0.10638,0.49172,0.02964,0.23056,0.91304,0.16349,0.10401,0.93151,-0.06081,0.27399,1.45119,0.20832,0.07149,1.47084,-0.12803,0.30682,1.15201,0.30234,0.04185,1.17673,0.00157,0.52172,1.26067,0.3533,0.3031,1.20727
588,0.08961,0.20797,1.53627,0.124,0.51066,0.12878,0.0707,0.06486,0.07624,0.07424,0.48655,0.55052,0.15719,0.10572,0.49185,0.02959,0.2301,0.91338,0.16323,0.10329,0.93165,-0.06166,0.27134,1.4514,0.20787,0.06882,1.47109,-0.128,0.30623,1.15225,0.30294,0.04287,1.17697,0.00081,0.52159,1.26092,0.35187,0.30363,1.21419
589,0.08838,0.20472,1.53661,0.12337,0.51147,0.12965,0.07075,0.06478,0.07636,0.07453,0.48702,0.55147,0.15734,0.10505,0.492,0.02974,0.2298,0.91377,0.16309,0.10265,0.93181,-0.06282,0.26846,1.45202,0.20693,0.06628,1.47129,-0.1278,0.30577,1.15287,0.30424,0.04553,1.1775,0.00066,0.52162,1.261,0.35132,0.30558,1.22146
590,0.08756,0.20201,1.53658,0.12291,0.51238,0.1306,0.07062,0.0646,0.07654,0.07443,0.48751,0.55244,0.15752,0.10462,0.49215,0.02992,0.22935,0.91411,0.16306,0.10196,0.93195,-0.06385,0.26568,1.45282,0.20555,0.0638,1.47148,-0.12765,0.30544,1.15373,0.30604,0.04932,1.17837,0.00084,0.52158,1.26125,0.35087,0.30857,1.22892
591,0.08703,0.19953,1.53631,0.12277,0.51328,0.13162,0.07041,0.06441,0.07669,0.07398,0.48788,0.55339,0.15773,0.10451,0.4922,0.03003,0.22867,0.91438,0.16309,0.10116,0.932,-0.06468,0.26321,1.45358,0.20406,0.06134,1.47161,-0.12749,0.30518,1.15458,0.30793,0.05288,1.17944,0.00108,0.52144,1.26175,0.34981,0.31133,1.23625
592,0.08645,0.197,1.53607,0.12283,0.51417,0.13259,0.07033,0.0643,0.07667,0.07353,0.48817,0.55426,0.15793,0.10447,0.49211,0.03011,0.22793,0.91457,0.16313,0.10034,0.93191,-0.06554,0.26107,1.45419,0.20275,0.05875,1.47163,-0.12703,0.305,1.15519,0.30948,0.05489,1.18041,0.00132,0.52143,1.2623,0.34806,0.31254,1.24289
593,0.08585,0.19432,1.53604,0.12289,0.51515,0.13345,0.07044,0.06439,0.07649,0.07343,0.48859,0.55508,0.15806,0.10419,0.49197,0.03023,0.2274,0.91472,0.16311,0.09964,0.93177,-0.06635,0.25926,1.45461,0.20167,0.05589,1.47156,-0.12619,0.30508,1.15556,0.31063,0.05532,1.18114,0.00157,0.52184,1.26268,0.34604,0.31216,1.24864
594,0.08559,0.19155,1.53621,0.12279,0.51637,0.13431,0.07068,0.06464,0.07636,0.07374,0.4893,0.55595,0.15824,0.10365,0.49192,0.03037,0.22718,0.9149,0.16294,0.09907,0.93172,-0.06679,0.25782,1.45488,0.2007,0.05281,1.47147,-0.12534,0.30541,1.15586,0.31167,0.05529,1.18182,0.00165,0.52266,1.2629,0.34423,0.31125,1.25393
595,0.08576,0.18882,1.53644,0.12257,0.51781,0.13531,0.07092,0.06488,0.07638,0.07425,0.49028,0.557,0.15859,0.10309,0.49199,0.0305,0.22717,0.91518,0.16259,0.09853,0.93179,-0.06682,0.25664,1.45499,0.19973,0.04982,1.47143,-0.12497,0.30556,1.15611,0.31284,0.05568,1.18266,0.00137,0.52322,1.26309,0.34281,0.31058,1.25951
596,0.08594,0.18631,1.53651,0.12238,0.51919,0.13652,0.07104,0.06495,0.07647,0.07464,0.49148,0.55827,0.159,0.10263,0.49208,0.03062,0.22723,0.91557,0.16211,0.09793,0.93189,-0.0668,0.25558,1.4549,0.19877,0.04721,1.4715,-0.12518,0.30505,1.15615,0.31415,0.05655,1.18372,0.00083,0.5228,1.26332,0.3416,0.3101,1.26579
597,0.08563,0.18407,1.53638,0.12237,0.52037,0.13797,0.07102,0.06484,0.07655,0.07469,0.49286,0.55974,0.15923,0.10229,0.49212,0.03073,0.22719,0.916,0.16165,0.09727,0.93193,-0.067,0.25465,1.45461,0.19792,0.04502,1.47162,-0.12556,0.30403,1.15588,0.3154,0.0577,1.18482,0.00046,0.52148,1.26366,0.34032,0.30955,1.27273
598,0.08479,0.18198,1.5362,0.12252,0.52154,0.13965,0.07098,0.06464,0.07657,0.07443,0.49444,0.5614,0.15926,0.10207,0.49213,0.0308,0.22702,0.91638,0.16134,0.09667,0.93194,-0.06742,0.25394,1.45421,0.19725,0.04312,1.47174,-0.12557,0.30314,1.15537,0.3165,0.05921,1.18585,0.00052,0.52,1.26425,0.33882,0.30898,1.28015
599,0.08393,0.18001,1.53604,0.12265,0.52298,0.14148,0.07104,0.06454,0.07657,0.07403,0.49617,0.56318,0.15921,0.10206,0.49214,0.03082,0.22674,0.91669,0.16129,0.09629,0.93194,-0.06794,0.25334,1.45377,0.19673,0.04137,1.47191,-0.12506,0.30276,1.15476,0.31753,0.06112,1.18689,0.00087,0.51899,1.2651,0.33709,0.30847,1.28794
600,0.08346,0.17825,1.53587,0.12262,0.52476,0.14333,0.07113,0.06465,0.07656,0.07366,0.49799,0.56499,0.15925,0.10222,0.49214,0.03086,0.22646,0.91695,0.16148,0.09613,0.93194,-0.06848,0.25263,1.45335,0.19623,0.03959,1.4722,-0.12443,0.30277,1.15425,0.31865,0.06329,1.18818,0.00111,0.51846,1.26606,0.33513,0.30808,1.2958
601,0.08327,0.17658,1.53569,0.12243,0.52665,0.14507,0.07108,0.06488,0.07659,0.07337,0.49982,0.56672,0.15947,0.10235,0.49212,0.03108,0.22636,0.91724,0.1617,0.096,0.93191,-0.06899,0.25169,1.45308,0.19558,0.03751,1.47254,-0.12409,0.3027,1.15396,0.31999,0.06556,1.18978,0.00093,0.51804,1.26703,0.33296,0.30794,1.30319
602,0.08297,0.17472,1.53559,0.12229,0.52843,0.14666,0.07093,0.06499,0.07667,0.07316,0.50169,0.56831,0.15985,0.10233,0.4921,0.0315,0.22654,0.91759,0.16179,0.09581,0.9319,-0.06943,0.25058,1.45305,0.19473,0.03505,1.4728,-0.12402,0.30219,1.15394,0.32156,0.06792,1.19164,0.00029,0.51733,1.26815,0.33062,0.30818,1.30983
603,0.0824,0.17247,1.5356,0.12241,0.53005,0.14815,0.07087,0.06482,0.0768,0.07292,0.50358,0.56977,0.16026,0.10225,0.49212,0.03197,0.22689,0.91791,0.16179,0.09566,0.93192,-0.06977,0.24933,1.45325,0.19382,0.03249,1.47297,-0.12391,0.3013,1.15412,0.32322,0.07043,1.19363,-0.00059,0.51633,1.26962,0.3282,0.30867,1.31609
604,0.08179,0.17005,1.53567,0.12284,0.53164,0.14953,0.07097,0.06437,0.0769,0.07249,0.50544,0.57107,0.16058,0.10232,0.49212,0.03233,0.22722,0.91808,0.16189,0.09571,0.93192,-0.07001,0.2479,1.4535,0.19309,0.0302,1.47312,-0.12364,0.30062,1.15441,0.3248,0.07317,1.19558,-0.00146,0.5155,1.27138,0.32575,0.3091,1.32252
605,0.08136,0.16784,1.53569,0.12347,0.53329,0.15085,0.07109,0.06388,0.07689,0.07193,0.50727,0.57226,0.16084,0.10256,0.49202,0.0326,0.22744,0.91805,0.16217,0.09594,0.93181,-0.0702,0.24647,1.45366,0.1926,0.02815,1.4733,-0.1232,0.30063,1.15472,0.3262,0.07618,1.19751,-0.00218,0.51535,1.27318,0.32305,0.30944,1.32926
606,0.08104,0.16605,1.53561,0.12409,0.53496,0.15223,0.0711,0.06366,0.07678,0.07138,0.50914,0.5735,0.16119,0.10276,0.49179,0.03283,0.22758,0.918,0.16256,0.09622,0.93159,-0.07041,0.24537,1.45372,0.19214,0.02606,1.47351,-0.12255,0.30129,1.15496,0.32754,0.07944,1.19958,-0.00277,0.51592,1.27484,0.31981,0.30981,1.33613
607,0.08052,0.16454,1.53548,0.12452,0.53667,0.15382,0.07102,0.06378,0.07667,0.07088,0.51098,0.57499,0.16163,0.10285,0.49158,0.03302,0.22766,0.9181,0.16288,0.09639,0.93137,-0.07071,0.24478,1.4538,0.19135,0.02397,1.47372,-0.1217,0.30233,1.15514,0.32897,0.08271,1.20201,-0.00327,0.51684,1.27656,0.31627,0.3102,1.34295
608,0.07961,0.16311,1.53535,0.12469,0.53843,0.15563,0.07093,0.06396,0.0767,0.07033,0.51273,0.5767,0.16201,0.10293,0.49151,0.0332,0.22763,0.91843,0.16313,0.0964,0.93131,-0.07115,0.24448,1.45393,0.19004,0.02227,1.47391,-0.12075,0.30357,1.15534,0.33055,0.08584,1.20477,-0.00361,0.51767,1.27874,0.31309,0.31046,1.34975
609,0.07845,0.16181,1.53516,0.12467,0.54008,0.15747,0.07082,0.06389,0.07692,0.06972,0.51438,0.57847,0.16221,0.10312,0.49164,0.03348,0.22757,0.91885,0.16346,0.09635,0.93143,-0.07182,0.2441,1.45406,0.18838,0.02121,1.47407,-0.11985,0.30498,1.15557,0.33223,0.08884,1.2077,-0.00375,0.51819,1.28145,0.31063,0.31055,1.35655
610,0.07741,0.16092,1.53477,0.12468,0.54137,0.15908,0.0707,0.0636,0.07721,0.06926,0.51602,0.58004,0.16235,0.1034,0.49182,0.03394,0.22767,0.9192,0.16397,0.09648,0.93161,-0.07276,0.24346,1.45407,0.18681,0.02058,1.47435,-0.11913,0.3064,1.15575,0.33391,0.09176,1.21071,-0.00379,0.51845,1.28426,0.30862,0.31054,1.36327
611,0.07674,0.16053,1.5342,0.12487,0.54228,0.16027,0.07067,0.06336,0.07734,0.06909,0.51762,0.58122,0.16261,0.10362,0.49184,0.03453,0.22809,0.91947,0.16452,0.09684,0.93163,-0.07386,0.24264,1.45398,0.18562,0.01996,1.47483,-0.11868,0.3077,1.15588,0.33557,0.09467,1.21377,-0.00398,0.5187,1.28668,0.3067,0.31052,1.36983
612,0.07638,0.1603,1.5336,0.12515,0.54301,0.16104,0.0708,0.0634,0.07716,0.06915,0.51892,0.58199,0.16306,0.10364,0.49158,0.03507,0.22873,0.91972,0.16491,0.09729,0.93138,-0.0749,0.24181,1.45394,0.18482,0.0191,1.47532,-0.11848,0.30889,1.1561,0.33724,0.09774,1.21686,-0.00444,0.51917,1.28863,0.30467,0.31057,1.3763
613,0.07594,0.15971,1.53319,0.12515,0.54376,0.1615,0.07097,0.06375,0.07678,0.06916,0.51985,0.58246,0.16359,0.10359,0.49117,0.03537,0.2293,0.91991,0.16512,0.09772,0.93097,-0.0757,0.241,1.454,0.18415,0.01801,1.47548,-0.11833,0.31017,1.1565,0.33908,0.10111,1.21992,-0.00508,0.52002,1.29038,0.30255,0.31072,1.38273
614,0.0752,0.15856,1.53305,0.12462,0.54455,0.16172,0.07101,0.06421,0.0765,0.06891,0.52057,0.58272,0.16409,0.10377,0.49081,0.03543,0.22972,0.91995,0.16525,0.09818,0.93062,-0.0762,0.24028,1.454,0.18337,0.01691,1.47519,-0.11795,0.31182,1.15694,0.34113,0.10474,1.22296,-0.00558,0.52122,1.29225,0.30034,0.31093,1.38909
615,0.07444,0.157,1.53315,0.1237,0.54532,0.16166,0.07097,0.06445,0.07649,0.06842,0.52116,0.5827,0.1646,0.10433,0.49064,0.03543,0.23021,0.91989,0.16541,0.09881,0.93045,-0.07639,0.23986,1.45388,0.18245,0.01603,1.47478,-0.11714,0.31384,1.15727,0.34321,0.10842,1.22611,-0.00567,0.52258,1.29433,0.29802,0.3112,1.39527
616,0.07413,0.15535,1.53337,0.12256,0.54607,0.16123,0.07099,0.06431,0.07669,0.06789,0.52157,0.58233,0.16522,0.10506,0.49063,0.03548,0.23098,0.91988,0.16556,0.09968,0.93044,-0.07633,0.23985,1.45371,0.18157,0.01535,1.4748,-0.11587,0.31603,1.1575,0.34501,0.11199,1.22951,-0.00538,0.52405,1.29644,0.29556,0.31161,1.40122
617,0.07434,0.15397,1.53353,0.12128,0.54686,0.16053,0.07107,0.06403,0.07695,0.06756,0.52176,0.58172,0.16587,0.1057,0.49067,0.03553,0.23197,0.92,0.16572,0.10078,0.93049,-0.07619,0.24006,1.45353,0.18087,0.01467,1.47538,-0.11428,0.31821,1.15764,0.34646,0.11541,1.2332,-0.00507,0.52575,1.2983,0.29287,0.31216,1.40697
618,0.07469,0.15313,1.53353,0.12003,0.5477,0.15974,0.07105,0.06399,0.07716,0.06747,0.52175,0.58103,0.1664,0.10619,0.4907,0.03556,0.23299,0.92019,0.16598,0.10201,0.93052,-0.0761,0.24021,1.4533,0.18022,0.01393,1.47618,-0.11258,0.32023,1.1577,0.34778,0.11876,1.23712,-0.00513,0.52768,1.29985,0.28998,0.31277,1.41261
619,0.07479,0.15279,1.5334,0.11905,0.5484,0.15894,0.07089,0.06432,0.07731,0.0674,0.52167,0.58028,0.16665,0.10669,0.49073,0.03567,0.23393,0.92033,0.16644,0.10328,0.93057,-0.07604,0.24025,1.45302,0.17941,0.01325,1.47681,-0.11095,0.32201,1.15772,0.34918,0.12214,1.24115,-0.00565,0.52958,1.30128,0.28713,0.31338,1.41821
620,0.07458,0.15268,1.53327,0.11844,0.54869,0.15806,0.07068,0.06478,0.07739,0.06713,0.52168,0.57943,0.16665,0.10738,0.49074,0.03587,0.23479,0.92025,0.16709,0.10461,0.93058,-0.07592,0.24021,1.45277,0.17846,0.01283,1.47725,-0.10949,0.32366,1.15778,0.35064,0.12552,1.24515,-0.00618,0.53119,1.30284,0.28473,0.31406,1.42371
621,0.07419,0.15257,1.53316,0.11803,0.54848,0.15706,0.0705,0.06518,0.07733,0.06669,0.52181,0.57845,0.1666,0.10829,0.49059,0.03605,0.2356,0.91989,0.16779,0.10597,0.93043,-0.07582,0.24011,1.45257,0.17761,0.01282,1.47765,-0.10818,0.32539,1.15797,0.35203,0.12881,1.24887,-0.00623,0.53249,1.3046,0.28289,0.31467,1.42902
622,0.07374,0.15236,1.53296,0.1176,0.54789,0.15594,0.07039,0.06551,0.07711,0.06628,0.5219,0.57737,0.16673,0.10929,0.49025,0.03606,0.2364,0.91944,0.16828,0.10726,0.93009,-0.07596,0.24003,1.45241,0.17704,0.01318,1.47808,-0.10694,0.32729,1.15825,0.35334,0.13197,1.25219,-0.00589,0.53369,1.30648,0.28119,0.31493,1.43411
623,0.07333,0.15218,1.53265,0.11714,0.54703,0.15473,0.07043,0.06586,0.07682,0.06608,0.52171,0.57623,0.16709,0.1102,0.48983,0.03593,0.23725,0.91918,0.16845,0.10841,0.92967,-0.07647,0.24013,1.45222,0.17658,0.01367,1.47839,-0.10566,0.32928,1.15844,0.35461,0.13513,1.25529,-0.00568,0.53504,1.30828,0.27919,0.31481,1.43915
624,0.07301,0.15227,1.53223,0.11676,0.54586,0.15345,0.07071,0.06623,0.07665,0.06608,0.52123,0.57505,0.16752,0.11101,0.48957,0.03583,0.23825,0.9192,0.16841,0.10945,0.92941,-0.0773,0.24062,1.45197,0.17592,0.014,1.4785,-0.10427,0.33135,1.15846,0.35585,0.13845,1.2586,-0.00593,0.53677,1.30984,0.27698,0.31469,1.44433
625,0.0726,0.15276,1.5318,0.11642,0.54437,0.15214,0.07119,0.06649,0.07666,0.06618,0.52073,0.57384,0.16784,0.11189,0.48955,0.03596,0.23933,0.91929,0.16846,0.11044,0.9294,-0.07818,0.24165,1.45171,0.17492,0.01414,1.47848,-0.1028,0.33361,1.15837,0.35699,0.14194,1.26229,-0.00647,0.53894,1.31117,0.27485,0.31501,1.44959
626,0.07187,0.15345,1.53153,0.11603,0.54277,0.15082,0.07164,0.06653,0.07681,0.06621,0.52044,0.57265,0.16802,0.113,0.48965,0.03633,0.24032,0.91916,0.16883,0.11144,0.92949,-0.07875,0.24312,1.45151,0.1738,0.0143,1.47854,-0.10127,0.33614,1.15834,0.35795,0.1455,1.26618,-0.0069,0.5414,1.31244,0.2729,0.3159,1.45462
627,0.07076,0.15404,1.53149,0.11562,0.54125,0.14959,0.07188,0.0664,0.07698,0.06611,0.52043,0.57153,0.16821,0.11431,0.48966,0.03677,0.24113,0.91876,0.16947,0.1125,0.9295,-0.079,0.24473,1.45137,0.17284,0.0146,1.47876,-0.09965,0.33887,1.15842,0.35866,0.14901,1.26991,-0.00689,0.5439,1.31379,0.27099,0.31703,1.45928
628,0.06961,0.15448,1.5315,0.11516,0.53994,0.14849,0.07187,0.06626,0.07709,0.06596,0.5207,0.57054,0.16854,0.11572,0.48951,0.03706,0.24195,0.91824,0.17004,0.11363,0.92935,-0.07926,0.24633,1.45117,0.17218,0.01503,1.4791,-0.09791,0.34168,1.15848,0.35921,0.15241,1.27327,-0.00644,0.5463,1.31517,0.26908,0.31789,1.46371
629,0.0688,0.155,1.53132,0.11457,0.53895,0.14747,0.07179,0.06627,0.07714,0.06597,0.52127,0.56966,0.16894,0.11722,0.48927,0.03719,0.24296,0.91772,0.17029,0.1148,0.9291,-0.07982,0.248,1.45091,0.17172,0.01552,1.47944,-0.0962,0.34451,1.15846,0.35976,0.15551,1.27632,-0.00581,0.54866,1.31637,0.2673,0.31821,1.46804
630,0.06842,0.15581,1.53092,0.11382,0.53836,0.14648,0.07183,0.06648,0.07712,0.06632,0.52204,0.56884,0.16927,0.11873,0.48902,0.03724,0.24423,0.91728,0.17022,0.11596,0.92886,-0.08043,0.24975,1.45065,0.17122,0.01598,1.47968,-0.09475,0.3473,1.15843,0.36046,0.15819,1.27923,-0.00533,0.55111,1.31733,0.26574,0.31813,1.47217
631,0.06815,0.15692,1.53049,0.1131,0.53804,0.14554,0.07201,0.06682,0.07704,0.06687,0.5228,0.56809,0.16949,0.12002,0.48881,0.03735,0.24563,0.917,0.17004,0.11705,0.92864,-0.08061,0.25139,1.45037,0.17059,0.01648,1.47977,-0.0937,0.35014,1.1585,0.36135,0.16064,1.28217,-0.00519,0.5537,1.31824,0.2643,0.31801,1.47606
632,0.06761,0.15814,1.53026,0.11269,0.5377,0.14477,0.07218,0.06714,0.077,0.06724,0.52335,0.56743,0.16976,0.12087,0.48867,0.03757,0.24694,0.91693,0.16993,0.11803,0.92851,-0.08025,0.25279,1.44998,0.16998,0.01729,1.4798,-0.09279,0.35316,1.15864,0.36238,0.16327,1.28514,-0.0054,0.55641,1.31938,0.26296,0.31813,1.47985
633,0.06668,0.15939,1.53027,0.11264,0.53728,0.14419,0.07223,0.06734,0.07711,0.0672,0.52371,0.56689,0.17013,0.12137,0.48867,0.03792,0.24812,0.91707,0.17002,0.11893,0.92851,-0.07976,0.25412,1.44954,0.16967,0.01853,1.47993,-0.09163,0.35625,1.15879,0.36342,0.1663,1.28799,-0.00586,0.5592,1.32076,0.26192,0.31865,1.4836
634,0.06556,0.16074,1.5304,0.11272,0.53701,0.14379,0.07218,0.06739,0.07739,0.06698,0.5241,0.56647,0.1704,0.12186,0.48881,0.03838,0.24934,0.91736,0.17025,0.1199,0.92865,-0.07941,0.25568,1.4493,0.16962,0.01994,1.48025,-0.09012,0.35918,1.15899,0.36428,0.16951,1.29063,-0.00638,0.56209,1.32209,0.26123,0.31965,1.48714
635,0.06464,0.16227,1.5305,0.11269,0.53715,0.14356,0.07213,0.06743,0.07766,0.06692,0.52475,0.56625,0.17034,0.12254,0.489,0.03878,0.25068,0.91772,0.1705,0.12107,0.92884,-0.07913,0.25754,1.44936,0.16958,0.02112,1.48072,-0.08848,0.36203,1.15936,0.36487,0.17256,1.29324,-0.00667,0.56512,1.3232,0.26061,0.32108,1.49035
636,0.06428,0.16396,1.53047,0.11258,0.53762,0.14349,0.07215,0.06761,0.0778,0.06712,0.52563,0.56622,0.16996,0.12332,0.48916,0.03894,0.25197,0.918,0.17068,0.12237,0.929,-0.07887,0.25953,1.44957,0.16945,0.022,1.48121,-0.08691,0.36506,1.1599,0.36534,0.17539,1.29596,-0.00647,0.56832,1.32422,0.25976,0.32268,1.49328
637,0.0645,0.16567,1.53033,0.11257,0.5381,0.14348,0.07219,0.06797,0.07781,0.06749,0.52655,0.56628,0.16947,0.12402,0.48924,0.03884,0.25302,0.91812,0.17076,0.12359,0.92909,-0.07877,0.26143,1.44972,0.16928,0.02289,1.48166,-0.08538,0.36829,1.1605,0.3659,0.17817,1.29878,-0.00589,0.57155,1.32528,0.25857,0.32416,1.49612
638,0.06492,0.1673,1.53022,0.11268,0.53847,0.14345,0.07216,0.06836,0.07772,0.06781,0.52736,0.56627,0.16907,0.12453,0.48922,0.03867,0.25389,0.91812,0.1707,0.12458,0.92907,-0.0789,0.26308,1.44978,0.16911,0.02416,1.48209,-0.08382,0.37138,1.16106,0.36664,0.18107,1.3016,-0.00527,0.5746,1.32634,0.25717,0.32544,1.49896
639,0.06515,0.16883,1.53016,0.11274,0.53878,0.14339,0.07206,0.06862,0.0776,0.06792,0.5282,0.56623,0.16886,0.12484,0.48912,0.03856,0.25478,0.9181,0.17051,0.12539,0.92897,-0.07908,0.26439,1.44981,0.16897,0.0258,1.48261,-0.08228,0.37414,1.16162,0.36756,0.18405,1.30447,-0.00492,0.57748,1.32732,0.25577,0.32667,1.5018
640,0.06513,0.17033,1.53014,0.11265,0.53911,0.14343,0.07199,0.0687,0.07754,0.0678,0.52932,0.56629,0.16885,0.12501,0.48904,0.03857,0.25577,0.91807,0.17031,0.12616,0.92888,-0.07903,0.26546,1.44978,0.16891,0.02748,1.48323,-0.08082,0.37674,1.16216,0.36862,0.1869,1.30739,-0.00497,0.58036,1.3282,0.25453,0.32801,1.50449
641,0.06495,0.17178,1.53023,0.11249,0.53955,0.14362,0.07193,0.06856,0.07764,0.06759,0.53079,0.5665,0.16897,0.12518,0.48905,0.03878,0.25685,0.91801,0.17029,0.127,0.92889,-0.07863,0.26654,1.44959,0.16893,0.02895,1.48386,-0.07946,0.37933,1.16256,0.36963,0.18949,1.31019,-0.00532,0.58332,1.32892,0.25348,0.32948,1.50688
642,0.06474,0.17312,1.53055,0.1124,0.54018,0.14392,0.07178,0.06828,0.07785,0.06754,0.53251,0.56682,0.169,0.12543,0.48914,0.03922,0.25804,0.91796,0.17053,0.128,0.92898,-0.07804,0.26787,1.44925,0.169,0.0302,1.48438,-0.07822,0.38202,1.16275,0.37022,0.19202,1.31251,-0.00569,0.58632,1.32944,0.25248,0.3311,1.50891
643,0.06463,0.17446,1.53105,0.11237,0.54101,0.14427,0.07154,0.06811,0.078,0.06778,0.53429,0.56721,0.16878,0.12569,0.48924,0.0397,0.25935,0.918,0.17084,0.12915,0.92906,-0.07753,0.26951,1.44892,0.16914,0.03143,1.48478,-0.07704,0.38498,1.16295,0.3702,0.19478,1.31417,-0.00578,0.58946,1.32996,0.2514,0.33289,1.51061
644,0.06478,0.17602,1.53148,0.11233,0.54195,0.14457,0.07127,0.06828,0.07802,0.06831,0.53594,0.56759,0.16834,0.1258,0.4893,0.03993,0.2607,0.91812,0.17088,0.13031,0.92911,-0.0771,0.27134,1.44874,0.1694,0.03286,1.48514,-0.07577,0.38835,1.16341,0.36993,0.19775,1.3154,-0.00554,0.59294,1.33074,0.25036,0.33486,1.51208
645,0.06525,0.17799,1.53165,0.1123,0.54274,0.14471,0.07109,0.06865,0.07794,0.06894,0.53732,0.5678,0.16788,0.12572,0.48935,0.0399,0.26203,0.91824,0.17059,0.13137,0.92915,-0.07653,0.27313,1.44875,0.16972,0.03455,1.48555,-0.0745,0.39195,1.16417,0.37006,0.20063,1.31673,-0.00526,0.5967,1.3317,0.24964,0.33696,1.51342
646,0.06592,0.18023,1.53158,0.11224,0.54317,0.14466,0.07116,0.06878,0.07788,0.06949,0.5386,0.56783,0.16752,0.12565,0.48942,0.03984,0.26335,0.91825,0.17018,0.13234,0.9292,-0.07575,0.27485,1.44885,0.17,0.0364,1.48596,-0.07351,0.39537,1.16498,0.37083,0.20321,1.31846,-0.00517,0.60043,1.3325,0.2493,0.33912,1.51476
647,0.06648,0.18241,1.53149,0.11213,0.54329,0.14463,0.0715,0.06847,0.07786,0.06983,0.54007,0.56785,0.16729,0.12585,0.48946,0.03986,0.26468,0.91813,0.16986,0.13335,0.92923,-0.07502,0.27658,1.44893,0.17013,0.03823,1.48633,-0.07287,0.39852,1.16568,0.37185,0.20559,1.32046,-0.00527,0.60402,1.33295,0.24909,0.34124,1.51618
648,0.06663,0.18427,1.53153,0.11207,0.54335,0.14483,0.07193,0.06803,0.07785,0.06997,0.54181,0.56808,0.16713,0.12627,0.48947,0.03976,0.26591,0.91794,0.16955,0.13438,0.92923,-0.07474,0.27838,1.44897,0.17012,0.04005,1.48665,-0.07234,0.40164,1.16629,0.37269,0.20799,1.3224,-0.00548,0.60773,1.33315,0.24875,0.34322,1.51767
649,0.06632,0.18593,1.53168,0.11214,0.54358,0.1453,0.07224,0.06788,0.07789,0.0699,0.54351,0.56854,0.16697,0.12669,0.48954,0.03943,0.26695,0.91785,0.16912,0.13534,0.92929,-0.07501,0.28025,1.44905,0.17006,0.04191,1.48689,-0.07171,0.40483,1.16696,0.37332,0.21052,1.32419,-0.00573,0.61183,1.33304,0.24826,0.34516,1.51915
650,0.06601,0.1879,1.53171,0.11226,0.5441,0.14584,0.07238,0.06802,0.07801,0.06964,0.5449,0.56905,0.16672,0.12699,0.48971,0.03904,0.2679,0.918,0.16866,0.13621,0.92946,-0.07545,0.28232,1.4493,0.17011,0.04382,1.487,-0.07098,0.40791,1.16767,0.37396,0.21324,1.32589,-0.00586,0.61624,1.33243,0.24794,0.34726,1.52065
651,0.06616,0.19041,1.53154,0.11226,0.54494,0.14624,0.07239,0.06818,0.07813,0.06921,0.54595,0.5694,0.16634,0.12726,0.48992,0.03879,0.26893,0.91834,0.16832,0.13714,0.92965,-0.07549,0.2846,1.44971,0.17035,0.04581,1.48692,-0.07027,0.4107,1.16832,0.37468,0.21618,1.32741,-0.00586,0.62065,1.33129,0.24805,0.34963,1.52217
652,0.06684,0.19307,1.53134,0.11204,0.54598,0.14644,0.07232,0.06817,0.07816,0.0687,0.54696,0.56957,0.16585,0.12751,0.49,0.03862,0.27004,0.91863,0.16811,0.1382,0.92971,-0.07507,0.28686,1.45008,0.17068,0.04795,1.48665,-0.0697,0.41329,1.16884,0.37542,0.21923,1.32866,-0.0059,0.62487,1.32991,0.2485,0.35213,1.5236
653,0.06767,0.19525,1.53131,0.11167,0.547,0.14657,0.07212,0.06807,0.07805,0.06816,0.54823,0.56968,0.16541,0.12767,0.4899,0.03841,0.27119,0.91867,0.16794,0.13938,0.92959,-0.07459,0.28886,1.45015,0.17092,0.05026,1.4864,-0.06929,0.41598,1.16922,0.3761,0.22216,1.32964,-0.00606,0.62908,1.32852,0.24897,0.35455,1.52481
654,0.06824,0.19691,1.53141,0.11127,0.54779,0.14673,0.0718,0.06811,0.07784,0.06767,0.54986,0.56983,0.16525,0.12783,0.48965,0.03813,0.27237,0.91848,0.16773,0.14063,0.9293,-0.07443,0.29063,1.44994,0.17102,0.05272,1.48635,-0.06903,0.41893,1.16956,0.37669,0.22483,1.33048,-0.00626,0.63355,1.32698,0.2493,0.35685,1.52573
655,0.06832,0.19865,1.53141,0.11083,0.54828,0.14688,0.07145,0.06836,0.07762,0.06731,0.55175,0.56998,0.16551,0.12818,0.48927,0.03779,0.27368,0.91817,0.16744,0.14196,0.9289,-0.07455,0.29257,1.4497,0.17107,0.05524,1.48647,-0.06899,0.4221,1.16988,0.3773,0.22729,1.33128,-0.00648,0.63843,1.32505,0.24953,0.35913,1.52639
656,0.068,0.20098,1.53122,0.11024,0.54859,0.14697,0.07119,0.06869,0.07741,0.06704,0.5538,0.57008,0.16608,0.12888,0.48882,0.03747,0.27516,0.91781,0.16708,0.14339,0.92843,-0.07463,0.29505,1.44962,0.17121,0.05778,1.48662,-0.06928,0.42542,1.17019,0.378,0.2297,1.33203,-0.00668,0.64369,1.32258,0.24981,0.36148,1.52691
657,0.06757,0.20377,1.53094,0.10958,0.54901,0.14705,0.07108,0.06894,0.07727,0.06658,0.55606,0.57016,0.1667,0.12985,0.48839,0.03726,0.27675,0.91738,0.16676,0.14489,0.92798,-0.07445,0.29791,1.44965,0.17152,0.06036,1.48675,-0.06995,0.42889,1.17048,0.37868,0.23225,1.33263,-0.00681,0.64928,1.31957,0.25023,0.36388,1.52744
658,0.06743,0.20647,1.53074,0.10898,0.54971,0.14719,0.07105,0.0691,0.07722,0.06572,0.55844,0.57024,0.16734,0.13088,0.48807,0.03714,0.27841,0.91694,0.16658,0.14649,0.92764,-0.07407,0.30054,1.44958,0.17198,0.06308,1.48692,-0.07091,0.43243,1.17083,0.37926,0.23506,1.33305,-0.0069,0.65515,1.31603,0.25074,0.36642,1.528
659,0.06777,0.20888,1.53057,0.10849,0.55073,0.14738,0.07103,0.06932,0.07731,0.06452,0.56082,0.57032,0.16816,0.13181,0.48785,0.03707,0.28022,0.91665,0.16647,0.14826,0.92739,-0.07383,0.30266,1.4493,0.17251,0.06606,1.4871,-0.07201,0.43591,1.17119,0.37985,0.23819,1.33348,-0.00719,0.66115,1.31207,0.25133,0.36939,1.52852
660,0.06843,0.21124,1.53033,0.10803,0.55198,0.14755,0.07092,0.06962,0.07751,0.06321,0.56314,0.57038,0.16917,0.13269,0.48769,0.03704,0.28224,0.91656,0.16635,0.15018,0.92718,-0.07399,0.30476,1.44891,0.173,0.06933,1.48716,-0.07321,0.43923,1.17138,0.38064,0.2416,1.33409,-0.008,0.66708,1.30781,0.25213,0.37301,1.52901
661,0.06906,0.21374,1.53001,0.10745,0.5533,0.14768,0.07069,0.06984,0.07771,0.06204,0.56547,0.57042,0.17018,0.13368,0.48748,0.03701,0.28429,0.91646,0.1662,0.15211,0.92692,-0.07446,0.30741,1.44854,0.1735,0.07285,1.48701,-0.07461,0.44243,1.17127,0.38161,0.2453,1.3348,-0.00932,0.6729,1.3032,0.25323,0.37713,1.52953
662,0.06943,0.21639,1.52971,0.1066,0.55451,0.14778,0.07044,0.06986,0.07777,0.06113,0.56787,0.57047,0.17102,0.13484,0.48709,0.03683,0.28615,0.91613,0.16608,0.15402,0.92649,-0.0749,0.31051,1.44823,0.17418,0.07655,1.4867,-0.07638,0.44557,1.17098,0.38269,0.24927,1.33535,-0.01078,0.67867,1.29804,0.25448,0.38138,1.52999
663,0.06954,0.21913,1.52944,0.1055,0.55547,0.1479,0.07027,0.06978,0.07762,0.0604,0.5703,0.57059,0.17187,0.13615,0.48646,0.03643,0.2878,0.91562,0.16608,0.15604,0.92582,-0.07515,0.31345,1.44797,0.17521,0.08041,1.48633,-0.07855,0.4486,1.17079,0.38388,0.25339,1.33549,-0.01201,0.68446,1.29214,0.25574,0.38549,1.53018
664,0.06949,0.222,1.52913,0.10441,0.55629,0.14812,0.07026,0.06987,0.07741,0.05964,0.57272,0.57078,0.17303,0.13757,0.48574,0.03597,0.28942,0.91519,0.16628,0.1583,0.92505,-0.07526,0.31586,1.44773,0.17659,0.08444,1.4859,-0.08108,0.45146,1.1708,0.38523,0.25759,1.33522,-0.01298,0.69021,1.28546,0.25702,0.38955,1.52996
665,0.06939,0.22497,1.52875,0.10363,0.55725,0.14843,0.07035,0.07025,0.07732,0.05861,0.57514,0.571,0.17463,0.139,0.48509,0.03569,0.29117,0.91491,0.16674,0.16075,0.92433,-0.07534,0.31779,1.44745,0.17815,0.08868,1.48535,-0.08406,0.45408,1.17094,0.38674,0.26196,1.33475,-0.01399,0.69576,1.27802,0.25835,0.3938,1.52946
666,0.06928,0.22792,1.52843,0.10321,0.55854,0.14868,0.07047,0.0708,0.0774,0.05731,0.57766,0.57111,0.17657,0.14039,0.48456,0.0357,0.29303,0.91455,0.16741,0.16327,0.92372,-0.07544,0.3195,1.44709,0.17975,0.09311,1.4847,-0.08773,0.45641,1.17102,0.38831,0.26671,1.33443,-0.01524,0.70088,1.26984,0.25955,0.39848,1.52894
667,0.06927,0.23079,1.52827,0.10302,0.55985,0.14875,0.07064,0.0712,0.07759,0.05607,0.58037,0.571,0.17864,0.14183,0.48407,0.03591,0.29507,0.91397,0.16812,0.16581,0.92314,-0.07563,0.3212,1.44668,0.18142,0.09776,1.48412,-0.09214,0.45835,1.17095,0.38975,0.27216,1.33446,-0.01679,0.70535,1.26093,0.26034,0.40389,1.52856
668,0.06938,0.23396,1.52807,0.10294,0.56084,0.14862,0.07094,0.07128,0.07781,0.05532,0.5833,0.5707,0.18069,0.14343,0.48355,0.0362,0.29739,0.91322,0.16871,0.16845,0.92252,-0.07597,0.32291,1.44624,0.18323,0.10264,1.48379,-0.09699,0.4598,1.17069,0.39088,0.27851,1.33491,-0.01897,0.70919,1.25133,0.26063,0.41038,1.52836
669,0.06946,0.23791,1.52754,0.10284,0.56157,0.14831,0.07128,0.0712,0.07799,0.05521,0.58634,0.57026,0.18265,0.14515,0.48297,0.03644,0.29992,0.91237,0.16918,0.17123,0.92184,-0.07648,0.32447,1.44572,0.18519,0.10774,1.48361,-0.10199,0.46075,1.17025,0.39166,0.28576,1.33564,-0.02212,0.71256,1.24097,0.26059,0.41795,1.52832
670,0.06931,0.24261,1.52659,0.10264,0.5624,0.14789,0.07153,0.07125,0.07812,0.05544,0.58941,0.56975,0.18465,0.14685,0.48231,0.03654,0.30248,0.91143,0.16965,0.17418,0.92105,-0.07726,0.3257,1.44509,0.18736,0.11299,1.48325,-0.10716,0.46115,1.16965,0.39214,0.29377,1.33628,-0.02597,0.71533,1.22953,0.26043,0.42612,1.52841
671,0.06898,0.24742,1.52544,0.10246,0.56359,0.14752,0.07163,0.07151,0.07818,0.05577,0.59258,0.5693,0.18686,0.14853,0.48151,0.03656,0.3049,0.91033,0.17032,0.17728,0.9201,-0.07846,0.32656,1.44436,0.18981,0.11856,1.48245,-0.11269,0.4608,1.16883,0.39241,0.30252,1.3364,-0.0296,0.71692,1.21661,0.26028,0.43447,1.52852
672,0.06858,0.25172,1.52428,0.10261,0.56521,0.14734,0.07168,0.07183,0.07814,0.05626,0.59604,0.56902,0.18924,0.15028,0.48052,0.03667,0.30719,0.90904,0.17135,0.18055,0.91896,-0.08013,0.3273,1.44352,0.19258,0.12483,1.48125,-0.11868,0.45951,1.16758,0.39241,0.31227,1.3358,-0.03254,0.71676,1.20203,0.25995,0.44324,1.52836
673,0.06816,0.25553,1.52314,0.10321,0.56719,0.14733,0.07179,0.07212,0.07798,0.05701,0.59989,0.56889,0.19161,0.15215,0.47938,0.03694,0.30951,0.90759,0.17274,0.18411,0.91766,-0.0821,0.32822,1.44251,0.19555,0.132,1.47991,-0.12503,0.4572,1.16569,0.39192,0.32324,1.3347,-0.03537,0.71476,1.18596,0.25891,0.45311,1.52763
674,0.06775,0.25937,1.52199,0.10411,0.56935,0.14739,0.07201,0.07252,0.07778,0.05798,0.60406,0.56879,0.19385,0.15418,0.47824,0.03732,0.31209,0.90607,0.17433,0.18801,0.91635,-0.08413,0.32942,1.44129,0.19862,0.13977,1.47864,-0.13129,0.45407,1.16318,0.39071,0.33536,1.33351,-0.03878,0.71136,1.1686,0.25665,0.46444,1.52624
675,0.06748,0.26364,1.5209,0.10519,0.57149,0.14737,0.07228,0.07317,0.07769,0.05916,0.60843,0.5686,0.196,0.1564,0.47725,0.03779,0.31501,0.90457,0.17588,0.19217,0.91518,-0.08603,0.33089,1.43991,0.20169,0.14758,1.4774,-0.13676,0.45051,1.16022,0.3886,0.34824,1.33243,-0.04279,0.70711,1.14982,0.25306,0.4769,1.5244
676,0.06753,0.26824,1.51989,0.10657,0.57362,0.14717,0.07246,0.074,0.07773,0.06058,0.6129,0.56819,0.19813,0.15877,0.47636,0.03837,0.31823,0.90302,0.17731,0.19639,0.9141,-0.08767,0.33265,1.43849,0.20481,0.15495,1.47614,-0.14104,0.44656,1.15692,0.38556,0.36138,1.33144,-0.04737,0.702,1.12936,0.24828,0.48988,1.52229
677,0.06808,0.27269,1.5189,0.1083,0.57578,0.14677,0.07244,0.07473,0.07781,0.06225,0.6174,0.56756,0.2002,0.16119,0.47541,0.03907,0.32168,0.9014,0.17862,0.20059,0.91295,-0.08895,0.33449,1.43731,0.20809,0.16189,1.47486,-0.14442,0.44148,1.15343,0.38174,0.37456,1.33052,-0.05336,0.69517,1.10724,0.24223,0.50297,1.51979
678,0.06906,0.27669,1.51788,0.11022,0.57784,0.14625,0.07235,0.07525,0.0778,0.06408,0.6219,0.56678,0.20213,0.1636,0.47433,0.03994,0.32533,0.89979,0.17995,0.20481,0.91168,-0.08985,0.33595,1.43669,0.21157,0.16879,1.47357,-0.1472,0.43415,1.15003,0.37743,0.38788,1.32967,-0.06193,0.68543,1.08391,0.23468,0.51583,1.51683
679,0.07009,0.28035,1.51684,0.11227,0.57959,0.14564,0.07239,0.07579,0.07774,0.06603,0.62634,0.56587,0.20391,0.16606,0.47326,0.04108,0.32917,0.89829,0.18148,0.20911,0.91042,-0.09037,0.3368,1.43665,0.2151,0.17603,1.47217,-0.1491,0.42421,1.14679,0.37266,0.40154,1.32886,-0.07343,0.67231,1.06014,0.22566,0.52809,1.51366
680,0.07074,0.28398,1.51588,0.11463,0.58087,0.1449,0.07257,0.07658,0.07775,0.06808,0.6307,0.56474,0.20561,0.16867,0.47234,0.04262,0.33322,0.89684,0.18338,0.21363,0.90932,-0.09065,0.33736,1.43661,0.2186,0.18383,1.4706,-0.14948,0.41254,1.14336,0.36705,0.41591,1.32805,-0.08678,0.65633,1.03651,0.2152,0.53974,1.51077
681,0.07098,0.2878,1.51503,0.11754,0.58158,0.14393,0.07276,0.07764,0.07792,0.07026,0.63504,0.56324,0.20731,0.17155,0.47156,0.04453,0.33759,0.89534,0.18572,0.21856,0.90836,-0.09093,0.33808,1.43563,0.22214,0.19237,1.46887,-0.14826,0.4005,1.1391,0.36002,0.43148,1.32734,-0.10027,0.63832,1.01291,0.20286,0.55112,1.50834
682,0.07119,0.29174,1.51427,0.12091,0.58171,0.14273,0.07288,0.07878,0.07811,0.07256,0.63944,0.56136,0.20889,0.17474,0.47076,0.04661,0.34233,0.89375,0.18831,0.22398,0.90736,-0.09154,0.33914,1.43309,0.22569,0.20177,1.46706,-0.14602,0.38902,1.13367,0.35146,0.44828,1.32693,-0.11315,0.61872,0.98896,0.18807,0.56241,1.50598
683,0.07153,0.29549,1.51353,0.12423,0.58144,0.14145,0.07298,0.07967,0.07816,0.07497,0.644,0.55927,0.21,0.17816,0.46983,0.04858,0.34739,0.89208,0.19093,0.22988,0.90621,-0.09249,0.34039,1.42906,0.22897,0.21178,1.46532,-0.14335,0.37825,1.12725,0.34192,0.46546,1.32708,-0.12621,0.59747,0.96467,0.17069,0.57309,1.5028
684,0.07184,0.29895,1.5128,0.1271,0.58104,0.14032,0.07316,0.08013,0.07806,0.07748,0.64883,0.55728,0.21059,0.18177,0.46878,0.0502,0.35264,0.89039,0.19354,0.23639,0.90489,-0.09344,0.34152,1.42404,0.23181,0.22196,1.46385,-0.14048,0.36808,1.12041,0.33221,0.48199,1.32776,-0.14065,0.57419,0.94069,0.15129,0.58225,1.49803
685,0.07191,0.30253,1.51203,0.12961,0.58083,0.13955,0.07346,0.08027,0.07797,0.08027,0.65397,0.55564,0.21109,0.18553,0.46767,0.05137,0.35804,0.88884,0.19622,0.24369,0.9034,-0.09391,0.34224,1.41839,0.23452,0.23236,1.46289,-0.1375,0.3586,1.11353,0.32271,0.49763,1.32846,-0.15673,0.54883,0.91801,0.13109,0.58933,1.49172
686,0.0717,0.30692,1.51117,0.13203,0.58099,0.13924,0.0738,0.08032,0.07805,0.08372,0.65939,0.5545,0.21192,0.18942,0.46651,0.05206,0.36365,0.88762,0.19888,0.25177,0.90172,-0.09363,0.34238,1.41227,0.2375,0.24352,1.46268,-0.13482,0.35001,1.10673,0.31327,0.51284,1.32872,-0.1737,0.52184,0.89757,0.11132,0.59459,1.48464
687,0.0712,0.31247,1.51018,0.13437,0.58152,0.1393,0.07409,0.08036,0.07835,0.08797,0.66506,0.55377,0.21311,0.19336,0.46538,0.05238,0.36965,0.88678,0.20116,0.26027,0.89994,-0.09266,0.34207,1.40603,0.24058,0.25573,1.4634,-0.13306,0.34188,1.1003,0.30352,0.528,1.32877,-0.19058,0.49337,0.88001,0.09228,0.59878,1.47758
688,0.07036,0.31888,1.50909,0.13636,0.58231,0.13946,0.07435,0.08041,0.07898,0.09265,0.67103,0.55314,0.2145,0.1974,0.46441,0.05251,0.37622,0.88617,0.20282,0.26882,0.89826,-0.0914,0.34179,1.40052,0.24303,0.26866,1.46506,-0.13257,0.33323,1.095,0.29341,0.54302,1.32938,-0.20704,0.46266,0.86591,0.0736,0.60239,1.47057
689,0.06907,0.32555,1.50791,0.13764,0.58313,0.13946,0.07477,0.08058,0.08018,0.09719,0.67719,0.55229,0.21626,0.20181,0.4638,0.05279,0.38338,0.88567,0.20416,0.27739,0.89694,-0.09037,0.34185,1.39647,0.24426,0.28183,1.46742,-0.1334,0.32337,1.09165,0.28324,0.55767,1.33099,-0.22321,0.42895,0.85591,0.05519,0.60575,1.46312
690,0.06721,0.3319,1.50677,0.13813,0.5838,0.13925,0.07558,0.08104,0.08228,0.10132,0.68324,0.55117,0.21889,0.20697,0.46371,0.05353,0.39096,0.88541,0.20583,0.28625,0.89615,-0.08977,0.34183,1.3939,0.24423,0.29516,1.47005,-0.13553,0.31236,1.09035,0.27313,0.57216,1.33348,-0.23915,0.39274,0.85038,0.03744,0.60969,1.45521
691,0.06482,0.33746,1.506,0.13813,0.58442,0.13904,0.07696,0.08188,0.08553,0.10502,0.689,0.55,0.22283,0.21304,0.46421,0.05494,0.39875,0.88567,0.20822,0.29545,0.89602,-0.08943,0.34075,1.39219,0.24333,0.30901,1.4727,-0.13889,0.30075,1.09043,0.26288,0.58695,1.33638,-0.25505,0.35559,0.84901,0.02068,0.61543,1.44731
692,0.06205,0.34191,1.5059,0.13804,0.58534,0.13904,0.07908,0.08299,0.08999,0.10816,0.69454,0.54904,0.22831,0.21996,0.4653,0.05694,0.40656,0.88649,0.21117,0.30467,0.89657,-0.08918,0.33792,1.39064,0.24194,0.32365,1.47554,-0.1431,0.28905,1.09095,0.25266,0.60205,1.33918,-0.27104,0.31891,0.85111,0.00525,0.62385,1.43963
693,0.05898,0.34541,1.50637,0.13808,0.58674,0.1393,0.08232,0.08438,0.09559,0.11051,0.70003,0.54835,0.23544,0.22777,0.46691,0.0592,0.41431,0.88771,0.21435,0.31382,0.89774,-0.08891,0.33334,1.38913,0.24015,0.33859,1.47881,-0.14765,0.2773,1.09161,0.24328,0.61672,1.3415,-0.28679,0.28371,0.85627,-0.0082,0.63527,1.432
694,0.05564,0.34842,1.5071,0.1383,0.58849,0.1398,0.08708,0.08628,0.10241,0.11194,0.70552,0.54787,0.24438,0.23671,0.46916,0.06124,0.42207,0.88922,0.21759,0.32347,0.89954,-0.08872,0.32756,1.38826,0.23788,0.35288,1.48237,-0.15222,0.26509,1.09301,0.23525,0.63013,1.34329,-0.30207,0.25033,0.86473,-0.01926,0.64997,1.42459
695,0.05216,0.35119,1.50795,0.1387,0.59035,0.14039,0.09364,0.08909,0.11064,0.11248,0.71076,0.5475,0.25518,0.24722,0.47229,0.06267,0.43004,0.89122,0.22073,0.33427,0.90205,-0.08903,0.32147,1.38857,0.2352,0.36586,1.48568,-0.15682,0.25203,1.09583,0.22836,0.64205,1.34466,-0.317,0.21839,0.87676,-0.02797,0.66849,1.41793
696,0.04852,0.35353,1.50902,0.13921,0.59218,0.14102,0.10207,0.09305,0.12045,0.11217,0.71541,0.54722,0.26761,0.25977,0.47638,0.06332,0.43828,0.89399,0.22347,0.34612,0.9054,-0.09027,0.31581,1.38992,0.23212,0.37765,1.48843,-0.1615,0.23821,1.10007,0.22234,0.65282,1.34557,-0.33168,0.18775,0.89204,-0.0343,0.69135,1.41211
697,0.04447,0.35508,1.51047,0.13974,0.59399,0.14169,0.11217,0.09806,0.1318,0.11103,0.71932,0.54713,0.28103,0.27467,0.48134,0.06339,0.44657,0.89751,0.22567,0.3583,0.9096,-0.0922,0.31067,1.39183,0.22833,0.38884,1.4908,-0.16612,0.22393,1.10526,0.2172,0.66287,1.34587,-0.34618,0.15879,0.91003,-0.0377,0.71877,1.40652
698,0.03967,0.35567,1.51227,0.14018,0.59579,0.14241,0.1236,0.10397,0.14449,0.10913,0.7226,0.54722,0.29463,0.29192,0.48699,0.06331,0.45454,0.90145,0.22774,0.37048,0.91457,-0.09381,0.3054,1.39406,0.22357,0.39972,1.49321,-0.17039,0.20949,1.11114,0.21288,0.67229,1.34553,-0.36054,0.13191,0.93056,-0.03744,0.75036,1.40049
699,0.03415,0.35543,1.51427,0.14053,0.5974,0.1431,0.13591,0.11098,0.1583,0.10665,0.72526,0.54735,0.30787,0.31131,0.49324,0.06344,0.46182,0.90535,0.23031,0.38305,0.92021,-0.09418,0.29923,1.3967,0.21802,0.40993,1.4959,-0.17447,0.1954,1.11763,0.20907,0.68071,1.34485,-0.37484,0.10753,0.95356,-0.03287,0.78487,1.39377
700,0.02847,0.35454,1.51628,0.14093,0.59857,0.14361,0.14857,0.1195,0.17333,0.10367,0.72718,0.54733,0.32074,0.33279,0.50005,0.06385,0.46817,0.90895,0.23364,0.3965,0.92645,-0.09325,0.292,1.39974,0.21223,0.419,1.49878,-0.17921,0.18264,1.1245,0.20558,0.68785,1.34422,-0.38953,0.08632,0.97865,-0.02355,0.82015,1.38635
701,0.02339,0.35314,1.51825,0.14159,0.5993,0.14391,0.16125,0.12967,0.19027,0.10001,0.72812,0.54714,0.33366,0.35668,0.50748,0.06447,0.47346,0.91226,0.23738,0.41074,0.93324,-0.09174,0.28437,1.40303,0.20653,0.42694,1.50157,-0.18565,0.17227,1.13151,0.20258,0.69398,1.3438,-0.40522,0.06884,1.00551,-0.00978,0.85372,1.37787
702,0.01929,0.3514,1.52018,0.14264,0.5998,0.14413,0.17398,0.14157,0.21008,0.09558,0.72802,0.54695,0.34711,0.38351,0.51565,0.06522,0.47761,0.91547,0.241,0.42518,0.94047,-0.09054,0.27732,1.40642,0.20084,0.43429,1.50422,-0.19397,0.16472,1.13859,0.20056,0.69968,1.34363,-0.42187,0.0552,1.03442,0.00757,0.8839,1.36797
703,0.01589,0.34964,1.52204,0.14401,0.60033,0.14451,0.18698,0.15565,0.23315,0.09076,0.72712,0.54701,0.36116,0.4135,0.5248,0.06604,0.48073,0.91865,0.24407,0.43927,0.94799,-0.09014,0.27134,1.4098,0.19491,0.44156,1.50701,-0.20344,0.15929,1.14576,0.20003,0.70529,1.34379,-0.43866,0.04512,1.06564,0.02814,0.91038,1.35665
704,0.01266,0.348,1.52379,0.14535,0.60102,0.14503,0.2003,0.17233,0.25891,0.08605,0.72582,0.54731,0.37517,0.44616,0.53517,0.06697,0.48307,0.92166,0.2464,0.45281,0.95569,-0.09025,0.26604,1.41289,0.18851,0.44894,1.51015,-0.21322,0.15448,1.153,0.20126,0.71075,1.34429,-0.45495,0.03868,1.09877,0.05244,0.93353,1.34404
705,0.00938,0.34636,1.52548,0.14639,0.60183,0.14538,0.21399,0.19122,0.28643,0.08133,0.72408,0.54756,0.38806,0.48062,0.54687,0.06808,0.48485,0.92442,0.248,0.46566,0.96356,-0.09031,0.2608,1.41544,0.18161,0.45623,1.51342,-0.22292,0.14899,1.16045,0.20418,0.71573,1.345,-0.47064,0.03644,1.13308,0.08113,0.95326,1.33026
706,0.00603,0.34453,1.52729,0.14724,0.60266,0.14519,0.22869,0.21151,0.31507,0.07614,0.72123,0.54744,0.39887,0.5164,0.55994,0.06942,0.48616,0.92708,0.24891,0.47762,0.97161,-0.09013,0.25555,1.41754,0.17434,0.46297,1.51657,-0.23273,0.14269,1.16846,0.2088,0.71963,1.34583,-0.48565,0.03871,1.16814,0.11453,0.96863,1.31597
707,0.00256,0.34243,1.52944,0.14809,0.6033,0.14449,0.24542,0.23297,0.34462,0.07035,0.71677,0.54698,0.40724,0.55371,0.57446,0.07087,0.48688,0.92985,0.24915,0.48851,0.9797,-0.08976,0.25059,1.41953,0.16686,0.46877,1.5198,-0.24343,0.13652,1.17769,0.21544,0.72167,1.34689,-0.49981,0.04503,1.20378,0.15251,0.97825,1.30234
708,-0.00082,0.34015,1.53204,0.14881,0.60352,0.14375,0.26471,0.25623,0.37514,0.06442,0.7109,0.54657,0.41335,0.59291,0.59062,0.07222,0.48685,0.93279,0.24874,0.49835,0.98739,-0.08897,0.24581,1.42169,0.15935,0.47361,1.5235,-0.25579,0.13135,1.18893,0.22414,0.72122,1.34825,-0.51329,0.05455,1.23971,0.19406,0.98099,1.29
709,-0.00361,0.33796,1.53508,0.1492,0.60327,0.14346,0.28584,0.282,0.40662,0.05892,0.70452,0.54659,0.41729,0.63383,0.60866,0.07338,0.4863,0.93596,0.24779,0.50737,0.99434,-0.08749,0.24081,1.42423,0.15214,0.47783,1.52765,-0.26951,0.12727,1.20267,0.23404,0.71831,1.34966,-0.52597,0.06651,1.2756,0.2365,0.97656,1.27838
710,-0.00554,0.33609,1.53833,0.14935,0.60278,0.14377,0.30773,0.31026,0.43891,0.05391,0.69835,0.5471,0.41881,0.6756,0.62882,0.07463,0.48586,0.93934,0.24664,0.51602,1.00078,-0.08545,0.23554,1.42727,0.14571,0.48157,1.53167,-0.28334,0.124,1.21868,0.24418,0.71348,1.35074,-0.53693,0.08028,1.31122,0.27652,0.96575,1.26652
711,-0.00696,0.33448,1.54157,0.14958,0.60224,0.14431,0.33046,0.34012,0.47202,0.04889,0.69227,0.54764,0.41792,0.71711,0.65121,0.07645,0.48607,0.9428,0.24555,0.52494,1.00733,-0.08343,0.23041,1.4308,0.14041,0.48448,1.53494,-0.2964,0.12157,1.23611,0.25465,0.70698,1.35147,-0.5454,0.0959,1.34622,0.31272,0.94991,1.25457
712,-0.00835,0.33301,1.54466,0.1502,0.60154,0.14459,0.35516,0.3709,0.5061,0.04347,0.68551,0.54767,0.41481,0.75766,0.67563,0.07897,0.48693,0.94609,0.24436,0.5346,1.01424,-0.08202,0.22581,1.43464,0.13618,0.4862,1.53723,-0.30884,0.12031,1.25428,0.26636,0.69849,1.35229,-0.55155,0.11394,1.38012,0.34655,0.93006,1.24401
713,-0.00985,0.33179,1.54773,0.15142,0.60061,0.14444,0.3822,0.40292,0.54111,0.03784,0.67747,0.54707,0.40912,0.79709,0.7017,0.08191,0.48816,0.94913,0.24262,0.54497,1.02136,-0.08153,0.22183,1.43869,0.13266,0.487,1.53889,-0.32128,0.12047,1.27329,0.27969,0.68766,1.35359,-0.55613,0.13465,1.41267,0.37982,0.90674,1.23631
714,-0.01127,0.33095,1.55083,0.15326,0.59994,0.14403,0.41043,0.4372,0.57658,0.0326,0.66813,0.54616,0.39974,0.83535,0.72902,0.08497,0.4895,0.95209,0.2401,0.55558,1.02853,-0.08198,0.21846,1.44314,0.12949,0.48759,1.54056,-0.3341,0.12249,1.2937,0.29383,0.67442,1.35534,-0.55961,0.15777,1.44431,0.4125,0.88042,1.23181
715,-0.01252,0.33047,1.55384,0.15551,0.60028,0.14372,0.43799,0.47445,0.61176,0.02826,0.65796,0.54546,0.38584,0.8719,0.75735,0.08818,0.49075,0.9552,0.23697,0.56574,1.03586,-0.08331,0.21594,1.44813,0.12664,0.48815,1.54266,-0.34734,0.12726,1.31574,0.30743,0.65888,1.35723,-0.56192,0.18326,1.47575,0.44316,0.85151,1.22977
716,-0.01377,0.33048,1.55655,0.15798,0.60203,0.14401,0.46382,0.51453,0.64621,0.02486,0.64739,0.54543,0.36782,0.90568,0.78645,0.09168,0.49177,0.95865,0.2337,0.57489,1.04346,-0.0856,0.21465,1.45364,0.12452,0.48817,1.54518,-0.36084,0.13565,1.33915,0.31967,0.64127,1.35891,-0.56265,0.21143,1.50742,0.47072,0.82056,1.22924
717,-0.01515,0.33114,1.55895,0.16051,0.60505,0.14526,0.48838,0.55722,0.68019,0.02212,0.63679,0.54621,0.34721,0.93603,0.81606,0.09538,0.49276,0.96253,0.23046,0.58311,1.05119,-0.0888,0.21471,1.45954,0.12365,0.48727,1.54792,-0.37413,0.14776,1.36355,0.33062,0.62199,1.36022,-0.56128,0.24225,1.53914,0.49533,0.78811,1.22964
718,-0.01652,0.33229,1.56115,0.16298,0.60926,0.14742,0.51263,0.6034,0.71446,0.01987,0.6264,0.5476,0.32535,0.96324,0.84611,0.09899,0.49415,0.96675,0.22707,0.59103,1.05886,-0.09253,0.21593,1.46556,0.124,0.48539,1.55074,-0.3864,0.16256,1.38873,0.34059,0.60141,1.3614,-0.5573,0.2749,1.57027,0.51757,0.75432,1.23073
719,-0.01773,0.33346,1.56307,0.16519,0.61474,0.14999,0.53635,0.6545,0.74955,0.01844,0.61634,0.54921,0.3027,0.98788,0.87662,0.10248,0.49645,0.97111,0.22342,0.59914,1.0665,-0.09639,0.21835,1.47122,0.12499,0.48245,1.5535,-0.39691,0.17869,1.41443,0.34963,0.57986,1.36308,-0.55037,0.30833,1.59998,0.53768,0.71903,1.23251
720,-0.01901,0.3346,1.56445,0.16716,0.62122,0.1524,0.5581,0.71094,0.78548,0.01844,0.60664,0.55063,0.27961,1.00997,0.90754,0.10594,0.49989,0.97534,0.21984,0.60731,1.07413,-0.10022,0.22208,1.47603,0.12599,0.47853,1.55591,-0.40538,0.19552,1.44021,0.35779,0.55783,1.36565,-0.54047,0.34199,1.62751,0.55585,0.68217,1.23494
721,-0.02079,0.33607,1.56511,0.16937,0.62819,0.15435,0.57626,0.77112,0.82231,0.02044,0.59754,0.55158,0.25708,1.02906,0.93839,0.10938,0.50413,0.97913,0.21666,0.61507,1.08138,-0.10393,0.22645,1.48,0.1269,0.47412,1.55763,-0.4117,0.21346,1.46544,0.36513,0.53563,1.36874,-0.5278,0.37565,1.65252,0.57231,0.64391,1.23786
722,-0.02314,0.33815,1.56511,0.17218,0.63526,0.1557,0.5899,0.83179,0.86016,0.02462,0.58942,0.55199,0.23657,1.04483,0.96812,0.11275,0.50824,0.98219,0.21372,0.62213,1.08758,-0.10734,0.23009,1.48382,0.12788,0.46981,1.55845,-0.41567,0.23332,1.48954,0.37151,0.51332,1.37145,-0.51253,0.40908,1.67531,0.58696,0.60471,1.24105
723,-0.02554,0.34076,1.56473,0.17557,0.64201,0.15638,0.59905,0.89084,0.89844,0.03078,0.58254,0.55188,0.21876,1.05747,0.99589,0.11605,0.51131,0.98441,0.21063,0.62838,1.09222,-0.11044,0.23213,1.48828,0.12893,0.46592,1.55843,-0.417,0.25559,1.51235,0.37652,0.49095,1.37325,-0.49458,0.44226,1.69653,0.59931,0.56509,1.24423
724,-0.0273,0.34351,1.56428,0.17947,0.64815,0.15641,0.6039,0.95015,0.93636,0.03839,0.57704,0.55133,0.20293,1.0674,1.02217,0.1191,0.51324,0.98589,0.20718,0.63372,1.09543,-0.11331,0.23312,1.49348,0.12981,0.46257,1.5579,-0.41544,0.27993,1.53388,0.37991,0.4689,1.37453,-0.4736,0.47505,1.71644,0.60886,0.52545,1.2474
725,-0.02807,0.34608,1.56408,0.18393,0.6535,0.15584,0.60377,1.01437,0.97387,0.04695,0.57297,0.55039,0.18819,1.07486,1.04813,0.12168,0.51455,0.98678,0.20323,0.6381,1.09794,-0.11595,0.23464,1.49874,0.13044,0.45984,1.55741,-0.41113,0.30507,1.55368,0.38177,0.44774,1.37601,-0.4493,0.50653,1.73463,0.61543,0.48607,1.25066
726,-0.02821,0.34863,1.5643,0.18892,0.65779,0.15464,0.59708,1.08631,1.01158,0.05609,0.57022,0.54911,0.17525,1.08003,1.07406,0.12372,0.51577,0.98717,0.19864,0.6416,1.10042,-0.11834,0.23801,1.50337,0.13105,0.45779,1.55733,-0.40491,0.32973,1.57099,0.38235,0.42778,1.37798,-0.42201,0.53535,1.75046,0.61901,0.4472,1.2539
727,-0.02847,0.35182,1.56469,0.19435,0.66069,0.15287,0.5818,1.16371,1.05015,0.06558,0.5685,0.54763,0.16584,1.08339,1.0992,0.12526,0.51707,0.98721,0.19341,0.64442,1.103,-0.12067,0.24334,1.50725,0.13184,0.4563,1.55749,-0.39777,0.35371,1.58562,0.38185,0.4088,1.38013,-0.3924,0.56102,1.76389,0.61997,0.40897,1.25735
728,-0.02937,0.35614,1.56483,0.20015,0.66207,0.15079,0.55686,1.23997,1.0895,0.07516,0.56759,0.54623,0.16073,1.08548,1.12264,0.12647,0.51843,0.98712,0.18806,0.64682,1.10542,-0.12333,0.24984,1.51057,0.13272,0.45492,1.55772,-0.3899,0.37784,1.5981,0.38013,0.3906,1.38203,-0.36104,0.58401,1.77543,0.61892,0.37146,1.26205
729,-0.03049,0.36149,1.56455,0.20598,0.66224,0.14869,0.52309,1.30838,1.12807,0.08454,0.56738,0.54514,0.15936,1.08627,1.14393,0.12761,0.51953,0.98706,0.18363,0.64862,1.10734,-0.12643,0.2568,1.51311,0.13353,0.45309,1.55828,-0.38069,0.40269,1.60889,0.37691,0.37364,1.38315,-0.32834,0.60491,1.78538,0.61602,0.33492,1.26866
730,-0.03095,0.36742,1.56399,0.2111,0.66189,0.14668,0.48227,1.36587,1.16388,0.09331,0.56781,0.54441,0.16136,1.08499,1.1629,0.12857,0.51971,0.98699,0.18118,0.64895,1.10864,-0.12981,0.26397,1.51435,0.13422,0.45051,1.55944,-0.3697,0.42794,1.61767,0.37246,0.35892,1.38316,-0.29492,0.62361,1.79347,0.6109,0.30004,1.27613
731,-0.03047,0.37361,1.56338,0.21483,0.66164,0.1448,0.43528,1.41236,1.19665,0.10099,0.56892,0.544,0.16681,1.08142,1.17966,0.12909,0.51893,0.98688,0.18092,0.64741,1.10967,-0.13344,0.27111,1.51427,0.13499,0.44743,1.56086,-0.3571,0.45286,1.62405,0.36796,0.34674,1.38252,-0.26154,0.63978,1.7993,0.60354,0.26774,1.28233
732,-0.02971,0.37975,1.5629,0.21715,0.66179,0.14327,0.38476,1.44693,1.22659,0.10728,0.57107,0.54404,0.17433,1.07737,1.19459,0.12926,0.51882,0.987,0.18194,0.64556,1.11124,-0.13754,0.27803,1.51363,0.13583,0.44464,1.56151,-0.34317,0.47727,1.62819,0.36407,0.33565,1.38194,-0.22864,0.65363,1.80301,0.59442,0.23887,1.28524
733,-0.02938,0.3851,1.56273,0.21845,0.66223,0.1424,0.33948,1.46908,1.25175,0.11212,0.57452,0.54479,0.18033,1.07584,1.20796,0.12953,0.52164,0.98789,0.18314,0.64617,1.11394,-0.14218,0.28501,1.51323,0.13596,0.44295,1.56007,-0.32797,0.50148,1.63042,0.36001,0.32345,1.38192,-0.19636,0.66562,1.80513,0.58351,0.21372,1.28298
734,-0.02964,0.38883,1.56303,0.21904,0.66274,0.14222,0.30897,1.48196,1.26988,0.11569,0.57918,0.54627,0.18147,1.07809,1.21968,0.13025,0.52798,0.98966,0.18452,0.65026,1.11763,-0.14687,0.29256,1.51321,0.13425,0.44243,1.55584,-0.31173,0.52513,1.63084,0.35662,0.30952,1.38524,-0.16505,0.67568,1.80578,0.57063,0.19062,1.27641
735,-0.03027,0.39063,1.56382,0.21905,0.66336,0.14244,0.29538,1.48863,1.28095,0.11839,0.58475,0.54816,0.17726,1.0821,1.2294,0.13158,0.53603,0.99188,0.18719,0.65577,1.12165,-0.15081,0.30065,1.51297,0.13095,0.44234,1.55036,-0.29538,0.54692,1.62942,0.35771,0.3008,1.393,-0.13552,0.68333,1.8044,0.55836,0.1696,1.2734
736,-0.03112,0.39097,1.56501,0.21855,0.6644,0.1427,0.2949,1.4895,1.287,0.12066,0.59107,0.55008,0.17062,1.08466,1.23664,0.13353,0.5434,0.99392,0.19215,0.65961,1.12556,-0.15369,0.30873,1.51191,0.12811,0.44166,1.54703,-0.28001,0.56588,1.62603,0.35837,0.29765,1.39717,-0.10858,0.68832,1.8004,0.55006,0.15492,1.27609
737,-0.03219,0.39093,1.56631,0.2177,0.66593,0.14273,0.3036,1.4852,1.29037,0.12268,0.59795,0.55171,0.1666,1.08441,1.24057,0.13557,0.54889,0.9954,0.19895,0.66015,1.12911,-0.15579,0.31637,1.51017,0.1277,0.43956,1.54831,-0.26601,0.58241,1.62055,0.35367,0.28736,1.40001,-0.08445,0.69089,1.7939,0.54363,0.14114,1.28039
738,-0.0334,0.39182,1.56738,0.21691,0.6675,0.14243,0.31937,1.47768,1.29198,0.12439,0.60482,0.55283,0.16869,1.08197,1.24108,0.13678,0.5523,0.99613,0.20608,0.65758,1.13173,-0.15765,0.32377,1.50833,0.12991,0.43611,1.55355,-0.2531,0.59758,1.61333,0.34113,0.26943,1.3992,-0.06279,0.69185,1.7856,0.53322,0.12327,1.28294
739,-0.03451,0.39433,1.56821,0.21675,0.66861,0.14182,0.33981,1.46827,1.29204,0.12574,0.61097,0.55329,0.17532,1.07835,1.23922,0.13666,0.55387,0.99607,0.21242,0.65322,1.13268,-0.15952,0.33133,1.50681,0.13269,0.43295,1.55901,-0.2409,0.61202,1.60528,0.32655,0.26092,1.38859,-0.04307,0.69223,1.7762,0.51781,0.11029,1.27676
740,-0.0354,0.39794,1.56905,0.21735,0.66918,0.14102,0.36222,1.45731,1.29099,0.12677,0.61598,0.55319,0.18192,1.07471,1.23626,0.13548,0.55436,0.99541,0.21754,0.64895,1.13177,-0.16115,0.33901,1.50582,0.13344,0.43218,1.56079,-0.22931,0.62557,1.59717,0.32014,0.26024,1.38246,-0.02495,0.69241,1.76614,0.50468,0.10599,1.26444
741,-0.03619,0.4014,1.57011,0.21817,0.66914,0.14013,0.38558,1.44534,1.28856,0.12754,0.61988,0.55278,0.18622,1.07247,1.23287,0.13383,0.55472,0.99453,0.22094,0.64627,1.12982,-0.16221,0.34606,1.50551,0.1322,0.43363,1.5592,-0.21858,0.63757,1.5889,0.31913,0.25862,1.38414,-0.00866,0.69207,1.75547,0.49051,0.09977,1.25309
742,-0.03723,0.40384,1.57134,0.21877,0.66836,0.13915,0.40967,1.43312,1.28352,0.12817,0.62291,0.55224,0.1887,1.07245,1.22898,0.1323,0.55541,0.99367,0.22206,0.64563,1.12811,-0.16322,0.35174,1.50591,0.1318,0.43467,1.55843,-0.20915,0.6476,1.57985,0.31817,0.25632,1.38616,0.00511,0.69098,1.74415,0.47936,0.09049,1.2509
743,-0.03869,0.40526,1.57255,0.21919,0.66684,0.13803,0.43341,1.42058,1.2751,0.12863,0.62542,0.55155,0.18933,1.07453,1.22456,0.13133,0.55639,0.99275,0.22111,0.64681,1.12706,-0.16529,0.35628,1.50676,0.1342,0.43323,1.56127,-0.20148,0.65604,1.56952,0.30891,0.24911,1.38296,0.0157,0.68949,1.7323,0.46933,0.0804,1.25037
744,-0.04023,0.40647,1.57353,0.21975,0.66457,0.13681,0.4553,1.40681,1.26354,0.12873,0.62755,0.55065,0.18711,1.07809,1.21995,0.13084,0.55757,0.99171,0.21912,0.64961,1.1259,-0.16883,0.36075,1.50757,0.13798,0.42997,1.56609,-0.19539,0.66387,1.55782,0.29674,0.24963,1.3699,0.02335,0.68817,1.72014,0.45941,0.07901,1.24262
745,-0.04121,0.40845,1.57406,0.22059,0.66157,0.1356,0.47463,1.39104,1.24992,0.12825,0.62905,0.54953,0.18261,1.08215,1.21543,0.13011,0.55871,0.99053,0.21708,0.65334,1.12378,-0.17286,0.36599,1.50804,0.13999,0.427,1.56928,-0.18975,0.6717,1.54498,0.29389,0.25656,1.36075,0.02935,0.68723,1.70787,0.45684,0.0862,1.23345
746,-0.04125,0.41142,1.57422,0.22145,0.65825,0.13451,0.4919,1.37395,1.23506,0.12703,0.62961,0.54825,0.17884,1.08535,1.21084,0.1283,0.55945,0.98928,0.21544,0.6564,1.12074,-0.17581,0.3717,1.50835,0.13923,0.42517,1.56949,-0.18353,0.67914,1.53136,0.29137,0.25711,1.35777,0.03501,0.68649,1.69559,0.45336,0.09222,1.22232
747,-0.04043,0.41476,1.57447,0.22198,0.65511,0.13357,0.50805,1.35754,1.21819,0.1251,0.62925,0.54693,0.17866,1.08695,1.20555,0.12525,0.55969,0.98805,0.21442,0.65749,1.11749,-0.17675,0.37676,1.50881,0.13811,0.42384,1.5686,-0.17716,0.68503,1.51749,0.28728,0.25438,1.35588,0.04025,0.68584,1.68338,0.44474,0.09562,1.2083
748,-0.03922,0.41779,1.57521,0.22219,0.65232,0.13281,0.52406,1.34278,1.19815,0.12269,0.62835,0.54566,0.18253,1.08735,1.19887,0.12171,0.55963,0.98692,0.21413,0.65683,1.11453,-0.17565,0.38019,1.50945,0.1392,0.42279,1.56839,-0.17223,0.68851,1.50378,0.28273,0.25436,1.35103,0.04393,0.68553,1.67126,0.43688,0.09935,1.19614
749,-0.03822,0.42036,1.57648,0.22239,0.64981,0.13221,0.54074,1.32841,1.1753,0.12011,0.62732,0.54446,0.18908,1.08761,1.19044,0.11851,0.5595,0.98586,0.21453,0.65563,1.1116,-0.17343,0.38193,1.50991,0.14206,0.42283,1.56824,-0.16975,0.68968,1.49023,0.28007,0.25907,1.34385,0.04525,0.68585,1.65918,0.43458,0.10702,1.18642
750,-0.03757,0.42255,1.57795,0.22282,0.64753,0.13164,0.55824,1.31245,1.15087,0.11754,0.62642,0.54321,0.19667,1.08821,1.1803,0.1158,0.55922,0.9847,0.21534,0.65472,1.10817,-0.17167,0.38282,1.50981,0.14481,0.42437,1.56681,-0.16912,0.68937,1.47627,0.27935,0.26515,1.3371,0.04452,0.68694,1.64697,0.43499,0.11733,1.17678
751,-0.03679,0.42436,1.57935,0.22336,0.6455,0.13097,0.57607,1.29327,1.12505,0.11502,0.62573,0.54181,0.20443,1.08869,1.16882,0.11339,0.55853,0.9833,0.21633,0.65379,1.10413,-0.1715,0.38386,1.50909,0.14661,0.4266,1.56404,-0.16896,0.68851,1.46127,0.27888,0.27025,1.33106,0.04261,0.68887,1.63454,0.43491,0.12876,1.16549
752,-0.03547,0.42577,1.58049,0.22381,0.64368,0.13019,0.59375,1.26958,1.0965,0.11255,0.62538,0.54031,0.21239,1.0883,1.15634,0.11106,0.55729,0.98167,0.21734,0.65211,1.09992,-0.17246,0.38546,1.50803,0.14767,0.42855,1.5607,-0.16845,0.68738,1.44531,0.27888,0.27477,1.32542,0.04011,0.6917,1.62214,0.43435,0.14125,1.15287
753,-0.03395,0.42689,1.5814,0.22398,0.64195,0.12937,0.61065,1.24119,1.06401,0.11019,0.62547,0.53888,0.22107,1.08671,1.14302,0.10849,0.55567,0.97997,0.21808,0.64939,1.09607,-0.17287,0.38721,1.50698,0.14843,0.42993,1.55749,-0.16786,0.68562,1.4293,0.27945,0.27993,1.31968,0.0371,0.69549,1.61007,0.43382,0.15514,1.13975
754,-0.03301,0.42783,1.58218,0.22365,0.64009,0.12862,0.62586,1.20956,1.02811,0.10795,0.62593,0.53768,0.23087,1.08411,1.12872,0.10519,0.55394,0.97841,0.21813,0.64593,1.09266,-0.17176,0.38872,1.50619,0.1493,0.43105,1.55473,-0.16818,0.68294,1.41384,0.27992,0.28667,1.31325,0.03317,0.70018,1.59809,0.43364,0.1705,1.1271
755,-0.03276,0.42876,1.58297,0.22273,0.63805,0.12796,0.63876,1.17681,0.99062,0.10568,0.62663,0.53672,0.2418,1.08071,1.11338,0.10088,0.55233,0.97705,0.21743,0.64219,1.08935,-0.17008,0.39027,1.50566,0.15052,0.43243,1.55225,-0.17006,0.67941,1.39841,0.2802,0.29524,1.30612,0.02762,0.70542,1.58557,0.43446,0.18737,1.11547
756,-0.03252,0.43005,1.58381,0.22151,0.63605,0.12744,0.64897,1.14454,0.95295,0.10317,0.62747,0.5359,0.25344,1.0765,1.09723,0.09571,0.551,0.97582,0.21636,0.63837,1.08574,-0.16953,0.39238,1.50517,0.15206,0.43439,1.54963,-0.17321,0.67517,1.3822,0.28112,0.30504,1.29897,0.02025,0.71071,1.57218,0.43641,0.20585,1.10449
757,-0.03154,0.43188,1.58474,0.22035,0.6343,0.127,0.6561,1.11351,0.91542,0.10038,0.6285,0.53504,0.2651,1.07143,1.08043,0.09015,0.55013,0.97457,0.21531,0.63441,1.08182,-0.17061,0.39508,1.50445,0.15371,0.43685,1.54669,-0.1769,0.67035,1.36555,0.28309,0.31512,1.29241,0.01177,0.71572,1.55824,0.43859,0.2256,1.09346
758,-0.02987,0.43409,1.58578,0.21938,0.6326,0.12659,0.66022,1.08381,0.87813,0.09744,0.62986,0.53408,0.27635,1.06552,1.06304,0.08469,0.54972,0.97322,0.21441,0.63031,1.07785,-0.17226,0.39796,1.50341,0.15527,0.43932,1.54361,-0.18085,0.66518,1.3497,0.28563,0.32509,1.28636,0.00305,0.72061,1.54436,0.44016,0.24617,1.08223
759,-0.02809,0.43648,1.58669,0.21835,0.63065,0.12619,0.66217,1.05501,0.84148,0.09451,0.63159,0.5331,0.28738,1.05893,1.04495,0.07952,0.54963,0.97184,0.21364,0.62627,1.07386,-0.17308,0.4007,1.50214,0.15664,0.44124,1.54052,-0.1854,0.65976,1.33528,0.28799,0.33514,1.28031,-0.00587,0.72576,1.53072,0.44123,0.26769,1.07115
