PaulMeinheit/Bachelor_Muay_Thai/processed_Data/E1/roundhouse/sliced/JointPositions/sliced1.csv
Unnamed: 0_level_0,Neck_Joint_Position,Neck_Joint_Position,Neck_Joint_Position,L_ANKLE_POSITION,L_ANKLE_POSITION,L_ANKLE_POSITION,R_ANKLE_POSITION,R_ANKLE_POSITION,R_ANKLE_POSITION,L_KNEE_POSITION,L_KNEE_POSITION,L_KNEE_POSITION,R_KNEE_POSITION,R_KNEE_POSITION,R_KNEE_POSITION,L_HIP_POSITION,L_HIP_POSITION,L_HIP_POSITION,R_HIP_POSITION,R_HIP_POSITION,R_HIP_POSITION,L_SHOULDER_POSITION,L_SHOULDER_POSITION,L_SHOULDER_POSITION,R_SHOULDER_POSITION,R_SHOULDER_POSITION,R_SHOULDER_POSITION,L_ELBOW_POSITION,L_ELBOW_POSITION,L_ELBOW_POSITION,R_ELBOW_POSITION,R_ELBOW_POSITION,R_ELBOW_POSITION,L_WRIST_POSITION,L_WRIST_POSITION,L_WRIST_POSITION,R_WRIST_POSITION,R_WRIST_POSITION,R_WRIST_POSITION
ITEM,X,Y,Z,X,Y,Z,X,Y,Z,X,Y,Z,X,Y,Z,X,Y,Z,X,Y,Z,X,Y,Z,X,Y,Z,X,Y,Z,X,Y,Z,X,Y,Z,X,Y,Z
915,0.09393,0.1937,1.54058,0.13266,0.53901,0.11457,0.06226,0.08697,0.07793,0.08301,0.47489,0.53211,0.12528,0.12131,0.49832,0.02633,0.27105,0.92539,0.14979,0.13361,0.93731,-0.05726,0.28853,1.48186,0.1857,0.04488,1.48296,-0.0781,0.43261,1.20999,0.33312,0.18877,1.25105,0.03393,0.51419,1.44574,0.24635,0.3118,1.47267
916,0.09357,0.19334,1.54068,0.13242,0.53905,0.11457,0.06207,0.08688,0.07805,0.08296,0.47449,0.53206,0.12558,0.12083,0.49841,0.02649,0.27111,0.92561,0.14978,0.13351,0.9374,-0.05657,0.28872,1.48198,0.18585,0.04449,1.48274,-0.07776,0.43248,1.20997,0.33339,0.18841,1.25093,0.03414,0.51386,1.44585,0.24642,0.31129,1.47255
917,0.09344,0.19286,1.54084,0.13235,0.53884,0.11454,0.06196,0.08657,0.07816,0.083,0.47433,0.53205,0.12585,0.12048,0.49846,0.0266,0.2711,0.92569,0.14974,0.13338,0.93747,-0.05602,0.28886,1.48217,0.18628,0.04414,1.4826,-0.07774,0.43228,1.21002,0.33371,0.18807,1.25073,0.03414,0.51389,1.44583,0.24664,0.31073,1.47243
918,0.09366,0.19235,1.54093,0.13245,0.53856,0.1145,0.062,0.08631,0.07815,0.08323,0.47449,0.5321,0.12597,0.12034,0.49842,0.02673,0.27103,0.9256,0.14979,0.13323,0.93743,-0.05588,0.28863,1.48228,0.18683,0.04405,1.48256,-0.07787,0.43205,1.21014,0.33407,0.18802,1.25059,0.03407,0.51416,1.44575,0.24691,0.31018,1.47254
919,0.09394,0.19188,1.5409,0.13263,0.53846,0.11447,0.06218,0.08629,0.07803,0.08359,0.4749,0.53217,0.12598,0.12027,0.49833,0.02691,0.2709,0.92537,0.14995,0.1331,0.93734,-0.05614,0.28813,1.48231,0.18726,0.04417,1.48254,-0.07799,0.43186,1.21033,0.33448,0.18823,1.2506,0.03406,0.5143,1.44577,0.24724,0.30969,1.47289
920,0.09398,0.19151,1.54081,0.13276,0.53861,0.11453,0.06243,0.08649,0.07795,0.08389,0.47536,0.53229,0.12602,0.12013,0.49831,0.0271,0.27075,0.92515,0.15018,0.133,0.9373,-0.05656,0.28776,1.48241,0.18741,0.0443,1.48249,-0.07809,0.43178,1.21056,0.33497,0.1884,1.2508,0.03416,0.5141,1.44595,0.24751,0.30931,1.47331
921,0.09384,0.19129,1.54068,0.13276,0.53886,0.11474,0.06256,0.08673,0.07799,0.084,0.47576,0.53255,0.1261,0.11993,0.4984,0.02723,0.27061,0.92514,0.15042,0.13297,0.93738,-0.05685,0.28769,1.48256,0.18729,0.04427,1.48249,-0.07818,0.4318,1.21074,0.33545,0.18832,1.25115,0.03437,0.51361,1.44616,0.24755,0.30901,1.47361
922,0.09369,0.19125,1.54057,0.13266,0.53907,0.1151,0.0625,0.08693,0.07808,0.08389,0.47606,0.53292,0.12615,0.11976,0.4985,0.02732,0.27053,0.92533,0.15064,0.13298,0.93747,-0.05694,0.2876,1.48259,0.18712,0.04404,1.48262,-0.07835,0.43176,1.2108,0.33567,0.188,1.25148,0.03452,0.5131,1.44624,0.24731,0.30867,1.47376
923,0.09358,0.19125,1.54054,0.13253,0.5392,0.11541,0.06233,0.08705,0.07808,0.08367,0.47633,0.53324,0.12609,0.11971,0.49849,0.02749,0.27046,0.92553,0.15085,0.13293,0.93744,-0.05701,0.28718,1.48248,0.18706,0.04367,1.48283,-0.07863,0.43153,1.21082,0.33558,0.18762,1.25166,0.03443,0.51278,1.44619,0.24693,0.3082,1.47387
924,0.09333,0.19106,1.54064,0.13233,0.53925,0.11549,0.06224,0.08707,0.07797,0.08342,0.47659,0.53334,0.12599,0.11977,0.49838,0.02781,0.27036,0.92553,0.15104,0.13272,0.93732,-0.05713,0.28648,1.48237,0.18704,0.04324,1.48293,-0.07896,0.43116,1.21089,0.33542,0.18737,1.25179,0.03407,0.51267,1.44619,0.24664,0.30776,1.47405
925,0.09286,0.1906,1.54084,0.13206,0.53924,0.11537,0.06226,0.08702,0.07787,0.08318,0.47676,0.53325,0.12599,0.11988,0.49828,0.0282,0.2702,0.92536,0.15121,0.13236,0.93722,-0.05718,0.2859,1.48234,0.18695,0.04282,1.48289,-0.07913,0.43085,1.21102,0.33547,0.18727,1.25203,0.03363,0.51263,1.44635,0.24651,0.30753,1.47429
926,0.09241,0.19003,1.54098,0.13186,0.53924,0.11524,0.06231,0.08699,0.07787,0.08301,0.47673,0.53312,0.12616,0.11986,0.49826,0.02853,0.26997,0.92518,0.15138,0.13201,0.93721,-0.05707,0.28569,1.48239,0.1868,0.04242,1.48286,-0.079,0.43068,1.21109,0.33571,0.18709,1.25239,0.03321,0.51253,1.44666,0.24654,0.30742,1.47453
927,0.09233,0.18958,1.54095,0.13182,0.53935,0.11522,0.06231,0.08703,0.07789,0.08298,0.47653,0.53305,0.12642,0.1196,0.49826,0.02872,0.26969,0.9251,0.15161,0.13176,0.93721,-0.05689,0.28586,1.48246,0.18667,0.04199,1.48296,-0.07868,0.43063,1.21103,0.33598,0.18675,1.25281,0.03284,0.51242,1.44695,0.24665,0.30721,1.47481
928,0.0927,0.18936,1.54079,0.13186,0.53953,0.11531,0.06227,0.08703,0.07786,0.0831,0.47633,0.53309,0.12661,0.11924,0.49822,0.02875,0.26936,0.92507,0.1519,0.13166,0.93717,-0.05677,0.28621,1.48251,0.18664,0.04162,1.48307,-0.07843,0.43064,1.21089,0.33622,0.18658,1.25322,0.0326,0.51243,1.44703,0.24666,0.30679,1.47528
929,0.09323,0.18936,1.5406,0.13179,0.53969,0.11545,0.06224,0.08694,0.07781,0.08323,0.47631,0.53323,0.12663,0.11902,0.49818,0.02869,0.26907,0.92504,0.15216,0.13167,0.9371,-0.05676,0.2865,1.48246,0.18672,0.04147,1.48308,-0.07838,0.43071,1.21072,0.33629,0.18696,1.25356,0.03262,0.51259,1.44685,0.24646,0.30624,1.476
930,0.09356,0.18951,1.54036,0.13159,0.5398,0.11558,0.06225,0.08685,0.0778,0.08325,0.47646,0.5334,0.12658,0.11898,0.49817,0.02863,0.26892,0.92503,0.15236,0.13175,0.93707,-0.05685,0.28656,1.48232,0.18681,0.04156,1.4831,-0.07845,0.43073,1.21056,0.33606,0.18767,1.25376,0.0328,0.5128,1.44651,0.24613,0.30569,1.47683
931,0.09352,0.18972,1.54005,0.13143,0.53996,0.11564,0.06228,0.08684,0.0778,0.08315,0.47663,0.53346,0.12659,0.11895,0.49818,0.02868,0.26896,0.92505,0.15252,0.13187,0.93707,-0.05696,0.28633,1.48218,0.18688,0.04166,1.4833,-0.07849,0.43061,1.21046,0.33568,0.18817,1.25393,0.03289,0.513,1.44623,0.24584,0.30522,1.47755
932,0.09333,0.18987,1.53978,0.13151,0.54019,0.11557,0.06229,0.08687,0.07782,0.08305,0.47665,0.53334,0.12669,0.11877,0.49819,0.02892,0.26908,0.92503,0.15266,0.13191,0.93708,-0.05697,0.28594,1.48211,0.18698,0.04146,1.48357,-0.0785,0.43033,1.21045,0.33539,0.18831,1.25416,0.03278,0.51317,1.44611,0.24566,0.30483,1.4781
933,0.09334,0.18978,1.53972,0.13172,0.5404,0.11539,0.06229,0.08687,0.07782,0.08312,0.47663,0.53311,0.12686,0.11848,0.4982,0.02927,0.26915,0.92488,0.15275,0.13175,0.93708,-0.05682,0.28563,1.48211,0.18718,0.04095,1.48376,-0.07848,0.42998,1.21045,0.33521,0.1883,1.25443,0.03264,0.51325,1.44604,0.24554,0.30441,1.47861
934,0.09362,0.18935,1.53987,0.13178,0.54044,0.11518,0.06227,0.08693,0.07779,0.08345,0.47672,0.53294,0.12704,0.11822,0.49816,0.02957,0.26911,0.92463,0.15274,0.13146,0.93705,-0.0567,0.28546,1.48213,0.18733,0.04033,1.48386,-0.07848,0.42967,1.2104,0.33497,0.18833,1.25468,0.03267,0.51312,1.44591,0.24545,0.3039,1.4792
935,0.09389,0.18864,1.54008,0.13152,0.54033,0.11506,0.06231,0.0871,0.07771,0.08393,0.47691,0.53294,0.12714,0.11814,0.49809,0.02975,0.26898,0.92443,0.1527,0.13114,0.937,-0.05671,0.2853,1.48212,0.18742,0.03978,1.48392,-0.07858,0.42945,1.21036,0.33454,0.18847,1.25487,0.03282,0.51287,1.44577,0.24538,0.30329,1.47992
936,0.09395,0.18784,1.5402,0.13113,0.54026,0.11502,0.06245,0.08733,0.07761,0.08441,0.47706,0.53304,0.12711,0.11822,0.49802,0.02994,0.26882,0.92433,0.15272,0.13085,0.93694,-0.05681,0.28506,1.48208,0.18754,0.0394,1.48397,-0.07877,0.42937,1.21042,0.3341,0.18875,1.25499,0.03292,0.51274,1.44571,0.24541,0.30253,1.48074
937,0.09382,0.18704,1.54022,0.13087,0.54033,0.11505,0.06262,0.08751,0.0775,0.08482,0.47713,0.53314,0.127,0.11831,0.49797,0.0302,0.26868,0.92429,0.15288,0.13061,0.93688,-0.05683,0.2849,1.48205,0.18768,0.0392,1.48394,-0.07892,0.42939,1.2105,0.33388,0.18902,1.25503,0.0329,0.51289,1.44568,0.24576,0.3016,1.48161
938,0.09356,0.1864,1.54021,0.13087,0.54039,0.11511,0.06272,0.08758,0.07744,0.0851,0.47719,0.53324,0.12693,0.1183,0.49793,0.03038,0.26857,0.92428,0.15305,0.13049,0.93684,-0.05678,0.28493,1.48204,0.1877,0.03918,1.48387,-0.07897,0.42935,1.21045,0.33397,0.18908,1.25505,0.03281,0.51323,1.44552,0.24639,0.30059,1.48237
939,0.0932,0.18608,1.54022,0.13107,0.54027,0.11523,0.06273,0.08753,0.07748,0.08519,0.47731,0.53338,0.127,0.11823,0.49797,0.03036,0.26848,0.9243,0.15312,0.13048,0.93687,-0.05673,0.28502,1.48205,0.18756,0.03921,1.48381,-0.07901,0.42917,1.21032,0.33415,0.189,1.25513,0.03265,0.51354,1.44527,0.24682,0.29971,1.48294
940,0.09291,0.18611,1.54019,0.13134,0.54003,0.11538,0.06274,0.08739,0.0776,0.08511,0.47746,0.53355,0.1272,0.11821,0.49805,0.03019,0.26843,0.92435,0.15313,0.13059,0.93696,-0.05672,0.28484,1.48199,0.18736,0.0392,1.48375,-0.07919,0.42895,1.21026,0.33421,0.18912,1.25533,0.03244,0.51371,1.44508,0.24657,0.2992,1.48332
941,0.09287,0.18636,1.54007,0.13156,0.5399,0.11554,0.06278,0.08716,0.07765,0.08504,0.47758,0.53372,0.12741,0.11832,0.49805,0.03005,0.26841,0.92443,0.15312,0.13069,0.93697,-0.05672,0.28429,1.48177,0.1871,0.03908,1.48363,-0.07946,0.42883,1.2103,0.33414,0.18957,1.25571,0.03231,0.5137,1.44501,0.24573,0.29913,1.48365
942,0.0931,0.18662,1.53989,0.13167,0.53989,0.11565,0.06277,0.08685,0.07757,0.08512,0.47763,0.53383,0.12748,0.11849,0.49792,0.03001,0.26835,0.92447,0.15308,0.13062,0.93685,-0.05667,0.28365,1.48143,0.1867,0.03892,1.48347,-0.07962,0.42881,1.2103,0.3341,0.19018,1.25629,0.03233,0.51352,1.44499,0.24489,0.29935,1.48411
943,0.09339,0.18679,1.53975,0.13171,0.53988,0.1157,0.06267,0.08659,0.07745,0.08536,0.47761,0.5339,0.12746,0.11859,0.49776,0.03006,0.2682,0.92444,0.15301,0.13034,0.93671,-0.05656,0.28329,1.48116,0.18627,0.03879,1.48342,-0.0796,0.42871,1.21019,0.33411,0.19069,1.25696,0.03245,0.51324,1.44489,0.24443,0.29957,1.48473
944,0.09353,0.18689,1.53971,0.13168,0.5398,0.11569,0.0625,0.08656,0.07743,0.08562,0.47754,0.53392,0.12744,0.11855,0.49772,0.03017,0.26803,0.92439,0.15297,0.13004,0.93667,-0.05647,0.28326,1.4811,0.18605,0.03879,1.48362,-0.07958,0.42845,1.21,0.33413,0.1909,1.25746,0.03252,0.51302,1.44466,0.2443,0.2995,1.4853
945,0.09355,0.18691,1.53971,0.13159,0.53974,0.11567,0.06237,0.08677,0.07751,0.0857,0.47741,0.53391,0.12747,0.11842,0.4978,0.03031,0.26792,0.92439,0.15298,0.12982,0.93676,-0.05642,0.28345,1.48119,0.18617,0.03891,1.48402,-0.07969,0.42813,1.20983,0.3342,0.19075,1.25763,0.03249,0.51287,1.44439,0.24439,0.29916,1.48558
946,0.09358,0.18684,1.53969,0.13142,0.53976,0.11566,0.06235,0.08698,0.07763,0.08546,0.4773,0.53388,0.12757,0.11834,0.49792,0.03043,0.26786,0.92444,0.15299,0.12967,0.93688,-0.05637,0.28375,1.48127,0.18654,0.03898,1.48437,-0.07982,0.42793,1.20966,0.33441,0.19035,1.25756,0.03232,0.51273,1.44422,0.24463,0.29874,1.48553
947,0.0936,0.18665,1.53964,0.13125,0.53979,0.11563,0.0624,0.08696,0.0777,0.085,0.4773,0.53381,0.12777,0.11831,0.49797,0.0305,0.26784,0.92444,0.15297,0.12958,0.93694,-0.05627,0.28406,1.48126,0.18691,0.03882,1.48446,-0.07989,0.42791,1.20949,0.33473,0.18989,1.25743,0.03213,0.51256,1.44416,0.24492,0.29837,1.48533
948,0.09347,0.18643,1.53963,0.13122,0.53973,0.11556,0.06243,0.08675,0.07774,0.08461,0.47745,0.53373,0.12796,0.11832,0.49797,0.03051,0.26783,0.92433,0.15297,0.12957,0.93696,-0.05605,0.28428,1.4812,0.18706,0.03849,1.48431,-0.07998,0.42801,1.2094,0.33499,0.18954,1.25733,0.03219,0.51242,1.44408,0.245,0.29805,1.48515
949,0.09323,0.18622,1.53967,0.13139,0.53959,0.11552,0.06239,0.0866,0.07781,0.08451,0.47775,0.53372,0.12798,0.11835,0.49802,0.03054,0.2678,0.92416,0.15303,0.12959,0.93701,-0.05574,0.28439,1.48117,0.18695,0.03822,1.48406,-0.08014,0.4281,1.20939,0.33499,0.18947,1.25729,0.03258,0.51236,1.44387,0.24465,0.29779,1.48507
950,0.09315,0.18603,1.5397,0.13161,0.53945,0.11562,0.06228,0.08661,0.0779,0.08468,0.47814,0.53389,0.1278,0.11842,0.49811,0.03057,0.26769,0.92405,0.15312,0.12954,0.93708,-0.05553,0.2844,1.48113,0.18667,0.03807,1.48383,-0.0803,0.42809,1.20939,0.33473,0.18966,1.2573,0.03301,0.51232,1.44359,0.24389,0.29772,1.485
951,0.09338,0.18582,1.53965,0.1317,0.53947,0.11586,0.06214,0.08669,0.07793,0.08494,0.4785,0.53421,0.12765,0.11844,0.49814,0.03056,0.26752,0.92403,0.15317,0.12944,0.93711,-0.05567,0.2843,1.48106,0.18631,0.03804,1.48369,-0.08041,0.42796,1.2093,0.33447,0.18983,1.25735,0.03302,0.51225,1.44342,0.24299,0.29789,1.4848
952,0.09383,0.18562,1.53958,0.13162,0.53969,0.11611,0.06201,0.08674,0.07788,0.08517,0.47872,0.53449,0.1277,0.11832,0.49808,0.03052,0.26741,0.9241,0.15318,0.12936,0.93705,-0.05617,0.2841,1.48098,0.18601,0.03818,1.4837,-0.08045,0.42771,1.20914,0.33454,0.18969,1.25743,0.03243,0.51214,1.44348,0.24229,0.29811,1.48439
953,0.09426,0.18557,1.53958,0.13144,0.54002,0.11624,0.06203,0.08678,0.0778,0.08536,0.47875,0.53462,0.12789,0.11808,0.498,0.0305,0.26743,0.92419,0.15316,0.12936,0.93697,-0.05677,0.2838,1.48091,0.18588,0.03846,1.48376,-0.08042,0.4274,1.20901,0.335,0.1893,1.25742,0.03158,0.51208,1.44368,0.24191,0.29813,1.48384
954,0.0945,0.18574,1.53958,0.13128,0.54036,0.11629,0.06226,0.08682,0.07772,0.08556,0.47873,0.53466,0.12799,0.11787,0.49795,0.03054,0.26753,0.92427,0.15315,0.12942,0.93692,-0.05712,0.28349,1.48087,0.18588,0.03866,1.48362,-0.08035,0.42711,1.20894,0.33547,0.18885,1.25715,0.03093,0.51215,1.44382,0.24165,0.2979,1.48317
955,0.09458,0.18599,1.5395,0.13121,0.5406,0.11632,0.06262,0.08684,0.07759,0.08575,0.47889,0.5347,0.12791,0.11786,0.4979,0.03059,0.26762,0.92426,0.15321,0.12951,0.93686,-0.0571,0.28339,1.48087,0.18588,0.03855,1.48323,-0.08031,0.42705,1.20897,0.33559,0.1883,1.25655,0.0307,0.51232,1.44389,0.24131,0.29763,1.48224
956,0.09471,0.18605,1.53935,0.13121,0.5406,0.11633,0.06288,0.08681,0.07744,0.08583,0.47929,0.53478,0.1278,0.11803,0.49778,0.03058,0.26761,0.9241,0.15331,0.12959,0.93674,-0.05685,0.28358,1.48087,0.1859,0.03816,1.48282,-0.08024,0.4273,1.20902,0.3354,0.18755,1.25578,0.03074,0.51246,1.444,0.2409,0.29747,1.48109
957,0.09497,0.18581,1.5392,0.1312,0.54031,0.1163,0.06284,0.08675,0.07737,0.08577,0.4798,0.53486,0.12785,0.11826,0.49768,0.03058,0.26752,0.92387,0.1534,0.12959,0.93664,-0.05663,0.28383,1.48074,0.18599,0.03779,1.48269,-0.08003,0.42776,1.209,0.33519,0.18671,1.25513,0.03081,0.51251,1.44419,0.24061,0.29739,1.48004
958,0.09525,0.18543,1.53911,0.13113,0.53994,0.11625,0.06262,0.08674,0.07746,0.08565,0.48023,0.53491,0.12802,0.11844,0.4977,0.03076,0.26748,0.9237,0.15343,0.12944,0.93667,-0.05655,0.28382,1.48046,0.18606,0.03762,1.4828,-0.07983,0.42815,1.20892,0.33511,0.18591,1.25474,0.03075,0.51253,1.44437,0.24051,0.29723,1.47931
959,0.09537,0.18514,1.53909,0.13105,0.53982,0.11621,0.06246,0.08679,0.07761,0.08553,0.48053,0.53494,0.12812,0.11856,0.4978,0.03109,0.26756,0.92367,0.15342,0.12923,0.93678,-0.05654,0.28354,1.48019,0.18598,0.0376,1.48289,-0.07997,0.42828,1.20888,0.33501,0.18518,1.25435,0.03045,0.51267,1.4444,0.2405,0.29693,1.47876
960,0.09526,0.18511,1.53913,0.13095,0.54009,0.11627,0.0625,0.08683,0.07767,0.08544,0.48078,0.535,0.12808,0.1186,0.49788,0.03135,0.26768,0.92371,0.15338,0.12909,0.93687,-0.0565,0.28319,1.48008,0.18583,0.0376,1.48279,-0.08052,0.42813,1.20893,0.33469,0.18452,1.25372,0.03002,0.51307,1.4442,0.24052,0.29665,1.47808
961,0.09505,0.18548,1.53915,0.13078,0.5405,0.11643,0.06266,0.08677,0.07767,0.08539,0.48104,0.53514,0.128,0.11847,0.49792,0.03135,0.26773,0.92374,0.15329,0.12906,0.93691,-0.05636,0.28303,1.48017,0.1858,0.0376,1.48251,-0.08115,0.42784,1.20901,0.33425,0.18409,1.2529,0.02965,0.51358,1.44387,0.24065,0.29666,1.47727
962,0.09488,0.18633,1.53903,0.13058,0.54077,0.11661,0.06275,0.08661,0.07765,0.0854,0.48135,0.53536,0.12802,0.11816,0.49792,0.0312,0.26774,0.92378,0.15321,0.12913,0.9369,-0.05617,0.28321,1.4803,0.18589,0.03769,1.48222,-0.08148,0.42761,1.20898,0.33405,0.18389,1.25223,0.02945,0.51394,1.44356,0.24104,0.29705,1.47656
963,0.09483,0.18729,1.53883,0.13044,0.54087,0.1168,0.06274,0.08645,0.0776,0.08549,0.48173,0.53561,0.12815,0.11778,0.49786,0.03109,0.26781,0.92383,0.15319,0.12926,0.93685,-0.05613,0.28364,1.4803,0.18593,0.03784,1.48207,-0.08139,0.4276,1.20874,0.3343,0.18362,1.25195,0.02931,0.514,1.4434,0.2416,0.29759,1.476
964,0.09485,0.18765,1.5387,0.13044,0.54091,0.117,0.06272,0.08644,0.07754,0.08559,0.48223,0.53589,0.12831,0.11757,0.49779,0.03103,0.26792,0.92387,0.15322,0.12944,0.93677,-0.05638,0.28398,1.48007,0.1858,0.03793,1.48207,-0.08101,0.42773,1.20834,0.33482,0.18306,1.25197,0.02909,0.51385,1.44339,0.24206,0.29806,1.47547
965,0.0948,0.18715,1.53871,0.13048,0.54094,0.11719,0.06273,0.08648,0.07747,0.08558,0.48277,0.53614,0.1284,0.11759,0.49771,0.03099,0.26798,0.92385,0.15324,0.12955,0.93669,-0.05683,0.28395,1.47975,0.18548,0.03787,1.48209,-0.08063,0.42782,1.20801,0.33526,0.18236,1.25208,0.02873,0.51372,1.44348,0.24222,0.29858,1.47483
966,0.09454,0.1864,1.53876,0.13038,0.54091,0.11733,0.06268,0.0864,0.07743,0.08542,0.48325,0.53635,0.12842,0.11771,0.49764,0.03102,0.26792,0.92378,0.15325,0.12948,0.93663,-0.05719,0.28355,1.47956,0.18507,0.03761,1.48203,-0.08054,0.42779,1.20797,0.33541,0.18175,1.25215,0.02841,0.51372,1.44363,0.24215,0.29938,1.47406
967,0.09403,0.18616,1.53874,0.1301,0.54085,0.11744,0.06253,0.08619,0.07741,0.0852,0.48361,0.53652,0.12849,0.11784,0.49756,0.03115,0.26776,0.92372,0.15329,0.12924,0.93656,-0.05733,0.28299,1.47955,0.18473,0.03716,1.48188,-0.08079,0.42772,1.20823,0.3353,0.1811,1.25204,0.02824,0.51388,1.44377,0.24214,0.30034,1.47313
968,0.09355,0.18652,1.53858,0.12974,0.54091,0.11758,0.06242,0.08601,0.0774,0.08505,0.48397,0.53672,0.12865,0.11803,0.49748,0.03129,0.26764,0.92369,0.15339,0.12908,0.93649,-0.05731,0.28254,1.47963,0.18461,0.03658,1.48169,-0.08113,0.42759,1.20852,0.33518,0.18012,1.2516,0.02815,0.51415,1.44378,0.24252,0.30114,1.47193
969,0.09339,0.18697,1.53834,0.12943,0.54114,0.11777,0.06244,0.08597,0.07738,0.08502,0.48449,0.53698,0.12881,0.11826,0.49742,0.03136,0.26767,0.92368,0.15348,0.12912,0.93644,-0.05722,0.2824,1.47976,0.18474,0.03614,1.48151,-0.08128,0.42736,1.20863,0.33521,0.1789,1.25086,0.02804,0.5144,1.4437,0.24338,0.30175,1.47053
970,0.09363,0.18704,1.53815,0.12923,0.54144,0.11794,0.06253,0.08614,0.07732,0.085,0.48521,0.53723,0.12888,0.11835,0.49737,0.03138,0.26783,0.92363,0.15355,0.12932,0.93639,-0.05704,0.28257,1.47999,0.18497,0.03612,1.4813,-0.0813,0.42711,1.20864,0.33534,0.17794,1.25002,0.02796,0.51448,1.44362,0.2446,0.30252,1.46917
971,0.09403,0.18676,1.5381,0.12911,0.54168,0.11809,0.06258,0.08643,0.07723,0.08485,0.48599,0.53744,0.12886,0.11816,0.49733,0.03143,0.26801,0.92353,0.15366,0.12957,0.93633,-0.05682,0.28284,1.48024,0.18513,0.03658,1.48105,-0.08151,0.42705,1.20875,0.33555,0.17747,1.24923,0.02798,0.51448,1.4436,0.24602,0.30365,1.46795
972,0.09425,0.18636,1.53822,0.12899,0.54184,0.11829,0.06251,0.08664,0.07714,0.08462,0.48671,0.5377,0.12883,0.11785,0.49727,0.03154,0.26813,0.92349,0.15388,0.12978,0.93624,-0.05676,0.28295,1.48025,0.18521,0.0372,1.48077,-0.08193,0.42735,1.20891,0.33591,0.17721,1.24859,0.028,0.51467,1.4436,0.24746,0.30487,1.46689
973,0.0941,0.18596,1.53847,0.12891,0.54202,0.11862,0.06237,0.08658,0.07712,0.0845,0.48733,0.53809,0.12887,0.11775,0.49722,0.03169,0.26818,0.92361,0.15416,0.12992,0.93617,-0.057,0.28276,1.47988,0.18524,0.03754,1.48052,-0.08211,0.42788,1.20892,0.33641,0.17687,1.24824,0.02794,0.51513,1.44357,0.24875,0.30592,1.46606
974,0.09368,0.1856,1.53877,0.12891,0.54228,0.11902,0.06223,0.08629,0.07716,0.08462,0.48782,0.53853,0.12904,0.11794,0.49718,0.03188,0.26826,0.92382,0.15438,0.13001,0.93613,-0.05735,0.28232,1.47924,0.18514,0.0375,1.48029,-0.08176,0.42833,1.2087,0.33696,0.17655,1.24827,0.02788,0.51565,1.44352,0.24982,0.30687,1.46553
975,0.09331,0.18549,1.53891,0.12893,0.54255,0.11925,0.06209,0.08589,0.07724,0.08483,0.48814,0.53879,0.12921,0.11828,0.49715,0.03201,0.26842,0.92397,0.15448,0.13013,0.93611,-0.05757,0.28171,1.47863,0.18493,0.03744,1.48007,-0.08112,0.4285,1.20844,0.33748,0.17651,1.24855,0.02794,0.51595,1.44347,0.2507,0.30795,1.46528
976,0.09319,0.18573,1.53877,0.12884,0.54272,0.11927,0.06195,0.08553,0.07726,0.08494,0.48833,0.53884,0.12922,0.11867,0.49709,0.03191,0.26862,0.92399,0.15442,0.13035,0.93606,-0.05765,0.28103,1.47825,0.18475,0.03766,1.47994,-0.08073,0.42844,1.20835,0.33794,0.17684,1.24889,0.02818,0.516,1.44342,0.25152,0.30913,1.46525
977,0.09331,0.18606,1.53848,0.12866,0.54285,0.11927,0.0619,0.08533,0.0772,0.08496,0.48859,0.53887,0.12905,0.11906,0.497,0.03161,0.26879,0.92393,0.15426,0.13065,0.93597,-0.05768,0.28039,1.4781,0.18472,0.03805,1.47997,-0.08072,0.42828,1.20846,0.33822,0.17733,1.2492,0.02846,0.51604,1.44333,0.25235,0.31031,1.46535
978,0.09349,0.18615,1.53829,0.12847,0.54305,0.11942,0.06203,0.08543,0.0771,0.08507,0.48911,0.5391,0.12888,0.11927,0.49694,0.0313,0.26889,0.92386,0.15417,0.13094,0.9359,-0.05767,0.27991,1.4781,0.18479,0.03827,1.48014,-0.08083,0.42814,1.20866,0.33822,0.17771,1.24942,0.02866,0.51634,1.44322,0.25316,0.3114,1.46545
979,0.09353,0.18612,1.53831,0.12827,0.54322,0.11973,0.06222,0.08575,0.07704,0.08532,0.48992,0.53953,0.12888,0.1192,0.49695,0.03113,0.26889,0.92377,0.15427,0.13118,0.9359,-0.05755,0.27965,1.47812,0.18478,0.03825,1.48031,-0.08081,0.42819,1.20886,0.33802,0.17789,1.24958,0.02881,0.51689,1.44317,0.25388,0.31241,1.46545
980,0.09344,0.18634,1.53839,0.12804,0.5432,0.12003,0.06226,0.08604,0.07705,0.08562,0.49082,0.54,0.12902,0.11903,0.49698,0.03106,0.26882,0.92363,0.15441,0.13132,0.93592,-0.05735,0.27962,1.47809,0.18454,0.03827,1.48043,-0.08069,0.42851,1.20903,0.33789,0.17798,1.24982,0.02897,0.51744,1.44323,0.25458,0.31333,1.4655
981,0.09343,0.18683,1.53831,0.12788,0.54301,0.12022,0.06213,0.08613,0.07706,0.08583,0.49164,0.54035,0.12917,0.11897,0.49695,0.03107,0.26882,0.92348,0.15442,0.13133,0.9359,-0.05722,0.27985,1.478,0.18417,0.03852,1.48061,-0.08061,0.42898,1.20908,0.33798,0.17814,1.25025,0.02912,0.51786,1.44327,0.25538,0.31416,1.46578
982,0.09361,0.18727,1.53805,0.12783,0.54286,0.12028,0.062,0.0861,0.077,0.0859,0.49231,0.54053,0.12929,0.11911,0.49684,0.03119,0.26904,0.9234,0.15429,0.13132,0.93581,-0.05724,0.28027,1.47792,0.18398,0.03883,1.48088,-0.08058,0.42941,1.209,0.33821,0.17849,1.25082,0.02925,0.51828,1.44315,0.25621,0.315,1.46627
983,0.09384,0.18741,1.53777,0.12788,0.54287,0.12028,0.06197,0.08606,0.07691,0.08586,0.49281,0.54057,0.12938,0.11935,0.49671,0.0314,0.26949,0.92345,0.15414,0.13144,0.93569,-0.05732,0.28072,1.47793,0.18402,0.03892,1.48103,-0.08058,0.42967,1.2089,0.33842,0.17908,1.25139,0.02935,0.51879,1.4429,0.25691,0.3159,1.46683
984,0.09392,0.18744,1.5376,0.12794,0.54305,0.12024,0.06204,0.08602,0.0769,0.08579,0.49323,0.54055,0.1294,0.1196,0.49668,0.03168,0.27006,0.92357,0.1541,0.13172,0.93566,-0.05736,0.28103,1.47804,0.18405,0.03878,1.48093,-0.08062,0.42969,1.20884,0.33856,0.17986,1.25194,0.02934,0.51921,1.44267,0.25738,0.31679,1.46743
985,0.0937,0.18767,1.53752,0.12789,0.54331,0.12019,0.06222,0.08592,0.07697,0.08582,0.4937,0.54053,0.12931,0.11987,0.49676,0.03203,0.27063,0.92365,0.15418,0.13204,0.93574,-0.05742,0.28123,1.47822,0.18397,0.03855,1.48069,-0.08075,0.42946,1.20879,0.33866,0.18068,1.25246,0.0291,0.51939,1.44252,0.25782,0.31743,1.4682
986,0.09322,0.18812,1.53746,0.12768,0.54364,0.12017,0.06249,0.08578,0.07702,0.08599,0.49433,0.54059,0.12914,0.12021,0.49685,0.03239,0.27116,0.92367,0.15427,0.13234,0.93581,-0.05764,0.28153,1.47849,0.18389,0.03827,1.4805,-0.08097,0.42915,1.20873,0.33872,0.18129,1.25293,0.02865,0.5195,1.4424,0.25843,0.31768,1.46909
987,0.09283,0.18847,1.53736,0.12743,0.54393,0.12025,0.0627,0.08569,0.07698,0.08625,0.495,0.54076,0.12909,0.12057,0.49681,0.03261,0.27161,0.92371,0.15424,0.13257,0.93577,-0.05802,0.282,1.47882,0.18389,0.03789,1.48036,-0.08112,0.42902,1.20871,0.33883,0.18157,1.25328,0.02819,0.51983,1.44236,0.2592,0.31763,1.4699
988,0.09289,0.1885,1.53721,0.12727,0.54407,0.12037,0.0627,0.08573,0.07689,0.08648,0.4955,0.54095,0.1293,0.1208,0.49667,0.03253,0.27192,0.92375,0.15398,0.1327,0.93566,-0.05841,0.28249,1.47917,0.18384,0.03756,1.48019,-0.08108,0.42915,1.20882,0.33901,0.18164,1.25351,0.02791,0.52047,1.44242,0.25996,0.31754,1.47044
989,0.09334,0.18823,1.53711,0.12706,0.54395,0.12041,0.06252,0.08594,0.07682,0.08656,0.49573,0.54107,0.12975,0.12088,0.49651,0.03223,0.27207,0.92377,0.15353,0.13271,0.93556,-0.05858,0.28284,1.47941,0.18367,0.03758,1.48003,-0.08088,0.42938,1.20897,0.33913,0.18175,1.25362,0.02773,0.52122,1.44254,0.26054,0.31752,1.4708
990,0.09383,0.18787,1.53715,0.12661,0.54366,0.12033,0.06235,0.08622,0.07681,0.08645,0.49581,0.54106,0.13029,0.12098,0.49641,0.03194,0.27214,0.92373,0.15301,0.13259,0.93551,-0.05834,0.28309,1.47949,0.18345,0.03791,1.47997,-0.08065,0.42953,1.209,0.33908,0.1821,1.25368,0.02747,0.52187,1.4426,0.26073,0.31757,1.47114
991,0.09405,0.18757,1.53726,0.12602,0.54338,0.12012,0.06231,0.08647,0.07682,0.08624,0.4959,0.54093,0.13069,0.12127,0.49634,0.03187,0.27221,0.9236,0.15267,0.13244,0.93549,-0.05775,0.28325,1.47942,0.18335,0.03821,1.47995,-0.0804,0.42956,1.20888,0.33902,0.1827,1.25388,0.02715,0.52236,1.44256,0.26041,0.31761,1.47159
992,0.09395,0.18739,1.53731,0.12556,0.54322,0.11985,0.06234,0.0866,0.07685,0.08617,0.49616,0.54074,0.13092,0.12168,0.49631,0.03204,0.27233,0.92337,0.15263,0.13239,0.93549,-0.05719,0.28333,1.47932,0.18337,0.0382,1.47987,-0.08013,0.42953,1.20875,0.33919,0.18338,1.25436,0.02692,0.52279,1.44247,0.25979,0.31759,1.47221
993,0.09367,0.18743,1.53731,0.12535,0.54316,0.11964,0.06238,0.0866,0.07692,0.0863,0.49665,0.54063,0.13108,0.122,0.49634,0.03235,0.27258,0.92313,0.15276,0.1325,0.93552,-0.05686,0.28348,1.47934,0.18345,0.0379,1.47974,-0.07993,0.4295,1.20869,0.33968,0.18393,1.25505,0.02676,0.52333,1.44236,0.25925,0.31744,1.47296
994,0.09341,0.18778,1.53735,0.12524,0.54306,0.11959,0.06245,0.08655,0.07703,0.08647,0.49735,0.54069,0.1313,0.12212,0.49641,0.03259,0.27297,0.92303,0.15274,0.13269,0.9356,-0.05665,0.28387,1.47954,0.18351,0.03756,1.47964,-0.07993,0.42953,1.2087,0.34035,0.18423,1.25579,0.02654,0.52406,1.44218,0.25909,0.31718,1.47373
995,0.09336,0.18819,1.53746,0.12513,0.54288,0.1197,0.06255,0.08657,0.07707,0.08649,0.49812,0.54091,0.1316,0.12212,0.49641,0.03259,0.2734,0.92305,0.15244,0.13286,0.93564,-0.05646,0.28438,1.47976,0.1835,0.03745,1.47967,-0.08017,0.42965,1.20876,0.34098,0.1844,1.25646,0.02628,0.52491,1.44194,0.25926,0.317,1.47445
996,0.09354,0.18829,1.53757,0.125,0.54272,0.11982,0.06256,0.0867,0.07697,0.08647,0.49882,0.54114,0.13195,0.12213,0.49627,0.03242,0.27375,0.92305,0.15204,0.13301,0.93552,-0.05635,0.28465,1.47986,0.18327,0.03769,1.47978,-0.08052,0.42985,1.20886,0.34151,0.18466,1.25712,0.02614,0.52568,1.44172,0.25954,0.31709,1.47511
997,0.09381,0.18809,1.53754,0.12492,0.54279,0.11987,0.06243,0.08687,0.07681,0.08654,0.49936,0.54125,0.13235,0.12222,0.49603,0.03233,0.27403,0.92298,0.15181,0.13316,0.93531,-0.05635,0.28457,1.47981,0.1828,0.0382,1.47983,-0.08078,0.43004,1.20897,0.34206,0.18506,1.25783,0.02612,0.52622,1.44158,0.25978,0.31743,1.47574
998,0.09397,0.18796,1.53735,0.12497,0.5431,0.11983,0.06228,0.08699,0.07673,0.0867,0.49973,0.54122,0.13277,0.12234,0.49585,0.03247,0.27434,0.92292,0.15177,0.13331,0.93515,-0.05637,0.28448,1.4797,0.18212,0.03881,1.47969,-0.08089,0.4302,1.20901,0.34281,0.18547,1.25858,0.02599,0.52663,1.44152,0.25995,0.31777,1.47631
999,0.09392,0.18811,1.53713,0.12514,0.5434,0.11974,0.06226,0.08699,0.07673,0.08685,0.49998,0.54113,0.13314,0.12245,0.49578,0.0328,0.27471,0.92291,0.1518,0.13342,0.93509,-0.05629,0.28471,1.47962,0.18129,0.03943,1.47939,-0.08092,0.43053,1.20899,0.34375,0.18575,1.25935,0.02574,0.52714,1.44153,0.26008,0.31796,1.47683
1000,0.09372,0.18842,1.537,0.1253,0.54356,0.11969,0.06242,0.08682,0.07674,0.08699,0.5003,0.54109,0.13335,0.12249,0.49576,0.03315,0.27507,0.92294,0.15178,0.13347,0.93509,-0.05609,0.28526,1.47963,0.1804,0.03994,1.47904,-0.08092,0.43109,1.20904,0.34457,0.18602,1.26011,0.0256,0.52789,1.44156,0.26017,0.31804,1.47742
1001,0.09359,0.18872,1.53699,0.12538,0.54368,0.1198,0.06267,0.08659,0.07673,0.0872,0.50087,0.54125,0.13337,0.12241,0.49577,0.03336,0.27536,0.92293,0.15167,0.13349,0.9351,-0.0558,0.28584,1.47974,0.17977,0.04023,1.47881,-0.08084,0.43172,1.20918,0.34497,0.18648,1.26078,0.02572,0.52879,1.44158,0.26027,0.31814,1.47819
1002,0.09376,0.18901,1.53692,0.12547,0.54386,0.12011,0.06286,0.08642,0.07672,0.08744,0.50175,0.54165,0.13331,0.1222,0.49581,0.03335,0.27555,0.92289,0.15154,0.13359,0.93514,-0.05553,0.28621,1.47985,0.17976,0.04026,1.47874,-0.08074,0.43222,1.20938,0.34507,0.18723,1.26128,0.02598,0.52973,1.44152,0.26042,0.3183,1.47907
1003,0.0943,0.18943,1.53669,0.12563,0.54409,0.1206,0.06287,0.08641,0.07673,0.08764,0.50289,0.54224,0.13326,0.12192,0.49586,0.0332,0.27572,0.92285,0.15141,0.13379,0.93517,-0.05539,0.28639,1.47992,0.18036,0.04016,1.47876,-0.0807,0.43266,1.20959,0.3452,0.18817,1.26165,0.02619,0.53073,1.44141,0.26062,0.3185,1.47991
1004,0.09492,0.19002,1.53637,0.12579,0.54434,0.12119,0.06269,0.08651,0.07672,0.08786,0.50414,0.54292,0.1332,0.12167,0.49585,0.03307,0.27591,0.92285,0.15127,0.13396,0.93516,-0.05545,0.28662,1.47991,0.18108,0.04017,1.47878,-0.08075,0.43317,1.20974,0.34558,0.18912,1.26205,0.02622,0.53181,1.44128,0.26087,0.31877,1.48066
1005,0.09514,0.19069,1.53622,0.12579,0.54472,0.12178,0.06239,0.08661,0.07667,0.08819,0.50541,0.54363,0.13308,0.12153,0.4958,0.03303,0.27615,0.92288,0.15108,0.13407,0.9351,-0.05565,0.287,1.47979,0.18134,0.04047,1.47881,-0.08084,0.43376,1.20973,0.34613,0.18979,1.26255,0.02596,0.53292,1.44113,0.26129,0.31915,1.48129
1006,0.09476,0.19131,1.53633,0.12565,0.54532,0.12231,0.06212,0.08662,0.07662,0.08869,0.50661,0.54428,0.13298,0.12148,0.49572,0.03305,0.27649,0.92293,0.15086,0.13419,0.93502,-0.05586,0.28747,1.4795,0.18101,0.04105,1.47888,-0.08089,0.43438,1.2095,0.34669,0.19006,1.26309,0.02553,0.53398,1.44088,0.26209,0.31961,1.48181
1007,0.09414,0.19193,1.53652,0.12562,0.54613,0.12282,0.06196,0.08651,0.07659,0.08925,0.5077,0.54486,0.133,0.12136,0.49566,0.0331,0.27692,0.92304,0.1506,0.13435,0.93496,-0.05594,0.28801,1.47909,0.1805,0.04166,1.47893,-0.08081,0.43504,1.20915,0.34728,0.19013,1.26362,0.02528,0.53504,1.44051,0.26321,0.32003,1.48233
1008,0.09397,0.1926,1.53655,0.12583,0.54704,0.12344,0.06194,0.08632,0.07658,0.08971,0.50879,0.54552,0.13313,0.12108,0.49564,0.03314,0.27733,0.92322,0.15033,0.1345,0.93494,-0.05584,0.28877,1.47876,0.18017,0.04211,1.47888,-0.08051,0.4358,1.2088,0.34802,0.19033,1.26422,0.02548,0.53617,1.44005,0.26415,0.32045,1.48288
1009,0.09458,0.19319,1.53639,0.1261,0.54789,0.12428,0.06202,0.08615,0.07658,0.08999,0.51018,0.5464,0.13325,0.1207,0.49564,0.03319,0.27765,0.92342,0.15017,0.13463,0.93494,-0.05556,0.28986,1.47868,0.18008,0.04241,1.47877,-0.08001,0.43666,1.20857,0.3489,0.19077,1.26497,0.02615,0.53741,1.43957,0.26457,0.32095,1.48342
1010,0.09559,0.19352,1.53624,0.12622,0.54862,0.12529,0.0621,0.08614,0.07654,0.09014,0.512,0.54752,0.13335,0.1204,0.49563,0.03333,0.27792,0.92357,0.15022,0.13482,0.93492,-0.05524,0.29112,1.47888,0.18009,0.04271,1.47874,-0.0795,0.43755,1.20855,0.34974,0.19125,1.26573,0.02706,0.53877,1.43917,0.26472,0.32147,1.48388
1011,0.09636,0.1937,1.53626,0.12614,0.54927,0.12641,0.06212,0.08628,0.0765,0.09022,0.51414,0.54877,0.13347,0.12022,0.49559,0.0335,0.27815,0.92364,0.1504,0.13505,0.93486,-0.055,0.29217,1.47926,0.18017,0.04303,1.47883,-0.07911,0.43836,1.20879,0.35045,0.19152,1.26629,0.02786,0.54027,1.43891,0.26516,0.32188,1.48426
1012,0.09656,0.19407,1.53636,0.1259,0.55002,0.12755,0.06205,0.08637,0.07648,0.09019,0.51638,0.55005,0.13361,0.12006,0.49556,0.03354,0.27831,0.92361,0.15052,0.13527,0.93482,-0.05495,0.29271,1.47968,0.18042,0.04335,1.47905,-0.07885,0.43899,1.20923,0.35112,0.19156,1.26665,0.02829,0.54195,1.43881,0.26614,0.32219,1.48457
1013,0.0963,0.19492,1.53635,0.12547,0.55094,0.1287,0.06192,0.08625,0.07652,0.09001,0.51861,0.55133,0.13374,0.11976,0.49557,0.03333,0.27854,0.9236,0.15036,0.13553,0.93482,-0.05498,0.29288,1.47994,0.18084,0.04361,1.47928,-0.07866,0.43956,1.20969,0.35183,0.19161,1.26697,0.02832,0.54389,1.43872,0.26741,0.32251,1.48494
1014,0.09594,0.19614,1.5362,0.12488,0.55201,0.12996,0.06183,0.08593,0.07661,0.08971,0.5208,0.55269,0.13381,0.11932,0.49564,0.0329,0.27899,0.92382,0.14987,0.13592,0.93488,-0.05483,0.29313,1.47996,0.18127,0.04385,1.47931,-0.07853,0.44031,1.20999,0.35259,0.192,1.26737,0.02808,0.54601,1.43857,0.26855,0.32289,1.48551
1015,0.09577,0.1974,1.53609,0.1242,0.55328,0.13139,0.06183,0.08561,0.07673,0.08938,0.52299,0.55422,0.13375,0.1188,0.49578,0.03242,0.27966,0.92432,0.14918,0.1364,0.93501,-0.05443,0.29377,1.47981,0.18138,0.04431,1.47921,-0.07852,0.44136,1.2101,0.35336,0.19269,1.26795,0.02766,0.54812,1.43838,0.26941,0.32341,1.48622
1016,0.09582,0.1985,1.53618,0.12351,0.5549,0.13296,0.06188,0.08544,0.07679,0.089,0.5253,0.55587,0.1336,0.11831,0.49591,0.03208,0.28039,0.92494,0.14852,0.13682,0.93511,-0.05398,0.2947,1.47958,0.18099,0.04521,1.47927,-0.07861,0.44255,1.21005,0.35404,0.19329,1.26868,0.02709,0.55004,1.43822,0.27022,0.32421,1.48688
1017,0.09593,0.19948,1.53642,0.12293,0.55691,0.13463,0.06193,0.08539,0.07676,0.08837,0.52787,0.55757,0.13341,0.11798,0.49594,0.032,0.281,0.92542,0.14811,0.13714,0.93512,-0.05368,0.29573,1.47933,0.18031,0.04646,1.47967,-0.07865,0.44373,1.20992,0.35464,0.1936,1.26949,0.02638,0.55177,1.43813,0.27119,0.32524,1.48739
1018,0.09595,0.20037,1.53668,0.12259,0.55911,0.13638,0.06198,0.08534,0.07667,0.0875,0.53079,0.55933,0.13327,0.118,0.49587,0.03207,0.28148,0.92566,0.14809,0.13752,0.93504,-0.05353,0.29672,1.47912,0.1798,0.04776,1.48024,-0.07851,0.4449,1.2098,0.35532,0.19381,1.27028,0.02567,0.55355,1.43812,0.2723,0.32628,1.48785
1019,0.09593,0.20109,1.53692,0.1225,0.56117,0.13819,0.06207,0.08527,0.07663,0.08666,0.53393,0.56115,0.1332,0.11837,0.49583,0.0321,0.2819,0.92575,0.14841,0.13817,0.93497,-0.05339,0.29755,1.47894,0.17963,0.04892,1.48072,-0.07821,0.44608,1.2098,0.35619,0.19411,1.27103,0.02515,0.55559,1.43807,0.27339,0.3273,1.48824
1020,0.09605,0.20159,1.53716,0.12253,0.5629,0.13994,0.06216,0.08524,0.0767,0.08604,0.53705,0.56293,0.13316,0.11891,0.49587,0.03201,0.28238,0.92577,0.1489,0.13912,0.93497,-0.0531,0.29822,1.47878,0.17953,0.04994,1.48099,-0.07791,0.44728,1.20994,0.35712,0.19449,1.27175,0.02499,0.55801,1.43783,0.27448,0.32855,1.48849
1021,0.09627,0.20211,1.53741,0.12253,0.56433,0.14145,0.06222,0.08528,0.07678,0.08546,0.54002,0.56448,0.13309,0.11946,0.49593,0.032,0.28307,0.9258,0.14935,0.14018,0.93499,-0.05264,0.29897,1.47871,0.17917,0.05088,1.48108,-0.07762,0.44855,1.21018,0.35787,0.19504,1.2725,0.02515,0.56086,1.43736,0.27557,0.33026,1.48865
1022,0.09638,0.20298,1.53754,0.12248,0.56564,0.14271,0.06221,0.08542,0.07677,0.0846,0.54293,0.56576,0.13299,0.11993,0.49592,0.03216,0.28406,0.92586,0.1496,0.14124,0.93493,-0.05222,0.30003,1.47876,0.1786,0.05189,1.48104,-0.07732,0.44999,1.21045,0.35833,0.19602,1.27334,0.0254,0.56406,1.43677,0.27643,0.33236,1.48893
1023,0.09624,0.20445,1.53744,0.12243,0.567,0.14392,0.06208,0.08569,0.07668,0.0835,0.54595,0.56695,0.133,0.12038,0.49579,0.03235,0.28532,0.92596,0.1496,0.14233,0.93477,-0.0521,0.30135,1.47877,0.1781,0.05313,1.48095,-0.07706,0.45163,1.21062,0.35868,0.1976,1.27422,0.02549,0.56746,1.43613,0.27686,0.33453,1.48947
1024,0.09598,0.2064,1.53718,0.12232,0.56847,0.14525,0.06185,0.08603,0.0766,0.08243,0.54916,0.56828,0.13322,0.12083,0.49562,0.03237,0.28671,0.92611,0.14951,0.14361,0.93457,-0.0523,0.30276,1.47849,0.17785,0.05473,1.4809,-0.07695,0.45343,1.21053,0.35928,0.19954,1.27515,0.02534,0.57091,1.4353,0.27705,0.33653,1.4902
1025,0.09571,0.2084,1.53691,0.12216,0.56988,0.14667,0.06167,0.08622,0.07658,0.08148,0.55241,0.56971,0.13353,0.12132,0.49549,0.03219,0.28811,0.92628,0.14952,0.14514,0.9344,-0.05264,0.30422,1.47787,0.1778,0.05667,1.48097,-0.07693,0.45531,1.21012,0.36048,0.20142,1.2763,0.02502,0.57438,1.4342,0.27739,0.33843,1.49101
1026,0.09547,0.21014,1.53675,0.12198,0.57098,0.148,0.06167,0.08618,0.07659,0.08047,0.55543,0.57103,0.13371,0.12188,0.49542,0.03195,0.28935,0.92638,0.14971,0.14672,0.93428,-0.05285,0.30579,1.47712,0.17779,0.05878,1.48105,-0.07681,0.45726,1.20956,0.36233,0.20317,1.27779,0.02472,0.57804,1.43291,0.278,0.34037,1.4919
1027,0.09527,0.21159,1.5367,0.12182,0.57171,0.14912,0.06183,0.08614,0.0766,0.07938,0.55813,0.57213,0.13369,0.12258,0.4954,0.03181,0.29041,0.92638,0.14997,0.14811,0.9342,-0.0528,0.30746,1.47645,0.17779,0.06084,1.48097,-0.07655,0.45928,1.20907,0.36441,0.20496,1.27943,0.02459,0.58198,1.43155,0.27868,0.34237,1.49284
1028,0.09508,0.21303,1.53672,0.12168,0.57216,0.15014,0.062,0.08634,0.07663,0.07838,0.56064,0.57311,0.13368,0.12347,0.49539,0.03181,0.29144,0.92637,0.1502,0.14932,0.93417,-0.05255,0.30919,1.47585,0.17783,0.06269,1.48082,-0.07634,0.4613,1.20863,0.36618,0.20681,1.28089,0.02449,0.58614,1.43007,0.27926,0.3444,1.49371
1029,0.09472,0.21478,1.53671,0.12141,0.5725,0.15114,0.06209,0.08674,0.07675,0.07768,0.56316,0.57413,0.13392,0.12463,0.49542,0.03184,0.2926,0.92645,0.15039,0.15062,0.93419,-0.05239,0.31098,1.47532,0.17793,0.06446,1.4808,-0.07637,0.46312,1.20814,0.3674,0.20868,1.282,0.02412,0.59039,1.42834,0.27976,0.34652,1.49436
1030,0.09406,0.21692,1.53658,0.12086,0.57276,0.15208,0.06208,0.08714,0.077,0.07723,0.56563,0.57513,0.13447,0.12612,0.49548,0.03178,0.29394,0.92662,0.15057,0.15216,0.93425,-0.05263,0.31287,1.47505,0.17807,0.06651,1.4809,-0.07658,0.46459,1.20763,0.36816,0.21084,1.28279,0.0234,0.59475,1.42637,0.28023,0.34896,1.49484
1031,0.09336,0.21922,1.53629,0.12022,0.57292,0.15282,0.06201,0.08737,0.07727,0.0768,0.56793,0.57592,0.13525,0.12789,0.49545,0.03162,0.29542,0.92681,0.15068,0.15386,0.93426,-0.0533,0.31493,1.47513,0.17834,0.06899,1.48084,-0.0769,0.46595,1.20727,0.36881,0.21386,1.28348,0.02255,0.59947,1.42422,0.2806,0.35199,1.49542
1032,0.09297,0.22139,1.53591,0.11985,0.573,0.15328,0.06191,0.0875,0.07741,0.07613,0.57004,0.57636,0.13615,0.12979,0.49524,0.03133,0.297,0.9269,0.15071,0.15568,0.93408,-0.05414,0.31715,1.47526,0.1789,0.07178,1.4805,-0.07736,0.46761,1.20706,0.36975,0.21794,1.28446,0.02182,0.60475,1.42187,0.28081,0.35578,1.49628
1033,0.09294,0.2234,1.53553,0.11983,0.57307,0.15346,0.06183,0.08766,0.07736,0.07523,0.57205,0.57646,0.13709,0.13177,0.49482,0.03095,0.29862,0.92676,0.15078,0.15769,0.93369,-0.05501,0.31932,1.47507,0.17976,0.07482,1.48014,-0.07809,0.46963,1.20678,0.37111,0.22269,1.28587,0.02119,0.6106,1.41904,0.28096,0.3602,1.49739
1034,0.09295,0.22539,1.53519,0.11988,0.57299,0.15339,0.06182,0.08791,0.07721,0.0743,0.57407,0.57629,0.13799,0.13385,0.49431,0.03063,0.30031,0.9264,0.15106,0.15987,0.93319,-0.056,0.32114,1.47448,0.18079,0.0781,1.4801,-0.07927,0.4716,1.20629,0.37255,0.22758,1.28748,0.02049,0.61684,1.41543,0.2812,0.36499,1.49855
1035,0.09262,0.22745,1.53489,0.11979,0.57261,0.15316,0.06186,0.08819,0.07711,0.07359,0.57617,0.57597,0.13891,0.13604,0.49383,0.03059,0.30208,0.92591,0.15162,0.16216,0.93271,-0.05718,0.3226,1.47373,0.18191,0.08146,1.48039,-0.08111,0.47317,1.20565,0.37374,0.23238,1.28896,0.0197,0.62323,1.41085,0.28148,0.37001,1.49949
1036,0.09176,0.22966,1.53459,0.1196,0.57201,0.15288,0.06191,0.08845,0.07713,0.07318,0.57842,0.57564,0.14001,0.1383,0.49342,0.03085,0.30394,0.92535,0.15246,0.16453,0.93231,-0.05838,0.32407,1.47302,0.18318,0.08467,1.48067,-0.08374,0.47427,1.20487,0.37472,0.23727,1.29029,0.01896,0.62955,1.40518,0.28154,0.37527,1.50017
1037,0.09062,0.23219,1.53423,0.11946,0.57157,0.15263,0.06196,0.08877,0.07726,0.07304,0.58086,0.57533,0.14144,0.14063,0.49304,0.03123,0.3059,0.92473,0.15347,0.16706,0.93193,-0.05944,0.32575,1.47227,0.18465,0.08787,1.48061,-0.08706,0.47488,1.20374,0.37572,0.24271,1.29157,0.01833,0.63564,1.39825,0.28117,0.38079,1.50079
1038,0.08951,0.23514,1.53381,0.11943,0.57161,0.15232,0.06206,0.08925,0.07738,0.0732,0.58341,0.57498,0.14313,0.143,0.49261,0.03159,0.30803,0.92407,0.15449,0.16979,0.9315,-0.06047,0.32738,1.47128,0.18629,0.09162,1.48026,-0.09082,0.47496,1.20219,0.3768,0.24906,1.29281,0.01776,0.64155,1.38992,0.28041,0.38651,1.5016
1039,0.0884,0.23845,1.53336,0.11951,0.57209,0.15184,0.06224,0.08991,0.07737,0.07362,0.58595,0.57447,0.1449,0.14531,0.49207,0.03191,0.31039,0.92341,0.15546,0.17273,0.93094,-0.06159,0.32873,1.4701,0.18794,0.09635,1.47997,-0.09493,0.47459,1.20044,0.37784,0.2563,1.29403,0.01722,0.64752,1.38017,0.27916,0.39249,1.50258
1040,0.087,0.24186,1.53296,0.11975,0.57275,0.15114,0.0624,0.09063,0.07723,0.07425,0.58841,0.57375,0.14659,0.14755,0.49142,0.03225,0.313,0.92278,0.1564,0.17588,0.93025,-0.06279,0.33001,1.46905,0.18954,0.10187,1.48012,-0.09941,0.47387,1.19873,0.37864,0.26424,1.29548,0.01683,0.65364,1.36889,0.27711,0.39903,1.50357
1041,0.08532,0.24505,1.5327,0.12025,0.57347,0.15032,0.06249,0.0913,0.07709,0.075,0.59078,0.57289,0.14817,0.14979,0.49075,0.03264,0.31574,0.92216,0.15744,0.1792,0.92952,-0.06414,0.33151,1.46821,0.19123,0.10752,1.48075,-0.10416,0.47261,1.19692,0.37889,0.27295,1.29735,0.01659,0.65969,1.35569,0.27394,0.40656,1.50449
1042,0.0837,0.24788,1.53254,0.12093,0.57422,0.14958,0.06254,0.09196,0.07709,0.07582,0.59319,0.5721,0.14968,0.15214,0.49021,0.0331,0.31843,0.92155,0.15862,0.18254,0.92892,-0.06576,0.33316,1.46742,0.19323,0.11279,1.48154,-0.10887,0.47046,1.19465,0.37833,0.28263,1.29958,0.01607,0.66547,1.34006,0.26968,0.41522,1.50548
1043,0.08244,0.25053,1.53238,0.12153,0.57493,0.14909,0.06259,0.09267,0.0773,0.07669,0.59582,0.57155,0.15126,0.1546,0.48983,0.03364,0.32099,0.92091,0.1599,0.18581,0.92848,-0.06769,0.33479,1.46651,0.19551,0.11761,1.48205,-0.11335,0.46735,1.19182,0.37708,0.29324,1.30203,0.01447,0.67118,1.32181,0.26467,0.42463,1.50667
1044,0.08151,0.25336,1.53207,0.12182,0.57554,0.14882,0.06264,0.09336,0.07759,0.07766,0.59885,0.57123,0.15297,0.15706,0.48949,0.0343,0.32353,0.92015,0.16129,0.18906,0.92809,-0.06979,0.33626,1.46549,0.19799,0.1223,1.48206,-0.11748,0.4636,1.18869,0.37556,0.30453,1.30464,0.01133,0.67701,1.30117,0.25914,0.43424,1.50811
1045,0.08082,0.25654,1.53172,0.12184,0.5761,0.14867,0.06266,0.09384,0.07784,0.07875,0.60235,0.57101,0.15477,0.15947,0.48905,0.03508,0.32622,0.91926,0.16289,0.19255,0.92758,-0.07195,0.33738,1.46453,0.20078,0.12739,1.48177,-0.12124,0.45922,1.18554,0.37415,0.31651,1.30743,0.00657,0.68242,1.27844,0.2531,0.44372,1.50978
1046,0.08033,0.25992,1.53152,0.12169,0.57676,0.14862,0.06272,0.09406,0.07806,0.07989,0.60627,0.57087,0.15657,0.16199,0.4885,0.03596,0.3292,0.91835,0.16473,0.19648,0.92692,-0.07407,0.3381,1.46373,0.20402,0.13335,1.48162,-0.1249,0.45352,1.1823,0.37274,0.32934,1.31034,0.00014,0.68604,1.2536,0.24634,0.45303,1.51158
1047,0.07996,0.26323,1.5315,0.12145,0.57757,0.14872,0.06285,0.09425,0.07826,0.08104,0.61047,0.57086,0.15835,0.16481,0.48787,0.03695,0.33248,0.91757,0.16677,0.20078,0.92617,-0.07601,0.33873,1.46295,0.20753,0.14022,1.48181,-0.12881,0.44593,1.17865,0.37091,0.34298,1.31325,-0.00773,0.68643,1.22641,0.23849,0.46235,1.51324
1048,0.0796,0.26645,1.53145,0.12129,0.57848,0.14903,0.06296,0.09457,0.07844,0.0822,0.61486,0.57101,0.16019,0.16785,0.48716,0.03803,0.33591,0.91694,0.16884,0.20518,0.92534,-0.07767,0.33967,1.46189,0.21104,0.14762,1.48221,-0.13281,0.43672,1.17441,0.36831,0.35718,1.31618,-0.01649,0.6832,1.19686,0.22914,0.47174,1.51438
1049,0.07922,0.26981,1.53112,0.12139,0.57942,0.14958,0.06303,0.095,0.07859,0.08346,0.61941,0.57134,0.16223,0.17082,0.48638,0.03913,0.33927,0.91628,0.17083,0.20942,0.92444,-0.07904,0.34075,1.46054,0.21445,0.15516,1.48247,-0.13611,0.42664,1.16989,0.36506,0.37176,1.31931,-0.02604,0.67693,1.16528,0.21816,0.481,1.51492
1050,0.07891,0.27348,1.53051,0.1218,0.58041,0.15037,0.06312,0.09549,0.07874,0.08484,0.62418,0.57184,0.1645,0.17368,0.48555,0.0401,0.34242,0.91541,0.17266,0.21344,0.92352,-0.08011,0.34148,1.45916,0.21788,0.16282,1.48241,-0.13804,0.41615,1.1656,0.36152,0.38675,1.32291,-0.037,0.66806,1.1321,0.20583,0.49004,1.51492
1051,0.07883,0.2773,1.52981,0.12234,0.58154,0.15137,0.06326,0.09601,0.07891,0.08638,0.62926,0.57249,0.16677,0.1766,0.48471,0.04092,0.34548,0.9143,0.17439,0.21746,0.92259,-0.0808,0.34172,1.45783,0.22153,0.17077,1.48214,-0.13848,0.40548,1.16167,0.35769,0.4024,1.32712,-0.0502,0.65631,1.09782,0.19233,0.49916,1.51439
1052,0.07912,0.28091,1.52929,0.12272,0.58277,0.15241,0.06342,0.09652,0.07904,0.08807,0.63468,0.57316,0.16879,0.17973,0.48383,0.0418,0.34874,0.91306,0.17626,0.22178,0.9216,-0.0811,0.34169,1.45626,0.22559,0.17909,1.4819,-0.13775,0.39495,1.15782,0.35305,0.41886,1.33195,-0.06559,0.64119,1.06326,0.17724,0.5086,1.51311
1053,0.07982,0.28396,1.52914,0.12261,0.58395,0.15332,0.06361,0.09697,0.07908,0.0898,0.64037,0.57362,0.17055,0.18296,0.48288,0.04295,0.35247,0.91178,0.17844,0.22661,0.92048,-0.08122,0.34159,1.45391,0.23007,0.18768,1.48188,-0.13634,0.38513,1.15362,0.34695,0.43602,1.33737,-0.08216,0.62267,1.02942,0.15995,0.51807,1.5108
1054,0.08081,0.28658,1.52919,0.12209,0.5849,0.15399,0.06386,0.09745,0.07903,0.09142,0.64615,0.57378,0.17217,0.18618,0.48186,0.04439,0.35669,0.91058,0.18091,0.23195,0.91924,-0.08153,0.34163,1.45037,0.23486,0.19642,1.48212,-0.13484,0.37649,1.14862,0.33917,0.45347,1.34332,-0.09944,0.60132,0.99701,0.14044,0.52692,1.50731
1055,0.08174,0.28955,1.52898,0.12172,0.58565,0.15449,0.06415,0.09814,0.07898,0.093,0.65178,0.57368,0.17365,0.18946,0.48091,0.04586,0.36117,0.90947,0.18352,0.23768,0.918,-0.0821,0.3421,1.44553,0.23969,0.20546,1.48266,-0.13357,0.36883,1.14263,0.33014,0.47072,1.34972,-0.11826,0.57744,0.96647,0.11982,0.53474,1.50283
1056,0.08221,0.2936,1.52819,0.12197,0.58638,0.1549,0.06447,0.0991,0.07904,0.09466,0.65714,0.57343,0.17502,0.19286,0.48012,0.04697,0.36561,0.90834,0.18608,0.24375,0.91688,-0.08276,0.3431,1.43969,0.24396,0.21509,1.48356,-0.13259,0.36134,1.1359,0.32057,0.48749,1.35647,-0.13906,0.55055,0.93856,0.09966,0.5416,1.49806
1057,0.08207,0.29864,1.52701,0.1228,0.58718,0.15529,0.06482,0.1001,0.07925,0.09649,0.66227,0.57313,0.17645,0.19631,0.47946,0.04758,0.36995,0.90718,0.18838,0.25007,0.91584,-0.08324,0.34437,1.43348,0.2469,0.2255,1.48485,-0.13209,0.35338,1.12911,0.31093,0.50372,1.36355,-0.16087,0.52032,0.91443,0.08085,0.54785,1.49352
1058,0.08148,0.30404,1.52581,0.12396,0.58806,0.15565,0.06516,0.1009,0.07959,0.09844,0.66733,0.57276,0.17815,0.19969,0.47878,0.04789,0.37442,0.90605,0.19035,0.25652,0.91477,-0.08343,0.34556,1.4276,0.24828,0.23664,1.48639,-0.13246,0.34486,1.12313,0.30126,0.51961,1.37089,-0.18279,0.48722,0.89512,0.06328,0.55398,1.48904
1059,0.08062,0.30925,1.52474,0.12521,0.58902,0.15584,0.06545,0.10139,0.07997,0.10043,0.67242,0.57219,0.18014,0.203,0.47797,0.04821,0.3792,0.90495,0.19216,0.26313,0.91352,-0.08335,0.34618,1.42265,0.24867,0.24854,1.48796,-0.13398,0.33561,1.11862,0.29143,0.53555,1.37833,-0.2047,0.45186,0.88142,0.0466,0.56085,1.48414
1060,0.07959,0.31427,1.52375,0.12636,0.59001,0.15575,0.06573,0.10163,0.08042,0.10238,0.67759,0.57129,0.18239,0.20626,0.47707,0.04872,0.38434,0.90379,0.19416,0.2701,0.9121,-0.08302,0.34558,1.41884,0.24887,0.2615,1.4896,-0.13663,0.3251,1.11583,0.28105,0.55197,1.38563,-0.22625,0.41464,0.87347,0.03051,0.56928,1.47893
1061,0.07848,0.31948,1.52281,0.1274,0.59087,0.1554,0.06614,0.10175,0.08113,0.10432,0.68285,0.57003,0.18505,0.20958,0.47625,0.04971,0.38988,0.90262,0.19662,0.27752,0.91066,-0.08241,0.34358,1.41593,0.24914,0.27578,1.49163,-0.14043,0.31303,1.11459,0.2696,0.569,1.39255,-0.24674,0.37608,0.87065,0.0147,0.57938,1.47436
1062,0.07736,0.32543,1.52189,0.12862,0.59136,0.15485,0.06683,0.10177,0.0824,0.10626,0.68809,0.56845,0.18834,0.21314,0.47573,0.05133,0.3959,0.90168,0.19949,0.28517,0.9095,-0.08161,0.34082,1.41361,0.24942,0.29125,1.49437,-0.14556,0.29978,1.11473,0.25702,0.58627,1.39884,-0.26601,0.33686,0.87203,-0.00089,0.59075,1.47122
1063,0.07619,0.33216,1.52104,0.13023,0.59144,0.15412,0.06792,0.10158,0.08451,0.10818,0.693,0.56657,0.19245,0.2173,0.47564,0.05345,0.40234,0.90116,0.20246,0.29276,0.90885,-0.08091,0.33791,1.41179,0.24968,0.30741,1.4979,-0.15184,0.28606,1.11617,0.24434,0.6031,1.40433,-0.28422,0.29766,0.87716,-0.01559,0.60332,1.46924
1064,0.0748,0.33875,1.52045,0.13205,0.59141,0.15324,0.06953,0.10133,0.08761,0.11,0.69735,0.56458,0.19748,0.22241,0.47601,0.05568,0.40893,0.90118,0.20539,0.3003,0.90883,-0.08052,0.33468,1.41057,0.24973,0.32354,1.50192,-0.15865,0.27226,1.11884,0.23298,0.61901,1.409,-0.30121,0.25936,0.88582,-0.02843,0.61784,1.46762
1065,0.07294,0.34416,1.52035,0.13371,0.59161,0.15245,0.07179,0.1014,0.09177,0.11154,0.70126,0.56282,0.20362,0.22872,0.47686,0.05769,0.41552,0.90177,0.20838,0.30827,0.90943,-0.08043,0.33071,1.40998,0.24895,0.33905,1.5059,-0.16543,0.25831,1.12251,0.2234,0.63394,1.41311,-0.31701,0.22328,0.8976,-0.03925,0.6353,1.46593
1066,0.0702,0.34821,1.52078,0.13504,0.59213,0.15207,0.07497,0.10202,0.09713,0.11267,0.70509,0.56153,0.21121,0.23637,0.47828,0.05933,0.4222,0.90293,0.21158,0.31716,0.91064,-0.08064,0.3259,1.40983,0.24673,0.3537,1.50948,-0.17208,0.24406,1.1269,0.21488,0.64798,1.41671,-0.33247,0.19014,0.91206,-0.04864,0.65643,1.46427
1067,0.06629,0.35133,1.52159,0.1361,0.59275,0.15214,0.07947,0.10325,0.10387,0.11316,0.70896,0.56066,0.22058,0.2454,0.48039,0.06061,0.4291,0.90468,0.21491,0.32711,0.91254,-0.08131,0.32028,1.41001,0.24301,0.36768,1.51265,-0.17861,0.22945,1.13182,0.20655,0.66131,1.41953,-0.34805,0.15928,0.92897,-0.057,0.68184,1.46306
1068,0.06152,0.35372,1.52259,0.1369,0.59326,0.1524,0.08565,0.1053,0.11209,0.11269,0.71265,0.55992,0.23188,0.25592,0.48332,0.06163,0.4363,0.90698,0.21828,0.33799,0.91523,-0.08233,0.31368,1.41088,0.2383,0.38144,1.51549,-0.18477,0.21459,1.1374,0.1981,0.67425,1.42133,-0.36314,0.12993,0.94819,-0.06397,0.71167,1.46246
1069,0.05662,0.35524,1.52373,0.13725,0.5936,0.15246,0.09366,0.10849,0.12183,0.11108,0.71585,0.55901,0.24501,0.26825,0.48714,0.06248,0.44378,0.9098,0.22169,0.34974,0.91874,-0.08292,0.30585,1.41293,0.23314,0.39523,1.51809,-0.19023,0.19985,1.14394,0.18961,0.68704,1.42233,-0.37722,0.10261,0.96969,-0.06897,0.74479,1.46209
1070,0.05202,0.35582,1.52507,0.13698,0.5938,0.15211,0.1035,0.11297,0.13313,0.10856,0.71838,0.5578,0.25963,0.28284,0.49181,0.06329,0.45146,0.91297,0.22523,0.36232,0.92304,-0.0822,0.29701,1.4161,0.22777,0.40867,1.52057,-0.19503,0.1858,1.1515,0.18133,0.6994,1.4229,-0.39063,0.07834,0.99346,-0.07152,0.77922,1.46128
1071,0.04754,0.35569,1.52667,0.13625,0.59395,0.15138,0.11514,0.11855,0.14591,0.10563,0.72018,0.55641,0.27509,0.30003,0.49714,0.06413,0.459,0.91626,0.22889,0.37542,0.92801,-0.08019,0.28797,1.41985,0.22212,0.42108,1.52306,-0.19947,0.17277,1.15983,0.17378,0.7107,1.42305,-0.40387,0.0575,1.0194,-0.07077,0.8138,1.45972
1072,0.04285,0.35518,1.52843,0.13555,0.59405,0.15045,0.1283,0.12508,0.16011,0.10241,0.72114,0.555,0.29068,0.31993,0.50297,0.06479,0.46584,0.91947,0.23253,0.38876,0.93348,-0.07784,0.27978,1.42362,0.21602,0.43215,1.52559,-0.20389,0.16089,1.16851,0.16756,0.72067,1.42251,-0.41715,0.04011,1.04719,-0.0652,0.84864,1.45749
1073,0.03806,0.35459,1.5302,0.13543,0.5941,0.1495,0.14249,0.13277,0.17595,0.09852,0.72116,0.55374,0.30602,0.34261,0.50927,0.06498,0.47144,0.92245,0.23593,0.40243,0.93936,-0.07607,0.273,1.42716,0.20953,0.4421,1.52808,-0.20862,0.1503,1.17719,0.16307,0.72958,1.42126,-0.43064,0.02653,1.07634,-0.05381,0.8834,1.45412
1074,0.03372,0.35407,1.53203,0.136,0.59422,0.14875,0.15721,0.1421,0.19406,0.09362,0.72026,0.55277,0.3213,0.36825,0.51625,0.06465,0.47551,0.92519,0.23899,0.41668,0.94561,-0.07495,0.26737,1.43029,0.20298,0.45126,1.53054,-0.21413,0.14113,1.18574,0.1601,0.73781,1.41977,-0.44462,0.01704,1.10663,-0.03749,0.91642,1.44863
1075,0.03005,0.3535,1.5341,0.13688,0.59449,0.14844,0.17222,0.15355,0.21526,0.08781,0.71862,0.5523,0.33698,0.39706,0.52419,0.06427,0.4781,0.92784,0.24173,0.43135,0.95223,-0.07409,0.26226,1.43293,0.19655,0.45985,1.5331,-0.22074,0.13325,1.19427,0.15804,0.74557,1.41865,-0.45904,0.01141,1.13814,-0.01834,0.94603,1.44057
1076,0.02662,0.35244,1.53645,0.13775,0.59489,0.14869,0.1875,0.16751,0.23994,0.08145,0.71648,0.55238,0.35316,0.42889,0.5334,0.06445,0.47962,0.93058,0.24417,0.44567,0.9592,-0.07329,0.25735,1.43525,0.18988,0.46798,1.53589,-0.2282,0.12626,1.20303,0.15652,0.75303,1.41819,-0.47329,0.00929,1.17088,0.00231,0.97177,1.43046
1077,0.02288,0.35072,1.53894,0.13876,0.59534,0.14928,0.20323,0.18406,0.26764,0.07479,0.71372,0.55278,0.36907,0.46314,0.54422,0.06536,0.48053,0.93352,0.24622,0.45884,0.96654,-0.07275,0.25261,1.43756,0.18242,0.47577,1.5389,-0.23593,0.11974,1.21212,0.15622,0.76026,1.41809,-0.48663,0.01077,1.20438,0.0249,0.99379,1.41915
1078,0.0188,0.3488,1.54146,0.14026,0.59577,0.14968,0.22,0.20283,0.29738,0.06793,0.70969,0.55305,0.38321,0.49925,0.55696,0.06676,0.481,0.93663,0.24769,0.47069,0.97443,-0.07265,0.24812,1.43994,0.17397,0.48313,1.54216,-0.24373,0.11345,1.22153,0.15877,0.76686,1.41771,-0.49871,0.01598,1.23798,0.05086,1.01184,1.40708
1079,0.01476,0.34738,1.54403,0.14202,0.5961,0.14957,0.23862,0.22329,0.32837,0.06099,0.70393,0.55297,0.39415,0.53717,0.57163,0.06837,0.48102,0.93986,0.24843,0.48157,0.9829,-0.0728,0.24375,1.44224,0.165,0.48977,1.54575,-0.25196,0.10738,1.23149,0.16553,0.77183,1.41667,-0.50959,0.02472,1.27121,0.08148,1.02525,1.39455
1080,0.01105,0.34674,1.54671,0.14326,0.59615,0.14919,0.25947,0.24552,0.3604,0.05411,0.69681,0.55272,0.40149,0.57702,0.58804,0.07012,0.48067,0.94318,0.24847,0.49195,0.99154,-0.07272,0.23934,1.44441,0.15619,0.49543,1.54958,-0.26097,0.10174,1.24258,0.17593,0.77426,1.41511,-0.5194,0.0367,1.30397,0.1168,1.03349,1.38223
1081,0.00758,0.34659,1.54956,0.14349,0.59577,0.14896,0.28202,0.27004,0.39367,0.04727,0.68914,0.55262,0.40583,0.61845,0.60618,0.072,0.48017,0.94651,0.2479,0.50211,0.99987,-0.07224,0.23489,1.44673,0.14788,0.5002,1.55317,-0.27068,0.09685,1.25522,0.1875,0.77413,1.41314,-0.52794,0.05182,1.33631,0.15464,1.03657,1.3704
1082,0.00428,0.34633,1.55265,0.14311,0.59485,0.149,0.30567,0.29695,0.42827,0.04047,0.68115,0.55265,0.40781,0.66059,0.62629,0.07405,0.47956,0.94972,0.24679,0.51219,1.00775,-0.07157,0.23049,1.44954,0.14001,0.50437,1.55591,-0.28071,0.09299,1.26938,0.19807,0.77222,1.41065,-0.53468,0.06991,1.36812,0.19132,1.0349,1.35837
1083,0.00128,0.34542,1.55603,0.14291,0.5935,0.14906,0.33079,0.32591,0.464,0.03396,0.67249,0.55256,0.40739,0.7027,0.6485,0.07648,0.4788,0.95269,0.2452,0.52219,1.01534,-0.07087,0.22615,1.45288,0.13265,0.50805,1.55763,-0.29094,0.09054,1.28468,0.2077,0.76907,1.4078,-0.53935,0.0905,1.39903,0.22489,1.02916,1.34587
1084,-0.0012,0.34378,1.5596,0.14313,0.59189,0.14883,0.35811,0.35684,0.50051,0.02818,0.66277,0.55217,0.40397,0.7443,0.67271,0.07949,0.47805,0.9555,0.2432,0.53219,1.02289,-0.07022,0.22198,1.45633,0.12629,0.51108,1.55861,-0.30161,0.0901,1.30085,0.21804,0.7644,1.40489,-0.54227,0.11317,1.42866,0.25683,1.01978,1.33377
1085,-0.00308,0.34194,1.56318,0.14357,0.59008,0.14824,0.38738,0.38995,0.53757,0.0235,0.652,0.55156,0.39694,0.78478,0.69851,0.08292,0.47778,0.95844,0.24073,0.54231,1.03057,-0.06984,0.21833,1.45944,0.12137,0.51337,1.55923,-0.31293,0.09213,1.3177,0.23022,0.75754,1.40191,-0.54386,0.13773,1.4569,0.2894,1.00659,1.32288
1086,-0.00438,0.34065,1.56666,0.14389,0.58812,0.14752,0.41693,0.42534,0.57484,0.01993,0.64043,0.55102,0.38613,0.82327,0.72512,0.08624,0.4783,0.96181,0.2376,0.55251,1.03832,-0.07004,0.21563,1.46224,0.11789,0.51479,1.55977,-0.32458,0.09672,1.33505,0.24395,0.74806,1.3988,-0.54411,0.16377,1.4837,0.32269,0.98945,1.3133
1087,-0.00517,0.34032,1.57006,0.14385,0.5863,0.14707,0.44475,0.46286,0.6117,0.01718,0.62848,0.55092,0.37206,0.85907,0.75177,0.08917,0.47951,0.96572,0.23382,0.56269,1.04591,-0.07095,0.21423,1.46522,0.11559,0.51512,1.56043,-0.33601,0.1037,1.35281,0.25821,0.73614,1.39603,-0.54279,0.19087,1.5091,0.35516,0.96876,1.30511
1088,-0.00579,0.3408,1.57333,0.14347,0.58502,0.14736,0.47028,0.50267,0.64765,0.01498,0.61662,0.5516,0.35583,0.89213,0.77843,0.09214,0.48101,0.97004,0.22973,0.57272,1.05328,-0.07252,0.21424,1.46893,0.11425,0.51423,1.56129,-0.34696,0.11315,1.37108,0.27207,0.72243,1.39408,-0.53992,0.21923,1.53324,0.38524,0.94569,1.29855
1089,-0.00675,0.34184,1.57628,0.14299,0.58454,0.14851,0.4949,0.54585,0.68302,0.01342,0.60523,0.55311,0.33799,0.92293,0.80577,0.09591,0.48243,0.97447,0.22569,0.58248,1.06062,-0.07454,0.21533,1.47344,0.1136,0.51258,1.56231,-0.35748,0.12559,1.38976,0.28491,0.70777,1.39269,-0.53558,0.24948,1.55624,0.41224,0.92161,1.29351
1090,-0.00832,0.34333,1.57864,0.14269,0.58489,0.15018,0.52015,0.59414,0.71886,0.01288,0.59454,0.55512,0.31824,0.9516,0.83434,0.10051,0.48381,0.97878,0.2217,0.59165,1.06797,-0.07684,0.21707,1.47828,0.11324,0.51116,1.56342,-0.36754,0.14147,1.40837,0.29666,0.69252,1.39113,-0.52955,0.2818,1.5782,0.43657,0.897,1.2892
1091,-0.01047,0.34523,1.58027,0.14256,0.58609,0.15184,0.54539,0.64874,0.75604,0.01364,0.58465,0.55717,0.2963,0.97763,0.86408,0.10511,0.48545,0.98288,0.21775,0.59979,1.07512,-0.07946,0.21917,1.48301,0.11291,0.51053,1.5645,-0.3769,0.16058,1.42642,0.30765,0.6764,1.38905,-0.52146,0.31564,1.59918,0.45931,0.87104,1.2847
1092,-0.01298,0.34747,1.58121,0.14237,0.58828,0.15307,0.56796,0.70932,0.79467,0.01569,0.57574,0.55892,0.27264,1.00033,0.89459,0.10897,0.48762,0.98667,0.21408,0.60665,1.08182,-0.08242,0.22144,1.48753,0.1127,0.5103,1.56526,-0.38515,0.18213,1.44371,0.31825,0.65912,1.38688,-0.51136,0.34994,1.6189,0.48112,0.84283,1.27964
1093,-0.0156,0.35014,1.58173,0.14216,0.59136,0.15377,0.58516,0.77352,0.83437,0.01904,0.56799,0.56023,0.24872,1.01924,0.92554,0.11221,0.49011,0.98998,0.21093,0.61225,1.088,-0.08558,0.22366,1.49201,0.11277,0.50982,1.56547,-0.39175,0.20518,1.46004,0.32849,0.64111,1.38534,-0.49995,0.38363,1.63677,0.50176,0.81284,1.2746
1094,-0.01802,0.35342,1.5821,0.14251,0.59488,0.15416,0.59598,0.83743,0.87454,0.02374,0.56138,0.56121,0.22656,1.0342,0.95632,0.11561,0.49225,0.99273,0.20831,0.61674,1.09363,-0.08877,0.22583,1.49651,0.11315,0.50893,1.56522,-0.3964,0.22904,1.47507,0.33803,0.62324,1.38471,-0.48776,0.41605,1.65247,0.52075,0.78247,1.27055
1095,-0.02001,0.35741,1.5825,0.14406,0.59833,0.1546,0.6013,0.89828,0.91421,0.02966,0.55586,0.56206,0.20757,1.04561,0.98598,0.11974,0.49354,0.995,0.20608,0.62041,1.09855,-0.09203,0.22828,1.5011,0.11386,0.50787,1.56481,-0.39915,0.25342,1.48863,0.34648,0.60579,1.38447,-0.47456,0.44715,1.6663,0.5378,0.75252,1.26766
1096,-0.0215,0.36206,1.58295,0.14712,0.60137,0.15518,0.60251,0.95783,0.95244,0.0365,0.55147,0.56284,0.19171,1.05446,1.01401,0.12432,0.49437,0.99696,0.20398,0.62381,1.10265,-0.09548,0.23152,1.50581,0.115,0.50683,1.56421,-0.40027,0.27829,1.50089,0.35387,0.58837,1.3839,-0.45957,0.47745,1.67866,0.55293,0.72272,1.26516
1097,-0.02257,0.36728,1.58331,0.15173,0.6041,0.15553,0.59965,1.02181,0.98936,0.04406,0.54838,0.56323,0.17821,1.06204,1.04085,0.12853,0.49581,0.99859,0.20174,0.62768,1.10594,-0.09913,0.23628,1.51048,0.11663,0.50581,1.56311,-0.40009,0.30358,1.51189,0.36061,0.57053,1.38282,-0.44238,0.50711,1.68958,0.56654,0.69226,1.2622
1098,-0.02354,0.37304,1.58336,0.15769,0.60691,0.15512,0.59089,1.0947,1.02626,0.05231,0.54662,0.56277,0.16716,1.06933,1.06738,0.13162,0.49878,0.99964,0.19907,0.63256,1.10839,-0.10295,0.24328,1.51491,0.11866,0.50483,1.56131,-0.3991,0.32909,1.52124,0.36703,0.5525,1.38171,-0.42337,0.53555,1.69892,0.57908,0.66051,1.25864
1099,-0.02488,0.37927,1.58283,0.16451,0.61007,0.15384,0.5735,1.17483,1.06452,0.06112,0.546,0.56143,0.15966,1.07605,1.0939,0.13333,0.50311,1.00004,0.19606,0.63802,1.1102,-0.10685,0.25267,1.51888,0.12095,0.50396,1.55908,-0.39772,0.35471,1.52851,0.37304,0.53514,1.38104,-0.40347,0.5622,1.70655,0.59054,0.62783,1.25503
1100,-0.02671,0.38571,1.58165,0.17157,0.6134,0.15211,0.54501,1.25474,1.1037,0.07019,0.54622,0.55969,0.15606,1.08054,1.11964,0.13385,0.50734,1.0,0.19333,0.64235,1.11183,-0.11063,0.26341,1.5222,0.12335,0.50339,1.55694,-0.39573,0.38045,1.53367,0.37818,0.51904,1.38076,-0.38342,0.58698,1.71249,0.60053,0.59517,1.25215
1101,-0.0285,0.39197,1.58008,0.17821,0.61642,0.15035,0.50472,1.32565,1.14156,0.07917,0.547,0.55813,0.15533,1.0811,1.14344,0.13362,0.50973,0.99981,0.19156,0.64376,1.11361,-0.11405,0.27385,1.52463,0.12586,0.50335,1.55504,-0.3924,0.40607,1.53684,0.38209,0.50375,1.38021,-0.36353,0.60989,1.71686,0.6087,0.56333,1.25031
1102,-0.02967,0.39776,1.57857,0.18394,0.61875,0.14873,0.45607,1.3816,1.17688,0.08766,0.54821,0.55698,0.15696,1.07785,1.16479,0.13313,0.50978,0.99958,0.19072,0.64207,1.11557,-0.11708,0.28281,1.52592,0.12866,0.50373,1.55304,-0.38728,0.43098,1.53811,0.38462,0.48818,1.3785,-0.34383,0.63072,1.71976,0.61481,0.53269,1.24885
1103,-0.03031,0.40306,1.57733,0.18862,0.62044,0.14732,0.40725,1.42051,1.21024,0.09531,0.54995,0.55627,0.1615,1.07299,1.18355,0.13275,0.5088,0.99937,0.1902,0.63904,1.11773,-0.11991,0.29024,1.52587,0.1319,0.50402,1.5507,-0.38057,0.45463,1.53769,0.38577,0.4718,1.3754,-0.32426,0.64921,1.72141,0.6187,0.50341,1.24686
1104,-0.03095,0.40817,1.57627,0.19218,0.62176,0.14613,0.36735,1.44382,1.24013,0.10195,0.55256,0.55599,0.16803,1.06898,1.19958,0.13273,0.50881,0.99936,0.19008,0.63695,1.12003,-0.12262,0.29686,1.52441,0.13526,0.50393,1.54827,-0.37285,0.47675,1.53596,0.3857,0.4553,1.37183,-0.30479,0.66546,1.72181,0.62046,0.47525,1.2443
1105,-0.03165,0.41345,1.57521,0.19458,0.62282,0.1452,0.3408,1.45578,1.26231,0.1076,0.55638,0.55622,0.1731,1.06673,1.21332,0.13322,0.51089,0.99973,0.19128,0.63676,1.12244,-0.12523,0.30305,1.52185,0.13811,0.50395,1.54609,-0.36453,0.49728,1.53285,0.38477,0.44025,1.36911,-0.28542,0.6798,1.7205,0.62044,0.44773,1.24191
1106,-0.03208,0.41886,1.57414,0.19583,0.62361,0.14465,0.32569,1.4608,1.27496,0.11226,0.56134,0.55703,0.17329,1.06563,1.22494,0.13424,0.51453,1.0006,0.19428,0.63781,1.12498,-0.128,0.30832,1.5188,0.1402,0.50485,1.54433,-0.35553,0.5163,1.52787,0.38344,0.42807,1.36781,-0.26624,0.69246,1.71703,0.61906,0.4207,1.24053
1107,-0.03199,0.42389,1.57332,0.19616,0.62436,0.14459,0.31725,1.46124,1.28046,0.11587,0.5671,0.55835,0.16797,1.06447,1.23393,0.13547,0.51824,1.00181,0.19826,0.63876,1.12753,-0.13134,0.31241,1.51587,0.14188,0.50661,1.54325,-0.34565,0.53411,1.52075,0.38172,0.41873,1.36726,-0.24749,0.7036,1.7116,0.61646,0.39454,1.24041
1108,-0.03156,0.42807,1.57315,0.1961,0.62549,0.14483,0.31414,1.45791,1.28232,0.11856,0.57328,0.55977,0.15988,1.0626,1.23971,0.13631,0.52091,1.00291,0.20198,0.63884,1.12961,-0.13557,0.31615,1.51334,0.14356,0.50796,1.54316,-0.33499,0.55138,1.51171,0.37899,0.41087,1.36606,-0.22967,0.71353,1.70509,0.61212,0.37009,1.24052
1109,-0.03123,0.43113,1.57383,0.19601,0.62729,0.14493,0.31916,1.45183,1.28257,0.1207,0.57956,0.56082,0.15401,1.06075,1.24181,0.1365,0.52283,1.0035,0.20516,0.63818,1.13099,-0.14093,0.32059,1.51128,0.14487,0.50728,1.54391,-0.32377,0.56874,1.50128,0.37515,0.40368,1.36376,-0.21302,0.72278,1.69823,0.60582,0.34885,1.23901
1110,-0.03121,0.433,1.57526,0.19581,0.62961,0.14471,0.33428,1.44505,1.2816,0.12261,0.58557,0.56138,0.15514,1.06018,1.24072,0.13663,0.52524,1.00365,0.20874,0.63734,1.13212,-0.14717,0.32606,1.50956,0.14476,0.504,1.54458,-0.31216,0.58589,1.49024,0.37194,0.39739,1.36227,-0.1971,0.73172,1.69093,0.59826,0.33185,1.23475
1111,-0.03114,0.43407,1.57712,0.19535,0.63199,0.14437,0.358,1.43905,1.27896,0.12419,0.59104,0.56171,0.16445,1.06127,1.23768,0.13755,0.5289,1.00374,0.21389,0.63685,1.13332,-0.15296,0.33247,1.50799,0.14265,0.49925,1.54415,-0.30067,0.60164,1.47907,0.37156,0.39334,1.3636,-0.18116,0.74042,1.68215,0.58985,0.31775,1.2279
1112,-0.03058,0.43528,1.57905,0.19497,0.63397,0.14414,0.38646,1.43328,1.2744,0.12515,0.59594,0.56199,0.17806,1.06344,1.23351,0.13934,0.53334,1.00393,0.22058,0.63713,1.13393,-0.15653,0.33994,1.50645,0.13962,0.49525,1.54284,-0.29013,0.61515,1.46749,0.37295,0.3946,1.36496,-0.16498,0.74834,1.67091,0.58063,0.30431,1.22181
1113,-0.0298,0.43724,1.58075,0.19514,0.63513,0.14393,0.41592,1.42581,1.26823,0.12545,0.60025,0.56207,0.19014,1.0662,1.22839,0.14111,0.53745,1.00394,0.22718,0.63841,1.13305,-0.15741,0.34823,1.50491,0.13796,0.4935,1.5424,-0.28071,0.62641,1.45469,0.37243,0.39633,1.36407,-0.14996,0.7537,1.65837,0.57296,0.29245,1.21994
1114,-0.02953,0.43971,1.58208,0.19581,0.63505,0.14348,0.44376,1.4152,1.26098,0.12516,0.60381,0.56175,0.19688,1.06961,1.22229,0.14191,0.54058,1.00351,0.2316,0.6408,1.13072,-0.1571,0.35611,1.50339,0.13945,0.49349,1.54467,-0.27131,0.63552,1.44017,0.37041,0.39081,1.36487,-0.13854,0.75656,1.64634,0.56783,0.28193,1.22013
1115,-0.02998,0.44223,1.58327,0.19655,0.63361,0.1427,0.46799,1.40151,1.25277,0.12426,0.60651,0.56098,0.19779,1.07371,1.21513,0.14103,0.54278,1.00267,0.23247,0.64401,1.12783,-0.15738,0.36226,1.50204,0.14378,0.49369,1.55001,-0.26035,0.64233,1.42419,0.36357,0.37668,1.36503,-0.12864,0.75901,1.63353,0.56126,0.27111,1.21822
1116,-0.03081,0.44461,1.58467,0.19722,0.63112,0.14167,0.48782,1.38617,1.24311,0.12282,0.60853,0.55985,0.19528,1.07796,1.20695,0.13781,0.54429,1.00153,0.22963,0.64717,1.12504,-0.15868,0.36659,1.50109,0.14845,0.49325,1.55648,-0.24719,0.64676,1.40736,0.34973,0.3657,1.35789,-0.11813,0.76159,1.61935,0.55069,0.26355,1.21313
1117,-0.03165,0.44668,1.58654,0.19797,0.62817,0.1405,0.50471,1.37107,1.23167,0.12127,0.61022,0.55848,0.19324,1.08171,1.1979,0.13248,0.54534,1.00018,0.2245,0.64951,1.12246,-0.1606,0.37012,1.50052,0.15102,0.49245,1.56144,-0.23271,0.64888,1.39008,0.33894,0.3638,1.35084,-0.10856,0.76386,1.60491,0.54157,0.25987,1.20972
1118,-0.03233,0.44825,1.58878,0.1986,0.6253,0.13933,0.52148,1.3569,1.2181,0.12005,0.61167,0.55714,0.1947,1.08452,1.18814,0.12651,0.54606,0.99882,0.21962,0.65072,1.11985,-0.16271,0.37374,1.49989,0.15144,0.492,1.56396,-0.21881,0.64888,1.37238,0.33302,0.36216,1.34859,-0.10109,0.76525,1.59006,0.53438,0.25674,1.20675
1119,-0.03272,0.44954,1.59099,0.19871,0.62276,0.13832,0.53956,1.34319,1.20132,0.11908,0.61267,0.55602,0.20014,1.08609,1.17743,0.1213,0.5464,0.99764,0.21694,0.65074,1.11697,-0.16453,0.37775,1.49875,0.15125,0.49229,1.56488,-0.20713,0.64698,1.35449,0.33004,0.35998,1.34866,-0.09562,0.76595,1.57402,0.5285,0.25513,1.20239
1120,-0.03276,0.45113,1.59273,0.19815,0.62065,0.13752,0.55844,1.32953,1.1803,0.11785,0.6131,0.55515,0.20827,1.08655,1.1654,0.1175,0.54643,0.99673,0.21673,0.6498,1.11394,-0.16565,0.38197,1.49719,0.15133,0.49307,1.56513,-0.19844,0.64361,1.33726,0.3289,0.35901,1.349,-0.09154,0.76653,1.55691,0.52404,0.25578,1.1972
1121,-0.03249,0.45325,1.59398,0.19721,0.61912,0.13693,0.57729,1.31545,1.15503,0.11614,0.61306,0.55443,0.21749,1.08651,1.15209,0.11516,0.54651,0.99602,0.21818,0.64857,1.1111,-0.16602,0.38614,1.49568,0.15156,0.49386,1.56516,-0.19242,0.63921,1.32143,0.32839,0.35908,1.34887,-0.08838,0.76722,1.53954,0.52056,0.25814,1.19184
1122,-0.03213,0.45554,1.5951,0.19648,0.6182,0.1365,0.5956,1.3,1.12632,0.11414,0.61272,0.55376,0.22669,1.08631,1.13764,0.11373,0.54671,0.99543,0.22014,0.64748,1.10854,-0.16573,0.39012,1.49457,0.15166,0.49449,1.56528,-0.1876,0.63373,1.30672,0.32758,0.35978,1.34821,-0.08629,0.76789,1.52241,0.51772,0.26211,1.18669
1123,-0.03191,0.45768,1.59629,0.19622,0.61758,0.1362,0.61335,1.28235,1.09542,0.11206,0.61231,0.5531,0.23589,1.08563,1.12208,0.11208,0.54661,0.99482,0.22164,0.64631,1.10585,-0.16451,0.39368,1.49371,0.15173,0.49527,1.56577,-0.18201,0.62646,1.29217,0.32622,0.36129,1.34709,-0.08567,0.76821,1.50527,0.51547,0.26805,1.18196
1124,-0.03185,0.45983,1.59746,0.19623,0.61667,0.13598,0.63115,1.26226,1.06331,0.10992,0.61196,0.55245,0.24599,1.08408,1.10561,0.10949,0.5459,0.99411,0.22222,0.64488,1.10258,-0.16206,0.39635,1.49265,0.15203,0.49651,1.56659,-0.17473,0.6169,1.27746,0.32492,0.36395,1.34578,-0.08627,0.76797,1.48755,0.51391,0.27592,1.17753
1125,-0.03173,0.46216,1.59852,0.19624,0.61516,0.13571,0.6493,1.24004,1.03011,0.10776,0.61169,0.55173,0.25762,1.08178,1.08864,0.10623,0.54499,0.9933,0.22216,0.64349,1.0988,-0.15878,0.39789,1.49106,0.15275,0.49814,1.56747,-0.16703,0.60571,1.26335,0.32472,0.36791,1.34457,-0.0872,0.76725,1.46906,0.51324,0.28507,1.17317
1126,-0.03133,0.46458,1.59959,0.19609,0.61338,0.13528,0.66685,1.21653,0.99539,0.10566,0.61152,0.5509,0.27038,1.07894,1.07133,0.10324,0.54458,0.99242,0.2222,0.64239,1.09515,-0.15583,0.39889,1.48896,0.15393,0.50019,1.56811,-0.16122,0.59434,1.25047,0.32619,0.37321,1.34357,-0.08788,0.76639,1.44998,0.51354,0.29505,1.16873
1127,-0.0307,0.46703,1.60074,0.19564,0.6118,0.13475,0.68223,1.19248,0.95893,0.10363,0.61157,0.55002,0.28322,1.07521,1.05339,0.10116,0.54481,0.99158,0.22297,0.64125,1.09225,-0.15435,0.40051,1.48677,0.15549,0.50293,1.56846,-0.15829,0.58353,1.23859,0.32886,0.37968,1.34269,-0.08871,0.76556,1.43044,0.51463,0.30609,1.16423
1128,-0.0301,0.46966,1.6019,0.19493,0.61049,0.13435,0.69478,1.16774,0.92111,0.10163,0.61185,0.54933,0.29548,1.07004,1.03465,0.09968,0.54519,0.9909,0.22434,0.63953,1.09004,-0.15448,0.40323,1.48496,0.15716,0.50625,1.56871,-0.15759,0.57283,1.2274,0.33137,0.3865,1.3417,-0.09063,0.76466,1.41044,0.51618,0.31871,1.15997
1129,-0.02974,0.47251,1.60287,0.19413,0.60927,0.13419,0.70487,1.14155,0.88245,0.09962,0.61229,0.54889,0.30725,1.06335,1.01535,0.09769,0.54529,0.99041,0.22552,0.63727,1.08773,-0.1552,0.4064,1.48379,0.15855,0.50929,1.56911,-0.15827,0.56159,1.2173,0.33251,0.3925,1.34038,-0.09423,0.76362,1.39012,0.51815,0.33308,1.15657
1130,-0.02953,0.47537,1.60346,0.19337,0.60797,0.1341,0.71279,1.11375,0.84338,0.09763,0.61285,0.5485,0.3188,1.05556,0.99591,0.09445,0.5451,0.9899,0.2258,0.63489,1.08453,-0.15521,0.40919,1.48329,0.15934,0.51139,1.56966,-0.15997,0.54984,1.20888,0.33228,0.39729,1.33881,-0.09942,0.7625,1.3698,0.52034,0.34912,1.15417
1131,-0.02936,0.47808,1.60374,0.19262,0.60638,0.13384,0.71837,1.08511,0.80444,0.09568,0.61361,0.54792,0.33005,1.04702,0.97662,0.09043,0.54479,0.98914,0.2254,0.63262,1.08047,-0.15428,0.41164,1.48335,0.15954,0.51286,1.57009,-0.1625,0.53816,1.20222,0.33162,0.40152,1.33726,-0.10606,0.76122,1.35002,0.52217,0.36649,1.15222
1132,-0.02924,0.48087,1.60386,0.19191,0.60436,0.13333,0.72167,1.05657,0.76622,0.09378,0.61463,0.54707,0.34086,1.03779,0.95731,0.08699,0.54453,0.98806,0.22516,0.63047,1.07635,-0.15331,0.41425,1.48367,0.1596,0.51462,1.57026,-0.16569,0.52706,1.19692,0.33131,0.40606,1.33584,-0.11425,0.75958,1.33136,0.52337,0.38453,1.1503
1133,-0.02922,0.48405,1.60387,0.19126,0.60217,0.13261,0.72337,1.02854,0.7288,0.09195,0.61587,0.54597,0.3514,1.02765,0.9374,0.08486,0.54452,0.98676,0.22571,0.62846,1.07271,-0.15303,0.41709,1.48393,0.15996,0.51696,1.57021,-0.16928,0.51687,1.19257,0.33148,0.41118,1.33439,-0.1238,0.75754,1.31419,0.52441,0.40313,1.14867
1134,-0.02925,0.48768,1.60365,0.19062,0.60025,0.13178,0.72402,1.00059,0.69143,0.0905,0.61736,0.54482,0.36218,1.01623,0.91662,0.0835,0.54497,0.98544,0.22696,0.62654,1.06933,-0.15318,0.4201,1.4841,0.16059,0.51928,1.56989,-0.173,0.50772,1.18908,0.33204,0.41655,1.33267,-0.13363,0.75518,1.29862,0.52588,0.42284,1.14784
1135,-0.0292,0.49144,1.60321,0.18988,0.59866,0.13095,0.72321,0.97158,0.65331,0.08981,0.61914,0.54385,0.37353,1.00321,0.8954,0.08199,0.54599,0.98432,0.22855,0.62449,1.06575,-0.15327,0.42349,1.48451,0.16126,0.52095,1.56914,-0.17671,0.49948,1.18654,0.33305,0.42183,1.33064,-0.1425,0.75241,1.28472,0.52785,0.44393,1.14805
1136,-0.02899,0.49494,1.60276,0.18896,0.59726,0.13024,0.71997,0.94072,0.61461,0.08983,0.6212,0.54318,0.38511,0.98852,0.87436,0.08013,0.54741,0.98351,0.23019,0.62214,1.06206,-0.15332,0.42732,1.48539,0.16188,0.52217,1.56791,-0.18057,0.4916,1.18501,0.33464,0.42716,1.32844,-0.15048,0.74888,1.27268,0.52985,0.46623,1.14915
1137,-0.02863,0.49799,1.6024,0.18786,0.59609,0.12972,0.71397,0.90881,0.57669,0.09008,0.62335,0.54277,0.39621,0.97237,0.85395,0.07814,0.54888,0.98294,0.23164,0.61951,1.05857,-0.15386,0.43105,1.48661,0.16239,0.52354,1.5665,-0.18478,0.48345,1.18427,0.33679,0.43316,1.32644,-0.15934,0.74422,1.26262,0.53122,0.48956,1.15095
1138,-0.02816,0.50078,1.60202,0.18675,0.59516,0.1294,0.70594,0.87772,0.54094,0.09014,0.62545,0.54252,0.40629,0.95503,0.83439,0.07607,0.55021,0.98249,0.23282,0.61654,1.0553,-0.15521,0.43405,1.4877,0.16275,0.52538,1.5654,-0.18915,0.47485,1.18391,0.33929,0.44018,1.325,-0.17041,0.73842,1.25438,0.53155,0.51379,1.15355
1139,-0.02759,0.50372,1.60148,0.18585,0.59426,0.12928,0.69673,0.84824,0.50763,0.09003,0.62755,0.54235,0.41521,0.93664,0.81554,0.07399,0.55146,0.9821,0.23391,0.61315,1.05207,-0.15702,0.43633,1.48826,0.16326,0.52749,1.56483,-0.19322,0.46644,1.18348,0.34199,0.44785,1.32414,-0.18269,0.73208,1.2476,0.53073,0.53867,1.15709
1140,-0.02688,0.50719,1.60077,0.18523,0.59321,0.12922,0.68624,0.81922,0.47628,0.09003,0.6298,0.54216,0.42279,0.91749,0.79693,0.07233,0.55265,0.98167,0.23526,0.60946,1.04875,-0.15861,0.43863,1.48816,0.16445,0.52962,1.56455,-0.19682,0.45924,1.18284,0.34496,0.45538,1.32347,-0.19371,0.72615,1.24231,0.52868,0.56383,1.1614
1141,-0.02602,0.51134,1.59998,0.18481,0.59211,0.12892,0.67397,0.7892,0.44681,0.09029,0.63216,0.54169,0.42873,0.89804,0.77831,0.07153,0.55363,0.98091,0.237,0.60588,1.04542,-0.15955,0.44168,1.48766,0.16638,0.53185,1.56403,-0.20024,0.45381,1.1822,0.34837,0.46235,1.32264,-0.20204,0.72134,1.23883,0.52552,0.58877,1.16641
1142,-0.02496,0.51596,1.59911,0.18445,0.59134,0.12814,0.66011,0.75809,0.41946,0.09071,0.6345,0.54077,0.43322,0.87846,0.75992,0.0716,0.55418,0.97965,0.23897,0.60266,1.04217,-0.15975,0.44551,1.48715,0.16841,0.53437,1.56299,-0.20399,0.44992,1.18197,0.35212,0.46899,1.32176,-0.20844,0.71772,1.2372,0.52147,0.61306,1.1723
1143,-0.0236,0.52062,1.59815,0.18417,0.59123,0.127,0.64572,0.72676,0.39397,0.09117,0.63675,0.53955,0.43713,0.85823,0.74195,0.0721,0.55435,0.97804,0.241,0.59966,1.03882,-0.15927,0.44961,1.4869,0.16997,0.53707,1.56165,-0.20828,0.44697,1.18244,0.35593,0.47571,1.32109,-0.21485,0.71487,1.23691,0.5165,0.63656,1.17923
1144,-0.02197,0.52491,1.59705,0.18396,0.59156,0.12585,0.63177,0.6959,0.36981,0.09191,0.63899,0.53839,0.44104,0.83677,0.72429,0.07258,0.55447,0.97647,0.24311,0.59648,1.03502,-0.1584,0.45364,1.48699,0.17125,0.53957,1.56037,-0.21279,0.44442,1.18356,0.35974,0.4826,1.32069,-0.22239,0.71239,1.23731,0.51032,0.65945,1.18717
1145,-0.02016,0.52861,1.59585,0.18364,0.5916,0.12489,0.61827,0.6658,0.34704,0.0932,0.64122,0.53753,0.44435,0.81433,0.707,0.07277,0.55483,0.9752,0.24527,0.59278,1.03065,-0.15754,0.45768,1.48737,0.17292,0.54163,1.55927,-0.21696,0.44205,1.18516,0.36369,0.48958,1.32028,-0.23047,0.71002,1.238,0.50278,0.68185,1.19592
1146,-0.01814,0.53184,1.59466,0.18304,0.59057,0.12411,0.60464,0.63671,0.32638,0.09501,0.64334,0.53689,0.44593,0.79189,0.69055,0.07266,0.55539,0.97415,0.24722,0.58852,1.02614,-0.15674,0.46193,1.48794,0.17525,0.54339,1.55828,-0.22045,0.43986,1.18701,0.36777,0.49675,1.31958,-0.23766,0.70781,1.23888,0.49425,0.70344,1.2053
1147,-0.01575,0.53492,1.59358,0.18199,0.58837,0.12339,0.59038,0.60883,0.30834,0.09694,0.64537,0.53623,0.44527,0.77033,0.67541,0.07244,0.55605,0.9731,0.24877,0.58405,1.02204,-0.15559,0.46641,1.48855,0.17792,0.54515,1.55735,-0.2233,0.43823,1.189,0.37184,0.50438,1.31871,-0.24332,0.70614,1.24006,0.48548,0.72386,1.2153
1148,-0.01297,0.53817,1.59261,0.18037,0.5857,0.12255,0.57542,0.58214,0.29263,0.09858,0.64741,0.53537,0.44264,0.74983,0.66159,0.0723,0.55678,0.97186,0.24995,0.57985,1.01858,-0.15382,0.47092,1.48912,0.18051,0.54695,1.55637,-0.22589,0.43771,1.19111,0.37597,0.51272,1.31796,-0.24817,0.7055,1.24185,0.47663,0.74335,1.22601
1149,-0.00992,0.54169,1.59168,0.17832,0.58313,0.12146,0.55996,0.55651,0.27855,0.09978,0.64927,0.53423,0.43868,0.73003,0.64877,0.07233,0.55761,0.97044,0.25093,0.57609,1.01554,-0.15147,0.47533,1.48969,0.18307,0.5486,1.5552,-0.22851,0.43848,1.19335,0.38038,0.52194,1.31734,-0.25293,0.70601,1.2445,0.46701,0.7625,1.23732
1150,-0.00663,0.54526,1.5908,0.17615,0.58057,0.12013,0.54441,0.53197,0.26552,0.10063,0.65054,0.53282,0.43391,0.71044,0.63676,0.07249,0.55844,0.96889,0.25184,0.57242,1.01261,-0.14873,0.47967,1.49021,0.18604,0.55006,1.5537,-0.23118,0.44027,1.19566,0.38514,0.5321,1.31652,-0.25713,0.70741,1.24805,0.45605,0.78145,1.2489
1151,-0.003,0.5486,1.59003,0.17388,0.57783,0.1187,0.52918,0.50864,0.25332,0.10124,0.65116,0.53133,0.4288,0.69078,0.62565,0.07272,0.55898,0.96736,0.2527,0.56834,1.00966,-0.14576,0.48398,1.49047,0.18973,0.55144,1.55191,-0.23383,0.44279,1.1978,0.39015,0.54297,1.31531,-0.26001,0.7095,1.25226,0.44411,0.79962,1.26054
1152,0.00096,0.55169,1.58936,0.17118,0.5752,0.11748,0.51455,0.48645,0.24211,0.1017,0.65148,0.53011,0.42365,0.6711,0.61564,0.07296,0.5589,0.96605,0.2535,0.56365,1.00675,-0.14274,0.48827,1.49026,0.194,0.55283,1.54986,-0.23641,0.44619,1.19947,0.39532,0.55401,1.31388,-0.26164,0.71237,1.25687,0.43217,0.81612,1.27243
1153,0.00506,0.55481,1.58865,0.16805,0.57313,0.11663,0.5005,0.46517,0.2321,0.10225,0.65188,0.52941,0.41855,0.65171,0.60676,0.07318,0.55828,0.9651,0.25418,0.55847,1.00394,-0.13973,0.49269,1.48969,0.19848,0.55419,1.54772,-0.23883,0.4508,1.20067,0.40057,0.56455,1.31262,-0.2625,0.71628,1.26184,0.42091,0.83024,1.28485
1154,0.00911,0.55802,1.5878,0.16519,0.57179,0.11616,0.48678,0.44451,0.22323,0.10315,0.65246,0.52916,0.41348,0.63287,0.59878,0.07335,0.5576,0.96453,0.25476,0.5531,1.00116,-0.1366,0.49745,1.48916,0.20304,0.55556,1.54581,-0.24097,0.45684,1.20181,0.40577,0.5743,1.31179,-0.26277,0.72144,1.26737,0.41028,0.84182,1.29799
1155,0.01328,0.56107,1.58695,0.16344,0.57102,0.11596,0.47307,0.42421,0.21534,0.10433,0.65316,0.52909,0.4084,0.61453,0.59147,0.07351,0.55734,0.96418,0.25521,0.54782,0.99835,-0.13318,0.50264,1.48908,0.20779,0.55687,1.54451,-0.24293,0.46442,1.20342,0.41074,0.58356,1.31145,-0.26231,0.72802,1.27362,0.39964,0.85124,1.31163
1156,0.01794,0.56368,1.58633,0.16291,0.5705,0.11585,0.45907,0.40432,0.20848,0.10545,0.6539,0.52896,0.40328,0.59674,0.58497,0.07357,0.5574,0.96382,0.25535,0.54264,0.99564,-0.12953,0.50818,1.48964,0.2127,0.55775,1.54384,-0.24484,0.4733,1.20575,0.41527,0.59297,1.31159,-0.26074,0.73585,1.28059,0.38855,0.85922,1.32493
1157,0.02315,0.56583,1.58608,0.16295,0.57012,0.11575,0.44475,0.38523,0.20282,0.10629,0.65456,0.52876,0.39804,0.57981,0.57944,0.07335,0.55735,0.96339,0.25496,0.53737,0.99319,-0.12591,0.51411,1.49074,0.2173,0.55769,1.54333,-0.24648,0.48279,1.20862,0.41907,0.60277,1.31209,-0.25773,0.74421,1.2881,0.37755,0.86628,1.3369
1158,0.02868,0.56772,1.58614,0.16276,0.57001,0.11565,0.43035,0.36738,0.19819,0.10704,0.65501,0.52867,0.39258,0.56395,0.57477,0.07282,0.55701,0.96302,0.25409,0.53193,0.99102,-0.12233,0.52067,1.49207,0.22121,0.55666,1.54253,-0.24735,0.4923,1.21159,0.42184,0.61238,1.31262,-0.25334,0.75237,1.29594,0.36755,0.87244,1.34725
1159,0.03432,0.56964,1.58632,0.16188,0.57015,0.1156,0.41623,0.35082,0.19417,0.10814,0.65532,0.52885,0.38694,0.54888,0.57073,0.07228,0.5566,0.9629,0.25306,0.52655,0.98911,-0.11856,0.52777,1.49337,0.22452,0.55515,1.5415,-0.24727,0.50204,1.2143,0.42343,0.62102,1.31277,-0.24766,0.76042,1.3039,0.35887,0.87729,1.35676
1160,0.03998,0.57185,1.58645,0.1602,0.57025,0.11556,0.4025,0.33541,0.19044,0.10986,0.65566,0.52919,0.38129,0.53401,0.56725,0.07197,0.55639,0.96294,0.2521,0.52142,0.98751,-0.11438,0.5347,1.49458,0.22776,0.55361,1.5406,-0.24656,0.51284,1.21681,0.42413,0.62858,1.31249,-0.24045,0.7692,1.31184,0.35109,0.88058,1.3667
1161,0.04561,0.57433,1.58653,0.15762,0.56984,0.11544,0.3891,0.3211,0.18694,0.1119,0.65595,0.52946,0.37552,0.51912,0.56441,0.07181,0.55628,0.96292,0.25108,0.51642,0.98628,-0.10992,0.54084,1.4958,0.23141,0.55209,1.54004,-0.24569,0.52514,1.21935,0.42457,0.63571,1.31219,-0.23134,0.7791,1.31977,0.34367,0.88259,1.37765
1162,0.05109,0.57671,1.58669,0.15417,0.56882,0.11522,0.37617,0.30788,0.18369,0.11366,0.65584,0.52959,0.36937,0.50452,0.56207,0.07149,0.5558,0.96278,0.24977,0.51129,0.98529,-0.10555,0.54629,1.49709,0.23567,0.55059,1.53975,-0.24488,0.53836,1.22207,0.42525,0.64296,1.31227,-0.2206,0.78937,1.32787,0.33655,0.88385,1.38897
1163,0.05644,0.5785,1.58704,0.1502,0.56767,0.11493,0.36403,0.29559,0.18068,0.11485,0.65509,0.52969,0.36288,0.49064,0.55994,0.07091,0.55473,0.96262,0.24818,0.50597,0.98429,-0.10142,0.55165,1.49839,0.24042,0.54926,1.53949,-0.24404,0.55143,1.22495,0.42611,0.65024,1.31247,-0.20911,0.79879,1.33621,0.3302,0.88483,1.39935
1164,0.06182,0.57962,1.58751,0.14631,0.56693,0.11466,0.35279,0.28396,0.17794,0.11571,0.65393,0.52988,0.35649,0.47764,0.55788,0.07034,0.55334,0.96261,0.24661,0.50064,0.98316,-0.09732,0.55721,1.49976,0.24543,0.54796,1.53898,-0.24275,0.56384,1.22788,0.42682,0.65711,1.31226,-0.19752,0.807,1.34454,0.32521,0.88572,1.4081
1165,0.06738,0.5804,1.58795,0.14286,0.56669,0.11456,0.34222,0.27296,0.17561,0.11659,0.65278,0.53027,0.3506,0.46547,0.55608,0.07009,0.55209,0.96286,0.24528,0.49544,0.98208,-0.09324,0.56253,1.5013,0.25039,0.54624,1.53793,-0.24049,0.57596,1.23066,0.42746,0.66317,1.31169,-0.18599,0.81457,1.35264,0.32162,0.88617,1.41584
1166,0.07303,0.58123,1.58835,0.13984,0.56667,0.11478,0.33198,0.26272,0.17378,0.11749,0.65182,0.53091,0.34523,0.45414,0.55465,0.07015,0.55106,0.96339,0.24412,0.49032,0.98119,-0.08949,0.56697,1.50308,0.25497,0.54379,1.53643,-0.23719,0.58837,1.2332,0.42845,0.66817,1.31137,-0.17446,0.82209,1.36057,0.31877,0.8853,1.42364
1167,0.07853,0.58227,1.58865,0.13711,0.56665,0.11519,0.32191,0.25318,0.17232,0.11807,0.65082,0.53168,0.33993,0.44368,0.55346,0.0702,0.54997,0.96408,0.24288,0.48525,0.98044,-0.08623,0.57043,1.50495,0.25899,0.54074,1.53497,-0.23332,0.6012,1.23564,0.42966,0.67188,1.3116,-0.16268,0.82962,1.36838,0.31601,0.88265,1.43174
1168,0.08385,0.58333,1.58875,0.1346,0.56664,0.11549,0.31211,0.24418,0.17082,0.11815,0.64949,0.53236,0.33417,0.43372,0.55223,0.07002,0.54851,0.9647,0.24147,0.48028,0.97966,-0.08304,0.57339,1.50674,0.26241,0.53736,1.53412,-0.22921,0.61424,1.23827,0.43034,0.67412,1.31205,-0.15015,0.83694,1.37589,0.3133,0.87873,1.43938
1169,0.08925,0.58409,1.58858,0.13241,0.56676,0.11558,0.30272,0.23567,0.16891,0.11802,0.64799,0.53284,0.32778,0.42366,0.5509,0.06971,0.54668,0.96509,0.23996,0.47528,0.97879,-0.07925,0.57638,1.50832,0.26537,0.53373,1.53402,-0.22466,0.62727,1.24117,0.43014,0.67498,1.3124,-0.13653,0.84393,1.38285,0.31102,0.87439,1.4459
1170,0.09489,0.58438,1.58835,0.13066,0.56696,0.11568,0.2939,0.22775,0.16656,0.11824,0.64688,0.53326,0.32091,0.41327,0.54962,0.06956,0.54473,0.96526,0.23847,0.47003,0.97793,-0.07448,0.57977,1.50968,0.26816,0.52993,1.53438,-0.21927,0.6402,1.24417,0.42957,0.67478,1.31261,-0.12207,0.85052,1.38944,0.30949,0.86995,1.4514
