PaulMeinheit/Bachelor_Muay_Thai/processed_Data/E1/roundhouse/sliced/JointPositions/sliced2.csv
Unnamed: 0_level_0,Neck_Joint_Position,Neck_Joint_Position,Neck_Joint_Position,L_ANKLE_POSITION,L_ANKLE_POSITION,L_ANKLE_POSITION,R_ANKLE_POSITION,R_ANKLE_POSITION,R_ANKLE_POSITION,L_KNEE_POSITION,L_KNEE_POSITION,L_KNEE_POSITION,R_KNEE_POSITION,R_KNEE_POSITION,R_KNEE_POSITION,L_HIP_POSITION,L_HIP_POSITION,L_HIP_POSITION,R_HIP_POSITION,R_HIP_POSITION,R_HIP_POSITION,L_SHOULDER_POSITION,L_SHOULDER_POSITION,L_SHOULDER_POSITION,R_SHOULDER_POSITION,R_SHOULDER_POSITION,R_SHOULDER_POSITION,L_ELBOW_POSITION,L_ELBOW_POSITION,L_ELBOW_POSITION,R_ELBOW_POSITION,R_ELBOW_POSITION,R_ELBOW_POSITION,L_WRIST_POSITION,L_WRIST_POSITION,L_WRIST_POSITION,R_WRIST_POSITION,R_WRIST_POSITION,R_WRIST_POSITION
ITEM,X,Y,Z,X,Y,Z,X,Y,Z,X,Y,Z,X,Y,Z,X,Y,Z,X,Y,Z,X,Y,Z,X,Y,Z,X,Y,Z,X,Y,Z,X,Y,Z,X,Y,Z
1171,0.10079,0.58437,1.58818,0.12926,0.56705,0.1161,0.28583,0.22046,0.16412,0.11898,0.6466,0.53381,0.31369,0.40294,0.54857,0.0697,0.54279,0.96535,0.23699,0.4644,0.9773,-0.06876,0.58381,1.51085,0.27111,0.52605,1.53469,-0.21283,0.65303,1.2471,0.42931,0.67395,1.31261,-0.10736,0.85652,1.39627,0.3087,0.8651,1.45645
1172,0.10695,0.58434,1.58797,0.12812,0.56705,0.11692,0.27839,0.2139,0.16189,0.11994,0.647,0.5346,0.30627,0.39318,0.54785,0.07002,0.54081,0.96549,0.23544,0.45851,0.97701,-0.06226,0.58863,1.512,0.27443,0.52194,1.53437,-0.20546,0.66578,1.24999,0.42948,0.67282,1.31208,-0.09274,0.86185,1.40373,0.30849,0.85938,1.46152
1173,0.11333,0.58434,1.58752,0.1274,0.56722,0.11788,0.27119,0.2081,0.1598,0.12082,0.64752,0.53552,0.29902,0.38402,0.54731,0.07034,0.53879,0.96571,0.23377,0.45253,0.97686,-0.05533,0.59393,1.51331,0.27814,0.51714,1.53311,-0.19745,0.67847,1.25299,0.42985,0.67146,1.31088,-0.07812,0.86675,1.4114,0.30878,0.85271,1.46665
1174,0.11979,0.58409,1.58683,0.12737,0.56765,0.1186,0.26384,0.20291,0.15755,0.12158,0.64769,0.53631,0.29228,0.37509,0.54669,0.07062,0.53677,0.96588,0.23197,0.44663,0.97647,-0.04854,0.5989,1.5148,0.28208,0.51146,1.53121,-0.18916,0.69115,1.25629,0.43016,0.66962,1.30922,-0.06323,0.87182,1.41842,0.30964,0.84549,1.47147
1175,0.12624,0.58344,1.58605,0.12794,0.56817,0.11885,0.25623,0.19807,0.15504,0.12227,0.64729,0.53673,0.28589,0.3662,0.54586,0.07077,0.53474,0.96581,0.23006,0.44093,0.9757,-0.04243,0.6027,1.51633,0.28609,0.50546,1.52935,-0.18081,0.70381,1.25994,0.43028,0.66708,1.30731,-0.0479,0.87729,1.42433,0.31099,0.83812,1.4755
1176,0.13267,0.58244,1.58525,0.12859,0.56847,0.11866,0.24869,0.19343,0.15245,0.12283,0.64637,0.53677,0.27939,0.35761,0.54486,0.07069,0.53264,0.96547,0.22805,0.43555,0.97469,-0.03713,0.60518,1.51768,0.28997,0.50005,1.52801,-0.17237,0.71611,1.26369,0.43028,0.66395,1.30515,-0.03222,0.8824,1.42949,0.31257,0.83085,1.47856
1177,0.13908,0.58119,1.58437,0.1289,0.56839,0.11828,0.24167,0.18907,0.14991,0.12328,0.64516,0.5366,0.27262,0.34961,0.5438,0.07042,0.53036,0.96492,0.22605,0.43048,0.97364,-0.03222,0.60696,1.51861,0.29358,0.49556,1.5272,-0.16353,0.7276,1.26699,0.43031,0.66051,1.30288,-0.01654,0.88598,1.43461,0.31424,0.82386,1.4807
1178,0.14551,0.57972,1.58341,0.12884,0.56801,0.11789,0.23541,0.18527,0.14736,0.1237,0.64382,0.53639,0.26589,0.34209,0.54278,0.07021,0.52787,0.96432,0.22429,0.42558,0.97262,-0.02705,0.60887,1.51889,0.29691,0.49142,1.52673,-0.15385,0.73816,1.26926,0.43053,0.65665,1.30076,-0.00142,0.88781,1.44002,0.31614,0.81721,1.48218
1179,0.15196,0.57812,1.58242,0.12876,0.56758,0.11747,0.22987,0.18218,0.14476,0.12402,0.64228,0.53618,0.25947,0.33466,0.54194,0.07025,0.52529,0.9638,0.22284,0.42076,0.97172,-0.02122,0.61126,1.51853,0.30012,0.48687,1.52639,-0.14328,0.74782,1.27042,0.4311,0.65206,1.29885,0.0127,0.88863,1.44542,0.31872,0.81064,1.48324
1180,0.15827,0.57655,1.58136,0.12902,0.5673,0.11695,0.22496,0.17968,0.14225,0.12404,0.64036,0.53594,0.25325,0.32719,0.54141,0.07045,0.52284,0.96343,0.22156,0.41614,0.971,-0.015,0.61381,1.51784,0.30346,0.48187,1.52591,-0.13235,0.75646,1.27088,0.43211,0.64672,1.29681,0.02569,0.88914,1.45033,0.32207,0.80382,1.48385
1181,0.16428,0.57515,1.58013,0.12971,0.56718,0.11631,0.22065,0.17759,0.14004,0.12373,0.6381,0.53566,0.24707,0.31998,0.54117,0.07057,0.52073,0.96325,0.22015,0.41189,0.97047,-0.00879,0.61611,1.51723,0.30681,0.47683,1.52489,-0.12177,0.76393,1.27128,0.43347,0.64117,1.29432,0.03784,0.88939,1.45449,0.32556,0.79677,1.48385
1182,0.16989,0.57379,1.57866,0.13056,0.56708,0.11576,0.21695,0.1758,0.13808,0.12323,0.63586,0.53544,0.241,0.31345,0.54101,0.07047,0.51895,0.9632,0.21846,0.40794,0.97,-0.00252,0.61806,1.51694,0.30987,0.47176,1.52309,-0.11183,0.77015,1.27193,0.43502,0.63584,1.29151,0.04974,0.88895,1.45785,0.32861,0.78973,1.48327
1183,0.17507,0.57222,1.57709,0.13125,0.56695,0.11539,0.21388,0.17428,0.13619,0.12268,0.634,0.53533,0.23537,0.30773,0.54067,0.07024,0.51713,0.96314,0.21664,0.40399,0.96945,0.00415,0.61966,1.51682,0.31256,0.46633,1.52075,-0.10226,0.77525,1.27274,0.43676,0.63064,1.28881,0.06191,0.8875,1.46044,0.33134,0.78288,1.48242
1184,0.17981,0.57039,1.57566,0.13153,0.56672,0.11506,0.21139,0.173,0.13422,0.12204,0.63248,0.53518,0.2306,0.30257,0.54008,0.07006,0.51489,0.96285,0.21484,0.39967,0.96878,0.0112,0.62075,1.51664,0.31495,0.46045,1.51834,-0.09236,0.77974,1.27352,0.43873,0.62513,1.28644,0.0748,0.88531,1.46246,0.33424,0.77615,1.48151
1185,0.18432,0.56845,1.57451,0.1312,0.56625,0.11445,0.20928,0.17189,0.13215,0.12125,0.63085,0.53474,0.22685,0.29767,0.53927,0.06986,0.51228,0.96222,0.21286,0.39486,0.96802,0.01819,0.62146,1.51638,0.31677,0.4543,1.5161,-0.08129,0.7844,1.27418,0.44088,0.61891,1.28433,0.08879,0.88316,1.46419,0.33744,0.76923,1.4805
1186,0.18893,0.56655,1.57347,0.13022,0.56548,0.11343,0.2073,0.17091,0.13008,0.12028,0.62878,0.53392,0.22399,0.29296,0.53837,0.06939,0.50959,0.96128,0.2103,0.38967,0.96724,0.0249,0.6224,1.51624,0.31758,0.44807,1.51389,-0.06891,0.78948,1.27459,0.44303,0.61173,1.28217,0.10357,0.88148,1.46583,0.34069,0.76182,1.47908
1187,0.19367,0.56455,1.57233,0.12885,0.5645,0.11224,0.20542,0.17002,0.12817,0.11928,0.62643,0.53294,0.2217,0.28868,0.53749,0.0686,0.50695,0.96024,0.20726,0.38444,0.96654,0.03145,0.62383,1.51626,0.31761,0.44188,1.51167,-0.05622,0.7941,1.27454,0.4451,0.60355,1.27967,0.11788,0.87988,1.46719,0.3439,0.75393,1.47695
1188,0.19821,0.56201,1.57119,0.12751,0.56346,0.11119,0.20382,0.16913,0.12654,0.11849,0.62406,0.53209,0.21982,0.28498,0.53667,0.06776,0.50433,0.95932,0.20432,0.37952,0.96595,0.03784,0.62508,1.51628,0.31774,0.43582,1.5096,-0.04469,0.79689,1.27384,0.44708,0.59483,1.27677,0.1303,0.8776,1.46787,0.34724,0.74594,1.4742
1189,0.20216,0.55851,1.57041,0.12638,0.56251,0.11034,0.20267,0.16809,0.12511,0.11811,0.62164,0.53147,0.21827,0.28172,0.53588,0.06717,0.50178,0.95864,0.20201,0.37511,0.96539,0.04385,0.62538,1.51611,0.31859,0.42988,1.5078,-0.03472,0.79729,1.27243,0.44896,0.58625,1.27376,0.1405,0.87423,1.46778,0.35076,0.73843,1.47119
1190,0.20551,0.55422,1.57007,0.12534,0.56168,0.10964,0.20186,0.16686,0.12378,0.11812,0.61897,0.53105,0.21698,0.27875,0.53504,0.06694,0.4993,0.95824,0.20047,0.37124,0.96473,0.0494,0.62465,1.51571,0.32001,0.42388,1.5062,-0.02536,0.79611,1.27052,0.45074,0.57819,1.271,0.14949,0.86998,1.46738,0.3543,0.73156,1.46837
1191,0.20854,0.54976,1.56982,0.12428,0.56099,0.10908,0.20114,0.16558,0.12248,0.11829,0.61606,0.5308,0.21592,0.27612,0.53412,0.06702,0.49684,0.95811,0.19956,0.36772,0.96401,0.05464,0.62333,1.51503,0.3215,0.41776,1.5047,-0.01548,0.79468,1.26839,0.45252,0.57055,1.26867,0.15835,0.86551,1.46726,0.35773,0.72503,1.46598
1192,0.21155,0.5456,1.56928,0.12338,0.56044,0.1086,0.20029,0.16452,0.12123,0.11845,0.6131,0.53064,0.21518,0.27396,0.53315,0.06741,0.49431,0.9581,0.19904,0.36424,0.96333,0.0596,0.62175,1.51412,0.32283,0.41161,1.5033,-0.00483,0.79352,1.26622,0.45438,0.56308,1.26672,0.1674,0.86129,1.46754,0.36118,0.71857,1.46399
1193,0.21478,0.54178,1.56835,0.12297,0.55991,0.10806,0.19947,0.16375,0.12,0.11872,0.61016,0.5304,0.2149,0.27215,0.53218,0.06813,0.49181,0.95803,0.19871,0.36067,0.96272,0.06414,0.61997,1.51325,0.32409,0.40555,1.50206,0.006,0.79219,1.26411,0.45629,0.55568,1.26499,0.17634,0.85733,1.46789,0.36482,0.71226,1.4622
1194,0.21828,0.53799,1.56718,0.12323,0.55923,0.10738,0.19898,0.1631,0.11883,0.11942,0.60721,0.52999,0.21499,0.27039,0.53128,0.06912,0.48958,0.95785,0.19852,0.35726,0.96215,0.06811,0.61791,1.51274,0.32549,0.39974,1.50111,0.01626,0.78999,1.26213,0.45814,0.54832,1.26332,0.18486,0.8532,1.46795,0.36862,0.70618,1.46042
1195,0.2219,0.534,1.566,0.12399,0.55845,0.10665,0.19887,0.16236,0.1178,0.12063,0.60425,0.52951,0.21518,0.26857,0.53052,0.07028,0.48774,0.95767,0.19862,0.35437,0.9616,0.07154,0.6156,1.51251,0.327,0.39423,1.50064,0.0255,0.78675,1.26014,0.45986,0.54087,1.26177,0.19266,0.84844,1.46759,0.37237,0.7001,1.45867
1196,0.22529,0.52984,1.5649,0.12487,0.55781,0.10597,0.19877,0.16147,0.11692,0.12205,0.60141,0.52906,0.21529,0.2668,0.52986,0.07149,0.48615,0.95754,0.199,0.35198,0.96107,0.07476,0.61328,1.51215,0.32842,0.38882,1.50073,0.03373,0.78284,1.25784,0.4614,0.53309,1.26048,0.19955,0.84294,1.46683,0.37596,0.69368,1.45717
1197,0.22817,0.52573,1.56393,0.1255,0.55736,0.10525,0.19838,0.16056,0.11609,0.12326,0.59872,0.52858,0.2154,0.26516,0.52919,0.0727,0.48463,0.95736,0.19941,0.3497,0.96054,0.07821,0.61113,1.51142,0.32948,0.38319,1.50092,0.04115,0.77862,1.25513,0.46266,0.52511,1.25938,0.20565,0.837,1.46564,0.37934,0.68679,1.45609
1198,0.23049,0.52176,1.56314,0.12578,0.55687,0.1044,0.19776,0.15987,0.11518,0.12404,0.5961,0.52793,0.21565,0.26363,0.52845,0.07395,0.48303,0.95704,0.19968,0.34718,0.96,0.08202,0.60898,1.51054,0.33003,0.37739,1.50051,0.04799,0.77408,1.25229,0.46368,0.51739,1.25812,0.21129,0.83115,1.4641,0.38248,0.67953,1.45533
1199,0.23251,0.51776,1.56265,0.12606,0.55624,0.1035,0.19715,0.15946,0.11419,0.12446,0.59349,0.52721,0.21605,0.26217,0.52768,0.07531,0.48127,0.95665,0.19994,0.34441,0.95947,0.08586,0.60644,1.50977,0.33011,0.37183,1.4993,0.05454,0.76915,1.24967,0.46462,0.5102,1.25645,0.21668,0.82566,1.46251,0.38543,0.67207,1.4547
1200,0.2346,0.5135,1.56243,0.1269,0.55566,0.10279,0.19666,0.15916,0.11315,0.12478,0.59097,0.52666,0.21648,0.26065,0.5269,0.07683,0.47936,0.9564,0.20051,0.34164,0.95893,0.08924,0.60324,1.50919,0.33006,0.36681,1.49784,0.06098,0.76391,1.24747,0.46571,0.50336,1.25459,0.2219,0.82025,1.46128,0.38839,0.66469,1.45402
1201,0.2369,0.50888,1.56228,0.12836,0.55531,0.10242,0.19635,0.15875,0.11205,0.12533,0.58867,0.52644,0.21681,0.25897,0.52608,0.0786,0.47743,0.95641,0.20164,0.33912,0.95829,0.09188,0.59946,1.50876,0.33044,0.36219,1.49687,0.06717,0.75847,1.24567,0.46699,0.4966,1.25294,0.22688,0.81435,1.46051,0.39152,0.65771,1.45325
1202,0.23925,0.50401,1.56203,0.12981,0.55513,0.10228,0.19624,0.15813,0.1109,0.12614,0.58657,0.52645,0.217,0.25715,0.5252,0.08062,0.47553,0.9566,0.20322,0.33682,0.95756,0.09376,0.59544,1.50855,0.33149,0.35755,1.49669,0.07269,0.75279,1.24415,0.46831,0.48973,1.25169,0.2315,0.8078,1.45987,0.39471,0.65106,1.45252
1203,0.24145,0.49902,1.56173,0.13061,0.55494,0.10213,0.19621,0.15735,0.1098,0.12699,0.58454,0.52643,0.21713,0.25534,0.52433,0.0827,0.47349,0.95671,0.20487,0.33439,0.95685,0.09516,0.59134,1.50852,0.33295,0.35245,1.49701,0.0774,0.74679,1.24276,0.46945,0.48268,1.25078,0.23576,0.80109,1.459,0.39761,0.64434,1.45199
1204,0.24336,0.49396,1.56148,0.13071,0.55458,0.1018,0.19611,0.15643,0.10877,0.12757,0.58252,0.52621,0.21722,0.25355,0.5235,0.08466,0.47109,0.95653,0.20638,0.3316,0.95623,0.09649,0.58698,1.50847,0.33439,0.34681,1.49738,0.08163,0.74044,1.24138,0.47031,0.47554,1.25004,0.23971,0.79475,1.45782,0.39996,0.6373,1.4517
1205,0.24489,0.48884,1.56125,0.13044,0.55401,0.10131,0.19586,0.15543,0.10775,0.12788,0.58063,0.52581,0.21723,0.25168,0.52267,0.08646,0.46829,0.95604,0.20786,0.32853,0.95565,0.09809,0.58231,1.50824,0.33555,0.34096,1.49761,0.08578,0.73383,1.23991,0.47106,0.46855,1.24946,0.24345,0.78888,1.45646,0.40161,0.63015,1.45154
1206,0.24602,0.48379,1.561,0.13005,0.55336,0.10081,0.19555,0.15446,0.10666,0.1281,0.57888,0.52539,0.21723,0.24963,0.52182,0.0882,0.46528,0.95543,0.20949,0.32542,0.95502,0.10007,0.57756,1.5079,0.33632,0.33537,1.4978,0.08983,0.72712,1.23839,0.47195,0.46178,1.24912,0.24699,0.7832,1.45504,0.40252,0.62319,1.45136
1207,0.24685,0.47892,1.56074,0.12971,0.55278,0.10044,0.19523,0.15356,0.10552,0.12846,0.57716,0.52508,0.21737,0.24745,0.52094,0.09006,0.46238,0.95495,0.2112,0.32239,0.95431,0.10226,0.573,1.50763,0.33681,0.33019,1.498,0.09338,0.72044,1.23691,0.47295,0.45515,1.24886,0.25017,0.77746,1.45359,0.40317,0.61649,1.45105
1208,0.24766,0.47421,1.56051,0.1296,0.55235,0.10015,0.19488,0.15262,0.10442,0.12897,0.57539,0.52487,0.21777,0.24522,0.52009,0.09212,0.45978,0.95465,0.21282,0.31942,0.9536,0.10432,0.56859,1.5074,0.33724,0.32515,1.49795,0.0961,0.7138,1.23546,0.47381,0.44856,1.24828,0.25263,0.77165,1.4521,0.40452,0.61001,1.45053
1209,0.24881,0.4695,1.56039,0.12973,0.55208,0.09976,0.19444,0.15143,0.10341,0.12951,0.57369,0.52456,0.21852,0.24304,0.51923,0.09423,0.4573,0.95426,0.21426,0.31636,0.9529,0.10601,0.56414,1.50697,0.33783,0.31997,1.4974,0.09823,0.70727,1.23391,0.47446,0.44198,1.24708,0.25442,0.76601,1.45057,0.40705,0.60371,1.44974
1210,0.25046,0.46471,1.56041,0.12987,0.55201,0.09918,0.19401,0.14998,0.1025,0.12991,0.57225,0.52404,0.21952,0.24096,0.51838,0.09609,0.45463,0.95352,0.21557,0.31324,0.95223,0.10731,0.55959,1.50614,0.33866,0.31474,1.49642,0.10046,0.70095,1.23214,0.47508,0.43556,1.2454,0.25619,0.7606,1.44887,0.41014,0.59761,1.44863
1211,0.25242,0.45985,1.5605,0.1298,0.552,0.09853,0.19372,0.14842,0.10168,0.1302,0.57103,0.52345,0.22055,0.23889,0.51758,0.09762,0.45168,0.95254,0.21697,0.31016,0.9516,0.10834,0.55503,1.50495,0.33974,0.30975,1.49538,0.10305,0.69484,1.23012,0.47577,0.42957,1.24366,0.25852,0.7552,1.44685,0.41275,0.59183,1.44732
1212,0.25426,0.45503,1.56052,0.12953,0.55181,0.09804,0.19366,0.14691,0.10089,0.13056,0.56977,0.523,0.2214,0.23666,0.5169,0.09904,0.4485,0.95165,0.21866,0.30721,0.95104,0.10918,0.55051,1.50367,0.34106,0.30501,1.49456,0.10563,0.68884,1.22806,0.4765,0.42424,1.24226,0.26118,0.74977,1.44457,0.41432,0.58652,1.44615
1213,0.25578,0.45029,1.56036,0.12913,0.55137,0.09781,0.19371,0.14558,0.10011,0.13107,0.56829,0.52281,0.22216,0.23429,0.51629,0.10066,0.44528,0.95104,0.22073,0.30438,0.95052,0.10997,0.54595,1.50254,0.34248,0.30035,1.49403,0.10753,0.68285,1.22621,0.47726,0.41946,1.24132,0.26324,0.7446,1.44237,0.41517,0.58162,1.44534
1214,0.25713,0.44552,1.56,0.12884,0.5509,0.09775,0.19372,0.14448,0.09935,0.13173,0.56668,0.52279,0.22294,0.23199,0.51572,0.10262,0.44214,0.95066,0.22308,0.30156,0.95003,0.11094,0.54128,1.50174,0.3439,0.29572,1.49376,0.10821,0.67661,1.22463,0.47807,0.41484,1.24072,0.2637,0.73981,1.44053,0.41603,0.57689,1.44485
1215,0.25836,0.44056,1.55949,0.12898,0.5506,0.0978,0.19357,0.14349,0.09862,0.13262,0.56515,0.52288,0.22366,0.22989,0.51517,0.10499,0.43918,0.95043,0.22558,0.29872,0.94959,0.11213,0.53651,1.50135,0.34526,0.29129,1.49381,0.10751,0.66974,1.22326,0.47893,0.40998,1.24031,0.26241,0.73496,1.43898,0.4173,0.57209,1.44451
1216,0.25928,0.43537,1.55901,0.12966,0.55045,0.09794,0.1933,0.1425,0.09792,0.13386,0.56377,0.52306,0.22421,0.22786,0.51462,0.10763,0.43639,0.95028,0.22814,0.29586,0.94917,0.11329,0.53149,1.50135,0.34653,0.28725,1.49418,0.10576,0.66213,1.22209,0.47978,0.40491,1.23998,0.26033,0.72952,1.43738,0.41884,0.56719,1.44425
1217,0.25982,0.43004,1.55869,0.13059,0.55033,0.09819,0.19304,0.14159,0.09722,0.13531,0.5626,0.52333,0.22464,0.22573,0.51412,0.11019,0.43352,0.95011,0.23069,0.29298,0.94876,0.11405,0.52609,1.50145,0.34788,0.28347,1.49461,0.10361,0.65418,1.22111,0.4805,0.40013,1.23962,0.25864,0.72342,1.43548,0.4201,0.5624,1.44406
1218,0.26028,0.42466,1.55847,0.1314,0.55027,0.09848,0.19287,0.14092,0.09655,0.13663,0.56157,0.52364,0.22513,0.22343,0.51372,0.11234,0.43026,0.94978,0.23314,0.28999,0.94843,0.11432,0.52041,1.50137,0.34946,0.27953,1.49482,0.10164,0.64645,1.22019,0.48104,0.39593,1.23917,0.25797,0.71688,1.43323,0.4207,0.55791,1.44386
1219,0.26101,0.41922,1.55824,0.13196,0.55023,0.09866,0.19273,0.14045,0.09595,0.13765,0.56045,0.52384,0.22583,0.221,0.51344,0.11404,0.42656,0.94922,0.2355,0.28685,0.94822,0.11433,0.51466,1.50106,0.35111,0.27519,1.49474,0.10011,0.63922,1.21929,0.48161,0.39198,1.23872,0.25811,0.71048,1.43082,0.42081,0.55357,1.44358
1220,0.26212,0.41374,1.55796,0.13239,0.55009,0.09864,0.19254,0.13993,0.09543,0.13844,0.55907,0.52385,0.22675,0.2185,0.51321,0.11563,0.42264,0.94846,0.2379,0.28364,0.94806,0.11436,0.50889,1.50058,0.35235,0.27065,1.49446,0.09895,0.63254,1.21848,0.48247,0.38774,1.23838,0.25844,0.70482,1.42853,0.42094,0.54906,1.44324
1221,0.26346,0.40845,1.55765,0.13279,0.54972,0.09842,0.1923,0.13926,0.09483,0.13911,0.5575,0.52365,0.22776,0.21603,0.51284,0.11736,0.41885,0.9476,0.24038,0.2805,0.94775,0.11455,0.50305,1.49992,0.35302,0.26616,1.49407,0.09785,0.62625,1.2177,0.48364,0.38303,1.23815,0.25835,0.69998,1.42647,0.42141,0.5443,1.44283
1222,0.26482,0.40356,1.55726,0.13313,0.54914,0.0981,0.19208,0.13846,0.09397,0.13976,0.55592,0.52334,0.22868,0.21359,0.51218,0.11924,0.41535,0.94672,0.24287,0.27756,0.94712,0.11492,0.49715,1.49902,0.35348,0.26172,1.49361,0.09659,0.6201,1.21679,0.48491,0.37808,1.23787,0.25752,0.69552,1.42463,0.42219,0.53942,1.44235
1223,0.26604,0.39902,1.55671,0.13343,0.54851,0.09778,0.19188,0.13758,0.09285,0.14045,0.55442,0.52302,0.22942,0.21118,0.51124,0.1211,0.4121,0.94588,0.24528,0.2748,0.94618,0.11546,0.49133,1.498,0.3543,0.25736,1.49301,0.09528,0.61399,1.21577,0.48611,0.37344,1.23734,0.25617,0.69112,1.42302,0.42306,0.53458,1.44187
1224,0.26706,0.39464,1.55606,0.13378,0.54812,0.09749,0.19161,0.13666,0.0917,0.14119,0.55291,0.52274,0.23003,0.20885,0.51026,0.12283,0.40893,0.94508,0.2476,0.27217,0.94517,0.11618,0.48579,1.49711,0.35568,0.25323,1.49217,0.09421,0.6081,1.21486,0.48712,0.36959,1.23643,0.25498,0.68678,1.42161,0.42372,0.52978,1.44161
1225,0.268,0.39027,1.55556,0.1342,0.54816,0.09725,0.19125,0.13586,0.09075,0.14194,0.55135,0.52252,0.23056,0.20675,0.50945,0.12442,0.40571,0.94432,0.24986,0.26956,0.94436,0.11692,0.48064,1.49644,0.35729,0.24947,1.49106,0.0934,0.60258,1.21416,0.48779,0.36654,1.23517,0.25436,0.68264,1.42023,0.42402,0.52495,1.44161
1226,0.26906,0.38577,1.55532,0.13462,0.54852,0.09706,0.19089,0.13536,0.08998,0.14264,0.54977,0.52233,0.23095,0.20487,0.50884,0.12599,0.4024,0.94356,0.25212,0.26689,0.94378,0.1175,0.4759,1.49593,0.35875,0.246,1.4898,0.09256,0.59725,1.21351,0.4882,0.36388,1.23375,0.25395,0.67871,1.41871,0.42409,0.5202,1.44167
1227,0.27021,0.38119,1.55512,0.13491,0.54893,0.0969,0.19061,0.13516,0.08922,0.14329,0.54816,0.52217,0.23118,0.203,0.50831,0.12759,0.39897,0.94279,0.25447,0.26415,0.94326,0.11786,0.47155,1.49547,0.36015,0.24259,1.48858,0.09156,0.59179,1.2127,0.4886,0.36131,1.23241,0.25306,0.67492,1.41713,0.4241,0.51583,1.44156
1228,0.27113,0.37681,1.55462,0.13505,0.5491,0.09673,0.19037,0.13511,0.08834,0.14392,0.54642,0.52198,0.23137,0.20092,0.50771,0.1292,0.39548,0.94202,0.25687,0.26142,0.94263,0.11798,0.46745,1.495,0.36195,0.23899,1.48759,0.09043,0.58613,1.21169,0.48906,0.35872,1.23122,0.25141,0.67114,1.41576,0.42401,0.51182,1.44123
1229,0.27172,0.37286,1.55383,0.13517,0.54892,0.09653,0.19013,0.13512,0.0874,0.14456,0.54452,0.52175,0.23171,0.19866,0.50706,0.13083,0.39202,0.94126,0.25926,0.2587,0.94192,0.11803,0.4633,1.49451,0.36424,0.23516,1.48686,0.0892,0.58037,1.21066,0.48948,0.35607,1.23012,0.24918,0.66727,1.41472,0.42371,0.50786,1.44086
1230,0.2722,0.36932,1.55299,0.13546,0.54849,0.09639,0.18989,0.13518,0.08658,0.14527,0.54258,0.52158,0.23223,0.19645,0.5065,0.13249,0.38866,0.9406,0.26156,0.25594,0.94132,0.11827,0.45887,1.494,0.36649,0.23127,1.48625,0.08787,0.57463,1.20978,0.48987,0.3534,1.22919,0.24675,0.66343,1.41388,0.42318,0.50384,1.4406
1231,0.27284,0.36585,1.55231,0.13608,0.54819,0.09637,0.18968,0.13516,0.08592,0.14603,0.54088,0.52153,0.23286,0.19442,0.50605,0.13418,0.38543,0.94001,0.26361,0.25306,0.94088,0.11885,0.45422,1.49354,0.36804,0.2275,1.48561,0.08643,0.56904,1.20916,0.49026,0.35074,1.22853,0.24433,0.65972,1.4132,0.42252,0.49989,1.44052
1232,0.27372,0.36214,1.55178,0.13698,0.54831,0.09642,0.18951,0.13482,0.08537,0.14677,0.53957,0.52156,0.23344,0.1925,0.50564,0.13578,0.38232,0.93939,0.26533,0.25007,0.94053,0.11962,0.44957,1.4932,0.36877,0.22391,1.48497,0.08493,0.56371,1.20881,0.49058,0.34804,1.22812,0.24182,0.65614,1.41284,0.42189,0.49601,1.44065
1233,0.2747,0.35817,1.55135,0.1379,0.54881,0.09645,0.18938,0.13418,0.08483,0.14748,0.53848,0.52156,0.23388,0.1906,0.50521,0.13715,0.37936,0.9387,0.26674,0.24716,0.94016,0.12035,0.44499,1.49297,0.36913,0.22057,1.48449,0.08344,0.55857,1.20864,0.49073,0.34529,1.22782,0.23907,0.65257,1.41291,0.42134,0.49205,1.44095
1234,0.27551,0.3542,1.55106,0.13852,0.54935,0.09645,0.18936,0.13355,0.08429,0.14814,0.53725,0.52152,0.2342,0.18873,0.5048,0.13835,0.37662,0.93809,0.26804,0.24453,0.93978,0.12093,0.44043,1.4928,0.36976,0.21745,1.48424,0.08207,0.55342,1.20849,0.49069,0.34261,1.22747,0.23617,0.64889,1.41324,0.42077,0.48806,1.44132
1235,0.27602,0.35046,1.55094,0.13866,0.54964,0.09645,0.18946,0.13319,0.08378,0.14878,0.53569,0.52145,0.23456,0.18699,0.50444,0.13956,0.37412,0.93767,0.26935,0.24212,0.93943,0.12126,0.43592,1.49268,0.37102,0.21438,1.48414,0.08089,0.54826,1.20832,0.49052,0.3402,1.22703,0.23354,0.64519,1.41347,0.42011,0.48426,1.44166
1236,0.27636,0.34693,1.55095,0.1384,0.5496,0.09645,0.18968,0.13302,0.08333,0.1495,0.53392,0.52136,0.23507,0.18538,0.50414,0.14094,0.37168,0.93734,0.27077,0.23973,0.93915,0.12128,0.43149,1.49263,0.37285,0.21125,1.48408,0.07987,0.54332,1.20822,0.4903,0.33815,1.22655,0.23156,0.64174,1.41338,0.41931,0.4807,1.44199
1237,0.27678,0.34345,1.55092,0.13806,0.54928,0.09647,0.18989,0.13284,0.08299,0.1503,0.53206,0.52129,0.23568,0.18388,0.50392,0.14238,0.36911,0.937,0.27233,0.23727,0.93897,0.12107,0.42697,1.49262,0.37486,0.20822,1.48404,0.07896,0.53871,1.20828,0.49011,0.33652,1.2262,0.23007,0.63875,1.41308,0.41836,0.47735,1.44253
1238,0.27737,0.33995,1.55069,0.13791,0.54891,0.09658,0.19003,0.13257,0.08281,0.15094,0.53006,0.5213,0.23626,0.18245,0.50383,0.14368,0.36628,0.9367,0.27403,0.23484,0.93891,0.12093,0.42217,1.49258,0.37659,0.20541,1.48397,0.07816,0.53424,1.20847,0.49006,0.33531,1.22616,0.22855,0.63607,1.41292,0.41736,0.47423,1.4434
1239,0.27806,0.33647,1.55023,0.13796,0.5487,0.09682,0.1901,0.13228,0.08279,0.1512,0.52786,0.52145,0.23672,0.18107,0.5039,0.14473,0.3632,0.93651,0.27585,0.23253,0.93897,0.12101,0.41713,1.49245,0.37793,0.20259,1.48386,0.0774,0.52971,1.20867,0.49012,0.33428,1.2264,0.22667,0.63329,1.41306,0.41647,0.47141,1.44445
1240,0.27875,0.33308,1.54972,0.13798,0.54865,0.09713,0.19013,0.13202,0.08281,0.1512,0.52565,0.52165,0.23703,0.1797,0.50401,0.1456,0.36004,0.93634,0.27765,0.23031,0.93904,0.1211,0.41201,1.49229,0.37922,0.19957,1.48378,0.07645,0.52493,1.2088,0.49011,0.33307,1.22668,0.22454,0.63005,1.41326,0.41579,0.46884,1.44536
1241,0.27935,0.32971,1.54946,0.13786,0.54857,0.09736,0.19012,0.13177,0.0827,0.15132,0.52376,0.52177,0.23722,0.1783,0.50401,0.14645,0.35709,0.93605,0.27928,0.22817,0.93899,0.12084,0.40698,1.4922,0.38071,0.19649,1.48381,0.07513,0.51975,1.20882,0.48999,0.33154,1.22684,0.22235,0.62626,1.41319,0.41526,0.46636,1.44596
1242,0.27981,0.32623,1.54959,0.13767,0.54847,0.09749,0.19007,0.13144,0.08245,0.15173,0.52224,0.52179,0.23746,0.17685,0.50384,0.14741,0.35453,0.93565,0.28079,0.22618,0.93876,0.12021,0.40219,1.49223,0.38234,0.19372,1.48398,0.07353,0.51425,1.20873,0.49001,0.32983,1.22688,0.21995,0.6222,1.41291,0.41473,0.46385,1.44631
1243,0.28027,0.32256,1.55005,0.13766,0.54851,0.09762,0.19005,0.13102,0.08221,0.15221,0.52074,0.52181,0.23795,0.1754,0.50365,0.14838,0.35217,0.93533,0.28236,0.22446,0.93849,0.11961,0.3979,1.4923,0.38399,0.19131,1.48426,0.07205,0.50898,1.20856,0.49021,0.32814,1.22694,0.21726,0.61843,1.41281,0.41412,0.46123,1.44665
1244,0.28087,0.31889,1.55052,0.13794,0.54874,0.09786,0.1901,0.13054,0.08217,0.15247,0.51886,0.5219,0.23865,0.17387,0.50365,0.14916,0.34975,0.93521,0.28396,0.2229,0.93841,0.11942,0.39443,1.49237,0.38551,0.18896,1.48463,0.07106,0.50462,1.20841,0.49027,0.32657,1.22713,0.21472,0.61537,1.41307,0.41348,0.45842,1.44734
1245,0.28155,0.31565,1.5507,0.13835,0.549,0.09817,0.19024,0.13009,0.08231,0.15241,0.51654,0.52204,0.23928,0.1722,0.50386,0.14972,0.34727,0.93528,0.2852,0.22115,0.93856,0.11966,0.39178,1.49238,0.38658,0.18631,1.48497,0.0706,0.50136,1.20832,0.48989,0.32505,1.22749,0.21293,0.61284,1.4135,0.41288,0.45538,1.44853
1246,0.28219,0.31309,1.55046,0.1386,0.5491,0.09845,0.19044,0.12972,0.08239,0.15215,0.51411,0.52214,0.23959,0.17048,0.50406,0.15019,0.34495,0.93543,0.28589,0.21907,0.93876,0.11999,0.38934,1.49226,0.38706,0.18337,1.48522,0.0704,0.49876,1.20822,0.48927,0.32346,1.22803,0.212,0.61028,1.41388,0.41228,0.45223,1.44999
1247,0.28283,0.31089,1.54996,0.13849,0.54898,0.09865,0.19069,0.12943,0.08227,0.15188,0.51198,0.52217,0.2397,0.16887,0.50408,0.15062,0.3428,0.93547,0.28637,0.21698,0.93879,0.11995,0.38634,1.49203,0.38734,0.18048,1.48548,0.07006,0.4961,1.20818,0.48882,0.32183,1.22869,0.21124,0.60752,1.41418,0.41157,0.44925,1.45134
1248,0.28353,0.30854,1.5495,0.13812,0.54869,0.09882,0.19094,0.12921,0.082,0.15178,0.51027,0.5222,0.23992,0.16757,0.50391,0.15098,0.34064,0.93531,0.28713,0.21524,0.93861,0.11942,0.38248,1.49184,0.38808,0.17788,1.48601,0.06931,0.49287,1.20827,0.48853,0.32036,1.22943,0.20971,0.60485,1.41451,0.41062,0.44667,1.45249
1249,0.2841,0.30573,1.54932,0.13783,0.5484,0.09902,0.19107,0.12902,0.08168,0.15191,0.50885,0.52229,0.24042,0.16656,0.50362,0.15133,0.33833,0.93503,0.28837,0.2139,0.93828,0.11866,0.37815,1.49169,0.38962,0.17551,1.48698,0.06835,0.48914,1.20839,0.48807,0.31916,1.23029,0.20719,0.60252,1.41491,0.40932,0.44443,1.45364
1250,0.28432,0.30252,1.54947,0.13789,0.54821,0.09932,0.19101,0.12884,0.08134,0.15211,0.50753,0.52248,0.24114,0.16566,0.50326,0.15183,0.33587,0.93475,0.28993,0.21262,0.93786,0.11799,0.37401,1.49143,0.39169,0.17316,1.4883,0.06775,0.48557,1.20835,0.48731,0.31816,1.2313,0.20457,0.60035,1.41544,0.40772,0.4423,1.45497
1251,0.28435,0.29933,1.54966,0.13808,0.54812,0.09966,0.19079,0.12865,0.08107,0.15208,0.50609,0.52269,0.24182,0.1646,0.50295,0.1525,0.33342,0.93454,0.29133,0.21099,0.93754,0.11764,0.3705,1.49113,0.3935,0.17066,1.48948,0.0677,0.48281,1.20828,0.4866,0.3171,1.23237,0.20289,0.5981,1.41617,0.40601,0.44007,1.45634
1252,0.28453,0.29662,1.54952,0.138,0.548,0.09991,0.19051,0.12847,0.08095,0.15166,0.5044,0.5228,0.24221,0.16332,0.50284,0.15325,0.33121,0.93442,0.29216,0.20886,0.93746,0.11764,0.36751,1.49096,0.39432,0.16795,1.48994,0.06771,0.4808,1.2085,0.48647,0.3159,1.23334,0.20212,0.59575,1.41708,0.40435,0.43767,1.45741
1253,0.28489,0.29434,1.54909,0.13766,0.54783,0.10007,0.1903,0.12834,0.08092,0.15104,0.50253,0.52279,0.24232,0.16198,0.50287,0.15391,0.32924,0.93436,0.29251,0.20656,0.93757,0.11767,0.3645,1.49094,0.39428,0.16516,1.48952,0.06716,0.47885,1.20902,0.48705,0.31467,1.23406,0.20136,0.59334,1.41798,0.40296,0.43521,1.45806
1254,0.28517,0.29209,1.54877,0.13739,0.54767,0.10024,0.19022,0.12824,0.08087,0.15055,0.50063,0.52277,0.24234,0.16075,0.5029,0.15437,0.32731,0.93433,0.29281,0.20445,0.93765,0.11734,0.36117,1.49102,0.39407,0.16259,1.48868,0.06605,0.47628,1.20955,0.48791,0.31353,1.23445,0.20007,0.59085,1.41859,0.40209,0.43286,1.45844
1255,0.28522,0.28986,1.54877,0.13727,0.54754,0.10051,0.19024,0.12809,0.08078,0.15038,0.49881,0.52285,0.24238,0.15958,0.50288,0.15463,0.3253,0.93433,0.29319,0.20257,0.93766,0.11674,0.35789,1.49129,0.39392,0.1604,1.48801,0.06493,0.47303,1.20992,0.48846,0.3123,1.23462,0.19855,0.58832,1.41882,0.40157,0.43066,1.45872
1256,0.28519,0.28786,1.54882,0.13707,0.54744,0.10093,0.19022,0.12785,0.08075,0.15043,0.49716,0.52308,0.24243,0.15843,0.50291,0.15478,0.32327,0.93439,0.2935,0.20072,0.93773,0.11636,0.35516,1.49178,0.39362,0.15836,1.48775,0.06423,0.46959,1.21018,0.48839,0.31086,1.23481,0.19734,0.5859,1.41884,0.4009,0.4285,1.45905
1257,0.28534,0.28597,1.54869,0.13666,0.54734,0.10143,0.19002,0.12761,0.0808,0.15045,0.49571,0.5234,0.24253,0.1573,0.50299,0.15493,0.3213,0.93449,0.29378,0.1989,0.93785,0.11639,0.35287,1.49227,0.39331,0.15613,1.48782,0.06386,0.46638,1.21038,0.48791,0.3093,1.23522,0.19646,0.58368,1.41881,0.39987,0.42624,1.45961
1258,0.28571,0.28388,1.54841,0.13619,0.54726,0.10186,0.18966,0.12752,0.08084,0.15021,0.49437,0.52367,0.24278,0.15624,0.50302,0.15518,0.31943,0.93453,0.29418,0.1972,0.93793,0.11667,0.35058,1.4925,0.39337,0.15368,1.48806,0.06334,0.46349,1.21051,0.48744,0.30785,1.23588,0.19549,0.58163,1.41875,0.39872,0.42401,1.46041
1259,0.28601,0.28161,1.54807,0.13578,0.54722,0.10216,0.18933,0.12753,0.08083,0.1497,0.49301,0.5238,0.24319,0.15532,0.50297,0.1556,0.31771,0.93449,0.29469,0.19559,0.93794,0.11697,0.34819,1.49237,0.39375,0.15116,1.48837,0.06247,0.46089,1.21052,0.48716,0.30656,1.23669,0.19413,0.57966,1.41871,0.39777,0.42206,1.46129
1260,0.28588,0.27936,1.54775,0.13539,0.54727,0.10242,0.18916,0.12749,0.08075,0.14915,0.49162,0.52388,0.24363,0.1546,0.50287,0.15616,0.31621,0.93451,0.29522,0.19405,0.93789,0.11713,0.3459,1.49204,0.39413,0.14873,1.48864,0.06147,0.45853,1.21039,0.48698,0.3054,1.23754,0.19251,0.57766,1.41877,0.39698,0.42041,1.46214
1261,0.2852,0.27714,1.54745,0.13506,0.5474,0.10281,0.18903,0.12735,0.08061,0.14885,0.49033,0.52408,0.24397,0.15406,0.50269,0.15669,0.31478,0.93463,0.29587,0.19275,0.93774,0.11704,0.34369,1.4917,0.39444,0.14654,1.48886,0.06061,0.45627,1.21019,0.48676,0.30439,1.2383,0.19089,0.57558,1.41894,0.39626,0.41872,1.46306
1262,0.28432,0.27482,1.54719,0.13492,0.54757,0.10338,0.18881,0.12724,0.08038,0.14886,0.48926,0.52448,0.24422,0.15357,0.50242,0.15696,0.31317,0.93479,0.2967,0.19177,0.93745,0.11664,0.34134,1.49143,0.39488,0.14467,1.48906,0.05991,0.45401,1.21001,0.48658,0.30348,1.23889,0.18938,0.57345,1.41919,0.39568,0.41662,1.46409
1263,0.28371,0.27242,1.54704,0.13497,0.54776,0.10403,0.18857,0.1272,0.08016,0.14894,0.48843,0.52499,0.24451,0.15297,0.50216,0.15692,0.31132,0.93487,0.29757,0.19097,0.93714,0.11603,0.33879,1.49127,0.39544,0.14295,1.48929,0.05932,0.45174,1.20996,0.48657,0.30239,1.2393,0.18804,0.57134,1.41951,0.39527,0.41416,1.46503
1264,0.28348,0.2702,1.54702,0.13502,0.54797,0.10464,0.18847,0.12711,0.08002,0.14875,0.48771,0.52547,0.24485,0.15224,0.50201,0.15667,0.3094,0.93483,0.29819,0.19007,0.93696,0.11536,0.3362,1.49133,0.3959,0.14103,1.48949,0.05877,0.4495,1.21013,0.48669,0.30078,1.23958,0.18696,0.56931,1.41989,0.39499,0.41165,1.46558
1265,0.28341,0.26836,1.54712,0.13485,0.54813,0.1051,0.18855,0.12684,0.08,0.14821,0.48698,0.52581,0.24515,0.15152,0.50198,0.15639,0.30767,0.93473,0.29839,0.18891,0.93699,0.11477,0.33366,1.49165,0.39603,0.13877,1.48956,0.05824,0.44733,1.2106,0.4868,0.2987,1.23976,0.18622,0.56739,1.42034,0.39465,0.40934,1.46569
1266,0.28321,0.2668,1.54732,0.13436,0.54814,0.10546,0.18874,0.12647,0.08004,0.14753,0.48622,0.52607,0.24536,0.15094,0.50204,0.15616,0.30624,0.93468,0.29814,0.18746,0.93717,0.11441,0.33127,1.49213,0.39576,0.13646,1.48941,0.05773,0.44526,1.21124,0.48681,0.29671,1.23992,0.18564,0.56567,1.42082,0.39409,0.40719,1.46569
1267,0.28292,0.26521,1.54752,0.13363,0.54804,0.10583,0.18898,0.12618,0.08015,0.14696,0.48538,0.52633,0.24552,0.15041,0.50216,0.15601,0.30498,0.93474,0.29767,0.18583,0.93747,0.11428,0.32925,1.49255,0.39535,0.13451,1.48913,0.05738,0.44322,1.21169,0.48664,0.29537,1.24011,0.18487,0.56413,1.42124,0.39328,0.4051,1.46598
1268,0.28275,0.26339,1.54762,0.13288,0.54793,0.10624,0.18925,0.12598,0.08029,0.14653,0.48444,0.52659,0.24565,0.14983,0.50235,0.15602,0.30366,0.93484,0.29743,0.18422,0.93778,0.11424,0.32778,1.49276,0.39511,0.13301,1.48888,0.05729,0.44114,1.21166,0.48623,0.29477,1.24039,0.1837,0.56264,1.42153,0.39228,0.40314,1.46668
1269,0.28272,0.26154,1.54753,0.13228,0.5479,0.10663,0.18949,0.12581,0.08042,0.14609,0.48342,0.52683,0.24576,0.14925,0.50252,0.1562,0.3022,0.93486,0.29763,0.18279,0.93801,0.11407,0.32662,1.4928,0.39514,0.13158,1.48881,0.05742,0.43913,1.21131,0.48561,0.29443,1.24079,0.18244,0.56103,1.42177,0.39117,0.40145,1.46752
1270,0.2825,0.26001,1.54732,0.13179,0.54798,0.10702,0.18959,0.12569,0.08049,0.14559,0.48246,0.52706,0.24592,0.14877,0.5026,0.15642,0.30068,0.93482,0.29809,0.18156,0.93811,0.11372,0.32531,1.49278,0.39532,0.12985,1.48893,0.05763,0.43736,1.21099,0.48491,0.29375,1.24129,0.18146,0.55936,1.4221,0.38998,0.40002,1.46816
1271,0.28191,0.25883,1.54717,0.13128,0.54812,0.10746,0.18949,0.12569,0.08052,0.14516,0.48177,0.52737,0.2462,0.14834,0.5026,0.15658,0.29931,0.93481,0.2985,0.18049,0.93814,0.11316,0.32363,1.4928,0.39554,0.12787,1.48918,0.05782,0.43585,1.21093,0.48445,0.29261,1.24184,0.18078,0.55781,1.42257,0.38891,0.39869,1.46855
1272,0.28113,0.25772,1.54719,0.13077,0.54827,0.10801,0.18934,0.12584,0.08058,0.14492,0.48145,0.52783,0.24654,0.14793,0.50262,0.15668,0.29823,0.93493,0.29869,0.17951,0.93822,0.11242,0.32172,1.49286,0.39564,0.12601,1.48942,0.0578,0.43451,1.21107,0.48451,0.29127,1.24242,0.18022,0.55649,1.42302,0.38817,0.39728,1.46883
1273,0.28048,0.25633,1.54731,0.13036,0.54836,0.10867,0.18929,0.12609,0.08067,0.14483,0.48137,0.52846,0.24683,0.14753,0.5027,0.15681,0.29736,0.93519,0.29877,0.17857,0.93836,0.1116,0.31981,1.49289,0.39541,0.12452,1.48962,0.05748,0.43323,1.21126,0.485,0.28991,1.24297,0.17968,0.55528,1.42329,0.3878,0.3957,1.46911
1274,0.28015,0.25457,1.54736,0.13012,0.54842,0.10936,0.18936,0.12633,0.08075,0.14471,0.48127,0.52911,0.24701,0.14716,0.50279,0.15696,0.29651,0.93549,0.29887,0.17767,0.93851,0.11083,0.31808,1.49287,0.39481,0.12338,1.48983,0.05695,0.43184,1.21133,0.48558,0.28845,1.24339,0.17909,0.55394,1.42337,0.38774,0.39402,1.46935
1275,0.28009,0.25266,1.54738,0.12995,0.54857,0.10997,0.18943,0.12648,0.0808,0.14449,0.48109,0.52968,0.24714,0.14689,0.50286,0.15699,0.29553,0.93568,0.29902,0.17682,0.93861,0.11014,0.31642,1.49279,0.39408,0.12237,1.49005,0.0563,0.43021,1.21126,0.48604,0.28685,1.24367,0.17837,0.55231,1.42333,0.388,0.39263,1.46945
1276,0.28005,0.25088,1.54751,0.12971,0.54882,0.11044,0.18945,0.12643,0.0808,0.14429,0.48105,0.5301,0.24722,0.14676,0.50286,0.1568,0.29446,0.93563,0.29912,0.17609,0.93865,0.10939,0.31456,1.49263,0.3936,0.12133,1.49022,0.05555,0.42834,1.2111,0.48639,0.28535,1.24384,0.17754,0.55044,1.42321,0.38849,0.39176,1.46938
1277,0.2797,0.2493,1.54781,0.12938,0.54913,0.11079,0.18946,0.12614,0.08071,0.14419,0.48128,0.53042,0.24723,0.14667,0.50276,0.15648,0.29344,0.93539,0.29913,0.17549,0.93858,0.10837,0.31233,1.49244,0.39353,0.12024,1.4903,0.05484,0.42641,1.21097,0.48666,0.28415,1.24397,0.1767,0.54855,1.42314,0.38877,0.39113,1.46925
1278,0.27903,0.2478,1.54815,0.12899,0.54939,0.11111,0.18951,0.12574,0.08052,0.14413,0.48154,0.53073,0.24725,0.14648,0.50256,0.15617,0.29256,0.93518,0.29911,0.17496,0.93841,0.1072,0.31004,1.49233,0.3937,0.1191,1.49038,0.0544,0.42463,1.21092,0.48674,0.28316,1.24412,0.17585,0.54692,1.42324,0.38842,0.39022,1.46918
1279,0.27828,0.24631,1.54835,0.12858,0.5495,0.1115,0.1896,0.12547,0.08029,0.14396,0.48152,0.53109,0.24739,0.14619,0.50233,0.15589,0.29177,0.93518,0.29906,0.17445,0.93821,0.10625,0.30816,1.49234,0.39375,0.11788,1.49061,0.05422,0.42319,1.21097,0.48643,0.28209,1.2443,0.17492,0.54577,1.42355,0.38746,0.38886,1.46921
1280,0.27769,0.24493,1.54838,0.12814,0.54942,0.11192,0.1897,0.12541,0.08012,0.14354,0.48123,0.53148,0.24764,0.14586,0.50215,0.15556,0.29103,0.93535,0.29897,0.17399,0.93808,0.10571,0.30687,1.49244,0.39344,0.11664,1.49093,0.05388,0.42205,1.21109,0.48573,0.28085,1.24448,0.17384,0.54499,1.42388,0.38631,0.38727,1.46936
1281,0.2773,0.24383,1.54827,0.12775,0.54917,0.11227,0.18976,0.12549,0.08003,0.1429,0.481,0.53184,0.24791,0.14555,0.50204,0.15518,0.29032,0.93548,0.29885,0.17359,0.93803,0.10535,0.30604,1.49264,0.39278,0.11562,1.49118,0.05296,0.42098,1.2113,0.48496,0.27973,1.24462,0.17273,0.54431,1.42397,0.38549,0.38572,1.46968
1282,0.27695,0.24304,1.54811,0.12734,0.54884,0.11252,0.18973,0.12561,0.08002,0.1422,0.48107,0.53217,0.24813,0.14527,0.50202,0.15484,0.28965,0.93545,0.29866,0.17312,0.93806,0.10507,0.30549,1.49295,0.39202,0.11494,1.49127,0.05164,0.41988,1.21158,0.4845,0.27893,1.24475,0.17181,0.54352,1.42385,0.38522,0.38428,1.47019
1283,0.27647,0.24232,1.54799,0.12681,0.54853,0.11279,0.18962,0.12579,0.08011,0.14155,0.48125,0.53252,0.24826,0.145,0.50209,0.15463,0.28907,0.93542,0.29836,0.17242,0.93822,0.10491,0.30511,1.49329,0.39141,0.11428,1.49123,0.05056,0.41892,1.21186,0.48441,0.27833,1.24494,0.17114,0.54259,1.42388,0.38519,0.38295,1.47074
1284,0.27576,0.24134,1.54799,0.12618,0.5484,0.11313,0.18952,0.12609,0.08027,0.14097,0.48116,0.53286,0.24825,0.14479,0.50227,0.15458,0.28863,0.93558,0.29798,0.17158,0.93847,0.10483,0.3047,1.49348,0.39098,0.11319,1.49111,0.05009,0.41826,1.21203,0.48438,0.27758,1.2452,0.17053,0.54158,1.42432,0.38489,0.38177,1.47108
1285,0.27485,0.24016,1.5481,0.12561,0.54855,0.11344,0.18945,0.12646,0.08043,0.14042,0.48069,0.53308,0.24814,0.14469,0.50246,0.1546,0.28832,0.93585,0.29762,0.17081,0.93873,0.10473,0.30418,1.49344,0.39047,0.1117,1.49105,0.05009,0.41791,1.21204,0.48407,0.27648,1.24547,0.16988,0.54057,1.42508,0.38406,0.38078,1.47107
1286,0.27382,0.23911,1.5482,0.12522,0.54889,0.1136,0.18933,0.12675,0.08051,0.1399,0.48012,0.53309,0.24799,0.14471,0.50255,0.15456,0.288,0.93596,0.29738,0.17024,0.93887,0.10463,0.30359,1.49327,0.3897,0.11024,1.49112,0.05031,0.41774,1.21198,0.48343,0.27512,1.24567,0.16928,0.53966,1.4259,0.383,0.37991,1.47086
1287,0.27281,0.23839,1.54817,0.12499,0.54922,0.11362,0.18918,0.12687,0.08052,0.13948,0.4798,0.53301,0.24788,0.14478,0.50256,0.15444,0.28756,0.93581,0.29725,0.1698,0.93891,0.10447,0.30281,1.49305,0.38877,0.10907,1.49125,0.05053,0.41755,1.21192,0.4827,0.27373,1.24572,0.16872,0.53881,1.42665,0.38225,0.37898,1.47068
1288,0.27208,0.23775,1.54808,0.12489,0.54945,0.11368,0.1891,0.12683,0.08056,0.13922,0.47976,0.53303,0.2478,0.14485,0.5026,0.15426,0.28707,0.93562,0.2972,0.16948,0.93897,0.10401,0.30159,1.49273,0.38796,0.10821,1.49132,0.0506,0.41723,1.21187,0.48214,0.27246,1.24562,0.16802,0.53786,1.42738,0.3821,0.37794,1.47066
1289,0.27176,0.23682,1.54805,0.12493,0.54963,0.1139,0.18923,0.12673,0.08066,0.13913,0.47985,0.53324,0.24769,0.14497,0.50271,0.15403,0.28666,0.93559,0.29721,0.16936,0.93908,0.10314,0.29998,1.49228,0.38742,0.10762,1.49139,0.05056,0.41695,1.21182,0.48188,0.27138,1.24547,0.16719,0.53686,1.42816,0.38231,0.37698,1.47066
1290,0.27154,0.23551,1.54815,0.1251,0.54986,0.11422,0.1895,0.12666,0.08068,0.13911,0.47991,0.53354,0.24748,0.14509,0.50279,0.1537,0.28637,0.93573,0.29722,0.16948,0.93914,0.1021,0.29849,1.49182,0.38698,0.10722,1.49156,0.05046,0.41692,1.21179,0.48181,0.27041,1.2454,0.16648,0.536,1.42891,0.38219,0.37636,1.47041
1291,0.27098,0.23395,1.54834,0.12528,0.55018,0.11449,0.18972,0.12666,0.08051,0.13907,0.47999,0.53378,0.2472,0.14515,0.50269,0.15327,0.28608,0.93581,0.29724,0.16974,0.93898,0.10117,0.29755,1.49146,0.38648,0.10677,1.4918,0.05021,0.41704,1.21176,0.48169,0.26943,1.24544,0.166,0.53534,1.42944,0.38142,0.37612,1.4698
1292,0.27003,0.23246,1.54853,0.12535,0.55055,0.11465,0.18978,0.12678,0.08017,0.13899,0.48017,0.53391,0.24694,0.14514,0.5024,0.15285,0.28574,0.9357,0.29739,0.17009,0.93863,0.10039,0.29718,1.4912,0.38591,0.10607,1.49194,0.04977,0.41712,1.21163,0.48137,0.26848,1.24551,0.16551,0.53479,1.42967,0.3805,0.37607,1.46917
1293,0.2691,0.2314,1.54864,0.12519,0.55091,0.11472,0.18976,0.12699,0.07985,0.13895,0.48047,0.53396,0.24673,0.14518,0.50211,0.15255,0.28552,0.93552,0.29759,0.17052,0.93827,0.09959,0.29708,1.49097,0.38529,0.10512,1.49175,0.04932,0.41712,1.21138,0.48094,0.26781,1.24558,0.16476,0.53436,1.42981,0.37999,0.37602,1.46892
1294,0.26853,0.2309,1.5486,0.12473,0.55121,0.11475,0.18973,0.12719,0.07974,0.13896,0.48076,0.53398,0.24651,0.14531,0.50203,0.15234,0.28559,0.93543,0.29754,0.17079,0.93816,0.09874,0.29697,1.49085,0.38453,0.10401,1.49123,0.0489,0.41707,1.21121,0.48053,0.26751,1.24573,0.16368,0.53411,1.43009,0.37971,0.37594,1.46902
1295,0.26826,0.23061,1.54848,0.12407,0.55145,0.11477,0.18969,0.12731,0.0799,0.1389,0.48099,0.53398,0.24622,0.14542,0.50223,0.15209,0.28585,0.93544,0.29699,0.17066,0.9384,0.09786,0.29669,1.49099,0.38356,0.10286,1.49066,0.04833,0.41679,1.21129,0.48017,0.26723,1.24599,0.16241,0.53395,1.43048,0.37926,0.3758,1.46916
1296,0.26799,0.22992,1.54843,0.12357,0.55166,0.1148,0.18964,0.1274,0.08018,0.13867,0.4812,0.534,0.24594,0.14539,0.50254,0.15177,0.28609,0.93549,0.2961,0.1702,0.93882,0.09711,0.29626,1.49138,0.38256,0.10187,1.49044,0.04754,0.41619,1.21162,0.47983,0.26658,1.24625,0.16126,0.53375,1.43078,0.37882,0.37547,1.46922
1297,0.26746,0.22859,1.54859,0.12351,0.5519,0.11484,0.18958,0.12755,0.08039,0.13832,0.48143,0.53404,0.24574,0.14533,0.50278,0.15147,0.28628,0.93551,0.29525,0.16972,0.93915,0.09666,0.29587,1.49176,0.38179,0.10115,1.49058,0.04678,0.41559,1.21196,0.47946,0.26564,1.2464,0.16051,0.53351,1.43093,0.37874,0.375,1.46928
1298,0.26661,0.22692,1.54896,0.12374,0.55213,0.11484,0.18953,0.12775,0.08046,0.13794,0.48163,0.53406,0.24564,0.14545,0.50285,0.15124,0.28646,0.93552,0.29472,0.16953,0.93929,0.09643,0.29561,1.49188,0.38133,0.10063,1.49084,0.04642,0.41545,1.21216,0.47895,0.26484,1.24646,0.16022,0.53333,1.43111,0.37861,0.37475,1.46924
1299,0.26553,0.22522,1.54949,0.12379,0.55227,0.11482,0.18948,0.12788,0.08039,0.13762,0.48169,0.53404,0.24559,0.14568,0.50278,0.15105,0.28662,0.93554,0.29454,0.1697,0.93924,0.09595,0.29531,1.49163,0.38112,0.10022,1.49107,0.0466,0.41597,1.21214,0.47829,0.26445,1.24652,0.16011,0.53325,1.43156,0.3779,0.37503,1.46894
1300,0.26436,0.22361,1.54999,0.1235,0.55224,0.1148,0.18939,0.12783,0.08022,0.13735,0.48164,0.53401,0.24558,0.14582,0.50259,0.15082,0.2867,0.93557,0.29458,0.17011,0.93902,0.09493,0.2947,1.49118,0.38096,0.09985,1.49131,0.04704,0.41686,1.21209,0.47763,0.26435,1.24675,0.15985,0.53316,1.43238,0.3767,0.37582,1.46848
1301,0.26309,0.22222,1.55032,0.12311,0.55208,0.11477,0.18921,0.12761,0.08002,0.13709,0.48159,0.53399,0.24557,0.1458,0.50236,0.15056,0.28672,0.93559,0.29465,0.17052,0.93876,0.09363,0.29373,1.49087,0.38055,0.09929,1.49153,0.04719,0.41763,1.2123,0.4771,0.26423,1.24721,0.15937,0.53299,1.43342,0.3756,0.37677,1.46814
1302,0.26167,0.22123,1.55045,0.12289,0.55191,0.11469,0.18898,0.1274,0.07992,0.13669,0.48169,0.53397,0.2455,0.14576,0.50223,0.15031,0.28682,0.93556,0.2945,0.17075,0.93863,0.09256,0.29271,1.49095,0.37979,0.09846,1.49153,0.04675,0.4181,1.21294,0.47661,0.26393,1.24769,0.15888,0.53285,1.4344,0.37493,0.3775,1.468
1303,0.26022,0.22065,1.55047,0.12281,0.55174,0.11456,0.18875,0.12734,0.07998,0.1361,0.48196,0.53393,0.24524,0.14591,0.50229,0.15002,0.2871,0.93552,0.29406,0.17086,0.93871,0.09199,0.292,1.49139,0.37878,0.09756,1.4912,0.04586,0.41833,1.21386,0.47609,0.26358,1.24792,0.15857,0.5329,1.43512,0.37454,0.37782,1.46796
1304,0.25912,0.22026,1.5504,0.12277,0.55158,0.11446,0.18856,0.12743,0.08016,0.13544,0.48224,0.53392,0.2448,0.14628,0.50249,0.14963,0.28749,0.93554,0.29352,0.17106,0.93893,0.09171,0.29157,1.49191,0.37764,0.09694,1.49071,0.04478,0.41839,1.21474,0.47561,0.26332,1.24794,0.15827,0.53307,1.43554,0.37429,0.37784,1.46793
1305,0.25856,0.21985,1.55025,0.12272,0.55146,0.11442,0.18844,0.12755,0.08035,0.13493,0.48243,0.53395,0.24431,0.14677,0.50271,0.1492,0.28786,0.93566,0.29309,0.17144,0.93915,0.09128,0.29122,1.4922,0.37636,0.09673,1.4903,0.04381,0.41831,1.21525,0.47526,0.26317,1.24795,0.15763,0.5331,1.43582,0.37431,0.37791,1.468
1306,0.25822,0.21933,1.55022,0.1226,0.55142,0.11446,0.18842,0.12757,0.08047,0.13468,0.48261,0.53403,0.24389,0.14723,0.50287,0.14875,0.28816,0.93581,0.29277,0.17189,0.93929,0.09043,0.29085,1.49214,0.37504,0.09681,1.49006,0.04304,0.41831,1.21535,0.47478,0.26319,1.24801,0.15661,0.53285,1.43618,0.37456,0.37819,1.46825
1307,0.25775,0.2186,1.55051,0.12228,0.5515,0.11456,0.18851,0.12749,0.0805,0.13461,0.48297,0.53417,0.2436,0.1475,0.50293,0.14824,0.28841,0.93591,0.29238,0.1723,0.93936,0.08932,0.29051,1.49188,0.37389,0.09699,1.49,0.04237,0.41858,1.21529,0.4739,0.26337,1.24807,0.15545,0.53245,1.43671,0.37459,0.37868,1.46856
1308,0.25707,0.21769,1.551,0.12175,0.55175,0.11473,0.18869,0.1275,0.08046,0.13445,0.48361,0.53439,0.2434,0.1476,0.50294,0.14763,0.28868,0.93596,0.29184,0.17264,0.93939,0.08836,0.29031,1.49164,0.37303,0.09711,1.49018,0.04163,0.41906,1.21533,0.47276,0.26358,1.24818,0.1543,0.53211,1.43739,0.37392,0.37923,1.46871
1309,0.25622,0.21691,1.55138,0.12119,0.55215,0.1149,0.18888,0.12771,0.08044,0.13401,0.4844,0.53462,0.2432,0.14762,0.50298,0.14701,0.28901,0.93597,0.29119,0.17294,0.93946,0.08779,0.29037,1.49157,0.37226,0.09706,1.49054,0.04094,0.4196,1.2155,0.4717,0.2636,1.24848,0.15322,0.53196,1.4381,0.37265,0.37966,1.4687
1310,0.25515,0.21657,1.55143,0.12076,0.55252,0.11499,0.18896,0.12786,0.0805,0.13334,0.48503,0.53476,0.24297,0.14772,0.50308,0.1464,0.28932,0.93595,0.29056,0.17323,0.9396,0.08736,0.29063,1.49169,0.37135,0.09677,1.49087,0.04043,0.42016,1.21578,0.47094,0.26342,1.24895,0.15236,0.53212,1.43877,0.37146,0.37974,1.46884
1311,0.25389,0.21666,1.55119,0.12055,0.55267,0.11498,0.1889,0.1277,0.08059,0.1327,0.48537,0.53479,0.24277,0.14789,0.50317,0.14577,0.2895,0.93591,0.28997,0.17347,0.93973,0.0867,0.2909,1.49202,0.37032,0.09635,1.49098,0.03991,0.42071,1.21622,0.47045,0.26323,1.24944,0.15189,0.53258,1.43922,0.37091,0.37935,1.4694
1312,0.25264,0.21693,1.55082,0.12056,0.55259,0.11492,0.18885,0.12728,0.08063,0.1323,0.48553,0.53478,0.24265,0.148,0.50319,0.14514,0.28955,0.93586,0.28939,0.17358,0.9398,0.08568,0.29104,1.49248,0.36935,0.09598,1.49088,0.039,0.42104,1.21674,0.47004,0.26324,1.24983,0.15167,0.53308,1.43931,0.37084,0.37866,1.47032
1313,0.25166,0.21708,1.55047,0.12072,0.55235,0.11488,0.18889,0.12693,0.08058,0.13213,0.48577,0.53482,0.24248,0.14802,0.50315,0.14459,0.28958,0.9358,0.28879,0.17355,0.9398,0.08448,0.29101,1.49285,0.36849,0.09577,1.49074,0.03773,0.42105,1.21715,0.46952,0.26348,1.25016,0.15128,0.53335,1.43913,0.37062,0.37798,1.47126
1314,0.25105,0.21706,1.55028,0.12093,0.5521,0.11484,0.18892,0.12683,0.08051,0.13208,0.48624,0.5349,0.24216,0.1481,0.50311,0.14409,0.28967,0.93571,0.28816,0.17349,0.93981,0.08336,0.29085,1.49297,0.3677,0.09571,1.49071,0.03658,0.42092,1.21728,0.46886,0.26388,1.25049,0.15049,0.53335,1.43902,0.36982,0.37755,1.47196
1315,0.25071,0.21698,1.55027,0.1211,0.55195,0.11484,0.1888,0.12689,0.08052,0.13211,0.48686,0.53503,0.24183,0.14837,0.50314,0.14356,0.28989,0.93566,0.28752,0.17357,0.93988,0.08254,0.29074,1.49285,0.36698,0.09565,1.49079,0.03583,0.42094,1.21722,0.46811,0.26432,1.25092,0.14945,0.53324,1.43917,0.36854,0.37741,1.47245
1316,0.25038,0.2169,1.55033,0.12123,0.55192,0.11495,0.18854,0.12694,0.08061,0.13215,0.48744,0.53524,0.24163,0.14869,0.50321,0.14294,0.29018,0.93574,0.28694,0.1739,0.93999,0.08209,0.29084,1.49275,0.36643,0.09535,1.49092,0.0353,0.42118,1.2172,0.46729,0.26472,1.25142,0.1485,0.53321,1.4395,0.36718,0.37745,1.47289
1317,0.2497,0.21674,1.55037,0.12132,0.55196,0.11514,0.18839,0.12688,0.08064,0.13209,0.48792,0.5355,0.24148,0.14881,0.50323,0.14229,0.29042,0.9359,0.28657,0.1745,0.94001,0.08174,0.29103,1.49282,0.36612,0.09493,1.49107,0.03473,0.4215,1.21736,0.4664,0.26507,1.25188,0.14777,0.53328,1.43987,0.36607,0.3775,1.47341
1318,0.2485,0.21637,1.55036,0.12142,0.5521,0.11531,0.18849,0.12674,0.08049,0.1318,0.48836,0.53572,0.24124,0.1487,0.50312,0.14166,0.29053,0.93597,0.28648,0.17527,0.93983,0.08099,0.2909,1.4929,0.36594,0.09481,1.49129,0.03412,0.42177,1.21761,0.46549,0.26547,1.25216,0.14706,0.53341,1.44025,0.36536,0.37751,1.47397
1319,0.24698,0.21596,1.55032,0.1215,0.5524,0.11537,0.18871,0.12659,0.0802,0.1313,0.48883,0.53582,0.24093,0.14859,0.5029,0.14103,0.29058,0.93587,0.28644,0.17607,0.93952,0.07971,0.2904,1.49283,0.36576,0.09521,1.49152,0.03354,0.42201,1.21778,0.46463,0.266,1.2522,0.14613,0.53356,1.44063,0.36483,0.3774,1.47448
1320,0.24559,0.21585,1.55024,0.12147,0.5528,0.11528,0.18882,0.12655,0.07995,0.13072,0.48933,0.53576,0.2407,0.1487,0.50268,0.14037,0.29073,0.93563,0.28609,0.1766,0.93929,0.07841,0.28998,1.49262,0.36551,0.0958,1.49158,0.0329,0.42234,1.21782,0.46383,0.26662,1.25206,0.14498,0.53379,1.44098,0.36411,0.37698,1.47489
1321,0.24469,0.21615,1.55007,0.12121,0.5531,0.11512,0.18876,0.12662,0.07988,0.13019,0.48985,0.53564,0.24059,0.14912,0.5026,0.13972,0.29107,0.93543,0.28522,0.17667,0.93931,0.07774,0.29009,1.49244,0.36516,0.09617,1.49145,0.03215,0.42277,1.2178,0.46316,0.26714,1.25191,0.14377,0.53413,1.44124,0.36318,0.37619,1.47527
1322,0.24426,0.21662,1.54985,0.12088,0.55323,0.11502,0.18863,0.12667,0.07999,0.12978,0.49039,0.5356,0.24055,0.1498,0.50266,0.13908,0.29153,0.93535,0.28404,0.17646,0.93954,0.07778,0.29057,1.49233,0.36475,0.09628,1.49133,0.03144,0.42313,1.21776,0.46271,0.26752,1.25195,0.14261,0.53448,1.44142,0.36226,0.3753,1.47572
1323,0.24398,0.21684,1.54976,0.12077,0.55326,0.11507,0.18852,0.12668,0.08008,0.1295,0.491,0.53574,0.24057,0.15058,0.50269,0.13841,0.29185,0.93535,0.28301,0.17634,0.93973,0.07797,0.29094,1.49226,0.36442,0.09649,1.4914,0.03081,0.42334,1.21775,0.46238,0.2679,1.25215,0.14152,0.53474,1.44162,0.36146,0.37471,1.47617
1324,0.24344,0.21673,1.54995,0.12102,0.55325,0.11522,0.18842,0.12674,0.07997,0.12932,0.49175,0.53601,0.24061,0.15128,0.50253,0.13764,0.2919,0.93529,0.28233,0.17649,0.93967,0.07752,0.29103,1.49225,0.3641,0.097,1.49152,0.03018,0.4235,1.21781,0.46196,0.26846,1.25227,0.14056,0.53491,1.44184,0.36077,0.37443,1.47656
1325,0.24255,0.21661,1.55023,0.12142,0.55319,0.11539,0.1883,0.12692,0.07971,0.12908,0.49263,0.53633,0.24071,0.15184,0.50222,0.13678,0.29176,0.93511,0.28178,0.17675,0.93944,0.0763,0.29117,1.49238,0.36344,0.09749,1.49135,0.0295,0.42382,1.21794,0.46131,0.26921,1.25229,0.13983,0.53512,1.44204,0.36024,0.37412,1.47713
1326,0.24151,0.21681,1.55025,0.12168,0.55311,0.11556,0.18814,0.12713,0.0795,0.12858,0.49352,0.53666,0.24091,0.15237,0.50195,0.13594,0.29168,0.93495,0.28111,0.17689,0.93927,0.07491,0.29176,1.49266,0.36217,0.09758,1.49084,0.02876,0.42442,1.2181,0.46047,0.26997,1.25244,0.13935,0.5354,1.44223,0.35972,0.37359,1.47802
1327,0.24054,0.21738,1.54995,0.12167,0.55308,0.11577,0.18793,0.12723,0.07943,0.12784,0.49431,0.53699,0.24118,0.15297,0.50179,0.13521,0.29185,0.93497,0.28027,0.1769,0.93924,0.07394,0.29278,1.4929,0.36055,0.09726,1.49025,0.02789,0.42518,1.21821,0.4596,0.27061,1.25285,0.1389,0.53569,1.44237,0.35882,0.37307,1.47895
1328,0.23972,0.21806,1.54956,0.12147,0.55317,0.11596,0.18778,0.12721,0.07941,0.12709,0.49502,0.53728,0.2415,0.15359,0.50167,0.13457,0.29228,0.93511,0.27926,0.17687,0.93927,0.07341,0.29381,1.49296,0.35905,0.0969,1.48981,0.02685,0.42592,1.21821,0.45883,0.27115,1.25338,0.1382,0.53595,1.44244,0.35738,0.37292,1.4795
1329,0.23893,0.21861,1.54931,0.12122,0.55336,0.11601,0.18779,0.1272,0.07936,0.12661,0.49575,0.5374,0.24185,0.15416,0.50153,0.13392,0.29282,0.93514,0.27808,0.17675,0.9393,0.073,0.29447,1.49285,0.35794,0.09681,1.4896,0.02577,0.42653,1.2182,0.45819,0.27166,1.25381,0.13728,0.53622,1.44252,0.35574,0.37317,1.4796
1330,0.23807,0.21891,1.54927,0.12107,0.55364,0.11592,0.18804,0.12737,0.07929,0.12646,0.49647,0.53737,0.24222,0.15472,0.50142,0.13319,0.29321,0.93495,0.27682,0.17649,0.93937,0.07251,0.29469,1.49273,0.35716,0.09706,1.48956,0.0248,0.42708,1.21831,0.45759,0.27217,1.25405,0.13651,0.53654,1.44264,0.35437,0.37353,1.47954
1331,0.23715,0.21892,1.54945,0.12098,0.55401,0.11586,0.18843,0.1277,0.07926,0.12648,0.49704,0.53734,0.24242,0.15529,0.5014,0.1324,0.29328,0.93467,0.27571,0.17618,0.93949,0.07188,0.29474,1.49268,0.35661,0.09749,1.48962,0.02385,0.42765,1.21857,0.45697,0.27268,1.25413,0.13608,0.53682,1.44278,0.35346,0.37372,1.47964
1332,0.23629,0.21873,1.54985,0.12082,0.55446,0.11596,0.18872,0.12806,0.07921,0.12647,0.4975,0.53744,0.24223,0.15585,0.5014,0.13162,0.29314,0.93448,0.27487,0.17598,0.93957,0.07108,0.29493,1.49273,0.35614,0.09798,1.48975,0.0228,0.42827,1.21888,0.45631,0.27317,1.25419,0.13577,0.537,1.44293,0.35289,0.37366,1.47998
1333,0.23563,0.21855,1.55033,0.12067,0.5549,0.11616,0.18879,0.12836,0.07908,0.12637,0.498,0.53765,0.24177,0.15634,0.50133,0.13083,0.2931,0.93441,0.27411,0.17598,0.93954,0.07025,0.29544,1.49285,0.35547,0.09852,1.49004,0.02166,0.42894,1.21913,0.45564,0.27354,1.25435,0.13535,0.53718,1.44306,0.35246,0.3735,1.48048
1334,0.23524,0.21865,1.55061,0.12064,0.55517,0.11628,0.18871,0.12862,0.07893,0.12628,0.4986,0.53781,0.24134,0.15677,0.50121,0.12997,0.29339,0.93443,0.27305,0.17601,0.93949,0.06964,0.29631,1.49306,0.35443,0.09902,1.49041,0.02057,0.42963,1.21934,0.45506,0.27372,1.25468,0.1348,0.5376,1.44312,0.35208,0.37338,1.48105
1335,0.23506,0.21912,1.55062,0.12064,0.55515,0.11621,0.18854,0.12894,0.07897,0.12631,0.49916,0.53781,0.24104,0.15711,0.50126,0.12909,0.29397,0.93446,0.2715,0.1758,0.93965,0.06927,0.29742,1.49341,0.35303,0.09929,1.49055,0.01949,0.43017,1.21954,0.45469,0.27384,1.25514,0.13411,0.53825,1.44307,0.35168,0.37326,1.4816
1336,0.23485,0.21979,1.55055,0.12051,0.55491,0.11597,0.18824,0.12925,0.07926,0.12649,0.49959,0.53766,0.24073,0.1573,0.50156,0.12832,0.29461,0.93441,0.26966,0.17518,0.94009,0.06888,0.29858,1.49392,0.35153,0.09935,1.49027,0.01834,0.43049,1.21978,0.45461,0.27406,1.2556,0.13325,0.53893,1.44298,0.35119,0.3731,1.48203
1337,0.23432,0.22025,1.55066,0.12033,0.5547,0.11577,0.18776,0.1293,0.0796,0.12674,0.4999,0.53752,0.2404,0.15735,0.50188,0.12771,0.29504,0.93433,0.2679,0.17428,0.94054,0.06834,0.29961,1.49446,0.35033,0.09945,1.48994,0.01721,0.43077,1.22007,0.45456,0.27436,1.25593,0.13233,0.53953,1.44301,0.35069,0.37299,1.48233
1338,0.23342,0.22018,1.55101,0.12021,0.55465,0.11581,0.18722,0.12888,0.07974,0.12696,0.50012,0.53759,0.24007,0.15727,0.50198,0.12716,0.29515,0.93435,0.26649,0.17342,0.94073,0.06777,0.30032,1.4948,0.3498,0.09973,1.49011,0.01637,0.43133,1.22039,0.4541,0.27464,1.25613,0.13163,0.54013,1.44324,0.3503,0.37312,1.48264
1339,0.23246,0.21972,1.55145,0.12015,0.55473,0.11605,0.18679,0.12817,0.07967,0.12706,0.50031,0.53784,0.23959,0.15712,0.50188,0.12654,0.29516,0.93451,0.26537,0.17284,0.94069,0.06722,0.3006,1.49491,0.34964,0.10008,1.49073,0.0159,0.43212,1.22073,0.45296,0.27492,1.25627,0.13129,0.54081,1.44356,0.34992,0.37341,1.48312
1340,0.2317,0.21937,1.55182,0.12002,0.55488,0.11625,0.18652,0.12755,0.0796,0.12707,0.50046,0.53804,0.23876,0.15691,0.50184,0.12584,0.29532,0.93472,0.26426,0.17254,0.94067,0.06661,0.30054,1.49493,0.34912,0.10035,1.49126,0.01556,0.43283,1.22107,0.45139,0.27531,1.25643,0.13111,0.54152,1.44383,0.34923,0.3736,1.48376
1341,0.23114,0.21946,1.5521,0.11979,0.55512,0.11625,0.18628,0.12721,0.07967,0.12704,0.50047,0.538,0.23767,0.15665,0.50202,0.12506,0.29568,0.93486,0.26302,0.17238,0.94085,0.06595,0.30045,1.49506,0.34795,0.10056,1.49144,0.01508,0.43328,1.22142,0.44993,0.27579,1.25668,0.13075,0.54216,1.44402,0.34817,0.37361,1.48439
1342,0.2307,0.21982,1.5523,0.11964,0.55542,0.11612,0.1859,0.12706,0.07988,0.12699,0.50025,0.5378,0.23657,0.15627,0.50232,0.12429,0.29608,0.93497,0.26172,0.17219,0.94116,0.06536,0.30064,1.49528,0.34666,0.1008,1.49157,0.01446,0.43358,1.2217,0.44888,0.27622,1.25705,0.13011,0.54258,1.44425,0.34708,0.37362,1.48493
1343,0.23041,0.22021,1.55241,0.11971,0.55565,0.11606,0.18537,0.12682,0.0801,0.12697,0.4999,0.53768,0.23555,0.15569,0.50263,0.12366,0.29642,0.93519,0.26042,0.17181,0.94148,0.06498,0.30106,1.4955,0.34588,0.10104,1.49198,0.01396,0.43386,1.22187,0.44815,0.27648,1.2575,0.12942,0.54276,1.44457,0.34632,0.37366,1.48545
1344,0.23022,0.22052,1.55244,0.11991,0.55571,0.1162,0.18477,0.1263,0.0803,0.12704,0.49963,0.53777,0.23459,0.15491,0.50289,0.12318,0.29676,0.93559,0.25916,0.17129,0.94175,0.0647,0.3014,1.49564,0.34569,0.10122,1.49267,0.01375,0.43412,1.22196,0.4476,0.27654,1.25795,0.12895,0.54281,1.4449,0.34602,0.37352,1.4861
1345,0.22995,0.2208,1.55249,0.12002,0.55566,0.11646,0.18423,0.12545,0.08057,0.12728,0.49952,0.53802,0.23368,0.15404,0.5032,0.12274,0.29719,0.93611,0.25792,0.17084,0.94206,0.06422,0.3014,1.4957,0.34574,0.10132,1.49339,0.01372,0.43429,1.22203,0.44729,0.27652,1.25842,0.12867,0.54296,1.4451,0.34601,0.37321,1.48683
1346,0.22948,0.22112,1.55263,0.11992,0.55562,0.11668,0.18386,0.12437,0.08103,0.12767,0.4995,0.53823,0.2328,0.15332,0.50369,0.12234,0.29773,0.93659,0.25672,0.17054,0.94255,0.06336,0.30113,1.4957,0.34562,0.10141,1.49387,0.01357,0.43441,1.22208,0.44722,0.27655,1.25888,0.12827,0.54328,1.44519,0.34593,0.37295,1.48741
1347,0.22885,0.22151,1.55286,0.11964,0.55561,0.11666,0.18369,0.12324,0.08167,0.12808,0.49942,0.53819,0.23193,0.15281,0.50437,0.12208,0.29833,0.93689,0.25557,0.17022,0.94324,0.06235,0.3008,1.4957,0.34504,0.10143,1.49385,0.01311,0.43452,1.2222,0.44725,0.27669,1.25922,0.12751,0.5437,1.4453,0.34549,0.37285,1.48764
1348,0.22831,0.22191,1.55311,0.11939,0.55553,0.11637,0.18358,0.12225,0.08234,0.12834,0.49921,0.53788,0.23115,0.15232,0.50509,0.12203,0.29886,0.93694,0.25444,0.16967,0.94397,0.06162,0.30071,1.49582,0.34398,0.10126,1.49326,0.0124,0.43462,1.2224,0.44731,0.2769,1.2594,0.12648,0.54405,1.44555,0.34471,0.3729,1.48751
1349,0.2281,0.22208,1.55331,0.1194,0.55541,0.11603,0.18338,0.12153,0.08281,0.12852,0.49891,0.53751,0.23064,0.15164,0.50559,0.12203,0.29912,0.93685,0.25349,0.16899,0.9445,0.06149,0.30114,1.49611,0.34288,0.10096,1.49249,0.01177,0.43463,1.22259,0.44742,0.27704,1.2595,0.12549,0.54418,1.44587,0.34383,0.37308,1.48715
1350,0.22819,0.22173,1.55343,0.11966,0.55541,0.11594,0.1831,0.12103,0.08296,0.1289,0.4987,0.53739,0.23051,0.15083,0.50575,0.12182,0.29899,0.93676,0.25293,0.16853,0.94467,0.06193,0.30208,1.49654,0.34236,0.10069,1.49221,0.01148,0.43454,1.22264,0.44749,0.27701,1.25967,0.12482,0.54401,1.44615,0.34314,0.37338,1.48683
1351,0.22821,0.22097,1.55347,0.11994,0.55561,0.11619,0.18285,0.12063,0.08286,0.1296,0.49876,0.53761,0.23062,0.15011,0.50562,0.12137,0.29861,0.93674,0.25279,0.16845,0.94453,0.06251,0.30309,1.49693,0.34251,0.1005,1.4927,0.01147,0.43447,1.22263,0.44735,0.27684,1.26004,0.12454,0.54368,1.4464,0.34273,0.37358,1.48691
1352,0.22791,0.22031,1.55346,0.12002,0.5558,0.11649,0.18279,0.12027,0.08263,0.13033,0.49904,0.53791,0.23066,0.1496,0.5054,0.12099,0.29831,0.93672,0.2528,0.16854,0.94428,0.06262,0.30358,1.49715,0.34278,0.10027,1.49352,0.01153,0.43454,1.22265,0.44692,0.27665,1.26057,0.12449,0.54341,1.44664,0.3425,0.37348,1.48751
1353,0.22744,0.22027,1.55334,0.11988,0.55571,0.11648,0.18307,0.11994,0.08238,0.13061,0.49915,0.53791,0.23046,0.14926,0.5052,0.12095,0.29833,0.93666,0.25264,0.16843,0.94407,0.06208,0.3034,1.49719,0.34257,0.09991,1.49402,0.01155,0.43468,1.22274,0.44634,0.27648,1.26105,0.12449,0.54331,1.44686,0.34233,0.37308,1.48828
1354,0.2271,0.22092,1.55306,0.11972,0.55541,0.11608,0.18376,0.11975,0.08209,0.13031,0.49886,0.53752,0.23008,0.14896,0.50504,0.12121,0.29855,0.93655,0.25217,0.16791,0.94392,0.06134,0.30296,1.49717,0.34169,0.09946,1.49389,0.01156,0.4347,1.22281,0.44583,0.27622,1.26123,0.12436,0.54331,1.447,0.34217,0.37261,1.48869
1355,0.22688,0.22184,1.55276,0.11982,0.55515,0.11561,0.1847,0.11983,0.08171,0.12974,0.49835,0.53703,0.22972,0.14855,0.50483,0.12149,0.29865,0.93638,0.25154,0.1671,0.94374,0.06098,0.30276,1.49718,0.34047,0.09899,1.49329,0.0116,0.43451,1.22275,0.44551,0.27572,1.26101,0.12407,0.54326,1.44704,0.342,0.37219,1.48851
1356,0.22663,0.22235,1.55263,0.12029,0.55511,0.11537,0.18555,0.12022,0.08122,0.12941,0.49804,0.53677,0.22966,0.14803,0.50449,0.12149,0.29842,0.93618,0.25103,0.16637,0.94344,0.06103,0.30285,1.4972,0.3395,0.09859,1.49268,0.01171,0.43421,1.22257,0.44541,0.27503,1.26058,0.12373,0.54307,1.44703,0.34179,0.3718,1.48791
1357,0.22626,0.22206,1.55271,0.12104,0.55524,0.11544,0.18607,0.12078,0.08066,0.12959,0.49819,0.53686,0.2301,0.14764,0.50401,0.12117,0.29783,0.93587,0.25089,0.16594,0.94298,0.06112,0.30287,1.49703,0.33919,0.09826,1.49244,0.01186,0.43406,1.22231,0.44554,0.27438,1.2603,0.12349,0.54277,1.44704,0.34142,0.37141,1.48729
1358,0.22584,0.22119,1.55277,0.12183,0.55546,0.11567,0.18625,0.12126,0.08018,0.13016,0.49866,0.53713,0.23089,0.14762,0.50349,0.12076,0.29702,0.93548,0.25112,0.16576,0.9425,0.06093,0.30263,1.49659,0.33936,0.09787,1.49258,0.01195,0.43422,1.222,0.44572,0.27389,1.26037,0.12334,0.54239,1.44712,0.34081,0.371,1.48695
1359,0.22549,0.22039,1.55259,0.12254,0.55565,0.11589,0.18634,0.1215,0.07983,0.13064,0.49913,0.53738,0.23169,0.14792,0.50307,0.12043,0.29622,0.93507,0.25149,0.16567,0.94211,0.06042,0.30231,1.49602,0.33949,0.09733,1.49283,0.0119,0.4345,1.22164,0.44576,0.27346,1.26065,0.12303,0.54194,1.44723,0.34004,0.37049,1.48689
1360,0.22522,0.22011,1.55218,0.12325,0.55574,0.11601,0.18654,0.12146,0.07963,0.13074,0.49945,0.53754,0.23228,0.14821,0.5028,0.1202,0.29557,0.93472,0.25185,0.16561,0.94187,0.05973,0.30215,1.49553,0.33933,0.09681,1.49301,0.01178,0.43457,1.22117,0.44571,0.27288,1.26085,0.12245,0.54143,1.44726,0.33946,0.36982,1.48689
1361,0.22488,0.22013,1.55173,0.12401,0.55574,0.11611,0.18679,0.1212,0.07951,0.1306,0.49975,0.5377,0.23268,0.14816,0.50265,0.12006,0.29503,0.93445,0.25224,0.16561,0.94171,0.0591,0.30202,1.49517,0.33929,0.09655,1.49323,0.01183,0.43425,1.2206,0.44575,0.27222,1.26081,0.12175,0.54093,1.44715,0.33937,0.36909,1.48681
1362,0.22436,0.21993,1.55141,0.1247,0.55572,0.11631,0.18692,0.12081,0.07936,0.13051,0.5002,0.53798,0.23294,0.1477,0.50249,0.12005,0.29455,0.93425,0.25274,0.16566,0.94152,0.05877,0.30162,1.49481,0.33977,0.09659,1.49355,0.0122,0.43374,1.22006,0.44583,0.27177,1.26057,0.12123,0.54055,1.44697,0.3397,0.36852,1.48674
1363,0.22375,0.21936,1.55124,0.12515,0.55572,0.11658,0.18685,0.12039,0.07917,0.13046,0.50077,0.53833,0.23307,0.14702,0.5023,0.12017,0.29414,0.93409,0.25327,0.16567,0.94128,0.05874,0.30098,1.4944,0.34051,0.09662,1.49375,0.01275,0.43335,1.21968,0.44584,0.27161,1.26029,0.12102,0.54031,1.44689,0.34006,0.36818,1.4867
1364,0.22329,0.21867,1.55112,0.12532,0.55573,0.11676,0.18677,0.12,0.07899,0.1302,0.50126,0.53857,0.23305,0.14643,0.50212,0.12042,0.29376,0.93389,0.25369,0.16546,0.94107,0.05877,0.30034,1.49402,0.34095,0.09633,1.49355,0.01324,0.43321,1.21946,0.44587,0.27151,1.26005,0.12104,0.54007,1.44693,0.34018,0.36794,1.48657
1365,0.22308,0.21818,1.55093,0.12534,0.55575,0.11676,0.18679,0.11978,0.07887,0.12957,0.50157,0.53862,0.23299,0.14606,0.50202,0.12083,0.29336,0.93359,0.254,0.16497,0.94096,0.05872,0.29982,1.49369,0.34091,0.09579,1.49302,0.01353,0.43319,1.21932,0.44615,0.27124,1.25987,0.1212,0.53971,1.44701,0.34009,0.36765,1.48622
1366,0.22285,0.21793,1.55072,0.1254,0.55587,0.11673,0.18683,0.11974,0.0788,0.12877,0.50178,0.5386,0.23302,0.1458,0.50197,0.1213,0.29289,0.93325,0.25436,0.16441,0.9409,0.05879,0.29923,1.49332,0.34067,0.09533,1.49251,0.01373,0.43312,1.21918,0.44667,0.27084,1.25975,0.12138,0.53928,1.44706,0.3399,0.3673,1.48574
1367,0.22234,0.21767,1.55061,0.1256,0.55618,0.11689,0.18679,0.11979,0.07874,0.12822,0.50211,0.53878,0.23321,0.14549,0.5019,0.12168,0.29233,0.93296,0.25497,0.16409,0.94081,0.05904,0.29831,1.4928,0.34067,0.09515,1.49232,0.01407,0.43297,1.21902,0.44703,0.27056,1.25964,0.12147,0.53894,1.44709,0.3397,0.36696,1.48539
1368,0.22161,0.21723,1.55066,0.12589,0.55667,0.11732,0.18675,0.11977,0.07861,0.12815,0.50265,0.53921,0.23357,0.14518,0.50174,0.12188,0.29166,0.93276,0.25586,0.16414,0.94061,0.05914,0.29708,1.49215,0.34113,0.0951,1.49239,0.0146,0.43273,1.2188,0.44685,0.27049,1.25941,0.12147,0.53867,1.44714,0.33956,0.36663,1.4853
1369,0.22111,0.21671,1.55075,0.12618,0.55719,0.11784,0.18685,0.11974,0.07842,0.12832,0.50324,0.53974,0.23397,0.14497,0.50153,0.12202,0.29094,0.93258,0.25694,0.16441,0.94035,0.05884,0.29578,1.49153,0.34181,0.09491,1.49246,0.01508,0.43237,1.21851,0.44628,0.27039,1.25899,0.1214,0.5383,1.44712,0.33952,0.3662,1.48526
1370,0.22112,0.21632,1.55074,0.12647,0.55758,0.11828,0.18707,0.11982,0.07821,0.12836,0.50376,0.5402,0.23429,0.14485,0.50132,0.12223,0.29023,0.93238,0.25803,0.16465,0.94008,0.05831,0.2947,1.49107,0.34236,0.09458,1.49246,0.01529,0.43182,1.2182,0.44593,0.26998,1.25852,0.12134,0.53779,1.44691,0.33959,0.36567,1.48504
1371,0.22155,0.21603,1.55061,0.12673,0.55781,0.11865,0.18725,0.11994,0.07804,0.12815,0.50421,0.5406,0.23454,0.14474,0.50116,0.12252,0.28957,0.93217,0.259,0.16472,0.93987,0.05798,0.29389,1.49076,0.34274,0.09433,1.49255,0.01528,0.43111,1.2179,0.44614,0.26928,1.2582,0.1213,0.53729,1.44653,0.33989,0.36514,1.48469
1372,0.22212,0.21566,1.55038,0.12685,0.55795,0.11897,0.18731,0.11993,0.07795,0.12782,0.50457,0.54095,0.23486,0.14465,0.50105,0.12284,0.28898,0.93201,0.25978,0.16463,0.93973,0.05804,0.29327,1.49054,0.34314,0.09429,1.4928,0.01527,0.43042,1.21765,0.44667,0.26863,1.25806,0.12125,0.53694,1.44614,0.34034,0.36475,1.48441
1373,0.22263,0.21513,1.55017,0.12673,0.55802,0.1192,0.18728,0.11977,0.07794,0.12751,0.50471,0.54119,0.23533,0.14467,0.50097,0.12316,0.28842,0.93187,0.26037,0.16439,0.93966,0.05837,0.29275,1.49041,0.34364,0.09429,1.493,0.01536,0.42978,1.21749,0.44708,0.26838,1.25803,0.12119,0.53664,1.44589,0.34066,0.36452,1.48433
1374,0.22299,0.21461,1.55007,0.12643,0.55804,0.11931,0.1872,0.1196,0.07801,0.12725,0.50464,0.54129,0.23585,0.1448,0.50095,0.12354,0.28788,0.93172,0.26088,0.16399,0.93966,0.05871,0.29229,1.49034,0.34408,0.09413,1.49287,0.01555,0.42909,1.21734,0.44726,0.26858,1.25805,0.12116,0.53617,1.44574,0.34064,0.36431,1.48442
1375,0.22319,0.21437,1.55005,0.12608,0.55806,0.11937,0.18715,0.11948,0.07817,0.12693,0.50459,0.54134,0.23638,0.14499,0.50103,0.12411,0.28747,0.93157,0.26138,0.16353,0.93977,0.05895,0.29178,1.49027,0.34428,0.09379,1.49243,0.0157,0.42821,1.2171,0.44746,0.26894,1.25814,0.12105,0.53542,1.44555,0.3404,0.36401,1.48458
1376,0.22322,0.21442,1.55001,0.12592,0.5581,0.1195,0.18718,0.11947,0.07843,0.12649,0.50478,0.54149,0.23699,0.14516,0.5012,0.12482,0.2872,0.93147,0.26202,0.16319,0.93997,0.05907,0.29109,1.49008,0.34418,0.09355,1.49197,0.01566,0.42724,1.21679,0.44788,0.26916,1.25825,0.1207,0.53455,1.44534,0.34024,0.36361,1.48467
1377,0.22316,0.21449,1.54981,0.12624,0.55816,0.11979,0.18724,0.11952,0.07866,0.12606,0.50521,0.54182,0.23784,0.14527,0.50134,0.12546,0.28692,0.93141,0.26289,0.16319,0.9401,0.05903,0.29026,1.48976,0.34409,0.09361,1.49176,0.01537,0.42641,1.21651,0.44844,0.26914,1.25827,0.12006,0.53377,1.4452,0.34035,0.36326,1.48462
1378,0.22323,0.21445,1.54941,0.12701,0.55824,0.12015,0.18731,0.11957,0.07875,0.12585,0.50566,0.54224,0.23883,0.1454,0.50131,0.12584,0.28654,0.93136,0.26388,0.16348,0.94007,0.0589,0.28943,1.48944,0.34434,0.09393,1.49187,0.01496,0.42576,1.21632,0.44888,0.26904,1.25814,0.11934,0.53316,1.44514,0.34073,0.3631,1.48449
1379,0.22355,0.21443,1.54892,0.12773,0.55838,0.12042,0.18735,0.11953,0.07871,0.12593,0.50596,0.54252,0.23968,0.14574,0.50115,0.12606,0.28624,0.9313,0.26469,0.16384,0.93991,0.05872,0.28863,1.48933,0.34489,0.09433,1.49203,0.01467,0.42498,1.21624,0.44911,0.26904,1.25787,0.11882,0.53266,1.44503,0.34114,0.36304,1.48433
1380,0.22404,0.21447,1.54861,0.1281,0.55859,0.12048,0.1873,0.11935,0.07864,0.1262,0.50615,0.54257,0.24027,0.14632,0.50095,0.12632,0.28615,0.9312,0.26523,0.16406,0.93973,0.05844,0.28771,1.48947,0.34546,0.09466,1.49196,0.01471,0.42382,1.21622,0.44927,0.26925,1.25753,0.11864,0.53213,1.44481,0.34129,0.36282,1.48416
1381,0.22447,0.21428,1.54865,0.12837,0.55887,0.12047,0.18712,0.1191,0.07856,0.12634,0.50642,0.54256,0.24079,0.14693,0.50073,0.12667,0.28612,0.93102,0.26571,0.16419,0.93953,0.05804,0.28655,1.48962,0.34602,0.09494,1.49161,0.015,0.42247,1.21616,0.44952,0.26974,1.25719,0.11864,0.53153,1.44453,0.34125,0.36245,1.48403
1382,0.22477,0.21372,1.54888,0.12883,0.5591,0.12058,0.18688,0.1189,0.07843,0.12612,0.50683,0.54269,0.24143,0.1472,0.50045,0.12701,0.28589,0.93079,0.26637,0.16431,0.93926,0.05771,0.28524,1.48948,0.34667,0.09519,1.49112,0.0152,0.42128,1.216,0.44988,0.27049,1.25694,0.11849,0.53091,1.44425,0.34121,0.36219,1.48401
1383,0.22505,0.21305,1.549,0.1294,0.55918,0.12088,0.18675,0.11888,0.0783,0.12562,0.50722,0.54302,0.24216,0.1471,0.50022,0.12732,0.28547,0.93065,0.26717,0.16446,0.93901,0.05766,0.28393,1.48907,0.34741,0.09535,1.49077,0.01512,0.42033,1.21577,0.45028,0.27127,1.25691,0.11804,0.53044,1.44395,0.3412,0.36224,1.48407
1384,0.22544,0.21263,1.54888,0.12981,0.55918,0.12134,0.18681,0.11902,0.07826,0.12519,0.50739,0.54349,0.2429,0.14701,0.50011,0.12757,0.28503,0.93076,0.268,0.16467,0.93888,0.05807,0.28282,1.48869,0.34831,0.09542,1.49087,0.01489,0.41945,1.21561,0.45064,0.27177,1.2571,0.11749,0.53023,1.44361,0.34113,0.36254,1.48414
1385,0.22591,0.21264,1.54855,0.13001,0.55926,0.12184,0.18691,0.11918,0.07834,0.12517,0.5074,0.54398,0.24379,0.14731,0.50007,0.12777,0.28469,0.93106,0.26883,0.16505,0.93884,0.05904,0.28214,1.48856,0.34961,0.09555,1.49149,0.01474,0.41855,1.21555,0.451,0.27201,1.25739,0.11704,0.53021,1.44325,0.34106,0.36297,1.48415
1386,0.22642,0.213,1.54815,0.13008,0.55946,0.12219,0.1869,0.11926,0.07843,0.1255,0.50742,0.54432,0.24491,0.14801,0.49996,0.12799,0.28456,0.9313,0.26963,0.16558,0.93876,0.06026,0.28196,1.48864,0.35131,0.09591,1.49221,0.01479,0.41768,1.21547,0.45149,0.27235,1.25758,0.11663,0.53016,1.44298,0.3412,0.36342,1.48412
1387,0.22701,0.21346,1.54783,0.13008,0.5597,0.12228,0.18684,0.11924,0.07844,0.12586,0.50756,0.54439,0.24609,0.14881,0.49974,0.12836,0.28469,0.93138,0.2703,0.16605,0.93858,0.06104,0.28189,1.48876,0.35286,0.09649,1.49255,0.01501,0.41681,1.21529,0.45216,0.27299,1.25759,0.11608,0.52994,1.44282,0.34146,0.36371,1.48407
1388,0.22756,0.21383,1.54774,0.12996,0.55986,0.12212,0.18695,0.11922,0.07844,0.12604,0.50775,0.54425,0.24706,0.14958,0.49956,0.12891,0.28501,0.9313,0.27079,0.16631,0.93845,0.06083,0.28138,1.48885,0.35356,0.09708,1.49231,0.01526,0.41583,1.21508,0.45299,0.27377,1.25754,0.11538,0.52958,1.44272,0.34144,0.36367,1.48393
1389,0.22783,0.21413,1.54793,0.12974,0.55987,0.12185,0.18722,0.11931,0.07854,0.12602,0.50788,0.54399,0.24774,0.15035,0.49956,0.12958,0.28534,0.93116,0.2712,0.16634,0.93849,0.05985,0.28045,1.48898,0.35332,0.09741,1.49164,0.01536,0.4147,1.21493,0.4539,0.27442,1.25761,0.11472,0.52915,1.44256,0.34101,0.36348,1.48366
1390,0.22779,0.21435,1.54827,0.1296,0.5598,0.12166,0.18738,0.11954,0.07875,0.12597,0.50796,0.54382,0.24823,0.15112,0.49968,0.13027,0.28553,0.93104,0.2717,0.16631,0.93864,0.05894,0.27962,1.48922,0.35275,0.09749,1.49089,0.01525,0.41356,1.21488,0.45473,0.27489,1.25776,0.11426,0.52879,1.44227,0.3405,0.36348,1.48333
1391,0.22776,0.21439,1.54864,0.12979,0.55978,0.12165,0.18725,0.11986,0.07893,0.126,0.50814,0.54384,0.24869,0.1518,0.49974,0.13089,0.28557,0.93096,0.27236,0.16641,0.93871,0.05888,0.27918,1.48956,0.3526,0.09758,1.49037,0.01507,0.41248,1.21493,0.45533,0.27537,1.25787,0.11401,0.52868,1.44185,0.3404,0.36381,1.48314
1392,0.22802,0.2142,1.5489,0.13024,0.55992,0.12176,0.18701,0.12016,0.07903,0.12611,0.50849,0.54396,0.24924,0.15243,0.4997,0.13148,0.28562,0.93092,0.27312,0.16668,0.93867,0.05974,0.27889,1.48995,0.35313,0.0979,1.49021,0.01489,0.4114,1.21511,0.45586,0.27611,1.25803,0.11394,0.52881,1.44136,0.34074,0.3643,1.48331
1393,0.22847,0.21398,1.54901,0.13068,0.56017,0.12191,0.18703,0.1204,0.07909,0.12618,0.50893,0.54413,0.24993,0.15313,0.49963,0.1321,0.28584,0.93095,0.27389,0.16705,0.9386,0.06106,0.27855,1.49032,0.35416,0.09848,1.49032,0.01461,0.41027,1.21537,0.45661,0.27722,1.25843,0.11383,0.52895,1.44088,0.34117,0.36481,1.48377
1394,0.22882,0.21398,1.54902,0.1308,0.56045,0.12211,0.18738,0.12049,0.07913,0.12622,0.50931,0.54435,0.25078,0.15396,0.49954,0.13273,0.28623,0.93116,0.27455,0.16747,0.93854,0.06235,0.27836,1.49067,0.3554,0.09928,1.49061,0.01401,0.40911,1.21558,0.45766,0.27848,1.25899,0.11339,0.52883,1.44047,0.34147,0.36538,1.48421
1395,0.22908,0.21432,1.54902,0.13048,0.56067,0.12228,0.1879,0.12043,0.07917,0.12635,0.50954,0.54452,0.25171,0.15484,0.49944,0.13331,0.28672,0.93147,0.27507,0.16786,0.93848,0.06341,0.27848,1.49111,0.35649,0.10015,1.49085,0.01298,0.40787,1.21575,0.45873,0.27959,1.25942,0.1126,0.52845,1.44007,0.34174,0.36606,1.48439
1396,0.22952,0.21498,1.54905,0.1298,0.56081,0.12227,0.18842,0.12022,0.07926,0.12671,0.50965,0.54451,0.25263,0.15567,0.49938,0.13388,0.28723,0.9317,0.27552,0.16822,0.93845,0.06415,0.27862,1.49164,0.35716,0.10088,1.4909,0.01171,0.40662,1.21601,0.45959,0.2804,1.2596,0.11173,0.52805,1.43969,0.34212,0.36671,1.48439
1397,0.23027,0.21568,1.54923,0.12913,0.56097,0.12214,0.18892,0.11994,0.07945,0.12719,0.50967,0.54437,0.25358,0.15643,0.49942,0.13449,0.28762,0.93176,0.27617,0.16866,0.93851,0.06451,0.27846,1.49213,0.35757,0.10141,1.49081,0.01075,0.40563,1.21636,0.4602,0.28097,1.25964,0.11115,0.52788,1.43943,0.34264,0.36721,1.48441
1398,0.23116,0.21611,1.54964,0.1289,0.56124,0.12211,0.18937,0.11973,0.07979,0.12763,0.50961,0.54431,0.25475,0.15723,0.49955,0.13509,0.28776,0.93181,0.2772,0.16931,0.93866,0.06452,0.27807,1.49245,0.35816,0.10196,1.49086,0.01049,0.40511,1.21668,0.46073,0.28151,1.25964,0.11103,0.52801,1.43933,0.34321,0.36768,1.48446
1399,0.23193,0.2162,1.55027,0.12897,0.56159,0.12234,0.18969,0.11968,0.08026,0.12793,0.50943,0.54448,0.25624,0.15819,0.49975,0.13557,0.28779,0.93209,0.27839,0.17019,0.93887,0.06439,0.27781,1.49259,0.35925,0.10281,1.49125,0.01083,0.40498,1.21679,0.46132,0.28216,1.25967,0.11116,0.52835,1.43928,0.34367,0.36831,1.48441
1400,0.23246,0.2161,1.55095,0.12882,0.56192,0.12275,0.18986,0.11978,0.0808,0.12811,0.50918,0.54481,0.25794,0.15934,0.49995,0.13589,0.28792,0.93264,0.27945,0.17121,0.93911,0.06433,0.27792,1.49254,0.36088,0.10389,1.49202,0.01146,0.40505,1.21658,0.46189,0.28303,1.2598,0.111,0.52871,1.43926,0.34381,0.36917,1.48433
1401,0.23279,0.21611,1.55151,0.12814,0.5622,0.12309,0.19,0.11997,0.08132,0.12824,0.50907,0.54511,0.25963,0.16062,0.50011,0.13622,0.2883,0.93321,0.28029,0.1722,0.93932,0.06435,0.27837,1.4923,0.36265,0.1049,1.49284,0.01208,0.4052,1.21609,0.46234,0.2842,1.26018,0.1102,0.52903,1.4393,0.34373,0.37011,1.48452
1402,0.23305,0.2165,1.55186,0.12706,0.56239,0.1232,0.19025,0.12019,0.08176,0.12846,0.50932,0.54522,0.26114,0.16192,0.50023,0.13675,0.28892,0.93353,0.28095,0.17297,0.93949,0.06442,0.279,1.49217,0.36384,0.10568,1.49333,0.01237,0.40529,1.21567,0.46284,0.2856,1.26085,0.1091,0.52937,1.43935,0.3438,0.3709,1.4852
1403,0.23338,0.21735,1.55208,0.12595,0.56252,0.12316,0.19062,0.12045,0.08215,0.12872,0.5098,0.54522,0.26248,0.16319,0.50035,0.13741,0.28956,0.93361,0.28143,0.1734,0.93967,0.06465,0.27968,1.49239,0.36415,0.10634,1.49359,0.01226,0.40524,1.21563,0.46351,0.28679,1.26168,0.10837,0.52974,1.43934,0.34432,0.37143,1.48619
1404,0.23376,0.21829,1.55235,0.12505,0.56265,0.12325,0.19101,0.12068,0.08262,0.12878,0.51013,0.54532,0.26386,0.16431,0.50056,0.13796,0.28999,0.93377,0.28186,0.17369,0.93994,0.0651,0.28039,1.49276,0.36414,0.107,1.49413,0.01216,0.4053,1.21581,0.4641,0.28738,1.26242,0.10819,0.53006,1.43941,0.34509,0.37184,1.4871
1405,0.23411,0.21885,1.55282,0.12441,0.56284,0.12356,0.19137,0.12065,0.08329,0.12848,0.51,0.54559,0.26549,0.16522,0.5009,0.1383,0.29022,0.93422,0.28242,0.17419,0.94033,0.06563,0.28105,1.49286,0.36462,0.10775,1.49523,0.0124,0.4057,1.21585,0.46423,0.28754,1.2629,0.10821,0.53021,1.43969,0.34559,0.37231,1.48766
1406,0.23445,0.21897,1.55343,0.12396,0.5631,0.1239,0.1918,0.1201,0.08416,0.12796,0.50952,0.54584,0.2674,0.16601,0.50137,0.13857,0.29046,0.93485,0.28323,0.1751,0.94084,0.06599,0.28143,1.49265,0.36578,0.10856,1.49665,0.01288,0.40621,1.21567,0.46385,0.28764,1.26312,0.10813,0.53022,1.44002,0.34568,0.37288,1.48795
1407,0.23483,0.21907,1.55401,0.12366,0.56336,0.12404,0.19242,0.11897,0.08514,0.12746,0.509,0.54588,0.2695,0.1668,0.50186,0.13902,0.29087,0.93539,0.28428,0.17626,0.94136,0.06616,0.28156,1.4924,0.36711,0.10926,1.49797,0.01338,0.40657,1.21546,0.46332,0.28777,1.26324,0.10797,0.53034,1.44022,0.34584,0.37346,1.48825
1408,0.23528,0.2196,1.5544,0.12341,0.5634,0.12396,0.19323,0.11741,0.08615,0.12733,0.50871,0.54576,0.27162,0.16766,0.50234,0.13966,0.2914,0.9357,0.28535,0.17735,0.94187,0.06637,0.28169,1.49243,0.3679,0.10967,1.49887,0.01383,0.40671,1.21544,0.46305,0.28786,1.26346,0.10785,0.53081,1.44026,0.34661,0.37398,1.48886
1409,0.23577,0.22064,1.55459,0.12307,0.56313,0.12381,0.19421,0.11564,0.08728,0.12776,0.5087,0.54563,0.27363,0.16853,0.50294,0.14028,0.29191,0.93586,0.28614,0.1781,0.94251,0.06675,0.28196,1.49298,0.36785,0.10973,1.49922,0.01401,0.40642,1.21579,0.46328,0.28795,1.26395,0.10777,0.53156,1.44014,0.34793,0.3745,1.48974
1410,0.23619,0.22189,1.55473,0.12272,0.56277,0.12379,0.1953,0.11381,0.08858,0.12857,0.50879,0.54566,0.27554,0.16915,0.50376,0.14073,0.2923,0.93606,0.2866,0.17853,0.94337,0.06714,0.28214,1.49401,0.36724,0.10957,1.49924,0.01387,0.40562,1.21649,0.4639,0.28811,1.26472,0.10777,0.53231,1.43991,0.34916,0.37513,1.49064
1411,0.23635,0.223,1.555,0.12252,0.56262,0.12401,0.19638,0.11192,0.08998,0.12928,0.50868,0.54586,0.27742,0.16932,0.50473,0.141,0.29258,0.9365,0.28685,0.17883,0.94437,0.06734,0.28212,1.49515,0.36639,0.10946,1.49935,0.01372,0.40472,1.2173,0.46447,0.2883,1.26566,0.10792,0.53292,1.43973,0.3498,0.37589,1.49139
1412,0.23621,0.22396,1.55549,0.12239,0.56266,0.12437,0.1974,0.10999,0.09138,0.12974,0.50831,0.54617,0.27918,0.16924,0.50573,0.14119,0.29288,0.93718,0.28694,0.17903,0.9454,0.06741,0.28223,1.496,0.36529,0.10949,1.49974,0.01376,0.4043,1.21792,0.46467,0.28829,1.26656,0.10821,0.5334,1.43972,0.34989,0.37651,1.492
1413,0.23601,0.22497,1.5561,0.12218,0.5627,0.12472,0.19832,0.10822,0.09271,0.13018,0.50785,0.54644,0.28061,0.16925,0.5067,0.14145,0.29332,0.93795,0.28691,0.17912,0.94639,0.06761,0.28287,1.49645,0.36408,0.10963,1.50031,0.01397,0.40459,1.21822,0.46449,0.28798,1.26723,0.10851,0.53384,1.43989,0.34968,0.37668,1.49246
1414,0.23616,0.22602,1.5567,0.1219,0.56268,0.125,0.19906,0.10674,0.09384,0.13069,0.50751,0.54666,0.28173,0.1694,0.50751,0.14185,0.29386,0.93866,0.28699,0.17927,0.94721,0.06805,0.28404,1.49659,0.3633,0.10992,1.50096,0.0143,0.40544,1.21823,0.46418,0.28763,1.26759,0.10874,0.53431,1.44017,0.34939,0.37654,1.49274
1415,0.23686,0.22682,1.55731,0.12166,0.56272,0.1253,0.19958,0.10539,0.09464,0.13116,0.50738,0.54692,0.28267,0.16939,0.50802,0.14231,0.29433,0.93924,0.28743,0.1797,0.94772,0.06855,0.28539,1.49667,0.36319,0.11052,1.50166,0.01467,0.40645,1.21819,0.46397,0.28753,1.26772,0.10894,0.53482,1.44049,0.34921,0.37664,1.49281
1416,0.23773,0.22717,1.55797,0.12146,0.56285,0.12564,0.19994,0.10387,0.09514,0.13152,0.50745,0.54724,0.28337,0.169,0.50827,0.14277,0.29465,0.93969,0.28822,0.18042,0.94794,0.06876,0.28648,1.49699,0.36336,0.1115,1.50233,0.01479,0.40718,1.21838,0.46389,0.28782,1.26776,0.1092,0.53531,1.44075,0.34912,0.37744,1.49264
1417,0.23811,0.22721,1.5586,0.12117,0.56301,0.12597,0.20033,0.10214,0.0955,0.13186,0.50758,0.54755,0.28365,0.16832,0.50849,0.1432,0.29485,0.94004,0.28911,0.1812,0.94812,0.06853,0.28707,1.49759,0.36353,0.11254,1.50285,0.01451,0.40746,1.21885,0.46388,0.28833,1.2678,0.10949,0.53571,1.44091,0.3489,0.37875,1.49226
1418,0.23778,0.22732,1.55895,0.12073,0.56308,0.12617,0.20076,0.10039,0.09586,0.13219,0.50763,0.54773,0.28342,0.16756,0.50882,0.14358,0.29506,0.94031,0.28979,0.18179,0.94839,0.06807,0.28734,1.49823,0.36369,0.11319,1.50325,0.01413,0.40756,1.2194,0.46391,0.28867,1.26792,0.1097,0.53607,1.44106,0.34856,0.37988,1.49187
1419,0.23713,0.22773,1.55896,0.12028,0.56308,0.12623,0.20107,0.09878,0.09617,0.13241,0.5076,0.54777,0.28277,0.1669,0.50917,0.14392,0.2954,0.94054,0.29012,0.18213,0.94869,0.0677,0.28775,1.49867,0.3638,0.1133,1.50363,0.01406,0.40789,1.21975,0.464,0.28864,1.2682,0.10986,0.53653,1.44125,0.34852,0.3803,1.49189
1420,0.23663,0.22827,1.55891,0.12006,0.5631,0.12618,0.20107,0.09735,0.09628,0.13242,0.50756,0.5477,0.28191,0.16638,0.5093,0.14426,0.29589,0.94075,0.29026,0.18235,0.94877,0.06757,0.28856,1.49888,0.36361,0.1132,1.50396,0.01427,0.40861,1.21986,0.46412,0.2885,1.26862,0.11012,0.53716,1.44138,0.34895,0.37997,1.49256
1421,0.23632,0.22864,1.55904,0.12012,0.56318,0.12598,0.20072,0.09615,0.09607,0.13228,0.50754,0.5475,0.28092,0.16593,0.50908,0.14464,0.29644,0.94084,0.29047,0.18265,0.94851,0.06769,0.28956,1.49888,0.36313,0.11328,1.50404,0.01437,0.40955,1.21983,0.46427,0.28867,1.26904,0.11044,0.53791,1.44137,0.34938,0.37929,1.49346
1422,0.23598,0.22882,1.5592,0.12031,0.56322,0.12558,0.20011,0.09535,0.09548,0.13209,0.50754,0.5471,0.27975,0.1654,0.50855,0.14503,0.29692,0.94067,0.29084,0.18308,0.9479,0.06804,0.29033,1.49869,0.36266,0.11364,1.50383,0.01419,0.41043,1.2198,0.46455,0.28919,1.26927,0.11069,0.53861,1.44125,0.34931,0.37883,1.49391
1423,0.23551,0.22904,1.55909,0.12044,0.56316,0.12498,0.19941,0.09508,0.09456,0.1319,0.50763,0.54652,0.27841,0.16463,0.50784,0.14534,0.29721,0.94019,0.29125,0.18348,0.9471,0.06843,0.29064,1.49831,0.36242,0.11398,1.50344,0.01398,0.41117,1.21971,0.46487,0.28978,1.26931,0.1108,0.53917,1.44113,0.34879,0.3789,1.49373
1424,0.23501,0.22943,1.55861,0.12054,0.56298,0.12429,0.1987,0.09538,0.09348,0.13167,0.50786,0.5459,0.27694,0.16352,0.50714,0.14554,0.29726,0.93946,0.2916,0.18372,0.94628,0.06851,0.29053,1.49769,0.3624,0.11412,1.503,0.01399,0.41186,1.21946,0.46497,0.29031,1.26921,0.11079,0.53958,1.44105,0.34839,0.37939,1.49338
1425,0.2347,0.22999,1.55793,0.12084,0.56273,0.12359,0.19797,0.09614,0.09243,0.1314,0.50811,0.54528,0.27542,0.1622,0.50658,0.1457,0.29718,0.93865,0.29185,0.18376,0.94559,0.06816,0.29023,1.49688,0.36252,0.11421,1.50249,0.01402,0.41259,1.21902,0.46476,0.29083,1.2689,0.11061,0.53988,1.44095,0.34861,0.38001,1.49325
1426,0.23468,0.23057,1.5572,0.12133,0.56251,0.12296,0.19717,0.09715,0.09152,0.13117,0.50821,0.54471,0.27383,0.16095,0.50617,0.14591,0.29709,0.93796,0.29198,0.18357,0.94506,0.06765,0.29007,1.49603,0.36257,0.11447,1.50184,0.01384,0.41333,1.2185,0.46449,0.29135,1.2683,0.1103,0.54013,1.44077,0.34938,0.38056,1.49318
1427,0.23485,0.23102,1.55643,0.12174,0.56237,0.12249,0.19635,0.09823,0.09075,0.13112,0.50819,0.54427,0.27215,0.16003,0.50586,0.14614,0.29702,0.93748,0.29195,0.18317,0.94465,0.0673,0.29021,1.49527,0.36243,0.11487,1.50111,0.01355,0.41408,1.21801,0.46438,0.29173,1.26756,0.11009,0.54046,1.44048,0.35014,0.38102,1.49284
1428,0.23501,0.23122,1.55557,0.12192,0.56227,0.12222,0.19553,0.09932,0.09003,0.13137,0.50831,0.54402,0.27041,0.15941,0.50556,0.14634,0.29688,0.93709,0.29188,0.1827,0.94426,0.06712,0.2905,1.49458,0.36219,0.11525,1.50044,0.01344,0.41488,1.21753,0.46448,0.2919,1.26688,0.11023,0.54093,1.44007,0.35042,0.3813,1.49221
1429,0.23496,0.2312,1.55467,0.12198,0.56218,0.12214,0.19478,0.10039,0.08922,0.13189,0.50879,0.544,0.26868,0.15894,0.50515,0.14642,0.2966,0.93668,0.29189,0.18231,0.94376,0.06688,0.2907,1.49376,0.36209,0.11545,1.49992,0.01357,0.41578,1.21696,0.4647,0.29197,1.2664,0.11068,0.54141,1.4396,0.35017,0.38133,1.49151
1430,0.23464,0.23113,1.55384,0.12215,0.56213,0.12218,0.19415,0.10129,0.08826,0.13244,0.50952,0.54413,0.26704,0.15857,0.50454,0.1464,0.29617,0.93621,0.29201,0.18205,0.94305,0.06652,0.29074,1.49273,0.36219,0.11539,1.49951,0.01384,0.41673,1.21622,0.46499,0.29193,1.2661,0.11111,0.54159,1.43923,0.34967,0.38117,1.49085
1431,0.23422,0.23119,1.55316,0.12253,0.56219,0.12223,0.19365,0.10189,0.08719,0.13278,0.51022,0.54426,0.26553,0.15833,0.50376,0.14635,0.29572,0.93572,0.29217,0.18184,0.94217,0.06613,0.29071,1.49167,0.36247,0.11505,1.49906,0.01408,0.41746,1.21539,0.46525,0.29172,1.26573,0.1112,0.54132,1.43902,0.34937,0.38102,1.49017
1432,0.23395,0.23131,1.5527,0.12306,0.56229,0.12212,0.19322,0.10211,0.08612,0.13292,0.51073,0.54422,0.26414,0.15812,0.50291,0.14635,0.29538,0.93521,0.29224,0.18158,0.94123,0.0659,0.29068,1.49083,0.36293,0.1146,1.49841,0.01408,0.41769,1.21462,0.46536,0.29147,1.26507,0.11095,0.54081,1.43877,0.3495,0.38113,1.48938
1433,0.23389,0.2313,1.55237,0.12354,0.56221,0.12182,0.19278,0.10192,0.08514,0.13304,0.51107,0.54397,0.26288,0.15776,0.5021,0.14635,0.29511,0.93463,0.29214,0.18115,0.94035,0.06598,0.29073,1.49019,0.36345,0.11419,1.49746,0.01382,0.41757,1.21397,0.46522,0.2915,1.26417,0.11074,0.54046,1.43822,0.3498,0.38153,1.48856
1434,0.23401,0.23113,1.55203,0.12384,0.56191,0.12142,0.19234,0.1014,0.08436,0.13323,0.51125,0.54363,0.26171,0.15704,0.50147,0.14626,0.29478,0.93402,0.29184,0.18056,0.93965,0.06642,0.29095,1.48945,0.36392,0.11383,1.4964,0.01373,0.41767,1.21327,0.46486,0.29188,1.26332,0.11098,0.54049,1.43743,0.34981,0.382,1.48786
1435,0.23422,0.23095,1.55151,0.12404,0.5616,0.12101,0.19193,0.10077,0.08378,0.13349,0.51128,0.54326,0.26066,0.15596,0.50104,0.14604,0.29436,0.93341,0.29149,0.17997,0.93915,0.06703,0.29133,1.48832,0.36441,0.11341,1.49554,0.01448,0.41847,1.21231,0.46437,0.29224,1.26264,0.1117,0.54078,1.43674,0.34945,0.3823,1.48727
1436,0.23441,0.23088,1.5508,0.12432,0.56151,0.12066,0.1916,0.10026,0.0833,0.13376,0.51127,0.54293,0.25975,0.15467,0.50076,0.14578,0.29389,0.93284,0.29131,0.17962,0.93877,0.06751,0.2917,1.48683,0.36499,0.113,1.49515,0.01616,0.4198,1.21104,0.46379,0.29214,1.26199,0.11248,0.54103,1.43644,0.34907,0.38241,1.48664
1437,0.23435,0.2309,1.55005,0.1246,0.56156,0.12044,0.19138,0.0998,0.0829,0.13393,0.51138,0.54271,0.25894,0.15337,0.50057,0.14555,0.29344,0.93232,0.29128,0.17943,0.93845,0.0677,0.29184,1.48545,0.3654,0.11272,1.49518,0.01798,0.4209,1.2098,0.46321,0.29138,1.26123,0.11286,0.54096,1.43644,0.34896,0.38232,1.48585
1438,0.23402,0.231,1.54941,0.12464,0.56156,0.12031,0.19123,0.09925,0.08265,0.134,0.5116,0.5426,0.25812,0.15213,0.50051,0.14535,0.29305,0.93189,0.29105,0.17903,0.9383,0.06777,0.2917,1.48464,0.365,0.11251,1.49527,0.01897,0.42105,1.20897,0.46275,0.2901,1.26048,0.11279,0.5406,1.43633,0.34889,0.38209,1.48486
1439,0.23375,0.23115,1.54897,0.12443,0.56141,0.12019,0.19117,0.09863,0.0826,0.13398,0.51179,0.54252,0.2573,0.15084,0.50067,0.14521,0.29281,0.93156,0.29046,0.17823,0.93841,0.06789,0.29142,1.4844,0.36364,0.1122,1.4951,0.01915,0.42031,1.2085,0.4626,0.28865,1.25996,0.11266,0.54021,1.43579,0.34852,0.38197,1.48369
1440,0.23401,0.23121,1.5487,0.12431,0.56128,0.1201,0.19119,0.09812,0.08264,0.13393,0.51191,0.54246,0.25651,0.14936,0.50096,0.14519,0.29264,0.93134,0.28972,0.17719,0.93867,0.06795,0.29121,1.48427,0.36217,0.11172,1.4948,0.0193,0.41935,1.20801,0.46278,0.28734,1.25974,0.11281,0.54001,1.4349,0.34786,0.38202,1.48247
1441,0.23473,0.23107,1.54854,0.12445,0.56127,0.12016,0.19125,0.09783,0.08262,0.13395,0.51201,0.54254,0.25572,0.1478,0.50123,0.14522,0.29233,0.93119,0.28915,0.17615,0.93888,0.06777,0.29109,1.48402,0.36157,0.11118,1.49468,0.01981,0.41849,1.2073,0.46306,0.28626,1.2596,0.11319,0.53995,1.43382,0.34735,0.38201,1.48145
1442,0.23528,0.23084,1.54846,0.12465,0.56137,0.12044,0.19133,0.09768,0.08251,0.13412,0.51213,0.54282,0.25481,0.14635,0.50142,0.1451,0.29173,0.93106,0.28876,0.17523,0.939,0.06744,0.291,1.48381,0.36187,0.11065,1.49482,0.02028,0.41752,1.20654,0.46317,0.28528,1.25932,0.11356,0.53991,1.4326,0.34736,0.38169,1.48084
1443,0.23532,0.2307,1.54844,0.12465,0.56157,0.12088,0.1914,0.09754,0.08233,0.13443,0.51229,0.54325,0.25383,0.14509,0.50152,0.14482,0.29092,0.93096,0.28847,0.17443,0.93902,0.06731,0.291,1.48378,0.36236,0.11015,1.49499,0.02048,0.41631,1.20591,0.4631,0.28431,1.2589,0.1138,0.53982,1.43134,0.34795,0.38105,1.48061
1444,0.23515,0.23068,1.54845,0.1244,0.56194,0.12139,0.19137,0.09738,0.08206,0.13465,0.5125,0.54373,0.25295,0.14386,0.5015,0.1445,0.29014,0.93089,0.28825,0.17376,0.93891,0.06771,0.29128,1.48374,0.36257,0.10969,1.49502,0.02087,0.41527,1.20528,0.46301,0.28336,1.25844,0.11396,0.53971,1.4303,0.34886,0.38025,1.48061
1445,0.2352,0.23059,1.54841,0.12406,0.56248,0.12188,0.19113,0.0972,0.08172,0.13457,0.51269,0.54417,0.25219,0.14252,0.50136,0.14427,0.2895,0.93086,0.28813,0.17325,0.93866,0.06857,0.29196,1.48353,0.3627,0.10926,1.49502,0.02193,0.41472,1.20449,0.46285,0.28255,1.25804,0.11411,0.53961,1.42963,0.34967,0.37955,1.48066
1446,0.23551,0.23037,1.54831,0.12382,0.56303,0.12227,0.19075,0.09701,0.08143,0.13418,0.51274,0.5445,0.25136,0.14119,0.50126,0.14411,0.28896,0.93084,0.28806,0.17281,0.93843,0.0696,0.29287,1.48331,0.363,0.10883,1.49513,0.02326,0.41444,1.20371,0.4624,0.28188,1.25767,0.1143,0.53952,1.42921,0.35003,0.3792,1.48055
1447,0.23584,0.23016,1.54824,0.12363,0.56339,0.12249,0.19039,0.09685,0.08136,0.13377,0.51258,0.54467,0.25028,0.14,0.5014,0.14397,0.28844,0.93079,0.2878,0.17213,0.93847,0.07056,0.29353,1.48335,0.36319,0.10825,1.49525,0.02402,0.41398,1.20328,0.46174,0.28109,1.25728,0.1145,0.53942,1.42881,0.34998,0.37928,1.4801
1448,0.23608,0.23006,1.54832,0.12335,0.5635,0.12263,0.19013,0.09678,0.08148,0.13365,0.51223,0.54475,0.24911,0.1389,0.50176,0.1438,0.28789,0.93075,0.28724,0.17113,0.93876,0.07136,0.29362,1.48354,0.36279,0.10748,1.49528,0.02394,0.41322,1.20326,0.46126,0.27991,1.25697,0.11466,0.53923,1.42837,0.35,0.37951,1.47941
1449,0.23636,0.22998,1.5485,0.12297,0.56345,0.12286,0.18993,0.09671,0.08155,0.13368,0.51172,0.54492,0.2482,0.13771,0.50203,0.14354,0.2872,0.93082,0.28666,0.17006,0.939,0.072,0.29323,1.48347,0.36193,0.10674,1.4954,0.02366,0.41259,1.20324,0.4612,0.27835,1.25683,0.11474,0.53898,1.428,0.35061,0.37951,1.47889
1450,0.23675,0.22986,1.54863,0.12268,0.56341,0.12332,0.1897,0.09645,0.08138,0.13348,0.5111,0.5453,0.24769,0.13635,0.502,0.1432,0.28632,0.93106,0.28635,0.16919,0.93891,0.07242,0.29283,1.48292,0.36131,0.10623,1.4959,0.02396,0.41242,1.20281,0.46145,0.27667,1.25686,0.11471,0.53874,1.42773,0.35182,0.37912,1.47881
1451,0.23705,0.22968,1.54862,0.1227,0.56358,0.1239,0.18949,0.09593,0.08105,0.13293,0.51053,0.5458,0.24737,0.13492,0.50178,0.14286,0.2854,0.93136,0.28616,0.16842,0.93863,0.07247,0.29275,1.48217,0.36135,0.10591,1.49669,0.02482,0.41257,1.20203,0.46177,0.27514,1.25691,0.11468,0.53855,1.4275,0.353,0.37855,1.47884
1452,0.23696,0.22939,1.54859,0.12292,0.56391,0.12433,0.18939,0.09533,0.08081,0.13232,0.51013,0.54615,0.24689,0.13351,0.50166,0.14263,0.28472,0.93153,0.28572,0.16747,0.93847,0.07214,0.2929,1.48169,0.36181,0.10558,1.4973,0.02564,0.41268,1.20134,0.46207,0.27386,1.25679,0.1148,0.53844,1.42722,0.35352,0.37809,1.47844
1453,0.23645,0.22899,1.54864,0.12305,0.56412,0.12448,0.18941,0.0949,0.08077,0.13197,0.50988,0.54626,0.24603,0.13216,0.50183,0.14247,0.28432,0.93154,0.28489,0.16625,0.93862,0.07171,0.29303,1.48165,0.36207,0.10508,1.49731,0.02596,0.41259,1.20108,0.46236,0.27282,1.25643,0.11518,0.53846,1.42687,0.3534,0.37783,1.47752
1454,0.23598,0.22859,1.54875,0.12297,0.5641,0.12453,0.18948,0.09477,0.08088,0.13197,0.50967,0.54628,0.2449,0.13087,0.5022,0.14231,0.28399,0.9315,0.28387,0.16492,0.93899,0.07157,0.29307,1.48184,0.3617,0.10437,1.49683,0.02581,0.41238,1.20117,0.46261,0.27187,1.25604,0.11572,0.53862,1.42648,0.3532,0.37761,1.47655
1455,0.23607,0.22831,1.54881,0.12279,0.56399,0.12469,0.18948,0.09485,0.08097,0.13217,0.50945,0.54642,0.24386,0.12962,0.50253,0.1421,0.28353,0.93151,0.28299,0.16368,0.93931,0.07173,0.29307,1.48194,0.36102,0.10354,1.49635,0.02552,0.41225,1.20128,0.46282,0.27085,1.25581,0.11617,0.53892,1.42606,0.35351,0.37725,1.47605
1456,0.23676,0.22816,1.54869,0.12264,0.564,0.12503,0.1893,0.09486,0.08086,0.13243,0.50933,0.54673,0.24317,0.12833,0.50259,0.14183,0.28292,0.93154,0.28231,0.16259,0.93935,0.07192,0.29306,1.48177,0.36071,0.10266,1.49633,0.02539,0.41233,1.2012,0.46306,0.26967,1.25582,0.11637,0.53944,1.42559,0.35451,0.37679,1.47609
1457,0.23748,0.22812,1.54836,0.12263,0.56417,0.12539,0.18891,0.09466,0.08061,0.13267,0.5094,0.54707,0.24272,0.12691,0.50245,0.14144,0.28225,0.93147,0.28161,0.16157,0.9392,0.07195,0.29314,1.48147,0.3608,0.10169,1.49672,0.02554,0.41258,1.20095,0.46347,0.26825,1.25602,0.1165,0.54021,1.42506,0.35595,0.37634,1.47632
1458,0.23764,0.22821,1.5479,0.12273,0.56442,0.12565,0.18851,0.09433,0.08041,0.13286,0.5096,0.54733,0.2422,0.12537,0.50235,0.14096,0.28166,0.93127,0.2807,0.16049,0.9391,0.07194,0.29344,1.48131,0.36061,0.10063,1.49709,0.02594,0.4129,1.20074,0.46407,0.26652,1.25627,0.11699,0.54112,1.42446,0.35738,0.37594,1.47632
1459,0.23733,0.22832,1.54757,0.12291,0.56467,0.12587,0.18833,0.09398,0.08034,0.13292,0.50983,0.54754,0.24143,0.1238,0.50245,0.14053,0.28119,0.93107,0.2797,0.15937,0.93918,0.07209,0.29384,1.48138,0.35976,0.09956,1.49713,0.02649,0.41324,1.20072,0.46474,0.26466,1.25643,0.11803,0.54209,1.42388,0.35848,0.37564,1.4759
1460,0.23714,0.22825,1.54754,0.12314,0.5649,0.12621,0.18838,0.09358,0.08033,0.13287,0.51011,0.5479,0.2404,0.12232,0.50265,0.14025,0.28078,0.93102,0.27888,0.15836,0.93932,0.07249,0.29404,1.48156,0.35873,0.09862,1.4969,0.02696,0.41351,1.20091,0.46533,0.26307,1.25646,0.1192,0.54306,1.42338,0.35926,0.3754,1.47534
1461,0.23748,0.22796,1.54775,0.12326,0.56506,0.12672,0.18855,0.09315,0.08035,0.13279,0.51048,0.54844,0.23922,0.12104,0.50289,0.14011,0.28047,0.93116,0.27822,0.15748,0.93948,0.0731,0.29401,1.48174,0.35791,0.0978,1.49653,0.02709,0.41358,1.20122,0.46583,0.26206,1.25655,0.11991,0.54397,1.42296,0.3599,0.37515,1.4751
1462,0.23822,0.22774,1.54796,0.1232,0.56514,0.12724,0.18873,0.09281,0.08051,0.13275,0.51091,0.54901,0.23806,0.11997,0.50325,0.14002,0.2804,0.93143,0.27744,0.15664,0.93979,0.07377,0.29419,1.48204,0.35702,0.09701,1.49601,0.02678,0.41342,1.20154,0.46648,0.26158,1.25695,0.12003,0.54477,1.42252,0.36051,0.37482,1.47541
1463,0.23899,0.22785,1.54799,0.12308,0.5651,0.12761,0.18883,0.09271,0.08082,0.13274,0.51137,0.54944,0.23706,0.11908,0.50374,0.13994,0.28057,0.93169,0.27642,0.15579,0.94028,0.07437,0.29502,1.48251,0.35572,0.09623,1.49539,0.02624,0.41325,1.20177,0.46745,0.26127,1.2577,0.11991,0.54555,1.42202,0.36116,0.37454,1.476
1464,0.23949,0.22821,1.54773,0.12315,0.56507,0.12785,0.18885,0.09277,0.08111,0.13262,0.51183,0.54974,0.23626,0.11825,0.50418,0.13987,0.28079,0.93184,0.27544,0.15504,0.94073,0.07474,0.29634,1.48292,0.35433,0.09554,1.49486,0.0259,0.41343,1.20183,0.46858,0.26079,1.25852,0.11993,0.54643,1.4215,0.36195,0.37446,1.47643
1465,0.23963,0.2285,1.54723,0.12341,0.56524,0.12806,0.18884,0.09281,0.08116,0.13229,0.51235,0.55001,0.2355,0.11743,0.50436,0.13978,0.28083,0.93181,0.27483,0.15453,0.94088,0.07483,0.29745,1.48304,0.35339,0.09491,1.49457,0.02598,0.41407,1.20175,0.46953,0.26003,1.25906,0.12016,0.54743,1.42113,0.36296,0.37458,1.47655
1466,0.2395,0.22845,1.54669,0.12368,0.56577,0.12835,0.18882,0.09274,0.08101,0.13182,0.513,0.55033,0.2347,0.11671,0.50433,0.13958,0.28071,0.93166,0.27456,0.15434,0.94075,0.07463,0.29777,1.48282,0.35299,0.09427,1.49443,0.02641,0.41489,1.20163,0.4702,0.25927,1.25936,0.12047,0.54839,1.42098,0.36412,0.37469,1.47662
1467,0.2392,0.22795,1.54633,0.12391,0.56655,0.12881,0.18867,0.0926,0.08077,0.13143,0.51391,0.55082,0.23405,0.11615,0.50417,0.13912,0.28055,0.9315,0.27426,0.15434,0.94051,0.07423,0.29751,1.48248,0.35283,0.09381,1.49431,0.02709,0.41566,1.20153,0.47081,0.25881,1.25964,0.12086,0.54924,1.42096,0.36536,0.37469,1.47696
1468,0.23891,0.22719,1.54622,0.12422,0.56737,0.1295,0.18835,0.09243,0.08055,0.13126,0.51521,0.55158,0.23375,0.11572,0.50397,0.1384,0.28044,0.9314,0.27366,0.15436,0.94029,0.07391,0.29755,1.48225,0.35277,0.09378,1.49431,0.02782,0.41639,1.20143,0.47161,0.25868,1.26,0.12131,0.55013,1.42088,0.36671,0.37465,1.47754
1469,0.23881,0.22666,1.54618,0.12473,0.56809,0.13035,0.18808,0.09228,0.0804,0.13119,0.51687,0.55255,0.23364,0.11532,0.50381,0.13763,0.28039,0.93133,0.27284,0.15425,0.94017,0.07407,0.29842,1.48224,0.35288,0.09402,1.49455,0.02819,0.41722,1.20137,0.4726,0.25854,1.26041,0.1217,0.55115,1.4207,0.36812,0.37457,1.47813
1470,0.23889,0.22679,1.54605,0.12536,0.56872,0.13116,0.18805,0.09218,0.08038,0.13092,0.51854,0.5535,0.23342,0.11501,0.50382,0.13717,0.2805,0.93129,0.27196,0.15392,0.94025,0.07484,0.2998,1.48242,0.3529,0.09405,1.4949,0.02782,0.41814,1.20154,0.47371,0.25805,1.26096,0.12201,0.55228,1.42045,0.36931,0.37436,1.47856
1471,0.239,0.22747,1.54586,0.126,0.56938,0.13182,0.18815,0.09219,0.08053,0.13035,0.51995,0.55426,0.23298,0.11494,0.50404,0.1371,0.28082,0.93136,0.27111,0.15342,0.94054,0.07589,0.30102,1.48269,0.35233,0.09358,1.49508,0.0269,0.41899,1.20199,0.47483,0.25722,1.26178,0.12243,0.5534,1.42015,0.37014,0.37408,1.47894
1472,0.23896,0.22817,1.54575,0.12654,0.57025,0.13253,0.18808,0.09235,0.08077,0.12964,0.52111,0.55501,0.23252,0.11514,0.50431,0.13711,0.28118,0.93159,0.27036,0.153,0.94089,0.07672,0.30183,1.48291,0.35109,0.09289,1.49506,0.02619,0.41978,1.20248,0.47581,0.25638,1.26282,0.12308,0.55443,1.41988,0.3709,0.37393,1.47951
1473,0.23871,0.22851,1.54572,0.12687,0.5714,0.13356,0.1878,0.09268,0.08096,0.12897,0.52226,0.55605,0.2322,0.11549,0.5045,0.1368,0.28138,0.93201,0.26973,0.15286,0.94115,0.07697,0.30237,1.48298,0.34968,0.09241,1.49491,0.02617,0.42075,1.20277,0.47668,0.25589,1.26391,0.12382,0.55541,1.41983,0.37193,0.37403,1.48035
1474,0.2384,0.22858,1.54562,0.12693,0.57282,0.13498,0.18752,0.09319,0.08103,0.12834,0.52366,0.55747,0.23192,0.11587,0.50458,0.1361,0.28147,0.93258,0.26909,0.15297,0.94128,0.07667,0.30275,1.48292,0.34855,0.09223,1.49466,0.02661,0.4221,1.20299,0.47773,0.25586,1.26498,0.12436,0.55659,1.42011,0.37315,0.37431,1.48133
1475,0.23821,0.2286,1.54535,0.12687,0.57444,0.13665,0.1873,0.09375,0.08095,0.12775,0.52565,0.55918,0.23159,0.11625,0.50452,0.13526,0.28159,0.93309,0.26846,0.15328,0.94125,0.07608,0.30301,1.48281,0.3479,0.09224,1.49437,0.0271,0.42375,1.20328,0.47903,0.2561,1.26596,0.12467,0.55812,1.42056,0.37445,0.37466,1.48225
1476,0.23813,0.22863,1.545,0.12693,0.57617,0.1384,0.1871,0.09417,0.08071,0.1272,0.52833,0.56104,0.23135,0.11665,0.50429,0.13453,0.28178,0.93332,0.26805,0.15378,0.94102,0.07553,0.30332,1.48262,0.34772,0.09243,1.49425,0.02751,0.42551,1.20357,0.48035,0.25625,1.26668,0.12493,0.55986,1.42092,0.37601,0.37497,1.483
1477,0.23803,0.22866,1.54476,0.12706,0.5778,0.14,0.18696,0.09449,0.0804,0.12642,0.53122,0.56278,0.23142,0.11711,0.50395,0.13403,0.28211,0.93335,0.26784,0.15438,0.9407,0.0752,0.30396,1.4824,0.34768,0.09272,1.49437,0.02783,0.42725,1.20371,0.48146,0.25611,1.26717,0.12527,0.56163,1.42104,0.37789,0.37528,1.48362
1478,0.23776,0.22868,1.5448,0.127,0.57908,0.14123,0.18698,0.09483,0.08014,0.12508,0.53362,0.56413,0.23173,0.11772,0.50365,0.13373,0.28266,0.93342,0.26753,0.15491,0.94045,0.07508,0.30502,1.48226,0.34721,0.09284,1.49446,0.02792,0.42894,1.20382,0.48236,0.2558,1.26776,0.1256,0.56349,1.42094,0.37972,0.37566,1.48427
1479,0.23737,0.2288,1.54501,0.1267,0.57999,0.14217,0.18711,0.09518,0.07998,0.12322,0.53548,0.56516,0.23211,0.11867,0.50342,0.13346,0.28339,0.93364,0.26701,0.15535,0.94034,0.07499,0.3062,1.48225,0.34611,0.09283,1.49433,0.02781,0.43062,1.20404,0.48319,0.25567,1.26869,0.12575,0.56564,1.42074,0.38109,0.37611,1.48513
1480,0.2371,0.2292,1.54516,0.12647,0.58085,0.14314,0.18724,0.09544,0.07984,0.12129,0.53733,0.56622,0.23244,0.11991,0.50321,0.13312,0.28411,0.93388,0.26656,0.15596,0.94024,0.07486,0.30705,1.48219,0.34479,0.09312,1.49415,0.02778,0.43235,1.20435,0.48397,0.25591,1.26977,0.12569,0.56807,1.42063,0.38204,0.37655,1.48618
1481,0.2371,0.22992,1.54507,0.1266,0.58196,0.1443,0.18735,0.09565,0.07971,0.11968,0.53957,0.56747,0.23275,0.12116,0.50299,0.13272,0.2848,0.93401,0.26646,0.15694,0.94008,0.07474,0.30769,1.48205,0.34361,0.09393,1.49416,0.0281,0.43414,1.20467,0.48466,0.25647,1.27076,0.1255,0.57056,1.42074,0.38278,0.37692,1.4873
1482,0.23708,0.2308,1.54484,0.12714,0.58327,0.14553,0.18748,0.096,0.07964,0.11835,0.54215,0.56879,0.23322,0.1223,0.50284,0.13237,0.28555,0.93402,0.26671,0.15831,0.93993,0.07464,0.30864,1.48205,0.34269,0.09498,1.4943,0.02869,0.43593,1.20494,0.4852,0.25717,1.27159,0.1253,0.57296,1.42098,0.38355,0.37724,1.48844
1483,0.2365,0.2317,1.54464,0.12796,0.58455,0.1467,0.1876,0.09658,0.07968,0.11701,0.54484,0.57005,0.23399,0.12351,0.50277,0.13214,0.28638,0.93391,0.26714,0.15984,0.93986,0.07444,0.31005,1.48228,0.34197,0.09588,1.49434,0.02908,0.43762,1.2052,0.48571,0.2579,1.27229,0.12518,0.57531,1.42105,0.38454,0.37762,1.48957
1484,0.23517,0.2327,1.54449,0.12894,0.58556,0.1478,0.18764,0.09724,0.07971,0.1155,0.54745,0.57122,0.2351,0.12504,0.50262,0.13198,0.28717,0.93373,0.26754,0.16123,0.93978,0.07406,0.31152,1.48252,0.34133,0.09652,1.49401,0.02888,0.43924,1.20548,0.48651,0.25862,1.27295,0.12519,0.57767,1.42075,0.38586,0.37822,1.49054
1485,0.23358,0.23388,1.54427,0.1299,0.58621,0.14885,0.18768,0.09776,0.07959,0.114,0.54986,0.57234,0.23642,0.12698,0.50226,0.13182,0.28789,0.93357,0.26786,0.16246,0.93955,0.07352,0.31267,1.4824,0.34069,0.09711,1.49333,0.02816,0.44111,1.20571,0.48776,0.25941,1.27368,0.12539,0.58017,1.42017,0.3874,0.37922,1.49128
1486,0.23249,0.23511,1.54389,0.13069,0.58653,0.14978,0.1878,0.09798,0.07932,0.11279,0.55206,0.57334,0.23778,0.12919,0.5017,0.1316,0.28872,0.93352,0.26816,0.16385,0.93913,0.07298,0.31346,1.48171,0.34012,0.09795,1.49261,0.02736,0.44355,1.20584,0.48918,0.26049,1.27448,0.12578,0.58296,1.41953,0.38882,0.38063,1.4919
1487,0.23218,0.23619,1.54343,0.13138,0.58654,0.15043,0.18794,0.09801,0.07901,0.11186,0.55414,0.57409,0.2391,0.13147,0.50108,0.13131,0.28985,0.93354,0.26851,0.16566,0.93861,0.07248,0.31421,1.48069,0.3397,0.09927,1.49207,0.02682,0.44644,1.20585,0.49027,0.26205,1.27517,0.12619,0.58619,1.41887,0.38993,0.38221,1.49259
