PaulMeinheit/Bachelor_Muay_Thai/processed_Data/E1/roundhouse/sliced/JointPositions/sliced6.csv
Unnamed: 0_level_0,Neck_Joint_Position,Neck_Joint_Position,Neck_Joint_Position,L_ANKLE_POSITION,L_ANKLE_POSITION,L_ANKLE_POSITION,R_ANKLE_POSITION,R_ANKLE_POSITION,R_ANKLE_POSITION,L_KNEE_POSITION,L_KNEE_POSITION,L_KNEE_POSITION,R_KNEE_POSITION,R_KNEE_POSITION,R_KNEE_POSITION,L_HIP_POSITION,L_HIP_POSITION,L_HIP_POSITION,R_HIP_POSITION,R_HIP_POSITION,R_HIP_POSITION,L_SHOULDER_POSITION,L_SHOULDER_POSITION,L_SHOULDER_POSITION,R_SHOULDER_POSITION,R_SHOULDER_POSITION,R_SHOULDER_POSITION,L_ELBOW_POSITION,L_ELBOW_POSITION,L_ELBOW_POSITION,R_ELBOW_POSITION,R_ELBOW_POSITION,R_ELBOW_POSITION,L_WRIST_POSITION,L_WRIST_POSITION,L_WRIST_POSITION,R_WRIST_POSITION,R_WRIST_POSITION,R_WRIST_POSITION
ITEM,X,Y,Z,X,Y,Z,X,Y,Z,X,Y,Z,X,Y,Z,X,Y,Z,X,Y,Z,X,Y,Z,X,Y,Z,X,Y,Z,X,Y,Z,X,Y,Z,X,Y,Z
3568,0.18549,0.1695,1.53929,0.12271,0.56323,0.11905,0.10977,0.08556,0.07906,0.13497,0.48619,0.53718,0.18786,0.12601,0.49637,0.09876,0.2726,0.9277,0.22483,0.1372,0.93452,0.02248,0.24926,1.48338,0.28849,0.03791,1.47587,-0.01808,0.40244,1.2188,0.41503,0.19054,1.23731,0.09863,0.48869,1.45059,0.33441,0.31601,1.45988
3569,0.1863,0.17011,1.53908,0.12335,0.56344,0.1196,0.11005,0.08555,0.07896,0.13483,0.48809,0.53806,0.18803,0.12627,0.49627,0.09862,0.273,0.92775,0.22484,0.13773,0.93442,0.02268,0.2496,1.48319,0.2884,0.03843,1.47541,-0.01885,0.40266,1.21869,0.41655,0.19075,1.23752,0.09809,0.49074,1.44968,0.33524,0.316,1.45996
3570,0.18662,0.17088,1.53889,0.12428,0.56372,0.12021,0.11045,0.08574,0.07896,0.1346,0.49006,0.539,0.18813,0.12653,0.49631,0.09855,0.27345,0.92786,0.22477,0.13819,0.93447,0.02295,0.25025,1.483,0.28837,0.03878,1.47499,-0.01949,0.40315,1.21856,0.41798,0.19128,1.238,0.09742,0.49338,1.44873,0.33587,0.31618,1.46034
3571,0.18682,0.17163,1.53873,0.12536,0.56416,0.12089,0.11077,0.08594,0.07899,0.13435,0.49209,0.53998,0.1881,0.12674,0.49641,0.09845,0.27397,0.92801,0.22468,0.13872,0.93457,0.02302,0.251,1.48278,0.2883,0.0391,1.4747,-0.01998,0.40381,1.21838,0.41935,0.19206,1.23881,0.09662,0.49655,1.4477,0.3362,0.31655,1.46099
3572,0.18713,0.17224,1.53864,0.12638,0.56465,0.12162,0.11084,0.08607,0.07902,0.13396,0.49427,0.54104,0.18804,0.12693,0.49646,0.09813,0.27458,0.92819,0.2245,0.13946,0.93461,0.02265,0.25177,1.4825,0.28828,0.03933,1.47471,-0.02022,0.40463,1.21811,0.42074,0.19271,1.23988,0.0959,0.49975,1.4467,0.33644,0.31686,1.46181
3573,0.18744,0.17271,1.53864,0.12715,0.56513,0.12239,0.11069,0.08619,0.07903,0.13323,0.49658,0.54213,0.18805,0.12715,0.49643,0.09756,0.27535,0.92841,0.22413,0.14039,0.93459,0.02214,0.25268,1.48226,0.28838,0.03943,1.47508,-0.02007,0.40561,1.2178,0.42215,0.19288,1.24104,0.09534,0.50261,1.44596,0.33687,0.31693,1.46267
3574,0.18764,0.17316,1.53873,0.12766,0.56575,0.12314,0.1105,0.08627,0.07905,0.13217,0.49885,0.54316,0.18804,0.12735,0.4964,0.09695,0.2763,0.92873,0.22367,0.14146,0.93458,0.02203,0.25384,1.4822,0.28851,0.03943,1.47564,-0.01951,0.40669,1.21759,0.42359,0.19269,1.24222,0.09467,0.50531,1.44567,0.33765,0.3169,1.4635
3575,0.18773,0.17372,1.53897,0.12796,0.56669,0.12391,0.11046,0.08624,0.07909,0.13108,0.50096,0.54414,0.18792,0.12741,0.49645,0.0965,0.27732,0.92913,0.22335,0.14259,0.9346,0.02255,0.25521,1.48238,0.2885,0.03952,1.47609,-0.01869,0.40786,1.21761,0.42509,0.19263,1.24346,0.09366,0.50822,1.44584,0.33865,0.317,1.46445
3576,0.18762,0.17428,1.53944,0.12803,0.56784,0.12478,0.11052,0.08619,0.07912,0.13018,0.50307,0.54516,0.18769,0.12733,0.49653,0.09623,0.27826,0.92953,0.22324,0.14367,0.93464,0.02328,0.25661,1.4827,0.28836,0.03985,1.47628,-0.01791,0.40918,1.21787,0.42671,0.19309,1.24478,0.09253,0.51137,1.44622,0.33967,0.31723,1.46567
3577,0.18725,0.1747,1.54008,0.12775,0.56896,0.12578,0.11053,0.08623,0.07913,0.12941,0.50543,0.54635,0.18751,0.12725,0.49659,0.0961,0.27918,0.92993,0.22325,0.14471,0.93463,0.02368,0.25798,1.48298,0.28824,0.0404,1.4763,-0.01739,0.41076,1.21826,0.42842,0.19399,1.24613,0.09175,0.51446,1.44655,0.34067,0.31741,1.46714
3578,0.18688,0.17499,1.54069,0.12706,0.56992,0.12691,0.11048,0.08633,0.07913,0.12853,0.50819,0.54775,0.1875,0.1273,0.49659,0.096,0.28019,0.93036,0.22324,0.14578,0.93459,0.02363,0.25933,1.48314,0.28832,0.04106,1.47634,-0.01708,0.41261,1.21866,0.4302,0.19499,1.24745,0.09152,0.51737,1.44673,0.34181,0.31749,1.46871
3579,0.1869,0.1754,1.54104,0.12607,0.57076,0.12819,0.11045,0.08634,0.07914,0.12737,0.51131,0.54936,0.18764,0.12761,0.49654,0.09578,0.28127,0.93082,0.22308,0.14691,0.93453,0.0234,0.26076,1.48328,0.28853,0.04173,1.47649,-0.01685,0.41461,1.21904,0.43205,0.1959,1.24878,0.09154,0.52025,1.44681,0.34317,0.31759,1.47029
3580,0.18744,0.17618,1.54112,0.12495,0.57161,0.1296,0.11055,0.08612,0.07916,0.12586,0.51467,0.55111,0.18783,0.12823,0.49646,0.09535,0.28232,0.93127,0.22278,0.14807,0.93447,0.02326,0.26231,1.4835,0.28863,0.04251,1.47673,-0.0167,0.41659,1.21948,0.43396,0.19676,1.25023,0.09144,0.52325,1.44689,0.34455,0.3179,1.47184
3581,0.18825,0.17736,1.54106,0.1239,0.57254,0.13102,0.11075,0.0857,0.07917,0.12404,0.51822,0.55288,0.18793,0.12902,0.49636,0.09486,0.28336,0.93159,0.22247,0.14928,0.93438,0.02329,0.26392,1.48386,0.28839,0.04359,1.47704,-0.01667,0.41856,1.22005,0.43591,0.19775,1.2519,0.09118,0.52633,1.44707,0.34556,0.31847,1.47335
3582,0.18888,0.17884,1.54099,0.12306,0.57359,0.13235,0.11096,0.08531,0.07919,0.12203,0.52194,0.55455,0.18787,0.12969,0.49632,0.09452,0.28454,0.9318,0.22227,0.15058,0.93432,0.02344,0.26564,1.48432,0.28788,0.04507,1.47739,-0.01654,0.42064,1.22072,0.43788,0.19894,1.25368,0.0909,0.52935,1.44749,0.3462,0.31908,1.4749
3583,0.18899,0.1804,1.54099,0.1225,0.57465,0.13363,0.1111,0.08518,0.07923,0.11995,0.52584,0.55615,0.18761,0.13003,0.49638,0.0944,0.28591,0.93194,0.22215,0.15194,0.93432,0.02363,0.26757,1.48482,0.28735,0.04678,1.47765,-0.01611,0.423,1.22144,0.4398,0.20039,1.25543,0.09075,0.53221,1.44824,0.34684,0.31951,1.47667
3584,0.18858,0.18186,1.54112,0.12227,0.5756,0.13496,0.11116,0.08536,0.07928,0.11794,0.52984,0.55781,0.18725,0.1301,0.49653,0.09433,0.2873,0.93204,0.22204,0.15329,0.93438,0.0237,0.26958,1.4852,0.28705,0.04832,1.47773,-0.01546,0.42575,1.22217,0.44165,0.20222,1.2572,0.09067,0.53494,1.44932,0.34767,0.31991,1.47877
3585,0.18788,0.18321,1.54134,0.12224,0.57648,0.1364,0.1112,0.08562,0.07934,0.11608,0.53377,0.55955,0.18693,0.13022,0.49667,0.09408,0.28849,0.93209,0.22192,0.15462,0.93444,0.02365,0.27147,1.48534,0.28697,0.04951,1.47775,-0.01483,0.42887,1.22294,0.4434,0.20452,1.2593,0.09048,0.53761,1.45069,0.34826,0.32079,1.48113
3586,0.18703,0.18467,1.54149,0.12214,0.57749,0.1379,0.11121,0.08574,0.07941,0.11438,0.53751,0.56129,0.18674,0.13065,0.49674,0.09357,0.28952,0.9321,0.22179,0.15601,0.93445,0.02363,0.27325,1.48524,0.28685,0.05054,1.47798,-0.01431,0.43229,1.22376,0.44493,0.20717,1.26189,0.09011,0.54035,1.45224,0.34813,0.32243,1.48353
3587,0.18602,0.18638,1.54155,0.12168,0.5788,0.13937,0.11107,0.08571,0.07946,0.1127,0.54118,0.56295,0.18666,0.13143,0.49669,0.09298,0.29062,0.93209,0.22164,0.15753,0.93437,0.0237,0.27516,1.48506,0.28652,0.05171,1.47856,-0.01384,0.43606,1.22466,0.44609,0.20981,1.26465,0.08975,0.54337,1.45387,0.34745,0.32456,1.48574
3588,0.18501,0.18829,1.54161,0.12091,0.58035,0.1407,0.11076,0.08571,0.07947,0.11082,0.54491,0.56444,0.18653,0.13231,0.49657,0.09253,0.29198,0.93203,0.22148,0.15916,0.9342,0.02376,0.27732,1.48491,0.28598,0.05323,1.47931,-0.01343,0.44029,1.22574,0.44693,0.21212,1.26702,0.08963,0.54682,1.45556,0.34693,0.32654,1.48766
3589,0.18445,0.19026,1.54172,0.12018,0.58188,0.14181,0.11043,0.0858,0.07944,0.10867,0.54855,0.56569,0.18618,0.133,0.49647,0.09226,0.29354,0.93194,0.22131,0.16083,0.93403,0.02367,0.27958,1.48483,0.28533,0.05515,1.47989,-0.01321,0.44493,1.22714,0.44776,0.21411,1.26879,0.08992,0.5507,1.45727,0.34707,0.32802,1.48938
3590,0.18455,0.19225,1.5418,0.11966,0.58328,0.14281,0.11025,0.0859,0.07938,0.10645,0.55191,0.56679,0.1856,0.13346,0.49644,0.09195,0.29511,0.93186,0.22108,0.16248,0.93389,0.02349,0.28163,1.48479,0.28459,0.05745,1.48002,-0.01316,0.44973,1.22885,0.44889,0.21613,1.27015,0.09061,0.55492,1.45897,0.34772,0.32895,1.49108
3591,0.18503,0.19419,1.54184,0.11927,0.58472,0.14381,0.11022,0.08586,0.0793,0.10447,0.55507,0.56786,0.18498,0.13395,0.49641,0.09148,0.29657,0.93179,0.22082,0.16413,0.93375,0.02337,0.2834,1.48484,0.28382,0.06,1.47966,-0.0131,0.45442,1.23081,0.45039,0.21843,1.2714,0.09148,0.55929,1.4607,0.3485,0.32946,1.4929
3592,0.18542,0.196,1.54188,0.11889,0.58647,0.14485,0.11028,0.08573,0.07924,0.10284,0.55826,0.56896,0.18452,0.13465,0.49634,0.09096,0.29798,0.93165,0.22052,0.16576,0.93361,0.02335,0.28526,1.4851,0.28307,0.0626,1.47902,-0.0129,0.459,1.2329,0.45216,0.22086,1.27267,0.09238,0.56366,1.46257,0.34932,0.32984,1.49477
3593,0.18536,0.19778,1.54187,0.11864,0.58854,0.14585,0.11034,0.08563,0.07921,0.10145,0.56152,0.56999,0.18424,0.13557,0.49626,0.09046,0.2995,0.93146,0.22018,0.16743,0.93347,0.02325,0.28764,1.4856,0.28244,0.06515,1.47845,-0.01263,0.46374,1.23498,0.45401,0.22318,1.27398,0.09323,0.56803,1.46455,0.35025,0.3305,1.49645
3594,0.18465,0.19981,1.5417,0.11865,0.5908,0.14674,0.11038,0.08567,0.0792,0.1001,0.56473,0.57088,0.184,0.13665,0.49616,0.08992,0.30119,0.93127,0.21984,0.16932,0.93333,0.02276,0.29061,1.48609,0.28199,0.06775,1.47817,-0.01248,0.46874,1.23682,0.4558,0.22533,1.27525,0.09399,0.5725,1.46635,0.35121,0.33173,1.49777
3595,0.18336,0.20228,1.54137,0.11881,0.59311,0.14752,0.11037,0.08587,0.07919,0.09864,0.56781,0.57163,0.18379,0.1379,0.49606,0.08929,0.303,0.9311,0.21961,0.17154,0.93316,0.02173,0.29385,1.48627,0.28159,0.07069,1.47816,-0.01253,0.47392,1.23826,0.45736,0.22746,1.27631,0.09467,0.57717,1.46768,0.35203,0.33347,1.49867
3596,0.18172,0.20515,1.54104,0.11896,0.59552,0.14819,0.1103,0.08626,0.07919,0.09709,0.57077,0.57225,0.18374,0.13928,0.49594,0.08859,0.30488,0.93095,0.21952,0.17402,0.93295,0.02037,0.297,1.486,0.2811,0.07423,1.47822,-0.01268,0.47914,1.23934,0.45864,0.22976,1.27696,0.09548,0.58213,1.46842,0.35269,0.33549,1.49915
3597,0.17988,0.20827,1.54085,0.119,0.59814,0.14881,0.11015,0.08679,0.07919,0.09565,0.57364,0.5728,0.18388,0.14078,0.49576,0.08788,0.30682,0.93082,0.21949,0.17664,0.9327,0.01898,0.29988,1.48532,0.28054,0.07836,1.47806,-0.01284,0.48437,1.24025,0.45983,0.23225,1.27708,0.09673,0.58755,1.46858,0.3535,0.33769,1.49924
3598,0.17798,0.21159,1.54078,0.11892,0.60086,0.14936,0.1099,0.08727,0.0792,0.09441,0.57656,0.5733,0.1841,0.14252,0.49552,0.08731,0.3089,0.93071,0.21944,0.17924,0.93241,0.01766,0.30252,1.48436,0.28025,0.0828,1.47748,-0.01298,0.48949,1.24103,0.46121,0.23486,1.2766,0.09834,0.59352,1.46811,0.35489,0.34007,1.49887
3599,0.17621,0.21503,1.54074,0.11861,0.60347,0.14979,0.10958,0.0876,0.07921,0.0933,0.57962,0.57371,0.18433,0.14458,0.4952,0.08697,0.31112,0.9305,0.21938,0.18174,0.93207,0.0162,0.30505,1.4833,0.28054,0.08733,1.47646,-0.01322,0.49428,1.24157,0.46295,0.2375,1.27548,0.09975,0.59997,1.46707,0.35705,0.34254,1.49802
3600,0.17471,0.2183,1.54069,0.11809,0.60587,0.15004,0.10935,0.08788,0.0792,0.09229,0.58271,0.57397,0.18458,0.14681,0.49483,0.0867,0.31332,0.93011,0.21936,0.18421,0.9317,0.01437,0.30757,1.48233,0.28139,0.09196,1.47516,-0.01373,0.49868,1.24192,0.46504,0.24013,1.27382,0.10065,0.60679,1.46557,0.35983,0.34521,1.49669
3601,0.17333,0.22128,1.54064,0.1176,0.60818,0.15008,0.10932,0.08828,0.07911,0.0915,0.58553,0.57402,0.18489,0.14904,0.49442,0.08625,0.31541,0.9296,0.2194,0.18679,0.93128,0.01215,0.31006,1.4815,0.28245,0.09678,1.47385,-0.0146,0.50284,1.24228,0.46722,0.24271,1.27189,0.10146,0.61399,1.46355,0.36295,0.34855,1.49484
3602,0.17187,0.22426,1.54055,0.11742,0.61055,0.14988,0.10938,0.08888,0.07896,0.09102,0.58799,0.5738,0.1853,0.15126,0.49396,0.08554,0.31745,0.92906,0.21939,0.18957,0.93081,0.00977,0.31237,1.48066,0.28341,0.10187,1.4728,-0.01591,0.50683,1.24268,0.46906,0.2452,1.26981,0.10277,0.62158,1.4607,0.36625,0.35306,1.49246
3603,0.17023,0.22756,1.54034,0.11759,0.61302,0.14947,0.10933,0.08962,0.0788,0.09077,0.59036,0.57336,0.18581,0.15353,0.49347,0.08472,0.31963,0.92847,0.21934,0.19256,0.9303,0.00752,0.31434,1.47953,0.28427,0.10728,1.47215,-0.01786,0.51036,1.2428,0.4704,0.24776,1.26761,0.10426,0.62937,1.45659,0.36973,0.35868,1.48974
3604,0.16844,0.23114,1.54005,0.11796,0.61549,0.14898,0.10909,0.09039,0.07869,0.09065,0.59303,0.57285,0.18636,0.15589,0.49296,0.08407,0.32201,0.92773,0.21942,0.19573,0.92975,0.00544,0.316,1.47804,0.28526,0.11301,1.4718,-0.02059,0.51291,1.24212,0.47158,0.25059,1.26546,0.10495,0.63702,1.45098,0.37346,0.36504,1.48693
3605,0.16649,0.23477,1.53981,0.11841,0.61771,0.14855,0.1088,0.09107,0.07862,0.09064,0.59618,0.57244,0.18698,0.15843,0.49242,0.08369,0.32449,0.9268,0.21982,0.19905,0.92916,0.0033,0.31756,1.47646,0.2865,0.11891,1.47141,-0.02398,0.51409,1.24036,0.47315,0.25372,1.26355,0.10428,0.64442,1.4437,0.3775,0.37198,1.4841
3606,0.1644,0.2384,1.53963,0.11901,0.61947,0.14816,0.10852,0.09168,0.0786,0.09075,0.59961,0.5721,0.18782,0.16133,0.49182,0.08344,0.327,0.92574,0.22041,0.20248,0.92852,0.00092,0.31935,1.47513,0.28775,0.1249,1.47057,-0.02779,0.51397,1.23763,0.47522,0.2571,1.26178,0.10262,0.65182,1.43455,0.38186,0.37973,1.48092
3607,0.16213,0.24226,1.53945,0.1199,0.62075,0.14767,0.10824,0.09231,0.07869,0.09082,0.60291,0.57165,0.18904,0.1647,0.49114,0.08304,0.32961,0.92475,0.22076,0.20594,0.9279,-0.00167,0.32161,1.47415,0.28864,0.13099,1.46917,-0.0319,0.51302,1.23424,0.47727,0.26062,1.25982,0.10055,0.65944,1.42345,0.38652,0.38848,1.47706
3608,0.15967,0.24647,1.53918,0.12111,0.62171,0.14699,0.10795,0.09296,0.07889,0.09081,0.60586,0.57095,0.19068,0.16841,0.49041,0.08237,0.33244,0.92395,0.22064,0.20939,0.92732,-0.00429,0.32435,1.47329,0.28915,0.13726,1.46759,-0.03645,0.51153,1.23031,0.47863,0.26427,1.25739,0.09851,0.667,1.41029,0.39134,0.39817,1.4724
3609,0.15714,0.25107,1.53871,0.1226,0.62256,0.1462,0.10777,0.09356,0.07916,0.09086,0.60864,0.57013,0.19266,0.17228,0.48962,0.08161,0.33548,0.92331,0.22037,0.21299,0.9267,-0.00674,0.32732,1.47224,0.28969,0.14383,1.46638,-0.04167,0.50925,1.22569,0.47908,0.26815,1.2545,0.09648,0.67388,1.39479,0.39615,0.40868,1.46699
3610,0.15472,0.25595,1.53794,0.12426,0.62332,0.14547,0.10782,0.09401,0.07947,0.09123,0.61164,0.56937,0.19488,0.17621,0.4888,0.08098,0.33873,0.92271,0.22037,0.21694,0.92601,-0.00896,0.33033,1.47095,0.29057,0.15073,1.46578,-0.04744,0.50573,1.22022,0.4788,0.27254,1.25141,0.09398,0.67977,1.37673,0.4007,0.42011,1.46094
3611,0.15241,0.26102,1.5369,0.126,0.62386,0.14489,0.10808,0.09432,0.07978,0.09202,0.61513,0.56878,0.1972,0.18016,0.48791,0.08056,0.34219,0.92206,0.22065,0.22121,0.92521,-0.011,0.33358,1.46957,0.29165,0.15776,1.46566,-0.05323,0.50107,1.2141,0.47786,0.27767,1.24848,0.09064,0.68505,1.35635,0.40473,0.43266,1.45442
3612,0.15003,0.26616,1.53573,0.12762,0.62406,0.14439,0.10839,0.0946,0.08003,0.09313,0.61909,0.56831,0.19944,0.18393,0.48698,0.08022,0.3458,0.92127,0.22097,0.22558,0.92432,-0.013,0.33727,1.46827,0.29247,0.16465,1.46584,-0.05845,0.49604,1.20782,0.47619,0.2836,1.24604,0.08655,0.69051,1.3341,0.40819,0.44653,1.44756
3613,0.14744,0.27129,1.53459,0.12886,0.62393,0.14381,0.10861,0.09496,0.08022,0.09434,0.62323,0.56775,0.2015,0.18732,0.48609,0.0799,0.34941,0.92024,0.2213,0.22997,0.92341,-0.01525,0.34107,1.46698,0.29278,0.17141,1.46616,-0.06301,0.49116,1.20184,0.47386,0.29042,1.24421,0.08172,0.69644,1.31002,0.41135,0.4618,1.44041
3614,0.14482,0.27628,1.5335,0.12967,0.62357,0.14299,0.10869,0.09547,0.08044,0.09556,0.62726,0.56694,0.20344,0.19038,0.48528,0.07968,0.35298,0.91902,0.22178,0.23438,0.92253,-0.01794,0.34436,1.46558,0.29277,0.17829,1.46642,-0.06736,0.48603,1.19615,0.47101,0.29853,1.24283,0.07591,0.70191,1.28365,0.41437,0.4785,1.43304
3615,0.14254,0.28118,1.53244,0.13033,0.62316,0.142,0.10867,0.09618,0.08066,0.09682,0.63121,0.56594,0.20532,0.19333,0.48452,0.07965,0.35664,0.91772,0.22242,0.23885,0.92167,-0.02082,0.34705,1.46402,0.29287,0.18542,1.46634,-0.07189,0.47977,1.19037,0.46759,0.30866,1.24161,0.06884,0.70529,1.25456,0.41679,0.49671,1.42555
3616,0.1409,0.28609,1.53146,0.13118,0.62283,0.1411,0.10855,0.09715,0.08088,0.09807,0.63535,0.56497,0.20712,0.19627,0.48379,0.07962,0.36047,0.91643,0.22301,0.24346,0.92081,-0.02354,0.34952,1.46213,0.29338,0.1927,1.46571,-0.07656,0.47204,1.18413,0.46356,0.32139,1.24055,0.06015,0.70572,1.22272,0.41729,0.51672,1.41798
3617,0.13984,0.29103,1.53064,0.13221,0.62256,0.14042,0.10839,0.09822,0.08108,0.09929,0.63991,0.56414,0.20874,0.19915,0.48311,0.07934,0.36451,0.91512,0.2234,0.24833,0.91995,-0.02601,0.352,1.45969,0.29434,0.20012,1.46457,-0.08118,0.46324,1.17739,0.45921,0.33671,1.24011,0.04929,0.70333,1.18812,0.41456,0.53867,1.41038
3618,0.13898,0.29585,1.52996,0.13308,0.62227,0.1399,0.10836,0.09912,0.08127,0.1008,0.64491,0.56341,0.21009,0.20192,0.48248,0.07886,0.36878,0.9137,0.22362,0.2535,0.91908,-0.02823,0.35455,1.45679,0.2956,0.20784,1.46321,-0.08551,0.45383,1.17049,0.45506,0.3538,1.24076,0.03566,0.69819,1.15074,0.40821,0.56193,1.40282
3619,0.13794,0.30048,1.52928,0.13354,0.62203,0.13939,0.10854,0.09969,0.08143,0.10302,0.65025,0.5627,0.21119,0.20462,0.48185,0.07848,0.37324,0.91213,0.22392,0.25886,0.91815,-0.02999,0.35717,1.45399,0.29685,0.21608,1.46191,-0.08916,0.44378,1.16398,0.4513,0.37149,1.24234,0.0191,0.68926,1.11104,0.3984,0.58495,1.39535
3620,0.13659,0.30494,1.52852,0.13365,0.62194,0.13884,0.1088,0.09998,0.08162,0.10589,0.65575,0.56193,0.21213,0.20738,0.48121,0.0785,0.37786,0.91045,0.22465,0.26443,0.91716,-0.03138,0.35966,1.45157,0.29781,0.22494,1.46077,-0.09184,0.43292,1.15817,0.44751,0.3889,1.24415,0.00026,0.67492,1.0702,0.38499,0.60603,1.38811
3621,0.13497,0.30949,1.52775,0.13366,0.62201,0.13824,0.10894,0.10009,0.08192,0.10888,0.66134,0.56104,0.213,0.21023,0.48057,0.0791,0.38276,0.90881,0.22613,0.27051,0.91607,-0.03292,0.36154,1.449,0.29835,0.23433,1.45981,-0.09366,0.42153,1.15265,0.44306,0.40595,1.24575,-0.01986,0.65436,1.02965,0.3676,0.62418,1.38161
3622,0.13316,0.31461,1.52696,0.13384,0.6221,0.13763,0.10894,0.10006,0.08227,0.11156,0.66705,0.56001,0.2139,0.21311,0.47987,0.08017,0.38807,0.90731,0.22835,0.27735,0.91476,-0.03491,0.36273,1.44522,0.29871,0.24421,1.45912,-0.09495,0.41057,1.14653,0.43762,0.42328,1.24733,-0.0407,0.62856,0.99059,0.3462,0.63931,1.37676
3623,0.13131,0.32065,1.52608,0.13418,0.62205,0.13706,0.10904,0.09996,0.08255,0.11399,0.67274,0.55889,0.21501,0.2158,0.47907,0.08124,0.39365,0.90597,0.23071,0.28467,0.91321,-0.03685,0.36387,1.4397,0.29925,0.25471,1.45886,-0.09573,0.4009,1.13925,0.43118,0.44171,1.24947,-0.06242,0.59939,0.95411,0.32117,0.65162,1.37442
3624,0.12947,0.32736,1.5251,0.13457,0.62185,0.13656,0.10941,0.09995,0.08267,0.1165,0.6781,0.55778,0.2164,0.21813,0.47823,0.08167,0.39918,0.90481,0.23231,0.29179,0.91157,-0.03798,0.36574,1.43294,0.30011,0.26593,1.45909,-0.09589,0.39258,1.13122,0.42371,0.46165,1.2526,-0.08527,0.56778,0.92151,0.29271,0.66094,1.37465
3625,0.12751,0.33413,1.52415,0.13489,0.62172,0.13622,0.11001,0.10004,0.08278,0.11916,0.68296,0.55684,0.21793,0.22033,0.47745,0.08133,0.40446,0.90389,0.23291,0.29837,0.91006,-0.03806,0.36839,1.42602,0.30107,0.27775,1.45982,-0.09566,0.38478,1.12349,0.41491,0.48279,1.2568,-0.10892,0.53356,0.89443,0.26107,0.66655,1.37657
3626,0.12514,0.34037,1.52333,0.13503,0.62195,0.13612,0.11072,0.10012,0.08322,0.12166,0.6876,0.55616,0.21946,0.22297,0.47688,0.08082,0.4096,0.90326,0.23331,0.30477,0.90883,-0.03763,0.37127,1.41989,0.3017,0.29011,1.46111,-0.09577,0.37633,1.11707,0.40465,0.50437,1.26183,-0.13245,0.49683,0.87434,0.2277,0.66794,1.37893
3627,0.12207,0.34604,1.52258,0.13497,0.62262,0.13624,0.11153,0.10015,0.08429,0.12381,0.69236,0.55568,0.22109,0.22648,0.47661,0.08088,0.41483,0.90291,0.2345,0.31165,0.90793,-0.03769,0.37385,1.41515,0.30168,0.30339,1.46299,-0.09697,0.3661,1.11261,0.39332,0.52587,1.26723,-0.15513,0.45849,0.86188,0.19527,0.66586,1.38104
3628,0.11832,0.35164,1.52185,0.13492,0.62345,0.13644,0.11257,0.10023,0.08607,0.12572,0.69728,0.55522,0.22324,0.23079,0.4767,0.08168,0.42041,0.90284,0.23667,0.31927,0.90734,-0.03924,0.37582,1.412,0.30093,0.31804,1.46545,-0.09946,0.35364,1.11036,0.38127,0.54729,1.27256,-0.17677,0.41949,0.85644,0.1658,0.66208,1.38288
3629,0.11425,0.35771,1.52122,0.13533,0.62416,0.13659,0.114,0.10053,0.08861,0.12769,0.70211,0.55466,0.22644,0.23574,0.47714,0.0829,0.42637,0.90308,0.23927,0.32736,0.90715,-0.04256,0.37685,1.4101,0.29957,0.33401,1.46856,-0.10314,0.33967,1.11001,0.3683,0.56867,1.2777,-0.19736,0.38044,0.85654,0.13948,0.65816,1.38452
3630,0.11014,0.36415,1.52086,0.13653,0.62483,0.13678,0.11601,0.10125,0.09211,0.12991,0.70671,0.55411,0.23115,0.24156,0.47804,0.08428,0.43262,0.90372,0.24184,0.3355,0.9076,-0.04675,0.37648,1.40877,0.29757,0.35076,1.47255,-0.10803,0.32521,1.11091,0.35419,0.58962,1.28292,-0.21691,0.34181,0.8606,0.11576,0.6551,1.38608
3631,0.10581,0.37021,1.52092,0.13827,0.62577,0.13713,0.11885,0.10253,0.09686,0.13243,0.71117,0.55377,0.23753,0.24867,0.47953,0.08573,0.43905,0.90478,0.24438,0.34374,0.90893,-0.05035,0.37427,1.40759,0.29459,0.36782,1.47752,-0.11398,0.31045,1.11266,0.3393,0.60976,1.28862,-0.23547,0.30387,0.86775,0.09443,0.65399,1.3879
3632,0.10086,0.37531,1.52144,0.13998,0.62702,0.13768,0.12264,0.1046,0.10299,0.13496,0.71555,0.55367,0.24552,0.25751,0.48168,0.08711,0.44574,0.9063,0.24696,0.35247,0.91115,-0.05244,0.36973,1.40671,0.29038,0.38524,1.48326,-0.12048,0.29489,1.11537,0.32429,0.62926,1.29478,-0.25311,0.26711,0.87785,0.07541,0.6562,1.39023
3633,0.09509,0.37957,1.52241,0.14125,0.62829,0.13825,0.12747,0.10783,0.11053,0.13695,0.71968,0.55364,0.25497,0.26855,0.48442,0.0882,0.45285,0.90841,0.24947,0.36212,0.91416,-0.05309,0.36273,1.4065,0.28512,0.40322,1.4894,-0.12696,0.27838,1.11921,0.3099,0.64837,1.30099,-0.27028,0.23253,0.89087,0.05869,0.66287,1.39297
3634,0.0886,0.38359,1.52379,0.14203,0.62927,0.13862,0.13338,0.11261,0.11949,0.13784,0.72309,0.55347,0.26579,0.28223,0.4877,0.08877,0.4604,0.91126,0.25172,0.37279,0.91789,-0.05305,0.35385,1.40722,0.27923,0.42139,1.49557,-0.13287,0.26155,1.12399,0.29704,0.6668,1.30668,-0.28749,0.20116,0.90667,0.0445,0.67445,1.39579
3635,0.0816,0.38771,1.52551,0.14237,0.62982,0.13861,0.14041,0.11909,0.12997,0.13746,0.72528,0.55307,0.27769,0.29873,0.49158,0.08876,0.46813,0.91492,0.2537,0.3844,0.92234,-0.05286,0.34424,1.40898,0.27283,0.43892,1.50142,-0.13766,0.24543,1.12942,0.28629,0.68372,1.31139,-0.30474,0.17338,0.92527,0.03293,0.69084,1.39819
3636,0.07441,0.39158,1.52751,0.14223,0.62995,0.13823,0.1483,0.1271,0.14201,0.13609,0.72598,0.55255,0.29,0.31773,0.49622,0.08825,0.47554,0.91919,0.25563,0.39688,0.92752,-0.0526,0.33492,1.41183,0.2655,0.4551,1.50696,-0.14112,0.23064,1.13543,0.27732,0.6983,1.31478,-0.32129,0.14863,0.94676,0.02351,0.71166,1.39952
3637,0.06731,0.39445,1.52972,0.14164,0.62972,0.13769,0.15663,0.13631,0.1555,0.13403,0.72534,0.55208,0.30187,0.33861,0.50172,0.08753,0.4821,0.9237,0.25783,0.41017,0.93346,-0.05225,0.32658,1.41566,0.25682,0.46961,1.51244,-0.14351,0.21696,1.14224,0.26915,0.70995,1.31672,-0.33639,0.12604,0.97102,0.01556,0.7362,1.39908
3638,0.06041,0.39604,1.53207,0.14082,0.62918,0.13713,0.16519,0.14639,0.17035,0.13127,0.72375,0.55172,0.31298,0.36101,0.50796,0.08702,0.48743,0.92805,0.26061,0.42424,0.94008,-0.052,0.31953,1.42019,0.2469,0.48235,1.5178,-0.14527,0.20388,1.14994,0.26112,0.71863,1.31733,-0.35001,0.10556,0.99763,0.00911,0.7634,1.39648
3639,0.05377,0.3966,1.53463,0.14018,0.62837,0.13659,0.1741,0.15726,0.18688,0.12749,0.72151,0.55142,0.32384,0.38524,0.51473,0.08712,0.49141,0.93202,0.26404,0.43905,0.94716,-0.0518,0.31341,1.42509,0.23643,0.49326,1.52267,-0.14667,0.19122,1.15831,0.25357,0.72482,1.31698,-0.3628,0.08837,1.02605,0.00537,0.7924,1.39188
3640,0.04761,0.39642,1.53748,0.14023,0.62749,0.13604,0.18359,0.1693,0.20577,0.12271,0.71863,0.55113,0.33532,0.41185,0.52205,0.08799,0.4941,0.9356,0.26781,0.4544,0.9546,-0.05091,0.30723,1.43003,0.226,0.50269,1.52694,-0.14807,0.17924,1.16681,0.24739,0.72924,1.31615,-0.37562,0.076,1.05569,0.00613,0.82278,1.38556
3641,0.04216,0.39545,1.54062,0.14122,0.62687,0.1355,0.19363,0.18314,0.22758,0.11727,0.71495,0.55093,0.34768,0.44103,0.53031,0.08945,0.49569,0.93898,0.27124,0.46975,0.96251,-0.04859,0.30027,1.43471,0.21556,0.51137,1.53118,-0.15045,0.16856,1.17512,0.24302,0.73248,1.31537,-0.38903,0.06877,1.08623,0.01242,0.85404,1.37721
3642,0.03736,0.39372,1.54391,0.1429,0.62669,0.13508,0.20409,0.19913,0.2524,0.11148,0.71023,0.55096,0.36032,0.47256,0.53999,0.09117,0.49635,0.94246,0.27369,0.48448,0.97106,-0.04525,0.29289,1.43904,0.2048,0.51983,1.53602,-0.15505,0.1598,1.18343,0.23994,0.73494,1.31531,-0.40323,0.06562,1.1177,0.02381,0.88498,1.36582
3643,0.03282,0.39154,1.54727,0.14479,0.62679,0.13489,0.21526,0.21708,0.27982,0.10535,0.70435,0.55124,0.37217,0.50615,0.55128,0.09301,0.4964,0.94625,0.27499,0.4983,0.98019,-0.0424,0.28614,1.44314,0.19382,0.52779,1.54135,-0.16244,0.15302,1.19218,0.23761,0.73715,1.3167,-0.41811,0.06561,1.15006,0.03916,0.91393,1.35047
3644,0.02827,0.38922,1.55073,0.14654,0.627,0.13494,0.22802,0.23672,0.30925,0.09888,0.69741,0.5517,0.38251,0.54189,0.56398,0.09524,0.49622,0.95038,0.27556,0.51121,0.98952,-0.04126,0.28071,1.44711,0.18332,0.53453,1.54642,-0.17198,0.1476,1.20154,0.23638,0.73962,1.31984,-0.43314,0.06869,1.18275,0.05825,0.93942,1.33118
3645,0.02379,0.38688,1.5544,0.14789,0.62721,0.13519,0.24338,0.25788,0.34039,0.09221,0.68976,0.55221,0.39109,0.57982,0.5779,0.09805,0.49608,0.95456,0.2758,0.52325,0.99859,-0.04163,0.2765,1.451,0.17388,0.5398,1.5507,-0.18257,0.14284,1.21147,0.23688,0.74231,1.32434,-0.44747,0.075,1.21516,0.08219,0.96053,1.30923
3646,0.01967,0.38472,1.55824,0.14866,0.62728,0.13553,0.26169,0.28046,0.3732,0.08563,0.68176,0.55264,0.39791,0.6194,0.59329,0.10111,0.4961,0.9585,0.27557,0.53442,1.00715,-0.04222,0.27287,1.45494,0.16547,0.54393,1.55438,-0.19342,0.1386,1.22209,0.23898,0.74463,1.32958,-0.46022,0.08412,1.24733,0.1117,0.97644,1.28669
3647,0.01609,0.38286,1.56212,0.14892,0.62702,0.13591,0.28258,0.30432,0.40754,0.07951,0.67348,0.55297,0.40286,0.65957,0.61055,0.10367,0.4962,0.96213,0.27421,0.54486,1.01522,-0.042,0.26906,1.45914,0.15747,0.54739,1.55812,-0.20416,0.13496,1.23369,0.24165,0.74591,1.33514,-0.47082,0.09545,1.27972,0.14523,0.98593,1.26536
3648,0.01308,0.38111,1.56598,0.14879,0.62649,0.13638,0.30556,0.32948,0.44296,0.07406,0.6649,0.55335,0.40545,0.69959,0.62982,0.10543,0.49611,0.96561,0.2714,0.55479,1.02291,-0.04088,0.26449,1.46361,0.14936,0.55049,1.56228,-0.21478,0.13172,1.24626,0.24405,0.74589,1.34076,-0.47917,0.10904,1.31232,0.17965,0.98821,1.24637
3649,0.01064,0.37917,1.56983,0.1484,0.62589,0.13702,0.33041,0.35643,0.4788,0.06934,0.65591,0.55387,0.40477,0.73944,0.65103,0.10702,0.49563,0.96899,0.26751,0.56442,1.03049,-0.03942,0.25917,1.46802,0.14134,0.55325,1.56656,-0.22574,0.12893,1.25962,0.24635,0.74466,1.34622,-0.48573,0.12578,1.34435,0.21322,0.984,1.23048
3650,0.00873,0.37718,1.57361,0.14813,0.62532,0.13775,0.35721,0.38568,0.51481,0.06545,0.64636,0.55445,0.40023,0.77901,0.67394,0.10928,0.49501,0.97231,0.26329,0.57388,1.03813,-0.03822,0.25388,1.47207,0.13413,0.55562,1.57015,-0.23772,0.12739,1.27381,0.24944,0.74251,1.35108,-0.49105,0.14652,1.37501,0.24657,0.97503,1.21802
3651,0.00712,0.37561,1.57722,0.14838,0.62484,0.13847,0.38609,0.41727,0.5514,0.0626,0.63626,0.55492,0.39214,0.81772,0.698,0.11232,0.49489,0.97561,0.25921,0.58321,1.04557,-0.03779,0.2497,1.47597,0.12801,0.55774,1.57236,-0.2508,0.12799,1.2891,0.2538,0.7397,1.3549,-0.49512,0.17098,1.40417,0.28051,0.96269,1.20883
3652,0.00545,0.37484,1.58058,0.14906,0.62476,0.1392,0.4163,0.45109,0.58888,0.06097,0.62607,0.55532,0.38114,0.8546,0.7224,0.11561,0.49563,0.97891,0.25519,0.59251,1.05241,-0.0384,0.24716,1.48021,0.12246,0.55974,1.57319,-0.26432,0.13077,1.3055,0.25908,0.73609,1.35765,-0.49731,0.19775,1.43204,0.31427,0.94769,1.20288
3653,0.00365,0.37497,1.58363,0.14962,0.62559,0.13999,0.44592,0.487,0.62662,0.0605,0.61654,0.5558,0.36767,0.88873,0.74651,0.11874,0.49702,0.98212,0.25065,0.6019,1.05876,-0.03991,0.24585,1.48495,0.11701,0.56137,1.57336,-0.27761,0.13531,1.3225,0.26489,0.73096,1.35984,-0.49685,0.22559,1.45876,0.34646,0.93027,1.20047
3654,0.0021,0.37579,1.58635,0.14957,0.62764,0.1409,0.47356,0.52514,0.66353,0.06106,0.60821,0.55648,0.3524,0.91981,0.77047,0.1219,0.49862,0.9851,0.24516,0.61127,1.06504,-0.04193,0.24508,1.48999,0.11202,0.56225,1.57348,-0.29048,0.14164,1.33956,0.27157,0.72332,1.36178,-0.49332,0.25436,1.48424,0.37648,0.91064,1.20151
3655,0.00107,0.37692,1.58884,0.14891,0.63079,0.14181,0.50008,0.56661,0.69942,0.06264,0.60101,0.55725,0.33615,0.94848,0.79523,0.1254,0.50028,0.98777,0.23891,0.62025,1.0714,-0.04399,0.24454,1.49512,0.10818,0.56248,1.57356,-0.30303,0.15045,1.35673,0.27952,0.71261,1.36303,-0.48695,0.28454,1.50832,0.40424,0.88924,1.20485
3656,4e-05,0.37808,1.5911,0.14818,0.63463,0.14252,0.52702,0.61361,0.73529,0.06569,0.59473,0.55788,0.31885,0.97564,0.82183,0.12932,0.50211,0.99009,0.23268,0.62833,1.0776,-0.04584,0.24421,1.50018,0.10551,0.56252,1.5733,-0.31529,0.1624,1.37444,0.28818,0.69933,1.36321,-0.47843,0.31634,1.53088,0.42939,0.86678,1.20896
3657,-0.00194,0.37927,1.59289,0.14823,0.63867,0.14299,0.55397,0.6681,0.77221,0.07059,0.58945,0.55828,0.29947,1.00122,0.85057,0.13351,0.50417,0.9921,0.22746,0.63502,1.08333,-0.04761,0.24394,1.50499,0.10351,0.5626,1.57271,-0.3271,0.17751,1.39282,0.29662,0.68483,1.36297,-0.46832,0.34954,1.55171,0.45162,0.84408,1.21333
3658,-0.00506,0.3807,1.59389,0.14952,0.64245,0.1433,0.57828,0.72974,0.81024,0.07711,0.58535,0.55853,0.27758,1.02386,0.88064,0.13793,0.50631,0.99383,0.2238,0.64009,1.0887,-0.04963,0.24362,1.50928,0.10187,0.56245,1.57205,-0.33809,0.19543,1.41142,0.30441,0.67027,1.36331,-0.45647,0.38362,1.57065,0.4712,0.82159,1.2182
3659,-0.00845,0.38253,1.59413,0.15197,0.64558,0.14348,0.59703,0.79526,0.84855,0.08471,0.58235,0.55869,0.25481,1.04205,0.91075,0.14257,0.50837,0.99528,0.2214,0.64363,1.09409,-0.05203,0.24363,1.51298,0.10035,0.56191,1.57146,-0.34759,0.21567,1.4295,0.31138,0.65627,1.36462,-0.4422,0.41771,1.58766,0.48871,0.79922,1.22358
3660,-0.01139,0.38479,1.59387,0.15544,0.64799,0.14342,0.60896,0.86064,0.88609,0.09315,0.58037,0.55871,0.23364,1.05585,0.93998,0.14711,0.51033,0.99645,0.21935,0.64617,1.09942,-0.05494,0.24444,1.51633,0.09857,0.56136,1.57072,-0.35525,0.2376,1.44648,0.31747,0.64299,1.36667,-0.42527,0.45069,1.60292,0.50462,0.77658,1.22917
3661,-0.01414,0.38747,1.5931,0.15997,0.65018,0.14313,0.61459,0.92501,0.92207,0.10233,0.57964,0.55861,0.21508,1.06695,0.96818,0.15098,0.51214,0.99736,0.21684,0.64854,1.10381,-0.05885,0.2462,1.51967,0.09654,0.56126,1.56951,-0.36145,0.2606,1.46193,0.32293,0.63014,1.36897,-0.40632,0.48167,1.61653,0.51919,0.75348,1.23463
3662,-0.01732,0.39056,1.59165,0.16544,0.65305,0.14276,0.61455,0.99167,0.95635,0.1119,0.58034,0.5584,0.19853,1.07686,0.99583,0.15376,0.51382,0.99801,0.21364,0.65141,1.10643,-0.06442,0.24881,1.52299,0.09491,0.56148,1.56779,-0.36708,0.2844,1.47566,0.32814,0.6172,1.37102,-0.38627,0.51047,1.62833,0.53254,0.73004,1.23963
3663,-0.02096,0.39405,1.58956,0.17147,0.65708,0.14232,0.60862,1.06436,0.98999,0.12152,0.58223,0.55803,0.18401,1.08591,1.02343,0.15556,0.51583,0.99833,0.21022,0.65497,1.10753,-0.07177,0.25246,1.52583,0.0944,0.56133,1.56588,-0.37251,0.30913,1.48771,0.33321,0.60404,1.37258,-0.36572,0.53748,1.63802,0.54467,0.70657,1.24394
3664,-0.02454,0.39782,1.58717,0.17761,0.66177,0.14164,0.59598,1.14307,1.02536,0.13111,0.58479,0.55737,0.17312,1.09392,1.05107,0.15676,0.51908,0.99834,0.20739,0.65916,1.10828,-0.08011,0.25773,1.52761,0.09529,0.56008,1.56422,-0.37714,0.33525,1.49806,0.33808,0.59093,1.37364,-0.34483,0.56317,1.64567,0.55568,0.6834,1.24763
3665,-0.02771,0.40169,1.58465,0.18338,0.66622,0.14065,0.5754,1.22297,1.06376,0.14051,0.58768,0.55648,0.16711,1.1006,1.07824,0.15761,0.52388,0.99814,0.20541,0.66356,1.10983,-0.08838,0.26515,1.52813,0.09742,0.55751,1.56293,-0.38001,0.36312,1.50654,0.34287,0.57803,1.37437,-0.32348,0.58772,1.65195,0.5658,0.66084,1.25099
3666,-0.03056,0.40545,1.58185,0.18825,0.66996,0.13954,0.54548,1.29711,1.10215,0.14929,0.59078,0.55563,0.16476,1.10493,1.10424,0.15806,0.52895,0.99782,0.20388,0.6669,1.11245,-0.09596,0.27456,1.52749,0.10036,0.55395,1.56172,-0.38056,0.39248,1.51297,0.34784,0.56524,1.37506,-0.30161,0.61081,1.65748,0.57529,0.63914,1.2543
3667,-0.03338,0.4091,1.57857,0.19195,0.67308,0.1385,0.50506,1.36092,1.13523,0.15705,0.59405,0.55497,0.16354,1.10558,1.12861,0.1581,0.53228,0.99726,0.20254,0.66766,1.11546,-0.10271,0.28521,1.52578,0.10371,0.5499,1.56034,-0.3789,0.42217,1.51745,0.35313,0.55238,1.37595,-0.27938,0.6318,1.66215,0.58423,0.61837,1.25755
3668,-0.03615,0.41302,1.57483,0.19471,0.6757,0.13759,0.45445,1.41326,1.16286,0.16382,0.5974,0.55452,0.16265,1.10246,1.15132,0.15786,0.53319,0.99642,0.20199,0.66565,1.118,-0.10867,0.29628,1.52305,0.10731,0.54587,1.55867,-0.37547,0.45094,1.52031,0.35857,0.53966,1.37688,-0.257,0.65023,1.66534,0.59257,0.59862,1.26049
3669,-0.03854,0.41774,1.57082,0.19693,0.67781,0.13692,0.39799,1.45332,1.19068,0.16983,0.60078,0.55436,0.16348,1.09757,1.17254,0.15757,0.53325,0.99563,0.2032,0.6627,1.11986,-0.11404,0.30713,1.51953,0.11106,0.54243,1.55682,-0.37054,0.47833,1.52183,0.36369,0.52759,1.37745,-0.2345,0.66603,1.66691,0.60012,0.58014,1.26291
3670,-0.04048,0.42331,1.56685,0.19876,0.67938,0.13665,0.34507,1.4799,1.21997,0.1751,0.60422,0.55463,0.16634,1.09371,1.19184,0.15768,0.53498,0.99546,0.20643,0.66135,1.12166,-0.11919,0.31709,1.51569,0.11463,0.54015,1.55506,-0.36404,0.50448,1.52227,0.36792,0.51668,1.37754,-0.21193,0.67934,1.66743,0.60655,0.56266,1.26477
3671,-0.04239,0.42883,1.56338,0.20008,0.68046,0.13675,0.30561,1.49429,1.24446,0.17929,0.60792,0.55535,0.16807,1.09221,1.20838,0.15868,0.53961,0.99619,0.2111,0.66264,1.12421,-0.12471,0.3255,1.51186,0.11762,0.5389,1.55354,-0.35575,0.52953,1.52174,0.37098,0.50692,1.37746,-0.18958,0.69056,1.66748,0.61157,0.54513,1.26597
3672,-0.04493,0.43317,1.56097,0.20075,0.6815,0.1372,0.28261,1.49967,1.25934,0.182,0.61206,0.55642,0.16447,1.0916,1.22189,0.16061,0.5459,0.99755,0.21658,0.66514,1.12763,-0.13142,0.3323,1.50804,0.12009,0.53772,1.55212,-0.34589,0.5536,1.51989,0.37322,0.49767,1.37738,-0.16828,0.70042,1.66714,0.61524,0.52701,1.26627
3673,-0.0484,0.43629,1.55961,0.20089,0.68317,0.13806,0.27122,1.49788,1.26612,0.18315,0.6165,0.55777,0.15482,1.08895,1.23274,0.16285,0.55147,0.99913,0.22262,0.66634,1.13143,-0.14011,0.33845,1.504,0.12256,0.53547,1.55083,-0.33539,0.57685,1.51579,0.37517,0.48813,1.37714,-0.14943,0.70951,1.66613,0.61785,0.50909,1.26559
3674,-0.05252,0.43918,1.55864,0.2008,0.68595,0.13929,0.26685,1.49091,1.26922,0.18299,0.62086,0.55925,0.14365,1.08361,1.24079,0.16484,0.55531,1.00062,0.22888,0.66524,1.1351,-0.15045,0.34532,1.49962,0.12537,0.53199,1.55008,-0.32542,0.59911,1.50894,0.37685,0.47817,1.37664,-0.13411,0.718,1.66402,0.61965,0.49252,1.2643
3675,-0.05661,0.44253,1.55737,0.2008,0.68982,0.14052,0.27072,1.48258,1.2708,0.18192,0.62491,0.56045,0.13718,1.07835,1.24541,0.16665,0.55818,1.00176,0.23483,0.66309,1.1382,-0.16045,0.35358,1.49512,0.12815,0.52811,1.55003,-0.31651,0.61953,1.50009,0.37797,0.46827,1.37616,-0.12218,0.72574,1.66052,0.62062,0.47779,1.26299
3676,-0.06014,0.44618,1.55572,0.20111,0.69427,0.14116,0.28396,1.47613,1.27028,0.18026,0.62857,0.56088,0.13846,1.07593,1.24682,0.1685,0.56078,1.00213,0.24001,0.66151,1.14001,-0.16783,0.36271,1.49077,0.1302,0.52463,1.55016,-0.30855,0.63713,1.49073,0.37836,0.45894,1.37603,-0.11245,0.73237,1.65583,0.62073,0.46458,1.262
3677,-0.06311,0.44982,1.55404,0.20195,0.69843,0.14083,0.30214,1.47288,1.26752,0.1782,0.63171,0.56024,0.14613,1.07656,1.24585,0.1701,0.56284,1.0014,0.24396,0.66103,1.13988,-0.17204,0.37172,1.48651,0.13123,0.52147,1.55014,-0.30119,0.65173,1.48174,0.3781,0.45043,1.37628,-0.10374,0.73734,1.65046,0.62005,0.45226,1.26124
3678,-0.06574,0.45369,1.55262,0.20327,0.70125,0.13961,0.32083,1.4719,1.26417,0.17596,0.63399,0.55871,0.15671,1.07884,1.24298,0.17075,0.56391,0.99973,0.24637,0.66126,1.13785,-0.17439,0.38011,1.48218,0.13161,0.51796,1.5504,-0.29412,0.66417,1.47297,0.37727,0.44272,1.3766,-0.09556,0.74042,1.64484,0.61858,0.44061,1.26023
3679,-0.06791,0.45836,1.55152,0.20477,0.702,0.13788,0.34017,1.47015,1.26168,0.17382,0.6352,0.55681,0.16692,1.08114,1.23852,0.17015,0.56395,0.99765,0.24785,0.66151,1.13446,-0.17611,0.38828,1.47797,0.13197,0.51403,1.55153,-0.28717,0.67563,1.4637,0.37585,0.43563,1.37662,-0.08818,0.74202,1.63914,0.61638,0.42994,1.25877
3680,-0.06903,0.46386,1.55078,0.20617,0.70074,0.13598,0.36135,1.4647,1.25965,0.17205,0.63547,0.5549,0.17457,1.08222,1.23315,0.16855,0.56327,0.99559,0.24942,0.66117,1.13029,-0.17737,0.39683,1.47419,0.1327,0.51046,1.55338,-0.28032,0.68678,1.4533,0.37375,0.42881,1.37604,-0.08234,0.74303,1.63336,0.61372,0.42055,1.2572
3681,-0.06879,0.46947,1.55062,0.20747,0.69819,0.13402,0.38349,1.45511,1.25721,0.17057,0.63517,0.55305,0.17883,1.08212,1.22763,0.16649,0.56257,0.99367,0.2515,0.66043,1.12584,-0.17802,0.40569,1.47097,0.13387,0.50811,1.55526,-0.27365,0.6974,1.44149,0.37097,0.42196,1.37476,-0.07859,0.74428,1.62734,0.61087,0.41254,1.25586
3682,-0.06758,0.47444,1.55112,0.20869,0.69528,0.13207,0.40481,1.44327,1.25407,0.16904,0.63469,0.5512,0.18014,1.08216,1.22229,0.16453,0.56264,0.99191,0.25357,0.66036,1.12151,-0.17828,0.41405,1.4683,0.13527,0.50716,1.55662,-0.2672,0.70662,1.42831,0.36773,0.41499,1.37308,-0.07693,0.74605,1.62073,0.60799,0.40589,1.2549
3683,-0.06609,0.47869,1.55208,0.20971,0.69262,0.13014,0.42463,1.43135,1.24973,0.1673,0.6343,0.54932,0.18001,1.08357,1.21661,0.1628,0.56355,0.99024,0.2547,0.66157,1.1176,-0.17871,0.42104,1.46629,0.13657,0.50707,1.5574,-0.26115,0.71357,1.41398,0.36435,0.40816,1.37153,-0.07719,0.74825,1.61333,0.60512,0.40053,1.25427
3684,-0.06469,0.48254,1.55326,0.21044,0.69053,0.12826,0.44336,1.42104,1.24344,0.16537,0.63407,0.54742,0.18088,1.08662,1.20956,0.1609,0.56473,0.98856,0.25424,0.66354,1.11425,-0.17972,0.42634,1.46486,0.13751,0.5072,1.55785,-0.25558,0.71787,1.39878,0.36113,0.40195,1.37041,-0.07926,0.7506,1.60524,0.60225,0.39648,1.25376
3685,-0.06338,0.48599,1.55468,0.21096,0.68911,0.12653,0.46197,1.41325,1.23487,0.16322,0.63386,0.54556,0.18492,1.09082,1.20085,0.15838,0.56592,0.98692,0.25249,0.66549,1.11143,-0.18124,0.43026,1.4636,0.13814,0.50741,1.55823,-0.25022,0.71978,1.38281,0.35831,0.39698,1.36969,-0.08251,0.75301,1.59625,0.59951,0.39386,1.25312
3686,-0.06211,0.48859,1.55641,0.21143,0.68819,0.12518,0.4814,1.40716,1.2235,0.16066,0.63353,0.54393,0.19228,1.09532,1.19112,0.1553,0.56733,0.98554,0.25051,0.66715,1.10901,-0.18273,0.43331,1.46216,0.1388,0.5081,1.55869,-0.24465,0.71974,1.36606,0.35616,0.3937,1.36925,-0.08606,0.7556,1.58594,0.59723,0.39292,1.25236
3687,-0.06103,0.49007,1.55841,0.21187,0.68745,0.12431,0.50115,1.40087,1.20867,0.15766,0.63321,0.54269,0.20093,1.09926,1.18076,0.15199,0.56884,0.98456,0.24896,0.66833,1.10692,-0.18377,0.43573,1.46082,0.13972,0.5094,1.55919,-0.23875,0.71768,1.34862,0.3547,0.39204,1.36885,-0.0897,0.7585,1.57423,0.59563,0.39396,1.25171
3688,-0.06033,0.49078,1.56051,0.21224,0.6867,0.12365,0.51999,1.39297,1.19028,0.15464,0.63339,0.54169,0.20889,1.10199,1.16948,0.14868,0.56975,0.98367,0.24757,0.66863,1.10498,-0.18434,0.43756,1.46034,0.14069,0.51085,1.5594,-0.23274,0.71329,1.33095,0.35366,0.39125,1.36821,-0.0939,0.76178,1.56152,0.59466,0.397,1.25132
3689,-0.05999,0.4915,1.56262,0.21269,0.68606,0.12277,0.53762,1.38336,1.16848,0.15213,0.63436,0.5406,0.21626,1.10323,1.15687,0.14551,0.56942,0.98238,0.24592,0.66771,1.10292,-0.18466,0.4392,1.4609,0.14127,0.51201,1.559,-0.22684,0.70688,1.31366,0.35269,0.39059,1.36723,-0.09892,0.76545,1.54816,0.5938,0.4015,1.25094
3690,-0.05952,0.49283,1.5647,0.21365,0.68588,0.12162,0.55455,1.37298,1.14328,0.15024,0.63588,0.53923,0.22427,1.10316,1.14303,0.14261,0.56783,0.98053,0.24406,0.66583,1.10043,-0.1846,0.44122,1.46185,0.14141,0.51322,1.5582,-0.2213,0.69922,1.29694,0.35162,0.39,1.36625,-0.10445,0.7694,1.53401,0.59246,0.40631,1.25004
3691,-0.05842,0.49483,1.56659,0.21532,0.68633,0.12049,0.57093,1.36262,1.11523,0.14849,0.63739,0.53769,0.23336,1.10232,1.12845,0.14009,0.56544,0.97836,0.24253,0.66368,1.09722,-0.18358,0.44371,1.46248,0.14165,0.51519,1.55774,-0.21649,0.69058,1.28058,0.3507,0.39012,1.36572,-0.1101,0.77331,1.51854,0.59062,0.4105,1.24826
3692,-0.05669,0.49707,1.56806,0.21736,0.68713,0.11962,0.58654,1.35189,1.08521,0.1464,0.63864,0.53619,0.24278,1.10108,1.11361,0.1379,0.56282,0.97621,0.24191,0.66171,1.09315,-0.18121,0.44615,1.46264,0.14257,0.51814,1.55804,-0.21274,0.68049,1.26466,0.35048,0.39167,1.3657,-0.11572,0.77684,1.50149,0.58898,0.41473,1.24586
3693,-0.05475,0.49909,1.56901,0.21921,0.6877,0.11899,0.60164,1.33915,1.05352,0.14395,0.6397,0.53487,0.25186,1.09937,1.0987,0.13574,0.56046,0.97428,0.24219,0.65975,1.08866,-0.1781,0.44778,1.46263,0.14411,0.5215,1.55867,-0.21017,0.66862,1.24977,0.35137,0.39484,1.36575,-0.12148,0.77991,1.48329,0.58833,0.42116,1.24355
3694,-0.05293,0.50074,1.56966,0.22042,0.68762,0.11843,0.617,1.3228,1.0198,0.14125,0.64065,0.53369,0.26091,1.09697,1.08372,0.13305,0.5587,0.97261,0.2426,0.6575,1.08446,-0.17546,0.44843,1.46259,0.14578,0.52461,1.55897,-0.20859,0.65536,1.23634,0.35314,0.39909,1.36542,-0.12754,0.78252,1.46447,0.58871,0.43128,1.24193
3695,-0.05122,0.50213,1.57032,0.22081,0.68685,0.11777,0.63279,1.30271,0.98392,0.13815,0.64145,0.53253,0.2707,1.0939,1.0686,0.12943,0.55777,0.97111,0.24233,0.65514,1.08086,-0.17406,0.44843,1.46243,0.14716,0.52728,1.55883,-0.20762,0.64147,1.22427,0.35497,0.40364,1.36455,-0.13369,0.78453,1.4453,0.58938,0.44422,1.24132
3696,-0.04953,0.50348,1.57105,0.22041,0.68553,0.11697,0.64815,1.28006,0.94635,0.13458,0.64225,0.53131,0.28145,1.09026,1.05307,0.12495,0.55775,0.96971,0.24144,0.65292,1.07762,-0.17381,0.4481,1.46202,0.14811,0.52946,1.55845,-0.20709,0.62747,1.21337,0.35618,0.40792,1.36313,-0.13929,0.78572,1.42584,0.58969,0.45786,1.24164
3697,-0.04791,0.50492,1.57168,0.2195,0.68375,0.11601,0.66182,1.25593,0.90792,0.13075,0.64328,0.53002,0.29256,1.08577,1.03665,0.12003,0.55856,0.96835,0.24064,0.65064,1.0744,-0.17408,0.44752,1.46146,0.14888,0.53099,1.55765,-0.20717,0.61337,1.20357,0.35694,0.41164,1.36097,-0.14388,0.78584,1.40614,0.58955,0.47138,1.24223
3698,-0.04644,0.50651,1.57214,0.2184,0.68166,0.11493,0.67303,1.23075,0.86941,0.12687,0.6447,0.52866,0.30321,1.08019,1.01923,0.11513,0.55991,0.96696,0.24039,0.64795,1.07103,-0.17431,0.44708,1.46098,0.15002,0.53193,1.55603,-0.20764,0.59898,1.19467,0.35785,0.4148,1.35777,-0.1478,0.7847,1.38627,0.58909,0.48548,1.24242
3699,-0.04503,0.50821,1.57258,0.21737,0.67969,0.11389,0.68173,1.20468,0.83121,0.12287,0.64642,0.52727,0.31315,1.07368,1.00112,0.1104,0.56129,0.96548,0.24026,0.64502,1.06745,-0.17422,0.4475,1.46063,0.15188,0.53269,1.55361,-0.20776,0.58419,1.18623,0.35926,0.41769,1.35364,-0.15189,0.78228,1.3663,0.58823,0.50069,1.24202
3700,-0.04349,0.50995,1.57307,0.21635,0.67811,0.11313,0.68824,1.1777,0.79329,0.11853,0.64824,0.52599,0.3227,1.06658,0.9828,0.10552,0.56216,0.964,0.23938,0.64233,1.06364,-0.17368,0.44897,1.46036,0.15414,0.53354,1.55102,-0.20681,0.56903,1.17823,0.36109,0.42096,1.34924,-0.15629,0.77884,1.3462,0.58688,0.51677,1.24145
3701,-0.04173,0.51158,1.57354,0.2151,0.67666,0.11268,0.69266,1.14961,0.75549,0.11398,0.6501,0.52498,0.33213,1.05904,0.96455,0.1003,0.56227,0.96262,0.23744,0.64015,1.05957,-0.17267,0.45079,1.4603,0.15622,0.53439,1.54882,-0.20469,0.55351,1.17128,0.36332,0.42536,1.34526,-0.16023,0.77454,1.32606,0.58518,0.53369,1.24124
3702,-0.03983,0.51295,1.57386,0.21358,0.67497,0.11239,0.695,1.12022,0.71774,0.10967,0.65216,0.52421,0.34154,1.05106,0.94614,0.09514,0.56187,0.96133,0.2351,0.63846,1.05522,-0.17129,0.45206,1.46071,0.15788,0.5349,1.54711,-0.20188,0.53774,1.16604,0.36589,0.43108,1.34176,-0.16306,0.76929,1.30627,0.58319,0.55161,1.24161
3703,-0.03806,0.51399,1.574,0.21198,0.67298,0.11204,0.69567,1.08948,0.68022,0.10578,0.6546,0.5235,0.35117,1.04246,0.92719,0.09055,0.56139,0.95998,0.23325,0.63704,1.05045,-0.16981,0.4526,1.46164,0.15927,0.53493,1.5457,-0.19893,0.52195,1.16255,0.3684,0.43741,1.33841,-0.16522,0.76287,1.28746,0.58057,0.56994,1.2425
3704,-0.03661,0.51473,1.57404,0.21037,0.67087,0.11158,0.69505,1.0576,0.64316,0.10195,0.65741,0.52265,0.36134,1.03269,0.90754,0.08646,0.56105,0.95844,0.23211,0.63543,1.04519,-0.16867,0.45264,1.46274,0.1604,0.53469,1.54438,-0.1963,0.50631,1.16031,0.37035,0.44354,1.33503,-0.16758,0.75511,1.27012,0.57706,0.58752,1.24383
3705,-0.03539,0.51531,1.57408,0.20854,0.6689,0.11112,0.69293,1.02447,0.60634,0.09772,0.66045,0.52169,0.37209,1.0209,0.88728,0.0824,0.56089,0.95675,0.23129,0.6331,1.03976,-0.16818,0.45234,1.46348,0.16106,0.53455,1.54307,-0.19429,0.49095,1.15863,0.37163,0.44945,1.3318,-0.17058,0.7459,1.25467,0.57283,0.60395,1.24562
3706,-0.03416,0.51582,1.57414,0.20641,0.66731,0.11089,0.68854,0.98944,0.56937,0.09306,0.66372,0.52084,0.38306,1.00653,0.86648,0.07823,0.561,0.95519,0.23052,0.62988,1.03479,-0.16827,0.45174,1.46355,0.1613,0.53472,1.54183,-0.19309,0.47589,1.1571,0.3726,0.45565,1.32894,-0.17416,0.73528,1.24162,0.56798,0.62006,1.24787
3707,-0.03279,0.51627,1.57412,0.20421,0.66616,0.11101,0.68114,0.95214,0.5327,0.08852,0.66722,0.52032,0.39351,0.98989,0.84531,0.07425,0.56157,0.95399,0.2299,0.62611,1.03067,-0.16862,0.45101,1.46302,0.16171,0.53522,1.54069,-0.19252,0.46113,1.15572,0.37374,0.46242,1.3263,-0.17807,0.72357,1.23123,0.56215,0.6371,1.25037
3708,-0.0314,0.51665,1.57389,0.20227,0.66541,0.1114,0.67053,0.91369,0.49776,0.0847,0.67094,0.52013,0.40252,0.97222,0.8243,0.07076,0.56255,0.95313,0.22954,0.62238,1.02717,-0.16893,0.45029,1.46229,0.16285,0.5361,1.5395,-0.19195,0.44692,1.15477,0.37528,0.4697,1.32344,-0.18203,0.71152,1.22313,0.55471,0.65571,1.25287
3709,-0.03005,0.51707,1.5734,0.20079,0.66495,0.11184,0.65727,0.87597,0.4658,0.08184,0.67483,0.5201,0.40982,0.95475,0.8041,0.06776,0.56353,0.95235,0.22928,0.61913,1.0237,-0.169,0.44952,1.46183,0.16464,0.53731,1.53804,-0.19068,0.43377,1.1546,0.37713,0.47745,1.32014,-0.18576,0.70005,1.2167,0.54554,0.67553,1.25551
3710,-0.02859,0.5177,1.57272,0.19981,0.66479,0.11228,0.64228,0.83976,0.43699,0.07974,0.67888,0.52008,0.41594,0.93782,0.78489,0.06511,0.56415,0.95142,0.22896,0.61647,1.01991,-0.16865,0.44862,1.46206,0.1666,0.53854,1.53631,-0.1886,0.42217,1.15545,0.37916,0.4858,1.31664,-0.18892,0.6898,1.21166,0.53523,0.6957,1.25865
3711,-0.02676,0.51855,1.57197,0.19924,0.66505,0.11273,0.62621,0.80438,0.41071,0.07812,0.68291,0.52008,0.42154,0.92076,0.7663,0.06272,0.56435,0.95036,0.22857,0.61419,1.01578,-0.16772,0.44776,1.46306,0.16848,0.53943,1.53447,-0.1863,0.41205,1.1573,0.38137,0.49471,1.31334,-0.19128,0.68075,1.20789,0.52452,0.71537,1.26239
3712,-0.02443,0.51945,1.5712,0.19892,0.66565,0.11317,0.60926,0.76894,0.38636,0.07686,0.68658,0.52009,0.42666,0.90276,0.74778,0.06053,0.56435,0.94931,0.22831,0.61189,1.01144,-0.16613,0.44737,1.46439,0.17048,0.53998,1.53269,-0.18449,0.403,1.15976,0.38377,0.50378,1.3104,-0.19307,0.6726,1.20477,0.51365,0.73398,1.26664
3713,-0.02174,0.52013,1.57047,0.19867,0.66639,0.11349,0.59152,0.73318,0.36371,0.07589,0.68978,0.52006,0.43075,0.88349,0.72901,0.05851,0.56444,0.94833,0.22829,0.60926,1.00699,-0.16402,0.44768,1.46556,0.17291,0.54045,1.531,-0.18332,0.39478,1.16235,0.38631,0.51257,1.30761,-0.19479,0.66518,1.20158,0.50269,0.75115,1.27132
3714,-0.01901,0.52046,1.56978,0.19831,0.66703,0.11365,0.57324,0.6975,0.3429,0.07514,0.69279,0.51996,0.43328,0.86317,0.71012,0.05672,0.56477,0.94739,0.22847,0.60632,1.0026,-0.16175,0.44851,1.46638,0.17595,0.54088,1.52939,-0.1824,0.38743,1.1648,0.38882,0.52099,1.30465,-0.1967,0.65846,1.19822,0.49191,0.76665,1.27637
3715,-0.01627,0.5204,1.56913,0.19775,0.66728,0.11375,0.55472,0.66263,0.32412,0.07457,0.69591,0.51986,0.43414,0.84232,0.69162,0.05522,0.56525,0.94646,0.22876,0.60331,0.99847,-0.15957,0.44936,1.46686,0.17949,0.54094,1.52784,-0.18129,0.38083,1.16696,0.39112,0.52917,1.30136,-0.19893,0.65226,1.19517,0.48147,0.78062,1.2818
3716,-0.01328,0.51992,1.56851,0.19701,0.66704,0.11388,0.53591,0.6292,0.30734,0.07421,0.69918,0.51985,0.43352,0.82138,0.67403,0.05396,0.56575,0.94554,0.22904,0.6004,0.99469,-0.15737,0.44989,1.46708,0.18314,0.54048,1.52628,-0.17982,0.37475,1.16882,0.39316,0.53728,1.29802,-0.20115,0.64631,1.193,0.47088,0.79347,1.2878
3717,-0.00988,0.51917,1.56793,0.19611,0.66638,0.114,0.51653,0.59727,0.29237,0.07415,0.70242,0.51989,0.4316,0.80052,0.65756,0.05274,0.56613,0.94462,0.22912,0.59763,0.99118,-0.15487,0.45036,1.4672,0.18653,0.53984,1.52459,-0.17789,0.3692,1.17057,0.3952,0.54545,1.29514,-0.20211,0.64073,1.19218,0.45919,0.80561,1.2946
3718,-0.00622,0.51843,1.56731,0.19509,0.66535,0.11392,0.49661,0.56632,0.27914,0.07449,0.70529,0.51985,0.42851,0.77964,0.6421,0.05144,0.56637,0.94364,0.22896,0.59484,0.98778,-0.15199,0.4513,1.46748,0.1896,0.53938,1.52274,-0.17533,0.3645,1.17247,0.39754,0.5538,1.29302,-0.20067,0.63603,1.19286,0.44564,0.8172,1.30225
3719,-0.00249,0.51789,1.56657,0.19407,0.66402,0.11342,0.47664,0.53587,0.26763,0.07525,0.70731,0.51953,0.42425,0.75868,0.62748,0.05019,0.56654,0.9426,0.22875,0.59181,0.98441,-0.14889,0.45274,1.46807,0.19266,0.53903,1.52086,-0.17228,0.36097,1.17457,0.40013,0.56246,1.29146,-0.19716,0.63255,1.19486,0.43031,0.82799,1.31056
3720,0.00124,0.51744,1.56581,0.19325,0.66264,0.11237,0.45707,0.50575,0.25774,0.0763,0.7081,0.51879,0.41882,0.73768,0.61359,0.04924,0.5667,0.94153,0.22878,0.58845,0.98112,-0.14576,0.45403,1.46889,0.19598,0.53851,1.51903,-0.16919,0.35858,1.17657,0.4026,0.57129,1.29001,-0.19292,0.63018,1.19789,0.4143,0.83734,1.31924
3721,0.00503,0.51696,1.56514,0.19276,0.66144,0.11098,0.43788,0.47605,0.24921,0.07746,0.70785,0.51776,0.41222,0.71646,0.60052,0.04867,0.56689,0.94053,0.22907,0.58469,0.97809,-0.14265,0.45457,1.46978,0.19952,0.5376,1.5172,-0.16643,0.3571,1.17816,0.4047,0.57966,1.2884,-0.18902,0.6286,1.20179,0.39899,0.84456,1.32806
3722,0.00892,0.51653,1.56452,0.19235,0.66034,0.10966,0.41863,0.44698,0.24155,0.07862,0.7072,0.51683,0.40442,0.69474,0.58839,0.0483,0.56716,0.9398,0.22949,0.58036,0.97541,-0.13939,0.45446,1.47063,0.20302,0.53632,1.5153,-0.16405,0.35636,1.1793,0.40653,0.58696,1.28674,-0.18602,0.62759,1.2064,0.38496,0.84928,1.33676
3723,0.01294,0.51619,1.56386,0.19168,0.65902,0.10877,0.39915,0.4191,0.23442,0.07983,0.70671,0.51636,0.39564,0.67265,0.57732,0.04799,0.56748,0.93948,0.22989,0.57543,0.97297,-0.13577,0.45433,1.4714,0.20639,0.53474,1.51341,-0.16188,0.3564,1.18013,0.4082,0.59328,1.28523,-0.18399,0.62716,1.21149,0.37182,0.85185,1.34517
3724,0.01715,0.5157,1.56328,0.1908,0.65739,0.10843,0.37971,0.39315,0.22778,0.08108,0.70638,0.51645,0.38664,0.65088,0.5675,0.04761,0.56758,0.93959,0.23011,0.5702,0.97056,-0.1317,0.45459,1.47211,0.2098,0.53273,1.5117,-0.15968,0.35738,1.18078,0.40956,0.59947,1.28397,-0.18208,0.6275,1.21702,0.35873,0.85317,1.35349
3725,0.02151,0.51479,1.56292,0.19013,0.65586,0.10844,0.36068,0.36954,0.22179,0.08234,0.70576,0.51686,0.37823,0.63001,0.55903,0.04698,0.56728,0.93995,0.22995,0.56504,0.968,-0.12732,0.45515,1.47291,0.21355,0.53002,1.51024,-0.15721,0.35957,1.18122,0.41037,0.60636,1.28297,-0.17902,0.62892,1.22319,0.34534,0.8539,1.36214
3726,0.02583,0.51342,1.56275,0.18997,0.65482,0.10843,0.34223,0.34813,0.21636,0.08364,0.70455,0.51725,0.37051,0.60991,0.55185,0.04604,0.56674,0.94037,0.22934,0.55998,0.96543,-0.12288,0.45576,1.47384,0.21779,0.52646,1.50894,-0.15445,0.36313,1.18139,0.4105,0.61395,1.28217,-0.1742,0.63151,1.23005,0.332,0.85413,1.37121
3727,0.03001,0.51193,1.56257,0.1901,0.65415,0.10814,0.32438,0.32852,0.21101,0.08509,0.70299,0.51741,0.36282,0.58989,0.54581,0.04503,0.56621,0.94063,0.22842,0.55479,0.96315,-0.11868,0.45645,1.47476,0.2224,0.52226,1.50778,-0.15165,0.36776,1.18124,0.40984,0.62155,1.28144,-0.16808,0.63495,1.23711,0.31933,0.85352,1.3803
3728,0.03421,0.51075,1.56231,0.19012,0.65349,0.10752,0.30719,0.3104,0.20532,0.08686,0.70156,0.51733,0.35444,0.56964,0.54064,0.04426,0.56567,0.94059,0.2275,0.54936,0.96129,-0.11503,0.45733,1.4754,0.22708,0.51791,1.50681,-0.14919,0.37292,1.18076,0.40834,0.62836,1.28062,-0.16152,0.63874,1.24382,0.30779,0.85182,1.38894
3729,0.03866,0.51,1.56208,0.18987,0.6529,0.10668,0.2908,0.29361,0.19929,0.0891,0.70034,0.51718,0.34518,0.54962,0.53601,0.04384,0.56478,0.94027,0.22676,0.54381,0.95958,-0.11201,0.45837,1.47567,0.23153,0.5138,1.50603,-0.14735,0.3784,1.17992,0.40627,0.63397,1.27967,-0.15531,0.64259,1.25008,0.29788,0.84907,1.39697
3730,0.04338,0.50951,1.56201,0.18959,0.65257,0.10575,0.27518,0.27805,0.19319,0.09175,0.69896,0.51708,0.33524,0.53047,0.53166,0.04368,0.56333,0.93984,0.22623,0.53826,0.95771,-0.1094,0.45947,1.47568,0.23561,0.51012,1.50527,-0.14619,0.38447,1.17881,0.40425,0.63835,1.2787,-0.14985,0.64668,1.25639,0.29015,0.84549,1.4046
3731,0.04817,0.50901,1.56214,0.18948,0.65234,0.10487,0.26006,0.26381,0.1871,0.09439,0.69694,0.51704,0.32489,0.5123,0.52758,0.04367,0.56139,0.93952,0.22585,0.53267,0.95565,-0.10671,0.46058,1.47566,0.23936,0.5067,1.50436,-0.14561,0.39156,1.17761,0.40262,0.64184,1.27786,-0.1449,0.65126,1.26328,0.28434,0.84112,1.41232
3732,0.05285,0.50832,1.56233,0.1895,0.65186,0.1042,0.24522,0.25103,0.18089,0.09648,0.69421,0.51708,0.31417,0.49474,0.52401,0.04377,0.55908,0.93945,0.22554,0.52698,0.95363,-0.1034,0.46163,1.47573,0.243,0.50301,1.50334,-0.14541,0.39979,1.17653,0.40108,0.64471,1.27718,-0.13983,0.65642,1.27083,0.27948,0.83571,1.42039
3733,0.05752,0.50727,1.56239,0.18967,0.65107,0.10376,0.23077,0.23964,0.17458,0.09785,0.69115,0.51714,0.3029,0.47745,0.52117,0.04394,0.55643,0.93949,0.22523,0.52106,0.95191,-0.0992,0.46245,1.47587,0.24665,0.49855,1.50242,-0.1455,0.40892,1.17571,0.39914,0.64665,1.27652,-0.13409,0.66204,1.2786,0.2749,0.82912,1.42833
3734,0.06235,0.50569,1.56215,0.1901,0.6503,0.10338,0.217,0.22939,0.16831,0.09891,0.68814,0.51711,0.29092,0.46049,0.51904,0.0441,0.55347,0.93936,0.22479,0.51475,0.95048,-0.09444,0.46296,1.47607,0.25022,0.49337,1.50174,-0.14585,0.41862,1.17524,0.3967,0.64721,1.2757,-0.12749,0.66787,1.28624,0.27071,0.82162,1.43534
3735,0.06722,0.50358,1.56166,0.19066,0.64984,0.10295,0.20398,0.22009,0.16225,0.10025,0.68535,0.51706,0.27847,0.4443,0.5173,0.04416,0.55022,0.93899,0.22412,0.50799,0.9491,-0.08984,0.46339,1.47632,0.25354,0.48806,1.50117,-0.14624,0.42858,1.17513,0.39387,0.64662,1.27449,-0.12004,0.67354,1.29385,0.26706,0.8137,1.44117
3736,0.07193,0.50113,1.5612,0.19085,0.6495,0.10266,0.19165,0.21169,0.15651,0.10207,0.68285,0.51729,0.26603,0.42932,0.51566,0.04407,0.54669,0.93863,0.22323,0.5009,0.94753,-0.08585,0.46409,1.47659,0.25668,0.4831,1.50046,-0.14637,0.43864,1.17526,0.39065,0.64569,1.27279,-0.11209,0.67854,1.30198,0.2637,0.80555,1.4463
3737,0.07644,0.49854,1.56097,0.19014,0.6488,0.10271,0.18006,0.20421,0.15115,0.104,0.68066,0.51802,0.25399,0.41565,0.51407,0.044,0.5429,0.93856,0.2223,0.49365,0.94578,-0.08239,0.4651,1.47676,0.25998,0.47833,1.49956,-0.14619,0.44911,1.17546,0.38702,0.64482,1.27073,-0.10447,0.68276,1.31129,0.26043,0.79708,1.4512
3738,0.08098,0.49587,1.56089,0.18832,0.64753,0.10296,0.16937,0.19769,0.14617,0.10541,0.67863,0.51898,0.24252,0.40323,0.51262,0.04405,0.53902,0.93872,0.22141,0.48623,0.94405,-0.07902,0.46624,1.47688,0.26366,0.47315,1.49854,-0.14595,0.46056,1.17589,0.38327,0.64363,1.26865,-0.09764,0.68662,1.32199,0.25763,0.78842,1.45581
3739,0.08591,0.49309,1.56078,0.18563,0.64591,0.10299,0.15972,0.19209,0.14151,0.10597,0.67639,0.51969,0.23178,0.39189,0.51133,0.04427,0.53512,0.93882,0.22047,0.47844,0.94243,-0.07535,0.4675,1.47709,0.26763,0.46713,1.49739,-0.14581,0.473,1.1769,0.37991,0.64161,1.26681,-0.09111,0.69045,1.33344,0.25577,0.78002,1.4597
3740,0.09129,0.49018,1.56046,0.18246,0.64411,0.10251,0.15114,0.18728,0.13704,0.10595,0.67371,0.51986,0.22208,0.38136,0.51011,0.04463,0.53114,0.93861,0.21938,0.4701,0.94091,-0.07133,0.46906,1.47739,0.2716,0.46036,1.49597,-0.14565,0.48559,1.17854,0.37734,0.63872,1.26526,-0.08403,0.69416,1.34432,0.25477,0.772,1.46271
3741,0.09662,0.48724,1.55986,0.17904,0.64204,0.10163,0.14357,0.18326,0.1325,0.10586,0.67077,0.51964,0.21365,0.37131,0.50881,0.04505,0.52704,0.93807,0.21811,0.4613,0.93933,-0.06735,0.47105,1.47759,0.27522,0.45318,1.49417,-0.14532,0.49754,1.1804,0.37566,0.63527,1.264,-0.07623,0.69747,1.35371,0.25427,0.76402,1.46516
3742,0.10141,0.48441,1.55897,0.17537,0.63968,0.10065,0.13692,0.1801,0.1277,0.10598,0.66789,0.51934,0.20649,0.36159,0.50731,0.04538,0.52288,0.93735,0.21653,0.45231,0.93758,-0.06373,0.4734,1.47759,0.27838,0.44576,1.49208,-0.14502,0.50884,1.18222,0.37458,0.63146,1.263,-0.06811,0.70026,1.36174,0.25418,0.75578,1.46752
3743,0.10572,0.48169,1.55787,0.17138,0.63709,0.09975,0.13122,0.17786,0.12264,0.10618,0.66513,0.51913,0.20042,0.3523,0.50561,0.04544,0.51863,0.9366,0.21452,0.44323,0.93572,-0.06027,0.47587,1.47753,0.28136,0.43803,1.48995,-0.14496,0.51993,1.18428,0.3736,0.62721,1.26209,-0.05997,0.70273,1.36907,0.25458,0.7473,1.46991
3744,0.11002,0.47894,1.55661,0.16714,0.63434,0.09897,0.1265,0.17657,0.11747,0.10619,0.66233,0.51899,0.19524,0.34358,0.50381,0.04525,0.5143,0.93589,0.21207,0.43405,0.93393,-0.0565,0.47816,1.47772,0.28446,0.43005,1.48812,-0.14486,0.53112,1.18704,0.37247,0.6222,1.26107,-0.05174,0.70534,1.37615,0.25546,0.73863,1.47209
3745,0.11459,0.47599,1.55525,0.16273,0.63161,0.09827,0.1227,0.17609,0.11244,0.10602,0.65944,0.5189,0.19085,0.33543,0.50211,0.04506,0.50992,0.93527,0.20949,0.42492,0.93235,-0.05234,0.47985,1.47834,0.28757,0.42205,1.48678,-0.14397,0.5424,1.19059,0.3714,0.61614,1.2598,-0.04316,0.70855,1.38298,0.25664,0.72969,1.47361
3746,0.11931,0.47272,1.55392,0.15839,0.62929,0.09767,0.11965,0.17596,0.10784,0.10589,0.65654,0.51888,0.18729,0.32777,0.5006,0.04507,0.50553,0.93473,0.20717,0.41618,0.93101,-0.04837,0.48061,1.47919,0.29024,0.4142,1.4859,-0.14183,0.55355,1.19449,0.37086,0.60889,1.25827,-0.03422,0.71223,1.38949,0.25783,0.72031,1.47412
3747,0.12393,0.46903,1.55282,0.15463,0.62775,0.09719,0.11714,0.17573,0.1038,0.10594,0.65367,0.51894,0.1846,0.32053,0.49923,0.04531,0.50102,0.93422,0.20527,0.40792,0.92981,-0.04523,0.48062,1.47986,0.29222,0.40639,1.48535,-0.13874,0.56426,1.19813,0.37108,0.60039,1.25652,-0.02524,0.71547,1.39571,0.25895,0.71048,1.47351
3748,0.12826,0.465,1.55198,0.15189,0.62701,0.09687,0.11502,0.17517,0.10027,0.10609,0.65064,0.51908,0.18271,0.31371,0.49789,0.04558,0.49629,0.93375,0.20355,0.3999,0.92871,-0.04282,0.48069,1.48017,0.29364,0.39829,1.48503,-0.1353,0.57418,1.20121,0.37181,0.59066,1.25459,-0.01671,0.71724,1.40185,0.26024,0.7002,1.47214
3749,0.13209,0.461,1.55115,0.15024,0.62677,0.09667,0.1132,0.17417,0.09714,0.10627,0.64736,0.51923,0.18137,0.30724,0.49655,0.04562,0.49133,0.93325,0.20167,0.39188,0.9277,-0.04037,0.48169,1.48039,0.29481,0.38963,1.4848,-0.13178,0.58319,1.2039,0.37264,0.57995,1.25255,-0.00887,0.71749,1.40796,0.26207,0.68937,1.47067
3750,0.13533,0.45742,1.55013,0.14945,0.62662,0.09651,0.11175,0.17273,0.09438,0.10658,0.64408,0.51933,0.18019,0.30096,0.49532,0.0454,0.48624,0.93258,0.19958,0.38393,0.92684,-0.03724,0.48361,1.48087,0.29601,0.38061,1.48451,-0.128,0.59156,1.20662,0.37345,0.56892,1.2505,-0.00152,0.71714,1.41402,0.26456,0.678,1.46964
3751,0.13822,0.45426,1.54902,0.14926,0.62641,0.09639,0.11086,0.17086,0.09203,0.10711,0.64114,0.51939,0.17887,0.29481,0.49439,0.04517,0.48113,0.93169,0.1976,0.37623,0.92623,-0.03337,0.4855,1.48152,0.29733,0.37189,1.48394,-0.12378,0.59945,1.20959,0.37462,0.55844,1.24848,0.00555,0.717,1.41992,0.26742,0.66647,1.46897
3752,0.14125,0.45112,1.54816,0.14959,0.62624,0.0964,0.11067,0.16866,0.09014,0.10779,0.63858,0.5195,0.17734,0.28888,0.49385,0.04515,0.47608,0.93073,0.19603,0.36891,0.92595,-0.02917,0.48638,1.48195,0.29857,0.36407,1.483,-0.11918,0.60648,1.21254,0.37653,0.54895,1.24644,0.01234,0.71691,1.42536,0.2702,0.65542,1.4681
3753,0.14477,0.4476,1.54777,0.15041,0.62629,0.09652,0.11097,0.16628,0.08864,0.10855,0.63601,0.51969,0.17581,0.28319,0.49362,0.04541,0.47102,0.92984,0.19495,0.36195,0.92593,-0.02519,0.48598,1.48195,0.29944,0.35716,1.48188,-0.11443,0.61198,1.21499,0.37925,0.5401,1.24443,0.01884,0.71605,1.42992,0.27272,0.64536,1.46658
3754,0.14871,0.44365,1.54777,0.15147,0.62661,0.09664,0.11126,0.16394,0.08738,0.1095,0.63308,0.51986,0.1745,0.27766,0.49352,0.04591,0.46594,0.92907,0.19429,0.35528,0.92601,-0.02176,0.48466,1.48173,0.29987,0.35067,1.48098,-0.10966,0.61587,1.21685,0.38262,0.53122,1.24271,0.02508,0.714,1.43364,0.27509,0.63633,1.46444
3755,0.15259,0.43956,1.54787,0.15236,0.62704,0.09666,0.11119,0.16185,0.08624,0.11072,0.62973,0.51995,0.17337,0.27232,0.49344,0.04661,0.46099,0.92842,0.19388,0.34883,0.9261,-0.01885,0.48299,1.48174,0.3,0.34399,1.48062,-0.10487,0.61872,1.21852,0.38629,0.52181,1.24155,0.03116,0.71111,1.43702,0.27742,0.62801,1.46211
3756,0.15579,0.43574,1.54764,0.15287,0.62726,0.09657,0.11075,0.16015,0.08522,0.11205,0.62612,0.51995,0.17216,0.26745,0.49338,0.04741,0.45638,0.92793,0.19343,0.34259,0.92624,-0.01629,0.48154,1.48233,0.2999,0.33679,1.48085,-0.09991,0.62114,1.22036,0.38966,0.51176,1.24097,0.03711,0.70796,1.44053,0.27978,0.61998,1.46004
3757,0.15805,0.43233,1.54693,0.15305,0.62704,0.09647,0.11006,0.15898,0.08435,0.11314,0.62234,0.51991,0.1708,0.26327,0.49339,0.04818,0.45217,0.92766,0.19278,0.33657,0.92653,-0.01399,0.48047,1.48333,0.29954,0.32921,1.48145,-0.09478,0.62328,1.2222,0.39235,0.50139,1.24071,0.04284,0.7047,1.44404,0.28228,0.61196,1.45851
3758,0.15968,0.42897,1.546,0.15306,0.62647,0.09643,0.10926,0.15845,0.08369,0.11381,0.61836,0.51988,0.16947,0.25973,0.49357,0.04885,0.44822,0.92764,0.19199,0.33083,0.92705,-0.01184,0.47943,1.48412,0.29879,0.3217,1.48194,-0.08971,0.62505,1.22366,0.39461,0.49132,1.24055,0.04825,0.70128,1.44713,0.28503,0.60391,1.45757
3759,0.16116,0.42524,1.54537,0.15288,0.62582,0.09641,0.10861,0.15853,0.08328,0.1142,0.61418,0.51983,0.16829,0.25659,0.49402,0.04953,0.44445,0.92781,0.19127,0.32537,0.92785,-0.00969,0.47793,1.48431,0.29759,0.3146,1.48194,-0.08462,0.6266,1.22471,0.39689,0.482,1.24042,0.05363,0.69789,1.44963,0.288,0.59599,1.45704
3760,0.16262,0.42114,1.54522,0.15235,0.62527,0.09633,0.10826,0.15898,0.08312,0.11455,0.60998,0.51971,0.16718,0.25368,0.49475,0.05037,0.44088,0.92802,0.19066,0.32009,0.92892,-0.00753,0.47583,1.48418,0.296,0.30806,1.48164,-0.0791,0.62815,1.22576,0.39924,0.47339,1.24034,0.05948,0.69504,1.45182,0.29104,0.5884,1.45677
3761,0.16392,0.41706,1.5454,0.15141,0.62477,0.09619,0.1081,0.15948,0.08308,0.11498,0.60598,0.51955,0.16605,0.25096,0.49558,0.05136,0.43749,0.9282,0.19003,0.31486,0.9301,-0.00546,0.47332,1.48436,0.29437,0.30203,1.48145,-0.07301,0.62948,1.22715,0.40134,0.46521,1.24032,0.0659,0.69298,1.45399,0.29407,0.58119,1.45669
3762,0.16495,0.41321,1.54565,0.15015,0.62414,0.09612,0.10795,0.15977,0.08298,0.1154,0.60228,0.51948,0.16496,0.24838,0.49623,0.05229,0.43411,0.92834,0.1893,0.30965,0.93111,-0.00344,0.47063,1.48515,0.29318,0.29624,1.48151,-0.06683,0.63008,1.22889,0.40298,0.45726,1.2402,0.07232,0.69137,1.4562,0.29706,0.57426,1.45669
3763,0.16577,0.40948,1.5459,0.14864,0.62335,0.09612,0.10779,0.15965,0.0827,0.11571,0.59879,0.51948,0.16409,0.24576,0.49658,0.05303,0.43063,0.92841,0.18857,0.30457,0.93179,-0.00138,0.46786,1.4863,0.29252,0.29025,1.48164,-0.06117,0.62957,1.2306,0.40406,0.44939,1.23987,0.078,0.68955,1.45824,0.29985,0.56761,1.45652
3764,0.16645,0.4056,1.54613,0.14692,0.62255,0.09609,0.10767,0.15901,0.0823,0.11581,0.59542,0.51943,0.1635,0.24287,0.49671,0.05366,0.42712,0.92838,0.18796,0.29975,0.93217,0.00067,0.46517,1.4874,0.29192,0.28384,1.48165,-0.05614,0.62814,1.23182,0.40458,0.44145,1.23941,0.08268,0.68708,1.45994,0.30218,0.56122,1.45608
3765,0.16711,0.40141,1.5463,0.14506,0.62193,0.09599,0.10763,0.15803,0.08194,0.11564,0.59213,0.51927,0.16318,0.23971,0.49682,0.05424,0.42367,0.92827,0.18753,0.29526,0.93246,0.0025,0.46275,1.48825,0.29074,0.27712,1.48167,-0.05136,0.62627,1.23238,0.40467,0.43335,1.23911,0.08657,0.68387,1.46138,0.30409,0.55497,1.45561
3766,0.16783,0.397,1.54643,0.14325,0.62151,0.09594,0.10759,0.15712,0.0817,0.11522,0.58897,0.51911,0.16306,0.23645,0.49704,0.05479,0.42027,0.92816,0.18723,0.291,0.93282,0.00396,0.46065,1.48891,0.28882,0.27037,1.48189,-0.04637,0.62424,1.23237,0.40464,0.42506,1.23925,0.08996,0.68004,1.46277,0.30583,0.54873,1.4554
3767,0.16862,0.39258,1.54658,0.14155,0.62123,0.09608,0.10751,0.15657,0.08154,0.11459,0.58594,0.5191,0.16316,0.2332,0.49737,0.05532,0.41683,0.92815,0.187,0.28681,0.93329,0.00514,0.4588,1.48946,0.28664,0.26366,1.48242,-0.04088,0.62206,1.23191,0.40473,0.41664,1.23979,0.09304,0.6759,1.46418,0.30761,0.5425,1.45544
3768,0.16949,0.38826,1.54682,0.13976,0.62104,0.09645,0.10746,0.1563,0.08144,0.11374,0.58288,0.51928,0.16337,0.23001,0.49776,0.05584,0.41335,0.92835,0.18679,0.28261,0.93382,0.00629,0.45714,1.48988,0.2848,0.25703,1.48325,-0.0348,0.61978,1.23111,0.40495,0.40818,1.24048,0.09599,0.67187,1.46555,0.30927,0.53622,1.45548
3769,0.17026,0.38411,1.54705,0.13767,0.62092,0.09692,0.10751,0.15591,0.08141,0.11272,0.57972,0.51953,0.16342,0.22699,0.49818,0.05635,0.40992,0.9287,0.18654,0.27844,0.9344,0.00768,0.45568,1.49018,0.28341,0.25058,1.4842,-0.02849,0.61756,1.2302,0.40511,0.39978,1.241,0.09889,0.66827,1.46681,0.31052,0.52972,1.45535
3770,0.17071,0.38025,1.5472,0.13544,0.6208,0.09734,0.10765,0.15516,0.08144,0.1117,0.57664,0.51972,0.16309,0.22432,0.4986,0.0569,0.40667,0.92903,0.18626,0.27437,0.93498,0.00923,0.45418,1.49038,0.28216,0.24452,1.48499,-0.02277,0.61533,1.22939,0.40499,0.39169,1.24113,0.10157,0.66508,1.46783,0.31134,0.52305,1.45503
3771,0.17084,0.37662,1.54733,0.13343,0.62066,0.09764,0.10776,0.15428,0.08147,0.11086,0.57384,0.5198,0.16246,0.22203,0.49896,0.05753,0.40371,0.92924,0.18602,0.27057,0.93549,0.01051,0.45214,1.4905,0.28094,0.23902,1.48544,-0.01826,0.61271,1.22878,0.40443,0.3844,1.24083,0.10377,0.66204,1.46849,0.31187,0.51666,1.45465
3772,0.17095,0.37283,1.54771,0.13173,0.6206,0.09784,0.1078,0.15368,0.08139,0.11015,0.57129,0.51977,0.16184,0.21994,0.49921,0.05818,0.40099,0.92931,0.18595,0.26718,0.93585,0.01131,0.44931,1.49059,0.27987,0.23418,1.48568,-0.01491,0.60944,1.22833,0.4035,0.37823,1.24035,0.10539,0.65888,1.46889,0.31216,0.51103,1.45436
3773,0.17115,0.36865,1.54844,0.13017,0.62077,0.098,0.10778,0.15342,0.08113,0.1094,0.56888,0.51966,0.16142,0.21785,0.49929,0.05871,0.39829,0.92925,0.18607,0.2641,0.936,0.01184,0.44608,1.49073,0.27893,0.22993,1.48603,-0.01214,0.60581,1.22802,0.40257,0.3729,1.24008,0.10654,0.65556,1.46931,0.31224,0.50615,1.45423
3774,0.17131,0.3643,1.54933,0.12857,0.62116,0.09823,0.10771,0.15328,0.08073,0.10847,0.56665,0.51959,0.1611,0.21572,0.49922,0.05911,0.39539,0.92906,0.1863,0.26105,0.936,0.01237,0.44298,1.49087,0.27797,0.22597,1.48661,-0.00943,0.60239,1.22777,0.40202,0.36777,1.24019,0.10747,0.65212,1.46994,0.31233,0.50172,1.45418
3775,0.17131,0.36026,1.55003,0.12689,0.62159,0.09862,0.10769,0.15302,0.08031,0.10735,0.56478,0.5197,0.16072,0.21363,0.49911,0.0595,0.3923,0.92884,0.18663,0.25792,0.93595,0.0129,0.44001,1.49085,0.27698,0.22199,1.48728,-0.00664,0.59941,1.22756,0.40173,0.36248,1.24046,0.10847,0.64864,1.47069,0.31272,0.49733,1.45417
3776,0.17126,0.35665,1.5503,0.12518,0.62188,0.09918,0.10784,0.15254,0.08004,0.10617,0.56334,0.52005,0.16038,0.21154,0.49913,0.05998,0.38924,0.92869,0.18709,0.25484,0.93603,0.01325,0.43677,1.49054,0.27614,0.21798,1.48778,-0.00394,0.59665,1.22739,0.40134,0.35731,1.24053,0.10969,0.64527,1.47133,0.3134,0.49265,1.45436
3777,0.17128,0.35322,1.55017,0.12346,0.62199,0.09989,0.10813,0.15191,0.07998,0.10508,0.56222,0.52061,0.16031,0.20934,0.49933,0.06051,0.38632,0.92866,0.18767,0.25199,0.93625,0.01316,0.43305,1.48998,0.27559,0.21428,1.48797,-0.00149,0.5939,1.22726,0.40078,0.35276,1.24024,0.11104,0.64207,1.4718,0.31405,0.48764,1.45486
3778,0.1713,0.34967,1.54981,0.12158,0.622,0.10073,0.10836,0.15126,0.08002,0.10424,0.56132,0.52137,0.16053,0.20708,0.4996,0.06081,0.38346,0.92869,0.18831,0.24946,0.93652,0.01244,0.42911,1.4893,0.27535,0.21115,1.48808,0.00066,0.59107,1.22712,0.40038,0.34883,1.23983,0.11234,0.63883,1.47213,0.31443,0.48268,1.45541
3779,0.17119,0.34606,1.54942,0.1193,0.62201,0.10167,0.10833,0.15069,0.07999,0.10365,0.5605,0.52225,0.16086,0.20484,0.49975,0.06075,0.38061,0.92874,0.18887,0.24721,0.93665,0.01135,0.42535,1.48867,0.27536,0.20839,1.48846,0.00251,0.58814,1.22688,0.4003,0.34498,1.23956,0.11345,0.63529,1.47235,0.31449,0.47814,1.45563
3780,0.17093,0.34268,1.54917,0.1167,0.62198,0.10258,0.10809,0.15021,0.07979,0.10293,0.55963,0.52311,0.16106,0.20267,0.4997,0.06055,0.37784,0.9288,0.18931,0.24505,0.93658,0.01057,0.42196,1.48822,0.27554,0.20558,1.48919,0.00399,0.58509,1.22658,0.40032,0.34086,1.2395,0.11427,0.63155,1.47247,0.31433,0.47399,1.45551
3781,0.17055,0.33972,1.54911,0.1141,0.62186,0.10335,0.1078,0.14978,0.07942,0.10175,0.55873,0.5238,0.16104,0.20057,0.4995,0.0605,0.37526,0.92885,0.18968,0.24286,0.93637,0.01046,0.41878,1.48791,0.27584,0.20241,1.48999,0.00496,0.582,1.22631,0.40007,0.33681,1.23954,0.11473,0.62794,1.47253,0.31398,0.47001,1.45547
3782,0.17015,0.33695,1.54919,0.11173,0.62169,0.10403,0.10754,0.14931,0.07898,0.10035,0.55806,0.52443,0.16098,0.19854,0.49922,0.06063,0.37282,0.92883,0.19007,0.24066,0.93608,0.01067,0.41553,1.48755,0.27626,0.19894,1.49064,0.00538,0.579,1.2261,0.39936,0.33339,1.23967,0.11484,0.62471,1.47249,0.31348,0.46617,1.45594
3783,0.16979,0.33411,1.54924,0.10946,0.62149,0.10474,0.10733,0.14878,0.07855,0.09932,0.55777,0.52516,0.16103,0.19659,0.49892,0.06078,0.37045,0.92872,0.19048,0.23854,0.93577,0.01072,0.41217,1.48702,0.2767,0.19543,1.49116,0.00532,0.57614,1.22588,0.39832,0.33073,1.23992,0.11477,0.6218,1.4723,0.31293,0.46266,1.4569
3784,0.16942,0.33134,1.54916,0.10701,0.62114,0.10546,0.10716,0.14824,0.07821,0.09871,0.55766,0.52596,0.16116,0.19482,0.49867,0.06094,0.36813,0.92856,0.19091,0.23649,0.93553,0.01054,0.40889,1.48643,0.27696,0.19215,1.49158,0.00494,0.57346,1.22567,0.39714,0.3285,1.24021,0.11475,0.61913,1.47192,0.31235,0.4596,1.45793
3785,0.16902,0.32886,1.54894,0.10425,0.62049,0.10614,0.10706,0.14781,0.078,0.0981,0.55743,0.52674,0.16127,0.19328,0.49857,0.0612,0.36593,0.92848,0.19129,0.2344,0.93546,0.01045,0.40597,1.48603,0.277,0.18919,1.49171,0.0044,0.57098,1.22556,0.39604,0.32646,1.24031,0.11487,0.61665,1.47152,0.31163,0.45685,1.4586
3786,0.16867,0.32656,1.54868,0.1014,0.61952,0.10679,0.10702,0.14752,0.07794,0.09731,0.55701,0.52749,0.16132,0.19188,0.49861,0.06149,0.36385,0.92854,0.19148,0.23223,0.93556,0.01069,0.40355,1.48596,0.27692,0.18658,1.49127,0.00377,0.56873,1.22562,0.39518,0.32478,1.24001,0.11497,0.61439,1.47126,0.31083,0.45416,1.45892
3787,0.16861,0.3241,1.54849,0.09878,0.61832,0.10743,0.10696,0.14726,0.07795,0.09659,0.55651,0.52826,0.16129,0.19048,0.49874,0.06167,0.36181,0.92864,0.19142,0.22995,0.93577,0.0112,0.40151,1.4861,0.27677,0.18433,1.49027,0.00304,0.56661,1.22575,0.39463,0.32363,1.23942,0.11481,0.61221,1.47113,0.31012,0.45139,1.45923
3788,0.16889,0.32132,1.54841,0.09651,0.61681,0.10799,0.10682,0.14691,0.07799,0.09607,0.55601,0.52896,0.16114,0.18904,0.49889,0.06175,0.3598,0.92866,0.19124,0.2277,0.936,0.01166,0.39954,1.48618,0.27652,0.18231,1.48924,0.0021,0.56444,1.22575,0.39416,0.32265,1.23887,0.11432,0.60985,1.47096,0.30963,0.44868,1.45966
3789,0.16928,0.31831,1.54847,0.0944,0.61488,0.10835,0.10663,0.14648,0.07806,0.09561,0.55552,0.52953,0.16091,0.18759,0.49907,0.06181,0.35793,0.92859,0.19119,0.22573,0.93621,0.01175,0.3973,1.48608,0.27621,0.18036,1.48873,0.00091,0.56214,1.22566,0.39353,0.3214,1.23861,0.11376,0.60717,1.47065,0.30925,0.44623,1.46017
3790,0.16951,0.3154,1.54864,0.09223,0.61253,0.10858,0.10648,0.14604,0.07816,0.09508,0.55502,0.53001,0.16067,0.18613,0.49928,0.06195,0.35626,0.92854,0.19139,0.22414,0.9364,0.01149,0.39472,1.48592,0.27597,0.17848,1.48882,-0.00036,0.55978,1.22568,0.39275,0.31992,1.23866,0.11347,0.6044,1.4703,0.30865,0.44408,1.46067
3791,0.16959,0.31288,1.5488,0.09005,0.60983,0.10877,0.10639,0.14562,0.07824,0.09456,0.55451,0.53048,0.16054,0.18475,0.49945,0.06217,0.35476,0.92858,0.19175,0.22279,0.93654,0.01103,0.39197,1.48588,0.27592,0.1768,1.48921,-0.00143,0.55746,1.22595,0.39198,0.31855,1.2389,0.11343,0.60205,1.47008,0.30756,0.44208,1.46114
3792,0.16955,0.31076,1.54885,0.0881,0.60687,0.10896,0.10632,0.14521,0.07824,0.09421,0.55395,0.53095,0.16057,0.18363,0.4995,0.06236,0.35337,0.92868,0.19208,0.22152,0.93658,0.01045,0.38935,1.48597,0.27591,0.17522,1.48959,-0.00221,0.55527,1.22632,0.39127,0.31738,1.23919,0.11321,0.60036,1.4701,0.30612,0.44008,1.46162
3793,0.16936,0.30884,1.54879,0.08645,0.60372,0.10904,0.10627,0.1449,0.07815,0.09397,0.5533,0.53131,0.16064,0.18284,0.49944,0.06243,0.35203,0.92872,0.1923,0.22033,0.93654,0.00975,0.38704,1.48609,0.27563,0.17343,1.48973,-0.00295,0.55324,1.22662,0.39049,0.31634,1.23952,0.11246,0.59896,1.4703,0.30477,0.43801,1.46229
3794,0.16891,0.30703,1.54868,0.08499,0.60052,0.10896,0.10625,0.14482,0.07801,0.09372,0.55248,0.53149,0.16049,0.18218,0.49937,0.06241,0.35075,0.92868,0.1925,0.21927,0.93648,0.00918,0.38504,1.48624,0.27506,0.17135,1.4896,-0.00391,0.55129,1.22682,0.38957,0.31545,1.23992,0.11132,0.59731,1.47052,0.30382,0.43593,1.46333
3795,0.1682,0.30534,1.54854,0.08367,0.59748,0.10876,0.10631,0.14496,0.07789,0.09333,0.5515,0.5315,0.16013,0.18137,0.49939,0.06248,0.34961,0.92865,0.19288,0.21843,0.93645,0.00892,0.38329,1.4865,0.27459,0.16926,1.48945,-0.00511,0.54929,1.22698,0.3885,0.31477,1.24031,0.11017,0.59535,1.47064,0.3032,0.43395,1.46457
3796,0.16743,0.30367,1.54841,0.08256,0.59474,0.1085,0.1064,0.14514,0.0779,0.09278,0.55052,0.53142,0.15977,0.18041,0.49955,0.06275,0.3486,0.92861,0.19351,0.21778,0.9365,0.00885,0.38161,1.48683,0.27469,0.16754,1.48953,-0.00639,0.54727,1.22714,0.38732,0.31419,1.24048,0.10916,0.59345,1.47066,0.30272,0.43219,1.46564
3797,0.16687,0.30191,1.54834,0.08169,0.59252,0.1082,0.10647,0.14526,0.07805,0.09208,0.54962,0.53124,0.15957,0.17956,0.49981,0.06312,0.34765,0.92849,0.19421,0.21718,0.93668,0.00867,0.37976,1.48704,0.27534,0.16613,1.48978,-0.00759,0.54538,1.2274,0.38608,0.31363,1.24038,0.10821,0.59193,1.47073,0.30211,0.43063,1.4663
3798,0.16665,0.30008,1.54834,0.08101,0.59107,0.10781,0.1065,0.14536,0.07825,0.09132,0.54864,0.53091,0.15946,0.17909,0.50008,0.06344,0.34678,0.92829,0.19472,0.21654,0.93691,0.00828,0.37766,1.48702,0.27601,0.16471,1.48991,-0.00861,0.54383,1.22776,0.38493,0.31312,1.24025,0.10717,0.59082,1.47101,0.30112,0.42918,1.46671
3799,0.16667,0.29827,1.54835,0.08057,0.59046,0.10734,0.10652,0.14554,0.07834,0.09057,0.54743,0.53038,0.15927,0.17902,0.50021,0.06364,0.34604,0.92806,0.19499,0.2159,0.93705,0.0078,0.37563,1.48681,0.27616,0.16313,1.48976,-0.00949,0.54263,1.22813,0.38396,0.31281,1.24037,0.10594,0.5899,1.47149,0.29976,0.4279,1.46718
3800,0.16661,0.29651,1.54837,0.08045,0.59041,0.10677,0.10655,0.14567,0.07826,0.08991,0.546,0.52969,0.15895,0.17914,0.50018,0.0638,0.34539,0.92782,0.19528,0.21539,0.93702,0.00728,0.37403,1.48661,0.27573,0.16157,1.48947,-0.01042,0.54167,1.22837,0.38324,0.31276,1.24088,0.10455,0.58896,1.47194,0.29827,0.42687,1.46789
3801,0.16617,0.29484,1.54844,0.08051,0.59064,0.10615,0.1066,0.14561,0.0781,0.08938,0.54448,0.52889,0.15856,0.17919,0.50007,0.06404,0.34477,0.92752,0.19576,0.21503,0.93687,0.00667,0.37289,1.48653,0.27496,0.16029,1.48928,-0.01151,0.54079,1.22848,0.38283,0.31281,1.24165,0.10324,0.58797,1.47218,0.2969,0.42601,1.46876
3802,0.16528,0.29331,1.54863,0.08051,0.59101,0.10553,0.10671,0.14537,0.07798,0.08901,0.543,0.52807,0.15823,0.17907,0.49999,0.06437,0.34427,0.92723,0.19633,0.21477,0.93673,0.00598,0.37203,1.48656,0.27418,0.15933,1.48932,-0.01262,0.53989,1.22852,0.38256,0.31264,1.2424,0.10221,0.58695,1.47221,0.29577,0.42509,1.46956
3803,0.16416,0.29194,1.54887,0.0805,0.59145,0.10494,0.10687,0.14521,0.07799,0.08879,0.54166,0.52728,0.15814,0.17879,0.50004,0.06477,0.34402,0.92703,0.19676,0.21458,0.93673,0.00529,0.3712,1.48662,0.27357,0.15857,1.48956,-0.01344,0.53899,1.22854,0.3821,0.31212,1.24287,0.10143,0.58597,1.47222,0.29485,0.42405,1.4701
3804,0.16319,0.2907,1.549,0.08077,0.59173,0.10437,0.10702,0.14536,0.07814,0.08867,0.54054,0.52655,0.15838,0.17846,0.50022,0.06522,0.34401,0.92688,0.19709,0.21447,0.93688,0.00464,0.37019,1.4867,0.27308,0.15784,1.48978,-0.01389,0.53801,1.22862,0.38124,0.31162,1.24306,0.10061,0.58511,1.47246,0.29392,0.42316,1.47046
3805,0.16268,0.28949,1.5489,0.08151,0.59162,0.10378,0.10712,0.14573,0.07838,0.0886,0.53966,0.52588,0.15888,0.17823,0.50045,0.06567,0.34394,0.92662,0.1975,0.21439,0.93711,0.00404,0.36896,1.48684,0.2726,0.1571,1.48974,-0.01426,0.53686,1.2288,0.38018,0.31158,1.2432,0.09952,0.58437,1.47289,0.29286,0.42262,1.47085
3806,0.16269,0.28821,1.54866,0.08254,0.59118,0.10322,0.10716,0.14605,0.07856,0.08852,0.53897,0.5253,0.15938,0.17813,0.50061,0.066,0.34352,0.92621,0.1981,0.2143,0.93725,0.00353,0.36782,1.48705,0.27216,0.15631,1.48937,-0.01493,0.53557,1.22893,0.37939,0.312,1.24344,0.09817,0.58366,1.47322,0.29177,0.42236,1.4713
3807,0.16294,0.28694,1.5485,0.08348,0.59073,0.10281,0.10711,0.14613,0.07853,0.0884,0.53835,0.52489,0.1597,0.17805,0.50055,0.0661,0.34283,0.92577,0.19876,0.2142,0.93716,0.00311,0.36714,1.48721,0.27174,0.15545,1.48876,-0.01611,0.53437,1.22881,0.37905,0.31238,1.24365,0.0967,0.58296,1.47315,0.29087,0.42211,1.4716
3808,0.16299,0.28585,1.54849,0.08414,0.59049,0.10254,0.10695,0.14599,0.07828,0.08831,0.53765,0.52456,0.15989,0.17793,0.50025,0.06605,0.34217,0.92547,0.19924,0.21409,0.93684,0.00275,0.36691,1.4872,0.27121,0.15449,1.48807,-0.01761,0.53354,1.22849,0.37884,0.31222,1.24362,0.09524,0.58231,1.47277,0.29026,0.42174,1.47152
3809,0.16267,0.28511,1.54843,0.08452,0.59047,0.10222,0.1067,0.14575,0.07799,0.08829,0.53676,0.52414,0.16011,0.17784,0.49989,0.06602,0.34175,0.92527,0.19949,0.21395,0.93648,0.00242,0.36678,1.48696,0.27051,0.15361,1.4875,-0.01907,0.53313,1.22816,0.3784,0.31157,1.24331,0.09385,0.58178,1.47243,0.28985,0.42131,1.47111
3810,0.16223,0.28473,1.54805,0.0847,0.59057,0.10174,0.10652,0.14549,0.07779,0.08833,0.53572,0.52352,0.16042,0.17797,0.49959,0.06614,0.34157,0.92507,0.19963,0.21379,0.93622,0.00208,0.36636,1.48657,0.26985,0.15303,1.48715,-0.02026,0.53288,1.22796,0.37777,0.31096,1.24296,0.09252,0.58133,1.47233,0.2893,0.42087,1.4707
3811,0.16188,0.28454,1.54732,0.08475,0.59069,0.10118,0.10656,0.14525,0.07768,0.08831,0.53458,0.5228,0.16075,0.1783,0.4994,0.06638,0.34153,0.92489,0.19977,0.21365,0.93609,0.00163,0.36547,1.48616,0.26953,0.15269,1.48697,-0.02123,0.53251,1.22793,0.3773,0.31069,1.24276,0.0913,0.58086,1.47244,0.28835,0.42036,1.47044
3812,0.16146,0.28426,1.54653,0.08474,0.59076,0.10066,0.10685,0.1451,0.07761,0.08817,0.53347,0.52211,0.16104,0.17866,0.4993,0.06659,0.34151,0.92475,0.19994,0.21359,0.93603,0.00097,0.36411,1.48585,0.26971,0.1524,1.48689,-0.02217,0.53188,1.22812,0.3771,0.31055,1.24261,0.09031,0.58027,1.47264,0.2871,0.41963,1.47016
3813,0.16069,0.28366,1.546,0.08472,0.59073,0.10019,0.10718,0.14509,0.07762,0.08794,0.53257,0.52152,0.16132,0.17892,0.49929,0.06672,0.34146,0.92459,0.20016,0.21365,0.93604,0.0002,0.36245,1.4856,0.27029,0.15219,1.48698,-0.02314,0.53106,1.22843,0.37703,0.31018,1.24231,0.08951,0.57954,1.47286,0.2858,0.41866,1.46966
3814,0.15968,0.28281,1.54581,0.08474,0.59063,0.09978,0.10733,0.14522,0.07773,0.08773,0.532,0.52106,0.16162,0.17908,0.49938,0.06682,0.34147,0.92441,0.20042,0.21385,0.93613,-0.00064,0.36083,1.48526,0.27089,0.15222,1.48725,-0.02399,0.53022,1.22861,0.37692,0.30958,1.24186,0.08869,0.57876,1.47301,0.28459,0.41762,1.46897
3815,0.15888,0.28203,1.54576,0.08471,0.59057,0.0995,0.10729,0.14538,0.07792,0.08762,0.53172,0.52075,0.1619,0.17926,0.49953,0.0669,0.34156,0.92428,0.2007,0.21418,0.93626,-0.00157,0.35966,1.48484,0.27116,0.15241,1.48746,-0.0246,0.52953,1.22848,0.37669,0.30897,1.24135,0.08775,0.57809,1.47303,0.28351,0.41673,1.46825
3816,0.15851,0.28158,1.5457,0.08464,0.59063,0.09938,0.1072,0.14542,0.07809,0.08763,0.53159,0.52059,0.16214,0.17957,0.49963,0.06689,0.34165,0.92423,0.20091,0.21451,0.93637,-0.00255,0.35903,1.48451,0.27105,0.15251,1.48736,-0.0251,0.52897,1.22815,0.37632,0.30846,1.24075,0.08676,0.57765,1.4729,0.28248,0.41617,1.4674
3817,0.15839,0.28137,1.54554,0.08463,0.59077,0.09936,0.10714,0.14534,0.07817,0.08768,0.53146,0.52054,0.16236,0.18001,0.49964,0.06673,0.34161,0.92421,0.201,0.21475,0.9364,-0.00341,0.35857,1.4844,0.27082,0.15246,1.48697,-0.02581,0.52837,1.22793,0.3759,0.30792,1.23997,0.08576,0.57735,1.47276,0.28136,0.41599,1.46617
3818,0.1582,0.2811,1.54526,0.08472,0.59093,0.09943,0.10708,0.14525,0.07817,0.08765,0.53126,0.52056,0.16253,0.18045,0.49956,0.06645,0.34146,0.92424,0.20106,0.21495,0.93635,-0.00403,0.35789,1.48448,0.27064,0.15229,1.48653,-0.02689,0.52763,1.22802,0.37549,0.30723,1.2391,0.08468,0.57709,1.47274,0.28023,0.41609,1.4646
3819,0.15786,0.28071,1.5449,0.08481,0.59102,0.09951,0.10697,0.14521,0.07816,0.08744,0.53095,0.52059,0.16261,0.18085,0.49949,0.06622,0.34135,0.92436,0.20115,0.21515,0.9363,-0.00444,0.35705,1.48469,0.27044,0.15202,1.48612,-0.02815,0.52678,1.2283,0.37512,0.30651,1.23835,0.08351,0.57686,1.47285,0.27926,0.41633,1.46313
3820,0.1574,0.28038,1.5446,0.08475,0.59098,0.09951,0.10686,0.14525,0.07827,0.08696,0.53054,0.52054,0.16262,0.18132,0.49954,0.06618,0.34136,0.92453,0.20114,0.2152,0.93639,-0.00477,0.35637,1.48502,0.27011,0.15175,1.48554,-0.02928,0.52591,1.22858,0.37488,0.30619,1.23777,0.08236,0.57667,1.473,0.27838,0.41653,1.46203
3821,0.15693,0.28023,1.54456,0.08455,0.59083,0.09935,0.10686,0.14539,0.07852,0.08615,0.53007,0.52033,0.16264,0.18199,0.49975,0.06637,0.34152,0.92467,0.20095,0.21497,0.93668,-0.00516,0.35592,1.48546,0.26979,0.15164,1.48454,-0.03027,0.52512,1.22885,0.37488,0.30647,1.23715,0.0815,0.57642,1.4731,0.27734,0.41651,1.46111
3822,0.15643,0.28015,1.54481,0.08437,0.59066,0.09908,0.10697,0.14562,0.07885,0.08523,0.52962,0.52003,0.16276,0.18278,0.50002,0.06667,0.3418,0.92476,0.20065,0.21464,0.93708,-0.00565,0.35546,1.48592,0.26966,0.15166,1.48325,-0.0313,0.52446,1.22923,0.37504,0.30697,1.23629,0.08107,0.57604,1.47315,0.27617,0.41632,1.46
3823,0.15585,0.27991,1.54521,0.08426,0.59059,0.09888,0.10707,0.14579,0.07908,0.08454,0.52933,0.51979,0.16297,0.18343,0.5002,0.0669,0.34211,0.92484,0.20038,0.21445,0.93735,-0.0062,0.35476,1.48622,0.26972,0.15148,1.48221,-0.0324,0.52391,1.22969,0.37503,0.30683,1.23523,0.0809,0.57571,1.47313,0.27512,0.41626,1.45843
3824,0.15512,0.2794,1.54566,0.08416,0.59063,0.0988,0.10712,0.14582,0.07914,0.08424,0.52933,0.5197,0.16317,0.1838,0.50021,0.06694,0.34236,0.92489,0.2002,0.21446,0.93742,-0.00673,0.3539,1.48626,0.26969,0.15094,1.48178,-0.03346,0.52347,1.23006,0.37467,0.30544,1.23414,0.08062,0.57556,1.47308,0.27442,0.41646,1.4564
3825,0.15426,0.27868,1.54609,0.084,0.59073,0.0988,0.10718,0.14582,0.07914,0.08419,0.52967,0.51974,0.16324,0.18406,0.50018,0.06685,0.34248,0.92483,0.20012,0.2146,0.93741,-0.0073,0.35313,1.48615,0.26942,0.15027,1.48171,-0.03434,0.52314,1.23027,0.37419,0.30323,1.23302,0.07998,0.57548,1.47311,0.27413,0.41659,1.45419
3826,0.15337,0.2779,1.54642,0.08378,0.59086,0.09883,0.1073,0.14588,0.07922,0.08415,0.53016,0.51982,0.16322,0.18446,0.50025,0.06669,0.34248,0.92467,0.20011,0.21478,0.9375,-0.00793,0.35267,1.48614,0.2692,0.14988,1.48139,-0.03493,0.52282,1.23035,0.37397,0.3013,1.23177,0.07898,0.57523,1.47338,0.27401,0.41632,1.45212
3827,0.1527,0.27712,1.54659,0.08354,0.59103,0.09889,0.1074,0.14599,0.07939,0.08395,0.53058,0.51992,0.1632,0.18498,0.5004,0.06647,0.34241,0.92454,0.20009,0.21496,0.93767,-0.00851,0.35254,1.48642,0.26935,0.14989,1.48066,-0.03523,0.52235,1.23038,0.37418,0.30023,1.23041,0.07782,0.57481,1.4738,0.27379,0.41574,1.45031
3828,0.15252,0.27639,1.54656,0.0833,0.59123,0.09905,0.10739,0.14616,0.07948,0.08358,0.53085,0.52009,0.16325,0.18542,0.50045,0.06616,0.3424,0.92458,0.19992,0.2151,0.93776,-0.00894,0.35254,1.48692,0.26979,0.15006,1.4799,-0.03544,0.52169,1.23042,0.37458,0.29962,1.22916,0.07673,0.57445,1.47418,0.27344,0.41531,1.44863
3829,0.15279,0.27583,1.54639,0.08313,0.59147,0.09937,0.10729,0.1464,0.0794,0.08324,0.5311,0.52041,0.16345,0.18567,0.50034,0.0658,0.34242,0.92479,0.19963,0.21516,0.9377,-0.00936,0.35235,1.48726,0.27025,0.15012,1.47945,-0.03585,0.52106,1.23047,0.37486,0.29892,1.22819,0.07576,0.57435,1.47437,0.27309,0.41531,1.44699
3830,0.15315,0.27559,1.54616,0.083,0.59176,0.0998,0.1072,0.14662,0.07923,0.08308,0.53147,0.52085,0.16375,0.18581,0.50012,0.06541,0.34232,0.92501,0.19939,0.21518,0.93753,-0.01002,0.35175,1.48715,0.27055,0.14999,1.47932,-0.03657,0.52061,1.23046,0.37485,0.29806,1.2275,0.07478,0.5744,1.47437,0.27285,0.41571,1.44552
3831,0.15314,0.27554,1.54602,0.08285,0.59205,0.10021,0.10716,0.14673,0.07904,0.08306,0.53196,0.52129,0.16402,0.18594,0.49989,0.06509,0.34205,0.92508,0.19938,0.21521,0.93733,-0.01084,0.35093,1.48677,0.27066,0.14972,1.47933,-0.0376,0.52017,1.23036,0.37454,0.29729,1.22704,0.07368,0.57434,1.47421,0.27262,0.41643,1.44428
3832,0.15254,0.2754,1.54601,0.0827,0.59221,0.10045,0.10719,0.14665,0.07889,0.08302,0.53244,0.52157,0.16417,0.18606,0.49971,0.06493,0.3417,0.92496,0.19957,0.21523,0.93715,-0.0114,0.35024,1.48655,0.27061,0.14933,1.47935,-0.03878,0.5195,1.23021,0.37395,0.29673,1.22674,0.07251,0.57413,1.47396,0.27222,0.41736,1.44324
3833,0.15157,0.27501,1.54608,0.08267,0.59223,0.10048,0.1073,0.1465,0.07882,0.08292,0.53282,0.52165,0.16425,0.18613,0.49961,0.06488,0.34142,0.92473,0.19973,0.21518,0.93706,-0.01144,0.34978,1.48663,0.27038,0.14892,1.47931,-0.03987,0.51857,1.2301,0.37318,0.29631,1.22648,0.0714,0.57391,1.4737,0.2716,0.41829,1.4423
3834,0.15062,0.27445,1.54618,0.08287,0.59225,0.10042,0.10744,0.14639,0.07882,0.08282,0.53316,0.52164,0.16433,0.18615,0.49961,0.06482,0.34128,0.92449,0.19969,0.2151,0.93707,-0.01128,0.34942,1.48681,0.27004,0.14857,1.47921,-0.04071,0.51767,1.23003,0.37239,0.29598,1.22621,0.07043,0.57375,1.47352,0.27089,0.41908,1.44143
3835,0.14999,0.27388,1.54628,0.08321,0.59237,0.10043,0.10752,0.14633,0.07886,0.08272,0.53357,0.52169,0.16444,0.18621,0.49964,0.06461,0.34122,0.92431,0.19947,0.21504,0.93714,-0.01135,0.34911,1.48684,0.2697,0.14821,1.47904,-0.04131,0.51708,1.22994,0.37179,0.29576,1.22602,0.06953,0.57358,1.47347,0.27033,0.41974,1.44076
3836,0.1498,0.27338,1.54632,0.0835,0.59254,0.10058,0.10751,0.14629,0.07892,0.08259,0.53406,0.52189,0.16457,0.18632,0.49966,0.06429,0.34103,0.92418,0.19923,0.21497,0.9372,-0.01174,0.34878,1.48669,0.26938,0.14778,1.47882,-0.04176,0.51674,1.22979,0.37154,0.29562,1.22599,0.06859,0.57342,1.4735,0.27019,0.4202,1.44044
3837,0.14991,0.2729,1.5462,0.08363,0.5926,0.10082,0.10743,0.14635,0.07899,0.08242,0.53461,0.52219,0.16463,0.18637,0.49971,0.06397,0.34068,0.92404,0.19909,0.21484,0.93728,-0.01225,0.34827,1.48638,0.26907,0.14731,1.47863,-0.04214,0.5164,1.22959,0.37151,0.29542,1.22606,0.06764,0.57334,1.47349,0.27048,0.42033,1.44047
3838,0.14995,0.27246,1.54588,0.08363,0.59245,0.10103,0.10735,0.14657,0.07903,0.08221,0.53518,0.52249,0.16456,0.18626,0.49978,0.06375,0.34032,0.9239,0.199,0.21462,0.93736,-0.01267,0.34765,1.48597,0.26875,0.14683,1.47848,-0.04241,0.51595,1.22926,0.37147,0.29499,1.22606,0.0668,0.57332,1.47332,0.27088,0.41999,1.44062
3839,0.14975,0.27214,1.54548,0.08363,0.59217,0.10115,0.10726,0.14686,0.07902,0.08199,0.53573,0.52273,0.16437,0.18611,0.49983,0.06363,0.34005,0.92373,0.19886,0.21435,0.93741,-0.01307,0.34722,1.48557,0.26839,0.14633,1.4783,-0.04255,0.51549,1.22882,0.37132,0.29432,1.22587,0.06621,0.57326,1.47299,0.2712,0.41917,1.44074
3840,0.14938,0.27197,1.54513,0.0838,0.59195,0.10117,0.10717,0.14712,0.07895,0.08181,0.53622,0.52284,0.16414,0.18606,0.49981,0.06353,0.33977,0.92347,0.19872,0.21407,0.9374,-0.01361,0.34705,1.48535,0.26791,0.1459,1.47802,-0.04258,0.5152,1.22845,0.37115,0.29357,1.22554,0.06598,0.5732,1.47265,0.27164,0.41796,1.44094
3841,0.1489,0.27182,1.54495,0.08414,0.59195,0.10114,0.10715,0.14731,0.07882,0.08169,0.53662,0.52287,0.16396,0.18608,0.49972,0.06346,0.33945,0.92314,0.19863,0.21375,0.93732,-0.01428,0.34699,1.48532,0.26719,0.14558,1.47767,-0.04259,0.51516,1.22836,0.37101,0.29296,1.22525,0.06614,0.57333,1.47245,0.27225,0.4166,1.44144
3842,0.14832,0.27157,1.54489,0.08453,0.59218,0.10116,0.1072,0.14745,0.07868,0.08168,0.53691,0.52289,0.16384,0.18606,0.49961,0.06341,0.33913,0.92287,0.19849,0.21335,0.93724,-0.01478,0.34685,1.48535,0.26627,0.14526,1.47735,-0.04266,0.51526,1.22851,0.3708,0.29266,1.22523,0.06647,0.57367,1.47236,0.27275,0.41542,1.44223
3843,0.14771,0.27115,1.5448,0.08484,0.59244,0.10125,0.10726,0.14751,0.07857,0.08172,0.53709,0.52296,0.16384,0.1859,0.49953,0.06331,0.33877,0.92267,0.19821,0.21282,0.93721,-0.01481,0.34652,1.4853,0.26533,0.14479,1.4771,-0.04288,0.51524,1.22867,0.37054,0.29261,1.2255,0.06661,0.57404,1.47227,0.27286,0.41453,1.44315
3844,0.14717,0.27065,1.54458,0.08505,0.59254,0.1014,0.1073,0.14747,0.07856,0.08174,0.53727,0.52312,0.16398,0.18562,0.49953,0.06309,0.33826,0.92247,0.19786,0.21221,0.93726,-0.01451,0.34609,1.48517,0.26458,0.14424,1.47692,-0.04321,0.51494,1.22871,0.37038,0.29268,1.22594,0.06638,0.57417,1.47216,0.27265,0.41369,1.44407
3845,0.14665,0.27025,1.54428,0.08517,0.59247,0.10159,0.10731,0.14736,0.07862,0.08176,0.53753,0.52335,0.16415,0.18527,0.49959,0.06287,0.33773,0.9223,0.19759,0.21165,0.93737,-0.01433,0.34582,1.4851,0.26413,0.1438,1.47689,-0.04348,0.51459,1.22864,0.37038,0.29279,1.22643,0.06597,0.57399,1.47211,0.27236,0.41269,1.44505
3846,0.14613,0.27006,1.54403,0.08521,0.59236,0.10178,0.10724,0.14723,0.07871,0.0818,0.53785,0.5236,0.16422,0.18494,0.49967,0.06279,0.33739,0.92221,0.19741,0.21123,0.93748,-0.01456,0.34589,1.48514,0.26402,0.14352,1.47706,-0.04356,0.51441,1.22849,0.37047,0.293,1.22697,0.06559,0.57366,1.47213,0.27217,0.41163,1.44616
3847,0.14581,0.26994,1.54385,0.08522,0.59229,0.10192,0.10704,0.14707,0.07875,0.08185,0.53812,0.52378,0.16419,0.18469,0.49971,0.06284,0.33727,0.92219,0.19723,0.21087,0.93753,-0.01494,0.34615,1.4852,0.2641,0.14324,1.47734,-0.04354,0.51435,1.2283,0.37053,0.2932,1.22755,0.06533,0.57335,1.47213,0.27216,0.41072,1.44729
3848,0.14581,0.26975,1.5437,0.08525,0.5923,0.10198,0.10676,0.14687,0.07874,0.08179,0.53824,0.52386,0.16416,0.18454,0.49965,0.06292,0.33725,0.9222,0.19698,0.2105,0.9375,-0.01506,0.34644,1.48526,0.26408,0.14271,1.47757,-0.04356,0.51425,1.2281,0.37061,0.2932,1.22813,0.06512,0.57316,1.47203,0.2723,0.40998,1.4483
3849,0.14597,0.26941,1.54357,0.08543,0.59243,0.10201,0.10649,0.14676,0.07865,0.08168,0.53821,0.52387,0.16426,0.18443,0.49952,0.06295,0.33725,0.92223,0.19672,0.21018,0.93741,-0.01492,0.34678,1.4854,0.26372,0.14186,1.47761,-0.04365,0.51407,1.22792,0.3708,0.29299,1.2288,0.06491,0.57309,1.47188,0.27244,0.40929,1.4492
3850,0.14605,0.26892,1.54352,0.08582,0.5927,0.10206,0.10636,0.14679,0.07854,0.0817,0.53815,0.52387,0.16441,0.18425,0.49938,0.06294,0.3373,0.92229,0.1965,0.20999,0.9373,-0.01495,0.34717,1.48567,0.26293,0.14092,1.47751,-0.04376,0.51386,1.22781,0.37103,0.29283,1.2296,0.06467,0.57308,1.47178,0.27239,0.4086,1.45016
3851,0.14597,0.26839,1.54359,0.08628,0.59301,0.10212,0.10641,0.14685,0.07848,0.08195,0.53822,0.5239,0.16443,0.18402,0.49935,0.06291,0.33729,0.92227,0.19627,0.20977,0.93729,-0.01538,0.34735,1.48594,0.26183,0.14023,1.47739,-0.04388,0.51363,1.22778,0.37098,0.29299,1.23048,0.06451,0.57309,1.4717,0.27214,0.40806,1.45131
3852,0.14581,0.26789,1.54369,0.08653,0.59316,0.10221,0.10658,0.14684,0.07853,0.08228,0.53845,0.524,0.16425,0.18385,0.49947,0.06282,0.3371,0.92213,0.19595,0.20936,0.93743,-0.01599,0.34709,1.48605,0.2607,0.14002,1.47733,-0.04402,0.51331,1.22781,0.37063,0.29348,1.2312,0.0646,0.57312,1.47155,0.27199,0.40775,1.45254
3853,0.14557,0.26744,1.54376,0.08656,0.5931,0.10235,0.10675,0.14679,0.0786,0.08249,0.53876,0.52419,0.16402,0.18375,0.4996,0.06264,0.33675,0.92197,0.19551,0.20878,0.9376,-0.01651,0.3465,1.486,0.25979,0.14022,1.47733,-0.04404,0.51293,1.22783,0.37033,0.29397,1.23165,0.0649,0.57314,1.47133,0.2722,0.4075,1.45359
3854,0.14518,0.26704,1.54387,0.0866,0.59295,0.10255,0.10677,0.14675,0.07858,0.08251,0.53896,0.52443,0.16387,0.18354,0.49961,0.0623,0.3363,0.92187,0.19501,0.2082,0.93766,-0.01689,0.34606,1.48587,0.25922,0.14043,1.47746,-0.04379,0.51262,1.22772,0.37037,0.29398,1.23193,0.06509,0.57304,1.47119,0.27276,0.40701,1.45436
3855,0.14476,0.26674,1.54406,0.08681,0.5929,0.10276,0.10658,0.14661,0.07848,0.08245,0.53894,0.52465,0.16372,0.18313,0.49953,0.0619,0.33573,0.92179,0.19456,0.20758,0.93761,-0.01706,0.34623,1.48585,0.25899,0.14026,1.47775,-0.04335,0.51259,1.22751,0.37056,0.29344,1.23218,0.06503,0.57274,1.47127,0.27345,0.40613,1.455
3856,0.14458,0.26666,1.54419,0.08707,0.59298,0.1029,0.10627,0.14636,0.07845,0.08241,0.5387,0.52474,0.16347,0.18265,0.49951,0.06168,0.3351,0.92166,0.19421,0.20683,0.93762,-0.01689,0.34692,1.48601,0.25885,0.13974,1.4781,-0.04297,0.51282,1.22736,0.37055,0.29275,1.23248,0.06503,0.57232,1.47145,0.27408,0.40504,1.45578
3857,0.14483,0.26675,1.54416,0.08729,0.59309,0.10291,0.10596,0.14613,0.07855,0.08242,0.53838,0.52469,0.16314,0.18228,0.49963,0.06181,0.33457,0.92151,0.19395,0.20594,0.93776,-0.01636,0.3475,1.48618,0.25849,0.13932,1.47838,-0.0428,0.5131,1.22737,0.37039,0.29235,1.23286,0.06538,0.57198,1.47152,0.27462,0.404,1.45678
3858,0.14537,0.26681,1.544,0.08744,0.59318,0.10284,0.10572,0.14602,0.07872,0.08245,0.53813,0.52458,0.16288,0.18198,0.49982,0.06211,0.33423,0.92137,0.19367,0.20505,0.93798,-0.01575,0.34752,1.48613,0.25786,0.13927,1.47852,-0.0428,0.51322,1.22744,0.37038,0.29239,1.23334,0.06597,0.57175,1.47142,0.27506,0.40326,1.45784
3859,0.14587,0.26677,1.5438,0.08747,0.5933,0.10283,0.10554,0.146,0.07883,0.08246,0.53801,0.52454,0.16273,0.18157,0.49996,0.06227,0.33392,0.92124,0.1933,0.20424,0.93815,-0.0154,0.34707,1.48585,0.2574,0.13948,1.47852,-0.04291,0.51314,1.22745,0.37072,0.29292,1.23391,0.06644,0.57153,1.47121,0.27523,0.403,1.45873
3860,0.14608,0.26675,1.54362,0.08731,0.59342,0.10298,0.1054,0.14595,0.07886,0.08237,0.53791,0.52466,0.16261,0.18095,0.50004,0.0622,0.33345,0.92117,0.19291,0.20347,0.93826,-0.01539,0.34652,1.48555,0.25739,0.13964,1.47847,-0.04308,0.51294,1.22739,0.37121,0.29384,1.23458,0.06668,0.57124,1.47098,0.27499,0.40325,1.45941
3861,0.14595,0.26682,1.54353,0.08696,0.59351,0.1033,0.10532,0.14581,0.07889,0.08218,0.5377,0.52494,0.16241,0.18023,0.50012,0.06202,0.33286,0.92125,0.19259,0.20273,0.93836,-0.01544,0.34615,1.48538,0.25753,0.13955,1.47869,-0.0432,0.51272,1.22733,0.37153,0.2947,1.23548,0.06687,0.57096,1.4708,0.27454,0.40368,1.46019
3862,0.1456,0.26694,1.5436,0.08656,0.59358,0.10367,0.10526,0.14561,0.07896,0.08204,0.53741,0.52526,0.16213,0.1796,0.50026,0.06191,0.33238,0.92148,0.19235,0.20212,0.93849,-0.01528,0.34606,1.48538,0.25741,0.13919,1.47935,-0.0431,0.51253,1.22727,0.37155,0.29503,1.23665,0.06713,0.57085,1.47065,0.27426,0.40375,1.46136
3863,0.14515,0.26701,1.5438,0.08622,0.59362,0.10394,0.10513,0.14542,0.07902,0.08211,0.53714,0.5255,0.1619,0.17911,0.50035,0.0619,0.33216,0.92173,0.19216,0.20169,0.93858,-0.01495,0.34621,1.48547,0.25707,0.13869,1.48019,-0.04274,0.51235,1.22714,0.3714,0.29486,1.23779,0.06736,0.57099,1.4705,0.2744,0.4032,1.4628
3864,0.1448,0.26699,1.54399,0.086,0.59368,0.10403,0.10485,0.1453,0.07897,0.08243,0.53693,0.52555,0.16185,0.17868,0.5003,0.06203,0.3321,0.92186,0.19198,0.20131,0.93853,-0.01464,0.34643,1.48556,0.25691,0.13823,1.48072,-0.0422,0.51215,1.22694,0.37128,0.29458,1.23845,0.06752,0.5712,1.47037,0.27494,0.40216,1.46412
3865,0.14479,0.2668,1.5441,0.08592,0.59382,0.10398,0.10446,0.14506,0.07881,0.08288,0.53667,0.52546,0.16188,0.17823,0.5001,0.06232,0.33205,0.92187,0.19182,0.20078,0.93835,-0.01448,0.34656,1.48557,0.25704,0.13779,1.48081,-0.04163,0.51198,1.22671,0.37125,0.29437,1.23861,0.06778,0.57118,1.47025,0.27574,0.40097,1.46509
3866,0.14519,0.26636,1.54421,0.08596,0.59411,0.10398,0.10411,0.14451,0.07864,0.08333,0.53627,0.52537,0.16181,0.17777,0.49988,0.0627,0.33194,0.92192,0.19159,0.20005,0.93816,-0.01446,0.34648,1.48554,0.25729,0.13729,1.48084,-0.04116,0.51185,1.2266,0.3713,0.29403,1.23866,0.06835,0.57091,1.47013,0.2766,0.39997,1.46579
3867,0.14575,0.26572,1.54437,0.08605,0.59443,0.10411,0.10388,0.14365,0.07861,0.08363,0.5357,0.52537,0.16163,0.17738,0.49981,0.063,0.3318,0.92215,0.19124,0.19924,0.93812,-0.01455,0.34625,1.4856,0.25761,0.13676,1.48108,-0.04081,0.51173,1.22669,0.37134,0.29364,1.23886,0.06924,0.57068,1.47,0.27737,0.3995,1.46632
3868,0.14605,0.26521,1.54453,0.08608,0.59459,0.10427,0.10378,0.14268,0.07879,0.08369,0.535,0.52542,0.16159,0.17701,0.49993,0.06321,0.33168,0.92249,0.19083,0.19851,0.93828,-0.01465,0.34587,1.4858,0.25802,0.13634,1.48135,-0.04053,0.51157,1.227,0.37132,0.29361,1.23918,0.07021,0.57068,1.46995,0.27793,0.39961,1.46682
3869,0.14605,0.26505,1.5446,0.08605,0.59452,0.10435,0.1038,0.1418,0.07902,0.08364,0.53435,0.52541,0.16182,0.17654,0.5001,0.0634,0.33159,0.92279,0.1905,0.19791,0.93849,-0.01454,0.34534,1.48604,0.25839,0.13614,1.48151,-0.0402,0.51138,1.22742,0.37131,0.29409,1.23961,0.07102,0.57074,1.47009,0.27825,0.39998,1.46743
3870,0.14617,0.26513,1.5446,0.08602,0.59429,0.10432,0.10392,0.14115,0.07909,0.08375,0.53385,0.52535,0.16224,0.17597,0.50013,0.06365,0.33152,0.92295,0.19031,0.19741,0.93855,-0.01412,0.34469,1.48617,0.2585,0.13613,1.48176,-0.03968,0.51116,1.22782,0.37142,0.2946,1.2402,0.07152,0.57071,1.47046,0.27835,0.40017,1.46817
3871,0.14663,0.26504,1.54467,0.08594,0.59404,0.10428,0.10405,0.14073,0.07899,0.08416,0.53342,0.52528,0.16267,0.17533,0.5,0.06396,0.33138,0.92302,0.19024,0.19689,0.93845,-0.01358,0.34416,1.48621,0.25831,0.13613,1.48233,-0.03902,0.51096,1.22806,0.37168,0.29452,1.24092,0.07168,0.57055,1.47092,0.27834,0.40003,1.4688
3872,0.14704,0.2646,1.54485,0.08576,0.59393,0.10427,0.10412,0.14042,0.07889,0.08467,0.53286,0.5252,0.16309,0.17471,0.49987,0.06424,0.33111,0.92309,0.19018,0.19628,0.93835,-0.01318,0.34414,1.48632,0.25801,0.13587,1.48303,-0.03845,0.51083,1.22809,0.37214,0.29375,1.24165,0.07168,0.57025,1.47124,0.27831,0.39986,1.46905
3873,0.14698,0.26396,1.54511,0.08556,0.59403,0.10432,0.10413,0.14019,0.07893,0.08501,0.53216,0.52513,0.16351,0.17422,0.49988,0.06449,0.33079,0.92321,0.19007,0.19562,0.9384,-0.01302,0.34472,1.48665,0.25779,0.13521,1.48341,-0.03814,0.51079,1.22801,0.37282,0.29281,1.24227,0.07184,0.56987,1.47131,0.27824,0.39996,1.46887
3874,0.14661,0.26344,1.54529,0.08557,0.59423,0.10442,0.10405,0.14002,0.07911,0.08512,0.53143,0.52511,0.16395,0.17397,0.49999,0.06474,0.33049,0.9234,0.1899,0.19494,0.93857,-0.01294,0.3455,1.48715,0.25784,0.13434,1.48319,-0.03798,0.51073,1.22796,0.37357,0.29237,1.24267,0.07233,0.56959,1.47117,0.27807,0.40027,1.46854
3875,0.14663,0.26322,1.54532,0.08584,0.59427,0.10456,0.10389,0.13988,0.0793,0.08519,0.53075,0.52514,0.16447,0.17392,0.50008,0.06503,0.33017,0.92362,0.18981,0.19425,0.93872,-0.01263,0.346,1.48761,0.25828,0.1336,1.48254,-0.03771,0.51054,1.22798,0.37422,0.29264,1.24279,0.07302,0.5695,1.47098,0.27808,0.40038,1.46845
3876,0.14746,0.26318,1.5452,0.0862,0.59405,0.1047,0.10371,0.13973,0.07944,0.08545,0.53009,0.52521,0.16507,0.17396,0.50009,0.06537,0.32974,0.92382,0.18986,0.19354,0.9388,-0.01191,0.34611,1.48791,0.25914,0.13324,1.4819,-0.03724,0.51022,1.22804,0.37483,0.29327,1.24268,0.07358,0.56946,1.47093,0.27857,0.39992,1.46882
3877,0.14871,0.26302,1.5451,0.0864,0.59377,0.10483,0.10368,0.1396,0.07951,0.08598,0.52943,0.52528,0.16566,0.174,0.50005,0.06573,0.32922,0.92395,0.19001,0.19281,0.93882,-0.01086,0.34607,1.48814,0.2602,0.13316,1.48158,-0.03672,0.5099,1.22813,0.37553,0.29378,1.24259,0.0739,0.56929,1.47107,0.27945,0.39902,1.46946
3878,0.14973,0.26251,1.54519,0.08643,0.59375,0.10499,0.10393,0.13965,0.07948,0.08663,0.52872,0.52534,0.16617,0.17392,0.5,0.06603,0.32864,0.92405,0.19018,0.19211,0.93881,-0.00979,0.34594,1.48835,0.26109,0.13296,1.48163,-0.03635,0.50958,1.2283,0.37635,0.2937,1.24269,0.07412,0.56892,1.47132,0.28025,0.39811,1.46994
3879,0.15022,0.26172,1.54552,0.08648,0.59407,0.10521,0.10444,0.1399,0.07937,0.08724,0.5278,0.52536,0.16676,0.17365,0.49992,0.06627,0.32802,0.92421,0.19039,0.19144,0.93877,-0.00891,0.34548,1.4885,0.26157,0.13226,1.48199,-0.03605,0.50914,1.22853,0.37724,0.29265,1.24301,0.07441,0.56837,1.47159,0.28074,0.39745,1.4699
3880,0.15043,0.26099,1.54589,0.08669,0.5945,0.10543,0.10501,0.1402,0.0792,0.08775,0.5266,0.52532,0.16755,0.17325,0.49977,0.06653,0.32739,0.92444,0.19068,0.19079,0.93866,-0.00821,0.34461,1.48859,0.26175,0.13115,1.4826,-0.03557,0.50853,1.2288,0.37827,0.29062,1.24341,0.07488,0.56772,1.47187,0.28111,0.39692,1.46932
3881,0.15073,0.26054,1.54605,0.08693,0.59478,0.10552,0.10545,0.1404,0.07901,0.08815,0.52531,0.52516,0.16842,0.17292,0.49956,0.06683,0.32673,0.92459,0.19105,0.19017,0.93848,-0.00763,0.34363,1.48869,0.26199,0.13011,1.48333,-0.03485,0.50785,1.22908,0.37947,0.28829,1.24375,0.07547,0.56704,1.4722,0.28157,0.39633,1.46852
3882,0.15133,0.26024,1.5459,0.08693,0.59482,0.10545,0.10574,0.14055,0.07886,0.08842,0.52416,0.52488,0.16916,0.17274,0.49936,0.06716,0.32608,0.92456,0.19153,0.18964,0.93831,-0.00718,0.34276,1.48889,0.26255,0.12945,1.48396,-0.03413,0.50714,1.22936,0.3806,0.28652,1.24394,0.07604,0.56638,1.47254,0.28211,0.3956,1.46794
