PaulMeinheit/Bachelor_Muay_Thai/processed_Data/E1/roundhouse/sliced/JointPositions/sliced0.csv
Unnamed: 0_level_0,Neck_Joint_Position,Neck_Joint_Position,Neck_Joint_Position,L_ANKLE_POSITION,L_ANKLE_POSITION,L_ANKLE_POSITION,R_ANKLE_POSITION,R_ANKLE_POSITION,R_ANKLE_POSITION,L_KNEE_POSITION,L_KNEE_POSITION,L_KNEE_POSITION,R_KNEE_POSITION,R_KNEE_POSITION,R_KNEE_POSITION,L_HIP_POSITION,L_HIP_POSITION,L_HIP_POSITION,R_HIP_POSITION,R_HIP_POSITION,R_HIP_POSITION,L_SHOULDER_POSITION,L_SHOULDER_POSITION,L_SHOULDER_POSITION,R_SHOULDER_POSITION,R_SHOULDER_POSITION,R_SHOULDER_POSITION,L_ELBOW_POSITION,L_ELBOW_POSITION,L_ELBOW_POSITION,R_ELBOW_POSITION,R_ELBOW_POSITION,R_ELBOW_POSITION,L_WRIST_POSITION,L_WRIST_POSITION,L_WRIST_POSITION,R_WRIST_POSITION,R_WRIST_POSITION,R_WRIST_POSITION
ITEM,X,Y,Z,X,Y,Z,X,Y,Z,X,Y,Z,X,Y,Z,X,Y,Z,X,Y,Z,X,Y,Z,X,Y,Z,X,Y,Z,X,Y,Z,X,Y,Z,X,Y,Z
629,0.0688,0.155,1.53132,0.11457,0.53895,0.14747,0.07179,0.06627,0.07714,0.06597,0.52127,0.56966,0.16894,0.11722,0.48927,0.03719,0.24296,0.91772,0.17029,0.1148,0.9291,-0.07982,0.248,1.45091,0.17172,0.01552,1.47944,-0.0962,0.34451,1.15846,0.35976,0.15551,1.27632,-0.00581,0.54866,1.31637,0.2673,0.31821,1.46804
630,0.06842,0.15581,1.53092,0.11382,0.53836,0.14648,0.07183,0.06648,0.07712,0.06632,0.52204,0.56884,0.16927,0.11873,0.48902,0.03724,0.24423,0.91728,0.17022,0.11596,0.92886,-0.08043,0.24975,1.45065,0.17122,0.01598,1.47968,-0.09475,0.3473,1.15843,0.36046,0.15819,1.27923,-0.00533,0.55111,1.31733,0.26574,0.31813,1.47217
631,0.06815,0.15692,1.53049,0.1131,0.53804,0.14554,0.07201,0.06682,0.07704,0.06687,0.5228,0.56809,0.16949,0.12002,0.48881,0.03735,0.24563,0.917,0.17004,0.11705,0.92864,-0.08061,0.25139,1.45037,0.17059,0.01648,1.47977,-0.0937,0.35014,1.1585,0.36135,0.16064,1.28217,-0.00519,0.5537,1.31824,0.2643,0.31801,1.47606
632,0.06761,0.15814,1.53026,0.11269,0.5377,0.14477,0.07218,0.06714,0.077,0.06724,0.52335,0.56743,0.16976,0.12087,0.48867,0.03757,0.24694,0.91693,0.16993,0.11803,0.92851,-0.08025,0.25279,1.44998,0.16998,0.01729,1.4798,-0.09279,0.35316,1.15864,0.36238,0.16327,1.28514,-0.0054,0.55641,1.31938,0.26296,0.31813,1.47985
633,0.06668,0.15939,1.53027,0.11264,0.53728,0.14419,0.07223,0.06734,0.07711,0.0672,0.52371,0.56689,0.17013,0.12137,0.48867,0.03792,0.24812,0.91707,0.17002,0.11893,0.92851,-0.07976,0.25412,1.44954,0.16967,0.01853,1.47993,-0.09163,0.35625,1.15879,0.36342,0.1663,1.28799,-0.00586,0.5592,1.32076,0.26192,0.31865,1.4836
634,0.06556,0.16074,1.5304,0.11272,0.53701,0.14379,0.07218,0.06739,0.07739,0.06698,0.5241,0.56647,0.1704,0.12186,0.48881,0.03838,0.24934,0.91736,0.17025,0.1199,0.92865,-0.07941,0.25568,1.4493,0.16962,0.01994,1.48025,-0.09012,0.35918,1.15899,0.36428,0.16951,1.29063,-0.00638,0.56209,1.32209,0.26123,0.31965,1.48714
635,0.06464,0.16227,1.5305,0.11269,0.53715,0.14356,0.07213,0.06743,0.07766,0.06692,0.52475,0.56625,0.17034,0.12254,0.489,0.03878,0.25068,0.91772,0.1705,0.12107,0.92884,-0.07913,0.25754,1.44936,0.16958,0.02112,1.48072,-0.08848,0.36203,1.15936,0.36487,0.17256,1.29324,-0.00667,0.56512,1.3232,0.26061,0.32108,1.49035
636,0.06428,0.16396,1.53047,0.11258,0.53762,0.14349,0.07215,0.06761,0.0778,0.06712,0.52563,0.56622,0.16996,0.12332,0.48916,0.03894,0.25197,0.918,0.17068,0.12237,0.929,-0.07887,0.25953,1.44957,0.16945,0.022,1.48121,-0.08691,0.36506,1.1599,0.36534,0.17539,1.29596,-0.00647,0.56832,1.32422,0.25976,0.32268,1.49328
637,0.0645,0.16567,1.53033,0.11257,0.5381,0.14348,0.07219,0.06797,0.07781,0.06749,0.52655,0.56628,0.16947,0.12402,0.48924,0.03884,0.25302,0.91812,0.17076,0.12359,0.92909,-0.07877,0.26143,1.44972,0.16928,0.02289,1.48166,-0.08538,0.36829,1.1605,0.3659,0.17817,1.29878,-0.00589,0.57155,1.32528,0.25857,0.32416,1.49612
638,0.06492,0.1673,1.53022,0.11268,0.53847,0.14345,0.07216,0.06836,0.07772,0.06781,0.52736,0.56627,0.16907,0.12453,0.48922,0.03867,0.25389,0.91812,0.1707,0.12458,0.92907,-0.0789,0.26308,1.44978,0.16911,0.02416,1.48209,-0.08382,0.37138,1.16106,0.36664,0.18107,1.3016,-0.00527,0.5746,1.32634,0.25717,0.32544,1.49896
639,0.06515,0.16883,1.53016,0.11274,0.53878,0.14339,0.07206,0.06862,0.0776,0.06792,0.5282,0.56623,0.16886,0.12484,0.48912,0.03856,0.25478,0.9181,0.17051,0.12539,0.92897,-0.07908,0.26439,1.44981,0.16897,0.0258,1.48261,-0.08228,0.37414,1.16162,0.36756,0.18405,1.30447,-0.00492,0.57748,1.32732,0.25577,0.32667,1.5018
640,0.06513,0.17033,1.53014,0.11265,0.53911,0.14343,0.07199,0.0687,0.07754,0.0678,0.52932,0.56629,0.16885,0.12501,0.48904,0.03857,0.25577,0.91807,0.17031,0.12616,0.92888,-0.07903,0.26546,1.44978,0.16891,0.02748,1.48323,-0.08082,0.37674,1.16216,0.36862,0.1869,1.30739,-0.00497,0.58036,1.3282,0.25453,0.32801,1.50449
641,0.06495,0.17178,1.53023,0.11249,0.53955,0.14362,0.07193,0.06856,0.07764,0.06759,0.53079,0.5665,0.16897,0.12518,0.48905,0.03878,0.25685,0.91801,0.17029,0.127,0.92889,-0.07863,0.26654,1.44959,0.16893,0.02895,1.48386,-0.07946,0.37933,1.16256,0.36963,0.18949,1.31019,-0.00532,0.58332,1.32892,0.25348,0.32948,1.50688
642,0.06474,0.17312,1.53055,0.1124,0.54018,0.14392,0.07178,0.06828,0.07785,0.06754,0.53251,0.56682,0.169,0.12543,0.48914,0.03922,0.25804,0.91796,0.17053,0.128,0.92898,-0.07804,0.26787,1.44925,0.169,0.0302,1.48438,-0.07822,0.38202,1.16275,0.37022,0.19202,1.31251,-0.00569,0.58632,1.32944,0.25248,0.3311,1.50891
643,0.06463,0.17446,1.53105,0.11237,0.54101,0.14427,0.07154,0.06811,0.078,0.06778,0.53429,0.56721,0.16878,0.12569,0.48924,0.0397,0.25935,0.918,0.17084,0.12915,0.92906,-0.07753,0.26951,1.44892,0.16914,0.03143,1.48478,-0.07704,0.38498,1.16295,0.3702,0.19478,1.31417,-0.00578,0.58946,1.32996,0.2514,0.33289,1.51061
644,0.06478,0.17602,1.53148,0.11233,0.54195,0.14457,0.07127,0.06828,0.07802,0.06831,0.53594,0.56759,0.16834,0.1258,0.4893,0.03993,0.2607,0.91812,0.17088,0.13031,0.92911,-0.0771,0.27134,1.44874,0.1694,0.03286,1.48514,-0.07577,0.38835,1.16341,0.36993,0.19775,1.3154,-0.00554,0.59294,1.33074,0.25036,0.33486,1.51208
645,0.06525,0.17799,1.53165,0.1123,0.54274,0.14471,0.07109,0.06865,0.07794,0.06894,0.53732,0.5678,0.16788,0.12572,0.48935,0.0399,0.26203,0.91824,0.17059,0.13137,0.92915,-0.07653,0.27313,1.44875,0.16972,0.03455,1.48555,-0.0745,0.39195,1.16417,0.37006,0.20063,1.31673,-0.00526,0.5967,1.3317,0.24964,0.33696,1.51342
646,0.06592,0.18023,1.53158,0.11224,0.54317,0.14466,0.07116,0.06878,0.07788,0.06949,0.5386,0.56783,0.16752,0.12565,0.48942,0.03984,0.26335,0.91825,0.17018,0.13234,0.9292,-0.07575,0.27485,1.44885,0.17,0.0364,1.48596,-0.07351,0.39537,1.16498,0.37083,0.20321,1.31846,-0.00517,0.60043,1.3325,0.2493,0.33912,1.51476
647,0.06648,0.18241,1.53149,0.11213,0.54329,0.14463,0.0715,0.06847,0.07786,0.06983,0.54007,0.56785,0.16729,0.12585,0.48946,0.03986,0.26468,0.91813,0.16986,0.13335,0.92923,-0.07502,0.27658,1.44893,0.17013,0.03823,1.48633,-0.07287,0.39852,1.16568,0.37185,0.20559,1.32046,-0.00527,0.60402,1.33295,0.24909,0.34124,1.51618
648,0.06663,0.18427,1.53153,0.11207,0.54335,0.14483,0.07193,0.06803,0.07785,0.06997,0.54181,0.56808,0.16713,0.12627,0.48947,0.03976,0.26591,0.91794,0.16955,0.13438,0.92923,-0.07474,0.27838,1.44897,0.17012,0.04005,1.48665,-0.07234,0.40164,1.16629,0.37269,0.20799,1.3224,-0.00548,0.60773,1.33315,0.24875,0.34322,1.51767
649,0.06632,0.18593,1.53168,0.11214,0.54358,0.1453,0.07224,0.06788,0.07789,0.0699,0.54351,0.56854,0.16697,0.12669,0.48954,0.03943,0.26695,0.91785,0.16912,0.13534,0.92929,-0.07501,0.28025,1.44905,0.17006,0.04191,1.48689,-0.07171,0.40483,1.16696,0.37332,0.21052,1.32419,-0.00573,0.61183,1.33304,0.24826,0.34516,1.51915
650,0.06601,0.1879,1.53171,0.11226,0.5441,0.14584,0.07238,0.06802,0.07801,0.06964,0.5449,0.56905,0.16672,0.12699,0.48971,0.03904,0.2679,0.918,0.16866,0.13621,0.92946,-0.07545,0.28232,1.4493,0.17011,0.04382,1.487,-0.07098,0.40791,1.16767,0.37396,0.21324,1.32589,-0.00586,0.61624,1.33243,0.24794,0.34726,1.52065
651,0.06616,0.19041,1.53154,0.11226,0.54494,0.14624,0.07239,0.06818,0.07813,0.06921,0.54595,0.5694,0.16634,0.12726,0.48992,0.03879,0.26893,0.91834,0.16832,0.13714,0.92965,-0.07549,0.2846,1.44971,0.17035,0.04581,1.48692,-0.07027,0.4107,1.16832,0.37468,0.21618,1.32741,-0.00586,0.62065,1.33129,0.24805,0.34963,1.52217
652,0.06684,0.19307,1.53134,0.11204,0.54598,0.14644,0.07232,0.06817,0.07816,0.0687,0.54696,0.56957,0.16585,0.12751,0.49,0.03862,0.27004,0.91863,0.16811,0.1382,0.92971,-0.07507,0.28686,1.45008,0.17068,0.04795,1.48665,-0.0697,0.41329,1.16884,0.37542,0.21923,1.32866,-0.0059,0.62487,1.32991,0.2485,0.35213,1.5236
653,0.06767,0.19525,1.53131,0.11167,0.547,0.14657,0.07212,0.06807,0.07805,0.06816,0.54823,0.56968,0.16541,0.12767,0.4899,0.03841,0.27119,0.91867,0.16794,0.13938,0.92959,-0.07459,0.28886,1.45015,0.17092,0.05026,1.4864,-0.06929,0.41598,1.16922,0.3761,0.22216,1.32964,-0.00606,0.62908,1.32852,0.24897,0.35455,1.52481
654,0.06824,0.19691,1.53141,0.11127,0.54779,0.14673,0.0718,0.06811,0.07784,0.06767,0.54986,0.56983,0.16525,0.12783,0.48965,0.03813,0.27237,0.91848,0.16773,0.14063,0.9293,-0.07443,0.29063,1.44994,0.17102,0.05272,1.48635,-0.06903,0.41893,1.16956,0.37669,0.22483,1.33048,-0.00626,0.63355,1.32698,0.2493,0.35685,1.52573
655,0.06832,0.19865,1.53141,0.11083,0.54828,0.14688,0.07145,0.06836,0.07762,0.06731,0.55175,0.56998,0.16551,0.12818,0.48927,0.03779,0.27368,0.91817,0.16744,0.14196,0.9289,-0.07455,0.29257,1.4497,0.17107,0.05524,1.48647,-0.06899,0.4221,1.16988,0.3773,0.22729,1.33128,-0.00648,0.63843,1.32505,0.24953,0.35913,1.52639
656,0.068,0.20098,1.53122,0.11024,0.54859,0.14697,0.07119,0.06869,0.07741,0.06704,0.5538,0.57008,0.16608,0.12888,0.48882,0.03747,0.27516,0.91781,0.16708,0.14339,0.92843,-0.07463,0.29505,1.44962,0.17121,0.05778,1.48662,-0.06928,0.42542,1.17019,0.378,0.2297,1.33203,-0.00668,0.64369,1.32258,0.24981,0.36148,1.52691
657,0.06757,0.20377,1.53094,0.10958,0.54901,0.14705,0.07108,0.06894,0.07727,0.06658,0.55606,0.57016,0.1667,0.12985,0.48839,0.03726,0.27675,0.91738,0.16676,0.14489,0.92798,-0.07445,0.29791,1.44965,0.17152,0.06036,1.48675,-0.06995,0.42889,1.17048,0.37868,0.23225,1.33263,-0.00681,0.64928,1.31957,0.25023,0.36388,1.52744
658,0.06743,0.20647,1.53074,0.10898,0.54971,0.14719,0.07105,0.0691,0.07722,0.06572,0.55844,0.57024,0.16734,0.13088,0.48807,0.03714,0.27841,0.91694,0.16658,0.14649,0.92764,-0.07407,0.30054,1.44958,0.17198,0.06308,1.48692,-0.07091,0.43243,1.17083,0.37926,0.23506,1.33305,-0.0069,0.65515,1.31603,0.25074,0.36642,1.528
659,0.06777,0.20888,1.53057,0.10849,0.55073,0.14738,0.07103,0.06932,0.07731,0.06452,0.56082,0.57032,0.16816,0.13181,0.48785,0.03707,0.28022,0.91665,0.16647,0.14826,0.92739,-0.07383,0.30266,1.4493,0.17251,0.06606,1.4871,-0.07201,0.43591,1.17119,0.37985,0.23819,1.33348,-0.00719,0.66115,1.31207,0.25133,0.36939,1.52852
660,0.06843,0.21124,1.53033,0.10803,0.55198,0.14755,0.07092,0.06962,0.07751,0.06321,0.56314,0.57038,0.16917,0.13269,0.48769,0.03704,0.28224,0.91656,0.16635,0.15018,0.92718,-0.07399,0.30476,1.44891,0.173,0.06933,1.48716,-0.07321,0.43923,1.17138,0.38064,0.2416,1.33409,-0.008,0.66708,1.30781,0.25213,0.37301,1.52901
661,0.06906,0.21374,1.53001,0.10745,0.5533,0.14768,0.07069,0.06984,0.07771,0.06204,0.56547,0.57042,0.17018,0.13368,0.48748,0.03701,0.28429,0.91646,0.1662,0.15211,0.92692,-0.07446,0.30741,1.44854,0.1735,0.07285,1.48701,-0.07461,0.44243,1.17127,0.38161,0.2453,1.3348,-0.00932,0.6729,1.3032,0.25323,0.37713,1.52953
662,0.06943,0.21639,1.52971,0.1066,0.55451,0.14778,0.07044,0.06986,0.07777,0.06113,0.56787,0.57047,0.17102,0.13484,0.48709,0.03683,0.28615,0.91613,0.16608,0.15402,0.92649,-0.0749,0.31051,1.44823,0.17418,0.07655,1.4867,-0.07638,0.44557,1.17098,0.38269,0.24927,1.33535,-0.01078,0.67867,1.29804,0.25448,0.38138,1.52999
663,0.06954,0.21913,1.52944,0.1055,0.55547,0.1479,0.07027,0.06978,0.07762,0.0604,0.5703,0.57059,0.17187,0.13615,0.48646,0.03643,0.2878,0.91562,0.16608,0.15604,0.92582,-0.07515,0.31345,1.44797,0.17521,0.08041,1.48633,-0.07855,0.4486,1.17079,0.38388,0.25339,1.33549,-0.01201,0.68446,1.29214,0.25574,0.38549,1.53018
664,0.06949,0.222,1.52913,0.10441,0.55629,0.14812,0.07026,0.06987,0.07741,0.05964,0.57272,0.57078,0.17303,0.13757,0.48574,0.03597,0.28942,0.91519,0.16628,0.1583,0.92505,-0.07526,0.31586,1.44773,0.17659,0.08444,1.4859,-0.08108,0.45146,1.1708,0.38523,0.25759,1.33522,-0.01298,0.69021,1.28546,0.25702,0.38955,1.52996
665,0.06939,0.22497,1.52875,0.10363,0.55725,0.14843,0.07035,0.07025,0.07732,0.05861,0.57514,0.571,0.17463,0.139,0.48509,0.03569,0.29117,0.91491,0.16674,0.16075,0.92433,-0.07534,0.31779,1.44745,0.17815,0.08868,1.48535,-0.08406,0.45408,1.17094,0.38674,0.26196,1.33475,-0.01399,0.69576,1.27802,0.25835,0.3938,1.52946
666,0.06928,0.22792,1.52843,0.10321,0.55854,0.14868,0.07047,0.0708,0.0774,0.05731,0.57766,0.57111,0.17657,0.14039,0.48456,0.0357,0.29303,0.91455,0.16741,0.16327,0.92372,-0.07544,0.3195,1.44709,0.17975,0.09311,1.4847,-0.08773,0.45641,1.17102,0.38831,0.26671,1.33443,-0.01524,0.70088,1.26984,0.25955,0.39848,1.52894
667,0.06927,0.23079,1.52827,0.10302,0.55985,0.14875,0.07064,0.0712,0.07759,0.05607,0.58037,0.571,0.17864,0.14183,0.48407,0.03591,0.29507,0.91397,0.16812,0.16581,0.92314,-0.07563,0.3212,1.44668,0.18142,0.09776,1.48412,-0.09214,0.45835,1.17095,0.38975,0.27216,1.33446,-0.01679,0.70535,1.26093,0.26034,0.40389,1.52856
668,0.06938,0.23396,1.52807,0.10294,0.56084,0.14862,0.07094,0.07128,0.07781,0.05532,0.5833,0.5707,0.18069,0.14343,0.48355,0.0362,0.29739,0.91322,0.16871,0.16845,0.92252,-0.07597,0.32291,1.44624,0.18323,0.10264,1.48379,-0.09699,0.4598,1.17069,0.39088,0.27851,1.33491,-0.01897,0.70919,1.25133,0.26063,0.41038,1.52836
669,0.06946,0.23791,1.52754,0.10284,0.56157,0.14831,0.07128,0.0712,0.07799,0.05521,0.58634,0.57026,0.18265,0.14515,0.48297,0.03644,0.29992,0.91237,0.16918,0.17123,0.92184,-0.07648,0.32447,1.44572,0.18519,0.10774,1.48361,-0.10199,0.46075,1.17025,0.39166,0.28576,1.33564,-0.02212,0.71256,1.24097,0.26059,0.41795,1.52832
670,0.06931,0.24261,1.52659,0.10264,0.5624,0.14789,0.07153,0.07125,0.07812,0.05544,0.58941,0.56975,0.18465,0.14685,0.48231,0.03654,0.30248,0.91143,0.16965,0.17418,0.92105,-0.07726,0.3257,1.44509,0.18736,0.11299,1.48325,-0.10716,0.46115,1.16965,0.39214,0.29377,1.33628,-0.02597,0.71533,1.22953,0.26043,0.42612,1.52841
671,0.06898,0.24742,1.52544,0.10246,0.56359,0.14752,0.07163,0.07151,0.07818,0.05577,0.59258,0.5693,0.18686,0.14853,0.48151,0.03656,0.3049,0.91033,0.17032,0.17728,0.9201,-0.07846,0.32656,1.44436,0.18981,0.11856,1.48245,-0.11269,0.4608,1.16883,0.39241,0.30252,1.3364,-0.0296,0.71692,1.21661,0.26028,0.43447,1.52852
672,0.06858,0.25172,1.52428,0.10261,0.56521,0.14734,0.07168,0.07183,0.07814,0.05626,0.59604,0.56902,0.18924,0.15028,0.48052,0.03667,0.30719,0.90904,0.17135,0.18055,0.91896,-0.08013,0.3273,1.44352,0.19258,0.12483,1.48125,-0.11868,0.45951,1.16758,0.39241,0.31227,1.3358,-0.03254,0.71676,1.20203,0.25995,0.44324,1.52836
673,0.06816,0.25553,1.52314,0.10321,0.56719,0.14733,0.07179,0.07212,0.07798,0.05701,0.59989,0.56889,0.19161,0.15215,0.47938,0.03694,0.30951,0.90759,0.17274,0.18411,0.91766,-0.0821,0.32822,1.44251,0.19555,0.132,1.47991,-0.12503,0.4572,1.16569,0.39192,0.32324,1.3347,-0.03537,0.71476,1.18596,0.25891,0.45311,1.52763
674,0.06775,0.25937,1.52199,0.10411,0.56935,0.14739,0.07201,0.07252,0.07778,0.05798,0.60406,0.56879,0.19385,0.15418,0.47824,0.03732,0.31209,0.90607,0.17433,0.18801,0.91635,-0.08413,0.32942,1.44129,0.19862,0.13977,1.47864,-0.13129,0.45407,1.16318,0.39071,0.33536,1.33351,-0.03878,0.71136,1.1686,0.25665,0.46444,1.52624
675,0.06748,0.26364,1.5209,0.10519,0.57149,0.14737,0.07228,0.07317,0.07769,0.05916,0.60843,0.5686,0.196,0.1564,0.47725,0.03779,0.31501,0.90457,0.17588,0.19217,0.91518,-0.08603,0.33089,1.43991,0.20169,0.14758,1.4774,-0.13676,0.45051,1.16022,0.3886,0.34824,1.33243,-0.04279,0.70711,1.14982,0.25306,0.4769,1.5244
676,0.06753,0.26824,1.51989,0.10657,0.57362,0.14717,0.07246,0.074,0.07773,0.06058,0.6129,0.56819,0.19813,0.15877,0.47636,0.03837,0.31823,0.90302,0.17731,0.19639,0.9141,-0.08767,0.33265,1.43849,0.20481,0.15495,1.47614,-0.14104,0.44656,1.15692,0.38556,0.36138,1.33144,-0.04737,0.702,1.12936,0.24828,0.48988,1.52229
677,0.06808,0.27269,1.5189,0.1083,0.57578,0.14677,0.07244,0.07473,0.07781,0.06225,0.6174,0.56756,0.2002,0.16119,0.47541,0.03907,0.32168,0.9014,0.17862,0.20059,0.91295,-0.08895,0.33449,1.43731,0.20809,0.16189,1.47486,-0.14442,0.44148,1.15343,0.38174,0.37456,1.33052,-0.05336,0.69517,1.10724,0.24223,0.50297,1.51979
678,0.06906,0.27669,1.51788,0.11022,0.57784,0.14625,0.07235,0.07525,0.0778,0.06408,0.6219,0.56678,0.20213,0.1636,0.47433,0.03994,0.32533,0.89979,0.17995,0.20481,0.91168,-0.08985,0.33595,1.43669,0.21157,0.16879,1.47357,-0.1472,0.43415,1.15003,0.37743,0.38788,1.32967,-0.06193,0.68543,1.08391,0.23468,0.51583,1.51683
679,0.07009,0.28035,1.51684,0.11227,0.57959,0.14564,0.07239,0.07579,0.07774,0.06603,0.62634,0.56587,0.20391,0.16606,0.47326,0.04108,0.32917,0.89829,0.18148,0.20911,0.91042,-0.09037,0.3368,1.43665,0.2151,0.17603,1.47217,-0.1491,0.42421,1.14679,0.37266,0.40154,1.32886,-0.07343,0.67231,1.06014,0.22566,0.52809,1.51366
680,0.07074,0.28398,1.51588,0.11463,0.58087,0.1449,0.07257,0.07658,0.07775,0.06808,0.6307,0.56474,0.20561,0.16867,0.47234,0.04262,0.33322,0.89684,0.18338,0.21363,0.90932,-0.09065,0.33736,1.43661,0.2186,0.18383,1.4706,-0.14948,0.41254,1.14336,0.36705,0.41591,1.32805,-0.08678,0.65633,1.03651,0.2152,0.53974,1.51077
681,0.07098,0.2878,1.51503,0.11754,0.58158,0.14393,0.07276,0.07764,0.07792,0.07026,0.63504,0.56324,0.20731,0.17155,0.47156,0.04453,0.33759,0.89534,0.18572,0.21856,0.90836,-0.09093,0.33808,1.43563,0.22214,0.19237,1.46887,-0.14826,0.4005,1.1391,0.36002,0.43148,1.32734,-0.10027,0.63832,1.01291,0.20286,0.55112,1.50834
682,0.07119,0.29174,1.51427,0.12091,0.58171,0.14273,0.07288,0.07878,0.07811,0.07256,0.63944,0.56136,0.20889,0.17474,0.47076,0.04661,0.34233,0.89375,0.18831,0.22398,0.90736,-0.09154,0.33914,1.43309,0.22569,0.20177,1.46706,-0.14602,0.38902,1.13367,0.35146,0.44828,1.32693,-0.11315,0.61872,0.98896,0.18807,0.56241,1.50598
683,0.07153,0.29549,1.51353,0.12423,0.58144,0.14145,0.07298,0.07967,0.07816,0.07497,0.644,0.55927,0.21,0.17816,0.46983,0.04858,0.34739,0.89208,0.19093,0.22988,0.90621,-0.09249,0.34039,1.42906,0.22897,0.21178,1.46532,-0.14335,0.37825,1.12725,0.34192,0.46546,1.32708,-0.12621,0.59747,0.96467,0.17069,0.57309,1.5028
684,0.07184,0.29895,1.5128,0.1271,0.58104,0.14032,0.07316,0.08013,0.07806,0.07748,0.64883,0.55728,0.21059,0.18177,0.46878,0.0502,0.35264,0.89039,0.19354,0.23639,0.90489,-0.09344,0.34152,1.42404,0.23181,0.22196,1.46385,-0.14048,0.36808,1.12041,0.33221,0.48199,1.32776,-0.14065,0.57419,0.94069,0.15129,0.58225,1.49803
685,0.07191,0.30253,1.51203,0.12961,0.58083,0.13955,0.07346,0.08027,0.07797,0.08027,0.65397,0.55564,0.21109,0.18553,0.46767,0.05137,0.35804,0.88884,0.19622,0.24369,0.9034,-0.09391,0.34224,1.41839,0.23452,0.23236,1.46289,-0.1375,0.3586,1.11353,0.32271,0.49763,1.32846,-0.15673,0.54883,0.91801,0.13109,0.58933,1.49172
686,0.0717,0.30692,1.51117,0.13203,0.58099,0.13924,0.0738,0.08032,0.07805,0.08372,0.65939,0.5545,0.21192,0.18942,0.46651,0.05206,0.36365,0.88762,0.19888,0.25177,0.90172,-0.09363,0.34238,1.41227,0.2375,0.24352,1.46268,-0.13482,0.35001,1.10673,0.31327,0.51284,1.32872,-0.1737,0.52184,0.89757,0.11132,0.59459,1.48464
687,0.0712,0.31247,1.51018,0.13437,0.58152,0.1393,0.07409,0.08036,0.07835,0.08797,0.66506,0.55377,0.21311,0.19336,0.46538,0.05238,0.36965,0.88678,0.20116,0.26027,0.89994,-0.09266,0.34207,1.40603,0.24058,0.25573,1.4634,-0.13306,0.34188,1.1003,0.30352,0.528,1.32877,-0.19058,0.49337,0.88001,0.09228,0.59878,1.47758
688,0.07036,0.31888,1.50909,0.13636,0.58231,0.13946,0.07435,0.08041,0.07898,0.09265,0.67103,0.55314,0.2145,0.1974,0.46441,0.05251,0.37622,0.88617,0.20282,0.26882,0.89826,-0.0914,0.34179,1.40052,0.24303,0.26866,1.46506,-0.13257,0.33323,1.095,0.29341,0.54302,1.32938,-0.20704,0.46266,0.86591,0.0736,0.60239,1.47057
689,0.06907,0.32555,1.50791,0.13764,0.58313,0.13946,0.07477,0.08058,0.08018,0.09719,0.67719,0.55229,0.21626,0.20181,0.4638,0.05279,0.38338,0.88567,0.20416,0.27739,0.89694,-0.09037,0.34185,1.39647,0.24426,0.28183,1.46742,-0.1334,0.32337,1.09165,0.28324,0.55767,1.33099,-0.22321,0.42895,0.85591,0.05519,0.60575,1.46312
690,0.06721,0.3319,1.50677,0.13813,0.5838,0.13925,0.07558,0.08104,0.08228,0.10132,0.68324,0.55117,0.21889,0.20697,0.46371,0.05353,0.39096,0.88541,0.20583,0.28625,0.89615,-0.08977,0.34183,1.3939,0.24423,0.29516,1.47005,-0.13553,0.31236,1.09035,0.27313,0.57216,1.33348,-0.23915,0.39274,0.85038,0.03744,0.60969,1.45521
691,0.06482,0.33746,1.506,0.13813,0.58442,0.13904,0.07696,0.08188,0.08553,0.10502,0.689,0.55,0.22283,0.21304,0.46421,0.05494,0.39875,0.88567,0.20822,0.29545,0.89602,-0.08943,0.34075,1.39219,0.24333,0.30901,1.4727,-0.13889,0.30075,1.09043,0.26288,0.58695,1.33638,-0.25505,0.35559,0.84901,0.02068,0.61543,1.44731
692,0.06205,0.34191,1.5059,0.13804,0.58534,0.13904,0.07908,0.08299,0.08999,0.10816,0.69454,0.54904,0.22831,0.21996,0.4653,0.05694,0.40656,0.88649,0.21117,0.30467,0.89657,-0.08918,0.33792,1.39064,0.24194,0.32365,1.47554,-0.1431,0.28905,1.09095,0.25266,0.60205,1.33918,-0.27104,0.31891,0.85111,0.00525,0.62385,1.43963
693,0.05898,0.34541,1.50637,0.13808,0.58674,0.1393,0.08232,0.08438,0.09559,0.11051,0.70003,0.54835,0.23544,0.22777,0.46691,0.0592,0.41431,0.88771,0.21435,0.31382,0.89774,-0.08891,0.33334,1.38913,0.24015,0.33859,1.47881,-0.14765,0.2773,1.09161,0.24328,0.61672,1.3415,-0.28679,0.28371,0.85627,-0.0082,0.63527,1.432
694,0.05564,0.34842,1.5071,0.1383,0.58849,0.1398,0.08708,0.08628,0.10241,0.11194,0.70552,0.54787,0.24438,0.23671,0.46916,0.06124,0.42207,0.88922,0.21759,0.32347,0.89954,-0.08872,0.32756,1.38826,0.23788,0.35288,1.48237,-0.15222,0.26509,1.09301,0.23525,0.63013,1.34329,-0.30207,0.25033,0.86473,-0.01926,0.64997,1.42459
695,0.05216,0.35119,1.50795,0.1387,0.59035,0.14039,0.09364,0.08909,0.11064,0.11248,0.71076,0.5475,0.25518,0.24722,0.47229,0.06267,0.43004,0.89122,0.22073,0.33427,0.90205,-0.08903,0.32147,1.38857,0.2352,0.36586,1.48568,-0.15682,0.25203,1.09583,0.22836,0.64205,1.34466,-0.317,0.21839,0.87676,-0.02797,0.66849,1.41793
696,0.04852,0.35353,1.50902,0.13921,0.59218,0.14102,0.10207,0.09305,0.12045,0.11217,0.71541,0.54722,0.26761,0.25977,0.47638,0.06332,0.43828,0.89399,0.22347,0.34612,0.9054,-0.09027,0.31581,1.38992,0.23212,0.37765,1.48843,-0.1615,0.23821,1.10007,0.22234,0.65282,1.34557,-0.33168,0.18775,0.89204,-0.0343,0.69135,1.41211
697,0.04447,0.35508,1.51047,0.13974,0.59399,0.14169,0.11217,0.09806,0.1318,0.11103,0.71932,0.54713,0.28103,0.27467,0.48134,0.06339,0.44657,0.89751,0.22567,0.3583,0.9096,-0.0922,0.31067,1.39183,0.22833,0.38884,1.4908,-0.16612,0.22393,1.10526,0.2172,0.66287,1.34587,-0.34618,0.15879,0.91003,-0.0377,0.71877,1.40652
698,0.03967,0.35567,1.51227,0.14018,0.59579,0.14241,0.1236,0.10397,0.14449,0.10913,0.7226,0.54722,0.29463,0.29192,0.48699,0.06331,0.45454,0.90145,0.22774,0.37048,0.91457,-0.09381,0.3054,1.39406,0.22357,0.39972,1.49321,-0.17039,0.20949,1.11114,0.21288,0.67229,1.34553,-0.36054,0.13191,0.93056,-0.03744,0.75036,1.40049
699,0.03415,0.35543,1.51427,0.14053,0.5974,0.1431,0.13591,0.11098,0.1583,0.10665,0.72526,0.54735,0.30787,0.31131,0.49324,0.06344,0.46182,0.90535,0.23031,0.38305,0.92021,-0.09418,0.29923,1.3967,0.21802,0.40993,1.4959,-0.17447,0.1954,1.11763,0.20907,0.68071,1.34485,-0.37484,0.10753,0.95356,-0.03287,0.78487,1.39377
700,0.02847,0.35454,1.51628,0.14093,0.59857,0.14361,0.14857,0.1195,0.17333,0.10367,0.72718,0.54733,0.32074,0.33279,0.50005,0.06385,0.46817,0.90895,0.23364,0.3965,0.92645,-0.09325,0.292,1.39974,0.21223,0.419,1.49878,-0.17921,0.18264,1.1245,0.20558,0.68785,1.34422,-0.38953,0.08632,0.97865,-0.02355,0.82015,1.38635
701,0.02339,0.35314,1.51825,0.14159,0.5993,0.14391,0.16125,0.12967,0.19027,0.10001,0.72812,0.54714,0.33366,0.35668,0.50748,0.06447,0.47346,0.91226,0.23738,0.41074,0.93324,-0.09174,0.28437,1.40303,0.20653,0.42694,1.50157,-0.18565,0.17227,1.13151,0.20258,0.69398,1.3438,-0.40522,0.06884,1.00551,-0.00978,0.85372,1.37787
702,0.01929,0.3514,1.52018,0.14264,0.5998,0.14413,0.17398,0.14157,0.21008,0.09558,0.72802,0.54695,0.34711,0.38351,0.51565,0.06522,0.47761,0.91547,0.241,0.42518,0.94047,-0.09054,0.27732,1.40642,0.20084,0.43429,1.50422,-0.19397,0.16472,1.13859,0.20056,0.69968,1.34363,-0.42187,0.0552,1.03442,0.00757,0.8839,1.36797
703,0.01589,0.34964,1.52204,0.14401,0.60033,0.14451,0.18698,0.15565,0.23315,0.09076,0.72712,0.54701,0.36116,0.4135,0.5248,0.06604,0.48073,0.91865,0.24407,0.43927,0.94799,-0.09014,0.27134,1.4098,0.19491,0.44156,1.50701,-0.20344,0.15929,1.14576,0.20003,0.70529,1.34379,-0.43866,0.04512,1.06564,0.02814,0.91038,1.35665
704,0.01266,0.348,1.52379,0.14535,0.60102,0.14503,0.2003,0.17233,0.25891,0.08605,0.72582,0.54731,0.37517,0.44616,0.53517,0.06697,0.48307,0.92166,0.2464,0.45281,0.95569,-0.09025,0.26604,1.41289,0.18851,0.44894,1.51015,-0.21322,0.15448,1.153,0.20126,0.71075,1.34429,-0.45495,0.03868,1.09877,0.05244,0.93353,1.34404
705,0.00938,0.34636,1.52548,0.14639,0.60183,0.14538,0.21399,0.19122,0.28643,0.08133,0.72408,0.54756,0.38806,0.48062,0.54687,0.06808,0.48485,0.92442,0.248,0.46566,0.96356,-0.09031,0.2608,1.41544,0.18161,0.45623,1.51342,-0.22292,0.14899,1.16045,0.20418,0.71573,1.345,-0.47064,0.03644,1.13308,0.08113,0.95326,1.33026
706,0.00603,0.34453,1.52729,0.14724,0.60266,0.14519,0.22869,0.21151,0.31507,0.07614,0.72123,0.54744,0.39887,0.5164,0.55994,0.06942,0.48616,0.92708,0.24891,0.47762,0.97161,-0.09013,0.25555,1.41754,0.17434,0.46297,1.51657,-0.23273,0.14269,1.16846,0.2088,0.71963,1.34583,-0.48565,0.03871,1.16814,0.11453,0.96863,1.31597
707,0.00256,0.34243,1.52944,0.14809,0.6033,0.14449,0.24542,0.23297,0.34462,0.07035,0.71677,0.54698,0.40724,0.55371,0.57446,0.07087,0.48688,0.92985,0.24915,0.48851,0.9797,-0.08976,0.25059,1.41953,0.16686,0.46877,1.5198,-0.24343,0.13652,1.17769,0.21544,0.72167,1.34689,-0.49981,0.04503,1.20378,0.15251,0.97825,1.30234
708,-0.00082,0.34015,1.53204,0.14881,0.60352,0.14375,0.26471,0.25623,0.37514,0.06442,0.7109,0.54657,0.41335,0.59291,0.59062,0.07222,0.48685,0.93279,0.24874,0.49835,0.98739,-0.08897,0.24581,1.42169,0.15935,0.47361,1.5235,-0.25579,0.13135,1.18893,0.22414,0.72122,1.34825,-0.51329,0.05455,1.23971,0.19406,0.98099,1.29
709,-0.00361,0.33796,1.53508,0.1492,0.60327,0.14346,0.28584,0.282,0.40662,0.05892,0.70452,0.54659,0.41729,0.63383,0.60866,0.07338,0.4863,0.93596,0.24779,0.50737,0.99434,-0.08749,0.24081,1.42423,0.15214,0.47783,1.52765,-0.26951,0.12727,1.20267,0.23404,0.71831,1.34966,-0.52597,0.06651,1.2756,0.2365,0.97656,1.27838
710,-0.00554,0.33609,1.53833,0.14935,0.60278,0.14377,0.30773,0.31026,0.43891,0.05391,0.69835,0.5471,0.41881,0.6756,0.62882,0.07463,0.48586,0.93934,0.24664,0.51602,1.00078,-0.08545,0.23554,1.42727,0.14571,0.48157,1.53167,-0.28334,0.124,1.21868,0.24418,0.71348,1.35074,-0.53693,0.08028,1.31122,0.27652,0.96575,1.26652
711,-0.00696,0.33448,1.54157,0.14958,0.60224,0.14431,0.33046,0.34012,0.47202,0.04889,0.69227,0.54764,0.41792,0.71711,0.65121,0.07645,0.48607,0.9428,0.24555,0.52494,1.00733,-0.08343,0.23041,1.4308,0.14041,0.48448,1.53494,-0.2964,0.12157,1.23611,0.25465,0.70698,1.35147,-0.5454,0.0959,1.34622,0.31272,0.94991,1.25457
712,-0.00835,0.33301,1.54466,0.1502,0.60154,0.14459,0.35516,0.3709,0.5061,0.04347,0.68551,0.54767,0.41481,0.75766,0.67563,0.07897,0.48693,0.94609,0.24436,0.5346,1.01424,-0.08202,0.22581,1.43464,0.13618,0.4862,1.53723,-0.30884,0.12031,1.25428,0.26636,0.69849,1.35229,-0.55155,0.11394,1.38012,0.34655,0.93006,1.24401
713,-0.00985,0.33179,1.54773,0.15142,0.60061,0.14444,0.3822,0.40292,0.54111,0.03784,0.67747,0.54707,0.40912,0.79709,0.7017,0.08191,0.48816,0.94913,0.24262,0.54497,1.02136,-0.08153,0.22183,1.43869,0.13266,0.487,1.53889,-0.32128,0.12047,1.27329,0.27969,0.68766,1.35359,-0.55613,0.13465,1.41267,0.37982,0.90674,1.23631
714,-0.01127,0.33095,1.55083,0.15326,0.59994,0.14403,0.41043,0.4372,0.57658,0.0326,0.66813,0.54616,0.39974,0.83535,0.72902,0.08497,0.4895,0.95209,0.2401,0.55558,1.02853,-0.08198,0.21846,1.44314,0.12949,0.48759,1.54056,-0.3341,0.12249,1.2937,0.29383,0.67442,1.35534,-0.55961,0.15777,1.44431,0.4125,0.88042,1.23181
715,-0.01252,0.33047,1.55384,0.15551,0.60028,0.14372,0.43799,0.47445,0.61176,0.02826,0.65796,0.54546,0.38584,0.8719,0.75735,0.08818,0.49075,0.9552,0.23697,0.56574,1.03586,-0.08331,0.21594,1.44813,0.12664,0.48815,1.54266,-0.34734,0.12726,1.31574,0.30743,0.65888,1.35723,-0.56192,0.18326,1.47575,0.44316,0.85151,1.22977
716,-0.01377,0.33048,1.55655,0.15798,0.60203,0.14401,0.46382,0.51453,0.64621,0.02486,0.64739,0.54543,0.36782,0.90568,0.78645,0.09168,0.49177,0.95865,0.2337,0.57489,1.04346,-0.0856,0.21465,1.45364,0.12452,0.48817,1.54518,-0.36084,0.13565,1.33915,0.31967,0.64127,1.35891,-0.56265,0.21143,1.50742,0.47072,0.82056,1.22924
717,-0.01515,0.33114,1.55895,0.16051,0.60505,0.14526,0.48838,0.55722,0.68019,0.02212,0.63679,0.54621,0.34721,0.93603,0.81606,0.09538,0.49276,0.96253,0.23046,0.58311,1.05119,-0.0888,0.21471,1.45954,0.12365,0.48727,1.54792,-0.37413,0.14776,1.36355,0.33062,0.62199,1.36022,-0.56128,0.24225,1.53914,0.49533,0.78811,1.22964
718,-0.01652,0.33229,1.56115,0.16298,0.60926,0.14742,0.51263,0.6034,0.71446,0.01987,0.6264,0.5476,0.32535,0.96324,0.84611,0.09899,0.49415,0.96675,0.22707,0.59103,1.05886,-0.09253,0.21593,1.46556,0.124,0.48539,1.55074,-0.3864,0.16256,1.38873,0.34059,0.60141,1.3614,-0.5573,0.2749,1.57027,0.51757,0.75432,1.23073
719,-0.01773,0.33346,1.56307,0.16519,0.61474,0.14999,0.53635,0.6545,0.74955,0.01844,0.61634,0.54921,0.3027,0.98788,0.87662,0.10248,0.49645,0.97111,0.22342,0.59914,1.0665,-0.09639,0.21835,1.47122,0.12499,0.48245,1.5535,-0.39691,0.17869,1.41443,0.34963,0.57986,1.36308,-0.55037,0.30833,1.59998,0.53768,0.71903,1.23251
720,-0.01901,0.3346,1.56445,0.16716,0.62122,0.1524,0.5581,0.71094,0.78548,0.01844,0.60664,0.55063,0.27961,1.00997,0.90754,0.10594,0.49989,0.97534,0.21984,0.60731,1.07413,-0.10022,0.22208,1.47603,0.12599,0.47853,1.55591,-0.40538,0.19552,1.44021,0.35779,0.55783,1.36565,-0.54047,0.34199,1.62751,0.55585,0.68217,1.23494
721,-0.02079,0.33607,1.56511,0.16937,0.62819,0.15435,0.57626,0.77112,0.82231,0.02044,0.59754,0.55158,0.25708,1.02906,0.93839,0.10938,0.50413,0.97913,0.21666,0.61507,1.08138,-0.10393,0.22645,1.48,0.1269,0.47412,1.55763,-0.4117,0.21346,1.46544,0.36513,0.53563,1.36874,-0.5278,0.37565,1.65252,0.57231,0.64391,1.23786
722,-0.02314,0.33815,1.56511,0.17218,0.63526,0.1557,0.5899,0.83179,0.86016,0.02462,0.58942,0.55199,0.23657,1.04483,0.96812,0.11275,0.50824,0.98219,0.21372,0.62213,1.08758,-0.10734,0.23009,1.48382,0.12788,0.46981,1.55845,-0.41567,0.23332,1.48954,0.37151,0.51332,1.37145,-0.51253,0.40908,1.67531,0.58696,0.60471,1.24105
723,-0.02554,0.34076,1.56473,0.17557,0.64201,0.15638,0.59905,0.89084,0.89844,0.03078,0.58254,0.55188,0.21876,1.05747,0.99589,0.11605,0.51131,0.98441,0.21063,0.62838,1.09222,-0.11044,0.23213,1.48828,0.12893,0.46592,1.55843,-0.417,0.25559,1.51235,0.37652,0.49095,1.37325,-0.49458,0.44226,1.69653,0.59931,0.56509,1.24423
724,-0.0273,0.34351,1.56428,0.17947,0.64815,0.15641,0.6039,0.95015,0.93636,0.03839,0.57704,0.55133,0.20293,1.0674,1.02217,0.1191,0.51324,0.98589,0.20718,0.63372,1.09543,-0.11331,0.23312,1.49348,0.12981,0.46257,1.5579,-0.41544,0.27993,1.53388,0.37991,0.4689,1.37453,-0.4736,0.47505,1.71644,0.60886,0.52545,1.2474
725,-0.02807,0.34608,1.56408,0.18393,0.6535,0.15584,0.60377,1.01437,0.97387,0.04695,0.57297,0.55039,0.18819,1.07486,1.04813,0.12168,0.51455,0.98678,0.20323,0.6381,1.09794,-0.11595,0.23464,1.49874,0.13044,0.45984,1.55741,-0.41113,0.30507,1.55368,0.38177,0.44774,1.37601,-0.4493,0.50653,1.73463,0.61543,0.48607,1.25066
726,-0.02821,0.34863,1.5643,0.18892,0.65779,0.15464,0.59708,1.08631,1.01158,0.05609,0.57022,0.54911,0.17525,1.08003,1.07406,0.12372,0.51577,0.98717,0.19864,0.6416,1.10042,-0.11834,0.23801,1.50337,0.13105,0.45779,1.55733,-0.40491,0.32973,1.57099,0.38235,0.42778,1.37798,-0.42201,0.53535,1.75046,0.61901,0.4472,1.2539
727,-0.02847,0.35182,1.56469,0.19435,0.66069,0.15287,0.5818,1.16371,1.05015,0.06558,0.5685,0.54763,0.16584,1.08339,1.0992,0.12526,0.51707,0.98721,0.19341,0.64442,1.103,-0.12067,0.24334,1.50725,0.13184,0.4563,1.55749,-0.39777,0.35371,1.58562,0.38185,0.4088,1.38013,-0.3924,0.56102,1.76389,0.61997,0.40897,1.25735
728,-0.02937,0.35614,1.56483,0.20015,0.66207,0.15079,0.55686,1.23997,1.0895,0.07516,0.56759,0.54623,0.16073,1.08548,1.12264,0.12647,0.51843,0.98712,0.18806,0.64682,1.10542,-0.12333,0.24984,1.51057,0.13272,0.45492,1.55772,-0.3899,0.37784,1.5981,0.38013,0.3906,1.38203,-0.36104,0.58401,1.77543,0.61892,0.37146,1.26205
729,-0.03049,0.36149,1.56455,0.20598,0.66224,0.14869,0.52309,1.30838,1.12807,0.08454,0.56738,0.54514,0.15936,1.08627,1.14393,0.12761,0.51953,0.98706,0.18363,0.64862,1.10734,-0.12643,0.2568,1.51311,0.13353,0.45309,1.55828,-0.38069,0.40269,1.60889,0.37691,0.37364,1.38315,-0.32834,0.60491,1.78538,0.61602,0.33492,1.26866
730,-0.03095,0.36742,1.56399,0.2111,0.66189,0.14668,0.48227,1.36587,1.16388,0.09331,0.56781,0.54441,0.16136,1.08499,1.1629,0.12857,0.51971,0.98699,0.18118,0.64895,1.10864,-0.12981,0.26397,1.51435,0.13422,0.45051,1.55944,-0.3697,0.42794,1.61767,0.37246,0.35892,1.38316,-0.29492,0.62361,1.79347,0.6109,0.30004,1.27613
731,-0.03047,0.37361,1.56338,0.21483,0.66164,0.1448,0.43528,1.41236,1.19665,0.10099,0.56892,0.544,0.16681,1.08142,1.17966,0.12909,0.51893,0.98688,0.18092,0.64741,1.10967,-0.13344,0.27111,1.51427,0.13499,0.44743,1.56086,-0.3571,0.45286,1.62405,0.36796,0.34674,1.38252,-0.26154,0.63978,1.7993,0.60354,0.26774,1.28233
732,-0.02971,0.37975,1.5629,0.21715,0.66179,0.14327,0.38476,1.44693,1.22659,0.10728,0.57107,0.54404,0.17433,1.07737,1.19459,0.12926,0.51882,0.987,0.18194,0.64556,1.11124,-0.13754,0.27803,1.51363,0.13583,0.44464,1.56151,-0.34317,0.47727,1.62819,0.36407,0.33565,1.38194,-0.22864,0.65363,1.80301,0.59442,0.23887,1.28524
733,-0.02938,0.3851,1.56273,0.21845,0.66223,0.1424,0.33948,1.46908,1.25175,0.11212,0.57452,0.54479,0.18033,1.07584,1.20796,0.12953,0.52164,0.98789,0.18314,0.64617,1.11394,-0.14218,0.28501,1.51323,0.13596,0.44295,1.56007,-0.32797,0.50148,1.63042,0.36001,0.32345,1.38192,-0.19636,0.66562,1.80513,0.58351,0.21372,1.28298
734,-0.02964,0.38883,1.56303,0.21904,0.66274,0.14222,0.30897,1.48196,1.26988,0.11569,0.57918,0.54627,0.18147,1.07809,1.21968,0.13025,0.52798,0.98966,0.18452,0.65026,1.11763,-0.14687,0.29256,1.51321,0.13425,0.44243,1.55584,-0.31173,0.52513,1.63084,0.35662,0.30952,1.38524,-0.16505,0.67568,1.80578,0.57063,0.19062,1.27641
735,-0.03027,0.39063,1.56382,0.21905,0.66336,0.14244,0.29538,1.48863,1.28095,0.11839,0.58475,0.54816,0.17726,1.0821,1.2294,0.13158,0.53603,0.99188,0.18719,0.65577,1.12165,-0.15081,0.30065,1.51297,0.13095,0.44234,1.55036,-0.29538,0.54692,1.62942,0.35771,0.3008,1.393,-0.13552,0.68333,1.8044,0.55836,0.1696,1.2734
736,-0.03112,0.39097,1.56501,0.21855,0.6644,0.1427,0.2949,1.4895,1.287,0.12066,0.59107,0.55008,0.17062,1.08466,1.23664,0.13353,0.5434,0.99392,0.19215,0.65961,1.12556,-0.15369,0.30873,1.51191,0.12811,0.44166,1.54703,-0.28001,0.56588,1.62603,0.35837,0.29765,1.39717,-0.10858,0.68832,1.8004,0.55006,0.15492,1.27609
737,-0.03219,0.39093,1.56631,0.2177,0.66593,0.14273,0.3036,1.4852,1.29037,0.12268,0.59795,0.55171,0.1666,1.08441,1.24057,0.13557,0.54889,0.9954,0.19895,0.66015,1.12911,-0.15579,0.31637,1.51017,0.1277,0.43956,1.54831,-0.26601,0.58241,1.62055,0.35367,0.28736,1.40001,-0.08445,0.69089,1.7939,0.54363,0.14114,1.28039
738,-0.0334,0.39182,1.56738,0.21691,0.6675,0.14243,0.31937,1.47768,1.29198,0.12439,0.60482,0.55283,0.16869,1.08197,1.24108,0.13678,0.5523,0.99613,0.20608,0.65758,1.13173,-0.15765,0.32377,1.50833,0.12991,0.43611,1.55355,-0.2531,0.59758,1.61333,0.34113,0.26943,1.3992,-0.06279,0.69185,1.7856,0.53322,0.12327,1.28294
739,-0.03451,0.39433,1.56821,0.21675,0.66861,0.14182,0.33981,1.46827,1.29204,0.12574,0.61097,0.55329,0.17532,1.07835,1.23922,0.13666,0.55387,0.99607,0.21242,0.65322,1.13268,-0.15952,0.33133,1.50681,0.13269,0.43295,1.55901,-0.2409,0.61202,1.60528,0.32655,0.26092,1.38859,-0.04307,0.69223,1.7762,0.51781,0.11029,1.27676
740,-0.0354,0.39794,1.56905,0.21735,0.66918,0.14102,0.36222,1.45731,1.29099,0.12677,0.61598,0.55319,0.18192,1.07471,1.23626,0.13548,0.55436,0.99541,0.21754,0.64895,1.13177,-0.16115,0.33901,1.50582,0.13344,0.43218,1.56079,-0.22931,0.62557,1.59717,0.32014,0.26024,1.38246,-0.02495,0.69241,1.76614,0.50468,0.10599,1.26444
741,-0.03619,0.4014,1.57011,0.21817,0.66914,0.14013,0.38558,1.44534,1.28856,0.12754,0.61988,0.55278,0.18622,1.07247,1.23287,0.13383,0.55472,0.99453,0.22094,0.64627,1.12982,-0.16221,0.34606,1.50551,0.1322,0.43363,1.5592,-0.21858,0.63757,1.5889,0.31913,0.25862,1.38414,-0.00866,0.69207,1.75547,0.49051,0.09977,1.25309
742,-0.03723,0.40384,1.57134,0.21877,0.66836,0.13915,0.40967,1.43312,1.28352,0.12817,0.62291,0.55224,0.1887,1.07245,1.22898,0.1323,0.55541,0.99367,0.22206,0.64563,1.12811,-0.16322,0.35174,1.50591,0.1318,0.43467,1.55843,-0.20915,0.6476,1.57985,0.31817,0.25632,1.38616,0.00511,0.69098,1.74415,0.47936,0.09049,1.2509
743,-0.03869,0.40526,1.57255,0.21919,0.66684,0.13803,0.43341,1.42058,1.2751,0.12863,0.62542,0.55155,0.18933,1.07453,1.22456,0.13133,0.55639,0.99275,0.22111,0.64681,1.12706,-0.16529,0.35628,1.50676,0.1342,0.43323,1.56127,-0.20148,0.65604,1.56952,0.30891,0.24911,1.38296,0.0157,0.68949,1.7323,0.46933,0.0804,1.25037
744,-0.04023,0.40647,1.57353,0.21975,0.66457,0.13681,0.4553,1.40681,1.26354,0.12873,0.62755,0.55065,0.18711,1.07809,1.21995,0.13084,0.55757,0.99171,0.21912,0.64961,1.1259,-0.16883,0.36075,1.50757,0.13798,0.42997,1.56609,-0.19539,0.66387,1.55782,0.29674,0.24963,1.3699,0.02335,0.68817,1.72014,0.45941,0.07901,1.24262
745,-0.04121,0.40845,1.57406,0.22059,0.66157,0.1356,0.47463,1.39104,1.24992,0.12825,0.62905,0.54953,0.18261,1.08215,1.21543,0.13011,0.55871,0.99053,0.21708,0.65334,1.12378,-0.17286,0.36599,1.50804,0.13999,0.427,1.56928,-0.18975,0.6717,1.54498,0.29389,0.25656,1.36075,0.02935,0.68723,1.70787,0.45684,0.0862,1.23345
746,-0.04125,0.41142,1.57422,0.22145,0.65825,0.13451,0.4919,1.37395,1.23506,0.12703,0.62961,0.54825,0.17884,1.08535,1.21084,0.1283,0.55945,0.98928,0.21544,0.6564,1.12074,-0.17581,0.3717,1.50835,0.13923,0.42517,1.56949,-0.18353,0.67914,1.53136,0.29137,0.25711,1.35777,0.03501,0.68649,1.69559,0.45336,0.09222,1.22232
747,-0.04043,0.41476,1.57447,0.22198,0.65511,0.13357,0.50805,1.35754,1.21819,0.1251,0.62925,0.54693,0.17866,1.08695,1.20555,0.12525,0.55969,0.98805,0.21442,0.65749,1.11749,-0.17675,0.37676,1.50881,0.13811,0.42384,1.5686,-0.17716,0.68503,1.51749,0.28728,0.25438,1.35588,0.04025,0.68584,1.68338,0.44474,0.09562,1.2083
748,-0.03922,0.41779,1.57521,0.22219,0.65232,0.13281,0.52406,1.34278,1.19815,0.12269,0.62835,0.54566,0.18253,1.08735,1.19887,0.12171,0.55963,0.98692,0.21413,0.65683,1.11453,-0.17565,0.38019,1.50945,0.1392,0.42279,1.56839,-0.17223,0.68851,1.50378,0.28273,0.25436,1.35103,0.04393,0.68553,1.67126,0.43688,0.09935,1.19614
749,-0.03822,0.42036,1.57648,0.22239,0.64981,0.13221,0.54074,1.32841,1.1753,0.12011,0.62732,0.54446,0.18908,1.08761,1.19044,0.11851,0.5595,0.98586,0.21453,0.65563,1.1116,-0.17343,0.38193,1.50991,0.14206,0.42283,1.56824,-0.16975,0.68968,1.49023,0.28007,0.25907,1.34385,0.04525,0.68585,1.65918,0.43458,0.10702,1.18642
750,-0.03757,0.42255,1.57795,0.22282,0.64753,0.13164,0.55824,1.31245,1.15087,0.11754,0.62642,0.54321,0.19667,1.08821,1.1803,0.1158,0.55922,0.9847,0.21534,0.65472,1.10817,-0.17167,0.38282,1.50981,0.14481,0.42437,1.56681,-0.16912,0.68937,1.47627,0.27935,0.26515,1.3371,0.04452,0.68694,1.64697,0.43499,0.11733,1.17678
751,-0.03679,0.42436,1.57935,0.22336,0.6455,0.13097,0.57607,1.29327,1.12505,0.11502,0.62573,0.54181,0.20443,1.08869,1.16882,0.11339,0.55853,0.9833,0.21633,0.65379,1.10413,-0.1715,0.38386,1.50909,0.14661,0.4266,1.56404,-0.16896,0.68851,1.46127,0.27888,0.27025,1.33106,0.04261,0.68887,1.63454,0.43491,0.12876,1.16549
752,-0.03547,0.42577,1.58049,0.22381,0.64368,0.13019,0.59375,1.26958,1.0965,0.11255,0.62538,0.54031,0.21239,1.0883,1.15634,0.11106,0.55729,0.98167,0.21734,0.65211,1.09992,-0.17246,0.38546,1.50803,0.14767,0.42855,1.5607,-0.16845,0.68738,1.44531,0.27888,0.27477,1.32542,0.04011,0.6917,1.62214,0.43435,0.14125,1.15287
753,-0.03395,0.42689,1.5814,0.22398,0.64195,0.12937,0.61065,1.24119,1.06401,0.11019,0.62547,0.53888,0.22107,1.08671,1.14302,0.10849,0.55567,0.97997,0.21808,0.64939,1.09607,-0.17287,0.38721,1.50698,0.14843,0.42993,1.55749,-0.16786,0.68562,1.4293,0.27945,0.27993,1.31968,0.0371,0.69549,1.61007,0.43382,0.15514,1.13975
754,-0.03301,0.42783,1.58218,0.22365,0.64009,0.12862,0.62586,1.20956,1.02811,0.10795,0.62593,0.53768,0.23087,1.08411,1.12872,0.10519,0.55394,0.97841,0.21813,0.64593,1.09266,-0.17176,0.38872,1.50619,0.1493,0.43105,1.55473,-0.16818,0.68294,1.41384,0.27992,0.28667,1.31325,0.03317,0.70018,1.59809,0.43364,0.1705,1.1271
755,-0.03276,0.42876,1.58297,0.22273,0.63805,0.12796,0.63876,1.17681,0.99062,0.10568,0.62663,0.53672,0.2418,1.08071,1.11338,0.10088,0.55233,0.97705,0.21743,0.64219,1.08935,-0.17008,0.39027,1.50566,0.15052,0.43243,1.55225,-0.17006,0.67941,1.39841,0.2802,0.29524,1.30612,0.02762,0.70542,1.58557,0.43446,0.18737,1.11547
756,-0.03252,0.43005,1.58381,0.22151,0.63605,0.12744,0.64897,1.14454,0.95295,0.10317,0.62747,0.5359,0.25344,1.0765,1.09723,0.09571,0.551,0.97582,0.21636,0.63837,1.08574,-0.16953,0.39238,1.50517,0.15206,0.43439,1.54963,-0.17321,0.67517,1.3822,0.28112,0.30504,1.29897,0.02025,0.71071,1.57218,0.43641,0.20585,1.10449
757,-0.03154,0.43188,1.58474,0.22035,0.6343,0.127,0.6561,1.11351,0.91542,0.10038,0.6285,0.53504,0.2651,1.07143,1.08043,0.09015,0.55013,0.97457,0.21531,0.63441,1.08182,-0.17061,0.39508,1.50445,0.15371,0.43685,1.54669,-0.1769,0.67035,1.36555,0.28309,0.31512,1.29241,0.01177,0.71572,1.55824,0.43859,0.2256,1.09346
758,-0.02987,0.43409,1.58578,0.21938,0.6326,0.12659,0.66022,1.08381,0.87813,0.09744,0.62986,0.53408,0.27635,1.06552,1.06304,0.08469,0.54972,0.97322,0.21441,0.63031,1.07785,-0.17226,0.39796,1.50341,0.15527,0.43932,1.54361,-0.18085,0.66518,1.3497,0.28563,0.32509,1.28636,0.00305,0.72061,1.54436,0.44016,0.24617,1.08223
759,-0.02809,0.43648,1.58669,0.21835,0.63065,0.12619,0.66217,1.05501,0.84148,0.09451,0.63159,0.5331,0.28738,1.05893,1.04495,0.07952,0.54963,0.97184,0.21364,0.62627,1.07386,-0.17308,0.4007,1.50214,0.15664,0.44124,1.54052,-0.1854,0.65976,1.33528,0.28799,0.33514,1.28031,-0.00587,0.72576,1.53072,0.44123,0.26769,1.07115
760,-0.02675,0.43895,1.58719,0.21697,0.62832,0.12592,0.66299,1.02624,0.8055,0.09162,0.63339,0.53234,0.29871,1.0517,1.0258,0.07452,0.54963,0.97066,0.21302,0.62251,1.06956,-0.17268,0.40316,1.50075,0.15785,0.44261,1.53743,-0.19083,0.65378,1.32194,0.2898,0.34556,1.27401,-0.01548,0.73113,1.51702,0.44225,0.29063,1.06066
761,-0.0259,0.44142,1.58723,0.21519,0.62566,0.12593,0.6628,0.99645,0.76985,0.08869,0.63492,0.53192,0.31036,1.04376,1.00529,0.06974,0.54955,0.96986,0.2126,0.61908,1.06488,-0.17166,0.40531,1.49932,0.15899,0.44393,1.53443,-0.19678,0.64685,1.30923,0.29093,0.35647,1.26767,-0.02572,0.73634,1.50292,0.44317,0.31505,1.05114
762,-0.02522,0.44385,1.58711,0.2132,0.62294,0.12612,0.66073,0.96505,0.73442,0.08568,0.63618,0.53168,0.3219,1.03491,0.98383,0.06547,0.54941,0.96928,0.21242,0.61581,1.06022,-0.17099,0.40732,1.49792,0.16022,0.44556,1.53169,-0.20248,0.6392,1.29705,0.29126,0.36766,1.26155,-0.03602,0.74122,1.48854,0.44355,0.34047,1.04281
763,-0.02438,0.4463,1.58707,0.21117,0.62052,0.12619,0.65613,0.93231,0.69942,0.08266,0.63749,0.5313,0.33326,1.02485,0.96224,0.06178,0.54935,0.96859,0.21234,0.61245,1.05591,-0.17131,0.40956,1.49661,0.16167,0.44731,1.52928,-0.20753,0.63134,1.2854,0.29094,0.37879,1.25576,-0.04623,0.74578,1.47426,0.44324,0.36638,1.0357
764,-0.02321,0.44879,1.58704,0.20919,0.61862,0.12607,0.64924,0.8989,0.66471,0.07986,0.63905,0.53076,0.34493,1.01313,0.9408,0.05835,0.54946,0.96773,0.2122,0.60877,1.0519,-0.17236,0.41214,1.49555,0.16338,0.44883,1.5271,-0.21251,0.62335,1.27445,0.29048,0.38978,1.25038,-0.05694,0.75003,1.46029,0.44246,0.39268,1.02976
765,-0.02172,0.45133,1.58683,0.20733,0.6171,0.12589,0.64055,0.86531,0.62999,0.07755,0.64082,0.53025,0.35728,0.99947,0.91919,0.05489,0.54992,0.96689,0.21204,0.60476,1.04794,-0.17323,0.41471,1.49501,0.16525,0.45,1.52517,-0.21836,0.61492,1.26481,0.2904,0.40093,1.24562,-0.06861,0.75403,1.44648,0.44136,0.41953,1.02507
766,-0.02015,0.45383,1.58639,0.20561,0.61556,0.12557,0.63025,0.83181,0.59567,0.07589,0.64255,0.52976,0.36989,0.98419,0.89713,0.05147,0.55097,0.96616,0.21201,0.60074,1.04377,-0.17323,0.417,1.495,0.16705,0.4509,1.52346,-0.22519,0.60612,1.257,0.29083,0.41235,1.24167,-0.08092,0.75803,1.43276,0.43991,0.44715,1.0218
767,-0.01885,0.45624,1.58579,0.20394,0.61356,0.12496,0.61829,0.79862,0.56271,0.07487,0.64395,0.52911,0.38168,0.96789,0.87455,0.04831,0.5524,0.9654,0.2121,0.59699,1.03927,-0.17237,0.41922,1.49525,0.16847,0.4518,1.52183,-0.23213,0.59762,1.25089,0.29149,0.42377,1.23846,-0.09312,0.76202,1.41951,0.43795,0.47563,1.0202
768,-0.01777,0.45854,1.58509,0.20235,0.61098,0.12409,0.60462,0.76557,0.53163,0.07442,0.64493,0.52832,0.39175,0.95066,0.85149,0.04535,0.55357,0.96448,0.21204,0.59334,1.03451,-0.17112,0.42189,1.49543,0.16931,0.45306,1.52008,-0.23838,0.58981,1.24566,0.29196,0.43482,1.23575,-0.10485,0.76558,1.40708,0.43516,0.50478,1.02039
769,-0.01654,0.46076,1.5843,0.20089,0.60807,0.12322,0.58909,0.73231,0.50234,0.07436,0.64566,0.52757,0.39991,0.93215,0.82816,0.04247,0.55404,0.96348,0.2117,0.58945,1.02965,-0.16992,0.42529,1.49544,0.16976,0.45484,1.51821,-0.24398,0.58246,1.24064,0.29202,0.44534,1.23329,-0.11625,0.76821,1.39545,0.43127,0.53404,1.02229
770,-0.01499,0.46313,1.58343,0.19963,0.60534,0.12254,0.57173,0.69911,0.47474,0.07443,0.64642,0.52696,0.40657,0.91238,0.80507,0.03984,0.55399,0.9625,0.21132,0.58522,1.02487,-0.16898,0.42921,1.49545,0.17036,0.45692,1.51648,-0.24932,0.57521,1.23596,0.29188,0.45537,1.23109,-0.12764,0.76991,1.38451,0.42641,0.56262,1.02572
771,-0.01344,0.46596,1.58239,0.19869,0.60319,0.122,0.55335,0.6669,0.44902,0.07441,0.64732,0.52638,0.41214,0.89188,0.78267,0.03791,0.5539,0.96155,0.21133,0.58101,1.02037,-0.16836,0.43306,1.49562,0.17139,0.45888,1.51513,-0.25448,0.56814,1.2321,0.29198,0.46503,1.22941,-0.13906,0.77106,1.37452,0.42107,0.59001,1.03068
772,-0.01212,0.46923,1.58116,0.19816,0.60171,0.12137,0.53507,0.63638,0.42532,0.0743,0.64813,0.52563,0.41687,0.87108,0.76121,0.03685,0.55405,0.96057,0.21187,0.57719,1.01629,-0.16806,0.43642,1.49584,0.17257,0.46044,1.51424,-0.25918,0.56162,1.22914,0.29254,0.47436,1.22852,-0.15028,0.77196,1.36583,0.41542,0.61622,1.03734
773,-0.01087,0.47261,1.57986,0.19805,0.60073,0.12053,0.51735,0.60761,0.4036,0.07429,0.64865,0.52464,0.42083,0.85009,0.7409,0.03642,0.55439,0.95951,0.21271,0.57382,1.01259,-0.1679,0.43945,1.49576,0.17362,0.46161,1.51371,-0.26314,0.55602,1.2266,0.29335,0.48319,1.22838,-0.16095,0.77268,1.3585,0.40904,0.64144,1.04576
774,-0.00941,0.47581,1.57856,0.19835,0.59998,0.11944,0.49984,0.58019,0.38376,0.07456,0.64896,0.52341,0.4238,0.82884,0.72181,0.03617,0.55482,0.95826,0.21349,0.57056,1.00908,-0.1675,0.44268,1.49527,0.17466,0.46271,1.5134,-0.26619,0.5516,1.22415,0.29419,0.49131,1.22859,-0.17058,0.77337,1.35245,0.4014,0.66569,1.05575
775,-0.00786,0.47874,1.57717,0.19901,0.59917,0.11811,0.48203,0.5535,0.36579,0.07516,0.64928,0.52192,0.42532,0.80734,0.70376,0.03577,0.55526,0.95671,0.21394,0.56712,1.00556,-0.16659,0.44645,1.49458,0.17592,0.46409,1.51311,-0.26825,0.54859,1.22192,0.29519,0.49865,1.22886,-0.17853,0.77427,1.34764,0.39235,0.68876,1.06701
776,-0.00647,0.48146,1.57557,0.19984,0.59813,0.11653,0.46379,0.52693,0.34964,0.07607,0.64964,0.5202,0.42508,0.78568,0.68643,0.03506,0.55561,0.95483,0.21394,0.56347,1.00189,-0.16528,0.45064,1.4939,0.17735,0.46581,1.51273,-0.26954,0.54715,1.22017,0.29664,0.50542,1.22915,-0.18439,0.77551,1.3442,0.38208,0.7106,1.07955
777,-0.00526,0.48411,1.57383,0.20059,0.59684,0.11476,0.44544,0.50015,0.33527,0.07725,0.64979,0.51836,0.4232,0.76392,0.66966,0.03404,0.55565,0.95277,0.21351,0.55974,0.998,-0.16392,0.45489,1.49326,0.17878,0.4677,1.51227,-0.2705,0.54721,1.21898,0.29855,0.51205,1.22959,-0.18839,0.77703,1.34238,0.37086,0.73131,1.09368
778,-0.00396,0.4868,1.57213,0.20113,0.59537,0.11285,0.4273,0.47325,0.3226,0.0786,0.64939,0.51656,0.42003,0.74203,0.65364,0.03298,0.55509,0.95068,0.21295,0.5558,0.99407,-0.16269,0.45889,1.49256,0.18024,0.46953,1.51174,-0.27139,0.54856,1.21825,0.30077,0.51902,1.23025,-0.19117,0.7787,1.34228,0.35927,0.75098,1.10963
779,-0.00237,0.48946,1.57069,0.20147,0.59379,0.11088,0.40955,0.44663,0.31146,0.08,0.64835,0.51484,0.41579,0.72003,0.63871,0.03229,0.55367,0.94865,0.21263,0.55127,0.99043,-0.16149,0.4625,1.49168,0.18186,0.47124,1.51106,-0.27207,0.551,1.21773,0.30334,0.52653,1.23106,-0.19314,0.78056,1.34365,0.34808,0.76942,1.12724
780,-0.00055,0.49202,1.5695,0.20171,0.59216,0.10895,0.39226,0.42072,0.30153,0.08143,0.64689,0.51324,0.41059,0.69807,0.62499,0.03213,0.55144,0.9467,0.2127,0.54602,0.98719,-0.16005,0.4658,1.49058,0.18377,0.47286,1.51005,-0.27223,0.55431,1.21728,0.30654,0.53442,1.23192,-0.19428,0.7827,1.3459,0.33752,0.78629,1.14602
781,0.00125,0.49461,1.56838,0.20201,0.59054,0.10711,0.3756,0.39566,0.29249,0.08307,0.64524,0.5118,0.40465,0.6763,0.61231,0.03235,0.54882,0.94489,0.21306,0.54036,0.98417,-0.15828,0.46903,1.48948,0.18612,0.47449,1.50871,-0.27168,0.55822,1.21691,0.31047,0.54248,1.23278,-0.19443,0.78506,1.34866,0.32698,0.80128,1.16549
782,0.00275,0.49742,1.56717,0.20254,0.58904,0.1054,0.35965,0.37143,0.28412,0.08493,0.64351,0.51052,0.3984,0.65476,0.60052,0.03266,0.54635,0.94325,0.2135,0.53458,0.98109,-0.15621,0.47245,1.48866,0.18888,0.47605,1.50723,-0.27032,0.56239,1.21664,0.31465,0.55057,1.23365,-0.19375,0.78741,1.35185,0.31596,0.81411,1.18542
783,0.00393,0.50038,1.5658,0.20334,0.58778,0.10386,0.34431,0.34817,0.27631,0.08684,0.64182,0.50936,0.39209,0.63342,0.58972,0.03283,0.54434,0.94181,0.21373,0.52866,0.97789,-0.15387,0.4763,1.48814,0.19163,0.4773,1.50588,-0.26827,0.56668,1.21638,0.31838,0.55855,1.23468,-0.1926,0.7896,1.35553,0.30481,0.82455,1.20574
784,0.00495,0.50335,1.56426,0.20433,0.58691,0.10249,0.32927,0.3261,0.26898,0.08855,0.64041,0.50826,0.38569,0.6123,0.58009,0.03267,0.54277,0.94043,0.21347,0.52255,0.97474,-0.15134,0.48072,1.48759,0.19386,0.47811,1.5049,-0.26582,0.57138,1.21596,0.32132,0.56614,1.23615,-0.19107,0.79175,1.35961,0.2941,0.83248,1.22631
785,0.00607,0.5063,1.5626,0.2053,0.58639,0.10117,0.31426,0.30533,0.26218,0.08993,0.63938,0.50712,0.37906,0.59154,0.57164,0.03219,0.54139,0.93898,0.21266,0.51642,0.9718,-0.14888,0.48553,1.48653,0.19533,0.47852,1.50437,-0.26341,0.57699,1.21518,0.32353,0.57323,1.23827,-0.18896,0.79408,1.36389,0.28378,0.83805,1.24658
786,0.00745,0.50921,1.561,0.20607,0.58605,0.09982,0.29928,0.28583,0.25594,0.09084,0.63844,0.5059,0.37224,0.57137,0.56421,0.03154,0.53996,0.93743,0.21154,0.51054,0.96911,-0.14679,0.49019,1.48461,0.19613,0.47861,1.50425,-0.26131,0.58359,1.21393,0.32519,0.57993,1.241,-0.18615,0.7966,1.36808,0.27349,0.84162,1.26596
787,0.00915,0.51183,1.55971,0.20655,0.58577,0.09855,0.28459,0.26748,0.25011,0.09121,0.63718,0.50471,0.36512,0.55183,0.55759,0.03086,0.53825,0.93599,0.2104,0.5051,0.96666,-0.14502,0.49409,1.4821,0.19657,0.47843,1.50438,-0.25924,0.59056,1.21236,0.32642,0.58631,1.24415,-0.18279,0.799,1.37203,0.26323,0.84357,1.28416
788,0.01115,0.51404,1.55876,0.20679,0.58544,0.09755,0.27047,0.24997,0.24437,0.09122,0.63565,0.5038,0.35737,0.53266,0.55164,0.03018,0.53603,0.93483,0.20931,0.49995,0.96453,-0.1432,0.49719,1.47979,0.19705,0.47799,1.50458,-0.25661,0.5971,1.21097,0.32746,0.59239,1.24744,-0.17916,0.80104,1.37588,0.25355,0.84424,1.30118
789,0.01333,0.51606,1.55787,0.20679,0.5849,0.09692,0.25677,0.23308,0.23849,0.09122,0.63428,0.50327,0.34876,0.51354,0.54633,0.02947,0.53331,0.93388,0.2082,0.4946,0.96268,-0.14099,0.50014,1.47831,0.19795,0.47728,1.50469,-0.25319,0.60307,1.21012,0.32866,0.59817,1.25069,-0.17539,0.8028,1.37994,0.24505,0.84387,1.31715
790,0.01561,0.51815,1.55681,0.2065,0.58422,0.0965,0.24305,0.21697,0.23245,0.09135,0.63332,0.50301,0.33945,0.49458,0.54151,0.02887,0.53036,0.93304,0.20707,0.48866,0.96092,-0.13849,0.50362,1.47763,0.19941,0.47624,1.50469,-0.24918,0.60891,1.20972,0.33015,0.60353,1.25384,-0.17138,0.80448,1.38432,0.23791,0.84255,1.33221
791,0.01795,0.52026,1.5557,0.20589,0.58361,0.09604,0.22922,0.20212,0.22628,0.09147,0.63252,0.50278,0.32996,0.47634,0.53698,0.02853,0.52747,0.93224,0.20606,0.48228,0.95897,-0.13594,0.50771,1.47733,0.20119,0.47481,1.50457,-0.2448,0.61518,1.20955,0.33166,0.60832,1.25684,-0.16659,0.8064,1.38872,0.23186,0.84025,1.34643
792,0.02031,0.52213,1.55481,0.20508,0.58301,0.09547,0.21589,0.18882,0.21996,0.09134,0.63158,0.50244,0.32078,0.45925,0.5326,0.02852,0.52457,0.93143,0.20533,0.47587,0.9567,-0.13346,0.51207,1.4771,0.203,0.47315,1.50442,-0.24013,0.62205,1.20945,0.33272,0.61253,1.25955,-0.1604,0.80871,1.39272,0.2265,0.83705,1.35996
793,0.02272,0.52362,1.55418,0.20424,0.58217,0.09493,0.20372,0.17695,0.21343,0.09094,0.63052,0.50205,0.31208,0.44306,0.52859,0.02874,0.5214,0.9306,0.2049,0.46966,0.95434,-0.13118,0.51637,1.47679,0.20476,0.47153,1.5044,-0.23531,0.62915,1.20931,0.33295,0.61622,1.26181,-0.1532,0.81112,1.39621,0.22143,0.83282,1.37328
794,0.0252,0.52473,1.55365,0.20342,0.58116,0.09468,0.19286,0.16615,0.20672,0.09039,0.62955,0.50186,0.30365,0.42718,0.52526,0.02908,0.51779,0.92986,0.20461,0.46339,0.95228,-0.1293,0.52029,1.47634,0.20646,0.46989,1.50468,-0.23049,0.63579,1.20889,0.33225,0.61924,1.26366,-0.14624,0.81304,1.39933,0.21655,0.82718,1.38674
795,0.02766,0.52551,1.55309,0.20257,0.58037,0.09484,0.18286,0.15629,0.19992,0.08976,0.62886,0.50207,0.29513,0.41135,0.52276,0.02936,0.51381,0.92933,0.20415,0.45669,0.9507,-0.12791,0.5236,1.47579,0.20791,0.46782,1.50525,-0.22548,0.64173,1.20814,0.33091,0.62121,1.26533,-0.14004,0.81448,1.40215,0.21212,0.82014,1.39982
796,0.02994,0.52603,1.55242,0.20167,0.57994,0.09539,0.17323,0.1475,0.19311,0.08911,0.62846,0.50269,0.28617,0.39585,0.5209,0.02938,0.50977,0.92904,0.20322,0.44948,0.94952,-0.12669,0.52645,1.47525,0.20887,0.46499,1.50598,-0.21987,0.64743,1.20731,0.32953,0.62182,1.2671,-0.13378,0.81609,1.40461,0.20857,0.81244,1.41137
797,0.03209,0.52639,1.55163,0.20074,0.57967,0.09619,0.164,0.13973,0.18635,0.08841,0.62816,0.50356,0.27648,0.38114,0.51944,0.02905,0.50591,0.92896,0.20174,0.44215,0.94858,-0.12522,0.52918,1.4748,0.20929,0.46162,1.50679,-0.21362,0.65332,1.20669,0.32871,0.62108,1.26904,-0.12657,0.81811,1.40682,0.20634,0.80491,1.42073
798,0.03434,0.52663,1.55078,0.19967,0.57933,0.09706,0.15537,0.1327,0.17964,0.08766,0.62771,0.50453,0.26602,0.36738,0.51811,0.02846,0.5022,0.929,0.20003,0.43521,0.94765,-0.12337,0.53191,1.47441,0.20938,0.45809,1.50761,-0.20713,0.65926,1.20632,0.32861,0.61924,1.27089,-0.11868,0.82003,1.40908,0.20551,0.79783,1.42816
799,0.03674,0.52666,1.54998,0.19833,0.57886,0.09783,0.14724,0.12627,0.17292,0.08703,0.62711,0.50551,0.25507,0.35449,0.51668,0.02781,0.49845,0.92903,0.19843,0.42875,0.94649,-0.12128,0.53442,1.47392,0.20937,0.45436,1.50826,-0.20073,0.66483,1.20599,0.32879,0.61665,1.27242,-0.11105,0.82134,1.41152,0.20551,0.791,1.43423
800,0.03907,0.5263,1.54918,0.19674,0.57818,0.09847,0.13938,0.12056,0.16621,0.08669,0.62666,0.50646,0.24415,0.34233,0.5151,0.02724,0.49452,0.92888,0.19696,0.42235,0.94502,-0.11916,0.53643,1.47319,0.20941,0.45025,1.5085,-0.19445,0.6697,1.20546,0.32869,0.61376,1.27344,-0.10439,0.82182,1.4141,0.20537,0.7842,1.43933
801,0.04115,0.5254,1.54824,0.19496,0.57726,0.09894,0.13176,0.11569,0.15962,0.08669,0.62646,0.50732,0.23366,0.33089,0.51344,0.02676,0.49037,0.92841,0.19541,0.4155,0.94337,-0.11693,0.53799,1.47217,0.20971,0.4458,1.50813,-0.18838,0.67371,1.20462,0.32811,0.61107,1.27385,-0.09861,0.82133,1.4166,0.20471,0.7774,1.4438
802,0.04312,0.52408,1.54703,0.19301,0.57628,0.09923,0.12452,0.11166,0.15328,0.08681,0.62629,0.50806,0.22387,0.3202,0.51177,0.02631,0.48604,0.9277,0.19369,0.40818,0.94167,-0.11424,0.53943,1.47107,0.21039,0.44119,1.50718,-0.18281,0.67687,1.20365,0.32734,0.60862,1.27371,-0.09294,0.8198,1.41877,0.20397,0.77063,1.44781
803,0.04527,0.52263,1.54552,0.19095,0.57559,0.09943,0.11777,0.10846,0.14715,0.08689,0.62586,0.50877,0.21487,0.31027,0.51009,0.02583,0.48165,0.92699,0.19185,0.40075,0.93992,-0.1108,0.5411,1.47013,0.21119,0.43634,1.50596,-0.17802,0.67942,1.20282,0.32689,0.60582,1.27335,-0.08683,0.81766,1.42044,0.20366,0.7639,1.45112
804,0.04768,0.52119,1.54385,0.18904,0.57531,0.09969,0.11149,0.10611,0.14121,0.08698,0.62511,0.50959,0.20657,0.30107,0.5084,0.0253,0.47738,0.92649,0.18989,0.39344,0.93812,-0.10694,0.54297,1.46936,0.21168,0.43111,1.50476,-0.17385,0.68173,1.2022,0.32713,0.60208,1.27311,-0.08044,0.81546,1.42168,0.20385,0.75736,1.45331
805,0.05017,0.51964,1.54224,0.18763,0.57517,0.09999,0.10555,0.10445,0.13552,0.08723,0.62405,0.51042,0.19874,0.2924,0.50683,0.02469,0.47329,0.9261,0.1877,0.38615,0.93643,-0.10333,0.54461,1.46852,0.21181,0.42547,1.50371,-0.16983,0.68413,1.20165,0.32782,0.59732,1.273,-0.0741,0.81345,1.42277,0.20452,0.75112,1.45444
806,0.05257,0.51783,1.54071,0.18686,0.57487,0.10013,0.09987,0.10336,0.13013,0.08766,0.62268,0.51097,0.19126,0.28402,0.50548,0.024,0.4693,0.92553,0.18516,0.37869,0.93498,-0.10041,0.54561,1.4673,0.21184,0.41952,1.50284,-0.16551,0.68686,1.20099,0.32841,0.59185,1.27277,-0.06769,0.81157,1.42384,0.20572,0.74505,1.45513
807,0.05501,0.51573,1.53911,0.18666,0.57443,0.09998,0.09446,0.10276,0.12495,0.08821,0.62105,0.51114,0.1842,0.27589,0.50423,0.02317,0.46526,0.92458,0.18228,0.37106,0.93365,-0.09817,0.54583,1.46561,0.21185,0.41329,1.50204,-0.16074,0.68994,1.20023,0.32858,0.58592,1.27228,-0.06107,0.8099,1.42487,0.20737,0.73887,1.45583
808,0.05767,0.5134,1.53737,0.18683,0.57416,0.09961,0.08939,0.10257,0.11983,0.08901,0.61931,0.51108,0.17757,0.26823,0.5028,0.02218,0.46119,0.92335,0.1792,0.36353,0.93219,-0.09629,0.54552,1.46369,0.21163,0.40673,1.50111,-0.15575,0.69296,1.19943,0.32852,0.57961,1.27161,-0.05443,0.80852,1.42562,0.20916,0.73247,1.45644
809,0.06038,0.51086,1.53559,0.18719,0.57412,0.09915,0.08474,0.10266,0.11475,0.09021,0.61759,0.51101,0.17128,0.26127,0.50106,0.02118,0.45732,0.92208,0.17612,0.35635,0.93048,-0.09419,0.54514,1.46186,0.21093,0.39989,1.49978,-0.15085,0.69517,1.19844,0.32864,0.57295,1.27084,-0.04815,0.80712,1.42583,0.21094,0.72598,1.45659
810,0.06276,0.50805,1.53389,0.18758,0.57402,0.09867,0.08062,0.10284,0.10975,0.09173,0.61593,0.51095,0.1651,0.25514,0.49904,0.02034,0.45385,0.92091,0.17314,0.34961,0.92855,-0.09143,0.54503,1.46017,0.20975,0.39299,1.49791,-0.14613,0.69624,1.19701,0.32926,0.56603,1.26989,-0.04241,0.80516,1.42541,0.21279,0.71941,1.45614
811,0.06462,0.5049,1.53226,0.18798,0.57358,0.09813,0.07704,0.10284,0.10493,0.09332,0.61424,0.51081,0.15899,0.24971,0.49684,0.01962,0.45072,0.91979,0.17017,0.34319,0.9265,-0.08806,0.54517,1.45851,0.20829,0.38625,1.49567,-0.14149,0.69657,1.1952,0.33014,0.55884,1.26855,-0.03688,0.80241,1.42463,0.21482,0.71248,1.45529
812,0.0662,0.50129,1.5306,0.18836,0.57282,0.09747,0.07389,0.10256,0.1004,0.09494,0.61233,0.51054,0.1532,0.24467,0.4946,0.01882,0.44756,0.91857,0.16705,0.33681,0.92447,-0.08453,0.54521,1.45686,0.2068,0.37966,1.49338,-0.13685,0.69685,1.19347,0.33071,0.55112,1.26652,-0.031,0.79925,1.4239,0.21706,0.70474,1.45429
813,0.06776,0.49714,1.52896,0.18867,0.57197,0.09666,0.07106,0.10217,0.09622,0.09671,0.60996,0.5102,0.14811,0.23966,0.4925,0.0178,0.44392,0.91718,0.16383,0.33026,0.92263,-0.08119,0.54476,1.45526,0.20541,0.37299,1.49123,-0.132,0.69731,1.1921,0.33079,0.54269,1.26385,-0.02463,0.79612,1.42338,0.21938,0.69609,1.45315
814,0.0694,0.49236,1.52743,0.18889,0.57115,0.09578,0.06856,0.10193,0.09237,0.09866,0.60713,0.50988,0.14383,0.23455,0.49065,0.01663,0.43979,0.91572,0.1607,0.32365,0.92105,-0.07822,0.54368,1.45366,0.20424,0.36605,1.48913,-0.12668,0.69759,1.19085,0.33092,0.53382,1.26105,-0.01822,0.79307,1.42303,0.22156,0.68695,1.45175
815,0.0711,0.4872,1.52599,0.18903,0.57041,0.09495,0.06649,0.10183,0.08884,0.10068,0.60406,0.50965,0.14014,0.22942,0.48906,0.01556,0.43553,0.91436,0.1579,0.31728,0.91968,-0.07578,0.54207,1.45207,0.2034,0.35886,1.48697,-0.12105,0.69724,1.18942,0.33162,0.52506,1.25861,-0.01228,0.78981,1.42263,0.22354,0.67809,1.45012
816,0.07284,0.48216,1.52455,0.18907,0.56994,0.0942,0.06493,0.10167,0.08566,0.10246,0.60105,0.50947,0.13685,0.22452,0.48768,0.01478,0.43145,0.91318,0.15551,0.31128,0.91848,-0.07386,0.54016,1.45067,0.2028,0.35156,1.48482,-0.11583,0.69615,1.18797,0.33274,0.51659,1.25656,-0.00683,0.7863,1.42201,0.22565,0.66984,1.44845
817,0.07452,0.47752,1.52311,0.18912,0.56976,0.09358,0.06374,0.10131,0.08294,0.1038,0.59824,0.5093,0.13391,0.22002,0.4865,0.01421,0.42754,0.91213,0.15335,0.30554,0.91752,-0.07204,0.53803,1.44962,0.20217,0.34419,1.48285,-0.11163,0.69455,1.18685,0.33378,0.50801,1.25468,-0.00158,0.7828,1.42112,0.2282,0.66191,1.44689
818,0.07602,0.47311,1.52177,0.18932,0.56956,0.09319,0.06277,0.10068,0.08072,0.10463,0.5956,0.50921,0.13144,0.21581,0.48558,0.01354,0.42369,0.91118,0.1511,0.29992,0.91686,-0.06986,0.53564,1.44873,0.20125,0.33669,1.48123,-0.10829,0.69276,1.18616,0.33453,0.49888,1.25288,0.00373,0.77934,1.42012,0.23112,0.65381,1.44545
819,0.07719,0.46855,1.52065,0.18964,0.56926,0.09305,0.06192,0.09969,0.07912,0.10506,0.59303,0.50923,0.12953,0.21168,0.48503,0.01265,0.4197,0.91028,0.14877,0.29438,0.91661,-0.06738,0.53281,1.44771,0.20002,0.32904,1.48008,-0.10502,0.69091,1.18561,0.33511,0.48921,1.25135,0.0091,0.77568,1.41922,0.23402,0.64544,1.44409
820,0.07803,0.46369,1.51985,0.18984,0.56905,0.09297,0.06131,0.09838,0.07822,0.10521,0.59036,0.50926,0.12818,0.20758,0.48501,0.01177,0.41537,0.90936,0.14675,0.2889,0.91688,-0.0652,0.52946,1.44658,0.19867,0.32128,1.47934,-0.10114,0.68872,1.18494,0.3358,0.47918,1.25026,0.01435,0.77167,1.41853,0.2366,0.63695,1.44273
821,0.07883,0.45856,1.51946,0.18981,0.56886,0.09273,0.0611,0.09711,0.07796,0.10525,0.58737,0.50918,0.12736,0.20362,0.48557,0.01126,0.41077,0.90844,0.14532,0.28343,0.91774,-0.06383,0.5258,1.44579,0.1972,0.31335,1.47896,-0.09667,0.68576,1.18418,0.33672,0.46871,1.24958,0.01929,0.76738,1.41801,0.23883,0.62827,1.44124
822,0.0799,0.45325,1.51953,0.18966,0.5686,0.0924,0.06129,0.0963,0.07811,0.10528,0.58392,0.50901,0.12707,0.19989,0.48655,0.01127,0.40623,0.90778,0.14435,0.27804,0.91905,-0.06318,0.52232,1.44588,0.19543,0.30531,1.47907,-0.09212,0.68188,1.18356,0.33766,0.45737,1.24915,0.02383,0.7629,1.4176,0.24094,0.61915,1.43954
823,0.08126,0.44779,1.5201,0.18952,0.5684,0.09226,0.06159,0.09591,0.07839,0.10522,0.58024,0.509,0.12715,0.19632,0.48766,0.01162,0.40214,0.90768,0.14356,0.27291,0.92048,-0.06265,0.51924,1.44695,0.1932,0.29735,1.47985,-0.08787,0.67726,1.18332,0.33814,0.44513,1.24883,0.02809,0.7583,1.41735,0.24303,0.60954,1.43778
824,0.08247,0.44225,1.52113,0.1893,0.56836,0.09258,0.06176,0.09552,0.07865,0.10481,0.57669,0.50936,0.12728,0.19285,0.48867,0.01199,0.39858,0.90823,0.1427,0.26818,0.92175,-0.06179,0.51631,1.44857,0.19075,0.28972,1.48116,-0.08409,0.67221,1.18342,0.33794,0.43276,1.24858,0.03213,0.75354,1.41723,0.24497,0.59983,1.43626
825,0.08311,0.43673,1.52235,0.18889,0.5684,0.09332,0.06175,0.09492,0.07883,0.10401,0.57343,0.51008,0.12717,0.18949,0.48951,0.01213,0.39546,0.90923,0.14153,0.26377,0.9228,-0.06066,0.51309,1.4502,0.18843,0.28251,1.48258,-0.08088,0.66691,1.18367,0.33738,0.42111,1.24845,0.03578,0.74838,1.4172,0.24674,0.5904,1.43527
826,0.08315,0.43127,1.52346,0.18832,0.56831,0.09425,0.06167,0.09428,0.07892,0.10305,0.57037,0.51095,0.12669,0.18644,0.49021,0.01198,0.39257,0.91035,0.13995,0.25947,0.92375,-0.05957,0.50946,1.45155,0.18645,0.27574,1.48375,-0.07837,0.66139,1.18384,0.33704,0.4104,1.24837,0.03877,0.74245,1.41727,0.24857,0.58126,1.43479
827,0.08282,0.42592,1.5243,0.18763,0.56789,0.09517,0.06159,0.09391,0.07896,0.10223,0.56743,0.51185,0.12584,0.18392,0.49085,0.01163,0.38951,0.91131,0.13819,0.25506,0.92472,-0.05871,0.50554,1.45265,0.18474,0.26945,1.48455,-0.07646,0.65565,1.18384,0.33706,0.40033,1.24815,0.04104,0.73576,1.41743,0.25066,0.57223,1.43459
828,0.0823,0.42067,1.52487,0.18681,0.56711,0.09606,0.0615,0.09392,0.07905,0.10157,0.56462,0.51277,0.12481,0.18193,0.49152,0.01116,0.38585,0.91189,0.13662,0.25044,0.92584,-0.0582,0.50139,1.4536,0.18311,0.26352,1.48504,-0.07488,0.64974,1.18374,0.33708,0.39068,1.24768,0.04289,0.72891,1.4175,0.25284,0.56333,1.43442
829,0.0818,0.41539,1.52527,0.18572,0.56621,0.09695,0.06136,0.09418,0.07927,0.10087,0.56189,0.51373,0.1238,0.18027,0.49228,0.01059,0.38151,0.91216,0.13551,0.2457,0.92707,-0.05809,0.49697,1.45442,0.18147,0.25753,1.48542,-0.07335,0.64373,1.18361,0.33674,0.38135,1.24714,0.04467,0.72265,1.41734,0.25469,0.55468,1.43422
830,0.08166,0.40979,1.52552,0.18423,0.56544,0.09784,0.06114,0.0944,0.07959,0.09993,0.55919,0.5147,0.12289,0.17872,0.49307,0.00997,0.37688,0.91233,0.13479,0.2411,0.9283,-0.05817,0.49229,1.45501,0.17983,0.25105,1.48587,-0.07167,0.63783,1.18345,0.33605,0.37222,1.24685,0.04646,0.71718,1.41697,0.25603,0.5463,1.43412
831,0.08207,0.40374,1.52565,0.18245,0.56476,0.09867,0.06083,0.09444,0.07989,0.0988,0.55641,0.51562,0.12203,0.17714,0.49377,0.00938,0.37253,0.91264,0.13421,0.23685,0.92937,-0.05819,0.48753,1.4553,0.17823,0.24415,1.48641,-0.06975,0.63225,1.18321,0.33522,0.36329,1.24687,0.04813,0.71211,1.41668,0.25698,0.5381,1.43422
832,0.08278,0.3974,1.52575,0.18071,0.56399,0.09932,0.06048,0.09434,0.08006,0.09766,0.55344,0.51635,0.12122,0.17548,0.49432,0.00897,0.36878,0.91317,0.13367,0.23301,0.93021,-0.05808,0.4828,1.45544,0.17665,0.2372,1.48683,-0.06775,0.62698,1.18299,0.33439,0.35471,1.24699,0.0496,0.707,1.41669,0.25776,0.53002,1.43454
833,0.08334,0.39106,1.5259,0.17922,0.56302,0.09978,0.06014,0.0943,0.0801,0.09654,0.55031,0.51682,0.12048,0.17369,0.49476,0.0088,0.36546,0.91376,0.1332,0.22943,0.93087,-0.05794,0.47802,1.45567,0.17509,0.2304,1.48691,-0.06607,0.62178,1.18295,0.33357,0.34662,1.24692,0.05083,0.70156,1.41694,0.25851,0.52206,1.43497
834,0.08347,0.38489,1.52611,0.1779,0.56195,0.10018,0.05985,0.09438,0.08007,0.09527,0.54725,0.51716,0.11978,0.17175,0.49516,0.00874,0.36221,0.91428,0.13282,0.2259,0.93147,-0.05789,0.4732,1.45612,0.17377,0.22377,1.48677,-0.06513,0.61628,1.18302,0.33281,0.3389,1.24663,0.0517,0.69569,1.41718,0.25925,0.51426,1.43535
835,0.08328,0.37902,1.52636,0.17656,0.56112,0.10075,0.05964,0.09447,0.08001,0.09381,0.54446,0.51763,0.11911,0.16969,0.49556,0.0086,0.35884,0.91477,0.13242,0.22231,0.93205,-0.05788,0.46834,1.45668,0.1728,0.21749,1.48679,-0.06496,0.61025,1.18296,0.33209,0.33141,1.24623,0.05188,0.68935,1.41722,0.2599,0.50659,1.43565
836,0.08306,0.37347,1.52667,0.17528,0.56076,0.10155,0.0595,0.0944,0.07993,0.0924,0.54195,0.51832,0.11858,0.16749,0.49593,0.00826,0.35547,0.91528,0.13188,0.21875,0.93257,-0.05774,0.46329,1.45713,0.17201,0.21168,1.48708,-0.06527,0.60374,1.18268,0.33139,0.32415,1.24591,0.05142,0.68274,1.41705,0.26029,0.49891,1.43612
837,0.08304,0.36814,1.52706,0.17422,0.56074,0.10244,0.05949,0.0941,0.07987,0.0913,0.53954,0.51908,0.11833,0.16512,0.49625,0.00777,0.35226,0.9158,0.13121,0.21537,0.93303,-0.05739,0.45793,1.45747,0.17105,0.20614,1.4874,-0.06571,0.59712,1.1824,0.33079,0.31713,1.24577,0.05082,0.6762,1.41681,0.26039,0.4911,1.43697
838,0.08324,0.36278,1.52746,0.17345,0.56076,0.10322,0.05962,0.09354,0.07988,0.09046,0.53709,0.51971,0.11841,0.16273,0.49658,0.00726,0.34917,0.9162,0.13053,0.21214,0.93348,-0.05701,0.45244,1.45786,0.16988,0.20055,1.48748,-0.0661,0.59087,1.18243,0.33036,0.31029,1.24577,0.05068,0.67003,1.41669,0.26036,0.48312,1.43814
839,0.08354,0.35716,1.52772,0.17293,0.56062,0.10385,0.05983,0.09271,0.07996,0.08956,0.53468,0.52014,0.11862,0.16057,0.49688,0.00688,0.3461,0.91641,0.13004,0.209,0.9339,-0.05685,0.4471,1.45838,0.16885,0.19482,1.48739,-0.06631,0.58527,1.18283,0.3301,0.30361,1.24577,0.05122,0.66434,1.41675,0.26025,0.47523,1.43927
840,0.08396,0.35123,1.52774,0.17254,0.5604,0.10443,0.05992,0.09181,0.08,0.08838,0.53252,0.52043,0.11879,0.15877,0.49706,0.0066,0.34305,0.91646,0.12979,0.206,0.93422,-0.05695,0.44209,1.45899,0.16821,0.18907,1.48738,-0.06621,0.58031,1.18346,0.32997,0.29709,1.24575,0.05235,0.65903,1.41698,0.25993,0.46776,1.44003
841,0.08454,0.34515,1.52761,0.17211,0.56026,0.10501,0.05977,0.09117,0.07992,0.08702,0.53074,0.52071,0.11881,0.15715,0.49711,0.00633,0.34009,0.91641,0.12959,0.20314,0.93441,-0.05715,0.43736,1.45965,0.16781,0.18348,1.48754,-0.06582,0.57573,1.18418,0.32987,0.29075,1.24578,0.05375,0.65387,1.41738,0.25935,0.46082,1.44042
842,0.08516,0.33918,1.52754,0.1716,0.56032,0.10561,0.05942,0.09095,0.07978,0.08587,0.52931,0.52107,0.11869,0.15547,0.49716,0.00602,0.33729,0.91627,0.12928,0.20037,0.93458,-0.0573,0.4327,1.46041,0.16728,0.17817,1.48771,-0.06539,0.57121,1.18499,0.32964,0.28468,1.24582,0.05488,0.64868,1.41805,0.25861,0.45415,1.44079
843,0.08545,0.33355,1.5277,0.17106,0.56055,0.10625,0.05903,0.09102,0.07969,0.08517,0.52804,0.52156,0.11851,0.1538,0.49731,0.00563,0.33461,0.91613,0.12883,0.1977,0.93483,-0.05748,0.42783,1.46125,0.16657,0.17318,1.48769,-0.06525,0.56652,1.18592,0.32927,0.27891,1.24568,0.05532,0.6434,1.41902,0.25775,0.44742,1.4413
844,0.08509,0.32832,1.528,0.17048,0.56089,0.10705,0.05874,0.09114,0.07967,0.08476,0.52671,0.52226,0.11837,0.15248,0.49748,0.00511,0.33195,0.91616,0.12839,0.19515,0.93514,-0.05781,0.42256,1.46211,0.16596,0.16833,1.48739,-0.06549,0.56157,1.18693,0.32886,0.27343,1.24524,0.0551,0.63815,1.42012,0.25679,0.44061,1.4418
845,0.08417,0.32341,1.52823,0.16977,0.56128,0.10808,0.05858,0.09122,0.0796,0.08429,0.5253,0.52319,0.11831,0.1516,0.49754,0.00451,0.3292,0.9164,0.12809,0.19266,0.93536,-0.0582,0.41698,1.46296,0.1658,0.16334,1.4869,-0.06591,0.5564,1.18799,0.32849,0.2683,1.24455,0.05462,0.6331,1.42117,0.25587,0.43393,1.44221
846,0.08315,0.31859,1.52837,0.16908,0.56164,0.10922,0.05853,0.0913,0.07944,0.0836,0.52385,0.52416,0.11829,0.15079,0.4975,0.00395,0.32636,0.9167,0.12795,0.19018,0.93548,-0.05831,0.41141,1.46383,0.16606,0.15798,1.48637,-0.06624,0.55118,1.18904,0.32803,0.26362,1.24383,0.05421,0.62827,1.42213,0.25515,0.42763,1.44274
847,0.08239,0.3137,1.52854,0.16861,0.56192,0.11027,0.05858,0.09132,0.0793,0.0827,0.52236,0.52497,0.11835,0.14975,0.49751,0.00356,0.32356,0.91695,0.12793,0.18771,0.93561,-0.058,0.40617,1.46462,0.16631,0.1523,1.48581,-0.06649,0.54612,1.18994,0.32735,0.25937,1.24327,0.05391,0.62347,1.42297,0.25467,0.4218,1.44355
848,0.08198,0.30884,1.52877,0.16818,0.56219,0.1112,0.05873,0.09121,0.07927,0.08173,0.52096,0.52562,0.11853,0.1486,0.49761,0.00342,0.32088,0.91711,0.128,0.18523,0.93583,-0.05756,0.40132,1.4651,0.16615,0.14657,1.48519,-0.0668,0.54133,1.19048,0.32643,0.25531,1.2429,0.05353,0.61846,1.42362,0.25444,0.41641,1.44449
849,0.08177,0.30416,1.52899,0.16745,0.5625,0.11198,0.05899,0.09097,0.07931,0.08089,0.51982,0.52623,0.11883,0.14762,0.49775,0.00355,0.31841,0.91724,0.12813,0.18277,0.93609,-0.05738,0.39682,1.46525,0.16564,0.14112,1.48456,-0.06715,0.53686,1.19065,0.32544,0.25123,1.24257,0.053,0.61323,1.42414,0.25436,0.4113,1.4453
850,0.08164,0.29956,1.52925,0.16636,0.56282,0.11264,0.05926,0.09068,0.07937,0.08029,0.51895,0.52687,0.11924,0.14691,0.49785,0.00391,0.31621,0.91737,0.12829,0.18041,0.93633,-0.05749,0.39256,1.46538,0.16522,0.13615,1.48395,-0.06742,0.53271,1.19085,0.32462,0.24723,1.24214,0.05246,0.60815,1.42478,0.25418,0.40626,1.44593
851,0.08156,0.29472,1.52967,0.16509,0.56296,0.11318,0.05941,0.09039,0.07941,0.07995,0.51806,0.52749,0.11974,0.1463,0.49788,0.00431,0.31422,0.91757,0.12842,0.17817,0.93648,-0.05766,0.3885,1.46586,0.16509,0.13169,1.48335,-0.06764,0.52885,1.19144,0.32405,0.24365,1.24166,0.05206,0.60351,1.4257,0.25365,0.40123,1.44657
852,0.08159,0.28957,1.53025,0.16374,0.56268,0.11368,0.05937,0.09015,0.07939,0.07976,0.51682,0.52812,0.12024,0.1457,0.49783,0.00443,0.3122,0.91784,0.12838,0.17596,0.93655,-0.0578,0.38463,1.46673,0.16503,0.12761,1.48277,-0.06799,0.52508,1.19236,0.32362,0.24056,1.2413,0.05172,0.59917,1.4268,0.25267,0.39645,1.44731
853,0.08184,0.28448,1.53083,0.16229,0.56204,0.11425,0.05915,0.08996,0.07932,0.0795,0.51518,0.52881,0.12061,0.14512,0.49773,0.00415,0.30998,0.91824,0.12817,0.17376,0.93657,-0.05804,0.3809,1.46772,0.16482,0.12375,1.48232,-0.06863,0.52114,1.19326,0.3231,0.23763,1.24108,0.05118,0.59487,1.42777,0.25143,0.39205,1.44795
854,0.08238,0.27988,1.53123,0.16087,0.56128,0.11493,0.0589,0.08986,0.07927,0.07898,0.51333,0.52956,0.12075,0.14457,0.49767,0.00372,0.30777,0.91881,0.128,0.17172,0.93662,-0.05857,0.37715,1.46868,0.16458,0.12012,1.48214,-0.06959,0.5169,1.19398,0.32246,0.23449,1.24087,0.05035,0.59065,1.42842,0.25032,0.38785,1.44836
855,0.08317,0.27586,1.5314,0.1596,0.56062,0.11568,0.05881,0.08981,0.07924,0.07828,0.51153,0.53028,0.12067,0.14392,0.49772,0.00349,0.30589,0.91958,0.12805,0.17001,0.93673,-0.0594,0.37317,1.4696,0.16464,0.11667,1.48217,-0.07076,0.51245,1.19468,0.32174,0.2312,1.24047,0.04937,0.5867,1.42886,0.24958,0.38355,1.44871
856,0.08387,0.27215,1.53155,0.15843,0.55999,0.11637,0.05893,0.08975,0.07919,0.07764,0.50996,0.53096,0.12051,0.1431,0.49781,0.00358,0.30436,0.92042,0.12827,0.16851,0.93685,-0.06024,0.36882,1.47052,0.16516,0.11325,1.48217,-0.07195,0.508,1.19556,0.32102,0.22814,1.23984,0.0484,0.58308,1.42936,0.24906,0.37906,1.44917
857,0.08407,0.26833,1.53198,0.15726,0.55927,0.11694,0.05911,0.08973,0.07906,0.07728,0.50864,0.53162,0.12036,0.14216,0.49785,0.00375,0.30293,0.92112,0.1284,0.16697,0.93692,-0.06077,0.36417,1.47139,0.16592,0.10985,1.48207,-0.07305,0.50368,1.19662,0.32026,0.22544,1.2391,0.04738,0.57964,1.4301,0.24858,0.37469,1.44973
858,0.08371,0.26426,1.53277,0.15597,0.55844,0.11746,0.05915,0.08993,0.07885,0.07709,0.50749,0.53231,0.12022,0.14118,0.49781,0.00364,0.3013,0.92158,0.12833,0.16532,0.93692,-0.06096,0.35938,1.47211,0.16656,0.10666,1.48201,-0.07411,0.49948,1.19769,0.31946,0.22299,1.23848,0.04622,0.57618,1.43098,0.24811,0.37083,1.45021
859,0.08316,0.26016,1.53372,0.15456,0.55753,0.11801,0.05903,0.09033,0.07867,0.07689,0.50646,0.53307,0.12005,0.14021,0.4978,0.00324,0.29944,0.92185,0.12818,0.16367,0.93695,-0.06104,0.35467,1.47264,0.16703,0.10381,1.48214,-0.07528,0.49541,1.19861,0.31868,0.22068,1.23809,0.04499,0.57255,1.43178,0.24761,0.36759,1.45056
860,0.08276,0.25634,1.53458,0.15319,0.55641,0.11853,0.05886,0.09062,0.07865,0.07652,0.50546,0.53379,0.11995,0.13927,0.49791,0.00284,0.29749,0.92206,0.12819,0.16208,0.93709,-0.06118,0.3504,1.47311,0.1676,0.10114,1.48238,-0.07656,0.49152,1.19933,0.31804,0.21867,1.2379,0.04393,0.56878,1.43235,0.24682,0.36476,1.45088
861,0.08258,0.25284,1.53526,0.15207,0.55496,0.11892,0.05885,0.09057,0.07874,0.07592,0.50436,0.53432,0.12004,0.13835,0.49809,0.00279,0.2956,0.92227,0.12844,0.16048,0.9373,-0.06132,0.34688,1.47363,0.16837,0.09832,1.48258,-0.0777,0.48794,1.19988,0.31756,0.21709,1.23793,0.04316,0.56506,1.43276,0.24547,0.36215,1.45132
862,0.08264,0.24943,1.53581,0.15124,0.55316,0.11917,0.05905,0.09025,0.07879,0.07513,0.50318,0.53466,0.12023,0.13748,0.49821,0.00308,0.29391,0.92253,0.12887,0.1589,0.93745,-0.0614,0.34395,1.47427,0.16903,0.0954,1.48271,-0.07845,0.48471,1.20041,0.31713,0.21579,1.2382,0.04261,0.56162,1.43325,0.24356,0.35967,1.45189
863,0.08299,0.24591,1.53633,0.15042,0.55113,0.11936,0.05931,0.0898,0.07873,0.07437,0.50206,0.53497,0.12033,0.13665,0.4982,0.00349,0.29246,0.92288,0.12928,0.15741,0.93747,-0.06157,0.34107,1.47499,0.16932,0.09269,1.48295,-0.07893,0.48176,1.2011,0.31668,0.21436,1.23862,0.04211,0.55862,1.43397,0.24161,0.35724,1.45245
864,0.08348,0.24246,1.53685,0.14927,0.54902,0.11955,0.05947,0.08927,0.07862,0.07382,0.50116,0.53541,0.12025,0.13585,0.49816,0.00379,0.29125,0.9233,0.1295,0.15608,0.93745,-0.062,0.3379,1.47573,0.16944,0.09034,1.48336,-0.07953,0.47902,1.20207,0.31625,0.21253,1.23895,0.04152,0.55607,1.43487,0.24028,0.35473,1.45293
865,0.08377,0.23946,1.5373,0.14773,0.54691,0.11974,0.05955,0.08881,0.07855,0.0735,0.50036,0.53596,0.12003,0.13513,0.49817,0.004,0.29021,0.92382,0.12956,0.15485,0.93747,-0.06254,0.33457,1.47646,0.16975,0.08814,1.4838,-0.0804,0.47641,1.2032,0.31591,0.21046,1.23907,0.04085,0.55391,1.43574,0.23976,0.35202,1.45341
866,0.08368,0.23704,1.53761,0.14612,0.54474,0.1199,0.05958,0.08858,0.07855,0.07337,0.49941,0.53651,0.11973,0.13453,0.49826,0.00423,0.28925,0.92444,0.12958,0.15365,0.93758,-0.06295,0.33133,1.47706,0.1702,0.08585,1.48398,-0.08131,0.47385,1.20419,0.31565,0.20859,1.23904,0.04025,0.55201,1.43636,0.23965,0.34912,1.4541
867,0.08342,0.235,1.53778,0.14479,0.54246,0.11997,0.05959,0.08864,0.07862,0.0734,0.49816,0.53693,0.11943,0.13405,0.49843,0.00452,0.28829,0.92506,0.12963,0.15243,0.93777,-0.06307,0.32829,1.47749,0.17049,0.08343,1.48379,-0.08202,0.47123,1.20488,0.31547,0.20712,1.23904,0.03984,0.55011,1.43664,0.23949,0.34623,1.45503
868,0.0833,0.23291,1.53797,0.14375,0.54024,0.11988,0.05964,0.0888,0.07874,0.07355,0.4967,0.53712,0.11923,0.1336,0.49865,0.0048,0.28731,0.92553,0.12967,0.15121,0.93802,-0.06282,0.32552,1.47786,0.17051,0.08109,1.48339,-0.0826,0.46853,1.20535,0.31536,0.20586,1.23912,0.03951,0.548,1.43677,0.23923,0.34351,1.45599
869,0.08347,0.23054,1.53827,0.14272,0.53837,0.11959,0.05982,0.08884,0.07881,0.07371,0.49526,0.53708,0.11917,0.13311,0.49881,0.00508,0.28637,0.92578,0.12978,0.15011,0.9382,-0.06218,0.32311,1.4783,0.17052,0.07904,1.48306,-0.0833,0.46582,1.20573,0.3154,0.20458,1.23921,0.039,0.54562,1.43695,0.23897,0.34106,1.45671
870,0.08387,0.22803,1.53862,0.14163,0.53706,0.11915,0.06,0.08875,0.07879,0.07381,0.49398,0.53683,0.11923,0.13261,0.49885,0.00541,0.28548,0.92579,0.13007,0.14919,0.93825,-0.06155,0.32115,1.47881,0.17084,0.07729,1.48293,-0.08417,0.46328,1.20606,0.31564,0.20325,1.23924,0.03812,0.54318,1.43724,0.23865,0.33883,1.45711
871,0.08438,0.22581,1.53886,0.14063,0.5364,0.11861,0.05996,0.0887,0.07875,0.07385,0.49273,0.5364,0.1194,0.13215,0.49882,0.00581,0.2846,0.92561,0.13053,0.14837,0.93823,-0.06143,0.31954,1.47922,0.1715,0.07573,1.4829,-0.08493,0.46102,1.2062,0.31602,0.2019,1.23915,0.037,0.54099,1.43754,0.23818,0.33665,1.45723
872,0.08484,0.22416,1.53897,0.13984,0.53633,0.11799,0.05971,0.08869,0.07875,0.07379,0.49123,0.53575,0.11971,0.13168,0.49879,0.00629,0.28374,0.9254,0.13103,0.14756,0.9382,-0.06176,0.31807,1.47943,0.17228,0.07426,1.48276,-0.0853,0.459,1.20613,0.31637,0.20052,1.23881,0.03591,0.53914,1.43779,0.23772,0.33436,1.45716
873,0.08521,0.223,1.53902,0.13925,0.53667,0.11736,0.05947,0.08867,0.07881,0.07359,0.48934,0.53493,0.12013,0.13118,0.4988,0.00682,0.28294,0.92528,0.13152,0.14672,0.93823,-0.06198,0.31662,1.47954,0.1729,0.07286,1.48248,-0.08535,0.4571,1.206,0.31654,0.19918,1.23829,0.03502,0.53746,1.43802,0.23766,0.33199,1.45719
874,0.08564,0.22191,1.5391,0.13873,0.53713,0.11679,0.05943,0.08872,0.0789,0.07338,0.48726,0.53412,0.12055,0.13065,0.49889,0.00732,0.28223,0.92532,0.13193,0.14595,0.93832,-0.06178,0.31518,1.47977,0.1732,0.07145,1.48226,-0.08547,0.4552,1.20601,0.31654,0.19799,1.23801,0.03438,0.53584,1.43822,0.23813,0.32987,1.45765
875,0.0862,0.22054,1.53921,0.13819,0.53749,0.11634,0.05958,0.08895,0.07897,0.07337,0.48528,0.53346,0.12081,0.13014,0.49901,0.00778,0.28167,0.92548,0.13228,0.14528,0.93844,-0.06132,0.31374,1.48019,0.17326,0.06991,1.48235,-0.08584,0.45326,1.20625,0.31652,0.19696,1.23831,0.03391,0.53438,1.43834,0.2389,0.32833,1.45852
876,0.08678,0.21885,1.53926,0.13771,0.53765,0.1159,0.05982,0.08936,0.07893,0.07362,0.4836,0.5329,0.12084,0.12969,0.49908,0.00831,0.28124,0.9256,0.13262,0.14467,0.93852,-0.06092,0.31235,1.4807,0.17341,0.06819,1.48263,-0.08635,0.45136,1.20658,0.31666,0.19604,1.239,0.03347,0.53322,1.43837,0.23969,0.32735,1.45948
877,0.08722,0.21703,1.53919,0.13746,0.53757,0.11536,0.06005,0.08977,0.07877,0.07395,0.48224,0.53228,0.12069,0.12925,0.49906,0.00896,0.28083,0.92553,0.13302,0.14403,0.93849,-0.06077,0.31104,1.48104,0.1739,0.06644,1.48278,-0.08679,0.44966,1.20679,0.31701,0.1953,1.23961,0.03295,0.53231,1.43834,0.24038,0.32652,1.46025
878,0.08747,0.21529,1.53904,0.13746,0.53731,0.11482,0.0602,0.08998,0.07856,0.0742,0.48117,0.53167,0.1205,0.12878,0.49897,0.00963,0.28034,0.92528,0.1335,0.14338,0.93838,-0.06084,0.30966,1.48112,0.1747,0.06481,1.48267,-0.0871,0.44822,1.20686,0.31741,0.19488,1.2399,0.03245,0.5315,1.43828,0.2409,0.32554,1.46092
879,0.08767,0.21369,1.53898,0.13758,0.53699,0.11443,0.06024,0.0899,0.07842,0.07444,0.48032,0.53123,0.12045,0.12835,0.49887,0.01015,0.27981,0.92505,0.13398,0.14283,0.93827,-0.06094,0.30799,1.48094,0.17547,0.06338,1.4824,-0.08734,0.44702,1.20693,0.31773,0.19476,1.24008,0.03214,0.53066,1.43826,0.24119,0.32449,1.46165
880,0.08797,0.21224,1.53908,0.13775,0.53674,0.11422,0.06024,0.08962,0.07838,0.07482,0.47957,0.53098,0.12063,0.12812,0.4988,0.0105,0.27933,0.92493,0.13437,0.14238,0.9382,-0.06099,0.30603,1.48057,0.1759,0.06222,1.48215,-0.08759,0.44606,1.20709,0.31805,0.19474,1.24039,0.03209,0.5298,1.43828,0.2413,0.32357,1.4624
881,0.08838,0.211,1.5392,0.13798,0.53663,0.11408,0.06029,0.08932,0.07838,0.07542,0.47881,0.53081,0.12096,0.12804,0.49874,0.01087,0.27891,0.9249,0.13477,0.142,0.93815,-0.06111,0.30403,1.48013,0.17614,0.06136,1.48206,-0.08781,0.4453,1.2073,0.31859,0.19451,1.24081,0.03218,0.52901,1.43834,0.24145,0.32283,1.46299
882,0.08886,0.21008,1.53916,0.13819,0.53665,0.1139,0.06042,0.08913,0.07834,0.07615,0.47805,0.53059,0.12128,0.12786,0.49867,0.01141,0.27849,0.92482,0.1354,0.14166,0.93807,-0.06144,0.30233,1.47975,0.17654,0.06073,1.4822,-0.0879,0.44458,1.2074,0.31936,0.19394,1.24121,0.03221,0.52824,1.43839,0.24186,0.32218,1.46331
883,0.08934,0.20948,1.53891,0.13825,0.53668,0.11359,0.06058,0.08905,0.07822,0.07694,0.47739,0.5303,0.12152,0.12751,0.49856,0.01215,0.27803,0.92462,0.13622,0.14128,0.93795,-0.06181,0.30112,1.47953,0.17721,0.06018,1.4825,-0.08787,0.44374,1.20733,0.32017,0.19319,1.24148,0.03208,0.52734,1.43844,0.2425,0.32157,1.46344
884,0.08971,0.20899,1.53861,0.13816,0.53653,0.1132,0.0607,0.08897,0.07802,0.07773,0.47681,0.52997,0.12171,0.12716,0.49838,0.01296,0.27749,0.92432,0.13703,0.14076,0.93775,-0.06196,0.30041,1.47947,0.17786,0.05959,1.48267,-0.08779,0.44279,1.20713,0.32089,0.19253,1.24166,0.0318,0.52627,1.43846,0.24311,0.32092,1.46357
885,0.08985,0.20826,1.53849,0.13806,0.53617,0.11285,0.06073,0.08882,0.07784,0.0785,0.47627,0.52972,0.12194,0.12692,0.49818,0.01369,0.27683,0.924,0.13776,0.1401,0.93754,-0.06195,0.29998,1.47954,0.17821,0.0589,1.48257,-0.08772,0.44178,1.20689,0.32163,0.19206,1.24192,0.03147,0.52526,1.43843,0.24344,0.32013,1.46387
886,0.08981,0.2072,1.53861,0.13802,0.53577,0.11265,0.06072,0.08863,0.07774,0.07915,0.47577,0.5296,0.12221,0.12669,0.49804,0.01431,0.27607,0.92375,0.13845,0.13941,0.9374,-0.06196,0.29952,1.47965,0.1783,0.05803,1.48229,-0.08758,0.44078,1.2067,0.32248,0.19171,1.24238,0.03122,0.52447,1.43837,0.24353,0.31922,1.46438
887,0.08977,0.20596,1.53887,0.138,0.53557,0.11261,0.06075,0.08851,0.07769,0.07954,0.47528,0.52959,0.12249,0.12626,0.49799,0.01479,0.27533,0.92361,0.13909,0.13882,0.93734,-0.06191,0.29891,1.47972,0.17839,0.05696,1.48197,-0.0873,0.4399,1.20662,0.3233,0.19139,1.24292,0.03112,0.52386,1.43837,0.24365,0.31837,1.46497
888,0.08979,0.20471,1.53914,0.13802,0.53567,0.11267,0.06091,0.08845,0.07765,0.07961,0.47483,0.52957,0.12273,0.12566,0.49798,0.01512,0.27474,0.92357,0.13958,0.13838,0.93732,-0.06158,0.29833,1.47979,0.17866,0.05593,1.48174,-0.08699,0.43927,1.20667,0.32382,0.19112,1.24327,0.03125,0.52333,1.43848,0.24405,0.31776,1.46547
889,0.08975,0.20358,1.53938,0.13804,0.5359,0.11275,0.06117,0.0884,0.07758,0.07953,0.47448,0.52955,0.1229,0.12516,0.49796,0.01536,0.27434,0.92358,0.13988,0.13804,0.93729,-0.06103,0.29802,1.47995,0.1791,0.05517,1.48165,-0.0867,0.43885,1.2068,0.324,0.19092,1.24333,0.03152,0.52282,1.43865,0.24462,0.31741,1.46577
890,0.08958,0.20266,1.53953,0.13795,0.53608,0.11284,0.06142,0.08827,0.0775,0.0796,0.47426,0.5296,0.12299,0.12496,0.49791,0.01567,0.27411,0.92367,0.14008,0.13769,0.93724,-0.06062,0.29793,1.4802,0.17961,0.05474,1.48171,-0.08635,0.43844,1.20688,0.32405,0.1908,1.24329,0.03178,0.52238,1.43879,0.24503,0.31712,1.46595
891,0.08935,0.20199,1.53957,0.13771,0.53619,0.11298,0.06158,0.08808,0.07746,0.08002,0.47418,0.52981,0.12306,0.12503,0.49786,0.01622,0.27401,0.92388,0.14038,0.13734,0.93719,-0.0606,0.29772,1.48042,0.18006,0.05449,1.48179,-0.08584,0.43784,1.20686,0.32429,0.19066,1.2433,0.03203,0.52203,1.43881,0.24538,0.31661,1.46621
892,0.0893,0.20148,1.53954,0.13743,0.5363,0.11316,0.06167,0.0879,0.07749,0.08064,0.47417,0.53009,0.12313,0.12514,0.49786,0.017,0.27398,0.92418,0.14086,0.13701,0.93719,-0.06084,0.297,1.48049,0.18039,0.05426,1.4818,-0.08533,0.43704,1.20681,0.32479,0.19037,1.24339,0.03228,0.52177,1.4387,0.24603,0.3159,1.46659
893,0.08964,0.20098,1.53957,0.13723,0.53642,0.11335,0.06177,0.08775,0.07757,0.0811,0.47423,0.53036,0.12324,0.12511,0.49794,0.01777,0.27389,0.92442,0.14143,0.13672,0.93725,-0.06092,0.29585,1.48036,0.18055,0.05391,1.48174,-0.08498,0.43621,1.20681,0.32544,0.18998,1.2436,0.03239,0.52154,1.43861,0.24687,0.31532,1.46697
894,0.09025,0.20047,1.53972,0.1371,0.53646,0.1135,0.06196,0.08761,0.07763,0.0812,0.47439,0.53056,0.12344,0.12488,0.498,0.01832,0.27365,0.92449,0.14199,0.13648,0.9373,-0.06053,0.29485,1.48019,0.18052,0.05343,1.48171,-0.08472,0.43559,1.20685,0.32607,0.18958,1.24402,0.03224,0.52127,1.43872,0.24732,0.31512,1.46721
895,0.0908,0.20001,1.53999,0.13695,0.53641,0.11353,0.06221,0.08752,0.07761,0.08105,0.47466,0.53064,0.12385,0.12451,0.49799,0.01868,0.27333,0.92435,0.14253,0.13634,0.93728,-0.05973,0.29437,1.4801,0.1804,0.05282,1.48175,-0.08434,0.43528,1.20688,0.32663,0.18919,1.2446,0.03195,0.52091,1.43911,0.24714,0.31518,1.46727
896,0.09111,0.19958,1.54031,0.13668,0.53646,0.11346,0.06241,0.08745,0.07759,0.08098,0.47493,0.53062,0.12443,0.12409,0.49794,0.01903,0.27311,0.92415,0.14309,0.13633,0.93722,-0.0589,0.29414,1.48006,0.1805,0.05205,1.48185,-0.08384,0.43519,1.20695,0.3271,0.1888,1.24515,0.03171,0.52055,1.43964,0.2467,0.31514,1.4673
897,0.09136,0.19919,1.5405,0.1363,0.53677,0.11343,0.06245,0.08741,0.07766,0.08114,0.47509,0.53065,0.12491,0.12376,0.49797,0.01947,0.27301,0.92409,0.14362,0.13631,0.93724,-0.05844,0.29373,1.48006,0.18103,0.05115,1.48201,-0.08338,0.43508,1.2071,0.32737,0.18845,1.24546,0.03172,0.52018,1.44012,0.24657,0.31481,1.46745
898,0.09169,0.19887,1.54045,0.13588,0.53719,0.11353,0.06234,0.08738,0.0778,0.08137,0.47507,0.53077,0.12495,0.12363,0.49809,0.01995,0.27288,0.92419,0.14405,0.13614,0.93734,-0.05856,0.29304,1.48016,0.18192,0.05039,1.48222,-0.08306,0.43476,1.20736,0.32739,0.18825,1.24547,0.03205,0.51971,1.44042,0.24682,0.31431,1.46772
899,0.0919,0.1986,1.54024,0.13549,0.53749,0.11367,0.0622,0.08735,0.07789,0.08144,0.47499,0.53091,0.12457,0.1237,0.49821,0.02041,0.2726,0.92429,0.14441,0.13577,0.93744,-0.05921,0.29221,1.48039,0.18279,0.04996,1.48245,-0.08284,0.43428,1.20769,0.32732,0.1882,1.24535,0.03255,0.51921,1.44062,0.24709,0.31384,1.46796
900,0.09173,0.19815,1.54013,0.13522,0.53761,0.11372,0.06218,0.08719,0.07786,0.08133,0.47493,0.53096,0.12412,0.1237,0.49823,0.02083,0.27229,0.92428,0.14474,0.13538,0.93744,-0.06004,0.29136,1.48062,0.18333,0.04973,1.48261,-0.08263,0.43386,1.20806,0.3274,0.18814,1.24533,0.03293,0.51884,1.44088,0.2471,0.31352,1.46806
901,0.09138,0.19736,1.5403,0.13511,0.53772,0.11373,0.06232,0.08694,0.07776,0.0812,0.47488,0.53094,0.12397,0.12339,0.49818,0.02121,0.27215,0.9243,0.14508,0.1352,0.93736,-0.06056,0.29069,1.48074,0.18349,0.04937,1.48265,-0.08233,0.43366,1.20835,0.32777,0.18789,1.24556,0.03306,0.5186,1.44127,0.24702,0.31331,1.4681
902,0.09127,0.19638,1.54069,0.1351,0.53797,0.11379,0.06253,0.08677,0.07766,0.08117,0.47476,0.53094,0.12417,0.12286,0.49812,0.02164,0.27222,0.92448,0.1455,0.13523,0.93727,-0.06046,0.29037,1.48081,0.18341,0.0488,1.48264,-0.08188,0.43359,1.20854,0.32839,0.18747,1.24606,0.03308,0.51832,1.44176,0.24716,0.31314,1.46829
903,0.09155,0.19551,1.5411,0.13504,0.53827,0.11391,0.06267,0.0868,0.07763,0.08128,0.47466,0.53102,0.12446,0.12238,0.4981,0.02219,0.27227,0.92469,0.14604,0.13524,0.93723,-0.0599,0.29023,1.48098,0.18332,0.0482,1.48274,-0.08137,0.43343,1.20869,0.32899,0.18704,1.24668,0.03323,0.51796,1.44216,0.24743,0.31297,1.46864
904,0.09201,0.19493,1.54132,0.13476,0.53848,0.11401,0.06261,0.08696,0.07765,0.08157,0.47478,0.53118,0.12464,0.12213,0.49812,0.02281,0.27213,0.92478,0.14664,0.13508,0.93722,-0.05933,0.29003,1.48124,0.18347,0.04776,1.48305,-0.08093,0.4331,1.20889,0.32933,0.18675,1.2472,0.03366,0.51756,1.44239,0.24753,0.31284,1.46898
905,0.09244,0.19455,1.54133,0.13422,0.53852,0.11409,0.06234,0.08713,0.0777,0.08199,0.4751,0.53143,0.12479,0.12212,0.49813,0.02338,0.27189,0.92475,0.14718,0.13481,0.93722,-0.05903,0.28978,1.48149,0.1839,0.04742,1.48346,-0.08059,0.43281,1.20912,0.32939,0.18667,1.24753,0.03423,0.51713,1.44256,0.24737,0.31274,1.46923
906,0.09282,0.19428,1.54126,0.13364,0.53846,0.11416,0.06208,0.08725,0.07781,0.08236,0.47547,0.53168,0.12505,0.12229,0.49815,0.02387,0.27174,0.92476,0.14761,0.13461,0.93724,-0.05885,0.28965,1.48168,0.18446,0.0471,1.48367,-0.08028,0.43275,1.20933,0.32949,0.18682,1.24775,0.03471,0.51666,1.44283,0.24715,0.31266,1.46947
907,0.09308,0.19419,1.54124,0.13328,0.53838,0.1142,0.06199,0.08733,0.07794,0.08253,0.47565,0.53182,0.12538,0.12252,0.4982,0.02429,0.27179,0.92487,0.14797,0.1346,0.9373,-0.05856,0.28963,1.48177,0.18489,0.04683,1.48364,-0.08002,0.43287,1.2095,0.32992,0.18713,1.24805,0.03493,0.51621,1.44322,0.24705,0.31255,1.46981
908,0.09318,0.19428,1.54127,0.13319,0.53831,0.11421,0.06207,0.08731,0.07803,0.08251,0.47553,0.53184,0.1256,0.12264,0.49827,0.02461,0.27193,0.92506,0.14825,0.13468,0.93737,-0.05818,0.28955,1.48176,0.18514,0.04662,1.48354,-0.07989,0.43301,1.20963,0.33063,0.18738,1.24852,0.03491,0.51586,1.44359,0.24706,0.31232,1.47029
909,0.0933,0.19427,1.54128,0.1332,0.53825,0.11423,0.06221,0.08718,0.07808,0.08239,0.47516,0.53179,0.12562,0.12256,0.49833,0.02484,0.27198,0.92529,0.14838,0.13464,0.93742,-0.05787,0.28926,1.48168,0.18533,0.04631,1.48353,-0.07992,0.4331,1.20977,0.33138,0.18749,1.2491,0.03471,0.51573,1.4439,0.24703,0.312,1.47082
910,0.0937,0.19391,1.54127,0.13319,0.53818,0.11428,0.06235,0.08703,0.0781,0.0823,0.47483,0.53179,0.12552,0.12235,0.49839,0.02505,0.2719,0.92546,0.1484,0.13438,0.93748,-0.0577,0.28883,1.4816,0.18556,0.04584,1.4835,-0.07999,0.43314,1.20997,0.33199,0.18754,1.24963,0.03435,0.51577,1.44423,0.24696,0.31172,1.47127
911,0.09426,0.19346,1.54119,0.1332,0.53818,0.11435,0.06246,0.0869,0.07811,0.0823,0.47483,0.53185,0.12543,0.12215,0.49844,0.0253,0.27171,0.92546,0.1485,0.13405,0.93752,-0.05764,0.28856,1.48165,0.18583,0.04536,1.48339,-0.08,0.43313,1.21016,0.3324,0.18772,1.25001,0.03388,0.51579,1.44464,0.24693,0.31164,1.47163
912,0.09456,0.19334,1.54104,0.13322,0.53829,0.1144,0.06253,0.08676,0.07805,0.08246,0.47513,0.53196,0.12534,0.12202,0.4984,0.02558,0.27145,0.92529,0.14882,0.13385,0.93746,-0.05771,0.28854,1.4818,0.18603,0.04509,1.48327,-0.07982,0.43304,1.21025,0.33264,0.18811,1.25031,0.03349,0.51561,1.44504,0.24692,0.31182,1.47194
913,0.0945,0.19358,1.54082,0.13316,0.53852,0.11446,0.06253,0.0867,0.07795,0.08274,0.47539,0.53206,0.12521,0.12192,0.49832,0.02585,0.27119,0.92513,0.14928,0.13375,0.93735,-0.05783,0.28857,1.48191,0.18602,0.04505,1.4832,-0.07938,0.43287,1.21021,0.33278,0.18857,1.25064,0.03337,0.51522,1.44535,0.24677,0.31207,1.47229
914,0.09426,0.19379,1.54063,0.13296,0.53879,0.11453,0.06243,0.08682,0.07789,0.08296,0.47529,0.53212,0.12515,0.12172,0.49828,0.02611,0.27104,0.92516,0.14964,0.13369,0.93728,-0.05774,0.28852,1.4819,0.18583,0.04506,1.48313,-0.07873,0.43272,1.2101,0.33292,0.18885,1.25095,0.03358,0.51472,1.44557,0.24651,0.3121,1.47258
915,0.09393,0.1937,1.54058,0.13266,0.53901,0.11457,0.06226,0.08697,0.07793,0.08301,0.47489,0.53211,0.12528,0.12131,0.49832,0.02633,0.27105,0.92539,0.14979,0.13361,0.93731,-0.05726,0.28853,1.48186,0.1857,0.04488,1.48296,-0.0781,0.43261,1.20999,0.33312,0.18877,1.25105,0.03393,0.51419,1.44574,0.24635,0.3118,1.47267
916,0.09357,0.19334,1.54068,0.13242,0.53905,0.11457,0.06207,0.08688,0.07805,0.08296,0.47449,0.53206,0.12558,0.12083,0.49841,0.02649,0.27111,0.92561,0.14978,0.13351,0.9374,-0.05657,0.28872,1.48198,0.18585,0.04449,1.48274,-0.07776,0.43248,1.20997,0.33339,0.18841,1.25093,0.03414,0.51386,1.44585,0.24642,0.31129,1.47255
917,0.09344,0.19286,1.54084,0.13235,0.53884,0.11454,0.06196,0.08657,0.07816,0.083,0.47433,0.53205,0.12585,0.12048,0.49846,0.0266,0.2711,0.92569,0.14974,0.13338,0.93747,-0.05602,0.28886,1.48217,0.18628,0.04414,1.4826,-0.07774,0.43228,1.21002,0.33371,0.18807,1.25073,0.03414,0.51389,1.44583,0.24664,0.31073,1.47243
918,0.09366,0.19235,1.54093,0.13245,0.53856,0.1145,0.062,0.08631,0.07815,0.08323,0.47449,0.5321,0.12597,0.12034,0.49842,0.02673,0.27103,0.9256,0.14979,0.13323,0.93743,-0.05588,0.28863,1.48228,0.18683,0.04405,1.48256,-0.07787,0.43205,1.21014,0.33407,0.18802,1.25059,0.03407,0.51416,1.44575,0.24691,0.31018,1.47254
919,0.09394,0.19188,1.5409,0.13263,0.53846,0.11447,0.06218,0.08629,0.07803,0.08359,0.4749,0.53217,0.12598,0.12027,0.49833,0.02691,0.2709,0.92537,0.14995,0.1331,0.93734,-0.05614,0.28813,1.48231,0.18726,0.04417,1.48254,-0.07799,0.43186,1.21033,0.33448,0.18823,1.2506,0.03406,0.5143,1.44577,0.24724,0.30969,1.47289
920,0.09398,0.19151,1.54081,0.13276,0.53861,0.11453,0.06243,0.08649,0.07795,0.08389,0.47536,0.53229,0.12602,0.12013,0.49831,0.0271,0.27075,0.92515,0.15018,0.133,0.9373,-0.05656,0.28776,1.48241,0.18741,0.0443,1.48249,-0.07809,0.43178,1.21056,0.33497,0.1884,1.2508,0.03416,0.5141,1.44595,0.24751,0.30931,1.47331
921,0.09384,0.19129,1.54068,0.13276,0.53886,0.11474,0.06256,0.08673,0.07799,0.084,0.47576,0.53255,0.1261,0.11993,0.4984,0.02723,0.27061,0.92514,0.15042,0.13297,0.93738,-0.05685,0.28769,1.48256,0.18729,0.04427,1.48249,-0.07818,0.4318,1.21074,0.33545,0.18832,1.25115,0.03437,0.51361,1.44616,0.24755,0.30901,1.47361
922,0.09369,0.19125,1.54057,0.13266,0.53907,0.1151,0.0625,0.08693,0.07808,0.08389,0.47606,0.53292,0.12615,0.11976,0.4985,0.02732,0.27053,0.92533,0.15064,0.13298,0.93747,-0.05694,0.2876,1.48259,0.18712,0.04404,1.48262,-0.07835,0.43176,1.2108,0.33567,0.188,1.25148,0.03452,0.5131,1.44624,0.24731,0.30867,1.47376
923,0.09358,0.19125,1.54054,0.13253,0.5392,0.11541,0.06233,0.08705,0.07808,0.08367,0.47633,0.53324,0.12609,0.11971,0.49849,0.02749,0.27046,0.92553,0.15085,0.13293,0.93744,-0.05701,0.28718,1.48248,0.18706,0.04367,1.48283,-0.07863,0.43153,1.21082,0.33558,0.18762,1.25166,0.03443,0.51278,1.44619,0.24693,0.3082,1.47387
924,0.09333,0.19106,1.54064,0.13233,0.53925,0.11549,0.06224,0.08707,0.07797,0.08342,0.47659,0.53334,0.12599,0.11977,0.49838,0.02781,0.27036,0.92553,0.15104,0.13272,0.93732,-0.05713,0.28648,1.48237,0.18704,0.04324,1.48293,-0.07896,0.43116,1.21089,0.33542,0.18737,1.25179,0.03407,0.51267,1.44619,0.24664,0.30776,1.47405
925,0.09286,0.1906,1.54084,0.13206,0.53924,0.11537,0.06226,0.08702,0.07787,0.08318,0.47676,0.53325,0.12599,0.11988,0.49828,0.0282,0.2702,0.92536,0.15121,0.13236,0.93722,-0.05718,0.2859,1.48234,0.18695,0.04282,1.48289,-0.07913,0.43085,1.21102,0.33547,0.18727,1.25203,0.03363,0.51263,1.44635,0.24651,0.30753,1.47429
926,0.09241,0.19003,1.54098,0.13186,0.53924,0.11524,0.06231,0.08699,0.07787,0.08301,0.47673,0.53312,0.12616,0.11986,0.49826,0.02853,0.26997,0.92518,0.15138,0.13201,0.93721,-0.05707,0.28569,1.48239,0.1868,0.04242,1.48286,-0.079,0.43068,1.21109,0.33571,0.18709,1.25239,0.03321,0.51253,1.44666,0.24654,0.30742,1.47453
927,0.09233,0.18958,1.54095,0.13182,0.53935,0.11522,0.06231,0.08703,0.07789,0.08298,0.47653,0.53305,0.12642,0.1196,0.49826,0.02872,0.26969,0.9251,0.15161,0.13176,0.93721,-0.05689,0.28586,1.48246,0.18667,0.04199,1.48296,-0.07868,0.43063,1.21103,0.33598,0.18675,1.25281,0.03284,0.51242,1.44695,0.24665,0.30721,1.47481
928,0.0927,0.18936,1.54079,0.13186,0.53953,0.11531,0.06227,0.08703,0.07786,0.0831,0.47633,0.53309,0.12661,0.11924,0.49822,0.02875,0.26936,0.92507,0.1519,0.13166,0.93717,-0.05677,0.28621,1.48251,0.18664,0.04162,1.48307,-0.07843,0.43064,1.21089,0.33622,0.18658,1.25322,0.0326,0.51243,1.44703,0.24666,0.30679,1.47528
929,0.09323,0.18936,1.5406,0.13179,0.53969,0.11545,0.06224,0.08694,0.07781,0.08323,0.47631,0.53323,0.12663,0.11902,0.49818,0.02869,0.26907,0.92504,0.15216,0.13167,0.9371,-0.05676,0.2865,1.48246,0.18672,0.04147,1.48308,-0.07838,0.43071,1.21072,0.33629,0.18696,1.25356,0.03262,0.51259,1.44685,0.24646,0.30624,1.476
930,0.09356,0.18951,1.54036,0.13159,0.5398,0.11558,0.06225,0.08685,0.0778,0.08325,0.47646,0.5334,0.12658,0.11898,0.49817,0.02863,0.26892,0.92503,0.15236,0.13175,0.93707,-0.05685,0.28656,1.48232,0.18681,0.04156,1.4831,-0.07845,0.43073,1.21056,0.33606,0.18767,1.25376,0.0328,0.5128,1.44651,0.24613,0.30569,1.47683
931,0.09352,0.18972,1.54005,0.13143,0.53996,0.11564,0.06228,0.08684,0.0778,0.08315,0.47663,0.53346,0.12659,0.11895,0.49818,0.02868,0.26896,0.92505,0.15252,0.13187,0.93707,-0.05696,0.28633,1.48218,0.18688,0.04166,1.4833,-0.07849,0.43061,1.21046,0.33568,0.18817,1.25393,0.03289,0.513,1.44623,0.24584,0.30522,1.47755
932,0.09333,0.18987,1.53978,0.13151,0.54019,0.11557,0.06229,0.08687,0.07782,0.08305,0.47665,0.53334,0.12669,0.11877,0.49819,0.02892,0.26908,0.92503,0.15266,0.13191,0.93708,-0.05697,0.28594,1.48211,0.18698,0.04146,1.48357,-0.0785,0.43033,1.21045,0.33539,0.18831,1.25416,0.03278,0.51317,1.44611,0.24566,0.30483,1.4781
933,0.09334,0.18978,1.53972,0.13172,0.5404,0.11539,0.06229,0.08687,0.07782,0.08312,0.47663,0.53311,0.12686,0.11848,0.4982,0.02927,0.26915,0.92488,0.15275,0.13175,0.93708,-0.05682,0.28563,1.48211,0.18718,0.04095,1.48376,-0.07848,0.42998,1.21045,0.33521,0.1883,1.25443,0.03264,0.51325,1.44604,0.24554,0.30441,1.47861
934,0.09362,0.18935,1.53987,0.13178,0.54044,0.11518,0.06227,0.08693,0.07779,0.08345,0.47672,0.53294,0.12704,0.11822,0.49816,0.02957,0.26911,0.92463,0.15274,0.13146,0.93705,-0.0567,0.28546,1.48213,0.18733,0.04033,1.48386,-0.07848,0.42967,1.2104,0.33497,0.18833,1.25468,0.03267,0.51312,1.44591,0.24545,0.3039,1.4792
935,0.09389,0.18864,1.54008,0.13152,0.54033,0.11506,0.06231,0.0871,0.07771,0.08393,0.47691,0.53294,0.12714,0.11814,0.49809,0.02975,0.26898,0.92443,0.1527,0.13114,0.937,-0.05671,0.2853,1.48212,0.18742,0.03978,1.48392,-0.07858,0.42945,1.21036,0.33454,0.18847,1.25487,0.03282,0.51287,1.44577,0.24538,0.30329,1.47992
936,0.09395,0.18784,1.5402,0.13113,0.54026,0.11502,0.06245,0.08733,0.07761,0.08441,0.47706,0.53304,0.12711,0.11822,0.49802,0.02994,0.26882,0.92433,0.15272,0.13085,0.93694,-0.05681,0.28506,1.48208,0.18754,0.0394,1.48397,-0.07877,0.42937,1.21042,0.3341,0.18875,1.25499,0.03292,0.51274,1.44571,0.24541,0.30253,1.48074
937,0.09382,0.18704,1.54022,0.13087,0.54033,0.11505,0.06262,0.08751,0.0775,0.08482,0.47713,0.53314,0.127,0.11831,0.49797,0.0302,0.26868,0.92429,0.15288,0.13061,0.93688,-0.05683,0.2849,1.48205,0.18768,0.0392,1.48394,-0.07892,0.42939,1.2105,0.33388,0.18902,1.25503,0.0329,0.51289,1.44568,0.24576,0.3016,1.48161
938,0.09356,0.1864,1.54021,0.13087,0.54039,0.11511,0.06272,0.08758,0.07744,0.0851,0.47719,0.53324,0.12693,0.1183,0.49793,0.03038,0.26857,0.92428,0.15305,0.13049,0.93684,-0.05678,0.28493,1.48204,0.1877,0.03918,1.48387,-0.07897,0.42935,1.21045,0.33397,0.18908,1.25505,0.03281,0.51323,1.44552,0.24639,0.30059,1.48237
939,0.0932,0.18608,1.54022,0.13107,0.54027,0.11523,0.06273,0.08753,0.07748,0.08519,0.47731,0.53338,0.127,0.11823,0.49797,0.03036,0.26848,0.9243,0.15312,0.13048,0.93687,-0.05673,0.28502,1.48205,0.18756,0.03921,1.48381,-0.07901,0.42917,1.21032,0.33415,0.189,1.25513,0.03265,0.51354,1.44527,0.24682,0.29971,1.48294
940,0.09291,0.18611,1.54019,0.13134,0.54003,0.11538,0.06274,0.08739,0.0776,0.08511,0.47746,0.53355,0.1272,0.11821,0.49805,0.03019,0.26843,0.92435,0.15313,0.13059,0.93696,-0.05672,0.28484,1.48199,0.18736,0.0392,1.48375,-0.07919,0.42895,1.21026,0.33421,0.18912,1.25533,0.03244,0.51371,1.44508,0.24657,0.2992,1.48332
941,0.09287,0.18636,1.54007,0.13156,0.5399,0.11554,0.06278,0.08716,0.07765,0.08504,0.47758,0.53372,0.12741,0.11832,0.49805,0.03005,0.26841,0.92443,0.15312,0.13069,0.93697,-0.05672,0.28429,1.48177,0.1871,0.03908,1.48363,-0.07946,0.42883,1.2103,0.33414,0.18957,1.25571,0.03231,0.5137,1.44501,0.24573,0.29913,1.48365
942,0.0931,0.18662,1.53989,0.13167,0.53989,0.11565,0.06277,0.08685,0.07757,0.08512,0.47763,0.53383,0.12748,0.11849,0.49792,0.03001,0.26835,0.92447,0.15308,0.13062,0.93685,-0.05667,0.28365,1.48143,0.1867,0.03892,1.48347,-0.07962,0.42881,1.2103,0.3341,0.19018,1.25629,0.03233,0.51352,1.44499,0.24489,0.29935,1.48411
943,0.09339,0.18679,1.53975,0.13171,0.53988,0.1157,0.06267,0.08659,0.07745,0.08536,0.47761,0.5339,0.12746,0.11859,0.49776,0.03006,0.2682,0.92444,0.15301,0.13034,0.93671,-0.05656,0.28329,1.48116,0.18627,0.03879,1.48342,-0.0796,0.42871,1.21019,0.33411,0.19069,1.25696,0.03245,0.51324,1.44489,0.24443,0.29957,1.48473
