PaulMeinheit/Bachelor_Muay_Thai/processed_Data/E_01/E_01_Teep/sliced/Raw_Data/E_01/E_01_Teep/JointAngles.txt/sliced1.csv
Unnamed: 0_level_0,L_MTP_ANGLE,L_MTP_ANGLE,L_MTP_ANGLE,R_MTP_ANGLE,R_MTP_ANGLE,R_MTP_ANGLE,L_ANKLE_ANGLE,L_ANKLE_ANGLE,L_ANKLE_ANGLE,R_ANKLE_ANGLE,R_ANKLE_ANGLE,R_ANKLE_ANGLE,L_KNEE_ANGLE,L_KNEE_ANGLE,L_KNEE_ANGLE,R_KNEE_ANGLE,R_KNEE_ANGLE,R_KNEE_ANGLE,L_HIP_ANGLE,L_HIP_ANGLE,L_HIP_ANGLE,R_HIP_ANGLE,R_HIP_ANGLE,R_HIP_ANGLE,L_SHOULDER_ANGLE,L_SHOULDER_ANGLE,L_SHOULDER_ANGLE,R_SHOULDER_ANGLE,R_SHOULDER_ANGLE,R_SHOULDER_ANGLE,L_ELBOW_ANGLE,L_ELBOW_ANGLE,L_ELBOW_ANGLE,R_ELBOW_ANGLE,R_ELBOW_ANGLE,R_ELBOW_ANGLE,L_WRIST_ANGLE,L_WRIST_ANGLE,L_WRIST_ANGLE,R_WRIST_ANGLE,R_WRIST_ANGLE,R_WRIST_ANGLE,NECK_ANGLE,NECK_ANGLE,NECK_ANGLE,NECK_ANGLE_SHADOW,NECK_ANGLE_SHADOW,NECK_ANGLE_SHADOW,Trunk_Joint_Angle,Trunk_Joint_Angle,Trunk_Joint_Angle
ITEM,X,Y,Z,X,Y,Z,X,Y,Z,X,Y,Z,X,Y,Z,X,Y,Z,X,Y,Z,X,Y,Z,X,Y,Z,X,Y,Z,X,Y,Z,X,Y,Z,X,Y,Z,X,Y,Z,X,Y,Z,X,Y,Z,X,Y,Z
1088,-6.67232,0.0,0.0,-5.68848,0.0,-0.0,-13.62056,-7.45482,8.24489,15.03432,0.85986,-19.47228,-25.07732,-1.49181,0.00035,-18.47493,-3.93583,-0.00047,29.04943,15.32847,9.75415,8.7997,4.60155,-12.26194,31.2692,29.72927,2.54439,51.98675,-14.81515,33.80968,131.03551,0.00034,-87.37356,118.65489,0.00053,101.39532,-6.8524,-14.13552,-0.00709,-5.66343,5.90141,0.00135,-6.52295,-11.30997,9.0119,-29.80377,-13.90898,3.86064,0.08076,1.60014,5.99608
1089,-7.12296,-0.0,0.0,-5.6561,0.0,-0.0,-13.54755,-7.28848,8.27889,15.12689,0.88168,-19.5838,-25.20785,-1.38891,-0.00033,-18.70965,-3.88269,-0.00035,29.11195,15.24936,9.70638,8.89478,4.53084,-12.12447,31.59995,29.71489,2.11482,52.10316,-14.73026,33.90553,130.99469,0.00081,-87.09484,118.57117,-0.00035,101.52202,-6.93111,-13.6534,-0.0051,-5.97614,5.90363,0.00165,-6.63589,-11.36929,8.87011,-29.92626,-13.90852,3.70492,0.14887,1.60021,5.94949
1090,-7.27048,0.0,-0.0,-5.52942,0.0,-0.0,-13.58712,-7.23738,8.21936,15.21732,0.96311,-19.62935,-25.40342,-1.23032,-0.00133,-18.93698,-3.83003,-0.0001,29.20383,15.15319,9.68433,8.96796,4.43186,-12.06511,31.95505,29.7575,1.70368,52.25161,-14.59333,34.0205,130.96367,0.00103,-86.58701,118.44249,-0.00195,101.32822,-6.88462,-13.20059,-0.00269,-6.27185,5.92847,0.00182,-6.78123,-11.41475,8.74792,-30.07916,-13.9029,3.57306,0.18829,1.58774,5.88735
1091,-7.06491,0.0,0.0,-5.25631,0.0,-0.0,-13.76435,-7.29784,8.07097,15.28623,1.07996,-19.577,-25.67998,-1.03634,-0.00233,-19.14313,-3.78171,0.00021,29.32434,15.0482,9.69202,9.00262,4.29914,-12.10835,32.3742,29.83723,1.27198,52.4506,-14.42719,34.15992,130.92831,0.00129,-86.03656,118.26082,-0.00371,100.8928,-6.66452,-12.92287,-0.00144,-6.50193,5.9564,0.00187,-6.93746,-11.45068,8.64388,-30.24146,-13.89557,3.46194,0.18773,1.56093,5.82049
1092,-6.56198,0.0,0.0,-4.84484,0.0,-0.0,-14.08727,-7.43405,7.85333,15.32418,1.19174,-19.42102,-26.05597,-0.84408,-0.00279,-19.33171,-3.73793,0.00043,29.48198,14.95209,9.72789,8.99962,4.13145,-12.24538,32.88436,29.92016,0.77467,52.70113,-14.26357,34.327,130.87035,0.00164,-85.54974,118.02597,-0.00458,100.32417,-6.30418,-12.87035,-0.00167,-6.65241,5.95749,0.00163,-7.08054,-11.49294,8.55071,-30.39089,-13.89825,3.35833,0.15086,1.52225,5.77391
1093,-5.96163,0.0,-0.0,-4.41975,0.0,0.0,-14.5311,-7.60956,7.61498,15.35387,1.25589,-19.21016,-26.55407,-0.7036,-0.00222,-19.52643,-3.68792,0.00042,29.69131,14.89202,9.77271,8.97326,3.9347,-12.41416,33.48904,29.97145,0.18396,52.98338,-14.13411,34.5171,130.77968,0.00179,-85.16389,117.75667,-0.00383,99.76781,-5.88338,-13.0147,-0.0022,-6.71006,5.91789,0.00107,-7.19113,-11.55726,8.46519,-30.50976,-13.92416,3.25282,0.08752,1.47985,5.77794
1094,-5.52874,-0.0,-0.0,-4.16811,-0.0,0.0,-15.05966,-7.79994,7.40681,15.42288,1.24595,-19.02414,-27.20189,-0.65378,-0.00075,-19.75819,-3.61373,0.00016,29.97515,14.89189,9.80061,8.94209,3.71727,-12.53577,34.17195,29.96832,-0.49829,53.26982,-14.06427,34.71857,130.66199,0.00144,-84.90634,117.49306,-0.00196,99.34248,-5.47249,-13.29671,-0.00212,-6.67162,5.83738,0.00035,-7.25661,-11.64913,8.39543,-30.58584,-13.98146,3.15068,0.00572,1.44447,5.84759
1095,-5.44364,-0.0,0.0,-4.21455,0.0,0.0,-15.66617,-7.98183,7.23767,15.57076,1.16419,-18.91351,-28.02887,-0.69829,0.0008,-20.04765,-3.50582,-0.00021,30.36632,14.95802,9.80536,8.92318,3.48202,-12.575,34.91312,29.90809,-1.24916,53.54659,-14.06974,34.91903,130.53702,0.00064,-84.84446,117.28424,-0.00025,99.0977,-5.10005,-13.66499,-0.0017,-6.56187,5.71726,-0.00026,-7.27251,-11.75979,8.35758,-30.61351,-14.06839,3.07042,-0.08937,1.42165,5.97253
1096,-5.72537,0.0,-0.0,-4.54964,0.0,0.0,-16.38403,-8.12773,7.06693,15.80649,1.03453,-18.87038,-29.06142,-0.80674,0.0014,-20.39754,-3.37135,-0.00047,30.89917,15.07567,9.80695,8.92828,3.22137,-12.55723,35.70394,29.80711,-2.04465,53.82627,-14.15032,35.11111,130.42899,-0.00012,-85.07261,117.16685,0.00025,99.06739,-4.75005,-14.08977,-0.00188,-6.41797,5.56497,-0.00055,-7.24587,-11.87082,8.36252,-30.59783,-14.17224,3.02963,-0.19435,1.40475,6.12644
1097,-6.2841,0.0,-0.0,-5.06564,0.0,-0.0,-17.24949,-8.21711,6.83772,16.11272,0.87722,-18.85698,-30.3217,-0.93946,0.00067,-20.79617,-3.22452,-0.00051,31.59791,15.21787,9.82557,8.96096,2.92078,-12.52906,36.54817,29.69137,-2.87287,54.14286,-14.28461,35.29506,130.35474,-0.00032,-85.66346,117.14703,-0.00068,99.31039,-4.37535,-14.55278,-0.00318,-6.27005,5.39828,-0.00046,-7.19464,-11.96465,8.4021,-30.55519,-14.27374,3.02794,-0.30624,1.37663,6.28062
1098,-6.99725,0.0,-0.0,-5.62304,0.0,0.0,-18.25533,-8.23697,6.50287,16.45582,0.6905,-18.84483,-31.83087,-1.06968,-0.00088,-21.22548,-3.07441,-0.00037,32.47258,15.35924,9.85855,9.01682,2.56867,-12.51942,37.45088,29.5851,-3.73351,54.53367,-14.43651,35.47869,130.3175,2e-05,-86.61938,117.19647,-0.00213,99.85031,-3.91837,-15.02989,-0.00511,-6.14663,5.23655,-8e-05,-7.13903,-12.03344,8.44476,-30.50564,-14.35344,3.03931,-0.42094,1.31871,6.40964
1099,-7.71744,-0.0,0.0,-6.06881,0.0,-0.0,-19.33393,-8.16793,6.03009,16.78944,0.46155,-18.82201,-33.61195,-1.1857,-0.00209,-21.67132,-2.92555,-0.00018,33.51716,15.48382,9.89404,9.08512,2.16124,-12.5369,38.40847,29.50419,-4.63172,55.02026,-14.57451,35.67545,130.30885,0.00042,-87.81401,117.26767,-0.00286,100.58399,-3.34873,-15.48116,-0.0061,-6.08968,5.0982,0.00032,-7.09214,-12.07924,8.44525,-30.46339,-14.39566,3.02102,-0.53692,1.21582,6.49622
1100,-8.29955,-0.0,-0.0,-6.26277,0.0,-0.0,-20.35464,-7.98683,5.42142,17.07047,0.1924,-18.78939,-35.6897,-1.28636,-0.00122,-22.134,-2.78234,-9e-05,34.71101,15.584,9.93039,9.15416,1.6978,-12.57634,39.40952,29.45428,-5.57622,55.60129,-14.68894,35.89991,130.3161,0.00038,-88.99058,117.31901,-0.00263,101.30957,-2.7106,-15.85762,-0.00484,-6.1304,5.02337,0.00045,-7.05968,-12.10718,8.3661,-30.43544,-14.39062,2.93623,-0.65963,1.05316,6.53884
1101,-8.71118,-0.0,-0.0,-6.16489,0.0,0.0,-21.12304,-7.69078,4.74445,17.29013,-0.09083,-18.76807,-38.08753,-1.3858,0.00346,-22.6311,-2.64657,-0.00026,36.03315,15.65488,9.96114,9.2229,1.17453,-12.61394,40.44481,29.43139,-6.57806,56.26188,-14.79276,36.16098,130.32788,-0.00019,-89.91048,117.33205,-0.00213,101.86819,-2.10569,-16.12613,-0.00189,-6.22914,5.0927,0.00065,-7.04737,-12.12017,8.19909,-30.42777,-14.33775,2.77618,-0.79655,0.81544,6.5512
1102,-9.06017,-0.0,-0.0,-5.87035,0.0,-0.0,-21.42246,-7.31856,4.11955,17.48231,-0.34965,-18.79503,-40.81683,-1.50933,0.01156,-23.18772,-2.51639,-0.00069,37.47353,15.68948,9.95916,9.30418,0.5849,-12.61265,41.51507,29.42547,-7.6413,56.98948,-14.90754,36.4577,130.33412,-0.001,-90.47372,117.30942,-0.0018,102.23239,-1.60905,-16.28811,0.00108,-6.27294,5.38686,0.00211,-7.06481,-12.11831,7.97146,-30.44928,-14.24771,2.56614,-0.95143,0.49352,6.55147
1103,-9.44271,-0.0,-0.0,-5.51668,0.0,-0.0,-21.10393,-6.94818,3.65483,17.69245,-0.54874,-18.89885,-43.86098,-1.66722,0.01922,-23.81923,-2.39205,-0.00117,39.0256,15.67933,9.90018,9.4104,-0.07334,-12.54595,42.62721,29.42595,-8.75231,57.78126,-15.04861,36.78137,130.32506,-0.00158,-90.61458,117.25991,-0.00133,102.48733,-1.24279,-16.36676,0.00299,-6.15505,5.90614,0.00513,-7.11985,-12.10105,7.73165,-30.50671,-14.13881,2.35122,-1.12835,0.09362,6.55086
1104,-9.78682,-0.0,-0.0,-5.17077,0.0,-0.0,-20.15326,-6.6616,3.39682,17.94104,-0.66612,-19.08549,-47.16556,-1.83528,0.02103,-24.51765,-2.278,-0.00144,40.67453,15.61961,9.79285,9.53802,-0.79186,-12.41452,43.78247,29.42446,-9.88173,58.64017,-15.21851,37.12271,130.29442,-0.00149,-90.1888,117.18647,0.0,102.7817,-1.02134,-16.37916,0.00362,-5.8398,6.54372,0.00777,-7.20829,-12.06892,7.52615,-30.5952,-14.02954,2.17421,-1.33539,-0.36023,6.54763
1105,-9.84468,-0.0,0.0,-4.79273,-0.0,0.0,-18.68636,-6.49677,3.33602,18.21107,-0.69715,-19.33945,-50.64493,-1.96274,0.0138,-25.25194,-2.18048,-0.00131,42.39603,15.51283,9.68103,9.66521,-1.55259,-12.24728,44.96728,29.41643,-10.99487,59.56622,-15.40647,37.47985,130.24428,-0.00079,-89.02905,117.08522,0.00264,103.28756,-0.97659,-16.32011,0.00295,-5.35326,7.15355,0.00798,-7.30962,-12.02471,7.38238,-30.69429,-13.93316,2.05931,-1.58042,-0.83424,6.52697
1106,-9.337,-0.0,0.0,-4.29078,0.0,0.0,-16.88419,-6.42095,3.43842,18.46409,-0.64768,-19.62501,-54.20424,-1.99832,-0.00089,-25.98383,-2.10922,-0.00067,44.16489,15.36996,9.62184,9.76208,-2.3329,-12.09514,46.1557,29.40384,-12.06264,60.54785,-15.59093,37.86108,130.18362,-0.0001,-87.10921,116.95242,0.00605,104.1319,-1.13429,-16.16341,0.00108,-4.74277,7.64253,0.00574,-7.39418,-11.97573,7.30084,-30.7752,-13.85655,2.00391,-1.86428,-1.29751,6.46635
1107,-8.12505,0.0,-0.0,-3.62413,0.0,0.0,-14.91461,-6.34962,3.66999,18.67149,-0.52481,-19.89325,-57.76355,-1.91646,-0.0173,-26.68738,-2.07914,0.0003,45.96657,15.20703,9.65478,9.80585,-3.11165,-12.01419,47.3267,29.39529,-13.07307,61.55685,-15.74783,38.27752,130.11731,0.00017,-84.7088,116.79077,0.0084,105.27988,-1.46781,-15.88064,-0.00126,-4.07261,7.99699,0.00237,-7.43724,-11.93657,7.25232,-30.81511,-13.80177,1.97504,-2.17682,-1.73138,6.34362
1108,-6.25305,-0.0,-0.0,-2.8587,0.0,0.0,-12.89194,-6.21124,4.01122,18.8344,-0.34265,-20.10549,-61.26829,-1.72868,-0.02848,-27.35758,-2.10088,0.00119,47.80131,15.03478,9.78109,9.78893,-3.87735,-12.03658,48.48454,29.40085,-14.03977,62.55175,-15.86436,38.72817,130.03673,0.00018,-82.32354,116.61081,0.00769,106.46165,-1.90378,-15.46945,-0.00289,-3.45751,8.23508,-0.00065,-7.42927,-11.92649,7.18345,-30.80709,-13.76578,1.91549,-2.50145,-2.13461,6.14526
1109,-3.89057,0.0,-0.0,-2.13948,0.0,-0.0,-10.8755,-5.99832,4.46759,18.98094,-0.1337,-20.26317,-64.68208,-1.48403,-0.02894,-28.00459,-2.16584,0.00142,49.67511,14.85248,9.96081,9.71558,-4.63277,-12.14081,49.66137,29.4245,-14.99788,63.49201,-15.94932,39.18922,129.92474,4e-05,-80.34797,116.42808,0.00356,107.2392,-2.38312,-14.97052,-0.00299,-3.06776,8.34712,-0.00142,-7.37441,-11.95732,7.03817,-30.75708,-13.73768,1.76857,-2.82721,-2.52342,5.87436
1110,-1.26878,-0.0,0.0,-1.61344,0.0,-0.0,-8.88262,-5.74555,5.06966,19.14572,0.05458,-20.41478,-67.97089,-1.26079,-0.01758,-28.64102,-2.24543,0.00084,51.58339,14.65603,10.13046,9.59301,-5.39001,-12.24776,50.89447,29.46056,-15.98658,64.35674,-16.03044,39.62066,129.77097,-0.00016,-78.89841,116.25989,-0.00184,107.19582,-2.89584,-14.45535,-0.00174,-3.05745,8.28368,0.00216,-7.27994,-12.01945,6.78926,-30.67149,-13.69805,1.51314,-3.15975,-2.9254,5.5559
1111,1.3651,0.0,0.0,-1.34804,-0.0,0.0,-6.90554,-5.46507,5.86166,19.34607,0.18006,-20.62238,-71.09132,-1.13468,0.00039,-29.27102,-2.31071,-0.00017,53.49894,14.44993,10.24197,9.42095,-6.16172,-12.26477,52.19562,29.49894,-17.02903,65.15457,-16.13824,39.98898,129.58226,7e-05,-77.86612,116.12323,-0.00519,106.17762,-3.47653,-13.99126,-0.00011,-3.46283,8.00133,0.0097,-7.14804,-12.07969,6.45756,-30.54852,-13.62453,1.18214,-3.52475,-3.36885,5.22958
1112,3.7295,-0.0,0.0,-1.2971,-0.0,0.0,-4.92025,-5.11116,6.89075,19.57474,0.2321,-20.91195,-73.99436,-1.13276,0.0159,-29.88459,-2.35628,-0.00084,55.37829,14.25084,10.2957,9.18371,-6.95339,-12.15484,53.53812,29.53632,-18.12024,65.9165,-16.28792,40.28932,129.37798,0.00131,-77.05143,116.03166,-0.00478,104.43876,-4.16942,-13.61127,0.00085,-4.17433,7.5209,0.01689,-6.97723,-12.09722,6.10195,-30.3819,-13.5025,0.8467,-3.96023,-3.86947,4.92955
1113,5.44969,0.0,0.0,-1.33206,0.0,-0.0,-2.886,-4.60612,8.19944,19.81206,0.24231,-21.25259,-76.64326,-1.2114,0.0218,-30.45867,-2.40718,-0.00065,57.18834,14.08383,10.3382,8.85564,-7.75835,-11.97084,54.87172,29.58221,-19.22938,66.67601,-16.47376,40.55001,129.17278,0.0035,-76.29136,115.9906,-0.00196,102.50713,-4.98052,-13.30232,0.00012,-5.01745,6.94138,0.01898,-6.7716,-12.04881,5.78906,-30.17324,-13.33654,0.57779,-4.4963,-4.42029,4.66883
1114,6.12219,-0.0,0.0,-1.312,-0.0,0.0,-0.76219,-3.89861,9.80848,20.04453,0.26655,-21.58136,-79.02868,-1.28105,0.01733,-30.9677,-2.50212,0.00024,58.93296,13.97743,10.42808,8.4218,-8.55957,-11.82002,56.15004,29.6514,-20.31434,67.44975,-16.67979,40.81522,128.9622,0.00547,-75.55053,115.99618,0.00061,100.87352,-5.86471,-13.00592,-0.0028,-5.85204,6.40639,0.01484,-6.54914,-11.94543,5.56635,-29.94189,-13.15516,0.41457,-5.13306,-4.99382,4.44396
1115,5.59702,0.0,0.0,-1.15553,-0.0,0.0,1.44184,-3.005,11.68538,20.27587,0.3468,-21.85601,-81.16623,-1.26123,0.00734,-31.40057,-2.66153,0.00116,60.65299,13.96427,10.59673,7.89623,-9.33661,-11.77534,57.34715,29.74955,-21.33632,68.23196,-16.89661,41.11592,128.72838,0.00532,-74.95918,116.0402,0.00125,99.8238,-6.73982,-12.6377,-0.00664,-6.58013,6.05725,0.00715,-6.34096,-11.82729,5.4518,-29.72312,-13.00223,0.35709,-5.83766,-5.55562,4.25597
1116,4.23825,0.0,-0.0,-0.87637,0.0,-0.0,3.63127,-2.01278,13.7209,20.52349,0.47558,-22.09585,-83.07962,-1.12344,-0.00209,-31.77158,-2.86109,0.00145,62.40152,14.08592,10.82932,7.32272,-10.07147,-11.79786,58.45746,29.8655,-22.26774,69.00495,-17.13019,41.45041,128.46153,0.00173,-74.76566,116.11606,-9e-05,99.45504,-7.49668,-12.1349,-0.00819,-7.10848,5.96531,0.00054,-6.17833,-11.73965,5.43706,-29.55252,-12.91606,0.37918,-6.56294,-6.07884,4.12599
1117,2.80059,-0.0,-0.0,-0.55268,-0.0,-0.0,5.66672,-1.04671,15.7442,20.80407,0.59304,-22.36751,-84.78333,-0.88815,-0.0076,-32.11435,-3.03845,0.00085,64.22079,14.38575,11.08104,6.75941,-10.75403,-11.75115,59.48792,29.97646,-23.0969,69.75621,-17.39554,41.78942,128.17351,-0.00433,-75.20213,116.21999,-0.00237,99.70137,-8.01599,-11.50237,-0.00503,-7.385,6.0768,-0.00225,-6.07348,-11.70634,5.49588,-29.44448,-12.90834,0.44698,-7.26872,-6.55272,4.08446
1118,2.02447,-0.0,-0.0,-0.26055,0.0,0.0,7.43912,-0.21042,17.5713,21.1213,0.62498,-22.73075,-86.27001,-0.58604,-0.00919,-32.46331,-3.13088,-0.00047,66.12894,14.88337,11.31863,6.25299,-11.3906,-11.50066,60.45056,30.06228,-23.83058,70.48958,-17.70033,42.09682,127.88953,-0.00988,-76.34644,116.35013,-0.00402,100.33931,-8.20841,-10.81339,0.00163,-7.46099,6.26026,-0.0022,-6.00913,-11.71943,5.59443,-29.38099,-12.95863,0.53254,-7.93503,-6.98767,4.13987
1119,2.37637,0.0,0.0,-0.03997,-0.0,-0.0,8.89211,0.45662,19.0543,21.46527,0.53291,-23.20341,-87.50587,-0.22352,-0.00821,-32.83811,-3.10979,-0.00198,68.10774,15.55132,11.5533,5.81114,-12.00967,-11.00225,61.35731,30.11888,-24.4927,71.222,-18.03277,42.34791,127.63031,-0.01221,-78.06317,116.50192,-0.00385,101.03454,-8.0661,-10.16368,0.00758,-7.46231,6.41386,-0.00131,-5.94821,-11.75179,5.70186,-29.3226,-13.03006,0.61844,-8.57049,-7.41591,4.25813
1120,4.01965,0.0,0.0,0.09489,-0.0,0.0,10.00863,0.97367,20.11342,21.82102,0.34502,-23.75803,-88.4472,0.22881,-0.00551,-33.23724,-2.99493,-0.00295,70.10039,16.32074,11.83748,5.38735,-12.64949,-10.32732,62.21632,30.16089,-25.11658,71.96798,-18.36311,42.53866,127.40374,-0.01051,-80.03006,116.66092,-0.0019,101.45485,-7.6958,-9.62247,0.00949,-7.49938,6.50951,-0.00046,-5.85769,-11.78142,5.797,-29.23437,-13.09421,0.69415,-9.21426,-7.87529,4.37525
1121,6.84738,0.0,0.0,0.13808,0.0,0.0,10.81455,1.37576,20.74997,22.17596,0.14349,-24.33594,-89.07289,0.82607,-0.00098,-33.6426,-2.84271,-0.00293,72.03859,17.11415,12.23012,4.89982,-13.33329,-9.62287,63.02981,30.21237,-25.73059,72.72303,-18.65626,42.6845,127.20969,-0.00585,-81.82849,116.80285,0.00031,101.43712,-7.29345,-9.22475,0.00753,-7.61612,6.56821,0.0002,-5.72654,-11.80698,5.86764,-29.10523,-13.14511,0.74891,-9.91764,-8.38202,4.43321
1122,10.52502,0.0,0.0,0.0917,0.0,0.0,11.38546,1.6738,21.03386,22.52007,0.00621,-24.87602,-89.40028,1.6105,0.0057,-34.03662,-2.70904,-0.00216,73.88661,17.8803,12.75246,4.28871,-14.06159,-9.02069,63.79356,30.29432,-26.34269,73.45861,-18.88735,42.80785,127.04802,-0.00045,-83.09626,116.90672,0.0015,101.08027,-7.05238,-8.99578,0.00445,-7.80641,6.61577,0.00078,-5.56575,-11.84275,5.90478,-28.94757,-13.19237,0.7686,-10.70575,-8.92363,4.41232
1123,14.53441,0.0,-0.0,-0.01626,0.0,-0.0,11.83224,1.85262,21.06112,22.84255,-0.04424,-25.33691,-89.47245,2.55046,0.01357,-34.41808,-2.62076,-0.00112,75.6597,18.6103,13.34772,3.56363,-14.82573,-8.56858,64.4987,30.41886,-26.93538,74.13348,-19.05047,42.92268,126.92159,0.00346,-83.7092,116.96795,0.00182,100.61975,-7.05576,-8.96208,0.00262,-8.05007,6.63794,0.00155,-5.39754,-11.90071,5.89875,-28.78479,-13.24323,0.7394,-11.55303,-9.47871,4.3366
1124,18.24807,0.0,-0.0,-0.11746,0.0,-0.0,12.26609,1.89998,20.90359,23.13362,-0.03331,-25.6969,-89.333,3.50207,0.01971,-34.79959,-2.58164,-9e-05,77.39828,19.32626,13.86382,2.78929,-15.62043,-8.24559,65.13616,30.58911,-27.47771,74.71517,-19.15684,43.03,126.83415,0.00493,-83.87397,116.99833,0.00213,100.21403,-7.22776,-9.13105,0.00172,-8.30717,6.58758,0.00255,-5.24563,-11.97782,5.84148,-28.64037,-13.29175,0.65511,-12.40172,-10.03612,4.24745
1125,21.12152,0.0,-0.0,-0.11949,0.0,0.0,12.75056,1.83161,20.58472,23.39201,0.01053,-25.94889,-89.00436,4.24087,0.02046,-35.19403,-2.591,0.00091,79.12669,20.05337,14.09238,2.03121,-16.44662,-8.01888,65.70248,30.79722,-27.94787,75.19746,-19.22958,43.12787,126.78667,0.00468,-84.00937,117.01478,0.0029,99.86577,-7.39116,-9.46342,-6e-05,-8.49213,6.46315,0.00359,-5.12747,-12.05625,5.73328,-28.53003,-13.32171,0.5233,-13.20223,-10.59845,4.17061
1126,22.91441,-0.0,-0.0,0.04669,0.0,0.0,13.27408,1.69559,20.09315,23.62953,0.08439,-26.10076,-88.47896,4.55693,0.0135,-35.60568,-2.65007,0.00182,80.83527,20.79965,13.86128,1.32078,-17.30828,-7.87404,66.20599,31.02066,-28.35046,75.60246,-19.29956,43.22211,126.7751,0.00396,-84.45165,117.02398,0.00392,99.48697,-7.39098,-9.87561,-0.003,-8.49385,6.35244,0.00517,-5.04563,-12.11142,5.58694,-28.45382,-13.31549,0.36583,-13.93453,-11.17605,4.10585
1127,23.76505,0.0,0.0,0.3816,0.0,0.0,13.76833,1.55957,19.4201,23.86602,0.19904,-26.17735,-87.72738,4.35701,-3e-05,-36.02982,-2.75185,0.00236,82.4903,21.55454,13.12741,0.65644,-18.20907,-7.80409,66.67021,31.22601,-28.71594,75.96617,-19.39801,43.32333,126.78961,0.00326,-85.21152,117.01211,0.00459,99.01998,-7.18339,-10.2715,-0.00517,-8.23789,6.36986,0.00786,-4.98331,-12.12002,5.42301,-28.39264,-13.25971,0.21118,-14.60274,-11.781,4.03878
1128,24.1137,0.0,0.0,0.81323,-0.0,0.0,14.14865,1.48022,18.59475,24.11914,0.35021,-26.22258,-86.71621,3.71328,-0.01501,-36.45586,-2.86622,0.00215,84.05267,22.29707,12.00793,0.02002,-19.15097,-7.78496,67.1279,31.38481,-29.08373,76.31816,-19.54542,43.43693,126.81562,0.00243,-85.99487,116.95036,0.00423,98.49178,-6.841,-10.56387,-0.00493,-7.74722,6.55144,0.01039,-4.91245,-12.06748,5.25907,-28.31705,-13.14781,0.08152,-15.22132,-12.42284,3.95325
1129,24.48441,-0.0,0.0,1.23953,0.0,0.0,14.35826,1.46304,17.69605,24.39721,0.51418,-26.28726,-85.42752,2.81819,-0.02519,-36.86985,-2.94416,0.00117,85.49281,23.0016,10.71264,-0.60917,-20.13282,-7.77677,67.60544,31.49206,-29.47988,76.67045,-19.74299,43.56244,126.83857,0.00152,-86.47144,116.81363,0.00227,97.92107,-6.48921,-10.68464,-0.00269,-7.16057,6.80382,0.01051,-4.81126,-11.95508,5.10408,-28.20554,-12.98445,-0.01548,-15.80392,-13.10323,3.83284
1130,25.20308,0.0,-0.0,1.58465,0.0,0.0,14.40463,1.44349,16.8359,24.69608,0.66708,-26.39923,-83.87527,1.87242,-0.0274,-37.25682,-2.94368,-0.00015,86.79705,23.64873,9.41861,-1.2445,-21.14858,-7.74484,68.10798,31.57336,-29.90293,77.02165,-19.97092,43.70449,126.85104,0.00083,-86.55294,116.59826,-0.00149,97.21021,-6.22107,-10.60611,-0.00012,-6.6866,6.95941,0.00895,-4.67765,-11.80253,4.96396,-28.05802,-12.79001,-0.08247,-16.357,-13.81328,3.66513
1131,26.31354,0.0,0.0,1.83162,0.0,0.0,14.3485,1.31694,16.12456,25.00137,0.80417,-26.54588,-82.10786,0.99991,-0.02308,-37.60357,-2.85332,-0.00118,87.96043,24.24593,8.19585,-1.88869,-22.18834,-7.66598,68.618,31.67407,-30.32832,77.36799,-20.19595,43.88134,126.85383,0.00049,-86.42181,116.32774,-0.00595,96.1945,-6.05796,-10.35096,0.0018,-6.51216,6.89133,0.00898,-4.52879,-11.64263,4.85092,-27.89479,-12.59932,-0.12159,-16.88075,-14.53963,3.45547
1132,27.73166,-0.0,0.0,2.01694,0.0,0.0,14.24311,1.00711,15.64167,25.2953,0.94355,-26.68785,-80.18761,0.24038,-0.01599,-37.90241,-2.69325,-0.00157,88.97337,24.83133,7.03392,-2.53742,-23.24577,-7.52522,69.10739,31.83471,-30.72743,77.71172,-20.38895,44.11665,126.84873,0.00048,-86.32351,116.04359,-0.00879,94.78685,-5.97326,-9.97309,0.00308,-6.70094,6.58331,0.0113,-4.38955,-11.51044,4.78455,-27.74385,-12.45218,-0.12904,-17.37418,-15.27469,3.22746
1133,29.36035,0.0,0.0,2.19666,0.0,-0.0,14.08813,0.52015,15.42736,25.56153,1.1079,-26.78326,-78.16203,-0.40913,-0.00895,-38.15529,-2.49951,-0.00138,89.81425,25.45197,5.92067,-3.18328,-24.3286,-7.32236,69.54975,32.06749,-31.08478,78.06423,-20.54262,44.4222,126.83308,0.00077,-86.39136,115.78594,-0.00841,93.04989,-5.93595,-9.53492,0.00381,-7.14765,6.11969,0.01239,-4.27951,-11.4313,4.78478,-27.62691,-12.37962,-0.09672,-17.83613,-16.02241,3.00536
1134,31.02529,-0.0,0.0,2.41082,0.0,0.0,13.84258,-0.06759,15.4845,25.78927,1.30886,-26.8003,-76.05434,-0.95071,-0.00269,-38.37407,-2.31285,-0.00084,90.44726,26.14427,4.89668,-3.82178,-25.45931,-7.08199,69.92336,32.3526,-31.40182,78.44143,-20.67425,44.79161,126.80457,0.00141,-86.65411,115.57394,-0.00519,91.18464,-5.94737,-9.09637,0.0036,-7.63893,5.63157,0.00936,-4.20755,-11.41238,4.86592,-27.55334,-12.39376,-0.01427,-18.26561,-16.79601,2.80427
1135,32.41913,-0.0,0.0,2.67584,0.0,-0.0,13.45573,-0.66683,15.77963,25.97716,1.54702,-26.72743,-73.87181,-1.37609,0.00242,-38.57464,-2.16906,-0.00024,90.82467,26.93029,4.042,-4.46053,-26.66122,-6.83906,70.20644,32.65908,-31.68701,78.85349,-20.81285,45.21114,126.7698,0.00242,-87.09829,115.39787,-0.00073,89.48962,-6.05508,-8.6971,0.00185,-7.97935,5.23139,0.0036,-4.17731,-11.44322,5.03395,-27.52572,-12.48734,0.12806,-18.66436,-17.60814,2.63493
1136,33.20898,0.0,-0.0,3.00471,0.0,0.0,12.86775,-1.21285,16.23938,26.12991,1.80784,-26.5862,-71.6156,-1.68711,0.00538,-38.76911,-2.08104,0.0002,90.90266,27.82241,3.41529,-5.11769,-27.93642,-6.59631,70.3726,32.97271,-31.93694,79.29851,-20.98317,45.6773,126.74427,0.0035,-87.63778,115.22746,0.00371,88.26855,-6.312,-8.33007,-0.00155,-8.09844,4.95559,-0.00124,-4.19624,-11.50662,5.28025,-27.54987,-12.64122,0.32936,-19.03386,-18.45656,2.51305
1137,33.16886,0.0,0.0,3.41661,0.0,-0.0,12.00502,-1.67311,16.74922,26.25589,2.07053,-26.42514,-69.28679,-1.90741,0.00559,-38.95839,-2.0359,0.0004,90.66796,28.82515,3.00912,-5.80793,-29.25142,-6.31549,70.39117,33.30532,-32.12421,79.76569,-21.19844,46.20671,126.74513,0.00353,-88.06837,115.03196,0.00733,87.68451,-6.7151,-7.9395,-0.00608,-8.08526,4.74407,-0.00243,-4.27731,-11.59085,5.57137,-27.63758,-12.83163,0.56358,-19.36581,-19.31333,2.46181
1138,32.19859,-0.0,0.0,3.91061,0.0,-0.0,10.80061,-2.04526,17.16289,26.37136,2.33433,-26.2867,-66.88908,-2.06821,0.004,-39.12819,-2.01735,0.0004,90.15448,29.92904,2.7616,-6.5299,-30.54591,-5.9712,70.23338,33.67587,-32.20737,80.24509,-21.46658,46.82816,126.78811,0.00076,-88.1177,114.80238,0.00907,87.65192,-7.20391,-7.46443,-0.01031,-8.13369,4.48349,0.00136,-4.43036,-11.6925,5.84898,-27.79858,-13.03278,0.77832,-19.63536,-20.12894,2.50367
1139,30.31075,0.0,0.0,4.43402,0.0,0.0,9.22382,-2.34394,17.32754,26.49673,2.61493,-26.17628,-64.43039,-2.18768,0.00283,-39.25272,-2.02222,0.00025,89.43568,31.10936,2.60285,-7.2632,-31.7595,-5.59599,69.88274,34.07986,-32.15423,80.73608,-21.80127,47.56306,126.89185,-0.00584,-87.55682,114.56113,0.00816,87.89159,-7.70336,-6.91854,-0.01206,-8.42662,4.08539,0.00962,-4.65373,-11.8112,6.0521,-28.03174,-13.22063,0.9174,-19.80316,-20.85028,2.654
1140,27.67909,0.0,0.0,4.89289,0.0,-0.0,7.30255,-2.58512,17.1264,26.64306,2.91486,-26.06248,-61.92889,-2.26385,0.004,-39.30334,-2.05331,-2e-05,88.59844,32.33509,2.49095,-7.97741,-32.8544,-5.26513,69.34316,34.4767,-31.9573,81.24844,-22.2239,48.41224,127.0803,-0.01453,-86.33869,114.3501,0.00525,88.12288,-8.14728,-6.44842,-0.01012,-9.02771,3.53783,0.01845,-4.93844,-11.94681,6.15085,-28.32854,-13.38345,0.95324,-19.82601,-21.43749,2.92176
1141,24.69189,-0.0,0.0,5.20269,0.0,-0.0,5.13698,-2.78326,16.51923,26.80574,3.21798,-25.90492,-59.42554,-2.28369,0.00754,-39.25717,-2.10587,-0.00033,87.71511,33.57861,2.41877,-8.64876,-33.82249,-5.05129,68.6394,34.80883,-31.63651,81.79678,-22.75197,49.36069,127.37214,-0.01969,-84.7322,114.20583,0.00196,88.22206,-8.48959,-6.28243,-0.00583,-9.84434,2.91756,0.02196,-5.28275,-12.10076,6.16431,-28.68738,-13.52997,0.90281,-19.67049,-21.87132,3.30772
1142,21.90918,0.0,0.0,5.3391,-0.0,0.0,2.8912,-2.95387,15.54942,26.97005,3.50985,-25.68406,-56.99498,-2.24264,0.0113,-39.10441,-2.16331,-0.0005,86.82851,34.82347,2.39771,-9.26989,-34.67741,-4.98527,67.81266,35.03782,-31.23363,82.39444,-23.3849,50.39539,127.76218,-0.01562,-83.28419,114.14097,-0.00067,88.24374,-8.72568,-6.57666,-0.00146,-10.67889,2.37235,0.01757,-5.69963,-12.27416,6.14532,-29.12105,-13.68172,0.81439,-19.32371,-22.15266,3.80087
1143,19.85498,0.0,0.0,5.34804,-0.0,0.0,0.75938,-3.10022,14.31611,27.11893,3.78459,-25.40922,-54.74265,-2.16297,0.01253,-38.8516,-2.20234,-0.00038,85.95712,36.06717,2.43381,-9.84498,-35.43637,-5.04188,66.91466,35.16766,-30.79811,83.05148,-24.09919,51.52023,128.21454,-0.00307,-82.50613,114.14324,-0.00249,88.29881,-8.8969,-7.28836,0.00199,-11.33177,2.05636,0.00911,-6.20431,-12.46264,6.14418,-29.6441,-13.85422,0.73618,-18.7979,-22.29372,4.379
1144,18.74651,0.0,-0.0,5.31134,-0.0,0.0,-1.07716,-3.19388,12.93708,27.2355,4.03239,-25.10216,-52.78082,-2.09538,0.01032,-38.51569,-2.20452,-5e-05,85.11091,37.3118,2.51474,-10.38354,-36.10106,-5.16279,65.99726,35.23698,-30.36805,83.77586,-24.85344,52.75494,128.67961,0.01071,-82.57737,114.18987,-0.00336,88.38694,-9.04803,-8.20964,0.00418,-11.6915,2.03848,0.00254,-6.79157,-12.65811,6.18011,-30.25051,-14.0475,0.68918,-18.13026,-22.30233,5.00996
1145,18.45006,-0.0,0.0,5.31276,-0.0,0.0,-2.49579,-3.18842,11.51878,27.30243,4.24231,-24.77211,-51.18961,-2.09767,0.00646,-38.11331,-2.17164,0.00017,84.29282,38.54829,2.62282,-10.90531,-36.65463,-5.30631,65.0991,35.28892,-29.95938,84.57104,-25.59759,54.1177,129.12094,0.01818,-83.32488,114.26416,-0.00291,88.34961,-9.17681,-9.12409,0.0047,-11.76048,2.26155,4e-05,-7.42633,-12.85765,6.23829,-30.90503,-14.25313,0.6609,-17.38028,-22.17488,5.65191
1146,18.70306,-0.0,-0.0,5.41886,0.0,0.0,-3.46288,-3.0563,10.14059,27.30807,4.423,-24.40669,-49.98071,-2.20885,0.00328,-37.65679,-2.12951,5e-05,83.47977,39.74895,2.76658,-11.44103,-37.08591,-5.47732,64.23721,35.3453,-29.5694,85.42825,-26.28328,55.60598,129.52737,0.01586,-84.33119,114.36041,-0.00091,87.95778,-9.24086,-9.90547,0.00403,-11.6271,2.58032,-0.00016,-8.05794,-13.06715,6.2869,-31.55779,-14.46416,0.61955,-16.6162,-21.91155,6.25848
1147,19.31369,-0.0,0.0,5.64966,-0.0,-0.0,-4.0236,-2.7949,8.86041,27.26057,4.59742,-23.99757,-49.0833,-2.44591,0.00139,-37.16161,-2.10056,-0.00016,82.61047,40.87434,2.98948,-12.01369,-37.41867,-5.69254,63.40664,35.40411,-29.1845,86.32256,-26.87712,57.19236,129.90686,0.00549,-85.06937,114.47672,0.00212,87.01568,-9.2081,-10.50645,0.00313,-11.42977,2.83099,0.00029,-8.6455,-13.29349,6.29539,-32.16879,-14.675,0.53409,-15.88886,-21.53723,6.79254
1148,20.14422,0.0,-0.0,5.94777,0.0,0.0,-4.26378,-2.40972,7.72837,27.19442,4.77336,-23.56972,-48.36062,-2.81273,-0.00014,-36.65493,-2.07693,-9e-05,81.60469,41.88683,3.33712,-12.61937,-37.70768,-5.93038,62.58605,35.4533,-28.78472,87.22082,-27.37516,58.83557,130.27773,-0.00659,-85.1427,114.60713,0.00478,85.46325,-9.07805,-10.9333,0.00194,-11.31245,2.88551,0.00203,-9.17467,-13.53402,6.24248,-32.72346,-14.87496,0.38596,-15.21585,-21.09861,7.24135
1149,21.00486,0.0,0.0,6.19543,0.0,0.0,-4.29168,-1.93381,6.79055,27.15458,4.94242,-23.16362,-47.64701,-3.28991,-0.00204,-36.1717,-2.03791,0.00021,80.4071,42.75869,3.81848,-13.22997,-37.99897,-6.15166,61.75103,35.47924,-28.35548,88.0972,-27.80741,60.4953,130.66106,-0.01203,-84.59249,114.74062,0.00563,83.44511,-8.84462,-11.25906,-0.0013,-11.37721,2.67292,0.00608,-9.65795,-13.77455,6.11505,-33.23268,-15.04594,0.16895,-14.58825,-20.63767,7.62082
1150,21.65311,0.0,0.0,6.29297,0.0,-0.0,-4.26569,-1.46757,6.09473,27.16461,5.10273,-22.79284,-46.78424,-3.81603,-0.00364,-35.73841,-1.98329,0.00039,79.03274,43.47477,4.38755,-13.80873,-38.28556,-6.35669,60.89725,35.46311,-27.91362,88.94165,-28.22184,62.13882,131.06464,-0.00606,-83.99322,114.86909,0.0045,81.25562,-8.46626,-11.6338,-0.00828,-11.66996,2.20614,0.01066,-10.12221,-13.99638,5.90818,-33.72094,-15.16888,-0.11362,-13.98405,-20.16393,7.96635
1151,21.77349,-0.0,-0.0,6.21328,0.0,-0.0,-4.4148,-1.16072,5.71806,27.20963,5.25528,-22.43822,-45.6442,-4.30001,-0.00368,-35.36032,-1.93145,0.00031,77.58255,44.04405,4.94919,-14.31299,-38.49374,-6.57825,60.05917,35.3819,-27.52084,89.75203,-28.65567,63.73295,131.46272,0.00672,-84.06021,114.99899,0.0022,79.24975,-7.90822,-12.20659,-0.01757,-12.17744,1.63458,0.01115,-10.59039,-14.18389,5.63566,-34.20899,-15.23484,-0.44243,-13.37215,-19.64598,8.32139
1152,20.84064,0.0,0.0,5.97697,0.0,0.0,-5.00514,-1.14111,5.80728,27.2531,5.39039,-22.07318,-44.13433,-4.66733,-0.00248,-35.02274,-1.89838,2e-05,76.19637,44.51019,5.39858,-14.69072,-38.51902,-6.83073,59.30081,35.22345,-27.25504,90.52045,-29.11669,65.23164,131.79378,0.0152,-85.05682,115.15195,-0.00066,77.76575,-7.20679,-12.99678,-0.02377,-12.81197,1.21812,0.00531,-11.06621,-14.3262,5.34281,-34.69911,-15.25147,-0.77107,-12.71655,-19.03345,8.72682
1153,18.14313,-0.0,0.0,5.61755,0.0,0.0,-6.27895,-1.45589,6.58324,27.26556,5.50526,-21.67912,-42.18969,-4.90005,-0.00299,-34.69979,-1.89504,-0.00041,74.96267,44.93225,5.67446,-14.90073,-38.28852,-7.10355,58.68015,34.99982,-27.15976,91.22729,-29.58586,66.57652,131.98882,0.01355,-86.62892,115.35046,-0.00356,76.9636,-6.48047,-13.87423,-0.02204,-13.42137,1.17432,-0.002,-11.5337,-14.41514,5.10044,-35.17479,-15.23881,-1.03096,-11.99492,-18.29529,9.20451
1154,13.14694,0.0,0.0,5.17903,0.0,-0.0,-8.38185,-2.04748,8.25729,27.23869,5.61967,-21.25523,-39.76808,-5.039,-0.00861,-34.36577,-1.9265,-0.00084,73.85846,45.34675,5.77683,-14.93941,-37.80424,-7.37411,58.21581,34.74329,-27.21948,91.84447,-30.03135,67.71211,132.01172,0.00599,-88.18694,115.60052,-0.00551,76.72617,-5.8818,-14.67054,-0.01339,-13.8304,1.54895,-0.00302,-11.97313,-14.44663,4.97401,-35.61668,-15.21856,-1.16029,-11.21456,-17.44537,9.74851
1155,5.99956,0.0,-0.0,4.71698,0.0,-0.0,-11.28287,-2.77806,10.8768,27.18105,5.76307,-20.82193,-36.86037,-5.14668,-0.01876,-34.00694,-1.98358,-0.00108,72.7548,45.74771,5.74359,-14.84282,-37.14521,-7.60569,57.88066,34.49085,-27.3762,92.34496,-30.4222,68.60431,131.87903,-0.00095,-89.38246,115.88353,-0.00574,76.79187,-5.51849,-15.28895,-0.00343,-13.88647,2.22359,0.00421,-12.37762,-14.42579,4.99099,-36.01904,-15.20607,-1.13602,-10.40995,-16.54168,10.3365
1156,-2.26101,0.0,0.0,4.28712,0.0,0.0,-14.73311,-3.51012,14.21104,27.10414,5.95378,-20.40404,-33.51216,-5.25425,-0.02667,-33.62519,-2.04734,-0.00104,71.47459,46.09488,5.61057,-14.67421,-36.42992,-7.76287,57.62306,34.27337,-27.56314,92.71363,-30.73823,69.25255,131.64694,-0.00476,-90.24066,116.16104,-0.00443,76.93951,-5.39428,-15.72101,0.00319,-13.51774,2.99594,0.01319,-12.75294,-14.36964,5.13028,-36.38927,-15.20872,-0.98461,-9.63217,-15.66084,10.94706
1157,-10.11513,0.0,0.0,3.9296,0.0,0.0,-18.31007,-4.18851,17.78563,27.01218,6.18005,-20.01725,-29.83721,-5.33037,-0.02313,-33.23184,-2.0986,-0.00069,69.87856,46.34175,5.38033,-14.50149,-35.76032,-7.82704,57.3982,34.11523,-27.72778,92.95107,-30.97525,69.6896,131.3812,-0.00528,-90.90051,116.38805,-0.00254,77.0541,-5.42201,-15.98321,0.00565,-12.79322,3.65232,0.01547,-13.10057,-14.30263,5.33512,-36.73086,-15.22689,-0.76834,-8.93229,-14.86222,11.56866
1158,-16.31207,0.0,0.0,3.66477,0.0,-0.0,-21.54,-4.84642,21.04738,26.90284,6.39494,-19.67299,-26.00421,-5.29422,-0.0044,-32.83893,-2.12231,-0.00016,67.93181,46.46622,5.03282,-14.36789,-35.18393,-7.78963,57.18733,34.0362,-27.83668,93.06557,-31.14415,69.96664,131.13196,-0.00278,-91.30103,116.52921,-0.00101,77.11851,-5.49275,-16.04996,0.00567,-11.91721,4.02702,0.00952,-13.40301,-14.24649,5.5376,-37.02811,-15.2541,-0.55869,-8.33825,-14.16756,12.19881
1159,-20.32392,-0.0,-0.0,3.50015,0.0,0.0,-24.02693,-5.53311,23.53703,26.77521,6.5321,-19.38911,-22.20131,-5.0672,0.02265,-32.45354,-2.11276,0.00037,65.71078,46.48176,4.56965,-14.28051,-34.689,-7.64417,56.99678,34.04604,-27.87421,93.06146,-31.26354,70.13013,130.92372,0.00116,-91.19328,116.57095,-5e-05,77.17042,-5.52758,-15.8615,0.00527,-11.1283,4.05321,0.0014,-13.63057,-14.21046,5.68329,-37.25222,-15.27769,-0.4096,-7.84214,-13.5665,12.83392
1160,-22.27107,0.0,0.0,3.43446,0.0,0.0,-25.51532,-6.25965,24.98749,26.63701,6.53028,-19.19663,-18.59839,-4.63118,0.04436,-32.07682,-2.07532,0.00074,63.3628,46.42176,4.04547,-14.22294,-34.22412,-7.38962,56.84505,34.13555,-27.84737,92.93528,-31.34906,70.20388,130.76074,0.00403,-90.44634,116.52296,0.00057,77.24714,-5.48835,-15.40651,0.0053,-10.57738,3.78493,-0.00292,-13.76923,-14.18827,5.74681,-37.38863,-15.28203,-0.3419,-7.40519,-13.03572,13.45539
1161,-22.59019,0.0,0.0,3.45875,0.0,-0.0,-25.90753,-7.01468,25.35357,26.50465,6.35965,-19.1352,-15.3196,-4.05138,0.04994,-31.70741,-2.0217,0.00088,61.05719,46.31004,3.56045,-14.17396,-33.72795,-7.04266,56.74871,34.27385,-27.78799,92.68142,-31.40673,70.18759,130.64076,0.00447,-89.2595,116.4099,0.00111,77.37132,-5.3662,-14.77854,0.00515,-10.28343,3.36845,-0.00287,-13.84591,-14.1652,5.73111,-37.46275,-15.25479,-0.34677,-6.97315,-12.55517,14.02155
1162,-21.79027,-0.0,0.0,3.55911,0.0,0.0,-25.308,-7.77541,24.79911,26.39606,6.03897,-19.2365,-12.43423,-3.45091,0.03823,-31.34666,-1.96408,0.00082,58.94912,46.14389,3.22164,-14.12156,-33.15372,-6.64664,56.71127,34.41613,-27.73694,92.30415,-31.43457,70.07301,130.56599,0.00322,-88.07934,116.26065,0.00168,77.56484,-5.15078,-14.1464,0.00337,-10.18215,2.97257,-0.00122,-13.92452,-14.13122,5.65404,-37.53744,-15.19372,-0.40363,-6.49896,-12.11018,14.47426
1163,-20.40079,0.0,-0.0,3.71273,-0.0,-0.0,-24.0575,-8.47579,23.64097,26.32444,5.63372,-19.50142,-9.97221,-2.95701,0.01676,-31.00344,-1.91486,0.00055,57.15252,45.90446,3.10829,-14.06607,-32.48288,-6.26813,56.71682,34.51982,-27.7154,91.82848,-31.42998,69.86331,130.54674,0.00235,-87.35149,116.10267,0.00204,77.82388,-4.80532,-13.69144,-0.00147,-10.20327,2.71701,-0.00016,-14.06764,-14.08902,5.53834,-37.67563,-15.11012,-0.49264,-5.9649,-11.68663,14.76026
1164,-18.95984,0.0,-0.0,3.87694,0.0,-0.0,-22.6406,-9.01401,22.2519,26.29749,5.23729,-19.88448,-7.95297,-2.64832,-0.00401,-30.69692,-1.89191,0.00014,55.71486,45.58113,3.26222,-14.0076,-31.73309,-5.98082,56.7338,34.56397,-27.70727,91.29957,-31.39853,69.57806,130.59468,0.00329,-87.29162,115.9638,0.00202,78.07967,-4.28422,-13.54384,-0.00923,-10.31246,2.63276,-0.00014,-14.28898,-14.04759,5.41503,-37.89203,-15.02425,-0.58897,-5.38824,-11.27452,14.85654
1165,-17.928,0.0,-0.0,4.0016,0.0,-0.0,-21.46048,-9.32419,20.96042,26.31526,4.93337,-20.31114,-6.40587,-2.5315,-0.01684,-30.45331,-1.91194,-0.00019,54.60345,45.18581,3.67687,-13.93326,-30.95588,-5.82922,56.7321,34.56196,-27.6708,90.76984,-31.35874,69.24171,130.70934,0.00525,-87.80655,115.87476,0.00182,78.23113,-3.59368,-13.7184,-0.01653,-10.49679,2.6704,-0.00049,-14.53356,-14.00651,5.32906,-38.13183,-14.95322,-0.65106,-4.81038,-10.87671,14.78251
1166,-17.56131,0.0,0.0,4.06232,0.0,-0.0,-20.64237,-9.42368,19.98513,26.36475,4.75411,-20.72198,-5.37101,-2.55942,-0.02039,-30.29279,-1.97138,-0.00027,53.72266,44.74457,4.26595,-13.82862,-30.21574,-5.79585,56.70145,34.55527,-27.57036,90.28269,-31.33579,68.86877,130.87054,0.00605,-88.58137,115.86336,0.00168,78.23602,-2.84423,-14.10026,-0.01848,-10.72065,2.75327,-0.00039,-14.70404,-13.94818,5.32959,-38.29609,-14.89997,-0.62642,-4.28541,-10.50721,14.58682
1167,-17.81748,-0.0,0.0,4.06878,0.0,0.0,-20.02361,-9.39389,19.4101,26.42122,4.66992,-21.09591,-4.88681,-2.67177,-0.01775,-30.21619,-2.04078,-0.00015,52.95587,44.27907,4.86105,-13.70209,-29.56091,-5.81239,56.65575,34.58669,-27.40092,89.86206,-31.34768,68.4601,131.04649,0.00462,-89.2311,115.94122,0.0013,78.17057,-2.2252,-14.51416,-0.0139,-10.90614,2.84774,0.00058,-14.71657,-13.84976,5.44272,-38.2986,-14.85371,-0.48153,-3.87281,-10.17809,14.32232
1168,-18.39161,0.0,0.0,4.04572,-0.0,-0.0,-19.31458,-9.32582,19.19519,26.45947,4.61837,-21.43491,-4.97899,-2.82574,-0.01306,-30.20659,-2.08296,-1e-05,52.20876,43.79711,5.29187,-13.58499,-29.00788,-5.80277,56.62342,34.66958,-27.1911,89.51232,-31.39785,68.01419,131.20853,0.00209,-89.47792,116.09399,0.00018,78.2002,-1.90207,-14.82403,-0.00666,-10.964,2.98911,0.00257,-14.54796,-13.70737,5.64356,-38.11543,-14.80122,-0.23769,-3.62334,-9.88953,14.03496
1169,-18.8686,-0.0,0.0,4.0075,0.0,-0.0,-18.2985,-9.25972,19.20458,26.46902,4.54453,-21.74027,-5.65603,-3.00116,-0.00925,-30.24095,-2.07729,6e-05,51.43698,43.2907,5.50343,-13.50864,-28.54665,-5.72463,56.63338,34.77768,-26.98937,89.22712,-31.48018,67.54227,131.3412,0.00026,-89.29365,116.2814,-0.0013,78.50432,-1.92648,-14.98328,-0.00112,-10.85026,3.23341,0.00523,-14.24307,-13.54952,5.85256,-37.79405,-14.73771,0.02011,-3.55885,-9.63313,13.76421
1170,-18.86149,0.0,0.0,3.93468,0.0,-0.0,-16.95399,-9.15827,19.24524,26.46359,4.42558,-22.00278,-6.90317,-3.18937,-0.00745,-30.29522,-2.03436,0.00011,50.6442,42.73391,5.60746,-13.49163,-28.1578,-5.59453,56.7025,34.86335,-26.84363,88.99988,-31.58737,67.07137,131.44438,-0.00042,-88.84178,116.44965,-0.00171,79.20403,-2.24522,-15.01683,0.0015,-10.60792,3.59065,0.00726,-13.88185,-13.42179,5.96938,-37.41936,-14.66599,0.18052,-3.66354,-9.40601,13.53655
1171,-18.09327,0.0,0.0,3.77734,0.0,0.0,-15.44368,-8.9451,19.13543,26.47595,4.27611,-22.20156,-8.67178,-3.38659,-0.00697,-30.34339,-1.99617,0.00014,49.858,42.09002,5.81399,-13.53819,-27.8274,-5.48663,56.82787,34.88781,-26.78465,88.82607,-31.71142,66.63225,131.53125,-0.00084,-88.26997,116.55244,-0.00016,80.26683,-2.78542,-14.97724,0.0021,-10.36537,3.99506,0.00742,-13.5343,-13.35195,5.9277,-37.06459,-14.58577,0.17093,-3.88971,-9.221,13.35389
1172,-16.46916,-0.0,0.0,3.49591,0.0,0.0,-13.99005,-8.57708,18.80013,26.53646,4.13939,-22.3069,-10.87549,-3.59967,-0.00546,-30.36005,-2.01946,1e-05,49.11879,41.33444,6.28032,-13.62566,-27.54675,-5.49787,56.98862,34.84057,-26.81833,88.69541,-31.83787,66.24181,131.62352,-0.00196,-87.59755,116.57129,0.0022,81.44672,-3.51017,-14.90992,0.00166,-10.27777,4.3276,0.00653,-13.23567,-13.32778,5.73144,-36.76358,-14.48737,2e-05,-4.16394,-9.09708,13.19158
1173,-14.11582,0.0,-0.0,3.09785,-0.0,0.0,-12.74149,-8.08603,18.31642,26.64888,4.06219,-22.29058,-13.40247,-3.8526,-0.00023,-30.32832,-2.14827,-0.00039,48.48058,40.47809,6.99838,-13.69387,-27.29978,-5.6956,57.1586,34.73925,-26.92879,88.58521,-31.9449,65.89306,131.73965,-0.00389,-86.74584,116.52482,0.00334,82.3718,-4.40571,-14.83265,0.00034,-10.43994,4.49088,0.00659,-12.99253,-13.30902,5.4413,-36.51825,-14.35747,-0.25954,-4.39941,-9.03629,13.01299
1174,-11.33617,0.0,0.0,2.63551,0.0,0.0,-11.72525,-7.56392,17.84447,26.78249,4.06383,-22.14337,-16.13985,-4.17935,0.00967,-30.24704,-2.3912,-0.00095,47.99612,39.56832,7.80813,-13.66708,-27.054,-6.08219,57.32044,34.61486,-27.09007,88.46359,-32.01169,65.55937,131.87868,-0.00545,-85.61461,116.46043,0.00308,82.74828,-5.44182,-14.73298,-0.00176,-10.82922,4.48621,0.00777,-12.80338,-13.25998,5.12208,-36.32323,-14.18852,-0.53328,-4.52759,-9.01007,12.78945
1175,-8.5248,-0.0,0.0,2.17806,0.0,-0.0,-10.88465,-7.1099,17.49917,26.88704,4.12058,-21.89568,-18.99889,-4.60266,0.02194,-30.12949,-2.71266,-0.00131,47.69163,38.66249,8.49866,-13.5002,-26.76614,-6.59112,57.46718,34.49562,-27.27361,88.29866,-32.02777,65.20847,132.01476,-0.00476,-84.15903,116.43112,0.00274,82.53809,-6.53513,-14.5877,-0.00368,-11.30584,4.42172,0.0086,-12.66817,-13.17288,4.79796,-36.1778,-13.98275,-0.79575,-4.53179,-8.96769,12.50857
1176,-6.06684,0.0,-0.0,1.77824,0.0,-0.0,-10.14218,-6.78345,17.27258,26.92081,4.18212,-21.61717,-21.92987,-5.10998,0.03163,-29.99457,-3.0481,-0.00123,47.55936,37.79653,8.91864,-13.20085,-26.3993,-7.11662,57.59408,34.39923,-27.44721,88.06564,-31.99509,64.8176,132.11092,-0.00102,-82.43151,116.46941,0.0027,81.98838,-7.54402,-14.38874,-0.00394,-11.67995,4.44439,0.00876,-12.58136,-13.0669,4.45418,-36.07831,-13.75204,-1.06846,-4.44619,-8.86073,12.17247
1177,-4.22194,0.0,-0.0,1.45554,0.0,-0.0,-9.44352,-6.59234,17.06069,26.87175,4.20857,-21.38609,-24.92059,-5.64499,0.03378,-29.85775,-3.33683,-0.00077,47.57947,36.9719,9.03709,-12.80633,-25.93619,-7.56364,57.6956,34.33098,-27.57836,87.74986,-31.92445,64.38378,132.14096,0.00433,-80.57857,116.5746,0.00208,81.47259,-8.31727,-14.15276,-0.00203,-11.83636,4.65093,0.00874,-12.5262,-12.96952,4.07652,-36.01052,-13.51607,-1.37577,-4.31564,-8.66323,11.79201
1178,-3.05938,-0.0,-0.0,1.20837,0.0,0.0,-8.76812,-6.49773,16.75009,26.7564,4.18996,-21.25705,-27.97912,-6.12553,0.02623,-29.72593,-3.54516,-0.00018,47.74128,36.16541,8.934,-12.35072,-25.37791,-7.88181,57.77226,34.28306,-27.64691,87.34713,-31.83135,63.92283,132.10461,0.00835,-78.83979,116.71837,0.0007,81.2473,-8.75546,-13.9191,0.00073,-11.82833,5.03639,0.00764,-12.48264,-12.89698,3.68642,-35.95588,-13.29806,-1.70456,-4.15884,-8.37443,11.37938
1179,-2.46448,0.0,-0.0,1.03109,0.0,-0.0,-8.12127,-6.42796,16.27419,26.60274,4.13963,-21.24268,-31.108,-6.47682,0.01082,-29.59888,-3.67283,0.00028,48.03455,35.35166,8.75199,-11.84876,-24.73599,-8.06994,57.83589,34.23761,-27.65448,86.86246,-31.73276,63.45459,132.02734,0.00894,-77.5582,116.86472,-0.00066,81.34495,-8.82641,-13.74909,0.00202,-11.83088,5.51281,0.00433,-12.43728,-12.84763,3.34164,-35.90146,-13.11893,-2.00105,-3.965,-8.01037,10.94551
1180,-2.20503,0.0,-0.0,0.91803,0.0,0.0,-7.52514,-6.31728,15.60988,26.43241,4.07642,-21.31517,-34.28323,-6.65941,-0.00746,-29.47562,-3.74639,0.00052,48.42583,34.52113,8.63782,-11.29602,-24.02737,-8.15594,57.90273,34.17517,-27.62004,86.30901,-31.64391,62.98518,131.94356,0.00645,-77.10441,116.99408,-0.00166,81.67005,-8.54493,-13.70756,0.00014,-11.98809,5.98483,-1e-05,-12.3821,-12.80866,3.10848,-35.83927,-12.99268,-2.19921,-3.71453,-7.59483,10.50258
1181,-2.04261,0.0,-0.0,0.85938,0.0,0.0,-7.01625,-6.15387,14.75206,26.25186,4.00897,-21.42913,-37.44955,-6.67569,-0.02281,-29.35687,-3.80093,0.00057,48.85249,33.6789,8.69031,-10.68324,-23.2727,-8.17054,57.97857,34.08535,-27.56524,85.70865,-31.57487,62.50313,131.87386,0.00266,-77.68687,117.11575,-0.00269,82.11974,-7.96209,-13.82387,-0.00444,-12.30748,6.41471,-0.00301,-12.30807,-12.7651,3.03081,-35.76005,-12.92257,-2.25271,-3.40116,-7.15267,10.06238
1182,-1.83148,0.0,-0.0,0.83664,0.0,0.0,-6.64585,-5.99408,13.71062,26.05366,3.92933,-21.5489,-40.53254,-6.56111,-0.03066,-29.24178,-3.86092,0.00055,49.24395,32.83206,8.93147,-10.00896,-22.49426,-8.13089,58.04863,33.97324,-27.50081,85.09142,-31.52869,61.99164,131.81557,-0.00119,-79.23403,117.25588,-0.00402,82.61951,-7.16738,-14.08035,-0.00926,-12.67639,6.81994,-0.00329,-12.20754,-12.70322,3.11432,-35.65516,-12.89821,-2.15079,-3.03616,-6.70439,9.63439
1183,-1.55074,-0.0,-0.0,0.82286,0.0,-0.0,-6.47514,-5.91735,12.52862,25.82223,3.80946,-21.6634,-43.45703,-6.37714,-0.02903,-29.12478,-3.93045,0.00055,49.541,31.98273,9.30581,-9.28744,-21.71162,-8.03201,58.08186,33.8562,-27.42038,84.49063,-31.50459,61.4465,131.75322,-0.00437,-81.41707,117.4318,-0.00514,83.12722,-6.28994,-14.42996,-0.0114,-12.96095,7.22477,-0.00121,-12.08391,-12.61154,3.32775,-35.5262,-12.89696,-1.91737,-2.64437,-6.26228,9.22954
1184,-1.26205,0.0,0.0,0.78648,0.0,0.0,-6.56368,-5.95935,11.27283,25.54132,3.61211,-21.77888,-46.16383,-6.19698,-0.0198,-28.99483,-4.00083,0.00054,49.70086,31.12626,9.71328,-8.55448,-20.9362,-7.86212,58.04771,33.7529,-27.30164,83.93578,-31.50434,60.88538,131.67557,-0.00582,-83.70403,117.63553,-0.00495,83.57818,-5.48965,-14.79339,-0.00957,-13.10068,7.59999,0.00158,-11.95394,-12.48398,3.61483,-35.38813,-12.89138,-1.60157,-2.26177,-5.82909,8.8592
1185,-1.03984,0.0,0.0,0.69798,-0.0,0.0,-6.95042,-6.09654,9.98346,25.20415,3.33,-21.89246,-48.62208,-6.07514,-0.00787,-28.83885,-4.0725,0.0004,49.70817,30.25462,10.06741,-7.84876,-20.17082,-7.64211,57.93263,33.67317,-27.11423,83.44706,-31.53268,60.34072,131.58669,-0.00495,-85.49171,117.83887,-0.00296,83.81229,-4.91326,-15.05579,-0.00585,-13.12598,7.83885,0.00342,-11.83545,-12.32393,3.91293,-35.25806,-12.86028,-1.26226,-1.91942,-5.39912,8.5297
1186,-0.9287,-0.0,-0.0,0.5426,0.0,0.0,-7.6391,-6.28482,8.63395,24.82065,3.01251,-21.97633,-50.83095,-6.0286,0.00234,-28.65004,-4.16604,6e-05,49.58411,29.36757,10.33381,-7.17733,-19.41465,-7.43466,57.74728,33.61697,-26.83409,83.03098,-31.58895,59.84172,131.50523,-0.00289,-86.30005,118.01552,-0.00026,83.66441,-4.63997,-15.11143,-0.00411,-13.10504,7.83793,0.00386,-11.73177,-12.14533,4.17487,-35.14023,-12.79812,-0.94855,-1.62162,-4.96174,8.24318
1187,-0.93674,0.0,0.0,0.33228,0.0,0.0,-8.60588,-6.49154,7.14787,24.4142,2.73547,-21.99681,-52.80793,-6.05047,0.00894,-28.43287,-4.30471,-0.00042,49.37217,28.47894,10.51823,-6.51114,-18.6675,-7.2977,57.52603,33.58179,-26.4587,82.67805,-31.65732,59.39687,131.45218,-0.00164,-85.89057,118.15936,0.00167,83.13712,-4.66794,-14.93114,-0.00579,-13.07654,7.61214,0.0034,-11.62913,-11.96864,4.38418,-35.02288,-12.71726,-0.68398,-1.34698,-4.50791,7.99953
1188,-1.04588,0.0,0.0,0.10168,0.0,0.0,-9.82375,-6.69637,5.46172,24.01058,2.54779,-21.94216,-54.57248,-6.1268,0.01163,-28.19819,-4.48995,-0.00083,49.11238,27.60736,10.63836,-5.81516,-17.93089,-7.24072,57.31744,33.56842,-26.01229,82.36482,-31.70699,58.98811,131.43599,-0.00179,-84.35471,118.28173,0.00222,82.42229,-4.91968,-14.59237,-0.00846,-13.0231,7.3001,0.00268,-11.50891,-11.81325,4.55251,-34.88947,-12.64002,-0.4658,-1.06891,-4.03745,7.7929
1189,-1.22492,-0.0,-0.0,-0.11034,0.0,-0.0,-11.27768,-6.87976,3.58396,23.62782,2.45541,-21.82279,-56.13767,-6.22997,0.01047,-27.95475,-4.70075,-0.00103,48.83007,26.75981,10.72034,-5.07415,-17.20891,-7.23648,57.16455,33.57723,-25.53563,82.06144,-31.70616,58.58238,131.44743,-0.00199,-82.13043,118.39388,0.00156,81.78749,-5.26046,-14.24055,-0.00905,-12.89599,7.06082,0.00231,-11.36117,-11.69073,4.70006,-34.73123,-12.58487,-0.2801,-0.77086,-3.56269,7.60999
1190,-1.43909,0.0,0.0,-0.27487,0.0,-0.0,-12.95298,-7.01585,1.61348,23.27203,2.44479,-21.65424,-57.51273,-6.31197,0.00624,-27.70645,-4.91111,-0.00103,48.5417,25.92284,10.8022,-4.29269,-16.50994,-7.26128,57.08265,33.59888,-25.06701,81.74225,-31.64057,58.15163,131.46599,-0.00094,-79.7479,118.49339,0.00045,81.44049,-5.57284,-13.99068,-0.00742,-12.65856,6.96682,0.00233,-11.18714,-11.60306,4.83601,-34.54963,-12.5572,-0.11924,-0.44761,-3.1034,7.43579
1191,-1.6544,0.0,0.0,-0.3756,0.0,-0.0,-14.80478,-7.07662,-0.29294,22.9395,2.50665,-21.44684,-58.7087,-6.32253,0.00083,-27.45532,-5.1008,-0.00086,48.26177,25.06941,10.91689,-3.48353,-15.84556,-7.31399,57.04824,33.61187,-24.62555,81.39417,-31.51997,57.68686,131.47237,0.00099,-77.50384,118.56568,-0.00024,81.43128,-5.83226,-13.85325,-0.00517,-12.32556,6.97608,0.0022,-10.99114,-11.54536,4.95591,-34.34858,-12.55081,0.01467,-0.10175,-2.67272,7.2607
1192,-1.83977,0.0,0.0,-0.40737,-0.0,0.0,-16.7351,-7.04334,-1.98786,22.62139,2.63875,-21.20349,-59.73772,-6.23739,-0.00352,-27.20312,-5.2542,-0.00055,47.9986,24.17471,11.07117,-2.6613,-15.22735,-7.40713,57.00804,33.59446,-24.2056,81.01614,-31.36758,57.198,131.46199,0.00234,-75.45996,118.59935,-0.0002,81.65193,-6.08701,-13.78101,-0.00298,-11.97177,6.98716,0.00166,-10.77185,-11.50657,5.05519,-34.12582,-12.55375,0.12192,0.25918,-2.26681,7.08168
1193,-1.97357,0.0,-0.0,-0.37584,0.0,0.0,-18.59793,-6.91342,-3.39309,22.30736,2.8332,-20.92141,-60.60622,-6.07052,-0.00538,-26.94931,-5.35777,-0.00015,47.7433,23.23038,11.24682,-1.84411,-14.66318,-7.5497,56.90382,33.54375,-23.78582,80.61275,-31.20334,56.70331,131.45009,0.00223,-73.65958,118.60024,0.00018,81.89097,-6.38177,-13.77079,-0.00058,-11.69606,6.91197,0.00143,-10.52212,-11.46554,5.14078,-33.87237,-12.54934,0.21747,0.62436,-1.86939,6.89795
1194,-2.05785,0.0,0.0,-0.29875,0.0,0.0,-20.22894,-6.69797,-4.51401,21.98822,3.06165,-20.601,-61.31139,-5.86714,-0.00463,-26.68778,-5.40078,0.0003,47.46407,22.2534,11.41724,-1.0578,-14.15102,-7.73238,56.69936,33.48608,-23.35023,80.19088,-31.03434,56.21924,131.45717,0.00122,-72.21283,118.59046,0.00067,81.90221,-6.72541,-13.86874,0.00199,-11.57987,6.7157,0.00226,-10.23793,-11.39127,5.22678,-33.58147,-12.51455,0.3269,0.97881,-1.46489,6.70903
1195,-2.11627,0.0,-0.0,-0.20187,-0.0,0.0,-21.48507,-6.41237,-5.41352,21.6593,3.28314,-20.24954,-61.84435,-5.68213,-0.00234,-26.40675,-5.38291,0.00067,47.11746,21.28489,11.56706,-0.32973,-13.67526,-7.93006,56.39436,33.46805,-22.90512,79.75855,-30.85505,55.75429,131.48656,0.00047,-71.21274,118.59531,0.00135,81.54022,-7.10317,-14.08591,0.00383,-11.66771,6.43335,0.00353,-9.92791,-11.25561,5.31965,-33.25931,-12.42607,0.46757,1.30688,-1.04929,6.51931
1196,-2.1653,-0.0,0.0,-0.10616,-0.0,-0.0,-22.27547,-6.06921,-6.1714,21.32146,3.47427,-19.87178,-62.19697,-5.55233,0.0,-26.09431,-5.32365,0.00082,46.6726,20.37545,11.70706,0.3286,-13.2122,-8.12357,56.0181,33.53219,-22.47439,79.31988,-30.65271,55.30467,131.52058,0.00028,-70.65658,118.6308,0.00201,80.883,-7.48706,-14.36102,0.00412,-11.95413,6.16312,0.00352,-9.61426,-11.05264,5.41051,-32.92772,-12.27497,0.63362,1.60193,-0.63232,6.34277
1197,-2.20529,0.0,-0.0,-0.02265,-0.0,0.0,-22.5717,-5.69267,-6.83886,20.97745,3.63388,-19.46974,-62.36657,-5.48967,0.00136,-25.74742,-5.25395,0.00074,46.12321,19.56457,11.86161,0.92741,-12.74097,-8.3033,55.61037,33.6922,-22.07939,78.86925,-30.4127,54.85637,131.54021,0.00025,-70.46621,118.69631,0.002,80.20815,-7.84995,-14.62069,0.00312,-12.38678,6.01146,0.00151,-9.32364,-10.80762,5.48381,-32.61582,-12.07841,0.80041,1.86742,-0.23071,6.20103
1198,-2.24391,-0.0,0.0,0.03978,0.0,0.0,-22.40519,-5.32988,-7.40938,20.62728,3.75694,-19.05428,-62.3564,-5.49552,0.00135,-25.3743,-5.19452,0.00058,45.47868,18.86629,12.03922,1.48398,-12.25123,-8.45268,55.20287,33.92626,-21.72136,78.3927,-30.12358,54.39532,131.54602,3e-05,-70.54338,118.7733,0.00129,79.84175,-8.18867,-14.84636,0.00164,-12.90178,6.01633,-0.00114,-9.07369,-10.56531,5.5336,-32.34526,-11.87516,0.94426,2.10703,0.14103,6.11358
1199,-2.31521,0.0,0.0,0.06697,0.0,0.0,-21.8577,-5.02258,-7.82783,20.26774,3.81898,-18.64603,-62.17427,-5.57139,0.00013,-24.9874,-5.146,0.00047,44.75369,18.26924,12.22051,2.00828,-11.74243,-8.54569,54.80832,34.19501,-21.37454,77.87742,-29.78203,53.9145,131.56062,-0.00055,-70.74874,118.83386,0.00074,79.99867,-8.52903,-15.05236,-0.00026,-13.4463,6.11576,-0.00249,-8.86425,-10.36364,5.57169,-32.11892,-11.70469,1.06078,2.31973,0.47655,6.08589
1200,-2.45489,0.0,-0.0,0.04188,0.0,-0.0,-21.04988,-4.77748,-8.02586,19.8967,3.79892,-18.25376,-61.82999,-5.7119,-0.00162,-24.59456,-5.1024,0.00029,43.96611,17.74774,12.37821,2.50313,-11.2195,-8.57357,54.42012,34.47129,-20.99437,77.32156,-29.39616,53.41057,131.6129,-0.00158,-70.85287,118.85712,0.00106,80.70778,-8.90971,-15.20633,-0.0032,-13.95485,6.19426,-0.00205,-8.67911,-10.21158,5.62185,-31.92103,-11.58446,1.16836,2.50451,0.77637,6.10509
1201,-2.63174,0.0,0.0,-0.04296,0.0,-0.0,-20.13387,-4.57815,-7.96325,19.51619,3.72679,-17.84405,-61.33223,-5.88143,-0.00284,-24.19437,-5.07602,-0.0002,43.13852,17.27206,12.51373,2.97081,-10.6897,-8.5876,54.02227,34.75789,-20.54071,76.7355,-28.98283,52.87906,131.71971,-0.00259,-70.64365,118.84121,0.0018,81.8101,-9.35404,-15.2216,-0.00715,-14.33475,6.16979,-0.00117,-8.49748,-10.08897,5.707,-31.72879,-11.50486,1.29634,2.66562,1.04291,6.14384
1202,-2.74843,0.0,-0.0,-0.18026,-0.0,0.0,-19.2646,-4.41635,-7.64413,19.13063,3.67163,-17.35907,-60.68885,-6.02158,-0.00302,-23.77964,-5.09222,-0.00094,42.29676,16.81471,12.6518,3.41316,-10.16079,-8.6808,53.60158,35.0789,-20.00187,76.13229,-28.55933,52.31738,131.87579,-0.00211,-70.15614,118.79874,0.00211,83.02353,-9.8333,-15.04705,-0.01023,-14.51427,6.03466,-0.00109,-8.30812,-9.96966,5.8386,-31.52862,-11.44633,1.46586,2.80999,1.27877,6.16883
1203,-2.7362,-0.0,-0.0,-0.35672,0.0,0.0,-18.54692,-4.31121,-7.09607,18.74458,3.6656,-16.77973,-59.90838,-6.09795,-0.00253,-23.34566,-5.15373,-0.00152,41.46069,16.35485,12.79565,3.82629,-9.64158,-8.90359,53.15371,35.45198,-19.40359,75.51385,-28.13674,51.73165,132.04951,0.00058,-69.72037,118.74194,0.00175,84.08958,-10.26227,-14.71043,-0.01014,-14.50519,5.82575,-0.00164,-8.11741,-9.8481,6.01056,-31.32636,-11.40138,1.67357,2.94044,1.48613,6.15368
1204,-2.59186,-0.0,-0.0,-0.55676,-0.0,0.0,-18.01035,-4.30316,-6.35093,18.36191,3.68601,-16.14534,-58.9992,-6.11299,-0.00191,-22.89208,-5.23464,-0.00168,40.63476,15.87887,12.92304,4.19875,-9.14253,-9.23247,52.68334,35.86426,-18.80072,74.86649,-27.72001,51.13612,132.18428,0.00337,-69.68507,118.67452,0.00105,84.87801,-10.5585,-14.24052,-0.00672,-14.39648,5.58744,-0.00204,-7.9458,-9.74424,6.19859,-31.14419,-11.37892,1.88904,3.05364,1.66508,6.08923
1205,-2.3439,0.0,0.0,-0.76123,-0.0,-0.0,-17.62162,-4.41547,-5.44835,17.9845,3.70542,-15.51873,-57.96862,-6.08162,-0.00125,-22.41928,-5.30629,-0.00148,39.80708,15.37947,13.0169,4.51464,-8.6722,-9.60676,52.20149,36.26883,-18.2553,74.17112,-27.31178,50.54316,132.21527,0.00339,-70.11988,118.59696,0.00039,85.37628,-10.7021,-13.60919,-0.00171,-14.27534,5.36651,-0.00196,-7.81453,-9.68172,6.3683,-31.00564,-11.38734,2.071,3.14162,1.81563,5.98333
1206,-2.02688,0.0,-0.0,-0.93783,0.0,-0.0,-17.30728,-4.60793,-4.44575,17.60774,3.72855,-14.94635,-56.8252,-6.013,-9e-05,-21.92638,-5.35475,-0.00118,38.9567,14.85735,13.08194,4.75842,-8.2332,-9.9706,51.72052,36.60188,-17.81099,73.41904,-26.91513,49.95509,132.09935,0.00049,-70.85626,118.51576,-6e-05,85.66534,-10.72706,-12.80208,0.00294,-14.1619,5.21822,-0.0014,-7.73109,-9.66111,6.49149,-30.91874,-11.41621,2.19316,3.19301,1.94301,5.85286
1207,-1.6618,0.0,0.0,-1.02982,0.0,0.0,-16.98249,-4.77708,-3.41827,17.21872,3.79174,-14.4348,-55.5812,-5.89886,0.00209,-21.41217,-5.38167,-0.00089,38.06699,14.32059,13.14717,4.9217,-7.82272,-10.30414,51.24967,36.81,-17.47984,72.62056,-26.53517,49.36509,131.83749,-0.00315,-71.72096,118.44771,-0.00041,85.90033,-10.6878,-11.89581,0.00575,-14.02145,5.20039,-0.00013,-7.68342,-9.6548,6.55945,-30.86954,-11.43679,2.25853,3.19667,2.05968,5.71423
1208,-1.26763,0.0,0.0,-0.99265,0.0,-0.0,-16.57297,-4.82163,-2.43078,16.80814,3.92155,-13.97291,-54.25014,-5.72568,0.00465,-20.88093,-5.38798,-0.00046,37.13758,13.77958,13.23747,5.01073,-7.43608,-10.60616,50.79546,36.8738,-17.24701,71.79879,-26.17867,48.76126,131.47403,-0.0054,-72.63165,118.41778,-0.00104,86.23538,-10.65056,-11.03368,0.00641,-13.81182,5.35401,0.00192,-7.6472,-9.62784,6.58324,-30.83079,-11.42124,2.29135,3.14781,2.18003,5.57759
1209,-0.88572,-0.0,-0.0,-0.85122,0.0,-0.0,-16.01958,-4.71551,-1.50235,16.3861,4.09604,-13.57285,-52.84052,-5.50446,0.00608,-20.34784,-5.35968,0.00025,36.18414,13.24342,13.3351,5.04875,-7.06913,-10.8499,50.36575,36.81625,-17.08299,70.97414,-25.848,48.12966,131.07784,-0.00554,-73.58839,118.44981,-0.00201,86.72019,-10.67692,-10.37576,0.0061,-13.50269,5.66917,0.00398,-7.60152,-9.56333,6.58486,-30.77997,-11.36257,2.31875,3.05303,2.31079,5.44712
1210,-0.5499,-0.0,0.0,-0.6923,0.0,-0.0,-15.27953,-4.51631,-0.60916,15.97927,4.26722,-13.26409,-51.35365,-5.27003,0.00532,-19.83453,-5.28247,0.00102,35.22696,12.72047,13.39097,5.06998,-6.71842,-10.99372,49.96997,36.69426,-16.94998,70.15529,-25.53212,47.46189,130.71608,-0.00364,-74.64658,118.55096,-0.00275,87.26396,-10.77951,-10.06393,0.00579,-13.07906,6.05554,0.00457,-7.54094,-9.46944,6.59161,-30.71188,-11.27888,2.36267,2.93067,2.44612,5.32335
1211,-0.24593,0.0,-0.0,-0.6206,0.0,-0.0,-14.33097,-4.3283,0.28997,15.61707,4.40022,-13.06739,-49.78818,-5.05914,0.00237,-19.36049,-5.16011,0.00148,34.27842,12.22128,13.3628,5.10855,-6.37947,-11.01225,49.61147,36.58034,-16.80013,69.34396,-25.20596,46.76613,130.43124,0.0001,-75.81514,118.70201,-0.00278,87.73024,-10.892,-10.15756,0.00438,-12.55911,6.38091,0.0029,-7.47322,-9.3664,6.63582,-30.63537,-11.2013,2.44488,2.80475,2.57305,5.20768
1212,0.07796,-0.0,-0.0,-0.73337,0.0,0.0,-13.17623,-4.26283,1.23769,15.32262,4.47578,-12.99344,-48.14687,-4.89803,-0.00176,-18.93891,-5.01111,0.00144,33.33861,11.75955,13.23451,5.1898,-6.04588,-10.89317,49.27986,36.5388,-16.57993,68.54433,-24.84502,46.07018,130.23242,0.00447,-77.00404,118.86468,-0.00234,88.07,-10.89934,-10.59495,0.00019,-12.00726,6.56734,0.00013,-7.40495,-9.27086,6.74879,-30.55771,-11.1573,2.58766,2.69564,2.68161,5.11026
1213,0.46576,-0.0,0.0,-1.08552,0.0,-0.0,-11.83797,-4.38229,2.25792,15.10462,4.4843,-13.03884,-46.44275,-4.79054,-0.00508,-18.57382,-4.86073,0.00098,32.402,11.34615,13.0243,5.32557,-5.71109,-10.63993,48.95477,36.60051,-16.24962,67.76685,-24.44421,45.41107,130.10121,0.00744,-78.11652,118.9986,-0.0017,88.33991,-10.70869,-11.23585,-0.00583,-11.51452,6.63063,-0.00191,-7.33016,-9.19198,6.94379,-30.47317,-11.16043,2.79966,2.6132,2.77042,5.05101
1214,0.91038,-0.0,0.0,-1.64878,0.0,0.0,-10.34862,-4.65644,3.33915,14.952,4.43213,-13.17302,-44.70059,-4.71151,-0.00587,-18.26004,-4.73724,0.0003,31.46755,10.97896,12.78081,5.514,-5.37342,-10.28789,48.61805,36.74826,-15.80382,67.02498,-24.02162,44.82021,130.00269,0.00722,-79.15165,119.07327,-0.00062,88.6499,-10.28991,-11.92022,-0.01021,-11.15119,6.63023,-0.00259,-7.2345,-9.13553,7.19965,-30.36796,-11.20778,3.05903,2.55525,2.84356,5.05119
1215,1.34249,0.0,0.0,-2.31745,0.0,0.0,-8.74328,-4.98977,4.44754,14.84155,4.3418,-13.34999,-42.95295,-4.62197,-0.00387,-17.99103,-4.6612,-0.00033,30.54425,10.63945,12.55254,5.74445,-5.04123,-9.89163,48.26452,36.92333,-15.27862,66.32976,-23.60351,44.31351,129.89503,0.00276,-80.23653,119.073,0.0014,89.14911,-9.66246,-12.50171,-0.00986,-10.92138,6.60769,-0.00241,-7.11072,-9.10516,7.4623,-30.23602,-11.28172,3.31436,2.5116,2.90273,5.12244
1216,1.66122,-0.0,0.0,-2.95712,-0.0,0.0,-7.06356,-5.28903,5.54952,14.75019,4.24052,-13.53376,-41.23609,-4.49172,-0.00027,-17.76808,-4.63428,-0.00069,29.65174,10.30268,12.35443,6.00425,-4.73031,-9.49628,47.90511,37.05185,-14.74192,65.68626,-23.20544,43.88643,129.73912,-0.0055,-81.57006,118.99869,0.00427,89.97731,-8.87783,-12.87118,-0.00447,-10.75534,6.56773,-0.00216,-6.96791,-9.09774,7.67085,-30.08772,-11.35577,3.51046,2.47116,2.9436,5.25878
1217,1.78722,0.0,0.0,-3.45352,0.0,0.0,-5.36695,-5.5033,6.6134,14.65989,4.14799,-13.70325,-39.58697,-4.30933,0.00321,-17.60032,-4.64283,-0.00075,28.81654,9.95368,12.16641,6.28261,-4.45387,-9.13244,47.55837,37.07825,-14.26676,65.09234,-22.82418,43.51423,129.51273,-0.01453,-83.26392,118.86727,0.00677,91.14483,-8.02669,-12.9768,0.00301,-10.54837,6.4988,-0.00218,-6.82368,-9.10007,7.79444,-29.94062,-11.40582,3.62402,2.42735,2.95825,5.43382
1218,1.70606,-0.0,0.0,-3.747,-0.0,0.0,-3.72897,-5.6199,7.60285,14.55931,4.07307,-13.842,-38.03944,-4.08214,0.0052,-17.497,-4.67233,-0.00058,28.06491,9.59579,11.95749,6.5713,-4.21544,-8.82907,47.23271,36.98589,-13.89636,64.5386,-22.44421,43.1619,129.22725,-0.01931,-85.19853,118.70602,0.0075,92.50703,-7.23496,-12.8419,0.00814,-10.23061,6.40437,-0.00217,-6.68784,-9.093,7.85209,-29.80276,-11.42167,3.68026,2.37829,2.93931,5.60656
1219,1.46814,0.0,0.0,-3.83617,0.0,-0.0,-2.22885,-5.63702,8.48155,14.44358,4.02409,-13.92951,-36.61909,-3.83206,0.00519,-17.45983,-4.7196,-0.00028,27.41473,9.24538,11.71315,6.86462,-4.01098,-8.62013,46.91465,36.79345,-13.6238,64.01047,-22.05245,42.80069,128.92947,-0.01686,-87.04996,118.54248,0.00604,93.863,-6.6228,-12.56423,0.00867,-9.82555,6.30997,-0.00171,-6.55495,-9.0614,7.89774,-29.66619,-11.4103,3.73522,2.32254,2.88316,5.73845
1220,1.14677,-0.0,0.0,-3.74781,-0.0,0.0,-0.92566,-5.54758,9.22403,14.31176,4.01964,-13.94629,-35.3409,-3.58541,0.00366,-17.48112,-4.79143,4e-05,26.87228,8.91965,11.44558,7.15872,-3.83579,-8.53539,46.57798,36.53512,-13.40557,63.49239,-21.65051,42.41701,128.6777,-0.00951,-88.4676,118.39494,0.00308,95.01067,-6.26983,-12.27773,0.00621,-9.43127,6.23529,-0.00089,-6.41142,-9.00217,7.98357,-29.51573,-11.38909,3.83846,2.25512,2.79307,5.80989
1221,0.80168,0.0,0.0,-3.51821,-0.0,0.0,0.15389,-5.3528,9.82765,14.16931,4.07998,-13.89959,-34.21167,-3.36302,0.00153,-17.54948,-4.88764,0.00029,26.43704,8.62615,11.17609,7.45074,-3.68971,-8.57586,46.20812,36.24084,-13.19602,62.97181,-21.25516,42.01011,128.50766,-0.00243,-89.24526,118.26865,-0.00027,95.75815,-6.21006,-12.09598,0.00409,-9.14089,6.17197,-0.00017,-6.24854,-8.92526,8.13098,-29.34278,-11.37547,4.00586,2.16804,2.67892,5.82181
1222,0.46863,0.0,0.0,-3.19331,0.0,-0.0,1.0116,-5.08036,10.31135,14.03093,4.20824,-13.83765,-33.23332,-3.17545,-0.00032,-17.65724,-4.98812,0.00038,26.10731,8.36104,10.91399,7.73841,-3.57745,-8.70197,45.81801,35.92838,-12.96991,62.43896,-20.8859,41.58714,128.41469,0.00118,-89.39204,118.16062,-0.00296,95.98663,-6.42515,-12.07157,0.00418,-8.99473,6.10121,0.00028,-6.06914,-8.84712,8.32597,-29.15168,-11.37914,4.21789,2.05537,2.55098,5.78462
1223,0.15854,0.0,-0.0,-2.81691,0.0,0.0,1.67096,-4.78379,10.69237,13.91417,4.38303,-13.82458,-32.4045,-3.02088,-0.00137,-17.80085,-5.06215,0.00024,25.87888,8.11755,10.65932,8.01819,-3.5022,-8.85771,45.44016,35.6082,-12.7217,61.88439,-20.54867,41.15933,128.36269,0.00154,-89.12418,118.06886,-0.00434,95.7343,-6.84612,-12.18855,0.00565,-8.9833,6.01873,0.0004,-5.88285,-8.779,8.5311,-28.95388,-11.39592,4.43536,1.91672,2.4134,5.70636
1224,-0.13638,0.0,-0.0,-2.42274,0.0,0.0,2.17214,-4.52953,10.96917,13.83182,4.56694,-13.9003,-31.71949,-2.88957,-0.00163,-17.97789,-5.08984,-5e-05,25.73929,7.89662,10.41689,8.28501,-3.45869,-9.00399,45.10286,35.29233,-12.45412,61.29874,-20.22849,40.73749,128.30795,0.00041,-88.76018,117.99744,-0.00424,95.22853,-7.38162,-12.37742,0.00624,-9.05661,5.92985,0.00019,-5.69537,-8.71579,8.69969,-28.75613,-11.40305,4.61701,1.75602,2.26283,5.59102
1225,-0.42611,-0.0,0.0,-2.04707,-0.0,-0.0,2.56414,-4.37671,11.13082,13.78992,4.72332,-14.0569,-31.16586,-2.77605,-0.00146,-18.18678,-5.07446,-0.00032,25.66576,7.71034,10.20147,8.53748,-3.43496,-9.1299,44.8114,34.99839,-12.16691,60.67708,-19.89858,40.32857,128.21893,-0.00047,-88.49271,117.9527,-0.00326,94.79557,-7.94559,-12.52759,0.00432,-9.13981,5.82388,-0.00027,-5.50369,-8.6355,8.78808,-28.55526,-11.36339,4.7311,1.579,2.09096,5.4485
1226,-0.70592,-0.0,0.0,-1.73331,-0.0,0.0,2.89094,-4.35123,11.17055,13.78573,4.83149,-14.24101,-30.72593,-2.6844,-0.0012,-18.42607,-5.03829,-0.00041,25.63193,7.57577,10.03367,8.78092,-3.41971,-9.24728,44.54781,34.74497,-11.8555,60.02568,-19.54012,39.93661,128.08134,0.00017,-88.25133,117.93323,-0.00211,94.67451,-8.47525,-12.50939,0.00034,-9.176,5.66126,-0.00063,-5.30269,-8.51353,8.76782,-28.34539,-11.24331,4.761,1.39151,1.89073,5.30023
1227,-0.95301,0.0,-0.0,-1.51775,0.0,0.0,3.17951,-4.43314,11.0931,13.80585,4.89107,-14.38861,-30.38198,-2.62377,-0.001,-18.68986,-5.00523,-0.00034,25.61777,7.50536,9.92781,9.02201,-3.40644,-9.37212,44.28437,34.54171,-11.51994,59.36487,-19.15588,39.56677,127.89364,0.00251,-87.84756,117.92337,-0.00104,94.91644,-8.935,-12.22553,-0.00339,-9.16976,5.39843,-0.0004,-5.09661,-8.34251,8.63595,-28.13044,-11.03488,4.70686,1.19861,1.66367,5.17236
1228,-1.13758,0.0,-0.0,-1.41648,0.0,-0.0,3.43916,-4.568,10.92372,13.83231,4.91522,-14.46962,-30.1175,-2.60503,-0.00086,-18.96477,-4.98273,-0.00024,25.61367,7.50008,9.87977,9.26264,-3.39455,-9.49944,43.99582,34.3839,-11.17099,58.72202,-18.76661,39.22584,127.66283,0.00535,-87.2004,117.89931,9e-05,95.44041,-9.29991,-11.66385,-0.00463,-9.18089,5.03276,0.0006,-4.90333,-8.14061,8.41727,-27.92896,-10.76442,4.58447,1.00548,1.41973,5.08625
1229,-1.23175,0.0,0.0,-1.41291,0.0,0.0,3.66786,-4.68463,10.69725,13.85111,4.92036,-14.48623,-29.91488,-2.63295,-0.00072,-19.23006,-4.9637,-0.00017,25.61907,7.54631,9.87913,9.50006,-3.39018,-9.61519,43.66427,34.25904,-10.82901,58.11699,-18.39475,38.9164,127.40437,0.00703,-86.397,117.84519,0.00112,96.12788,-9.55517,-10.91168,-0.00309,-9.26683,4.62008,0.00182,-4.74717,-7.94068,8.15532,-27.76626,-10.47896,4.42114,0.82065,1.16795,5.05091
1230,-1.21992,0.0,-0.0,-1.45864,0.0,-0.0,3.86205,-4.72224,10.43639,13.85297,4.91611,-14.44343,-29.75587,-2.69624,-0.00054,-19.46151,-4.94192,-0.00012,25.63855,7.61966,9.92842,9.72923,-3.40213,-9.72913,43.28219,34.1605,-10.52174,57.552,-18.04923,38.63343,127.14057,0.00673,-85.61086,117.76298,0.00165,96.86787,-9.72251,-10.12891,-0.00039,-9.44145,4.23389,0.0025,-4.64528,-7.77002,7.89687,-27.6599,-10.22178,4.24943,0.65521,0.91055,5.05774
1231,-1.11579,-0.0,0.0,-1.50247,-0.0,0.0,4.02798,-4.66651,10.15698,13.83174,4.90181,-14.34914,-29.62513,-2.77258,-0.00033,-19.6405,-4.91774,-8e-05,25.6755,7.69679,10.03381,9.94276,-3.43327,-9.87127,42.8533,34.09327,-10.27865,57.01399,-17.7219,38.36663,126.89542,0.00489,-85.00072,117.66766,0.00156,97.58708,-9.85733,-9.49853,0.00216,-9.67117,3.8981,0.00225,-4.5973,-7.63817,7.68128,-27.60891,-10.01691,4.10205,0.51514,0.64729,5.08314
1232,-0.9605,-0.0,0.0,-1.51682,0.0,-0.0,4.18157,-4.54942,9.88297,13.78608,4.87513,-14.22416,-29.51191,-2.84246,-0.00016,-19.76363,-4.89404,-4e-05,25.72733,7.76334,10.18765,10.13228,-3.47818,-10.06606,42.38631,34.06416,-10.11709,56.48586,-17.39615,38.10207,126.68743,0.00237,-84.7,117.57593,0.00112,98.27831,-9.99711,-9.16458,0.00437,-9.87481,3.57325,0.00085,-4.58562,-7.53993,7.53977,-27.59445,-9.87165,4.00995,0.39581,0.38131,5.09965
1233,-0.80376,0.0,-0.0,-1.50656,0.0,0.0,4.33706,-4.4138,9.65308,13.7229,4.83979,-14.10358,-29.40667,-2.90089,-8e-05,-19.84567,-4.86881,-3e-05,25.7854,7.81216,10.3629,10.29397,-3.53042,-10.3058,41.88694,34.06605,-10.02716,55.9574,-17.05887,37.82381,126.52168,-0.00013,-84.85189,117.49842,0.00058,98.96089,-10.12255,-9.1648,0.00584,-9.95195,3.2092,-0.00164,-4.58634,-7.46561,7.49798,-27.59129,-9.78705,4.00074,0.28608,0.1179,5.08955
1234,-0.68894,0.0,0.0,-1.49976,0.0,0.0,4.49823,-4.28819,9.51429,13.65536,4.80428,-14.02914,-29.29914,-2.95751,-0.00013,-19.91219,-4.83288,-6e-05,25.84015,7.83885,10.52155,10.43288,-3.58812,-10.54678,41.35672,34.07314,-9.96723,55.42846,-16.70577,37.52003,126.38641,-0.00215,-85.52222,117.43793,8e-05,99.61105,-10.17299,-9.39598,0.00598,-9.83361,2.80213,-0.00413,-4.58266,-7.40711,7.57194,-27.58161,-9.76186,4.09243,0.17727,-0.13965,5.05058
1235,-0.64241,0.0,-0.0,-1.51772,-0.0,0.0,4.65615,-4.18122,9.49409,13.59492,4.77758,-14.02025,-29.18198,-3.01977,-0.00021,-19.98685,-4.78065,-0.0001,25.88828,7.84025,10.63943,10.5624,-3.65224,-10.74974,40.79772,34.05032,-9.87794,54.90304,-16.33841,37.18908,126.26163,-0.00344,-86.60866,117.3932,-0.00034,100.16236,-10.08909,-9.67765,0.00508,-9.49649,2.41574,-0.00462,-4.57066,-7.35711,7.75469,-27.56099,-9.78663,4.28154,0.06866,-0.39131,4.99132
1236,-0.66797,-0.0,0.0,-1.55709,0.0,0.0,4.79424,-4.08575,9.58312,13.54785,4.76317,-14.05721,-29.05396,-3.08045,-0.00026,-20.08522,-4.71822,-0.00013,25.93535,7.8153,10.72089,10.70105,-3.72317,-10.91053,40.21846,33.96515,-9.711,54.38296,-15.95954,36.84146,126.13528,-0.00373,-87.93373,117.36299,-0.00065,100.54595,-9.84603,-9.88817,0.00358,-8.96011,2.15126,-0.00158,-4.55413,-7.30702,8.0027,-27.53356,-9.83657,4.53121,-0.03373,-0.64028,4.92758
1237,-0.7476,0.0,-0.0,-1.59522,0.0,0.0,4.89657,-3.98662,9.74212,13.5172,4.75956,-14.0945,-28.91878,-3.12311,-0.00021,-20.2146,-4.65972,-8e-05,25.99329,7.76573,10.78612,10.86743,-3.80001,-11.05333,39.63648,33.79457,-9.45346,53.8687,-15.5725,36.49695,126.01286,-0.00281,-89.37446,117.34568,-0.00081,100.75227,-9.4633,-10.04891,0.001,-8.30085,2.09213,0.00416,-4.53456,-7.24873,8.23759,-27.50252,-9.87385,4.77203,-0.12198,-0.89167,4.8797
1238,-0.84612,0.0,0.0,-1.60111,0.0,-0.0,4.95346,-3.86979,9.91498,13.50504,4.77114,-14.08015,-28.78268,-3.13227,-0.0001,-20.37244,-4.61857,3e-05,26.0779,7.69345,10.8504,11.07419,-3.88342,-11.21515,39.07373,33.52718,-9.13086,53.36584,-15.18527,36.1789,125.9113,-0.00092,-90.88891,117.33799,-0.00083,100.91061,-8.99504,-10.2855,-0.00278,-7.64469,2.28096,0.00944,-4.50574,-7.17944,8.37016,-27.46459,-9.86136,4.92238,-0.18978,-1.14951,4.86441
1239,-0.92401,0.0,-0.0,-1.55187,0.0,-0.0,4.96488,-3.73531,10.0448,13.51538,4.81303,-13.97313,-28.65246,-3.09784,3e-05,-20.54606,-4.59756,0.00014,26.20522,7.59721,10.91475,11.32412,-3.97945,-11.42654,38.54607,33.16453,-8.78974,52.88837,-14.81531,35.9077,125.84125,0.00116,-92.42799,117.33563,-0.00075,101.22411,-8.51336,-10.69698,-0.00599,-7.12844,2.70937,0.01062,-4.45725,-7.10533,8.33607,-27.41224,-9.77993,4.92011,-0.23384,-1.41349,4.88822
1240,-0.95486,0.0,-0.0,-1.44777,0.0,0.0,4.94216,-3.60225,10.09099,13.55438,4.90304,-13.75806,-28.53446,-3.01308,0.00011,-20.71863,-4.58533,0.00015,26.38491,7.47321,10.97364,11.60962,-4.09783,-11.69493,38.0546,32.72119,-8.4732,52.45282,-14.48851,35.69462,125.79571,0.00273,-93.82105,117.3335,-0.0006,101.75809,-8.08537,-11.25173,-0.00663,-6.86602,3.29331,0.00656,-4.38205,-7.0403,8.12375,-27.33976,-9.63786,4.749,-0.25545,-1.67724,4.94743
1241,-0.93481,0.0,-0.0,-1.30778,0.0,-0.0,4.90527,-3.49276,10.03935,13.62506,5.04922,-13.45106,-28.43526,-2.87278,0.00011,-20.87782,-4.56385,4e-05,26.61318,7.31956,11.02715,11.91311,-4.24487,-12.00626,37.58703,32.22149,-8.20486,52.06603,-14.22771,35.53719,125.75439,0.00364,-94.84976,117.32691,-0.00045,102.38381,-7.74416,-11.81404,-0.00485,-6.91524,3.90348,1e-05,-4.28135,-6.99927,7.7806,-27.2472,-9.46722,4.44723,-0.2638,-1.92988,5.03064
1242,-0.8785,-0.0,0.0,-1.15205,0.0,-0.0,4.87663,-3.41425,9.90654,13.72208,5.23961,-13.09853,-28.36085,-2.67881,1e-05,-21.01999,-4.51793,-0.00014,26.8697,7.14081,11.07832,12.20814,-4.41677,-12.33344,37.12706,31.69238,-7.98618,51.71715,-14.0376,35.42004,125.69576,0.00412,-95.44366,117.31369,-0.0003,102.95404,-7.47453,-12.24688,-0.00229,-7.25132,4.44624,-0.00513,-4.16412,-6.98995,7.39576,-27.14066,-9.30956,4.09445,-0.27782,-2.16098,5.12081
1243,-0.80813,0.0,0.0,-0.99445,0.0,0.0,4.87518,-3.3637,9.7421,13.8339,5.43892,-12.77204,-28.31123,-2.44939,-0.00011,-21.15002,-4.43871,-0.00035,27.12143,6.94762,11.11748,12.46648,-4.59978,-12.6341,36.6629,31.15689,-7.80077,51.38341,-13.90043,35.32214,125.60377,0.00422,-95.72571,117.29253,-0.00013,103.43182,-7.23394,-12.47294,-0.00016,-7.78995,4.88452,-0.00698,-4.04372,-7.00798,7.06734,-27.03029,-9.19889,3.78326,-0.32134,-2.36772,5.19997
1244,-0.74359,0.0,0.0,-0.84403,0.0,0.0,4.91208,-3.34086,9.61274,13.94789,5.60243,-12.54329,-28.27621,-2.21679,-0.00017,-21.27884,-4.32702,-0.00052,27.33486,6.75173,11.12125,12.67233,-4.77712,-12.85978,36.18895,30.6317,-7.62187,51.0461,-13.78602,35.22574,125.46809,0.00357,-95.908,117.25922,0.00017,103.84874,-6.99464,-12.46779,0.00113,-8.4425,5.20354,-0.00593,-3.93394,-7.03804,6.867,-26.92746,-9.14891,3.58596,-0.41093,-2.55958,5.25691
1245,-0.69543,-0.0,-0.0,-0.70457,0.0,-0.0,4.98858,-3.34882,9.56281,14.05163,5.70379,-12.44001,-28.24059,-2.00929,-0.00014,-21.41799,-4.20071,-0.00056,27.49147,6.56396,11.07572,12.83156,-4.93358,-12.99267,35.70383,30.12879,-7.42149,50.70321,-13.66531,35.12154,125.28368,0.00185,-96.17732,117.20634,0.00058,104.24265,-6.76269,-12.23589,0.00142,-9.15023,5.4023,-0.00342,-3.84663,-7.06137,6.81652,-26.84286,-9.15081,3.53002,-0.54622,-2.75235,5.29046
1246,-0.66387,0.0,-0.0,-0.57763,0.0,0.0,5.09778,-3.38418,9.58696,14.13349,5.75148,-12.43215,-28.19516,-1.83784,-8e-05,-21.57358,-4.09173,-0.00038,27.59483,6.39811,10.99282,12.96582,-5.05407,-13.06336,35.21001,29.65732,-7.17897,50.368,-13.52048,35.00797,125.05228,-0.00088,-96.63715,117.12719,0.0009,104.64267,-6.55717,-11.80634,0.00075,-9.88129,5.49858,-0.00052,-3.79129,-7.06723,6.88686,-26.78616,-9.18347,3.59279,-0.71176,-2.95467,5.30658
1247,-0.64262,0.0,-0.0,-0.46962,0.0,-0.0,5.22791,-3.43146,9.64133,14.18773,5.77795,-12.46841,-28.14298,-1.69969,-5e-05,-21.74356,-4.02778,-8e-05,27.66469,6.27203,10.90212,13.0974,-5.12386,-13.11944,34.71296,29.22161,-6.88578,50.05502,-13.34951,34.88671,124.78392,-0.00402,-97.33624,117.0199,0.00073,105.03432,-6.37972,-11.24325,-0.00029,-10.6032,5.50132,0.00254,-3.77493,-7.0612,7.01818,-26.76613,-9.22884,3.71671,-0.88713,-3.16134,5.31519
1248,-0.62278,-0.0,-0.0,-0.3913,-0.0,0.0,5.3643,-3.47223,9.67788,14.22031,5.8114,-12.52052,-28.09631,-1.58842,-5e-05,-21.91834,-4.01308,0.00018,27.72471,6.20126,10.83106,13.23715,-5.13426,-13.18106,34.21445,28.81788,-6.54431,49.76621,-13.16348,34.75994,124.4967,-0.00631,-98.295,116.8885,-0.00019,105.32037,-6.20457,-10.63619,-0.00094,-11.25448,5.3765,0.00535,-3.80055,-7.06237,7.14869,-26.78843,-9.28049,3.83706,-1.05593,-3.35904,5.32761
1249,-0.59685,0.0,-0.0,-0.34665,0.0,-0.0,5.49305,-3.50608,9.68157,14.24711,5.8499,-12.604,-28.06681,-1.50322,-6e-05,-22.08531,-4.02093,0.0002,27.79128,6.19168,10.78488,13.38257,-5.08783,-13.21459,33.70551,28.43593,-6.1642,49.48864,-12.97731,34.63212,124.21301,-0.00616,-99.42215,116.74233,-0.00143,105.39075,-6.00189,-10.04995,-0.00101,-11.74226,5.07928,0.00624,-3.86438,-7.08872,7.23785,-26.85158,-9.3393,3.90916,-1.20952,-3.53774,5.35466
1250,-0.56274,0.0,0.0,-0.32329,0.0,0.0,5.60434,-3.55242,9.67647,14.28167,5.86542,-12.75803,-28.05633,-1.45031,-5e-05,-22.23512,-4.0105,4e-05,27.86814,6.23812,10.74646,13.52531,-4.99709,-13.15586,33.16925,28.06687,-5.76289,49.20364,-12.80052,34.5125,123.95475,-0.00356,-100.51208,116.5952,-0.00208,105.26672,-5.76762,-9.50848,-0.00111,-11.97227,4.63845,0.00408,-3.95492,-7.14125,7.27579,-26.94449,-9.40236,3.9235,-1.3457,-3.69849,5.40517
1251,-0.52573,0.0,-0.0,-0.2954,0.0,-0.0,5.6909,-3.61689,9.68213,14.32172,5.84445,-12.98661,-28.05585,-1.43033,-3e-05,-22.36342,-3.96624,-0.00011,27.94954,6.32732,10.70538,13.65975,-4.87759,-12.99073,32.59341,27.71069,-5.36738,48.89801,-12.63352,34.41288,123.74026,-0.00047,-101.46608,116.4604,-0.00178,105.09958,-5.52172,-9.05554,-0.00177,-11.89272,4.16312,0.0004,-4.05653,-7.20001,7.27738,-27.04987,-9.45707,3.90171,-1.465,-3.8516,5.48117
1252,-0.50056,0.0,-0.0,-0.23746,-0.0,-0.0,5.74766,-3.67286,9.68216,14.35014,5.80921,-13.23409,-28.05137,-1.43047,-0.0,-22.46774,-3.91338,-0.00014,28.02688,6.44225,10.67239,13.78437,-4.7422,-12.79342,31.97898,27.37748,-5.00652,48.56929,-12.47144,34.34195,123.57965,0.00161,-102.38733,116.34332,-0.00101,105.01225,-5.30438,-8.76672,-0.00266,-11.52288,3.74975,-0.00229,-4.157,-7.23734,7.26621,-27.15307,-9.48711,3.87658,-1.56827,-4.00735,5.57355
1253,-0.5089,0.0,-0.0,-0.14035,0.0,-0.0,5.77596,-3.68877,9.6509,14.35109,5.78753,-13.4333,-28.03009,-1.43605,-1e-05,-22.54562,-3.88532,-8e-05,28.09311,6.56525,10.65427,13.89796,-4.60224,-12.66148,31.337,27.08159,-4.69479,48.22311,-12.31218,34.301,123.47081,0.00258,-103.37901,116.24046,-0.00033,105.01859,-5.18355,-8.67681,-0.00271,-10.94594,3.42179,-0.00319,-4.25354,-7.23919,7.25992,-27.24989,-9.48638,3.87002,-1.65679,-4.16901,5.66478
1254,-0.56629,0.0,-0.0,-0.01664,0.0,-0.0,5.78418,-3.6621,9.59249,14.3228,5.77681,-13.56294,-27.98338,-1.44471,-6e-05,-22.59566,-3.88477,-2e-05,28.14423,6.67999,10.63014,13.99736,-4.47125,-12.63165,30.68168,26.83239,-4.42333,47.86671,-12.1599,34.2831,123.40088,0.00275,-104.40582,116.1463,3e-05,105.07951,-5.2159,-8.76135,-0.00147,-10.26764,3.1534,-0.00292,-4.35114,-7.21737,7.26788,-27.34586,-9.46938,3.88603,-1.73237,-4.33384,5.73667
1255,-0.66835,-0.0,-0.0,0.10758,0.0,-0.0,5.78299,-3.62378,9.54073,14.276,5.74329,-13.65318,-27.90933,-1.46484,-0.00013,-22.61758,-3.88276,-1e-05,28.18047,6.7765,10.56166,14.07753,-4.35992,-12.66752,30.02927,26.62833,-4.16918,47.50459,-12.01954,34.27515,123.35162,0.00231,-105.36406,116.06043,0.00011,105.16728,-5.3788,-8.98637,0.00021,-9.56532,2.91838,-0.0022,-4.45377,-7.20192,7.29888,-27.44666,-9.46717,3.92086,-1.79783,-4.49621,5.77583
1256,-0.79001,0.0,-0.0,0.20265,0.0,-0.0,5.77864,-3.6087,9.51982,14.2255,5.65665,-13.73402,-27.81536,-1.49848,-0.00017,-22.61192,-3.85485,-1e-05,28.20875,6.85462,10.42945,14.13481,-4.26707,-12.72576,29.4007,26.45933,-3.91789,47.13857,-11.8903,34.26174,123.30273,0.00153,-106.16964,115.98901,-1e-05,105.27475,-5.57387,-9.31872,0.00098,-8.86534,2.71679,-0.00132,-4.5558,-7.21959,7.36411,-27.54807,-9.50872,3.97426,-1.8567,-4.64986,5.77542
1257,-0.90203,0.0,0.0,0.24775,-0.0,0.0,5.76997,-3.62816,9.52462,14.18387,5.5182,-13.80336,-27.71549,-1.53359,-0.00016,-22.58266,-3.80406,0.0,28.24246,6.91955,10.24875,14.17271,-4.18159,-12.79999,28.82024,26.31313,-3.68013,46.77101,-11.76699,34.229,123.23616,0.00079,-106.78594,115.93839,-0.00022,105.37732,-5.70515,-9.70356,0.00048,-8.16516,2.56293,-0.00049,-4.64082,-7.27619,7.46798,-27.63395,-9.60106,4.04802,-1.91186,-4.79242,5.73968
1258,-0.99159,0.0,0.0,0.24371,0.0,0.0,5.75343,-3.67517,9.54732,14.15803,5.35161,-13.86033,-27.62294,-1.56053,-0.00012,-22.54015,-3.74268,1e-05,28.29519,6.97834,10.04252,14.20318,-4.09178,-12.8836,28.3065,26.17836,-3.48467,46.40777,-11.64821,34.16951,123.14428,0.0004,-107.21507,115.90726,-0.00039,105.40157,-5.74046,-10.07813,-0.00045,-7.47324,2.4593,0.00011,-4.68949,-7.35599,7.59839,-27.68426,-9.72505,4.13718,-1.96435,-4.92711,5.68915
1259,-1.05967,0.0,-0.0,0.20552,0.0,-0.0,5.72558,-3.73154,9.58455,14.14763,5.18806,-13.91445,-27.54453,-1.58231,-0.00011,-22.49632,-3.68007,0.0,28.37503,7.0406,9.82743,14.2411,-3.99024,-12.95872,27.85931,26.04491,-3.35368,46.05857,-11.54194,34.08924,123.03467,0.00038,-107.49019,115.8866,-0.00041,105.28366,-5.7137,-10.4059,-0.00084,-6.83111,2.40192,0.00061,-4.69168,-7.43623,7.73107,-27.68804,-9.85031,4.2283,-2.01117,-5.0579,5.65282
1260,-1.10296,0.0,-0.0,0.14276,-0.0,0.0,5.67892,-3.76479,9.61187,14.14563,5.06207,-13.95005,-27.47874,-1.60312,-0.0001,-22.45481,-3.6324,-5e-05,28.48147,7.11495,9.62744,14.29422,-3.87546,-13.04134,27.45353,25.90413,-3.28464,45.7343,-11.46365,34.01018,122.92592,0.00048,-107.68391,115.86687,-0.00026,105.05713,-5.69379,-10.68499,-0.0004,-6.30574,2.39795,0.00102,-4.65549,-7.50393,7.84498,-27.65314,-9.95676,4.30698,-2.04494,-5.18512,5.64841
1261,-1.11439,0.0,-0.0,0.05821,0.0,-0.0,5.60302,-3.74344,9.59218,14.14188,4.99729,-13.93259,-27.41433,-1.61966,-6e-05,-22.40783,-3.61653,-0.00015,28.60134,7.20067,9.46842,14.35512,-3.75403,-13.17617,27.04842,25.74899,-3.25245,45.44301,-11.42944,33.96086,122.83775,0.0006,-107.88789,115.84243,4e-05,104.82449,-5.74032,-10.93341,0.00044,-5.962,2.44734,0.00116,-4.608,-7.56236,7.93318,-27.60703,-10.04471,4.36553,-2.059,-5.30754,5.67308
1262,-1.09611,0.0,-0.0,-0.04117,-0.0,0.0,5.49189,-3.6628,9.51395,14.12802,4.99565,-13.84821,-27.3313,-1.62325,5e-05,-22.34311,-3.6328,-0.00026,28.70919,7.28442,9.35828,14.40432,-3.63961,-13.3832,26.60659,25.57501,-3.22275,45.18524,-11.44851,33.95913,122.78291,0.00072,-108.15343,115.81162,0.00048,104.66605,-5.85223,-11.16653,0.00101,-5.83215,2.51327,0.00117,-4.58625,-7.62359,8.00076,-27.5875,-10.12724,4.40386,-2.05245,-5.4271,5.71431
1263,-1.05761,0.0,-0.0,-0.14274,0.0,0.0,5.34752,-3.55361,9.40288,14.09909,5.04687,-13.71251,-27.20802,-1.60376,0.00026,-22.25142,-3.66702,-0.00036,28.77721,7.349,9.28684,14.42255,-3.54432,-13.64059,26.10704,25.38267,-3.16352,44.95153,-11.51846,34.00124,122.76491,0.00069,-108.42615,115.77631,0.00095,104.619,-5.96264,-11.37142,0.00098,-5.8973,2.53046,0.00151,-4.62134,-7.69507,8.05583,-27.62593,-10.21437,4.42652,-2.02931,-5.54868,5.76374
1264,-1.0059,0.0,-0.0,-0.23478,0.0,-0.0,5.17998,-3.47032,9.30183,14.05189,5.13879,-13.55644,-27.03318,-1.5563,0.00049,-22.12881,-3.70334,-0.00039,28.78761,7.38818,9.23847,14.40017,-3.46904,-13.90422,25.54556,25.1778,-3.05307,44.72557,-11.62734,34.06696,122.78051,0.00022,-108.54935,115.74509,0.00124,104.69966,-6.01095,-11.50836,0.00055,-6.08852,2.45526,0.00208,-4.7223,-7.77227,8.10471,-27.73086,-10.30435,4.44117,-1.99526,-5.67592,5.82055
1265,-0.94952,0.0,0.0,-0.30955,0.0,0.0,5.00804,-3.46809,9.24893,13.98582,5.25372,-13.42344,-26.81334,-1.49017,0.00055,-21.97728,-3.72597,-0.00029,28.73772,7.41266,9.19737,14.33791,-3.40397,-14.11911,24.92849,24.96732,-2.88388,44.49083,-11.75996,34.13547,122.82471,-0.00075,-108.38072,115.73626,0.00105,104.91342,-6.00632,-11.55329,5e-05,-6.31415,2.31258,0.00213,-4.86925,-7.84364,8.15373,-27.8814,-10.38904,4.45825,-1.95665,-5.80886,5.88617
1266,-0.90954,-0.0,0.0,-0.36187,0.0,0.0,4.8562,-3.57826,9.26351,13.90477,5.36448,-13.3654,-26.56949,-1.42733,0.00037,-21.80499,-3.71657,-5e-05,28.63677,7.44174,9.14747,14.24155,-3.33699,-14.22977,24.26871,24.75225,-2.66063,44.23626,-11.90319,34.19845,122.89277,-0.0018,-107.91161,115.77229,0.00019,105.25765,-6.0194,-11.52484,-0.00047,-6.50534,2.18216,0.00139,-5.02264,-7.90312,8.21242,-28.03726,-10.4665,4.48902,-1.9214,-5.94351,5.95753
1267,-0.91883,0.0,-0.0,-0.38816,0.0,0.0,4.74609,-3.7932,9.33696,13.81394,5.44245,-13.41725,-26.32609,-1.38778,3e-05,-21.62289,-3.66323,0.00022,28.50074,7.49161,9.07746,14.11796,-3.25815,-14.20935,23.58696,24.52434,-2.39662,43.95945,-12.04852,34.26094,122.97675,-0.00223,-107.28346,115.86799,-0.00123,105.71989,-6.12944,-11.46443,-0.00084,-6.64388,2.14606,0.00023,-5.14666,-7.95733,8.29225,-28.16273,-10.54732,4.54147,-1.89706,-6.07156,6.02675
1268,-1.00627,0.0,-0.0,-0.38847,0.0,0.0,4.68731,-4.07055,9.43263,13.71448,5.46942,-13.56571,-26.10034,-1.37459,-0.00025,-21.43854,-3.57338,0.00038,28.3488,7.56928,8.9894,13.97562,-3.15946,-14.08856,22.91287,24.27202,-2.11004,43.66648,-12.19222,34.33134,123.06271,-0.0018,-106.70749,116.02414,-0.00272,106.27396,-6.36077,-11.41063,-0.00079,-6.74919,2.26188,-0.00092,-5.23153,-8.02075,8.40039,-28.24882,-10.64756,4.61652,-1.88477,-6.1831,6.08695
1269,-1.17562,0.0,-0.0,-0.37414,-0.0,0.0,4.67228,-4.35914,9.5041,13.60536,5.4393,-13.74883,-25.89593,-1.37157,-0.00034,-21.25282,-3.47188,0.00039,28.19933,7.6704,8.89913,13.82504,-3.03712,-13.94738,22.27741,23.99342,-1.81987,43.36866,-12.33316,34.4095,123.13487,-0.00092,-106.33743,116.22817,-0.00356,106.87105,-6.65863,-11.3845,-0.0004,-6.8443,2.548,-0.00167,-5.29724,-8.10423,8.53236,-28.31647,-10.77548,4.7057,-1.87622,-6.27396,6.13601
1270,-1.39453,0.0,-0.0,-0.37773,-0.0,0.0,4.67732,-4.62896,9.52666,13.49036,5.34967,-13.89874,-25.70318,-1.35654,-0.00022,-21.06212,-3.38171,0.00028,28.06365,7.78045,8.82138,13.67505,-2.89555,-13.86232,21.69917,23.70413,-1.54256,43.07811,-12.46986,34.48241,123.18462,-0.00014,-106.20674,116.45818,-0.00334,107.43825,-6.93243,-11.37913,-3e-05,-6.93202,2.96127,-0.00169,-5.37515,-8.20772,8.67108,-28.3976,-10.92444,4.79316,-1.85943,-6.35182,6.17517
1271,-1.60321,-0.0,0.0,-0.44643,0.0,-0.0,4.66997,-4.87314,9.50861,13.37716,5.19981,-13.98413,-25.50661,-1.31815,-3e-05,-20.86095,-3.31014,0.00017,27.94219,7.88343,8.75692,13.52719,-2.74424,-13.86139,21.17645,23.43058,-1.28856,42.80369,-12.59862,34.53236,123.21822,0.0004,-106.27534,116.69057,-0.00235,107.91831,-7.11071,-11.37415,0.00017,-6.99622,3.41546,-0.00101,-5.48283,-8.32037,8.79655,-28.50967,-11.07667,4.86469,-1.82895,-6.43196,6.20582
1272,-1.74202,0.0,0.0,-0.61078,0.0,0.0,4.62016,-5.08356,9.46934,13.26848,5.0004,-14.01353,-25.29485,-1.26056,0.00015,-20.64263,-3.25353,7e-05,27.82774,7.97137,8.69863,13.37526,-2.59027,-13.92674,20.69339,23.19222,-1.05857,42.54948,-12.71505,34.54959,123.25544,0.00083,-106.48731,116.90695,-0.00113,108.29794,-7.15978,-11.36269,0.00024,-7.02206,3.8315,-9e-05,-5.61191,-8.4249,8.8998,-28.64331,-11.21284,4.91884,-1.7893,-6.52583,6.22857
1273,-1.78187,0.0,0.0,-0.85353,0.0,0.0,4.51075,-5.23553,9.4123,13.15828,4.78084,-14.01142,-25.06554,-1.1946,0.00025,-20.4019,-3.20897,-7e-05,27.71372,8.04576,8.64827,13.21324,-2.43568,-14.02446,20.23492,22.98608,-0.84453,42.31552,-12.81915,34.53703,123.31567,0.00116,-106.78046,117.09547,-4e-05,108.57169,-7.08405,-11.35329,0.00023,-7.01114,4.15898,0.00057,-5.73618,-8.50362,8.98906,-28.77067,-11.31982,4.97027,-1.74759,-6.63275,6.24601
1274,-1.73124,0.0,0.0,-1.10904,0.0,0.0,4.34374,-5.29947,9.31556,13.03563,4.58473,-13.99608,-24.82648,-1.12559,0.00031,-20.13697,-3.18251,-0.0003,27.60122,8.1158,8.62399,13.04146,-2.27513,-14.13291,19.79757,22.78889,-0.63732,42.09845,-12.91819,34.50591,123.4016,0.00121,-107.08033,117.24987,0.00071,108.72017,-6.92673,-11.35445,0.00012,-6.98043,4.3747,0.00085,-5.83075,-8.54493,9.08297,-28.86524,-11.39418,5.04096,-1.70452,-6.73642,6.26368
1275,-1.62748,0.0,-0.0,-1.3052,0.0,-0.0,4.14182,-5.26765,9.15464,12.89365,4.44767,-13.98624,-24.59262,-1.0533,0.0003,-19.84772,-3.1836,-0.00052,27.4987,8.1964,8.63922,12.86356,-2.09354,-14.24053,19.3886,22.57627,-0.43512,41.89226,-13.02316,34.46824,123.49474,0.00094,-107.30975,117.36935,0.00099,108.73939,-6.76453,-11.36532,-6e-05,-6.95641,4.47586,0.0009,-5.88657,-8.54868,9.19694,-28.91735,-11.44173,5.14528,-1.65365,-6.80819,6.28509
1276,-1.53881,0.0,-0.0,-1.4243,-0.0,0.0,3.94433,-5.1735,8.95435,12.74216,4.36498,-14.03352,-24.37611,-0.98723,0.00018,-19.53614,-3.20465,-0.00051,27.41361,8.30067,8.66333,12.68069,-1.87452,-14.30503,19.01894,22.34061,-0.24507,41.69242,-13.14077,34.42946,123.56515,0.00058,-107.4153,117.45719,0.00087,108.65171,-6.68583,-11.37439,-0.00039,-6.9628,4.46786,0.00092,-5.91187,-8.52854,9.33341,-28.93614,-11.47598,5.28004,-1.58804,-6.82292,6.30775
1277,-1.54874,0.0,0.0,-1.50977,0.0,0.0,3.79009,-5.08158,8.79505,12.60492,4.29292,-14.20543,-24.17718,-0.94849,-4e-05,-19.20748,-3.22014,-0.00026,27.34441,8.43077,8.62851,12.48988,-1.61379,-14.25886,18.69613,22.09192,-0.07699,41.50046,-13.26661,34.38387,123.58867,0.00038,-107.38886,117.51912,0.00057,108.48658,-6.75255,-11.36318,-0.00096,-7.00013,4.36844,0.00093,-5.92382,-8.50818,9.48365,-28.94092,-11.51535,5.42772,-1.50657,-6.77609,6.32525
1278,-1.69928,0.0,-0.0,-1.59922,-0.0,0.0,3.69113,-5.04918,8.73908,12.49561,4.19854,-14.50146,-23.98439,-0.94527,-0.00024,-18.86523,-3.21858,-7e-05,27.28137,8.57658,8.49868,12.28613,-1.32248,-14.09666,18.41861,21.84572,0.06359,41.32229,-13.38629,34.31657,123.5629,0.00025,-107.26338,117.56385,0.00034,108.25544,-6.96676,-11.31908,-0.00167,-7.03942,4.22267,0.0008,-5.93882,-8.51,9.63783,-28.9502,-11.57664,5.57023,-1.41394,-6.6855,6.33231
1279,-1.95771,-0.0,-0.0,-1.68574,0.0,-0.0,3.62539,-5.09717,8.78378,12.40501,4.09166,-14.83184,-23.78116,-0.96268,-0.00034,-18.50692,-3.21495,-0.00017,27.21193,8.72417,8.30085,12.06512,-1.01894,-13.9031,18.17288,21.61229,0.17536,41.16044,-13.48542,34.21075,123.51332,-0.00013,-107.08507,117.60401,0.00037,107.93562,-7.26862,-11.25576,-0.00213,-7.04106,4.09315,0.00055,-5.96769,-8.54196,9.79072,-28.97568,-11.66516,5.69956,-1.31658,-6.57804,6.33132
1280,-2.2447,-0.0,-0.0,-1.75036,0.0,0.0,3.55669,-5.21309,8.89303,12.31524,4.00421,-15.10063,-23.55477,-0.9836,-0.00038,-18.12737,-3.22506,-0.00045,27.12671,8.86574,8.07891,11.82464,-0.71919,-13.76809,17.93695,21.3955,0.25602,41.00839,-13.55902,34.05709,123.48273,-0.00095,-106.88625,117.65291,0.00066,107.50881,-7.57003,-11.21925,-0.00213,-6.98308,4.02318,0.00034,-6.01605,-8.59415,9.93721,-29.02244,-11.76982,5.81491,-1.21982,-6.47459,6.33487
1281,-2.47752,0.0,0.0,-1.78633,0.0,-0.0,3.45575,-5.36893,9.02861,12.21593,3.96319,-15.26859,-23.30441,-1.00149,-0.00038,-17.72491,-3.24735,-0.00066,27.02623,9.00001,7.85693,11.56768,-0.43446,-13.72335,17.68986,21.1973,0.30055,40.85469,-13.61246,33.86109,123.50691,-0.00197,-106.67749,117.71898,0.00098,107.01695,-7.80195,-11.25611,-0.00199,-6.87788,4.01614,0.00025,-6.08589,-8.64964,10.06532,-29.09163,-11.87039,5.91187,-1.12655,-6.38412,6.35799
1282,-2.60265,0.0,0.0,-1.78903,0.0,0.0,3.30829,-5.53556,9.14768,12.10492,3.98044,-15.34626,-23.04218,-1.0124,-0.00035,-17.30394,-3.26867,-0.00066,26.92259,9.12706,7.6478,11.304,-0.17217,-13.75467,17.42123,21.01951,0.30645,40.69494,-13.65583,33.64426,123.59357,-0.00256,-106.48301,117.80217,0.00105,106.5449,-7.94187,-11.3711,-0.00203,-6.76587,4.05072,0.0002,-6.17418,-8.69877,10.15836,-29.18014,-11.95157,5.97876,-1.03774,-6.3051,6.40508
1283,-2.62667,0.0,0.0,-1.75719,-0.0,0.0,3.11931,-5.6909,9.20804,11.98349,4.04533,-15.37492,-22.78562,-1.01136,-0.00029,-16.87366,-3.27259,-0.0004,26.8311,9.24929,7.46211,11.04581,0.067,-13.82357,17.13597,20.86307,0.28041,40.53981,-13.69893,33.43482,123.72236,-0.00206,-106.41415,117.89368,0.00078,106.16933,-8.00197,-11.5395,-0.00227,-6.69008,4.10242,0.00015,-6.26995,-8.74294,10.2071,-29.27756,-12.01105,6.00644,-0.95575,-6.22901,6.46567
1284,-2.6151,-0.0,-0.0,-1.70404,0.0,0.0,2.90969,-5.82007,9.18104,11.85466,4.12429,-15.40758,-22.54741,-0.99679,-0.00022,-16.44565,-3.2464,-4e-05,26.75965,9.37531,7.30774,10.80196,0.29221,-13.88332,16.8512,20.72983,0.24035,40.40887,-13.75025,33.25247,123.8633,-0.00062,-106.65465,117.98263,0.00028,105.93686,-8.00547,-11.75237,-0.00251,-6.67323,4.15521,0.00011,-6.35522,-8.78631,10.22043,-29.36589,-12.05612,6.00151,-0.88576,-6.14554,6.5231
1285,-2.63055,0.0,0.0,-1.64439,-0.0,0.0,2.69743,-5.91101,9.04107,11.71879,4.1766,-15.47002,-22.33004,-0.96514,-6e-05,-16.02777,-3.19125,0.0002,26.70663,9.51643,7.20002,10.57396,0.51983,-13.91853,16.58284,20.62564,0.2113,40.31477,-13.8164,33.09909,123.99508,0.00081,-107.29906,118.06493,-0.00022,105.85429,-7.99183,-12.00835,-0.00244,-6.71478,4.20464,0.0001,-6.41171,-8.82703,10.22409,-29.42564,-12.09501,5.98863,-0.83178,-6.04676,6.56129
1286,-2.67954,-0.0,-0.0,-1.58074,0.0,0.0,2.48527,-5.95856,8.76434,11.57283,4.17346,-15.54411,-22.12545,-0.90595,0.00021,-15.61977,-3.12138,0.00024,26.66436,9.6766,7.16287,10.35597,0.76337,-13.95923,16.32887,20.55889,0.21749,40.25159,-13.89721,32.96264,124.11221,0.00145,-108.23186,118.14481,-0.00058,105.89342,-8.02247,-12.2719,-0.002,-6.79277,4.25145,0.00013,-6.42928,-8.85678,10.24712,-29.44474,-12.13129,5.99817,-0.78984,-5.93016,6.56742
1287,-2.73118,0.0,-0.0,-1.51901,-0.0,0.0,2.2699,-5.97753,8.36656,11.42061,4.10364,-15.60418,-21.91739,-0.81367,0.00053,-15.21803,-3.04734,0.00024,26.62055,9.84767,7.20409,10.14035,1.02216,-14.02984,16.06413,20.53391,0.27441,40.19788,-13.98188,32.82876,124.22318,0.00143,-109.20694,118.22788,-0.00078,106.01667,-8.14532,-12.47824,-0.00172,-6.86271,4.29396,0.00014,-6.41069,-8.86724,10.30434,-29.42464,-12.16303,6.0472,-0.74541,-5.80196,6.54
1288,-2.7599,0.0,0.0,-1.4838,-0.0,0.0,2.05197,-6.00346,7.92446,11.27883,3.96858,-15.65164,-21.68896,-0.69969,0.00074,-14.82257,-2.96559,0.00035,26.56179,10.01615,7.30002,9.92374,1.28119,-14.10701,15.75468,20.54489,0.38298,40.13218,-14.05398,32.69014,124.34159,0.0013,-110.0332,118.31429,-0.00079,106.18914,-8.36297,-12.57455,-0.00213,-6.87503,4.3202,3e-05,-6.37195,-8.85544,10.3856,-29.38148,-12.18355,6.12753,-0.67964,-5.67451,6.49475
1289,-2.75596,0.0,0.0,-1.50779,0.0,-0.0,1.83305,-6.07062,7.54065,11.16697,3.77881,-15.70481,-21.43392,-0.58845,0.00071,-14.43751,-2.86707,0.00053,26.481,10.17551,7.41126,9.70775,1.52418,-14.14283,15.38378,20.57635,0.52972,40.04813,-14.10167,32.54697,124.47352,0.00134,-110.67318,118.39678,-0.00058,106.36526,-8.64587,-12.55081,-0.00294,-6.80577,4.30432,-0.00031,-6.3388,-8.82307,10.46033,-29.34242,-12.18261,6.21,-0.58119,-5.55649,6.45704
1290,-2.70869,0.0,0.0,-1.60909,-0.0,0.0,1.60898,-6.18692,7.28546,11.09174,3.55493,-15.76667,-21.1632,-0.50406,0.00042,-14.06593,-2.75298,0.00059,26.38274,10.33296,7.50886,9.49498,1.74784,-14.11788,14.96887,20.6094,0.69488,39.95614,-14.12382,32.40062,124.61187,0.00148,-111.17958,118.46461,-0.00023,106.48043,-8.95099,-12.44716,-0.00344,-6.66987,4.2195,-0.00076,-6.33929,-8.77256,10.49555,-29.33712,-12.14971,6.26297,-0.45349,-5.44477,6.44653
1291,-2.60177,-0.0,-0.0,-1.78183,0.0,0.0,1.37143,-6.32957,7.1695,11.04432,3.32678,-15.81553,-20.90028,-0.45997,3e-05,-13.70628,-2.64028,0.0004,26.28072,10.50322,7.5832,9.28508,1.96367,-14.06255,14.55528,20.62696,0.86288,39.87094,-14.12746,32.24878,124.74065,0.00141,-111.56068,118.51013,4e-05,106.47067,-9.22774,-12.31565,-0.00336,-6.51191,4.05381,-0.00095,-6.39365,-8.70598,10.47541,-29.38678,-12.08065,6.27083,-0.31225,-5.3269,6.4661
1292,-2.44379,0.0,-0.0,-2.01378,0.0,-0.0,1.12004,-6.46396,7.16673,11.01308,3.12627,-15.83804,-20.67022,-0.45954,-0.00028,-13.3547,-2.54999,-1e-05,26.1884,10.6959,7.6277,9.0731,2.18755,-14.01892,14.19322,20.61363,1.02644,39.79889,-14.11967,32.08762,124.8427,0.00115,-111.72277,118.53147,0.0001,106.30617,-9.43042,-12.15877,-0.00288,-6.38895,3.81572,-0.00057,-6.50643,-8.6286,10.40904,-29.49599,-11.98379,6.23998,-0.17719,-5.19158,6.50332
1293,-2.28822,-0.0,-0.0,-2.30391,-0.0,0.0,0.87108,-6.5681,7.24669,10.9947,2.97792,-15.85683,-20.4911,-0.5001,-0.00041,-13.00942,-2.49125,-0.00043,26.11084,10.91011,7.62654,8.85141,2.42875,-13.99319,13.91656,20.5556,1.18305,39.73632,-14.10244,31.9176,124.90915,0.00093,-111.51206,118.53078,-5e-05,106.0142,-9.533,-11.92505,-0.00206,-6.35139,3.53935,0.00022,-6.66477,-8.55334,10.32444,-29.65175,-11.88184,6.19131,-0.0639,-5.03605,6.54283
1294,-2.19516,0.0,0.0,-2.64249,0.0,-0.0,0.64681,-6.64191,7.37324,10.98974,2.89243,-15.90498,-20.371,-0.57079,-0.00034,-12.67062,-2.45776,-0.00067,26.04516,11.13922,7.57386,8.61408,2.68639,-13.96343,13.73577,20.4463,1.32787,39.67733,-14.07613,31.74601,124.94589,0.00078,-110.8428,118.51248,-0.00027,105.67179,-9.52841,-11.58857,-0.00102,-6.42266,3.28569,0.0008,-6.84251,-8.50136,10.25603,-29.82815,-11.80756,6.14841,0.02145,-4.86523,6.57777
1295,-2.17925,0.0,0.0,-2.98326,0.0,-0.0,0.45753,-6.70052,7.49552,10.99228,2.86307,-15.98384,-20.30858,-0.65173,-0.00017,-12.33742,-2.43447,-0.00064,25.98646,11.37727,7.49471,8.3606,2.95178,-13.91855,13.64385,20.29361,1.44882,39.62267,-14.04555,31.58393,124.97137,0.00045,-109.86369,118.48194,-0.00048,105.34492,-9.41343,-11.23098,-0.00041,-6.58928,3.1172,0.00069,-7.00673,-8.49599,10.23373,-29.99288,-11.79401,6.12981,0.08147,-4.68682,6.61127
1296,-2.20965,0.0,-0.0,-3.26433,0.0,-0.0,0.29809,-6.76566,7.57012,10.99184,2.86708,-16.06032,-20.29451,-0.72148,-2e-05,-12.00821,-2.40424,-0.00036,25.93307,11.619,7.42901,8.09724,3.21159,-13.8715,13.62551,20.12027,1.53235,39.58239,-14.01869,31.44011,125.00547,1e-05,-108.90308,118.44298,-0.00064,105.03138,-9.19392,-11.00307,-0.00098,-6.80445,3.06142,0.00012,-7.12538,-8.55223,10.2758,-30.11434,-11.86203,6.14651,0.12246,-4.50829,6.65075
1297,-2.24658,0.0,0.0,-3.45096,0.0,0.0,0.15705,-6.85613,7.58863,10.98218,2.87678,-16.09143,-20.31448,-0.76551,1e-05,-11.68352,-2.35349,4e-05,25.88729,11.85689,7.39919,7.83419,3.45248,-13.84844,13.66121,19.95448,1.57668,39.57036,-14.00006,31.31607,125.05962,-9e-05,-108.20865,118.39718,-0.00066,104.71316,-8.90967,-10.9994,-0.00234,-6.9957,3.10741,-0.00032,-7.17779,-8.66708,10.38303,-30.17166,-12.00917,6.20042,0.14892,-4.33512,6.70114
1298,-2.26524,0.0,0.0,-3.53953,-0.0,-0.0,0.02491,-6.97101,7.56725,10.96126,2.8759,-16.04189,-20.35644,-0.77926,-4e-05,-11.36728,-2.27854,0.00039,25.85289,12.08373,7.40173,7.57906,3.6683,-13.87783,13.72575,19.81638,1.5962,39.59472,-13.98905,31.2063,125.13747,0.0005,-107.85431,118.34587,-0.00041,104.45078,-8.62911,-11.20279,-0.00316,-7.08917,3.22563,-0.00028,-7.16536,-8.81634,10.53469,-30.1652,-12.20513,6.2819,0.16064,-4.16749,6.75991
1299,-2.26283,0.0,-0.0,-3.53861,0.0,0.0,-0.10041,-7.0792,7.51712,10.92614,2.86592,-15.89687,-20.41691,-0.76867,-0.00014,-11.06651,-2.18704,0.00054,25.8341,12.2998,7.42259,7.33546,3.86468,-13.97445,13.78817,19.71206,1.61137,39.65191,-13.98536,31.10311,125.24099,0.00174,-107.82967,118.29253,8e-05,104.37582,-8.4068,-11.52414,-0.00276,-7.05825,3.37935,4e-05,-7.11336,-8.96071,10.69249,-30.11858,-12.39895,6.37104,0.15652,-3.99806,6.81867
1300,-2.26358,-0.0,0.0,-3.47022,0.0,0.0,-0.21155,-7.13668,7.4399,10.8763,2.85615,-15.68031,-20.49938,-0.74988,-0.00019,-10.79035,-2.0917,0.0005,25.83605,12.51483,7.44865,7.10828,4.05525,-14.11778,13.82003,19.63863,1.63599,39.7282,-13.99286,31.00151,125.37114,0.00315,-108.08018,118.24329,0.00058,104.59745,-8.24708,-11.85435,-0.00151,-6.94636,3.53541,0.00026,-7.05846,-9.06055,10.81701,-30.06679,-12.53891,6.447,0.14201,-3.81561,6.87043
1301,-2.31408,0.0,0.0,-3.38141,0.0,-0.0,-0.29653,-7.12463,7.34658,10.82249,2.85155,-15.45865,-20.60796,-0.74478,-0.00015,-10.54821,-2.00248,0.00034,25.86335,12.74018,7.46471,6.90556,4.25128,-14.2523,13.80912,19.59394,1.67198,39.80733,-14.0158,30.9,125.52041,0.00395,-108.48182,118.20566,0.00074,105.09106,-8.1049,-12.09154,0.0001,-6.81914,3.67566,0.00027,-7.02995,-9.09261,10.88938,-30.03782,-12.59636,6.50157,0.12972,-3.61346,6.91291
1302,-2.45484,0.0,0.0,-3.3291,-0.0,0.0,-0.34826,-7.06993,7.26262,10.78458,2.85347,-15.3024,-20.74299,-0.77072,-0.0,-10.34766,-1.92552,0.00014,25.9171,12.97961,7.45411,6.73507,4.4539,-14.32533,13.76711,19.58369,1.71125,39.87907,-14.05195,30.80179,125.66683,0.00377,-108.84294,118.18432,0.00054,105.67013,-7.9227,-12.15639,0.00196,-6.71251,3.79647,0.00018,-7.03749,-9.05841,10.92325,-30.04084,-12.57795,6.54681,0.13275,-3.39571,6.94682
1303,-2.68354,0.0,0.0,-3.34092,-0.0,-0.0,-0.37156,-7.02474,7.20805,10.77658,2.86995,-15.2298,-20.90035,-0.83113,0.00018,-10.1927,-1.86725,-4e-05,25.99296,13.22777,7.41183,6.6016,4.655,-14.33255,13.72243,19.6201,1.74142,39.94338,-14.09089,30.71814,125.78046,0.00311,-108.97321,118.17704,0.00025,106.11267,-7.67869,-12.01072,0.00364,-6.64516,3.90199,5e-05,-7.07092,-8.97869,10.95706,-30.06579,-12.51762,6.6102,0.15864,-3.17631,6.97636
1304,-2.95044,0.0,-0.0,-3.40162,0.0,0.0,-0.38023,-7.02711,7.17947,10.79885,2.92077,-15.20077,-21.07399,-0.9167,0.00032,-10.08131,-1.83454,-0.00016,26.08023,13.47475,7.34869,6.50276,4.84391,-14.32066,13.70062,19.71142,1.75519,40.00772,-14.11966,30.66385,125.84303,0.00259,-108.78022,118.17517,4e-05,106.29085,-7.40678,-11.67657,0.004,-6.63535,3.99778,-0.00011,-7.10833,-8.87874,11.03065,-30.09116,-12.45399,6.71872,0.20498,-2.97214,7.0077
1305,-3.19623,0.0,0.0,-3.48415,0.0,0.0,-0.38613,-7.07862,7.15612,10.84459,3.02799,-15.16946,-21.26004,-1.01547,0.00042,-10.00363,-1.82894,-0.0002,26.16182,13.71165,7.28107,6.42338,5.01386,-14.34028,13.70445,19.84983,1.76097,40.07833,-14.12924,30.64269,125.8699,0.00201,-108.3092,118.17002,-8e-05,106.17912,-7.16116,-11.24334,0.00228,-6.67653,4.08565,-0.00023,-7.12873,-8.77573,11.1606,-30.09658,-12.40927,6.88096,0.2569,-2.79559,7.04489
1306,-3.39414,0.0,-0.0,-3.58327,0.0,-0.0,-0.39295,-7.14959,7.11989,10.90828,3.19493,-15.12655,-21.45832,-1.11881,0.00045,-9.94447,-1.84376,-0.00018,26.2193,13.93336,7.22596,6.33943,5.16418,-14.39987,13.70945,20.00798,1.78471,40.152,-14.11566,30.63723,125.9131,0.00078,-107.69843,118.15786,-0.00012,105.83454,-6.95347,-10.85102,-0.00109,-6.72423,4.16067,-0.00038,-7.125,-8.67652,11.33056,-30.07613,-12.38345,7.07896,0.29421,-2.65188,7.09023
1307,-3.55322,0.0,0.0,-3.7115,-0.0,0.0,-0.40289,-7.20008,7.06531,10.98518,3.38593,-15.09049,-21.66862,-1.21676,0.00039,-9.88776,-1.86768,-0.00014,26.24463,14.13688,7.2028,6.2325,5.29952,-14.46773,13.68152,20.14879,1.85557,40.21503,-14.07775,30.61411,126.03303,-0.00075,-107.09948,118.13971,-7e-05,105.38174,-6.73434,-10.64422,-0.00516,-6.71461,4.20887,-0.00075,-7.10996,-8.58554,11.50279,-30.04475,-12.36605,7.27581,0.3067,-2.53869,7.14367
1308,-3.69391,-0.0,-0.0,-3.87938,0.0,0.0,-0.4253,-7.20337,7.00095,11.06716,3.52736,-15.07698,-21.88618,-1.29473,0.00023,-9.82065,-1.89043,-8e-05,26.24888,14.31935,7.22582,6.1017,5.4286,-14.50823,13.60495,20.24404,1.98187,40.25089,-14.01653,30.54241,126.2533,-0.00153,-106.61816,118.11801,5e-05,104.94483,-6.45581,-10.70412,-0.00879,-6.59209,4.2105,-0.00146,-7.11024,-8.51433,11.64129,-30.03189,-12.35383,7.43335,0.303,-2.44507,7.19845
1309,-3.84633,-0.0,-0.0,-4.10771,0.0,0.0,-0.47139,-7.16324,6.95968,11.14939,3.54241,-15.09264,-22.10141,-1.34347,8e-05,-9.73807,-1.90472,-2e-05,26.25594,14.47955,7.28294,5.96168,5.56086,-14.5016,13.49788,20.2896,2.13778,40.25121,-13.93613,30.41463,126.53588,-0.00118,-106.29909,118.09309,0.00016,104.60675,-6.15013,-10.9982,-0.01021,-6.35212,4.15625,-0.00239,-7.15203,-8.48239,11.72964,-30.06639,-12.35843,7.52847,0.30295,-2.35316,7.24235
1310,-4.05435,-0.0,0.0,-4.4366,0.0,-0.0,-0.54458,-7.11527,6.9937,11.2379,3.39647,-15.14186,-22.30513,-1.36831,1e-05,-9.64548,-1.90569,3e-05,26.28804,14.61935,7.33337,5.83121,5.70062,-14.44353,13.40116,20.3087,2.2762,40.22228,-13.84319,30.25463,126.79988,-0.00045,-106.14713,118.06187,0.00022,104.42555,-5.92413,-11.40215,-0.00849,-6.0612,4.0623,-0.00314,-7.24865,-8.50674,11.77293,-30.16283,-12.39752,7.55914,0.32219,-2.24498,7.26386
1311,-4.33536,0.0,-0.0,-4.87324,0.0,-0.0,-0.64407,-7.10633,7.12695,11.3393,3.11428,-15.21171,-22.49589,-1.37929,-1e-05,-9.55691,-1.89207,6e-05,26.3599,14.7425,7.34692,5.72624,5.84349,-14.35412,13.34916,20.34348,2.35859,40.18201,-13.74444,30.10246,126.9705,-0.00034,-106.16254,118.02072,0.00023,104.40003,-5.87221,-11.7867,-0.00496,-5.80207,3.96515,-0.00362,-7.39588,-8.58872,11.78504,-30.31647,-12.4777,7.53775,0.36614,-2.10998,7.25637
