PaulMeinheit/Bachelor_Muay_Thai/processed_Data/E_01/E_01_Teep/sliced/Raw_Data/E_01/E_01_Teep/JointAngles.txt/sliced4.csv
Unnamed: 0_level_0,L_MTP_ANGLE,L_MTP_ANGLE,L_MTP_ANGLE,R_MTP_ANGLE,R_MTP_ANGLE,R_MTP_ANGLE,L_ANKLE_ANGLE,L_ANKLE_ANGLE,L_ANKLE_ANGLE,R_ANKLE_ANGLE,R_ANKLE_ANGLE,R_ANKLE_ANGLE,L_KNEE_ANGLE,L_KNEE_ANGLE,L_KNEE_ANGLE,R_KNEE_ANGLE,R_KNEE_ANGLE,R_KNEE_ANGLE,L_HIP_ANGLE,L_HIP_ANGLE,L_HIP_ANGLE,R_HIP_ANGLE,R_HIP_ANGLE,R_HIP_ANGLE,L_SHOULDER_ANGLE,L_SHOULDER_ANGLE,L_SHOULDER_ANGLE,R_SHOULDER_ANGLE,R_SHOULDER_ANGLE,R_SHOULDER_ANGLE,L_ELBOW_ANGLE,L_ELBOW_ANGLE,L_ELBOW_ANGLE,R_ELBOW_ANGLE,R_ELBOW_ANGLE,R_ELBOW_ANGLE,L_WRIST_ANGLE,L_WRIST_ANGLE,L_WRIST_ANGLE,R_WRIST_ANGLE,R_WRIST_ANGLE,R_WRIST_ANGLE,NECK_ANGLE,NECK_ANGLE,NECK_ANGLE,NECK_ANGLE_SHADOW,NECK_ANGLE_SHADOW,NECK_ANGLE_SHADOW,Trunk_Joint_Angle,Trunk_Joint_Angle,Trunk_Joint_Angle
ITEM,X,Y,Z,X,Y,Z,X,Y,Z,X,Y,Z,X,Y,Z,X,Y,Z,X,Y,Z,X,Y,Z,X,Y,Z,X,Y,Z,X,Y,Z,X,Y,Z,X,Y,Z,X,Y,Z,X,Y,Z,X,Y,Z,X,Y,Z
1989,-5.70986,0.0,0.0,-1.94707,0.0,-0.0,-9.17549,-6.84691,2.43665,16.7231,0.20797,-20.423,-23.86973,-1.8614,-6e-05,-21.2891,-4.76612,0.0024,29.21586,11.7152,8.07766,11.63704,4.39803,-12.61071,29.87078,20.80849,-4.27194,43.20602,-10.33311,34.82967,131.21028,-0.00062,-103.51073,118.04192,0.00264,102.66441,-3.96053,-11.82674,0.00137,-10.56917,2.57735,0.00072,-10.6499,-13.05073,10.44697,-34.07348,-16.06314,4.47959,-1.06314,-0.08899,6.26421
1990,-6.08795,0.0,-0.0,-1.82235,-0.0,0.0,-8.72396,-6.67378,3.03936,17.074,0.52788,-20.69796,-23.69494,-1.78708,-0.00016,-21.96328,-4.96607,0.00177,29.11306,11.38757,7.86382,11.95158,4.41032,-12.34683,29.826,20.70784,-4.32548,43.11148,-10.72355,34.73611,131.27025,-0.00022,-102.91209,118.15074,0.0006,102.47176,-4.14589,-11.83998,0.00037,-10.73997,2.54586,-0.00021,-10.53553,-12.86815,10.41715,-33.93928,-15.88405,4.52731,-1.0215,0.00587,6.07788
1991,-6.31305,0.0,0.0,-1.67368,-0.0,0.0,-8.2868,-6.55197,3.58399,17.38892,0.8018,-20.95607,-23.62516,-1.72865,-0.00014,-22.62648,-5.12834,0.0007,29.01268,11.07684,7.63392,12.21816,4.38942,-12.12997,29.84507,20.61727,-4.37642,43.02713,-11.09697,34.60045,131.29527,0.00091,-101.99931,118.2828,-0.00124,102.57385,-4.20906,-11.70738,0.00019,-10.78485,2.61356,-0.00041,-10.39563,-12.65124,10.36537,-33.77671,-15.66492,4.56863,-1.02075,0.08867,5.90303
1992,-6.2354,0.0,-0.0,-1.50466,0.0,-0.0,-7.91649,-6.4794,4.00937,17.64553,0.98137,-21.17481,-23.6617,-1.65673,-0.00033,-23.27151,-5.2424,-0.00046,28.92593,10.78751,7.4355,12.43421,4.33074,-11.98763,29.92107,20.56228,-4.41878,42.95205,-11.45837,34.42644,131.28262,0.00213,-100.84196,118.43727,-0.00241,102.87456,-4.15823,-11.46997,0.00047,-10.68625,2.81883,0.00032,-10.23584,-12.44655,10.29969,-33.59643,-15.45159,4.59183,-1.04678,0.17139,5.74501
1993,-5.81584,0.0,0.0,-1.33779,-0.0,-0.0,-7.63524,-6.44923,4.2856,17.83462,1.03873,-21.34011,-23.80805,-1.55362,-0.00099,-23.89514,-5.30763,-0.0014,28.87253,10.52626,7.30953,12.61352,4.23316,-11.92308,30.04369,20.55809,-4.45091,42.88895,-11.81141,34.22915,131.24808,0.00256,-99.551,118.59748,-0.00271,103.3049,-4.05645,-11.21419,0.00048,-10.46091,3.13591,0.0015,-10.07041,-12.28529,10.2204,-33.41599,-15.27284,4.58439,-1.07513,0.26097,5.61705
1994,-5.15761,0.0,-0.0,-1.21364,-0.0,-0.0,-7.43312,-6.45659,4.41975,17.96088,0.97275,-21.45643,-24.07897,-1.42462,-0.00206,-24.49489,-5.33005,-0.00186,28.88525,10.30264,7.27042,12.78297,4.09738,-11.91805,30.19868,20.60382,-4.47542,42.84866,-12.15296,34.02955,131.22105,0.00206,-98.31241,118.7377,-0.00217,103.80788,-4.00257,-11.04205,0.00017,-10.13437,3.49941,0.00242,-9.91475,-12.18034,10.12902,-33.25196,-15.1411,4.5425,-1.07875,0.35917,5.52952
1995,-4.41566,-0.0,-0.0,-1.16794,0.0,0.0,-7.30144,-6.49112,4.4297,18.03784,0.81812,-21.53509,-24.50034,-1.29232,-0.00318,-25.06656,-5.32498,-0.00161,28.99699,10.12679,7.31434,12.96391,3.92265,-11.95756,30.36545,20.68329,-4.49349,42.84796,-12.47653,33.84521,131.23604,0.00181,-97.37446,118.84118,-0.00117,104.29995,-4.06265,-11.04596,7e-05,-9.71952,3.84245,0.00271,-9.77723,-12.13259,10.03868,-33.11219,-15.06227,4.4781,-1.04634,0.464,5.48183
1996,-3.70343,0.0,-0.0,-1.20686,0.0,0.0,-7.26486,-6.52881,4.31815,18.08121,0.64045,-21.57755,-25.10519,-1.18403,-0.0038,-25.6052,-5.31782,-0.00065,29.23155,10.00789,7.43584,13.16023,3.70564,-12.04779,30.52089,20.77328,-4.50017,42.90114,-12.77929,33.68464,131.31914,0.0033,-96.95923,118.91462,-0.00031,104.68768,-4.20649,-11.28963,-0.00017,-9.22368,4.12463,0.00248,-9.65513,-12.13714,9.97635,-32.99252,-15.04231,4.41829,-0.98843,0.5708,5.4621
1997,-3.08273,0.0,0.0,-1.30315,0.0,0.0,-7.3842,-6.53563,4.07214,18.10444,0.50998,-21.57263,-25.93258,-1.12334,-0.00342,-26.1087,-5.33523,0.0007,29.61143,9.95546,7.63263,13.36539,3.4428,-12.20785,30.64923,20.85615,-4.49206,43.01187,-13.06433,33.54987,131.4745,0.00636,-97.14594,118.98632,9e-05,104.93162,-4.33631,-11.78257,-0.0014,-8.67661,4.34352,0.00196,-9.53752,-12.18606,9.97344,-32.88021,-15.0861,4.39553,-0.92231,0.67253,5.45468
1998,-2.59867,-0.0,0.0,-1.41488,0.0,0.0,-7.7369,-6.48418,3.68146,18.11949,0.46822,-21.51364,-27.02473,-1.1259,-0.00187,-26.58135,-5.38686,0.0018,30.16338,9.97984,7.89896,13.57106,3.13232,-12.43927,30.75126,20.92981,-4.48093,43.17211,-13.33564,33.44412,131.68059,0.00863,-97.79408,119.08726,0.00015,105.05309,-4.38603,-12.45475,-0.00323,-8.14796,4.5147,0.00122,-9.41245,-12.26815,10.04852,-32.76162,-15.19054,4.43161,-0.85771,0.75959,5.44962
1999,-2.31371,0.0,0.0,-1.52212,-0.0,0.0,-8.38902,-6.38385,3.15998,18.14242,0.50344,-21.42987,-28.41941,-1.19732,0.00035,-27.03593,-5.44707,0.00195,30.90986,10.08857,8.21718,13.76555,2.77384,-12.69056,30.84682,21.0068,-4.49615,43.36878,-13.59082,33.37826,131.90115,0.00796,-98.58624,119.22932,6e-05,105.08371,-4.37214,-13.16918,-0.00412,-7.73623,4.64777,0.00032,-9.27285,-12.36717,10.19244,-32.62821,-15.33718,4.52474,-0.79905,0.81968,5.44679
2000,-2.30258,0.0,-0.0,-1.64521,-0.0,0.0,-9.37483,-6.29209,2.54513,18.19562,0.55519,-21.39087,-30.13976,-1.32994,0.00194,-27.49083,-5.46016,0.00095,31.85565,10.27962,8.56137,13.92982,2.36666,-12.86124,30.96885,21.10389,-4.57224,43.59198,-13.81899,33.36916,132.10548,0.00456,-99.18576,119.39924,-0.0001,105.04028,-4.3605,-13.78382,-0.00346,-7.53284,4.74798,-0.00059,-9.11744,-12.46256,10.36912,-32.47754,-15.49317,4.64983,-0.75642,0.83788,5.45294
2001,-2.59516,0.0,0.0,-1.80923,0.0,-0.0,-10.69296,-6.27018,1.8594,18.29883,0.55699,-21.45261,-32.18807,-1.49718,0.00151,-27.96022,-5.37982,-0.00071,32.98705,10.53749,8.91375,14.04224,1.90967,-12.87472,31.15071,21.23134,-4.73056,43.83852,-14.00674,33.42695,132.28535,0.00027,-99.39679,119.57327,-0.00037,104.94257,-4.40239,-14.22489,-0.00199,-7.56944,4.83383,-0.00135,-8.94784,-12.53668,10.5351,-32.31062,-15.62547,4.77374,-0.74889,0.80025,5.47186
2002,-3.13929,0.0,0.0,-2.00847,0.0,-0.0,-12.29991,-6.32681,1.0849,18.45954,0.47941,-21.61072,-34.54794,-1.66182,-0.00049,-28.44701,-5.20215,-0.0023,34.28218,10.83887,9.26585,14.08973,1.40404,-12.7361,31.41357,21.38913,-4.96481,44.11163,-14.14622,33.53933,132.45789,-0.00323,-99.2312,119.73705,-0.00056,104.81855,-4.48683,-14.51798,-0.00067,-7.77428,4.93742,-0.00182,-8.76453,-12.5852,10.66408,-32.12833,-15.71992,4.87379,-0.79783,0.6997,5.49697
2003,-3.83727,-0.0,0.0,-2.22542,0.0,-0.0,-14.08643,-6.40945,0.19602,18.67701,0.33615,-21.8197,-37.19392,-1.80428,-0.00083,-28.94672,-4.95772,-0.00329,35.71865,11.164,9.59584,14.0745,0.85463,-12.50303,31.76167,21.57157,-5.24149,44.42094,-14.23963,33.66812,132.65131,-0.00502,-98.86639,119.89014,-0.0003,104.65523,-4.54747,-14.7508,-0.00016,-7.97885,5.07001,-0.00183,-8.56482,-12.62049,10.75596,-31.92939,-15.7879,4.94477,-0.91914,0.53733,5.51556
2004,-4.59721,0.0,-0.0,-2.45751,-0.0,-0.0,-15.86375,-6.43793,-0.79279,18.94998,0.16521,-22.03528,-40.10355,-1.94017,0.00415,-29.45461,-4.68574,-0.00355,37.27721,11.5028,9.85564,14.01095,0.26942,-12.23442,32.18708,21.77448,-5.51841,44.78217,-14.29904,33.76511,132.88591,-0.00482,-98.52719,120.03561,0.00058,104.35802,-4.51043,-15.00583,-0.00099,-7.98424,5.19091,-0.00187,-8.34432,-12.66247,10.82349,-31.71125,-15.85256,4.99034,-1.11879,0.32113,5.51615
2005,-5.32374,0.0,0.0,-2.69969,0.0,-0.0,-17.3964,-6.35839,-1.8106,19.27212,0.00936,-22.23259,-43.26148,-2.10439,0.01476,-29.96847,-4.41916,-0.00308,38.94116,11.85178,9.99119,13.91502,-0.34271,-11.97442,32.67825,21.99569,-5.76872,45.21391,-14.34359,33.7973,133.16399,-0.00299,-98.36987,120.17057,0.00151,103.8267,-4.32171,-15.31979,-0.00305,-7.6524,5.23583,-0.00298,-8.10137,-12.72302,10.86989,-31.47351,-15.9261,5.00857,-1.39366,0.06436,5.49314
2006,-5.86526,-0.0,-0.0,-2.90099,-0.0,0.0,-18.4776,-6.18185,-2.74744,19.61975,-0.09159,-22.39262,-46.64985,-2.31559,0.02611,-30.48905,-4.1876,-0.00183,40.68965,12.204,9.98208,13.79441,-0.97842,-11.76496,33.22528,22.22894,-5.99805,45.73209,-14.39499,33.76614,133.47089,-0.00032,-98.44927,120.28649,0.00174,103.07571,-3.96405,-15.67816,-0.00521,-6.9787,5.17379,-0.00504,-7.84259,-12.79851,10.87792,-31.22301,-15.9985,4.98489,-1.73695,-0.21992,5.45043
2007,-6.03525,0.0,0.0,-2.96508,-0.0,-0.0,-18.99167,-5.97416,-3.48801,19.9517,-0.10099,-22.48546,-50.23617,-2.54961,0.0304,-31.01992,-4.02343,0.00013,42.4949,12.54205,9.86738,13.64771,-1.64519,-11.65605,33.81997,22.45818,-6.24712,46.34593,-14.47093,33.71149,133.78285,0.00249,-98.77898,120.37428,0.00109,102.23396,-3.47724,-16.03623,-0.00605,-6.11094,5.01943,-0.00621,-7.58706,-12.87696,10.81973,-30.97845,-16.04798,4.89832,-2.14162,-0.5238,5.40006
2008,-5.71997,-0.0,-0.0,-2.81525,0.0,-0.0,-18.92484,-5.81977,-3.94084,20.22766,0.00557,-22.48562,-53.97187,-2.74102,0.02195,-31.56635,-3.95043,0.00242,44.33125,12.84294,9.73551,13.47206,-2.35708,-11.68204,34.45364,22.65967,-6.57262,47.05597,-14.5773,33.69708,134.07768,0.00472,-99.3755,120.42846,9e-05,101.44762,-2.93554,-16.35552,-0.00519,-5.29188,4.8067,-0.00485,-7.36491,-12.95064,10.67948,-30.76948,-16.06132,4.73732,-2.59742,-0.84292,5.35394
2009,-4.92856,-0.0,-0.0,-2.44949,-0.0,0.0,-18.33902,-5.78155,-4.05874,20.42752,0.22374,-22.39703,-57.79926,-2.81187,0.00187,-32.13047,-3.96605,0.00427,46.18635,13.0898,9.68354,13.26875,-3.12391,-11.83163,35.11513,22.8145,-7.01456,47.85121,-14.70563,33.78252,134.34308,0.00555,-100.1944,120.4521,-0.00056,100.79936,-2.40443,-16.61524,-0.00304,-4.74481,4.56752,-0.00127,-7.20736,-13.01884,10.47015,-30.62655,-16.04286,4.51434,-3.08577,-1.17193,5.31354
2010,-3.76742,0.0,-0.0,-1.94624,0.0,-0.0,-17.32437,-5.86373,-3.848,20.55897,0.51127,-22.25698,-61.65842,-2.71481,-0.02119,-32.70544,-4.03543,0.00485,48.06236,13.27983,9.767,13.03992,-3.94377,-12.04566,35.79093,22.92398,-7.57234,48.70605,-14.84019,33.99634,134.57599,0.00469,-101.07873,120.463,-0.00042,100.28543,-1.92359,-16.79002,-0.00021,-4.56999,4.33163,0.00251,-7.1341,-13.0779,10.23043,-30.56745,-16.0042,4.26697,-3.57983,-1.50408,5.26442
2011,-2.41056,0.0,0.0,-1.43102,0.0,0.0,-15.95294,-6.00898,-3.35523,20.65269,0.79559,-22.12616,-65.48961,-2.46652,-0.03576,-33.27806,-4.09613,0.00366,49.96739,13.42375,9.97057,12.78574,-4.80643,-12.23085,36.47062,23.01361,-8.20627,49.58479,-14.97024,34.32768,134.77528,0.00286,-101.83615,120.49376,0.00039,99.85589,-1.49653,-16.84144,0.0025,-4.72185,4.14523,0.00436,-7.14839,-13.11216,10.00206,-30.59233,-15.94716,4.04051,-4.05,-1.83685,5.18296
2012,-1.0558,0.0,0.0,-1.01141,0.0,-0.0,-14.26697,-6.1351,-2.63847,20.74664,1.00296,-22.06901,-69.23297,-2.14399,-0.035,-33.83954,-4.07813,0.00105,51.90381,13.5403,10.22249,12.50665,-5.70286,-12.28784,37.15411,23.11975,-8.8619,50.45632,-15.0982,34.74014,134.93613,0.00113,-102.30332,120.578,0.00125,99.48325,-1.0993,-16.74619,0.00404,-5.06634,4.08266,0.00364,-7.24198,-13.09935,9.80456,-30.68996,-15.85887,3.86232,-4.47457,-2.17627,5.05279
2013,0.12376,0.0,0.0,-0.72484,0.0,-0.0,-12.29778,-6.17263,-1.74206,20.86913,1.09853,-22.12387,-72.83147,-1.84114,-0.02099,-34.3935,-3.94011,-0.0019,53.85831,13.65311,10.44054,12.20168,-6.627,-12.15734,37.85231,23.26774,-9.50027,51.30985,-15.23677,35.19435,135.05135,0.00052,-102.29198,120.72995,0.00135,99.20021,-0.74109,-16.53108,0.00343,-5.44984,4.22386,0.00173,-7.40089,-13.0274,9.62648,-30.84553,-15.72384,3.72668,-4.85646,-2.53099,4.8786
2014,1.00313,-0.0,0.0,-0.538,-0.0,-0.0,-10.08777,-6.0827,-0.68426,21.03298,1.1083,-22.28096,-76.23763,-1.61617,-0.00235,-34.9544,-3.699,-0.0039,55.79994,13.79255,10.57705,11.86211,-7.56886,-11.85615,38.57945,23.45723,-10.11604,52.15926,-15.39627,35.66489,135.11719,0.00164,-101.54993,120.93169,0.00036,99.09007,-0.52676,-16.27918,0.00091,-5.74939,4.60269,0.00073,-7.60549,-12.90817,9.44018,-31.04167,-15.54223,3.60297,-5.23357,-2.9022,4.68792
2015,1.52553,0.0,-0.0,-0.38467,-0.0,0.0,-7.70097,-5.86504,0.54614,21.24089,1.09808,-22.49298,-79.41755,-1.4698,0.01226,-35.53973,-3.42102,-0.0042,57.69177,13.99591,10.63494,11.47293,-8.5124,-11.46267,39.3427,23.66602,-10.73335,53.03271,-15.57434,36.14547,135.13829,0.00402,-99.88306,121.1376,-0.00091,99.23856,-0.63301,-16.09675,-0.0009,-5.91174,5.16173,0.00125,-7.82872,-12.77621,9.22987,-31.25562,-15.33962,3.46222,-5.66476,-3.28335,4.52002
2016,1.72796,0.0,0.0,-0.21212,-0.0,-0.0,-5.21922,-5.5541,1.98176,21.4938,1.12265,-22.71038,-82.34939,-1.36392,0.01857,-36.15966,-3.17628,-0.00298,59.51007,14.30151,10.65161,11.02329,-9.44312,-11.0579,40.13661,23.86857,-11.38533,53.95514,-15.75986,36.64036,135.13037,0.00578,-97.42255,121.29383,-0.00118,99.6597,-1.17669,-16.06994,0.00114,-5.95415,5.75781,0.00217,-8.03962,-12.6734,9.01103,-31.46057,-15.16042,3.30157,-6.19625,-3.66902,4.40989
2017,1.72873,0.0,0.0,-0.00535,0.0,-0.0,-2.72641,-5.19371,3.64803,21.7939,1.19544,-22.90294,-85.02106,-1.24793,0.01641,-36.80537,-3.00239,-0.001,61.2548,14.74257,10.67398,10.50901,-10.35125,-10.68543,40.9483,24.05283,-12.09571,54.93394,-15.94793,37.1487,135.11763,0.00521,-94.73202,121.36397,-0.0003,100.25483,-2.09468,-16.2435,0.00678,-5.92149,6.22594,0.00235,-8.21151,-12.62889,8.82415,-31.63193,-15.0471,3.14657,-6.83827,-4.05618,4.37832
2018,1.6675,-0.0,0.0,0.22211,0.0,-0.0,-0.29387,-4.80614,5.52378,22.14186,1.30189,-23.05729,-87.42726,-1.06769,0.00792,-37.44547,-2.90369,0.00091,62.94269,15.34407,10.74766,9.92461,-11.22767,-10.35746,41.76863,24.2251,-12.87299,55.95391,-16.15014,37.65502,135.12369,0.00248,-92.42766,121.34718,0.00058,100.85551,-3.20056,-16.60463,0.0117,-5.84145,6.46214,0.0017,-8.32753,-12.64546,8.70648,-31.75227,-15.01666,3.03067,-7.56904,-4.43818,4.43213
2019,1.6573,0.0,0.0,0.44958,0.0,0.0,2.01561,-4.38273,7.51897,22.53397,1.4284,-23.16969,-89.55969,-0.77187,-0.00319,-38.03905,-2.86481,0.00209,64.59462,16.11278,10.91288,9.26301,-12.06856,-10.07363,42.59595,24.40141,-13.71297,56.98137,-16.39051,38.13347,135.16197,-0.00101,-90.65694,121.27998,0.00045,101.2968,-4.3521,-17.05438,0.01117,-5.71738,6.46922,0.00087,-8.38067,-12.69817,8.66631,-31.81188,-15.04945,2.97173,-8.35125,-4.80774,4.56527
2020,1.77564,0.0,0.0,0.66242,0.0,0.0,4.1325,-3.89991,9.48668,22.96196,1.57433,-23.2407,-91.39602,-0.3289,-0.0124,-38.55656,-2.85691,0.00229,66.2311,17.02228,11.19201,8.52507,-12.88734,-9.832,43.42885,24.58981,-14.60156,57.97371,-16.69207,38.56043,135.23077,-0.00381,-89.14512,121.22068,-0.00035,101.45259,-5.4843,-17.42146,0.00425,-5.56,6.3405,0.00053,-8.37356,-12.74518,8.67912,-31.80954,-15.09755,2.96424,-9.14457,-5.16793,4.7523
2021,2.07203,0.0,-0.0,0.85602,-0.0,0.0,5.98396,-3.34606,11.26496,23.41345,1.73843,-23.27192,-92.9026,0.25844,-0.01631,-38.99289,-2.83992,0.0017,67.87152,18.01627,11.57783,7.72386,-13.71532,-9.62745,44.25715,24.77764,-15.51732,58.89231,-17.06545,38.92406,135.31512,-0.00471,-87.74423,121.22401,-0.00073,101.26823,-6.49671,-17.55272,-0.0044,-5.40966,6.21037,0.00075,-8.32063,-12.74422,8.70443,-31.75597,-15.10648,2.9881,-9.91517,-5.53658,4.94943
2022,2.56273,0.0,0.0,1.03153,-0.0,0.0,7.52293,-2.73836,12.72492,23.87855,1.91128,-23.26451,-94.04939,0.94835,-0.01399,-39.36605,-2.77716,0.00086,69.52534,19.03218,12.03272,6.87507,-14.59075,-9.4545,45.06092,24.93814,-16.43165,59.71592,-17.50713,39.22487,135.39517,-0.00356,-86.71053,121.31844,-0.00017,100.80112,-7.21748,-17.39718,-0.00779,-5.32531,6.20168,0.00058,-8.24718,-12.6671,8.70814,-31.67418,-15.03717,3.0233,-10.64794,-5.94128,5.11044
2023,3.20983,0.0,0.0,1.18863,-0.0,-0.0,8.75334,-2.1225,13.79326,24.36175,2.09437,-23.21701,-94.82097,1.66535,-0.00718,-39.70411,-2.66139,0.00033,71.18053,20.01878,12.49566,5.98233,-15.54874,-9.32819,45.81776,25.05179,-17.30506,60.4481,-18.00671,39.47114,135.45676,-0.00172,-86.38926,121.49944,0.00105,100.17472,-7.5153,-16.99348,-0.00352,-5.37326,6.37254,-0.00099,-8.18003,-12.50795,8.67769,-31.59078,-14.87931,3.06054,-11.35503,-6.41071,5.19961
2024,3.93111,0.0,-0.0,1.32453,-0.0,-0.0,9.72729,-1.56622,14.44458,24.88153,2.30532,-23.12886,-95.21748,2.32494,0.00088,-40.03268,-2.52114,0.00034,72.8062,20.94547,12.901,5.03823,-16.61136,-9.28318,46.51167,25.12322,-18.08834,61.11299,-18.55492,39.67406,135.49704,-0.00061,-86.75805,121.74244,0.00287,99.46202,-7.41862,-16.38535,0.00388,-5.6096,6.69159,-0.00356,-8.13418,-12.28451,8.62507,-31.52269,-14.65384,3.10354,-12.06766,-6.96376,5.19848
2025,4.66555,0.0,0.0,1.43303,0.0,0.0,10.51635,-1.14373,14.68207,25.45306,2.55307,-23.00759,-95.25063,2.86939,0.00761,-40.36888,-2.394,0.00056,74.3703,21.81158,13.20125,4.04104,-17.77583,-9.33672,47.1381,25.18132,-18.73782,61.7396,-19.14405,39.84343,135.52168,-0.00047,-87.34573,122.02368,0.00539,98.64461,-7.11958,-15.56845,0.00713,-6.03646,7.06861,-0.00527,-8.10504,-12.03322,8.57842,-31.46872,-14.40508,3.16329,-12.81404,-7.59782,5.11169
2026,5.47134,-0.0,-0.0,1.50364,0.0,0.0,11.16926,-0.90475,14.52235,26.06967,2.80681,-22.87599,-94.93684,3.28887,0.01234,-40.71891,-2.28176,0.00031,75.85438,22.64706,13.37828,3.00435,-19.01112,-9.44412,47.70432,25.2648,-19.23597,62.34352,-19.76161,39.98527,135.53735,-0.00071,-87.5601,122.33156,0.00791,97.69106,-6.86334,-14.52533,0.00193,-6.58504,7.41289,-0.00485,-8.06955,-11.79925,8.56739,-31.40985,-14.186,3.24877,-13.60294,-8.28402,4.96565
2027,6.55158,-0.0,-0.0,1.52511,0.0,0.0,11.68856,-0.84975,13.99315,26.7,2.99108,-22.77214,-94.29092,3.60927,0.01546,-41.07772,-2.12817,-0.00081,77.25434,23.49837,13.43622,1.95284,-20.27007,-9.4899,48.22657,25.40252,-19.60035,62.91737,-20.38429,40.1012,135.54503,-0.00061,-87.0567,122.66347,0.00868,96.67323,-6.81721,-13.29331,-0.00934,-7.15233,7.68443,-0.00292,-7.99388,-11.62464,8.60922,-31.31583,-14.04189,3.35885,-14.42204,-8.97674,4.79554
2028,8.07113,0.0,-0.0,1.47583,0.0,-0.0,12.06252,-0.93496,13.14211,27.30931,3.04533,-22.72299,-93.32648,3.84484,0.01675,-41.43036,-1.86991,-0.00222,78.57456,24.40488,13.37161,0.91062,-21.50605,-9.3699,48.7261,25.60031,-19.87612,63.43633,-20.97966,40.18614,135.53899,0.00023,-85.84697,123.01717,0.00637,95.78832,-7.01406,-11.99805,-0.01917,-7.63575,7.90892,-0.00071,-7.84667,-11.53784,8.6997,-31.15789,-13.99725,3.47817,-15.24463,-9.6313,4.62355
2029,9.97181,-0.0,-0.0,1.32819,0.0,0.0,12.30359,-1.09798,12.05131,27.88089,2.98461,-22.72262,-92.05914,3.96611,0.01553,-41.7559,-1.50661,-0.00293,79.82263,25.37798,13.15756,-0.1105,-22.68311,-9.08554,49.22419,25.84224,-20.11696,63.87495,-21.51964,40.22651,135.51367,0.00143,-84.16687,123.38585,0.00148,95.24516,-7.37463,-10.84412,-0.02095,-7.94568,8.14287,0.00141,-7.61627,-11.5457,8.81265,-30.92547,-14.04827,3.57972,-16.03818,-10.21979,4.44288
2030,12.06125,-0.0,-0.0,1.10097,0.0,0.0,12.43243,-1.28269,10.85309,28.41043,2.8773,-22.7534,-90.50282,3.92877,0.01243,-42.03699,-1.09794,-0.00255,81.00116,26.39532,12.7784,-1.10945,-23.78433,-8.72312,49.73444,26.10341,-20.36364,64.22498,-21.99911,40.20514,135.47176,0.00215,-82.2948,123.75956,-0.00386,95.14765,-7.76807,-10.04508,-0.0147,-8.0243,8.42391,0.00341,-7.32302,-11.63054,8.91138,-30.63817,-14.16445,3.63668,-16.77268,-10.74084,4.22463
2031,14.11368,-0.0,-0.0,0.88428,-0.0,0.0,12.47033,-1.46111,9.73154,28.89056,2.79891,-22.80177,-88.66773,3.7146,0.00959,-42.26799,-0.72735,-0.00137,82.09805,27.41066,12.25792,-2.08718,-24.81598,-8.39302,50.25536,26.36357,-20.63343,64.50301,-22.44617,40.11092,135.42198,0.00193,-80.45564,124.12899,-0.00717,95.44514,-8.088,-9.69915,-0.00619,-7.87079,8.74301,0.00467,-7.01588,-11.75613,8.96612,-30.34225,-14.301,3.63617,-17.4308,-11.21606,3.94012
2032,15.87311,-0.0,0.0,0.78581,0.0,-0.0,12.46072,-1.64727,8.88983,29.30886,2.8121,-22.84724,-86.56898,3.34157,0.00938,-42.45478,-0.47589,-0.0,83.08466,28.37676,11.64232,-3.04393,-25.79996,-8.19559,50.77049,26.61127,-20.92577,64.74305,-22.91544,39.94765,135.36722,0.00083,-78.83643,124.48866,-0.00742,95.95051,-8.29635,-9.71766,-0.00039,-7.55512,9.05835,0.0044,-6.75258,-11.88406,8.96246,-30.09201,-14.41706,3.58047,-18.01472,-11.67549,3.58483
2033,17.24016,0.0,-0.0,0.86926,-0.0,0.0,12.44002,-1.87999,8.49285,29.65227,2.93776,-22.87258,-84.23477,2.85688,0.01155,-42.61004,-0.3793,0.00096,83.92744,29.27306,10.972,-3.97493,-26.76071,-8.16099,51.25808,26.83932,-21.23594,64.97853,-23.46975,39.73927,135.29709,-0.00115,-77.63915,124.83925,-0.00582,96.47385,-8.40506,-9.89146,0.0018,-7.20905,9.34577,0.0026,-6.57531,-11.99291,8.89334,-29.92757,-14.4902,3.47182,-18.53997,-12.14456,3.19443
2034,18.42,0.0,0.0,1.13686,0.0,-0.0,12.39322,-2.17637,8.62257,29.91096,3.1323,-22.88402,-81.70284,2.29382,0.01024,-42.74749,-0.40278,0.00125,84.59949,30.1099,10.24289,-4.87099,-27.7173,-8.21923,51.70012,27.0411,-21.5602,65.23069,-24.16413,39.53001,135.19708,-0.00415,-77.05481,125.18562,-0.00418,96.94469,-8.4359,-10.03806,0.00171,-6.98308,9.61519,4e-05,-6.4972,-12.08686,8.74696,-29.86256,-14.51968,3.29757,-19.02347,-12.63709,2.83199
2035,19.71115,-0.0,0.0,1.54748,0.0,-0.0,12.27156,-2.49054,9.26712,30.08253,3.30751,-22.90353,-79.01067,1.6142,-0.00257,-42.87789,-0.47084,0.00096,85.07924,30.90975,9.38139,-5.72658,-28.68471,-8.25445,52.08076,27.21453,-21.88491,65.51382,-25.03955,39.37867,135.06822,-0.00742,-77.14637,125.53034,-0.00328,97.37102,-8.39889,-10.10954,0.00069,-6.98282,9.86638,-0.00211,-6.50609,-12.1869,8.50963,-29.88699,-14.51947,3.03657,-19.47578,-13.15531,2.55205
2036,21.22712,-0.0,-0.0,2.05102,-0.0,0.0,12.02418,-2.71374,10.33455,30.17585,3.38016,-22.9513,-76.19206,0.72843,-0.02789,-43.00935,-0.51584,0.00043,85.34941,31.70083,8.29478,-6.53615,-29.67627,-8.16771,52.378,27.37096,-22.1767,65.84586,-26.12004,39.34748,134.93747,-0.00916,-77.77524,125.87245,-0.00287,97.74337,-8.30232,-10.18453,-0.00058,-7.22629,10.05996,-0.00268,-6.5801,-12.31225,8.1872,-29.98034,-14.50943,2.68643,-19.89194,-13.69419,2.38019
2037,22.85164,0.0,-0.0,2.61207,0.0,0.0,11.58778,-2.73158,11.67941,30.21325,3.32378,-23.03457,-73.27802,-0.40968,-0.05591,-43.14618,-0.51397,7e-05,85.40263,32.51935,6.96519,-7.2869,-30.70088,-7.91642,52.55978,27.53858,-22.39284,66.25,-27.40694,39.48768,134.84724,-0.00828,-78.69148,126.21277,-0.00252,98.01601,-8.17763,-10.36388,-0.00144,-7.64284,10.14207,-0.00148,-6.70225,-12.46771,7.8259,-30.12477,-14.51187,2.28813,-20.24667,-14.24396,2.31382
2038,24.31036,0.0,-0.0,3.20467,0.0,0.0,10.87342,-2.5142,13.13195,30.22644,3.19316,-23.13686,-70.29462,-1.73103,-0.07194,-43.28472,-0.50144,0.00014,85.23672,33.39957,5.49873,-7.96979,-31.76012,-7.54331,52.59127,27.75335,-22.50587,66.74669,-28.87619,39.82668,134.83218,-0.00524,-79.73046,126.55707,-0.00191,98.14171,-8.07994,-10.67403,-0.00119,-8.1057,10.08331,0.00021,-6.86453,-12.64493,7.50923,-30.30999,-14.55155,1.92235,-20.50623,-14.79308,2.33035
2039,25.21235,0.0,0.0,3.79611,-0.0,0.0,9.79464,-2.17231,14.51784,30.24327,3.09381,-23.22188,-67.26013,-3.06393,-0.06663,-43.41151,-0.55178,0.00052,84.84346,34.36588,4.08935,-8.59101,-32.84787,-7.15271,52.45121,28.04323,-22.51926,67.34701,-30.48751,40.36726,134.90102,-0.00122,-80.92323,126.91259,-0.00071,98.08342,-8.05809,-11.06224,0.00021,-8.48587,9.90561,0.00085,-7.06067,-12.83195,7.32602,-30.52784,-14.65199,1.67601,-20.64359,-15.33177,2.40595
2040,25.14641,-0.0,0.0,4.35404,0.0,-0.0,8.30842,-1.91992,15.66388,30.27122,3.11427,-23.26134,-64.18594,-4.21771,-0.04199,-43.50564,-0.71942,0.00074,84.209,35.43795,2.9231,-9.16501,-33.95054,-6.82818,52.14438,28.41647,-22.45906,68.05624,-32.20036,41.1041,135.03717,0.00254,-82.39687,127.27913,0.00115,97.80064,-8.12584,-11.46355,0.00199,-8.71315,9.69352,0.00029,-7.27554,-13.0189,7.32847,-30.76227,-14.82442,1.60127,-20.64171,-15.84984,2.54015
2041,23.88766,-0.0,0.0,4.86887,0.0,0.0,6.43059,-1.95063,16.4014,30.29198,3.28194,-23.25202,-61.08176,-5.0705,-0.00903,-43.54334,-1.00095,0.00044,83.3196,36.63484,2.09949,-9.70311,-35.05325,-6.57686,51.69872,28.85734,-22.35098,68.88565,-33.98554,42.04611,135.21536,0.00485,-84.16386,127.64236,0.0033,97.25755,-8.25946,-11.85383,0.00319,-8.8084,9.55653,-0.00052,-7.48282,-13.197,7.50704,-30.98642,-15.05708,1.69286,-20.49336,-16.33195,2.7638
2042,21.56013,0.0,0.0,5.34818,-0.0,-0.0,4.23927,-2.29794,16.58838,30.27514,3.56254,-23.20494,-57.96636,-5.60294,0.01957,-43.5022,-1.3396,-0.00026,82.16462,37.96747,1.62283,-10.21241,-36.14845,-6.34398,51.1518,29.33021,-22.20663,69.86359,-35.82838,43.22425,135.41949,0.00538,-86.03645,127.97929,0.00528,96.42271,-8.41313,-12.24714,0.00304,-8.85302,9.5469,-0.00098,-7.65765,-13.36,7.79887,-31.17523,-15.31986,1.89535,-20.20431,-16.7559,3.1228
2043,18.66035,-0.0,-0.0,5.79075,0.0,0.0,1.88223,-2.79037,16.1601,30.19949,3.88789,-23.12764,-54.88257,-5.87548,0.03573,-43.36259,-1.65625,-0.00091,80.74567,39.42448,1.43904,-10.69997,-37.2358,-6.06346,50.53979,29.79255,-22.02715,71.03906,-37.7233,44.68355,135.65005,0.00515,-87.76443,128.27249,0.00662,95.28017,-8.52461,-12.6681,0.0009,-8.92466,9.6218,-0.00113,-7.79641,-13.5137,8.12612,-31.32632,-15.58782,2.1345,-19.79253,-17.09373,3.65191
2044,15.95835,0.0,0.0,6.18414,0.0,-0.0,-0.42577,-3.16584,15.18226,30.06389,4.212,-23.00915,-51.90512,-5.9803,0.03823,-43.10642,-1.89675,-0.00115,79.09066,40.95863,1.47204,-11.17969,-38.31329,-5.72463,49.89481,30.21231,-21.81408,72.4743,-39.66256,46.47276,135.91684,0.00562,-89.24334,128.5186,0.00684,93.9106,-8.51624,-13.1351,-0.00318,-9.05245,9.68993,-0.00102,-7.9253,-13.68186,8.43802,-31.46919,-15.86305,2.35348,-19.2817,-17.31429,4.35191
2045,14.22742,-0.0,-0.0,6.51426,0.0,0.0,-2.43593,-3.24456,13.8533,29.88314,4.54651,-22.82262,-49.12944,-5.99956,0.03098,-42.71721,-2.05856,-0.00095,77.26059,42.48377,1.64253,-11.68055,-39.36614,-5.40159,49.24599,30.57959,-21.57664,74.23188,-41.62442,48.63889,136.22147,0.00686,-90.55735,128.72189,0.00588,92.49389,-8.32267,-13.64563,-0.00765,-9.21313,9.67892,-0.00081,-8.08838,-13.89495,8.72502,-31.65177,-16.16978,2.53071,-18.69367,-17.38706,5.1792
2046,13.87696,0.0,0.0,6.76008,0.0,0.0,-3.93695,-3.00628,12.43882,29.67895,4.92507,-22.56088,-46.6412,-5.98948,0.01954,-42.18624,-2.16252,-0.00026,75.3448,43.89521,1.87608,-12.23591,-40.36032,-5.18748,48.61633,30.90507,-21.33159,76.36263,-43.56367,51.22485,136.54222,0.00714,-91.81285,128.87852,0.00388,91.16855,-7.93989,-14.14983,-0.0097,-9.36147,9.56214,-0.00086,-8.32522,-14.16722,8.99817,-31.91553,-16.5253,2.67033,-18.03712,-17.28822,6.05751
2047,14.75175,-0.0,0.0,6.89642,0.0,-0.0,-4.83745,-2.55193,11.17719,29.47302,5.35438,-22.26528,-44.48039,-5.97824,0.00876,-41.5193,-2.21773,0.00089,73.44352,45.10174,2.12225,-12.85972,-41.24608,-5.11728,48.01616,31.20652,-21.10006,78.88968,-45.40628,54.25919,136.83458,0.00491,-92.99272,128.9659,0.00073,89.96062,-7.43538,-14.55165,-0.00757,-9.46539,9.34748,-0.00126,-8.65661,-14.482,9.25644,-32.27981,-16.91396,2.77813,-17.29782,-17.00844,6.90316
2048,16.21483,0.0,0.0,6.91983,0.0,-0.0,-5.20422,-2.02213,10.21828,29.2793,5.81008,-22.0073,-42.62041,-5.96379,0.00139,-40.73727,-2.22821,0.00204,71.63882,46.04622,2.38119,-13.5386,-41.96966,-5.17257,47.4423,31.49175,-20.9057,81.78638,-47.05797,57.7318,137.04887,0.0008,-93.99913,128.94922,-0.0034,88.8437,-6.89137,-14.76135,-0.0024,-9.5241,9.05325,-0.0016,-9.08631,-14.79822,9.47038,-32.74425,-17.28664,2.84386,-16.44465,-16.55758,7.64917
2049,17.38745,0.0,0.0,6.85824,0.0,-0.0,-5.23238,-1.52318,9.634,29.09952,6.24942,-21.84797,-40.97128,-5.92431,-0.00271,-39.87503,-2.21192,0.00254,69.96828,46.71317,2.70048,-14.23678,-42.48708,-5.31733,46.88604,31.75052,-20.77274,84.96189,-48.43172,61.56849,137.15306,-0.00316,-94.75709,128.8038,-0.00743,87.79463,-6.35574,-14.74166,0.00294,-9.56019,8.68982,-0.00143,-9.60936,-15.07201,9.59305,-33.29935,-17.58498,2.8424,-15.44897,-15.96304,8.26406
2050,17.40972,-0.0,0.0,6.73608,0.0,-0.0,-5.18069,-1.07351,9.47267,28.93003,6.61579,-21.81401,-39.40212,-5.84367,-0.00568,-38.97913,-2.19688,0.00216,68.42163,47.12447,3.12953,-14.90244,-42.77385,-5.50701,46.34236,31.96236,-20.72071,88.27161,-49.47843,65.62988,137.1468,-0.00544,-95.24078,128.53812,-0.00966,86.81306,-5.86501,-14.51471,0.00578,-9.60549,8.27226,-0.00061,-10.21264,-15.27741,9.58946,-33.92903,-17.77167,2.75242,-14.30431,-15.26054,8.75533
2051,15.71814,-0.0,0.0,6.54713,0.0,0.0,-5.32152,-0.58826,9.78901,28.77057,6.85473,-21.89647,-37.7714,-5.72927,-0.0098,-38.09987,-2.20597,0.00112,66.96595,47.322,3.66436,-15.47627,-42.82627,-5.69046,45.81094,32.11317,-20.75272,91.55371,-50.19604,69.74322,137.06075,-0.00587,-95.4434,128.19894,-0.0089,85.93401,-5.47759,-14.15047,0.00486,-9.70088,7.8532,0.00029,-10.86758,-15.41362,9.46327,-34.60396,-17.8474,2.57784,-13.03525,-14.4803,9.15084
2052,12.31583,-0.0,0.0,6.28648,-0.0,0.0,-5.91173,0.08515,10.61458,28.62049,6.94467,-22.05835,-35.95029,-5.60598,-0.01558,-37.28024,-2.25156,-0.00016,65.57088,47.34908,4.22629,-15.90362,-42.65553,-5.82353,45.29092,32.20515,-20.84544,94.66433,-50.61364,73.73895,136.94214,-0.00502,-95.31646,127.85358,-0.0056,85.21014,-5.25831,-13.73503,0.00112,-9.88118,7.52354,0.0002,-11.53015,-15.49751,9.25666,-35.28104,-17.844,2.35086,-11.69459,-13.63982,9.47587
2053,7.83556,0.0,0.0,5.99325,-0.0,0.0,-7.14426,1.09122,11.89646,28.46999,6.91423,-22.24398,-33.83697,-5.4902,-0.02051,-36.54832,-2.33893,-0.00132,64.20906,47.24185,4.68914,-16.14791,-42.28164,-5.88273,44.78564,32.25005,-20.96297,97.48769,-50.77254,77.46712,136.83209,-0.0035,-94.74087,127.56376,-0.00151,84.65192,-5.24021,-13.33809,-0.00302,-10.14598,7.37285,-0.00138,-12.15569,-15.54743,9.01722,-35.91684,-17.79675,2.10793,-10.35355,-12.74943,9.74787
2054,3.25513,-0.0,0.0,5.73773,0.0,0.0,-9.06236,2.46354,13.46539,28.3028,6.83287,-22.39277,-31.37213,-5.36281,-0.01964,-35.91573,-2.46748,-0.00217,62.85199,47.02927,4.92537,-16.19456,-41.73193,-5.86918,44.31972,32.25089,-21.09257,99.9334,-50.72355,80.80495,136.74504,-0.00134,-93.62666,127.36816,0.00186,84.18114,-5.39006,-13.01659,-0.00538,-10.45477,7.44094,-0.00354,-12.71527,-15.56825,8.75785,-36.48277,-17.71512,1.859,-9.08056,-11.82294,9.9872
2055,-0.55765,-0.0,0.0,5.57608,-0.0,0.0,-11.48987,4.04428,15.06557,28.1053,6.78058,-22.45596,-28.55639,-5.16667,-0.00891,-35.37861,-2.62792,-0.0026,61.47444,46.74244,4.83762,-16.04907,-41.03908,-5.79973,43.94332,32.19466,-21.26202,101.94367,-50.53343,83.67379,136.66423,0.00177,-92.02956,127.2792,0.00408,83.67997,-5.61325,-12.81803,-0.00552,-10.74209,7.68897,-0.0046,-13.19585,-15.54776,8.45068,-36.96449,-17.5771,1.58347,-7.92027,-10.87952,10.22568
2056,-3.23786,-0.0,-0.0,5.5296,-0.0,0.0,-14.04642,5.49701,16.4336,27.86884,6.80637,-22.41231,-25.45637,-4.83756,0.01072,-34.91845,-2.79875,-0.00251,60.05077,46.43446,4.37587,-15.74281,-40.23374,-5.68211,43.70798,32.07214,-21.51179,103.50698,-50.27953,86.05547,136.55807,0.00525,-90.14845,127.28891,0.00505,83.11279,-5.80662,-12.75145,-0.0045,-10.92964,8.01421,-0.00381,-13.58514,-15.46862,8.06496,-37.34764,-17.35489,1.26032,-6.89471,-9.93396,10.50176
2057,-5.17052,0.0,-0.0,5.59331,0.0,-0.0,-16.263,6.39975,17.40544,27.58842,6.90447,-22.2758,-22.18861,-4.34455,0.03268,-34.50397,-2.94448,-0.00177,58.54852,46.19278,3.55789,-15.33766,-39.33821,-5.49249,43.63079,31.90483,-21.84746,104.65768,-50.02718,87.98608,136.40666,0.00696,-88.28749,127.37598,0.00433,82.58958,-5.89308,-12.76483,-0.00292,-10.94332,8.30828,-0.00194,-13.86297,-15.32729,7.61337,-37.61131,-17.05014,0.90276,-6.01637,-8.98647,10.84449
2058,-7.39589,0.0,0.0,5.7552,-0.0,-0.0,-17.76934,6.34312,18.01115,27.26601,7.02676,-22.08696,-18.88462,-3.70885,0.04845,-34.09886,-3.01944,-0.00025,56.93339,46.12371,2.49255,-14.91389,-38.37233,-5.17958,43.675,31.74639,-22.21627,105.45571,-49.80804,89.53137,136.21909,0.00536,-86.78282,127.51062,0.00178,82.33551,-5.81932,-12.75067,-0.00011,-10.75489,8.51723,-0.0003,-14.01618,-15.14377,7.16174,-37.74445,-16.70673,0.56312,-5.29237,-8.02458,11.26051
2059,-10.97501,-0.0,0.0,5.99705,0.0,0.0,-18.4727,5.03869,18.47378,26.91753,7.1081,-21.88954,-15.65665,-2.9971,0.0519,-33.675,-2.97982,0.0019,55.18516,46.30686,1.37818,-14.54811,-37.36734,-4.70119,43.76058,31.65469,-22.5223,105.96314,-49.6167,90.76304,136.02904,0.00164,-85.82943,127.65741,-0.0013,82.56709,-5.55844,-12.58192,0.00469,-10.41648,8.65024,0.00045,-14.06424,-14.95299,6.79426,-37.77083,-16.38933,0.30422,-4.71858,-7.03702,11.7305
2060,-16.10337,0.0,0.0,6.24686,-0.0,-0.0,-18.59967,2.4731,19.05052,26.57955,7.08568,-21.70201,-12.58723,-2.30285,0.04135,-33.22377,-2.80868,0.00394,53.32221,46.73787,0.45571,-14.29316,-36.37212,-4.08868,43.79646,31.65707,-22.66702,106.23647,-49.42506,91.74482,135.87471,-0.00156,-85.36636,127.7775,-0.0029,83.28224,-5.12169,-12.18678,0.01012,-10.03898,8.73599,0.00028,-14.06565,-14.78488,6.56417,-37.7529,-16.14602,0.16247,-4.26928,-6.03012,12.20785
2061,-21.73603,0.0,0.0,6.36632,0.0,0.0,-18.54432,-0.99192,19.79165,26.30224,6.92356,-21.50843,-9.74573,-1.72696,0.01967,-32.76009,-2.53905,0.00481,51.41603,47.30291,-0.06791,-14.16272,-35.44351,-3.47985,43.71605,31.73193,-22.59572,106.33165,-49.20284,92.52686,135.77916,-0.00283,-85.18234,127.83099,-0.0028,84.19007,-4.55555,-11.62464,0.01256,-9.72574,8.77728,-0.0006,-14.09439,-14.64678,6.46406,-37.76578,-15.98066,0.12792,-3.89297,-5.03744,12.62505
2062,-26.23211,-0.0,0.0,6.2587,0.0,-0.0,-18.63132,-4.70066,20.4236,26.12224,6.64101,-21.28996,-7.21743,-1.35867,-0.00643,-32.31697,-2.24342,0.00402,49.57988,47.81872,-0.10143,-14.13014,-34.62426,-3.05372,43.5033,31.8184,-22.32922,106.30137,-48.93193,93.13908,135.7431,-0.00244,-85.11656,127.78156,-0.0032,84.90363,-3.9287,-11.08521,0.00948,-9.51206,8.73254,-0.00192,-14.20415,-14.51808,6.42992,-37.86084,-15.84952,0.15016,-3.52887,-4.11584,12.91658
2063,-28.45773,0.0,-0.0,5.96358,-0.0,0.0,-18.9664,-7.93469,20.48878,26.04175,6.31537,-21.06297,-5.1271,-1.25347,-0.02788,-31.93312,-1.99745,0.0021,47.94735,48.11671,0.27459,-14.1444,-33.92089,-2.91887,43.20154,31.85039,-21.96161,106.17701,-48.60811,93.58039,135.74852,-0.00112,-85.09219,127.60288,-0.0059,85.16675,-3.33367,-10.77928,0.00275,-9.36056,8.52567,-0.00328,-14.4036,-14.36032,6.37358,-38.0425,-15.68311,0.16398,-3.13525,-3.32685,13.04567
2064,-28.29303,0.0,0.0,5.60688,-0.0,0.0,-19.44616,-10.16809,19.64498,26.03342,6.03514,-20.8751,-3.63831,-1.41091,-0.03707,-31.64189,-1.85062,0.00014,46.64323,48.11392,0.82888,-14.1467,-33.30175,-3.05415,42.89682,31.79381,-21.61672,105.95421,-48.23303,93.81898,135.76816,0.00053,-84.97073,127.28675,-0.00934,84.95905,-2.89002,-10.7971,-0.00261,-9.22288,8.09954,-0.004,-14.65283,-14.13831,6.22701,-38.2671,-15.42278,0.12125,-2.70747,-2.71303,13.01883
2065,-26.3894,0.0,-0.0,5.288,0.0,-0.0,-19.87435,-11.22811,17.90151,26.06075,5.83501,-20.76864,-2.91825,-1.77004,-0.03231,-31.46491,-1.81446,-0.00099,45.73513,47.82623,1.29086,-14.0866,-32.72313,-3.33361,42.67749,31.66192,-21.38403,105.60401,-47.80826,93.81493,135.77768,0.00219,-84.49886,126.85175,-0.00946,84.50143,-2.71859,-11.0523,-0.00379,-9.09166,7.49538,-0.00331,-14.87876,-13.84016,5.97487,-38.46064,-15.05162,0.01258,-2.28043,-2.28321,12.8812
2066,-23.74759,0.0,0.0,5.03307,0.0,-0.0,-20.09478,-11.2839,15.64294,26.09872,5.68814,-20.74947,-3.08005,-2.23684,-0.01868,-31.40861,-1.86753,-0.00109,45.19794,47.3272,1.48129,-13.93939,-32.16358,-3.61187,42.59167,31.5,-21.27329,105.11039,-47.33793,93.55285,135.76727,0.00333,-83.4866,126.3446,-0.0044,84.12667,-2.88503,-11.35026,-0.00296,-8.97256,6.86839,-0.00116,-15.00149,-13.48423,5.65823,-38.54557,-14.60238,-0.13198,-1.91512,-2.01152,12.69427
2067,-21.38539,0.0,0.0,4.83172,-0.0,0.0,-20.0694,-10.67834,13.44748,26.14571,5.57156,-20.77727,-4.13155,-2.73196,-0.00341,-31.46365,-1.97742,-0.00051,44.92523,46.69793,1.38104,-13.70741,-31.64013,-3.81219,42.62635,31.3538,-21.21336,104.50668,-46.83545,93.0612,135.74773,0.00315,-82.02768,125.82821,0.00259,84.04704,-3.3415,-11.51281,-0.00334,-8.8297,6.40401,0.00193,-14.95951,-13.11014,5.35239,-38.46491,-14.14058,-0.25956,-1.66888,-1.84938,12.51172
2068,-20.00923,0.0,0.0,4.67585,0.0,-0.0,-19.86522,-9.72884,11.81852,26.22153,5.51255,-20.78354,-5.9636,-3.2249,0.00932,-31.60707,-2.11999,0.00022,44.77394,45.99711,1.12114,-13.41005,-31.19873,-3.95377,42.71693,31.24461,-21.09428,103.87295,-46.32666,92.40438,135.74551,0.00165,-80.50993,125.3622,0.00668,84.22072,-3.92637,-11.46309,-0.00462,-8.5973,6.21792,0.00563,-14.72482,-12.76005,5.13379,-38.19516,-13.73458,-0.31713,-1.56842,-1.74747,12.3633
2069,-19.75764,0.0,0.0,4.54949,0.0,0.0,-19.57781,-8.64733,10.98282,26.35076,5.55335,-20.7165,-8.38814,-3.72683,0.01829,-31.80371,-2.27643,0.00069,44.61689,45.24459,0.91921,-13.08468,-30.88624,-4.10955,42.78132,31.16175,-20.82896,103.28702,-45.84385,91.65202,135.78697,0.00036,-79.38754,124.98244,0.00618,84.42248,-4.4507,-11.23264,-0.00449,-8.25283,6.31008,0.00883,-14.30721,-12.46145,5.04851,-37.74866,-13.42752,-0.27339,-1.6038,-1.67713,12.24283
2070,-20.21398,0.0,0.0,4.40348,0.0,-0.0,-19.26213,-7.5873,10.8607,26.54266,5.70222,-20.57098,-11.20018,-4.25136,0.02249,-32.00909,-2.43003,0.00075,44.38274,44.41778,0.99091,-12.78518,-30.72187,-4.35505,42.75905,31.07051,-20.39967,102.7704,-45.41294,90.84707,135.88263,0.00076,-78.92643,124.68735,0.00284,84.41338,-4.8036,-10.92229,-0.00235,-7.86338,6.57392,0.00955,-13.75191,-12.22017,5.09104,-37.1707,-13.22266,-0.13561,-1.73676,-1.63771,12.10987
2071,-20.72311,0.0,0.0,4.16403,0.0,0.0,-18.90509,-6.69162,11.19716,26.78273,5.92806,-20.38004,-14.22905,-4.78459,0.02099,-32.17927,-2.57149,0.0005,44.07143,43.47609,1.46031,-12.55745,-30.68078,-4.73278,42.63414,30.93155,-19.8648,102.2741,-45.04558,89.99559,136.02313,0.00267,-79.14127,124.44437,-0.0007,84.08855,-4.98865,-10.65645,0.00033,-7.54899,6.86103,0.0072,-13.13479,-12.02561,5.20382,-36.53554,-13.08793,0.04768,-1.9122,-1.64292,11.91576
2072,-20.81701,0.0,0.0,3.78675,-0.0,0.0,-18.4383,-6.07528,11.74165,27.03633,6.17135,-20.19599,-17.36032,-5.29149,0.01502,-32.28313,-2.694,0.00013,43.74377,42.40638,2.30285,-12.41016,-30.69242,-5.21925,42.4343,30.72439,-19.32587,101.70937,-44.74125,89.08273,136.18521,0.00469,-79.91871,124.21519,-0.00269,83.53094,-5.07805,-10.54256,0.00218,-7.41024,7.07841,0.0032,-12.55351,-11.86194,5.30306,-35.93914,-12.97626,0.20584,-2.07225,-1.69479,11.63601
2073,-20.43496,0.0,-0.0,3.31047,0.0,-0.0,-17.78493,-5.78867,12.35852,27.25845,6.36512,-20.06605,-20.5294,-5.74488,0.00824,-32.30748,-2.79228,-0.00018,43.48346,41.25267,3.36412,-12.30892,-30.65701,-5.73308,42.21266,30.46047,-18.87667,100.99449,-44.49281,88.09961,136.34074,0.00552,-81.15308,123.9756,-0.00256,82.93427,-5.1356,-10.64141,0.00273,-7.49706,7.23429,-0.00105,-12.10878,-11.71627,5.31904,-35.48112,-12.84875,0.27988,-2.17177,-1.76833,11.28327
2074,-19.80268,0.0,-0.0,2.84208,0.0,-0.0,-16.91134,-5.80081,13.02764,27.40975,6.46456,-20.00797,-23.70322,-6.14375,0.00437,-32.25377,-2.87207,-0.00033,43.3502,40.10156,4.44761,-12.19581,-30.48022,-6.18868,42.0234,30.17561,-18.56204,100.08566,-44.28654,87.05559,136.46597,0.00461,-82.76428,123.71436,-0.00103,82.46848,-5.16837,-10.96048,0.00182,-7.8127,7.39137,-0.00485,-11.87533,-11.58084,5.22603,-35.23567,-12.6883,0.24922,-2.18746,-1.82107,10.89428
2075,-19.13972,0.0,0.0,2.475,-0.0,-0.0,-15.84732,-6.0086,13.77335,27.47463,6.45713,-20.01564,-26.86563,-6.50457,0.00433,-32.13164,-2.94373,-0.00029,43.36042,39.03354,5.40129,-12.01793,-30.10725,-6.5321,41.90249,29.90915,-18.36658,98.98091,-44.09777,85.96329,136.54764,0.00234,-84.58768,123.42139,0.00044,82.18463,-5.14032,-11.46281,-0.00029,-8.29962,7.58812,-0.00728,-11.87477,-11.45217,5.04588,-35.22396,-12.50019,0.13542,-2.11559,-1.81468,10.50144
2076,-18.45115,-0.0,0.0,2.22709,-0.0,-0.0,-14.67242,-6.27879,14.58163,27.46524,6.35338,-20.08246,-30.00884,-6.8379,0.006,-31.95299,-3.00581,-3e-05,43.49314,38.08251,6.15635,-11.7537,-29.53463,-6.74206,41.86014,29.68716,-18.23656,97.70794,-43.89088,84.81545,136.58328,-6e-05,-86.27677,123.08583,0.00061,82.00626,-5.02756,-12.07507,-0.0026,-8.82172,7.80093,-0.00739,-12.06706,-11.32976,4.82938,-35.40567,-12.30371,-0.01444,-1.97047,-1.72937,10.11148
2077,-17.52847,0.0,-0.0,2.05203,0.0,0.0,-13.49127,-6.50531,15.34933,27.40553,6.17484,-20.20632,-33.12555,-7.13428,0.00624,-31.73062,-3.04588,0.00041,43.69664,37.23346,6.72715,-11.42075,-28.7978,-6.81921,41.88659,29.51671,-18.11928,96.30931,-43.63038,83.58283,136.57928,-0.00135,-87.45761,122.70748,-0.00054,81.81861,-4.84118,-12.71457,-0.00419,-9.19883,7.96866,-0.0056,-12.36755,-11.21421,4.63178,-35.69614,-12.12086,-0.14967,-1.78788,-1.5654,9.71101
2078,-16.12413,0.0,-0.0,1.8945,0.0,0.0,-12.41446,-6.64299,15.89516,27.31061,5.94717,-20.3772,-36.19968,-7.37034,0.00324,-31.48137,-3.05929,0.0008,43.90543,36.45002,7.18344,-11.04936,-27.94624,-6.77787,41.96561,29.38796,-17.99233,94.83283,-43.29642,82.23612,136.55008,-0.00128,-88.03717,122.30655,-0.00204,81.56001,-4.60196,-13.33594,-0.00488,-9.28789,8.05072,-0.00338,-12.67874,-11.10574,4.49533,-35.99799,-11.96825,-0.23145,-1.61299,-1.33542,9.29211
2079,-14.15271,0.0,0.0,1.7317,0.0,0.0,-11.54598,-6.70136,16.02845,27.18012,5.69925,-20.56691,-39.19851,-7.52156,-0.00271,-31.22471,-3.06569,0.00088,44.06784,35.69817,7.60857,-10.65314,-27.02131,-6.65348,42.08464,29.28415,-17.86263,93.32655,-42.89386,80.7711,136.5148,-0.00043,-88.21163,121.91918,-0.00277,81.23542,-4.3339,-13.9346,-0.00461,-9.05042,8.06703,-0.00132,-12.91846,-11.00474,4.4421,-36.22919,-11.85481,-0.23962,-1.47637,-1.05509,8.86639
2080,-11.78637,-0.0,0.0,1.57124,0.0,-0.0,-10.96805,-6.71818,15.63344,27.00742,5.4592,-20.73093,-42.07108,-7.57177,-0.00931,-30.97446,-3.10662,0.00051,44.15483,34.95184,8.0655,-10.23201,-26.04846,-6.50983,42.23569,29.19359,-17.74518,91.83471,-42.4507,79.21909,136.48756,0.00076,-88.17821,121.5817,-0.00216,80.90774,-4.07799,-14.50432,-0.0034,-8.56162,8.086,0.0008,-13.03507,-10.91292,4.47332,-36.33825,-11.78261,-0.17375,-1.38666,-0.73854,8.45694
2081,-9.41746,0.0,-0.0,1.42551,-0.0,-0.0,-10.71756,-6.74233,14.71991,26.79296,5.24483,-20.82734,-44.75776,-7.5267,-0.01319,-30.73522,-3.22241,-0.00015,44.15478,34.1951,8.57242,-9.78035,-25.0424,-6.41107,42.4135,29.11251,-17.64995,90.39645,-42.00862,77.64121,136.46347,0.00205,-88.00464,121.31446,-0.00069,80.67134,-3.87322,-15.01625,-0.00186,-7.9715,8.1695,0.00242,-13.01156,-10.83039,4.57157,-36.30801,-11.74498,-0.04989,-1.33434,-0.39701,8.08749
2082,-7.49586,0.0,-0.0,1.29327,0.0,0.0,-10.77962,-6.82739,13.40222,26.55049,5.0562,-20.84377,-47.20879,-7.42036,-0.01237,-30.50665,-3.42632,-0.00077,44.0757,33.42546,9.09842,-9.28094,-24.01457,-6.37924,42.61643,29.03922,-17.58619,89.04599,-41.61166,76.11228,136.41185,0.00297,-87.73431,121.11552,0.00062,80.57778,-3.73292,-15.42295,-0.00076,-7.4496,8.31576,0.00224,-12.86164,-10.74762,4.70554,-36.15127,-11.72099,0.107,-1.29188,-0.03816,7.77834
2083,-6.32463,0.0,0.0,1.16023,0.0,-0.0,-11.1154,-7.01619,11.82518,26.3024,4.87524,-20.80807,-49.3994,-7.29795,-0.00794,-30.28742,-3.6964,-0.00108,43.94514,32.65041,9.59434,-8.70796,-22.977,-6.38538,42.84719,28.96951,-17.56952,87.80528,-41.29591,74.69675,136.28754,0.00238,-87.4844,120.96746,0.00117,80.58914,-3.65996,-15.66772,-0.0005,-7.11098,8.44085,0.00012,-12.6175,-10.64033,4.83759,-35.89817,-11.67374,0.27203,-1.22107,0.33296,7.54272
2084,-5.95998,-0.0,-0.0,1.01551,0.0,0.0,-11.69266,-7.31637,10.10701,26.06934,4.67785,-20.76998,-51.33239,-7.18848,-0.00292,-30.07607,-3.98953,-0.00099,43.79739,31.87651,10.03337,-8.04554,-21.94219,-6.38113,43.10744,28.89799,-17.61364,86.67153,-41.07887,73.42339,136.05872,-0.00098,-87.43934,120.85188,0.00107,80.61031,-3.65989,-15.72367,-0.00118,-6.94752,8.4312,-0.00264,-12.31184,-10.47746,4.93242,-35.57905,-11.56095,0.42515,-1.08987,0.71119,7.38017
2085,-6.23497,0.0,-0.0,0.86692,0.0,0.0,-12.49411,-7.68512,8.33158,25.86127,4.45473,-20.76818,-53.0314,-7.08907,0.0,-29.86865,-4.26415,-0.00066,43.65469,31.09556,10.42412,-7.3094,-20.92218,-6.34227,43.38601,28.8238,-17.70839,85.61439,-40.94996,72.27547,135.73462,-0.0065,-87.77964,120.76291,0.00074,80.5589,-3.71934,-15.64666,-0.00251,-6.84613,8.24915,-0.00481,-11.96476,-10.24068,4.96585,-35.2129,-11.3564,0.55138,-0.88892,1.08911,7.26769
2086,-6.84697,0.0,-0.0,0.73859,0.0,-0.0,-13.5143,-8.03846,6.56636,25.67474,4.22401,-20.8095,-54.53057,-6.97544,0.00026,-29.65651,-4.49484,-0.00026,43.51861,30.28178,10.78685,-6.54896,-19.92686,-6.28545,43.65341,28.75349,-17.80812,84.58828,-40.87128,71.20312,135.37067,-0.01062,-88.59329,120.71233,0.00042,80.4183,-3.79268,-15.57034,-0.00405,-6.68712,7.99598,-0.00519,-11.58461,-9.94187,4.93325,-34.80952,-11.06917,0.64149,-0.63476,1.45891,7.15971
2087,-7.48127,0.0,-0.0,0.65321,0.0,0.0,-14.75539,-8.2854,4.87065,25.49635,4.02875,-20.8703,-55.86155,-6.83032,-0.0009,-29.42993,-4.67285,0.00011,43.38446,29.40811,11.11819,-5.81363,-18.96027,-6.24758,43.87362,28.69594,-17.8506,83.55068,-40.79137,70.14716,135.04672,-0.00946,-89.84061,120.72379,-7e-05,80.25744,-3.82358,-15.63197,-0.0056,-6.41617,7.8733,-0.00241,-11.17839,-9.62508,4.8532,-34.3796,-10.74694,0.69482,-0.35122,1.8199,7.00548
2088,-7.91244,0.0,0.0,0.6134,0.0,-0.0,-16.22005,-8.36044,3.27232,25.30818,3.92018,-20.90751,-57.03779,-6.65656,-0.00194,-29.18359,-4.79948,0.00039,43.25417,28.46306,11.38787,-5.11975,-18.02162,-6.25981,44.026,28.65195,-17.79558,82.47905,-40.66358,69.06386,134.83345,-0.00285,-91.41361,120.82045,-0.00118,80.19763,-3.78075,-15.89628,-0.0067,-6.05272,8.08277,0.00323,-10.75811,-9.35233,4.76099,-33.93967,-10.46041,0.71905,-0.0527,2.1819,6.77126
2089,-8.03218,-0.0,0.0,0.59584,0.0,0.0,-17.89066,-8.23122,1.7402,25.09238,3.93262,-20.87032,-58.04497,-6.46936,-0.00194,-28.91756,-4.8826,0.00054,43.12663,27.45437,11.57013,-4.45129,-17.11353,-6.34029,44.1179,28.61054,-17.64813,81.38017,-40.45959,67.94146,134.76465,0.00532,-93.13629,121.01044,-0.00288,80.31643,-3.68813,-16.32038,-0.00625,-5.6604,8.71834,0.00874,-10.3389,-9.18247,4.693,-33.50857,-10.27784,0.72429,0.25243,2.55755,6.45431
2090,-7.83661,0.0,-0.0,0.5604,0.0,-0.0,-19.69088,-7.89541,0.20379,24.83526,4.06455,-20.71538,-58.8508,-6.29513,-0.00067,-28.63517,-4.93733,0.00051,42.98877,26.40974,11.66288,-3.7759,-16.2451,-6.49645,44.17364,28.5583,-17.44566,80.2828,-40.17251,66.7993,134.82957,0.00986,-94.68291,121.27544,-0.00426,80.5891,-3.61938,-16.7795,-0.00393,-5.30183,9.69416,0.01061,-9.93616,-9.15175,4.67128,-33.10374,-10.24117,0.71654,0.55709,2.95406,6.08475
2091,-7.39381,0.0,0.0,0.46533,0.0,0.0,-21.46043,-7.37943,-1.3836,24.53129,4.2761,-20.42372,-59.42965,-6.17617,0.00124,-28.34075,-4.98193,0.00029,42.81487,25.37353,11.68031,-3.06633,-15.42685,-6.72475,44.20952,28.49232,-17.22803,79.21764,-39.81163,65.67118,134.98642,0.00843,-95.67119,121.56985,-0.00433,80.92138,-3.64318,-17.15857,-0.00122,-5.01306,10.75904,0.00791,-9.56601,-9.2614,4.69771,-32.74131,-10.35224,0.69707,0.85329,3.37026,5.71317
2092,-6.78946,-0.0,-0.0,0.28184,0.0,-0.0,-22.98066,-6.74165,-2.99217,24.18649,4.50507,-20.00983,-59.78077,-6.15888,0.00262,-28.03864,-5.02952,-1e-05,42.5685,24.39088,11.6448,-2.3205,-14.66702,-7.01043,44.21754,28.4247,-17.01724,78.1998,-39.39665,64.58242,135.18356,0.00326,-95.89059,121.83833,-0.00298,81.18848,-3.77878,-17.41708,-1e-05,-4.7981,11.61791,0.00285,-9.24318,-9.47571,4.75983,-32.43377,-10.57337,0.66857,1.12829,3.79505,5.38927
2093,-6.10159,-0.0,0.0,0.00904,0.0,-0.0,-24.04293,-6.08306,-4.50947,23.81646,4.69432,-19.51642,-59.92611,-6.27264,0.00253,-27.73395,-5.08363,-0.00025,42.21886,23.49014,11.58195,-1.55553,-13.96954,-7.32978,44.16935,28.37673,-16.81294,77.2238,-38.95361,63.53268,135.37567,-0.00155,-95.38239,122.04288,-0.00119,81.26003,-4.01029,-17.55104,-0.00138,-4.62963,12.09101,-0.00179,-8.97392,-9.73203,4.84184,-32.18323,-10.84081,0.64145,1.37312,4.20915,5.14502
2094,-5.40601,0.0,-0.0,-0.31273,0.0,0.0,-24.52255,-5.5346,-5.78282,23.43624,4.81075,-18.99453,-59.8937,-6.51647,0.00086,-27.43034,-5.13885,-0.00035,41.75808,22.67572,11.51635,-0.79009,-13.33288,-7.65694,44.03298,28.36734,-16.60017,76.26984,-38.50741,62.49749,135.53539,-0.00364,-94.34327,122.17715,-6e-05,81.08144,-4.32707,-17.53359,-0.00534,-4.4684,12.17822,-0.00476,-8.75353,-9.95938,4.9311,-31.97981,-11.08442,0.63248,1.5945,4.59109,4.98748
2095,-4.76837,-0.0,-0.0,-0.60762,0.0,0.0,-24.4183,-5.19987,-6.68296,23.05133,4.84416,-18.48296,-59.70375,-6.85735,-0.00179,-27.12353,-5.1848,-0.00025,41.19748,21.93199,11.47026,-0.04569,-12.74919,-7.97126,43.78841,28.40256,-16.36381,75.31647,-38.07301,61.44959,135.66124,-0.00312,-93.02207,122.2583,0.00012,80.78156,-4.72721,-17.33085,-0.01039,-4.2953,11.9987,-0.00575,-8.57515,-10.09835,5.01563,-31.81186,-11.24496,0.65456,1.8094,4.92437,4.89916
2096,-4.23945,0.0,-0.0,-0.79852,0.0,-0.0,-23.83615,-5.10342,-7.14817,22.66018,4.79992,-18.003,-59.36835,-7.24151,-0.00439,-26.79984,-5.21264,-1e-05,40.5567,21.2357,11.46122,0.64893,-12.20218,-8.25711,43.43607,28.4712,-16.10007,74.35316,-37.65172,60.38234,135.77417,-0.00089,-91.72704,122.30884,-7e-05,80.63483,-5.16721,-16.96771,-0.01349,-4.13978,11.7039,-0.00477,-8.44062,-10.11587,5.08059,-31.67841,-11.28629,0.70744,2.03309,5.20404,4.84758
2097,-3.84916,-0.0,-0.0,-0.84413,0.0,-0.0,-22.94303,-5.18868,-7.19828,22.26115,4.70023,-17.56278,-58.8983,-7.60577,-0.00593,-26.44361,-5.22119,0.00031,39.85896,20.5686,11.50853,1.26899,-11.66935,-8.50179,42.99942,28.54861,-15.81913,73.38408,-37.23362,59.3134,135.89685,0.00233,-90.8332,122.34122,0.00013,80.87923,-5.53837,-16.54461,-0.01256,-4.05758,11.42301,-0.00253,-8.35821,-10.01243,5.11445,-31.58771,-11.20439,0.78028,2.27406,5.43889,4.802
2098,-3.59604,0.0,0.0,-0.75543,0.0,-0.0,-21.918,-5.35107,-6.92119,21.85332,4.57576,-17.16563,-58.30689,-7.89173,-0.00594,-26.04685,-5.21411,0.00069,39.12569,19.92271,11.63369,1.80397,-11.12929,-8.69198,42.5218,28.60862,-15.5394,72.42056,-36.80176,58.26775,136.03044,0.00528,-90.62456,122.35385,0.00116,81.61965,-5.73775,-16.16833,-0.00881,-4.04517,11.24324,-0.00019,-8.32636,-9.82068,5.12277,-31.54095,-11.03141,0.86501,2.52748,5.6487,4.74563
2099,-3.45496,-0.0,-0.0,-0.58625,0.0,0.0,-20.90641,-5.48338,-6.43445,21.43314,4.44492,-16.81545,-57.6072,-8.067,-0.0046,-25.61502,-5.19224,0.001,38.36978,19.29765,11.84284,2.25907,-10.56968,-8.81236,42.05702,28.63803,-15.27766,71.46906,-36.33743,57.26158,136.15051,0.00603,-91.13586,122.34175,0.00269,82.851,-5.75471,-15.88964,-0.00495,-4.01567,11.21924,0.00187,-8.3207,-9.59413,5.13446,-31.51799,-10.82772,0.96671,2.77065,5.85666,4.67787
2100,-3.36509,0.0,-0.0,-0.39509,0.0,0.0,-19.99296,-5.516,-5.84516,20.9923,4.31968,-16.5008,-56.80667,-8.12119,-0.00213,-25.16338,-5.16202,0.00096,37.59759,18.69188,12.13276,2.65638,-9.99339,-8.87236,41.65466,28.64353,-15.03919,70.52419,-35.82764,56.2981,136.22411,0.00362,-92.18999,122.31122,0.00365,84.44971,-5.66987,-15.7065,-0.00235,-3.88924,11.37437,0.00363,-8.29959,-9.38934,5.19119,-31.48116,-10.66151,1.10114,2.97548,6.07662,4.60959
2101,-3.21879,0.0,-0.0,-0.21394,0.0,0.0,-19.19362,-5.43638,-5.22111,20.52106,4.2237,-16.18367,-55.9066,-8.04546,0.00108,-24.70585,-5.14833,0.00033,36.81652,18.09614,12.50895,3.02788,-9.41492,-8.92991,41.34552,28.6453,-14.81393,69.57304,-35.27162,55.37102,136.23059,-0.00082,-93.52872,122.28326,0.00332,86.14426,-5.58125,-15.58917,-0.00092,-3.68054,11.67711,0.00436,-8.22544,-9.24927,5.32633,-31.39557,-10.58523,1.28196,3.12707,6.30566,4.55318
2102,-2.92436,-0.0,-0.0,-0.06285,0.0,0.0,-18.45123,-5.28409,-4.56674,20.01791,4.17751,-15.82987,-54.90616,-7.84443,0.004,-24.2484,-5.18098,-0.00068,36.0337,17.49794,12.9653,3.39571,-8.84829,-9.05222,41.13425,28.66063,-14.58444,68.61213,-34.68199,54.4748,136.16975,-0.00479,-94.9028,122.28214,0.00232,87.57553,-5.53718,-15.50497,-0.00024,-3.5063,12.03049,0.0038,-8.08566,-9.19469,5.54682,-31.24964,-10.62067,1.50737,3.2262,6.52902,4.51523
2103,-2.47328,-0.0,-0.0,0.02385,0.0,0.0,-17.65154,-5.12372,-3.82558,19.49669,4.17566,-15.44982,-53.80372,-7.55564,0.00548,-23.79146,-5.2668,-0.00149,35.24798,16.889,13.46155,3.75863,-8.30171,-9.25242,40.99976,28.68995,-14.33633,67.66542,-34.08004,53.61834,136.0575,-0.00608,-96.06967,122.31858,0.0019,88.45705,-5.53024,-15.42683,-2e-05,-3.52385,12.30134,0.00382,-7.89824,-9.22584,5.82694,-31.06139,-10.75808,1.75361,3.27942,6.72999,4.49619
2104,-1.91743,-0.0,0.0,0.00541,-0.0,0.0,-16.67176,-5.00831,-2.92281,18.98351,4.19299,-15.10033,-52.59536,-7.23078,0.00537,-23.33496,-5.38081,-0.00161,34.44891,16.26343,13.94473,4.09743,-7.78339,-9.47991,40.90103,28.71739,-14.05736,66.7856,-33.48664,52.83141,135.91599,-0.00407,-96.77171,122.38116,0.00229,88.73287,-5.53187,-15.3161,-5e-05,-3.84682,12.37819,0.00693,-7.69964,-9.33099,6.11586,-30.867,-10.96692,1.97842,3.29118,6.89639,4.49007
2105,-1.30971,-0.0,0.0,-0.13731,-0.0,-0.0,-15.43324,-4.96255,-1.80811,18.50603,4.20383,-14.85097,-51.27448,-6.9066,0.00433,-22.88207,-5.48122,-0.00096,33.62369,15.61369,14.37808,4.39136,-7.30641,-9.65845,40.78894,28.72613,-13.72873,66.03095,-32.91328,52.15356,135.76521,0.00011,-96.79359,122.44398,0.00267,88.60005,-5.51616,-15.12089,-0.00027,-4.49244,12.22661,0.01246,-7.52498,-9.49383,6.3555,-30.7015,-11.20965,2.13461,3.26164,7.02311,4.48495
2106,-0.68566,-0.0,0.0,-0.38272,0.0,-0.0,-13.92657,-4.98944,-0.46873,18.0826,4.19742,-14.74303,-49.83438,-6.59941,0.00317,-22.43996,-5.53403,6e-05,32.76596,14.934,14.7415,4.63302,-6.88343,-9.72911,40.62241,28.71482,-13.32658,65.43022,-32.35994,51.60609,135.61885,0.00442,-96.0467,122.48591,0.00249,88.38705,-5.46616,-14.81019,-0.00076,-5.3706,11.91044,0.01602,-7.39571,-9.69413,6.50172,-30.58584,-11.45054,2.18935,3.1901,7.11232,4.469
2107,-0.07526,0.0,0.0,-0.66689,0.0,-0.0,-12.20223,-5.06999,1.06846,17.71512,4.19192,-14.76089,-48.27415,-6.30991,0.00229,-22.01636,-5.53657,0.00078,31.88463,14.22781,15.02097,4.83478,-6.51401,-9.68463,40.38205,28.70006,-12.84219,64.96022,-31.82158,51.16774,135.48418,0.00692,-94.64536,122.50739,0.00154,88.42619,-5.37629,-14.41708,-0.00179,-6.31169,11.5677,0.01402,-7.31921,-9.90479,6.54117,-30.52571,-11.65948,2.14112,3.08321,7.17204,4.43613
2108,0.48557,-0.0,-0.0,-0.91223,0.0,0.0,-10.3406,-5.16199,2.7447,17.39143,4.22611,-14.84437,-46.60286,-6.03463,0.00129,-21.61596,-5.51854,0.00083,31.0033,13.50928,15.1961,5.02092,-6.17941,-9.56701,40.07637,28.70332,-12.30517,64.55401,-31.29703,50.77712,135.36229,0.00655,-92.96792,122.53077,-0.00061,88.95584,-5.24911,-14.05257,-0.00328,-7.13187,11.34783,0.00783,-7.29227,-10.09382,6.49858,-30.51487,-11.81667,2.02565,2.95772,7.21171,4.38764
2109,0.94819,0.0,-0.0,-1.07553,0.0,-0.0,-8.41961,-5.21791,4.49472,17.09781,4.31907,-14.93873,-44.83946,-5.782,-0.00042,-21.23883,-5.51311,0.00036,30.14581,12.79582,15.22904,5.20787,-5.85434,-9.42304,39.73764,28.73529,-11.78338,64.13446,-30.79282,50.36033,135.24782,0.00357,-91.55944,122.58519,-0.00405,90.01176,-5.09702,-13.85242,-0.0043,-7.70089,11.34036,0.00203,-7.30041,-10.23447,6.43114,-30.53559,-11.91974,1.90663,2.83154,7.23604,4.33036
2110,1.25203,-0.0,0.0,-1.16538,0.0,0.0,-6.4983,-5.19505,6.2509,16.82665,4.44594,-15.01949,-43.01429,-5.56372,-0.00225,-20.87827,-5.53378,-0.00025,29.32555,12.10093,15.08822,5.39129,-5.52268,-9.28136,39.4073,28.78887,-11.35178,63.6483,-30.31897,49.86461,135.12944,-0.00078,-90.83213,122.69009,-0.00753,91.40852,-4.96022,-13.87533,-0.00327,-7.99494,11.5438,-0.00065,-7.318,-10.3166,6.4089,-30.56033,-11.98657,1.85295,2.71574,7.24474,4.27139
2111,1.34917,0.0,0.0,-1.22182,-0.0,-0.0,-4.62474,-5.05894,7.92173,16.57405,4.55595,-15.0791,-41.17279,-5.3702,-0.00281,-20.52188,-5.57507,-0.00067,28.54935,11.43579,14.78843,5.55205,-5.18232,-9.16385,39.1186,28.84257,-11.05131,63.07962,-29.88152,49.27818,134.99309,-0.00477,-90.84055,122.84791,-0.00871,92.82993,-4.90227,-14.06228,0.00049,-8.12355,11.8757,-0.00064,-7.31789,-10.34992,6.48542,-30.56202,-12.04689,1.91023,2.61504,7.23981,4.213
2112,1.24745,0.0,-0.0,-1.29597,-0.0,0.0,-2.85363,-4.80539,9.39748,16.33861,4.60279,-15.12243,-39.37332,-5.17171,-0.00161,-20.16078,-5.61871,-0.00069,27.82592,10.81517,14.38962,5.67223,-4.84028,-9.08263,38.88401,28.87081,-10.86945,62.44223,-29.47866,48.62281,134.82877,-0.00674,-91.31327,123.04515,-0.00603,93.90855,-4.97657,-14.30087,0.00583,-8.26853,12.18776,0.00129,-7.28752,-10.35578,6.67219,-30.52957,-12.12479,2.08051,2.53087,7.23062,4.15218
2113,1.02439,0.0,0.0,-1.4361,-0.0,-0.0,-1.24978,-4.47549,10.59049,16.12214,4.56493,-15.17274,-37.67546,-4.94155,0.00045,-19.79827,-5.64124,-0.00034,27.17016,10.25687,13.96095,5.74948,-4.50684,-9.02566,38.69126,28.85671,-10.75799,61.76295,-29.10077,47.92871,134.63765,-0.0058,-91.82861,123.25798,-0.00048,94.32076,-5.2208,-14.49547,0.01048,-8.54933,12.30681,0.0051,-7.23687,-10.35347,6.93221,-30.47475,-12.22359,2.32188,2.46418,7.22785,4.08602
2114,0.78735,-0.0,0.0,-1.66925,0.0,-0.0,0.12644,-4.13852,11.46996,15.92593,4.4496,-15.26523,-36.12431,-4.67271,0.00206,-19.44872,-5.6256,0.00016,26.60044,9.77194,13.54984,5.80032,-4.19396,-8.95958,38.50941,28.80026,-10.67042,61.0659,-28.73105,47.21675,134.4352,-0.00276,-92.0163,123.45993,0.00474,93.93348,-5.67541,-14.58007,0.01172,-8.94273,12.12407,0.00895,-7.19044,-10.35092,7.19823,-30.42358,-12.32448,2.569,2.41617,7.23075,4.01637
2115,0.61616,-0.0,-0.0,-1.98151,-0.0,0.0,1.2377,-3.85497,12.05746,15.74459,4.28724,-15.4255,-34.74217,-4.37568,0.00264,-19.12892,-5.57175,0.00049,26.13119,9.35746,13.17727,5.85059,-3.91403,-8.85555,38.30349,28.71685,-10.58701,60.36393,-28.34752,46.4977,134.24818,0.00023,-91.66186,123.62868,0.00684,92.89095,-6.38386,-14.50317,0.00705,-9.31915,11.65978,0.00944,-7.1711,-10.346,7.40588,-30.39998,-12.40054,2.76315,2.38549,7.22241,3.94944
2116,0.53023,-0.0,0.0,-2.31274,0.0,-0.0,2.07971,-3.64851,12.39108,15.56575,4.12212,-15.64825,-33.53071,-4.06412,0.00248,-18.84914,-5.49846,0.00051,25.76606,8.99917,12.85523,5.92226,-3.67785,-8.71813,38.04985,28.62696,-10.5146,59.66047,-27.92884,45.77996,134.10498,0.00132,-90.65971,123.74863,0.00553,91.57349,-7.36625,-14.21325,-0.00434,-9.54805,11.0321,0.00553,-7.18822,-10.33433,7.52074,-30.41384,-12.43437,2.87419,2.36613,7.17682,3.89328
2117,0.49651,-0.0,-0.0,-2.58459,0.0,-0.0,2.68108,-3.51139,12.50308,15.3819,3.99278,-15.89988,-32.47696,-3.74694,0.00202,-18.61114,-5.43,0.00029,25.49557,8.67942,12.59939,6.02596,-3.49467,-8.58279,37.74645,28.5452,-10.46961,58.95766,-27.4628,45.07352,134.02083,0.00024,-88.97351,123.80983,0.00294,90.44753,-8.5702,-13.65169,-0.01931,-9.57977,10.35964,-0.00051,-7.23428,-10.31358,7.54338,-30.45765,-12.42409,2.90352,2.3489,7.06972,3.85694
2118,0.46653,-0.0,0.0,-2.75443,-0.0,-0.0,3.09455,-3.43036,12.43048,15.20472,3.9115,-16.14473,-31.55994,-3.43379,0.0014,-18.41362,-5.37827,5e-05,25.30084,8.38725,12.4221,6.16152,-3.37078,-8.48451,37.41574,28.47578,-10.4617,58.26211,-26.95268,44.38529,133.98766,-0.00154,-86.72234,123.80708,0.00155,89.86411,-9.83941,-12.77205,-0.03009,-9.44446,9.68281,-0.006,-7.28773,-10.28013,7.49501,-30.50916,-12.37458,2.87224,2.32505,6.88829,3.85097
2119,0.40966,0.0,0.0,-2.84562,0.0,-0.0,3.37991,-3.40378,12.23325,15.06236,3.86147,-16.36843,-30.7569,-3.14289,0.00057,-18.25768,-5.33597,-0.0001,25.16041,8.12233,12.31783,6.32216,-3.30769,-8.4337,37.09872,28.415,-10.49031,57.58294,-26.41765,43.71541,133.97768,-0.00252,-84.28462,123.7431,0.00216,89.92721,-10.9613,-11.59677,-0.02919,-9.20635,8.96832,-0.00931,-7.32185,-10.22575,7.40137,-30.54044,-12.28828,2.80751,2.28884,6.63584,3.88543
2120,0.32226,0.0,-0.0,-2.91496,0.0,0.0,3.58647,-3.4396,11.98865,14.97624,3.8154,-16.57615,-30.04776,-2.89807,-0.00041,-18.14641,-5.28479,-0.00015,25.05572,7.88875,12.26068,6.49811,-3.30341,-8.42104,36.84005,28.35629,-10.55194,56.92545,-25.88479,43.06247,133.95895,-0.00316,-82.26231,123.63261,0.00341,90.49516,-11.77786,-10.26591,-0.01697,-8.93908,8.17119,-0.0093,-7.32038,-10.14119,7.28788,-30.53393,-12.16654,2.73658,2.23908,6.32923,3.96302
2121,0.21942,-0.0,0.0,-2.99226,0.0,0.0,3.74627,-3.53979,11.7612,14.93833,3.76167,-16.7715,-29.41875,-2.71778,-0.00132,-18.08059,-5.21202,-0.00016,24.97527,7.68909,12.22092,6.6819,-3.35254,-8.4376,36.66873,28.29514,-10.64374,56.28798,-25.37412,42.43139,133.91211,-0.00508,-81.30717,123.50085,0.00351,91.26272,-12.25465,-9.03388,-0.0016,-8.73052,7.29038,-0.00553,-7.29187,-10.02231,7.18345,-30.49735,-12.01676,2.68786,2.18116,5.99236,4.07441
2122,0.12132,0.0,0.0,-3.05145,0.0,-0.0,3.87699,-3.68465,11.57592,14.91106,3.71669,-16.93929,-28.86333,-2.60683,-0.00192,-18.0555,-5.12114,-0.00017,24.91538,7.52443,12.18648,6.87231,-3.44503,-8.48703,36.58269,28.23372,-10.75509,55.66487,-24.88476,41.83343,133.83994,-0.00807,-81.84577,123.37434,0.00213,91.9097,-12.4549,-8.19475,0.00842,-8.66642,6.3975,0.00024,-7.26886,-9.87124,7.12127,-30.46291,-11.85378,2.69115,2.12629,5.649,4.2026
2123,0.03972,0.0,0.0,-3.03335,0.0,-0.0,3.98748,-3.82994,11.41855,14.85077,3.71462,-17.04765,-28.37856,-2.55654,-0.00208,-18.06124,-5.02915,-0.00016,24.8748,7.3942,12.1671,7.07043,-3.5677,-8.58228,36.54636,28.1827,-10.8576,55.05233,-24.39551,41.27744,133.76514,-0.00933,-83.74781,123.26918,0.00041,92.28447,-12.47687,-7.9286,0.01046,-8.7764,5.62205,0.00443,-7.28668,-9.69426,7.13025,-30.46604,-11.69457,2.77063,2.08452,5.31665,4.33123
2124,-0.02789,-0.0,0.0,-2.89867,0.0,-0.0,4.08056,-3.92198,11.26173,14.73788,3.78656,-17.06783,-27.95876,-2.55241,-0.00187,-18.08464,-4.95499,-0.00013,24.84827,7.293,12.17745,7.27121,-3.70895,-8.73312,36.50418,28.15526,-10.90811,54.45197,-23.88278,40.76071,133.71811,-0.00724,-86.26237,123.18566,-0.00053,92.47789,-12.41116,-8.18838,0.00758,-9.00166,5.09062,0.00505,-7.35566,-9.50282,7.22273,-30.5177,-11.55445,2.93313,2.05611,5.00288,4.45104
2125,-0.0932,-0.0,0.0,-2.65941,0.0,0.0,4.15249,-3.92331,11.08837,14.58835,3.94612,-16.99028,-27.59199,-2.57883,-0.00142,-18.11046,-4.90891,-7e-05,24.82667,7.20769,12.2237,7.4616,-3.86332,-8.94073,36.40464,28.15484,-10.86627,53.86999,-23.33838,40.26654,133.72198,-0.00379,-88.45159,123.11355,-0.00045,92.71738,-12.32793,-8.7664,0.00406,-9.21935,4.86161,0.00347,-7.44805,-9.31693,7.38881,-30.59172,-11.44796,3.16144,2.02978,4.7055,4.56194
2126,-0.16812,0.0,0.0,-2.36325,0.0,-0.0,4.19515,-3.83052,10.89441,14.43633,4.18428,-16.82404,-27.26169,-2.61717,-0.00087,-18.12481,-4.88932,-3e-05,24.80284,7.12051,12.30722,7.62875,-4.03096,-9.2031,36.22251,28.16712,-10.71352,53.31274,-22.76967,39.77199,133.78029,-0.00169,-89.75056,123.04142,0.00019,93.17187,-12.27926,-9.45214,0.00207,-9.30259,4.89328,0.00218,-7.51055,-9.16343,7.60177,-30.63719,-11.38939,3.42017,1.98859,4.41716,4.6702
2127,-0.26171,0.0,-0.0,-2.06543,0.0,-0.0,4.2054,-3.67111,10.68589,14.30867,4.47001,-16.59167,-26.95158,-2.64761,-0.00034,-18.12193,-4.88516,-1e-05,24.77619,7.01753,12.42882,7.77021,-4.21186,-9.51474,35.96811,28.16395,-10.46072,52.78176,-22.18517,39.26159,133.87025,-0.00117,-90.19505,122.9621,0.00073,93.81556,-12.29208,-10.11875,0.00135,-9.18821,5.05888,0.00172,-7.49392,-9.06591,7.83214,-30.6072,-11.38902,3.67263,1.91859,4.132,4.78365
2128,-0.38391,0.0,0.0,-1.81574,0.0,0.0,4.1944,-3.48218,10.4802,14.21397,4.76204,-16.32808,-26.65127,-2.65819,-1e-05,-18.10736,-4.8816,-1e-05,24.75249,6.89657,12.58245,7.89638,-4.39944,-9.8561,35.68005,28.11673,-10.14302,52.27138,-21.58334,38.7373,133.94617,-0.00134,-90.24475,122.87423,0.00072,94.4663,-12.35139,-10.71012,0.00066,-8.92241,5.21194,0.00107,-7.37918,-9.03119,8.06262,-30.48368,-11.44641,3.9001,1.81551,3.84918,4.90885
2129,-0.54809,-0.0,0.0,-1.65909,0.0,0.0,4.18615,-3.29174,10.31059,14.14927,5.02507,-16.08522,-26.35753,-2.65353,-0.0,-18.09431,-4.86449,-5e-05,24.73913,6.76694,12.74435,8.02375,-4.5803,-10.17975,35.4049,28.01049,-9.80579,51.76995,-20.95682,38.21437,133.95502,-0.00262,-90.38998,122.78435,0.00026,94.96355,-12.39388,-11.1887,-0.00059,-8.63742,5.27733,0.00014,-7.18425,-9.04149,8.29256,-30.28321,-11.54499,4.10913,1.68654,3.57049,5.05217
2130,-0.7625,-0.0,-0.0,-1.63479,0.0,-0.0,4.20385,-3.11964,10.22253,14.1117,5.23341,-15.93175,-26.07075,-2.65124,-0.00024,-18.09605,-4.82095,-0.0001,24.73997,6.64003,12.87038,8.16352,-4.74029,-10.41516,35.17355,27.84976,-9.48796,51.26352,-20.30567,37.70617,133.85866,-0.00558,-90.86328,122.70678,-0.00025,95.28738,-12.33283,-11.51304,-0.00157,-8.45855,5.28787,-0.00034,-6.94992,-9.05953,8.52717,-30.04349,-11.65247,4.31947,1.54595,3.29629,5.21853
2131,-1.01027,0.0,-0.0,-1.74428,0.0,0.0,4.25056,-2.98162,10.23871,14.09439,5.3697,-15.91299,-25.79175,-2.66011,-0.00046,-18.11712,-4.74602,-0.00015,24.75421,6.51922,12.91985,8.31295,-4.87,-10.52262,34.98949,27.65356,-9.21255,50.74128,-19.64508,37.21523,133.64839,-0.00889,-91.61663,122.65696,-0.0006,95.50156,-12.11088,-11.64659,-0.00093,-8.42956,5.32396,-0.00013,-6.7169,-9.046,8.76119,-29.80221,-11.73066,4.54199,1.40788,3.02647,5.40469
2132,-1.23715,-0.0,0.0,-1.91058,0.0,-0.0,4.29847,-2.87901,10.32052,14.0714,5.43272,-15.99609,-25.51938,-2.66106,-0.00035,-18.1504,-4.65203,-0.00015,24.77918,6.39572,12.88845,8.45709,-4.96868,-10.55288,34.83661,27.44499,-8.98542,50.20251,-19.0002,36.7399,133.34439,-0.01023,-92.45224,122.64221,-0.00079,95.65634,-11.72877,-11.57247,0.00147,-8.5117,5.43181,0.00072,-6.50877,-8.97788,8.97293,-29.58171,-11.74996,4.76575,1.28193,2.76284,5.59387
2133,-1.37657,-0.0,-0.0,-2.00932,-0.0,0.0,4.30306,-2.79264,10.39262,14.00473,5.44384,-16.08799,-25.24779,-2.61978,0.0001,-18.18628,-4.56025,-0.00011,24.81227,6.25303,12.80258,8.58094,-5.04621,-10.61714,34.69847,27.24284,-8.79795,49.66208,-18.39319,36.28772,132.98482,-0.00838,-93.17085,122.65644,-0.00086,95.78592,-11.22458,-11.32155,0.00403,-8.63938,5.59521,0.00216,-6.32897,-8.85475,9.13266,-29.38652,-11.69851,4.9633,1.17312,2.50699,5.76069
2134,-1.40024,0.0,-0.0,-1.95876,-0.0,-0.0,4.23506,-2.69581,10.41322,13.87236,5.44328,-16.11951,-24.96836,-2.51984,0.00062,-18.22446,-4.48209,-0.0001,24.85093,6.07967,12.68173,8.68094,-5.11672,-10.78784,34.57139,27.05771,-8.63405,49.14972,-17.8314,35.88266,132.61243,-0.0038,-93.64112,122.68124,-0.00078,95.9282,-10.6498,-10.98219,0.00488,-8.79702,5.76047,0.00358,-6.16999,-8.69148,9.21593,-29.21147,-11.58049,5.10589,1.08302,2.25751,5.88441
2135,-1.3423,0.0,-0.0,-1.77074,0.0,-0.0,4.10089,-2.57416,10.40714,13.68411,5.4714,-16.09871,-24.67733,-2.37751,0.00089,-18.27412,-4.41284,-0.00016,24.89375,5.87963,12.5198,8.76608,-5.18718,-11.04226,34.46085,26.89105,-8.47963,48.69923,-17.3037,35.55809,132.2623,0.00213,-93.7696,122.69319,-0.00048,96.1315,-10.06733,-10.65036,0.00373,-9.05073,5.8901,0.00386,-6.02578,-8.50686,9.2112,-29.05274,-11.40875,5.17521,1.01096,2.01142,5.95919
2136,-1.27329,0.0,0.0,-1.52705,0.0,0.0,3.93632,-2.43716,10.43265,13.47463,5.5417,-16.09073,-24.38202,-2.2254,0.00079,-18.34385,-4.33933,-0.00028,24.94227,5.66944,12.30132,8.8492,-5.2534,-11.29244,34.36895,26.73608,-8.32769,48.3301,-16.78842,35.33749,131.95306,0.00751,-93.48417,122.67555,2e-05,96.47691,-9.54817,-10.36646,0.00188,-9.49433,6.00692,0.00166,-5.89974,-8.31779,9.12044,-28.91516,-11.19963,5.16635,0.95563,1.76792,5.99453
2137,-1.24867,0.0,0.0,-1.31406,0.0,-0.0,3.7822,-2.31243,10.51929,13.28445,5.63614,-16.15434,-24.10035,-2.08461,0.0005,-18.43345,-4.25422,-0.00037,25.00037,5.46627,12.03159,8.93753,-5.30585,-11.46295,34.28706,26.5808,-8.17817,48.03409,-16.26835,35.2159,131.68668,0.01022,-92.81998,122.62737,0.00048,97.05196,-9.15456,-10.12057,0.00061,-10.15822,6.19554,-0.00357,-5.80533,-8.14001,8.95689,-28.81292,-10.97273,5.08534,0.91534,1.53029,6.00758
2138,-1.27168,-0.0,-0.0,-1.16726,-0.0,-0.0,3.66194,-2.22823,10.63572,13.1405,5.72555,-16.29044,-23.85264,-1.95259,0.00024,-18.53467,-4.16757,-0.00035,25.0709,5.2794,11.74848,9.02986,-5.33708,-11.55065,34.19972,26.4127,-8.03571,47.77781,-15.74161,35.15688,131.45763,0.00894,-92.03243,122.56428,0.00047,97.89687,-8.91525,-9.92885,0.00039,-10.95797,6.56597,-0.00961,-5.75959,-7.98938,8.74167,-28.76333,-10.7508,4.94557,0.88676,1.30453,6.01284
2139,-1.29451,0.0,0.0,-1.06334,-0.0,-0.0,3.57426,-2.19844,10.71407,13.04727,5.78965,-16.4383,-23.6507,-1.81487,0.00011,-18.63806,-4.10471,-0.00016,25.15226,5.10897,11.50312,9.12136,-5.34745,-11.62399,34.09613,26.22299,-7.90552,47.52102,-15.21977,35.11042,131.26082,0.00435,-91.55125,122.50706,-0.0001,99.00127,-8.80962,-9.87328,0.00105,-11.7154,7.19304,-0.01139,-5.77314,-7.87952,8.49817,-28.77694,-10.55543,4.76337,0.86436,1.0942,6.017
2140,-1.26091,0.0,-0.0,-0.95698,0.0,0.0,3.50557,-2.21899,10.70495,12.99444,5.82318,-16.5216,-23.49442,-1.6664,2e-05,-18.73915,-4.08866,0.00011,25.23897,4.95143,11.32624,9.20965,-5.34569,-11.76561,33.97868,26.00768,-7.78823,47.23913,-14.71669,35.04125,131.09068,-0.00102,-91.72269,122.46493,-0.00073,100.31591,-8.77525,-10.04036,0.00171,-12.23902,8.05804,-0.00569,-5.84257,-7.81848,8.24567,-28.85007,-10.40148,4.55347,0.84139,0.89666,6.02276
2141,-1.16072,-0.0,-0.0,-0.82982,0.0,0.0,3.45182,-2.27924,10.61653,12.97244,5.82624,-16.51466,-23.37881,-1.52258,-7e-05,-18.8401,-4.11831,0.00032,25.32621,4.80858,11.2041,9.29622,-5.34095,-12.00054,33.86002,25.76576,-7.67807,46.93549,-14.23968,34.94699,130.93945,-0.00462,-92.55577,122.42793,-0.00075,101.74419,-8.73003,-10.44348,0.00094,-12.42278,9.04028,0.0041,-5.94927,-7.80808,7.99729,-28.96361,-10.29572,4.32737,0.8111,0.70722,6.03441
2142,-1.03585,0.0,0.0,-0.70201,0.0,0.0,3.42369,-2.37218,10.49868,12.97882,5.79922,-16.45928,-23.3012,-1.4063,-0.00018,-18.94658,-4.16573,0.0004,25.41408,4.68954,11.09305,9.384,-5.33551,-12.28384,33.75173,25.49933,-7.56695,46.63478,-13.78883,34.851,130.80013,-0.00532,-93.72162,122.37593,-0.00014,103.12794,-8.59369,-11.016,-0.00201,-12.30661,9.97232,0.01072,-6.06516,-7.84403,7.76311,-29.08884,-10.23808,4.09609,0.76851,0.52478,6.05677
2143,-0.93457,0.0,-0.0,-0.60174,0.0,-0.0,3.43188,-2.48715,10.39169,13.01358,5.75051,-16.41965,-23.26098,-1.32629,-0.00023,-19.0644,-4.19611,0.00031,25.50727,4.60355,10.96302,9.47635,-5.3269,-12.54951,33.65477,25.21612,-7.4511,46.36259,-13.36025,34.77676,130.67191,-0.00373,-94.80948,122.29596,0.00052,104.29548,-8.3075,-11.66518,-0.00625,-12.05469,10.72824,0.01057,-6.1647,-7.91411,7.55251,-29.19911,-10.22097,3.87314,0.71191,0.35027,6.09054
2144,-0.87668,0.0,0.0,-0.54155,0.0,-0.0,3.47566,-2.60134,10.30061,13.07687,5.69691,-16.44083,-23.25637,-1.27426,-0.00022,-19.19912,-4.1861,0.00012,25.61212,4.55417,10.82036,9.57775,-5.31352,-12.74925,33.55815,24.92808,-7.3352,46.12729,-12.94721,34.72726,130.5605,-0.00141,-95.59368,122.19222,0.00084,105.17693,-7.85706,-12.31669,-0.00945,-11.85797,11.27539,0.0061,-6.23867,-7.99736,7.37188,-29.28364,-10.22756,3.67276,0.64303,0.18166,6.13004
2145,-0.85132,0.0,-0.0,-0.51589,0.0,-0.0,3.54061,-2.68615,10.20645,13.17106,5.65883,-16.53255,-23.28162,-1.23726,-0.00017,-19.35492,-4.13084,-9e-05,25.73421,4.53744,10.69724,9.69382,-5.29919,-12.86599,33.44563,24.64524,-7.23236,45.91759,-12.5398,34.68489,130.47168,0.00029,-96.09833,122.07985,0.00087,105.81945,-7.29359,-12.908,-0.00942,-11.83485,11.63121,0.00169,-6.29989,-8.06896,7.22038,-29.35366,-10.23472,3.504,0.56662,0.01111,6.16684
2146,-0.83275,0.0,-0.0,-0.50826,0.0,0.0,3.60303,-2.7241,10.08999,13.29844,5.65584,-16.67133,-23.32469,-1.2095,-0.0001,-19.53181,-4.04214,-0.00023,25.87501,4.54418,10.62512,9.82926,-5.29261,-12.91176,33.3046,24.37153,-7.1587,45.71469,-12.12753,34.62786,130.40591,0.00098,-96.49043,121.97181,0.00069,106.28004,-6.72981,-13.37793,-0.00609,-12.00087,11.79389,-0.00017,-6.3722,-8.10947,7.08868,-29.43195,-10.22093,3.36597,0.48852,-0.17323,6.19828
2147,-0.80513,0.0,-0.0,-0.50606,0.0,0.0,3.64178,-2.72287,9.95162,13.45502,5.69315,-16.82383,-23.36798,-1.19659,-3e-05,-19.72443,-3.93704,-0.00026,26.02817,4.56553,10.60755,9.98333,-5.30071,-12.90762,33.13014,24.1064,-7.12318,45.5075,-11.70701,34.54567,130.36005,0.00099,-96.92202,121.87239,0.00026,106.56429,-6.29763,-13.68247,-0.00178,-12.29288,11.7453,0.00025,-6.46845,-8.11166,6.96162,-29.53124,-10.17366,3.24751,0.41157,-0.38046,6.2312
2148,-0.77611,-0.0,0.0,-0.51248,0.0,0.0,3.64805,-2.71069,9.81444,13.62908,5.75267,-16.96728,-23.39334,-1.20839,-0.0,-19.92389,-3.8265,-0.00023,26.1796,4.59422,10.61556,10.14732,-5.32482,-12.8693,32.92352,23.84913,-7.11917,45.29932,-11.28786,34.44143,130.33014,0.00076,-97.42606,121.77933,-0.00055,106.61877,-6.08883,-13.80558,0.00089,-12.60785,11.48519,0.00104,-6.57656,-8.07956,6.82407,-29.64013,-10.09078,3.133,0.33364,-0.61228,6.27626
2149,-0.77129,-0.0,-0.0,-0.54965,0.0,-0.0,3.62695,-2.7176,9.7167,13.80667,5.79551,-17.09933,-23.38857,-1.24958,-5e-05,-20.1211,-3.7096,-0.00026,26.31287,4.62188,10.60418,10.30756,-5.3632,-12.80234,32.6896,23.60113,-7.12531,45.1025,-10.88958,34.32563,130.31149,0.00056,-97.94157,121.68799,-0.00173,106.33839,-6.11341,-13.75899,0.00102,-12.85176,11.0326,0.00076,-6.66704,-8.0213,6.66886,-29.72986,-9.97697,3.01258,0.25045,-0.86405,6.34009
2150,-0.81922,0.0,-0.0,-0.65008,-0.0,-0.0,3.59286,-2.75613,9.69667,13.97585,5.77032,-17.2356,-23.35037,-1.31574,-0.00014,-20.30832,-3.57525,-0.00035,26.41602,4.6378,10.53534,10.45116,-5.41462,-12.70364,32.43609,23.36634,-7.11513,44.92744,-10.53269,34.21189,130.29832,0.00045,-98.38459,121.59583,-0.00278,105.65503,-6.30384,-13.57547,-0.00042,-12.9829,10.43436,-0.00043,-6.71568,-7.94187,6.50344,-29.77642,-9.83972,2.89116,0.16053,-1.12816,6.42302
2151,-0.93321,0.0,0.0,-0.83306,0.0,-0.0,3.55972,-2.80963,9.76606,14.12421,5.63532,-17.38635,-23.28282,-1.39116,-0.0002,-20.47843,-3.41422,-0.00046,26.48582,4.63147,10.40128,10.5709,-5.47878,-12.58036,32.17408,23.15002,-7.07187,44.77533,-10.23174,34.11663,130.28462,0.00043,-98.68471,121.50571,-0.00299,104.65647,-6.56551,-13.29841,-0.00187,-13.01766,9.79186,-0.00141,-6.72262,-7.84152,6.34903,-29.77961,-9.68748,2.78825,0.06761,-1.3957,6.52282
2152,-1.10439,0.0,-0.0,-1.08374,-0.0,-0.0,3.53447,-2.8451,9.89881,14.23751,5.38549,-17.54541,-23.1962,-1.45216,-0.00017,-20.62404,-3.22859,-0.00046,26.52968,4.59864,10.22524,10.666,-5.55148,-12.45737,31.91704,22.9549,-6.99899,44.63694,-9.99264,34.05654,130.26488,0.00043,-98.83453,121.42439,-0.00216,103.56406,-6.82132,-12.98069,-0.00235,-12.99942,9.22558,-0.00153,-6.71419,-7.72011,6.22976,-29.76539,-9.52949,2.72618,-0.02109,-1.65421,6.63643
2153,-1.30496,0.0,0.0,-1.34565,0.0,0.0,3.51513,-2.84294,10.04354,14.30132,5.06588,-17.68848,-23.10627,-1.47692,-6e-05,-20.73789,-3.03712,-0.00033,26.56529,4.54627,10.04327,10.74136,-5.62018,-12.37407,31.67362,22.77793,-6.91262,44.4978,-9.81243,34.04002,130.23521,0.00033,-98.91877,121.35622,-0.00084,102.57471,-7.01275,-12.67188,-0.00173,-12.95724,8.7884,-0.00124,-6.72797,-7.58289,6.15677,-29.77159,-9.37491,2.71316,-0.09711,-1.88739,6.75749
2154,-1.49241,-0.0,0.0,-1.53476,0.0,-0.0,3.49116,-2.81306,10.14444,14.30332,4.76003,-17.76719,-23.02876,-1.45545,5e-05,-20.81574,-2.87759,-9e-05,26.61529,4.4925,9.88945,10.80883,-5.66562,-12.38326,31.43858,22.61169,-6.82219,44.34724,-9.67986,34.0588,130.19447,5e-05,-99.06725,121.29982,0.00034,101.75748,-7.09351,-12.38824,-0.00041,-12.87837,8.44616,-0.00135,-6.79201,-7.442,6.11849,-29.82732,-9.2304,2.73365,-0.15129,-2.08073,6.8774
2155,-1.62121,0.0,0.0,-1.58237,0.0,-0.0,3.44936,-2.78819,10.16781,14.23947,4.55146,-17.73482,-22.9713,-1.39706,9e-05,-20.86052,-2.79026,0.00011,26.69688,4.46296,9.77804,10.88399,-5.66696,-12.52629,31.19436,22.44969,-6.72039,44.1848,-9.57662,34.08949,130.1442,-0.00035,-99.3705,121.24979,0.00108,101.08382,-7.04426,-12.11086,0.00117,-12.71633,8.13965,-0.00207,-6.91171,-7.31242,6.08587,-29.93945,-9.0985,2.75484,-0.17687,-2.22666,6.9888
2156,-1.65558,0.0,0.0,-1.47359,-0.0,0.0,3.38002,-2.7998,10.11312,14.1192,4.48458,-17.5803,-22.92983,-1.32645,9e-05,-20.88306,-2.79347,0.00022,26.81167,4.48063,9.69541,10.97627,-5.61089,-12.80789,30.9245,22.28926,-6.59001,44.02047,-9.48111,34.10682,130.0864,-0.00071,-99.81989,121.19941,0.00138,100.50665,-6.87695,-11.8159,0.00264,-12.43458,7.84342,-0.00275,-7.07147,-7.20626,6.03144,-30.09364,-8.97968,2.74657,-0.17524,-2.3276,7.08683
2157,-1.58013,-0.0,-0.0,-1.25179,-0.0,-0.0,3.27806,-2.85406,9.99948,13.9648,4.5512,-17.33119,-22.8914,-1.26796,7e-05,-20.89973,-2.87435,0.00026,26.94316,4.5512,9.61602,11.08256,-5.50309,-13.19832,30.62686,22.12918,-6.41996,43.86947,-9.37591,34.09788,130.02007,-0.00093,-100.33553,121.14264,0.00131,99.99891,-6.62045,-11.49646,0.00351,-12.04946,7.57711,-0.00248,-7.24714,-7.12919,5.94908,-30.26611,-8.87678,2.70095,-0.15827,-2.3986,7.1703
2158,-1.41482,0.0,-0.0,-0.99715,0.0,0.0,3.14564,-2.93228,9.85164,13.80644,4.69788,-17.04486,-22.84245,-1.23325,4e-05,-20.92771,-2.99338,0.00024,27.06508,4.65812,9.5191,11.18886,-5.369,-13.64132,30.31486,21.96601,-6.21826,43.74326,-9.25537,34.06637,129.9404,-0.00097,-100.84289,121.07438,0.00081,99.53506,-6.32083,-11.1702,0.00323,-11.63621,7.37351,-0.00111,-7.41869,-7.07972,5.85817,-30.43631,-8.79598,2.6365,-0.14319,-2.46267,7.24164
2159,-1.22087,0.0,0.0,-0.79697,-0.0,-0.0,2.99819,-3.01462,9.69816,13.67457,4.84232,-16.80129,-22.77925,-1.22249,0.0,-20.97746,-3.09529,0.0001,27.15538,4.77545,9.38855,11.27566,-5.23822,-14.05803,30.0069,21.79393,-6.01158,43.64203,-9.12644,34.02668,129.84344,-0.0007,-101.28121,120.9882,-0.00019,99.07186,-6.05314,-10.8726,0.00175,-11.29167,7.23642,0.00059,-7.5774,-7.05003,5.78771,-30.5945,-8.7413,2.58313,-0.1437,-2.53614,7.30362
2160,-1.07691,0.0,-0.0,-0.71744,0.0,-0.0,2.86315,-3.09927,9.56923,13.59347,4.9036,-16.68093,-22.71161,-1.23317,-4e-05,-21.0469,-3.12758,-0.00015,27.20605,4.88617,9.21009,11.32514,-5.12693,-14.36514,29.71549,21.6082,-5.83219,43.55412,-9.00106,33.99519,129.73105,-0.0001,-101.575,120.87561,-0.00163,98.57301,-5.89484,-10.62863,-0.00011,-11.07591,7.12803,0.00181,-7.72797,-7.02815,5.7536,-30.74436,-8.70793,2.56026,-0.16303,-2.61797,7.35707
2161,-1.03338,0.0,0.0,-0.78098,-0.0,0.0,2.76395,-3.19744,9.48059,13.57574,4.84566,-16.72258,-22.65362,-1.26331,-7e-05,-21.12229,-3.06516,-0.00036,27.22268,4.98932,8.98347,11.32948,-5.03411,-14.51385,29.44789,21.40722,-5.70453,43.46381,-8.8869,33.9851,129.61104,0.00044,-101.68876,120.72921,-0.00313,98.03943,-5.86255,-10.44063,-0.00134,-10.97613,6.98106,0.00217,-7.88496,-7.00258,5.74843,-30.8999,-8.68239,2.56559,-0.19326,-2.69439,7.4026
2162,-1.08813,0.0,0.0,-0.96187,0.0,-0.0,2.70412,-3.31867,9.42152,13.61827,4.69622,-16.90181,-22.61012,-1.30767,-9e-05,-21.18459,-2.92073,-0.00036,27.217,5.09382,8.73347,11.29445,-4.94896,-14.51091,29.21454,21.19165,-5.63943,43.36173,-8.78378,34.0037,129.49275,0.0005,-101.70456,120.54738,-0.00398,97.5084,-5.89584,-10.30341,-0.00167,-10.9224,6.71908,0.00151,-8.06209,-6.96813,5.75142,-31.07493,-8.65185,2.58198,-0.2219,-2.75249,7.44339
2163,-1.20454,0.0,-0.0,-1.20673,0.0,0.0,2.66868,-3.46814,9.36914,13.70358,4.5139,-17.16037,-22.57372,-1.35559,-0.0001,-21.21736,-2.72862,-0.00012,27.20077,5.2082,8.4965,11.23486,-4.85917,-14.39434,29.03137,20.96435,-5.63341,43.24852,-8.68693,34.04855,129.38274,0.00016,-101.75716,120.34003,-0.00347,97.06796,-5.91424,-10.20494,-0.00149,-10.8348,6.3097,1e-05,-8.25908,-6.92912,5.74967,-31.26964,-8.61526,2.59579,-0.24099,-2.78954,7.48567
2164,-1.33929,0.0,0.0,-1.45721,0.0,0.0,2.6359,-3.64722,9.30606,13.80395,4.3448,-17.44208,-22.53277,-1.39184,-7e-05,-21.21239,-2.52625,0.00019,27.18446,5.33381,8.30238,11.16766,-4.755,-14.20939,28.90926,20.73334,-5.66991,43.13041,-8.59441,34.10492,129.28514,-7e-05,-101.89174,120.13081,-0.00166,96.85794,-5.87176,-10.11878,-0.00137,-10.66421,5.81336,-0.00151,-8.45674,-6.897,5.75214,-31.46535,-8.58666,2.61077,-0.24964,-2.81337,7.53618
2165,-1.45187,-0.0,-0.0,-1.65887,0.0,0.0,2.58446,-3.84444,9.21806,13.88683,4.21304,-17.69614,-22.47965,-1.39917,1e-05,-21.16989,-2.35088,0.00037,27.17874,5.46365,8.17387,11.1084,-4.6317,-14.01491,28.83938,20.51306,-5.7244,43.0135,-8.51192,34.15264,129.20479,9e-05,-102.04942,119.94831,0.0002,96.97448,-5.77206,-10.02004,-0.00164,-10.41624,5.33654,-0.00199,-8.62665,-6.88369,5.78406,-31.6339,-8.58679,2.64553,-0.24769,-2.83806,7.59874
2166,-1.50862,0.0,-0.0,-1.77039,0.0,-0.0,2.49726,-4.03179,9.08918,13.92426,4.13044,-17.87417,-22.4136,-1.36499,0.00013,-21.0957,-2.23721,0.00029,27.19457,5.58712,8.12774,11.07029,-4.49017,-13.88307,28.78926,20.321,-5.77194,42.90166,-8.44853,34.1806,129.1496,0.00062,-102.18612,119.8113,0.00103,97.38236,-5.65661,-9.92006,-0.00233,-10.15155,4.94733,-0.00115,-8.74941,-6.89565,5.86661,-31.75585,-8.62983,2.71709,-0.22893,-2.8776,7.67164
2167,-1.49117,0.0,-0.0,-1.77538,0.0,-0.0,2.36755,-4.17952,8.90754,13.90305,4.10189,-17.94092,-22.33978,-1.28846,0.00023,-20.99638,-2.20654,-2e-05,27.24008,5.69905,8.16595,11.05996,-4.33332,-13.87716,28.71587,20.17134,-5.7925,42.7976,-8.40663,34.19575,129.13046,0.00144,-102.35206,119.7217,0.00083,97.95008,-5.56625,-9.88675,-0.00305,-9.95076,4.66416,0.00024,-8.82622,-6.93247,5.99949,-31.83233,-8.71528,2.82536,-0.18396,-2.93765,7.7459
2168,-1.40486,0.0,0.0,-1.68734,0.0,-0.0,2.20502,-4.27783,8.67529,13.82794,4.1241,-17.8885,-22.26649,-1.18195,0.00026,-20.87371,-2.25673,-0.00042,27.31493,5.80608,8.26793,11.07032,-4.16043,-14.02699,28.58728,20.06799,-5.77434,42.70446,-8.37672,34.21634,129.15675,0.00256,-102.64101,119.66796,0.00026,98.53976,-5.51227,-10.01472,-0.00332,-9.85919,4.4921,0.00125,-8.87431,-6.98923,6.1594,-31.88068,-8.82956,2.95075,-0.11067,-3.01042,7.80652
2169,-1.28629,0.0,-0.0,-1.55155,0.0,0.0,2.03653,-4.34591,8.4191,13.71849,4.17959,-17.74888,-22.20128,-1.06979,0.00019,-20.72396,-2.35975,-0.00068,27.40664,5.9242,8.39067,11.08021,-3.96703,-14.30617,28.39831,19.99998,-5.71794,42.62532,-8.34245,34.25665,129.22874,0.00374,-103.11399,119.63418,-0.00018,99.05743,-5.48779,-10.36479,-0.00284,-9.85678,4.43643,0.00163,-8.91253,-7.05979,6.31294,-31.92005,-8.95407,3.06482,-0.02067,-3.07995,7.84153
2170,-1.19932,0.0,0.0,-1.43949,0.0,0.0,1.89635,-4.41939,8.19054,13.60615,4.23539,-17.5918,-22.14743,-0.98334,7e-05,-20.54272,-2.46901,-0.00066,27.49383,6.0674,8.47871,11.06388,-3.75206,-14.62855,28.17118,19.94427,-5.63686,42.56002,-8.29092,34.31862,129.33377,0.00429,-103.75095,119.6097,-0.00034,99.47487,-5.4891,-10.92083,-0.00161,-9.88388,4.49919,0.00167,-8.95199,-7.13903,6.43129,-31.96191,-9.07291,3.1429,0.06535,-3.13485,7.85158
2171,-1.2007,0.0,0.0,-1.41498,0.0,-0.0,1.80674,-4.51966,8.03607,13.52435,4.26137,-17.48232,-22.10349,-0.94615,-5e-05,-20.32676,-2.54385,-0.00041,27.55553,6.2373,8.49316,11.00077,-3.52265,-14.90144,27.94219,19.87637,-5.55161,42.50312,-8.21979,34.3968,129.44827,0.00365,-104.41667,119.59373,-0.00034,99.86475,-5.51932,-11.5892,-0.0,-9.89933,4.69207,0.00146,-8.99852,-7.22305,6.49656,-32.01228,-9.17555,3.17001,0.12851,-3.17543,7.84867
2172,-1.29741,0.0,0.0,-1.49276,-0.0,0.0,1.76335,-4.63313,7.95869,13.49008,4.25566,-17.43059,-22.06616,-0.95839,-0.00012,-20.07333,-2.57708,-0.00017,27.57986,6.42362,8.44011,10.88112,-3.28953,-15.09614,27.7436,19.78176,-5.48102,42.44576,-8.1382,34.48718,129.54543,0.00216,-104.94116,119.59161,-0.00039,100.35735,-5.58193,-12.25041,0.00137,-9.91702,5.02241,0.00077,-9.05863,-7.30625,6.50148,-32.07756,-9.25405,3.14161,0.15956,-3.20987,7.84662
2173,-1.44845,0.0,-0.0,-1.64141,0.0,0.0,1.74065,-4.7313,7.92505,13.49814,4.24052,-17.40683,-22.0317,-0.99933,-0.00015,-19.78403,-2.58952,-8e-05,27.56651,6.61064,8.3572,10.70864,-3.06149,-15.24047,27.59271,19.65996,-5.43733,42.37879,-8.0633,34.58913,129.60188,0.00061,-105.25787,119.60709,-0.0005,100.98396,-5.68401,-12.81151,0.00202,-9.98782,5.44055,-0.00028,-9.13799,-7.37769,6.45067,-32.16257,-9.30009,3.06629,0.16048,-3.24697,7.85407
2174,-1.61036,0.0,0.0,-1.82207,0.0,0.0,1.71344,-4.80769,7.90824,13.53134,4.23045,-17.40134,-21.99467,-1.04629,-0.00016,-19.46866,-2.597,-1e-05,27.52343,6.7855,8.27127,10.49898,-2.8431,-15.34844,27.49137,19.52016,-5.42419,42.29603,-8.01365,34.70239,129.60205,-0.0006,-105.43768,119.63977,-0.00058,101.6302,-5.83845,-13.21112,0.00167,-10.14845,5.83964,-0.0009,-9.23173,-7.42213,6.36557,-32.26093,-9.30797,2.96998,0.14081,-3.29102,7.87406
2175,-1.76728,0.0,-0.0,-2.005,0.0,-0.0,1.6729,-4.88151,7.90291,13.56796,4.21408,-17.44147,-21.94907,-1.08772,-0.00015,-19.14075,-2.59459,0.00015,27.4633,6.94612,8.18338,10.27338,-2.63211,-15.393,27.4304,19.37506,-5.43727,42.19874,-8.00096,34.82615,129.54514,-0.00153,-105.6256,119.68684,-0.00054,102.18491,-6.05286,-13.41692,0.00036,-10.39156,6.12455,-0.0006,-9.31847,-7.42865,6.2849,-32.34971,-9.28268,2.8928,0.11231,-3.33849,7.90605
2176,-1.91076,0.0,0.0,-2.14592,0.0,-0.0,1.618,-4.96603,7.89437,13.58185,4.17234,-17.54189,-21.89176,-1.11588,-0.0001,-18.80833,-2.57457,0.00035,27.40379,7.09785,8.0965,10.05239,-2.4217,-15.36006,27.39545,19.23753,-5.46734,42.09892,-8.02352,34.95914,129.45012,-0.0021,-105.9343,119.74394,-0.0004,102.64327,-6.32622,-13.43907,-0.0013,-10.67137,6.26888,0.00016,-9.36958,-7.40137,6.25368,-32.3997,-9.24546,2.87474,0.08632,-3.38143,7.94259
2177,-2.02086,0.0,-0.0,-2.18887,0.0,-0.0,1.54145,-5.05139,7.84546,13.55183,4.10249,-17.67246,-21.82321,-1.11775,-1e-05,-18.47116,-2.54563,0.00041,27.36476,7.24263,8.03364,9.85116,-2.20607,-15.28854,27.37287,19.11985,-5.5033,42.01583,-8.06472,35.09772,129.34964,-0.00205,-106.36049,119.80284,-0.00018,103.06596,-6.65197,-13.32972,-0.00244,-10.92691,6.31137,0.00058,-9.37031,-7.3624,6.30523,-32.39693,-9.22959,2.93786,0.07186,-3.41568,7.9681
2178,-2.09692,-0.0,0.0,-2.13132,-0.0,-0.0,1.43731,-5.12814,7.74284,13.48293,4.01332,-17.80393,-21.7447,-1.08631,8e-05,-18.12786,-2.52477,0.00029,27.35759,7.37798,8.0075,9.67562,-1.98092,-15.22042,27.3532,19.03242,-5.5346,41.96377,-8.09862,35.23341,129.27632,-0.0014,-106.79148,119.85055,0.00019,103.52966,-7.01392,-13.16305,-0.00248,-11.11378,6.3089,0.00041,-9.33378,-7.34255,6.44714,-32.35619,-9.26637,3.07696,0.07252,-3.44415,7.97053
2179,-2.17711,0.0,-0.0,-2.05222,0.0,-0.0,1.31223,-5.2093,7.62878,13.4098,3.91253,-17.94904,-21.65663,-1.03244,0.00013,-17.78263,-2.52266,7e-05,27.37911,7.50355,7.99385,9.52248,-1.74147,-15.15319,27.32937,18.97902,-5.55561,41.9388,-8.10128,35.35261,129.25082,-0.00072,-107.08871,119.87341,0.00068,104.07653,-7.37953,-13.007,-0.00145,-11.22341,6.28592,-9e-05,-9.29314,-7.36527,6.65901,-32.3124,-9.36946,3.26394,0.0874,-3.47303,7.95282
2180,-2.30244,0.0,-0.0,-2.04824,0.0,0.0,1.17895,-5.31602,7.56325,13.37226,3.81123,-18.1316,-21.56,-0.97609,0.00013,-17.44445,-2.54396,-0.00017,27.418,7.62362,7.95601,9.38491,-1.48482,-15.06888,27.29157,18.95186,-5.56832,41.91594,-8.06245,35.4415,129.27646,-0.00051,-107.17267,119.86375,0.00105,104.63779,-7.70202,-12.89269,2e-05,-11.27177,6.21867,-0.00053,-9.27828,-7.43506,6.90346,-32.29644,-9.52848,3.46246,0.11753,-3.50616,7.93086
2181,-2.48347,0.0,-0.0,-2.16576,-0.0,-0.0,1.04517,-5.45103,7.57347,13.38943,3.7273,-18.34785,-21.45725,-0.93166,9e-05,-17.12301,-2.58886,-0.0003,27.46305,7.74614,7.88184,9.25939,-1.21344,-14.96907,27.22685,18.93477,-5.57789,41.86175,-7.98912,35.49667,129.33929,-0.00067,-107.04176,119.82243,0.00095,105.05898,-7.94023,-12.7964,0.00121,-11.28303,6.07719,-0.00066,-9.29667,-7.53774,7.14461,-32.31575,-9.71648,3.64492,0.16915,-3.54161,7.92374
2182,-2.70418,-0.0,-0.0,-2.38966,0.0,-0.0,0.90977,-5.58981,7.64113,13.45011,3.6764,-18.57017,-21.35105,-0.90272,6e-05,-16.82425,-2.64952,-0.00026,27.50585,7.88016,7.78922,9.14625,-0.93431,-14.86997,27.12655,18.91302,-5.58395,41.75443,-7.89851,35.5323,129.41373,-0.00075,-106.74238,119.75576,0.00027,105.22245,-8.08284,-12.64766,0.00177,-11.28941,5.86891,-0.00039,-9.33001,-7.65057,7.36388,-32.3511,-9.90532,3.80316,0.24818,-3.57123,7.94149
2183,-2.94019,-0.0,0.0,-2.67063,0.0,-0.0,0.76555,-5.69364,7.72196,13.52004,3.66515,-18.76904,-21.24208,-0.88538,4e-05,-16.54746,-2.71271,-0.0001,27.53993,8.03214,7.7056,9.04579,-0.65448,-14.78591,26.99359,18.88083,-5.575,41.59624,-7.80692,35.57246,129.47389,-0.0005,-106.3266,119.67119,-0.00071,105.10027,-8.15608,-12.36554,0.00151,-11.32365,5.6206,0.0002,-9.34437,-7.75383,7.56352,-32.36726,-10.07773,3.94704,0.35233,-3.5845,7.97752
2184,-3.17226,-0.0,0.0,-2.95825,-0.0,-0.0,0.6068,-5.73664,7.77706,13.5594,3.69009,-18.92716,-21.12713,-0.87656,5e-05,-16.28576,-2.76965,5e-05,27.55898,8.20523,7.64513,8.95616,-0.37576,-14.72078,26.84099,18.84283,-5.53095,41.4101,-7.72229,35.63468,129.50699,-3e-05,-105.81505,119.57685,-0.00155,104.73344,-8.20977,-11.90999,0.00022,-11.39552,5.34872,0.00075,-9.30606,-7.8369,7.75655,-32.32942,-10.22898,4.09284,0.46971,-3.57411,8.01491
2185,-3.38055,-0.0,0.0,-3.21003,-0.0,0.0,0.43392,-5.72503,7.78904,13.53693,3.73768,-19.03656,-21.00022,-0.87916,2e-05,-16.02843,-2.82383,1e-05,27.55694,8.40227,7.60359,8.87307,-0.09211,-14.67371,26.68331,18.80908,-5.43504,41.22591,-7.64472,35.71958,129.51854,0.00033,-105.20238,119.48412,-0.00186,104.20959,-8.29851,-11.31229,-0.00205,-11.48078,5.06766,0.00096,-9.19708,-7.89798,7.95149,-32.21918,-10.36071,4.24919,0.58397,-3.53815,8.04024
2186,-3.52742,0.0,0.0,-3.37738,-0.0,0.0,0.24862,-5.68866,7.75512,13.43675,3.78613,-19.083,-20.85608,-0.89827,-3e-05,-15.76504,-2.88739,-0.00024,27.53057,8.62568,7.57367,8.79144,0.20414,-14.65264,26.52974,18.78716,-5.28789,41.06784,-7.57355,35.81141,129.52554,0.00038,-104.50079,119.40874,-0.00156,103.64411,-8.46651,-10.66558,-0.0043,-11.53387,4.80581,0.00082,-9.02406,-7.94046,8.14281,-32.04352,-10.47391,4.40963,0.68153,-3.48024,8.05299
2187,-3.55723,0.0,-0.0,-3.40094,-0.0,-0.0,0.04793,-5.65306,7.67533,13.26187,3.81125,-19.03734,-20.69343,-0.93382,-0.0001,-15.49064,-2.96867,-0.00057,27.48249,8.87286,7.56017,8.70854,0.51116,-14.67803,26.38468,18.77716,-5.11085,40.9496,-7.51226,35.8883,129.54576,0.00029,-103.7833,119.36664,-0.001,103.17803,-8.72044,-10.09853,-0.0049,-11.52069,4.6067,0.00067,-8.81551,-7.96994,8.31472,-31.83179,-10.56763,4.55728,0.75631,-3.40951,8.06443
2188,-3.43183,0.0,-0.0,-3.24467,0.0,-0.0,-0.17051,-5.62176,7.55595,13.03599,3.7957,-18.8726,-20.51567,-0.9801,-0.00015,-15.20864,-3.0632,-0.00077,27.4196,9.13382,7.57459,8.62479,0.81432,-14.76614,26.25105,18.77184,-4.93313,40.87566,-7.46665,35.93699,129.59039,0.00043,-103.18914,119.36579,-0.00065,102.94289,-9.00944,-9.73439,-0.00347,-11.45357,4.50955,0.00068,-8.60778,-7.99399,8.45712,-31.62129,-10.64489,4.67977,0.80916,-3.33861,8.08738
2189,-3.18635,-0.0,0.0,-2.95578,0.0,0.0,-0.39438,-5.58595,7.43006,12.80355,3.73634,-18.60185,-20.32699,-1.03336,-0.0002,-14.93004,-3.15325,-0.0007,27.34575,9.39325,7.61242,8.54049,1.09286,-14.89782,26.13035,18.76179,-4.77246,40.84365,-7.44171,35.96108,129.66035,0.00092,-102.84718,119.4008,-0.0006,102.96449,-9.25275,-9.62426,-0.00153,-11.38933,4.51326,0.00053,-8.42802,-8.0229,8.58125,-31.43961,-10.71956,4.7834,0.84359,-3.27987,8.12739
2190,-2.93995,-0.0,0.0,-2.67459,0.0,0.0,-0.59287,-5.54459,7.36015,12.62006,3.64563,-18.29392,-20.12858,-1.09539,-0.00026,-14.66745,-3.21488,-0.00037,27.2567,9.63495,7.64104,8.45127,1.33047,-15.01217,26.01929,18.74311,-4.62602,40.84698,-7.44096,35.97731,129.74751,0.00133,-102.76268,119.45556,-0.00057,103.13514,-9.39921,-9.70725,-0.00051,-11.38121,4.57524,-9e-05,-8.28496,-8.06914,8.71951,-31.29538,-10.81564,4.89327,0.8617,-3.24044,8.17986
2191,-2.82098,0.0,0.0,-2.54911,-0.0,-0.0,-0.73457,-5.50945,7.39777,12.52412,3.54717,-18.03613,-19.92021,-1.16605,-0.00026,-14.42512,-3.23096,4e-05,27.14466,9.84817,7.61828,8.34659,1.52535,-15.04977,25.908,18.72123,-4.47958,40.87752,-7.46629,36.00293,129.84305,0.00108,-102.78003,119.51309,-0.00043,103.31829,-9.46307,-9.85819,-0.00034,-11.42167,4.66697,-0.00096,-8.17351,-8.14493,8.90601,-31.18324,-10.95757,5.03616,0.86324,-3.21644,8.23123
2192,-2.86616,0.0,-0.0,-2.62252,-0.0,0.0,-0.81481,-5.49528,7.53671,12.50828,3.46819,-17.8703,-19.70312,-1.23437,-0.00013,-14.19385,-3.20345,0.00037,27.00694,10.03359,7.53076,8.21596,1.6928,-15.00612,25.78333,18.70691,-4.32639,40.92656,-7.51756,36.04231,129.94633,1e-05,-102.6657,119.56439,-0.00028,103.45624,-9.51458,-9.98313,-0.0002,-11.4353,4.81031,-0.00144,-8.08886,-8.25851,9.15188,-31.09858,-11.15724,5.21916,0.84923,-3.19227,8.26826
2193,-3.00495,0.0,-0.0,-2.81015,-0.0,-0.0,-0.86191,-5.51176,7.71551,12.52247,3.42954,-17.77332,-19.48076,-1.28215,0.00011,-13.95652,-3.15205,0.00053,26.84651,10.20346,7.40925,8.05443,1.85682,-14.93111,25.63566,18.7087,-4.18117,40.98323,-7.59209,36.08216,130.06544,-0.00128,-102.28423,119.60806,-0.00024,103.56937,-9.64727,-10.06884,0.00054,-11.33428,5.03734,-0.00097,-8.03778,-8.40917,9.43465,-31.04886,-11.40528,5.4217,0.82343,-3.1489,8.28972
2194,-3.15398,-0.0,-0.0,-2.9967,0.0,-0.0,-0.90917,-5.56296,7.87297,12.51459,3.4327,-17.71321,-19.2589,-1.30225,0.00028,-13.69754,-3.09681,0.00055,26.66502,10.37553,7.29285,7.85765,2.03877,-14.86905,25.46583,18.72922,-4.07773,41.03119,-7.68499,36.09585,130.20763,-0.00179,-101.73498,119.64575,-0.00029,103.68039,-9.93542,-10.16023,0.00207,-11.06346,5.32734,0.00027,-8.03598,-8.58319,9.70984,-31.05046,-11.67185,5.60794,0.78614,-3.07452,8.3047
2195,-3.29934,0.0,0.0,-3.14122,-0.0,-0.0,-0.96827,-5.64481,7.9938,12.46734,3.45523,-17.69422,-19.04513,-1.31026,0.00024,-13.40862,-3.04627,0.00048,26.46425,10.56473,7.18823,7.62143,2.25058,-14.82164,25.28995,18.76697,-4.04993,41.04866,-7.79195,36.05523,130.36577,-0.00116,-101.26266,119.6813,-0.00038,103.77405,-10.39483,-10.2973,0.00371,-10.60822,5.60927,0.0013,-8.09335,-8.75478,9.93654,-31.11294,-11.9174,5.75012,0.73381,-2.97069,8.32021
2196,-3.47328,0.0,-0.0,-3.27941,0.0,0.0,-1.03497,-5.73921,8.09653,12.39843,3.4633,-17.72051,-18.8466,-1.33163,2e-05,-13.09153,-3.00433,0.00028,26.25842,10.77573,7.07871,7.35505,2.49191,-14.78174,25.13396,18.81968,-4.1098,41.01471,-7.91167,35.94712,130.51291,-0.00017,-101.02531,119.72231,-0.00046,103.82188,-10.97883,-10.46165,0.00417,-10.00069,5.82752,0.00159,-8.20148,-8.89438,10.09855,-31.22618,-12.10849,5.84494,0.67098,-2.85254,8.33467
2197,-3.68919,0.0,-0.0,-3.45968,-0.0,-0.0,-1.10592,-5.81928,8.19415,12.33669,3.42944,-17.74882,-18.66839,-1.37921,-0.00021,-12.75791,-2.97982,-5e-05,26.0768,11.00186,6.95854,7.08826,2.75251,-14.77271,25.01791,18.8839,-4.23952,40.91676,-8.04395,35.78396,130.61118,0.00024,-101.01212,119.77764,-0.00047,103.80392,-11.61027,-10.58975,0.00309,-9.31441,5.9805,0.00138,-8.33583,-8.98123,10.20833,-31.36339,-12.23084,5.91229,0.61667,-2.74167,8.34122
2198,-3.92614,-0.0,0.0,-3.70846,-0.0,-0.0,-1.18019,-5.87009,8.28154,12.30382,3.34304,-17.71016,-18.51147,-1.44515,-0.00031,-12.42585,-2.98133,-0.00041,25.94887,11.23194,6.84476,6.85975,3.01885,-14.83013,24.94486,18.95293,-4.39981,40.75405,-8.18521,35.60003,130.62904,-4e-05,-101.14424,119.85214,-0.00031,103.70329,-12.21597,-10.63514,0.00155,-8.64921,6.09009,0.00091,-8.46833,-9.01245,10.29653,-31.49492,-12.29365,5.98184,0.59512,-2.65503,8.33515
2199,-4.14629,0.0,0.0,-4.0296,0.0,-0.0,-1.25628,-5.90198,8.34575,12.30849,3.21319,-17.56855,-18.36935,-1.507,-0.00023,-12.11451,-3.00555,-0.0006,25.88603,11.45609,6.76871,6.69873,3.27771,-14.95805,24.90385,19.01858,-4.54118,40.53994,-8.3255,35.43641,130.55711,-0.0003,-101.3399,119.94382,1e-05,103.49554,-12.73632,-10.59563,0.00084,-8.1253,6.15737,0.00029,-8.57728,-9.00292,10.39804,-31.59882,-12.32409,6.08009,0.62128,-2.5985,8.31936
2200,-4.30539,0.0,0.0,-4.40776,-0.0,0.0,-1.33753,-5.93912,8.36957,12.34576,3.06591,-17.34812,-18.22866,-1.53719,3e-05,-11.83846,-3.03558,-0.00052,25.87712,11.66534,6.76421,6.61408,3.51621,-15.11781,24.87999,19.07609,-4.61069,40.30299,-8.44892,35.32468,130.41623,0.00021,-101.47311,120.047,0.00033,103.17352,-13.10398,-10.48599,0.00126,-7.86553,6.1693,-5e-05,-8.64984,-8.97725,10.54196,-31.66305,-12.35605,6.22429,0.69436,-2.56802,8.30303
2201,-4.39726,0.0,0.0,-4.84999,0.0,-0.0,-1.429,-6.00176,8.3419,12.4093,2.93446,-17.1215,-18.07757,-1.51561,0.00038,-11.60566,-3.04911,-0.00025,25.90377,11.85077,6.84396,6.59913,3.72428,-15.24665,24.85866,19.12627,-4.56164,40.08013,-8.53821,35.27805,130.25504,0.00108,-101.40533,120.15754,0.00043,102.79169,-13.21959,-10.33267,0.00192,-7.95048,6.1358,8e-05,-8.68236,-8.9609,10.74669,-31.6852,-12.42004,6.42142,0.80576,-2.5522,8.2938
2202,-4.51429,0.0,-0.0,-5.43543,-0.0,0.0,-1.52111,-6.10106,8.28358,12.50737,2.84467,-16.97693,-17.91376,-1.44349,0.00064,-11.41808,-3.02895,6e-05,25.95846,12.00688,6.97398,6.64392,3.89966,-15.28334,24.82181,19.17304,-4.36949,39.90089,-8.58414,35.29047,130.13661,0.00118,-101.13017,120.27322,0.00037,102.43784,-12.96773,-10.20876,0.00053,-8.36041,6.09345,0.00017,-8.6818,-8.97571,11.01808,-31.67361,-12.53841,6.66823,0.9521,-2.53443,8.29162
2203,-4.80763,0.0,-0.0,-6.24981,0.0,0.0,-1.58957,-6.23911,8.25107,12.65126,2.80519,-16.96836,-17.7411,-1.34627,0.00069,-11.26934,-2.97296,0.00027,26.03804,12.13586,7.08545,6.73431,4.04924,-15.19878,24.74561,19.2197,-4.04082,39.77284,-8.59466,35.33916,130.11734,0.00053,-100.79097,120.39053,0.00045,102.13109,-12.2755,-10.21102,-0.00497,-8.9463,6.07374,-2e-05,-8.66526,-9.03948,11.34843,-31.64706,-12.72453,6.95053,1.13305,-2.49826,8.29154
2204,-5.34508,-0.0,0.0,-7.21611,-0.0,0.0,-1.62231,-6.40657,8.2987,12.81886,2.81168,-17.07464,-17.55882,-1.25942,0.00048,-11.14058,-2.89839,0.00028,26.11841,12.24664,7.1235,6.83712,4.1847,-15.0199,24.60736,19.26659,-3.60832,39.68021,-8.59479,35.39223,130.22623,0.00041,-100.54652,120.50124,0.00075,101.7804,-11.16784,-10.38393,-0.0132,-9.48509,6.07373,-0.00015,-8.6551,-9.16449,11.71649,-31.62992,-12.9815,7.24366,1.33327,-2.43497,8.28986
2205,-6.02108,0.0,-0.0,-8.03086,0.0,-0.0,-1.64143,-6.58357,8.43411,12.94178,2.86171,-17.20953,-17.3588,-1.20853,0.00011,-11.00224,-2.83559,8e-05,26.14927,12.35012,7.08264,6.8974,4.31775,-14.82237,24.39806,19.31148,-3.12005,39.59714,-8.61384,35.42228,130.4541,0.00151,-100.49445,120.59161,0.00082,101.29327,-9.78637,-10.6998,-0.01937,-9.80327,6.05244,-0.00024,-8.67025,-9.35106,12.09192,-31.64282,-13.2979,7.5192,1.51429,-2.34645,8.28309
2206,-6.62815,-0.0,0.0,-8.35163,0.0,-0.0,-1.68815,-6.74598,8.61757,12.94824,2.96334,-17.28565,-17.13605,-1.20129,-0.00028,-10.82575,-2.81217,-0.00031,26.08465,12.45658,6.9948,6.86355,4.45937,-14.68382,24.13133,19.35241,-2.62948,39.50481,-8.66854,35.41624,130.75554,0.00298,-100.65828,120.64555,0.00028,100.68739,-8.36794,-11.09068,-0.01918,-9.86149,5.9487,-0.0008,-8.7175,-9.57864,12.44516,-31.69259,-13.64342,7.75774,1.63311,-2.24076,8.2642
2207,-7.00124,-0.0,-0.0,-8.05583,0.0,0.0,-1.79013,-6.87065,8.79809,12.81855,3.12547,-17.27283,-16.89934,-1.23192,-0.00057,-10.5972,-2.83645,-0.00076,25.916,12.57495,6.89689,6.71716,4.61871,-14.63367,23.84215,19.38989,-2.18505,39.39994,-8.75544,35.37454,131.06367,0.00349,-100.99833,120.65276,-0.00061,100.04028,-7.17068,-11.48827,-0.01295,-9.7346,5.71513,-0.00171,-8.78777,-9.80352,12.75673,-31.7674,-13.97035,7.9585,1.66844,-2.12708,8.22665
2208,-7.09526,0.0,0.0,-7.299,-0.0,-0.0,-1.94882,-6.93957,8.93725,12.59245,3.33819,-17.19641,-16.66987,-1.28586,-0.00063,-10.32177,-2.89307,-0.00101,25.67666,12.71028,6.81637,6.48003,4.79905,-14.64734,23.57551,19.4267,-1.81882,39.28991,-8.85682,35.30412,131.31354,0.00257,-101.46665,120.6181,-0.00127,99.39735,-6.36459,-11.86237,-0.0049,-9.53298,5.36431,-0.00209,-8.86049,-9.97197,13.0176,-31.84201,-14.22576,8.13464,1.62962,-2.01382,8.17068
2209,-6.98146,-0.0,-0.0,-6.38436,0.0,0.0,-2.14705,-6.94923,9.01193,12.335,3.56157,-17.09355,-16.47034,-1.34259,-0.00046,-10.01821,-2.95275,-0.00091,25.42559,12.86103,6.77077,6.20226,4.99507,-14.68189,23.36944,19.46595,-1.53912,39.1815,-8.95239,35.21114,131.46324,0.00067,-102.02027,120.56292,-0.00128,98.77614,-5.96558,-12.21958,0.0012,-9.33442,4.98089,-0.00155,-8.91365,-10.04597,13.22086,-31.89089,-14.37204,8.295,1.55048,-1.90755,8.10281
2210,-6.78057,0.0,-0.0,-5.58959,0.0,0.0,-2.36478,-6.92268,9.01425,12.09963,3.73541,-16.97829,-16.31123,-1.38035,-0.00017,-9.70969,-2.98717,-0.0005,25.21885,13.01943,6.76929,5.93944,5.19403,-14.71227,23.23898,19.50883,-1.33207,39.07504,-9.02901,35.09689,131.5047,-0.00112,-102.57511,120.51453,-0.00073,98.21607,-5.86827,-12.56177,0.00407,-9.16432,4.67265,-0.00047,-8.93314,-10.02447,13.35556,-31.90038,-14.40401,8.42975,1.47195,-1.81214,8.03293
2211,-6.58865,0.0,0.0,-5.06281,0.0,0.0,-2.59005,-6.91044,8.9597,11.91173,3.8043,-16.84527,-16.18283,-1.38472,0.00011,-9.41775,-2.97861,-1e-05,25.07862,13.17584,6.81022,5.72666,5.38007,-14.73387,23.17011,19.55248,-1.17175,38.9673,-9.08601,34.95918,131.45947,-0.00168,-102.99328,120.49241,-4e-05,97.79718,-5.94337,-12.85042,0.00421,-9.02033,4.50982,0.00059,-8.91735,-9.94202,13.41149,-31.87304,-14.34958,8.51531,1.41931,-1.72863,7.97524
2212,-6.47302,0.0,-0.0,-4.84597,-0.0,-0.0,-2.81258,-6.96811,8.8939,11.77797,3.73703,-16.69398,-16.06145,-1.35793,0.00028,-9.16083,-2.92185,0.00035,24.99268,13.32559,6.87198,5.57458,5.54166,-14.74202,23.12952,19.58833,-1.03241,38.85706,-9.13476,34.79689,131.36298,-0.00093,-103.15057,120.50159,0.0003,97.60366,-6.10029,-13.01739,0.00271,-8.90016,4.50395,0.00125,-8.87575,-9.84515,13.39187,-31.82298,-14.25284,8.53593,1.39809,-1.65319,7.94644
