PaulMeinheit/Bachelor_Muay_Thai/processed_Data/E_01/E_01_Teep/sliced/Raw_Data/E_01/E_01_Teep/JointAngles.txt/sliced2.csv
Unnamed: 0_level_0,L_MTP_ANGLE,L_MTP_ANGLE,L_MTP_ANGLE,R_MTP_ANGLE,R_MTP_ANGLE,R_MTP_ANGLE,L_ANKLE_ANGLE,L_ANKLE_ANGLE,L_ANKLE_ANGLE,R_ANKLE_ANGLE,R_ANKLE_ANGLE,R_ANKLE_ANGLE,L_KNEE_ANGLE,L_KNEE_ANGLE,L_KNEE_ANGLE,R_KNEE_ANGLE,R_KNEE_ANGLE,R_KNEE_ANGLE,L_HIP_ANGLE,L_HIP_ANGLE,L_HIP_ANGLE,R_HIP_ANGLE,R_HIP_ANGLE,R_HIP_ANGLE,L_SHOULDER_ANGLE,L_SHOULDER_ANGLE,L_SHOULDER_ANGLE,R_SHOULDER_ANGLE,R_SHOULDER_ANGLE,R_SHOULDER_ANGLE,L_ELBOW_ANGLE,L_ELBOW_ANGLE,L_ELBOW_ANGLE,R_ELBOW_ANGLE,R_ELBOW_ANGLE,R_ELBOW_ANGLE,L_WRIST_ANGLE,L_WRIST_ANGLE,L_WRIST_ANGLE,R_WRIST_ANGLE,R_WRIST_ANGLE,R_WRIST_ANGLE,NECK_ANGLE,NECK_ANGLE,NECK_ANGLE,NECK_ANGLE_SHADOW,NECK_ANGLE_SHADOW,NECK_ANGLE_SHADOW,Trunk_Joint_Angle,Trunk_Joint_Angle,Trunk_Joint_Angle
ITEM,X,Y,Z,X,Y,Z,X,Y,Z,X,Y,Z,X,Y,Z,X,Y,Z,X,Y,Z,X,Y,Z,X,Y,Z,X,Y,Z,X,Y,Z,X,Y,Z,X,Y,Z,X,Y,Z,X,Y,Z,X,Y,Z,X,Y,Z
1364,-6.7015,-0.0,0.0,-3.50597,0.0,-0.0,-4.56995,-7.11115,6.19261,17.26685,0.24502,-20.37983,-25.9952,-0.46563,-0.00184,-24.70145,-5.1512,-0.00049,28.40735,12.50938,7.30957,12.92122,4.85975,-13.06258,29.36733,23.38631,-5.79814,46.68446,-14.36952,32.81287,128.01793,0.00061,-106.39983,116.95811,-0.00221,100.92109,-5.6287,-14.28839,-0.00055,-1.97834,5.08144,-0.00213,-7.92533,-10.83782,8.2603,-31.18011,-13.18387,3.35548,-0.48726,0.20587,4.92102
1365,-6.38175,-0.0,-0.0,-3.38596,0.0,-0.0,-5.07561,-7.20569,5.96295,17.44099,0.12435,-20.29313,-26.89586,-0.41362,-0.00205,-24.98899,-5.17115,0.00033,28.89035,12.46797,7.25604,13.00731,4.69281,-13.05374,30.00543,23.574,-5.95718,47.1894,-14.2926,32.94601,128.00082,0.00135,-106.46997,116.8307,-0.00101,100.55455,-5.69481,-14.21425,-0.00188,-1.48749,5.02593,-0.00205,-7.8959,-10.91265,8.17212,-31.15964,-13.21841,3.2434,-0.52436,0.14172,4.94267
1366,-5.84614,-0.0,0.0,-3.23992,0.0,-0.0,-5.78384,-7.41129,5.6926,17.607,0.09839,-20.09252,-27.94325,-0.3805,-0.00166,-25.24727,-5.23252,0.00093,29.47908,12.44592,7.17369,13.0859,4.50289,-13.139,30.67602,23.78989,-6.13596,47.75272,-14.21362,33.12265,128.03047,0.001,-106.14521,116.69004,0.0011,100.55952,-5.86815,-14.08937,-0.00355,-1.1402,4.9861,-0.00132,-7.93938,-11.02299,8.07345,-31.21556,-13.28152,3.1072,-0.5529,0.06021,4.97295
1367,-5.17524,-0.0,0.0,-3.09607,0.0,-0.0,-6.72247,-7.66439,5.36183,17.76653,0.16683,-19.8406,-29.15356,-0.38105,-0.00091,-25.47837,-5.2999,0.00111,30.16992,12.4562,7.09633,13.12961,4.28427,-13.254,31.38807,24.01935,-6.39041,48.382,-14.13321,33.35823,128.11975,0.00011,-105.57381,116.55254,0.00272,101.0103,-6.15178,-13.95913,-0.00489,-1.04784,5.05471,-0.00165,-8.05618,-11.13046,7.94324,-31.34515,-13.32972,2.94294,-0.59228,-0.03907,5.02091
1368,-4.49747,0.0,0.0,-2.98341,0.0,-0.0,-7.91642,-7.88799,4.93975,17.91274,0.29073,-19.59833,-30.53596,-0.41804,-0.0004,-25.68876,-5.33247,0.00099,30.96579,12.50688,7.07531,13.12389,4.02866,-13.34153,32.15134,24.24019,-6.76601,49.0757,-14.05742,33.65621,128.27481,-5e-05,-104.86709,116.43663,0.00283,101.7894,-6.54185,-13.86612,-0.00553,-1.21486,5.30229,-0.00408,-8.21594,-11.20467,7.77032,-31.5153,-13.3308,2.75264,-0.6523,-0.1564,5.08923
1369,-3.96085,-0.0,-0.0,-2.91364,0.0,0.0,-9.37516,-8.01958,4.40534,18.03468,0.40828,-19.39819,-32.09,-0.48319,-0.00063,-25.88804,-5.30391,0.0007,31.87138,12.59714,7.15937,13.07031,3.72632,-13.37376,32.97649,24.42483,-7.27838,49.8225,-14.00362,34.01585,128.49396,0.0017,-104.16363,116.35662,0.00163,102.74225,-6.95834,-13.87748,-0.00587,-1.57049,5.74575,-0.00748,-8.36499,-11.23684,7.56353,-31.67117,-13.2801,2.54814,-0.73307,-0.29375,5.17824
1370,-3.71139,0.0,-0.0,-2.87209,0.0,0.0,-11.07218,-8.03689,3.77049,18.12358,0.4599,-19.24119,-33.81083,-0.5627,-0.00161,-26.0876,-5.20879,0.00032,32.88585,12.71704,7.36765,12.97954,3.36828,-13.35183,33.86977,24.54933,-7.90398,50.60731,-13.99552,34.43822,128.76987,0.00505,-103.60851,116.31811,0.0,103.75758,-7.23765,-14.07719,-0.00751,-2.02024,6.33819,-0.00951,-8.45093,-11.23545,7.35183,-31.7606,-13.19667,2.35281,-0.83389,-0.45386,5.28644
1371,-3.88407,-0.0,0.0,-2.83634,0.0,0.0,-12.92691,-7.97083,3.08704,18.18161,0.41082,-19.11573,-35.69909,-0.64453,-0.0024,-26.30062,-5.0532,-0.00023,34.00668,12.85173,7.67774,12.86848,2.94757,-13.28576,34.82688,24.60563,-8.59051,51.41766,-14.04895,34.92172,129.08997,0.00784,-103.20384,116.31802,-0.00112,104.69404,-7.24189,-14.49031,-0.01112,-2.47115,6.98447,-0.00858,-8.45118,-11.21383,7.17243,-31.76168,-13.10718,2.19563,-0.95476,-0.63814,5.40754
1372,-4.59152,-0.0,0.0,-2.80967,0.0,0.0,-14.79739,-7.87711,2.43265,18.22837,0.26114,-19.02348,-37.76981,-0.72845,-0.0013,-26.54124,-4.84255,-0.001,35.23879,12.98978,8.03151,12.75992,2.46176,-13.17184,35.83205,24.60661,-9.28195,52.24433,-14.15861,35.45312,129.43687,0.00788,-102.7797,116.34898,-0.00117,105.35291,-6.9572,-15.03387,-0.01413,-2.83117,7.57563,-0.00503,-8.38659,-11.1841,7.05349,-31.69614,-13.0337,2.0977,-1.09245,-0.84526,5.52882
1373,-5.86218,0.0,-0.0,-2.8174,-0.0,0.0,-16.49763,-7.77397,1.88283,18.29432,0.04662,-18.97892,-40.05317,-0.82868,0.00298,-26.82023,-4.58421,-0.00186,36.5955,13.1288,8.35872,12.67661,1.9158,-13.00079,36.8616,24.58061,-9.93826,53.08053,-14.29857,36.00553,129.793,0.0043,-102.09088,116.40174,-0.00027,105.54296,-6.48994,-15.54886,-0.01322,-3.02599,8.01635,-0.0011,-8.31063,-11.15902,6.99979,-31.61866,-12.98982,2.05823,-1.24084,-1.07175,5.63327
1374,-7.54441,-0.0,0.0,-2.86544,0.0,-0.0,-17.84389,-7.62264,1.4931,18.40335,-0.16879,-18.98631,-42.58191,-0.96067,0.00987,-27.14124,-4.29971,-0.00246,38.08472,13.27375,8.60903,12.62795,1.32272,-12.78374,37.8904,24.56194,-10.53971,53.9253,-14.43834,36.54762,130.1442,-0.00191,-100.89743,116.46337,0.00077,105.1424,-6.00589,-15.86861,-0.00866,-3.04301,8.23869,0.00116,-8.28069,-11.15245,6.98781,-31.5883,-12.97914,2.04982,-1.39973,-1.31532,5.70665
1375,-9.28421,0.0,-0.0,-2.92007,0.0,-0.0,-18.70839,-7.38435,1.29747,18.55928,-0.31289,-19.02947,-45.37357,-1.12311,0.01676,-27.50067,-4.02712,-0.00243,39.69513,13.43249,8.76804,12.60139,0.7034,-12.55863,38.90106,24.5828,-11.0836,54.78705,-14.56247,37.05711,130.47902,-0.0081,-99.06004,116.51621,0.00092,104.17247,-5.65624,-15.88753,-0.00427,-2.94673,8.21759,0.00167,-8.3297,-11.17191,6.97574,-31.63925,-12.99233,2.03076,-1.58177,-1.57561,5.74524
1376,-10.64054,0.0,0.0,-2.92588,-0.0,0.0,-19.05025,-7.06826,1.30792,18.74482,-0.33255,-19.07978,-48.41997,-1.29423,0.02022,-27.88895,-3.81042,-0.00165,41.40023,13.61163,8.84529,12.56842,0.08434,-12.3802,39.88978,24.66701,-11.5808,55.68011,-14.68106,37.52931,130.78836,-0.01165,-96.63406,116.54324,-8e-05,102.87398,-5.51448,-15.60792,-0.00313,-2.83974,7.98463,0.0018,-8.45522,-11.2087,6.92741,-31.76882,-13.00735,1.97113,-1.80554,-1.8495,5.75523
1377,-11.25538,-0.0,0.0,-2.82674,-0.0,0.0,-18.91405,-6.72006,1.51379,18.93092,-0.21775,-19.10726,-51.68634,-1.43943,0.01727,-28.29179,-3.68286,-0.00038,43.17433,13.81094,8.85815,12.5002,-0.51068,-12.30525,40.8647,24.82553,-12.05387,56.61508,-14.82584,37.97675,131.06622,-0.01163,-93.83085,116.53702,-0.00122,101.65138,-5.57612,-15.12654,-0.00517,-2.79976,7.62135,0.00225,-8.62876,-11.23722,6.83577,-31.94618,-12.99797,1.87483,-2.07971,-2.12752,5.74548
1378,-10.96932,-0.0,-0.0,-2.58571,0.0,-0.0,-18.40217,-6.39938,1.88886,19.09187,-0.01191,-19.09074,-55.11724,-1.51739,0.0067,-28.69501,-3.65168,0.00091,45.00177,14.01914,8.8358,12.38103,-1.07333,-12.36779,41.8379,25.05434,-12.53333,57.59009,-15.03192,38.42051,131.30891,-0.00886,-90.88594,116.50275,-0.00142,100.88865,-5.81271,-14.56698,-0.00833,-2.83238,7.23877,0.00247,-8.81476,-11.22811,6.72721,-32.13273,-12.94746,1.77818,-2.39351,-2.39837,5.7226
1379,-9.85273,0.0,-0.0,-2.21591,0.0,-0.0,-17.6299,-6.15336,2.39709,19.22211,0.20552,-19.02135,-58.64725,-1.49025,-0.00927,-29.08941,-3.69837,0.00183,46.87322,14.21546,8.82251,12.20953,-1.6174,-12.5671,42.81466,25.33576,-13.04803,58.58759,-15.31276,38.87852,131.51654,-0.00479,-88.01395,116.4515,-0.00052,100.79023,-6.19827,-14.03449,-0.00996,-2.87982,6.95642,0.00197,-8.9868,-11.16743,6.64281,-32.3003,-12.85895,1.72482,-2.72276,-2.65774,5.68712
1380,-8.13389,-0.0,0.0,-1.78891,0.0,0.0,-16.68909,-5.98897,2.9931,19.34313,0.36309,-18.90229,-62.21138,-1.34236,-0.02479,-29.47088,-3.79425,0.00226,48.77674,14.37855,8.86067,11.9899,-2.17245,-12.87674,43.78769,25.6445,-13.61198,59.57939,-15.64503,39.35624,131.6969,-0.00057,-85.45914,116.39091,0.00084,101.31161,-6.69232,-13.6323,-0.00786,-2.89069,6.8732,0.00113,-9.13205,-11.06822,6.61222,-32.43699,-12.75597,1.73681,-3.04523,-2.91284,5.63091
1381,-6.07537,-0.0,-0.0,-1.39604,0.0,-0.0,-15.63494,-5.88468,3.63127,19.49096,0.43238,-18.75795,-65.74961,-1.09725,-0.03244,-29.84095,-3.91038,0.00223,50.69045,14.50015,8.96755,11.72651,-2.76993,-13.24131,44.74298,25.95703,-14.21757,60.53833,-15.97682,39.84362,131.86316,0.00324,-83.49543,116.32218,0.002,102.23178,-7.23244,-13.48795,-0.00175,-2.86744,7.02644,0.00026,-9.24286,-10.96577,6.63885,-32.53833,-12.67222,1.80296,-3.35269,-3.18157,5.54517
1382,-3.93607,-0.0,0.0,-1.10857,0.0,0.0,-14.47685,-5.82258,4.28263,19.69426,0.42126,-18.64358,-69.20824,-0.82237,-0.02727,-30.21094,-4.01432,0.00177,52.58258,14.59583,9.11927,11.42599,-3.42968,-13.56245,45.67155,26.25982,-14.841,61.45069,-16.25505,40.32088,132.02251,0.00619,-82.31535,116.24551,0.00249,103.32656,-7.75292,-13.72422,0.00579,-2.83887,7.36588,-0.00074,-9.30632,-10.89823,6.701,-32.595,-12.63431,1.88778,-3.65365,-3.486,5.43463
1383,-1.97789,0.0,-0.0,-0.96283,0.0,-0.0,-13.1811,-5.79697,4.94045,19.95889,0.34592,-18.62923,-72.54279,-0.60509,-0.01082,-30.60199,-4.0705,0.00091,54.42219,14.70176,9.25666,11.10027,-4.1514,-13.71721,46.57394,26.55278,-15.45626,62.32047,-16.45365,40.77282,132.16661,0.00748,-81.91465,116.16814,0.00204,104.40254,-8.2009,-14.37776,0.01056,-2.8359,7.77025,-0.00195,-9.30523,-10.88499,6.76124,-32.59193,-12.64553,1.94883,-3.9667,-3.84059,5.32206
1384,-0.38476,-0.0,-0.0,-0.94727,-0.0,-0.0,-11.70779,-5.79433,5.60703,20.26701,0.22588,-18.7531,-75.71946,-0.50291,0.0091,-31.03551,-4.05694,-0.00013,56.18851,14.85664,9.32424,10.7614,-4.91974,-13.62314,47.45274,26.84321,-16.04792,63.16322,-16.58551,41.20135,132.2751,0.0066,-82.12492,116.10688,0.00114,105.19567,-8.52565,-15.34569,0.00958,-2.90645,8.10313,-0.00271,-9.23208,-10.9189,6.77757,-32.52157,-12.68302,1.95018,-4.31163,-4.24644,5.23939
1385,0.81331,0.0,0.0,-1.00772,-0.0,-0.0,-10.05031,-5.78165,6.28074,20.59211,0.09126,-18.99376,-78.71467,-0.51109,0.02366,-31.52326,-3.97539,-0.00114,57.87185,15.08509,9.31094,10.41256,-5.7202,-13.28372,48.3025,27.13332,-16.61421,63.99507,-16.69627,41.62435,132.33031,0.00405,-82.74329,116.08173,0.00116,105.40367,-8.67084,-16.40878,0.00372,-3.11163,8.27046,-0.00169,-9.10327,-10.97974,6.71444,-32.39901,-12.7144,1.86716,-4.70325,-4.69618,5.21652
1386,1.69479,-0.0,0.0,-1.08182,0.0,-0.0,-8.24198,-5.7293,6.95953,20.91859,-0.02497,-19.29458,-81.5163,-0.57105,0.02775,-32.06585,-3.83873,-0.0019,59.47531,15.39738,9.25501,10.04746,-6.547,-12.76713,49.10947,27.41374,-17.16227,64.82433,-16.84834,42.06263,132.33049,0.00121,-83.61089,116.10629,0.00303,104.86429,-8.61078,-17.31136,-0.00292,-3.50042,8.2345,0.00205,-8.95889,-11.05696,6.55314,-32.26353,-12.72269,1.68677,-5.14722,-5.17727,5.27412
1387,2.34457,0.0,-0.0,-1.12022,0.0,-0.0,-6.33975,-5.62473,7.64321,21.24986,-0.08917,-19.59836,-84.12428,-0.59808,0.02127,-32.65488,-3.6623,-0.00211,61.01403,15.79939,9.2208,9.65227,-7.39619,-12.17053,49.86093,27.66989,-17.70191,65.64948,-17.10044,42.52705,132.2924,-0.00045,-84.59608,116.18185,0.00584,103.67387,-8.40263,-17.84584,-0.008,-4.08958,7.99599,0.00761,-8.84464,-11.1581,6.3015,-32.16102,-12.71786,1.41328,-5.6426,-5.66863,5.41646
1388,2.77987,-0.0,0.0,-1.08435,0.0,0.0,-4.40234,-5.45724,8.32267,21.60229,-0.06004,-19.85689,-86.54531,-0.51166,0.00828,-33.27425,-3.47124,-0.00155,62.50795,16.29979,9.27046,9.20799,-8.25757,-11.60392,50.551,27.89551,-18.23938,66.46255,-17.48509,43.0145,132.24489,-0.00032,-85.48489,116.29742,0.00739,102.16799,-8.20067,-17.88835,-0.01414,-4.84293,7.59819,0.01199,-8.78567,-11.29365,6.00068,-32.11676,-12.7255,1.08048,-6.18576,-6.14142,5.62721
1389,2.95686,0.0,-0.0,-0.95293,0.0,-0.0,-2.48017,-5.21251,8.97312,21.992,0.09642,-20.03506,-88.78104,-0.26455,-0.00528,-33.9044,-3.29755,-0.00043,63.97649,16.90547,9.44096,8.70213,-9.11932,-11.16334,51.17633,28.10107,-18.77198,67.25391,-17.99191,43.51165,132.22112,0.00076,-85.93769,116.43327,0.00618,100.80376,-8.20099,-17.41567,-0.02454,-5.66045,7.13338,0.01222,-8.76912,-11.457,5.71996,-32.11665,-12.76647,0.75506,-6.76539,-6.57175,5.87206
1390,2.87879,-0.0,0.0,-0.74221,-0.0,-0.0,-0.62913,-4.88717,9.5643,22.42187,0.36847,-20.12825,-90.81561,0.14198,-0.0145,-34.53032,-3.15279,0.00036,65.43537,17.60929,9.73679,8.14174,-9.98289,-10.88041,51.7308,28.3089,-19.28676,68.01615,-18.569,44.00043,132.25349,0.00129,-85.72645,116.56593,0.00305,99.95815,-8.51553,-16.5602,-0.03485,-6.40692,6.70447,0.00832,-8.74873,-11.62282,5.53409,-32.11202,-12.8465,0.5162,-7.3585,-6.95706,6.10843
1391,2.67186,0.0,-0.0,-0.50419,0.0,0.0,1.08309,-4.49878,10.08047,22.8751,0.68332,-20.16549,-92.61745,0.67395,-0.01789,-35.14627,-3.01206,0.00017,66.89017,18.39028,10.14374,7.54945,-10.86618,-10.70101,52.20819,28.53955,-19.76278,68.74711,-19.14669,44.46433,132.36401,0.00095,-85.01008,116.67706,0.00016,99.7397,-9.07227,-15.61623,-0.03568,-6.97652,6.37726,0.003,-8.67189,-11.76335,5.49222,-32.04809,-12.95924,0.42039,-7.94187,-7.31674,6.30309
1392,2.50495,-0.0,-0.0,-0.28856,0.0,-0.0,2.60541,-4.07624,10.53334,23.32064,0.95166,-20.17686,-94.1562,1.30007,-0.01685,-35.75138,-2.83995,-0.00085,68.33155,19.22805,10.65011,6.94403,-11.7886,-10.53779,52.60925,28.80334,-20.17397,69.45219,-19.67018,44.89509,132.54979,0.00025,-84.14843,116.76082,-0.00116,99.99173,-9.67391,-14.87331,-0.02562,-7.33896,6.16544,-0.0011,-8.51201,-11.86366,5.59939,-31.89709,-13.09294,0.47837,-8.50972,-7.67586,6.44714
1393,2.47975,-0.0,-0.0,-0.11645,-0.0,-0.0,3.92904,-3.65054,10.95754,23.7312,1.12365,-20.16772,-95.41196,2.01214,-0.01311,-36.34238,-2.62071,-0.00194,69.73824,20.10874,11.25782,6.32769,-12.76174,-10.33366,52.94436,29.10168,-20.49494,70.14514,-20.11793,45.29604,132.78104,-0.0008,-83.28508,116.82121,-0.001,100.45419,-10.15475,-14.41814,-0.01242,-7.52678,6.04077,-0.00313,-8.28227,-11.92409,5.82246,-31.67207,-13.23506,0.65949,-9.07625,-8.05491,6.55355
1394,2.60499,0.0,-0.0,0.00889,0.0,0.0,5.08371,-3.26144,11.38775,24.10261,1.20993,-20.12506,-96.37222,2.81085,-0.00711,-36.90966,-2.36786,-0.00226,71.09119,21.01881,11.96685,5.6906,-13.78847,-10.08831,53.231,29.42888,-20.71162,70.84415,-20.49717,45.67872,133.02106,-0.00182,-82.3719,116.86234,-0.00016,100.8856,-10.45512,-14.16344,-0.00247,-7.5824,5.95189,-0.00369,-8.02406,-11.95417,6.11077,-31.41511,-13.37465,0.91324,-9.65969,-8.4674,6.63918
1395,2.8164,0.0,-0.0,0.08585,0.0,0.0,6.12098,-2.95739,11.82591,24.45875,1.27197,-20.03261,-97.02882,3.67034,0.00125,-37.43584,-2.12285,-0.00149,72.3894,21.94102,12.7402,5.01951,-14.8592,-9.86033,53.48919,29.77163,-20.82801,71.56209,-20.82842,46.05511,133.24748,-0.00199,-81.4512,116.88058,0.00042,101.08771,-10.59806,-14.01573,0.00278,-7.52682,5.83944,-0.00359,-7.78562,-11.96469,6.41212,-31.17546,-13.50134,1.18715,-10.26435,-8.91432,6.70862
1396,3.05533,0.0,0.0,0.11169,-0.0,0.0,7.08511,-2.77444,12.21843,24.83603,1.36522,-19.89235,-97.37522,4.51663,0.0109,-37.90071,-1.92348,-0.0002,73.64677,22.85821,13.49602,4.30329,-15.95659,-9.7148,53.73536,30.11072,-20.86185,72.29851,-21.1355,46.43259,133.45403,-0.00128,-80.64782,116.86663,-6e-05,100.89325,-10.65809,-13.94129,0.00439,-7.3916,5.65618,-0.00316,-7.60846,-11.9612,6.67659,-30.99555,-13.60084,1.43285,-10.87486,-9.38599,6.75457
1397,3.35906,0.0,-0.0,0.08751,0.0,-0.0,7.98101,-2.70922,12.46054,25.25912,1.48376,-19.73893,-97.40472,5.23512,0.01887,-38.29093,-1.7668,0.00077,74.87499,23.76027,14.13068,3.53831,-17.06669,-9.65485,53.97551,30.42604,-20.83838,73.04159,-21.44143,46.81364,133.64049,-6e-05,-80.03133,116.81681,-0.00169,100.15255,-10.7316,-13.93898,0.00398,-7.25647,5.39734,-0.00231,-7.52331,-11.94333,6.85913,-30.90674,-13.65531,1.6088,-11.46447,-9.871,6.76875
1398,3.84101,-0.0,-0.0,0.0245,-0.0,0.0,8.77199,-2.71296,12.42855,25.72774,1.58962,-19.6182,-97.11658,5.69423,0.02155,-38.60676,-1.62394,0.0011,76.07869,24.64562,14.53171,2.73181,-18.17639,-9.63496,54.20166,30.7008,-20.78739,73.77593,-21.76064,47.1992,133.80716,0.00144,-79.63345,116.74161,-0.00344,98.7884,-10.88398,-14.00806,0.00277,-7.22434,5.11714,-0.0015,-7.54521,-11.91375,6.93236,-30.92495,-13.6566,1.68857,-12.00906,-10.35557,6.74595
1399,4.61206,0.0,0.0,-0.05463,-0.0,0.0,9.40594,-2.72423,12.02871,26.21969,1.66883,-19.55854,-96.52357,5.78792,0.01736,-38.86157,-1.4742,0.00095,77.26353,25.51512,14.59457,1.90032,-19.26461,-9.61409,54.39672,30.92097,-20.73826,74.48744,-22.08674,47.59365,133.95453,0.00304,-79.52167,116.66037,-0.00399,96.93043,-11.09384,-14.13059,0.00133,-7.35928,4.91513,-0.00186,-7.66469,-11.89158,6.90244,-31.04264,-13.62463,1.66996,-12.49613,-10.81844,6.68062
1400,5.74443,-0.0,0.0,-0.12123,0.0,-0.0,9.84468,-2.71589,11.24313,26.70357,1.73073,-19.56976,-95.64955,5.48802,0.00822,-39.07476,-1.30716,0.00051,78.43813,26.36485,14.26435,1.06263,-20.30388,-9.56779,54.54707,31.07175,-20.71489,75.16099,-22.38955,48.00372,134.0806,0.00412,-79.78304,116.58717,-0.00303,94.94961,-11.24744,-14.27228,0.00016,-7.64254,4.8868,-0.00359,-7.84485,-11.9154,6.80872,-31.22616,-13.61011,1.57362,-12.92665,-11.23389,6.5659
1401,7.25049,0.0,0.0,-0.1503,-0.0,-0.0,10.08372,-2.70625,10.14999,27.15419,1.78412,-19.64949,-94.51867,4.85716,-0.00187,-39.26263,-1.11559,-2e-05,79.60471,27.18245,13.56188,0.22923,-21.26971,-9.48456,54.6552,31.13718,-20.73424,75.77505,-22.63196,48.42862,134.17371,0.00378,-80.40238,116.52383,-0.00134,93.27333,-11.20401,-14.377,0.00028,-7.9854,5.04666,-0.00494,-8.03462,-12.02676,6.70086,-31.42778,-13.67043,1.42849,-13.31312,-11.58039,6.39751
1402,9.07459,-0.0,0.0,-0.12867,-0.0,0.0,10.14983,-2.72337,8.90704,27.56226,1.83907,-19.784,-93.14529,4.00743,-0.00987,-39.43441,-0.9018,-0.00044,80.74957,27.94803,12.57069,-0.60132,-22.15089,-9.3729,54.74157,31.10557,-20.80869,76.3045,-22.79799,48.85654,134.20885,0.00208,-81.18103,116.46541,0.00027,92.1524,-10.888,-14.36156,0.00249,-8.31159,5.29303,-0.004,-8.19325,-12.24216,6.60937,-31.6082,-13.83259,1.25589,-13.67344,-11.8496,6.17823
1403,11.11214,0.0,0.0,-0.05378,-0.0,0.0,10.08313,-2.76694,7.71073,27.9324,1.9247,-19.95165,-91.53416,3.04505,-0.0152,-39.59539,-0.68593,-0.00062,81.84054,28.63986,11.4045,-1.43678,-22.95578,-9.26451,54.83108,30.97835,-20.94971,76.73542,-22.9086,49.27716,134.158,0.00049,-81.85832,116.4082,0.00139,91.60098,-10.34824,-14.15099,0.00551,-8.64385,5.47201,-0.00037,-8.30952,-12.53372,6.53253,-31.75389,-14.07026,1.06549,-14.0237,-12.05028,5.91746
1404,13.20763,-0.0,0.0,0.07648,0.0,0.0,9.93199,-2.81153,6.74809,28.27231,2.09063,-20.12467,-89.69141,2.0342,-0.01896,-39.75131,-0.50686,-0.0005,82.83099,29.24534,10.16989,-2.28495,-23.70861,-9.20754,54.93208,30.77666,-21.16588,77.07717,-23.01042,49.69544,134.00841,0.00068,-82.28883,116.3503,0.00199,91.49183,-9.74478,-13.71721,0.006,-9.09478,5.47396,0.00532,-8.401,-12.83533,6.44969,-31.87631,-14.31477,0.86515,-14.37555,-12.20533,5.62745
1405,15.15721,-0.0,0.0,0.26925,0.0,-0.0,9.75654,-2.84484,6.15268,28.5835,2.376,-20.27316,-87.63726,1.00042,-0.02156,-39.90894,-0.40493,-0.00018,83.67242,29.77435,8.94767,-3.14606,-24.43986,-9.23847,55.02542,30.53987,-21.45237,77.35844,-23.14815,50.1282,133.77489,0.00289,-82.4286,116.28738,0.00219,91.69142,-9.26895,-13.07104,0.0019,-9.75454,5.28253,0.01081,-8.4922,-13.07438,6.35142,-31.9925,-14.49584,0.67611,-14.73321,-12.34652,5.32341
1406,16.75734,0.0,-0.0,0.52703,0.0,-0.0,9.61958,-2.89806,5.97812,28.86055,2.77173,-20.37515,-85.41037,-0.0347,-0.02193,-40.07211,-0.39513,0.00018,84.33179,30.26268,7.80012,-4.00788,-25.17665,-9.3497,55.07627,30.31594,-21.78404,77.61113,-23.34526,50.5844,133.50005,0.00519,-82.30454,116.21439,0.00193,92.12729,-9.03901,-12.26313,-0.00481,-10.57756,4.98018,0.01241,-8.58846,-13.20847,6.26093,-32.10302,-14.58366,0.53737,-15.09049,-12.50791,5.02728
1407,17.90265,-0.0,0.0,0.82996,0.0,-0.0,9.5554,-3.03284,6.19665,29.09755,3.21915,-20.42255,-83.05724,-1.03636,-0.01942,-40.23648,-0.46362,0.00041,84.80133,30.75544,6.7712,-4.85319,-25.93237,-9.49877,55.06109,30.14704,-22.12303,77.85479,-23.60561,51.0484,133.24205,0.00534,-82.13393,116.13365,0.00087,92.69218,-9.03171,-11.42734,-0.00952,-11.37553,4.70263,0.00885,-8.66953,-13.24277,6.22041,-32.1878,-14.59937,0.48585,-15.43574,-12.71429,4.76445
1408,18.68422,0.0,0.0,1.13024,-0.0,0.0,9.53457,-3.28909,6.7157,29.295,3.64553,-20.42117,-80.61306,-1.97033,-0.01478,-40.38906,-0.58777,0.00047,85.09284,31.28251,5.87764,-5.6737,-26.70144,-9.64848,54.98779,30.05685,-22.43489,78.09196,-23.92717,51.48505,133.05313,0.00404,-82.27269,116.05846,-0.00105,93.13826,-9.1077,-10.77207,-0.01024,-11.93858,4.54812,0.00319,-8.70839,-13.21702,6.24746,-32.22389,-14.58626,0.52142,-15.76114,-12.97156,4.55367
1409,19.35749,0.0,-0.0,1.3756,-0.0,-0.0,9.46991,-3.63915,7.40461,29.4603,3.99018,-20.39316,-78.09415,-2.81266,-0.00912,-40.51511,-0.74454,0.00036,85.22032,31.85288,5.12072,-6.47477,-27.46797,-9.77456,54.89354,30.04496,-22.70231,78.31628,-24.31431,51.8634,132.96056,0.00359,-82.93582,116.0098,-0.0028,93.17786,-9.1049,-10.48176,-0.00972,-12.18489,4.51511,-0.00101,-8.69549,-13.17446,6.30377,-32.20635,-14.5691,0.59091,-16.0674,-13.27024,4.40524
1410,20.20345,0.0,0.0,1.54861,0.0,0.0,9.25897,-3.99658,8.13498,29.60307,4.2144,-20.37634,-75.50667,-3.54608,-0.00333,-40.60654,-0.90557,0.00015,85.18825,32.46696,4.50627,-7.26559,-28.22095,-9.84329,54.82217,30.09114,-22.92988,78.52336,-24.78448,52.17595,132.96248,0.00422,-84.03911,116.01283,-0.0031,92.67995,-8.91156,-10.61659,-0.01081,-12.20484,4.50879,-0.00224,-8.64558,-13.13802,6.31332,-32.15263,-14.5394,0.61473,-16.35822,-13.59696,4.32817
1411,21.37447,0.0,0.0,1.68221,0.0,0.0,8.82713,-4.2728,8.8309,29.73217,4.32037,-20.40635,-72.86016,-4.16103,0.0014,-40.66397,-1.04467,-5e-05,84.9937,33.12153,4.04551,-8.04896,-28.96354,-9.82068,54.79679,30.16804,-23.1362,78.71391,-25.36728,52.44228,133.03702,0.00408,-85.24861,116.09627,-0.00181,91.76011,-8.49343,-11.07058,-0.01228,-12.19507,4.40384,0.00025,-8.58365,-13.11078,6.21901,-32.08827,-14.47779,0.53895,-16.63023,-13.94153,4.32985
1412,22.73956,0.0,0.0,1.83306,0.0,-0.0,8.15666,-4.42171,9.49712,29.854,4.35647,-20.49174,-70.17688,-4.66367,0.00356,-40.69411,-1.15068,-0.00016,84.63453,33.80656,3.73997,-8.81878,-29.71277,-9.7022,54.80531,30.25538,-23.33629,78.88644,-26.09335,52.70127,133.1562,0.00215,-86.20131,116.28912,-0.00028,90.70498,-7.88374,-11.62747,-0.01104,-12.36073,4.11846,0.00678,-8.52586,-13.09268,6.029,-32.02923,-14.38738,0.37117,-16.86974,-14.29625,4.40853
1413,23.89542,0.0,0.0,2.0406,-0.0,0.0,7.26742,-4.44284,10.19234,29.96931,4.39609,-20.6009,-67.49098,-5.07727,0.00228,-40.70768,-1.23202,-0.00017,84.11645,34.50857,3.56844,-9.5613,-30.48968,-9.52262,54.807,30.34644,-23.52727,79.02733,-26.97803,52.99755,133.29669,-0.00054,-86.77344,116.61034,0.0002,89.77744,-7.14428,-12.09904,-0.00678,-12.8132,3.6462,0.01481,-8.47541,-13.09143,5.81437,-31.97906,-14.30287,0.17381,-17.06005,-14.6502,4.55183
1414,24.41096,-0.0,-0.0,2.30861,0.0,0.0,6.1494,-4.36299,10.95692,30.07206,4.50406,-20.67506,-64.83713,-5.43181,-0.00143,-40.71683,-1.30683,-0.00012,83.45591,35.2205,3.48762,-10.25974,-31.30428,-9.33222,54.75707,30.44496,-23.68912,79.11066,-28.01447,53.36865,133.44409,-0.00244,-87.08677,117.05598,7e-05,89.0719,-6.33695,-12.41993,-0.00238,-13.49475,3.05289,0.01881,-8.4376,-13.11745,5.66287,-31.94399,-14.26788,0.02347,-17.192,-14.98432,4.74306
1415,24.01353,0.0,0.0,2.61227,0.0,0.0,4.72898,-4.22138,11.74743,30.15335,4.70123,-20.66685,-62.23662,-5.74704,-0.00439,-40.73124,-1.38144,-8e-05,82.67474,35.94711,3.45523,-10.89993,-32.14906,-9.15356,54.6338,30.55793,-23.80345,79.11307,-29.1823,53.84236,133.59282,-0.00254,-87.33443,117.59229,0.00113,88.51868,-5.5228,-12.64825,-0.00075,-14.20474,2.44836,0.01534,-8.43547,-13.17323,5.62596,-31.94753,-14.30469,-0.0335,-17.26681,-15.27603,4.96963
1416,22.54346,-0.0,-0.0,2.91218,0.0,0.0,2.91583,-4.07764,12.42321,30.20794,4.9665,-20.56264,-59.68902,-6.01336,-0.0023,-40.75231,-1.45311,-0.0001,81.7829,36.6983,3.47135,-11.4778,-33.00815,-8.98279,54.4504,30.69322,-23.87906,79.03378,-30.46319,54.44514,133.74419,-0.00055,-87.74731,118.161,0.00431,87.96102,-4.77174,-12.90989,-0.00182,-14.72905,1.9172,0.00678,-8.50589,-13.25163,5.69649,-32.02597,-14.40397,-0.0008,-17.2925,-15.51384,5.22589
1417,19.88759,-0.0,0.0,3.17048,0.0,-0.0,0.67076,-4.02814,12.7836,30.23648,5.2752,-20.37197,-57.16992,-6.18672,0.00719,-40.76877,-1.5328,-0.00028,80.76455,37.47709,3.59489,-12.00574,-33.86922,-8.8318,54.24415,30.86773,-23.95792,78.90281,-31.85398,55.2113,133.90248,0.00262,-88.55527,118.70222,0.00777,87.28368,-4.17071,-13.30204,-0.00249,-14.9595,1.47688,-0.00179,-8.67756,-13.34402,5.82775,-32.20712,-14.53968,0.08207,-17.27822,-15.7061,5.51101
1418,16.07358,-0.0,0.0,3.36898,0.0,0.0,-1.97636,-4.18166,12.63682,30.24057,5.61575,-20.11297,-54.63483,-6.21835,0.02136,-40.75939,-1.64038,-0.00064,79.58152,38.2789,3.90138,-12.50695,-34.72741,-8.72851,54.05074,31.11921,-24.08636,78.7705,-33.37075,56.18475,134.07227,0.00482,-89.77692,119.18519,0.00839,86.55772,-3.8062,-13.82288,-0.00041,-14.91405,1.12388,-0.00683,-8.95041,-13.44669,5.97606,-32.49052,-14.69142,0.17641,-17.22798,-15.87318,5.83001
1419,11.3953,0.0,0.0,3.51398,0.0,-0.0,-4.943,-4.58965,11.89029,30.21757,5.97694,-19.80613,-52.03141,-6.10619,0.03253,-40.70254,-1.77695,-0.00106,78.18837,39.10555,4.4148,-12.99695,-35.584,-8.67051,53.87875,31.50653,-24.27386,78.68932,-35.04159,57.41815,134.26015,0.00405,-91.1213,119.62156,0.00497,86.02193,-3.71974,-14.39208,0.00334,-14.68851,0.88666,-0.00721,-9.29131,-13.55774,6.13427,-32.84287,-14.85467,0.27638,-17.13546,-16.03097,6.19835
1420,6.38135,0.0,-0.0,3.62335,0.0,-0.0,-8.09115,-5.185,10.62726,30.16148,6.33987,-19.47247,-49.32072,-5.92383,0.03217,-40.58344,-1.91208,-0.00123,76.55459,39.97471,5.07109,-13.46536,-36.44141,-8.59746,53.69383,32.09383,-24.47161,78.70238,-36.89392,58.97316,134.48091,0.0001,-92.17499,120.05228,-0.00147,85.89289,-3.87039,-14.91391,0.00588,-14.40011,0.81098,-0.00361,-9.64607,-13.67101,6.33248,-33.20923,-15.0355,0.41229,-16.97803,-16.17592,6.64017
1421,1.64543,-0.0,-0.0,3.71767,-0.0,0.0,-11.20257,-5.78215,9.10708,30.0658,6.68504,-19.13153,-46.49858,-5.79403,0.01712,-40.39263,-1.99751,-0.0008,74.68323,40.90715,5.74042,-13.88034,-37.29551,-8.41982,53.41869,32.92664,-24.5843,78.84147,-38.94569,60.91427,134.76292,-0.00495,-92.68902,120.52374,-0.00889,86.21792,-4.13221,-15.31655,0.00576,-14.12927,0.91532,0.0024,-9.96001,-13.77823,6.6095,-33.53377,-15.24138,0.62341,-16.71813,-16.27846,7.1732
1422,-2.24909,0.0,0.0,3.81928,0.0,-0.0,-13.97735,-6.14636,7.66486,29.92404,7.00107,-18.79714,-43.60255,-5.82041,-0.00723,-40.12152,-1.99537,0.00031,72.60858,41.90155,6.29044,-14.21905,-38.12868,-8.08092,52.95387,34.01285,-24.51208,79.13329,-41.20219,63.29544,135.14116,-0.00735,-92.73484,121.06912,-0.01494,86.8854,-4.35048,-15.55418,0.00407,-13.87953,1.17577,0.00927,-10.19925,-13.87893,6.98103,-33.78204,-15.47798,0.92452,-16.32172,-16.28918,7.79211
1423,-4.88358,-0.0,-0.0,3.94422,0.0,0.0,-16.09765,-6.09441,6.57116,29.73107,7.28653,-18.47465,-40.69757,-6.02768,-0.0299,-39.7634,-1.90116,0.00175,70.38264,42.92089,6.64139,-14.48923,-38.90767,-7.59877,52.21695,35.31978,-24.19894,79.61121,-43.65293,66.15035,135.63773,-0.00396,-92.62762,121.69704,-0.01737,87.71445,-4.43259,-15.60043,0.00268,-13.58628,1.53243,0.0149,-10.36339,-13.98623,7.42864,-33.95469,-15.75015,1.29335,-15.77753,-16.15488,8.4667
1424,-6.0666,-0.0,0.0,4.09387,0.0,-0.0,-17.34982,-5.5787,5.9482,29.48737,7.54668,-18.16516,-37.84822,-6.35205,-0.04152,-39.31816,-1.74526,0.00293,68.07103,43.90017,6.77354,-14.71861,-39.58805,-7.05705,51.18325,36.78995,-23.65498,80.32154,-46.26685,69.4877,136.24477,0.00432,-92.68667,122.38473,-0.01498,88.51946,-4.39292,-15.46684,0.00206,-13.13658,1.88065,0.01525,-10.48393,-14.12033,7.91128,-34.08546,-16.06045,1.68366,-15.09692,-15.83531,9.15462
1425,-5.90218,0.0,0.0,4.25171,0.0,0.0,-17.73408,-4.72097,5.78688,29.2037,7.78614,-17.87378,-35.09449,-6.67875,-0.03931,-38.7936,-1.5748,0.00335,65.75191,44.76912,6.69796,-14.93145,-40.12422,-6.55947,49.90277,38.36483,-22.94214,81.31306,-48.99372,73.28933,136.92201,0.01196,-93.01783,123.07766,-0.00903,89.15913,-4.32322,-15.22276,0.00152,-12.39108,2.07164,0.00446,-10.60952,-14.29454,8.38486,-34.22513,-16.40394,2.04913,-14.30337,-15.31342,9.81791
1426,-4.79963,0.0,0.0,4.38335,0.0,-0.0,-17.48026,-3.78106,6.02893,28.90257,8.00038,-17.61442,-32.4444,-6.89515,-0.02693,-38.2049,-1.4326,0.0029,63.50393,45.47667,6.43144,-15.1324,-40.48151,-6.17957,48.47855,40.00209,-22.13741,82.61667,-51.77929,77.51715,137.60954,0.01364,-93.47633,123.69951,-0.00247,89.59126,-4.31966,-14.97397,0.00079,-11.25449,1.95983,-0.02076,-10.78446,-14.50537,8.81639,-34.4185,-16.76461,2.36053,-13.42458,-14.59917,10.43466
1427,-3.35066,0.0,0.0,4.44884,0.0,-0.0,-16.95187,-3.06107,6.62847,28.6135,8.17814,-17.40596,-29.88432,-6.92942,-0.01072,-37.57744,-1.34662,0.00178,61.3927,46.00265,5.99754,-15.29458,-40.64804,-5.93466,47.01702,41.67979,-21.29482,84.23607,-54.58488,82.1294,138.24883,0.00923,-93.81769,124.16885,0.00294,89.87229,-4.41149,-14.80956,0.0003,-9.74137,1.47886,-0.05459,-11.0274,-14.73322,9.18589,-34.68277,-17.11672,2.60739,-12.48327,-13.72895,11.00193
1428,-2.06259,-0.0,-0.0,4.42327,0.0,0.0,-16.49148,-2.77099,7.52949,28.36324,8.31715,-17.26058,-27.39761,-6.75884,0.00414,-36.94872,-1.33294,0.0004,59.46625,46.34977,5.44127,-15.35862,-40.63913,-5.79714,45.58219,43.38946,-20.42596,86.15895,-57.39325,87.09666,138.80153,0.00277,-93.88725,124.41533,0.00778,90.10345,-4.54854,-14.75544,0.00013,-7.95659,0.70649,-0.08189,-11.31785,-14.95065,9.47737,-34.99479,-17.42896,2.78623,-11.48929,-12.75936,11.52924
1429,-1.1234,-0.0,-0.0,4.31845,0.0,-0.0,-16.29324,-2.92362,8.60147,28.16426,8.426,-17.18246,-24.9781,-6.39602,0.0152,-36.35865,-1.39732,-0.00077,57.74883,46.52568,4.82727,-15.26592,-40.48635,-5.7196,44.18037,45.12471,-19.50466,88.37904,-60.19637,92.40995,139.25858,-0.00218,-93.68613,124.39265,0.01343,90.38484,-4.66079,-14.7663,-6e-05,-6.02458,-0.1244,-0.08709,-11.59719,-15.13243,9.67175,-35.2933,-17.67084,2.88994,-10.45134,-11.75234,12.02533
1430,-0.43219,0.0,-0.0,4.18481,0.0,-0.0,-16.37543,-3.33852,9.64287,28.00887,8.50741,-17.17547,-22.62666,-5.87181,0.02254,-35.83217,-1.53372,-0.00148,56.22239,46.53538,4.22639,-15.00749,-40.22012,-5.65242,42.77119,46.87486,-18.47812,90.91084,-62.97636,98.07747,139.64005,-0.00498,-93.2971,124.08942,0.01945,90.76665,-4.72234,-14.76669,-0.00035,-4.03131,-0.69053,-0.06406,-11.78748,-15.26316,9.75514,-35.49869,-17.82289,2.91213,-9.40259,-10.75986,12.48853
1431,0.12019,0.0,0.0,4.07425,0.0,-0.0,-16.65871,-3.77283,10.48919,27.87649,8.55187,-17.23904,-20.33268,-5.22447,0.0274,-35.37151,-1.73166,-0.00183,54.8143,46.39212,3.7111,-14.63511,-39.86201,-5.5581,41.28188,48.62781,-17.26909,93.78403,-65.6936,104.11153,139.98759,-0.00653,-92.79269,123.53285,0.0223,91.20057,-4.75448,-14.70855,-0.00052,-2.0101,-0.68541,-0.01914,-11.82294,-15.34077,9.73636,-35.54459,-17.88667,2.8619,-8.40684,-9.81699,12.90912
1432,0.40212,0.0,0.0,4.00056,-0.0,0.0,-17.07561,-4.08326,11.13345,27.74962,8.54558,-17.3614,-18.06114,-4.49864,0.03048,-34.9634,-1.98234,-0.00203,53.42329,46.13003,3.33955,-14.22974,-39.42433,-5.41774,39.62019,50.37459,-15.78149,97.01356,-68.28907,110.50503,140.34311,-0.00724,-92.22166,122.7725,0.01733,91.55246,-4.77836,-14.59256,-0.0003,0.01598,0.08066,0.03143,-11.67982,-15.37288,9.65183,-35.40733,-17.88327,2.76991,-7.53502,-8.94061,13.27421
1433,0.0553,0.0,0.0,3.94946,0.0,0.0,-17.62355,-4.28269,11.74049,27.62497,8.48208,-17.52588,-15.7626,-3.75115,0.03061,-34.59323,-2.27613,-0.0021,51.97476,45.8024,3.1227,-13.85966,-38.90881,-5.22431,37.69768,52.10719,-13.92909,100.54381,-70.70023,117.18559,140.71915,-0.00644,-91.64527,121.8437,0.00209,91.68214,-4.77828,-14.44055,0.00054,1.98389,1.62536,0.06821,-11.38735,-15.36663,9.54612,-35.1161,-17.83653,2.67453,-6.83156,-8.13101,13.56768
1434,-1.2816,0.0,0.0,3.93564,0.0,-0.0,-18.33111,-4.47173,12.53954,27.50967,8.3663,-17.73001,-13.4032,-3.05456,0.02545,-34.25739,-2.59407,-0.00184,50.46198,45.46925,3.00985,-13.55637,-38.30614,-4.96464,35.46281,53.81004,-11.67893,104.17585,-72.88692,123.94417,141.08417,-0.0036,-91.14958,120.73667,-0.02232,91.52401,-4.71015,-14.26117,0.00198,3.80039,3.81377,0.0793,-11.01226,-15.32117,9.44131,-34.7371,-17.75424,2.59655,-6.29731,-7.37701,13.7704
1435,-3.76645,0.0,0.0,4.03308,0.0,0.0,-19.18264,-4.74221,13.67615,27.40969,8.20593,-17.99867,-10.99524,-2.48817,0.01391,-33.96513,-2.89952,-0.00115,48.946,45.18193,2.91772,-13.32506,-37.60062,-4.61189,32.92546,55.44956,-9.08192,107.52944,-74.85976,130.38701,141.37885,0.00069,-90.8231,119.39903,-0.05102,91.11208,-4.53692,-14.05396,0.00347,5.3973,6.43054,0.0665,-10.62617,-15.23128,9.32177,-34.34166,-17.62555,2.52369,-5.90386,-6.6629,13.86215
1436,-7.26949,0.0,0.0,4.31632,0.0,0.0,-20.08652,-5.13061,15.11986,27.32844,8.0105,-18.36271,-8.60809,-2.11532,-0.00151,-33.72998,-3.14951,-0.00025,47.5238,44.97163,2.78804,-13.16771,-36.78228,-4.15523,30.15596,56.96969,-6.27118,110.10085,-76.68859,135.9807,141.55176,0.00507,-90.71238,117.76843,-0.07475,90.56451,-4.26559,-13.84069,0.00398,6.76748,9.24764,0.04135,-10.27698,-15.09819,9.14997,-33.97858,-17.43702,2.42059,-5.62029,-5.97693,13.82766
1437,-11.34486,-0.0,-0.0,4.76303,0.0,-0.0,-20.93076,-5.62835,16.67835,27.27612,7.79659,-18.81687,-6.35331,-1.95886,-0.0153,-33.55917,-3.32002,0.00044,46.2905,44.84719,2.61799,-13.08589,-35.86064,-3.63469,27.25914,58.30157,-3.42359,111.36446,-78.47176,140.15175,141.58624,0.00848,-90.77144,115.80418,-0.0812,90.07219,-3.95536,-13.67375,0.00274,7.95202,12.0646,0.0161,-9.98034,-14.93608,8.90033,-33.66578,-17.19168,2.25756,-5.4256,-5.31789,13.66819
1438,-15.3132,0.0,0.0,5.23979,-0.0,-0.0,-21.65516,-6.2195,18.09832,27.26988,7.57406,-19.30861,-4.35645,-1.99178,-0.02232,-33.44697,-3.41233,0.00071,45.31099,44.80154,2.42687,-13.07112,-34.86737,-3.12534,24.3445,59.38287,-0.70666,110.74647,-80.28127,142.27119,141.4991,0.00999,-90.91631,113.49462,-0.06148,89.87209,-3.66935,-13.61118,-0.00014,9.01439,14.71374,-0.00132,-9.7317,-14.76827,8.58133,-33.40132,-16.91418,2.03268,-5.30757,-4.69332,13.41074
1439,-18.56896,0.0,-0.0,5.60744,-0.0,0.0,-22.24244,-6.90521,19.17914,27.31637,7.33353,-19.76735,-2.73329,-2.15212,-0.02109,-33.37285,-3.44122,0.0006,44.61019,44.82146,2.19567,-13.10594,-33.84198,-2.69259,21.51898,60.17382,1.74771,107.33423,-82.12023,141.37593,141.31935,0.00773,-91.20554,110.84557,-0.01797,90.15967,-3.41458,-13.69654,-0.00404,10.04667,17.04741,-0.00797,-9.52563,-14.61582,8.23,-33.18153,-16.63815,1.77148,-5.26005,-4.10963,13.10491
1440,-20.85545,-0.0,-0.0,5.81326,0.0,0.0,-22.66755,-7.68886,19.81908,27.40122,7.06946,-20.13707,-1.57692,-2.37368,-0.01407,-33.3041,-3.43204,0.00031,44.18876,44.89004,1.85465,-13.17545,-32.81239,-2.38623,18.90294,60.66182,3.82987,99.21189,-83.89919,135.50912,141.0661,-0.00012,-91.90951,107.87193,0.03581,90.98978,-3.1421,-13.94785,-0.008,11.17044,18.95341,-0.00651,-9.36845,-14.4845,7.89018,-33.01269,-16.38592,1.51216,-5.27775,-3.56382,12.80327
1441,-22.23517,0.0,0.0,5.86868,0.0,-0.0,-22.89323,-8.53948,19.98661,27.50038,6.80043,-20.39626,-0.95109,-2.61108,-0.00551,-33.20435,-3.4162,6e-05,44.03971,44.98119,1.34536,-13.27341,-31.791,-2.24775,16.63692,60.8586,5.43517,82.40614,-85.37659,120.66536,140.73862,-0.0121,-93.28434,104.59767,0.08425,92.26747,-2.81237,-14.32148,-0.01018,12.48221,20.3874,-0.00381,-9.27744,-14.35764,7.59474,-32.90976,-16.15497,1.2921,-5.34903,-3.04792,12.53911
1442,-22.9378,-0.0,0.0,5.79432,0.0,-0.0,-22.88952,-9.38087,19.68549,27.59196,6.54115,-20.56805,-0.88675,-2.8408,0.00071,-33.047,-3.40746,-2e-05,44.13083,45.0605,0.70392,-13.40334,-30.78836,-2.27335,14.85061,60.79767,6.4834,53.45083,-86.0177,93.35457,140.32275,-0.02202,-95.23463,101.0533,0.1172,93.82507,-2.4579,-14.68994,-0.00905,13.98441,21.37013,-0.00566,-9.26872,-14.20162,7.35915,-32.88509,-15.92053,1.1395,-5.46221,-2.56189,12.32307
1443,-23.22919,0.0,0.0,5.60028,0.0,-0.0,-22.64555,-10.12394,18.95358,27.65871,6.2811,-20.69844,-1.38074,-3.04134,0.00183,-32.82224,-3.39648,9e-05,44.37799,45.09498,0.08736,-13.58267,-29.82436,-2.39939,13.61034,60.53172,6.96352,23.71272,-85.3258,64.93101,139.81033,-0.02303,-97.2825,97.27106,0.12982,95.49462,-2.15727,-14.91415,-0.00562,15.56363,21.9476,-0.01284,-9.34315,-13.98387,7.18236,-32.93624,-15.65234,1.06683,-5.621,-2.11949,12.15436
1444,-23.25907,-0.0,0.0,5.28177,-0.0,0.0,-22.19103,-10.70152,17.87908,27.69201,6.01635,-20.81235,-2.39251,-3.17946,-0.00327,-32.53192,-3.37948,0.00024,44.66483,45.0606,-0.28972,-13.83652,-28.92234,-2.56055,12.89254,60.12453,6.95256,5.94017,-83.64601,48.14828,139.21552,-0.01416,-98.92269,93.29067,0.11857,97.12337,-1.94558,-14.9592,-0.00259,17.02881,22.1646,-0.02089,-9.48096,-13.69207,7.05118,-33.04267,-15.33395,1.06681,-5.84162,-1.74083,12.02718
1445,-23.03919,0.0,0.0,4.84229,-0.0,0.0,-21.59504,-11.06046,16.62012,27.69209,5.76536,-20.91013,-3.84072,-3.22778,-0.0125,-32.18189,-3.36634,0.00033,44.89898,44.94502,-0.271,-14.17611,-28.09389,-2.7253,12.60826,59.63894,6.585,-2.84551,-81.51477,40.05406,138.57225,-0.00123,-99.94122,89.17634,0.08223,98.56341,-1.77768,-14.91938,-0.00162,18.19368,22.08832,-0.02402,-9.64969,-13.34152,6.94468,-33.1743,-14.97122,1.11352,-6.13096,-1.43938,11.93008
1446,-22.56929,0.0,0.0,4.33074,0.0,-0.0,-20.92034,-11.13549,15.40299,27.66041,5.53953,-20.99555,-5.61037,-3.20218,-0.02017,-31.7811,-3.35955,0.00036,45.0424,44.7495,0.16323,-14.58421,-27.33448,-2.87676,12.65506,59.12661,6.00341,-7.04894,-79.20118,36.28712,137.91618,0.0085,-100.42599,85.02555,0.02673,99.68948,-1.55469,-14.92733,-0.00274,18.95147,21.84186,-0.02078,-9.81819,-12.96781,6.83714,-33.30434,-14.58676,1.16836,-6.47343,-1.21768,11.84663
1447,-21.84728,0.0,0.0,3.82288,-0.0,0.0,-20.18668,-10.85918,14.46593,27.5994,5.33992,-21.06812,-7.57769,-3.17863,-0.02017,-31.34406,-3.35779,0.00017,45.09182,44.48774,0.91284,-15.02171,-26.63595,-3.02114,12.94995,58.62258,5.32741,-8.9925,-76.82491,34.57113,137.26891,0.01147,-100.61035,80.9548,-0.03474,100.42028,-1.17053,-15.03828,-0.00444,19.28864,21.58907,-0.01498,-9.96405,-12.61304,6.70304,-33.41504,-14.20925,1.19037,-6.84016,-1.0742,11.75895
1448,-20.77527,0.0,0.0,3.36021,0.0,-0.0,-19.37059,-10.21006,13.97587,27.5209,5.18677,-21.1008,-9.64768,-3.26446,-0.01036,-30.89091,-3.37541,-0.00036,45.05433,44.17818,1.82636,-15.44033,-25.99844,-3.2097,13.42735,58.14326,4.643,-9.8629,-74.44067,33.74878,136.63852,0.00893,-100.71669,77.07053,-0.08252,100.73566,-0.59183,-15.18953,-0.00431,19.26124,21.45817,-0.0109,-10.07119,-12.31492,6.5267,-33.49397,-13.86724,1.14976,-7.20343,-1.00815,11.65066
1449,-19.19056,0.0,0.0,2.92663,0.0,-0.0,-18.42499,-9.25591,13.98038,27.44563,5.11818,-21.06035,-11.78128,-3.54177,0.00587,-30.44365,-3.42968,-0.00096,44.95233,43.83094,2.75866,-15.78755,-25.42963,-3.50272,14.02632,57.68737,4.00148,-10.28685,-72.07252,33.19691,136.03419,0.00461,-100.85629,73.44613,-0.09576,100.74714,0.08499,-15.26423,-0.00167,18.97111,21.44676,-0.00896,-10.12658,-12.09964,6.31191,-33.5301,-13.58626,1.03951,-7.5389,-1.01579,11.50883
1450,-17.02,-0.0,0.0,2.48249,0.0,0.0,-17.31099,-8.15044,14.40492,27.3868,5.15247,-20.94584,-13.98985,-4.02283,0.02168,-30.02109,-3.51184,-0.00116,44.82592,43.4369,3.61496,-16.01687,-24.93841,-3.9086,14.69029,57.24035,3.42615,-10.57312,-69.73054,32.59555,135.47876,0.00146,-101.02337,70.11854,-0.07049,100.71269,0.68506,-15.18698,0.00107,18.52465,21.41695,-0.00695,-10.12424,-11.97592,6.0845,-33.51751,-13.3844,0.88013,-7.82745,-1.08797,11.32702
1451,-14.37425,0.0,-0.0,2.01054,0.0,-0.0,-16.03301,-7.07601,15.06768,27.33444,5.2639,-20.79231,-16.30193,-4.64339,0.03024,-29.63511,-3.5874,-0.00084,44.70969,42.97114,4.38292,-16.10541,-24.52788,-4.37212,15.37443,56.78119,2.92332,-10.83377,-67.42075,31.82729,135.00238,0.00022,-101.16971,67.10108,-0.02684,100.87076,1.06558,-14.95569,0.00146,17.98651,21.21272,-0.00383,-10.07212,-11.93217,5.88722,-33.46237,-13.26763,0.71594,-8.06546,-1.21222,11.10959
1452,-11.49094,0.0,0.0,1.53155,0.0,-0.0,-14.65894,-6.17343,15.70931,27.25715,5.40137,-20.63705,-18.72947,-5.29213,0.02814,-29.28734,-3.62791,-0.00029,44.61751,42.41216,5.12677,-16.05578,-24.18583,-4.81943,16.04578,56.2898,2.49775,-11.06518,-65.15223,30.91119,134.62386,0.00015,-101.27286,64.39809,0.00996,101.27362,1.18728,-14.60173,-0.00042,17.3755,20.76973,-0.00062,-9.98963,-11.94169,5.76514,-33.38132,-13.22895,0.59943,-8.26507,-1.37114,10.87186
1453,-8.64168,-0.0,-0.0,1.0912,0.0,-0.0,-13.30185,-5.507,16.06765,27.11908,5.52401,-20.49297,-21.25465,-5.86123,0.01765,-28.96812,-3.63514,0.00012,44.55677,41.76157,5.92538,-15.8791,-23.87742,-5.20126,16.67439,55.75263,2.16723,-11.21613,-62.94096,29.93779,134.34346,0.00047,-101.34534,62.01157,0.02915,101.83201,1.11008,-14.15237,-0.00275,16.70519,20.11309,0.00113,-9.89279,-11.97468,5.74059,-33.28767,-13.24968,0.56333,-8.43969,-1.53588,10.63335
1454,-6.1193,-0.0,-0.0,0.74025,-0.0,0.0,-12.06386,-5.07456,15.99583,26.89701,5.60552,-20.36587,-23.83659,-6.29808,0.00561,-28.66167,-3.62761,0.00035,44.54283,41.04901,6.78328,-15.58117,-23.55003,-5.47964,17.23292,55.16456,1.9587,-11.24652,-60.80816,28.99934,134.15497,0.00073,-101.41299,59.94289,0.03297,102.46371,0.93504,-13.64642,-0.00384,16.01934,19.29211,0.0008,-9.77878,-12.00963,5.79131,-33.17673,-13.30146,0.59586,-8.59321,-1.66509,10.4117
1455,-4.20819,0.0,0.0,0.51325,0.0,0.0,-10.9934,-4.83888,15.53235,26.58761,5.61685,-20.28285,-26.427,-6.62321,-0.00181,-28.35359,-3.61194,0.00053,44.59037,40.31519,7.59902,-15.16301,-23.15347,-5.59722,17.70911,54.52911,1.88551,-11.16093,-58.77276,28.13916,134.05853,0.0007,-101.47729,58.19666,0.02505,103.10284,0.74319,-13.16809,-0.00318,15.36329,18.364,-0.00083,-9.62534,-12.0389,5.85882,-33.02575,-13.35454,0.64618,-8.71921,-1.71877,10.22003
1456,-3.04754,0.0,0.0,0.40608,0.0,-0.0,-10.09654,-4.75726,14.83825,26.20422,5.5359,-20.27535,-28.98837,-6.8899,-0.004,-28.03411,-3.58309,0.00064,44.70089,39.58009,8.24416,-14.62756,-22.66571,-5.50989,18.11221,53.85983,1.93223,-11.00421,-56.84258,27.34572,134.05878,2e-05,-101.47014,56.78255,0.00964,103.62063,0.56108,-12.8322,-0.0014,14.7268,17.41452,-0.00192,-9.4077,-12.06847,5.89095,-32.81076,-13.39416,0.66375,-8.80022,-1.68039,10.06027
1457,-2.53263,0.0,0.0,0.36846,0.0,-0.0,-9.37317,-4.79874,14.06083,25.76935,5.37573,-20.33644,-31.50711,-7.12084,-0.00502,-27.69847,-3.54742,0.00057,44.86484,38.82154,8.67638,-13.98541,-22.10376,-5.25454,18.4632,53.17967,2.06404,-10.83289,-55.01125,26.58378,134.15005,-0.00152,-101.2695,55.70961,-0.00507,103.89936,0.36257,-12.71887,0.00052,14.05456,16.51763,-0.00082,-9.12085,-12.11344,5.88207,-32.52821,-13.43199,0.6372,-8.80936,-1.56617,9.91328
1458,-2.39493,0.0,0.0,0.32544,0.0,-0.0,-8.83297,-4.94679,13.26189,25.30827,5.17787,-20.41982,-33.98967,-7.29236,-0.00795,-27.34736,-3.52531,0.00027,45.06139,37.98804,8.96074,-13.26469,-21.51139,-4.94698,18.77946,52.51426,2.25006,-10.68931,-53.2645,25.83317,134.30606,-0.00322,-100.79388,54.98,-0.01278,103.95416,0.10706,-12.82246,0.00169,13.29546,15.6867,0.0027,-8.79042,-12.18906,5.87189,-32.20501,-13.49743,0.59691,-8.72817,-1.41209,9.73985
1459,-2.38972,0.0,0.0,0.22067,0.0,0.0,-8.48701,-5.19772,12.45284,24.8439,4.97445,-20.48306,-36.44318,-7.37965,-0.01156,-26.98874,-3.53009,-9e-05,45.25498,37.03932,9.19021,-12.50786,-20.93429,-4.69872,19.06582,51.8829,2.47894,-10.59371,-51.58984,25.10707,134.48674,-0.00373,-100.08144,54.58956,-0.01331,103.87569,-0.22147,-13.05899,0.00126,12.4157,14.90935,0.00706,-8.46285,-12.29945,5.90683,-31.88787,-13.6123,0.58401,-8.5621,-1.25236,9.50124
1460,-2.42745,0.0,0.0,0.05437,0.0,0.0,-8.33886,-5.56054,11.64853,24.39176,4.77233,-20.51347,-38.85978,-7.39925,-0.01263,-26.63771,-3.55843,-0.00032,45.40884,35.98072,9.41318,-11.74499,-20.39913,-4.55119,19.32049,51.29525,2.75091,-10.54977,-49.98065,24.44168,134.65633,-0.00247,-99.27436,54.52722,-0.00928,103.71889,-0.6134,-13.32202,-0.00088,11.40791,14.19883,0.00954,-8.17957,-12.43232,6.00157,-31.61707,-13.771,0.61702,-8.32986,-1.10643,9.18549
1461,-2.55583,0.0,0.0,-0.11717,0.0,0.0,-8.39123,-6.04801,10.8566,23.9584,4.57022,-20.51322,-41.21507,-7.39897,-0.00977,-26.30945,-3.60257,-0.00043,45.49929,34.86132,9.63421,-10.98105,-19.9057,-4.48661,19.5552,50.75259,3.05205,-10.54991,-48.4359,23.87766,134.79742,-0.00018,-98.52854,54.76672,-0.00293,103.49339,-1.04824,-13.55442,-0.00366,10.3253,13.59129,0.00813,-7.95233,-12.56631,6.13082,-31.40239,-13.94413,0.68136,-8.04961,-0.97741,8.81574
1462,-2.85055,0.0,0.0,-0.2256,0.0,0.0,-8.66055,-6.65963,10.03289,23.54673,4.37468,-20.48161,-43.47523,-7.4218,-0.00425,-26.00998,-3.66048,-0.00048,45.52052,33.741,9.84037,-10.20973,-19.43204,-4.46982,19.81125,50.24916,3.33816,-10.57736,-46.96197,23.4509,134.91209,0.00187,-97.93945,55.26056,0.00408,103.19432,-1.48232,-13.79392,-0.00552,9.29343,13.12041,0.00325,-7.75586,-12.68559,6.25234,-31.21718,-14.10077,0.74454,-7.73778,-0.85573,8.43595
1463,-3.33611,0.0,-0.0,-0.24099,0.0,-0.0,-9.18591,-7.36542,9.07353,23.16361,4.19977,-20.4205,-45.60556,-7.48775,0.00171,-25.73339,-3.72959,-0.00046,45.48648,32.65698,10.00541,-9.42769,-18.94793,-4.46981,20.15272,49.77343,3.54774,-10.6101,-45.57436,23.18639,135.0112,0.00258,-97.49399,55.94916,0.00995,102.83312,-1.84361,-14.14596,-0.00558,8.47168,12.79956,-0.0024,-7.5422,-12.78726,6.34045,-31.01327,-14.22825,0.78409,-7.40982,-0.72373,8.08716
1464,-3.97826,0.0,-0.0,-0.19043,0.0,0.0,-10.024,-8.09272,7.85825,22.8208,4.06636,-20.3406,-47.578,-7.59564,0.00628,-25.46682,-3.79971,-0.00035,45.42696,31.61289,10.09503,-8.63624,-18.43113,-4.46846,20.63666,49.31247,3.63447,-10.62487,-44.29174,23.0892,135.10072,0.00155,-96.98933,56.77761,0.01293,102.45587,-2.0909,-14.68313,-0.00395,7.98928,12.61506,-0.00592,-7.26862,-12.87497,6.40412,-30.74823,-14.33342,0.8068,-7.07837,-0.56322,7.79036
1465,-4.71949,0.0,-0.0,-0.13902,0.0,0.0,-11.22235,-8.72815,6.31948,22.52755,4.00156,-20.2529,-49.37556,-7.73013,0.00854,-25.19705,-3.85688,-0.00013,45.37459,30.59019,10.08823,-7.83627,-17.87832,-4.46693,21.27845,48.85765,3.59382,-10.60004,-43.12236,23.13592,135.17758,-0.00047,-96.08072,57.70377,0.01184,102.12712,-2.2657,-15.36105,-0.00143,7.89472,12.53976,-0.00615,-6.92435,-12.94793,6.47697,-30.41099,-14.42864,0.84402,-6.75051,-0.3641,7.54428
1466,-5.52211,0.0,-0.0,-0.151,0.0,0.0,-12.77719,-9.14869,4.49819,22.28025,4.02321,-20.15902,-50.99224,-7.86848,0.0083,-24.91299,-3.88919,0.00016,45.34605,29.56916,9.99247,-7.02904,-17.30248,-4.47687,22.03749,48.40696,3.46282,-10.52344,-42.05105,23.27058,135.23534,-0.00183,-94.54954,58.69676,0.00619,101.92982,-2.45323,-16.02693,9e-05,8.14662,12.55638,-0.00375,-6.53963,-12.99805,6.59024,-30.03072,-14.5186,0.92794,-6.42892,-0.12737,7.3371
1467,-6.37585,0.0,0.0,-0.2517,0.0,-0.0,-14.60673,-9.27118,2.54153,22.05711,4.12523,-20.04415,-52.43084,-7.97918,0.00558,-24.60699,-3.89176,0.0004,45.33503,28.5447,9.84536,-6.21544,-16.71976,-4.50922,22.83597,47.96379,3.29362,-10.40341,-41.03832,23.41329,135.26764,-0.00135,-92.46072,59.73458,-0.00213,101.95718,-2.72539,-16.48744,-0.00168,8.63048,12.66983,-0.00041,-6.17092,-13.01677,6.75213,-29.66282,-14.59865,1.06969,-6.11019,0.13969,7.16226
1468,-7.24645,0.0,-0.0,-0.41073,-0.0,0.0,-16.56588,-9.08356,0.62735,21.82241,4.28382,-19.86934,-53.70002,-8.01493,0.00084,-24.276,-3.87272,0.00045,45.32308,27.5272,9.71054,-5.39099,-16.13919,-4.58263,23.59672,47.53468,3.12445,-10.27269,-40.03567,23.48552,135.26721,0.00095,-90.05613,60.8065,-0.00845,102.23095,-3.12542,-16.58955,-0.00736,9.17521,12.90219,0.00159,-5.87244,-13.00369,6.94833,-29.36137,-14.66284,1.25628,-5.77992,0.42887,7.02407
1469,-8.02526,-0.0,0.0,-0.56235,0.0,0.0,-18.48082,-8.63858,-1.12869,21.53982,4.46664,-19.58364,-54.81076,-7.92725,-0.0043,-23.91916,-3.84937,0.00025,45.28812,26.5333,9.65533,-4.55287,-15.56239,-4.72735,24.27258,47.12707,2.9708,-10.17654,-39.00708,23.44167,135.22739,0.00387,-87.62874,61.91517,-0.00897,102.64879,-3.64651,-16.29352,-0.01414,9.58907,13.26347,0.00045,-5.67181,-12.96902,7.15985,-29.15511,-14.71319,1.46598,-5.41983,0.7323,6.92902
1470,-8.54947,-0.0,-0.0,-0.65329,0.0,0.0,-20.17178,-8.02917,-2.70777,21.18896,4.63275,-19.15869,-55.77333,-7.70638,-0.00757,-23.53466,-3.83366,-9e-05,45.20224,25.58039,9.71163,-3.71455,-14.98735,-4.9631,24.85005,46.74762,2.8387,-10.1442,-37.94243,23.29307,135.14745,0.00568,-85.4741,63.06491,-0.00438,103.06567,-4.2085,-15.69438,-0.01725,9.72858,13.7121,-0.00315,-5.56032,-12.92914,7.38158,-29.03699,-14.76271,1.68735,-5.02521,1.04302,6.87409
1471,-8.66175,-0.0,0.0,-0.67755,0.0,-0.0,-21.47937,-7.36414,-4.15199,20.77445,4.74154,-18.60592,-56.59296,-7.39905,-0.0077,-23.1201,-3.8258,-0.0004,45.02725,24.68483,9.86326,-2.91077,-14.41165,-5.28631,25.33254,46.40044,2.74108,-10.1602,-36.85896,23.11385,135.03841,0.0054,-83.82571,64.24109,0.00107,103.42522,-4.69478,-14.97561,-0.01468,9.55862,14.14456,-0.00585,-5.49881,-12.89951,7.62611,-28.96926,-14.83046,1.92568,-4.61658,1.35641,6.84131
1472,-8.27066,-0.0,0.0,-0.67331,0.0,-0.0,-22.3057,-6.75236,-5.49017,20.3203,4.77368,-17.95936,-57.26434,-7.08106,-0.00523,-22.67635,-3.82091,-0.00055,44.72575,23.85757,10.07193,-2.17938,-13.83549,-5.68326,25.72616,46.08379,2.69707,-10.16184,-35.79421,23.01678,134.92197,0.00347,-82.81305,65.40309,0.00435,103.77949,-5.02623,-14.33866,-0.00896,9.1504,14.43713,-0.00504,-5.43666,-12.89012,7.9101,-28.90201,-14.93209,2.19229,-4.22863,1.67086,6.80166
1473,-7.42879,0.0,-0.0,-0.69938,-0.0,0.0,-22.64008,-6.29275,-6.67013,19.85641,4.73795,-17.26158,-57.77191,-6.82164,-0.00183,-22.21264,-3.81236,-0.00045,44.28693,23.10114,10.29879,-1.53128,-13.26084,-6.13024,26.04011,45.78831,2.71752,-10.06978,-34.79059,23.10131,134.81987,0.00116,-82.47595,66.50161,0.00548,104.19047,-5.19531,-13.9378,-0.00375,8.61962,14.51777,-0.00158,-5.33668,-12.90447,8.23442,-28.79824,-15.07114,2.48661,-3.88368,1.98847,6.72647
1474,-6.37562,0.0,0.0,-0.81304,0.0,0.0,-22.55006,-6.05067,-7.55208,19.40804,4.65431,-16.57595,-58.09818,-6.66862,0.00075,-21.74706,-3.7874,-2e-05,43.73197,22.40974,10.50346,-0.94818,-12.68697,-6.57341,26.29176,45.50145,2.79625,-9.83162,-33.87516,23.40093,134.74071,-0.00051,-82.73227,67.50832,0.00452,104.68088,-5.25865,-13.82125,-0.00059,8.06653,14.405,0.00161,-5.19277,-12.93991,8.57504,-28.65185,-15.23582,2.7875,-3.58387,2.31372,6.59768
1475,-5.45014,-0.0,0.0,-1.0515,0.0,-0.0,-22.15434,-6.02505,-7.97933,18.99141,4.53959,-15.99151,-58.23268,-6.64307,0.00141,-21.30095,-3.73153,0.00057,43.09557,21.77,10.64748,-0.40449,-12.10847,-6.93305,26.50517,45.21457,2.91311,-9.44983,-33.04625,23.86392,134.67912,-0.00134,-83.3836,68.4341,0.00051,105.2832,-5.30398,-13.93341,0.00099,7.55886,14.17121,0.0026,-5.02955,-12.98735,8.89278,-28.48728,-15.4026,3.06244,-3.32209,2.64804,6.41133
1476,-4.91638,-0.0,0.0,-1.41814,0.0,-0.0,-21.59492,-6.13889,-7.87527,18.61227,4.41048,-15.59231,-58.17599,-6.73247,0.00021,-20.89128,-3.64377,0.00101,42.41294,21.16418,10.71248,0.12129,-11.51673,-7.1426,26.70465,44.9252,3.04379,-8.97514,-32.27773,24.38328,134.62686,-0.00154,-84.25903,69.32074,-0.0062,106.04697,-5.38361,-14.19361,0.00154,7.13912,13.87723,0.00135,-4.88545,-13.03158,9.15396,-28.34222,-15.54447,3.28639,-3.08688,2.98598,6.17666
1477,-4.85003,-0.0,0.0,-1.88425,0.0,0.0,-21.00698,-6.26966,-7.29481,18.2675,4.2837,-15.4183,-57.93864,-6.89232,-0.00183,-20.52551,-3.54208,0.00113,41.71517,20.57653,10.70839,0.64479,-10.90171,-7.18003,26.90858,44.63399,3.17175,-8.4721,-31.53804,24.85711,134.57944,-0.00118,-85.26669,70.21453,-0.01294,106.96526,-5.46832,-14.53937,0.00111,6.82829,13.55107,-0.00123,-4.79071,-13.0536,9.34741,-28.24533,-15.63969,3.45679,-2.86442,3.31873,5.91193
1478,-5.14778,-0.0,0.0,-2.40527,-0.0,-0.0,-20.48856,-6.30829,-6.39885,17.94808,4.16716,-15.44724,-57.53612,-7.06178,-0.00341,-20.2009,-3.45281,0.00098,41.02558,19.99877,10.66161,1.17497,-10.25346,-7.07242,27.12818,44.33982,3.29335,-7.9843,-30.80785,25.23712,134.53172,-0.00013,-86.25568,71.14392,-0.01661,107.93707,-5.48349,-14.89176,0.00038,6.61652,13.21296,-0.00395,-4.75207,-13.03528,9.48998,-28.20112,-15.67816,3.5967,-2.64339,3.64066,5.63847
1479,-5.5923,-0.0,-0.0,-2.92528,0.0,-0.0,-20.08366,-6.2111,-5.37972,17.63855,4.06079,-15.59462,-56.9811,-7.18168,-0.00364,-19.90817,-3.39888,0.00068,40.3555,19.42776,10.60269,1.71573,-9.56971,-6.89108,27.36936,44.03687,3.41167,-7.52335,-30.08331,25.53535,134.47198,0.0019,-86.93726,72.11275,-0.01615,108.82014,-5.39133,-15.12792,0.00061,6.44765,12.89588,-0.00554,-4.75127,-12.96588,9.61881,-28.18924,-15.66443,3.74497,-2.4167,3.94845,5.37628
1480,-5.92551,0.0,0.0,-3.36643,-0.0,-0.0,-19.77849,-6.00967,-4.38825,17.31599,3.9671,-15.73589,-56.27742,-7.21001,-0.00243,-19.63577,-3.39339,0.00035,39.69678,18.85637,10.56056,2.2653,-8.86752,-6.73351,27.63024,43.71692,3.52738,-7.08171,-29.367,25.79582,134.38631,0.00484,-87.03126,73.10456,-0.01286,109.50909,-5.2286,-15.11734,0.00187,6.21794,12.62384,-0.00504,-4.75681,-12.8481,9.77138,-28.17755,-15.61549,3.93531,-2.18238,4.23225,5.14283
1481,-5.93785,0.0,-0.0,-3.63325,0.0,0.0,-19.50165,-5.77652,-3.49691,16.95677,3.89866,-15.75597,-55.42303,-7.13476,-0.00054,-19.37206,-3.43846,-1e-05,39.01985,18.27222,10.55481,2.81272,-8.18138,-6.68497,27.89491,43.37504,3.63672,-6.65072,-28.6596,26.06258,134.2719,0.00756,-86.49684,74.09179,-0.00862,109.95695,-5.07939,-14.80108,0.00245,5.79312,12.38438,-0.00186,-4.74068,-12.69859,9.96113,-28.13943,-15.5518,4.17329,-1.94521,4.47273,4.95297
1482,-5.53179,-0.0,-0.0,-3.63453,0.0,-0.0,-19.13969,-5.57144,-2.70852,16.5464,3.88134,-15.59044,-54.42071,-6.97077,0.00109,-19.10551,-3.53236,-0.0005,38.2854,17.66643,10.5939,3.33714,-7.54485,-6.79249,28.13362,43.01276,3.73504,-6.22778,-27.95939,26.36401,134.14752,0.00829,-85.61011,75.04848,-0.00443,110.15073,-5.0284,-14.24392,0.00109,5.04435,12.14584,0.00374,-4.68998,-12.54037,10.1637,-28.06518,-15.48506,4.42676,-1.7164,4.65002,4.81575
1483,-4.72651,-0.0,-0.0,-3.31795,0.0,-0.0,-18.57294,-5.40629,-1.9889,16.08583,3.95337,-15.2318,-53.28582,-6.74057,0.00176,-18.82653,-3.67915,-0.00117,37.46565,17.03893,10.6817,3.81619,-6.97376,-7.06922,28.31708,42.63459,3.81651,-5.81233,-27.26622,26.70949,134.04811,0.00677,-84.82309,75.96179,0.00024,110.09359,-5.12051,-13.59954,-0.00126,3.90893,11.88588,0.01007,-4.60926,-12.39163,10.32605,-27.96298,-15.41138,4.63894,-1.50856,4.75483,4.7302
1484,-3.64512,0.0,-0.0,-2.72774,0.0,0.0,-17.70639,-5.2631,-1.28421,15.59749,4.14292,-14.73184,-52.04376,-6.4655,0.00114,-18.53234,-3.88262,-0.00185,36.55836,16.39599,10.81062,4.2375,-6.46368,-7.4859,28.43767,42.24189,3.86691,-5.39996,-26.58514,27.09066,134.00304,0.00465,-84.48783,76.83817,0.00743,109.77267,-5.34812,-13.00655,-0.00306,2.44332,11.6046,0.0139,-4.51458,-12.25823,10.39475,-27.85151,-15.31549,4.75767,-1.3302,4.79294,4.68651
1485,-2.48224,0.0,-0.0,-2.03019,0.0,-0.0,-16.48244,-5.13919,-0.52094,15.1252,4.43319,-14.2008,-50.71831,-6.16764,-0.00044,-18.23113,-4.12747,-0.00214,35.58067,15.74317,10.94877,4.60006,-6.00032,-7.95102,28.51912,41.83302,3.85923,-4.98402,-25.92631,27.48362,134.01521,0.00319,-84.65221,77.70448,0.01831,109.13072,-5.6754,-12.50814,-0.00399,0.82303,11.33764,0.01235,-4.42379,-12.13338,10.3445,-27.74893,-15.1814,4.76217,-1.18661,4.78083,4.67256
1486,-1.4162,0.0,-0.0,-1.43398,0.0,0.0,-14.88934,-5.05293,0.37684,14.71641,4.76138,-13.75946,-49.32006,-5.85884,-0.00166,-17.93969,-4.37848,-0.00184,34.55499,15.07906,11.05435,4.90934,-5.57263,-8.34657,28.6054,41.40993,3.76035,-4.56365,-25.2996,27.85182,134.05861,0.00216,-85.12885,78.59969,0.02963,108.14217,-6.0613,-12.06789,-0.00432,-0.7153,11.1406,0.00625,-4.34765,-12.00239,10.1885,-27.66396,-15.00072,4.67078,-1.08156,4.73603,4.678
1487,-0.53837,-0.0,0.0,-1.07722,0.0,-0.0,-12.96504,-5.0156,1.45686,14.40091,5.0475,-13.48488,-47.8457,-5.53142,-0.00116,-17.67615,-4.59664,-0.00108,33.50234,14.39766,11.09795,5.17283,-5.17693,-8.58846,28.74008,40.98457,3.5457,-4.14846,-24.70751,28.15231,134.0938,0.00099,-85.72678,79.55731,0.03446,106.94073,-6.45887,-11.64712,-0.0039,-1.95176,11.03991,-0.00042,-4.28536,-11.84872,9.96698,-27.59264,-14.77382,4.52775,-1.01725,4.67039,4.69297
1488,0.12452,-0.0,-0.0,-0.99062,0.0,0.0,-10.78957,-5.01544,2.71884,14.18623,5.21752,-13.40252,-46.2921,-5.16727,0.00153,-17.45358,-4.75163,-0.00019,32.44467,13.69936,11.06508,5.39509,-4.80961,-8.64813,28.95044,40.57731,3.21249,-3.75327,-24.14334,28.34871,134.08981,-0.00024,-86.37503,80.59185,0.02769,105.80689,-6.80994,-11.25576,-0.00247,-2.74967,11.01259,-0.00491,-4.22559,-11.65938,9.7274,-27.52078,-14.50714,4.3825,-0.99559,4.59167,4.7035
1489,0.55615,0.0,-0.0,-1.1185,0.0,0.0,-8.47424,-5.01886,4.10679,14.06402,5.22701,-13.49275,-44.67453,-4.74913,0.00573,-17.27746,-4.83271,0.00048,31.41217,12.99758,10.95742,5.57977,-4.46239,-8.55584,29.2408,40.20432,2.78266,-3.38764,-23.59751,28.42784,134.03964,-0.00104,-87.08301,81.69711,0.01033,105.01216,-7.05641,-10.94015,-0.00056,-3.10499,11.00062,-0.00726,-4.15101,-11.42912,9.51069,-27.42946,-14.2117,4.27516,-1.01566,4.50699,4.69035
1490,0.73848,0.0,0.0,-1.35525,0.0,-0.0,-6.14902,-4.98719,5.52214,14.01926,5.08631,-13.69972,-43.03211,-4.27128,0.00973,-17.15005,-4.85396,0.00077,30.44402,12.31244,10.79462,5.73856,-4.13069,-8.38727,29.59377,39.86178,2.29533,-3.05065,-23.06761,28.40674,133.96028,-0.00095,-87.87045,82.85267,-0.01102,104.69604,-7.1648,-10.74037,0.00079,-3.14741,10.9248,-0.00824,-4.04555,-11.16318,9.34571,-27.30259,-13.90348,4.23024,-1.06829,4.41931,4.63833
1491,0.67895,0.0,0.0,-1.59449,-0.0,-0.0,-3.94431,-4.90403,6.85809,14.03741,4.86235,-13.95704,-41.4188,-3.74795,0.0118,-17.07654,-4.8446,0.00074,29.5808,11.65921,10.60094,5.89508,-3.8231,-8.22434,29.97777,39.5211,1.79621,-2.73595,-22.56278,28.32012,133.87796,1e-05,-88.75172,84.03278,-0.0274,104.83588,-7.13902,-10.66755,0.001,-3.07712,10.70644,-0.00734,-3.90367,-10.87691,9.24523,-27.13603,-13.60153,4.25325,-1.13427,4.32377,4.54593
1492,0.44143,-0.0,0.0,-1.77505,0.0,-0.0,-1.9697,-4.7897,8.03351,14.10383,4.64398,-14.21968,-39.88963,-3.21093,0.0111,-17.06579,-4.83025,0.00055,28.85523,11.04438,10.38506,6.07691,-3.5572,-8.11561,30.35918,39.14137,1.32621,-2.44035,-22.09692,28.1977,133.80927,0.00123,-89.74462,85.21148,-0.03188,105.25678,-7.01303,-10.71177,0.00032,-3.08073,10.28954,-0.00317,-3.7373,-10.59063,9.20246,-26.94392,-13.32186,4.3296,-1.18882,4.21139,4.42356
1493,0.13809,0.0,0.0,-1.89493,0.0,0.0,-0.29531,-4.68716,9.00743,14.20088,4.491,-14.47912,-38.48945,-2.69918,0.00803,-17.12682,-4.81968,0.00031,28.28165,10.47189,10.13747,6.30189,-3.34742,-8.05861,30.7148,38.69086,0.90783,-2.16455,-21.67645,28.05413,133.74995,0.00184,-90.85818,86.36195,-0.0239,105.70126,-6.83949,-10.85497,-0.00055,-3.27187,9.65178,0.00435,-3.57345,-10.32114,9.19337,-26.75547,-13.07064,4.43018,-1.21291,4.07445,4.28666
1494,-0.12264,0.0,-0.0,-1.99123,-0.0,-0.0,1.05781,-4.63274,9.77367,14.31103,4.40685,-14.75161,-37.24732,-2.25007,0.00373,-17.26497,-4.80613,2e-05,27.84909,9.95199,9.84958,6.57094,-3.1974,-8.00994,31.03568,38.16315,0.53855,-1.90427,-21.29466,27.90076,133.67891,0.00139,-92.06796,87.45779,-0.00954,105.96286,-6.67975,-11.07459,-0.001,-3.67887,8.8256,0.01268,-3.44208,-10.07494,9.18879,-26.60194,-12.84252,4.52533,-1.20375,3.90704,4.15266
1495,-0.28654,0.0,0.0,-2.10654,-0.0,-0.0,2.11302,-4.63822,10.34776,14.42245,4.35276,-15.05502,-36.17583,-1.8966,-0.00052,-17.47743,-4.77838,-0.00028,27.52695,9.50393,9.53188,6.87276,-3.10113,-7.91529,31.32039,37.57965,0.20039,-1.6421,-20.93702,27.76257,133.57448,0.0002,-93.31789,88.47979,0.00326,105.97781,-6.58898,-11.34119,-0.00093,-4.26515,7.91148,0.01788,-3.36229,-9.84642,9.17148,-26.50241,-12.6257,4.60137,-1.17412,3.70327,4.03832
1496,-0.364,-0.0,0.0,-2.24977,0.0,0.0,2.92156,-4.6908,10.74682,14.52637,4.28962,-15.38316,-35.27521,-1.66026,-0.00367,-17.74841,-4.73324,-0.00049,27.28376,9.14917,9.22019,7.19485,-3.04932,-7.75618,31.56691,36.9798,-0.12047,-1.34716,-20.59145,27.67937,133.42961,-0.001,-94.55957,89.42176,0.00965,105.81592,-6.59477,-11.61591,-0.00076,-4.95202,7.04089,0.01747,-3.3359,-9.62135,9.14634,-26.45719,-12.40899,4.66859,-1.14035,3.45818,3.95161
1497,-0.4025,-0.0,-0.0,-2.38557,0.0,-0.0,3.54341,-4.76248,10.98184,14.61155,4.21104,-15.70015,-34.53844,-1.54773,-0.00532,-18.05179,-4.67816,-0.00054,27.10167,8.90253,8.95813,7.53058,-3.0346,-7.56811,31.77112,36.40506,-0.41971,-0.98099,-20.25477,27.69135,133.25653,-0.0017,-95.80049,90.29237,0.0096,105.60311,-6.67675,-11.86127,-0.00091,-5.64286,6.32818,0.01208,-3.34972,-9.38292,9.13319,-26.45105,-12.1846,4.75217,-1.11313,3.17116,3.88822
1498,-0.44837,0.0,0.0,-2.47371,0.0,0.0,4.0329,-4.82093,11.07573,14.66656,4.14182,-15.96923,-33.95136,-1.56183,-0.00567,-18.36247,-4.62096,-0.00045,26.97279,8.76902,8.76069,7.87709,-3.05125,-7.3983,31.93275,35.88483,-0.68053,-0.50843,-19.93135,27.82193,133.0799,-0.00188,-97.13424,91.11572,0.00618,105.42953,-6.77786,-12.06728,-0.00118,-6.24771,5.86283,0.00453,-3.38317,-9.11813,9.14575,-26.46188,-11.94589,4.87002,-1.09951,2.84753,3.84113
1499,-0.51935,0.0,0.0,-2.49669,0.0,0.0,4.42795,-4.83741,11.06341,14.68289,4.12063,-16.16884,-33.49271,-1.69923,-0.00502,-18.66392,-4.56614,-0.00027,26.89238,8.74418,8.61061,8.23124,-3.09034,-7.27455,32.06332,35.43135,-0.89655,0.0888,-19.62611,28.06831,132.92395,-0.00161,-98.70787,91.92696,0.00247,105.31427,-6.8596,-12.25908,-0.00098,-6.7058,5.70108,-0.0019,-3.41679,-8.82394,9.17326,-26.47045,-11.68587,5.01332,-1.10605,2.49795,3.80928
1500,-0.59639,0.0,0.0,-2.44442,-0.0,0.0,4.7457,-4.79255,10.96143,14.65338,4.18198,-16.27926,-33.13931,-1.93174,-0.00366,-18.94535,-4.5212,-4e-05,26.85871,8.8154,8.49631,8.58773,-3.13703,-7.22178,32.18725,35.04368,-1.08651,0.80374,-19.34007,28.40678,132.80193,-0.00095,-100.613,92.75711,-6e-05,105.24331,-6.93685,-12.47588,-5e-05,-7.01937,5.83123,-0.0054,-3.43937,-8.51153,9.17901,-26.46785,-11.4006,5.14346,-1.13737,2.13786,3.7948
1501,-0.63626,0.0,-0.0,-2.30644,-0.0,-0.0,4.9889,-4.6818,10.75932,14.57444,4.33232,-16.28649,-32.86937,-2.20641,-0.00206,-19.19755,-4.49283,0.00014,26.87165,8.96178,8.43169,8.93798,-3.17649,-7.26648,32.33136,34.71322,-1.28148,1.60816,-19.07404,28.80838,132.71355,-0.00025,-102.79809,93.61514,-0.00087,105.2075,-7.043,-12.74336,0.0013,-7.27085,6.1647,-0.00623,-3.45167,-8.20494,9.11638,-26.45855,-11.09419,5.20754,-1.19455,1.78473,3.79467
1502,-0.59911,-0.0,-0.0,-2.09261,0.0,0.0,5.15796,-4.51764,10.45058,14.4552,4.5369,-16.20878,-32.65807,-2.47061,-0.00077,-19.41592,-4.47488,0.00014,26.92663,9.15079,8.43528,9.2729,-3.20611,-7.40818,32.50598,34.42647,-1.49627,2.46286,-18.83361,29.24632,132.64825,-4e-05,-105.07926,94.48138,0.00038,105.19063,-7.1737,-13.03905,0.00247,-7.57588,6.56252,-0.00491,-3.466,-7.93165,8.95271,-26.45809,-10.77931,5.16436,-1.27276,1.44918,3.79822
1503,-0.4742,0.0,-0.0,-1.84539,-0.0,0.0,5.2594,-4.32773,10.06533,14.31959,4.73861,-16.10188,-32.47275,-2.69477,-5e-05,-19.60553,-4.44852,-5e-05,27.00943,9.33836,8.50545,9.58755,-3.24131,-7.60299,32.69099,34.16845,-1.71012,3.32491,-18.62703,29.68759,132.59142,-0.00034,-107.20584,95.31949,0.00307,105.15813,-7.26391,-13.27432,0.00347,-7.99863,6.87349,-0.00153,-3.50148,-7.71013,8.69013,-26.48655,-10.47379,5.00873,-1.35927,1.12609,3.794
1504,-0.29055,-0.0,0.0,-1.62168,-0.0,-0.0,5.30706,-4.14949,9.66891,14.19411,4.89439,-16.02891,-32.27781,-2.87172,0.00019,-19.7763,-4.3946,-0.00032,27.09923,9.47706,8.61829,9.87992,-3.30757,-7.78955,32.84385,33.92756,-1.87559,4.1527,-18.45631,30.08512,132.53029,-0.00056,-108.91358,96.10088,0.00516,105.09461,-7.2157,-13.33718,0.00523,-8.50026,6.99331,0.0027,-3.57689,-7.54423,8.37185,-26.56086,-10.19788,4.77937,-1.43533,0.79758,3.77483
1505,-0.11009,-0.0,0.0,-1.45711,0.0,0.0,5.31896,-4.02053,9.324,14.0911,5.00162,-16.01309,-32.04718,-2.99615,0.00034,-19.93007,-4.30737,-0.00047,27.18145,9.5287,8.74996,10.14808,-3.42597,-7.94389,32.92821,33.69582,-1.95455,4.91678,-18.3084,30.3882,132.45625,1e-05,-109.98515,96.82084,0.00434,105.04414,-6.9711,-13.17374,0.00791,-8.95487,6.91362,0.00521,-3.70482,-7.42904,8.06714,-26.69056,-9.97386,4.54256,-1.48054,0.44741,3.7348
1506,-0.00022,-0.0,0.0,-1.34969,0.0,-0.0,5.31434,-3.96399,9.05956,14.00118,5.09315,-16.02027,-31.77283,-3.05427,0.0006,-20.05511,-4.19806,-0.0004,27.25634,9.47782,8.89548,10.39168,-3.60143,-8.10029,32.94002,33.46521,-1.95359,5.61346,-18.15359,30.56708,132.36339,0.00161,-110.33103,97.49303,-0.00045,105.10899,-6.57968,-12.82615,0.00956,-9.21544,6.71019,0.00443,-3.88985,-7.36137,7.83986,-26.87793,-9.82354,4.35877,-1.48012,0.07402,3.67041
1507,0.00481,0.0,0.0,-1.2857,-0.0,-0.0,5.31123,-3.97444,8.88837,13.90326,5.20133,-16.00518,-31.46196,-3.04361,0.00084,-20.13658,-4.07948,-0.00017,27.33127,9.33965,9.05323,10.61394,-3.81969,-8.29553,32.90966,33.22735,-1.927,6.26749,-17.95548,30.63074,132.24919,0.00385,-110.00106,98.13412,-0.00804,105.40317,-6.19508,-12.39623,0.00818,-9.18645,6.47798,0.00123,-4.12888,-7.34411,7.71755,-27.11942,-9.76027,4.25228,-1.43481,-0.30804,3.59215
1508,-0.07799,0.0,0.0,-1.26291,0.0,0.0,5.32224,-4.01825,8.82989,13.78109,5.33496,-15.95654,-31.12816,-2.98763,0.0008,-20.16996,-3.95418,8e-05,27.40891,9.15241,9.20898,10.82134,-4.05458,-8.51715,32.87919,32.97799,-1.94434,6.9202,-17.6876,30.62507,132.12035,0.00574,-109.10029,98.75226,-0.01497,105.96168,-5.98966,-11.98902,0.00448,-8.88816,6.26012,-0.00209,-4.41116,-7.38014,7.67776,-27.40528,-9.77803,4.20114,-1.36301,-0.67725,3.5291
1509,-0.19787,-0.0,0.0,-1.27874,0.0,-0.0,5.35076,-4.05368,8.89474,13.62927,5.48949,-15.88741,-30.78456,-2.91834,0.00047,-20.16407,-3.82225,0.00026,27.48483,8.95761,9.34834,11.0205,-4.27856,-8.72261,32.87254,32.719,-2.04794,7.61351,-17.34562,30.61491,131.99683,0.00595,-107.72832,99.3428,-0.01765,106.67814,-6.04829,-11.67513,0.00111,-8.47892,6.03343,-0.00306,-4.71796,-7.4618,7.65991,-27.71811,-9.84628,4.15223,-1.29108,-1.01547,3.51425
1510,-0.30114,0.0,-0.0,-1.32068,0.0,0.0,5.39087,-4.05651,9.06762,13.45155,5.65676,-15.81561,-30.43976,-2.85467,5e-05,-20.13641,-3.68736,0.00031,27.55077,8.7824,9.46454,11.21307,-4.4709,-8.87399,32.88205,32.45349,-2.23139,8.37973,-16.94841,30.65928,131.90703,0.00384,-106.04067,99.8924,-0.01453,107.33781,-6.31674,-11.47062,-0.00026,-8.17644,5.74892,0.0003,-5.02358,-7.56604,7.59753,-28.03258,-9.91806,4.05309,-1.24238,-1.31418,3.56399
1511,-0.3497,-0.0,0.0,-1.375,0.0,0.0,5.43012,-4.03005,9.31162,13.25836,5.81966,-15.75378,-30.09757,-2.79597,-0.00019,-20.10719,-3.55317,0.0002,27.59894,8.63245,9.55459,11.39489,-4.62298,-8.95512,32.88167,32.17967,-2.45325,9.24005,-16.52819,30.79554,131.87401,0.00057,-104.33784,100.3872,-0.00654,107.68295,-6.63865,-11.34325,0.00012,-8.15215,5.36214,0.00837,-5.29812,-7.66125,7.45464,-28.31754,-9.95033,3.88296,-1.23169,-1.5772,3.66994
1512,-0.32465,0.0,-0.0,-1.43801,-0.0,-0.0,5.45486,-3.99489,9.58052,13.06287,5.94602,-15.69718,-29.7605,-2.7263,-0.00015,-20.09469,-3.42142,-3e-05,27.62739,8.49679,9.62026,11.56219,-4.73904,-8.98032,32.8532,31.8945,-2.67167,10.20786,-16.11601,31.04087,131.90233,-0.00164,-102.97887,100.82265,0.00334,107.49293,-6.85593,-11.24565,0.00121,-8.50796,4.86362,0.0183,-5.51194,-7.72166,7.24579,-28.54092,-9.92497,3.66559,-1.26323,-1.81931,3.80581
1513,-0.22443,0.0,0.0,-1.52525,0.0,-0.0,5.45624,-3.97028,9.84042,12.87839,5.99217,-15.6336,-29.43294,-2.63066,2e-05,-20.11227,-3.28956,-0.00032,27.64316,8.35849,9.65923,11.71777,-4.83232,-8.97729,32.80109,31.60873,-2.87313,11.2853,-15.72923,31.39403,131.97621,-0.00165,-102.18331,101.21397,0.01138,106.72158,-6.90604,-11.15689,0.00212,-9.27517,4.32761,0.02337,-5.64247,-7.73809,7.02671,-28.67794,-9.85516,3.45627,-1.33125,-2.06097,3.94041
1514,-0.06749,0.0,-0.0,-1.66402,-0.0,0.0,5.43347,-3.95831,10.08498,12.71698,5.92881,-15.56297,-29.12091,-2.51162,0.00014,-20.16498,-3.15287,-0.00054,27.66037,8.2033,9.6554,11.87149,-4.91958,-8.96357,32.74599,31.35548,-3.07957,12.45079,-15.36865,31.82817,132.06894,-0.00014,-102.00085,101.59989,0.01469,105.58291,-6.84815,-11.11094,0.00242,-10.38566,3.91199,0.01718,-5.68308,-7.71742,6.86093,-28.72101,-9.77186,3.31106,-1.42184,-2.3228,4.04907
1515,0.10083,0.0,-0.0,-1.85445,-0.0,-0.0,5.39357,-3.94328,10.31298,12.58229,5.78377,-15.47278,-28.82901,-2.38137,0.00019,-20.24627,-3.02248,-0.00056,27.69341,8.02335,9.60439,12.0358,-5.01657,-8.97014,32.70935,31.17447,-3.33171,13.65353,-15.02758,32.29144,132.15404,0.00135,-102.41231,102.03117,0.01174,104.46655,-6.79621,-11.17902,0.00225,-11.6873,3.79137,0.00037,-5.6484,-7.67245,6.78386,-28.68504,-9.70058,3.2576,-1.5153,-2.62113,4.12019
1516,0.21423,-0.0,-0.0,-2.03922,0.0,0.0,5.34814,-3.91088,10.49867,12.46481,5.6541,-15.31095,-28.55742,-2.24082,0.00027,-20.33978,-2.93357,-0.00036,27.74825,7.81792,9.54257,12.21706,-5.13425,-9.06651,32.70354,31.08152,-3.65953,14.828,-14.70211,32.72516,132.21136,0.00166,-103.32199,102.5464,0.00306,103.73615,-6.81802,-11.40856,0.0019,-13.00503,4.06396,-0.01777,-5.57041,-7.61193,6.78691,-28.60295,-9.64606,3.28444,-1.59243,-2.96273,4.15509
1517,0.21582,-0.0,0.0,-2.13759,-0.0,0.0,5.30909,-3.86867,10.6097,12.35064,5.65178,-15.03662,-28.30236,-2.08111,0.00036,-20.42766,-2.91397,-0.00011,27.81751,7.59529,9.51953,12.40605,-5.27438,-9.30586,32.73024,31.05161,-4.06351,15.92079,-14.39199,33.08401,132.22824,0.00076,-104.51346,103.1481,-0.0077,103.54381,-6.89208,-11.78013,0.00115,-14.17992,4.66362,-0.02634,-5.48572,-7.54003,6.82955,-28.51252,-9.59644,3.35242,-1.64476,-3.33827,4.16324
1518,0.09453,0.0,0.0,-2.12568,0.0,-0.0,5.28719,-3.84689,10.65076,12.23643,5.82331,-14.69739,-28.0591,-1.90558,0.0003,-20.50126,-2.94434,-2e-05,27.88415,7.37605,9.54278,12.58018,-5.42506,-9.64105,32.78379,31.03068,-4.51754,16.91061,-14.09496,33.34241,132.1964,-0.00038,-105.73331,103.79836,-0.01571,103.80353,-6.95099,-12.2077,0.0,-15.07794,5.3543,-0.02285,-5.42032,-7.46476,6.86759,-28.44127,-9.54191,3.41748,-1.67983,-3.72022,4.1593
1519,-0.1062,0.0,-0.0,-2.07515,0.0,0.0,5.29129,-3.87689,10.67204,12.13892,6.12496,-14.42636,-27.82497,-1.73958,1e-05,-20.5681,-2.96146,-0.00016,27.93162,7.1906,9.56706,12.71928,-5.56235,-9.92412,32.85622,30.9637,-4.9801,17.8103,-13.80435,33.4886,132.10884,-0.00061,-106.77136,104.43919,-0.01833,104.32281,-6.94966,-12.56022,-0.00076,-15.60003,5.83404,-0.0153,-5.37982,-7.40399,6.87578,-28.3966,-9.48916,3.44915,-1.71585,-4.07116,4.16411
1520,-0.31773,0.0,0.0,-2.0872,0.0,-0.0,5.32287,-3.96603,10.71951,12.08521,6.4774,-14.33921,-27.60181,-1.6078,-0.0004,-20.64692,-2.90936,-0.00044,27.95311,7.06547,9.54792,12.81812,-5.66126,-10.02113,32.93991,30.81419,-5.40581,18.65392,-13.51486,33.52341,131.96397,0.00052,-107.46574,105.02242,-0.01595,104.91797,-6.88649,-12.70635,-0.00042,-15.7132,5.86033,-0.01325,-5.35166,-7.37918,6.84998,-28.36743,-9.45631,3.43511,-1.77144,-4.35903,4.20043
1521,-0.48398,0.0,-0.0,-2.189,-0.0,0.0,5.36942,-4.08979,10.77681,12.08419,6.82755,-14.42812,-27.39699,-1.50449,-0.00066,-20.75136,-2.78684,-0.00066,27.95562,7.00945,9.49604,12.883,-5.70684,-9.93567,33.02796,30.56667,-5.76393,19.47944,-13.23095,33.47083,131.77211,0.00204,-107.78294,105.52969,-0.01055,105.43938,-6.78164,-12.58357,0.00081,-15.48536,5.34697,-0.01753,-5.31826,-7.39958,6.79257,-28.3367,-9.45283,3.3739,-1.85696,-4.56679,4.28084
1522,-0.57938,0.0,-0.0,-2.31452,0.0,0.0,5.40921,-4.20365,10.77473,12.11274,7.15012,-14.56538,-27.21873,-1.39865,-0.00067,-20.87815,-2.64032,-0.00064,27.95522,7.01261,9.46234,12.92156,-5.69737,-9.80484,33.11755,30.22124,-6.05755,20.31491,-12.96794,33.3839,131.55556,0.00245,-107.88435,105.97271,-0.00397,105.75457,-6.66042,-12.24732,0.00203,-15.08543,4.40167,-0.0203,-5.2723,-7.45152,6.69752,-28.29628,-9.46378,3.26537,-1.97081,-4.69241,4.40163
1523,-0.61103,-0.0,0.0,-2.36609,-0.0,-0.0,5.42724,-4.26724,10.65533,12.13161,7.41715,-14.59361,-27.06639,-1.26227,-0.00044,-21.00953,-2.51944,-0.00037,27.96545,7.05341,9.48426,12.93839,-5.6438,-9.79338,33.21644,29.78813,-6.32508,21.1708,-12.74466,33.32882,131.34081,0.00141,-107.99525,106.3782,0.00246,105.75613,-6.55174,-11.85474,0.00267,-14.72811,3.25405,-0.01544,-5.22361,-7.50383,6.54878,-28.25426,-9.45422,3.10703,-2.10126,-4.74603,4.55019
1524,-0.60922,0.0,-0.0,-2.27846,0.0,0.0,5.4246,-4.26686,10.41534,12.10948,7.59306,-14.41043,-26.92475,-1.08487,-6e-05,-21.12387,-2.44431,-4e-05,27.98922,7.10606,9.55872,12.9365,-5.56599,-9.99995,33.34099,29.28185,-6.61944,22.03983,-12.57502,33.35558,131.1469,-0.00031,-108.24337,106.77275,0.00762,105.42504,-6.48348,-11.57848,0.00304,-14.58009,2.13607,-0.00527,-5.19536,-7.52571,6.333,-28.23189,-9.39066,2.89879,-2.23219,-4.74563,4.71377
1525,-0.60487,0.0,-0.0,-2.05776,0.0,0.0,5.41237,-4.22012,10.10552,12.04129,7.65919,-14.01876,-26.77008,-0.87437,0.00037,-21.20763,-2.39855,0.00017,28.02048,7.14984,9.64464,12.91993,-5.48281,-10.41217,33.50014,28.71779,-6.97626,22.90598,-12.46365,33.47939,130.97621,-0.00183,-108.63447,107.17467,0.0107,104.84645,-6.47336,-11.48997,0.00355,-14.68742,1.20542,0.00349,-5.2148,-7.50298,6.05473,-28.25517,-9.26177,2.65053,-2.34946,-4.70954,4.8811
1526,-0.61211,-0.0,-0.0,-1.78416,0.0,-0.0,5.40044,-4.15989,9.80886,11.95592,7.63317,-13.52996,-26.58257,-0.65603,0.00065,-21.26307,-2.34086,0.00019,28.05189,7.17681,9.67845,12.89631,-5.40393,-10.91061,33.68058,28.11536,-7.3884,23.75851,-12.40519,33.68465,130.81409,-0.00244,-109.07526,107.58813,0.01117,104.15462,-6.51892,-11.50174,0.00389,-14.98379,0.52573,0.00693,-5.30524,-7.44242,5.7409,-28.34721,-9.08426,2.38448,-2.44361,-4.65212,5.04179
1527,-0.62864,0.0,0.0,-1.56088,0.0,-0.0,5.39186,-4.11168,9.60732,11.9014,7.56005,-13.09099,-26.35609,-0.46338,0.00062,-21.30676,-2.23338,9e-05,28.08195,7.19088,9.60636,12.87926,-5.33115,-11.34021,33.84866,27.50401,-7.8059,24.60199,-12.38566,33.94416,130.63869,-0.00168,-109.40258,108.00088,0.0089,103.50655,-6.59897,-11.43073,0.00334,-15.37122,0.10009,0.00571,-5.47973,-7.36538,5.43262,-28.52171,-8.8937,2.13019,-2.50835,-4.58682,5.18804
1528,-0.64267,-0.0,-0.0,-1.44146,0.0,-0.0,5.38302,-4.08243,9.54156,11.9124,7.48492,-12.77247,-26.10045,-0.31838,0.00032,-21.35934,-2.07494,-7e-05,28.1179,7.20059,9.4233,12.88729,-5.26359,-11.61984,33.96711,26.92144,-8.16521,25.45599,-12.38505,34.23431,130.43358,0.00036,-109.46124,108.39116,0.00494,103.04945,-6.69999,-11.12083,0.00158,-15.78082,-0.08665,0.00241,-5.73295,-7.29669,5.17296,-28.77436,-8.7297,1.91758,-2.53889,-4.52978,5.3152
1529,-0.64295,-0.0,-0.0,-1.40383,0.0,-0.0,5.3665,-4.06536,9.59404,11.98883,7.42745,-12.52968,-25.83636,-0.21983,-5e-05,-21.43385,-1.90546,-0.00015,28.17216,7.21312,9.17729,12.93652,-5.1995,-11.78651,34.01403,26.40282,-8.42538,26.34459,-12.38053,34.5359,130.19411,0.00272,-109.20271,108.74174,0.00099,102.8566,-6.83428,-10.52364,-0.00122,-16.16542,-0.06464,-0.00063,-6.03427,-7.25386,4.99748,-29.07534,-8.62216,1.77251,-2.53412,-4.49723,5.41978
1530,-0.63244,0.0,0.0,-1.39093,-0.0,-0.0,5.33548,-4.052,9.71365,12.10622,7.37344,-12.28,-25.58514,-0.15403,-0.00035,-21.5315,-1.76909,-0.00013,28.2517,7.23347,8.92612,13.03001,-5.13609,-11.92673,33.99222,25.9708,-8.58594,27.28091,-12.35138,34.82775,129.92778,0.00417,-108.70837,109.05212,-0.00213,102.91748,-7.02252,-9.70734,-0.00416,-16.48926,0.10876,-0.00222,-6.33298,-7.24003,4.92539,-29.37409,-8.58145,1.71142,-2.50231,-4.49873,5.49858
1531,-0.63013,0.0,0.0,-1.36793,-0.0,0.0,5.28612,-4.04066,9.854,12.24429,7.28967,-12.00304,-25.35748,-0.11221,-0.00055,-21.64591,-1.67408,-0.00012,28.34694,7.26433,8.69413,13.15146,-5.0725,-12.08212,33.92335,25.63112,-8.67899,28.2538,-12.28728,35.08493,129.65239,0.00415,-108.11143,109.34264,-0.00472,103.18616,-7.26946,-8.80807,-0.00589,-16.75056,0.35514,-0.00248,-6.57971,-7.24536,4.94912,-29.62086,-8.59556,1.73122,-2.46362,-4.53341,5.55031
1532,-0.65492,-0.0,0.0,-1.33761,-0.0,-0.0,5.21463,-4.03442,9.98424,12.40065,7.15509,-11.75623,-25.14716,-0.09168,-0.00062,-21.76918,-1.59322,-0.00018,28.43109,7.30353,8.47615,13.27094,-5.01323,-12.23371,33.83106,25.37008,-8.74508,29.22681,-12.19483,35.28604,129.39163,0.00301,-107.50796,109.64539,-0.00728,103.62484,-7.56008,-7.96123,-0.00555,-16.98993,0.59972,-0.00205,-6.7503,-7.25696,5.03176,-29.79114,-8.63832,1.80293,-2.44301,-4.59195,5.57775
1533,-0.70671,-0.0,0.0,-1.30342,-0.0,-0.0,5.11247,-4.03168,10.06665,12.57655,6.99098,-11.60432,-24.93542,-0.08056,-0.00048,-21.89378,-1.50404,-0.00023,28.47415,7.34318,8.2797,13.36037,-4.96551,-12.36701,33.72648,25.15364,-8.80993,30.15515,-12.09461,35.42455,129.1683,0.00156,-106.92101,109.9834,-0.00932,104.1958,-7.86858,-7.26581,-0.00329,-17.2559,0.7909,-0.0013,-6.85396,-7.26963,5.1231,-29.8944,-8.68544,1.88226,-2.45607,-4.6609,5.58727
1534,-0.76692,-0.0,-0.0,-1.23863,0.0,-0.0,4.97014,-4.02157,10.05208,12.76086,6.86088,-11.56475,-24.70359,-0.05294,-0.00017,-22.01215,-1.41979,-0.00018,28.4578,7.37378,8.14442,13.40491,-4.93155,-12.51539,33.60755,24.93515,-8.87645,31.00928,-12.00791,35.51186,128.99591,0.00039,-106.32594,110.35523,-0.00941,104.80475,-8.16546,-6.79408,-0.00012,-17.54741,0.89698,-0.0003,-6.92306,-7.28691,5.18563,-29.96372,-8.72562,1.93315,-2.50212,-4.72781,5.58645
1535,-0.82292,0.0,-0.0,-1.1141,0.0,0.0,4.79025,-3.9904,9.92363,12.93433,6.82322,-11.6357,-24.44407,0.00966,0.00012,-22.11747,-1.37309,-5e-05,28.37894,7.39145,8.10236,13.40285,-4.90265,-12.71504,33.47117,24.6738,-8.93169,31.7857,-11.94167,35.56784,128.87367,-0.00033,-105.70493,110.73996,-0.0068,105.28708,-8.41801,-6.60524,0.00233,-17.794,0.90373,0.00063,-6.99539,-7.31202,5.20836,-30.03725,-8.75756,1.94421,-2.57076,-4.786,5.58308
1536,-0.88702,0.0,-0.0,-0.9433,0.0,0.0,4.59205,-3.93371,9.73049,13.08288,6.87511,-11.84135,-24.16148,0.09876,0.00018,-22.20537,-1.37818,5e-05,28.24795,7.39983,8.13168,13.36227,-4.86279,-12.9467,33.32367,24.3538,-8.95668,32.49854,-11.88103,35.60776,128.78986,-0.00069,-105.07551,111.11441,-0.00239,105.49064,-8.58432,-6.72712,0.00231,-17.9118,0.82655,0.00091,-7.0983,-7.33937,5.20018,-30.14192,-8.77954,1.92581,-2.64918,-4.83737,5.58409
1537,-0.98134,-0.0,0.0,-0.77839,-0.0,0.0,4.39816,-3.86434,9.55435,13.2,6.95,-12.21134,-23.86507,0.1907,2e-05,-22.27268,-1.4224,3e-05,28.08626,7.40431,8.17178,13.29877,-4.79917,-13.15823,33.17897,23.98886,-8.9327,33.16293,-11.79503,35.63427,128.73033,-0.00095,-104.50011,111.4649,0.00221,105.34962,-8.60806,-7.12621,-0.00082,-17.86117,0.69505,0.00014,-7.24067,-7.35646,5.17553,-30.28565,-8.7857,1.89628,-2.72338,-4.89116,5.5938
1538,-1.10225,0.0,0.0,-0.66265,0.0,-0.0,4.21702,-3.8071,9.43777,13.27671,6.97197,-12.7181,-23.55964,0.27708,-9e-05,-22.3143,-1.49142,-8e-05,27.9183,7.40568,8.18596,13.22937,-4.70879,-13.34122,33.04914,23.61073,-8.84792,33.78629,-11.6528,35.6395,128.68185,-0.00133,-104.09032,111.78595,0.00587,104.85915,-8.43196,-7.69448,-0.00522,-17.64301,0.50432,-0.00194,-7.41559,-7.35271,5.14809,-30.46069,-8.7716,1.87243,-2.77992,-4.95799,5.61372
1539,-1.215,0.0,-0.0,-0.59754,-0.0,0.0,4.04013,-3.78256,9.36171,13.30034,6.9025,-13.27548,-23.24195,0.37417,8e-05,-22.32348,-1.58018,-0.00023,27.76089,7.39703,8.1858,13.16416,-4.59947,-13.54598,32.93823,23.25614,-8.70714,34.37185,-11.43927,35.61655,128.62709,-0.00188,-103.95972,112.07343,0.00778,104.04466,-8.03732,-8.25751,-0.00708,-17.28612,0.20985,-0.00488,-7.61054,-7.32475,5.13375,-30.65416,-8.7403,1.87026,-2.81118,-5.04425,5.64272
1540,-1.29564,-0.0,0.0,-0.55699,0.0,-0.0,3.85632,-3.79653,9.29712,13.27065,6.73967,-13.81991,-22.90529,0.50008,0.00046,-22.29666,-1.67142,-0.0003,27.61946,7.36451,8.18799,13.10349,-4.48821,-13.80413,32.84213,22.96232,-8.53718,34.92627,-11.16043,35.56678,128.54465,-0.00236,-104.11938,112.32274,0.00732,103.01416,-7.48218,-8.62696,-0.00424,-16.84862,-0.20406,-0.00707,-7.81559,-7.27442,5.15338,-30.85592,-8.70161,1.90832,-2.81786,-5.15277,5.67832
1541,-1.36676,0.0,-0.0,-0.52084,0.0,-0.0,3.66568,-3.84658,9.25223,13.20933,6.49956,-14.36024,-22.54865,0.65258,0.00077,-22.23696,-1.72705,-0.0002,27.49305,7.29475,8.1755,13.04199,-4.394,-14.07496,32.75077,22.76288,-8.37656,35.46198,-10.83677,35.49549,128.4214,-0.00217,-104.41994,112.53239,0.00475,101.99361,-6.89407,-8.69217,0.00091,-16.40252,-0.66937,-0.00693,-8.02277,-7.20605,5.22931,-31.05799,-8.66816,2.00551,-2.80587,-5.28513,5.71942
1542,-1.4706,-0.0,0.0,-0.48564,-0.0,0.0,3.4765,-3.93389,9.25174,13.14636,6.21229,-14.92468,-22.18156,0.81497,0.0009,-22.15007,-1.71845,4e-05,27.38179,7.18449,8.11721,12.97351,-4.32614,-14.29747,32.65115,22.67348,-8.25416,35.99178,-10.49233,35.40558,128.26472,-0.00102,-104.63132,112.70824,0.0014,101.22448,-6.40842,-8.47762,0.00412,-16.0056,-1.08018,-0.00473,-8.22071,-7.12814,5.37801,-31.24916,-8.65419,2.17368,-2.7808,-5.43884,5.76502
1543,-1.60683,-0.0,-0.0,-0.45116,0.0,0.0,3.28982,-4.06445,9.28545,13.09756,5.92617,-15.47744,-21.81863,0.9771,0.00089,-22.03668,-1.65968,0.00025,27.2892,7.04258,8.0113,12.89372,-4.28016,-14.47705,32.53101,22.67522,-8.17703,36.5218,-10.14882,35.29787,128.10147,0.00042,-104.59252,112.86382,-0.00134,100.80943,-6.10411,-8.11805,0.00394,-15.68392,-1.38633,-0.00199,-8.394,-7.0563,5.60372,-31.41462,-8.67568,2.41063,-2.74448,-5.6037,5.81024
1544,-1.7282,-0.0,-0.0,-0.41516,0.0,0.0,3.09919,-4.24438,9.31101,13.05811,5.69609,-15.92896,-21.47163,1.13941,0.00079,-21.89093,-1.59626,0.00033,27.21773,6.8864,7.88445,12.80073,-4.24221,-14.6764,32.38145,22.71541,-8.13999,37.04949,-9.82539,35.17709,127.96457,0.00104,-104.29755,113.01594,-0.00295,100.69723,-5.98937,-7.77724,0.00211,-15.44494,-1.60908,0.00039,-8.53065,-7.01046,5.89456,-31.54343,-8.74635,2.69753,-2.69629,-5.76258,5.84957
1545,-1.80781,0.0,0.0,-0.38577,0.0,-0.0,2.91195,-4.47584,9.30996,13.01469,5.55477,-16.23177,-21.14865,1.29555,0.00054,-21.70551,-1.56147,0.00027,27.16379,6.74047,7.74866,12.69447,-4.19333,-14.91946,32.19737,22.73116,-8.14312,37.56698,-9.53903,35.05717,127.87817,0.00054,-103.86937,113.17625,-0.00352,100.78996,-6.02636,-7.56728,0.00069,-15.3117,-1.78562,0.00243,-8.63099,-7.00744,6.22327,-31.63717,-8.8711,3.0026,-2.63646,-5.89486,5.88667
1546,-1.87834,-0.0,-0.0,-0.38525,0.0,0.0,2.75637,-4.74488,9.30726,12.95901,5.50029,-16.42291,-20.8574,1.42628,0.00014,-21.47685,-1.55719,0.00015,27.1193,6.63025,7.58828,12.57624,-4.11609,-15.15597,31.97541,22.68048,-8.19394,38.06716,-9.30369,34.96262,127.85292,-0.00044,-103.46466,113.34145,-0.00319,101.00294,-6.15296,-7.51562,0.00024,-15.33168,-1.94431,0.00406,-8.70887,-7.05565,6.55591,-31.71083,-9.04449,3.29117,-2.56627,-5.98334,5.93563
1547,-1.98686,-0.0,-0.0,-0.43487,0.0,-0.0,2.65736,-5.00727,9.32668,12.89027,5.51668,-16.56364,-20.60608,1.51639,-0.00025,-21.20621,-1.5757,-7e-05,27.07743,6.57142,7.39711,12.44785,-4.00238,-15.3323,31.71297,22.55764,-8.2932,38.54947,-9.12829,34.9259,127.89068,-0.00099,-103.19938,113.49001,-0.00209,101.27905,-6.29689,-7.58727,0.00024,-15.54875,-2.09775,0.0045,-8.78242,-7.15406,6.86637,-31.7833,-9.25546,3.53945,-2.48675,-6.02127,6.0103
1548,-2.13418,0.0,-0.0,-0.53846,0.0,0.0,2.61174,-5.19728,9.35669,12.80706,5.58871,-16.67793,-20.40142,1.56718,-0.00046,-20.8977,-1.61933,-0.0004,27.03668,6.56762,7.2029,12.31129,-3.85324,-15.45029,31.41232,22.37997,-8.42452,39.02127,-9.01152,34.97912,127.98792,-0.0006,-103.14075,113.59066,-0.00046,101.62962,-6.40002,-7.72634,0.00021,-15.971,-2.20422,0.0025,-8.86121,-7.29084,7.14741,-31.86388,-9.4903,3.7454,-2.39856,-6.01294,6.11479
1549,-2.27585,0.0,-0.0,-0.67953,0.0,0.0,2.59195,-5.26042,9.37023,12.7036,5.68818,-16.76115,-20.24593,1.58929,-0.0005,-20.55793,-1.69021,-0.00073,27.0025,6.61584,7.04378,12.17206,-3.6741,-15.54133,31.08657,22.15694,-8.55926,39.49368,-8.93477,35.13796,128.13399,0.00058,-103.31653,113.61671,0.00146,102.10733,-6.44383,-7.88705,0.00015,-16.55352,-2.1739,-0.0021,-8.9414,-7.44056,7.40931,-31.94708,-9.72963,3.92855,-2.30077,-5.96944,6.24296
1550,-2.36097,0.0,0.0,-0.83086,0.0,-0.0,2.56904,-5.18195,9.35133,12.57629,5.76978,-16.8099,-20.13918,1.59266,-0.00041,-20.19833,-1.77838,-0.0009,26.98678,6.71297,6.9372,12.04146,-3.46955,-15.62547,30.7595,21.86952,-8.66873,39.97478,-8.86055,35.3876,128.31084,0.00196,-103.71497,113.5586,0.00302,102.69251,-6.44907,-8.05159,0.00018,-17.20408,-1.94561,-0.00718,-9.01491,-7.56853,7.66712,-32.02213,-9.94732,4.11656,-2.19004,-5.90159,6.38396
1551,-2.35834,-0.0,0.0,-0.96958,0.0,0.0,2.53032,-4.99204,9.29637,12.43202,5.79191,-16.82617,-20.08082,1.5854,-0.00026,-19.83421,-1.86862,-0.00085,27.00149,6.8598,6.87475,11.93027,-3.23798,-15.70956,30.45468,21.48477,-8.73047,40.46428,-8.74282,35.68637,128.49887,0.00283,-104.28508,113.4292,0.00328,103.26408,-6.44173,-8.23058,0.00025,-17.81015,-1.53601,-0.00979,-9.08481,-7.64703,7.92718,-32.0899,-10.12033,4.32637,-2.06277,-5.81263,6.52769
1552,-2.27127,0.0,-0.0,-1.09251,0.0,0.0,2.48062,-4.75137,9.21388,12.29272,5.73333,-16.81933,-20.06812,1.57412,-0.00011,-19.47918,-1.94905,-0.00063,27.04791,7.05626,6.82805,11.83701,-2.97336,-15.7926,30.17915,21.00015,-8.72598,40.95366,-8.5487,35.98673,128.68486,0.00277,-104.92937,113.25594,0.00193,103.68256,-6.41218,-8.43771,0.00022,-18.25836,-1.03783,-0.00873,-9.16993,-7.6731,8.18414,-32.169,-10.24384,4.55418,-1.91862,-5.69934,6.66591
1553,-2.15009,0.0,0.0,-1.22446,0.0,0.0,2.43525,-4.53039,9.13412,12.19497,5.59019,-16.82526,-20.09122,1.56028,-1e-05,-19.14146,-2.009,-0.00028,27.11055,7.29202,6.75102,11.74317,-2.67357,-15.85121,29.91467,20.47523,-8.63995,41.43071,-8.27846,36.256,128.86555,0.00185,-105.51705,113.06418,-0.00029,103.85822,-6.30848,-8.65397,0.00025,-18.44279,-0.60072,-0.00587,-9.29017,-7.66976,8.42807,-32.28117,-10.3352,4.78169,-1.7628,-5.56224,6.79256
1554,-2.07638,-0.0,0.0,-1.40374,0.0,0.0,2.41004,-4.39001,9.10437,12.17948,5.36663,-16.90853,-20.13461,1.54059,5e-05,-18.82461,-2.03596,0.00012,27.16419,7.54361,6.59398,11.62196,-2.34654,-15.83356,29.62846,20.01153,-8.47015,41.88259,-7.96675,36.48253,129.04234,0.00056,-105.93861,112.86863,-0.00208,103.79221,-6.07531,-8.8208,0.00089,-18.29965,-0.36797,-0.00458,-9.44548,-7.66696,8.65165,-32.42876,-10.41915,4.99017,-1.60562,-5.41342,6.9072
1555,-2.0966,0.0,0.0,-1.63654,-0.0,0.0,2.40373,-4.36296,9.14687,12.26461,5.08118,-17.10561,-20.18203,1.52079,6e-05,-18.5276,-2.02616,0.00039,27.19224,7.77959,6.34537,11.45616,-2.01116,-15.7102,29.30048,19.69286,-8.24147,42.29667,-7.66262,36.66716,129.20955,-0.00055,-106.1452,112.67969,-0.00245,103.61092,-5.71278,-8.87614,0.00225,-17.85506,-0.38141,-0.00567,-9.61125,-7.67909,8.85036,-32.58846,-10.50721,5.16972,-1.45665,-5.27365,7.01669
1556,-2.16933,-0.0,0.0,-1.86568,0.0,0.0,2.38799,-4.44471,9.22326,12.4263,4.77929,-17.36822,-20.21884,1.52521,5e-05,-18.24411,-1.99608,0.00039,27.19815,7.9714,6.059,11.2503,-1.692,-15.53034,28.9456,19.53785,-8.00612,42.66322,-7.40576,36.813,129.34567,-0.00097,-106.12788,112.5115,-0.00159,103.49863,-5.30713,-8.79905,0.00328,-17.22433,-0.56684,-0.00692,-9.75721,-7.69841,9.02087,-32.72966,-10.59095,5.3203,-1.31897,-5.16047,7.13103
1557,-2.21205,0.0,0.0,-2.01135,-0.0,0.0,2.32679,-4.60303,9.26939,12.61671,4.522,-17.60253,-20.23263,1.57871,8e-05,-17.96638,-1.96927,0.00023,27.19575,8.10525,5.81417,11.02402,-1.41004,-15.38382,28.60767,19.49896,-7.82155,42.9789,-7.2148,36.92442,129.41914,-0.00047,-105.89276,112.37968,-0.00053,103.54958,-4.99944,-8.62357,0.00277,-16.5605,-0.81826,-0.00649,-9.87208,-7.70799,9.16323,-32.83995,-10.65483,5.44866,-1.19118,-5.07778,7.25756
1558,-2.19416,-0.0,0.0,-2.046,-0.0,0.0,2.20568,-4.79245,9.26072,12.80182,4.35697,-17.75555,-20.21449,1.67993,0.00016,-17.6908,-1.95402,0.0001,27.19127,8.1873,5.65007,10.79513,-1.17515,-15.31577,28.32817,19.49775,-7.72044,43.24626,-7.08675,37.00998,129.40721,0.00057,-105.49139,112.29223,6e-05,103.72498,-4.91628,-8.41348,0.00089,-15.98948,-1.06361,-0.00445,-9.97059,-7.7009,9.28455,-32.93334,-10.6952,5.56411,-1.07262,-5.01508,7.39888
1559,-2.16417,0.0,0.0,-2.0183,-0.0,0.0,2.03994,-4.96522,9.22642,12.97465,4.29857,-17.84487,-20.1617,1.79814,0.00021,-17.41702,-1.94128,0.00013,27.17767,8.24003,5.54731,10.56936,-0.98235,-15.30239,28.11639,19.46457,-7.69703,43.47175,-7.00164,37.07981,129.31465,0.0011,-105.05267,112.24297,0.00025,103.936,-5.12294,-8.22374,-0.00094,-15.55894,-1.26395,-0.00186,-10.07789,-7.68824,9.39851,-33.0353,-10.72761,5.67497,-0.96454,-4.95407,7.55408
1560,-2.19702,-0.0,0.0,-2.00817,0.0,0.0,1.85839,-5.08569,9.20647,13.13943,4.32527,-17.92014,-20.08036,1.8952,0.00014,-17.14252,-1.92066,0.00025,27.14392,8.29356,5.46413,10.34257,-0.81276,-15.29605,27.94411,19.36052,-7.71705,43.66576,-6.93176,37.13936,129.17914,0.00067,-104.74028,112.21378,0.00031,104.12752,-5.61439,-8.08493,-0.00147,-15.24109,-1.38346,0.00043,-10.20699,-7.68983,9.52082,-33.15968,-10.77634,5.78795,-0.86877,-4.87718,7.721
1561,-2.32525,0.0,0.0,-2.0633,-0.0,0.0,1.67905,-5.14562,9.20594,13.29116,4.39174,-18.00602,-19.9838,1.95201,0.0,-16.86063,-1.89455,0.0003,27.08754,8.37382,5.38309,10.10946,-0.64117,-15.28202,27.7646,19.17863,-7.73724,43.84067,-6.85313,37.18647,129.05956,7e-05,-104.65728,112.1851,0.00037,104.30043,-6.31272,-8.01043,-0.00052,-14.99097,-1.37836,0.00195,-10.3475,-7.71704,9.66363,-33.29647,-10.85658,5.90982,-0.78708,-4.77489,7.89563
1562,-2.52077,-0.0,0.0,-2.17586,0.0,-0.0,1.49969,-5.16991,9.19666,13.41193,4.44861,-18.08437,-19.88668,1.97709,-0.00012,-16.56428,-1.87619,0.00017,27.01779,8.49326,5.31942,9.86929,-0.44653,-15.29026,27.54012,18.93277,-7.72222,44.00391,-6.75341,37.21292,129.01044,0.00038,-104.80392,112.1465,0.00036,104.47028,-7.08122,-7.99936,0.00099,-14.79523,-1.23272,0.00241,-10.47201,-7.76358,9.82981,-33.41763,-10.96364,6.04576,-0.72221,-4.64813,8.0699
1563,-2.73375,0.0,0.0,-2.30708,0.0,0.0,1.31073,-5.20405,9.15861,13.48261,4.46224,-18.12178,-19.80013,1.99134,-0.00019,-16.25101,-1.87768,-0.00014,26.94853,8.65201,5.29137,9.62647,-0.21724,-15.36134,27.26143,18.64473,-7.65357,44.15318,-6.63264,37.21032,129.05452,0.00166,-105.13423,112.09934,0.00014,104.60934,-7.76862,-8.03669,0.00185,-14.66834,-1.00021,0.00184,-10.55399,-7.81096,10.00839,-33.49567,-11.07624,6.19295,-0.67783,-4.50458,8.23385
1564,-2.93267,0.0,0.0,-2.41712,0.0,0.0,1.11155,-5.28184,9.10308,13.49363,4.42534,-18.09272,-19.73122,2.00655,-0.00022,-15.92431,-1.90489,-0.00054,26.89057,8.84661,5.29726,9.38936,0.04965,-15.51799,26.95061,18.3381,-7.52667,44.27942,-6.49754,37.17722,129.17094,0.00288,-105.59906,112.05006,-0.00033,104.63288,-8.24272,-8.104,0.00145,-14.61607,-0.80022,0.00082,-10.58474,-7.84232,10.17559,-33.5216,-11.16969,6.33595,-0.65594,-4.35252,8.38077
1565,-3.1136,0.0,-0.0,-2.4786,0.0,-0.0,0.91396,-5.39383,9.05528,13.44835,4.34661,-17.98361,-19.68593,2.01588,-0.00022,-15.59168,-1.95806,-0.00086,26.8495,9.07463,5.31917,9.16693,0.34928,-15.75728,26.6485,18.03935,-7.34159,44.37442,-6.35432,37.12186,129.30817,0.00301,-106.10558,112.00385,-0.00088,104.45391,-8.40246,-8.18811,-0.0002,-14.61123,-0.7591,-0.00014,-10.57703,-7.85167,10.30315,-33.50898,-11.22754,6.45087,-0.65562,-4.19845,8.50862
1566,-3.29689,-0.0,0.0,-2.48663,-0.0,0.0,0.73567,-5.48899,9.02876,13.36127,4.22672,-17.80686,-19.67259,1.99881,-0.0001,-15.26114,-2.02747,-0.00091,26.8244,9.33319,5.33444,8.96024,0.67008,-16.03913,26.39382,17.77704,-7.10078,44.4374,-6.20636,37.05865,129.41411,0.00216,-106.50672,111.96561,-0.00122,104.06011,-8.19132,-8.28468,-0.00265,-14.6044,-0.92974,-0.00103,-10.55259,-7.84168,10.36974,-33.4808,-11.24403,6.51678,-0.67853,-4.04743,8.61795
1567,-3.53818,-0.0,0.0,-2.47748,-0.0,-0.0,0.59579,-5.51815,9.02417,13.25553,4.04895,-17.62645,-19.70247,1.93235,0.00019,-14.93809,-2.08902,-0.00054,26.80585,9.6188,5.31799,8.75417,0.99984,-16.27427,26.20531,17.57468,-6.81403,44.47771,-6.05869,37.00116,129.4632,0.00134,-106.68768,111.94479,-0.00115,103.5349,-7.61272,-8.40043,-0.00485,-14.55278,-1.25125,-0.00174,-10.52446,-7.8167,10.36796,-33.45081,-11.22034,6.52505,-0.73619,-3.90176,8.70972
1568,-3.93997,-0.0,0.0,-2.54202,0.0,0.0,0.51532,-5.48439,9.0469,13.16274,3.79646,-17.55274,-19.78411,1.80083,0.0006,-14.62491,-2.11232,0.00015,26.78081,9.92802,5.24261,8.52432,1.33154,-16.34316,26.07524,17.44273,-6.50077,44.5104,-5.92382,36.95647,129.46223,0.00122,-106.63128,111.95686,-0.00078,103.01834,-6.74477,-8.53037,-0.00508,-14.44044,-1.57911,-0.00185,-10.49024,-7.78282,10.30488,-33.4168,-11.16479,6.47982,-0.84381,-3.75996,8.78507
1569,-4.58216,-0.0,0.0,-2.77654,0.0,-0.0,0.50022,-5.44718,9.09886,13.11197,3.47807,-17.66735,-19.91246,1.60733,0.00086,-14.32094,-2.08351,0.00078,26.74476,10.25546,5.10248,8.25798,1.6622,-16.17348,25.97583,17.37779,-6.18788,44.54636,-5.82193,36.92321,129.43466,0.00176,-106.38031,112.01622,-0.00046,102.62835,-5.75258,-8.6161,-0.00222,-14.27403,-1.78609,-0.00142,-10.44147,-7.75698,10.19979,-33.37072,-11.10043,6.39234,-1.00049,-3.61851,8.84628
1570,-5.4038,-0.0,0.0,-3.1903,-0.0,0.0,0.51383,-5.47085,9.1514,13.10878,3.13882,-17.94094,-20.06496,1.37879,0.00074,-14.02136,-2.02376,0.00097,26.70759,10.59216,4.9361,7.96555,1.99054,-15.82023,25.87538,17.36701,-5.91001,44.585,-5.77345,36.89302,129.39828,0.00249,-106.00189,112.12535,-0.00045,102.39685,-4.87444,-8.5555,0.00108,-14.0597,-1.861,-0.00123,-10.3782,-7.77206,10.08153,-33.31377,-11.06866,6.27639,-1.18055,-3.47214,8.89538
1571,-6.21257,0.0,-0.0,-3.69133,0.0,-0.0,0.48685,-5.56927,9.1656,13.13281,2.84389,-18.25515,-20.21359,1.14811,0.00025,-13.72024,-1.97778,0.00061,26.68649,10.92836,4.79583,7.67212,2.31691,-15.43959,25.75514,17.39042,-5.71282,44.61732,-5.78887,36.85551,129.35284,0.00267,-105.62735,112.27221,-0.00069,102.29713,-4.36697,-8.28449,-0.00033,-13.78639,-1.8815,-0.00188,-10.31356,-7.86495,9.98186,-33.26049,-11.11572,6.14684,-1.34834,-3.31256,8.93279
1572,-6.8272,0.0,0.0,-4.16111,-0.0,-0.0,0.36524,-5.69675,9.14435,13.15564,2.64169,-18.50233,-20.3432,0.92677,-0.00029,-13.41645,-1.98039,-2e-05,26.69561,11.257,4.69693,7.40156,2.64043,-15.17413,25.61611,17.42216,-5.64925,44.63982,-5.86354,36.80651,129.28084,0.00121,-105.46499,112.43533,-0.00091,102.29008,-4.43404,-7.84234,-0.00745,-13.42962,-1.9084,-0.00309,-10.2657,-8.05209,9.92291,-33.22955,-11.26527,6.01763,-1.47978,-3.13164,8.95834
1573,-7.17024,0.0,0.0,-4.5154,-0.0,0.0,0.14215,-5.78755,9.13639,13.15512,2.53391,-18.64927,-20.4614,0.69971,-0.00057,-13.11268,-2.03373,-0.00054,26.74206,11.57432,4.61659,7.16509,2.95423,-15.07108,25.47371,17.43808,-5.76187,44.6664,-5.9796,36.75362,129.157,-0.00268,-105.7185,112.58851,-0.00085,102.31622,-5.16801,-7.35266,-0.01435,-12.97246,-1.94453,-0.00394,-10.24713,-8.31162,9.90683,-33.23203,-11.498,5.89935,-1.57178,-2.92868,8.97153
1574,-7.22083,0.0,-0.0,-4.70714,-0.0,0.0,-0.15716,-5.8101,9.17725,13.11518,2.47978,-18.72017,-20.59533,0.44885,-0.00047,-12.80767,-2.11353,-0.00074,26.83093,11.8794,4.54295,6.96035,3.24768,-15.09694,25.34771,17.42693,-6.05908,44.72281,-6.11196,36.71191,128.96281,-0.00828,-106.47254,112.70772,-0.00055,102.30376,-6.51008,-6.9517,-0.01403,-12.42815,-1.95085,-0.00338,-10.26005,-8.58662,9.91965,-33.26653,-11.75609,5.80159,-1.63441,-2.71368,8.97007
1575,-6.93376,-0.0,0.0,-4.7178,0.0,0.0,-0.5113,-5.79421,9.23471,13.02314,2.42784,-18.74403,-20.77834,0.18055,-0.00017,-12.49394,-2.1927,-0.00067,26.97464,12.17412,4.5116,6.78274,3.51581,-15.20433,25.25552,17.39354,-6.50037,44.82561,-6.23423,36.69019,128.70114,-0.01279,-107.62665,112.78222,-0.00028,102.20784,-8.24222,-6.72802,-0.00568,-11.83957,-1.86371,-0.00095,-10.29671,-8.80886,9.9488,-33.32028,-11.97191,5.7399,-1.67363,-2.50198,8.95039
1576,-6.26448,-0.0,0.0,-4.5783,0.0,-0.0,-0.91425,-5.81035,9.2286,12.88076,2.34765,-18.73496,-21.03525,-0.07458,9e-05,-12.16778,-2.25694,-0.00049,27.19128,12.46273,4.57925,6.63512,3.76427,-15.36623,25.20899,17.35081,-7.00256,44.96525,-6.32387,36.67992,128.40164,-0.01323,-108.92982,112.81907,-0.00012,102.02383,-10.03952,-6.70519,0.00492,-11.25354,-1.62276,0.00267,-10.34072,-8.93021,9.99792,-33.37247,-12.10258,5.73703,-1.68378,-2.30551,8.91195
1577,-5.27458,-0.0,-0.0,-4.38412,-0.0,-0.0,-1.36003,-5.91371,9.10708,12.71735,2.24273,-18.71157,-21.37267,-0.29019,0.0002,-11.84017,-2.3033,-0.0003,27.48889,12.75049,4.76085,6.52414,4.00402,-15.55737,25.21015,17.30942,-7.46602,45.1088,-6.36694,36.65968,128.10829,-0.00911,-110.08301,112.8349,-5e-05,101.77129,-11.59334,-6.83861,0.01071,-10.69619,-1.20958,0.00603,-10.36967,-8.94426,10.08539,-33.3991,-12.14931,5.81274,-1.65689,-2.1277,8.86125
1578,-4.18024,0.0,-0.0,-4.25544,0.0,-0.0,-1.82897,-6.09597,8.89633,12.57952,2.14177,-18.70611,-21.77887,-0.46783,0.00038,-11.53407,-2.33257,-0.00017,27.85617,13.04131,5.0014,6.45308,4.24193,-15.736,25.24665,17.27434,-7.80623,45.21952,-6.36074,36.61249,127.85636,-0.0028,-110.83704,112.84201,-5e-05,101.4776,-12.73684,-7.01338,0.00951,-10.17372,-0.66893,0.00766,-10.36004,-8.88581,10.22981,-33.37866,-12.15132,5.97045,-1.59193,-1.96425,8.81012
1579,-3.26086,0.0,0.0,-4.25068,0.0,0.0,-2.2943,-6.28736,8.67243,12.49761,2.0767,-18.73633,-22.23374,-0.62907,0.00075,-11.26852,-2.34662,-0.00012,28.27269,13.33337,5.21776,6.42086,4.47507,-15.8682,25.29258,17.24789,-7.97485,45.27622,-6.31168,36.54024,127.66019,0.0026,-111.07047,112.84071,-0.00011,101.17763,-13.47051,-7.09179,0.00491,-9.69864,-0.09548,0.00681,-10.293,-8.81011,10.43714,-33.29652,-12.16173,6.1936,-1.4935,-1.80833,8.7667
1580,-2.70863,0.0,0.0,-4.32688,0.0,0.0,-2.73948,-6.40732,8.50049,12.46418,2.05786,-18.78346,-22.71971,-0.7892,0.00114,-11.04575,-2.34604,-8e-05,28.72056,13.61503,5.36131,6.42082,4.69033,-15.95402,25.31676,17.2338,-7.96467,45.27991,-6.23047,36.46292,127.52014,0.00534,-110.80405,112.82214,-0.00012,100.92294,-13.88487,-6.99015,0.00132,-9.31212,0.40372,0.00401,-10.15997,-8.76588,10.69715,-33.14837,-12.2214,6.45328,-1.3695,-1.65737,8.72842
1581,-2.56591,-0.0,0.0,-4.40698,0.0,-0.0,-3.16392,-6.42031,8.41262,12.44872,2.05754,-18.82164,-23.22197,-0.94428,0.00122,-10.85335,-2.32322,3e-05,29.17731,13.8653,5.4327,6.43284,4.8681,-16.00216,25.29611,17.23643,-7.8011,45.24808,-6.12941,36.40517,127.43473,0.00529,-110.12571,112.77699,8e-05,100.77796,-14.06642,-6.71292,0.00045,-9.06844,0.7482,0.001,-9.96785,-8.77585,10.98592,-32.94393,-12.34201,6.7182,-1.23747,-1.51791,8.68689
1582,-2.76356,0.0,-0.0,-4.46211,0.0,-0.0,-3.5767,-6.35995,8.41702,12.42601,2.02269,-18.85141,-23.7222,-1.07677,0.00084,-10.67597,-2.26294,0.00024,29.60644,14.06047,5.45761,6.42188,4.99002,-16.00129,25.2269,17.2545,-7.52473,45.20314,-6.02233,36.38131,127.40559,0.00316,-109.12884,112.70418,0.00048,100.79359,-14.04461,-6.34237,0.00118,-8.98794,0.91062,-0.00067,-9.73971,-8.83136,11.27049,-32.70708,-12.50287,6.96113,-1.12721,-1.40365,8.63688
1583,-3.19935,0.0,0.0,-4.54645,0.0,-0.0,-3.98328,-6.31498,8.51008,12.39681,1.91211,-18.89874,-24.19979,-1.1695,0.00014,-10.50653,-2.154,0.00047,29.97232,14.18468,5.45768,6.35648,5.04865,-15.93212,25.12528,17.27683,-7.17519,45.16266,-5.9236,36.3885,127.4359,9e-05,-107.93246,112.6142,0.00085,100.97466,-13.793,-6.00771,0.00067,-9.0228,0.9246,-0.00084,-9.50554,-8.90185,11.51724,-32.46698,-12.6629,7.16296,-1.06639,-1.32572,8.57725
1584,-3.78065,0.0,-0.0,-4.75714,0.0,0.0,-4.3811,-6.37958,8.67804,12.38582,1.72419,-18.98921,-24.63917,-1.21723,-0.00057,-10.34927,-2.00035,0.00058,30.25937,14.2379,5.44015,6.22708,5.0516,-15.79633,25.01787,17.28717,-6.78677,45.13605,-5.84531,36.4096,127.52758,-0.00258,-106.70795,112.52487,0.00087,101.26203,-13.27834,-5.83941,-0.00359,-9.07219,0.86959,-0.00027,-9.28618,-8.95388,11.70423,-32.24281,-12.78286,7.31652,-1.06643,-1.28471,8.50814
1585,-4.3976,-0.0,-0.0,-5.11138,0.0,-0.0,-4.77571,-6.58992,8.8783,12.40894,1.49864,-19.11014,-25.03236,-1.22467,-0.00106,-10.21168,-1.82603,0.00049,30.47092,14.23522,5.42004,6.04457,5.01697,-15.63881,24.93003,17.27386,-6.39395,45.12663,-5.79336,36.42448,127.67735,-0.00387,-105.63454,112.45269,0.00053,101.54456,-12.5241,-5.9173,-0.01077,-9.04345,0.83649,0.00056,-9.08222,-8.96804,11.82946,-32.03371,-12.84414,7.42767,-1.12356,-1.27204,8.43164
1586,-4.93587,0.0,-0.0,-5.51061,0.0,-0.0,-5.18085,-6.9022,9.0464,12.45369,1.29712,-19.21779,-25.3777,-1.20286,-0.0012,-10.09395,-1.66708,0.00025,30.62312,14.20131,5.42494,5.8321,4.96804,-15.52441,24.87672,17.23559,-6.03364,45.13203,-5.76362,36.42352,127.87172,-0.0037,-104.81175,112.40762,0.00017,101.70395,-11.64518,-6.22961,-0.01621,-8.91415,0.88764,0.00139,-8.87732,-8.94389,11.90742,-31.82263,-12.85193,7.51007,-1.22178,-1.27442,8.35192
1587,-5.35209,-0.0,0.0,-5.84978,0.0,0.0,-5.59402,-7.22909,9.14487,12.49525,1.17657,-19.29136,-25.67783,-1.17398,-0.00096,-9.98731,-1.55317,-3e-05,30.74208,14.16529,5.46569,5.62148,4.9289,-15.47426,24.85697,17.18128,-5.73758,45.14045,-5.74186,36.41369,128.08348,-0.00267,-104.24316,112.39505,0.00013,101.66613,-10.83006,-6.67355,-0.01568,-8.74078,1.02824,0.00173,-8.65466,-8.89314,11.95765,-31.59283,-12.82453,7.57723,-1.33139,-1.27716,8.27729
