PaulMeinheit/Bachelor_Muay_Thai/processed_Data/N4/teep/sliced/JointMoments/sliced4.csv
Unnamed: 0_level_0,R_KNEE_MOMENT,R_KNEE_MOMENT,R_KNEE_MOMENT,L_KNEE_MOMENT,L_KNEE_MOMENT,L_KNEE_MOMENT,R_HIP_MOMENT,R_HIP_MOMENT,R_HIP_MOMENT,L_HIP_MOMENT,L_HIP_MOMENT,L_HIP_MOMENT,R_ANKLE_MOMENT,R_ANKLE_MOMENT,R_ANKLE_MOMENT,L_ANKLE_MOMENT,L_ANKLE_MOMENT,L_ANKLE_MOMENT,WAIST_JOINT_MOMENT,WAIST_JOINT_MOMENT,WAIST_JOINT_MOMENT,NECK_MOMENT,NECK_MOMENT,NECK_MOMENT,L_SHOULDER_MOMENT,L_SHOULDER_MOMENT,L_SHOULDER_MOMENT,R_SHOULDER_MOMENT,R_SHOULDER_MOMENT,R_SHOULDER_MOMENT,L_ELBOW_MOMENT,L_ELBOW_MOMENT,L_ELBOW_MOMENT,R_ELBOW_MOMENT,R_ELBOW_MOMENT,R_ELBOW_MOMENT,L_WRIST_MOMENT,L_WRIST_MOMENT,L_WRIST_MOMENT,R_WRIST_MOMENT,R_WRIST_MOMENT,R_WRIST_MOMENT
ITEM,X,Y,Z,X,Y,Z,X,Y,Z,X,Y,Z,X,Y,Z,X,Y,Z,X,Y,Z,X,Y,Z,X,Y,Z,X,Y,Z,X,Y,Z,X,Y,Z,X,Y,Z,X,Y,Z
1534,3.13988,-16.15143,3.98025,2.8882,5.96689,1.20582,-12.34512,-1.86212,1.93023,-15.73373,18.9699,3.59715,-16.5847,25.81072,-1.66834,4.52713,5.87073,1.44316,-18.16372,33.70328,2.09932,49.98395,-4.26707,-0.8956,2.86194,5.01526,1.81911,-5.77608,-4.94905,-1.33056,2.39736,-1.37193,0.81728,1.00792,-1.74453,-0.81229,0.43779,-0.15548,0.1413,0.06373,-0.363,-0.23574
1535,3.01283,-16.86715,4.07823,3.87757,5.39423,1.10093,-14.76008,-0.60105,1.41495,-14.04297,18.24542,2.8544,-16.66865,25.87195,-1.77055,4.52606,5.89983,1.51984,-18.4767,35.26861,-0.0621,38.71322,-2.18921,-1.00786,-0.03977,2.27046,1.10341,-5.49174,-4.9438,-0.84006,1.52452,-1.45869,-0.11496,0.83792,-1.53762,-0.72684,0.22781,-0.05842,0.01589,0.02589,-0.28301,-0.19842
1536,2.54109,-17.96537,4.30998,4.28066,5.56978,1.35473,-15.50628,-1.80104,0.94947,-13.24724,12.74023,2.18977,-16.67519,26.16322,-1.94129,4.36045,6.08097,1.54558,-18.68993,26.3159,-2.2019,33.53792,-3.833,-3.1505,-2.58879,-1.0797,-0.28039,-5.75508,-6.56358,-0.0877,0.23536,-1.69679,-1.28576,0.47112,-1.78683,-1.01007,-0.03984,-0.03438,-0.14649,-0.0333,-0.30297,-0.23389
1537,2.1715,-17.93067,4.39251,4.19352,6.18073,1.61908,-16.22742,-1.58636,0.99755,-12.891,8.34554,1.81619,-16.72738,26.55675,-2.05101,4.1713,6.19416,1.50357,-19.82644,20.46205,-3.73375,31.83658,-12.08544,-2.18422,-1.88633,-1.67401,-0.92335,-4.44631,-7.28063,0.6202,-0.03545,-1.85034,-1.46228,0.73684,-1.97397,-1.03893,-0.06357,-0.11865,-0.18511,-0.0085,-0.3565,-0.24455
1538,1.83529,-16.99288,4.39285,4.8168,6.4779,1.67472,-20.00339,0.20263,1.15318,-10.314,7.96619,2.25595,-16.90132,26.80106,-2.03918,4.03665,6.14791,1.434,-21.77585,21.35925,-4.8008,29.07828,-25.15068,5.0031,0.92028,0.57151,-0.33915,-1.63743,-5.96846,1.01313,0.82058,-1.77293,-0.6079,1.32631,-1.75015,-0.63028,0.15677,-0.23806,-0.09629,0.04622,-0.31687,-0.15808
1539,1.61184,-16.35418,4.43583,5.94729,5.99713,1.48104,-23.93918,0.49813,1.3157,-6.81072,10.20544,2.87777,-17.16582,26.8033,-1.95907,4.05694,6.02651,1.39053,-22.20842,23.49401,-4.14438,31.37498,-30.90679,10.1814,2.72573,2.94445,0.7427,-1.0719,-4.047,0.44925,1.71826,-1.46004,0.40474,1.31009,-1.32554,-0.29533,0.36351,-0.2638,0.04291,0.03793,-0.20644,-0.06095
1540,1.7405,-17.18353,4.60724,6.31341,5.10495,1.1541,-23.7516,-2.98148,1.68407,-5.00544,12.49593,2.70066,-17.46771,26.7691,-1.94739,4.28603,5.93315,1.39017,-18.64151,22.33644,-2.08702,40.53585,-23.46664,4.79078,3.15025,3.66803,1.45965,-4.8035,-3.50861,-1.17925,1.99942,-0.92454,1.11623,0.72902,-1.25606,-0.47487,0.38496,-0.13728,0.1967,0.01108,-0.2066,-0.07518
1541,2.00633,-19.3011,4.85635,5.604,4.80375,1.05816,-20.19804,-8.30356,1.6302,-5.15426,13.4252,2.56412,-17.76272,26.96516,-2.06987,4.56222,5.94469,1.43821,-12.69309,18.21035,-1.16113,45.55668,-15.49865,-4.68272,3.24334,3.61035,1.51896,-9.27267,-4.28345,-2.4932,1.71196,-0.35511,1.38863,0.53639,-1.49495,-0.76016,0.24707,0.04983,0.29454,0.0652,-0.32308,-0.12037
1542,1.91772,-20.84315,4.95741,4.4322,5.38453,1.38223,-17.25041,-10.36887,0.69944,-7.96562,12.49909,3.25631,-18.0225,27.41665,-2.25197,4.71867,6.05839,1.535,-11.71583,14.95885,-2.13999,39.49157,-19.39938,-6.31856,3.06982,3.77127,0.97101,-9.86078,-4.82459,-2.09529,1.22503,-0.30645,0.9547,1.18529,-1.42191,-0.49787,0.0891,0.12346,0.22614,0.19642,-0.34234,-0.03147
1543,1.56038,-20.4875,4.8307,3.42923,5.68644,1.6832,-17.52432,-6.4761,0.09577,-14.57951,9.36209,2.83007,-18.29392,27.94755,-2.39284,4.79756,6.08259,1.60575,-20.98666,15.59499,-3.86613,30.77912,-28.8605,-1.68732,3.00887,2.74014,-0.07103,-6.78985,-4.97363,-0.47926,1.13517,-1.17685,-0.01577,1.85733,-1.12374,-0.05996,0.05221,0.00519,0.00793,0.2314,-0.22674,0.07763
1544,1.68225,-19.4541,4.6796,2.75655,5.40557,1.63197,-20.00431,0.27187,0.8057,-22.41667,6.99514,0.94083,-18.66469,28.45311,-2.47258,4.78524,5.91482,1.58643,-34.17768,22.3775,-4.38535,31.44584,-31.2453,-0.33342,3.58438,-0.16382,-1.01462,-3.87616,-5.56644,0.67635,1.63612,-2.3799,-0.69578,1.65246,-1.24197,-0.21912,0.16149,-0.19685,-0.16974,0.06488,-0.15912,-0.00109
1545,2.77493,-19.81169,4.6553,2.73633,5.50248,1.49869,-20.54516,3.94445,1.81704,-23.87877,9.11609,0.93987,-19.14379,28.99745,-2.53387,4.61554,5.71577,1.50424,-34.24658,34.11607,-1.8418,43.58331,-26.43457,-2.5903,3.0558,-1.67432,-0.85665,-3.70474,-6.37676,0.55906,1.91574,-2.68705,-0.65763,0.91426,-1.69789,-0.80226,0.27769,-0.29006,-0.16004,-0.114,-0.20658,-0.17071
1546,3.70484,-21.29532,4.78343,3.34003,5.88863,1.44798,-19.08337,1.90626,2.09416,-17.61791,13.5926,3.28693,-19.66477,29.60566,-2.64646,4.4973,5.57686,1.40553,-21.4005,41.28702,2.2317,55.29556,-21.50012,-0.6416,-0.09065,0.4946,0.43098,-4.08494,-6.96255,0.4464,1.25546,-1.75803,-0.34571,0.85093,-1.91882,-1.0752,0.24638,-0.19792,-0.02796,-0.06336,-0.24555,-0.18715
1547,2.99661,-21.99893,5.04489,3.78323,5.97238,1.38944,-21.54639,-2.21291,1.89456,-12.0464,15.80469,4.42803,-20.15161,30.16943,-2.84654,4.7018,5.43722,1.35285,-18.28977,37.24565,2.93861,46.779,-18.51607,8.2804,-2.81851,3.47899,1.53944,-0.38511,-6.9313,1.97508,0.30467,-0.56532,-0.05517,2.05818,-1.6579,-0.67219,0.08913,-0.03123,0.08682,0.18775,-0.17685,-0.00301
1548,1.50967,-21.52789,5.20821,3.48559,6.08765,1.40337,-28.41836,-3.01818,1.3488,-12.2404,14.92955,3.2927,-20.5562,30.62917,-3.08151,5.0281,5.30649,1.39293,-30.55157,30.05793,-1.50547,17.94644,-18.28693,16.28904,-0.99008,3.96133,1.46733,5.12235,-5.6063,3.5655,0.26534,-0.25899,0.40056,3.39148,-1.22698,0.00602,-0.02131,0.04023,0.14274,0.38708,-0.13852,0.16025
1549,1.43516,-21.28532,4.98738,3.12267,6.5668,1.58218,-30.94259,0.59213,0.38568,-14.10258,13.4582,2.33326,-20.8932,31.02404,-3.27866,5.11081,5.21404,1.48052,-36.25591,32.07745,-6.35039,-0.38509,-22.42252,13.36061,4.02125,2.19148,0.53033,3.6546,-3.3462,2.0224,1.23468,-1.07357,0.82226,2.92889,-1.00801,0.16911,0.02949,-0.037,0.15263,0.30359,-0.25374,0.07064
1550,2.99506,-21.681,4.4544,3.49501,7.19846,1.80159,-24.80183,6.15668,-0.25676,-14.32032,14.36351,3.07308,-21.233,31.44985,-3.41284,4.98392,5.08968,1.54261,-25.37206,44.84465,-5.95999,13.54951,-28.7772,1.66395,6.88321,0.05311,-0.38019,-5.28957,-2.13683,-1.71377,2.13609,-2.19507,0.66755,0.88443,-1.03927,-0.34536,0.16744,-0.16814,0.10232,0.002,-0.36828,-0.18549
1551,4.12065,-21.91227,4.13135,4.02841,7.83013,1.95315,-18.79663,9.7665,-0.05481,-15.04401,17.55682,4.63624,-21.65041,32.05381,-3.51282,4.8481,4.89406,1.55204,-16.18887,56.43311,-1.37923,44.52129,-33.31158,-6.84405,5.31657,-0.75633,-0.66945,-12.03469,-3.04338,-3.63469,2.13425,-2.62158,-0.0043,-0.50702,-1.14956,-0.91035,0.2409,-0.23559,-0.00605,-0.21649,-0.35702,-0.35688
1552,3.42593,-22.35435,4.47207,4.01007,8.11274,2.05151,-21.90664,7.7254,0.21676,-16.91298,18.25283,5.41729,-22.15298,32.83396,-3.66069,4.72053,4.71925,1.50215,-22.72162,52.77452,0.96841,66.01489,-34.72537,-6.9701,1.77874,0.67935,-0.27329,-11.74938,-4.68531,-2.80212,1.45036,-2.11847,-0.53228,-0.34155,-1.26195,-1.06083,0.20063,-0.20431,-0.10086,-0.19916,-0.33389,-0.3609
1553,2.17945,-24.30822,5.26097,3.89397,7.82848,2.11039,-28.80745,-0.08071,0.04093,-16.61475,14.272,4.99521,-22.63548,33.45199,-3.89185,4.59511,4.65939,1.41517,-32.38813,35.07235,-0.95941,65.19644,-33.97753,-2.33956,-0.43994,3.24477,0.43998,-7.82668,-5.60998,-1.20063,0.82094,-1.22491,-0.44849,0.59945,-1.46013,-0.88174,0.11831,-0.11004,-0.08978,-0.00575,-0.40037,-0.24607
1554,2.36112,-26.8664,5.75766,4.26676,7.34673,2.03863,-29.52889,-8.19221,0.16888,-13.02992,10.01702,3.72317,-22.97328,33.58426,-4.07671,4.61537,4.63154,1.343,-29.86143,19.95736,-3.64565,45.05396,-30.24976,2.86746,0.29251,4.52206,0.93605,-3.1436,-6.00428,0.31011,0.8383,-0.646,0.19914,1.79301,-1.69901,-0.60088,0.10695,-0.02331,0.03918,0.24976,-0.45203,-0.05942
1555,3.85355,-27.27438,5.51967,4.87233,7.02766,1.80855,-25.77735,-9.69163,0.81986,-9.30231,8.8298,1.67776,-23.17395,33.42134,-4.07573,4.8509,4.50158,1.33179,-21.28893,19.34715,-5.93433,24.10772,-22.92693,5.70222,2.68677,3.65277,0.89127,1.49863,-5.73401,1.84736,1.4203,-0.7401,0.78198,2.95749,-1.52237,-0.18387,0.19781,-0.00695,0.16414,0.43208,-0.30574,0.162
1556,4.58991,-25.04066,4.91852,4.98406,7.08312,1.65553,-26.38235,-3.21914,0.96273,-8.42805,9.75652,0.06012,-23.39284,33.50692,-4.01284,5.09404,4.32232,1.38708,-20.43464,30.7597,-8.51546,20.0099,-16.49345,5.55332,3.34755,1.71875,0.4128,3.90691,-4.24409,2.59305,1.8038,-1.33555,0.5547,3.35328,-0.81368,0.33957,0.28614,-0.063,0.14988,0.41949,-0.03516,0.31352
1557,3.7361,-23.13604,4.6526,3.85695,7.6492,1.75687,-31.68699,4.48989,0.34892,-12.01981,12.90326,1.13988,-23.72669,34.06647,-4.14404,5.06311,4.20941,1.43817,-27.91143,45.45822,-8.03641,27.83473,-14.30857,4.38009,1.79361,-0.36533,-0.16679,1.97148,-3.18745,1.75491,1.62385,-1.96976,-0.24355,2.74332,-0.50313,0.43513,0.27824,-0.14239,0.03357,0.26262,0.00315,0.24843
1558,2.76582,-24.10647,4.92368,2.05004,8.16962,1.9268,-34.75737,5.62681,-0.18355,-18.62158,17.66644,4.38405,-24.09711,34.79136,-4.49576,4.7978,4.14519,1.4203,-35.35027,54.25376,-2.96822,31.7564,-12.75153,2.70313,1.20044,-1.91203,-0.56387,-2.98502,-4.19103,-0.0454,1.33167,-2.27298,-0.61332,1.79994,-1.06836,-0.18234,0.19588,-0.19638,-0.04596,0.10964,-0.25765,-0.02388
1559,2.76851,-26.58453,5.23756,1.15076,7.91318,1.9737,-33.45173,1.21552,-0.68648,-22.84361,18.81599,6.09078,-24.44577,35.36101,-4.85859,4.53244,4.08301,1.38114,-38.15767,51.77433,0.20908,31.60149,-12.88944,1.11595,2.67956,-1.31941,-0.50264,-6.5151,-5.58685,-1.20281,1.3079,-2.19153,-0.24171,1.34891,-1.488,-0.8128,0.09228,-0.21401,-0.07111,0.03991,-0.41605,-0.25552
1560,3.24714,-27.84924,5.16284,2.03873,7.49491,2.05164,-31.44769,-2.00729,-1.67437,-19.91012,14.49536,5.07897,-24.85719,35.82376,-5.09153,4.34059,4.0252,1.39231,-35.42654,42.33184,-3.07367,36.22591,-22.67827,2.18537,3.78298,1.97262,-0.02285,-5.46791,-5.29973,-0.75058,1.3591,-1.95819,0.1554,1.67897,-1.03649,-0.74647,-0.00407,-0.22625,-0.14661,0.08309,-0.25863,-0.23474
1561,3.70362,-27.74464,4.92427,3.98439,8.03787,2.27744,-30.82046,-1.65583,-2.11932,-11.66923,10.82645,3.82674,-25.39153,36.37576,-5.23961,4.17401,3.93613,1.42234,-27.31474,35.67791,-7.94849,40.85304,-38.53088,5.50676,3.3366,5.18742,0.36215,-1.34667,-3.61461,0.54165,1.35015,-1.81881,0.0912,2.38012,-0.32471,-0.14732,-0.01774,-0.25483,-0.2551,0.23123,-0.04022,-0.0207
1562,4.0337,-27.83203,5.00021,5.131,9.47035,2.46081,-31.29674,-0.73155,-0.67599,-5.82775,13.58501,4.13516,-26.00415,37.10265,-5.4302,4.01765,3.81372,1.42722,-19.44559,37.55964,-7.70026,34.49007,-45.62076,8.50173,3.11201,5.03484,0.51515,1.99256,-1.95816,1.41055,1.60452,-1.73401,0.17302,2.82609,0.0044,0.45868,0.14402,-0.25363,-0.1669,0.38481,-0.00247,0.18152
1563,3.76639,-28.55898,5.39583,4.57698,10.81591,2.47039,-34.21328,-0.99979,1.41303,-7.70481,21.02786,5.63689,-26.68902,37.9995,-5.77419,3.87423,3.77159,1.43524,-21.42226,47.13982,-2.69551,23.34042,-39.99812,11.59034,4.07241,1.909,0.7803,3.24873,-1.85597,1.82228,2.20995,-1.60601,0.91831,2.96421,-0.23174,0.64765,0.41306,-0.18116,0.20187,0.45656,-0.14758,0.23019
1564,2.90924,-29.19358,5.58238,3.64023,11.61045,2.48006,-39.01565,-1.04196,1.54782,-13.71732,27.17515,7.37616,-27.50367,39.03646,-6.28074,3.69296,3.87573,1.47251,-31.02947,58.22218,1.23919,22.12871,-30.64541,14.41088,4.82105,-0.91941,0.98852,3.84262,-3.21506,2.24189,2.60087,-1.56754,1.54771,3.18458,-0.81379,0.40763,0.55675,-0.09202,0.51721,0.44036,-0.3457,0.13503
1565,2.28575,-29.32908,5.26654,4.09032,11.78058,2.58802,-41.01525,0.09714,-0.28259,-16.47803,28.40729,8.34244,-28.39361,40.12607,-6.82114,3.46543,4.00003,1.5113,-34.68955,63.37519,0.66023,28.00697,-22.86709,14.17149,3.99642,-1.04334,0.64039,4.5532,-4.20614,2.67715,2.20956,-1.55403,1.08727,3.56594,-1.05844,0.23672,0.41157,-0.02977,0.41317,0.36135,-0.39256,0.04897
1566,1.67432,-28.90155,4.83777,5.70904,11.17605,2.66855,-40.62109,2.56675,-1.96867,-15.07355,25.62535,8.00385,-29.2107,41.13795,-7.26823,3.29831,4.04801,1.54866,-33.40311,62.55043,-3.21791,29.07837,-17.24728,12.03618,2.22918,0.78951,-0.083,4.77709,-4.12578,3.0496,1.42652,-1.55811,-0.11904,3.78441,-0.64108,0.45388,0.13129,-0.03186,-0.01309,0.2867,-0.20904,0.10912
1567,0.47669,-28.23753,4.69993,6.93205,10.35032,2.72415,-42.82351,5.90617,-2.62673,-14.32311,21.92233,7.1816,-29.93389,42.02412,-7.63909,3.2272,4.12911,1.60996,-39.76799,61.60338,-7.73822,27.67553,-17.41681,12.26942,1.10135,2.60138,-0.30123,4.23639,-3.54144,3.07715,1.0916,-1.67191,-0.74545,3.53931,-0.05061,0.72561,0.00427,-0.11046,-0.29167,0.26793,0.03769,0.24317
1568,-0.45005,-28.31136,4.78085,7.61608,10.46025,2.89702,-45.73957,7.23879,-2.45459,-15.78627,19.68354,6.85192,-30.67197,42.87014,-8.02812,3.1194,4.28406,1.65471,-48.45596,61.12059,-9.94792,30.67743,-24.33299,14.5912,1.05791,3.23543,0.21282,3.90313,-2.60675,2.38324,1.30567,-1.8585,-0.34013,3.00148,0.12979,0.55324,0.09111,-0.20341,-0.18282,0.28269,0.13817,0.24963
1569,-0.27986,-29.44425,4.87724,8.13349,11.96966,3.14365,-43.59327,3.87517,-1.44982,-18.73661,20.35916,6.63072,-31.4389,43.76471,-8.45463,2.80238,4.36765,1.64571,-45.79388,57.25002,-7.85586,31.61032,-31.00164,15.22662,1.65648,2.31619,0.71812,4.57947,-1.72365,1.38312,1.73236,-2.17022,0.29568,2.77627,-0.15765,-0.03762,0.27286,-0.27932,0.08458,0.34167,0.03311,0.08181
1570,0.3965,-30.80692,4.90181,7.90405,13.80909,3.22622,-38.15086,-1.68731,-0.41988,-23.27258,23.78407,5.68177,-32.11557,44.62567,-8.86385,2.34681,4.33614,1.6522,-36.7686,52.69532,-4.11704,21.67922,-31.59523,13.5301,2.04409,1.09477,0.88211,4.79898,-1.8834,0.81371,1.99181,-2.25594,0.56133,3.09788,-0.55602,-0.46013,0.39236,-0.28867,0.22494,0.46626,-0.19002,-0.0857
1571,0.49412,-31.64379,4.86645,7.17567,14.77655,3.1708,-36.71531,-4.3264,-0.64515,-25.68498,27.73029,5.04738,-32.64607,45.29176,-9.25218,1.99036,4.34724,1.74715,-33.22862,54.56967,-3.37541,8.86184,-30.43351,12.03158,1.70286,1.27601,1.05919,2.41491,-3.24616,0.65974,1.96902,-1.85254,0.60303,3.34267,-0.77256,-0.29711,0.39442,-0.20886,0.21558,0.50311,-0.38181,-0.1109
1572,-0.36228,-31.93159,4.90208,7.21109,14.94462,3.30207,-42.05165,-2.94888,-1.86341,-21.40769,28.73709,6.25083,-33.04268,45.77073,-9.6459,1.68261,4.50416,1.8756,-34.70973,60.68639,-6.56778,10.48266,-33.17221,12.65766,1.84726,3.03203,1.44676,-0.52551,-4.46043,0.93051,2.04467,-1.35111,0.89199,3.25555,-0.64696,0.32531,0.36908,-0.10129,0.22344,0.36111,-0.38604,0.0151
1573,-1.64513,-31.94674,5.11666,9.09705,14.82532,3.69767,-50.43979,-0.49413,-2.62412,-12.51983,25.94154,8.52778,-33.25853,46.13976,-10.00001,1.35834,4.68635,1.94171,-37.0661,62.91939,-10.54959,25.93094,-36.36945,14.76835,3.83727,4.70723,1.5621,0.36604,-4.14821,1.90754,2.43063,-1.29757,1.40305,3.41782,-0.18253,0.94991,0.36168,-0.05097,0.28185,0.2333,-0.18888,0.2053
1574,-2.90193,-31.78811,5.43285,12.29296,15.19314,4.10091,-57.15957,1.01976,-2.21477,-6.75474,25.71727,10.88701,-33.30182,46.30117,-10.27006,1.15575,4.74095,1.95632,-42.68761,64.37607,-10.50511,34.52599,-37.09499,16.77622,6.24149,4.15584,0.85189,4.42598,-3.13718,2.8611,2.70204,-1.87267,1.38392,3.95964,0.0592,0.96705,0.29906,-0.11268,0.20738,0.27573,-0.04869,0.25956
1575,-4.30052,-31.74114,5.7501,14.74431,16.71545,4.30922,-60.24068,0.4935,-1.21277,-9.59829,33.1365,13.09804,-33.3139,46.08802,-10.50236,1.05986,4.72525,2.00021,-53.16171,71.19363,-5.05819,27.18466,-39.05302,18.30418,6.53909,1.40709,-0.204,7.15058,-2.77428,2.80418,2.54641,-2.6466,0.61667,4.61227,-0.11677,0.4592,0.18696,-0.23288,-0.02227,0.47012,-0.10229,0.15428
1576,-5.52183,-32.3314,5.96811,16.12884,18.34159,4.32888,-59.9132,-2.91633,-0.80885,-16.80076,41.10231,13.5936,-33.3724,45.52329,-10.7366,0.97275,4.7781,2.08271,-60.8517,76.12482,-0.1047,20.78665,-40.3906,17.48855,4.57582,-1.11316,-0.60363,6.28274,-2.66697,1.92417,2.25167,-2.98832,-0.1512,4.93557,-0.08265,0.25625,0.16561,-0.29483,-0.1648,0.65922,-0.14108,0.12427
1577,-5.94735,-33.41257,5.97833,17.13563,18.58825,4.23782,-58.40673,-6.24304,-1.53292,-20.0934,40.46249,11.15996,-33.458,44.78596,-10.95328,0.78792,4.84106,2.1136,-58.95031,72.0573,-2.7264,30.76115,-36.49099,12.98848,2.14623,-1.15832,-0.12204,3.25812,-2.78341,1.12501,2.03588,-2.58496,-0.27258,4.60167,0.14111,0.57049,0.26652,-0.23959,-0.0746,0.69088,-0.07741,0.25607
1578,-6.09957,-33.92602,5.81322,17.41011,18.47214,4.2126,-59.22636,-4.09029,-2.59008,-17.44461,35.38106,8.58724,-33.6123,43.99631,-11.14886,0.41591,4.76666,2.0692,-52.7287,68.69487,-10.80423,47.52936,-33.56784,10.04084,1.10909,1.46894,0.64241,1.35966,-3.58366,1.06367,1.81797,-1.67576,0.26171,4.03845,0.06159,0.8246,0.3444,-0.12332,0.12902,0.57219,-0.03872,0.36717
1579,-6.71466,-33.45491,5.61865,16.62628,20.14352,4.46069,-62.0712,2.49922,-2.95479,-14.15909,36.61123,9.96802,-33.87784,43.22028,-11.33855,-0.07613,4.62226,2.06491,-51.68208,77.3923,-14.16036,50.85603,-38.44337,14.33531,2.32298,4.98872,1.09298,2.5253,-4.43381,1.63997,1.70866,-0.91563,1.08769,3.74842,-0.22413,0.53146,0.31389,-0.05672,0.25943,0.37063,-0.0652,0.25357
1580,-7.40819,-32.91525,5.50486,16.18052,23.32024,4.9678,-62.28492,6.25323,-2.63263,-13.92528,45.12949,15.03071,-34.16564,42.59822,-11.51334,-0.47765,4.60598,2.19978,-53.67614,93.42614,-7.8637,37.2334,-45.27277,21.90073,4.70906,6.88611,1.10534,5.24868,-4.86549,2.07377,1.93272,-0.73043,1.68699,3.93345,-0.49909,-0.19947,0.2577,-0.05991,0.25421,0.26193,-0.15625,-0.04172
1581,-8.21344,-32.9066,5.59293,17.79398,25.42006,5.44338,-60.08751,4.36308,-2.22216,-14.69368,51.33027,18.99168,-34.40924,42.23257,-11.68213,-0.65341,4.71243,2.41119,-52.35044,102.23949,0.80941,24.17505,-46.76373,24.13565,6.33233,5.88051,0.84811,5.5671,-4.31464,1.63031,2.47853,-1.12526,1.68639,4.12687,-0.37961,-0.53201,0.28577,-0.08331,0.1677,0.3624,-0.23476,-0.22952
1582,-9.80875,-32.55532,5.83687,21.1377,24.98495,5.60548,-60.88615,1.88738,-1.88293,-13.98359,48.85936,18.31898,-34.73926,42.11066,-11.867,-0.65856,4.73753,2.53339,-50.11359,97.79283,2.49704,27.08708,-45.16538,19.48735,6.70735,3.28646,0.61923,2.10561,-2.18951,0.3839,3.08457,-1.83011,1.35492,3.66352,0.32893,0.00154,0.37974,-0.11289,0.10269,0.52548,-0.22911,-0.18579
1583,-11.88721,-30.92685,5.94346,24.22239,22.6276,5.32625,-65.64509,3.50889,-1.44261,-12.82441,40.83715,13.91829,-35.3395,42.29391,-12.07927,-0.62162,4.55906,2.43679,-52.51486,87.09161,-3.66955,40.68109,-44.08051,12.05673,6.0859,1.15645,0.58736,-1.82676,0.02789,-0.82396,3.29884,-2.44047,1.08283,2.97873,0.96729,0.71609,0.43223,-0.17627,0.09581,0.58404,-0.20642,-0.07653
1584,-13.64531,-28.5442,5.80718,25.74109,19.56855,4.69676,-70.67285,6.48465,-1.06012,-12.63833,32.96445,8.58675,-36.22936,42.94667,-12.34876,-0.61187,4.2809,2.16481,-59.45684,76.72849,-12.73336,46.95286,-41.27044,4.34779,3.98944,0.07808,0.55511,-3.06989,-0.81934,-1.26735,2.74137,-2.65682,0.65645,2.85703,0.65222,0.65516,0.38505,-0.28544,0.05536,0.51059,-0.21282,-0.02972
1585,-15.20587,-26.26794,5.5844,26.38666,17.84873,4.18512,-74.4529,5.81111,-1.1614,-11.49096,29.16107,5.01616,-37.35697,44.14571,-12.71141,-0.61635,4.13431,1.96745,-65.32043,69.07059,-20.03746,38.17055,-36.99549,0.11499,0.83299,0.46947,0.48298,-0.77263,-5.2241,-0.60692,1.61459,-2.26109,0.07776,3.41409,-0.61086,-0.25191,0.24704,-0.34681,-0.04393,0.39576,-0.22459,-0.0148
1586,-16.78126,-23.94033,5.258,27.68476,19.44528,4.28295,-75.88883,2.78082,-1.65953,-7.43552,31.62626,5.51938,-38.76305,45.86078,-13.15926,-0.60408,4.20742,2.05204,-63.32051,68.64113,-21.86123,27.32287,-37.14468,5.06344,-1.6349,3.7214,0.72061,4.35024,-8.52848,1.23941,0.58172,-1.19959,-0.05621,4.15699,-1.48607,-0.86828,0.07269,-0.24172,-0.07837,0.31953,-0.19072,0.05424
1587,-18.22116,-20.92685,4.73821,30.29953,23.25943,4.9029,-72.79771,2.23945,-1.63841,-1.58321,38.95565,10.32649,-40.52726,48.08648,-13.67088,-0.52123,4.30881,2.33403,-51.17749,78.35928,-16.18854,29.67748,-42.04669,17.14257,-2.37425,9.10963,1.15582,9.31016,-6.17942,3.46925,0.11902,-0.05824,0.29985,4.45011,-0.76947,-0.11645,-0.03189,-0.03061,0.00115,0.27006,-0.07567,0.21635
1588,-19.68255,-16.94992,4.11665,32.84375,25.88497,5.43485,-66.33808,4.68495,-0.4598,3.26175,45.6167,15.86864,-42.65313,50.89466,-14.24751,-0.31684,4.24527,2.57239,-35.11566,91.99564,-6.45072,38.1617,-44.56475,23.92363,-0.41998,10.96999,0.8918,9.69921,-0.36493,4.02278,0.56488,-0.04459,0.51257,4.0859,0.75739,1.30373,0.03673,0.07628,0.09668,0.28021,0.02478,0.35232
1589,-21.73812,-12.0177,3.47112,32.65236,25.46563,5.36096,-62.43998,7.53182,0.80259,2.24014,45.15778,16.51169,-45.06222,54.30933,-14.88865,-0.05725,4.10671,2.63657,-31.93744,97.1208,-1.67057,36.62131,-41.78518,14.05732,5.31676,4.11824,-0.6018,2.5123,2.18315,1.05166,2.0219,-1.70071,0.35232,2.87594,1.26318,1.56704,0.2342,-0.03055,0.10602,0.35444,-0.03113,0.23735
1590,-24.40758,-6.39694,2.72365,29.83221,22.93101,4.76152,-64.09183,10.18932,0.48327,-5.92096,36.69991,10.85871,-47.68152,58.14902,-15.54671,0.14388,4.09221,2.55108,-48.90692,89.1845,-6.60863,30.32227,-38.47363,-9.76178,12.52037,-7.13142,-2.40058,-10.6489,-0.71685,-4.58781,3.7259,-3.86546,0.19954,0.49007,0.45829,0.37354,0.38408,-0.24668,0.01227,0.29945,-0.18316,-0.1216
1591,-26.82439,-1.04405,2.01335,27.9843,20.24401,4.12183,-66.66257,10.90726,-0.7985,-12.08281,27.3908,4.35313,-50.51531,62.02845,-16.12568,0.27793,4.18288,2.3843,-64.22177,75.76405,-14.19094,38.22404,-35.95243,-30.98993,15.72124,-11.99101,-3.02806,-21.85371,-4.98861,-9.10218,4.55149,-4.94738,0.21872,-2.06408,-0.4879,-0.88684,0.41598,-0.41993,-0.12215,0.02188,-0.26322,-0.44051
1592,-28.19253,2.70229,1.86676,29.16609,18.62034,3.71651,-64.90468,3.9587,-0.16386,-7.62545,24.1922,2.38104,-53.54734,65.49252,-16.53274,0.43216,4.17772,2.1778,-55.25517,61.90527,-13.92452,58.2733,-26.56836,-32.50587,12.35,-6.81951,-2.11964,-20.79615,-6.73218,-8.43069,4.25184,-4.73367,0.12839,-2.31315,-0.67362,-1.11872,0.4406,-0.50852,-0.20096,-0.21316,-0.19614,-0.46177
1593,-27.62876,4.83214,2.27811,31.54017,17.97233,3.47367,-55.68258,-11.57649,3.53702,2.87971,25.9227,4.45248,-56.6008,68.19106,-16.70661,0.65093,4.01054,1.96374,-26.75095,45.40827,-3.81174,62.36161,-9.57704,-11.79,6.06229,0.68554,-0.59107,-5.65147,-6.39491,-2.40673,3.5525,-4.03394,-0.07866,0.70074,-0.35776,-0.64017,0.52753,-0.52655,-0.17822,-0.1282,-0.07507,-0.23265
1594,-24.35552,7.27136,2.20415,33.23825,16.99349,3.31837,-37.34513,-25.58061,7.46592,11.00865,26.53012,6.9903,-59.41327,69.89819,-16.64415,0.92038,3.81258,1.78397,6.0167,29.05645,8.84058,37.3097,-1.22376,14.1663,3.25868,2.13412,0.3792,11.21101,-5.83033,3.8889,3.54245,-3.75351,0.02148,4.49179,-0.18478,-0.28453,0.67336,-0.53278,-0.1001,0.22421,-0.03866,-0.00984
1595,-19.28334,12.15324,0.6086,34.78209,14.74339,3.24525,-15.5413,-25.2741,7.89462,16.37489,24.23877,8.03326,-61.74441,70.4241,-16.37153,1.22914,3.6486,1.67053,33.33628,24.48977,14.9377,12.47548,-12.20481,24.51427,6.65856,-2.08089,0.56377,16.47634,-4.84821,5.63226,4.83208,-4.34288,0.75989,6.15943,-0.07171,-0.03959,0.90969,-0.6026,-0.00225,0.62125,-0.08611,0.11125
1596,-14.51646,18.2378,-1.89302,35.59052,12.92557,3.10783,-0.39542,-12.10983,4.86212,17.60284,24.18935,8.17303,-63.26472,69.51414,-15.86635,1.48379,3.475,1.65495,42.91719,34.43061,13.61148,20.11976,-26.74755,15.42935,12.6589,-5.82903,0.48738,11.01227,-3.08353,3.60786,6.62084,-5.32235,1.80173,5.77016,0.3242,0.55152,1.16358,-0.69983,0.12023,0.87074,-0.12559,0.21201
1597,-10.52787,20.86481,-3.21808,32.90625,13.93116,2.78696,8.64994,-3.73835,2.00079,7.88084,29.75507,9.00381,-63.45411,66.88525,-15.05401,1.59803,3.3419,1.76205,30.78699,42.70509,14.79762,46.30698,-24.91676,-0.03687,16.1863,-5.20764,0.59038,3.69828,-1.87372,1.31719,7.43056,-5.5841,2.56665,4.75006,0.83923,1.35222,1.24571,-0.67613,0.27048,0.81412,-0.0946,0.32059
1598,-4.84799,19.16596,-3.01182,26.16027,15.85654,2.40647,23.31109,-8.38836,1.37978,-11.99283,34.0952,10.06749,-61.80372,62.62035,-13.80228,1.61925,3.25214,1.87267,16.70899,37.48561,24.84867,57.55425,-14.59854,-7.65303,15.64286,-1.16947,1.11382,-0.66421,-2.12563,0.22322,6.80329,-4.60485,2.9757,3.57512,1.05614,1.76127,1.09814,-0.46809,0.44011,0.46998,-0.00952,0.37226
1599,4.52674,16.7894,-3.09796,17.79912,14.40404,2.05509,47.18649,-13.81456,2.00749,-33.50905,28.83172,8.39709,-58.11191,56.99478,-12.07948,1.50804,3.04325,1.78732,16.18105,27.19745,36.14709,52.58992,-16.01218,-4.86757,12.33226,2.62588,1.94354,-2.30598,-2.77221,-0.36123,5.43924,-3.1597,3.13032,2.29625,0.80506,1.38328,0.83643,-0.21634,0.58399,0.1254,0.02718,0.26269
1600,15.07997,14.81425,-3.91233,11.84753,9.47207,1.7483,68.09776,-8.13724,2.74176,-43.11549,16.90982,3.64257,-52.40326,49.84952,-10.04694,1.26243,2.68053,1.52672,27.59268,24.86599,37.53621,46.47204,-24.2433,-1.52923,9.13993,2.72135,2.15646,-2.50581,-3.0374,-1.22402,4.23842,-2.4942,2.82944,1.44467,0.21447,0.34897,0.59085,-0.11965,0.59586,0.05249,-0.05958,-0.01386
1601,22.93628,12.10178,-4.36985,11.55629,5.03962,1.6046,76.84558,4.44766,3.30766,-28.26597,8.52904,0.19558,-44.70251,41.20582,-7.75573,1.08191,2.33982,1.3015,53.07647,29.22685,29.49271,40.07156,-18.33017,-6.47014,8.66784,-1.17182,0.68148,-1.54939,-3.53861,-2.02292,3.66997,-3.07066,1.7013,1.68592,-0.36611,-0.6288,0.44452,-0.24384,0.33182,0.25198,-0.20429,-0.24916
1602,26.21272,9.80971,-4.42959,14.41802,3.62238,1.62924,75.92125,13.12094,3.32724,-0.36027,8.28283,1.09857,-35.47723,32.22121,-5.26175,0.96808,2.15982,1.21822,82.96464,29.59523,21.73871,36.46824,-1.00167,-15.02295,9.5554,-5.20347,-1.82952,0.32762,-4.66733,-2.0579,3.6451,-4.28664,-0.21629,2.79256,-0.63306,-0.93865,0.44062,-0.4827,-0.19568,0.50315,-0.28883,-0.26856
1603,25.27578,10.95806,-5.92471,15.17325,4.82444,1.68649,71.92257,19.25168,1.39793,13.07125,12.89753,4.49208,-25.96879,24.65036,-3.00015,0.79526,2.12562,1.26706,92.97638,29.63495,19.10009,44.80174,7.17481,-15.7411,8.1688,-5.11586,-2.86776,1.85188,-5.85826,-1.44916,3.73696,-4.91345,-1.73778,3.61127,-0.57981,-0.71429,0.52575,-0.60617,-0.5961,0.57977,-0.26305,-0.14226
1604,21.78143,16.54493,-10.62654,12.90394,6.43102,1.69142,69.42864,33.18415,-3.16131,5.05235,15.31181,6.51684,-17.54475,19.30945,-1.57917,0.55263,2.02094,1.3411,80.65974,41.07551,17.05633,52.4936,5.96167,-8.5116,5.68915,-1.78213,-1.31751,1.92691,-6.39357,-0.76173,3.77343,-4.31544,-1.36024,3.386,-0.34329,-0.35872,0.58734,-0.49258,-0.46123,0.44294,-0.17111,-0.04079
1605,17.22485,22.72261,-16.79441,10.63756,5.21979,1.71746,68.20049,50.84313,-7.94812,-4.81185,8.6943,4.72997,-10.93134,15.45775,-1.15572,0.2161,1.6185,1.26131,69.72787,51.81107,9.77361,40.15646,10.72655,-4.95334,6.66976,-0.79047,0.28979,2.03969,-6.53488,0.01402,4.04845,-3.62303,0.24593,3.01574,-0.07631,-0.04286,0.62607,-0.35522,-0.02572,0.31239,-0.10309,-0.00716
1606,13.01901,24.84576,-20.87147,9.46715,0.02927,1.80987,66.0007,57.07069,-10.69264,-3.18819,-6.3345,-0.43026,-6.13084,11.93478,-1.33227,-0.23968,1.015,0.97459,71.22967,40.87375,-2.75902,21.27738,20.07223,-10.94421,10.8566,-4.20034,-0.81278,4.28462,-7.16845,0.9241,4.5345,-4.11767,0.63453,3.66793,-0.034,0.00549,0.67895,-0.42922,0.07637,0.37298,-0.11023,-0.00049
1607,10.2606,22.37863,-21.63229,7.6516,-5.23752,1.74097,61.18812,47.86137,-11.799,2.54112,-18.16664,-5.19163,-2.78727,8.32885,-1.6186,-0.70019,0.56761,0.65138,69.67008,14.89248,-14.60974,19.18585,20.24085,-18.88047,13.84305,-6.70844,-3.07804,7.41173,-7.93448,1.50128,4.54489,-4.74835,-0.38932,4.63368,-0.25306,-0.31748,0.63279,-0.52971,-0.21572,0.47695,-0.13641,0.01095
1608,7.70344,17.01442,-18.92525,4.20121,-5.10878,1.30724,53.49097,27.29902,-11.50776,2.62016,-15.43875,-5.42093,-0.64591,4.90749,-1.68303,-1.06973,0.51004,0.5302,52.51463,-10.20588,-18.48352,24.66187,11.31254,-16.64468,12.44297,-3.41057,-2.38288,8.49835,-7.78485,1.61504,3.63509,-3.68722,-0.27647,4.44387,-0.36434,-0.54801,0.403,-0.34956,-0.25779,0.39996,-0.07932,0.0865
1609,2.9048,5.48887,-9.2934,0.25168,-0.58463,0.78838,54.91916,-11.83932,-5.64148,-2.30088,-4.27797,-2.14814,2.65729,-1.48753,-0.48932,-1.37782,0.67023,0.62989,41.10207,-51.87812,-7.35289,19.05424,6.72374,-2.60053,7.27553,3.1556,1.84207,7.53724,-7.23957,1.58119,2.29903,-1.43981,1.80955,3.3607,-0.27173,-0.41402,0.13477,-0.00729,0.24266,0.25259,0.01765,0.21689
1610,-0.08311,0.30937,-2.08749,-2.04955,2.43984,0.65061,57.5341,-33.47774,-0.22183,-5.863,0.92088,0.41066,2.29266,-1.98799,-0.12151,-1.5732,0.72991,0.78092,41.55186,-75.86301,5.16084,9.39074,14.41655,9.60403,3.51843,6.13514,4.85266,7.43658,-6.79323,1.71097,1.61582,-0.29294,3.38728,2.99102,-0.32146,-0.306,0.05154,0.13502,0.71724,0.32091,-0.01768,0.25281
1611,-1.5865,-0.70139,0.62893,-1.0473,1.1871,0.99839,62.06948,-34.905,5.74861,-2.7151,-3.69381,0.42424,2.02977,-1.56649,0.11504,-1.45866,0.62385,0.84478,58.72686,-80.34119,14.19497,10.23446,26.69183,8.10765,5.01744,3.71301,3.381,8.95348,-5.4025,2.12594,2.06665,-1.11945,2.59381,3.59865,-0.51858,-0.39909,0.20502,-0.02285,0.6401,0.53738,-0.18768,0.09596
1612,-1.40808,2.31657,-2.15271,2.79962,-2.9857,1.55008,54.7899,-16.86354,8.45842,7.65389,-13.53173,-1.42537,1.93031,-0.63669,0.08989,-1.0569,0.44251,0.74304,68.88258,-63.25665,9.48123,18.73494,27.11488,-0.5303,7.3792,0.93876,0.40928,9.15621,-3.18886,2.37117,2.87202,-2.564,0.49231,3.87905,-0.38871,-0.27924,0.43569,-0.29119,0.19583,0.57427,-0.27092,-0.11144
1613,-2.56465,7.12854,-6.96665,4.94593,-6.81961,1.74858,35.51038,6.34779,7.57861,14.61727,-19.97552,-3.4528,1.80865,0.19366,-0.07341,-0.89691,0.25761,0.50217,54.73427,-36.41029,-5.07974,21.38078,12.66004,-3.89306,4.30292,0.68811,-0.72333,6.39065,-2.2729,1.6284,2.93324,-3.23107,-1.55649,3.34466,0.11772,0.10744,0.53924,-0.46603,-0.26147,0.42666,-0.16516,-0.17032
1614,-6.82727,11.44494,-10.09923,0.87157,-7.1615,1.22818,17.3285,20.94275,5.7366,3.7744,-16.26727,-4.608,1.44213,0.65475,-0.22371,-1.38654,0.17399,0.31202,16.78955,-12.36885,-16.1,15.00094,1.1689,-2.13217,-1.38264,0.56659,-1.05773,2.78842,-3.23371,0.12249,2.31148,-3.07445,-3.216,2.63576,0.47885,0.35598,0.47327,-0.48001,-0.63843,0.34164,-0.01932,-0.07135
1615,-11.90499,13.01706,-9.54859,-7.1176,-4.41436,0.36642,12.89109,18.44951,3.54429,-20.87945,-7.96457,-5.69104,0.86632,0.78186,-0.28129,-2.18745,0.23199,0.31545,-21.15732,-10.994,-19.98316,11.73897,3.7937,-1.6308,-1.33127,-1.1543,-2.19793,1.7276,-4.89219,-0.824,2.09857,-2.87681,-3.7612,2.4488,0.37489,0.2099,0.40303,-0.41842,-0.84075,0.40077,0.01608,0.04912
1616,-13.12373,11.2105,-6.58952,-11.10677,-2.2193,-0.04939,23.63416,3.34983,0.51492,-32.37931,-4.9306,-6.27788,0.51305,0.69988,-0.26108,-2.59941,0.2533,0.39571,-22.11256,-33.09885,-21.77934,13.66521,11.87966,-3.39363,5.4077,-3.16694,-3.35251,3.95421,-7.08451,-1.04413,2.43802,-2.79154,-2.49224,2.79501,-0.04916,-0.62916,0.39765,-0.35449,-0.67049,0.4393,-0.0169,0.02626
1617,-8.94402,7.95029,-4.37858,-7.28273,-2.35269,0.30616,37.90779,-8.94101,-1.16804,-13.76703,-6.16559,-3.77054,0.73651,0.41278,-0.23164,-2.32156,0.0989,0.41462,20.92861,-47.38222,-20.62155,9.19199,19.08447,-4.72294,10.67351,-3.67197,-3.25244,7.00804,-10.29494,-1.9037,2.13277,-2.0192,-0.27721,3.16894,-0.57365,-2.29486,0.26942,-0.19784,-0.13639,0.31324,-0.02832,-0.21918
1618,-4.40159,4.97871,-3.10716,-1.50739,-3.35071,1.01713,42.39725,-11.83559,-0.44055,14.21479,-5.85842,1.39329,1.19829,-0.18168,-0.25813,-1.74755,-0.07283,0.45654,64.18215,-38.45046,-13.70758,6.57962,23.39808,-1.87198,8.26147,-1.52859,-1.3485,8.59853,-12.83333,-3.36377,0.68878,-0.30628,1.33326,3.50073,-0.98006,-3.70168,-0.08314,0.12529,0.42049,0.15966,-0.05194,-0.51061
1619,-4.69428,2.46841,-0.92846,-1.00185,-3.75679,1.52203,34.13802,-11.26804,-0.41062,21.8082,-4.08917,5.26919,1.32139,-0.83612,-0.33922,-1.49524,-0.06115,0.61585,65.45103,-24.8241,-6.6534,25.9607,15.84485,7.64952,2.24745,2.96559,2.53058,8.26495,-11.57123,-3.31158,-0.38036,0.76793,2.26608,3.83905,-0.97271,-3.1848,-0.3651,0.34464,0.70622,0.16237,-0.1347,-0.50857
1620,-7.83866,1.16887,1.18477,-4.68045,-3.53044,1.61948,16.7273,-9.32174,-2.20618,10.65103,-3.73482,5.58067,1.10336,-0.93465,-0.33315,-1.7154,0.10745,0.78323,32.4361,-17.72371,-6.04478,54.95319,-2.16785,18.72949,0.51528,6.51593,6.30468,6.95721,-6.68291,-0.77074,0.42292,-0.31207,2.78269,3.81444,-0.54811,-0.85749,-0.25285,0.1652,0.65145,0.27671,-0.22675,-0.18654
1621,-9.35783,3.60049,0.40747,-7.4287,-3.72064,1.42701,-2.69068,-1.52173,-0.1033,-0.08728,-7.70661,2.52469,0.86105,-0.14488,-0.02828,-2.06618,0.23897,0.76225,-0.76809,-11.21552,-7.39862,60.67689,-9.63521,22.50275,3.66867,5.86514,6.29534,6.47808,-1.79035,3.05355,2.40211,-2.50701,1.92278,3.26496,0.03301,1.51597,0.15631,-0.20799,0.28085,0.36572,-0.22814,0.17121
1622,-9.51722,9.74818,-2.45938,-7.61044,-4.22378,1.12024,-10.39185,8.51858,9.39896,-3.18377,-14.03406,-1.69282,0.7133,0.95851,0.55944,-2.14593,0.26522,0.5709,-11.36917,-6.68201,-4.06571,39.71229,4.37989,17.24848,6.78693,2.45022,2.74372,6.83594,0.45237,5.5909,3.8346,-3.81276,-0.15328,2.37123,0.48287,2.35922,0.49184,-0.43012,-0.13686,0.37852,-0.10994,0.33148
1623,-10.17575,13.65232,-3.45284,-6.62631,-3.70728,0.84332,2.96436,9.29419,19.04016,-4.20998,-16.53369,-3.86668,0.72939,1.19799,0.88673,-1.87716,0.3124,0.41429,1.2888,-14.94358,0.16194,18.96052,21.90842,7.18847,7.35851,0.21017,-0.46611,5.40154,-0.64793,3.80917,3.81483,-3.56969,-1.65158,1.22039,0.45604,1.07155,0.49002,-0.4097,-0.24553,0.29092,0.02097,0.16924
1624,-11.51612,11.00776,-1.56489,-5.85417,-3.32141,0.87912,28.13947,-1.5427,19.52848,-9.6157,-17.41718,-3.86841,0.93278,0.28877,0.37423,-1.57697,0.41514,0.3469,18.59485,-41.38501,-2.96196,17.39801,22.50123,-2.83379,5.88339,0.89704,-1.00072,1.95905,-5.33431,-2.63514,2.65592,-2.30369,-1.75278,0.35566,-0.18663,-1.70832,0.23376,-0.21668,-0.08517,0.11323,0.03146,-0.2744
1625,-14.04211,5.80436,0.66561,-5.52051,-4.06131,1.25791,44.25841,-13.56645,10.83032,-17.43272,-19.1072,-3.52698,1.05871,-0.66374,-0.61818,-1.5167,0.57417,0.38671,21.40307,-68.3706,-13.98054,27.33201,9.52896,-7.53582,1.65785,3.25172,0.6134,0.4043,-11.3849,-9.01587,1.19346,-0.66657,-1.50726,0.71972,-0.94117,-3.96661,0.01566,0.03673,-0.0373,-0.00886,-0.06779,-0.64306
1626,-18.80585,3.47963,2.00367,-4.13266,-3.15958,1.45108,34.77083,-16.42592,-0.77289,-16.47888,-12.22713,-2.05598,0.62159,-0.68512,-1.01615,-1.42856,0.88982,0.65371,9.73996,-61.74466,-24.19412,30.18486,-1.63004,-4.65954,-5.26189,4.2179,2.33888,2.78043,-13.8422,-9.87911,0.31154,0.57588,-2.00884,2.29625,-1.11316,-3.9114,0.01188,0.18788,-0.23624,0.09792,-0.16977,-0.62123
1627,-23.56996,2.4352,3.29435,-0.13824,0.88743,1.16487,5.47433,-10.82522,-16.39194,-2.25708,6.51877,1.84672,-0.20978,-0.10144,-0.48089,-0.8603,1.34684,1.04013,-0.88555,-17.86144,-33.68741,20.5944,-2.97591,2.92969,-10.25546,2.90825,3.14458,6.35292,-10.24721,-4.92842,0.25059,0.76018,-2.46526,3.90582,-0.55288,-1.65184,0.1052,0.14469,-0.36927,0.39605,-0.19395,-0.28123
1628,-22.07866,-0.90867,3.95808,5.22438,5.21154,0.7575,-15.0611,-3.21723,-38.55522,11.57267,23.27106,6.05821,-0.31994,0.27321,0.19993,0.05296,1.84102,1.22907,-0.41023,26.61563,-51.16848,10.01896,3.51044,11.60904,-8.38475,2.71672,4.63517,7.22212,-3.7329,1.05325,0.45923,-0.06185,-1.22514,4.15902,0.26914,0.96922,0.12251,-0.03152,-0.1748,0.57851,-0.11449,0.10263
1629,-12.65919,-2.43381,2.54583,11.04025,6.16064,0.87148,-16.73201,4.27282,-45.23498,14.73858,22.3541,6.98742,0.55175,0.3154,0.40256,0.90431,2.30325,1.10172,2.68381,43.41502,-57.57546,10.20108,7.52571,16.43118,-1.7398,5.64296,7.58681,4.5459,-0.81757,1.43691,0.34497,-0.9755,1.35399,2.84413,0.5278,1.10723,0.05683,-0.17536,0.17296,0.45612,0.00607,0.17604
1630,-2.19889,3.05425,0.29981,18.26344,5.09288,1.44797,-15.04084,6.56441,-11.76715,14.53779,8.44213,4.35862,1.26833,0.32153,0.26327,1.67364,2.8146,0.92891,1.65211,33.96278,-19.98854,19.46647,2.98349,11.56059,2.39179,8.33865,9.3722,0.6989,-4.97601,-6.3924,-0.05561,-1.0803,2.88486,1.32338,-0.18543,-2.29428,-0.02227,-0.15412,0.32671,0.2268,0.0501,-0.25238
1631,2.16047,9.86269,-0.19948,26.31844,5.77138,1.73311,-10.99715,-2.7695,37.81342,17.03673,-0.85986,0.97336,1.19239,0.28542,0.01382,2.58886,3.46226,0.94469,8.25818,7.04138,40.46957,28.93665,0.75871,0.05829,1.39636,7.16107,7.46975,-1.82949,-11.10717,-15.38601,0.0607,-0.62825,1.80408,0.77748,-1.18314,-5.8214,-0.03113,-0.01445,0.16976,0.12404,-0.03351,-0.82896
1632,0.6745,9.97846,0.75322,34.57865,9.12515,1.42868,2.97047,-13.76813,55.15049,19.36048,2.23049,-0.85607,0.85819,0.13672,-0.24801,3.81896,4.24427,1.11542,26.07098,-20.41899,65.426,36.6391,5.91776,-4.33928,-1.18777,3.20957,3.14936,-2.06659,-10.71628,-14.72596,1.15445,-0.4805,-1.04781,0.87835,-1.34222,-5.12622,0.0594,0.09576,-0.12386,0.06516,-0.13811,-0.974
1633,-1.94559,6.14727,1.46899,44.5017,14.4934,0.79385,20.09598,-10.7476,33.11635,23.21768,14.36271,-0.55182,0.95049,0.01288,-0.25604,5.30886,5.21355,1.40005,43.90252,-24.00482,39.60881,46.41692,2.43793,6.74048,-2.7969,0.19769,0.5076,-0.4011,-3.35893,-4.24267,2.65019,-1.03128,-3.51486,0.83821,-0.43287,-1.01213,0.17224,0.05401,-0.28342,-0.04189,-0.10678,-0.70003
1634,-5.20528,5.31718,2.47838,57.48261,19.28509,0.5091,20.7414,3.11038,7.36817,35.92861,24.06962,0.65312,1.16563,-0.00026,0.21647,6.79859,6.28487,1.65221,48.85624,-4.0092,2.36099,56.6404,-9.89574,23.12838,-3.71298,0.14651,2.22427,0.91169,2.54024,3.83779,3.74745,-2.02884,-4.16451,0.35269,0.57838,1.52216,0.23033,-0.14477,-0.19844,-0.08908,0.0646,-0.51415
1635,-11.18977,5.99847,3.90537,73.14404,20.95011,1.06296,-5.81513,11.99592,1.2104,57.36576,21.10829,0.7342,0.67347,-0.01446,0.7848,8.17023,7.27106,1.64056,36.46446,10.76068,-11.83015,54.90388,5.28694,23.80774,-3.39924,2.01747,5.9268,-0.8618,0.47972,-0.07142,4.15372,-2.78489,-3.27257,-0.78754,0.67696,-0.06418,0.27537,-0.33986,-0.01773,-0.12708,0.21735,-0.45572
1636,-15.8355,2.01948,2.99087,90.0089,19.64202,2.26134,-40.27998,12.5407,0.47789,80.28416,4.94175,-1.23347,-0.40508,-0.09008,0.76717,9.74116,8.06435,1.31611,25.65568,-3.35621,-14.09686,30.41618,64.24035,-0.11527,-1.56631,3.69959,7.34667,-4.18509,-8.19994,-13.14419,3.80768,-2.59776,-2.07409,-1.57989,-0.25714,-3.90231,0.36314,-0.3573,0.04443,-0.15556,0.19104,-0.18239
1637,-12.67033,-6.11448,-1.67095,106.17986,18.78399,3.16083,-55.49137,14.38877,-13.22417,99.34556,-10.36098,-3.55752,-1.1061,-0.0993,0.09523,12.05897,8.71715,0.98613,37.52385,-30.63377,-26.98623,-1.84179,111.57051,-30.48329,-0.9485,4.60921,6.98996,-4.88832,-17.21316,-25.64097,2.86003,-1.63173,-1.47201,-0.37792,-1.65744,-7.25292,0.41789,-0.22174,-0.06028,0.06739,-0.04804,0.10469
1638,-3.08407,-11.36236,-6.60498,119.46146,22.31036,2.62848,-53.39324,19.53118,-30.99978,110.50972,-6.17835,-3.44769,-1.07544,0.07417,-0.58288,15.32294,9.41249,1.04673,56.93904,-34.88477,-37.87408,-11.65363,86.90399,-44.09664,-2.80315,5.22555,7.63785,-4.96217,-19.69921,-31.49817,1.93839,-0.84453,-1.60161,1.49928,-2.6022,-9.06269,0.33508,-0.0737,-0.22833,0.43773,-0.27182,-0.31885
1639,5.83542,-9.91762,-7.48298,129.96898,28.13662,1.21061,-61.85792,21.09954,-33.87833,113.52142,12.06121,-0.79892,-0.9157,0.31584,-0.61815,19.06005,10.12287,1.36574,47.03838,-13.60381,-23.08385,6.89852,21.27208,-43.54092,-2.7683,5.11838,7.35903,-9.81363,-13.72815,-31.78426,1.8934,-0.92835,-2.0746,1.32184,-2.38511,-9.3721,0.24186,-0.03873,-0.32975,0.59403,-0.22077,-1.41442
1640,11.98592,-4.07067,-3.56705,140.62898,30.86789,0.41828,-92.31837,16.38439,-18.04723,116.32748,24.68976,1.63453,-0.8903,0.31014,0.13223,22.53247,10.57634,1.44842,6.17515,10.04445,15.39957,35.53257,-10.8511,-41.80889,1.57224,4.26712,4.10105,-19.62806,-2.95121,-28.6883,2.94031,-1.67667,-2.48365,-1.42419,-0.95222,-7.29654,0.35804,-0.13029,-0.34249,0.40818,0.00937,-1.9723
1641,17.03561,2.48607,3.08651,153.12569,30.27322,0.17078,-124.75372,7.51313,7.72726,126.88113,30.73887,1.69594,-0.48979,-0.09871,1.11292,25.59695,10.68576,1.17563,-27.87782,29.32204,59.13859,58.34055,-0.15918,-36.50309,4.96436,4.48414,2.84331,-30.31371,7.34897,-23.87058,4.10176,-2.40531,-2.40005,-5.98471,1.1656,-3.19483,0.55438,-0.21922,-0.29898,-0.18574,0.2381,-1.34712
1642,20.34423,6.90296,8.93503,165.45341,29.12684,-0.25416,-137.9073,-2.77147,30.69807,141.48598,35.80576,-0.06312,0.54925,-0.59654,1.34562,28.77929,10.64456,0.82995,-31.38441,38.23897,90.35944,67.35092,11.16496,-24.35776,3.44115,6.45793,7.72033,-35.47573,11.54226,-20.90851,4.71354,-2.94582,-1.76906,-9.90538,2.72543,-0.76121,0.6243,-0.25243,-0.2215,-0.91562,0.41732,-0.44616
1643,21.46317,7.06924,10.06563,174.4259,28.22632,-0.66268,-131.24052,-7.00865,35.60314,150.6028,36.02823,-1.14861,1.48779,-0.64558,0.55543,32.29672,10.64309,0.63555,-12.72702,25.5679,95.50947,60.56715,9.58985,-16.22842,-0.12429,7.78311,13.58245,-31.14248,7.35476,-21.54316,4.75161,-3.15152,-1.18655,-10.20749,2.64723,-2.47379,0.59323,-0.26616,-0.1531,-1.17799,0.53952,-0.32615
1644,14.02732,3.83618,5.67918,181.30745,27.66445,-0.80816,-122.50028,2.1265,16.31704,157.3824,33.97164,0.09002,0.84818,-0.17108,-0.34849,35.79298,10.65446,0.62515,10.49268,9.6771,71.61386,46.63988,13.2616,-20.65763,-1.35247,6.54378,13.44849,-20.66397,-0.7825,-22.49645,3.98575,-2.74877,-0.74885,-7.0202,1.23524,-5.93921,0.48439,-0.25377,-0.10299,-0.85493,0.5433,-0.81394
1645,-15.67939,1.2866,-0.94186,188.33244,27.64382,-0.98386,-126.52198,15.56746,-9.85965,166.62712,40.0358,2.70413,-1.86065,0.426,-0.67553,38.91277,10.53063,0.71954,17.69683,19.08918,33.45647,40.90781,17.1836,-33.67413,1.01793,4.32509,7.97013,-12.97475,-4.54671,-20.40978,2.76368,-2.33585,0.33013,-3.35472,0.00994,-6.34498,0.31118,-0.27157,0.02441,-0.33422,0.35764,-0.88902
1646,-65.37791,1.56877,-6.44656,193.8179,26.94497,-1.04008,-133.22554,17.03666,-19.81228,171.67059,52.15296,4.64722,-4.85809,0.86389,-0.72814,41.60503,10.19804,0.77475,2.5011,42.26851,-1.6849,45.55249,-3.1857,-50.64375,4.22431,2.73257,1.70533,-15.38282,0.49159,-18.60873,1.79374,-2.21036,1.50028,-2.17846,0.33806,-2.91862,0.16994,-0.34724,0.20169,-0.00659,0.11699,-0.27762
1647,-102.98792,2.5828,-9.21091,197.22557,24.13765,-0.29208,-110.01797,7.84255,-14.53867,170.24893,55.43486,5.16507,-5.7343,0.91713,-0.65232,44.00041,9.6039,0.69043,1.81686,41.62889,-31.35841,49.91037,-34.70889,-70.78432,5.68618,0.96578,-4.22072,-26.43178,9.48435,-23.54576,0.98086,-1.66999,1.28957,-4.16815,1.91877,-0.74169,0.08695,-0.38186,0.28004,-0.0082,0.10541,0.03888
1648,-99.46565,1.74405,-9.49953,200.87846,21.05054,0.77833,-44.96838,2.60915,-15.25463,169.40378,46.01903,4.22157,-4.11971,0.35842,-0.20482,46.0427,8.65772,0.53863,49.4623,12.45257,-62.43222,53.52361,-36.2225,-88.26257,6.60749,-0.9531,-10.21285,-36.43052,13.36921,-33.72753,0.17121,-0.81115,0.52064,-7.15218,2.95662,-3.41587,0.03119,-0.38061,0.3831,-0.17984,0.29122,-0.66268
1649,-62.78445,-0.22232,-6.91465,205.69504,22.10552,0.34607,28.06729,6.0483,-26.53032,176.51912,40.08463,1.14691,-1.6871,-0.68412,0.65459,47.61061,7.38723,0.51019,124.73522,-8.70132,-88.98589,56.5866,-4.66411,-88.45818,6.67169,-2.12457,-14.05011,-35.18043,9.98687,-36.21579,-1.25303,0.2019,0.99366,-8.055,2.59463,-6.99586,-0.18109,-0.27407,0.6862,-0.30824,0.36602,-1.64561
1650,-22.5317,-1.02625,-0.92514,209.51883,27.20478,-1.63812,73.05917,9.9168,-29.2113,191.37637,45.71764,-3.14192,0.00194,-1.51639,1.52349,48.79966,5.88629,0.59946,187.17227,-4.98885,-92.14171,44.28344,25.37755,-65.74301,4.7264,-2.27656,-13.9628,-21.37906,4.89675,-22.36976,-3.10643,1.25375,1.93431,-5.83386,1.89386,-5.59044,-0.58749,0.01059,0.8687,-0.32458,0.24842,-1.70647
1651,0.31799,-0.39874,4.2963,209.84233,31.67596,-3.1739,81.0046,7.62151,-14.15419,204.0979,51.24369,-5.72856,0.58719,-1.54602,1.82988,49.66077,4.3154,0.66424,210.14247,2.74204,-67.96175,15.35984,35.91018,-38.93109,3.40299,-1.1606,-13.10526,-5.43821,1.4154,-3.29293,-3.52967,1.60011,1.28088,-2.12578,1.56381,-0.34604,-0.82952,0.27944,0.54485,-0.25657,0.09446,-0.84147
1652,5.1274,0.55836,5.86499,207.22931,33.37709,-3.31771,64.57857,-0.22728,11.26268,205.56906,48.7038,-5.72851,0.6319,-1.00169,1.4319,50.12445,2.97333,0.73801,193.24066,-1.5382,-28.44184,-4.69222,37.25861,-28.22199,4.57689,0.19442,-15.62234,1.14428,-0.41651,4.69602,-2.48911,1.3892,-0.88104,0.48897,1.25761,3.23561,-0.75561,0.4252,-0.07809,-0.16591,-0.01189,-0.03282
1653,4.34841,1.52619,6.39045,204.49632,33.65615,-2.71832,54.8602,-7.88975,33.31477,195.42268,42.75684,-5.15754,1.24502,-0.34087,0.58597,50.32676,2.07141,0.92795,168.75406,-13.36648,4.7767,-0.23321,36.43861,-30.17458,6.66075,0.31292,-20.70211,-0.56836,0.26323,2.09214,-1.8044,1.33286,-2.48206,1.37386,1.01493,3.89877,-0.59816,0.47649,-0.488,-0.03139,-0.12624,0.26142
1654,8.18099,2.15865,6.60162,201.96465,34.34028,-2.37049,73.49447,-8.84616,33.9164,177.50772,39.90508,-5.81423,2.86617,0.38068,-0.29807,50.51161,1.61811,1.23848,164.98427,-23.57199,4.79691,15.32866,26.05228,-29.41905,7.74386,-0.02759,-24.40522,-0.69312,2.66169,1.06255,-2.15132,1.4841,-2.38797,2.25125,1.21216,4.60976,-0.55528,0.46239,-0.50002,0.2029,-0.29262,0.4464
1655,15.98509,1.48728,3.5765,197.02415,34.49288,-2.05505,101.80668,-4.04061,11.35953,157.41525,37.79002,-6.33471,4.48913,0.93071,-0.77018,50.59957,1.43367,1.51443,174.56114,-31.78708,-23.36605,24.27894,5.46641,-18.13547,7.27597,0.87266,-23.50634,5.34445,2.99682,7.08226,-2.31636,1.35995,-1.6163,4.50975,1.21721,6.72528,-0.50632,0.39874,-0.41585,0.50713,-0.50689,0.85455
1656,21.62477,-0.66449,-4.16354,188.96223,31.71122,-0.58189,110.07113,-0.80742,-13.41703,142.41502,30.03347,-3.80557,4.66991,0.87277,-0.74197,50.09596,1.29882,1.57979,181.9946,-43.03871,-41.97233,18.45219,-7.774,-2.82416,6.01467,2.51138,-18.43685,12.97789,-0.58298,14.88308,-1.23171,0.81182,-1.48372,7.22154,0.09934,8.6075,-0.2156,0.28575,-0.52226,0.74882,-0.74577,1.2992
1657,20.38029,-3.20895,-15.95431,180.2626,27.89572,1.52492,95.52118,-0.42393,-34.39353,136.91423,21.2182,1.10359,2.91194,0.59039,-0.61847,48.67573,1.17529,1.53816,185.29416,-52.90027,-47.87396,3.77099,5.03928,5.2957,6.04923,3.48712,-13.9809,17.07904,-6.18886,19.02528,1.03516,0.08924,-2.06402,8.96509,-1.82758,9.06003,0.33504,0.13236,-0.70029,0.86126,-0.92986,1.58362
1658,11.33111,-4.43583,-26.82069,173.18504,27.61397,2.30088,74.00938,2.0504,-64.46554,139.26482,21.59714,4.33062,0.68203,0.67523,-0.51561,46.77579,1.03595,1.67882,184.45837,-52.6144,-75.72528,3.81659,36.49488,8.3084,7.40404,3.8103,-11.87569,17.86876,-10.50329,19.99474,3.27246,-0.52581,-2.18257,9.5652,-3.31051,8.68382,0.76638,-0.01933,-0.57027,0.87754,-0.9602,1.68407
1659,-0.83026,-3.10229,-25.61926,167.36035,31.00726,1.38377,57.17823,6.61958,-87.43699,143.57339,30.44964,3.51187,-0.40005,0.72937,-0.03633,44.94297,0.71607,2.02647,176.57733,-43.10993,-115.48423,23.31392,52.89822,15.79921,7.34151,3.98434,-8.81201,18.86655,-11.01893,20.84568,3.74824,-0.82542,-0.66469,9.58315,-3.50066,8.43425,0.60326,-0.11639,0.05533,0.81065,-0.83606,1.61828
1660,-12.04729,-0.07703,-8.18577,161.49507,34.4111,0.11213,43.3634,8.32504,-66.11225,147.32808,39.82037,-0.23904,-0.88011,0.29012,0.8228,42.99607,0.2081,2.30317,162.43399,-29.00618,-113.32695,26.75749,35.24382,23.89101,6.57087,4.74202,-5.37331,21.38666,-9.3389,22.41836,3.27673,-1.2305,1.7439,9.42115,-3.05081,8.3261,0.1378,-0.25516,0.78687,0.67413,-0.67173,1.43857
1661,-22.11832,2.17457,12.24648,155.32909,35.20573,-0.24785,29.43003,5.35809,-6.33408,154.18495,42.98597,-3.68527,-1.85307,-0.41405,1.16667,40.69664,-0.26392,2.31329,155.14111,-17.82088,-59.3583,-5.64127,0.77895,24.08392,7.00721,5.84727,-5.348,22.80809,-8.61755,22.82519,3.51252,-1.78045,1.8769,9.09354,-2.96271,7.94229,0.02376,-0.40521,0.81523,0.54768,-0.58196,1.24231
1662,-30.68661,2.37127,18.77573,147.93866,32.90995,0.66417,18.13424,0.05995,45.686,160.14639,35.2711,-3.87815,-3.00904,-0.90171,0.38157,38.544,-0.51606,2.11037,159.88292,-21.65008,4.60732,-38.2032,-24.03758,23.47552,6.39939,6.10349,-6.92387,21.39962,-9.51469,21.33106,3.77322,-1.60321,-1.9164,8.89465,-3.3213,7.57132,0.24384,-0.2687,-0.10944,0.54933,-0.59842,1.20678
1663,-39.01324,1.39465,12.50109,138.27869,29.81667,1.8658,3.86638,-4.82697,69.57624,151.23819,21.57091,-1.19588,-3.84042,-1.02495,-0.7327,36.98235,-0.43853,1.95943,148.33107,-37.27158,54.8576,-32.01606,-30.34194,33.64525,4.17959,6.41946,-4.95673,19.14137,-10.90931,20.0415,4.23501,-0.93524,-6.10984,9.21095,-3.53387,7.75365,0.56927,0.03944,-1.06824,0.69961,-0.58285,1.40992
1664,-47.77235,0.44579,5.71954,127.74094,28.35955,2.41687,-20.22664,-7.02559,68.69159,124.13348,11.24768,1.85383,-4.43293,-0.93067,-0.86708,35.4604,-0.05381,2.01092,97.52838,-51.32933,79.55795,-3.65184,-26.83056,52.85577,2.5999,7.76514,0.41857,18.88367,-12.08456,21.07725,5.32748,-0.63119,-6.85289,9.96648,-3.24078,8.42172,0.84881,0.16986,-1.1916,0.88712,-0.40389,1.67458
1665,-52.88045,-0.14993,0.87053,118.39796,26.507,3.03442,-43.0861,-6.16752,34.81164,93.91126,1.10099,4.23936,-4.77633,-0.60206,-0.00737,33.31084,0.31093,2.03601,35.04277,-69.24013,49.37545,6.36963,-16.55862,70.06705,2.44691,9.14524,4.41695,21.06767,-13.45739,24.05759,6.23108,-0.86666,-5.47746,10.85122,-3.00663,9.17391,0.91586,0.08309,-0.78928,0.99741,-0.20123,1.81419
1666,-49.61845,-0.82152,-3.52593,109.93253,22.69274,4.02255,-47.3569,-4.69594,-16.28613,75.01969,-10.93614,5.51955,-4.53891,-0.23626,0.88287,30.71787,0.33672,1.89158,6.40014,-92.79942,-19.17659,-8.45138,8.17717,74.34915,2.89122,9.22212,4.25789,23.67436,-15.10477,26.5688,6.29884,-1.28407,-5.05832,11.43367,-3.50492,9.6159,0.77945,-0.048,-0.55295,1.01205,-0.18833,1.83046
1667,-37.51327,-1.41418,-4.20761,100.63782,19.90634,4.08223,-29.61779,-4.63354,-41.76684,64.72983,-12.76136,4.63273,-3.37138,-0.18253,1.3432,28.09826,-0.00495,1.7837,18.64137,-99.28668,-59.40321,-27.56634,38.0478,61.11312,3.14712,8.07371,1.24392,24.25611,-15.76195,26.33983,5.24482,-1.36439,-5.21811,11.15649,-4.32997,9.35833,0.51096,-0.07217,-0.56359,0.96728,-0.35093,1.79113
1668,-22.30537,-2.12796,-4.22822,90.99204,19.7783,2.86062,-1.89944,-6.48421,-39.08855,52.87942,-0.02356,1.91155,-1.52774,-0.30099,1.03048,25.44538,-0.62585,1.82165,40.86913,-81.55939,-57.54656,-29.81521,44.16309,39.47102,3.74039,8.01006,-0.8001,21.76704,-14.80082,23.20332,4.10919,-1.1943,-3.77854,9.93024,-4.68968,8.40535,0.32825,-0.05249,-0.50604,0.88546,-0.53701,1.72543
1669,-12.53121,-5.35241,-11.10823,82.80267,19.44286,1.83061,20.03202,-10.66467,-44.02839,37.8856,12.68033,-0.49255,0.04869,-0.29613,-0.35712,22.55109,-1.41765,1.83568,46.86695,-65.95306,-61.17714,-6.20933,13.9536,26.05979,4.47404,10.31651,1.40108,17.21556,-13.28981,18.85954,4.05619,-1.27401,-0.71931,8.56659,-4.51219,7.34988,0.40575,-0.14464,-0.21615,0.80966,-0.65298,1.65728
1670,-10.7094,-10.09515,-19.28199,75.45465,16.53276,1.92105,27.88226,-13.98514,-54.91602,22.14625,13.31752,-1.35452,0.77543,-0.19617,-1.87497,19.28591,-2.22231,1.72294,32.51884,-65.69003,-73.87806,27.95835,-31.28472,26.9693,3.88684,12.77655,6.90578,12.35931,-12.89013,14.92277,4.65884,-1.5811,1.72439,7.89329,-4.5205,6.64231,0.61733,-0.31219,0.12585,0.81695,-0.73784,1.61951
1671,-11.99522,-9.62224,-16.804,66.61156,12.70989,2.34198,23.85608,-9.74788,-37.82146,4.79557,7.01433,-1.817,0.95053,0.0234,-2.18804,15.51044,-2.92107,1.64039,6.49417,-60.67451,-52.20523,45.26311,-61.44682,34.10664,1.46054,12.43572,11.36755,8.16022,-13.98657,11.70634,4.60808,-1.51694,1.89195,7.49593,-5.16579,5.8084,0.70561,-0.34135,0.22916,0.8774,-0.85975,1.51147
1672,-11.84117,-2.77334,-6.61874,56.39614,9.43092,2.59108,18.75168,0.48845,-3.32196,-8.86103,0.03174,-2.59657,0.97449,0.39513,-1.47027,11.09424,-3.6381,1.70359,-8.67405,-46.98472,-7.45714,38.75778,-63.8962,37.64912,-1.37504,9.76991,12.30561,4.79972,-15.20444,8.80174,3.56786,-0.9155,0.58892,6.20229,-5.87544,4.04869,0.59457,-0.17724,0.09852,0.80106,-0.94902,1.10114
1673,-10.11489,1.88872,-1.02891,47.67141,6.51682,3.07365,21.87681,4.7484,0.7815,-9.14544,-6.48283,-2.15618,0.91804,0.63865,-0.77925,6.14389,-4.6007,1.87392,5.39619,-47.35897,-0.82816,23.47374,-41.35679,33.91218,-2.44341,8.04731,10.88123,2.72738,-14.94982,6.36978,2.60773,-0.46001,-0.2223,3.96947,-5.76715,1.73803,0.44486,-0.04227,-0.01737,0.48685,-0.85508,0.41994
1674,-8.4363,-0.07414,-1.93249,42.10036,5.97587,3.46255,28.79493,-2.12244,-30.47875,0.49874,-4.8611,0.41275,0.953,0.57666,-0.34282,0.7488,-5.74546,2.19467,31.39802,-59.42365,-38.93904,7.71355,-3.68595,24.72389,-0.6832,8.75814,8.29291,3.5215,-12.22427,5.5364,2.71276,-0.70978,0.03555,2.58055,-4.33225,0.60304,0.37219,-0.08538,-0.02494,0.17162,-0.50748,-0.03043
1675,-7.86387,-4.78007,-3.94188,38.99968,8.29513,3.41131,26.63863,-12.61007,-58.27299,7.54622,6.53854,3.16378,1.26921,0.30514,-0.03776,-5.10688,-6.88878,2.62963,35.8833,-62.40358,-72.843,-11.41339,27.13562,13.8285,3.00597,9.63688,3.81355,7.19301,-8.37593,6.88097,3.5175,-1.29885,0.30635,3.3854,-2.3328,1.5936,0.33158,-0.18554,-0.02829,0.17289,-0.13698,0.16551
1676,-8.3761,-7.61543,-4.166,36.41441,10.52212,3.2645,10.47382,-16.85343,-55.86698,5.80687,17.36127,3.8413,1.59619,-0.07482,0.0421,-11.1136,-7.95123,3.00365,8.27161,-50.84687,-72.06188,-29.35634,27.67013,3.87161,6.25604,8.50901,-1.83514,9.49308,-6.6155,8.30212,3.80144,-1.47159,0.06703,4.97335,-1.48708,3.16408,0.26594,-0.18979,-0.02557,0.41189,-0.14886,0.66119
1677,-8.71936,-5.035,-2.03345,32.25579,11.81601,3.06211,-10.111,-9.37759,-25.88863,-1.68801,24.97581,3.16014,1.66226,-0.30879,0.1387,-16.83035,-8.84047,3.28091,-32.01867,-24.12835,-42.4154,-33.26622,2.83003,-2.39623,6.81694,6.87341,-4.71569,6.71378,-7.97211,7.17999,2.98875,-0.9671,0.16951,5.05982,-2.25474,3.23853,0.18504,-0.09464,0.08831,0.54601,-0.51025,0.82232
1678,-8.83192,2.82352,0.7692,26.225,13.05952,2.76653,-18.48562,5.74072,11.52234,-8.11063,34.74289,3.74152,1.57237,-0.15898,0.45341,-22.21778,-9.5117,3.49057,-51.9999,13.61816,-3.33263,-15.62803,-22.30039,-3.42791,4.82378,7.14562,-2.48361,0.48506,-10.0559,3.64396,1.87263,-0.22827,1.24737,3.4208,-3.36561,1.74267,0.15324,0.00354,0.28225,0.42853,-0.7942,0.53047
1679,-9.22108,10.81904,1.87012,20.39846,13.80445,2.78531,-2.69735,16.85256,36.32765,-9.25231,45.42874,6.69233,1.4673,0.22895,0.71864,-27.52069,-10.01877,3.60599,-29.55519,41.33236,30.32197,20.26205,-37.55407,-2.60667,2.13462,8.37325,1.99677,-5.1718,-9.19365,-0.55619,1.19824,0.14849,2.303,1.45043,-3.32712,0.0968,0.12274,0.03877,0.33087,0.18067,-0.76289,0.08584
1680,-7.31713,13.32035,1.02053,16.94193,14.76012,3.11034,33.86784,14.59401,37.75604,-5.89932,53.66114,10.13042,1.55529,0.48489,0.68668,-32.91835,-10.37288,3.68874,26.13952,39.34263,46.64497,58.52563,-45.6983,-3.42413,0.02267,8.09989,4.65699,-8.17654,-4.89982,-3.76544,0.69818,-0.01016,2.27169,0.27539,-2.07103,-0.60288,-0.06527,0.00991,0.15227,-0.02559,-0.56113,-0.21885
1681,-1.59736,8.45934,-0.02724,15.79142,17.15919,3.20926,71.21351,-2.10726,16.38858,-2.65903,59.19579,10.7205,2.09049,0.36498,0.48233,-38.29098,-10.61711,3.75654,77.77252,8.83966,35.52106,76.20121,-43.14833,-5.68645,-0.28826,6.37724,3.78677,-8.98472,-1.32697,-4.88319,0.41374,-0.49477,1.53976,-0.16301,-0.81274,-0.52545,-0.30206,-0.07017,-0.0293,-0.14415,-0.38454,-0.32273
1682,4.70049,0.92781,0.2701,15.21583,19.6143,2.9689,86.8669,-22.35525,-12.31943,-2.04369,60.63816,7.71448,2.93307,0.0527,0.45461,-43.13123,-10.80558,3.64757,94.0886,-27.8186,3.83987,60.544,-30.41241,-7.71381,1.9704,5.40172,0.07016,-8.71441,-1.97968,-3.99115,1.04163,-0.99832,0.73113,-0.31625,-0.47545,-0.37615,-0.25868,-0.15185,-0.0758,-0.18896,-0.26268,-0.28654
1683,8.52072,-1.86756,1.00608,14.82886,20.89042,2.86885,76.40836,-29.96778,-28.79316,3.64454,58.92017,5.30605,3.63425,-0.00962,0.71068,-46.936,-10.68383,3.3355,84.85081,-42.48785,-26.47893,22.18637,-21.24601,-4.9206,4.90159,6.84309,-2.58173,-6.74408,-5.33538,-1.8838,2.47816,-1.18688,0.62995,0.16701,-0.91556,-0.22828,0.10319,-0.18036,0.05883,-0.08981,-0.20156,-0.12322
1684,9.09739,1.82746,0.07531,15.59736,20.976,3.40514,55.91959,-19.84129,-25.37109,20.93943,56.09287,7.28942,3.80974,0.24887,0.89544,-49.7397,-9.97697,2.9688,80.68266,-28.65528,-37.64252,-12.16831,-21.81374,3.90677,6.0533,9.31258,-1.54171,-2.03524,-8.0902,0.69867,3.7249,-0.89641,1.51515,1.55263,-1.61994,0.00271,0.51388,-0.13506,0.3609,0.14405,-0.25189,0.05087
1685,7.20857,7.47834,-2.66417,17.11119,19.98762,4.42251,43.83564,-0.5145,-5.78229,39.3442,51.52745,11.48666,3.37302,0.42584,0.68433,-52.02007,-8.81242,2.63309,90.91103,-1.72859,-21.72441,-19.75762,-24.23486,7.53644,5.47539,8.91023,-0.19805,2.32429,-9.18558,2.07064,3.89683,-0.44403,1.78241,2.68028,-2.32212,-0.21721,0.67858,-0.03171,0.49937,0.29817,-0.39047,0.00647
1686,6.37538,10.18208,-5.21689,17.76781,18.1662,5.32321,47.15131,15.2355,18.37189,43.37795,43.37338,13.17168,2.78732,0.24851,0.24811,-54.19193,-7.52537,2.26219,104.94688,16.71161,13.19382,1.4262,-24.64311,-1.96855,4.46498,4.99096,-1.21214,1.1657,-7.78633,0.43481,3.35357,-0.54521,0.22895,2.19746,-2.36446,-0.81712,0.59191,0.00312,0.16771,0.22757,-0.43753,-0.18257
1687,9.6041,8.60749,-5.87577,17.86962,15.97442,5.88866,61.12998,17.74949,31.42065,34.16018,31.43357,11.20336,2.73532,-0.11456,-0.01676,-56.33801,-6.29476,1.78596,114.98537,7.91798,40.8458,31.1253,-24.26496,-13.23898,3.29601,1.66699,-1.6903,-4.85422,-3.02999,-2.83805,2.88238,-1.21189,-1.45067,0.51025,-1.03908,-0.59258,0.45471,-0.10591,-0.32268,0.04537,-0.25425,-0.16678
1688,15.32209,5.77337,-5.37571,19.56938,13.85109,6.4718,73.19738,9.90523,28.4509,26.77555,18.19714,8.48749,3.31519,-0.28086,0.04405,-58.40503,-5.13764,1.28968,118.6621,-23.84452,43.12835,48.52679,-19.61269,-13.38296,2.28966,1.63666,-0.08979,-9.42547,1.51454,-4.37931,2.74048,-1.62128,-1.51763,-0.70139,0.57384,0.51525,0.42603,-0.226,-0.49307,-0.06813,-0.04669,0.04243
1689,18.87272,5.38367,-5.95238,24.12654,13.34569,7.32362,69.51638,5.64523,18.57215,31.85619,11.55419,8.48687,3.8062,-0.02953,0.25924,-60.50405,-3.99578,1.00055,111.94292,-44.29893,27.26043,54.49284,-10.47735,-8.29221,2.15605,3.23736,0.94039,-9.92001,0.91859,-4.01345,2.63384,-1.26693,-0.51512,-0.77954,0.64021,0.7626,0.44781,-0.19103,-0.30392,-0.10385,-0.10971,0.01141
1690,16.71377,7.10023,-7.7584,29.66533,15.71283,8.11804,50.17746,9.57082,9.85641,43.77768,17.47171,11.18688,3.48908,0.43664,0.3614,-62.90825,-2.85392,1.01437,93.65927,-35.43048,8.06102,59.71671,-6.138,-10.20019,2.11608,4.08245,0.20019,-9.59492,-4.31878,-4.49058,1.82061,-0.40978,0.35471,-0.38733,-0.97783,-0.83459,0.24709,-0.01219,0.00461,-0.1186,-0.43004,-0.43786
1691,10.93328,8.01972,-8.81246,32.24391,18.72176,8.41372,34.12452,11.07172,3.41723,46.93099,28.38893,12.76736,2.64795,0.69603,0.2365,-65.78426,-1.86671,1.11831,73.37975,-23.56292,-6.00295,59.63865,-10.57676,-16.73474,1.40227,3.85474,-0.42576,-10.07968,-9.01696,-6.10711,0.75829,0.1233,0.52836,-0.14896,-2.588,-2.94145,-0.08512,0.12299,0.19452,-0.11196,-0.68748,-0.93312
1692,8.51062,6.62047,-8.22749,30.52084,18.7785,8.35689,37.08761,3.20015,-0.50633,34.43242,30.37298,10.62862,2.31177,0.53178,0.0175,-69.0336,-1.23095,1.05953,63.09395,-36.5867,-10.78308,42.58566,-15.07995,-18.43995,0.94937,3.04167,-0.47924,-9.35584,-9.59624,-6.25078,0.54898,-0.11531,0.04063,-0.15493,-2.65944,-3.50813,-0.18814,0.09372,0.1509,-0.10379,-0.58649,-0.98002
1693,13.09389,3.56363,-6.87861,27.57381,16.2617,8.52413,53.26083,-5.82593,0.24047,17.60428,21.48301,7.16676,2.90471,0.0646,-0.03802,-72.46343,-0.9836,0.92049,67.03674,-62.25507,-5.74426,18.43507,-12.94543,-17.80275,2.36124,2.35705,-2.23917,-7.36037,-7.03552,-4.36194,1.36997,-0.83785,-0.67457,-0.26843,-1.45803,-2.21614,-0.01269,-0.04123,-0.06355,-0.12857,-0.21555,-0.53498
1694,20.25365,0.78897,-6.05363,25.89122,16.16393,8.98546,67.76244,-4.6633,6.29223,11.20331,16.71084,6.82339,3.72794,-0.37349,0.15346,-76.16606,-1.0456,1.09481,82.40652,-66.28545,5.74369,10.39444,-7.07828,-21.34583,5.02028,2.79856,-5.51774,-6.41237,-3.84271,-2.71431,2.38021,-1.41771,-0.91185,-0.36407,-0.24412,-0.48902,0.18322,-0.15473,-0.19991,-0.15207,0.07553,-0.04365
1695,23.3464,-0.48279,-5.82099,23.43449,21.86628,9.1566,75.04593,2.201,13.23697,13.74448,30.25836,10.43146,3.95861,-0.5473,0.41701,-80.51998,-1.40356,1.83325,98.39516,-42.04105,17.9498,20.91067,-1.86602,-23.30592,5.67539,4.02935,-5.87677,-6.53934,-1.8909,-2.48488,2.62651,-1.39652,-0.51002,-0.31627,0.25226,0.24435,0.2435,-0.16628,-0.11973,-0.10453,0.11859,0.09543
1696,20.54413,-1.10665,-4.64126,17.2308,30.04934,8.77304,77.20637,-0.99903,15.92139,10.78209,56.54939,14.69255,3.52897,-0.58739,0.57591,-85.49348,-2.10774,2.91361,97.59824,-19.00951,26.34035,32.12022,-1.03203,-14.5338,2.93843,4.87405,-0.80278,-5.57042,-2.47847,-2.64181,2.23322,-0.91657,0.0873,0.18446,0.00097,-0.25639,0.28299,-0.11124,0.03179,0.05771,-0.01094,-0.06472
1697,14.66903,-2.00395,-2.19683,8.74883,34.41904,8.38986,75.24147,-15.07334,14.85822,-4.1208,76.09037,16.82728,2.83875,-0.77274,0.59089,-90.28337,-3.09302,3.89903,73.82327,-18.02634,29.6768,35.93416,-7.01668,-1.50914,0.14226,5.17485,5.087,-3.86359,-5.28433,-2.61302,2.27571,-0.58549,0.39013,0.89184,-0.72776,-1.3213,0.44098,-0.08321,0.03745,0.20425,-0.20162,-0.29731
1698,9.90416,-2.03837,-1.26947,1.46528,33.41573,8.52687,69.78056,-20.34471,13.69692,-24.68197,80.31396,17.12447,2.22709,-1.02585,0.47011,-94.1151,-4.18216,4.66795,39.79224,-21.35991,28.81569,43.17089,-15.62307,-1.98904,0.91319,4.9029,5.08151,-4.91884,-7.92757,-3.26954,3.08356,-0.77137,0.12335,0.58762,-1.38722,-2.16123,0.62368,-0.10416,-0.09975,0.07234,-0.30859,-0.48045
1699,8.31008,0.44504,-4.20102,-4.89953,30.92983,8.89543,63.92772,-5.05279,12.96078,-46.27798,79.63977,16.93507,1.85028,-0.93136,0.2711,-96.88966,-5.32629,5.46221,7.76641,-4.11622,25.85266,58.7091,-20.51186,-19.50776,3.8422,3.39095,-0.55696,-9.55309,-8.06647,-4.73146,3.51712,-1.22976,-0.66116,-0.71883,-1.35558,-2.03386,0.60596,-0.12498,-0.16425,-0.23387,-0.21887,-0.4405
1700,8.48023,4.84353,-9.1008,-12.81171,30.74552,9.00618,62.61246,16.18688,11.45244,-69.75083,85.04202,16.94923,1.77946,-0.34393,0.17083,-98.72395,-6.6096,6.4826,-20.00861,25.46285,25.70685,68.97382,-18.91914,-37.04812,4.96181,0.76278,-5.54172,-13.90608,-5.66239,-6.02218,2.78298,-1.60029,-1.74993,-1.52741,-0.6483,-1.15065,0.39128,-0.12565,-0.10517,-0.32997,-0.02557,-0.21099
1701,8.60501,8.44738,-12.13592,-22.27388,33.35495,8.8486,68.49925,23.53578,10.11746,-95.68296,95.2574,17.1123,1.97675,0.34772,0.31651,-99.4866,-8.07064,7.6534,-45.47077,42.6217,32.92173,63.85436,-12.91645,-36.84322,3.11009,-1.17314,-5.33368,-13.77429,-2.20278,-6.06106,1.63969,-1.71167,-2.56088,-1.43959,0.1318,-0.56345,0.20246,-0.13185,-0.10093,-0.20696,0.12023,-0.1171
1702,8.57387,8.93712,-11.50384,-30.41653,37.27216,8.60207,76.82902,14.5504,10.25552,-120.79327,104.06811,16.69852,2.18415,0.66383,0.60087,-99.00331,-9.66855,8.73423,-70.64307,38.94506,43.87341,50.14335,-9.36323,-20.13284,0.56354,0.12792,-0.88228,-9.21194,-0.10574,-4.91937,1.22924,-1.52569,-2.2111,-1.0565,0.18895,-0.99195,0.13742,-0.15325,-0.17993,-0.11975,0.08162,-0.37108
1703,8.64497,6.54107,-8.39315,-34.5755,40.50729,8.33804,78.4418,-0.36095,11.2708,-139.38789,108.481,15.2458,2.14029,0.5433,0.75646,-97.3021,-11.32825,9.51057,-95.43355,23.65069,49.79449,39.10605,-8.92997,-5.18781,-0.41685,4.80613,3.50562,-5.48118,-0.40774,-3.96479,1.72856,-1.288,-1.04262,-1.20023,-0.40365,-1.86518,0.14961,-0.1773,-0.23699,-0.26426,-0.06477,-0.76063
1704,8.06344,3.92487,-5.43187,-34.91315,41.48944,8.10989,68.98959,-11.18837,11.51528,-149.88805,109.4958,13.84214,1.82792,0.30488,0.66512,-94.54398,-12.93798,9.89396,-119.18737,11.16996,48.51857,36.54195,-7.51494,-2.67516,-0.13765,9.00788,4.90743,-5.3716,-1.79341,-3.39711,2.42174,-1.27542,-0.6656,-1.48104,-0.70792,-1.73774,0.25045,-0.18375,-0.27282,-0.47219,-0.09858,-0.76243
1705,6.02621,3.54496,-4.41052,-33.26347,40.64468,7.93083,53.32847,-13.36283,9.97194,-152.73393,111.36976,14.63304,1.38369,0.18969,0.44872,-90.83098,-14.36287,9.93746,-137.12906,13.57292,45.34625,40.59186,-8.74938,-6.99517,0.69712,8.74539,2.98675,-5.6034,-3.77445,-2.83555,2.7983,-1.40837,-1.46428,-0.64372,-0.68226,-1.08897,0.4341,-0.14883,-0.2723,-0.35103,-0.07617,-0.38165
1706,2.72165,4.8035,-4.58839,-30.56249,39.82024,7.67103,38.92352,-8.62827,7.20089,-143.63354,116.90428,18.02127,0.86929,0.09018,0.25407,-86.1414,-15.54722,9.73918,-139.29152,31.31124,42.58174,44.9592,-13.29132,-12.31014,2.37167,4.79812,-1.02763,-4.63147,-5.80225,-2.82754,2.82279,-1.46814,-2.16622,0.49501,-0.82221,-1.38385,0.51409,-0.0878,-0.20899,-0.01469,-0.10783,-0.12459
1707,-0.56534,5.14498,-4.10197,-26.96458,39.53986,7.16832,29.52889,-2.21017,4.7869,-122.12382,122.07285,21.3188,0.32787,-0.15107,0.09236,-80.44772,-16.54694,9.30164,-124.08775,51.05898,37.68553,48.54316,-10.8534,-18.82611,4.23039,1.70872,-4.09438,-4.97137,-6.09425,-3.6714,2.75143,-1.48815,-1.92579,0.47966,-0.9522,-2.14685,0.40221,-0.07517,-0.1611,0.15637,-0.14375,-0.19489
1708,-2.72116,4.05345,-2.79201,-23.25826,38.76458,6.40034,25.85692,2.57451,3.66412,-100.97221,120.60068,21.86677,-0.06609,-0.41985,-0.03859,-73.86157,-17.36452,8.56679,-106.07813,59.08987,31.0694,52.55481,-1.67275,-23.62801,4.24515,1.5962,-3.71242,-7.05761,-3.85031,-4.27257,2.35238,-1.3923,-1.12433,-0.44818,-0.62823,-1.95496,0.17653,-0.10441,-0.14224,0.07286,-0.10328,-0.35311
1709,-3.95251,3.36303,-1.76748,-19.9878,36.52293,5.45696,27.82524,4.90663,4.2897,-93.75722,111.12495,19.41788,-0.13597,-0.57803,-0.01714,-66.62518,-17.93357,7.5416,-98.50217,52.68048,27.91051,55.81586,-2.84731,-21.42279,2.09204,2.35176,-1.27192,-7.78976,-0.89791,-3.39089,1.46927,-1.1916,-0.85264,-1.13433,-0.01585,-0.7464,-0.0174,-0.11303,-0.15945,-0.11531,0.00441,-0.32553
1710,-4.28828,3.85951,-1.43488,-16.49912,32.61273,4.32903,35.42093,3.49901,7.17195,-100.46136,98.70832,15.00734,0.11447,-0.72639,0.26019,-59.05397,-18.30161,6.27602,-98.78201,38.26406,31.86282,58.47507,-17.37966,-14.02475,0.03949,2.48196,0.44665,-5.69294,0.15349,-1.39238,0.85641,-1.08189,-1.27867,-1.03803,0.40142,0.3975,-0.03133,-0.1016,-0.21449,-0.24382,0.12504,-0.07499
1711,-2.77176,3.63803,-1.07253,-12.58936,27.57894,2.98465,46.58268,-4.78044,11.79291,-111.09969,88.37828,9.90528,0.51575,-1.0518,0.67342,-51.4827,-18.55235,4.84586,-98.82927,18.1741,40.23425,61.43057,-25.23119,-8.86492,0.0568,2.66581,0.63567,-2.83521,-0.65152,0.2036,1.23793,-1.12827,-1.5276,-0.35682,0.58389,0.84253,0.17052,-0.11069,-0.22542,-0.20518,0.22282,0.21359
1712,-0.39227,0.75279,0.26889,-9.11375,22.19751,1.6408,52.7833,-19.74456,16.03052,-115.35038,79.23432,6.03307,0.78593,-1.54918,0.93594,-44.15193,-18.66134,3.37508,-98.15578,-8.9477,46.12234,61.37198,-17.40211,-8.68084,2.15313,3.03089,-0.67323,-1.59521,-1.33251,0.30745,2.31753,-1.31548,-1.35629,0.40927,0.59313,0.62154,0.43146,-0.14422,-0.19117,-0.06109,0.22156,0.23592
1713,2.01025,-0.65629,1.30327,-6.76368,16.59945,0.55628,46.34431,-25.57217,15.53144,-112.62416,67.92131,4.39014,-1.40886,1.69115,0.47667,-37.25357,-18.58969,1.94856,-102.99483,-23.65187,41.79902,55.32253,-8.65945,-8.82195,4.84094,3.38125,-2.7338,-2.11741,-1.41031,-0.85013,3.28782,-1.593,-1.14756,0.83285,0.17297,-0.08114,0.53188,-0.16666,-0.18279,0.01833,0.03708,-0.10133
1714,1.14534,-1.00495,1.87726,-5.12974,10.82069,-0.31826,26.69384,-23.38962,11.69847,-112.11091,55.40016,3.3814,-2.89419,3.8737,-0.12213,-30.9976,-18.32444,0.5997,-125.31271,-26.70571,30.69847,45.68992,-8.58178,-6.79817,5.96085,3.79965,-3.40702,-3.28294,-2.2467,-2.2811,3.62178,-1.8636,-1.05479,0.77318,-0.6659,-1.10758,0.43861,-0.1745,-0.18658,-0.01884,-0.22993,-0.51768
1715,1.31881,1.44908,0.90187,-3.51048,5.43833,-1.22152,9.6756,-13.62073,6.0315,-117.69911,45.43506,0.9058,-4.66358,6.9513,-0.79038,-25.49263,-17.90369,-0.64161,-152.31284,-17.81078,17.00083,35.6676,-8.05091,-7.13759,4.37708,3.54296,-1.88961,-3.82852,-4.16254,-2.97663,3.0776,-1.99155,-1.14912,0.70111,-1.32299,-1.93751,0.26302,-0.18038,-0.15435,-0.02581,-0.37827,-0.67805
1716,4.22822,4.39386,-0.8636,-1.98269,1.3029,-2.25293,6.6048,-5.96978,1.57357,-122.63445,39.7189,-2.86545,-6.63832,10.32507,-1.38117,-20.69967,-17.43083,-1.73588,-162.9257,-12.89285,6.6267,27.34686,1.60027,-13.36192,1.76756,2.2715,-0.28747,-3.41738,-5.62841,-2.525,1.94165,-1.8077,-1.31694,0.81118,-1.319,-1.96134,0.10538,-0.15654,-0.08614,0.02146,-0.32485,-0.52661
1717,7.56377,6.50269,-2.28662,-1.26643,-0.92744,-3.33283,12.35064,-2.76829,-0.83934,-123.0219,38.92014,-5.75681,-8.95244,13.74489,-1.94736,-16.66117,-16.96826,-2.68028,-156.73921,-12.89454,1.71129,23.64702,8.3071,-19.46189,0.95771,1.43412,-0.43352,-2.8651,-5.47035,-1.38684,1.05663,-1.24615,-1.02189,0.88992,-0.80969,-1.13025,0.05252,-0.0925,0.00632,0.03531,-0.15692,-0.20265
1718,8.20647,7.46589,-2.43178,-1.11203,-1.41835,-4.28233,15.20566,-2.4913,-1.2656,-120.11369,42.56478,-5.81266,-11.67253,17.45144,-2.59459,-13.47108,-16.4745,-3.518,-147.09776,-8.62913,1.87935,24.93659,-8.82949,-14.96717,1.93067,2.19726,-1.18959,-2.45039,-3.89598,-0.26224,0.8471,-0.61656,-0.21068,1.20484,-0.20469,0.09584,0.13571,-0.06423,0.07718,0.09281,-0.03436,0.13049
1719,5.61877,7.29947,-1.14344,-0.14349,-1.25099,-4.91846,11.98947,-5.22158,0.54442,-112.03358,47.02228,-2.96483,-14.67262,21.68876,-3.3648,-10.99154,-15.88878,-4.25371,-135.15469,0.16205,6.04854,30.00231,-43.31619,-1.43152,2.28416,3.78311,-0.43431,-2.11486,-2.49472,0.16391,1.11355,-0.51325,0.31691,1.78673,0.09884,0.79059,0.26361,-0.14079,0.05406,0.21329,-0.03426,0.26705
1720,2.22656,7.09872,0.42445,2.05363,-1.68341,-5.21032,7.83243,-9.03973,3.63033,-97.91366,47.13018,0.3002,-17.76933,26.42994,-4.23306,-8.97294,-15.23992,-4.82772,-116.79366,4.516,10.90678,38.37657,-60.29292,6.05207,1.23544,4.71714,1.78585,-2.52817,-2.83265,-0.57502,1.60619,-1.00177,0.19135,2.13303,-0.14401,0.26311,0.30733,-0.23672,-0.01671,0.28276,-0.12662,0.09863
1721,1.49843,8.42739,0.63791,4.00554,-2.94682,-5.34033,8.50464,-8.29832,5.38328,-85.01701,41.74623,0.78221,-20.8755,31.44973,-5.15067,-7.33531,-14.62288,-5.18625,-97.58109,2.86403,11.91693,45.62558,-42.82714,0.52174,0.22118,4.45205,3.42328,-3.60193,-3.64868,-1.72809,2.04727,-1.4329,-0.10914,2.05902,-0.50775,-0.67124,0.25032,-0.21669,-0.0209,0.27862,-0.199,-0.15006
1722,3.73418,11.63803,-0.94461,4.73247,-3.98736,-5.47652,13.28906,1.92091,3.61626,-80.44622,35.93917,-1.45549,-24.10376,36.51828,-6.18597,-6.06605,-14.10973,-5.33639,-85.635,9.16484,7.01179,47.43359,-15.25873,-6.68387,-0.21131,3.80893,3.43551,-3.49422,-2.49847,-1.75788,1.93259,-1.28299,-0.30293,1.9277,-0.31211,-0.54987,0.1521,-0.09439,0.00573,0.2532,-0.14185,-0.13995
1723,5.22608,15.45641,-3.11075,5.47144,-3.61143,-5.50295,15.13702,18.60226,-1.09596,-81.58793,34.378,-2.98074,-27.5462,41.55989,-7.46938,-4.97345,-13.70771,-5.30761,-82.43702,30.48121,-1.5049,47.10804,-10.15269,-3.66951,-0.67686,3.93807,2.96289,-1.28466,-0.17026,-0.2848,1.36005,-0.80855,-0.43457,1.9411,0.30751,0.66797,0.0996,-0.00306,-0.01781,0.1877,0.02438,0.17228
1724,3.18082,16.86699,-3.78563,6.05506,-2.04208,-5.2831,9.23521,27.65346,-4.74891,-86.97843,35.09701,-2.60698,-30.96139,46.50813,-8.92406,-3.8349,-13.41164,-5.1408,-92.97399,46.08513,-7.64026,46.23576,-29.12527,4.47307,-0.10901,4.16745,2.1525,1.32923,0.04302,1.30688,1.40368,-0.86396,-0.59536,2.09372,0.49409,1.53001,0.17697,-0.04753,-0.0801,0.10812,0.11831,0.4645
1725,-1.24522,14.05461,-2.1407,3.83616,-0.65025,-5.04962,-2.93407,20.06805,-4.08299,-103.1612,34.51717,-3.54166,-34.01755,51.12813,-10.30283,-2.61467,-13.23444,-4.89689,-128.04907,37.41714,-8.04577,39.49865,-46.50894,4.33945,3.31799,2.98688,-0.57418,1.96213,-2.72192,1.34406,2.51888,-1.7094,-0.75867,2.34063,-0.17796,0.87371,0.34981,-0.18483,-0.10749,0.10042,-0.02276,0.33147
1726,-4.94336,10.38552,-0.18847,-1.57727,-0.13982,-5.11949,-14.95987,8.75171,-1.5584,-129.91646,33.31372,-7.93819,-36.67949,55.13978,-11.44543,-1.38149,-13.12612,-4.63589,-180.29536,21.64883,-7.0806,24.83831,-47.09592,-2.18464,7.76046,1.57387,-4.09622,0.72517,-5.32823,-0.02218,3.61175,-2.47324,-0.72183,2.68231,-1.07623,-0.60857,0.46875,-0.27531,-0.06189,0.16364,-0.31435,-0.18932
1727,-5.76832,10.28358,-0.37162,-6.10456,-0.41817,-5.34585,-18.26634,11.8365,-1.99772,-149.8364,32.30828,-12.80348,-39.05642,58.48341,-12.35485,-0.07759,-12.98167,-4.43095,-211.53209,25.05975,-10.63996,7.81826,-43.40266,0.35545,8.90758,2.59268,-4.82673,-0.6163,-4.90519,-1.14531,3.54364,-2.39305,-0.47564,2.89083,-1.30239,-1.27111,0.41597,-0.2518,-0.01298,0.19209,-0.49513,-0.60267
1728,-4.71972,12.71192,-2.09986,-6.19688,-1.02735,-5.34076,-12.93117,27.14744,-5.38642,-147.87839,31.07265,-13.93855,-41.07559,61.33139,-13.10045,1.33291,-12.7759,-4.31134,-197.28581,45.43272,-17.99096,-3.44794,-48.25143,12.14407,6.25189,5.01498,-2.6097,-1.96657,-3.24072,-1.45461,2.56218,-1.80439,-0.33377,2.59897,-0.99853,-0.99011,0.22954,-0.17405,-0.04103,0.15109,-0.46582,-0.61635
1729,-4.56899,13.83108,-3.03203,-3.77295,-1.49236,-5.14477,-9.48384,39.07269,-7.78275,-133.67868,31.01016,-11.55819,-42.49898,63.82408,-13.71053,2.59742,-12.67117,-4.27812,-165.09883,62.04834,-23.75913,-3.85661,-54.23677,16.18258,3.04271,5.00524,-0.68552,-3.37557,-2.66216,-1.36811,1.50458,-1.2932,-0.44687,2.30938,-0.7017,-0.48825,0.06311,-0.11317,-0.09849,0.21501,-0.33555,-0.317
1730,-5.71227,12.35845,-2.50037,-2.58821,-1.44251,-5.06928,-12.62723,40.1723,-7.48029,-125.80083,34.66242,-8.13682,-43.27073,65.93746,-14.20181,3.53274,-12.82193,-4.34137,-151.04921,67.28998,-23.72357,3.94449,-50.76267,8.19469,1.1971,2.62396,-0.26758,-3.22923,-1.72565,-0.86745,0.7829,-0.90582,-0.54204,2.59816,-0.24736,0.23111,0.02739,-0.07847,-0.08448,0.40066,-0.17587,0.07098
1731,-5.91036,9.54344,-1.72736,-3.62634,-1.03674,-5.13537,-14.5091,35.59505,-6.03735,-130.24576,40.0206,-5.57501,-43.63714,67.54966,-14.63017,4.32602,-13.11427,-4.44042,-155.75375,68.17884,-18.34884,13.01649,-41.70607,2.26698,0.65248,1.99228,-0.17841,-0.25448,0.35773,0.23907,0.5531,-0.66158,-0.47238,3.35062,0.41019,1.16688,0.08307,-0.05798,-0.01697,0.51875,-0.02687,0.35528
1732,-5.02607,7.44977,-1.69734,-6.02361,-1.41471,-5.17549,-10.56038,33.06676,-5.11049,-142.91536,39.89043,-6.2599,-43.84629,68.65064,-15.05948,5.20948,-13.30957,-4.46426,-166.13031,66.30201,-13.79002,17.61211,-37.36512,5.8013,1.84411,3.96328,-0.41838,3.76813,0.71231,1.41227,0.92706,-0.8371,-0.40825,4.00565,0.51866,1.52937,0.12616,-0.05306,0.0237,0.48643,-0.01601,0.39739
1733,-6.06449,7.286,-2.043,-9.16265,-2.79953,-5.16049,-9.34841,33.04822,-5.17823,-157.1893,33.08756,-10.27156,-43.91062,69.43024,-15.48429,6.14875,-13.32661,-4.3719,-182.26262,57.51546,-15.07523,16.74971,-41.65821,11.72761,4.30843,5.1241,-1.25822,5.39066,-2.03293,1.73046,1.61851,-1.28716,-0.28674,3.87832,-0.27385,0.79085,0.12262,-0.04802,0.066,0.33962,-0.17973,0.17198
1734,-9.92495,7.62493,-1.85682,-12.02779,-3.40771,-5.1187,-18.35884,29.84538,-6.03027,-165.39995,28.57095,-12.9655,-43.75476,70.03271,-15.81434,6.99185,-13.2866,-4.23363,-204.14293,45.7585,-18.90403,19.13162,-53.19661,13.89075,5.04568,4.87111,-1.0659,3.91049,-4.39304,1.04924,1.95503,-1.38646,0.01193,3.10471,-1.05741,-0.21197,0.08918,-0.01883,0.11631,0.19556,-0.33327,-0.09986
1735,-13.11358,6.25729,-1.05857,-12.66532,-1.77218,-4.99494,-30.55354,22.48826,-6.87428,-162.0314,33.50283,-10.46913,-43.42219,70.44353,-15.95271,7.67406,-13.35419,-4.1233,-216.61661,42.36627,-18.88797,32.5172,-70.26127,13.09149,2.95339,6.44471,1.19714,0.67806,-3.31851,-0.10185,1.89556,-0.99007,0.38186,2.23347,-0.90808,-0.48058,0.10186,-0.00814,0.09326,0.10911,-0.2783,-0.18644
1736,-12.71319,3.82654,-0.46555,-10.74763,0.91438,-4.79647,-34.86139,18.30103,-7.02317,-150.9104,43.58118,-5.21439,-43.01091,70.65387,-15.87518,8.2035,-13.56807,-4.05253,-209.34213,51.971,-15.31238,45.72786,-86.33092,11.32226,0.91131,9.8611,3.72603,-3.63416,-0.8719,-1.32308,2.08094,-0.69573,0.6806,1.2926,-0.25928,-0.31364,0.24544,-0.07253,0.0328,0.0139,-0.08384,-0.1533
1737,-10.1412,2.55139,-0.57672,-9.281,2.17212,-4.65481,-31.43704,22.63123,-6.89032,-145.25174,48.30296,-2.89939,-42.56893,70.67517,-15.65275,8.62691,-13.77937,-4.00368,-196.95088,65.78092,-14.24796,40.78329,-88.24415,9.70173,0.89716,10.71231,4.05753,-6.966,-0.37643,-2.04885,2.51363,-1.08798,0.51756,0.81549,-0.07185,-0.29405,0.42818,-0.18776,-0.00517,-0.00383,-0.00219,-0.11317
1738,-8.17956,2.59467,-0.99384,-11.02742,1.18881,-4.6504,-28.97469,31.41138,-7.37165,-153.43442,43.05085,-5.73331,-42.12315,70.45939,-15.36688,8.9975,-13.80933,-3.96479,-200.45375,71.5414,-19.19091,20.27946,-72.12699,9.8535,2.09376,7.85795,2.13329,-6.08125,-1.69793,-1.62819,2.56711,-1.9128,-0.18185,1.7182,-0.43524,-0.24011,0.45919,-0.27812,-0.06267,0.21004,-0.1241,-0.02666
1739,-7.88312,1.92612,-0.90762,-14.39898,-0.37343,-4.69624,-33.14921,35.38208,-8.15938,-167.1329,34.50217,-10.14998,-41.71632,69.95268,-15.06821,9.33452,-13.65329,-3.92152,-217.79303,66.59961,-25.90495,3.65218,-52.70578,12.79447,3.24396,5.33548,0.26826,-1.18464,-3.02453,-0.30421,2.07563,-2.15853,-0.57032,3.61317,-0.9025,0.02577,0.30161,-0.268,-0.1189,0.53982,-0.33676,0.07825
1740,-8.91012,-0.32204,-0.14273,-16.28796,-0.21264,-4.63415,-40.90342,32.84021,-8.50358,-172.951,32.24962,-11.7133,-41.36957,69.21111,-14.8106,9.60351,-13.43396,-3.82476,-229.5715,61.52635,-28.39642,3.91527,-43.86419,15.66241,3.59232,5.39043,0.25172,3.22256,-3.94687,0.81175,1.64234,-1.56378,-0.14629,4.78208,-1.31279,0.12567,0.13828,-0.18104,-0.10697,0.65201,-0.50635,0.05723
1741,-10.3153,-2.74118,0.61516,-16.77201,1.88064,-4.44873,-45.43907,32.5129,-8.79705,-170.72214,37.84717,-10.15937,-41.04193,68.37251,-14.61279,9.7098,-13.25041,-3.67272,-229.7827,68.5165,-26.80875,19.66757,-43.46854,14.0037,2.68561,6.19488,1.59563,3.09008,-4.53847,0.88217,1.85917,-1.17475,0.32268,3.99005,-1.57416,-0.18114,0.18133,-0.14905,-0.06914,0.37347,-0.53201,-0.11262
1742,-10.78986,-4.29903,0.83749,-17.55385,3.98062,-4.24867,-43.05397,38.86218,-9.28434,-168.45183,45.6854,-7.65728,-40.65082,67.48606,-14.38201,9.56348,-13.11174,-3.55236,-226.27942,85.24092,-23.84438,39.158,-46.10879,9.33039,1.21168,6.25049,2.68542,-0.53872,-3.97569,0.15395,2.49646,-1.58587,0.18711,2.0291,-1.3893,-0.46218,0.40478,-0.21366,-0.05788,-0.03558,-0.38104,-0.23812
1743,-9.77719,-5.32383,0.67489,-18.45926,4.83812,-4.06348,-35.94817,45.83924,-9.02916,-167.45119,50.74475,-5.49105,-40.2051,66.4032,-14.0199,9.17719,-12.98131,-3.5058,-220.88187,98.29807,-20.24335,47.31603,-52.84959,8.54554,1.31834,6.01587,2.54506,-2.99171,-2.23634,-0.44818,2.83881,-1.95352,0.08209,0.81717,-0.78154,-0.32206,0.54615,-0.25028,0.00578,-0.17307,-0.15835,-0.17382
1744,-8.14533,-6.17306,0.44932,-18.38498,4.90502,-3.85206,-30.90112,48.43959,-7.84305,-163.86253,51.90092,-3.99063,-39.85266,64.91789,-13.58268,8.6843,-12.85017,-3.49123,-212.67816,101.86362,-17.49965,37.8532,-63.12952,15.25819,3.89191,6.21765,1.5288,-1.63744,-0.3856,-0.40557,2.60231,-1.54825,0.64917,1.1894,-0.1454,0.10964,0.44532,-0.17592,0.16376,0.01532,-0.01663,-0.00494
1745,-7.03354,-7.0044,0.28526,-17.76552,4.95615,-3.5595,-31.95269,48.3705,-7.19291,-156.48735,49.76275,-2.96488,-39.65816,63.08084,-13.19696,8.21984,-12.64229,-3.44906,-203.47597,100.78098,-18.07394,20.02122,-71.51993,26.61847,6.86691,7.78375,1.02197,2.06492,1.37182,-0.02088,2.22252,-0.70005,1.55836,2.55195,0.30992,0.67169,0.21815,-0.03995,0.31676,0.30246,-0.01236,0.14451
1746,-6.89477,-8.18194,0.3162,-17.85697,5.23618,-3.17859,-35.56136,45.67766,-7.50587,-147.06586,46.19764,-1.45531,-39.40403,61.19979,-12.87908,7.83425,-12.24505,-3.37866,-191.92567,96.46874,-19.33263,7.5305,-72.50917,35.40545,7.72302,10.46816,1.67854,5.0252,2.41494,0.31972,2.1351,-0.10365,2.085,3.77499,0.4173,1.11782,0.05259,0.07234,0.35236,0.48026,-0.10363,0.22305
1747,-7.66108,-9.99163,0.7815,-19.1888,5.09574,-2.96204,-38.0536,37.2611,-7.56036,-139.29749,42.8616,0.29389,-38.76112,59.51241,-12.55717,7.48531,-11.7409,-3.41024,-181.18694,83.49287,-17.41982,5.23514,-63.04625,32.36748,6.37715,10.87312,2.19436,4.40739,0.80897,0.61361,2.23998,-0.29933,1.77712,3.7487,-0.07932,0.92922,0.04878,0.05793,0.24548,0.43839,-0.21806,0.17174
1748,-9.08004,-12.22708,1.66261,-21.38464,3.87753,-3.15983,-42.01048,25.64297,-7.362,-136.08545,38.35372,-0.04495,-37.66724,58.00135,-12.21035,7.07217,-11.26307,-3.60084,-181.48755,62.66917,-16.58518,9.88766,-48.29037,15.38467,4.36284,6.22512,1.16984,-0.69077,-3.39334,0.74268,2.1813,-1.33648,0.66795,2.22307,-1.0952,-0.00771,0.20179,-0.13099,0.04962,0.19361,-0.32739,-0.02682
1749,-10.16107,-14.16924,2.41107,-23.42634,2.33611,-3.59005,-47.097,18.04287,-7.79408,-134.56641,32.68351,-2.68257,-36.37056,56.48776,-11.83189,6.49896,-10.81461,-3.79365,-188.2383,47.45695,-20.33293,15.57845,-42.13533,-2.18884,2.91763,-0.53273,-0.78986,-6.65508,-6.89404,0.61825,1.90018,-2.54749,-0.69193,0.40265,-1.96691,-0.91528,0.38984,-0.38733,-0.17474,-0.09175,-0.40309,-0.23123
1750,-9.83512,-15.30715,2.57015,-24.06925,1.78222,-3.84483,-46.70784,16.62356,-8.15408,-127.94229,30.20403,-3.85714,-35.14806,54.88643,-11.38748,5.76479,-10.40468,-3.86537,-180.33388,49.10139,-21.83001,17.95902,-49.85462,-4.53835,2.04315,-3.0759,-1.79772,-7.71517,-6.95338,0.57318,1.4727,-2.92374,-1.52958,-0.03053,-2.03344,-0.94071,0.41145,-0.51322,-0.37792,-0.18417,-0.38668,-0.24633
1751,-8.72872,-16.01142,2.47174,-22.92232,2.46943,-3.7163,-39.95508,17.41018,-7.11515,-115.80164,32.78789,-1.28991,-34.12181,53.30675,-10.92059,5.04113,-10.02306,-3.8399,-154.05872,61.89185,-15.08329,18.49283,-57.89586,6.05629,1.20699,0.81656,-0.88172,-3.27771,-4.11618,0.62564,1.00507,-2.13365,-1.3728,1.10916,-1.31031,-0.23677,0.21778,-0.41161,-0.44204,-0.0091,-0.25757,-0.07264
1752,-8.4777,-16.21326,2.55983,-21.50943,2.93183,-3.51882,-35.70615,19.55621,-5.25003,-106.54904,34.44487,1.19905,-33.27931,51.85231,-10.5275,4.46941,-9.60643,-3.8098,-134.54802,71.79375,-7.66409,23.07757,-54.54438,15.22264,0.16849,7.13353,1.22409,1.2679,-0.78316,0.31072,0.78652,-0.91014,-0.4134,2.30569,-0.36069,0.35998,0.04952,-0.17501,-0.23659,0.22216,-0.0657,0.08967
1753,-8.92909,-15.29722,2.60197,-21.6222,1.33142,-3.81138,-39.84031,24.95575,-4.3376,-104.96384,27.72269,-1.67655,-32.55201,50.44696,-10.20089,3.91077,-9.15452,-3.86649,-139.91685,69.74046,-11.40681,33.85695,-48.26253,17.60371,-0.28649,10.69148,2.99385,2.06396,0.83793,-0.19954,1.28133,-0.45281,0.67439,2.49197,0.13118,0.45831,0.18776,-0.05854,0.1445,0.29547,0.04793,0.11797
1754,-8.43521,-14.29162,2.35758,-22.98349,-1.8136,-4.5257,-46.8911,28.97502,-4.75519,-106.22986,14.76772,-8.49446,-31.87716,48.9987,-9.85859,3.14749,-8.68756,-3.97668,-156.528,55.70229,-23.36968,42.55245,-49.48642,17.83604,1.4321,9.89885,3.42599,0.53864,0.31106,-0.13706,2.46633,-0.91878,1.51281,2.1132,-0.06145,0.38319,0.53346,-0.14968,0.46709,0.24424,-0.04645,0.08801
1755,-7.15222,-14.47646,2.07141,-23.24704,-4.01285,-4.88881,-48.93859,27.06148,-5.64839,-101.42596,5.48154,-12.0503,-31.23426,47.62052,-9.504,2.28396,-8.15555,-3.97973,-157.0929,41.91953,-29.75949,38.78379,-51.75093,17.764,5.52035,6.53848,2.59205,-0.55876,-0.90557,0.46296,3.5956,-1.388,2.10026,1.79604,-0.52556,0.40549,0.72151,-0.21277,0.61044,0.16036,-0.2798,0.06597
1756,-6.50259,-15.24947,1.90671,-21.3641,-3.85505,-4.44482,-44.71928,24.33794,-6.47388,-87.01603,5.07466,-8.75805,-30.61271,46.47537,-9.20754,1.52833,-7.51044,-3.77823,-132.17168,43.34392,-25.90738,24.58209,-48.05733,16.68496,9.34745,3.76914,1.38281,-0.23554,-1.38839,0.85194,3.91866,-1.33928,2.25617,1.74647,-0.77031,0.46993,0.5914,-0.10082,0.54981,0.09509,-0.42764,0.05117
1757,-6.29638,-15.82345,1.79934,-19.53591,-2.48167,-3.72906,-38.17751,26.1514,-6.71615,-68.66673,9.24444,-2.93677,-29.96657,45.5791,-8.97373,0.76687,-6.85343,-3.49798,-96.90293,57.908,-19.38908,11.90545,-43.1348,15.45975,9.25694,3.36764,0.55906,0.7909,-0.96857,0.71028,3.0903,-1.07799,1.58295,1.98125,-0.63511,0.53084,0.29823,-0.00139,0.28013,0.12067,-0.33808,0.0776
1758,-5.99527,-16.65301,1.96327,-20.01965,-2.55476,-3.65908,-34.19013,27.87455,-5.6764,-54.25961,9.88821,-0.89554,-29.2821,44.89383,-8.76864,-0.20164,-6.35939,-3.37168,-70.03152,65.87584,-17.06551,7.99212,-40.61085,13.55042,5.12637,3.91106,0.20245,0.66841,-0.48875,0.2481,1.6087,-1.08023,0.33838,1.93471,-0.3982,0.46712,0.09941,-0.11508,-0.0543,0.18179,-0.1091,0.11637
1759,-6.20776,-18.19525,2.61531,-22.00868,-5.23479,-4.32335,-34.35416,22.36685,-3.66195,-47.70344,3.02053,-3.85249,-28.64351,44.4122,-8.60743,-1.26589,-5.9697,-3.39911,-57.7767,52.40154,-17.90133,12.01221,-39.78814,10.71391,0.5524,4.0203,0.40764,-1.74994,-0.76362,-0.20488,0.58506,-1.28171,-0.40341,0.97942,-0.40175,0.11097,0.09425,-0.32706,-0.18319,0.09381,0.03077,0.04462
1760,-7.02864,-19.60308,3.32648,-23.23798,-8.68985,-4.92105,-35.92533,11.49157,-1.96652,-49.39664,-7.75953,-8.41256,-28.13941,44.05898,-8.51046,-2.17759,-5.48048,-3.34688,-59.07956,24.67262,-17.76672,22.11258,-40.90762,9.57965,-1.29156,4.41965,1.21386,-4.77814,-1.85727,-0.28247,0.73556,-1.52416,-0.09312,-0.19961,-0.70132,-0.34584,0.21591,-0.44587,-0.04336,-0.10757,-0.02838,-0.11612
1761,-7.35844,-19.91676,3.51524,-22.95472,-10.96998,-5.03435,-36.24637,4.27493,-1.33569,-55.5409,-16.0731,-11.60062,-27.74002,43.69566,-8.42896,-2.93515,-4.97986,-3.15739,-69.5807,3.68149,-16.92561,34.79014,-43.0197,11.52604,0.41745,5.22619,1.89219,-4.90008,-2.85878,0.24462,1.82261,-1.8337,0.71926,-0.03699,-0.98763,-0.35552,0.37227,-0.42161,0.18308,-0.11328,-0.17726,-0.13869
1762,-6.92968,-19.26994,3.28039,-21.88695,-11.48443,-4.83423,-37.862,6.326,-1.89452,-57.66687,-17.84835,-12.02044,-27.36875,43.33899,-8.28819,-3.66348,-4.68637,-2.94797,-79.60099,5.07195,-18.87602,40.88447,-44.60785,14.02313,3.95336,4.84409,1.60988,-1.52449,-2.85247,1.06582,2.79242,-1.99698,1.20045,1.62617,-0.96965,0.22631,0.44847,-0.25768,0.30999,0.16466,-0.24165,0.05723
1763,-6.43782,-18.53704,3.06827,-20.74463,-10.44045,-4.43706,-42.38181,12.34675,-3.29996,-50.97474,-13.40996,-9.3409,-27.01988,43.10979,-8.07767,-4.27124,-4.58118,-2.74693,-78.93724,23.31532,-21.84284,32.66577,-43.15356,13.74433,6.13109,2.65336,0.5971,1.70366,-2.65934,1.67367,2.6868,-1.6815,1.08235,3.09028,-1.05474,0.81947,0.35561,-0.01844,0.29251,0.40768,-0.2464,0.26007
1764,-5.75117,-18.60121,2.94153,-19.68983,-9.19913,-3.96388,-42.70588,12.8375,-4.19098,-39.78543,-9.24904,-5.9449,-26.75828,43.00459,-7.88088,-4.63229,-4.52173,-2.53687,-62.84662,34.51864,-20.7222,15.68593,-35.19279,10.32753,5.96843,0.64933,-0.1793,2.00834,-3.19234,1.80452,1.79402,-0.98246,0.79098,2.99381,-1.54085,0.89079,0.16653,0.12318,0.20658,0.34334,-0.30956,0.26802
1765,-4.97144,-19.52861,2.88015,-18.91875,-9.18539,-3.66689,-35.55954,7.27884,-3.51192,-31.7309,-11.18477,-5.13472,-26.65227,42.99768,-7.80246,-4.90421,-4.43358,-2.34347,-41.23407,26.02002,-16.73036,7.3371,-26.05687,6.53408,4.90675,0.73645,-0.21369,0.7589,-3.49435,1.42169,1.16116,-0.5426,0.68661,1.87089,-1.81023,0.56443,0.04383,0.0365,0.11325,0.09328,-0.37388,0.12991
1766,-5.09523,-20.22652,3.03319,-18.89581,-10.76101,-3.80978,-30.25224,2.84498,-2.09425,-31.02812,-17.64923,-7.81018,-26.65868,43.20186,-7.81468,-5.22109,-4.32578,-2.20591,-34.93217,10.08481,-15.93246,17.07173,-24.60363,3.82468,3.30819,1.6577,0.20146,-0.47448,-2.98216,0.85702,1.13606,-1.01395,0.52251,0.93615,-1.46492,0.23946,0.07203,-0.22892,0.01384,-0.05815,-0.30137,0.01204
1767,-5.98475,-19.88898,3.28558,-19.47289,-13.13155,-4.3385,-32.53111,2.52424,-1.46784,-34.85478,-23.98753,-12.27137,-26.67686,43.69874,-7.79284,-5.44637,-4.21342,-2.11679,-45.83367,1.71846,-19.86917,33.27644,-25.95767,0.32495,1.304,1.40289,0.5759,-2.89742,-2.2739,0.42503,1.38743,-2.07226,0.17399,0.42455,-0.87501,0.03493,0.22323,-0.46754,-0.04395,-0.02956,-0.10034,-0.03112
1768,-6.30997,-19.25494,3.31191,-19.60387,-14.48549,-4.69649,-35.7137,3.94422,-1.95705,-35.37183,-27.315,-15.42768,-26.72799,44.35328,-7.71709,-5.45872,-4.063,-2.00611,-50.39487,3.49534,-24.10461,38.22678,-21.03572,-3.8931,1.04923,0.72939,0.65087,-6.55122,-1.15114,-0.03913,1.73849,-2.50781,0.10125,0.14493,-0.34056,-0.06154,0.38963,-0.46357,0.01622,0.09454,0.06685,-0.01295
1769,-5.447,-19.53477,3.10576,-19.28838,-13.18227,-4.31491,-32.89784,5.56107,-2.53921,-31.89494,-25.21731,-14.54801,-26.87745,44.9387,-7.65309,-5.36526,-3.80223,-1.78576,-37.96578,12.36032,-23.06068,29.34122,-15.68454,-3.98141,3.91071,1.15903,0.44589,-8.0498,0.08079,-0.31276,2.2335,-1.94064,0.55534,0.28835,-0.16383,0.07646,0.47224,-0.24384,0.15541,0.22315,0.01736,0.08844
1770,-3.97737,-20.59752,2.95766,-19.45366,-9.81977,-3.29038,-26.22278,7.37721,-2.05917,-32.22374,-17.27552,-9.71673,-27.07238,45.38719,-7.59542,-5.30931,-3.46351,-1.45777,-26.51363,23.77045,-15.25662,19.56138,-20.60513,2.76565,7.42433,1.97462,0.21052,-5.09818,-0.84779,0.48228,2.69977,-1.34766,1.07689,0.7924,-0.88758,0.4733,0.44905,-0.0731,0.23171,0.23616,-0.27254,0.23481
1771,-2.86416,-21.51916,3.10391,-19.22435,-7.43986,-2.39894,-22.7726,8.21445,-0.54883,-35.84362,-9.48459,-4.64698,-27.23094,45.79902,-7.50548,-5.21419,-3.26638,-1.17485,-29.50224,29.38594,-6.78553,19.80166,-33.98304,11.28568,8.37673,1.46886,0.16908,-0.03859,-3.74269,1.93912,2.86036,-1.51107,1.18126,1.18096,-2.08233,0.83928,0.37086,-0.11269,0.17949,0.10175,-0.54364,0.30452
1772,-2.87373,-22.39931,3.66554,-17.00731,-7.95902,-2.18897,-26.76651,5.85696,0.67214,-33.86624,-8.9046,-3.14144,-27.38999,46.24593,-7.42718,-4.87712,-3.29567,-1.04419,-39.48219,23.71288,-5.05085,24.8854,-45.64915,15.26807,6.9892,0.09813,0.33266,2.94527,-4.83497,2.24252,2.7189,-1.98829,1.02221,1.29471,-2.35294,0.86308,0.30618,-0.25897,0.089,-0.00726,-0.49789,0.23938
1773,-3.85175,-23.46292,4.39951,-13.99089,-9.48002,-2.31293,-35.02569,1.94499,0.43784,-26.2042,-13.38231,-4.47749,-27.64481,46.70978,-7.40025,-4.32,-3.28814,-0.9628,-45.53267,15.85827,-8.95833,23.79133,-49.37755,14.47743,5.25701,-0.00921,0.53176,2.50236,-2.76943,1.06384,2.35783,-1.96891,0.93559,1.35582,-1.32921,0.5927,0.2675,-0.34148,0.06202,0.02853,-0.18313,0.10629
1774,-3.91201,-24.10947,4.63875,-12.67379,-9.34258,-2.21181,-38.85207,1.08887,-0.76996,-19.74093,-15.58043,-5.53252,-27.96718,47.11082,-7.32836,-3.80866,-3.04622,-0.80743,-40.82562,18.26534,-12.50531,20.62003,-44.86363,11.198,3.64156,1.07281,0.50448,1.04398,-0.87911,0.38967,1.74924,-1.54252,0.78738,1.67146,-0.41043,0.47719,0.22605,-0.31005,0.07496,0.14625,0.04358,0.05735
1775,-2.01688,-24.21495,4.25631,-13.06417,-7.82192,-1.96429,-35.98642,2.86894,-1.54885,-16.51887,-13.76679,-5.84915,-28.24165,47.33301,-7.14412,-3.4689,-2.77539,-0.63434,-28.33296,25.78386,-14.38485,25.92036,-34.16513,6.21667,1.86424,1.24785,0.13155,0.67403,-1.76228,1.40738,1.02595,-1.32988,0.33071,2.10852,-0.7306,0.7785,0.17386,-0.19235,0.06012,0.24469,-0.02092,0.16219
1776,0.04939,-24.46817,3.9113,-13.4645,-6.4458,-1.80753,-32.96405,2.35914,-1.60835,-16.07663,-10.2929,-5.90421,-28.4327,47.33515,-6.95861,-3.20031,-2.7044,-0.54334,-21.90457,26.32166,-15.47888,33.78997,-23.67846,1.89948,1.00884,0.31915,-0.39654,0.3825,-3.73286,2.78944,0.59677,-1.48721,-0.18495,2.05172,-1.602,1.0908,0.11669,-0.06292,0.00516,0.24609,-0.20595,0.27776
1777,0.86773,-25.06587,3.8684,-13.21983,-5.24785,-1.50488,-31.47036,-1.06831,-1.7808,-18.08119,-6.1565,-4.05272,-28.55356,47.23144,-6.8543,-2.95878,-2.67397,-0.49686,-23.18647,22.92814,-13.49975,31.5504,-21.81271,2.08533,2.62531,0.14884,-0.68676,-0.88646,-4.46462,3.15394,0.88782,-1.73371,-0.20624,1.55602,-1.95202,1.02915,0.08832,-0.03705,-0.04292,0.18378,-0.28688,0.27035
1778,1.30633,-25.55635,3.80814,-12.36106,-4.26828,-1.01727,-26.957,-2.65266,-2.08649,-18.5253,-3.52567,-0.49165,-28.56236,47.18466,-6.74748,-2.78539,-2.47561,-0.45185,-16.7397,25.48623,-8.5329,22.47596,-27.67777,5.86601,5.53456,1.13563,-0.49783,-1.51604,-3.87355,2.70416,1.66919,-1.81548,0.30695,1.44998,-1.63674,0.79733,0.12531,-0.1268,-0.03136,0.19221,-0.24081,0.19946
1779,2.10718,-26.02057,3.82904,-11.15063,-4.75964,-0.95743,-21.57946,-1.11164,-1.51977,-15.46467,-6.24707,0.17121,-28.40092,47.23828,-6.55998,-2.68496,-2.26017,-0.48123,-3.40586,29.441,-6.65432,18.88985,-32.21367,7.48354,6.17288,1.48182,-0.01858,-0.3041,-2.55709,1.85112,2.07232,-1.79542,0.70526,1.82593,-1.0293,0.64402,0.20109,-0.22406,0.02673,0.26202,-0.16657,0.15184
1780,2.141,-27.04059,4.48424,-10.0515,-6.66925,-1.55037,-24.80085,-1.49407,-0.02542,-12.13084,-12.59228,-3.92686,-28.13151,47.29623,-6.37554,-2.58684,-2.24454,-0.59042,-4.53647,24.22074,-10.83912,22.59596,-30.1765,3.67968,3.72006,0.48756,0.37667,0.51989,-1.10978,0.71014,1.81072,-1.78411,0.61399,1.77746,-0.61693,0.50861,0.26933,-0.2399,0.08066,0.2264,-0.14912,0.11712
1781,0.91871,-28.27088,5.53638,-9.80873,-8.16453,-2.18266,-36.09155,-5.63815,1.08651,-12.64036,-15.54638,-8.00335,-27.91902,47.27569,-6.29633,-2.48389,-2.36573,-0.66922,-24.87833,14.5818,-15.02829,26.08987,-24.09895,-2.12338,1.5675,-0.25707,0.49643,-1.22364,-0.68262,0.01209,1.52472,-1.62962,0.40545,0.99997,-0.7616,0.39074,0.31858,-0.17403,0.10888,0.0687,-0.19174,0.08835
1782,0.03903,-28.15618,5.82925,-10.35712,-8.23571,-2.29988,-42.41694,-6.87396,0.80016,-16.5749,-13.2328,-7.94137,-27.87839,47.20807,-6.27697,-2.49021,-2.41241,-0.67568,-41.81472,13.93199,-13.95774,27.67931,-22.75167,-3.25908,2.09973,0.39986,0.3891,-3.60819,-1.55261,0.36678,1.64949,-1.36285,0.4384,0.39841,-1.26967,0.46324,0.34941,-0.12614,0.10808,-0.02094,-0.23917,0.11092
1783,1.29543,-26.71427,4.88209,-10.19257,-7.2135,-1.92661,-35.21739,-1.78989,-0.38576,-17.85045,-9.72153,-4.76099,-27.9421,47.11459,-6.19724,-2.6306,-2.2781,-0.67088,-33.35332,23.48911,-9.56388,30.23952,-30.86735,2.97029,3.46397,1.64726,0.23899,-3.10075,-2.59302,1.27934,1.78614,-1.2941,0.54846,0.81316,-1.63686,0.76876,0.33233,-0.19052,0.07345,0.0765,-0.26028,0.19801
1784,3.88978,-25.66484,3.63911,-8.98242,-5.83421,-1.43149,-21.36237,3.81997,-1.11947,-13.6223,-8.30069,-1.82728,-27.96704,46.98339,-6.05563,-2.78819,-2.03479,-0.68724,-6.15985,32.21166,-6.2443,31.52656,-38.64334,10.83944,3.17481,1.98332,0.17413,0.0866,-2.98558,1.88431,1.47445,-1.47933,0.49629,1.75192,-1.6584,1.03887,0.24844,-0.31248,0.03213,0.23282,-0.25665,0.26663
1785,4.7678,-25.68543,3.38675,-8.40296,-5.1474,-1.24857,-15.71321,3.57246,-0.53975,-10.47691,-9.77215,-1.94399,-27.93874,46.87578,-5.96986,-2.8846,-1.87871,-0.70729,7.63532,29.36964,-6.34839,29.81059,-35.97585,11.71817,2.17229,1.01614,0.12143,1.83037,-2.5561,1.61176,1.05338,-1.7458,0.39051,1.9574,-1.37466,0.91362,0.16416,-0.35701,0.03492,0.25833,-0.22215,0.22289
1786,3.02584,-26.35013,4.31141,-8.80218,-5.4339,-1.48001,-22.94071,-2.73288,1.01277,-13.19831,-12.04719,-4.86435,-27.9332,46.88536,-5.95833,-2.93517,-1.94648,-0.73076,-7.51449,15.83905,-8.84947,29.68213,-27.08895,4.2964,3.5113,-0.19203,-0.09651,-0.0054,-1.70418,0.71875,1.30786,-1.95844,0.51039,1.22688,-0.93622,0.44247,0.16046,-0.26925,0.08129,0.16964,-0.157,0.0968
1787,1.40183,-26.99676,5.22249,-8.47184,-5.33651,-1.66802,-31.20688,-8.29663,2.07644,-15.34026,-10.94831,-6.63742,-28.01314,47.0325,-5.90812,-3.02498,-2.11583,-0.75638,-25.58379,8.05058,-10.54017,30.77639,-19.68495,-4.42417,6.98448,-0.76351,-0.48827,-2.60941,-1.50128,0.29373,2.10605,-1.97015,0.74675,0.60403,-0.70117,0.11621,0.18667,-0.11513,0.089,0.09057,-0.10065,0.00389
1788,2.03377,-26.76624,4.98816,-7.48898,-3.5929,-1.32075,-28.95372,-5.72836,1.3582,-11.71418,-4.68778,-3.8811,-28.22353,47.31552,-5.77627,-3.3312,-2.1051,-0.73957,-19.86837,21.01053,-9.39194,25.46396,-16.56894,-6.93593,7.64325,-0.56616,-0.63554,-3.0319,-2.19824,0.75444,2.27472,-1.71075,0.61265,0.70292,-0.93227,0.25959,0.15187,-0.02067,0.00778,0.05791,-0.11287,0.02037
1789,3.85876,-25.51306,3.97687,-8.19239,-0.82328,-0.59072,-19.58077,2.08299,-0.40254,-8.30982,4.15208,1.92422,-28.51281,47.82708,-5.62354,-3.92426,-1.86668,-0.67378,-1.49272,45.47279,-5.35184,16.45368,-20.63651,-1.91987,2.97601,0.8633,-0.08112,-2.42226,-2.28937,1.08013,1.39472,-1.2143,0.13029,1.00429,-1.23947,0.61682,0.10028,-0.03433,-0.06497,0.06692,-0.17095,0.12122
1790,3.86623,-23.85623,3.63065,-10.4253,0.95089,-0.15381,-16.72842,5.04214,-1.08634,-9.77105,10.31835,5.77243,-28.78639,48.63828,-5.52051,-4.51002,-1.67194,-0.64519,2.77163,56.70098,-0.56958,18.20759,-32.5953,4.90488,-1.96046,2.74041,0.71201,-3.14042,-0.98394,0.54926,0.57217,-0.83359,-0.11246,0.81415,-1.10099,0.72727,0.14227,-0.10653,-0.02731,0.07508,-0.18878,0.19734
1791,1.11374,-22.62469,4.57098,-11.03455,0.36137,-0.42272,-26.32656,0.08458,-0.15154,-11.66989,9.75256,4.54462,-29.05252,49.59317,-5.45074,-4.71794,-1.69181,-0.70746,-11.41223,46.21407,0.96617,33.41399,-43.27979,6.47653,-0.92753,2.48527,0.75277,-4.59056,-0.04932,0.02067,1.01748,-1.24252,0.14285,0.22054,-0.79579,0.53411,0.3036,-0.20422,0.06796,0.00743,-0.16131,0.17055
1792,-1.39441,-22.49286,5.82965,-9.55214,-1.50797,-1.02035,-37.74691,-6.67767,0.85138,-11.82782,4.08211,0.25349,-29.42268,50.50581,-5.28862,-4.69876,-1.78199,-0.7992,-26.19888,29.18353,-1.90026,45.04127,-40.55998,2.28178,4.14138,-0.01346,0.0343,-4.13817,-0.92482,0.40792,2.17684,-2.27633,0.47962,0.0928,-0.82091,0.3799,0.43764,-0.29024,0.10482,-0.06867,-0.14911,0.09382
1793,-1.12646,-22.79503,6.24773,-8.7161,-2.13719,-1.16647,-38.50068,-9.11714,0.83217,-13.60341,-0.74912,-2.48925,-30.02982,51.43168,-4.96157,-4.95019,-1.75481,-0.81111,-28.05274,21.91763,-4.92944,39.22877,-26.36564,-1.15805,6.22571,-1.62916,-0.49501,-1.27503,-2.22918,1.18438,2.4202,-2.72286,0.46639,0.9117,-0.95618,0.46569,0.37273,-0.28843,0.06285,0.00557,-0.15299,0.06749
1794,0.9118,-21.69207,5.67256,-9.37925,-0.79571,-0.6317,-29.62949,-5.13558,0.32518,-17.36473,-1.32999,-1.57852,-30.9169,52.46621,-4.53444,-5.55849,-1.62437,-0.70743,-21.01427,27.0936,-4.00145,24.97436,-16.77951,1.21087,3.92879,-0.35437,-0.37137,1.01807,-2.42378,1.46797,1.54225,-1.94875,0.28299,1.80128,-0.8981,0.6082,0.16679,-0.16885,0.02304,0.18379,-0.13941,0.1013
1795,2.33152,-18.90823,4.84687,-10.12709,0.51453,-0.0707,-21.45034,2.81534,0.3456,-19.63264,-0.51578,0.26609,-32.0161,53.49668,-4.14857,-6.16197,-1.54867,-0.59559,-16.41042,35.69712,-1.59839,21.66458,-19.97945,5.47552,1.79345,2.15565,-0.09017,0.00633,-1.98307,1.1774,0.85328,-0.93124,0.25909,1.61811,-0.87609,0.55962,0.04868,-0.04097,0.03046,0.24382,-0.12253,0.12542
1796,2.29352,-16.61855,4.58802,-10.17471,0.08741,-0.15101,-19.04634,8.3574,1.42512,-18.36109,-1.60122,-0.33423,-33.18317,54.37025,-3.91006,-6.47248,-1.61223,-0.59146,-15.77484,37.57661,-1.83669,30.69409,-26.77836,4.37835,2.12435,3.02485,-0.10761,-3.48605,-1.46449,0.45579,1.02787,-0.80416,0.3363,0.45734,-0.9728,0.2828,0.12754,-0.04974,0.05281,0.08471,-0.12201,0.07927
1797,1.27794,-16.12297,5.07645,-9.52718,-1.31486,-0.66236,-20.2624,8.53168,3.25839,-13.56082,-2.86507,-2.19668,-34.26918,55.11681,-3.79244,-6.53888,-1.71382,-0.64825,-11.28203,34.16099,-3.03611,35.81472,-28.39991,-1.72555,2.44607,1.47223,-0.30262,-6.22378,-0.6533,-0.50079,1.19086,-1.32174,0.18442,-0.58467,-0.91914,-0.02767,0.2405,-0.18203,0.03178,-0.15754,-0.1352,-0.01467
1798,-0.18823,-16.67199,5.97983,-8.61331,-2.05641,-0.92561,-24.00322,5.87415,4.75864,-7.72999,-1.35006,-1.70928,-35.21933,55.76242,-3.67582,-6.67854,-1.72888,-0.67001,-4.15053,34.09907,-1.18512,30.01275,-28.0668,-5.67753,0.79923,-0.68397,-0.43459,-5.47937,-0.01292,-0.90827,0.50604,-1.54267,-0.25662,-0.51788,-0.70087,-0.06277,0.16231,-0.26998,-0.04821,-0.23244,-0.15208,-0.05055
1799,-1.34604,-17.5672,6.85094,-8.50253,-1.43052,-0.67994,-29.56633,2.52143,5.01197,-6.39506,2.91606,1.61869,-36.05957,56.10995,-3.4746,-7.10098,-1.671,-0.6682,-6.6878,38.89301,3.76418,21.61026,-29.45015,-3.00415,-1.06048,-1.15684,-0.37442,-1.68672,-0.58714,-0.12079,-0.38093,-1.26013,-0.53669,0.54568,-0.62498,0.22605,-0.06188,-0.2048,-0.10449,-0.06622,-0.1486,0.0145
1800,-1.52328,-18.26238,7.23577,-9.36043,0.22618,-0.15234,-31.85836,0.11358,4.19179,-9.2589,6.39268,4.50836,-36.78772,55.95549,-3.19985,-7.63758,-1.57396,-0.65862,-15.39291,42.18597,7.26828,19.73515,-29.11209,2.10939,-0.83583,0.21557,-0.05172,0.23122,-1.90802,0.82848,-0.27331,-1.08975,-0.28445,1.03618,-0.78244,0.35227,-0.13273,-0.08313,-0.0444,0.06992,-0.12443,0.06102
1801,-1.43725,-17.78932,7.05772,-10.0896,1.93125,0.31412,-29.17298,1.15333,3.08565,-9.74466,6.17425,4.46551,-37.37014,55.34695,-2.93667,-8.0459,-1.42073,-0.59845,-15.0924,40.92003,5.68994,28.74429,-24.5388,1.73662,1.02486,1.49602,0.3723,-3.68,-1.81956,0.1509,0.89697,-1.45112,0.22364,-0.22071,-0.7793,-0.09161,0.08972,-0.06796,0.0778,-0.06143,-0.10022,-0.01874
