PaulMeinheit/Bachelor_Muay_Thai/processed_Data/N4/teep/sliced/JointMoments/sliced7.csv
Unnamed: 0_level_0,R_KNEE_MOMENT,R_KNEE_MOMENT,R_KNEE_MOMENT,L_KNEE_MOMENT,L_KNEE_MOMENT,L_KNEE_MOMENT,R_HIP_MOMENT,R_HIP_MOMENT,R_HIP_MOMENT,L_HIP_MOMENT,L_HIP_MOMENT,L_HIP_MOMENT,R_ANKLE_MOMENT,R_ANKLE_MOMENT,R_ANKLE_MOMENT,L_ANKLE_MOMENT,L_ANKLE_MOMENT,L_ANKLE_MOMENT,WAIST_JOINT_MOMENT,WAIST_JOINT_MOMENT,WAIST_JOINT_MOMENT,NECK_MOMENT,NECK_MOMENT,NECK_MOMENT,L_SHOULDER_MOMENT,L_SHOULDER_MOMENT,L_SHOULDER_MOMENT,R_SHOULDER_MOMENT,R_SHOULDER_MOMENT,R_SHOULDER_MOMENT,L_ELBOW_MOMENT,L_ELBOW_MOMENT,L_ELBOW_MOMENT,R_ELBOW_MOMENT,R_ELBOW_MOMENT,R_ELBOW_MOMENT,L_WRIST_MOMENT,L_WRIST_MOMENT,L_WRIST_MOMENT,R_WRIST_MOMENT,R_WRIST_MOMENT,R_WRIST_MOMENT
ITEM,X,Y,Z,X,Y,Z,X,Y,Z,X,Y,Z,X,Y,Z,X,Y,Z,X,Y,Z,X,Y,Z,X,Y,Z,X,Y,Z,X,Y,Z,X,Y,Z,X,Y,Z,X,Y,Z
2446,0.72344,-8.84663,2.9206,-1.34282,8.02309,2.23638,-19.53409,-10.27365,4.30544,-21.20233,15.93299,3.87374,-22.10146,30.0102,-2.12738,5.95763,-0.8102,0.55456,-31.67352,26.35702,-1.55411,11.29952,12.12083,-10.9908,2.96732,0.79246,-0.17871,-6.07146,-1.43921,-1.7996,1.8487,-1.51101,-0.33793,-0.76118,-0.9816,-0.73354,0.21908,-0.02019,0.05667,-0.19567,-0.31732,-0.22439
2447,1.21524,-9.0553,2.83635,-0.73048,7.7958,2.25452,-17.73923,-10.61492,4.3712,-22.77901,15.52518,3.97811,-22.21004,29.99545,-2.17276,6.27324,-0.71196,0.61162,-30.43043,24.01695,0.37612,7.13835,-0.93762,-5.68939,1.54303,-0.1221,-0.2493,-6.42081,-1.01567,-1.95971,1.48632,-1.57967,-0.50433,-0.70622,-0.80792,-0.72763,0.18152,-0.04962,0.0672,-0.16592,-0.30455,-0.21977
2448,1.05003,-10.76254,3.03496,0.49483,6.76176,2.24988,-15.95442,-17.54567,3.89832,-20.22502,12.93739,4.47504,-22.30922,30.10263,-2.29379,6.60168,-0.56478,0.70495,-27.26361,13.68868,3.39508,9.90861,-19.36216,2.47127,-0.24081,-0.61042,-0.22388,-4.4154,-1.42203,-0.781,0.93531,-1.48664,-0.78752,0.12746,-0.70474,-0.18067,0.13264,-0.10038,-0.00856,-0.03108,-0.19445,-0.05868
2449,-0.01598,-12.74795,3.40783,1.55553,6.04303,2.26579,-17.39898,-24.6506,3.32998,-15.09293,12.13113,5.07838,-22.38428,30.20649,-2.43829,6.89334,-0.41954,0.84027,-24.92494,7.03515,4.9625,11.33041,-19.54268,6.87821,0.42531,0.40197,0.05957,-1.57942,-3.44894,1.02847,1.02834,-1.32458,-0.57259,0.8985,-1.04387,0.27929,0.14729,-0.13429,-0.05996,0.0221,-0.10887,0.04864
2450,-0.8924,-13.66385,3.56811,1.9044,6.79652,2.45257,-19.88293,-25.56469,2.91933,-10.21606,16.33047,6.25325,-22.47847,30.23156,-2.556,7.07651,-0.31298,0.99072,-20.6805,14.69002,4.69624,11.74803,-5.06927,5.50534,2.95138,2.45727,0.42199,-0.85326,-5.35686,1.67506,1.61799,-1.26844,-0.02831,0.72917,-1.61986,0.12085,0.1826,-0.16007,-0.07793,-0.08484,-0.14206,-0.02253
2451,0.17049,-13.05683,3.15088,1.34948,8.15574,2.69278,-17.37085,-19.83014,2.48473,-9.71718,21.79547,7.38901,-22.5975,30.20252,-2.59127,7.16505,-0.26724,1.10605,-13.44387,32.86135,4.17745,14.93183,-2.08657,2.56614,4.72327,3.69477,0.37607,-3.10273,-5.53512,0.69581,1.98431,-1.43522,0.15088,-0.18224,-1.91542,-0.39715,0.16727,-0.20206,-0.12736,-0.21041,-0.23617,-0.13674
2452,2.60973,-11.79196,2.48767,0.1454,8.42295,2.67483,-10.34887,-13.2281,2.60314,-14.68683,22.89649,7.05348,-22.68347,30.15071,-2.56048,7.2668,-0.27382,1.14488,-8.80694,46.26857,4.76666,17.44486,-16.57401,2.26684,4.32903,3.171,0.0848,-5.74753,-4.68602,-0.43655,1.85856,-1.56791,-0.0767,-0.67619,-1.86917,-0.57783,0.12736,-0.20978,-0.15287,-0.18223,-0.30407,-0.10243
2453,3.28604,-11.10193,2.34777,-1.12159,7.29131,2.31696,-7.78872,-11.48629,3.96777,-21.45876,18.80412,4.85534,-22.7069,30.05259,-2.57974,7.42603,-0.28039,1.10087,-15.19569,43.5122,5.15709,13.96161,-26.72639,3.37468,2.19657,1.67947,0.01302,-5.89763,-3.8237,-0.51647,1.34382,-1.32597,-0.33194,-0.08881,-1.69153,-0.16548,0.09177,-0.10952,-0.07079,-0.01425,-0.32818,0.06782
2454,1.1513,-11.41732,2.77023,-1.61613,6.06357,2.01268,-12.45034,-14.43961,5.23582,-23.95378,13.31299,2.91461,-22.73755,29.94242,-2.71787,7.53897,-0.18674,1.04272,-25.84586,30.3538,3.78313,8.34976,-20.42104,2.02151,0.01174,0.38956,-0.10441,-3.92449,-2.8188,-0.0787,0.70313,-0.97604,-0.64681,0.78984,-1.38135,0.31232,0.05187,0.023,0.01777,0.10207,-0.29811,0.16451
2455,-1.23328,-12.47394,3.10634,-0.37608,5.68247,2.1319,-17.34152,-18.06053,4.58758,-18.58769,9.93789,3.5911,-22.86769,29.92689,-2.91563,7.56439,0.02937,1.04868,-24.58255,21.23856,1.72665,9.29191,-9.78789,-2.40585,-0.4545,-0.34066,-0.68715,-2.48597,-1.7275,-0.19149,0.47453,-1.15947,-1.13638,0.83314,-1.03208,0.23969,0.05781,0.00557,-0.03507,0.02673,-0.23053,0.04659
2456,-1.75352,-13.8036,3.11232,2.3703,5.87072,2.54168,-18.16585,-20.22304,2.82284,-7.97674,9.06519,6.20364,-23.08377,30.07513,-3.07517,7.58656,0.25881,1.12631,-10.3253,20.0492,0.90671,15.66507,-8.13921,-5.92718,0.53577,-0.9249,-1.34391,-2.55188,-1.22344,-0.68585,0.81096,-1.82974,-1.50573,0.27886,-0.89895,-0.16013,0.12509,-0.1669,-0.17515,-0.13446,-0.18911,-0.14464
2457,-0.99213,-14.6835,3.01138,4.50811,6.16124,2.87503,-17.13233,-21.18238,1.88172,0.49861,9.32978,8.05706,-23.30725,30.3599,-3.17277,7.68652,0.39541,1.23676,3.33682,20.57177,1.23495,15.3801,-12.54403,-4.76924,1.61388,-1.39718,-1.35997,-2.69864,-1.55921,-0.54043,1.23762,-2.13513,-1.27859,0.24662,-0.97023,-0.15799,0.16434,-0.26808,-0.20467,-0.16107,-0.19685,-0.15337
2458,0.00144,-14.84219,2.87405,4.2476,6.18674,2.8388,-16.82227,-20.94328,1.97574,-0.31311,9.87462,7.46703,-23.49609,30.61961,-3.26748,7.96201,0.38866,1.3083,3.72124,20.62901,0.98034,3.9729,-12.97246,0.65491,2.33952,-0.60778,-0.48779,-1.94896,-2.76498,0.55216,1.43586,-1.58275,-0.3824,1.02771,-1.17486,0.3618,0.14946,-0.16942,-0.05036,-0.00333,-0.23892,0.05121
2459,0.8312,-14.71248,2.70352,2.57522,5.96766,2.43594,-19.18961,-18.58273,2.51206,-8.95912,11.90008,5.28679,-23.66877,30.71198,-3.41437,8.4245,0.24901,1.28703,-10.672,25.4521,-0.78127,-6.81499,-9.69381,7.15278,2.1989,1.98897,0.88387,-0.76639,-4.39688,1.72935,1.36122,-0.66285,0.54981,1.83837,-1.45562,0.79561,0.13521,-0.00948,0.13719,0.16705,-0.28494,0.2372
2460,0.9073,-14.87378,2.71391,2.10243,6.16307,2.08506,-24.51631,-15.77745,3.51749,-14.79319,16.16394,3.89905,-23.8891,30.72916,-3.61968,8.85249,0.10264,1.22707,-26.09278,34.63427,-2.21767,-5.7754,-9.71461,10.25821,1.20514,3.72103,1.52355,0.23396,-4.86569,1.91887,1.14155,-0.33884,0.68337,1.9253,-1.47247,0.71498,0.14574,0.02393,0.17545,0.19281,-0.2732,0.22114
2461,0.07638,-15.4935,2.92489,3.42294,6.87319,2.14965,-27.95727,-16.69333,4.4113,-12.26637,19.22295,4.31302,-24.21445,30.91346,-3.85695,8.97017,0.12892,1.23829,-26.71442,37.73619,-0.88661,6.15915,-11.17654,6.90841,1.41237,1.79958,0.44993,0.52538,-3.49044,1.04749,1.26428,-1.02821,-0.01718,1.32094,-1.10951,0.3175,0.19119,-0.08234,0.05636,0.12357,-0.1878,0.09513
2462,-0.93217,-16.25209,3.06917,5.22558,7.50146,2.51562,-26.35238,-20.75909,4.22794,-6.36553,18.22687,5.43261,-24.60352,31.33652,-4.08688,8.84809,0.36193,1.34099,-14.79132,32.28136,1.93678,19.17872,-7.73879,0.96271,3.59779,-1.19082,-1.10636,-0.28036,-1.8804,0.10213,1.89351,-1.93994,-0.59108,0.70709,-0.79211,0.0769,0.24969,-0.18834,-0.06998,0.09657,-0.10139,0.05836
2463,-1.37637,-16.6474,3.04888,6.27198,7.34336,2.66871,-23.29108,-21.94289,3.52042,-3.98942,14.28596,5.32069,-24.92261,31.84781,-4.25762,8.7668,0.59392,1.39614,-6.65404,27.41322,2.04547,18.09395,-3.1245,0.46285,5.07942,-0.71437,-1.25631,-1.25177,-2.006,0.15564,2.25923,-2.04876,-0.46318,0.7652,-0.96893,0.23878,0.22654,-0.20255,-0.12005,0.11765,-0.12144,0.13494
2464,-1.43041,-16.56577,3.01278,6.16289,6.65141,2.45047,-22.78714,-18.49097,3.44556,-6.42784,11.08608,4.15043,-25.13626,32.2956,-4.37215,8.79288,0.65222,1.31493,-9.86038,29.58024,-0.5727,-1.74424,-5.27414,7.10302,4.06382,2.64455,-0.27911,-0.42358,-3.62987,1.32421,1.85579,-1.50316,-0.19602,1.4295,-1.41458,0.60406,0.10815,-0.16625,-0.15115,0.06981,-0.22457,0.16017
2465,-1.70486,-16.59602,3.05097,5.6851,6.14551,2.18919,-24.70348,-15.55926,3.81095,-10.18947,10.72979,3.85252,-25.35258,32.59703,-4.52005,8.89388,0.57259,1.173,-17.97051,36.10128,-2.03463,-19.38465,-14.67537,13.74546,2.05661,4.53888,0.33263,2.19181,-4.36702,2.42149,1.32126,-1.19367,-0.37273,1.98835,-1.39627,0.79198,0.04323,-0.13881,-0.18917,-0.06175,-0.23894,0.04543
2466,-2.23485,-17.3663,3.17056,5.92275,5.82765,2.10759,-27.44171,-17.02329,4.03665,-11.30631,9.98957,4.09069,-25.65535,32.78953,-4.75466,9.02106,0.50019,1.08923,-22.23807,38.25891,-2.45632,-13.31901,-26.04449,13.09513,0.81803,3.00358,0.16257,3.86754,-2.69442,2.0785,1.27858,-1.38858,-0.72966,2.18499,-0.85895,0.76984,0.12437,-0.11964,-0.16172,-0.07358,-0.15561,-0.02963
2467,-2.67101,-18.97044,3.45001,6.65857,5.65935,2.1977,-30.28232,-22.04998,4.4395,-9.13176,6.20058,3.27828,-26.04766,33.0,-5.02449,8.98384,0.56754,1.12399,-20.61236,30.00027,-4.15602,6.0832,-31.19539,5.94457,0.5536,-0.06257,-0.32855,3.02716,0.29053,0.57955,1.46999,-1.73341,-0.87564,2.37811,-0.29328,0.86075,0.26234,-0.11157,-0.05528,0.16511,-0.11694,0.12275
2468,-2.49433,-20.64258,3.72047,6.68332,5.91902,2.34218,-31.22863,-26.36608,4.91821,-6.88973,4.07337,2.58908,-26.52022,33.20693,-5.23285,8.72631,0.76077,1.2327,-16.21263,20.66428,-5.02764,12.93734,-23.65258,0.71199,1.77945,-1.70219,-0.81439,1.68664,1.05238,0.11094,1.74641,-2.01427,-0.71648,2.61382,-0.22024,1.12623,0.35876,-0.13604,0.0467,0.40107,-0.16486,0.35772
2469,-1.47358,-21.2117,3.59194,6.09721,6.5033,2.39873,-28.68893,-25.08748,4.59627,-6.03221,9.25987,4.42303,-27.03116,33.21865,-5.32633,8.52689,0.9234,1.30409,-11.20746,27.45514,-2.46404,5.10035,-9.27239,3.19477,5.17229,-0.72215,-1.09808,2.35963,-2.4155,1.98683,2.41477,-2.14198,-0.18868,2.58779,-0.79833,1.25481,0.39522,-0.1645,0.08852,0.31995,-0.19298,0.38791
2470,-0.41883,-20.44712,3.12741,6.63049,7.14054,2.38113,-25.21242,-19.20526,3.6524,-4.03369,19.146,8.125,-27.43623,32.99327,-5.34179,8.59192,0.94656,1.28337,-6.55885,48.02031,1.19845,3.22629,-2.38281,7.57132,8.33986,1.31178,-0.97705,3.34711,-6.15523,3.93977,3.10748,-1.98862,0.40291,2.1729,-1.27758,1.04474,0.35875,-0.15544,0.05628,0.04922,-0.11796,0.20985
2471,-0.16349,-19.70921,2.85847,8.43538,7.12301,2.21905,-23.52808,-17.03882,3.25115,-1.10869,24.11443,9.59263,-27.57942,32.72934,-5.36882,8.72993,0.81259,1.16757,-4.47266,56.58143,1.81232,12.00677,-7.9998,5.93021,7.34249,2.03359,-0.42291,1.37223,-5.85598,3.10984,2.96814,-1.65583,0.43263,1.69937,-1.31352,0.62245,0.27448,-0.13514,-0.03704,-0.02682,-0.12773,0.07386
2472,-0.47627,-20.27349,3.01895,9.60058,6.30951,1.92298,-23.8004,-22.49942,3.48722,-0.52474,20.3746,7.12163,-27.47547,32.60368,-5.45935,8.66291,0.59514,1.03294,-5.90348,43.27735,-0.97575,11.82841,-15.0854,2.72395,3.12061,1.54,0.27616,-0.7331,-2.9121,0.94885,2.14753,-1.39241,-0.02739,1.82615,-1.02291,0.39754,0.22889,-0.137,-0.11388,0.20242,-0.23982,0.11525
2473,-1.20991,-21.54419,3.39427,9.24632,6.04437,1.87866,-27.56775,-28.59124,3.52366,-2.37907,14.2413,4.13701,-27.28319,32.62519,-5.58928,8.37207,0.4712,1.03592,-10.59212,29.85781,-4.17189,-5.60478,-14.40003,7.02375,1.05853,1.75469,0.64151,2.38708,-2.10849,0.99111,1.67708,-1.2532,-0.19563,2.62596,-0.94635,0.51471,0.24045,-0.13631,-0.10022,0.4346,-0.275,0.21509
2474,-2.70044,-22.36698,3.84657,8.5302,6.5572,2.16879,-35.99535,-29.23012,3.52401,-4.11348,10.19726,3.19724,-27.09441,32.65941,-5.70541,8.07772,0.49697,1.17449,-19.36378,30.70473,-5.94495,-19.94312,-12.3047,17.05381,2.98793,3.31823,0.75199,9.07062,-4.06838,3.20902,2.03857,-1.04367,0.40298,3.48516,-1.38132,0.81867,0.27548,-0.08908,0.02159,0.40543,-0.25171,0.25058
2475,-4.10525,-23.03995,4.35464,8.96873,6.45571,2.39063,-43.54829,-27.86559,4.1817,-2.85868,6.90306,3.2161,-26.91696,32.53681,-5.77916,7.98301,0.53873,1.26798,-26.73598,34.1898,-6.60505,-10.58432,-13.86921,22.21567,5.13665,4.95122,1.05879,12.19237,-4.91724,4.52017,2.6006,-0.68918,1.3043,3.81378,-1.61976,1.16494,0.30746,-0.00981,0.18761,0.22924,-0.25557,0.25233
2476,-3.47597,-23.9182,4.58795,10.65755,5.60411,2.38161,-41.44454,-27.94346,4.87234,2.89067,4.5456,3.46094,-26.79901,32.27988,-5.7819,7.96568,0.52071,1.22179,-19.96059,30.56597,-6.73391,13.44068,-12.21017,16.21617,4.61077,4.97327,1.2351,8.45803,-3.53093,3.3258,2.59666,-0.66583,1.47966,3.40716,-1.537,1.25462,0.29743,-0.00024,0.23765,0.14593,-0.33049,0.26776
2477,-1.08545,-23.89334,4.28852,11.59254,5.23403,2.23238,-31.3446,-25.23874,4.71614,7.74107,6.39466,4.54468,-26.81286,32.06826,-5.70539,7.72989,0.46973,1.08308,-2.52552,30.64896,-6.51098,25.63212,-6.88682,4.39371,3.29894,3.25641,0.74928,2.62317,-0.94098,0.98854,2.30267,-1.27308,0.77626,2.95297,-1.16053,1.16731,0.2914,-0.09963,0.12928,0.25177,-0.36965,0.31681
2478,0.65674,-22.65861,3.87387,10.21431,5.44686,1.88062,-24.8984,-18.27977,4.34884,3.69838,11.89636,5.40861,-26.92489,31.91851,-5.58961,7.35369,0.37501,0.92399,2.82801,42.75292,-6.15,14.4858,-8.09581,-1.64206,4.36501,1.4684,0.0312,1.48036,0.53493,0.20273,2.62296,-1.9019,0.27784,3.33519,-0.62007,1.24555,0.41272,-0.18322,0.04149,0.41476,-0.27073,0.37044
2479,0.84389,-21.98258,3.90811,8.60151,5.3983,1.44452,-26.80253,-15.58964,4.73441,-5.02383,14.56712,3.99251,-27.05921,31.72538,-5.51016,7.2314,0.26042,0.82657,-8.85334,50.20439,-6.37137,-11.35974,-15.95632,3.61138,7.89938,1.40815,-0.24443,6.19235,-1.72648,2.14341,3.61528,-1.83176,0.71347,4.25444,-0.52866,1.32389,0.60931,-0.14482,0.08539,0.45039,-0.10994,0.34699
2480,0.35457,-22.76515,4.29109,8.92505,4.81985,1.24337,-30.63006,-21.92705,5.40779,-8.6963,10.4387,0.81684,-27.23279,31.52858,-5.54262,7.379,0.19284,0.81469,-19.63283,37.88068,-7.72265,-35.89865,-22.18221,13.41628,10.91778,3.13167,-0.1071,10.84869,-5.70248,4.51769,4.30693,-1.25919,1.47452,4.50114,-0.90481,1.04864,0.66344,-0.06767,0.13841,0.36819,-0.0315,0.23972
2481,-0.02328,-23.65144,4.51022,10.01109,4.12313,1.32976,-31.08011,-29.45418,5.2973,-6.80244,4.72183,-0.60319,-27.43879,31.44371,-5.66305,7.39444,0.15202,0.81912,-19.81392,22.45539,-8.26602,-38.89637,-25.1698,16.46111,10.13934,4.7333,0.24912,8.7312,-6.33586,3.96211,3.9913,-0.90133,1.61235,3.58911,-1.17415,0.58353,0.51906,-0.06214,0.09564,0.29117,-0.14123,0.14311
2482,-0.2082,-23.56764,4.48408,11.15684,4.16891,1.60017,-29.99922,-31.01484,4.70681,0.24847,5.62287,2.40053,-27.57933,31.48552,-5.76201,7.10634,0.09264,0.81026,-9.81055,26.83154,-5.20272,-15.21341,-22.76645,11.02451,6.1725,4.35942,0.7328,2.26173,-3.21174,1.19346,3.12294,-0.9675,1.16464,2.80339,-1.05125,0.5128,0.3624,-0.08338,0.05332,0.30631,-0.32562,0.15563
2483,-0.55438,-22.87705,4.55601,12.91729,4.98838,1.89825,-31.09834,-28.7472,4.89774,11.99911,11.58677,6.98611,-27.60982,31.62877,-5.78606,6.75282,0.03502,0.82256,5.22084,42.8973,-1.16994,6.70055,-12.84923,5.95992,3.61849,2.51969,0.89792,0.24121,-1.51377,0.05616,2.56534,-1.04627,0.87668,3.49079,-0.99988,0.90213,0.33434,-0.05887,0.10718,0.42627,-0.36162,0.28013
2484,-1.27426,-22.15528,4.85602,14.13324,5.87603,2.06882,-34.96279,-26.27813,5.9741,18.69614,14.80727,8.30539,-27.60422,31.89896,-5.77862,6.59805,0.05102,0.89408,9.90836,49.08744,-1.2944,5.49959,-8.17327,7.03869,3.92882,2.02058,0.67764,2.918,-3.00227,0.95371,2.38088,-0.7606,1.00615,4.12977,-1.21321,0.96184,0.37374,-0.01425,0.1917,0.45775,-0.24483,0.32178
2485,-1.89758,-21.49537,5.13109,13.35693,6.39174,2.0246,-38.25979,-22.74299,6.81189,12.30309,13.29119,5.83857,-27.69308,32.3139,-5.80517,6.60762,0.11328,0.97539,-4.32286,44.3283,-5.49189,4.66767,-20.32248,12.07125,3.29081,5.27563,1.05969,2.93036,-4.31996,1.11027,2.23729,-0.18063,1.30307,2.49146,-1.32776,0.18588,0.3921,0.025,0.24113,0.20858,-0.1812,0.10371
2486,-1.87641,-21.05281,5.18953,11.82734,6.47914,1.81702,-36.77692,-18.28891,6.76013,0.25309,10.81369,2.85999,-28.00161,32.80535,-5.90229,6.56064,0.11939,0.96435,-20.60021,41.54893,-8.6996,22.46848,-36.23443,17.48867,0.44773,10.90961,2.383,0.80896,-3.5739,0.46732,2.29824,0.28659,1.63682,0.50336,-1.05735,-0.47697,0.39058,0.06861,0.2768,-0.03059,-0.2259,-0.12494
2487,-1.31864,-21.51919,5.20438,11.78488,6.11806,1.65491,-30.64904,-19.02172,6.15957,-4.88662,9.00993,1.73376,-28.57257,33.24216,-6.0574,6.37605,0.10805,0.86367,-18.24652,41.10486,-7.95554,26.78424,-35.62716,19.71655,-0.15357,13.51157,3.10976,2.74874,-2.72897,1.09231,2.70756,0.33773,1.94473,1.34727,-0.71794,-0.08536,0.36954,0.09765,0.30216,0.11644,-0.26859,-0.05286
2488,-0.3737,-22.7094,5.2505,13.21091,5.22639,1.60438,-24.39482,-26.77069,5.48369,-1.3333,6.64044,1.66985,-29.34716,33.5761,-6.21111,6.20874,0.14539,0.75468,-2.0393,35.52775,-6.72777,-6.05382,-18.76053,14.08616,4.20445,9.68738,2.01611,6.51831,-2.76795,2.29551,3.02994,0.16863,2.12485,3.52702,-0.54024,0.688,0.30597,0.11561,0.319,0.37126,-0.23861,0.13105
2489,0.6717,-22.86927,5.09019,14.08122,4.43102,1.49809,-21.84789,-31.91467,5.07714,2.67023,5.02096,1.05261,-30.2478,33.94501,-6.35121,6.19319,0.1264,0.68654,6.62809,30.52003,-8.74632,-38.75992,-5.55138,1.65555,9.32748,3.69931,0.24895,3.95739,-1.70398,1.4784,2.84062,0.20746,2.14085,3.21529,-0.12414,0.78911,0.23488,0.15798,0.35339,0.21534,-0.14964,0.07275
2490,0.33357,-21.35446,4.84877,13.41182,4.94865,1.34363,-24.40434,-28.73535,5.40345,0.31755,6.51448,0.16875,-31.21656,34.54898,-6.59206,6.16726,-0.01572,0.68131,-3.62699,33.52741,-11.22439,-28.75161,-12.54505,-7.67076,9.57295,2.36546,-0.32378,-4.53375,-0.2183,-1.11684,2.29368,0.48008,1.94296,0.6145,0.22792,0.2248,0.19936,0.20826,0.36058,-0.20355,-0.10292,-0.15798
2491,-2.23483,-19.27674,4.81196,12.7094,6.58503,1.40669,-30.49184,-22.98848,6.06321,-4.86774,9.15242,0.40371,-32.20196,35.49987,-7.00927,5.8836,-0.13639,0.74858,-21.71996,40.66002,-10.52265,8.42078,-33.63377,-6.76265,5.80776,5.59598,0.19827,-9.36124,-1.39901,-2.63112,1.94374,0.54257,1.5122,-0.48613,-0.37039,-0.29709,0.18907,0.19241,0.25818,-0.26971,-0.20265,-0.21894
2492,-5.41075,-17.44447,4.84021,13.5457,7.8383,1.74642,-37.12206,-19.47074,6.10618,-4.07637,11.09896,2.57435,-33.23181,36.79095,-7.50304,5.42045,-0.10945,0.8628,-29.81777,50.19268,-8.08222,29.86405,-48.26079,0.44638,3.65281,7.42337,0.27974,-5.63071,-4.42063,-1.86224,2.22901,-0.07921,0.9723,1.46292,-1.57594,-0.36054,0.21661,0.04885,0.06716,0.17807,-0.41164,-0.04294
2493,-6.76083,-15.73025,4.63753,14.71798,7.67703,1.97898,-39.75862,-16.49499,5.54617,2.43034,12.52617,5.02568,-34.40997,38.38584,-7.9247,5.04502,-0.03665,0.94151,-23.64518,61.47197,-7.15326,22.96947,-46.06287,7.67063,5.09089,5.77121,-0.2309,1.73228,-6.05938,-0.12209,3.17487,-1.16461,0.70361,3.93583,-2.22384,-0.22223,0.35626,-0.14247,-0.03523,0.60146,-0.56907,0.07791
2494,-6.37258,-14.04352,4.2887,15.31831,6.3599,1.91697,-35.16772,-13.89113,5.25486,9.73826,10.98272,4.62835,-35.85908,40.28841,-8.30172,4.91591,-0.05551,0.93402,-7.02118,62.57447,-9.2026,3.92531,-34.13058,14.51173,6.21389,4.61207,0.11363,7.3069,-6.07198,1.41873,4.2816,-1.7773,1.01187,4.44673,-2.11976,-0.28135,0.63345,-0.20331,0.09001,0.50923,-0.59174,-0.04981
2495,-6.42443,-12.56544,4.07902,16.38936,5.07181,1.82758,-26.48333,-15.3876,5.79154,16.97768,4.94944,1.19568,-37.68386,42.47509,-8.79158,4.95588,-0.14928,0.86527,13.94112,45.12806,-12.87987,-12.55987,-23.79441,19.92447,3.18385,5.76911,1.5118,10.25031,-5.495,2.68756,4.31059,-1.49141,1.2611,3.60595,-1.63403,-0.24352,0.81909,-0.11634,0.25834,0.13009,-0.49999,-0.20167
2496,-8.08425,-10.8496,3.9459,17.42164,5.5256,1.90477,-21.31055,-20.24639,6.6963,20.99053,0.92321,-0.83836,-39.91106,44.85568,-9.44351,4.85966,-0.1801,0.8289,24.48026,26.13709,-13.54834,-17.22791,-20.51518,16.64433,-1.48816,6.34496,2.13637,9.36782,-4.4479,3.10167,2.60737,-0.65234,0.76057,3.11956,-0.95545,0.32012,0.65082,-0.01572,0.20285,0.01901,-0.36435,-0.09609
2497,-10.37185,-7.83531,3.47187,16.84888,7.06702,1.96443,-21.95966,-21.76969,6.85338,16.32295,3.41213,1.06332,-42.46099,47.4038,-10.13545,4.46591,-0.13403,0.84592,15.05101,27.14109,-8.89594,-3.61913,-23.79968,2.20699,-1.6163,4.31233,0.74289,3.05773,-3.34823,1.57214,0.73037,0.06945,0.00669,2.97511,-0.47958,0.86816,0.30669,-0.00208,-0.0324,0.21936,-0.30304,0.13175
2498,-11.7156,-3.45304,2.56824,15.72052,6.40712,1.83276,-23.05548,-17.7291,6.20294,7.12672,5.82727,2.94581,-45.1963,50.22993,-10.73905,4.06236,-0.16615,0.81345,0.15844,41.87329,-3.90318,16.30642,-28.5583,-12.13482,4.6033,1.08225,-1.71894,-4.93719,-2.68179,-1.16487,0.96569,-0.03103,-0.14724,2.20368,-0.45497,0.65958,0.187,-0.0544,-0.19279,0.31575,-0.31102,0.16259
2499,-12.25094,0.64569,1.89443,16.65702,3.19602,1.70535,-22.65603,-14.10925,6.31485,6.60164,2.43632,0.88345,-48.01296,53.39265,-11.27714,4.03426,-0.26774,0.74675,0.459,48.1272,-4.83441,20.47288,-29.27308,-14.79044,12.51143,-1.07911,-3.51405,-8.25446,-3.20104,-2.94639,3.37476,-1.07914,0.25897,1.01195,-0.89471,-0.26255,0.31724,-0.0782,-0.13936,0.1702,-0.31367,-0.03163
2500,-13.63183,3.37822,1.94228,18.67331,1.27733,1.70193,-24.59537,-15.29538,7.86088,16.23365,-1.56994,-2.6549,-50.92743,56.711,-11.85414,4.27662,-0.21621,0.79489,11.72539,41.0484,-9.73121,11.37327,-26.78493,-6.93971,14.63041,-0.51349,-3.35778,-6.26953,-4.50346,-2.89611,5.32995,-2.15137,0.54652,0.30091,-1.31393,-1.08766,0.3794,-0.03575,0.03076,0.0279,-0.24859,-0.18144
2501,-16.2462,5.61079,2.21518,17.73846,2.68299,1.60453,-26.48974,-20.11551,9.42797,20.59586,-0.19324,-3.365,-54.0565,59.85832,-12.49517,4.32136,0.0715,0.95809,15.70935,31.56073,-10.05756,9.58583,-26.25489,3.98119,7.01885,3.28193,-0.80817,-2.93267,-4.81838,-1.69673,4.46321,-2.0634,0.43753,0.50009,-1.01505,-1.00862,0.21615,0.03633,0.1516,0.08174,-0.09341,-0.08912
2502,-18.47361,8.74234,1.85613,14.08692,4.12062,1.41369,-20.59606,-25.71576,9.73842,13.25096,0.74784,-2.41987,-57.44449,62.56791,-13.12938,4.03718,0.32744,1.02569,13.04425,20.52172,-4.33837,14.23566,-26.60026,9.96896,-4.02808,7.22808,2.25795,-0.53846,-3.81013,-0.33972,1.63896,-0.97625,0.18889,1.41224,-0.19185,-0.19542,-0.02631,0.08556,0.176,0.24389,0.04252,0.1151
2503,-18.25045,12.93237,0.61867,12.08601,2.08,1.45025,-5.11893,-29.03479,9.00138,6.19424,-6.29387,-3.2142,-60.87536,64.63634,-13.64535,3.68928,0.22919,0.86457,20.57478,3.37195,0.50522,7.75346,-23.81016,3.66688,-6.64213,6.32722,2.41108,0.28744,-2.52284,0.26675,-0.02185,-0.41395,-0.0654,2.26902,0.38337,0.48878,-0.10591,0.03323,0.09684,0.28772,0.05139,0.16638
2504,-14.49234,16.97503,-1.06474,13.12157,-1.39775,1.73642,14.72112,-27.01799,7.46364,7.43169,-14.1869,-4.09734,-63.89225,65.85886,-13.91283,3.49457,-0.12534,0.65548,41.91931,-6.69512,2.85319,-5.3564,-22.35822,-12.74805,1.93883,0.13333,-1.00486,-1.18133,-1.90785,-0.3753,1.15467,-1.31366,-0.49271,2.3852,0.39748,0.55995,0.12793,-0.19088,-0.12992,0.15275,0.00335,0.04796
2505,-9.12187,19.97553,-2.59624,13.93725,-2.21521,1.82922,28.92854,-18.72908,4.92636,8.44069,-10.78017,-1.6227,-66.10091,66.08823,-13.87901,3.41523,-0.36781,0.63852,55.44397,8.18832,7.19679,-1.3769,-26.87438,-26.04302,11.83846,-5.6175,-4.48748,-4.79353,-2.58672,-1.973,3.62008,-2.70523,-0.96796,1.82076,0.00783,0.18082,0.51636,-0.45524,-0.39892,0.01596,-0.02804,-0.04768
2506,-4.7943,21.45505,-3.48756,11.6522,-0.80609,1.5007,32.74461,-9.87067,2.2814,0.20591,0.2094,1.99176,-67.2804,65.2063,-13.58566,3.26509,-0.38418,0.77696,46.86689,34.66482,13.25543,21.26696,-29.42136,-26.14021,13.35327,-5.91143,-4.80586,-8.00076,-4.14525,-3.47143,4.56114,-3.00963,-1.08495,1.18689,-0.66893,-0.33836,0.64596,-0.48736,-0.46184,0.03843,-0.16995,-0.09198
2507,0.2914,21.17727,-3.89548,7.35882,-0.65446,1.15227,36.52689,-7.58045,0.67787,-12.15337,4.00373,1.84557,-67.14637,63.13693,-13.00072,2.94562,-0.32669,0.90119,35.93134,40.65258,15.44579,34.62371,-18.35974,-16.14352,7.67185,-2.31437,-2.79273,-7.40675,-4.33198,-3.40203,3.20847,-2.10353,-0.83671,0.90014,-1.17153,-0.57321,0.39165,-0.25113,-0.26147,0.12605,-0.44102,-0.20492
2508,8.97045,19.56308,-4.38122,4.11015,-2.42465,1.18179,48.06842,-10.54124,0.29111,-18.71577,-2.4438,-1.3453,-65.30511,59.87927,-12.05923,2.52539,-0.31533,0.95059,40.31968,22.19695,12.6733,21.53283,5.1609,-5.56214,2.45558,1.13472,-1.19171,-3.13016,-2.35038,-1.45812,1.50925,-1.12571,-0.51677,0.83034,-0.87041,-0.26527,0.12631,-0.00211,-0.01781,0.07258,-0.55148,-0.35925
2509,18.5558,16.01023,-4.20324,3.34274,-3.97523,1.47105,58.02592,-13.87659,1.29317,-17.97413,-9.67489,-3.06726,-61.46816,55.21727,-10.86428,2.17401,-0.3636,0.94188,47.21267,1.08236,10.51948,-1.21042,22.73143,0.44711,1.79067,3.42087,-0.89858,1.36779,-1.86121,0.52697,1.34936,-0.73184,-0.20314,1.03148,-0.30866,-0.06461,0.15744,0.06064,0.07256,-0.07108,-0.38556,-0.42697
2510,25.00712,10.19784,-2.51747,3.88854,-4.65975,1.7679,60.52258,-14.09233,2.54072,-13.92286,-14.13147,-2.76567,-55.5456,48.85267,-9.48105,1.99132,-0.44264,0.89567,47.71673,-8.67937,11.4856,-5.9018,17.54638,1.64794,4.27616,4.04091,-1.16323,3.48734,-5.09776,0.86759,2.51714,-0.76408,0.06873,1.63689,-0.41614,-0.52719,0.37169,-0.02169,0.01286,-0.10031,-0.16861,-0.36201
2511,28.90893,4.83857,-0.89329,3.91308,-5.0303,1.97083,63.5506,-6.89354,1.86401,-7.89914,-17.62472,-2.35996,-47.67015,41.11772,-7.75499,1.81637,-0.50155,0.88611,55.48546,-4.13039,12.47136,14.92609,-0.38446,-0.53146,6.10604,1.8547,-1.16723,3.38157,-8.52693,0.00141,3.5215,-1.08369,0.08233,2.50068,-0.93651,-0.99582,0.50931,-0.11697,-0.05906,0.05489,-0.09621,-0.18272
2512,30.75307,3.51339,-1.42976,3.32407,-4.50125,2.01541,65.36543,9.20561,-0.46277,0.68141,-17.05083,-1.43651,-38.49506,33.10724,-5.71394,1.42018,-0.51593,0.99506,70.74622,13.63037,10.87376,40.8285,-6.54585,-2.99821,3.52753,-1.04504,-0.26971,1.72776,-7.69064,-0.96613,2.96419,-1.48912,-0.19202,2.8521,-0.99777,-0.81137,0.38826,-0.12626,-0.00029,0.21162,-0.11364,-0.01424
2513,28.65546,6.53456,-3.96798,2.87674,-3.02494,1.8765,54.45505,27.66994,-2.50582,6.15362,-10.98546,0.29678,-29.22748,25.92331,-3.76838,0.86653,-0.54873,1.14377,68.74533,33.60685,7.36299,46.91395,5.01017,-2.34635,-2.40833,-0.92182,1.23205,-0.71881,-3.21542,-1.43963,1.10657,-1.55999,-0.439,2.05795,-0.42209,-0.21349,0.05128,-0.03494,0.15799,0.18111,-0.0654,0.05144
2514,24.93083,10.59903,-7.16727,2.58375,-2.30207,1.6499,41.10763,38.12508,-3.41963,0.3627,-5.02372,1.10432,-20.76928,19.96921,-2.28233,0.41903,-0.68938,1.13627,46.24615,40.40045,6.70029,33.753,19.25017,0.3793,-4.02599,2.17211,1.67515,-1.71533,-1.01305,-1.26638,0.69974,-1.32329,-0.36503,1.34216,-0.08895,0.12774,-0.09211,0.0296,0.19866,0.14092,-0.03475,0.07937
2515,22.98467,13.53232,-10.69961,2.65295,-3.46113,1.52489,46.76467,38.18121,-3.65857,-10.51112,-3.20922,0.60606,-13.48822,15.16411,-1.38629,0.19467,-0.93903,0.91988,36.17346,32.69651,11.50216,18.7616,22.70144,0.0708,3.12655,4.67855,0.03338,0.00339,-4.06879,-0.711,3.53942,-1.28912,-0.15991,2.16908,-0.54302,0.01402,0.31971,-0.06272,-0.01261,0.29876,-0.19247,0.09165
2516,20.78459,15.87491,-14.63866,3.33341,-5.49776,1.57463,66.68106,33.68887,-4.23117,-8.96467,-3.0927,1.02534,-7.7728,11.40181,-1.10628,0.06846,-1.19785,0.66173,59.36909,22.15414,15.47125,5.20854,17.18806,-4.67674,11.16926,4.94996,-1.9591,2.60459,-8.0172,-0.19234,6.58186,-1.31391,-0.11031,3.70628,-1.13558,-0.15134,0.91043,-0.18303,-0.27429,0.49462,-0.42922,0.02615
2517,16.10207,17.31754,-17.7645,3.44489,-6.19764,1.59328,76.5752,28.73331,-5.74763,7.87955,0.56535,4.11088,-3.83816,8.43709,-1.28852,-0.15971,-1.31801,0.55886,93.18071,19.08206,12.49672,-11.02357,13.55602,-9.09724,10.25577,4.09584,-2.03316,3.95688,-7.8126,0.30878,5.84943,-1.00122,-0.21481,4.0408,-1.00972,-0.00375,0.95732,-0.14086,-0.27534,0.48538,-0.4515,-0.03986
2518,11.5371,16.0385,-18.24545,1.48201,-4.92918,1.43488,67.5023,24.54375,-6.95893,21.47052,6.65326,7.62918,-1.38766,5.83364,-1.55079,-0.53731,-1.20682,0.65025,101.76717,23.36511,6.10679,-15.03944,14.87852,-9.03929,3.9254,2.60615,-0.87238,4.68572,-4.58806,0.9874,2.99449,-0.86286,-0.37455,3.02577,-0.39977,0.19129,0.58042,-0.04254,-0.07649,0.30893,-0.20664,0.02293
2519,8.20352,11.43346,-14.77331,-2.07211,-4.18675,1.32508,49.19545,18.56676,-5.67387,16.43414,4.71756,6.67862,-0.09209,3.38028,-1.52944,-0.92455,-0.96493,0.7963,74.73826,16.99991,1.18591,5.53305,15.24824,-4.98153,1.3044,1.19643,-0.33898,6.50593,-3.05129,1.64029,1.87928,-1.19877,-0.45385,2.40144,-0.22804,-0.02533,0.38563,-0.08802,0.02126,0.22776,0.01643,0.17406
2520,1.45873,2.43661,-5.60606,-4.84704,-5.82562,1.48231,36.73006,-1.87531,-0.59581,-0.75871,-9.10809,0.46427,2.03488,-1.49477,-0.34164,-1.169,-0.81468,0.85094,37.26376,-25.5091,-0.32362,26.83841,13.97013,-0.79624,2.75551,0.64385,-0.68735,8.77248,-5.21686,1.76934,2.4113,-1.5587,-0.55494,3.24921,-0.72722,-0.51269,0.41079,-0.24112,-0.09475,0.39749,-0.04105,0.2669
2521,-3.5056,0.90638,-1.58381,-4.9609,-7.57271,1.69679,27.22674,-10.04529,-0.8495,-11.44515,-21.85563,-5.25338,1.60324,-1.47233,-0.05127,-1.09823,-0.83724,0.82602,11.03179,-54.47286,-7.31448,18.3898,15.86947,0.19251,3.50589,0.8297,-0.93148,9.16959,-8.94858,1.00619,2.42361,-1.32006,-0.57808,4.42366,-1.38976,-0.97317,0.33546,-0.22407,-0.1696,0.60545,-0.28562,0.18137
2522,-5.91046,3.13761,-2.31911,-2.76348,-7.23198,1.70634,34.33953,-12.69465,-2.4217,-5.70741,-23.04602,-5.72601,1.68723,-0.75312,0.10301,-0.52683,-0.95593,0.78272,27.56248,-64.23901,-10.0723,-11.88035,18.23159,-0.50091,2.32335,2.21204,-0.35171,7.73732,-10.69956,-0.08407,1.32365,-0.11042,0.02508,4.48806,-1.72639,-1.31486,0.0389,0.11708,0.06716,0.58376,-0.45253,-0.03672
2523,-6.14059,5.37052,-4.04029,-0.40664,-7.12149,1.74856,48.11921,-17.65103,-3.94385,7.3175,-21.80085,-3.94028,1.96133,-0.13411,0.1449,0.22255,-1.12569,0.6757,62.79412,-74.60062,-11.39625,-31.50255,16.54349,1.61568,1.52287,4.99897,0.65549,7.06184,-9.08863,-0.14679,0.40991,1.40391,1.14654,3.60978,-1.55777,-1.36685,-0.21443,0.51056,0.43578,0.40414,-0.41985,-0.1782
2524,-8.85044,7.13206,-4.83676,-0.40983,-9.22941,2.00735,50.16163,-20.32345,-3.46109,10.42178,-28.17999,-4.99264,1.69293,0.22077,0.06217,0.24677,-1.26003,0.52348,68.79386,-91.93407,-14.89223,-24.03272,19.50088,8.26576,1.35407,7.06675,1.32616,8.49393,-5.83923,1.40441,0.55765,1.82346,1.65611,2.69905,-0.95256,-0.98614,-0.14853,0.56007,0.53166,0.27022,-0.2262,-0.1105
2525,-13.01788,10.97603,-7.62187,-3.18006,-11.21813,2.14964,36.6748,-3.67455,4.03295,0.51734,-35.51379,-8.22814,0.92352,0.75869,-0.1246,-0.6788,-1.20583,0.47992,36.85336,-81.53125,-13.48919,0.8554,36.01296,15.34376,0.0561,5.8616,1.29542,10.92468,-3.84309,3.37639,1.17234,0.55724,0.74631,2.55699,-0.31881,-0.45281,0.14217,0.19186,0.21012,0.26196,-0.02677,0.05668
2526,-13.96547,15.16233,-11.43325,-6.23215,-10.76106,1.97084,20.84914,22.74035,15.98104,-10.33798,-33.74516,-9.44079,0.37626,1.34034,-0.20793,-1.53392,-0.9992,0.60812,2.35469,-38.74156,-4.37096,20.02261,53.57581,16.85839,-1.59037,2.28577,0.70508,12.33674,-4.67612,3.81151,1.75503,-1.43523,-0.87007,3.47475,-0.21646,-0.32069,0.40683,-0.31406,-0.28723,0.34678,-0.00404,0.09248
2527,-10.63274,15.33241,-12.04454,-7.6147,-7.92669,1.61931,15.87179,31.1643,19.75908,-14.06335,-21.58158,-6.18313,0.58638,1.31615,-0.12511,-1.4614,-0.77922,0.84495,-6.79568,-1.37987,1.48041,17.29818,51.29859,12.36335,-1.37172,0.07092,0.2014,11.53591,-7.17649,2.31815,2.25726,-2.53763,-1.63845,4.55977,-0.68364,-0.66881,0.46375,-0.5995,-0.56381,0.40657,-0.15648,-0.05684
2528,-6.90588,10.79787,-8.36796,-8.09121,-3.97506,1.21516,21.04529,15.49131,10.29397,-12.48659,-5.52526,-0.22455,1.24947,0.4992,-0.104,-0.82839,-0.58714,1.08262,5.078,6.20668,-3.91104,4.56185,31.19223,6.26459,0.86443,1.10825,0.24963,9.1124,-9.64977,0.14689,2.5103,-2.042,-0.93174,4.64347,-1.30333,-1.20326,0.30103,-0.51545,-0.42424,0.37876,-0.32801,-0.22119
2529,-5.9547,4.79509,-3.24088,-8.92174,-1.33861,0.90031,25.70839,-5.17073,-2.26774,-9.9142,3.26527,3.30612,1.60186,-0.5592,-0.30036,-0.53171,-0.48274,1.19676,17.66791,-8.77375,-13.41144,7.71059,15.24524,1.81018,3.41225,3.55659,0.57448,6.64089,-11.51812,-1.56822,2.62846,-0.57077,0.38051,3.6883,-1.71513,-1.74079,0.19214,-0.1449,-0.03784,0.33086,-0.40282,-0.26
2530,-6.25466,1.13419,-0.32362,-9.05201,-0.83314,0.87842,24.97063,-14.52217,-7.54818,-5.77173,2.27372,3.03475,1.4936,-1.11938,-0.56143,-0.70451,-0.44972,1.2407,22.88066,-24.91139,-16.5865,25.43011,9.56764,1.28248,4.17144,4.88872,0.82582,5.48869,-10.99174,-1.61947,2.69954,0.8274,1.08615,2.50749,-1.52173,-1.70802,0.33227,0.32752,0.29713,0.27514,-0.32204,-0.15711
2531,-6.39406,1.78392,-0.64858,-7.34411,-1.98896,1.31736,24.63294,-14.30633,-7.47256,1.74424,-3.86375,2.15789,1.31969,-0.82149,-0.5795,-0.70547,-0.46972,1.29115,29.17927,-34.89948,-17.42883,31.73641,1.72716,5.0611,3.05246,4.66239,0.83475,5.95855,-6.44342,0.69628,2.71672,1.33281,0.79838,1.75342,-0.62385,-0.6794,0.55879,0.63608,0.40655,0.14792,-0.11873,-0.02656
2532,-8.81195,6.56406,-2.53531,-5.23948,-4.3619,1.91282,31.28671,-12.21322,-6.77656,7.76568,-11.74734,1.47337,1.10528,0.17458,-0.15527,-0.36478,-0.63211,1.23203,41.64672,-45.02954,-23.65758,19.29989,-4.88204,6.66584,3.01925,3.30532,-0.12157,7.30239,-0.99482,3.59757,3.21723,0.42359,-0.2921,1.76298,0.24696,0.45981,0.68876,0.49675,0.16163,0.04747,0.02817,-0.02444
2533,-14.86415,12.6324,-3.59731,-3.03803,-4.7442,1.88483,39.75845,-9.76917,-3.76265,9.37243,-13.09825,0.09679,0.60304,1.19432,0.54185,0.03696,-0.77407,1.14261,54.69341,-46.98877,-28.59377,4.89926,2.47977,-0.1778,4.42776,1.92845,-1.82448,8.73814,-0.00682,4.37338,3.36667,-1.06455,-1.42788,2.74055,0.25151,0.65825,0.47825,-0.00063,-0.3333,0.19472,-0.03783,-0.09483
2534,-20.64206,15.11692,-2.58141,0.03226,-1.49139,1.23669,35.54087,-5.43063,2.35644,7.67177,-7.23871,-1.55042,0.07609,1.39033,0.96516,0.52004,-0.64993,1.25323,52.95936,-35.19713,-23.44035,-1.1865,14.2669,-8.97298,3.75475,3.24224,-1.89979,10.11952,-4.24661,2.6679,1.75395,-1.22098,-1.23118,4.47701,-0.54564,0.1131,-0.13068,-0.34297,-0.54585,0.60297,-0.27897,-0.06874
2535,-20.99322,12.14545,-0.72248,2.88125,1.76144,0.89078,12.99092,0.94968,9.09071,1.59043,-5.50075,-2.34731,0.16171,0.59426,0.7069,1.17715,-0.40292,1.47072,24.07891,-21.98042,-9.70947,-4.07971,16.03868,-7.01568,0.63128,7.5317,0.75153,11.10581,-8.98601,0.48938,-0.23079,0.26536,0.57455,5.92844,-1.25896,-0.34365,-0.56745,-0.21771,-0.14584,0.96102,-0.47186,0.04272
2536,-16.76522,7.05392,0.21768,5.55854,1.81842,1.28946,-15.40801,6.15551,16.93729,-3.77718,-9.59994,-1.2363,0.80223,-0.43023,-0.03562,1.98923,-0.34358,1.50359,-14.80185,-12.26549,8.44652,-7.09183,16.38838,5.14108,-0.9735,10.21831,3.34245,9.73653,-9.23571,-0.42651,-0.22939,1.5704,2.22437,5.46899,-1.0213,-0.15801,-0.37851,0.13012,0.41958,0.85788,-0.37187,0.12289
2537,-14.32149,2.68179,0.6759,11.12396,0.51189,1.82766,-28.7353,3.0051,22.3957,3.47393,-6.04517,2.04008,1.01581,-0.89253,-0.72412,3.00598,-0.47358,1.30403,-24.02529,-0.15307,23.12238,-0.46411,25.53463,14.60908,-0.36414,8.06229,3.38737,4.52834,-5.30155,-0.88622,1.41262,1.18758,1.86026,2.6633,-0.05894,0.20942,0.17012,0.26476,0.50619,0.24461,-0.02044,0.07249
2538,-15.98865,-1.53707,1.52584,21.75377,1.64654,1.74225,-12.27072,-10.48139,12.21836,25.45787,12.20985,5.68038,0.43957,-0.74645,-1.03268,4.23813,-0.52056,1.13102,16.52081,8.85759,14.48192,25.06843,28.80986,14.77326,-1.94369,3.88942,2.76103,-1.9548,-2.19457,-2.97417,2.25155,-0.19883,0.02171,-0.46747,0.4377,-0.3167,0.50931,0.12054,0.13784,-0.38479,0.24813,-0.12189
2539,-16.39657,-4.57759,1.92806,34.53779,7.03723,0.78567,28.39243,-22.91941,-13.32718,46.30091,36.52821,7.37693,0.14434,-0.38845,-0.88874,5.52569,-0.28939,1.26187,79.66788,8.85117,-21.23149,57.00359,11.92078,6.62805,-5.30176,1.21594,3.11333,-5.61634,-3.16524,-7.01935,1.75804,-1.12215,-1.29843,-1.66343,-0.13958,-2.04611,0.48512,-0.0557,-0.18487,-0.54188,0.21417,-0.42461
2540,-10.85133,-2.52751,1.13365,44.52686,14.43964,-0.56985,58.68526,-21.00732,-25.68276,49.57435,53.19876,7.02617,0.81156,-0.08307,-0.36919,6.90986,0.05811,1.6094,109.48921,11.98535,-42.83341,68.58521,-8.99038,-6.68065,-4.86149,-0.38897,2.57619,-5.08144,-6.78731,-11.04764,1.44183,-1.31702,-1.39167,-0.8617,-1.19891,-4.25519,0.35992,-0.11494,-0.19206,-0.26281,-0.0043,-0.82026
2541,-2.52309,4.63407,0.32976,51.25705,17.95001,-1.15345,43.44423,-6.80901,-7.19003,37.29603,50.13024,5.25853,1.57024,0.17512,0.22421,8.75663,0.09799,1.70549,74.1871,21.62477,-18.70055,54.41444,-16.01289,-12.70479,-1.57072,-0.63919,1.27162,-1.62913,-8.90548,-11.40713,1.64334,-1.07888,-0.79403,0.61766,-1.68132,-5.01235,0.31122,-0.07509,-0.00373,0.11299,-0.17144,-1.03783
2542,1.34789,11.17272,0.84707,59.12613,16.5443,-0.65381,-3.63688,5.99188,19.85706,27.43688,33.0815,2.67369,1.56028,0.38924,0.61201,11.1044,-0.16364,1.42305,9.89555,27.45126,21.48594,35.08003,-21.65634,-0.3784,-2.70614,2.53979,2.77153,1.60402,-7.01119,-7.11012,1.08056,-0.38107,0.07157,1.45687,-1.2871,-3.3447,0.22552,0.01612,0.17491,0.31306,-0.21754,-0.85637
2543,-0.95526,11.03833,1.75643,72.48565,15.74384,-0.01748,-30.23139,8.48129,24.79107,38.78539,22.80108,1.15133,1.25385,0.30878,0.57389,13.57016,-0.23956,1.12277,-5.55143,23.61744,32.49044,20.74333,-34.95077,15.64074,-8.34592,6.8916,6.64284,2.0036,-4.64805,-4.05297,-0.31131,0.34512,0.65855,1.38083,-0.99197,-1.83439,0.03719,0.09101,0.22383,0.29756,-0.24166,-0.63454
2544,-4.47855,4.96533,1.38727,90.15514,18.55328,0.13244,-13.33819,5.45728,5.84152,69.79149,25.93236,1.96499,1.41138,-0.095,0.20137,15.93723,0.10633,0.99,50.18216,10.66992,8.75111,8.90402,-31.42907,10.67716,-10.33443,7.67836,7.63352,-0.84299,-6.10331,-7.67015,-0.85246,0.36978,0.37259,0.91951,-1.46215,-2.63519,-0.07687,0.07267,0.0958,0.23408,-0.29628,-0.66315
2545,-7.14183,1.08666,0.91719,106.54805,22.03439,0.1946,13.56157,7.22068,-12.48862,98.82756,28.19289,3.42418,1.61913,-0.38946,0.17358,18.37535,0.63861,0.86251,110.51458,-5.19569,-22.57197,7.96269,2.59451,-12.52841,-6.09306,5.2322,4.67547,-6.05465,-9.48669,-15.28061,0.02668,-0.00967,-0.20902,0.26671,-2.00183,-4.20811,-0.02084,0.01894,-0.04051,0.22499,-0.31872,-0.70071
2546,-11.5927,2.74052,2.10346,118.7765,23.76997,0.49256,10.17569,14.71192,-13.7438,111.62018,21.17041,3.16879,1.02182,-0.36439,0.66827,21.13933,1.16223,0.7033,112.9391,-12.65173,-37.21576,21.24156,36.6674,-28.63055,-2.93736,2.82699,2.90064,-11.82099,-10.39689,-20.83352,0.80198,-0.1696,-0.16981,-0.70097,-1.79347,-4.62145,0.04279,0.02632,0.0527,0.1759,-0.23383,-0.55973
2547,-16.04541,3.78008,2.86025,129.57132,24.7653,0.81294,-21.65129,20.85745,-7.55246,115.7049,12.2914,0.95812,-0.12808,-0.18696,0.92554,24.31151,1.6958,0.6591,76.24167,-9.67753,-32.65438,30.84164,42.22638,-24.55977,-7.58987,0.91026,5.89676,-17.02083,-7.53661,-22.33958,0.10183,-0.4396,-0.02229,-2.26538,-0.78235,-4.09185,-0.03607,0.02179,0.22998,-0.04214,-0.01243,-0.40189
2548,-13.96502,1.21512,1.38393,142.36412,26.76413,0.82627,-55.23349,21.50299,-5.83909,123.18636,11.05942,-1.684,-0.91855,-0.02299,0.81101,27.85056,2.23363,0.76377,49.2096,-1.98745,-15.59328,32.27314,30.57299,-12.86093,-16.94971,-0.67711,11.2643,-21.60606,-3.93155,-23.10249,-1.30979,-1.07284,-0.65886,-4.13347,0.30628,-4.12383,-0.10499,-0.08219,0.12585,-0.29968,0.23162,-0.45265
2549,-4.71235,-0.3601,0.5658,156.24417,30.19209,0.34356,-77.20639,17.79938,-5.21237,132.66905,19.28034,-3.09356,-1.07284,-0.00656,1.10274,31.58875,2.68463,0.91288,40.04691,9.62419,11.29435,42.52118,21.62067,-11.97171,-21.35797,0.12628,14.02045,-25.31231,-2.4439,-25.63299,-1.38394,-1.14054,-1.33685,-5.54127,0.83716,-5.19137,0.1283,-0.12136,-0.1844,-0.35979,0.3323,-0.67809
2550,6.40427,0.68321,2.12155,168.33208,33.51537,-0.22307,-85.6243,14.51209,-4.39958,137.82814,28.1764,-2.59831,-0.72985,-0.12207,1.79146,35.15262,2.95423,0.97434,39.51525,17.89331,37.40047,57.89008,14.96207,-22.76775,-16.87615,4.02546,12.22785,-27.22692,-2.04674,-27.41147,0.1187,-0.02371,-0.78819,-6.30755,1.03835,-6.03872,0.53926,0.09092,-0.2513,-0.24727,0.28324,-0.79615
2551,16.86684,1.13656,3.12622,178.0304,35.57767,-0.42445,-80.64939,16.12297,-8.69885,140.46803,28.76628,-0.82024,-0.05261,0.04162,1.91792,38.20459,3.00197,0.88519,49.26291,11.67579,46.51806,56.40611,5.79743,-29.85828,-9.24574,8.18444,8.07795,-26.32817,-0.56725,-25.11274,1.53177,1.02766,0.30026,-6.59408,1.28563,-5.55729,0.67014,0.31702,-0.0359,-0.15256,0.18776,-0.62596
2552,24.32695,0.40464,1.85486,187.14833,37.20224,-0.5186,-78.17645,18.6291,-12.04395,148.23219,23.48118,0.9656,0.35579,0.76346,1.0027,40.87813,2.84235,0.69119,57.55459,-2.91277,42.50885,41.88686,-2.83323,-23.89285,-4.72575,9.98169,4.761,-23.99419,2.27299,-20.42141,2.25497,0.81334,0.53427,-6.84592,1.61616,-4.48028,0.48462,0.24431,0.1132,-0.26196,0.17814,-0.41459
2553,23.26521,-0.50211,-1.11007,196.45349,39.59518,-1.11514,-103.17797,15.34956,-6.32811,163.52084,23.02972,1.57683,-0.0957,1.4782,-0.72815,43.48711,2.60362,0.51198,39.30336,-3.18469,43.67078,37.86222,-8.52769,-15.70253,-4.6278,8.34949,3.81519,-23.41197,3.96584,-19.50145,2.35106,-0.20935,-0.16782,-7.55145,1.7711,-4.82582,0.25902,-0.00401,0.07379,-0.62081,0.3528,-0.63922
2554,14.45011,-1.69253,-5.14176,204.20985,42.6728,-2.43177,-153.67807,8.5964,3.52774,181.17007,33.09558,0.2231,-1.05655,1.40007,-2.82837,45.89639,2.50498,0.43893,1.09394,19.34873,57.62777,47.25959,-9.61802,-21.58222,-7.19402,3.68684,4.72244,-24.38782,0.66852,-25.41294,1.58283,-1.13344,-1.27911,-7.76184,0.93102,-7.36862,0.0879,-0.15614,-0.05509,-0.83549,0.52061,-1.36075
2555,3.82238,-1.97702,-7.6405,209.60492,44.62748,-3.61327,-187.01756,2.53971,12.72985,196.33711,42.90279,-2.44278,-1.52786,0.69867,-4.38055,47.8509,2.61531,0.43831,-9.27719,33.56728,75.15754,55.30276,-3.35398,-39.86234,-10.34062,-0.58859,6.3994,-24.17494,-6.55114,-33.11409,0.07449,-1.39493,-1.94726,-6.23135,-1.08653,-10.07728,-0.11148,-0.14249,-0.13142,-0.48451,0.361,-2.00719
2556,-14.42275,-0.56869,-6.37242,214.0632,44.11644,-3.68026,-161.1261,-3.33255,20.08516,206.84906,38.58538,-4.29281,-1.2145,0.00451,-3.89558,49.63206,2.84129,0.42116,35.84393,8.33724,71.57309,59.28118,5.67541,-56.56302,-11.75673,-1.09206,7.22664,-23.55559,-9.94115,-36.0743,-1.29032,-0.956,-1.54111,-4.29965,-2.43036,-10.43292,-0.30961,-0.06637,-0.10017,0.07722,0.03189,-2.03041
2557,-51.32851,1.16839,-3.06987,218.78503,43.03863,-3.40982,-93.76912,-4.93773,16.34654,214.06857,29.78262,-4.62341,-1.57823,-0.60225,-1.33349,51.6734,3.21229,0.37416,101.21395,-27.92264,24.59473,65.99469,6.94707,-64.7844,-9.44631,1.64802,5.77147,-24.74865,-5.23364,-33.82996,-1.37738,-0.12505,-0.33607,-4.17418,-1.33874,-8.45731,-0.29508,0.02473,0.00846,0.16438,0.02184,-1.54899
2558,-93.91152,2.08621,-1.40528,223.03741,43.07298,-3.89745,-37.48491,5.2995,-9.64842,221.19975,35.95761,-4.65728,-3.82188,-0.66401,0.97658,53.81987,3.78883,0.26365,143.81711,-24.64586,-57.76119,72.10136,-0.58761,-61.37311,-5.48612,3.60683,3.52032,-24.24894,1.50455,-27.9885,-0.7341,0.59255,0.84314,-4.73701,0.84941,-5.70671,-0.12407,0.13864,0.19902,-0.09853,0.24744,-1.04875
2559,-104.92877,2.26598,-1.04028,224.79643,42.09738,-4.26915,11.90342,18.59736,-43.67839,225.72589,52.42908,-4.61988,-5.41216,-0.05325,1.75947,55.80959,4.39025,0.02408,183.97992,9.11768,-131.42155,70.42669,-2.42033,-44.48727,-3.96999,3.07233,2.95655,-17.4579,2.76219,-18.92109,-1.03872,0.84569,1.64381,-3.30475,1.32135,-3.1253,-0.14574,0.21309,0.46667,-0.04838,0.09461,-0.75924
2560,-71.24926,1.78852,2.37013,224.06052,38.79559,-3.45189,80.40026,17.49037,-51.37449,223.61957,58.29256,-3.86747,-3.78912,0.00296,1.6306,58.01158,4.81393,-0.24583,244.20369,23.95408,-149.8855,67.07841,12.74779,-28.2435,-3.26645,3.12098,1.87073,-8.63868,-0.52968,-10.50642,-1.94767,0.87488,2.2521,-0.60464,-0.17795,-1.35528,-0.41175,0.19436,0.68373,0.35096,-0.52415,-0.63538
2561,-21.69725,0.5087,4.24877,224.1568,36.46997,-2.48805,142.00784,4.2303,-33.26125,219.87535,48.77214,-3.17785,-0.06215,-0.64579,1.04196,60.65523,5.1363,-0.36234,294.89722,3.58176,-119.74603,76.02263,31.95379,-30.16758,2.38908,4.11956,-4.56129,-4.93068,-3.07192,-7.26868,-1.88078,0.55866,1.83386,0.82921,-1.4334,-0.43846,-0.65234,0.03315,0.55827,0.60662,-1.03015,-0.45398
2562,15.6683,-1.72316,-2.88609,225.29695,37.96313,-2.97391,168.16103,-6.97183,-23.05651,216.88702,38.14032,-3.75843,3.48325,-1.0342,-0.04084,62.85201,5.4264,-0.38831,312.61084,-28.40556,-86.53032,83.03032,34.84071,-42.82026,13.45868,3.67991,-15.16963,-4.41071,-4.26853,-6.36446,-0.39057,-0.25351,0.06455,1.20173,-1.52662,0.42997,-0.6204,-0.23251,0.0511,0.59132,-1.07292,-0.07106
2563,32.75066,-3.98722,-13.89108,222.66367,41.56212,-4.86474,155.03273,-9.56384,-32.31086,204.13454,37.69664,-5.25394,5.16306,-0.72402,-1.32358,63.55324,5.53218,-0.52884,286.43304,-42.23015,-71.6655,44.50843,25.05047,-46.55173,23.21714,2.43735,-23.14591,-0.64505,-6.31835,-1.54762,1.67023,-0.80788,-1.52497,2.32104,-1.56015,1.87413,-0.32933,-0.39844,-0.43667,0.5297,-0.8831,0.35902
2564,34.20026,-3.88764,-15.01479,216.04988,44.42776,-6.77495,115.18706,-8.1865,-32.60622,179.15002,43.27549,-5.89549,4.66319,-0.30699,-1.76852,63.00526,5.49081,-0.76342,220.95161,-34.95794,-50.58177,-25.95106,19.88245,-37.94194,26.4855,0.98642,-25.0673,6.18776,-7.54627,6.70026,2.92397,-0.93263,-2.55705,4.02424,-1.81443,3.60204,-0.11313,-0.39364,-0.71251,0.45007,-0.68222,0.59354
2565,28.61186,-1.08924,-3.16199,210.98058,45.63955,-7.34215,75.83566,-10.14621,-1.67886,156.57231,42.66188,-4.18927,3.22773,-0.46211,-0.81093,62.22158,5.63401,-0.90724,153.19182,-30.57385,-2.08352,-46.58032,22.03332,-23.1946,24.42745,-0.22103,-23.17534,11.98832,-5.99319,13.73433,3.27034,-1.05335,-3.51432,5.18701,-1.61969,5.16023,-0.15034,-0.35791,-0.87915,0.29957,-0.46586,0.68029
2566,19.75539,1.38423,8.2658,208.6358,45.71163,-6.53758,50.75052,-16.346,39.75447,146.40408,32.81382,-1.08408,2.02607,-0.73683,0.46235,61.45606,6.15107,-0.85775,110.98997,-39.07171,50.85868,-3.26644,23.89279,-6.02609,20.08187,0.33192,-20.52044,15.76883,-4.92958,18.67848,3.71041,-1.26084,-4.21942,5.95606,-1.50488,6.52712,-0.22845,-0.39534,-1.00029,0.2053,-0.36802,0.87926
2567,8.06327,1.34204,6.619,204.2565,45.3901,-5.55687,30.03087,-20.98242,54.07698,140.79022,24.08683,0.87887,1.01631,-0.22635,0.5569,59.91578,6.85928,-0.67672,83.69065,-41.70187,71.20051,25.64017,17.82519,7.50178,15.94618,1.82741,-18.314,18.63394,-6.88011,23.14623,4.59064,-1.62216,-4.71577,6.88158,-2.13259,7.78881,-0.0853,-0.45465,-1.10185,0.25774,-0.49921,1.23747
2568,-1.8335,0.28855,-3.83067,196.09871,44.90569,-5.05118,7.35765,-17.95521,33.08677,132.16914,24.58983,0.87547,0.05546,0.87013,-0.3998,57.10696,7.40226,-0.47215,59.10981,-23.97729,55.46759,9.74262,-2.87874,13.24833,14.33841,2.40171,-16.42726,21.18784,-8.46399,27.08932,5.89575,-1.74515,-4.85277,7.92589,-2.38944,9.04851,0.37221,-0.3745,-1.10906,0.38527,-0.56845,1.59988
2569,-2.71365,-0.05087,-12.06147,186.80426,43.55731,-4.30533,1.54895,-4.66105,-9.30779,125.16273,27.53653,0.53437,-0.31073,1.49196,-1.12777,53.58303,7.5541,-0.25654,58.36677,-0.61095,12.88173,-6.64988,-29.85569,16.48505,14.4179,1.94019,-13.67013,22.65951,-7.50035,28.80931,7.40507,-1.25877,-4.31922,8.76431,-1.63664,10.0278,0.99976,-0.11274,-0.93206,0.51797,-0.38065,1.83664
2570,-1.66776,0.21528,-14.58131,177.84109,40.37891,-2.43226,22.57147,15.95159,-59.36089,123.6035,20.39827,1.67542,-0.02399,1.09367,-0.8774,49.90548,7.35485,-0.01287,89.77448,2.74388,-57.82369,-6.71303,-37.26379,22.70149,12.55699,1.18747,-9.57731,21.85203,-6.77038,27.99565,8.29796,-0.96508,-3.82445,9.11777,-0.98192,10.44983,1.4364,0.07297,-0.76888,0.61634,-0.16438,1.97689
2571,-10.92128,1.25487,-15.03242,168.65413,36.53619,-0.0184,44.62245,34.26867,-100.36228,122.09262,4.33437,4.39586,-0.07903,0.20078,-0.09787,45.82805,6.9794,0.27659,117.45176,-18.6598,-133.97961,-13.24811,-15.99999,28.74131,8.84653,2.6396,-6.47712,19.70791,-9.38258,27.37639,8.38862,-0.9275,-3.55248,9.18055,-1.62991,10.80858,1.44005,0.05394,-0.72689,0.63612,-0.1936,2.12246
2572,-25.6265,2.89725,-12.68334,158.48097,34.3149,1.61819,42.8761,36.82343,-103.29643,116.62091,-8.15038,7.34265,-0.93645,-0.35687,0.3868,41.0472,6.31615,0.67928,116.73882,-51.92844,-154.10422,-34.03355,8.39878,29.18891,8.11863,8.44577,-7.13533,18.7818,-13.97285,29.06515,8.69211,0.1892,-2.47879,9.17319,-3.29071,11.38439,1.15858,0.08298,-0.57353,0.54891,-0.42669,2.17448
2573,-34.73824,3.42428,-1.88307,147.9007,34.86176,1.86523,20.39251,18.81799,-48.89029,115.50797,-7.47067,8.25908,-2.02465,-0.45987,0.5155,35.91695,5.04531,1.29878,104.82116,-78.17105,-84.33163,-59.48175,10.27246,25.36946,11.6877,14.91799,-9.65937,20.11458,-15.42121,31.17673,9.65628,2.26887,-0.57188,8.8581,-4.17225,11.50379,0.95807,0.32838,-0.1632,0.38694,-0.55732,1.96151
2574,-40.32518,2.83418,11.90832,138.12177,38.13536,0.82697,-12.91079,-4.44498,25.79263,127.43562,7.3821,5.36022,-3.16524,-0.42696,0.52247,30.9631,3.1235,2.13923,94.36246,-75.72327,13.27455,-76.6895,-4.48901,25.31312,13.9963,15.28863,-8.85829,21.79172,-12.77518,30.99623,10.43484,3.18275,0.49731,8.12908,-3.6852,10.81266,1.11262,0.62787,0.25624,0.23769,-0.47049,1.63381
2575,-46.54995,2.44355,19.48686,128.77582,41.64265,-0.43274,-42.40067,-15.54217,63.07708,145.14311,24.31662,0.43919,-4.22022,-0.63271,0.75859,26.32721,0.72638,2.9419,86.33099,-51.45435,53.37967,-74.70818,-12.13488,35.72766,9.3328,9.33517,-3.03595,21.76288,-11.53501,29.56091,9.5845,1.78611,-0.27128,7.54811,-3.50651,10.17204,1.39521,0.66649,0.30308,0.2047,-0.37373,1.54765
2576,-49.68512,2.5772,19.34623,117.96924,43.41026,-1.28131,-51.70838,-12.89001,50.02094,150.57367,32.75189,-3.02906,-4.75376,-0.92993,1.27041,21.77414,-1.81406,3.49781,83.16568,-30.71677,26.22625,-58.36316,-0.56657,55.28988,-1.55713,4.55406,4.78259,21.30568,-14.60038,30.06723,6.40522,-0.19917,-1.42392,7.89543,-4.56041,10.58597,1.22596,0.3957,0.04269,0.32817,-0.41109,1.81571
2577,-47.73055,3.21073,13.38574,105.03615,44.76409,-2.32243,-42.0,-4.6108,18.37773,134.2162,38.73962,-4.70125,-4.72767,-0.74002,1.39172,16.99318,-4.07171,3.93695,76.70293,-13.50329,-17.22872,-42.56389,17.85055,74.94282,-12.60627,5.58218,11.338,21.75688,-18.42632,31.9974,2.42139,-0.80345,-1.20193,8.80394,-5.77183,11.54471,0.60212,0.07945,-0.11011,0.49075,-0.52617,2.12536
2578,-43.59635,3.99892,7.26391,92.75868,46.2308,-3.40284,-26.85376,0.87099,8.92788,108.14143,47.81263,-6.12407,-4.21416,-0.16333,0.98058,11.96939,-5.83424,4.4011,62.56253,8.90207,-28.56375,-31.70955,18.66617,84.68796,-18.72228,9.9596,15.44211,20.32023,-20.44073,30.82677,0.05366,-0.05254,0.36778,8.63769,-6.52161,11.25616,0.14307,-0.05879,0.05058,0.49153,-0.6939,2.03031
2579,-38.63698,4.53938,6.83521,84.41904,46.23788,-3.40706,-15.1241,1.1329,26.92534,91.9976,52.33874,-7.15349,-3.12742,0.0775,0.86054,6.91074,-7.03215,4.83124,54.95402,23.23038,-7.95758,-22.50798,-3.53947,79.47321,-17.8851,13.41677,16.04785,14.76285,-21.5712,24.72962,0.50282,0.99051,1.91007,6.76554,-7.06668,9.04655,0.29103,0.01769,0.32609,0.31254,-0.87975,1.49888
2580,-32.74266,4.22891,6.43539,79.9035,43.68483,-1.87175,-8.89075,1.18421,27.04984,92.08669,46.68847,-6.47657,-1.75804,-0.00206,1.11714,1.87461,-7.57143,5.09845,67.44536,15.07407,-7.24331,-15.83817,-27.67604,61.75661,-11.5259,13.93541,12.6439,8.63325,-22.03674,17.80424,2.50368,1.73586,2.44654,4.76851,-7.38739,6.65899,0.74994,0.24828,0.50628,0.15275,-1.05591,1.04657
2581,-25.65339,1.141,-3.3709,76.19788,39.2832,0.42492,-4.02473,4.77306,-26.94161,99.49109,38.75468,-3.97695,-0.53369,0.24894,0.70979,-3.26605,-7.38132,5.1831,97.34457,-5.21191,-63.42317,-14.36541,-36.99862,40.63589,-4.99388,12.27635,7.50304,6.60544,-21.40037,14.79075,3.37804,2.06731,2.03313,4.2818,-7.36029,5.96575,0.83112,0.49775,0.55944,0.15545,-1.20057,1.05331
2582,-15.87651,-4.00736,-15.18049,70.2364,35.16827,2.1877,11.39711,7.59079,-92.71644,97.51355,37.76083,-0.87921,0.37872,0.77528,-0.40711,-8.52372,-6.53312,5.22418,130.7946,-19.34562,-126.17172,-17.93976,-35.78089,27.91393,-3.40645,9.93509,4.13584,8.75033,-20.98011,16.17359,2.28907,1.51878,0.77385,5.12181,-7.14147,6.76592,0.41037,0.49487,0.35196,0.26175,-1.18152,1.30272
2583,-4.00133,-5.21429,-13.82143,61.50831,32.78447,2.92164,39.05658,5.00232,-94.12326,73.07212,39.61392,1.89034,0.82647,0.94278,-0.90614,-13.63393,-5.28086,5.34875,144.05338,-24.11373,-109.12141,-25.31401,-33.27459,29.91169,-7.84174,7.90365,4.72372,11.06071,-23.28717,18.54922,0.11118,0.29604,-0.58743,5.84212,-7.49244,7.45808,-0.05706,0.20112,-0.04181,0.29409,-1.05685,1.38883
2584,4.57593,0.06992,-1.74796,53.14087,31.7373,3.29359,53.05415,0.18747,-29.79819,32.57364,35.35172,4.19043,0.84334,0.61107,-0.30296,-18.39611,-3.89648,5.50326,110.80797,-23.35808,-13.96188,-33.05212,-31.80363,37.20218,-14.54691,6.54107,7.86968,9.58161,-28.2522,17.48349,-2.57714,-0.46562,-0.71699,5.31092,-8.83053,6.65257,-0.37039,-0.09858,-0.22684,0.1749,-1.10392,1.16736
2585,3.19845,3.68855,3.71361,49.17574,29.99284,4.37256,33.74405,-2.88681,24.06174,1.62787,22.75462,6.06753,0.74962,0.2466,0.05865,-23.06988,-2.5898,5.425,40.59238,-24.79968,59.8953,-36.63077,-24.20038,32.68656,-17.31243,5.90633,9.44833,4.70393,-30.91088,11.72205,-4.63196,-0.25275,0.39463,3.77452,-9.6766,4.30734,-0.55812,-0.20376,-0.08531,0.02713,-1.28017,0.73396
2586,-7.26663,-0.72001,-1.51103,49.89014,26.59945,6.27647,2.83447,-5.19817,24.03157,-0.04829,7.694,7.2367,0.79988,0.06082,-0.66443,-28.10338,-1.4409,4.94772,-12.78857,-35.78035,49.67076,-35.20541,-3.52279,15.13342,-15.19908,4.9852,8.1123,0.22982,-28.06667,4.63763,-5.24494,0.22197,1.29912,2.40056,-8.72087,1.82379,-0.64441,-0.15896,0.11136,0.00535,-1.27607,0.32545
2587,-17.07545,-6.3529,-5.74178,50.58334,24.31509,7.50366,-7.91056,-6.26802,-1.02534,18.19713,1.35786,7.10205,1.04801,-0.06257,-1.37097,-33.67955,-0.33245,4.24823,-16.10668,-45.9406,-4.44336,-26.36926,18.67986,0.76491,-13.47409,2.5357,6.54528,-1.50145,-23.47559,-0.01296,-5.27805,0.11744,0.99919,1.93686,-7.04825,0.58804,-0.73727,-0.10194,0.1545,0.10363,-1.06003,0.20313
2588,-19.18931,-7.04974,-4.4873,47.52147,25.01278,7.07738,2.38877,-5.60789,-20.04163,33.72989,7.23673,5.55483,1.44873,-0.15156,-1.20302,-39.42071,0.76221,3.50977,10.31757,-44.81771,-46.24183,-9.88318,23.14571,2.37387,-14.35336,-0.46574,6.28957,-0.11736,-23.58336,-0.43195,-5.49337,-0.43751,0.01809,2.41081,-7.01769,0.81259,-0.91157,-0.06691,0.11981,0.1887,-1.03415,0.3954
2589,-16.60754,-7.03476,-2.77677,43.17333,25.85179,6.18694,11.86583,-7.20689,-34.40944,41.41003,16.67791,4.01522,1.75496,-0.31239,-0.7071,-44.49536,1.7205,2.69171,34.97545,-40.60576,-67.36785,-2.31058,10.76541,14.57084,-13.85754,-1.93223,5.57971,3.79158,-28.97104,2.6894,-5.44775,-0.72146,-0.49957,3.28823,-9.08216,1.32074,-1.09653,-0.01654,0.16902,0.18515,-1.4444,0.49843
2590,-15.38204,-8.90754,-2.0656,41.91249,24.47339,6.22462,8.55779,-12.16824,-47.51939,49.16472,22.70649,4.45845,1.71393,-0.48369,-0.29771,-48.64015,2.63724,1.83128,48.45189,-39.75662,-75.99076,-16.30912,-3.68386,21.28999,-9.55057,-1.0521,3.57328,6.72481,-31.29198,4.83517,-4.47083,-0.35054,-0.01888,3.35525,-10.21807,0.52523,-1.08912,0.05132,0.32401,0.12057,-1.77285,0.0826
2591,-14.70205,-7.71795,-0.34574,43.67107,21.82897,7.16467,4.91901,-15.21028,-48.83604,58.03864,24.22561,6.99593,1.57675,-0.29024,0.18853,-52.5219,3.71171,1.09438,62.21257,-38.88168,-66.39977,-32.88499,-15.81675,16.40348,-5.30677,0.76069,2.14347,5.77335,-25.67197,2.92417,-3.10893,0.19178,0.78744,2.46282,-8.6013,-1.02395,-0.82207,0.07934,0.41877,0.07753,-1.56402,-0.49899
2592,-9.09701,-0.36965,1.49687,44.34956,20.27446,8.01105,18.14059,-11.82596,-29.08173,61.60326,25.19999,10.05457,1.86225,0.29416,0.61113,-56.52722,5.04852,0.62585,89.31924,-30.55984,-30.469,-26.00224,-24.48599,5.02452,-4.57808,1.02101,1.92822,2.66448,-18.2339,-1.28922,-2.49321,0.08498,0.73628,1.96997,-6.31601,-1.44021,-0.50987,0.00891,0.28232,0.14007,-1.15133,-0.59398
2593,1.08835,9.2842,1.14361,41.09925,21.68421,7.97839,44.54769,-3.14814,5.39299,55.19117,32.13161,12.18027,2.58327,0.75622,0.6157,-60.17188,6.72351,0.54288,119.70869,-10.59752,20.89851,3.28176,-20.2641,-7.18754,-5.61773,-0.70423,1.79601,0.03021,-15.1757,-5.72271,-2.52972,-0.56782,-0.1679,2.26826,-5.28178,-0.68266,-0.30269,-0.09878,0.01284,0.25241,-0.94153,-0.23422
2594,7.89014,14.28652,-1.05722,35.23551,24.00184,7.58638,63.43003,3.93822,31.97709,40.49135,39.1745,12.21444,3.14453,0.64731,0.21413,-63.09047,8.6106,0.75117,125.03745,2.44737,53.98468,32.29345,-1.27817,-13.99705,-6.53209,-2.64147,1.98527,-1.52558,-15.50824,-10.10385,-2.41261,-0.99409,-0.89187,2.36493,-5.10392,-0.68478,-0.15338,-0.12635,-0.15366,0.30825,-0.9194,-0.00709
2595,6.59823,11.85598,-2.33532,30.69157,24.31272,7.83246,60.87688,2.56275,30.13143,28.90627,36.59039,10.22988,3.19666,0.10367,-0.1682,-65.84881,10.4823,1.05202,98.9817,-11.70689,41.09359,41.88388,20.12955,-10.77117,-7.65646,-3.56277,3.20909,-1.75911,-15.88611,-13.4339,-2.00293,-1.03584,-0.96914,1.85596,-4.77731,-2.48363,-0.05249,-0.09249,-0.14504,0.3191,-0.8474,-0.26803
2596,0.48929,5.90215,-1.34262,30.75588,23.80985,8.98016,37.58124,-5.94196,2.16045,36.66216,28.48392,8.62069,2.88451,-0.29986,-0.22223,-69.35191,12.29982,1.45127,68.83116,-39.52265,-9.90788,33.4594,30.51265,-2.82965,-8.31604,-3.63174,4.18961,-0.23581,-16.07681,-14.03087,-1.64778,-1.1044,-0.81096,1.6237,-4.34117,-4.55879,-0.06575,-0.089,-0.06401,0.36087,-0.65297,-0.75161
2597,-5.13795,2.70008,0.12054,34.3318,25.31884,10.67673,9.35374,-12.09927,-24.29485,62.3039,24.0182,9.46884,2.36056,-0.20979,-0.11964,-73.71325,14.1355,2.12208,63.1935,-51.78139,-54.53616,19.60727,28.86807,0.38411,-7.34654,-2.78427,3.5116,2.25222,-16.5247,-11.91042,-1.53667,-1.12184,-0.72697,2.15021,-4.07227,-4.90653,-0.14756,-0.07424,-0.00839,0.4371,-0.45457,-0.99397
2598,-5.93798,5.10681,-1.03446,36.27197,30.32459,12.25274,1.46957,-7.0746,-20.46999,79.47243,26.24535,11.82467,1.93659,0.1113,-0.19262,-78.31744,16.02361,3.1984,83.52222,-38.47332,-47.93961,3.87244,26.10604,-1.18501,-6.38314,-0.98983,2.32021,3.70186,-15.61714,-9.46108,-1.84106,-0.76721,-0.60427,2.62065,-3.68674,-3.86377,-0.19378,0.01324,0.01025,0.48524,-0.36224,-0.90063
2599,0.24948,9.85237,-5.54915,33.50705,37.39234,13.28161,21.57299,7.7451,11.34822,68.42916,30.08484,13.07799,2.13187,0.13181,-0.41652,-82.83659,17.83651,4.48038,106.33936,-17.65048,4.77,-12.45278,28.40714,-2.17986,-7.36108,0.76074,2.41523,2.59829,-11.87543,-9.98578,-2.35858,-0.37135,-0.36853,2.32669,-2.97231,-3.27458,-0.24928,0.0475,0.01704,0.49506,-0.4025,-0.69325
2600,10.00275,10.47378,-9.56313,27.3171,43.58935,13.88512,48.41051,18.37116,38.29634,40.09546,30.42993,12.64059,3.0024,-0.34255,-0.4561,-87.39407,19.34307,5.55872,109.29606,-13.93369,50.00348,-16.4328,31.40546,-3.15196,-8.23804,1.41534,3.19628,-0.58072,-6.30473,-14.56116,-2.06152,-0.53168,-0.20759,1.55263,-2.04437,-3.83938,-0.38507,-0.10263,0.01873,0.50122,-0.48034,-0.57379
2601,16.37484,6.54661,-9.50374,20.79213,49.37661,14.23811,57.26454,15.19477,36.44642,19.99381,34.23966,12.97741,3.94249,-0.76691,-0.147,-92.06878,20.4892,6.35879,91.40913,-23.47936,48.33018,-1.92156,34.60984,-6.19894,-5.95148,0.47501,2.98678,-2.93736,-2.19352,-19.34061,-0.24503,-1.29352,-0.37486,1.02852,-1.15046,-4.67438,-0.40001,-0.29478,-0.00616,0.52587,-0.42975,-0.61815
2602,16.7868,5.08432,-8.72322,15.9836,56.93377,14.37443,46.94367,8.67024,16.66351,16.68406,48.51065,15.1716,4.36101,-0.32129,0.21742,-96.97597,21.413,7.09302,67.50611,-20.79646,15.61314,12.3489,44.18575,-7.82372,-1.01177,-1.53518,1.54994,-1.89228,-1.74635,-18.12979,2.53825,-2.17627,-0.91499,1.07401,-0.55976,-4.59096,0.02005,-0.31279,-0.10935,0.53966,-0.20193,-0.73056
2603,13.4621,8.51627,-11.22061,11.30281,65.53513,14.22884,37.50577,11.01216,3.76654,11.85766,65.46358,16.46659,4.09882,0.76286,0.28004,-102.17366,22.29477,7.8784,48.2126,-3.22708,-6.50437,8.26499,54.90459,-5.18634,2.63537,-2.74111,0.17232,1.38272,-3.84497,-10.58911,4.35068,-2.42397,-1.34849,1.35291,-0.49074,-3.45269,0.61818,-0.13983,-0.21481,0.45257,0.03791,-0.6993
2604,8.1302,11.90465,-14.09885,4.82336,72.86206,13.8046,41.13363,18.96729,6.6386,-11.5983,73.29202,14.37308,3.29135,1.38352,0.14154,-107.17073,23.27875,8.65944,29.8903,6.18915,-2.09282,-4.97221,50.47528,-1.90148,1.7079,-2.37848,0.03967,3.27424,-5.41127,-3.27141,3.60323,-1.98179,-1.30721,1.23701,-0.72503,-1.91782,0.76223,0.04637,-0.21055,0.21711,0.09474,-0.43332
2605,3.58927,11.88718,-14.02017,-1.89673,78.17706,13.32245,47.64947,24.40092,13.91971,-45.81403,72.05763,10.22756,2.48596,1.2066,0.06178,-111.28342,24.34736,9.30451,3.87001,-2.65131,8.46276,-8.78535,28.65407,-4.38699,-1.99127,-1.21149,0.87654,2.1692,-4.52551,-1.188,1.50206,-1.40664,-0.90101,0.54067,-0.75599,-0.56856,0.41342,0.11518,-0.10651,-0.01148,-0.02937,-0.13447
2606,4.46515,10.69821,-14.29163,-5.79343,81.74419,13.12613,48.29743,26.71213,13.10558,-69.31945,70.5053,7.67981,2.39867,1.01252,0.00821,-114.41236,25.22259,9.6945,-19.38953,-14.00667,5.96431,0.27068,11.13491,-13.59567,-3.89853,0.61695,1.44923,-0.52067,-1.18401,-3.44065,0.51785,-0.84956,-0.34592,-0.27453,-0.27664,0.08364,0.06141,0.12527,0.03136,-0.02345,-0.14298,-0.04073
2607,9.92478,11.51725,-18.87674,-7.21407,84.1804,13.14009,51.45186,28.50428,5.38883,-76.50002,75.4329,8.52814,2.96538,1.36962,-0.19649,-117.01508,25.56553,9.85272,-23.35711,-10.88511,-1.00954,18.19815,17.57627,-20.14842,-3.6871,2.34007,1.46374,-2.59987,2.91201,-7.09702,1.03438,-0.69605,-0.04467,-0.64543,0.52774,-0.2282,-0.02151,0.05712,0.08673,0.13483,-0.11716,-0.10097
2608,13.80032,12.18019,-22.72161,-11.81221,86.87499,12.53084,62.93325,22.80305,-1.16779,-87.39403,87.16013,10.78361,3.46962,1.61355,-0.43513,-119.34223,25.26742,9.95034,-25.17829,-3.46427,2.93619,37.95857,41.31098,-14.00414,-4.41714,2.12197,1.73229,-3.37888,5.91233,-10.07041,1.63318,-1.29925,-0.26478,-0.79463,1.49855,-1.08813,0.12441,-0.15018,-0.00975,0.18328,0.09431,-0.13532
2609,14.45848,8.60335,-18.88594,-22.30044,90.48835,10.92155,74.01501,3.0129,-2.56125,-115.44171,100.45204,11.93069,3.66359,0.89161,-0.43433,-121.00554,24.513,10.08457,-49.91825,-11.27977,16.37046,40.73931,61.5284,-0.78109,-4.82224,0.36283,1.87999,-3.71223,7.31254,-9.98446,1.92042,-1.77225,-0.64957,-1.38837,2.46129,-1.47545,0.43235,-0.28408,-0.16228,-0.00243,0.40747,-0.08374
2610,14.44435,2.4846,-10.8142,-32.4982,93.17623,9.33111,74.48877,-17.46213,-0.82052,-143.96059,108.46705,12.17831,3.68196,-0.44058,-0.23172,-121.59417,23.69502,10.11974,-85.02096,-25.15361,26.79461,17.4009,69.66501,1.77815,-0.42424,-0.08081,0.40063,-4.13397,7.48885,-6.92532,2.94868,-1.11333,-0.70468,-2.18892,2.88748,-1.09612,0.79377,-0.11737,-0.24143,-0.18537,0.58299,-0.04198
2611,13.53592,-1.21956,-5.97434,-34.96028,92.53786,8.89509,65.50475,-20.05001,0.51137,-147.19803,107.96462,12.74397,3.49245,-1.50665,0.0114,-121.03742,23.13174,9.8387,-95.89742,-23.55249,25.76724,-7.81754,70.96426,-11.12742,7.47021,1.99495,-2.30968,-4.06756,6.98645,-4.68318,4.94279,0.15365,-0.42068,-2.24457,2.51908,-0.75911,0.99402,0.19391,-0.21344,-0.11274,0.50288,-0.09967
2612,10.60465,-0.82331,-5.71962,-30.3866,88.61082,9.31449,59.42231,-6.37053,0.91581,-122.38648,100.56323,12.98822,3.21573,-1.92244,0.27849,-119.05936,22.70814,9.18064,-68.07269,-11.30299,16.44273,-7.48734,69.27977,-24.40641,11.70119,4.43092,-3.91161,-3.28059,6.42255,-5.21188,6.04223,0.78093,-0.07192,-1.40769,1.73835,-0.96211,0.81414,0.31779,-0.10387,0.14181,0.27239,-0.21189
2613,7.68975,1.45893,-6.84118,-25.88441,83.60728,9.34912,66.54087,6.76756,2.37238,-94.36797,90.56942,11.54774,3.10052,-1.71072,0.57211,-115.3954,22.10816,8.29906,-24.31697,-8.24057,11.10562,11.28146,64.38773,-25.41715,8.90901,5.00642,-3.3816,-3.04055,6.55511,-6.06993,4.78099,0.35535,0.14835,-0.833,1.15091,-1.12231,0.30392,0.13858,0.01905,0.28232,0.07782,-0.25986
2614,7.20324,3.00804,-6.96632,-26.21112,79.47126,8.33945,84.59439,7.22868,5.98385,-88.7664,82.40141,8.53085,3.01905,-1.07111,0.82173,-110.56305,21.31606,7.41213,0.92509,-20.03168,18.13954,23.73864,56.97344,-17.46508,3.22155,4.46303,-1.98432,-4.37506,7.35775,-5.08082,2.68137,-0.32616,0.17793,-1.60072,1.01174,-0.50159,-0.08206,-0.12543,0.06638,0.08292,0.03384,-0.13997
2615,8.72603,4.2331,-7.26817,-29.8326,76.58455,6.60314,102.8774,0.22,9.18862,-106.70228,78.54146,5.23494,2.7458,-0.19577,0.89825,-105.2709,20.52072,6.61059,-2.8826,-31.82648,31.47215,20.3483,49.1657,-10.52534,0.05912,4.21291,-1.1504,-6.4687,8.39636,-4.04737,1.97723,-0.42748,0.06155,-3.31176,1.32353,0.43431,0.00135,-0.1787,0.01431,-0.38698,0.13335,0.12411
2616,10.7792,6.99473,-9.50171,-32.5992,73.91899,4.81587,111.21544,0.36744,7.85023,-131.08224,78.622,3.34396,2.35092,0.76733,0.7813,-99.64396,19.7495,5.78225,-24.43818,-24.04269,39.14941,8.81973,45.33063,-10.8295,0.99745,4.34234,-1.21686,-7.7983,9.82879,-5.56276,2.68582,0.07478,-0.03763,-4.55472,2.0093,0.55418,0.33888,0.00019,-0.06187,-0.7853,0.28187,0.35509
2617,12.40343,11.0258,-12.65045,-32.95901,69.98383,3.44421,108.14446,9.94893,1.77298,-149.29733,79.02987,3.95177,2.06885,1.54062,0.6518,-93.74107,18.9249,4.7642,-50.35396,-0.79667,39.24588,0.68069,49.49045,-17.13546,4.4184,4.17353,-1.702,-7.08562,10.50493,-8.43604,3.69214,0.58621,0.00152,-4.15785,2.46431,-0.23055,0.5681,0.16353,-0.08484,-0.77229,0.33708,0.37209
2618,12.88057,14.0529,-14.49376,-32.41771,65.14347,2.50603,103.4213,16.6186,-4.73962,-159.24454,78.16583,6.61004,2.00628,1.6166,0.63921,-88.11954,18.15361,3.63647,-66.9864,14.87992,39.86224,-3.30876,58.92511,-21.71421,7.92112,3.25487,-1.8978,-4.79373,8.95945,-8.59869,4.57966,0.6554,0.14146,-2.54455,2.19059,-0.95519,0.65741,0.18056,-0.05563,-0.34407,0.27643,0.16163
2619,11.05073,12.83998,-12.84644,-32.05969,61.13557,1.75497,101.14867,7.03451,-6.63524,-158.9854,78.37404,9.27264,1.89122,0.62936,0.54921,-83.32133,17.63047,2.65072,-67.95369,7.97541,44.2641,-10.36468,63.46487,-19.03139,9.18356,2.37571,-1.61587,-3.37029,6.68149,-4.7321,5.06542,0.55107,0.24534,-1.46566,1.62868,-1.11149,0.69934,0.19249,-0.02873,0.14468,0.24015,-0.11268
2620,5.45014,5.41019,-6.58338,-31.34392,57.64061,1.09933,90.02695,-20.50517,-1.12693,-144.36635,78.04182,9.49087,1.34239,-1.13133,0.19321,-79.26901,17.33778,1.85467,-62.5942,-21.33036,46.42678,-15.23072,59.72561,-13.68083,6.76471,3.17002,-1.39241,-3.30423,5.62783,-1.20361,4.43345,0.84975,0.2042,-1.36641,1.34166,-1.17571,0.60516,0.30097,-0.04348,0.37529,0.28256,-0.29439
2621,0.4024,-2.88541,1.30946,-29.6342,52.91054,0.65277,68.146,-46.41291,8.23467,-117.32537,71.75989,6.72449,-0.69272,-0.19501,0.37483,-75.73496,17.129,1.07536,-55.63893,-52.57552,40.36436,-7.64846,60.50187,-14.38876,3.01325,5.31266,-1.71516,-3.11732,5.71429,-2.26627,3.05195,1.34845,0.05334,-1.38521,1.36642,-1.55035,0.364,0.34,-0.08333,0.28167,0.32323,-0.33436
2622,-5.98198,-10.41148,8.13157,-28.00901,47.26217,0.34,36.472,-60.05101,17.15226,-91.64188,59.05751,2.5916,-2.67203,0.68157,0.33209,-72.89732,16.98631,0.21971,-60.83376,-76.82373,30.10871,5.94524,71.31519,-21.17884,2.27772,6.22605,-2.22395,-3.14642,6.55341,-5.8968,2.44494,1.2767,-0.03392,-1.61455,1.57712,-1.99255,0.22787,0.17944,-0.09827,-0.04449,0.33441,-0.26438
2623,-5.3455,-9.75874,8.90403,-28.6825,42.80993,-0.14454,20.17705,-47.89978,17.28325,-84.50542,45.97303,-0.90424,-4.34203,3.45999,0.57712,-70.96754,16.99483,-0.64359,-70.33885,-71.15712,18.41397,13.64062,72.42997,-25.39132,4.02501,5.20029,-2.19713,-4.3567,8.02566,-7.73223,2.74278,0.8074,0.03948,-2.51419,2.02422,-2.31884,0.26807,0.03167,-0.07047,-0.3837,0.4228,-0.18591
2624,2.71402,-4.07868,5.01959,-31.25741,39.53477,-0.82035,26.2303,-26.31446,10.62364,-96.49387,37.0539,-2.66967,-5.88225,7.35399,0.7588,-69.77679,17.1341,-1.51043,-77.68841,-48.79736,10.66249,13.04002,51.01871,-22.89664,4.5098,4.05506,-1.60581,-5.59062,8.94722,-7.0711,2.84778,0.7509,0.1404,-3.38694,2.51084,-2.45954,0.28621,0.10686,-0.04106,-0.50831,0.59875,-0.16332
2625,12.14737,0.50921,0.90637,-33.29161,35.24355,-1.42011,41.46831,-16.47597,4.7196,-110.7679,31.35955,-3.04647,-7.88733,11.4083,0.51853,-68.99609,17.29942,-2.45081,-78.38789,-35.60184,9.80648,7.29801,31.0416,-18.83237,3.63039,3.07582,-0.89334,-4.8874,7.82117,-6.03993,2.69444,0.84545,0.10001,-2.97963,2.47909,-2.17408,0.22719,0.23019,-0.05366,-0.31135,0.65542,-0.16604
2626,16.85537,1.86902,-0.75415,-34.94069,29.58183,-1.91182,49.55088,-20.65491,3.51906,-116.14407,25.9353,-3.58061,-10.65048,15.34974,-0.17345,-68.51662,17.43973,-3.38666,-76.97378,-38.81403,13.02384,3.46849,39.51242,-18.11237,4.15978,1.78472,-0.60988,-2.17215,4.90982,-6.25221,3.11562,0.43524,-0.02696,-1.15602,1.99664,-1.73861,0.25093,0.15284,-0.09417,0.08308,0.54687,-0.19178
2627,15.31442,1.90527,-0.2789,-37.87985,24.80207,-2.42393,43.66847,-26.09528,5.29953,-116.34407,19.05029,-5.48353,-14.01439,19.4368,-1.07915,-68.47896,17.51948,-4.12676,-84.20329,-49.09238,13.10694,5.54527,62.71782,-19.08615,6.709,2.67235,-1.50248,-0.21614,2.50076,-6.87648,4.18244,0.36362,-0.06224,0.11131,1.70195,-1.75002,0.44803,0.02267,-0.12802,0.23917,0.47575,-0.26104
2628,10.03692,1.98618,1.20526,-40.98351,23.29059,-2.86437,26.40843,-24.87079,7.30695,-116.17358,14.09886,-7.3446,-17.64762,23.88481,-1.95159,-68.85392,17.50073,-4.54227,-102.84016,-53.98437,6.57869,9.25943,64.96192,-18.96737,9.42348,6.89647,-3.24285,-0.62553,1.73224,-6.54222,5.15934,1.56576,0.05356,-0.43552,1.68476,-2.05524,0.73795,0.13444,-0.14125,-0.03636,0.4984,-0.30806
2629,5.09734,1.03343,3.07818,-42.18126,24.94036,-3.1135,7.58497,-21.61974,8.58146,-115.58419,17.0726,-6.60671,-21.25528,28.58995,-2.71036,-69.3176,17.3827,-4.66561,-122.58448,-45.51249,-1.22532,12.80001,39.18218,-18.73094,10.43272,9.8203,-3.94097,-1.00593,1.11906,-6.3532,5.44541,2.78398,0.23761,-0.93391,1.79372,-2.25973,0.94725,0.38765,-0.11872,-0.26926,0.53303,-0.30916
2630,3.78721,-1.54435,4.50027,-42.39587,27.426,-3.30712,-0.61923,-23.46461,9.18445,-117.78697,27.47713,-3.97689,-24.77892,33.37646,-3.49241,-69.8069,17.2225,-4.61782,-134.40202,-28.66111,-3.6085,15.40183,11.78818,-18.64192,9.37292,7.55883,-2.77037,0.27422,-0.39933,-6.87916,4.87398,2.29295,0.36407,0.01564,1.94213,-2.24372,0.88697,0.43189,-0.05295,-0.08288,0.51988,-0.29481
2631,5.88923,-3.64899,4.55928,-42.93027,29.30701,-3.50948,3.88849,-29.16393,9.59615,-125.91482,38.30886,-2.62566,-28.42952,38.24276,-4.47945,-70.52891,17.12723,-4.43571,-140.90729,-15.89058,-1.03761,10.79223,2.14764,-16.51537,8.51768,2.56886,-1.18438,2.05079,-2.25525,-6.23438,4.10346,0.51849,0.36322,1.40913,1.90121,-1.8874,0.5929,0.20534,0.00961,0.26608,0.42036,-0.22611
2632,8.00649,-3.12003,3.42398,-43.28659,30.69579,-3.55025,12.21792,-31.32962,9.94511,-134.77785,44.65474,-3.1272,-32.35677,43.16087,-5.64102,-71.36605,17.12789,-4.14064,-144.04674,-8.41659,2.09602,0.4069,4.71679,-11.32485,10.23043,-0.49249,-0.61173,2.78054,-3.32673,-3.63627,4.20692,-0.67263,0.29903,1.85635,1.49263,-1.21766,0.38172,-0.01108,0.01602,0.32403,0.2648,-0.10157
2633,7.79662,-0.5765,1.94164,-43.3404,31.78462,-3.40275,18.09651,-26.74605,8.8712,-137.41756,47.80735,-2.84642,-36.48134,47.89091,-6.80076,-71.9687,17.07742,-3.89583,-137.49104,2.95538,3.82376,-0.6412,10.67837,-4.58326,12.55282,0.14008,-0.85291,1.90453,-2.88382,-1.18651,4.9297,-0.15742,0.3012,1.03567,0.84548,-0.72785,0.41987,0.03835,-0.01656,0.00962,0.15095,-0.05486
2634,6.12563,1.25765,0.69703,-43.76404,32.70322,-3.25771,22.02716,-21.82171,5.44845,-134.85072,50.35815,-0.43838,-40.66319,52.13142,-7.87874,-72.2429,16.80927,-3.87201,-121.47227,16.07507,4.00082,14.22125,21.40593,-0.97425,11.56059,2.96316,-1.07007,-0.0139,-1.71798,-1.26077,4.82179,1.4683,0.37472,-0.49632,0.4561,-1.00817,0.49282,0.31935,-0.03762,-0.44047,0.15945,-0.1533
2635,5.48132,0.20691,-0.02094,-45.20823,33.67187,-3.28204,25.99106,-23.7598,1.56459,-135.07259,51.81805,1.90361,-44.71199,55.79956,-8.87363,-72.44309,16.34929,-4.0414,-110.25679,19.07425,1.98686,29.01064,33.86599,-5.87378,7.28642,5.95416,-1.2403,-1.06513,-2.00543,-4.00174,3.57967,2.71036,0.37007,-1.14255,0.70902,-1.87246,0.37807,0.56251,-0.04434,-0.64532,0.25827,-0.29025
2636,6.22394,-2.85133,-0.10369,-47.87168,34.18695,-3.55792,28.25008,-28.36819,0.37152,-144.5786,50.61266,0.9432,-48.41977,59.13416,-9.81393,-72.90275,15.8518,-4.2663,-119.78701,13.72994,-2.52023,22.94241,32.57848,-13.17523,2.83422,8.224,-1.75997,0.23052,-4.60658,-5.48625,2.45987,2.68108,0.21289,0.15097,0.95931,-2.01843,0.19398,0.5306,-0.06744,-0.36,0.22671,-0.28341
2637,5.94895,-5.78957,0.48064,-51.21125,33.68559,-4.06964,26.10066,-29.40668,2.99661,-161.38573,47.94092,-3.58848,-51.67068,62.32249,-10.78936,-73.6201,15.45389,-4.45115,-147.90591,11.08759,-6.40496,-2.09169,12.20341,-7.87353,-0.33257,8.88958,-2.19369,2.2738,-6.82406,-0.99077,2.21786,1.61634,0.04484,1.25923,0.24641,-0.5319,0.16688,0.24287,-0.0969,0.02542,-0.04487,-0.04072
2638,3.47214,-7.74496,1.29656,-53.53312,32.7229,-4.57611,21.37702,-28.16998,6.43865,-174.75714,46.88757,-7.99841,-54.33746,65.2067,-11.81403,-74.13628,15.20252,-4.5721,-171.22247,14.87444,-7.0814,-19.58567,-11.25832,5.9149,-2.3722,6.96135,-1.81936,3.18949,-6.53561,5.69795,2.06941,0.25599,0.04367,0.80963,-0.705,1.22721,0.21148,-0.06784,-0.06824,0.13458,-0.2437,0.19151
2639,0.57076,-8.88086,1.60169,-53.86207,32.30444,-4.84173,16.42187,-27.17262,6.7994,-178.33841,49.48466,-8.33907,-56.23898,67.59258,-12.71889,-74.13093,14.99499,-4.68296,-177.0798,23.58983,-6.67135,-12.01818,-23.01309,6.5139,-2.07841,2.96763,-0.91504,3.31577,-5.59855,6.71497,1.47775,-0.81379,0.17884,0.80549,-0.74634,1.68687,0.15522,-0.20717,0.03021,0.18326,-0.14593,0.1463
2640,-0.90473,-10.04682,1.46907,-52.79837,32.86169,-4.89432,9.81567,-27.24513,4.48771,-177.24422,55.43288,-4.43634,-57.28167,69.53169,-13.33856,-73.73963,14.70338,-4.85456,-179.18776,34.33038,-6.95864,5.52515,-21.53945,-11.1446,2.34863,-0.94601,-0.46824,3.81419,-6.61705,2.13245,1.45463,-1.3589,0.22989,2.65324,-0.08147,1.01757,0.12513,-0.17432,0.08601,0.40044,0.08878,-0.09443
2641,-1.33848,-11.2958,1.42683,-51.06607,33.33946,-4.88079,0.25429,-26.00764,2.15358,-178.18095,59.7876,-0.3192,-57.51881,71.25692,-13.68331,-73.08575,14.33621,-5.1125,-191.38448,43.0094,-8.47346,7.7944,-8.25941,-30.33888,10.05559,-2.52342,-0.96623,4.82731,-9.64787,-2.73345,2.90811,-1.28673,0.05536,4.9571,0.62341,-0.40514,0.26474,-0.07309,-0.00313,0.62067,0.27999,-0.4043
2642,-2.11346,-12.74153,1.97251,-49.85052,32.68307,-4.97356,-10.48224,-23.41769,1.68156,-185.27701,58.81621,0.41556,-57.15864,72.96294,-13.91539,-72.07915,13.94965,-5.4279,-214.87164,44.54774,-10.15118,-3.97271,11.93806,-36.47478,16.29643,-1.43458,-1.79852,5.33576,-12.52573,-5.62245,4.96067,-0.66527,-0.27356,5.91235,1.10309,-2.4988,0.46663,0.0477,-0.19911,0.67355,0.40557,-0.77624
2643,-3.9277,-15.13956,3.44024,-50.36931,31.47369,-5.33673,-21.28866,-25.51625,4.30496,-199.58188,56.12157,-1.60049,-56.55336,74.6839,-14.18992,-70.67275,13.44506,-5.78008,-247.05997,36.30291,-8.51344,-6.96407,24.49189,-25.76809,14.7604,1.72907,-1.96735,4.87392,-12.72654,-5.52754,5.55314,0.37716,-0.4636,5.10798,1.17141,-3.8434,0.57229,0.21634,-0.34183,0.60089,0.42066,-0.97212
2644,-6.13965,-18.0813,5.35709,-51.55278,30.51284,-5.90195,-32.13303,-36.0269,9.12335,-213.85362,55.88348,-3.50938,-55.96981,76.23867,-14.46143,-68.89157,12.70599,-6.16501,-277.76126,20.57698,-2.93807,4.06143,14.43138,-1.92589,4.23274,6.19471,-1.12439,4.22819,-9.56684,-0.41144,3.49437,1.48256,-0.20181,3.02703,0.60244,-2.10407,0.47824,0.3563,-0.26946,0.37111,0.21722,-0.53764
2645,-6.82618,-20.37065,6.52543,-50.49443,29.75574,-6.3627,-39.30235,-50.16335,12.30552,-216.58482,56.96237,-3.68832,-55.43982,77.31752,-14.53577,-66.63815,11.84244,-6.53747,-287.32739,4.48749,1.89588,10.00797,-14.17502,21.01618,-7.51688,7.44151,0.20867,3.96156,-5.27802,7.5328,0.04009,1.17211,0.24621,0.85286,-0.3461,2.46248,0.16441,0.19354,-0.00721,-0.05358,-0.12646,0.44068
2646,-4.54761,-21.85126,6.26793,-46.81634,29.13776,-6.60582,-37.49553,-59.88065,11.18935,-206.73077,57.25441,-2.65694,-54.97701,77.76472,-14.34672,-63.78162,11.01902,-6.85027,-268.10291,-3.07444,2.00784,2.15565,-32.99951,23.29634,-9.2893,4.16879,0.84847,3.93717,-3.88068,10.57043,-1.36348,-0.23338,0.46371,0.87985,-1.01622,5.87242,-0.08499,-0.06838,0.20356,-0.25679,-0.3859,1.10757
2647,0.46759,-22.79658,4.87589,-44.02029,28.44098,-6.85356,-26.23821,-60.27571,7.46815,-196.84732,56.567,-2.17938,-54.66947,77.72762,-13.96862,-60.4382,10.20353,-7.11807,-237.46359,2.00982,-1.51486,-6.38327,-18.78805,1.24074,0.67553,1.27727,0.12507,3.62217,-7.71993,4.83787,1.06761,-0.70609,0.37742,3.75594,-1.10168,4.7857,0.09392,0.00813,0.14199,0.07137,-0.44972,0.90345
2648,5.55335,-23.18771,3.39115,-44.3805,27.18912,-7.26818,-14.74588,-51.72386,4.97325,-196.64819,55.52546,-3.02291,-54.5591,77.43885,-13.52565,-56.92669,9.27652,-7.37726,-222.01543,16.69937,-4.74497,-2.74968,13.78005,-22.72347,9.83472,0.67182,-1.22607,2.65842,-13.82528,-3.75018,4.13698,-0.52209,-0.15058,6.4695,-0.74684,0.46322,0.50972,0.20444,-0.1511,0.54049,-0.31439,0.19667
2649,7.12401,-23.20711,2.89917,-45.697,25.75305,-7.72342,-15.16739,-37.32181,5.12853,-200.9079,55.29729,-3.73543,-54.56836,77.02017,-13.16724,-53.4386,8.21818,-7.62946,-229.69164,38.59896,-5.62851,11.93453,25.19011,-23.58221,7.44534,0.90693,-1.86132,1.97703,-16.04063,-6.54617,4.12843,-0.85791,-0.96859,6.43689,-0.38224,-2.5182,0.66661,0.12977,-0.41706,0.77041,-0.1458,-0.31696
2650,4.82012,-23.01235,3.32473,-45.02592,25.46314,-7.99772,-27.63977,-20.42592,5.64953,-200.57024,57.02859,-2.80394,-54.55378,76.53996,-12.93456,-49.95301,7.10205,-7.81383,-245.47878,66.8765,-5.50722,25.79486,0.67005,-1.43194,-2.93088,1.42029,-1.16122,3.01923,-12.32913,-2.16988,1.51473,-1.39969,-1.38901,4.89889,-0.40047,-1.62883,0.41177,-0.11912,-0.43025,0.83545,-0.15495,-0.38639
2651,2.29284,-23.09262,3.67382,-42.38673,26.68755,-7.98813,-39.15725,-7.4721,4.20379,-195.63283,60.06413,-0.74377,-54.41607,76.06088,-12.70008,-46.4468,6.00777,-7.84928,-252.12558,91.48335,-5.67232,27.6302,-32.41441,21.83802,-9.67966,2.13457,0.19507,5.43336,-7.38435,3.71767,-0.27538,-1.36552,-1.00661,4.43268,-0.78882,1.36201,0.09928,-0.19139,-0.22201,0.81412,-0.32108,-0.16338
2652,2.31875,-24.50596,3.6496,-39.74932,27.82446,-7.74889,-41.54845,-3.58236,1.614,-189.52739,62.00029,1.27144,-54.18382,75.62732,-12.3649,-42.99994,5.01388,-7.74056,-246.12212,101.19534,-5.93082,18.23051,-45.62133,28.24355,-5.66215,1.08536,0.69207,7.44324,-6.6245,6.28176,1.03556,-1.40689,-0.39107,5.81858,-1.21658,3.52701,0.11813,-0.113,-0.04656,0.74249,-0.47222,0.22103
2653,3.68997,-27.52956,3.90332,-38.27153,27.52667,-7.43472,-40.81546,-6.06011,0.39958,-181.60309,61.52311,2.7742,-54.03963,75.27677,-12.02493,-39.72867,4.19445,-7.58068,-235.754,97.40658,-7.11667,8.04388,-42.20407,19.88817,5.23385,-2.58927,-0.43627,7.81953,-9.08654,5.6847,4.02655,-2.45324,-0.35249,7.30784,-1.30942,3.77448,0.32259,-0.17572,-0.08757,0.68189,-0.46354,0.55488
2654,4.41262,-31.05987,4.63788,-36.79966,26.47007,-7.15054,-41.96284,-11.18175,1.46651,-169.5715,59.55353,3.3823,-54.17274,75.02159,-11.83596,-36.67508,3.55796,-7.42608,-223.28293,85.52132,-9.38461,2.75902,-39.04532,12.43274,12.42167,-4.889,-1.91146,7.36814,-9.62852,5.62923,5.34722,-3.43106,-0.71597,7.00674,-0.89661,3.58589,0.30363,-0.30728,-0.20803,0.57638,-0.30733,0.73159
2655,4.68424,-33.67514,5.17276,-34.18692,25.5523,-6.89145,-40.1679,-18.91201,3.41888,-156.67744,56.93632,2.62818,-54.47625,74.84765,-11.78496,-33.79522,3.07672,-7.24392,-204.93077,68.38967,-9.58568,-0.27148,-38.24774,15.16651,9.46786,-1.89654,-1.74508,8.1198,-7.5991,7.84959,3.4189,-2.54458,-0.63501,5.70327,-0.33316,3.97714,0.014,-0.18742,-0.12777,0.44835,-0.1659,0.77112
2656,4.82777,-35.0962,5.29445,-31.93623,24.06089,-6.69544,-34.88657,-27.8016,4.76475,-150.66838,52.42958,0.20305,-54.55787,74.69738,-11.74302,-31.09206,2.74634,-7.02568,-190.63409,50.00181,-6.61858,-0.77764,-31.55328,20.7808,0.46519,3.37608,-0.03988,9.10419,-6.42868,9.07169,0.04213,-0.33298,-0.02106,4.77098,-0.20209,3.61279,-0.20507,0.11975,0.11381,0.36996,-0.1371,0.56238
2657,3.76898,-35.98359,5.57628,-31.40407,21.18901,-6.62107,-33.56667,-33.09247,5.06145,-150.61552,44.78378,-3.30312,-54.1757,74.45423,-11.66993,-28.61509,2.56613,-6.84197,-189.8499,35.9473,-4.72856,5.8345,-19.61251,18.00148,-5.99811,4.69859,1.20591,7.63161,-7.53267,6.15204,-1.91562,0.82473,0.32941,4.57633,-0.74388,1.73734,-0.14313,0.22764,0.22998,0.437,-0.24953,0.18213
2658,1.56241,-36.30088,5.93256,-31.18386,18.49425,-6.52663,-38.1005,-30.88604,4.00033,-146.47353,37.60886,-5.28722,-53.45961,74.06821,-11.60179,-26.37713,2.51819,-6.70675,-190.35431,33.29565,-6.75413,15.34747,-10.16635,6.00601,-5.82438,1.15575,0.91322,3.81242,-9.93808,0.53091,-1.48792,-0.01475,0.05024,4.88932,-1.67145,-0.73331,0.02019,0.05725,0.15981,0.64007,-0.44439,-0.15993
2659,-0.11824,-35.635,5.72553,-30.17285,18.44813,-6.21111,-43.89544,-23.42526,1.95297,-136.5955,37.59129,-3.19991,-52.66798,73.60189,-11.5755,-24.4233,2.53668,-6.51411,-182.86298,45.06541,-8.92496,15.68024,-8.21185,-6.63714,-1.15298,-3.26361,-0.26429,0.0706,-12.32803,-3.85704,0.22553,-1.70268,-0.49763,4.80106,-2.31927,-2.74127,0.07758,-0.14961,0.03361,0.68422,-0.52003,-0.44153
2660,-0.53846,-34.6515,5.14256,-29.46748,19.96365,-5.77809,-48.2033,-17.52943,0.91714,-128.34044,42.80158,0.75792,-51.89187,73.08281,-11.60489,-22.7802,2.49737,-6.20186,-175.01302,61.53537,-7.25523,6.7519,-14.07162,-9.59479,2.08877,-4.80903,-0.87723,-1.3569,-13.41112,-4.394,1.5572,-2.72083,-0.90142,4.02964,-2.24411,-3.3781,0.1003,-0.24996,-0.07907,0.45975,-0.39476,-0.60049
2661,-0.18617,-34.68092,4.90016,-29.48363,19.21926,-5.53456,-50.18203,-17.4252,2.20242,-122.47632,42.10349,1.09989,-51.03101,72.43038,-11.6299,-21.32489,2.33165,-5.86017,-168.00404,66.00185,-4.97599,2.61705,-22.79537,0.27616,-0.52237,-2.95222,-0.09783,0.43919,-12.50255,-1.36316,1.46642,-2.51658,-1.05781,3.86744,-1.66446,-2.0335,0.1689,-0.24115,-0.14534,0.32743,-0.25536,-0.40893
2662,0.39232,-35.78456,4.99691,-28.51714,15.51094,-5.50486,-49.22105,-21.94045,3.84208,-113.57765,31.63207,-3.22686,-49.9752,71.58733,-11.55748,-19.93817,2.13043,-5.60782,-153.60919,52.14672,-7.5781,6.79483,-27.53574,14.25018,-6.5753,-0.30195,1.04418,3.81766,-9.91251,2.3948,0.01708,-1.67993,-1.15179,4.96324,-1.05797,0.48241,0.12335,-0.14816,-0.13288,0.5138,-0.2435,0.0905
2663,0.47432,-36.64286,4.90827,-25.67616,12.15243,-5.37907,-46.83252,-27.18045,3.05933,-101.50392,21.15221,-6.93304,-48.77624,70.59149,-11.42412,-18.70442,2.05322,-5.43291,-133.84387,32.6703,-12.75606,5.92138,-25.63962,21.66145,-8.26188,1.14284,1.04356,5.87732,-6.7522,4.14822,-1.13828,-1.00971,-1.12894,6.07848,-0.63507,2.34281,-0.05368,-0.03457,-0.07164,0.78876,-0.29427,0.47914
2664,-0.31941,-36.49019,4.46481,-22.52981,11.09856,-5.04661,-45.10547,-28.38215,0.54967,-89.99809,19.25097,-5.98221,-47.61271,69.4495,-11.38054,-17.73797,2.11056,-5.25601,-117.58147,27.30163,-13.34468,-2.83248,-20.68476,21.10189,-1.62571,1.54149,-0.00645,6.019,-5.07589,3.96234,-0.11028,-0.81509,-0.6273,6.2868,-0.46073,2.63753,-0.04994,0.01787,-0.00874,0.88996,-0.30987,0.51815
2665,-1.40758,-35.42508,3.82497,-20.60038,11.02129,-4.71118,-44.16719,-22.22627,-0.74867,-79.67281,22.39264,-2.91351,-46.59108,68.11223,-11.45338,-16.924,2.18622,-5.03628,-106.49518,39.88779,-9.46377,-1.86031,-17.71188,15.95485,6.89237,0.74558,-0.99453,5.7934,-6.21741,3.44252,2.25872,-1.15264,0.00564,6.16855,-0.67744,1.88419,0.20135,-0.01644,0.0265,0.83413,-0.2905,0.38649
2666,-2.07065,-33.91979,3.19514,-19.51095,10.65987,-4.4422,-44.00193,-11.48856,-0.21442,-69.4604,23.00223,-1.97063,-45.65682,66.63396,-11.47834,-16.08255,2.25044,-4.75047,-97.67132,55.14554,-8.31913,16.25911,-17.76425,8.03134,8.07129,-1.44618,-1.2385,5.89784,-8.16427,3.19449,3.16993,-1.72792,-0.07385,6.15259,-1.13574,1.08623,0.33148,-0.05581,0.0207,0.74812,-0.28296,0.30741
2667,-2.50613,-32.91375,2.8927,-18.3024,10.07243,-4.09686,-46.38422,-3.54228,0.16218,-60.52262,19.70186,-2.96633,-44.73362,65.18465,-11.33714,-15.25569,2.35025,-4.40152,-91.97318,60.21479,-12.23453,33.5018,-22.22844,1.45129,1.48431,-2.43472,-0.45663,5.33994,-8.37743,2.56809,1.67998,-1.61411,-0.60768,5.67894,-1.45935,0.54072,0.13804,0.00099,0.01509,0.65374,-0.30928,0.22741
2668,-2.87861,-32.93123,2.93008,-16.52735,9.07256,-3.63054,-50.68678,-2.04214,-0.88613,-53.61657,15.03934,-3.21255,-43.82366,63.90197,-11.09194,-14.56034,2.45632,-4.0556,-89.10667,55.98701,-16.24576,34.14479,-33.93185,2.85399,-6.2254,0.94122,1.42557,2.76491,-7.38175,1.08839,-0.70587,-0.32733,-0.59378,4.15022,-1.42934,-0.08305,-0.14388,0.10704,0.04838,0.45123,-0.30156,0.02535
2669,-2.66692,-33.62593,2.93167,-14.43724,7.5998,-3.17601,-53.00015,-4.71044,-2.36762,-47.48228,10.7373,-2.33139,-42.99142,62.80148,-10.89037,-13.96347,2.49255,-3.76557,-84.34042,48.11746,-16.90746,23.73997,-47.47722,13.51103,-10.65502,7.27866,3.7111,-0.48679,-6.94358,-0.2095,-2.44725,1.17595,0.01331,2.42437,-1.13652,-0.63418,-0.26482,0.1392,0.10765,0.19142,-0.21756,-0.18402
2670,-1.97581,-34.35746,2.77153,-12.97492,6.43624,-2.9161,-52.30841,-7.91604,-2.57987,-42.73938,7.90985,-2.53856,-42.32533,61.78397,-10.82486,-13.36729,2.45584,-3.50387,-77.4674,40.58716,-16.27777,14.14808,-52.86649,24.25118,-10.76811,10.97884,4.77852,-1.35946,-7.45203,-0.26544,-2.782,1.56325,0.46102,2.18018,-1.05375,-0.73908,-0.21784,0.10259,0.18483,0.1196,-0.19689,-0.26252
2671,-1.4025,-34.61439,2.57061,-12.82494,5.42042,-3.02714,-50.38358,-9.83651,-1.13482,-41.00126,6.11726,-5.42164,-41.82155,60.74601,-10.83365,-12.73972,2.3591,-3.27572,-71.66128,35.23743,-17.15463,9.12229,-51.00085,23.40803,-5.69871,8.02592,3.17385,-0.09642,-7.95059,0.12194,-1.44794,0.62732,0.37243,3.37296,-1.46719,-0.55995,-0.0895,0.07642,0.23005,0.27411,-0.34073,-0.25071
2672,-1.19861,-33.93634,2.28774,-13.67288,3.5268,-3.42929,-47.65818,-9.73027,0.59473,-41.1633,3.43649,-9.28446,-41.33991,59.72334,-10.7698,-12.12667,2.2246,-3.13392,-66.42357,32.19487,-18.6812,8.07356,-47.38175,12.90798,1.9209,0.45204,-0.53994,1.86485,-7.70242,0.57729,0.49266,-0.82812,-0.29346,4.58404,-1.93879,-0.28058,-0.00918,0.03962,0.09643,0.46722,-0.4952,-0.1564
2673,-1.53187,-32.53679,1.91322,-15.41794,1.89858,-3.59835,-43.76838,-7.69964,0.94765,-44.03236,1.61423,-10.10788,-40.75183,58.82857,-10.60599,-11.65404,2.22021,-2.9898,-64.51232,32.75085,-16.78388,10.15907,-35.53163,6.34992,5.7991,-4.83884,-3.04549,5.2046,-7.45297,2.15831,1.53893,-1.7093,-0.98357,5.22084,-1.98485,0.10219,0.00846,-0.0275,-0.1318,0.60062,-0.47771,0.05199
2674,-2.40325,-31.51313,1.70121,-17.87053,2.06266,-3.27626,-40.82838,-4.55439,-0.08676,-50.73272,3.17195,-7.18668,-40.05077,58.12694,-10.44931,-11.38342,2.37873,-2.76506,-71.61887,37.5211,-11.45529,11.89991,-12.33508,7.10166,4.02256,-3.19167,-1.6363,7.28061,-7.8612,3.6906,1.59402,-1.31555,-0.55862,4.97239,-1.68088,0.22674,0.1041,-0.03691,-0.08942,0.60977,-0.32709,0.19608
2675,-3.35702,-31.36451,1.83443,-18.88497,2.88088,-2.83303,-42.39418,-1.27087,-1.14119,-53.12081,5.54579,-4.01973,-39.29523,57.61779,-10.34253,-11.18219,2.43684,-2.56266,-80.30323,43.30241,-8.90586,11.51319,4.58835,5.32987,0.36117,1.67029,1.49951,3.55136,-7.59224,2.67205,1.20214,-0.44648,0.47238,3.50061,-1.17368,-0.03769,0.24837,-0.01647,0.16013,0.44391,-0.18718,0.11696
2676,-3.97855,-31.87168,2.2928,-16.89761,2.85013,-2.53165,-48.3575,-0.89225,-1.29705,-43.84318,5.1668,-2.84838,-38.56786,57.19371,-10.22234,-10.90522,2.30975,-2.41326,-77.74632,43.9949,-11.84769,17.47014,-1.04618,0.01492,-2.27927,4.12141,2.80361,-2.52648,-5.48178,0.20951,0.54584,-0.16232,0.57862,1.97974,-0.55725,-0.0698,0.23911,-0.02456,0.22639,0.24578,-0.10868,0.00496
2677,-4.02937,-32.70914,2.84668,-14.31204,1.81857,-2.37531,-53.66175,-4.9319,-0.69004,-31.86376,1.75221,-3.46491,-37.96655,56.72028,-10.02538,-10.59185,2.18428,-2.24241,-68.07152,37.16643,-15.76173,34.48587,-21.70751,1.13909,-4.08552,4.00375,2.29288,-3.1922,-2.96289,-0.55853,-0.19847,-0.24282,-0.2316,2.14604,-0.23677,0.45776,0.03677,0.00297,0.06304,0.23214,-0.0988,0.08214
2678,-3.48058,-33.02751,3.04606,-14.32602,0.68891,-2.31843,-52.87914,-9.1192,-0.06024,-30.0008,-1.41633,-4.38141,-37.54289,56.11831,-9.75684,-10.43297,2.18967,-2.04815,-62.28633,29.47404,-14.9533,46.26562,-38.06369,9.65563,-4.54238,3.1807,1.4306,1.21012,-2.66147,0.56632,-0.55731,-0.23547,-0.866,3.5627,-0.61292,0.80331,-0.14866,0.05866,-0.1055,0.36439,-0.1874,0.19431
2679,-2.30295,-32.11089,2.52274,-16.02888,0.31097,-2.24794,-44.96645,-8.97186,-0.3067,-34.48991,-2.32256,-4.44767,-37.24622,55.33568,-9.45995,-10.50051,2.3023,-1.89423,-55.16653,26.78871,-10.17469,36.00694,-42.34663,16.66487,-2.58219,2.34204,0.69496,3.71124,-4.87539,1.36538,-0.38745,-0.08196,-0.71515,4.11621,-1.40694,0.28241,-0.17272,0.08647,-0.11827,0.38546,-0.32576,0.07943
2680,-0.8996,-30.65393,1.65377,-16.43344,0.54065,-2.16463,-37.29433,-5.81651,-1.61375,-33.76351,-2.08018,-4.31113,-36.99989,54.39079,-9.1799,-10.57003,2.4375,-1.80843,-42.39019,27.56377,-8.27964,16.80274,-42.92716,18.12275,-0.77985,1.71402,0.19844,2.29,-6.1329,0.98599,-0.30301,-0.01375,-0.40195,3.37991,-1.68002,-0.34981,-0.11851,0.06971,-0.04386,0.29116,-0.37279,-0.10078
2681,0.07465,-29.3303,1.0881,-15.71287,0.58343,-2.25698,-37.88564,-1.83112,-3.09696,-28.49721,-1.58177,-4.97146,-36.71817,53.42424,-8.90158,-10.49208,2.5122,-1.78366,-36.2797,32.0164,-12.6906,12.82388,-45.93668,16.31864,-1.88623,1.66879,0.22128,1.25336,-4.18344,0.54689,-0.47827,-0.32447,-0.6373,2.84531,-1.08074,-0.14072,-0.05291,0.01714,-0.00782,0.31938,-0.28356,-0.04696
2682,0.36446,-28.43225,1.13518,-16.30787,0.5097,-2.45139,-44.55885,1.0026,-3.60858,-26.51332,-0.05625,-5.31355,-36.28122,52.52504,-8.57516,-10.5093,2.52232,-1.77923,-41.81367,40.97038,-17.86715,21.70909,-45.71833,11.93028,-3.31542,1.89896,0.5318,2.73401,-1.98748,0.87599,-0.14222,-0.98461,-1.03523,3.11658,-0.45851,0.39403,0.07455,-0.04676,-0.00204,0.46694,-0.18826,0.12197
2683,0.11618,-28.23352,1.71519,-18.57046,0.51594,-2.51322,-50.3939,0.59103,-2.9619,-29.8392,0.57013,-4.94908,-35.64665,51.63793,-8.20252,-10.81883,2.50037,-1.7584,-51.71195,46.33985,-19.23736,23.25387,-39.21018,5.61852,-2.03699,1.99728,0.70118,3.86006,-2.68833,1.48771,0.7159,-1.40731,-0.90545,3.17781,-0.47509,0.33236,0.19947,-0.08181,0.01334,0.47073,-0.15906,0.12565
2684,-0.13697,-28.42024,2.36547,-19.72176,0.12241,-2.43219,-53.51972,-1.89819,-2.09599,-34.04393,-2.46343,-5.44453,-34.92548,50.69883,-7.83148,-11.1174,2.46447,-1.71045,-63.03845,40.70358,-19.22436,14.62602,-33.37339,2.31989,-6e-05,2.40163,0.92883,2.2986,-4.7774,1.56239,1.02528,-1.04427,-0.30705,2.35078,-0.77354,-0.18544,0.1752,-0.07163,0.01301,0.24607,-0.13369,-0.02415
2685,0.17348,-28.73731,2.69155,-17.81194,-1.06188,-2.40806,-54.46821,-4.78553,-1.77579,-33.95308,-7.64187,-7.05282,-34.2465,49.70109,-7.51118,-11.09895,2.38828,-1.68515,-71.67714,27.36997,-19.50702,13.84731,-32.32919,2.35783,0.43922,2.42973,1.05654,-1.52449,-5.20502,0.61929,0.60837,-0.36771,0.10511,1.18018,-0.91575,-0.50324,0.05957,-0.05489,-0.02904,0.0095,-0.12728,-0.13511
2686,1.05139,-29.02009,2.63065,-14.24978,-1.84465,-2.40823,-51.21081,-7.08246,-1.73809,-27.31297,-9.33061,-7.33439,-33.62149,48.67232,-7.2501,-10.96697,2.27765,-1.71233,-65.31964,18.15307,-17.18759,29.21396,-32.11055,-2.47821,1.28659,0.26166,0.07147,-6.51309,-3.86228,-1.17954,0.51939,-0.39095,-0.06843,0.37356,-1.03633,-0.47062,0.01166,-0.05613,-0.09274,-0.04748,-0.24162,-0.13689
2687,2.01613,-28.88319,2.32256,-11.40157,-0.97613,-2.23316,-43.53688,-6.35694,-1.33396,-15.13696,-6.43561,-5.59788,-32.99158,47.62071,-7.01443,-11.02664,2.19968,-1.74351,-39.90471,20.16326,-13.24051,42.52615,-30.55907,-12.58441,4.36955,-3.17779,-1.96337,-10.07065,-2.90709,-2.48306,1.09395,-1.17863,-0.59374,0.2061,-1.2505,-0.31026,0.00318,-0.05449,-0.15192,0.01948,-0.41667,-0.08953
2688,2.5741,-28.42376,2.0629,-9.97976,0.80038,-1.91509,-36.85262,-1.85021,-0.53381,-2.63556,-3.47506,-3.77073,-32.31406,46.52019,-6.78131,-11.22158,2.16545,-1.74754,-12.10004,29.49961,-12.28544,34.79871,-29.25523,-14.27419,5.69085,-3.44169,-2.79387,-8.62619,-3.60514,-1.75259,1.11759,-1.56559,-0.9772,0.87079,-1.28236,-0.11194,-0.09486,-0.02836,-0.1815,0.10318,-0.43819,-0.02749
2689,2.46359,-28.31736,2.14005,-9.55882,2.32376,-1.58012,-36.0993,2.48373,0.08476,2.70205,-1.13407,-1.98581,-31.59213,45.36936,-6.58205,-11.36039,2.12363,-1.74015,-1.86176,39.8815,-12.82408,15.87292,-28.47011,-0.56586,1.00139,1.80254,-0.6027,-2.84204,-5.38377,0.52768,-0.15859,-0.70571,-0.84447,2.16081,-1.1149,0.04168,-0.23347,0.0143,-0.1358,0.212,-0.27286,0.04717
2690,1.93777,-28.57451,2.43259,-10.29614,3.17466,-1.36326,-39.36216,3.12056,0.10893,-2.12687,2.62526,0.26645,-30.86057,44.21215,-6.43862,-11.46572,2.05674,-1.73266,-10.65908,47.28539,-10.79433,9.81176,-28.64314,16.7163,-5.60355,8.31507,2.96552,2.55946,-6.23697,2.20753,-1.37003,0.59866,-0.17173,3.27842,-0.97134,0.11409,-0.21719,0.03614,-0.0034,0.3546,-0.09814,0.1271
2691,1.78676,-28.55923,2.53159,-12.12122,3.17234,-1.44206,-41.23371,1.11054,-0.33801,-11.08406,6.68771,1.45739,-30.14985,43.06741,-6.2866,-11.58405,2.02336,-1.70937,-24.10587,49.71198,-7.42402,20.15801,-29.77181,23.37884,-6.77633,9.82795,4.51369,5.17801,-4.5073,2.23695,-0.93449,0.88528,0.53332,3.8456,-0.74698,0.32528,0.0048,0.01518,0.14614,0.48875,-0.02539,0.22269
2692,2.44315,-28.15117,2.30497,-13.41514,2.43105,-1.77396,-39.69858,-0.24638,-0.89928,-14.71441,8.53655,0.57636,-29.4908,41.92645,-6.06056,-11.60142,2.0978,-1.65483,-29.12955,49.13543,-6.27653,30.32999,-29.4833,18.33265,-2.46265,5.85079,3.13143,5.48467,-1.94337,1.47063,0.59083,0.02214,0.6821,3.9314,-0.51585,0.63072,0.22903,0.0008,0.22831,0.54513,-0.05031,0.29744
2693,3.25009,-27.79342,2.05097,-13.18886,1.40225,-2.0559,-37.0427,0.39041,-1.24019,-11.46972,6.38701,-1.40613,-28.91376,40.8264,-5.8141,-11.52729,2.2622,-1.58042,-25.26016,46.89217,-8.40205,29.9393,-27.62622,9.6968,1.89246,1.56167,0.94669,3.43871,-1.95031,0.95392,1.59536,-0.81347,0.33438,3.28547,-0.76195,0.56382,0.25362,0.05151,0.20952,0.44211,-0.16052,0.2494
2694,3.48037,-28.22054,2.17923,-12.70095,0.23455,-2.14821,-35.5414,-0.52041,-1.02822,-7.88374,-0.70386,-3.66938,-28.37108,39.79427,-5.64047,-11.56918,2.35664,-1.55127,-19.97607,37.19061,-12.46437,23.35639,-28.72816,5.19422,3.38753,0.80655,-0.06689,-0.31793,-4.57091,0.80595,1.5848,-0.93626,-0.03584,1.94431,-1.52454,0.00676,0.12523,0.11607,0.11245,0.18554,-0.33281,0.05779
2695,3.39525,-29.69916,2.72062,-12.47709,-0.66412,-2.07445,-35.08723,-6.20125,-0.31513,-7.12555,-8.58672,-5.05766,-27.76163,38.78106,-5.52434,-11.7093,2.26109,-1.60254,-17.2322,20.24262,-15.28101,20.25922,-33.99219,6.00982,3.16341,2.58466,0.16701,-3.25183,-6.51637,0.66295,1.23688,-0.7061,-0.0982,0.76534,-2.08187,-0.53725,0.04546,0.10623,0.0327,-0.08198,-0.46499,-0.15072
2696,3.60594,-30.84239,3.1124,-11.66137,-0.58542,-1.85367,-34.42168,-10.75503,0.26211,-7.16655,-10.51479,-4.24776,-27.09761,37.79605,-5.37734,-11.64776,2.09465,-1.6535,-15.9975,12.82522,-14.50825,26.14379,-36.78269,6.53491,2.80331,3.77413,0.7731,-3.42185,-5.7368,0.49208,1.202,-0.66272,0.13338,0.7182,-1.81141,-0.52132,0.11993,0.01179,0.03839,-0.14353,-0.45144,-0.2007
2697,4.18825,-30.01116,2.85773,-10.31407,0.30854,-1.58761,-32.75562,-6.53628,0.30706,-6.43207,-6.5099,-2.17093,-26.47392,36.95889,-5.17313,-11.27222,2.0692,-1.60857,-13.64793,25.11662,-11.59028,35.99096,-33.06701,3.11894,2.40444,2.91266,1.1187,-1.05868,-3.85306,0.71344,1.45013,-0.87945,0.39312,1.92492,-1.10921,0.03075,0.25389,-0.10632,0.07557,0.10791,-0.33436,-0.03047
2698,4.52735,-28.20591,2.43697,-9.09346,1.15351,-1.40888,-31.68632,0.5233,0.23039,-5.10205,-2.44865,-1.20598,-25.89517,36.27922,-4.97634,-10.79732,2.20642,-1.47722,-11.83963,38.81915,-9.55024,39.5405,-27.45718,-0.68574,1.75587,1.0631,1.1033,1.64379,-3.6517,1.33359,1.54946,-1.01897,0.50883,3.20922,-0.97747,0.46511,0.27929,-0.15854,0.08502,0.44991,-0.25938,0.18736
2699,3.92343,-27.97436,2.77427,-8.38778,1.35381,-1.42569,-34.95333,-1.33264,0.51384,-5.03528,-1.20965,-2.20917,-25.34746,35.60408,-4.85039,-10.40229,2.31416,-1.3645,-19.63747,32.91991,-9.61865,35.25197,-23.85136,-1.09901,1.32952,0.00227,0.86429,1.72692,-4.77272,1.42681,1.33675,-0.96594,0.46145,3.02909,-1.41826,0.2381,0.17135,-0.12574,0.07428,0.50299,-0.25492,0.19165
2700,2.94826,-29.56463,3.69609,-8.18928,1.50327,-1.49375,-41.06976,-9.48181,0.99323,-5.95978,0.63608,-3.00466,-24.92377,34.92781,-4.76444,-10.06967,2.27816,-1.29764,-33.54539,20.53969,-9.79221,30.10255,-21.00381,1.24303,1.85241,0.884,0.71028,-1.30208,-4.77589,0.49269,1.24151,-0.93092,0.3755,1.44694,-1.48631,-0.3839,0.10239,-0.07314,0.07375,0.23134,-0.22735,-0.02568
2701,3.13237,-30.98977,4.11103,-8.13507,2.46094,-1.30444,-41.91661,-11.93927,1.19924,-4.36968,5.28875,-1.43058,-24.7074,34.48912,-4.63911,-9.78304,2.19298,-1.19862,-31.97006,26.466,-7.88344,26.6906,-18.42482,4.57058,3.11284,3.50516,0.93458,-4.17749,-3.56055,-0.43657,1.63311,-0.91649,0.42604,0.38963,-1.01872,-0.61863,0.20023,-0.03191,0.09692,0.03024,-0.1714,-0.1623
2702,4.87503,-31.02636,3.59565,-8.16049,3.94903,-0.83545,-34.26258,-7.20577,0.93647,-1.53269,9.47021,1.43283,-24.654,34.4332,-4.45555,-9.5832,2.17309,-1.05359,-11.44733,44.364,-4.56709,22.83511,-17.5706,7.08592,3.32573,5.68635,1.25277,-3.94376,-2.95,-0.2609,1.92632,-0.81049,0.42858,1.13137,-0.73779,-0.16633,0.30918,-0.00077,0.09766,0.16572,-0.16115,-0.02382
2703,6.61369,-30.00733,2.82525,-8.44464,4.85579,-0.41181,-24.99508,-3.67545,0.40226,-2.96294,9.5636,2.93801,-24.69591,34.63192,-4.27771,-9.39911,2.2042,-0.94866,3.69659,49.85989,-1.79027,20.21824,-19.26182,6.28426,1.3749,4.95082,0.94969,-1.61455,-3.34673,0.56927,1.35256,-0.89788,-0.04888,2.46645,-0.92379,0.39814,0.21252,-0.03354,0.00178,0.37588,-0.19676,0.18523
2704,6.94076,-29.13803,2.59643,-8.21221,4.50144,-0.2945,-21.38957,-5.77781,-0.17303,-6.87253,5.89379,2.20468,-24.82011,34.90321,-4.1555,-8.99938,2.20137,-0.92429,1.13872,37.89329,-1.20777,20.06533,-23.03899,2.35409,-0.77734,1.78736,0.04058,0.01603,-3.47444,0.9094,0.45213,-1.32684,-0.79304,2.54132,-1.10618,0.46393,0.01506,-0.12938,-0.14238,0.30268,-0.20522,0.19228
2705,6.17501,-29.42355,3.05809,-6.60803,3.55191,-0.38701,-24.62447,-10.81627,-0.65051,-6.31528,2.38833,0.68378,-25.06108,35.19971,-4.07792,-8.29103,2.11489,-0.91242,-7.82149,23.02768,-3.5384,19.91571,-27.06705,-0.61873,-0.19119,-0.89528,-0.5037,0.12333,-3.27882,0.65633,0.64112,-1.71812,-0.93073,1.52778,-1.17609,0.10021,0.04733,-0.18494,-0.17059,0.07015,-0.20919,0.04322
2706,5.4392,-30.16487,3.66863,-4.82225,2.91344,-0.52926,-30.93901,-13.69962,-0.58416,-1.71401,1.91815,-0.43258,-25.49536,35.55763,-4.02994,-7.46706,1.95501,-0.85169,-13.05245,17.59135,-7.2759,21.53151,-28.32122,0.10372,2.22655,-1.18291,-0.07429,-0.44752,-3.63032,0.5149,1.78153,-1.60054,-0.22205,0.86905,-1.30313,-0.23232,0.29588,-0.12509,-0.02862,0.01626,-0.24639,-0.05098
2707,5.64414,-29.90598,3.75507,-4.39218,2.56628,-0.66759,-34.29429,-11.59433,0.44764,0.37537,3.18083,-1.34685,-26.1244,36.0322,-4.00005,-6.6571,1.80078,-0.72959,-14.39485,22.10444,-9.49302,27.31229,-25.96646,3.51369,2.91626,1.12894,0.92949,-1.17874,-4.2531,0.72887,2.13764,-0.70032,0.64009,1.00276,-1.33327,-0.25688,0.37321,0.04665,0.15141,0.13136,-0.25642,-0.0275
2708,6.38482,-28.55599,3.3908,-4.28455,2.66373,-0.53712,-33.62908,-6.38048,1.91735,-1.37633,4.33783,-1.43202,-26.81752,36.7333,-3.97837,-5.80439,1.75098,-0.53154,-14.91716,29.97418,-8.58761,30.37066,-23.54236,6.96509,1.71817,4.82463,1.58226,-2.27132,-4.1781,0.86387,1.23768,0.57452,1.03574,1.32767,-1.14252,-0.0092,0.16716,0.23271,0.22243,0.18808,-0.21968,0.04598
2709,6.41591,-27.27795,3.22466,-3.14124,3.05201,-0.07931,-32.9041,-2.97688,2.71074,-3.11566,4.21102,-0.02013,-27.44253,37.73526,-3.96571,-4.96563,1.73337,-0.3389,-15.62889,33.19004,-5.65585,25.98138,-23.83723,7.15329,2.23261,6.40343,1.09281,-3.56035,-3.33796,0.59375,0.69254,0.81683,0.89954,1.40267,-0.93773,0.26809,0.0216,0.22927,0.15777,0.14387,-0.21183,0.10272
2710,5.79288,-27.15027,3.46114,-1.82513,2.82424,0.25711,-32.4818,-5.05769,2.33769,-3.84446,2.56801,1.63687,-28.02624,38.94394,-3.96192,-4.23065,1.61464,-0.26572,-15.58446,28.32991,-2.77767,21.81477,-25.35434,2.82233,5.41888,2.8496,-0.39576,-4.06051,-2.52274,0.15428,1.50608,-0.80188,0.38563,1.15317,-0.88874,0.30956,0.16281,-0.05707,0.02156,0.08065,-0.25222,0.09704
2711,5.53895,-28.21059,3.76387,-1.79075,1.78545,0.14529,-30.3904,-11.07953,1.31362,-6.49042,0.93301,1.57453,-28.74637,40.2198,-3.97663,-3.51264,1.43818,-0.26475,-17.31716,19.80114,-2.23772,25.27837,-25.84123,-2.73207,7.36582,-3.39589,-1.58654,-3.38735,-2.39474,-0.04223,2.51078,-2.90729,-0.2228,0.82374,-0.96827,0.10379,0.3839,-0.38701,-0.07925,0.06372,-0.27062,0.04278
2712,5.9418,-29.00685,3.7678,-2.62758,0.96464,-0.15294,-28.2697,-13.61506,0.55541,-11.26732,1.51499,0.10327,-29.69965,41.59195,-4.00072,-2.69921,1.28511,-0.20355,-22.24561,18.71163,-4.57318,32.87418,-24.32346,-4.7389,5.69703,-6.16075,-1.24225,-2.60758,-3.1564,0.1442,2.71019,-3.51981,-0.35503,0.79773,-1.16475,-0.1493,0.4775,-0.43748,-0.03701,0.12243,-0.25321,-0.00435
2713,6.3516,-28.46337,3.53691,-2.89562,1.19357,-0.17264,-28.67966,-8.93,0.54526,-14.04832,4.60457,-0.36006,-30.76895,43.13521,-4.002,-1.86804,1.12488,-0.05266,-24.42233,29.82545,-6.43813,37.0989,-21.34623,-1.75087,2.98767,-2.66774,0.24829,-2.24872,-3.87494,0.54489,2.66613,-2.52666,0.18698,1.06009,-1.19422,-0.25324,0.48567,-0.21209,0.10988,0.17059,-0.21717,-0.03063
