PaulMeinheit/Bachelor_Muay_Thai/processed_Data/N4/teep/sliced/JointMoments/sliced2.csv
Unnamed: 0_level_0,R_KNEE_MOMENT,R_KNEE_MOMENT,R_KNEE_MOMENT,L_KNEE_MOMENT,L_KNEE_MOMENT,L_KNEE_MOMENT,R_HIP_MOMENT,R_HIP_MOMENT,R_HIP_MOMENT,L_HIP_MOMENT,L_HIP_MOMENT,L_HIP_MOMENT,R_ANKLE_MOMENT,R_ANKLE_MOMENT,R_ANKLE_MOMENT,L_ANKLE_MOMENT,L_ANKLE_MOMENT,L_ANKLE_MOMENT,WAIST_JOINT_MOMENT,WAIST_JOINT_MOMENT,WAIST_JOINT_MOMENT,NECK_MOMENT,NECK_MOMENT,NECK_MOMENT,L_SHOULDER_MOMENT,L_SHOULDER_MOMENT,L_SHOULDER_MOMENT,R_SHOULDER_MOMENT,R_SHOULDER_MOMENT,R_SHOULDER_MOMENT,L_ELBOW_MOMENT,L_ELBOW_MOMENT,L_ELBOW_MOMENT,R_ELBOW_MOMENT,R_ELBOW_MOMENT,R_ELBOW_MOMENT,L_WRIST_MOMENT,L_WRIST_MOMENT,L_WRIST_MOMENT,R_WRIST_MOMENT,R_WRIST_MOMENT,R_WRIST_MOMENT
ITEM,X,Y,Z,X,Y,Z,X,Y,Z,X,Y,Z,X,Y,Z,X,Y,Z,X,Y,Z,X,Y,Z,X,Y,Z,X,Y,Z,X,Y,Z,X,Y,Z,X,Y,Z,X,Y,Z
964,16.00446,-29.85542,4.38203,4.35031,12.23414,4.30623,-19.49441,-9.9104,2.35017,-16.13963,33.17738,13.58961,-18.4663,17.19703,-1.41912,4.4692,0.60485,2.08915,-26.03579,50.10291,11.60531,23.20185,-35.16518,4.42133,1.19998,3.01364,1.23198,-8.07135,0.20187,-2.23911,2.16275,-1.33133,0.26966,-0.60529,-0.01124,-0.35168,0.38664,-0.04105,0.16197,-0.13145,-0.10391,-0.15356
965,15.47079,-29.47778,4.30082,4.73624,11.49359,4.02797,-19.96851,-10.06496,2.37167,-11.75018,26.85184,9.66128,-19.07508,17.74899,-1.57655,4.37706,0.58078,2.03705,-24.25588,33.99408,4.04307,33.20984,-24.20362,1.92506,-0.96653,3.73269,1.24792,-6.72386,-0.6822,-1.87843,1.26153,-1.15956,-0.26953,-0.02227,-0.38458,-0.30221,0.20856,-0.08934,-0.03534,-0.08713,-0.10464,-0.11959
966,16.31565,-29.12136,3.87936,3.83464,10.02972,3.65322,-14.36188,-9.11555,2.07873,-12.0156,21.38754,7.27482,-19.63456,18.35664,-1.64009,4.15649,0.6712,1.9867,-16.00603,28.09983,0.46594,37.26539,-18.14725,-2.78949,0.87621,2.19316,0.4297,-4.18505,-1.53635,-1.05452,1.20019,-1.33529,-0.34521,0.61001,-0.73157,-0.1179,0.07821,-0.12591,-0.14591,-0.00904,-0.12883,-0.03728
967,16.81087,-28.50035,3.51779,2.49688,8.03861,3.29191,-11.17439,-6.70687,1.41025,-14.27752,16.401,6.14916,-20.16044,19.16595,-1.65768,3.89912,0.7704,1.98207,-9.95134,31.93365,-1.21399,30.37822,-26.02108,-4.51599,4.54389,-0.52199,-0.64119,-2.33124,-2.70053,-0.19665,1.84369,-1.69889,-0.11393,1.02658,-1.06594,-0.03176,0.10292,-0.14738,-0.14387,0.04472,-0.17259,0.01529
968,15.75652,-28.55744,3.70902,2.45917,6.58427,3.13974,-15.04256,-7.65114,0.29616,-13.91389,11.21727,4.95016,-20.72113,20.19043,-1.76459,3.73771,0.83445,2.02821,-12.12083,29.92561,-4.55498,23.28204,-33.36628,-2.36524,6.11455,-2.12937,-1.22934,-2.12422,-4.68916,0.59025,2.23545,-1.90525,-0.05398,1.00035,-1.35007,-0.19696,0.22786,-0.16173,-0.08099,0.01734,-0.18615,-0.00813
969,14.20281,-29.77656,4.33011,4.06101,6.63409,3.24777,-20.39286,-13.24416,-0.45288,-11.60137,9.9331,4.59967,-21.35394,21.28,-1.98173,3.74883,0.80657,2.04426,-18.5724,20.75928,-6.07893,23.5645,-23.16229,-0.75663,5.04733,-0.83595,-0.76304,-3.59096,-5.27181,0.62503,2.09174,-1.60235,0.07186,0.4188,-1.17322,-0.36506,0.35859,-0.14785,0.04109,-0.08874,-0.13074,-0.06285
970,13.66536,-30.86192,4.73181,5.71468,7.50861,3.36487,-20.14164,-18.63315,-0.03455,-10.6766,13.49672,5.58366,-22.04739,22.26155,-2.19493,3.83134,0.67061,1.96635,-20.45079,14.60187,-2.6667,25.87501,-3.00831,-1.93761,3.14872,1.98145,0.30056,-4.98857,-3.17139,-0.10789,1.78735,-1.05502,0.37992,-0.06461,-0.46806,-0.18594,0.41748,-0.09851,0.17641,-0.15297,-0.03438,-0.0601
971,14.44211,-30.1828,4.40619,5.76409,7.60708,3.23806,-14.81452,-17.50346,1.07847,-11.50878,15.35617,5.75304,-22.7942,23.09653,-2.3059,3.74445,0.54214,1.86104,-14.85589,16.17533,0.80067,26.55842,-0.0614,-2.64407,1.13027,2.47242,0.43909,-3.92043,-1.12353,-0.43418,1.38921,-1.22237,-0.02506,0.56572,-0.00132,0.20463,0.33209,-0.10233,0.13502,-0.01308,0.00311,0.01573
972,15.41912,-27.67691,3.5618,4.02289,6.60205,2.88945,-11.68943,-9.96132,1.76091,-13.92535,12.34336,3.8662,-23.56079,23.88326,-2.33382,3.43657,0.46469,1.79967,-12.35398,22.13845,-0.17487,30.57064,-21.51462,-0.70114,-0.80621,-0.39642,-0.76183,-1.02577,-1.31898,-0.07003,0.84706,-2.28622,-1.37975,1.91425,-0.32343,0.30435,0.12786,-0.20505,-0.13006,0.25959,-0.0853,0.0637
973,15.15342,-25.39757,3.0652,2.25826,5.99427,2.66178,-15.50402,-5.57448,1.58773,-16.54211,11.00496,2.7091,-24.25925,24.72986,-2.39662,3.20568,0.37834,1.78924,-19.88022,26.97178,-1.13519,38.60762,-37.51274,-0.37709,-1.10891,-3.6366,-1.84337,-0.15343,-2.72818,-0.03681,0.70379,-3.14188,-2.23075,2.21708,-1.03746,-0.10685,0.00048,-0.28198,-0.31465,0.32936,-0.23579,-0.01487
974,13.7646,-25.38408,3.38672,2.4001,6.51705,2.77288,-21.87806,-10.46861,0.97293,-14.51269,15.40676,4.87351,-24.8646,25.69572,-2.57642,3.23907,0.29208,1.80329,-23.96763,28.98021,2.20376,42.11215,-26.03112,-3.60831,1.35919,-3.95872,-1.44106,-2.49548,-3.58524,-0.61529,1.51296,-2.90835,-1.3657,1.11429,-1.43481,-0.56509,0.12507,-0.23747,-0.1757,0.0857,-0.32229,-0.14438
975,12.82502,-27.1166,3.94695,4.04443,6.80755,2.94572,-23.34294,-17.50115,0.47736,-7.45568,19.31935,8.1271,-25.48252,26.77211,-2.83321,3.33051,0.25155,1.776,-13.85465,29.14753,5.3381,35.77781,-7.95352,-3.86863,4.88171,-1.00342,0.02942,-4.01882,-3.39902,-0.81203,2.64849,-1.92826,0.41915,0.55497,-1.35221,-0.42042,0.3677,-0.15877,0.06753,-0.10341,-0.31289,-0.13629
976,12.72766,-28.27702,4.03257,5.53874,5.73435,2.84413,-19.94336,-17.47473,0.34085,-1.92797,16.29845,8.56406,-26.23359,27.90037,-3.10587,3.33533,0.26821,1.68347,-1.85643,27.13206,3.27502,27.55268,-9.84293,1.9174,6.54618,2.43347,1.08861,-1.97429,-2.78456,-0.0755,3.01319,-1.15618,1.41433,1.69236,-1.08756,0.2772,0.46577,-0.16563,0.09095,0.06904,-0.27886,0.04239
977,12.33769,-27.8854,3.77292,5.75108,4.07981,2.51159,-17.79837,-12.11653,0.59662,-3.19133,8.87789,5.70207,-27.12039,29.06612,-3.39341,3.32637,0.3464,1.59224,-3.7448,22.83019,-1.37557,26.39847,-23.07488,8.2628,5.01394,4.81479,1.54359,0.84612,-2.22411,0.90695,2.49198,-0.76026,1.32166,3.03457,-0.67519,0.89166,0.40161,-0.17469,0.01122,0.39364,-0.20818,0.23195
978,11.7158,-27.32714,3.63704,4.22588,3.15481,2.15046,-19.26443,-8.79921,1.0919,-10.52199,4.2427,2.25179,-28.04351,30.26913,-3.69829,3.27928,0.44825,1.54321,-17.86833,19.22636,-3.99461,26.18519,-26.02803,10.00847,1.91746,6.21482,1.94998,1.28676,-1.94898,1.2982,1.81975,-0.44651,0.98671,3.00009,-0.16997,0.94114,0.31787,-0.07118,0.08088,0.50532,-0.06403,0.27595
979,12.28505,-27.71259,3.51363,2.314,3.13121,1.87662,-20.7209,-8.26364,1.30103,-16.20268,5.75341,1.08394,-28.92804,31.44807,-3.99435,3.14576,0.45496,1.49187,-26.85488,22.75335,-4.36269,17.77182,-20.67663,5.80953,0.52302,4.22476,1.3357,0.18333,-2.17543,0.94644,1.41295,-0.72004,0.41321,2.09851,-0.06309,0.43964,0.21889,0.00052,0.1324,0.34945,0.02149,0.13962
980,13.75169,-28.12966,3.08253,2.28653,3.60847,1.81434,-19.91357,-7.07202,0.71432,-12.98901,10.9519,2.94136,-29.75132,32.54231,-4.27262,3.05828,0.27091,1.4144,-18.99894,34.84369,-3.81872,10.16906,-21.05076,-1.22067,2.03573,-1.37253,-0.69481,-0.12112,-3.07807,0.38363,1.31409,-1.8717,-0.56123,1.64342,-0.68704,-0.21696,0.08432,-0.10587,-0.03864,0.14066,-0.09442,-0.06804
981,13.63307,-27.68925,2.69371,4.16713,4.51788,2.1051,-20.93176,-6.87251,-0.64405,-4.98947,14.55925,5.75329,-30.5386,33.63168,-4.57814,3.13199,-0.00113,1.38914,-6.90992,43.38853,-2.8414,18.17526,-24.88802,-4.66149,4.77454,-4.65187,-1.97076,0.41051,-4.3172,0.23309,1.73989,-2.79235,-0.92025,1.76285,-1.51591,-0.54527,0.04462,-0.22728,-0.18387,0.03884,-0.28688,-0.16716
982,11.33675,-27.19121,2.81108,5.60009,5.22347,2.57671,-26.14096,-9.84525,-2.08318,-1.99542,12.56753,6.83552,-31.39336,34.93467,-4.95536,3.19796,-0.17026,1.45916,-7.50107,37.62456,-2.56231,35.76221,-23.51925,-2.38779,6.81826,-2.37299,-1.10219,0.04783,-4.87444,0.43216,2.7069,-2.60324,-0.03989,1.77276,-1.69774,-0.35811,0.20903,-0.17643,-0.02774,0.03293,-0.32035,-0.08793
983,9.57212,-27.31453,3.05693,5.03984,4.70912,2.74858,-29.32191,-11.39776,-2.42948,-5.7787,6.9974,5.8251,-32.35992,36.52284,-5.36629,3.08687,-0.24206,1.52421,-15.0645,27.53383,-3.14045,42.2462,-20.53622,0.85241,7.07271,1.21616,0.31728,-1.54928,-4.00248,0.41744,3.3339,-1.86649,0.95039,1.63409,-1.07657,0.10613,0.41717,-0.05319,0.2192,0.09558,-0.17733,0.06136
984,9.81774,-27.45951,2.96243,3.50717,3.45118,2.4119,-26.18522,-8.37036,-0.93488,-10.64753,5.15404,4.2864,-33.29703,38.1219,-5.74227,3.07691,-0.38437,1.49583,-17.36573,28.91976,-2.45773,30.56758,-20.94345,0.94948,5.6847,1.84325,0.3851,-2.76535,-2.40677,0.17095,2.99291,-1.61911,0.75173,1.73682,-0.2568,0.49171,0.48638,-0.08948,0.17649,0.21167,-0.02163,0.15484
985,10.2098,-27.34512,2.82354,2.97496,3.35689,2.02121,-22.55388,-5.99649,1.33507,-11.4086,10.85033,3.97579,-34.08388,39.41982,-6.11282,3.47797,-0.62735,1.44498,-15.79824,39.1165,0.47726,14.56891,-22.31015,0.83172,3.69187,1.0976,-0.39258,-1.91164,-1.89771,0.37772,2.20768,-1.8374,-0.2204,2.11918,0.00494,0.61404,0.45188,-0.25514,-0.09844,0.32579,0.00078,0.17415
986,9.26516,-27.28573,2.86076,3.67231,5.32767,2.22255,-25.4594,-7.36224,1.8246,-7.64973,19.09122,5.76285,-34.82168,40.52595,-6.55022,3.92291,-0.74727,1.50594,-17.04611,46.68132,2.78708,11.98762,-23.35417,4.44761,2.07515,1.89706,-0.37339,0.93589,-2.71877,1.1889,1.81324,-1.80259,-0.60208,2.55568,-0.34745,0.53243,0.43029,-0.31301,-0.21782,0.37486,-0.09405,0.1513
987,8.05054,-27.4685,2.81577,4.65445,7.44368,2.84511,-34.20722,-8.70436,-0.3163,-3.68954,22.54328,8.48578,-35.64544,41.82324,-7.03042,3.95191,-0.65491,1.62916,-23.33096,49.30279,1.18112,24.86846,-24.56714,8.65086,1.76582,2.65941,0.36097,4.10481,-3.17432,1.81114,1.99794,-1.57742,-0.14016,2.95718,-0.73272,0.41237,0.41427,-0.21847,-0.07825,0.36055,-0.17065,0.1099
988,7.73898,-28.42277,2.76882,5.53457,7.42592,3.13593,-42.16936,-9.63597,-2.65098,-4.10614,20.24253,9.97607,-36.53856,43.43056,-7.51053,3.74564,-0.56151,1.63998,-31.50546,48.28155,-2.52312,36.29409,-23.91693,8.90074,3.58191,0.4032,0.35322,5.94919,-2.91854,1.7394,2.5812,-1.88392,0.29263,3.26845,-0.967,0.25518,0.37358,-0.14084,0.07171,0.33044,-0.20011,0.05456
989,7.6525,-29.53876,2.7853,5.68802,5.68642,2.89795,-43.75026,-10.95699,-3.09295,-9.0001,15.05276,8.95581,-37.44172,45.13987,-8.01142,3.57781,-0.59503,1.53989,-35.25867,44.01537,-5.04862,31.59345,-19.91986,5.92408,6.81269,-3.49214,-0.7766,5.43727,-3.27631,1.2967,3.30029,-2.78351,0.15386,3.21986,-1.20066,-0.00418,0.35503,-0.17311,0.05652,0.28833,-0.24809,-0.02245
990,6.91646,-29.32754,2.48976,5.51772,4.76993,2.66376,-39.11596,-10.34761,-2.54845,-11.73162,11.4825,6.89243,-38.3543,46.71657,-8.54684,3.47845,-0.69371,1.48633,-28.7579,41.20869,-5.7431,17.90624,-13.99344,2.43745,8.90793,-4.32372,-1.70987,2.97931,-4.17655,0.89842,3.58334,-3.31026,-0.17188,2.8453,-1.24443,-0.17662,0.34692,-0.23609,-0.05426,0.25136,-0.28527,-0.07743
991,5.76773,-27.89829,1.84489,6.36203,6.06188,2.82084,-33.49207,-7.91074,-2.45682,-7.77334,13.31608,6.14291,-39.29041,48.1303,-9.07298,3.44112,-0.79186,1.55704,-16.28588,42.83827,-5.38992,9.44703,-11.05387,2.00657,8.44759,-0.63892,-1.32173,1.848,-4.11522,1.0183,3.21409,-2.83804,-0.08711,2.9008,-0.86015,0.07606,0.32793,-0.25567,-0.12678,0.31252,-0.2204,-0.01203
992,4.90275,-26.96252,1.38954,7.84727,8.0361,3.15887,-31.96422,-6.63522,-2.5697,-3.10886,17.62445,6.34058,-40.2147,49.55308,-9.54788,3.45709,-0.8397,1.70743,-12.08242,44.29416,-5.02389,7.18422,-17.50348,7.75875,7.43974,3.00441,-0.27866,5.15296,-3.21323,2.1407,2.94592,-2.13764,0.39755,3.98634,-0.38075,0.69507,0.37611,-0.2664,-0.11146,0.49363,-0.08796,0.17006
993,4.68857,-27.67936,1.41137,8.01392,8.63278,3.32183,-34.55952,-6.90516,-2.2532,-6.53298,18.66362,6.0561,-41.1269,51.15152,-10.02774,3.38381,-0.79855,1.84146,-22.93278,43.80405,-4.49873,10.09212,-31.34933,15.71812,7.86747,2.79143,0.33448,10.31986,-3.0062,3.60358,3.3687,-2.08441,0.93042,5.47971,-0.29987,1.17067,0.50399,-0.2841,-0.00641,0.67527,-0.026,0.3217
994,4.72362,-29.42107,1.60106,6.50848,8.13062,3.36245,-37.96904,-7.25535,-1.99347,-15.37762,16.74621,6.13154,-42.10352,52.88512,-10.60755,3.01496,-0.66276,1.9151,-37.60624,46.11285,-2.94933,21.17975,-39.73881,18.32211,8.14085,1.49259,0.86789,11.77263,-3.96696,3.99721,3.8667,-2.1646,1.44867,6.15559,-0.64661,1.12923,0.57314,-0.22814,0.17837,0.74371,-0.09891,0.32622
995,4.37106,-30.81198,1.62043,5.35748,8.3967,3.58843,-40.29987,-8.60776,-2.32256,-17.84961,17.13645,8.06122,-43.10803,54.45742,-11.25944,2.3761,-0.47916,1.99738,-40.49041,52.25972,-0.79058,31.31809,-34.28531,15.87062,6.76484,2.86107,1.85978,8.87613,-5.20049,3.1284,3.75501,-1.63941,1.98263,5.57318,-1.06166,0.66115,0.51808,-0.0775,0.3729,0.66398,-0.21995,0.20195
996,3.23668,-31.04474,1.47234,5.76508,9.83572,3.96,-42.63849,-11.78679,-2.79667,-12.72899,21.06898,10.32804,-44.02035,55.59993,-11.88625,1.67119,-0.37266,2.13502,-35.33342,55.52561,0.21758,29.22326,-21.86927,14.36682,5.21847,4.8856,2.37625,5.92273,-5.57536,2.11574,3.29759,-1.09964,2.07676,4.45963,-1.16621,0.17045,0.4449,0.01499,0.4211,0.50837,-0.25962,0.05845
997,1.42545,-29.90358,1.11519,6.7572,11.13784,4.17847,-45.39965,-13.59665,-3.24184,-11.53963,23.72859,9.95881,-44.84274,56.42937,-12.45871,0.9578,-0.38244,2.26624,-38.13008,50.75285,-1.43092,22.02871,-14.54952,14.96373,4.90463,3.8261,1.49278,5.55261,-4.66674,1.66336,3.04862,-1.45558,1.2994,3.85577,-0.95891,0.00553,0.45332,-0.08555,0.23074,0.44099,-0.22307,0.00264
998,-0.22867,-28.15,0.46422,7.98994,11.4053,4.23518,-45.77768,-10.3399,-4.16499,-15.22342,21.38348,7.1564,-45.58996,57.3142,-12.99332,0.22469,-0.347,2.34834,-43.96661,43.81795,-5.79036,21.46647,-16.76874,13.37799,5.7259,0.50967,0.02781,6.33135,-3.15563,1.45031,3.28392,-2.52773,0.23714,4.03652,-0.80391,0.17044,0.54383,-0.30153,-0.03875,0.51069,-0.22273,0.04687
999,-1.01853,-27.48281,-0.12769,9.81509,10.87292,4.34233,-42.84058,-3.2973,-5.36263,-12.9619,17.01975,5.6792,-46.17668,58.48263,-13.50829,-0.50917,-0.11429,2.41592,-35.44084,47.21704,-10.10994,26.65781,-25.49467,8.44721,7.06055,-1.32563,-0.58703,6.97262,-2.01272,1.42605,3.87667,-3.46659,-0.12068,4.76631,-0.77616,0.57179,0.65401,-0.45906,-0.13247,0.62434,-0.26785,0.15017
1000,-1.57125,-28.52932,-0.10957,11.39682,10.74876,4.63781,-42.63772,1.28085,-5.88984,-4.36649,17.74843,8.52492,-46.62303,59.80747,-14.02924,-1.2545,0.26465,2.53113,-21.02979,63.19498,-10.32274,31.86189,-36.62919,5.42471,7.77671,-0.22173,-0.2671,8.57479,-1.31814,2.2318,4.11311,-3.64461,0.17099,5.85153,-0.44204,1.26717,0.65057,-0.47513,-0.06842,0.72687,-0.23751,0.30054
1001,-3.21733,-29.73056,0.5451,11.68511,11.92243,5.04896,-51.69656,-0.97425,-5.36708,0.68534,25.23111,13.95681,-47.1343,60.90395,-14.54561,-2.02759,0.57253,2.68785,-24.49816,78.18854,-6.76423,36.14332,-45.58757,7.87074,7.57341,2.2193,0.19316,10.18538,-0.76421,3.44488,3.69656,-3.0859,0.50517,6.52853,0.31856,2.01596,0.49304,-0.37,-0.02534,0.78376,-0.09532,0.44486
1002,-5.572,-29.6756,1.17144,10.35975,13.62957,5.30409,-65.11139,-6.86943,-4.39165,-3.48575,32.31588,16.92896,-47.86404,61.51232,-15.00932,-2.86481,0.67032,2.80333,-46.833,79.68057,-3.91875,39.26845,-47.67721,12.49758,7.51344,4.38604,0.88789,8.2076,-0.84133,3.314,3.46473,-2.36187,1.05119,5.80224,0.8064,2.07113,0.37721,-0.22333,0.04652,0.73842,0.03133,0.45687
1003,-7.15267,-28.42734,1.03065,8.15708,14.42902,5.23493,-71.62463,-8.04649,-4.03601,-14.17392,32.24061,14.79838,-48.78629,61.77679,-15.45345,-3.7411,0.65341,2.84021,-68.31412,72.58321,-4.62417,35.60627,-43.9575,15.72258,8.02946,5.70599,2.22999,3.57262,-2.30453,1.45901,3.90522,-1.89086,2.16508,4.2337,0.28133,1.02463,0.4487,-0.12922,0.27776,0.62636,-0.01166,0.27043
1004,-7.69897,-27.0904,0.20727,7.71127,14.09721,5.03791,-68.09223,-2.3036,-4.66479,-20.49227,27.07991,10.32159,-49.74166,62.10013,-15.98328,-4.47014,0.63636,2.83587,-69.89081,68.96972,-7.94713,23.96406,-40.14103,17.42996,8.55664,4.96619,3.01304,2.2622,-4.74072,-0.11822,4.25913,-1.72659,2.97607,3.62615,-0.98623,-0.43648,0.56603,-0.12484,0.47816,0.55359,-0.23528,-0.01963
1005,-8.21609,-27.36067,-0.27735,10.69452,13.59938,5.01085,-61.20451,1.74728,-5.16753,-15.40214,23.47687,7.62325,-50.50698,62.7325,-16.62352,-4.90466,0.57799,2.83384,-51.8841,68.34084,-10.79359,14.52319,-37.85109,17.87862,8.68016,1.69626,1.72659,6.02661,-6.00148,0.26286,3.92155,-1.88713,2.26659,4.30576,-1.72724,-1.01139,0.54913,-0.16442,0.35477,0.471,-0.41888,-0.20794
1006,-9.71521,-29.53039,0.26364,14.56233,13.76126,5.25043,-58.92112,-2.50651,-4.68085,-7.39466,23.68152,7.72546,-50.95598,63.4904,-17.26373,-5.16981,0.51348,2.89966,-37.5715,62.79747,-11.05511,13.24767,-35.48603,17.66087,8.56734,-0.99912,-0.48502,10.02861,-4.88453,1.89882,3.43317,-2.28419,0.63613,4.89847,-1.25885,-0.29173,0.46034,-0.19838,0.02823,0.28055,-0.35943,-0.16098
1007,-12.01097,-31.30221,1.11331,16.11926,14.47586,5.67499,-63.35317,-9.95281,-4.52673,-5.3933,24.63915,9.43423,-51.20624,63.94381,-17.73851,-5.57489,0.59725,3.05756,-42.58657,53.5106,-10.71519,17.95739,-33.1376,16.39529,8.93359,-0.33881,-1.2819,10.67976,-3.8664,2.95761,3.57967,-2.72804,-0.13929,4.91537,-0.47168,0.58744,0.48557,-0.24447,-0.11423,0.18231,-0.17318,0.0276
1008,-14.29261,-30.24531,1.15192,16.06414,14.94982,6.03118,-70.63316,-10.84451,-5.9657,-4.24785,24.45751,11.56886,-51.53113,63.87257,-18.00397,-6.17029,0.73674,3.1731,-53.95204,51.58591,-12.84912,29.68725,-28.72168,11.04354,9.90839,1.41033,-0.68843,9.43306,-5.38077,2.93198,4.12459,-3.01635,0.2966,5.07654,-0.23884,0.70233,0.59879,-0.29636,0.01946,0.42873,-0.05536,0.22863
1009,-16.37521,-26.96071,0.48629,16.0958,14.89368,6.05098,-75.42696,-3.53691,-7.31106,0.30852,24.71946,12.89274,-52.09641,63.47773,-18.18626,-6.65809,0.69079,3.13999,-55.42007,62.39688,-15.64351,44.99097,-20.69847,3.297,9.78471,1.37666,-0.15615,8.68684,-6.84537,2.73872,4.12946,-2.92167,0.77226,5.51613,-0.15805,0.70193,0.57883,-0.27259,0.18566,0.85294,-0.02168,0.41555
1010,-18.37002,-24.52214,0.20073,15.91318,14.1557,5.66261,-75.98049,2.74361,-6.27061,1.17972,24.19821,11.39234,-52.85212,63.12265,-18.40963,-6.7713,0.45826,3.00905,-52.11986,72.67959,-15.68684,50.76591,-18.16386,1.63565,7.55762,1.10165,0.42956,8.01219,-4.55454,2.46932,3.65887,-2.59594,0.81988,5.53615,0.09201,1.04203,0.44572,-0.19713,0.23812,1.04636,-0.08591,0.41141
1011,-19.87781,-24.89456,0.76719,15.4298,13.31444,5.16762,-74.29523,-0.30519,-3.50689,-5.86218,22.3452,7.99028,-53.68452,62.90564,-18.67693,-6.52058,0.25246,2.88198,-55.13299,70.55476,-12.1702,43.15464,-30.42916,8.60021,5.6196,3.03775,1.97331,5.59844,-0.27398,1.22684,3.6323,-2.42657,1.21871,4.88437,0.14824,1.00888,0.43078,-0.19209,0.23981,0.86896,-0.22509,0.1042
1012,-20.37343,-26.77054,1.50067,15.68568,14.10341,5.02741,-71.95965,-8.84533,-1.54725,-13.27546,24.81386,7.85299,-54.57742,62.66157,-18.89747,-6.19783,0.19091,2.81024,-60.64825,66.94638,-5.94666,34.00634,-51.29964,17.40396,6.27429,6.52316,4.0477,1.67474,1.08656,-0.80048,3.86006,-2.20423,2.4691,3.92837,-0.00898,0.31032,0.46701,-0.22614,0.25556,0.50061,-0.25337,-0.23366
1013,-20.51558,-26.99003,1.62801,17.15528,15.89932,5.20148,-70.84206,-12.37414,-1.63607,-11.18974,31.64412,12.39387,-55.59423,62.37037,-18.95371,-6.0733,0.10295,2.7065,-58.68555,73.82153,-1.56583,30.59833,-66.02666,23.25249,7.85457,8.57748,5.0055,-0.55056,-1.70188,-1.76586,3.46575,-1.7626,3.50652,3.04216,-0.00911,-0.27417,0.33847,-0.20422,0.25582,0.14617,-0.08966,-0.27485
1014,-22.26137,-24.36732,1.41831,19.38849,15.97345,5.28569,-75.03479,-9.5361,-2.80943,1.18558,33.11478,15.82403,-56.83363,62.22991,-18.82342,-6.04374,-0.17384,2.50103,-50.39762,79.10817,-4.91315,25.4385,-64.98262,25.93733,7.78691,6.72165,3.63865,2.03119,-4.47358,-0.08277,2.94278,-1.82789,2.71642,2.77531,0.31004,0.18483,0.23113,-0.20333,0.18908,-0.01971,0.09732,-0.00313
1015,-25.46395,-20.56091,1.38925,21.14034,14.08349,5.1091,-81.6796,-7.55094,-3.35356,12.96824,25.95363,13.91971,-58.38002,62.37017,-18.56965,-5.81625,-0.47155,2.30249,-42.97208,69.99146,-12.9166,16.61946,-50.55971,22.22597,6.75511,1.82959,0.6557,7.54304,-3.53068,2.96882,3.24473,-2.64388,0.46797,3.38365,0.62454,1.32729,0.38895,-0.29758,0.07722,0.10138,0.1091,0.25739
1016,-27.37905,-17.30136,1.41968,21.29961,12.38081,4.77052,-82.31063,-8.49588,-2.43756,13.52144,19.44717,10.07118,-60.26851,62.77127,-18.24217,-5.29763,-0.53265,2.23336,-40.19023,59.50651,-15.42498,20.30846,-36.36898,9.03381,7.21708,-1.62504,-1.58978,10.28761,-1.11566,3.9482,3.76693,-3.12858,-0.87505,4.24866,0.49494,1.59004,0.54572,-0.34163,0.03991,0.40503,-0.04732,0.18841
1017,-27.37281,-15.06479,1.522,20.50567,11.51811,4.37979,-79.05141,-9.85657,-0.27417,5.61623,19.89022,8.65159,-62.53204,63.41447,-17.88982,-4.60583,-0.41338,2.23954,-45.98447,60.25428,-10.74836,45.04668,-35.23163,-6.21755,9.52037,-0.06891,-1.36371,8.50382,-2.01401,1.41692,3.48689,-2.59631,-0.05418,5.02693,-0.06754,0.299,0.39594,-0.21546,0.16929,0.7183,-0.22621,-0.14046
1018,-27.71316,-13.55985,2.0442,19.75454,10.263,3.94934,-79.95544,-11.99765,2.30108,-1.34884,21.64923,8.27431,-65.20958,64.359,-17.53892,-3.91004,-0.39468,2.18337,-60.15642,61.60589,-6.83989,70.14975,-43.49114,-11.35361,10.90304,4.45869,0.6002,5.10515,-6.12495,-2.48396,2.78096,-1.82018,1.44464,5.58686,-0.64566,-1.45632,0.13904,-0.06378,0.35018,0.87487,-0.32942,-0.42177
1019,-29.24706,-11.685,2.67391,19.37413,8.48276,3.57767,-81.33819,-13.95874,3.87489,-2.51349,18.1272,6.02881,-68.2556,65.63187,-17.12537,-3.27604,-0.55716,2.06223,-67.59621,56.23567,-7.37193,72.50359,-45.32354,-3.96538,9.00762,6.09081,1.58103,2.08276,-8.54762,-4.54492,2.86942,-1.95983,1.0886,5.17263,-0.77618,-1.9932,0.16775,-0.08748,0.25406,0.74751,-0.31493,-0.43112
1020,-30.22131,-8.39491,2.60447,19.95312,7.88112,3.47592,-73.89211,-11.97492,3.31055,2.39156,12.37235,3.70481,-71.53449,67.06979,-16.5914,-2.65815,-0.73863,1.96316,-53.30013,54.98354,-7.98235,55.45168,-37.40017,8.49093,6.22229,3.17837,0.4009,-0.14956,-6.11704,-3.25492,4.06068,-3.05201,-1.06211,3.70444,-0.26939,-0.54627,0.50479,-0.26037,-0.18063,0.43674,-0.17545,-0.14372
1021,-30.1747,-3.85091,1.82588,21.3368,9.15527,3.60347,-61.9392,-7.12223,1.19324,10.67803,11.72449,5.16584,-74.9276,68.39026,-16.00298,-2.05476,-0.82848,1.87661,-27.76397,64.05579,-5.45728,35.80863,-31.76639,16.85682,6.65117,0.04188,-1.11631,-0.5365,-0.80145,0.21582,5.34668,-4.008,-2.37632,2.55756,0.49935,1.86593,0.85057,-0.39583,-0.55144,0.2391,-0.01415,0.22751
1022,-31.21387,0.92826,1.28105,21.57357,10.12545,3.53939,-58.93652,-6.06514,-0.12829,16.90086,16.30772,9.39717,-78.2657,69.39848,-15.43412,-1.49041,-0.86988,1.72485,-16.05776,72.23214,-2.58958,23.44952,-29.57602,15.37391,9.52337,-0.39289,-1.44024,2.69858,2.39076,3.35215,5.70131,-3.96795,-1.79444,2.83797,0.88058,3.12426,1.00054,-0.38933,-0.53984,0.29565,0.04235,0.39477
1023,-33.16906,4.83171,1.57341,19.09822,8.82898,2.99879,-62.83653,-12.65917,1.43421,15.00869,19.93196,11.10459,-81.21171,69.99907,-14.79924,-0.94961,-0.92207,1.53209,-22.98488,66.83974,-1.37822,19.50779,-21.79432,5.22275,10.38551,0.39521,-1.35668,8.81567,0.33399,4.09407,4.82801,-3.01489,-0.98601,3.89532,0.67895,1.93636,0.8644,-0.2513,-0.29326,0.41575,0.00691,0.23561
1024,-32.54437,7.71866,2.12474,15.97146,6.55853,2.33261,-56.55585,-21.61127,5.05338,5.89265,18.88129,8.16399,-83.43403,70.0187,-13.95812,-0.34682,-0.95918,1.42408,-27.75594,50.86665,1.11533,19.22389,-15.23944,-6.64238,8.06801,0.88006,-1.63976,12.21791,-4.69835,1.82148,3.26262,-1.93215,-1.16657,4.46232,0.28643,-0.47866,0.45646,-0.07521,-0.12909,0.40737,-0.03633,-0.07077
1025,-28.1178,10.55351,1.9765,15.20127,5.21604,2.04115,-34.73743,-24.06396,7.25118,-2.02081,14.00348,3.93555,-84.72175,69.14426,-12.88202,0.40066,-0.95598,1.41206,-15.7016,37.10838,6.71474,15.92463,-22.19113,-13.83819,5.83621,1.59779,-1.1324,7.94639,-7.64814,-1.93389,2.09921,-1.58684,-1.25115,4.1786,0.06811,-1.43445,0.05156,-0.01786,-0.08132,0.32424,-0.07154,-0.1818
1026,-22.62071,13.60026,1.08446,15.78972,4.06894,2.05575,-10.44988,-18.6411,5.88604,-5.39163,6.84637,1.3149,-84.8316,67.08437,-11.62747,1.1759,-0.98171,1.34533,1.52277,30.15045,11.76145,11.38762,-32.95104,-15.30388,6.25081,2.33959,0.43771,-0.92623,-6.35108,-4.29988,2.01651,-2.11299,-0.31958,3.32057,0.01397,-0.12968,-0.01095,-0.13821,-0.03313,0.25741,-0.11121,-0.03002
1027,-17.04915,15.94907,-0.02564,15.0424,1.82445,2.00903,9.46369,-11.79703,2.54257,-7.51817,-2.18524,-1.16412,-83.3468,63.67237,-10.23246,1.72321,-1.0798,1.18374,14.63029,22.61829,12.30585,17.67426,-31.1481,-14.42379,9.31387,1.68369,0.88923,-6.37167,-2.73176,-3.48003,2.80919,-2.86365,0.76978,2.42986,0.01816,1.83848,0.32201,-0.3168,-0.01257,0.21542,-0.12786,0.12941
1028,-9.2429,15.90994,-0.74279,12.79944,-0.75018,1.80862,32.19178,-12.86442,1.08357,-9.12725,-11.65946,-5.14591,-79.75391,58.74261,-8.77349,1.88414,-1.18804,1.05419,34.08279,2.98533,11.39133,38.05996,-20.85475,-13.79265,12.69912,0.19546,-0.27537,-4.81764,-0.44135,-1.01529,3.45197,-3.10627,1.33664,2.2366,0.0773,2.62021,0.6856,-0.40055,-0.03118,0.23475,-0.10101,0.08954
1029,0.35361,12.38663,-0.32075,10.31809,-1.95612,1.62847,55.40577,-23.9338,3.28872,-8.06202,-16.89479,-7.8318,-73.66692,52.11662,-7.36042,1.7569,-1.22502,1.04256,58.57448,-25.78088,15.21305,56.51432,-18.26688,-10.43034,11.93196,0.38294,-0.02777,0.67726,-1.35037,0.04947,3.14642,-2.69869,1.52519,2.90359,0.22995,1.64876,0.70852,-0.36288,0.01627,0.34116,-0.04507,-0.12204
1030,8.55657,8.03943,0.46101,7.57158,-1.20285,1.59372,66.11789,-28.27348,5.52533,-5.64336,-13.75869,-5.36315,-64.9974,43.96872,-5.86529,1.57948,-1.17005,1.13497,68.41318,-34.75364,23.38637,56.19248,-28.58255,0.37115,5.44457,3.09866,3.55596,6.17617,-3.52933,-0.21994,2.23834,-2.04171,1.44377,3.78864,0.39792,0.08302,0.43505,-0.28457,0.1959,0.46148,-0.01127,-0.28078
1031,14.29476,7.67355,-0.9223,4.83294,0.0045,1.70622,62.47646,-7.82072,3.8271,-4.52686,-5.90928,0.77474,-54.17095,35.27155,-4.03255,1.51973,-1.11137,1.25258,59.62957,-4.09384,29.01047,37.86983,-41.38828,13.78907,-0.80819,5.62701,6.76045,10.11316,-4.47651,0.27527,1.75521,-1.57886,0.76073,4.20652,0.4373,-0.62797,0.1764,-0.20269,0.31615,0.48078,-0.04251,-0.19121
1032,18.70467,11.2458,-4.75609,3.47928,0.40295,1.82887,56.37825,25.21767,0.58128,-5.60189,1.83735,6.26061,-42.23575,27.36984,-2.02942,1.55226,-1.10983,1.31786,49.99316,43.68712,30.63071,13.03771,-42.92629,16.83345,0.04789,4.61178,4.27641,11.16347,-4.5637,0.83167,2.1839,-1.39798,-0.78095,3.81588,0.40861,-0.61919,0.13443,-0.08434,0.13152,0.33402,-0.08128,0.05403
1033,21.88078,14.70619,-8.54291,3.65267,0.46565,1.76584,59.92366,44.51825,-0.33097,-8.99361,8.28631,8.52839,-30.51778,20.96942,-0.39379,1.51361,-1.0926,1.30574,56.06151,70.5336,31.53518,-5.47708,-24.69542,3.36596,7.06441,0.41891,-3.27963,8.23095,-4.97674,-0.56578,3.02488,-1.33042,-2.53222,2.73703,0.43906,-0.70332,0.28266,0.04407,-0.26469,0.10947,-0.05435,0.20692
1034,21.93984,17.00399,-11.40942,4.09199,0.28696,1.50646,70.70266,46.4618,-0.32324,-10.74703,9.89563,6.75791,-20.14284,16.04264,0.47769,1.33042,-1.03781,1.21611,75.60402,63.73621,27.23261,-2.2518,7.38722,-18.26769,13.99187,-3.28794,-9.86658,4.18034,-5.23052,-2.34878,3.52059,-1.32526,-3.27523,2.07553,0.40552,-0.51407,0.47932,0.08304,-0.53362,0.06991,-0.04414,0.22841
1035,16.57737,19.61043,-14.26825,4.57877,-0.87501,1.23416,69.3362,42.78516,-3.15714,-3.67719,4.54446,2.39985,-11.92724,12.2895,0.46757,1.10785,-1.08396,1.06219,84.639,36.25685,9.89605,27.28304,26.73244,-31.30266,16.1082,-3.90455,-10.41289,3.31306,-4.55962,-1.76207,3.48841,-1.619,-2.38897,2.49329,0.18771,0.30391,0.59692,-0.04534,-0.42915,0.24159,-0.1171,0.20013
1036,7.85501,21.49089,-16.67459,5.62869,-2.31193,1.13736,49.20631,38.41788,-8.0926,10.44259,-1.65694,-0.68662,-6.24553,9.17184,-0.19356,0.93954,-1.23789,0.94924,67.97929,9.04412,-12.54412,57.26068,13.20886,-25.51299,12.35648,-1.98003,-5.25061,4.8038,-3.40078,0.00087,3.04149,-2.09195,-0.71429,3.04938,0.00133,0.84683,0.52117,-0.24864,-0.05703,0.34844,-0.16339,0.106
1037,2.35248,19.74614,-16.96057,5.73137,-2.32687,1.26022,33.37669,33.87017,-8.29636,18.77773,-2.20251,-0.00304,-2.84625,6.12473,-0.93424,0.72964,-1.24682,1.02113,46.15005,-1.17811,-18.32912,52.29443,-12.83248,-8.47247,6.14709,0.60568,0.88392,5.29623,-3.09568,-0.45798,2.26972,-2.20386,0.38741,3.13565,0.16968,0.22513,0.25067,-0.31992,0.22232,0.35555,-0.09705,-0.07122
1038,1.04322,14.35772,-14.23603,2.26265,-1.04177,1.35121,36.25854,28.25316,-0.45971,12.41729,1.02009,2.51893,-1.27376,3.26641,-1.31682,0.29106,-1.02053,1.20911,38.70475,2.20425,-2.23175,14.05815,-14.90113,3.91608,3.37234,2.5976,3.90837,5.00736,-4.14032,-2.9034,1.50274,-1.94839,0.78865,3.10204,0.64143,-0.97123,-0.02982,-0.20854,0.25029,0.41945,0.02619,-0.21755
1039,0.90533,4.14037,-6.81925,-3.51072,0.01999,1.13062,51.59611,7.1957,8.63949,-1.98754,3.38868,3.57491,2.02586,-1.63571,-0.66359,-0.289,-0.79365,1.27737,45.82368,-13.02507,17.31506,-17.36469,7.51731,4.50253,5.94863,3.24484,2.57049,5.95625,-5.22982,-3.53152,1.18512,-1.52131,0.68958,3.05307,0.93916,-1.2766,-0.12283,0.00382,0.10362,0.51045,0.09934,-0.20252
1040,-0.53296,1.6565,-3.2869,-6.17285,-1.15739,0.83169,47.3752,-7.08746,4.41538,-9.03492,-0.7316,1.18306,1.40773,-1.24553,-0.49017,-0.55621,-0.78746,1.1201,38.08712,-32.05634,10.64996,-14.55619,25.89659,-3.39289,9.76535,2.17981,-2.59004,7.74666,-5.26526,-1.16926,1.32957,-0.57334,-0.55263,2.73809,0.78128,-0.43241,-0.0073,0.26828,-0.17262,0.47985,0.09232,-0.08263
1041,-1.87275,3.51542,-3.74485,-3.63487,-5.28071,0.87214,38.26679,-15.58569,-8.25445,-4.38751,-14.27816,-4.3536,1.53683,-0.12445,-0.34271,-0.32834,-0.95168,0.8543,30.82339,-60.6642,-16.37927,12.33013,28.16772,-13.16727,10.59898,0.16417,-8.36734,8.75581,-4.94558,1.07661,1.44799,0.66543,-2.4995,2.33699,0.49031,0.39039,0.13866,0.44254,-0.44789,0.30507,0.05919,-0.00744
1042,-4.80616,7.04895,-5.73442,-0.07482,-9.31173,1.15734,31.83055,-15.19334,-17.45026,0.86487,-27.93476,-9.34516,1.75861,0.75159,-0.21976,-0.11662,-1.05406,0.68706,24.87693,-80.79511,-41.12845,41.75668,24.39475,-17.63921,8.80878,-1.37267,-9.85878,8.5474,-4.82713,1.04131,1.4166,0.76934,-3.08356,2.14686,0.456,0.38612,0.2045,0.29552,-0.46341,0.10701,0.05715,-0.03489
1043,-11.66412,9.53261,-5.92303,-0.1221,-9.24744,1.27872,26.13224,-7.38121,-13.78939,-2.76976,-28.45538,-9.41194,1.11186,0.87094,-0.05129,-0.47724,-0.94082,0.74306,14.42311,-74.72378,-42.07497,60.83928,19.68237,-11.51885,6.64383,-1.65582,-5.27217,7.51267,-4.02491,0.33989,1.58955,-0.89826,-1.40841,1.94615,0.52093,-0.05182,0.26169,-0.14383,-0.16674,0.00614,0.06874,-0.11248
1044,-17.82431,10.8813,-5.30673,-3.21467,-5.78341,1.23916,17.40335,6.48511,1.90962,-8.16796,-17.835,-4.54739,-0.10862,0.63068,0.12741,-1.22004,-0.70779,0.95783,4.35192,-41.2681,-19.24773,65.40115,9.34572,1.98172,4.95083,-0.39086,2.12983,6.06739,-2.4615,0.67981,1.92275,-2.8707,0.82048,1.67211,0.3171,-0.14164,0.31111,-0.48184,0.15,0.04861,0.00872,-0.11517
1045,-16.35077,10.23978,-4.93029,-5.53895,-3.64414,1.3286,13.77982,14.8155,17.23546,-2.66812,-10.75599,0.35839,-0.51116,0.35201,0.17044,-1.75916,-0.60713,1.11784,14.16291,-12.66629,5.77327,62.64771,-5.72124,12.44699,4.21183,2.48145,7.64,5.25946,-1.92681,0.95882,2.0519,-3.38012,1.54153,1.90196,0.02504,0.23619,0.24011,-0.3911,0.21234,0.19807,-0.12108,0.00668
1046,-8.64382,6.53829,-3.60807,-5.33176,-4.63283,1.48799,22.56599,8.99633,20.82825,11.55544,-12.36157,1.31689,0.25259,-0.06231,-0.02514,-1.92221,-0.70955,1.12168,45.87925,-13.28033,15.47455,59.51388,-15.67527,13.87601,4.94599,4.9654,8.4105,6.33485,-3.32433,0.32761,1.86369,-2.46996,0.87364,2.6685,0.1013,0.68718,0.06133,-0.06811,0.13921,0.31764,-0.17134,0.13243
1047,-3.07311,2.29757,-1.40898,-3.46577,-6.00425,1.5276,33.1474,-0.40831,15.7815,21.61232,-14.59266,-0.64243,1.00865,-0.50406,-0.32695,-1.91908,-0.80674,1.09874,70.78516,-25.23038,13.09968,50.83818,-10.79222,8.15454,6.20676,3.78959,3.99271,8.87665,-5.06841,0.2745,1.50853,-1.51613,0.23368,3.16224,0.4841,0.99078,-0.05852,-0.005,0.18218,0.3157,-0.05214,0.12782
1048,-4.53993,1.95219,-0.50888,-1.74212,-5.17949,1.51136,29.18092,0.0903,10.1304,21.69387,-11.01864,-1.43881,0.95494,-0.52775,-0.45513,-1.96118,-0.68773,1.18062,61.98658,-21.28336,4.70437,34.46242,6.90183,-0.0954,6.27315,-0.34309,-2.39755,10.49916,-5.2113,1.33878,1.25876,-1.26314,-0.04628,2.8752,0.76786,0.89892,-0.02449,-0.23962,0.24184,0.22891,0.12523,-0.00893
1049,-10.33797,5.41724,-1.05286,-1.49409,-3.74811,1.58237,11.92317,5.65834,1.36548,19.71576,-6.67837,0.45256,0.50798,0.01822,-0.24452,-2.14165,-0.48172,1.22576,32.64621,-8.74268,-16.50226,17.06452,23.03848,-6.4129,5.39508,-2.52504,-5.87346,9.30972,-3.6337,1.65858,1.34942,-1.04984,-0.76509,2.01701,0.83771,0.06886,0.0968,-0.26732,0.06094,0.11042,0.20371,-0.17412
1050,-15.10386,8.12291,-0.97391,-2.99377,-5.62252,1.64867,-2.27051,4.35848,-13.60736,21.54262,-12.83585,0.78261,0.23113,0.74465,0.19662,-2.50794,-0.56915,0.94061,15.044,-16.86629,-50.36428,3.48544,27.5358,-7.66362,5.41735,-0.62223,-5.23849,6.56592,-1.67121,1.06091,1.63913,-0.30143,-1.87768,1.25986,0.72393,-0.81507,0.19122,0.09544,-0.26244,0.06961,0.10957,-0.17616
1051,-15.68494,8.91177,-0.79598,-6.31538,-9.75833,1.34188,-4.93249,-0.60176,-19.35568,17.07805,-27.21164,-4.01824,0.18472,1.22274,0.59398,-3.13849,-0.95054,0.42596,9.7312,-41.56981,-66.9009,0.83158,23.67026,-3.11696,6.50204,2.34839,-2.67164,4.4768,-0.64432,1.16043,2.06569,0.19941,-2.53197,0.90019,0.39128,-0.63612,0.28453,0.38723,-0.43437,0.14113,-0.11566,0.08365
1052,-11.45715,9.57653,-2.09444,-2.26411,-6.3378,-0.33638,-1.04557,-0.59486,0.2476,18.48354,-25.45575,-8.87024,0.41095,1.09121,0.65632,0.12207,-0.53677,-0.67764,22.74817,-38.30969,-38.08369,16.18227,17.70748,4.3299,6.59939,3.23217,0.05357,3.33745,-1.12326,1.02435,2.48068,-0.2414,-2.35825,0.77079,0.03998,0.30004,0.35315,0.27394,-0.3449,0.18902,-0.30405,0.39361
1053,-4.60467,9.28491,-3.69765,-1.12429,-2.88299,-0.3922,4.05964,2.27927,32.82951,15.97191,-20.00922,-8.31601,1.00318,0.22356,0.19755,0.34757,-0.25934,-0.38299,34.94111,-22.34822,16.92167,43.94218,13.88074,8.19126,5.27948,1.84237,2.19327,3.18376,-2.95559,-2.30214,2.65435,-1.47978,-1.62343,1.19017,0.24118,0.44581,0.2983,-0.12213,-0.10072,0.18864,-0.26146,0.3749
1054,-1.398,7.0153,-3.39947,-5.95198,-3.61578,1.35425,9.61044,1.82606,49.54688,10.18958,-19.2473,-2.80613,1.5656,-0.71757,-0.51699,-3.85551,-0.33783,0.91194,40.44422,-15.4833,51.8211,67.36744,15.83334,4.85303,4.79742,-0.26451,2.92238,4.39113,-4.9817,-7.63468,2.53375,-3.04671,-0.71645,2.14728,1.02253,-0.6006,0.17227,-0.55372,0.10932,0.15823,-0.01169,0.00791
1055,-5.75431,4.90107,-1.15594,-5.06528,-3.9898,1.83718,17.67873,-1.93172,39.84591,17.23999,-12.39157,2.56936,1.51498,-0.7858,-0.77331,-4.04426,-0.27081,0.90033,55.96473,-9.91058,45.70702,72.39935,20.38539,-0.79349,6.00976,-1.35491,1.55836,6.42556,-5.60669,-9.29155,2.11186,-3.79206,-0.07087,2.69674,1.58094,-1.49915,0.12452,-0.73691,0.14802,0.02977,0.20382,-0.32111
1056,-14.0181,3.19281,1.79874,-5.00361,-4.91218,1.71914,29.1783,-6.04011,14.34907,18.95427,-4.28636,4.04217,0.64841,-0.11825,-0.32971,-4.61647,-0.41664,0.68607,66.31612,-11.38755,12.26542,60.84649,20.1981,-1.94023,6.91139,-0.24993,-0.85494,8.45644,-4.56429,-5.19191,1.48847,-2.4259,-0.13629,2.57702,1.5208,-1.33905,0.16541,-0.41986,0.03212,-0.08688,0.2419,-0.37132
1057,-18.72386,0.21633,3.76347,-5.07249,-4.42348,1.29625,39.50942,-7.36975,-12.1274,12.05645,0.44569,1.27603,-0.38107,0.39209,0.17735,-5.4315,-0.44126,0.66452,65.26049,-18.13271,-25.6363,44.08323,19.28072,1.80424,6.09769,2.42022,-1.93147,8.93877,-2.97966,0.29747,1.05733,0.34458,-0.86521,2.05809,1.05111,-0.59732,0.19477,0.21275,-0.10543,-0.0508,0.13842,-0.2103
1058,-14.5811,-0.16277,2.85282,-4.19659,-2.23551,1.06362,36.57817,-1.73901,-24.13448,-0.87462,0.62249,-2.34267,-0.44216,0.56298,0.34039,-6.22154,-0.24326,0.98621,40.95185,-16.44127,-43.50139,26.94999,28.2713,6.54708,3.95347,4.08053,-0.74136,6.45654,-1.65482,2.17913,0.97692,2.10147,-1.4646,1.14027,0.55471,-0.26846,0.15127,0.602,-0.14148,0.08745,0.03191,-0.04533
1059,-3.44279,6.7683,-0.09355,-0.12298,1.58926,1.19175,12.79891,8.4956,-12.21986,-5.66617,4.04989,-1.83647,0.54258,0.77481,0.48084,-6.62569,0.04477,1.47519,4.61112,9.5698,-25.84501,8.96956,37.99564,9.4354,1.3687,3.11221,1.36744,2.53571,-0.60258,0.13245,0.85004,1.64373,-1.24918,0.29421,0.47389,-0.64781,0.00783,0.47056,-0.05101,0.25742,0.06789,-0.02621
1060,6.18378,15.05499,-1.67921,5.96775,4.67138,1.65886,-15.01619,12.24331,12.24727,0.75558,9.10566,2.59818,1.51199,0.93491,0.69535,-6.55112,0.19147,1.80043,-16.94611,37.8948,11.14351,-1.13136,23.99068,8.18259,0.30069,1.11982,3.0141,0.18665,0.11883,-2.85179,0.58388,-0.11349,-0.56762,0.42648,0.8382,-0.96079,-0.16958,0.06966,0.06012,0.45175,0.22415,-0.11103
1061,7.73079,12.969,-0.92343,10.61676,5.49414,2.17885,-21.48316,5.31229,22.22572,4.1211,8.60845,5.93265,1.66895,0.61623,0.5149,-6.26867,0.19971,1.88533,-16.59195,35.86772,26.81038,12.7511,-11.65376,1.86754,2.60366,0.70634,4.72341,-0.19944,0.17282,-5.25287,0.79723,-1.92833,-0.2854,1.32312,1.16768,-0.68227,-0.16347,-0.24649,0.05045,0.53623,0.33562,-0.18106
1062,3.67115,0.647,-0.48625,15.20343,5.19036,2.49884,-8.54012,-2.40318,7.92216,3.02652,3.1173,5.0127,1.18115,-0.05083,-0.21203,-5.86878,0.22297,1.86301,-4.31941,9.3475,5.29478,47.8702,-30.846,-5.61443,7.05685,2.28002,6.98518,-0.19637,-0.71874,-7.65832,1.74988,-3.04624,-0.63938,1.53804,1.1144,-0.43676,0.102,-0.32711,-0.07001,0.29785,0.27647,-0.18041
1063,1.06074,-8.83442,-1.56621,24.5722,6.28045,2.46477,1.08261,-3.46708,-9.86644,11.50581,2.8718,2.05039,0.87497,-0.48512,-0.78463,-5.06073,0.30837,1.85222,13.46872,-8.22938,-19.51759,70.97641,-9.19406,-9.19761,10.13384,3.99886,7.6657,0.20989,-2.34032,-10.18597,2.51675,-2.93862,-1.00096,0.59421,0.98054,-1.0116,0.34002,-0.20842,-0.12999,-0.15476,0.09228,-0.12129
1064,2.07556,-8.24995,-2.05639,38.71395,9.65782,1.99148,-4.7172,-1.78576,-12.77285,28.53068,13.03283,0.38292,1.28458,-0.47961,-0.54853,-3.67026,0.31478,1.86937,25.92491,-2.63161,-15.68325,56.08235,25.94305,-8.50476,9.92951,4.25395,5.63668,1.33933,-3.64445,-12.54765,2.32274,-1.99686,-0.92554,-0.3482,1.2481,-2.25195,0.31038,-0.03507,-0.07396,-0.39855,-0.02289,-0.08872
1065,2.81606,-3.26456,-0.96247,52.86347,13.94746,1.23495,-17.8068,-0.83872,-8.15327,39.27067,25.59683,0.54697,1.84329,-0.25677,0.13093,-1.91223,0.10793,1.84634,23.30491,10.1476,2.58019,27.14967,33.11866,-8.41583,7.12231,3.32363,4.36123,1.02106,-3.36063,-16.12844,1.77675,-1.2459,-0.92056,-0.4493,1.97855,-3.60292,0.13575,0.08445,-0.04579,-0.24577,0.11927,-0.20989
1066,1.89253,-0.12786,-0.04629,65.52749,17.20544,0.67805,-26.68774,2.16589,-8.23459,43.52015,29.35471,1.47632,1.45069,0.01377,0.31521,-0.0125,-0.26869,1.67172,16.63448,10.42654,8.69797,26.21227,15.09308,-13.99257,3.27873,2.25254,6.96807,-2.77481,-1.23121,-22.55233,1.68408,-1.00755,-1.41973,-0.44401,2.99908,-5.11009,0.03672,0.11166,-0.11509,-0.03137,0.53917,-0.52182
1067,2.01422,1.81722,0.16984,79.48577,19.09935,0.55753,-33.89952,7.05254,-8.35983,52.61575,25.38465,2.64939,-0.04775,0.31703,-0.14779,2.12931,-0.58438,1.34504,14.87975,2.69137,6.90657,49.05697,4.03821,-22.59889,0.30926,1.43875,10.79292,-7.67254,1.45532,-29.02804,1.96324,-0.96132,-1.94604,-0.97347,3.97625,-6.59641,0.09233,0.01409,-0.18176,-0.07377,1.00692,-0.85448
1068,4.10418,3.03577,0.4713,95.28016,20.9865,0.39947,-46.47883,8.58183,-2.57284,65.93494,24.62864,3.60484,-1.32014,0.50358,-0.46601,4.70732,-0.63469,1.01572,7.25057,4.48515,12.67534,61.52697,7.62442,-24.1743,-0.05598,1.28926,11.74766,-9.53217,3.19246,-30.64915,2.16834,-0.82862,-1.94696,-1.31819,4.5377,-7.2741,0.18832,-0.0904,-0.14496,-0.19225,1.26811,-0.99192
1069,7.56606,0.7487,-0.51501,110.57402,24.13857,-0.49206,-62.15362,5.49348,0.82575,76.32441,33.11939,3.4959,-1.0008,0.37651,-0.27985,7.7911,-0.55348,0.75524,-7.84376,18.22732,22.71424,59.37285,11.76269,-13.58618,2.87782,2.58569,11.19126,-8.53686,3.90397,-27.53301,2.57968,-0.77624,-1.8765,-1.1938,4.57832,-7.17643,0.22897,0.02403,-0.06137,-0.16427,1.30085,-0.94971
1070,14.19414,-5.22676,-4.94249,123.93291,27.79,-2.08169,-73.18466,3.08359,-8.24424,82.5712,45.60725,2.04065,0.55345,0.02979,-0.31548,11.18671,-0.72392,0.41293,-15.3473,30.78304,24.86855,56.14981,21.3123,0.46973,8.10172,4.80726,13.16534,-7.69179,4.255,-24.39718,3.78965,-1.62896,-2.38979,-1.33816,4.38104,-7.35435,0.29367,0.18916,-0.04774,-0.11115,1.27447,-0.94783
1071,23.49083,-9.75801,-10.56089,136.23212,30.28665,-3.51553,-81.55645,5.15547,-23.55155,87.31691,53.79739,0.27746,1.64848,-0.13227,-0.96643,14.45009,-1.1945,-0.06239,-15.04741,35.41194,23.33439,48.39588,50.04963,4.89312,12.75428,6.11349,17.67439,-7.64993,4.33523,-24.48265,5.27861,-3.67218,-3.06078,-1.58533,4.33167,-8.08732,0.39037,-0.00979,-0.0645,-0.12539,1.31933,-1.06864
1072,29.97349,-8.53422,-11.52633,148.83707,32.36885,-4.35646,-101.03382,8.2536,-29.01057,94.38214,57.75911,-0.31136,1.21681,-0.02599,-1.23937,17.46229,-1.55963,-0.38958,-25.18541,40.25094,34.82711,40.50841,77.00081,-4.85187,14.02663,5.62789,21.00997,-7.83591,4.29664,-28.07895,5.90208,-5.48708,-3.20706,-0.79917,4.47442,-8.35399,0.43217,-0.47539,-0.03379,-0.01531,1.39254,-1.11411
1073,25.02421,-4.11706,-6.47677,161.01225,35.21391,-4.87779,-137.40033,7.48684,-21.46557,105.99303,59.73072,0.17662,-0.23756,-0.11927,-0.28578,20.40731,-1.66576,-0.43297,-53.56966,47.68854,56.02357,49.44437,61.74591,-23.22176,11.32997,3.85378,20.9432,-10.76594,5.4644,-33.14079,4.94419,-5.7251,-2.43172,0.15245,4.14953,-7.19468,0.37976,-0.7757,0.02003,0.19343,1.3151,-0.90868
1074,-1.34912,-2.16141,-1.19951,171.01723,38.28559,-5.4522,-175.11363,5.12913,-15.40147,121.86057,59.01157,0.20571,-1.74012,-0.57428,1.07714,23.00461,-1.79088,-0.44611,-83.5303,50.07288,54.97208,69.87746,6.17585,-38.94895,6.6816,1.56143,17.42909,-18.03134,8.87424,-34.26668,2.98337,-4.64444,-1.09404,-0.92206,2.6686,-4.36893,0.31225,-0.75311,-0.0178,0.18382,0.91517,-0.49225
1075,-49.52725,-3.28434,-0.34877,177.84843,39.90359,-5.99304,-192.1888,5.89989,-19.9575,137.36275,55.7002,-0.96367,-3.02678,-0.88382,1.58097,24.71638,-2.18167,-0.70675,-98.02795,45.63434,13.77224,83.14151,-40.91621,-46.29811,2.31306,-0.66545,9.94804,-24.27445,12.65696,-27.76978,1.31332,-2.76921,-0.41666,-3.1507,0.49392,-0.51688,0.29621,-0.48215,-0.20637,0.06317,0.25922,-0.01386
1076,-95.61175,-3.24608,-1.49187,182.19398,39.61022,-6.20926,-172.97643,5.86575,-20.60907,148.52174,54.94364,-2.40367,-3.9653,-0.60202,1.15123,25.66477,-2.81217,-1.13499,-84.91692,40.4827,-34.72665,81.10482,-45.8128,-55.99092,-1.37682,-2.56722,-0.86726,-24.07585,13.52468,-20.1949,0.03918,-0.557,-0.36883,-4.00216,-0.64893,1.74818,0.21215,-0.1605,-0.34349,0.13339,-0.1325,0.18958
1077,-106.43744,0.37388,1.06435,186.52097,39.13512,-6.11058,-109.19254,-1.34556,3.34165,162.98439,61.35317,-3.18756,-3.93317,0.10082,0.45644,26.54035,-3.56518,-1.40365,-18.34128,36.05931,-43.21048,56.07631,-26.29198,-81.22923,-4.65877,-3.9566,-11.09671,-19.32916,10.52907,-21.37049,-1.72583,0.75682,0.96435,-2.95617,0.33862,0.06806,-0.10395,-0.06853,-0.11549,0.33521,0.2274,-0.23004
1078,-79.48322,5.24972,9.36682,191.19737,39.73832,-5.91257,-22.33604,-8.87434,40.52591,184.45848,68.66103,-3.96008,-3.10675,0.47714,0.13676,27.68707,-4.47792,-1.38947,90.93386,28.22146,-18.89847,9.5604,-17.82037,-109.47661,-6.95153,-5.05507,-17.21807,-14.53835,6.05974,-26.88444,-3.63721,0.10588,4.22672,-0.87269,1.63994,-2.75644,-0.50043,-0.3588,0.44827,0.58364,0.82528,-0.9311
1079,-44.13454,6.12451,14.67728,192.36882,40.63696,-5.8702,45.89466,-4.07122,43.60235,194.79611,65.90207,-5.85873,-2.25975,-0.22404,0.49988,28.84635,-5.67259,-1.29415,172.77722,14.73192,-24.44063,-18.57511,-23.91849,-108.71862,-8.06322,-6.9348,-19.63603,-10.75714,3.88199,-22.6803,-4.37386,-1.23851,7.01908,1.06111,0.82276,-1.51209,-0.60224,-0.76616,0.90463,0.8428,0.68923,-1.06264
1080,-21.52266,0.47852,3.93546,187.79329,40.80708,-6.10942,82.25063,9.86016,-11.37907,180.77682,52.81393,-8.60171,-1.30784,-1.16208,0.86221,29.69855,-7.11535,-1.2922,188.03072,-4.25848,-91.15936,15.78438,-23.87286,-69.54646,-9.64326,-10.60319,-19.7114,-6.20158,4.37599,-6.90823,-4.49058,-0.55239,7.50114,2.21715,-1.62354,4.18634,-0.46379,-0.77346,1.01119,0.98527,-0.26769,-0.31616
1081,-9.61545,-6.93987,-18.40636,181.23021,41.12984,-6.57952,97.27218,15.85982,-75.83585,160.06958,42.55381,-11.0271,0.20881,-0.77273,0.22542,30.19971,-8.50896,-1.24151,169.04668,-21.65168,-160.15257,93.78088,-12.48024,-26.24319,-11.7256,-14.56189,-17.872,-1.78502,3.77485,6.18665,-5.24372,1.66351,6.92698,2.86026,-3.5159,9.69438,-0.45922,-0.4185,0.98348,0.92911,-1.28698,0.81879
1082,1.15412,-8.73108,-29.71272,176.44661,42.51154,-7.01567,96.73399,7.48331,-80.24104,154.52953,45.39769,-12.34307,2.16448,0.61076,-0.98302,30.36782,-9.57869,-0.94208,159.73798,-25.62424,-151.0022,143.24707,-4.58729,-20.46167,-12.46953,-15.2194,-16.80233,-1.12046,0.24579,5.92422,-6.54106,2.51609,7.47696,3.32243,-3.90093,11.44574,-0.71034,-0.19062,1.08583,0.72951,-1.74161,1.66889
1083,13.07825,-3.2804,-15.78252,171.74077,43.4653,-7.13456,84.28745,-2.8569,-20.81856,158.32935,57.06165,-11.90907,3.49318,1.32625,-1.17409,30.02726,-10.47555,-0.56097,166.952,-14.38756,-65.33642,106.93334,-1.73248,-45.44877,-11.34314,-11.37285,-20.70187,-2.3564,-2.1656,1.34795,-7.74169,1.79239,8.80532,3.46471,-3.20166,10.40378,-1.00414,-0.17582,1.19656,0.54987,-1.52973,1.77701
1084,16.72302,3.53634,11.095,163.82837,41.64421,-6.77715,68.59842,-2.63234,41.4472,149.9921,65.7207,-9.47355,3.14252,0.53871,0.23505,29.01798,-11.54021,-0.47466,167.52454,-1.4391,17.19973,-9.09012,14.25524,-55.79521,-9.10895,-5.80576,-28.89035,2.0769,1.26251,8.70392,-8.44097,1.54868,8.5738,2.9558,-1.74435,9.65073,-1.1453,-0.07712,1.03018,0.38519,-0.87335,1.16354
1085,9.52781,5.09457,22.7977,153.6378,36.37935,-5.60577,65.94005,6.35257,46.82839,125.331,61.88284,-6.18639,1.79183,-0.72492,1.79396,27.59498,-12.66871,-0.69662,156.15291,-3.35594,24.52449,-114.33793,40.41407,-34.5215,-7.24227,-2.37137,-34.19365,13.21696,6.63971,25.16102,-8.70426,2.82274,6.1134,2.75327,-0.181,10.25403,-1.17848,0.20551,0.66009,0.18975,-0.20713,0.41937
1086,5.52219,1.58352,7.64133,143.76834,30.07715,-3.77824,90.60363,13.57995,-6.74211,100.62407,45.80373,-4.10452,1.43236,-0.80249,1.74677,26.0891,-13.31971,-0.75756,159.0421,-24.25897,-40.85613,-112.50073,48.50804,-7.40143,-5.97865,-1.33221,-30.47829,21.15196,5.2996,32.87136,-8.08154,4.31209,2.90573,3.85353,0.27962,10.6746,-1.10247,0.41318,0.37446,0.08045,0.08026,0.22949
1087,12.3887,-1.45412,-13.78495,134.58868,25.3317,-1.96426,132.25546,11.09114,-56.01619,90.89873,26.35599,-3.42524,2.70631,0.33897,0.35312,24.30799,-13.39071,-0.40253,190.20734,-55.60327,-101.5438,-43.54453,29.33317,5.52673,-3.65619,1.08219,-20.07138,19.93474,-2.14871,27.79345,-6.04681,3.83227,1.09508,5.32352,-0.41657,10.12703,-0.92312,0.30538,0.34931,0.10783,-0.00482,0.68391
1088,19.1425,-0.83997,-14.72109,125.45728,21.63225,-0.36559,153.55179,-0.11183,-38.18317,94.37173,9.52656,-2.23901,3.68322,1.45889,-0.60743,21.85259,-13.4819,0.00838,217.59683,-84.51575,-80.84281,-20.60415,5.7063,10.97857,0.27398,7.03998,-10.3931,15.92511,-6.30293,21.65616,-3.49988,1.70289,1.10417,6.36574,-1.24123,10.40764,-0.79456,0.10441,0.44805,0.29572,-0.35108,1.3847
1089,9.34651,1.26034,4.92162,116.66319,18.30904,0.91876,116.93682,-10.73424,29.60335,99.95064,-2.30053,0.08916,1.98044,1.40362,-0.13539,18.72389,-13.96388,0.15778,190.20888,-94.70535,5.29318,-45.24521,3.84737,19.92945,4.56718,13.62805,-5.46051,15.29616,-4.10719,19.8252,-0.89533,0.53189,0.38979,7.67949,-2.11518,11.8909,-0.56313,0.19709,0.27025,0.68902,-0.97706,1.84118
1090,-18.52683,1.63704,19.06574,108.44436,16.18168,1.57929,29.99266,-11.96477,62.85273,103.56717,-5.6171,2.08692,-2.15399,0.1699,0.81629,15.30239,-14.61496,0.19723,112.77536,-79.32211,55.77803,-50.05113,20.4989,32.47124,7.78763,16.70524,-3.90554,16.90315,-1.54121,19.44897,2.32076,1.10401,-2.48835,9.16474,-3.32075,12.62773,0.01208,0.5307,-0.24946,1.02602,-1.59696,1.85976
1091,-44.22646,-0.06754,7.04484,99.67663,15.88261,1.35916,-41.68532,-4.86205,12.9506,105.61974,0.96564,2.13606,-5.57392,-0.85878,0.60873,12.01535,-15.09332,0.43135,57.06573,-55.60052,4.43338,-37.62873,24.67126,45.16095,8.70208,15.99402,-2.02313,19.57979,-3.46506,20.93033,5.12978,1.83198,-5.2791,10.18591,-3.99535,12.59931,0.5842,0.77816,-0.70347,1.0381,-1.64887,1.82949
1092,-49.48158,-2.63476,-20.77117,88.72417,15.77361,0.63999,-48.26501,1.67851,-71.76365,98.13161,9.28995,0.11663,-5.75761,-0.82927,-0.874,8.87758,-15.34305,0.8767,54.94304,-49.88433,-98.86959,-43.20802,3.54321,55.27937,7.39692,14.5595,1.95258,23.21704,-10.65628,24.58118,6.06915,1.55897,-5.68411,10.96457,-4.12052,12.34661,0.70918,0.75573,-0.78123,0.87102,-1.13543,1.97431
1093,-39.23227,-4.5492,-35.77984,76.57066,14.25775,0.13157,-11.49032,1.00596,-106.29063,76.36337,12.24793,-2.53015,-3.67611,-0.29626,-2.06932,5.55335,-15.50158,1.32174,64.8736,-61.8438,-149.79109,-57.82451,-19.06389,55.14954,6.52064,14.89052,4.65909,25.07185,-19.33382,26.47134,5.74771,0.70145,-4.42769,11.65251,-4.84847,11.47941,0.54827,0.55737,-0.6085,0.79112,-0.76468,2.08743
1094,-29.03487,-4.51721,-29.61384,66.91764,11.90751,0.23718,18.11747,-4.0224,-76.5776,52.72,12.28196,-3.64793,-1.86666,0.18857,-2.18851,2.01339,-15.70923,1.63124,55.53671,-67.7811,-120.08792,-55.17148,-18.58668,40.98802,7.90356,16.46537,2.54649,22.71616,-23.59543,23.65777,5.55574,0.43608,-4.0027,11.7474,-6.15046,9.89958,0.46753,0.48049,-0.57183,0.83009,-0.93591,1.98905
1095,-25.97286,-2.69377,-15.55512,59.89272,8.50323,1.04538,16.03282,-5.97934,-30.79423,33.81533,7.86804,-2.47626,-1.38479,0.34877,-1.66152,-1.5088,-16.11508,1.76467,24.58189,-61.1895,-61.11042,-31.84851,4.54819,25.44685,10.18871,17.37943,-1.17636,17.45451,-21.36764,17.72516,6.5605,0.83512,-5.4187,10.59708,-6.53074,7.8507,0.65983,0.59876,-0.82381,0.82106,-1.19583,1.67319
1096,-29.36744,0.40319,-1.86252,52.5729,4.51817,2.00066,-10.28157,-1.5946,-0.61284,12.29773,-2.02347,-0.64924,-1.83254,0.00099,-0.35564,-5.03849,-16.68023,1.8026,-24.3878,-52.13507,-16.32371,-2.31289,32.12386,21.47118,11.56175,16.69314,-2.10338,13.21337,-15.00177,12.65187,8.5929,0.91846,-7.02195,8.73965,-5.12071,6.21529,1.03064,0.65554,-1.04575,0.72235,-1.05292,1.35526
1097,-33.11798,4.13062,9.05702,45.42773,2.77388,2.30349,-30.74317,5.36023,8.16757,-8.5834,-6.58266,0.61806,-2.26191,-0.46324,1.76218,-8.7467,-17.15516,1.90545,-60.39817,-42.92702,0.16258,18.95656,41.4893,26.32009,11.67175,14.4404,-0.96171,12.06602,-9.46354,10.26195,9.79942,0.27756,-6.74742,7.43643,-3.25107,5.35023,1.21415,0.45305,-0.86203,0.64404,-0.67451,1.18555
1098,-30.04193,6.13433,12.74154,40.69947,4.19615,1.95349,-23.21765,7.25969,1.60104,-15.35319,2.88369,2.10222,-1.8736,-0.44078,3.23742,-12.58257,-17.39062,2.12124,-50.59932,-28.95258,-3.46661,27.65993,19.5719,35.31026,9.7962,11.44586,1.2892,12.9057,-8.66304,9.75806,8.82137,-0.53502,-4.55622,7.15421,-2.71779,4.6685,1.01168,0.15092,-0.39266,0.61479,-0.45421,1.06288
1099,-23.3906,3.30588,5.21395,38.07393,6.30809,1.58143,-6.41753,0.68217,-11.96814,-8.15572,19.30594,3.99803,-0.88357,0.05446,2.24291,-16.33012,-17.44733,2.32049,-21.5543,-11.92942,-13.76113,34.33809,-18.50071,47.26376,5.2957,9.42439,5.78007,13.41978,-11.98014,9.51159,6.54117,-0.90479,-2.15425,7.53575,-3.70435,3.75379,0.68,0.02982,-0.09811,0.57948,-0.50978,0.84199
1100,-21.47686,-4.09759,-8.89296,36.02523,6.33811,1.65827,-7.88635,-8.82993,-24.54105,-0.35075,27.47877,4.73757,-0.17024,0.43445,-0.86644,-19.82606,-17.48533,2.27931,-18.81951,-2.98602,-23.73607,49.50636,-37.54131,51.44327,1.25262,9.69051,9.98716,12.09424,-16.26747,8.24188,4.89322,-0.84039,-0.97371,8.00594,-5.42919,2.5232,0.53135,0.10501,-0.14443,0.53983,-0.7975,0.50131
1101,-23.52421,-9.002,-15.9637,34.21785,3.56744,2.32007,-19.70582,-10.37967,-21.494,2.81322,18.91812,3.79219,-0.04113,0.36551,-3.21016,-23.02902,-17.63951,1.88636,-31.52322,-10.04342,-22.26872,62.12371,-25.20121,36.12297,2.40997,11.49669,9.05807,9.31049,-19.39725,5.89904,5.11714,-0.87853,-1.08072,8.05083,-7.17494,0.99983,0.64711,0.15647,-0.28782,0.56549,-1.23417,0.15446
1102,-24.15724,-4.59758,-9.87311,33.36459,0.60178,3.18866,-19.91264,0.24266,-1.26581,7.02007,1.19408,2.77847,-0.17145,0.22941,-2.68995,-26.08283,-17.82115,1.34775,-23.22923,-27.59843,-8.78278,53.75972,-6.79755,9.84071,8.09321,12.84182,4.14362,5.84597,-20.02359,3.20955,6.84127,-1.48788,-1.40278,7.30033,-7.98606,-0.3968,0.93765,0.01238,-0.25485,0.66183,-1.55292,-0.02425
1103,-22.00913,6.18654,1.34657,34.00124,1.02585,3.54051,-3.59277,13.77059,16.65441,13.33363,-9.51227,2.52057,-0.12353,0.45715,-0.23859,-29.23202,-17.73904,0.96585,7.26898,-45.03458,-0.10802,29.02654,-6.55792,-7.27276,12.67513,12.87724,1.02921,1.71782,-18.23329,0.92321,8.17508,-2.47029,-0.64512,5.84168,-7.37497,-1.16687,1.13253,-0.26315,0.00989,0.7197,-1.50956,0.00497
1104,-16.88133,12.35967,6.55112,35.02472,4.3334,3.05595,20.85312,15.56983,11.48731,14.76665,-5.36711,1.85493,0.54542,0.80679,1.63094,-32.4826,-17.29274,0.68899,34.77627,-56.44581,-11.50079,9.40242,-18.76317,-9.47027,13.21785,11.82703,1.0409,-1.97406,-16.76412,-0.1806,7.50967,-3.02951,1.21122,4.44637,-6.33894,-1.37657,0.96323,-0.43539,0.32831,0.67258,-1.2573,0.10646
1105,-10.39251,7.57076,3.85295,36.27194,6.29956,2.33954,32.66568,2.66309,-14.71091,14.10766,8.61809,1.17226,1.53576,0.72015,1.69575,-35.42845,-16.7423,0.15523,41.24652,-53.4866,-36.58314,3.19901,-26.0196,-6.32116,11.50705,9.73335,0.69384,-2.85271,-16.72105,0.11696,5.46254,-2.65348,2.39709,3.71104,-5.76075,-1.36925,0.54772,-0.36183,0.41345,0.54844,-1.04564,0.15108
1106,-6.83094,0.62899,0.5377,38.55306,4.27101,2.26731,18.90602,-8.77885,-29.39622,22.36069,19.85084,2.64648,1.94876,0.35177,0.89994,-37.84459,-16.34948,-0.78383,34.54375,-31.04782,-43.42323,1.81256,-23.33026,-3.01734,9.39424,7.41936,-0.673,-0.12547,-15.54715,1.02337,4.10336,-1.78793,1.51819,3.44515,-5.19843,-1.23755,0.33001,-0.14756,0.17455,0.37967,-0.84712,0.10617
1107,-6.26492,1.96377,0.41711,40.17054,1.13259,2.59424,3.60208,-5.37675,-10.94049,36.8751,22.68941,6.1166,1.82781,0.21036,0.39828,-40.1577,-15.98797,-1.77262,43.22519,-2.23276,-13.21281,2.48204,-16.21485,1.50197,7.18406,6.49537,-0.68839,3.57034,-13.01159,1.51884,4.14259,-1.2191,-0.34912,3.47638,-4.50774,-1.12835,0.45698,-0.00552,-0.11246,0.23655,-0.65057,-0.00703
1108,-4.97938,7.24891,0.81057,41.30839,2.01548,2.52789,16.87025,2.9362,17.91188,50.50974,26.30299,9.70238,1.98017,0.18308,0.32702,-42.64326,-15.34914,-2.38989,84.59708,12.73731,27.06969,12.51273,-9.65454,3.97271,5.85489,7.11918,0.43324,4.55811,-12.98417,1.32925,4.45235,-1.16435,-1.08162,4.08863,-4.57595,-1.38957,0.61239,-0.01482,-0.14941,0.26815,-0.68617,-0.14986
1109,-1.7312,6.76963,0.34955,44.3005,7.32146,1.98865,51.2489,-1.55947,21.15381,62.9271,38.9744,12.19129,2.68147,-0.04024,0.4879,-45.123,-14.39638,-2.65447,136.41893,4.04543,32.327,29.06098,-6.13628,2.56349,6.0749,7.87425,1.3314,2.58169,-15.69938,0.85391,4.30019,-1.41481,-0.0041,5.11044,-5.34005,-1.8109,0.60437,-0.11161,0.05419,0.51233,-0.97195,-0.21875
1110,1.96139,0.86476,0.52854,48.42821,11.63766,1.64907,72.4157,-17.78508,-3.77102,73.89089,52.02502,12.9224,3.48467,-0.25886,0.7684,-47.50939,-13.39581,-2.88775,158.62421,-21.38404,-4.92737,36.41925,-7.63525,1.94209,6.59932,8.00506,2.52132,-0.22306,-16.21054,0.13793,4.19096,-1.74939,1.68542,5.12512,-5.4755,-1.94898,0.59753,-0.21733,0.27537,0.68294,-1.14976,-0.18833
1111,5.48264,-1.47928,1.03468,50.88747,9.25823,2.29962,64.62343,-25.17383,-22.94423,80.61222,46.04418,11.53271,3.87294,-0.09971,0.95058,-49.81472,-12.58427,-3.29236,145.10388,-44.32087,-39.62003,31.62561,-11.84758,3.24109,6.79826,8.26532,3.5607,-2.50656,-12.31171,-0.91186,4.53886,-1.96708,2.32788,3.26657,-4.46014,-1.86219,0.67282,-0.24851,0.28862,0.51629,-0.99931,-0.17918
1112,9.32772,3.38316,-0.53446,50.58061,2.14388,3.77864,46.89194,-10.71829,-9.44341,78.98504,18.81564,8.39365,3.78827,0.20764,0.7789,-52.0741,-11.83637,-3.68321,125.00837,-48.7592,-28.56664,30.34426,-11.57304,2.90843,6.9057,9.58205,3.34649,-3.67505,-7.78927,-1.64341,4.84924,-1.91323,1.51367,0.92467,-3.16763,-1.76971,0.61415,-0.14586,0.03735,0.16489,-0.66768,-0.22535
1113,12.67728,8.20538,-3.56101,49.08255,-1.47872,4.95865,42.4742,10.38228,20.56848,70.69296,-5.93533,5.06436,3.52842,0.00693,0.27715,-54.49482,-10.955,-3.76259,121.24428,-42.75217,10.88132,38.31511,-5.28053,2.02205,5.79892,11.44863,3.4335,-4.0672,-6.3112,-1.44803,4.605,-1.63224,0.26276,-0.16231,-2.34905,-1.59797,0.34561,0.01746,-0.26709,-0.07079,-0.37098,-0.21638
1114,14.48805,6.12916,-4.39141,49.1695,1.03714,5.35429,54.05898,11.72145,31.07587,68.23924,-11.1138,3.74858,3.50946,-0.81175,-0.20303,-57.09731,-10.18809,-3.61862,137.0719,-55.3739,26.20511,41.72314,-0.99238,3.61376,3.28847,11.91413,4.96068,-4.95579,-6.89076,-0.82081,4.07534,-1.35273,-0.31699,-0.10157,-1.84876,-1.25616,0.16788,0.08343,-0.32616,-0.14091,-0.15542,-0.12084
1115,15.75598,1.36491,-2.90356,50.82235,5.79438,5.39491,65.94812,-5.25187,17.43114,73.81334,-0.50541,5.54316,3.92398,-1.41307,-0.27303,-59.51921,-9.80054,-3.43997,152.47847,-81.34602,7.91618,33.91287,-4.58023,4.50672,2.19726,9.14839,4.72185,-5.69345,-7.55877,-0.48886,3.71188,-1.21078,-0.30712,0.27595,-1.60495,-1.06517,0.29735,0.01014,-0.13277,-0.14192,-0.05875,-0.07331
1116,17.56936,2.29236,-3.63512,51.24763,9.61154,5.49632,61.82705,-10.2778,6.21735,71.95747,14.47304,8.90167,4.28559,-0.87654,0.09103,-61.47637,-9.6459,-3.13974,139.30052,-74.86101,-5.12551,28.46308,-8.45813,-1.43249,4.83686,3.52487,-0.82754,-3.37917,-7.92509,-0.1873,3.52398,-1.18263,-0.75508,1.15377,-1.81157,-1.11756,0.55708,-0.09691,-0.00144,-0.01119,-0.18677,-0.11101
1117,17.96029,7.70362,-7.40914,48.90176,12.37562,5.67177,46.12677,5.62491,8.99567,54.77045,27.54678,11.41851,3.90044,0.47669,0.48619,-63.25316,-9.52369,-2.58402,99.84949,-29.99121,4.96258,35.49791,-3.18862,-14.58202,9.60509,-1.77399,-9.27941,0.74416,-7.92045,0.2207,3.36934,-1.25326,-1.87084,2.32267,-2.23212,-1.19342,0.68086,-0.15551,-0.10443,0.26074,-0.47216,-0.15897
1118,13.65044,10.52756,-9.62031,45.28761,15.14496,5.78674,39.05064,16.34441,13.11385,34.38646,39.65471,12.73473,2.83477,1.38933,0.5676,-65.39274,-9.51462,-1.85868,67.02623,1.80552,17.00874,43.52368,4.29209,-25.92139,12.39056,-3.02489,-13.1103,0.11614,-7.72584,-0.17683,3.35105,-1.41438,-2.12072,2.04001,-2.37448,-1.5118,0.64803,-0.18095,-0.19168,0.33273,-0.60947,-0.26258
1119,6.98583,9.72265,-9.06386,42.28444,17.94421,5.87207,49.57563,8.83791,12.15165,24.22632,50.61056,13.57481,2.01495,1.27077,0.39575,-67.94296,-9.81953,-1.13817,63.15924,-5.71594,16.97872,38.50432,0.97803,-24.06709,10.25007,0.44679,-7.74629,-6.85305,-7.58873,-1.61931,3.41178,-1.4789,-0.42449,-0.17098,-2.12734,-2.18538,0.58599,-0.19681,-0.02008,-0.0046,-0.43891,-0.4436
1120,5.88389,8.40499,-9.02607,39.23729,20.32587,5.97128,65.55339,1.61639,11.74865,22.53159,57.75221,13.8936,2.2259,0.62296,0.24058,-70.28737,-10.46828,-0.44356,76.65997,-19.50729,12.92489,24.76485,-12.47717,-9.77407,4.91127,5.36655,1.6909,-12.41659,-6.36867,-2.75904,3.15451,-1.26415,1.64748,-1.95006,-1.70519,-2.40068,0.51508,-0.1831,0.19496,-0.37479,-0.1897,-0.51943
1121,12.6668,6.46058,-9.61767,34.69461,22.13567,6.03377,72.63361,5.44891,13.27889,20.56968,60.19659,13.42131,3.23935,-0.02868,0.27902,-71.59486,-11.32914,0.27231,83.0423,-15.01953,11.25004,16.75922,-24.31017,3.3765,1.46796,7.81347,5.92609,-10.15664,-3.4649,-2.42629,2.66375,-1.04989,1.82774,-1.39864,-1.30499,-1.56841,0.39551,-0.14772,0.16024,-0.35789,-0.15156,-0.36876
1122,20.03801,3.49363,-8.87006,28.80481,24.02227,6.05823,70.76569,10.6379,14.38417,13.93454,62.31604,13.31287,4.08919,-0.5376,0.48287,-71.48343,-12.17555,1.07585,73.43205,-2.49108,12.89823,22.29872,-26.33529,6.74712,1.62651,7.21063,3.8631,-3.65907,-1.83255,-1.1019,2.53448,-1.23914,0.33564,0.33506,-1.11128,-0.62998,0.26994,-0.13847,-0.00992,-0.08943,-0.25979,-0.18124
1123,21.59116,1.79805,-7.83822,22.45858,26.51141,6.1771,69.57452,9.85882,15.02837,2.61272,67.68927,14.78693,4.14102,-0.74838,0.65067,-70.28221,-12.85105,2.06318,58.018,5.25312,19.00192,34.18547,-21.80756,3.12246,2.89672,5.55646,1.24504,-0.23589,-3.82026,0.04854,2.90403,-1.62439,-0.82553,1.2825,-1.01362,-0.57771,0.22398,-0.15043,-0.07127,0.05114,-0.20752,-0.12326
1124,18.89679,2.04882,-7.68793,15.618,28.53695,6.37217,73.96338,3.76517,15.60756,-14.21469,71.49199,16.01136,3.65707,-0.61492,0.65857,-68.52378,-13.40547,3.17248,45.08297,1.22681,26.72097,33.51014,-16.36845,-3.39041,4.01251,3.824,-0.13432,-1.11094,-6.19086,0.58811,3.00124,-1.52883,-0.61418,1.15837,-0.58897,-0.81397,0.21656,-0.10675,-0.0075,-0.01934,0.07042,-0.09934
1125,15.62959,2.44499,-7.25767,8.056,28.56434,6.301,78.034,-4.13129,15.84912,-38.99555,67.84605,13.44191,3.15031,-0.3787,0.59938,-66.36348,-13.93027,4.11225,25.14497,-14.86233,30.29418,15.09629,-8.26532,-9.59762,5.00292,2.02616,-1.87747,-2.30684,-4.70749,0.69109,2.23504,-0.78112,0.29081,0.68068,0.09332,-0.38268,0.1493,0.00914,0.08029,-0.11519,0.24632,-0.03685
1126,12.51165,2.25235,-5.96268,1.36747,26.29649,5.76788,74.54692,-9.04464,15.21298,-67.47264,58.27699,6.86239,2.77197,-0.24582,0.59315,-63.51849,-14.49817,4.57614,-9.79035,-33.29454,27.52409,3.81463,0.88323,-12.49325,4.84447,0.87964,-3.21289,-2.82307,-1.35507,0.11924,1.32145,-0.13163,0.39714,-0.11695,0.14699,-0.00304,0.07835,0.10339,0.0825,-0.19426,0.04356,-0.13845
1127,10.71376,2.84895,-5.80726,-2.20889,23.71684,5.00534,69.49232,-5.07026,14.49511,-87.76215,50.48175,0.85767,2.53765,-0.07804,0.65046,-59.61614,-15.11608,4.58771,-40.06173,-35.79052,24.2028,21.1095,0.00891,-13.45185,3.70578,1.12339,-3.03405,-5.42924,-1.66342,-1.34563,1.52293,-0.38206,-0.98926,-1.22314,-1.00535,-0.97401,0.16321,0.09024,-0.07364,-0.32092,-0.39833,-0.52963
1128,12.55971,4.99701,-8.10698,-3.62114,22.81629,4.23232,76.38343,7.62099,15.66184,-98.49062,49.12879,-1.23287,2.493,0.347,0.76124,-54.72289,-15.63836,4.40872,-45.6113,-16.87584,27.95141,48.40814,-13.61586,-14.34878,3.40931,2.16534,-2.5048,-9.17035,-6.01297,-2.52372,2.75468,-1.32926,-2.70343,-1.30349,-2.40151,-2.46633,0.39034,-0.02475,-0.29536,-0.29456,-0.6845,-0.81131
1129,16.8525,7.15299,-10.60999,-5.15362,22.91357,3.45485,93.17949,16.27237,18.14437,-109.83208,51.85255,-0.73431,2.58556,0.92541,0.94078,-49.31496,-15.8832,4.12651,-41.48273,-0.0847,37.50662,50.98347,-23.36063,-13.49547,4.31233,2.25866,-2.97419,-9.2193,-9.01228,-1.98203,3.50284,-2.06373,-3.19033,0.06738,-2.43466,-2.55234,0.53287,-0.16834,-0.3925,-0.03181,-0.51484,-0.55516
1130,19.53946,7.78858,-10.90607,-6.56974,21.988,2.65435,103.04196,10.70284,18.99412,-122.99139,54.69394,0.16883,2.70061,1.31086,1.12493,-43.81585,-15.86024,3.5814,-51.13299,-6.42381,44.76057,28.28086,-17.13967,-10.71904,4.81179,0.85554,-3.66489,-4.59852,-6.79073,-0.4823,2.87381,-2.03398,-2.22069,1.27951,-1.11173,-1.195,0.42825,-0.2502,-0.29848,0.1792,-0.0586,-0.00387
1131,19.05416,7.56652,-9.87051,-6.32221,20.34392,1.69997,98.07555,0.62767,16.88683,-127.29153,58.934,1.2692,2.72887,1.31699,1.15607,-38.47875,-15.69804,2.66916,-68.44766,-17.39755,44.80334,12.24257,-9.04028,-8.55102,3.66744,0.08435,-2.38944,-0.45829,-0.4385,-0.19196,1.66182,-1.43058,-0.63293,1.19548,0.14022,0.14781,0.18762,-0.22439,-0.11842,0.17898,0.17315,0.2606
1132,17.27529,7.94689,-9.51575,-4.58284,19.36288,0.41532,86.69733,2.14061,13.23217,-117.49265,66.02599,2.59541,2.63923,1.04157,0.99167,-33.53929,-15.39085,1.43559,-71.98046,-3.65369,39.37324,17.69147,-14.9333,-7.93425,1.74347,1.53198,0.73374,-1.35508,6.08595,-1.51463,1.16975,-0.88744,0.37848,-0.02361,0.75869,0.73994,0.07467,-0.13925,-0.00446,0.01889,0.09025,0.10141
1133,15.60316,9.37375,-10.15543,-2.44022,17.40554,-0.98788,78.06967,14.52765,9.6116,-98.91108,68.09164,2.99503,2.46796,0.69094,0.74758,-29.19483,-14.79024,-0.07586,-55.99561,24.59647,31.61467,28.55115,-27.92418,-7.99818,0.86672,3.03257,2.49504,-5.0243,8.71782,-2.56843,1.50039,-0.77094,0.2594,-1.19081,1.11481,0.83064,0.1438,-0.07123,0.02268,-0.14593,0.03567,-0.11964
1134,12.28445,10.60292,-10.20977,-0.346,12.74293,-2.21411,69.49277,21.44082,6.69927,-81.12912,58.88865,1.7837,2.11973,0.25996,0.46336,-25.51197,-13.78585,-1.79767,-39.59662,31.24364,23.66593,34.15516,-35.03931,-8.13745,1.00322,1.96156,1.31422,-6.75259,6.42158,-1.9511,1.56796,-0.77872,-0.39456,-0.98617,1.34295,0.84396,0.18215,-0.03462,0.03871,-0.11738,0.15516,-0.06282
1135,5.10689,9.04595,-7.77442,1.24671,7.34859,-3.40349,53.89022,10.39111,5.74034,-73.06686,45.96528,-0.36831,1.4638,-0.56403,0.06723,-22.47518,-12.46071,-3.60614,-47.36085,1.98121,18.684,41.19221,-32.99847,-8.15908,0.58054,-0.1983,-0.41639,-6.02536,1.87413,-0.46016,0.87605,-0.60803,-0.89115,0.3784,1.27806,0.86309,0.09381,-0.01889,0.02191,0.09887,0.3026,0.21419
1136,-1.23768,5.85797,-3.80242,2.23418,4.18678,-4.79936,37.73434,-7.3789,6.72465,-75.08568,40.05033,-2.51579,-1.23977,0.61746,-0.22055,-19.98593,-10.94254,-5.35224,-70.9995,-33.07684,17.10986,48.30231,-22.32033,-8.65828,-0.58081,-0.56807,-0.64707,-4.70003,-1.87795,0.41144,0.06898,-0.41577,-1.18974,1.49615,0.74007,0.5982,-0.02925,-0.01908,-0.09423,0.27987,0.28225,0.36549
1137,-9.13357,0.27517,1.00046,2.79675,2.93215,-6.38513,20.11161,-24.95033,9.40547,-80.37492,38.86213,-5.4923,-3.67392,1.1953,-0.69406,-17.96581,-9.31493,-6.94867,-97.63542,-58.98285,15.49003,45.38058,-7.64776,-11.28288,-0.88309,0.30964,-0.63469,-3.63174,-4.39787,0.22671,-0.1323,-0.47329,-1.54205,1.45892,-0.41556,-0.22461,-0.09466,-0.02233,-0.24424,0.23848,0.01336,0.17052
1138,-12.30808,-1.49384,3.20764,2.60725,0.55008,-7.98804,11.76861,-27.25618,10.44125,-85.65577,30.63101,-11.34813,-6.28824,3.50978,-0.94338,-16.50491,-7.82511,-8.46773,-109.92716,-66.63992,7.50687,35.74121,-0.25572,-15.92758,0.35614,0.44783,-1.51108,-3.66975,-5.4851,-0.52905,0.40384,-0.80375,-1.85481,0.40672,-1.60474,-1.11233,-0.04296,-0.03239,-0.2767,-0.04113,-0.32188,-0.21705
1139,-7.32546,1.70309,1.95496,1.40741,-2.70694,-9.42877,16.50423,-15.1744,8.32511,-92.13116,17.02261,-18.08995,-8.77149,7.66487,-0.9305,-15.69787,-6.70621,-9.91055,-109.87782,-59.10427,-4.51927,30.84742,-6.15144,-18.60445,1.63102,0.04838,-1.88971,-5.25138,-4.51382,-1.38725,1.12104,-1.05043,-1.64592,-0.49159,-2.01972,-1.36126,0.0921,-0.04825,-0.14943,-0.32013,-0.49062,-0.47717
1140,4.22631,4.68045,-0.13544,-0.51495,-3.28721,-10.64997,30.68366,-3.79571,5.86511,-100.51495,14.1342,-20.46343,-11.17581,12.67202,-0.90239,-15.47238,-5.96502,-11.11381,-103.54073,-40.66832,-9.9486,32.12363,-15.11184,-15.54115,1.91361,0.03208,-1.11922,-6.06069,-2.98442,-1.86428,1.38547,-0.91763,-0.85078,-0.04082,-1.81705,-1.1117,0.18128,-0.04774,0.00889,-0.27569,-0.49589,-0.4672
1141,14.8681,3.90757,-0.5296,-2.54471,-1.46731,-11.64079,42.49068,-5.09111,6.03627,-110.78234,24.12428,-18.23379,-13.9518,17.76827,-1.22268,-15.54932,-5.52425,-12.01921,-101.09287,-26.07306,-5.46182,32.70628,-11.56765,-8.26187,2.13443,-0.00216,-0.99963,-3.79746,-2.06862,-1.21178,1.20839,-0.67929,-0.31891,0.87483,-1.08697,-0.60472,0.15799,-0.03524,0.02885,-0.03144,-0.31535,-0.25433
1142,17.89347,3.12612,-0.01286,-4.48164,-0.55601,-12.30824,42.50188,-12.12527,6.88363,-124.12814,32.78751,-15.97002,-17.36829,23.11406,-2.03125,-15.47411,-5.22791,-12.67317,-114.30228,-23.00442,0.75985,28.70162,0.47212,-1.3475,2.54819,0.20694,-1.65094,-1.04621,-1.68129,0.10586,1.08924,-0.75511,-0.60622,0.52332,0.01862,-0.12248,0.11847,-0.05112,-0.09772,0.00466,0.02913,-0.06163
1143,13.05979,6.49736,-0.29678,-7.02093,-0.4196,-12.7145,32.07766,-10.77567,5.09616,-140.54506,36.19053,-15.36922,-21.21076,28.99299,-3.19961,-15.03804,-5.0202,-13.0763,-143.96277,-14.75379,2.72328,24.99016,-0.63247,1.70332,2.00522,2.37126,-0.3413,-2.225,-1.24383,0.45488,1.37344,-1.02726,-0.84356,-0.69267,0.75106,0.05723,0.18681,-0.1036,-0.16005,-0.16987,0.25706,-0.03836
1144,5.24378,12.08042,-1.04047,-10.30553,2.07726,-13.14042,19.32111,0.09488,1.8811,-153.25357,44.23212,-14.22574,-25.01418,35.23104,-4.53647,-14.57502,-5.15004,-13.21719,-172.87334,13.05058,3.01256,30.07904,-21.29001,-1.80527,0.58517,5.40281,2.61618,-5.77235,-0.55439,-0.49336,1.69664,-1.08876,-0.38782,-0.76958,0.49023,-0.00278,0.26716,-0.12272,-0.03207,-0.18401,0.1241,-0.09457
1145,-0.96913,15.69434,-1.12679,-12.62943,7.23547,-13.61774,9.82532,9.99936,0.83133,-152.08308,57.99084,-11.86621,-28.46477,41.52114,-5.96563,-14.45578,-5.80492,-13.14866,-180.23807,44.80545,4.05316,40.29877,-42.72411,-9.74006,-0.29897,4.96246,2.73649,-5.41728,-0.56578,-1.25813,1.30037,-0.92975,-0.39446,1.0318,-0.62809,-0.16986,0.14665,-0.05877,0.04673,0.11253,-0.27688,-0.11126
1146,-4.79021,17.03709,-0.81086,-13.25719,11.66181,-13.92531,0.94336,14.27093,2.01406,-139.71661,67.47421,-10.35785,-31.58823,47.68461,-7.5536,-14.70336,-6.82864,-13.00961,-171.61977,60.80473,3.37842,38.89858,-49.03704,-11.21134,-0.12033,0.41546,-1.27352,0.10658,-1.72062,-0.66057,0.22472,-0.87829,-1.77534,3.378,-1.63101,-0.17742,-0.11896,0.01073,-0.18527,0.46581,-0.59986,-0.05823
1147,-7.18146,19.0327,-1.3472,-13.72643,13.5352,-14.01821,-10.84201,20.2697,1.58752,-130.94128,69.44052,-10.4109,-34.52287,53.60349,-9.30721,-15.12452,-7.93772,-12.93832,-170.58984,68.85522,-1.91998,20.64554,-42.81107,0.74065,0.45953,-3.26687,-4.91173,4.48185,-3.35652,0.70821,-0.4715,-1.0463,-3.21968,4.36424,-1.7172,0.06576,-0.21839,-0.02617,-0.5452,0.54011,-0.58385,0.02716
1148,-8.18433,21.70638,-2.85617,-15.10671,14.80776,-13.95279,-19.10583,31.09199,-2.08434,-133.04416,69.78426,-10.04011,-37.27187,59.10843,-11.07569,-15.391,-8.90585,-12.93894,-178.96333,82.36082,-9.49208,4.00018,-32.88764,16.52246,0.69597,-2.25298,-3.90115,2.80629,-3.99456,1.35725,-0.05637,-1.15554,-2.83844,3.394,-0.97215,0.31117,-0.03016,-0.13756,-0.59225,0.3001,-0.26774,0.08323
1149,-8.14625,21.13197,-3.83806,-16.82083,17.83648,-13.76096,-16.46241,36.97984,-5.42371,-140.57321,74.61584,-7.36325,-39.76897,63.92248,-12.75258,-15.22499,-9.61506,-12.9093,-179.757,97.18929,-11.31246,7.89605,-27.97842,20.84135,-0.25006,1.67247,0.6098,-2.52703,-2.27033,0.54533,0.79184,-0.99528,-1.1449,1.5438,-0.0379,0.34834,0.19332,-0.17485,-0.26305,0.00985,0.05854,0.05914
1150,-8.23672,16.6863,-3.6359,-18.75003,21.89943,-13.60582,-8.7296,34.79219,-5.71325,-149.23181,83.47383,-4.03773,-41.94521,67.73199,-14.28103,-14.75333,-10.09315,-12.81559,-174.63293,108.53879,-5.69351,27.86889,-37.22395,12.18085,-2.83073,4.52709,4.40607,-6.38327,0.78633,-1.04094,0.95698,-0.82189,-0.37969,0.37807,0.39149,0.17353,0.22306,-0.10462,0.06253,-0.07571,0.10307,-0.04274
1151,-9.05927,12.53849,-3.33179,-21.64086,24.38965,-13.67419,-6.32161,34.61244,-5.23272,-160.34172,89.73644,-3.74535,-43.72165,70.25049,-15.55314,-14.375,-10.40609,-12.75776,-179.76173,119.19526,-2.2346,42.6973,-59.81592,1.73785,-5.44404,4.52253,5.09186,-7.02816,1.57699,-2.03884,0.42482,-0.93067,-1.14828,0.55351,-0.12048,-0.20382,0.14825,-0.04313,0.1359,0.06951,-0.16426,-0.15153
1152,-9.41734,10.66254,-3.8495,-25.30019,24.3158,-13.9781,-6.47638,41.14711,-6.59332,-173.24406,90.11257,-6.79081,-44.99005,71.35269,-16.46857,-14.31349,-10.61183,-12.87469,-190.94542,129.88115,-6.50172,36.08596,-79.89759,-2.67013,-4.89342,2.32556,2.88527,-6.45702,-1.23843,-1.87287,0.06221,-1.08657,-1.8194,1.27466,-1.21306,-0.67779,0.12379,-0.03406,0.09897,0.21055,-0.4626,-0.20534
1153,-8.92279,9.15333,-4.70813,-28.83456,22.80107,-14.36778,-4.58502,48.92275,-9.29942,-185.54611,87.8525,-10.33107,-45.65849,71.16026,-17.03083,-14.55411,-10.75434,-13.16815,-198.38197,138.67552,-14.73847,11.97638,-84.18994,0.33323,-0.39133,0.74509,-0.02233,-5.75042,-4.03163,-1.04373,0.42571,-0.95943,-1.13134,1.71488,-1.74477,-0.79013,0.12229,0.00331,0.14091,0.18116,-0.48004,-0.16896
1154,-9.57189,6.12656,-4.7466,-31.03563,21.05451,-14.6415,-9.61972,53.35218,-11.84182,-194.95209,85.66151,-12.79012,-45.70356,69.90282,-17.33974,-14.93485,-10.81999,-13.49526,-212.25432,143.77577,-23.82073,-8.0632,-75.18473,10.13005,3.75907,2.83736,-0.72193,-3.58579,-3.6622,-0.08842,1.01289,-0.73173,-0.00602,2.17611,-1.164,-0.23348,0.02531,0.08614,0.1769,0.13045,-0.23472,-0.03126
1155,-12.55756,1.34921,-3.43241,-30.48277,19.9494,-14.69824,-29.66653,53.55342,-13.31413,-195.69608,84.66146,-13.37936,-45.12613,67.81326,-17.46662,-15.21081,-10.81559,-13.7633,-237.34947,145.394,-31.52146,-3.44348,-62.38244,18.67108,3.7561,7.62156,0.99995,-1.014,-1.67081,0.66271,1.06006,-0.70185,0.23533,2.72339,-0.26555,0.54473,-0.14056,0.13216,0.08857,0.17178,-0.05831,0.10798
1156,-15.96498,-4.11173,-1.4023,-28.16601,20.06307,-14.63735,-54.66571,50.85435,-13.36426,-186.52943,86.44435,-11.40643,-43.89173,65.11649,-17.32178,-15.28373,-10.82163,-14.00774,-257.24741,146.88121,-33.80933,23.30005,-54.33286,15.73249,1.8107,10.19306,2.28419,-1.795,-0.59154,0.66529,0.80919,-0.91827,-0.232,2.42399,0.01994,0.85432,-0.17366,0.06991,-0.05474,0.16085,-0.13895,0.12027
1157,-16.7573,-8.22696,0.00762,-28.59945,20.93694,-14.71044,-64.93528,49.50873,-12.25633,-182.02121,90.45793,-9.37466,-42.06393,62.01146,-16.73475,-15.35747,-10.86398,-14.28056,-263.24387,150.21906,-30.17303,45.1422,-58.16049,7.59699,0.91644,8.57208,1.93279,-5.92356,-0.4673,-0.28351,0.78667,-1.2188,-0.67446,1.06593,-0.30424,0.5753,-0.01107,-0.08304,-0.1867,0.01697,-0.32426,0.02591
1158,-13.89274,-10.30877,0.15202,-33.81871,20.59737,-15.11519,-53.80846,51.14978,-10.8914,-191.64717,91.33884,-10.7092,-39.96939,58.62864,-15.70389,-15.61824,-10.89294,-14.67785,-258.285,150.00171,-26.32021,41.66232,-73.34538,11.67762,0.5615,7.09141,2.08786,-7.16511,-0.33608,-1.13649,0.9702,-1.25297,-0.58788,0.49205,-0.72971,0.26152,0.17107,-0.23181,-0.27809,-0.02552,-0.4161,-0.01521
1159,-9.3164,-11.89705,-0.25913,-39.39587,18.32853,-15.65518,-36.72353,51.63252,-10.80871,-200.22931,86.02881,-13.12968,-37.99464,55.023,-14.43695,-15.93694,-10.81244,-15.26357,-242.73589,141.91214,-27.21902,24.74645,-88.2468,28.37295,0.29678,8.96188,3.68975,-0.99051,-0.45097,-0.589,1.28012,-0.95035,0.14043,2.14647,-0.99962,0.30727,0.25413,-0.29472,-0.23413,0.19448,-0.38196,0.06507
1160,-5.97646,-13.60855,-0.32221,-40.88194,16.9148,-15.88222,-32.60504,48.58161,-12.44284,-194.31416,81.19485,-11.88552,-36.23407,51.22534,-13.14717,-16.12505,-10.54917,-15.85654,-227.56857,133.55042,-30.21848,18.71003,-91.79459,37.53511,0.2099,9.58367,4.1507,7.3901,-1.89084,1.0389,1.54738,-1.06917,0.44842,4.38857,-1.25032,0.37976,0.29908,-0.28516,-0.07762,0.42285,-0.29925,0.13135
1161,-5.20927,-14.52646,0.16885,-40.01482,17.14,-15.9033,-42.66805,45.07413,-13.61471,-182.8815,80.60249,-9.14378,-34.55096,47.34105,-11.95102,-16.25543,-10.19777,-16.30025,-229.2648,130.49506,-31.60052,25.84901,-83.23803,27.94842,-0.05367,4.39293,1.78328,9.20093,-4.44979,2.16996,1.55433,-2.21843,-0.54608,4.73246,-1.60456,0.08427,0.34271,-0.25868,0.01424,0.36511,-0.25544,0.04983
1162,-5.44639,-15.51151,1.13189,-40.47702,16.20837,-16.20256,-53.07164,41.54491,-11.94814,-175.97067,79.62198,-9.20734,-32.83152,43.5719,-10.85835,-16.46827,-9.75877,-16.64566,-238.81483,125.77049,-30.38443,29.74589,-70.07259,13.15625,0.26434,-1.1765,-0.94738,4.05079,-5.79576,1.90151,1.43421,-3.34681,-1.63532,3.37035,-1.72101,-0.2731,0.3022,-0.19496,-0.00254,0.13023,-0.27493,-0.0995
1163,-4.50224,-17.51605,2.20328,-42.04136,13.54255,-16.67744,-54.03775,36.86946,-8.50765,-171.0428,76.41899,-10.34558,-31.07053,40.15976,-9.79012,-16.68792,-9.02273,-16.90829,-235.38696,115.92536,-26.12691,26.33793,-62.01498,9.42822,2.1551,1.55385,-0.83927,-1.43627,-4.03234,0.59601,1.6133,-2.95654,-1.15821,2.22116,-1.26032,-0.17949,0.20942,-0.08229,0.00817,0.03501,-0.3223,-0.13352
1164,-2.66044,-19.17144,2.8722,-42.55486,12.17524,-16.71917,-49.49991,33.61285,-6.49899,-164.62468,73.60322,-9.65078,-29.33483,37.22916,-8.69445,-16.81413,-7.89518,-16.94018,-220.83788,107.94407,-21.64146,28.02218,-62.27341,14.38446,3.29455,11.02357,1.87626,-3.24078,-0.55692,-0.67589,1.85597,-1.29992,0.25454,2.11651,-0.51098,0.31103,0.17628,0.02639,0.09037,0.16332,-0.32773,0.00113
1165,-0.78153,-19.31763,2.98723,-41.76387,13.15737,-16.24936,-46.3577,33.86704,-7.14657,-157.97107,68.94168,-9.49119,-27.68053,34.65881,-7.56658,-16.89887,-6.58974,-16.70208,-209.15038,104.0843,-24.04423,35.57855,-64.21346,18.57522,0.05966,17.20234,4.3079,-2.64126,1.10844,-0.95468,1.42309,-0.20896,0.54345,2.4168,-0.14344,0.67123,0.21489,0.04396,0.08511,0.31551,-0.24593,0.17024
1166,0.96116,-18.8953,2.90805,-40.89627,14.0786,-15.82175,-46.90406,34.74817,-9.04113,-152.15233,59.47419,-12.36776,-26.20822,32.18757,-6.47043,-17.04532,-5.37715,-16.38958,-205.27957,98.73528,-34.81158,32.80294,-64.77585,22.73358,-4.20089,15.55854,4.69158,-2.08278,0.07017,-0.43839,1.08234,-0.69566,-0.2226,2.31572,-0.31876,0.5733,0.37385,-0.09094,-0.01778,0.29948,-0.12763,0.19987
1167,2.03758,-19.08424,3.05599,-41.15881,13.7327,-15.6622,-50.19492,32.05778,-10.21271,-148.23358,51.03967,-15.28337,-25.04335,29.69718,-5.53013,-17.30705,-4.24442,-16.10753,-208.0493,90.40619,-43.57608,15.81529,-68.36278,29.12182,-1.95302,10.4707,3.51998,-1.71133,-0.81674,-0.16638,2.28568,-1.91289,-0.17781,1.795,-0.41469,0.26317,0.67009,-0.31585,-0.03032,0.13359,-0.04786,0.07212
1168,2.42522,-19.62897,3.37454,-42.73013,13.15532,-15.48919,-51.46307,26.83562,-9.60672,-147.97105,50.13241,-14.92666,-24.13473,27.34344,-4.78714,-17.61268,-3.02126,-15.74401,-212.03464,84.2811,-40.92524,3.99435,-70.98152,29.75229,6.13916,6.36086,1.91602,-0.81172,0.44879,-0.52164,4.29813,-2.7621,0.94952,1.39726,0.02252,0.17534,0.88039,-0.49296,0.07785,-0.03468,-0.02417,-0.0698
1169,3.21682,-20.03966,3.55305,-43.9271,12.91414,-15.05514,-44.44995,23.48078,-7.43032,-148.59425,52.44293,-12.92154,-23.25977,25.36684,-4.17092,-17.77232,-1.67244,-15.18854,-203.79605,82.38427,-30.64776,10.27354,-63.05023,19.96679,12.73561,4.0906,0.8568,-0.51097,2.28978,-0.94351,5.44704,-2.98284,2.04313,1.30935,0.63309,0.34776,0.88142,-0.52963,0.22759,-0.11195,-0.03687,-0.11483
1170,4.38143,-20.52396,3.60539,-42.64459,12.37072,-14.37052,-31.91135,23.00281,-5.06087,-143.86569,48.43492,-12.70092,-22.29808,23.8289,-3.66006,-17.71496,-0.3289,-14.47509,-178.35791,78.31573,-24.12394,20.06737,-49.399,9.94177,14.23999,2.82503,0.54452,-1.67101,2.3381,-0.80245,5.43698,-2.92962,2.44012,1.28058,0.86976,0.47733,0.83561,-0.47123,0.36319,-0.08454,-0.04935,-0.07594
1171,4.30642,-21.19566,3.80257,-38.69148,11.42173,-13.54246,-26.24547,23.29566,-4.04383,-130.93121,37.94385,-14.19942,-21.33288,22.57841,-3.32579,-17.57693,0.86234,-13.70598,-150.5457,69.14416,-26.94068,16.22886,-44.24716,9.56348,11.81993,1.78594,0.35177,-2.55064,0.55991,-0.14241,4.46553,-2.7463,2.06429,1.30169,0.54362,0.37958,0.76004,-0.38529,0.39934,0.05866,-0.05899,-0.00247
1172,2.39426,-21.55331,4.16464,-33.98198,10.9441,-12.70592,-33.48618,24.28301,-4.5001,-114.67107,30.77856,-14.75024,-20.4896,21.44279,-3.1978,-17.41394,1.86727,-12.94756,-138.31854,63.41558,-34.33929,4.76697,-49.24837,15.71324,7.83651,1.98039,0.02407,-1.60097,-1.34863,0.43779,2.79846,-2.08637,1.25913,1.50557,-0.15136,0.14748,0.50641,-0.23798,0.29084,0.27172,-0.09696,0.07049
1173,0.41667,-21.48843,4.41933,-30.71544,11.29087,-12.01405,-43.84512,25.54526,-4.89414,-104.37653,33.21762,-13.15904,-19.81282,20.35724,-3.18988,-17.11091,2.76368,-12.23213,-142.91386,66.496,-36.6301,2.43487,-53.63059,20.80689,4.5037,4.63993,0.0274,0.23454,-2.21905,0.65167,1.47127,-1.04481,0.63615,1.71954,-0.7131,0.01977,0.18232,-0.04632,0.12359,0.38293,-0.14901,0.10706
1174,0.74604,-21.86276,4.36805,-29.60669,11.32633,-11.5115,-43.82259,23.45128,-3.92926,-103.89677,38.57425,-11.20872,-19.29772,19.37804,-3.18389,-16.65522,3.6331,-11.57979,-149.14401,68.29959,-29.96206,14.77924,-50.03722,20.41979,3.16037,7.63385,0.62575,0.9298,-1.64808,0.56204,1.56907,-0.44988,0.57982,1.64545,-0.61944,0.19575,0.12328,0.05493,0.04159,0.25558,-0.13168,0.10248
1175,2.89606,-23.0234,4.15356,-30.14501,9.67013,-11.11798,-34.80388,17.85938,-2.22445,-108.82541,34.41374,-12.01152,-18.94077,18.6728,-3.17077,-16.233,4.45904,-10.96198,-147.53772,56.59264,-22.65408,31.65783,-40.2126,13.79912,4.17037,7.33701,1.28505,-0.66251,0.11823,0.13857,2.89251,-0.80903,0.9692,1.23568,0.0757,0.56604,0.39422,-0.02939,0.06833,0.00508,0.00035,0.09868
1176,4.05185,-23.89104,4.042,-30.64323,7.06432,-10.63859,-29.00656,14.24119,-1.22006,-111.5496,21.56862,-15.10454,-18.64295,18.37874,-3.20046,-15.86995,5.17095,-10.28392,-142.63232,38.32818,-22.52267,35.81934,-30.89088,7.60529,6.3687,4.33273,1.21096,-3.40697,0.96823,-0.2048,3.83564,-1.48246,1.29159,0.69898,0.36844,0.6976,0.59891,-0.22871,0.08364,-0.12665,0.05125,0.10742
1177,2.85183,-23.64224,4.09665,-29.05976,5.70317,-9.87989,-31.67933,15.5846,-1.45951,-105.81673,14.66238,-15.36151,-18.24134,18.40649,-3.27923,-15.3166,5.75733,-9.48508,-136.82988,34.10396,-24.80693,22.96736,-30.00391,10.18044,6.34116,2.76559,0.31262,-4.09533,-1.17288,0.42834,2.77062,-1.3822,1.00457,0.47903,-0.48634,0.44992,0.36903,-0.33327,0.01701,-0.0378,-0.16991,0.12164
1178,0.4579,-23.02707,4.21428,-26.31113,5.70853,-8.95313,-37.42605,18.44066,-2.57075,-93.41389,18.14143,-10.71883,-17.77241,18.57785,-3.39839,-14.57193,6.22178,-8.67085,-127.17542,46.11781,-23.22186,8.81453,-36.70868,16.55723,3.22978,3.62284,-0.61049,-1.31726,-4.93189,1.91603,0.51553,-0.55104,0.33651,0.92378,-1.82455,0.19256,-0.01365,-0.23468,-0.02188,0.1659,-0.46315,0.15091
1179,-1.15941,-23.18101,4.2967,-25.19071,5.36427,-8.12992,-39.28302,16.9412,-3.61398,-83.53842,20.88203,-5.65761,-17.48635,18.90325,-3.54496,-13.95475,6.54689,-7.97761,-115.52013,51.65484,-19.61448,5.1945,-41.35077,15.25365,2.22079,4.37483,-0.65935,1.96328,-6.57249,2.63274,0.15914,-0.05501,0.33083,1.66044,-2.45149,0.18016,0.08608,-0.07146,0.10611,0.25616,-0.52436,0.15055
1180,-0.77194,-23.65109,4.17294,-25.82201,4.07914,-7.58232,-34.84395,10.95773,-3.51748,-81.79958,16.74996,-4.89265,-17.51986,19.48685,-3.66721,-13.50649,6.72913,-7.37953,-106.6416,39.83554,-17.28357,7.08887,-40.53702,8.45969,6.66864,4.48874,0.18676,2.97966,-4.54577,1.68713,2.68871,-0.21216,1.36819,2.15756,-1.94277,0.29158,0.65327,0.00425,0.34121,0.18352,-0.32629,0.08654
1181,1.19921,-22.99705,3.71411,-25.97175,2.47116,-7.38222,-27.15818,7.61438,-2.23551,-83.23347,10.26457,-8.66134,-17.73666,20.32281,-3.72638,-12.96643,6.75179,-6.78383,-98.88917,27.16681,-17.51274,10.62385,-39.38766,5.45808,12.41068,4.17108,0.99272,2.06485,-1.14915,0.19344,5.41073,-0.83734,2.4376,2.23493,-0.84034,0.31341,1.02234,-0.06532,0.45297,0.10239,-0.0701,0.00248
1182,2.12729,-21.70086,3.4072,-24.02408,1.6082,-7.20766,-24.65969,8.71986,-1.00471,-78.01137,6.25226,-12.77588,-18.00538,21.37991,-3.81564,-12.2349,6.64668,-6.14581,-89.70889,26.91252,-20.11432,17.12885,-39.56506,6.61447,13.99305,2.96626,1.01619,0.45892,0.63059,-0.38843,5.7719,-1.6444,2.52151,1.88198,0.01715,0.23731,0.85476,-0.20104,0.34926,0.09465,0.07401,-0.03161
1183,0.15996,-21.12774,3.72249,-21.50344,1.78329,-6.64611,-31.88795,8.82201,-0.96378,-67.78498,4.48345,-13.19114,-18.40779,22.73156,-4.01974,-11.58288,6.48694,-5.52835,-86.99522,31.92349,-22.49129,22.96174,-38.45472,6.66494,11.2984,2.16419,0.47585,-1.47236,0.07504,-0.0178,4.32135,-2.06246,1.80523,1.07013,0.04694,0.1745,0.49722,-0.2555,0.17434,0.07674,0.06185,0.00117
1184,-2.77727,-20.70973,4.17232,-19.71256,1.78916,-5.88368,-40.78998,7.09152,-1.82125,-59.0755,1.88784,-10.70587,-19.0668,24.38897,-4.22868,-11.18619,6.23217,-5.06144,-89.05136,31.68692,-22.62602,23.64429,-34.37524,4.0503,7.97878,3.12255,0.03603,-3.13119,-1.21502,0.30997,3.08294,-1.7834,1.13977,0.16897,-0.63498,0.18972,0.35492,-0.19781,0.08419,-0.01137,-0.08863,0.06245
1185,-3.75072,-19.23636,4.10097,-16.49954,0.88977,-5.39801,-40.77455,7.35792,-2.25162,-47.67362,-1.83522,-8.71562,-19.97504,26.24078,-4.28692,-10.74667,5.764,-4.77058,-75.52161,26.95957,-21.33931,19.66805,-28.75201,3.11214,6.87413,5.08734,-0.00581,-3.05867,-1.97671,0.41125,2.95752,-0.92683,1.01228,0.02638,-1.36036,0.31768,0.43528,-0.0869,0.10017,-0.06901,-0.28858,0.12015
1186,-2.2849,-17.29312,3.64323,-12.44835,-0.2838,-5.31508,-31.60686,9.59863,-1.50493,-34.46626,-4.17176,-8.74165,-21.03384,28.23924,-4.21304,-10.05499,5.0794,-4.58621,-46.63183,24.0529,-19.82632,14.83,-26.36645,7.43688,8.13387,5.81554,0.17677,-1.34485,-2.71735,1.03893,3.58221,-0.18305,1.272,0.75938,-1.66516,0.50294,0.58171,-0.03444,0.15063,-0.01452,-0.39479,0.15525
1187,-0.64264,-16.0396,3.36113,-11.33891,-0.24878,-5.19577,-23.22467,11.06811,-0.39652,-29.00997,-2.367,-8.58665,-22.20143,30.41339,-4.18025,-9.29323,4.35619,-4.41543,-28.61424,28.55296,-17.48838,11.87959,-32.49088,13.99245,9.2586,4.26498,0.35971,-0.20318,-4.14437,2.20198,4.00938,-0.21077,1.4683,1.47021,-1.80311,0.60179,0.65536,-0.09633,0.17117,0.0943,-0.37986,0.16061
1188,-1.11545,-15.10945,3.48371,-13.76165,1.66058,-4.62448,-24.19568,10.98165,-0.12368,-32.4599,3.12956,-6.13108,-23.50494,32.80695,-4.27186,-8.70642,3.76582,-4.18818,-33.88932,39.39453,-14.43105,8.95466,-44.57357,16.31577,8.40449,2.39583,0.44264,-0.2682,-5.17881,2.75377,3.58432,-0.7474,1.44455,1.75718,-1.96558,0.57837,0.56347,-0.17909,0.18195,0.20622,-0.31534,0.14718
1189,-3.20953,-14.03117,3.89279,-15.74184,3.77348,-3.92836,-32.11394,8.20087,-0.36543,-35.42113,7.85059,-3.47495,-24.88377,35.36337,-4.39121,-8.19733,3.27105,-3.93163,-47.24524,45.45405,-12.31739,3.70497,-48.77938,11.16516,7.84512,2.2239,0.3105,0.3491,-4.41518,2.12516,2.92896,-1.10156,1.52581,2.06075,-1.79658,0.55074,0.40322,-0.16774,0.24846,0.30213,-0.22803,0.12907
1190,-5.04515,-13.24652,4.3795,-14.35358,3.85168,-3.75605,-38.00424,2.86585,-0.01676,-31.42846,9.13313,-3.39258,-26.19617,37.80406,-4.46162,-7.45269,2.73071,-3.75142,-50.28562,41.03147,-11.1527,-1.52816,-37.18697,2.12838,10.27261,2.07438,-0.11848,1.79882,-2.64996,1.18413,3.04154,-1.19016,1.81254,2.29902,-1.28309,0.59212,0.36346,-0.08453,0.333,0.29664,-0.14665,0.11799
1191,-5.7328,-12.39526,4.54725,-11.83519,2.02899,-4.01039,-35.53143,0.87891,0.67631,-24.94691,8.03048,-4.35356,-27.41299,39.93584,-4.48678,-6.54217,2.21912,-3.66493,-40.18016,35.72132,-9.55595,-3.26,-21.48355,-2.80659,13.12086,-0.24362,-0.60208,1.75783,-1.56161,0.79845,3.58797,-1.19406,1.80764,1.91862,-0.8837,0.63109,0.42978,0.01084,0.30504,0.16465,-0.11412,0.11973
1192,-5.23731,-10.83977,4.20486,-11.92896,0.32315,-3.97324,-26.37658,5.94686,0.67557,-24.45636,5.14419,-3.51061,-28.62266,41.93207,-4.432,-5.91769,1.9687,-3.56068,-28.54345,36.64697,-7.89257,1.47814,-16.50483,-0.56384,11.46514,-2.68769,-0.63032,-0.73667,-1.65275,0.84114,3.45576,-1.1144,1.18365,1.01996,-0.92972,0.57421,0.44984,0.07881,0.14141,0.03592,-0.15126,0.13119
1193,-4.25697,-9.3719,3.86212,-13.75554,-0.1441,-3.47503,-19.45999,12.70354,0.25034,-28.9875,1.84974,-1.36008,-29.86446,43.93591,-4.29165,-5.57454,1.92555,-3.37333,-26.39264,39.70317,-6.91323,11.94718,-20.68472,3.93692,7.01771,-1.08004,0.00689,-3.65216,-2.21914,0.84596,3.04447,-0.8966,0.69051,0.38557,-1.27732,0.46529,0.44487,0.0707,0.03076,0.04294,-0.23129,0.14927
1194,-4.12438,-8.58559,3.97532,-14.35618,0.16864,-3.03493,-21.34448,16.16764,0.3782,-32.13065,2.08342,-0.25175,-31.10784,45.68073,-4.192,-5.09714,1.79182,-3.11929,-34.62482,43.31305,-5.78632,19.11472,-24.80871,6.77746,5.12626,4.7647,0.83353,-4.40266,-2.31704,0.74822,3.18715,-0.41104,1.1009,0.49272,-1.37757,0.39803,0.47383,0.01275,0.13057,0.15721,-0.25165,0.15448
1195,-5.46264,-7.89189,4.3077,-13.90455,0.32655,-2.94186,-30.04374,17.73892,0.69725,-34.05023,5.73765,-1.13638,-32.30482,46.80654,-4.23395,-4.44428,1.5158,-2.8171,-49.73958,48.55467,-5.07633,17.13721,-26.84959,8.82427,5.59812,9.37423,1.23257,-2.71871,-2.07885,0.82065,3.24973,0.09424,1.85518,0.92101,-1.15059,0.37488,0.46953,-0.04867,0.33264,0.20806,-0.18774,0.11998
1196,-7.51023,-7.86752,4.7216,-13.8586,0.07627,-2.89088,-39.65521,16.64705,0.32612,-36.05581,7.56072,-2.66019,-33.41492,47.38834,-4.34084,-3.93613,1.34679,-2.47727,-64.0775,49.20473,-6.30053,13.75052,-27.88982,9.65387,5.32093,7.39582,0.99977,-0.25379,-2.07245,1.09161,2.68426,-0.12577,1.9276,1.14081,-0.99958,0.37952,0.4447,-0.1247,0.41478,0.11285,-0.13493,0.06224
1197,-8.62882,-10.00015,5.44417,-14.7061,-0.40405,-2.63531,-44.46176,9.31883,-0.01689,-36.55859,4.65976,-3.36588,-34.39839,47.808,-4.36488,-3.73651,1.38054,-2.15427,-68.22383,38.81649,-8.10048,16.08316,-25.72602,6.7528,2.85404,-0.273,0.13236,1.46809,-2.25788,1.38427,1.36792,-1.3462,0.83956,1.26663,-1.02138,0.46286,0.33784,-0.19965,0.24463,-0.00027,-0.13791,0.04052
1198,-8.06043,-12.99025,6.17657,-14.80617,-0.42336,-2.21711,-41.99231,0.20295,0.90129,-32.9032,2.1129,-2.56334,-35.24059,48.20106,-4.28212,-3.53027,1.43912,-1.86572,-58.58895,27.40597,-7.22869,20.08511,-21.50563,0.08837,0.08325,-7.63395,-1.11649,1.48704,-2.54931,1.64266,-0.24495,-3.00246,-0.765,1.42383,-1.10323,0.62077,0.05898,-0.2908,-0.0923,0.00081,-0.16872,0.08562
1199,-7.04848,-13.36075,6.15194,-13.33146,0.33701,-1.78212,-36.32416,-0.77247,2.21388,-27.52354,3.9369,-1.12714,-36.02753,48.42603,-4.20381,-3.06885,1.3893,-1.58167,-45.40966,28.62324,-5.01066,20.2112,-20.77512,-6.25325,0.43306,-9.37551,-1.89862,-0.16548,-2.84069,1.73861,-0.72132,-3.85385,-1.43721,1.41685,-1.23321,0.7292,-0.1679,-0.38042,-0.30637,0.10255,-0.21185,0.16367
1200,-6.89456,-10.69955,5.27839,-11.47287,1.17438,-1.42197,-32.00483,6.26893,2.14808,-24.60566,6.44963,-0.45841,-36.88421,48.42207,-4.22017,-2.5453,1.3137,-1.31011,-38.32433,38.07453,-4.5566,17.94928,-23.60837,-6.34929,2.18896,-5.03488,-1.45285,-1.80958,-2.84589,1.63116,-0.03776,-2.98696,-0.86567,1.25937,-1.30146,0.70629,-0.16874,-0.34674,-0.25926,0.2121,-0.23347,0.21097
1201,-7.00286,-8.10834,4.25976,-10.39794,1.29605,-1.20849,-26.89511,11.41266,1.21786,-23.65893,5.69889,-0.79912,-37.8046,48.26437,-4.30346,-2.26892,1.28317,-1.11166,-32.24671,42.51865,-4.25666,20.33763,-24.13197,0.34962,1.65132,1.58674,-0.08533,-2.34213,-2.82313,1.55832,0.7103,-1.14705,0.00181,1.01019,-1.31735,0.62203,-0.00255,-0.21495,-0.09554,0.22335,-0.21894,0.20429
1202,-6.48104,-7.63461,3.71212,-10.1816,1.0816,-1.16003,-20.46815,9.604,1.08824,-22.3939,4.26315,-1.4169,-38.65332,47.98011,-4.38081,-2.23557,1.22871,-1.01401,-23.92049,39.71086,-2.26064,29.2971,-19.39328,6.72632,0.53488,6.99959,1.13819,-2.49865,-3.11787,1.51026,1.41183,0.46381,0.65886,0.67057,-1.49433,0.58073,0.23987,-0.07854,0.045,0.13618,-0.21341,0.18022
1203,-5.9939,-8.25829,3.59703,-10.08231,1.03049,-1.14528,-18.89154,5.86689,1.09204,-20.44185,3.46502,-1.94248,-39.37738,47.66341,-4.42967,-2.165,1.15254,-0.95881,-20.2877,34.66418,-2.60378,35.18501,-11.79516,7.39278,2.72664,9.55936,1.40002,-2.43676,-3.46151,1.29922,2.36701,1.28056,1.23675,0.64113,-1.74211,0.56499,0.41842,0.047,0.14555,0.10553,-0.21291,0.1558
1204,-5.86612,-8.83641,3.52515,-9.76657,0.62332,-1.01678,-21.71512,4.81108,-0.20382,-20.10313,-0.2287,-2.32335,-40.02768,47.54807,-4.47185,-1.92429,1.17869,-0.88159,-21.92382,28.47175,-7.0575,31.08489,-7.02227,5.19145,7.15233,8.77753,0.86705,-1.71986,-3.54903,1.05981,3.26549,1.05644,1.67807,1.07801,-1.70878,0.45303,0.45621,0.1703,0.24081,0.18263,-0.16963,0.09768
1205,-4.99415,-9.60864,3.33664,-9.4564,-0.07665,-0.80309,-20.65754,4.74811,-1.62413,-22.64373,-4.32841,-1.76729,-40.55283,47.71886,-4.51809,-1.6319,1.29816,-0.79657,-21.67641,24.36215,-8.91004,22.83179,-12.26702,5.36219,8.67883,5.61926,0.37752,-1.06308,-3.12357,0.91886,3.5336,-0.08882,1.61406,1.32751,-1.27163,0.24555,0.47466,0.26755,0.34023,0.2026,-0.10755,0.01496
1206,-3.80789,-10.56666,3.35392,-9.06089,0.16909,-0.64084,-17.14207,3.82131,-0.99187,-24.21289,-1.83075,-0.20448,-40.84854,47.99251,-4.58122,-1.40221,1.36045,-0.73242,-19.725,28.21636,-4.72451,17.97871,-27.26104,7.02545,4.5734,1.46815,0.15523,-0.98036,-1.8535,0.74751,2.56078,-1.57467,0.69345,1.07095,-0.61355,0.17487,0.46988,0.22289,0.31346,0.08757,-0.08139,-0.0063
1207,-4.26578,-11.1086,3.9095,-8.3467,1.06563,-0.7227,-21.14694,3.04851,1.45123,-21.82044,4.87258,0.27155,-40.93427,48.19566,-4.66162,-1.16253,1.27502,-0.7078,-23.43914,36.73666,-1.20098,19.46952,-38.16945,3.86682,-2.40623,-3.36505,-0.39445,-0.89961,-0.52324,0.69834,0.26113,-3.02933,-0.95158,0.79784,-0.18961,0.37103,0.24553,-0.12122,0.02029,-0.02214,-0.09466,0.0674
1208,-6.18403,-11.07987,4.67614,-7.6651,0.7643,-1.08844,-32.27623,2.53685,3.38456,-18.88519,7.06774,-1.4502,-40.92555,48.36049,-4.71954,-0.83193,1.10606,-0.73178,-32.74294,40.19176,-3.27307,23.97823,-34.86874,-4.13122,-6.76358,-7.58899,-1.34381,-0.71891,-1.13087,1.26456,-1.90012,-4.24427,-2.372,0.78811,-0.54472,0.60069,-0.12596,-0.66518,-0.38896,-0.01264,-0.14055,0.14843
1209,-7.37704,-10.67192,4.95051,-7.01088,-0.44173,-1.32288,-39.37081,0.08854,3.31083,-18.03337,4.55089,-2.73383,-40.89695,48.59635,-4.72711,-0.50701,1.00706,-0.73186,-37.80807,35.2014,-5.76426,20.94641,-25.56546,-6.75322,-5.52795,-7.49383,-1.76045,-0.99491,-3.34946,2.04155,-2.02695,-4.37679,-2.48401,0.73636,-1.32309,0.53671,-0.30007,-0.92753,-0.57772,0.03792,-0.16613,0.12929
1210,-6.99503,-10.16098,4.63371,-6.16278,-0.45771,-1.03211,-38.15888,-5.03145,1.83033,-18.69974,3.90416,-1.11604,-40.82345,48.91672,-4.70131,-0.3148,1.02179,-0.64642,-37.26143,25.96413,-2.89278,7.44661,-20.79711,1.78475,-0.58181,-2.88613,-1.2182,-1.34698,-4.51566,2.06952,-0.1221,-3.22379,-1.39848,0.64317,-1.68624,0.3104,-0.12391,-0.68216,-0.43886,0.05205,-0.14701,0.05271
1211,-6.3871,-9.62435,4.23429,-5.74606,1.03357,-0.41598,-35.42361,-8.28161,0.33522,-19.91785,6.02152,1.75707,-40.70267,49.26297,-4.67645,-0.23454,1.06752,-0.52301,-37.30713,20.92271,1.80037,-2.93452,-21.37798,13.99855,3.34171,1.7291,-0.32304,-1.31892,-3.84928,1.38483,1.68845,-1.67986,-0.20938,0.84143,-1.5963,0.29588,0.14191,-0.23521,-0.16079,0.08841,-0.164,0.05439
1212,-5.97186,-8.9508,3.89799,-6.16975,2.12547,-0.04782,-33.61504,-4.69158,-0.2311,-20.57754,6.32944,2.58838,-40.5779,49.49463,-4.66778,-0.12931,1.04695,-0.44419,-34.46196,26.34424,2.16259,1.29342,-25.59319,18.46239,3.65932,3.67687,0.4639,-2.01151,-2.82577,0.67092,2.00443,-0.6267,0.45937,1.05668,-1.44897,0.4104,0.27202,0.05768,0.08693,0.17285,-0.24433,0.12937
1213,-4.70431,-8.30935,3.392,-6.71153,1.48407,-0.22118,-28.89779,3.23118,0.35869,-20.87441,3.67509,0.54385,-40.44075,49.42703,-4.68812,0.07549,0.90164,-0.42234,-25.81597,36.83542,-1.32736,15.01914,-29.07608,10.65441,2.06333,3.72268,0.93835,-3.65165,-1.92592,0.11754,1.48705,-0.4682,0.64099,0.90396,-1.1533,0.36504,0.30401,0.09261,0.23291,0.24353,-0.28858,0.16854
1214,-2.85658,-8.15677,2.83823,-7.02722,0.33208,-0.54507,-22.40605,7.82284,1.43713,-22.90209,2.97649,-1.30349,-40.23912,49.04741,-4.75524,0.25494,0.68952,-0.39655,-20.91182,42.3038,-2.785,27.12793,-26.19967,-2.50403,0.88415,3.3911,0.91617,-4.09278,-0.64654,-0.29388,1.07801,-0.91064,0.44067,0.69174,-0.64001,0.27008,0.28508,-0.01192,0.22654,0.24192,-0.2451,0.15331
1215,-2.20764,-8.47858,2.59277,-7.20194,0.63745,-0.43854,-19.78528,6.72094,1.78876,-25.06639,7.81727,0.64174,-39.94378,48.52728,-4.85621,0.26475,0.55313,-0.34594,-24.42837,42.95038,0.77359,32.40836,-20.76564,-8.26657,0.27719,3.33757,0.57959,-2.21124,0.5207,-0.41074,0.8925,-1.2805,0.01168,0.84556,-0.33526,0.3779,0.20339,-0.10327,0.08588,0.17002,-0.16733,0.13852
1216,-3.04973,-8.85508,2.62682,-6.34958,2.14206,0.05665,-21.65582,4.74583,0.87303,-21.14469,13.3239,5.1461,-39.5486,48.01364,-4.93777,0.20224,0.54501,-0.32883,-24.41246,44.1503,4.74782,30.20043,-21.86792,-2.99168,-0.51409,2.62438,0.16106,-0.40136,-0.00123,-0.09062,0.58063,-1.37127,-0.45054,1.16138,-0.72486,0.57174,0.05825,-0.1403,-0.08402,0.06964,-0.13294,0.12777
1217,-3.19429,-9.3724,2.58976,-4.56096,3.1805,0.42838,-22.86388,4.88121,-0.52858,-13.8898,13.00442,7.37754,-39.05104,47.55864,-4.94845,0.22816,0.57726,-0.37256,-16.02667,44.40432,4.1858,24.23933,-29.97013,3.545,-1.35699,0.61914,-0.32226,-1.46524,-2.60624,0.53372,-0.01925,-1.34663,-0.7836,1.08715,-1.68186,0.50476,-0.09877,-0.13705,-0.16714,-0.06931,-0.18854,0.05642
1218,-1.57098,-10.25039,2.40174,-4.04812,3.37728,0.4158,-22.11023,5.60995,-1.24535,-15.11694,9.20817,5.40768,-38.49811,47.17233,-4.92396,0.29676,0.53835,-0.42517,-14.59528,42.56576,0.70825,21.18945,-36.0407,2.45316,-1.81907,-1.19912,-0.70955,-4.5228,-4.70717,0.88733,-0.61567,-1.28631,-0.92174,0.57226,-2.16019,0.12921,-0.17204,-0.11531,-0.14511,-0.23889,-0.24974,-0.08862
1219,-0.17855,-11.25238,2.38314,-5.57618,3.63421,0.20139,-23.65087,6.19838,-1.02114,-24.75915,8.45638,1.94461,-37.96856,46.83833,-4.97473,0.32339,0.43858,-0.4174,-26.65622,44.61951,-2.44475,20.22221,-33.11159,-3.15204,-1.46185,-1.2999,-0.77042,-6.23709,-3.47712,0.44113,-0.68094,-1.1702,-0.81645,0.19706,-1.31952,-0.19748,-0.10204,-0.0893,-0.07007,-0.30365,-0.16666,-0.19775
1220,-0.78561,-11.75152,2.64744,-7.23318,4.02564,0.01747,-28.74531,7.55,-0.60926,-30.92973,10.33434,-0.31607,-37.46392,46.56386,-5.11571,0.35874,0.37522,-0.36238,-39.79398,50.15625,-5.51114,16.79226,-24.6492,-6.0421,0.25975,-0.12137,-0.55262,-5.5298,0.04707,-0.58029,0.07708,-1.11896,-0.42356,0.27137,0.07797,-0.22126,0.06765,-0.07134,0.02119,-0.15688,0.0146,-0.17368
1221,-2.62229,-11.70774,3.00967,-7.47042,4.19921,-0.00722,-34.05604,8.15643,-0.43471,-28.99726,11.53514,-0.4403,-36.98824,46.37001,-5.26567,0.43972,0.38078,-0.33425,-45.76613,50.4931,-7.23921,15.27617,-19.15702,-5.47209,2.74301,0.71396,-0.32421,-4.14062,2.24808,-1.30163,1.36182,-1.46218,-0.00902,0.53548,0.58563,-0.04483,0.23299,-0.10035,0.07286,0.10808,0.07646,-0.0387
1222,-3.8796,-12.40806,3.43235,-6.0131,4.70212,0.24254,-37.07612,5.13814,-0.12538,-22.05787,13.07049,1.91264,-36.6874,46.20441,-5.39952,0.49895,0.40368,-0.34182,-43.99664,44.38946,-4.72748,19.87556,-20.23156,-3.74026,4.42956,-0.01109,-0.41299,-3.33544,1.63481,-1.16497,2.38706,-2.13629,0.00426,0.59114,0.05784,0.10794,0.31816,-0.17029,0.02441,0.2376,-0.04609,0.08318
1223,-3.40029,-14.40677,3.7684,-3.72171,5.78782,0.70314,-36.41252,0.14082,0.3284,-14.14633,15.62794,5.38355,-36.67978,46.00228,-5.50656,0.40807,0.41068,-0.32175,-33.92804,39.8437,0.00446,22.62686,-26.63365,1.1676,4.14172,-1.27965,-0.76115,-2.81135,-0.46935,-0.37544,2.29498,-2.3514,-0.36469,0.25159,-0.58648,0.089,0.28261,-0.20727,-0.09035,0.09098,-0.18935,0.07419
1224,-1.33415,-16.02298,3.62009,-2.66328,6.56054,1.00894,-31.03572,-1.20744,0.64742,-10.49392,17.38623,7.23038,-36.86444,45.77144,-5.53427,0.11891,0.40591,-0.26431,-20.37932,43.37657,2.99875,18.20502,-34.20772,9.82926,1.80652,-0.82659,-0.73782,-2.27685,-2.32894,0.50365,1.00823,-1.65735,-0.67446,-0.23907,-0.76687,-0.07232,0.12218,-0.17549,-0.16232,-0.14608,-0.19521,-0.02556
1225,0.96043,-16.00336,3.03871,-4.03257,6.05824,0.77761,-23.92113,2.65161,0.99393,-14.03061,17.22779,6.08795,-37.06863,45.58412,-5.49725,-0.24483,0.37995,-0.28562,-14.08244,52.0843,3.9853,15.71702,-35.4669,14.40565,-0.83697,0.5823,-0.27934,-2.06117,-2.97451,1.0211,-0.28624,-0.94257,-0.77246,-0.36068,-0.53914,-0.1364,-0.06632,-0.13782,-0.16905,-0.19724,-0.07516,-0.06528
1226,1.7642,-15.52684,2.72228,-5.99413,4.68734,0.17852,-22.17234,6.0306,1.04324,-20.41179,14.88789,3.20922,-37.24519,45.57014,-5.48947,-0.53711,0.39922,-0.44034,-20.29285,54.61307,3.15258,19.732,-29.24786,10.06972,-1.72328,0.40526,-0.10198,-2.03487,-2.65534,1.12785,-0.45442,-1.08837,-0.8718,0.21464,-0.35543,0.08515,-0.13299,-0.14195,-0.17434,-0.04272,0.02983,0.01533
1227,0.50201,-15.76968,3.05076,-6.0219,3.78581,-0.2392,-28.69468,4.252,0.00482,-22.62963,10.93699,0.70499,-37.36319,45.72703,-5.52597,-0.77053,0.5308,-0.62324,-32.66968,44.84823,-1.40753,20.27287,-24.6509,3.6025,-0.74038,-0.73983,-0.32703,-1.35068,-2.53067,1.0768,0.2961,-1.5861,-0.91293,1.34839,-0.70441,0.43569,-0.01723,-0.15279,-0.17067,0.13696,-0.01107,0.12338
1228,-1.39361,-15.98886,3.47025,-4.8206,3.85322,-0.29126,-35.91007,1.43527,-1.49565,-20.05867,7.87126,-0.18728,-37.36113,45.76979,-5.53964,-1.05623,0.66006,-0.75508,-39.06777,33.85063,-8.10311,15.65243,-26.90921,0.76692,0.53768,-0.32217,-0.30086,-0.15327,-2.27133,0.76713,1.05049,-1.59705,-0.65722,2.33077,-1.14765,0.62391,0.20245,-0.13086,-0.09377,0.22428,-0.13383,0.15418
1229,-1.79919,-15.32015,3.28184,-5.23327,4.46586,-0.08883,-33.78345,4.19951,-1.84502,-18.93283,8.26162,1.30245,-37.31501,45.50702,-5.50673,-1.47215,0.70194,-0.81347,-33.55716,38.05731,-9.47531,19.96158,-31.00928,-1.27014,0.3238,1.92291,0.33359,-0.49657,-0.52315,-0.16943,1.24033,-1.22012,-0.33517,2.28058,-0.81587,0.58454,0.35291,-0.08645,0.00851,0.2378,-0.17983,0.12424
1230,-0.4399,-14.65435,2.76524,-7.11462,5.24639,0.28159,-25.06705,10.0432,-0.86979,-21.66234,11.59539,4.80512,-37.34789,45.13105,-5.4373,-1.96592,0.72987,-0.78849,-24.10534,54.35283,-2.90743,35.96653,-31.56339,-4.49389,-1.24285,3.93378,1.08094,-3.73698,1.42378,-1.38784,0.99163,-1.02573,-0.34645,0.96615,-0.08054,0.30921,0.3133,-0.04469,0.02541,0.16759,-0.14748,0.0708
1231,0.89423,-15.29195,2.81004,-7.49861,6.23418,0.63834,-21.83999,10.51092,0.24781,-23.16304,15.46461,7.6969,-37.37875,44.87146,-5.31421,-2.42466,0.7802,-0.73288,-22.49985,62.81704,3.46634,45.00732,-31.12998,-5.52669,-1.21475,3.56676,0.89239,-7.70898,0.64959,-1.86724,0.91345,-1.27149,-0.57997,-0.70752,-0.11801,-0.23933,0.15505,-0.03491,-0.04476,-0.04635,-0.14585,-0.04115
