PaulMeinheit/Bachelor_Muay_Thai/processed_Data/N4/teep/sliced/JointMoments/sliced3.csv
Unnamed: 0_level_0,R_KNEE_MOMENT,R_KNEE_MOMENT,R_KNEE_MOMENT,L_KNEE_MOMENT,L_KNEE_MOMENT,L_KNEE_MOMENT,R_HIP_MOMENT,R_HIP_MOMENT,R_HIP_MOMENT,L_HIP_MOMENT,L_HIP_MOMENT,L_HIP_MOMENT,R_ANKLE_MOMENT,R_ANKLE_MOMENT,R_ANKLE_MOMENT,L_ANKLE_MOMENT,L_ANKLE_MOMENT,L_ANKLE_MOMENT,WAIST_JOINT_MOMENT,WAIST_JOINT_MOMENT,WAIST_JOINT_MOMENT,NECK_MOMENT,NECK_MOMENT,NECK_MOMENT,L_SHOULDER_MOMENT,L_SHOULDER_MOMENT,L_SHOULDER_MOMENT,R_SHOULDER_MOMENT,R_SHOULDER_MOMENT,R_SHOULDER_MOMENT,L_ELBOW_MOMENT,L_ELBOW_MOMENT,L_ELBOW_MOMENT,R_ELBOW_MOMENT,R_ELBOW_MOMENT,R_ELBOW_MOMENT,L_WRIST_MOMENT,L_WRIST_MOMENT,L_WRIST_MOMENT,R_WRIST_MOMENT,R_WRIST_MOMENT,R_WRIST_MOMENT
ITEM,X,Y,Z,X,Y,Z,X,Y,Z,X,Y,Z,X,Y,Z,X,Y,Z,X,Y,Z,X,Y,Z,X,Y,Z,X,Y,Z,X,Y,Z,X,Y,Z,X,Y,Z,X,Y,Z
1248,2.41742,-11.24902,3.63767,-4.81201,9.81788,1.08112,-21.34686,5.9525,-0.36931,-22.22535,21.82511,5.41706,-34.53112,39.4404,-3.34921,-5.52678,2.76658,-0.30274,-29.39186,42.46413,-1.8197,32.60926,-34.31876,8.52415,2.79461,0.13651,-0.52161,-2.9404,-3.36766,-0.0711,1.51786,-1.31243,-0.17083,0.31027,-1.28698,-0.24983,0.18672,-0.09954,-0.04297,-0.04221,-0.35154,-0.0474
1249,1.58077,-10.38452,3.6433,-5.95668,9.87797,1.16197,-22.48987,10.75353,-0.18918,-19.78786,19.82966,5.48906,-34.17796,38.81306,-3.26612,-5.63713,2.95544,-0.24763,-25.24672,47.96769,-3.39304,36.94183,-32.06986,4.60323,0.86222,-0.36498,0.05999,-3.88113,-2.76532,-0.22752,1.39265,-1.18362,-0.26978,0.82868,-0.83714,0.05178,0.2473,-0.09673,-0.05206,0.0752,-0.23678,0.02426
1250,2.13022,-9.93197,3.64641,-7.88656,8.7898,0.92895,-21.5349,12.1292,0.37679,-23.70192,16.1272,4.59089,-33.71491,38.23061,-3.0652,-5.84528,2.91921,-0.31274,-29.33235,49.07904,-3.66009,43.20613,-25.94668,-4.12624,-0.34647,-0.59056,0.25844,-3.79885,-1.6272,-0.38306,1.19549,-1.37869,-0.39009,1.54752,-0.18273,0.27462,0.24058,-0.11389,-0.02458,0.18742,-0.07481,0.03591
1251,3.8368,-10.52218,3.92689,-8.22483,8.9334,0.95217,-18.1613,5.69574,1.76664,-29.34908,18.79705,5.72027,-33.10936,37.73774,-2.7824,-5.8933,2.74008,-0.3654,-33.97404,46.57553,3.83166,40.15524,-23.78555,-5.05709,1.70582,0.69049,-0.31191,-1.37338,-0.91853,0.04951,1.27947,-1.59592,-0.22641,2.23839,0.1935,0.42429,0.13635,-0.11234,0.01468,0.2856,0.01583,0.04445
1252,4.30449,-11.56687,4.57573,-6.5251,10.37273,1.27736,-19.08954,-3.39861,2.96,-30.07927,25.30007,7.82852,-32.50403,37.2397,-2.59262,-5.70205,2.6006,-0.32432,-38.8134,40.99156,11.65993,31.92021,-29.87867,1.57965,4.95672,2.77272,-0.90188,0.64569,-1.14489,0.60394,1.71159,-1.58404,0.10018,2.27148,0.08104,0.46776,0.07403,-0.10474,0.0045,0.26164,0.0122,0.07436
1253,2.97576,-11.89934,5.13894,-5.1087,10.97388,1.39077,-26.74979,-5.18028,2.52824,-26.7856,25.17187,6.76274,-32.05177,36.69205,-2.51916,-5.52806,2.59551,-0.27068,-47.88948,32.20617,6.53799,29.49115,-35.58123,4.54405,4.18674,3.67313,-0.35402,-0.90253,-1.58821,0.23955,1.85385,-1.3464,0.18747,1.30094,-0.23886,0.29705,0.1364,-0.11605,-0.03513,0.05101,-0.01322,0.06314
1254,2.53752,-11.47825,5.10944,-5.43543,10.01233,1.09981,-31.74836,1.08142,0.83612,-24.18716,17.68225,2.72051,-31.70379,36.16369,-2.38681,-5.41176,2.7172,-0.272,-52.80931,26.40847,-7.56561,33.01083,-30.73279,-0.42163,0.51581,3.01962,0.9952,-4.74734,-1.96802,-0.98718,1.68515,-0.98323,0.27514,0.00503,-0.55182,-0.18131,0.27691,-0.11616,0.0127,-0.2018,-0.02468,-0.04498
1255,4.62843,-11.45322,4.68868,-6.46715,8.80042,0.73538,-25.76464,4.99357,-0.27542,-24.35144,11.67646,-0.28376,-31.30245,35.64341,-2.1215,-5.13115,2.86308,-0.29182,-45.04704,26.2924,-14.23221,37.3306,-20.48876,-7.95244,0.37002,1.40321,1.21779,-6.90351,-2.30518,-1.84312,1.80558,-0.85536,0.53269,-0.55651,-0.72225,-0.64379,0.36766,-0.07943,0.12349,-0.2877,-0.04022,-0.16783
1256,6.90917,-11.86701,4.45066,-6.88788,8.50157,0.60029,-15.59146,1.44197,0.04214,-26.83229,11.84122,-0.44325,-30.81678,35.00414,-1.86931,-4.75368,2.86898,-0.31463,-35.25665,26.92404,-9.24538,42.40794,-22.12756,-11.90577,4.37122,0.19116,-0.10521,-6.22801,-2.50894,-1.71152,2.1733,-1.06455,0.61365,-0.13374,-0.75086,-0.70282,0.32313,-0.0249,0.15096,-0.16587,-0.09209,-0.18881
1257,6.77324,-11.23409,4.40982,-6.10235,9.34907,0.77127,-13.41472,-1.82343,0.81809,-28.01015,16.42553,1.55502,-30.29015,34.16224,-1.75164,-4.56655,2.70375,-0.36039,-35.2703,28.99054,-2.91151,48.72653,-39.40859,-10.28598,5.71623,1.01092,-1.00896,-5.02146,-2.41796,-1.25302,2.04208,-1.24759,0.246,0.5082,-0.73259,-0.43512,0.19315,0.00189,0.05845,-0.00146,-0.16995,-0.12398
1258,5.0365,-9.3778,4.28334,-4.69356,10.64324,1.10028,-19.66802,1.43477,1.10869,-24.97241,21.71407,4.4335,-29.68509,33.1987,-1.70883,-4.64576,2.50097,-0.4152,-39.35386,36.49628,-1.77994,51.68495,-52.37923,-5.48089,2.12496,3.27628,-0.38271,-4.26497,-1.54203,-0.92176,1.44357,-1.21778,-0.24481,0.88983,-0.48882,0.03775,0.12223,-0.03123,-0.05288,0.09357,-0.1814,-0.0128
1259,3.73825,-8.05641,4.22744,-4.19045,11.56991,1.35324,-26.21691,7.50778,1.15056,-22.40737,25.76317,6.87684,-28.95695,32.28223,-1.63227,-4.72577,2.37684,-0.43305,-41.93399,48.22718,-1.68982,49.05489,-46.5238,-2.03691,-0.78422,4.08516,0.3129,-2.95279,-0.43341,-0.52339,1.05652,-1.25432,-0.50084,1.3226,-0.11343,0.50373,0.13736,-0.11549,-0.11927,0.1865,-0.12476,0.10071
1260,3.77685,-8.41119,4.44259,-5.01766,12.35117,1.53329,-27.02736,10.62012,1.45745,-25.77781,28.85397,8.25578,-28.1478,31.46675,-1.47224,-4.58492,2.34248,-0.39405,-45.18808,57.76242,1.40046,47.60558,-33.19872,-2.48181,0.96551,2.11515,-0.22282,-1.69192,-0.6813,-0.21969,1.20477,-1.5591,-0.47435,1.81265,-0.12224,0.47388,0.17324,-0.20531,-0.13763,0.29942,-0.12302,0.10131
1261,5.09133,-9.82089,4.69007,-5.95612,13.03829,1.67123,-21.47928,8.77511,1.98069,-31.63095,28.87008,7.8358,-27.34505,30.6339,-1.25671,-4.34761,2.33899,-0.36061,-46.61433,54.56588,3.84786,52.11649,-28.02971,-4.66807,3.81295,-0.06601,-0.94427,-2.49121,-2.62042,-0.45411,1.53962,-1.77368,-0.25392,1.69507,-0.62984,-0.17347,0.20831,-0.2232,-0.0879,0.28138,-0.20211,-0.05372
1262,6.69344,-11.02104,4.67388,-6.05796,12.54593,1.53261,-14.10401,4.18286,2.30715,-34.37341,23.0144,4.74598,-26.5964,29.66199,-1.10254,-4.08673,2.32942,-0.39296,-43.66164,37.71549,1.86742,55.14769,-29.16878,-4.46574,2.53797,0.51858,-0.29715,-5.16082,-4.63401,-1.05287,1.51183,-1.43131,0.02665,0.75219,-1.11741,-0.852,0.23048,-0.11224,0.04103,0.02898,-0.23834,-0.2315
1263,7.39122,-11.54962,4.45874,-5.67953,10.67285,1.07997,-10.12598,0.3508,2.14266,-33.2259,14.16527,0.35939,-25.86144,28.58916,-1.1107,-3.70745,2.37506,-0.42823,-38.83797,21.03278,-2.30239,48.52871,-27.96459,-0.41113,-1.71089,3.50238,1.39254,-6.54135,-4.98184,-1.21178,1.17157,-0.61998,0.3444,0.08723,-1.09458,-0.84573,0.21747,0.05927,0.17991,-0.21824,-0.16285,-0.24047
1264,7.02879,-11.84221,4.34931,-5.16931,9.60905,0.86474,-11.05095,-1.94683,1.68688,-28.89453,10.46221,-1.29902,-25.0293,27.54032,-1.21424,-3.29163,2.52121,-0.37141,-34.22308,15.56835,-4.68416,36.30766,-23.81392,4.13067,-3.44171,5.53255,2.25039,-4.6561,-3.86251,-0.59614,1.02221,-0.11545,0.5448,0.67801,-0.75364,-0.20443,0.17691,0.13004,0.20465,-0.14986,-0.09311,-0.06924
1265,5.97124,-12.38361,4.62621,-4.42989,11.31824,1.33908,-15.48381,-3.68079,1.60643,-23.20485,17.96816,2.70619,-24.06196,26.58115,-1.25949,-3.00341,2.6536,-0.25876,-31.78269,22.75726,-2.72959,28.19691,-22.42665,4.3433,-0.30189,4.21826,1.19461,-1.82629,-2.62171,0.02053,1.27057,-0.48073,0.41313,1.61905,-0.54318,0.30128,0.13444,0.04972,0.08977,0.0974,-0.1194,0.07486
1266,4.49739,-12.93565,5.14006,-3.67565,14.5881,2.16812,-20.47571,-3.65471,1.96137,-19.84841,32.24232,9.89486,-23.10543,25.72511,-1.20855,-2.82583,2.67672,-0.17363,-33.42421,38.62723,2.67453,28.49508,-27.77062,-0.58492,4.95531,1.03374,-0.71856,-1.52501,-1.59313,-0.32033,1.84939,-1.36,0.14279,1.54701,-0.48625,0.23727,0.1444,-0.08669,-0.05138,0.18588,-0.17176,0.05095
1267,3.37607,-12.82659,5.29056,-3.19437,16.50655,2.64054,-22.96328,-0.05144,1.84098,-20.66674,40.2563,13.49618,-22.33463,24.96569,-1.15379,-2.58483,2.69332,-0.10925,-38.74163,51.87429,5.57734,37.21373,-36.31328,-7.91729,7.98223,-0.83496,-1.65253,-4.03679,-0.6912,-1.47859,2.4758,-1.97943,0.08302,0.63014,-0.44803,-0.11615,0.22438,-0.17756,-0.11166,0.08187,-0.19454,-0.06742
1268,3.67557,-12.34763,4.85035,-3.19434,16.0262,2.48599,-21.37655,4.66675,1.12513,-24.12397,35.92333,10.34591,-21.76465,24.28034,-1.17993,-2.19621,2.83208,-0.0307,-42.86003,52.62161,2.46386,51.80112,-38.63081,-13.97752,6.07577,-0.05478,-0.96653,-6.36919,-0.72754,-2.14222,2.40311,-1.88378,0.15551,0.08462,-0.41372,-0.30879,0.26596,-0.18315,-0.07766,-0.01282,-0.17596,-0.12848
1269,5.11109,-12.77535,4.40985,-3.94607,14.19172,1.96339,-17.81977,4.75444,0.91268,-28.49169,25.86481,4.38272,-21.31883,23.65617,-1.30236,-1.82694,3.04359,0.02226,-43.05334,41.58424,-2.75502,61.34322,-30.14426,-15.00159,0.31716,1.88564,0.35787,-5.96264,-1.95734,-1.43612,1.20798,-1.30528,-0.03759,0.45589,-0.32187,-0.17733,0.15791,-0.12904,-0.01794,-0.00059,-0.08221,-0.06875
1270,6.03901,-14.3672,4.50988,-5.29679,11.88515,1.38454,-16.70726,-0.87704,1.54607,-32.29885,17.41255,0.6565,-20.98205,23.16475,-1.49087,-1.73287,3.13931,-0.03223,-43.30176,25.85702,-5.63052,55.99541,-20.20042,-10.21387,-3.86321,2.20044,0.8933,-3.60471,-2.80497,-0.20156,0.05344,-1.03006,-0.45597,1.1712,-0.12132,0.14764,0.0212,-0.08841,-0.00276,0.06771,0.04295,0.05013
1271,5.7854,-15.79828,4.84477,-6.31419,10.23088,1.10058,-18.28131,-5.92449,2.13466,-31.95219,14.1509,1.25219,-20.81083,22.96483,-1.70487,-1.96668,3.02864,-0.15059,-41.95964,18.6531,-4.58347,43.72836,-21.66718,-3.81565,-2.15668,0.56989,0.50866,-2.22506,-2.3978,0.10234,0.54996,-1.34545,-0.43076,1.59885,-0.08273,0.34043,0.11808,-0.09966,0.00671,0.15084,0.04285,0.11081
1272,5.14646,-16.45137,4.92144,-5.80345,11.00167,1.49322,-20.16015,-6.04988,1.87141,-26.17099,18.05728,5.26272,-20.82392,23.02781,-1.96234,-2.21643,2.89664,-0.13164,-35.55141,27.51011,-0.57217,37.17356,-31.00834,0.50995,2.54996,-0.16919,0.14927,-2.41893,-2.18116,-0.40373,2.1148,-1.57282,0.18809,1.80685,-0.45455,0.20452,0.40773,-0.11691,0.06089,0.23085,-0.11816,0.06746
1273,5.38666,-17.12106,4.63189,-3.33933,14.14693,2.46762,-20.96573,-3.61058,0.74013,-19.22329,25.53193,9.15201,-20.93185,23.09964,-2.29845,-2.11972,3.02345,0.12873,-28.48132,40.05704,1.92348,34.41282,-33.76099,5.00913,4.86789,1.3913,0.13135,-0.70577,-3.38037,-0.01837,2.87088,-1.3165,0.66211,2.28799,-0.95963,-0.03061,0.55816,-0.09602,0.09757,0.2808,-0.2632,-0.00306
1274,6.7191,-18.44324,4.21139,-0.42232,17.28746,3.35046,-20.52144,-2.26025,-0.44335,-16.85722,30.52901,10.17369,-21.05615,23.10437,-2.7031,-1.75465,3.40462,0.46052,-27.48103,42.49467,0.32818,29.41486,-27.12993,11.40742,4.10867,3.18054,0.0307,4.27609,-5.05709,1.73875,2.38313,-1.03739,0.53343,3.03614,-1.15503,-0.07218,0.42546,-0.05616,0.06227,0.28995,-0.26275,-0.02437
1275,7.48112,-20.25005,4.14067,-0.14189,17.67377,3.30734,-21.15784,-3.30674,-0.63757,-22.74656,30.6136,8.17725,-21.22381,23.26954,-3.1606,-1.48672,3.6776,0.55648,-37.39446,36.86793,-2.74847,24.59996,-20.50461,13.62271,3.31515,2.90757,-0.27512,7.64595,-5.34128,3.00134,1.7105,-1.0856,0.2286,3.31566,-0.90578,0.07617,0.19737,-0.03133,0.01157,0.26872,-0.16233,0.00276
1276,6.16423,-21.90521,4.59234,-3.05423,14.97372,2.30537,-25.37656,-5.0596,0.17402,-32.59819,26.85144,4.76457,-21.49863,23.77138,-3.67282,-1.43767,3.59364,0.3558,-53.46739,32.60699,-4.65586,24.54055,-20.10367,6.30909,3.87033,0.89845,-0.44265,4.97137,-3.65686,2.1503,1.59526,-1.32269,0.19477,2.59872,-0.44924,0.22236,0.09208,-0.05118,-0.00263,0.21118,-0.06002,0.04104
1277,3.67942,-23.16773,5.14532,-5.50144,11.96409,1.38994,-31.20085,-5.518,0.91426,-35.62102,22.82341,2.83869,-21.88568,24.44565,-4.22832,-1.4424,3.33066,0.14166,-61.20977,34.2877,-5.04167,29.29123,-24.95517,-3.90096,3.71664,-0.57089,-0.18824,-1.13914,-1.34908,-0.01839,1.69852,-1.59881,0.23,1.3365,-0.16742,0.20569,0.12434,-0.1408,-0.01697,0.11952,-0.0165,0.05184
1278,2.54498,-24.59108,5.2839,-4.37506,11.63179,1.49543,-32.58689,-5.0249,0.8004,-27.69773,23.60152,5.03686,-22.3175,24.99952,-4.77802,-1.40435,3.17299,0.14466,-51.51875,42.69997,-3.01368,36.03407,-33.10952,-5.22796,1.57586,-0.09335,0.34924,-4.36763,-0.22533,-1.35455,1.53645,-1.82485,0.09329,0.6746,-0.18183,0.09627,0.18463,-0.25629,-0.04559,0.0947,-0.04179,0.03966
1279,3.59003,-26.333,4.92529,-1.00918,13.92727,2.37483,-28.1157,-3.64845,-0.01381,-16.5426,29.84919,10.34164,-22.76851,25.38179,-5.29033,-1.46578,3.13489,0.26646,-32.04118,56.95679,0.72953,40.92979,-41.40152,3.10718,-0.43228,1.23827,0.75821,-2.46279,-0.95386,-0.85585,1.24736,-1.71013,0.05398,1.15418,-0.37389,0.05616,0.21591,-0.26575,-0.00784,0.2063,-0.1148,0.03661
1280,4.74588,-27.91334,4.55669,1.08365,16.43196,3.11486,-25.91487,-2.3041,-0.82341,-11.58327,35.61243,14.1881,-23.28861,25.6551,-5.79154,-1.77071,3.1127,0.34251,-21.37966,67.37392,2.26177,42.29203,-40.71634,10.16306,-0.26794,1.39483,0.74955,1.27644,-2.81701,0.60822,1.13016,-1.21963,0.27076,2.15032,-0.599,0.12386,0.22714,-0.13061,0.10922,0.34154,-0.18716,0.05001
1281,4.41855,-29.09586,4.57421,0.4866,16.92228,3.14028,-32.13627,-3.96799,-1.03538,-14.50901,34.35117,12.73397,-23.87175,25.74838,-6.28615,-2.16057,3.1218,0.38433,-29.23809,60.29449,-1.27667,41.60461,-24.75632,9.09513,1.47435,-0.17429,0.29848,3.92479,-4.56319,1.9398,1.26098,-1.03098,0.37295,3.04454,-0.70365,0.31187,0.23639,-0.031,0.16251,0.39279,-0.2046,0.08319
1282,3.5955,-30.2485,4.78101,-1.26421,15.26017,2.56511,-40.65159,-8.51182,-0.5847,-20.74211,27.57484,7.27836,-24.47003,25.61904,-6.7508,-2.29857,3.18456,0.44038,-44.79513,41.20071,-6.90939,37.69197,-5.60364,5.73581,3.76847,-1.50234,-0.25486,5.99805,-5.29042,2.83804,1.77781,-1.4535,0.32261,3.77794,-0.70216,0.53935,0.27154,-0.07945,0.09892,0.37941,-0.18109,0.11985
1283,3.20148,-31.59971,4.84226,-1.82687,13.36912,1.95708,-43.13866,-10.89892,0.01762,-24.75018,23.39786,3.21958,-25.10411,25.45312,-7.20926,-2.15067,3.21256,0.46796,-50.40693,33.59625,-9.13133,25.57434,-4.2014,8.513,6.09502,0.05897,-0.39985,7.93892,-4.68013,3.14448,2.56705,-1.6535,0.59694,4.0873,-0.6889,0.58098,0.31877,-0.11584,0.05567,0.31723,-0.15134,0.11158
1284,2.65821,-32.80676,4.70195,-0.52651,12.69866,1.7314,-41.3615,-7.26661,-0.17686,-24.43682,23.87247,2.98972,-25.73652,25.44613,-7.696,-2.03835,3.13997,0.41618,-44.62753,45.80924,-8.62515,10.16979,-22.33947,15.3168,7.20548,3.53837,-0.12699,8.53618,-3.35183,2.72784,3.04909,-1.22113,1.0641,3.79213,-0.64498,0.38082,0.33046,-0.03849,0.0881,0.25511,-0.1065,0.0679
1285,1.50921,-34.05695,4.59545,1.06753,12.97736,1.89294,-42.04814,-0.80228,-1.57398,-23.32832,23.50914,4.15299,-26.21319,25.53186,-8.21772,-2.15152,3.07927,0.35759,-42.41058,61.15706,-9.90707,8.74958,-40.36232,16.7077,6.07683,4.54579,0.08024,7.36781,-2.77972,1.90459,2.88926,-1.02514,0.99922,3.48203,-0.6647,0.11527,0.30667,0.01951,0.09449,0.31299,-0.07027,0.05588
1286,0.43331,-35.54061,4.58178,1.40915,13.36977,2.22744,-45.55281,3.15982,-3.34165,-24.57337,20.55612,4.94594,-26.49856,25.58216,-8.74623,-2.38237,3.16462,0.40147,-49.28004,66.24624,-12.75486,26.11871,-44.65646,11.41637,3.65136,2.06489,0.12457,5.78605,-4.1073,1.29201,2.46147,-1.55916,0.43278,3.90434,-0.9787,-0.08029,0.30386,-0.03951,0.05561,0.51922,-0.11224,0.09257
1287,-0.05106,-37.02852,4.58731,1.19556,13.98238,2.56958,-48.69989,2.40231,-4.19525,-25.33579,21.07323,6.80681,-26.75237,25.58196,-9.26583,-2.59606,3.31982,0.53233,-55.52943,65.58673,-13.10726,43.63805,-40.24229,8.51367,2.12454,0.05459,0.30574,5.71245,-6.50997,1.47561,2.36594,-2.16374,0.14238,5.05433,-1.43807,-0.0661,0.38443,-0.16228,0.04723,0.75558,-0.22912,0.15004
1288,-0.36613,-38.93117,4.86448,1.63805,15.26175,2.78485,-52.22851,-3.13544,-3.65856,-22.82029,28.39063,10.06519,-27.09263,25.58004,-9.77706,-2.81476,3.34573,0.62529,-56.17113,65.18211,-10.16579,43.226,-34.45213,12.59798,3.61701,0.32716,0.47402,8.29874,-6.72513,2.63952,3.06881,-2.43005,0.47566,6.20823,-1.30624,0.4619,0.5902,-0.28036,0.07898,0.88771,-0.29347,0.2359
1289,-1.08584,-41.34832,5.55981,2.63822,16.00183,2.66932,-58.18989,-10.07744,-2.56501,-18.05921,34.04057,11.20638,-27.48946,25.64261,-10.22439,-3.12311,3.1664,0.57238,-54.82499,61.53144,-8.94406,29.42975,-26.49994,17.88418,8.57278,0.33844,0.16243,12.47638,-2.55012,4.17506,4.62698,-2.78951,1.104,6.70797,-0.11957,1.55194,0.87712,-0.37127,0.10816,0.88636,-0.18138,0.36839
1290,-2.44252,-42.8241,6.16508,3.9257,14.7393,2.28376,-64.98267,-11.42175,-2.19979,-12.45234,29.30869,8.13175,-27.9128,25.73339,-10.55939,-3.46283,2.9392,0.43428,-53.95838,55.4343,-12.87184,21.96237,-19.04372,18.78265,13.52766,-1.01374,-0.49812,14.83581,2.39171,4.91198,6.02326,-3.4022,1.46533,6.52844,1.17329,2.41669,1.02617,-0.42496,0.09147,0.81516,0.02559,0.47658
1291,-3.87818,-42.38013,6.0966,5.21694,12.6674,2.045,-67.84795,-4.78311,-2.82825,-9.21519,20.50854,4.66867,-28.40199,25.7325,-10.82602,-3.6679,2.88812,0.39811,-54.10921,58.25232,-16.61058,29.30264,-23.44106,18.14677,13.81703,-1.6987,-0.80766,12.98341,2.27211,4.22187,5.90954,-3.6632,1.27909,5.98174,1.17592,2.16302,0.85665,-0.41504,0.02507,0.72007,0.10416,0.44707
1292,-4.34543,-41.1622,5.46155,5.74149,12.45286,2.21306,-65.16871,3.21621,-3.76664,-12.68493,19.92675,5.3774,-29.0138,25.63967,-11.09729,-3.72104,3.04323,0.54006,-56.4251,73.23197,-14.49781,38.35232,-44.24329,21.38601,10.17002,-0.60572,-0.39331,8.86585,-2.46305,2.74846,4.65667,-3.20768,0.97946,5.36756,0.03101,1.0592,0.55673,-0.33167,0.00668,0.61968,-0.03213,0.27141
1293,-3.99785,-40.5449,4.82557,5.07472,14.40965,2.54867,-61.64087,5.60259,-4.46803,-21.66353,27.1516,8.74638,-29.76724,25.57012,-11.41423,-3.80299,3.21416,0.72342,-61.12627,86.6095,-10.637,35.51413,-67.5892,27.15867,7.36401,1.2781,0.39652,6.64277,-6.58915,1.63933,3.91193,-2.52943,1.12534,4.93133,-1.15297,-0.02942,0.46293,-0.23069,0.10814,0.53916,-0.29444,0.0214
1294,-4.49303,-40.29583,4.58058,3.99432,15.9412,2.61625,-62.48235,2.76759,-4.60856,-28.35155,31.1088,9.55877,-30.56999,25.5904,-11.77678,-4.01457,3.19912,0.77255,-65.59151,84.92317,-12.03162,28.26,-71.16138,27.99988,6.98213,2.62871,0.83462,7.97744,-8.13371,1.38345,4.15153,-2.33534,1.38785,4.84612,-1.9953,-0.82703,0.57836,-0.1963,0.19422,0.51281,-0.5644,-0.22112
1295,-6.43523,-39.7151,4.73323,3.95531,15.27619,2.35123,-67.48593,-2.09943,-4.00512,-26.08585,26.49904,6.13331,-31.298,25.78037,-12.11329,-4.26369,3.01275,0.69283,-65.43024,69.07018,-18.40996,30.66005,-47.68491,19.41086,7.09328,3.17825,0.63371,9.82841,-8.7344,1.28961,4.54186,-2.62148,1.17671,4.93714,-2.57125,-1.41556,0.67582,-0.23409,0.12223,0.53365,-0.71934,-0.36306
1296,-8.04782,-39.07602,4.9923,5.33126,13.80565,2.10506,-71.91502,-7.76678,-3.19991,-16.67502,20.04644,2.53989,-32.06225,26.34704,-12.36209,-4.47417,2.85943,0.62821,-57.62066,53.94757,-23.37957,37.79107,-21.35466,7.36573,6.83055,3.5673,0.2035,7.88593,-8.29818,0.50001,4.54827,-2.83775,0.73003,4.93464,-2.26202,-1.3466,0.68878,-0.27402,-0.00276,0.56717,-0.5802,-0.28144
1297,-8.21934,-38.32599,4.92952,6.77162,13.84088,2.14516,-72.83311,-10.83063,-3.21824,-8.9929,20.85614,3.34217,-33.1456,27.4367,-12.60684,-4.66549,2.89718,0.68853,-47.46724,58.17735,-22.26015,36.7168,-24.36213,2.47568,7.17031,3.45628,-0.16761,3.14823,-5.17209,-0.18534,4.30583,-2.81972,0.53326,5.01373,-0.45717,0.02589,0.67362,-0.28887,-0.03166,0.61585,-0.07599,0.11634
1298,-8.93351,-36.33168,4.4675,7.07322,15.53299,2.41305,-74.09975,-7.51304,-4.0768,-8.86956,28.20249,7.78924,-34.59755,28.96094,-12.97955,-4.87127,3.13034,0.88318,-48.56588,80.48475,-17.33801,32.26357,-50.38108,5.16123,8.52561,2.07732,-0.50579,0.97286,-1.31945,0.52347,4.15264,-2.81924,0.59592,5.35804,1.5647,1.93991,0.6363,-0.28953,0.00787,0.66816,0.42259,0.61301
1299,-12.24681,-32.81239,4.08839,6.85257,16.7543,2.67229,-79.96869,-1.82843,-4.29851,-11.99616,32.90284,11.38521,-36.20944,30.78814,-13.44434,-5.0555,3.3984,1.07621,-63.33818,95.83552,-13.42695,37.74575,-65.48593,8.26735,9.04765,1.21852,-0.37046,2.71149,-1.07087,1.63853,4.23362,-2.8367,0.77547,5.43874,1.68374,2.4183,0.59196,-0.25811,0.05592,0.64873,0.38933,0.68738
1300,-16.50105,-29.12049,4.09051,7.54349,15.88687,2.70606,-84.93625,-1.18017,-2.84176,-10.74939,30.25825,11.67173,-37.90219,32.93094,-13.83433,-5.07664,3.49116,1.08162,-73.44484,89.07919,-11.35198,51.69751,-62.88934,12.69914,6.75152,3.35643,0.77391,4.97014,-3.94521,1.56512,4.33368,-2.66577,1.03842,4.65558,0.13578,1.00356,0.61066,-0.21084,0.12967,0.50438,-0.07472,0.22589
1301,-18.54312,-26.19976,4.01215,9.16922,13.6174,2.45625,-80.53983,-4.59248,-1.08713,-5.3833,24.17195,9.33224,-39.86175,35.41618,-14.10898,-4.8786,3.42827,0.90877,-65.50999,73.16383,-11.3982,61.3444,-59.79753,21.76683,3.51486,7.166,2.45253,7.38275,-6.7362,1.06697,4.16041,-2.08017,1.54027,4.41243,-1.24963,-0.65174,0.65521,-0.15188,0.26445,0.47712,-0.43872,-0.22525
1302,-18.20237,-23.42045,3.32345,10.28487,11.49815,2.06301,-68.10754,-6.33007,-1.13514,-1.86284,19.23297,5.90861,-42.28653,38.18798,-14.40438,-4.6163,3.43725,0.74977,-47.48695,65.02935,-14.72935,56.61131,-53.15659,26.0917,3.628,8.01554,3.07662,10.05949,-7.90426,1.49552,3.66321,-1.21797,2.1774,5.2367,-1.42689,-0.98703,0.5584,-0.04718,0.39517,0.59982,-0.43767,-0.25698
1303,-17.8678,-19.96567,2.27041,10.10395,10.21239,1.76364,-55.72445,-6.67679,-2.50184,-1.61576,15.33945,2.63853,-45.18596,41.21785,-14.80604,-4.48195,3.58131,0.7222,-30.45794,62.34718,-19.0304,39.1839,-35.47089,17.11149,7.86911,3.99319,1.57686,10.32734,-7.1229,2.3455,3.14964,-0.87024,2.23259,5.33033,-0.73463,-0.13943,0.35029,0.01821,0.36122,0.56839,-0.24794,-0.04056
1304,-19.00583,-15.11986,1.27466,9.46048,9.67731,1.71342,-48.96114,-6.47136,-3.19097,-1.05659,10.43091,0.04934,-48.41593,44.51096,-15.2026,-4.50058,3.67978,0.79124,-17.97537,56.23341,-21.45116,21.18151,-26.69423,4.32509,12.38992,-0.5998,-0.72311,7.10991,-4.13634,2.21974,3.21958,-1.52403,1.51771,4.11913,0.01474,0.76037,0.33165,-0.09019,0.15611,0.37704,-0.12624,0.07172
1305,-20.87023,-8.30402,0.26093,9.68788,9.35035,1.88006,-48.76992,-1.73067,-2.77351,1.57675,4.61153,-1.70369,-51.74876,48.00059,-15.4056,-4.50551,3.62121,0.88295,-13.70231,49.40083,-22.40488,13.85604,-40.46687,-0.54463,13.51023,-1.22849,-1.42653,1.98721,-0.65879,0.53442,4.02598,-2.57587,0.92685,2.76494,0.31409,0.86897,0.5898,-0.29694,-0.00282,0.2362,-0.12708,-0.03547
1306,-22.65605,-0.87439,-0.61141,11.03517,8.04244,2.05751,-53.70079,6.13597,-1.76269,4.754,-0.60882,-2.4684,-54.94487,51.5169,-15.41267,-4.32528,3.4654,0.90234,-20.80591,46.36903,-22.49756,21.52051,-54.28966,-0.4108,10.45426,0.77271,-0.22723,-2.84994,-0.98162,-2.21658,4.60165,-3.07626,0.84491,2.06799,-0.01567,-0.00851,0.78473,-0.38082,0.00145,0.19395,-0.17369,-0.23011
1307,-24.67366,5.27932,-1.01822,12.21474,5.61885,2.01389,-58.93833,10.23041,-0.30733,5.63143,-2.23051,-1.73994,-57.83592,54.82612,-15.39579,-3.96091,3.29228,0.78584,-33.59467,47.12647,-19.29435,40.55236,-45.4753,-0.75016,5.23555,2.37192,1.22421,-5.4504,-5.47421,-4.47212,4.1905,-2.79266,0.72324,1.86322,-0.57326,-1.08982,0.68628,-0.28001,0.05692,0.18999,-0.17915,-0.30304
1308,-26.44684,9.41854,-0.99622,11.71738,4.30191,1.66416,-56.37733,6.49233,1.60248,1.22231,4.15629,1.17475,-60.3318,57.65213,-15.42494,-3.52825,3.16779,0.61884,-40.21746,51.45321,-8.93377,59.81652,-23.2927,0.40496,2.26417,3.15645,1.662,-4.4479,-8.10337,-4.28433,3.6272,-2.41224,0.34467,1.93911,-0.59217,-1.08478,0.52011,-0.15957,0.02201,0.23659,-0.1052,-0.15107
1309,-26.54487,11.17671,-0.60302,9.8217,5.61747,1.14932,-42.96524,-5.16582,3.6965,-7.11265,16.86423,5.2818,-62.39473,59.69608,-15.40115,-3.08828,3.12749,0.52877,-34.28329,53.45083,6.85654,67.62653,-8.02643,3.13438,4.88026,3.39851,1.07675,-0.43264,-5.2879,-1.52808,4.01526,-2.55574,0.18646,2.37532,0.00784,0.12619,0.55319,-0.15776,-0.09431,0.34979,-0.0151,0.09727
1310,-24.35294,12.26971,-0.46211,7.58659,7.37557,0.71159,-23.69042,-16.87776,4.58401,-13.55176,24.61392,7.13688,-63.97572,60.70913,-15.16805,-2.71585,3.07428,0.49336,-18.66492,46.24289,17.87564,58.1708,-4.77297,3.08813,9.86127,3.08086,0.09587,3.79245,-1.04409,1.44568,4.67785,-2.883,0.26003,3.09653,0.50728,1.31858,0.63823,-0.20859,-0.21095,0.4668,-0.00883,0.23488
1311,-20.43785,15.55893,-1.52152,5.08785,6.26025,0.53036,-4.83049,-18.48136,3.40608,-14.68291,17.55738,3.89731,-64.85843,60.49329,-14.59798,-2.52617,2.87115,0.43542,-0.56138,30.64163,16.28153,35.97949,-7.21775,0.0042,10.54286,2.65779,-0.62358,5.63882,0.24152,2.61338,4.10048,-2.69369,-0.0361,3.53349,0.55219,1.69204,0.47548,-0.17964,-0.26574,0.48799,-0.05874,0.23538
1312,-15.24832,19.90984,-3.19182,2.40707,2.26865,0.60639,11.73593,-13.94578,2.55777,-13.86389,-0.48985,-3.00739,-64.54153,58.8663,-13.63188,-2.47622,2.54382,0.378,13.07815,9.09848,8.66877,17.29347,-11.1463,-2.69292,6.36902,2.58889,-0.44584,5.06717,-1.3884,1.90751,2.35944,-1.88524,-0.31445,3.25856,0.35089,1.23336,0.13335,-0.07861,-0.14003,0.36284,-0.06802,0.15604
1313,-9.11561,21.09742,-3.68987,0.19325,-1.22461,0.74691,26.88019,-14.19613,4.40511,-17.6109,-14.90933,-8.32999,-62.53494,55.67784,-12.35731,-2.37341,2.25652,0.37584,18.64678,-11.49735,8.39966,19.14887,-17.42309,-4.53601,2.71687,2.45499,0.5355,3.31801,-4.03747,-0.05009,0.99548,-1.1557,0.20612,2.64511,0.06674,0.1706,-0.05352,-0.04714,0.16357,0.16176,-0.04433,-0.01159
1314,-2.92517,18.41793,-2.88297,-0.98093,-1.89608,0.80539,40.04199,-15.11415,6.11768,-25.21134,-17.26363,-8.5082,-58.75083,50.9166,-10.93166,-2.11267,2.09536,0.3997,21.90528,-15.32369,15.87408,40.27443,-26.32288,-6.40359,2.97999,1.56563,1.21592,0.45721,-5.4919,-2.44388,1.15817,-1.32993,0.97173,2.11158,-0.1539,-0.69838,0.07065,-0.16038,0.39377,0.02197,-0.05069,-0.2021
1315,4.40713,15.0175,-2.61958,-0.6679,-1.23972,0.85426,52.16273,-6.80554,3.91122,-26.69919,-13.48577,-5.2922,-53.24047,44.87284,-9.2937,-1.77957,1.94477,0.35286,36.46542,-0.1601,20.02264,58.34827,-33.80573,-5.24284,6.02195,0.80822,1.47403,-2.95433,-5.02419,-4.18689,2.72024,-2.27359,1.4381,1.61362,-0.2436,-0.82701,0.39579,-0.31384,0.44141,0.01737,-0.09719,-0.3004
1316,13.42588,12.4326,-3.51749,0.66395,-1.25326,0.95278,63.47673,4.70815,-0.22821,-17.44208,-10.50279,-1.94023,-45.99505,37.92096,-7.33197,-1.50217,1.70065,0.23847,60.90255,14.05108,18.34994,54.78822,-34.37157,3.09381,7.5295,2.00651,2.52759,-3.88606,-4.32584,-4.24468,4.27083,-2.85941,1.81827,1.3351,-0.27451,-0.60836,0.68,-0.34402,0.41609,0.12196,-0.1368,-0.27443
1317,20.09526,11.64531,-5.12594,1.2255,-1.2933,0.96467,70.94834,12.12066,-2.84041,-6.84537,-6.96316,0.49941,-37.3051,30.52656,-5.1452,-1.32376,1.47127,0.19624,75.71616,18.06787,18.11992,37.18344,-23.27903,13.28679,4.62154,4.11323,3.51636,-0.75793,-4.02656,-2.05466,4.36049,-2.48134,1.30364,1.67125,-0.11447,-0.00957,0.70262,-0.21419,0.23033,0.25005,-0.10951,-0.08578
1318,21.00826,14.36298,-7.95483,0.3492,-0.69493,0.83899,72.91514,20.31234,-3.60445,-4.7514,-2.99471,1.11519,-27.99252,23.62531,-3.04913,-1.27766,1.36625,0.28509,72.29813,19.15513,20.1731,24.49531,0.70048,10.44267,2.61199,3.63488,1.70844,3.28021,-2.91544,1.22526,3.48682,-1.88797,-0.52543,2.49068,0.3177,1.34509,0.49817,-0.04773,-0.19333,0.32285,-0.03313,0.23038
1319,16.66457,18.69236,-11.28111,-0.30493,-1.11194,0.77977,67.67677,30.89609,-2.96737,-8.42241,-5.39808,-1.7482,-19.30972,17.96589,-1.52907,-1.39075,1.28257,0.37633,59.29203,15.26356,16.43465,21.60456,26.93372,-9.18866,7.9941,0.68191,-2.18015,4.77302,-1.44621,3.03228,3.077,-1.83092,-1.60303,3.2266,0.63442,2.55305,0.30294,0.01713,-0.48363,0.33337,-0.00505,0.41916
1320,9.86845,20.4544,-12.93303,0.40959,-3.81406,0.91773,56.29658,35.34336,-1.83897,-10.39262,-16.24419,-7.01944,-12.26877,13.47559,-0.81365,-1.55086,1.04575,0.31342,46.58952,-1.81695,4.25341,24.74295,38.03677,-28.02483,14.70752,-0.93532,-4.06298,4.20532,-1.59269,2.13046,3.2349,-2.18528,-0.90827,3.36148,0.46996,2.1151,0.27894,-0.07355,-0.33955,0.29489,-0.0524,0.23686
1321,5.03606,18.73004,-12.93819,1.57599,-6.79328,1.08907,47.19825,29.65043,-2.41211,-8.8601,-25.03134,-9.94659,-7.06376,9.81695,-0.72937,-1.60865,0.68737,0.14249,40.33507,-21.09823,-7.8166,37.34346,30.60832,-29.64153,11.78803,0.03303,-2.45124,3.40205,-4.13526,-0.84798,3.18702,-2.46566,-0.55263,2.84864,-0.02066,-0.18613,0.36848,-0.23438,-0.05823,0.23144,-0.09625,-0.22801
1322,5.40821,15.6962,-13.35373,2.2337,-6.67881,1.09862,47.0404,22.60518,-4.88016,-4.62737,-19.71361,-6.73497,-3.33646,6.79681,-0.97166,-1.57335,0.4504,0.10206,44.07817,-17.60005,-10.43355,55.18119,18.06727,-18.80016,1.75146,0.98034,-0.20108,2.19427,-7.46382,-4.36269,2.62754,-2.30029,-1.67359,2.12143,-0.34963,-2.59159,0.372,-0.29063,-0.00734,0.19832,-0.06223,-0.5051
1323,7.56412,13.25865,-14.51231,2.52747,-3.12381,0.98324,51.10405,20.31294,-6.35266,3.18101,-3.04651,0.78401,-0.89826,4.33452,-1.25543,-1.53045,0.44199,0.29393,54.25287,5.64201,-3.71423,52.67007,10.30599,-9.09267,-2.45933,-0.1592,-0.58109,1.00934,-8.08461,-5.17228,1.92806,-1.78196,-2.67255,1.6049,-0.22243,-2.62327,0.23742,-0.20449,-0.16472,0.18652,0.01993,-0.21187
1324,6.01911,6.45011,-11.08122,2.01537,0.7305,0.83494,62.63917,4.70663,-1.20039,12.22599,10.35828,6.77353,3.04242,-1.15088,-0.54345,-1.55944,0.48911,0.53353,74.43435,0.61862,10.71475,17.68395,5.95492,-4.76108,4.48966,-2.20012,-3.63303,3.23392,-5.37001,-1.07946,1.8219,-1.55665,-2.33397,1.7967,0.0474,-0.31151,0.16523,-0.1178,-0.36701,0.19355,0.01289,0.31568
1325,1.08258,5.11474,-8.32047,-0.5397,1.68884,0.61983,67.37807,-5.78135,3.28996,15.44917,11.32216,7.17566,2.39582,-1.37384,-0.41355,-1.73652,0.37088,0.58302,83.75137,-17.94474,16.94224,-20.14159,6.69391,-3.713,14.50894,-3.36565,-6.87706,9.17832,-3.68423,4.26414,2.75767,-2.10086,-1.81869,2.60194,-0.00595,1.27918,0.33149,-0.14233,-0.5266,0.20759,-0.10917,0.38141
1326,-3.51313,4.41301,-5.3283,-3.92792,-0.63886,0.39052,68.1569,-16.40248,6.18943,10.37016,2.62833,2.78687,1.8388,-1.08551,-0.12977,-1.93423,0.0551,0.40495,80.55323,-46.91758,13.93427,-25.42976,18.05466,-2.99225,17.56633,-3.39763,-7.41424,13.86583,-5.27947,5.83087,4.2132,-3.01752,-1.9728,3.33099,-0.16375,0.65502,0.61722,-0.24097,-0.51375,0.25765,-0.17801,0.01662
1327,-4.64287,5.86206,-5.43351,-4.49976,-4.00153,0.38613,54.37558,-13.41306,4.34003,3.66559,-8.98529,-2.72154,1.59058,-0.18183,0.04024,-1.8059,-0.27539,0.16115,56.21457,-57.929,-0.53304,-3.33667,33.11849,2.44627,12.80804,-1.68623,-3.50425,14.3033,-6.20598,5.14423,4.90781,-3.40949,-1.35206,3.66081,0.15,0.26927,0.73652,-0.28376,-0.22234,0.40202,-0.08321,-0.0064
1328,-3.11842,8.85049,-8.42516,-2.27865,-6.15954,0.61516,32.39147,4.87383,2.48654,0.1687,-18.34542,-6.29453,1.65283,0.7886,0.04338,-1.36966,-0.43238,0.00218,25.17104,-43.02551,-14.68989,13.16361,36.75711,10.51732,6.27448,1.7392,2.54167,11.78337,-4.19805,5.1693,3.92779,-2.70781,0.59926,3.20213,0.66184,1.18652,0.56514,-0.19547,0.14782,0.43804,0.06477,0.3954
1329,-1.26029,10.88067,-10.99691,-1.39219,-6.72034,0.78838,19.82192,24.38917,6.56637,-2.83629,-21.75251,-6.99216,1.86175,1.10449,-0.01978,-1.12296,-0.41415,-0.03572,9.55758,-16.61463,-14.34641,13.25473,27.32405,7.83394,3.097,3.54027,4.72945,8.25857,-3.27808,2.86071,1.76019,-1.26987,1.93176,2.46537,0.58394,0.51975,0.27272,-0.07349,0.26214,0.32391,0.07665,0.3266
1330,-1.98091,10.19908,-10.00297,-3.60621,-6.34592,0.76712,24.26028,25.20889,11.95931,-7.38747,-19.01639,-5.75475,1.86842,0.70663,-0.07747,-1.33013,-0.3406,0.04306,14.23193,-8.2466,-4.09277,15.5977,21.37655,-8.57646,4.89564,1.33473,0.80136,4.4675,-5.96146,-3.76004,0.3011,-0.47758,1.49904,1.97672,-0.02915,-2.7215,0.158,-0.10176,0.10089,0.12425,-0.01795,-0.43052
1331,-6.45112,7.34123,-5.43797,-6.37899,-5.9444,0.73342,37.37215,2.05054,7.62372,-9.41116,-14.91853,-4.13666,1.46775,0.16434,-0.11237,-1.66876,-0.33298,0.18702,27.83214,-34.5399,-3.40156,28.82027,29.83211,-20.32456,9.01387,-1.63466,-3.76505,3.01041,-9.76279,-9.5043,0.96261,-1.28215,0.308,2.11097,-0.42106,-5.48591,0.28058,-0.27495,-0.0641,-0.05156,-0.07654,-1.02067
1332,-11.26451,4.86517,-1.30034,-6.98232,-5.35818,0.8108,44.60673,-24.66781,-6.74132,-3.28201,-11.52839,-1.90359,1.03141,-0.05037,-0.12544,-1.70494,-0.38282,0.33309,40.24166,-68.32024,-19.06402,40.06345,40.28708,-13.46492,9.9167,-1.22628,-3.64597,6.14674,-11.33116,-8.76902,2.73587,-2.45842,-0.95188,3.41205,-0.21531,-4.93941,0.37639,-0.31317,-0.08945,0.10045,-0.09806,-0.83711
1333,-11.9811,4.47993,-0.80076,-6.64408,-4.50328,0.87015,38.3829,-30.7023,-17.18832,5.65047,-8.7312,0.85461,1.05917,-0.09428,-0.16508,-1.48831,-0.44702,0.39344,42.78783,-70.74535,-35.12109,44.71863,33.96815,2.15283,5.86125,1.59103,-0.9054,10.31638,-9.21716,-2.49821,3.64904,-2.08885,-2.63049,4.88182,0.21522,-1.42709,0.31545,-0.03281,-0.16602,0.55324,-0.1314,-0.11925
1334,-9.61943,4.81059,-1.93635,-7.80591,-3.90088,0.78614,22.51967,-15.94794,-13.23197,4.67469,-7.18953,2.32301,1.28776,-0.38922,-0.31179,-1.38746,-0.49186,0.35057,25.67503,-40.56504,-33.78952,52.43418,11.00726,11.63987,0.4463,3.20094,0.63177,10.60075,-4.83659,3.50859,3.14181,-0.54707,-3.95168,4.77562,0.39804,1.92112,0.23145,0.29063,-0.31875,0.83183,-0.13765,0.42812
1335,-9.78601,4.49825,-1.51179,-9.21187,-3.80319,0.73641,6.52671,1.137,0.17307,-3.65266,-7.68585,1.91887,0.94593,-0.76154,-0.4758,-1.48952,-0.46054,0.32611,-1.52064,-8.76031,-17.28394,60.26104,-9.89737,14.69239,-2.40652,2.36433,0.97463,7.88296,-1.59924,5.16112,2.04206,0.16438,-3.55081,2.9811,0.3324,2.25008,0.18304,0.25298,-0.30407,0.61377,-0.06522,0.32608
1336,-13.20763,5.75809,-0.86699,-8.51415,-4.28959,0.95178,-0.0108,9.10851,12.99169,-3.53147,-11.11737,0.68799,0.10704,-0.46237,-0.33805,-1.62605,-0.37574,0.40363,-7.46008,0.81217,-0.49865,52.03701,-11.26788,17.23291,-0.94185,0.58116,0.64485,6.62264,-1.18664,4.15395,1.39044,-0.64057,-2.00254,1.16767,0.26309,0.43613,0.13631,-0.07422,-0.142,0.15558,0.04116,-0.10339
1337,-14.87258,10.27452,-2.17031,-6.76864,-5.08134,1.27124,4.2632,9.34038,18.65845,6.56798,-16.74624,-1.29175,-0.28582,0.63626,0.2888,-1.71657,-0.31855,0.54967,15.43777,-12.08968,3.27436,25.04157,7.25235,19.1308,3.32391,-0.22266,-0.82343,7.88797,-2.06595,4.11112,1.44709,-1.68175,-1.15654,0.7385,0.25201,-0.40845,0.0916,-0.27514,-0.07819,-0.06486,0.06867,-0.17436
1338,-12.27319,14.02068,-3.66736,-6.41555,-5.61399,1.38445,13.13089,5.12288,14.87491,10.65435,-21.27957,-4.29535,0.28038,1.43984,0.93306,-1.70729,-0.3123,0.69378,37.06966,-33.62828,-7.53434,0.72569,29.68762,16.12887,6.65695,0.54803,-2.12779,9.27749,-2.58679,4.75399,1.78415,-1.84691,-1.39738,1.75495,0.26359,0.42762,0.06701,-0.18642,-0.12979,0.1097,-0.01705,0.16659
1339,-7.85436,11.74718,-3.05959,-6.3854,-4.77919,1.28858,18.13533,-1.22213,5.64337,3.53249,-18.99148,-5.52599,1.27198,0.95691,0.7698,-1.38088,-0.23189,0.83665,34.27749,-42.00515,-19.39573,5.97884,39.07775,7.39708,6.91645,1.81438,-1.21931,9.11337,-2.9764,3.16244,2.12007,-1.57025,-1.66707,3.1751,0.33356,0.85885,0.09217,-0.03966,-0.13032,0.40528,-0.09914,0.33873
1340,-6.02542,6.16703,-1.52706,-4.24508,-3.14466,1.37103,16.7827,-5.64626,2.51492,-3.20436,-11.51163,-2.45214,1.78986,-0.26024,-0.18759,-0.64063,-0.00148,0.93252,17.2972,-29.73659,-16.96388,39.72869,28.50466,0.40226,4.70405,2.45303,1.96146,7.7242,-4.12237,-1.36932,2.50689,-1.66229,-1.57403,3.73537,0.42624,-0.49975,0.18617,-0.04425,-0.07693,0.46579,-0.07002,0.01548
1341,-9.53293,5.1029,-0.74231,-1.36623,-3.49227,1.91258,15.42102,-5.80187,15.21997,-4.53986,-8.89649,1.78365,1.49854,-0.8566,-0.88712,0.15453,0.19694,0.84489,4.48036,-16.77981,1.08692,67.39401,6.06569,3.72376,2.06812,2.68411,5.29567,5.99615,-5.78585,-6.30517,2.74357,-1.88025,-1.5824,3.08856,0.43664,-2.60624,0.26711,-0.08608,-0.0929,0.26061,0.02832,-0.49044
1342,-16.6638,9.49143,0.21516,0.1609,-3.851,2.2404,17.07912,-3.7152,35.36695,-4.04843,-6.76829,3.69979,0.63433,-0.38337,-0.55759,0.55873,0.42265,0.8023,2.60005,-11.30065,22.85493,63.97057,-9.44676,12.56387,1.29858,2.72519,5.23858,4.67799,-6.59816,-8.27698,2.34519,-1.3726,-1.73142,2.2063,0.39546,-3.29248,0.24826,0.02178,-0.18644,0.10396,0.08631,-0.66678
1343,-20.07277,10.79812,1.93064,1.49369,-0.89671,1.89016,16.77994,-2.5721,37.10322,-2.05938,2.58869,3.95854,-0.20992,0.35049,0.28985,0.59884,0.9513,1.14961,12.88835,-5.2234,30.55895,39.01613,-10.6026,14.09646,3.24318,1.86939,0.31944,4.25288,-5.51705,-5.60795,1.51789,-0.37575,-1.53289,1.99924,0.38718,-1.5567,0.23364,0.13415,-0.2303,0.17938,0.07369,-0.36098
1344,-13.30895,4.93925,2.26839,5.02055,2.94263,1.63953,7.57081,-0.31857,11.16912,3.03291,10.14148,4.19144,-0.29137,0.5731,0.71329,0.78396,1.69627,1.71518,27.35928,3.92309,19.2007,11.52958,-9.62828,5.91663,6.25611,0.23028,-5.18631,3.91393,-2.94136,-0.26314,1.14253,-0.24626,-0.84034,1.83654,0.37292,1.103,0.31226,-0.00985,-0.13392,0.24263,0.05851,0.0656
1345,-0.87466,0.31384,0.52329,11.52166,3.27646,2.19946,-9.98163,6.32455,-15.54235,8.54849,5.64047,3.37157,0.43646,0.45773,0.62188,1.49614,2.2462,1.99528,27.54231,11.68982,4.26693,-4.98201,-14.87516,-6.4544,7.65878,-0.71986,-5.90013,2.89757,-1.1414,1.86841,1.48303,-1.24738,-0.29595,1.21061,0.41088,1.68674,0.35563,-0.28476,0.00398,0.13795,0.11305,0.10637
1346,7.72565,0.98914,-0.95518,20.71399,0.41882,3.20887,-18.52101,11.20708,-21.54631,14.6394,-4.99053,0.41642,1.38255,0.32057,0.30717,2.77457,2.4686,1.88262,21.23195,9.2568,-6.22189,-2.24693,-16.69567,-21.30171,6.42127,0.05929,-2.70415,1.74893,-2.46302,-3.92577,1.8043,-1.73439,-0.72524,0.93972,0.60351,-0.96948,0.26023,-0.29824,-0.01323,0.06108,0.19681,-0.26145
1347,8.37345,0.68055,-1.25831,30.98965,1.46924,3.20201,-10.22172,7.94727,-15.53326,21.62424,1.6892,-0.83109,1.95771,0.0943,-0.2388,4.53704,2.87336,1.94054,24.36557,11.62958,-11.70438,13.47879,-6.73868,-33.76056,4.57244,2.34227,0.15967,0.41873,-5.79949,-14.54344,1.66134,-0.77259,-1.9254,1.45543,0.7804,-4.41212,0.13324,0.03909,-0.20676,0.15575,0.19847,-0.5873
1348,2.96663,-0.82095,-1.14932,40.73393,10.30208,1.58664,-0.21433,-0.08509,-5.3865,25.70798,33.6876,3.23996,1.91806,-0.14581,-0.80182,6.67295,3.88654,2.55101,26.69032,37.40565,-2.27947,29.69424,2.51912,-29.30693,4.47277,4.92999,2.73245,-2.32817,-6.81136,-20.27022,1.58813,0.03875,-2.58438,1.60939,0.68149,-5.03626,0.09247,0.33717,-0.33639,0.23976,0.11949,-0.53429
1349,-4.28228,0.53535,-0.25395,51.44673,19.31951,0.28245,1.44997,-6.05582,5.96632,29.64566,60.2191,8.96316,1.47685,-0.19305,-0.86778,9.08754,5.08356,3.19622,21.99603,59.19706,14.09258,47.02298,-3.05233,-4.16046,4.85777,6.2026,7.65451,-5.85754,-3.72208,-16.35597,1.94594,-0.78715,-1.998,0.4705,0.45254,-2.66655,0.07535,0.24168,-0.19645,0.12063,0.10379,-0.2716
1350,-10.21991,2.70014,1.43744,66.03097,22.03931,0.64353,-2.05006,-5.28921,7.7973,41.93784,57.87854,11.02276,0.94603,-0.07116,-0.21685,11.77281,5.95304,3.27987,22.47853,48.93407,11.14499,69.25402,-9.07258,16.31407,3.08411,5.44502,12.75236,-7.29547,-0.416,-10.74953,2.23502,-1.95242,-1.21825,-0.69756,0.49536,-1.19653,0.00286,-0.0503,0.05996,0.0023,0.22463,-0.28116
1351,-12.37306,2.09039,2.3443,84.28933,21.61554,1.58671,-7.57,1.74814,-4.34683,63.5341,40.93149,9.1561,0.50086,-0.02095,0.71068,14.69736,6.67864,2.90198,35.76506,23.11318,-12.98327,80.61803,6.64359,4.27015,0.54079,3.70982,12.99235,-6.46321,-0.9762,-13.64812,2.06707,-1.8059,-1.32912,-0.53502,0.76414,-3.14178,-0.04389,-0.12934,0.11457,0.0847,0.35692,-0.67898
1352,-10.44278,-1.29188,1.08443,102.85549,21.51032,2.21426,-16.35931,9.62961,-21.88897,83.91543,29.47311,6.22982,0.19094,-0.16112,1.05255,17.8925,7.61715,2.43199,51.72751,7.88002,-32.70382,59.2213,27.8783,-28.87164,0.34432,2.68505,9.01523,-5.59728,-4.41162,-22.62166,1.81947,-0.95883,-1.96717,0.4305,0.79421,-6.0143,0.04178,0.03439,-0.0912,0.20471,0.31942,-0.96799
1353,-6.50017,-6.42699,-2.79251,119.083,22.55339,2.45785,-31.69154,14.77115,-36.92331,94.06944,30.80083,4.44868,-0.12779,-0.26743,0.35288,21.6313,8.90654,2.12712,52.96128,13.46036,-32.89209,15.32243,19.06843,-44.1628,1.86983,2.75678,6.90346,-5.86007,-6.49325,-26.97239,1.95806,-0.7945,-2.26556,0.86605,0.50865,-6.30342,0.22007,0.11697,-0.29575,0.17342,0.14466,-0.77032
1354,-2.05671,-10.0463,-6.96028,133.65948,25.23656,2.29328,-53.87917,17.64272,-40.90636,100.29253,39.90365,3.86588,-0.65965,-0.09628,-0.66062,26.02025,10.45542,2.00328,37.9343,31.70461,-17.0682,-10.97909,-12.89159,-27.69251,2.56104,3.18758,9.66164,-7.92953,-5.01576,-24.46193,2.21277,-1.39341,-1.88602,0.08695,0.41028,-4.5441,0.33622,-0.04934,-0.27864,0.03371,0.09268,-0.43567
1355,1.62812,-7.43933,-6.3251,149.11058,29.30327,1.82454,-72.74086,19.08602,-25.63019,116.82806,46.78806,3.37979,-1.20971,0.19932,-0.80337,30.58575,11.96723,1.84683,31.28376,44.75892,7.61051,4.84137,-30.81878,-2.99696,2.47751,3.70986,14.86846,-11.32581,-1.93418,-22.23623,2.17119,-2.22591,-1.06554,-0.93854,0.71417,-3.45791,0.32311,-0.31162,-0.12241,0.04032,0.26475,-0.48647
1356,4.83667,-1.63429,-1.68657,166.22212,34.18646,1.19437,-75.06228,22.11143,-6.38556,145.2941,48.90573,2.69034,-1.22667,0.3549,-0.2103,34.81657,13.18888,1.52781,55.69514,45.52621,23.98756,44.49559,-24.08728,6.85982,3.05398,4.18792,19.97097,-13.57922,-0.27426,-23.78408,2.1154,-3.41099,-0.21335,-0.97379,1.0234,-3.86498,0.27251,-0.5624,-0.00089,0.26956,0.48725,-0.92165
1357,9.80878,-0.64966,-1.01531,182.86902,38.51709,0.85337,-72.75416,27.78351,-7.1345,171.81912,46.31483,2.35782,-0.75248,0.40216,-0.11575,38.75488,14.06861,1.1108,87.86021,36.73795,19.44558,72.07822,-7.51031,-0.93145,2.66474,3.74267,23.71157,-13.64915,-0.96289,-27.06318,2.00991,-4.17579,0.41014,-0.53651,1.09402,-4.98186,0.19623,-0.68977,0.09805,0.44013,0.5861,-1.2898
1358,15.91178,-5.29812,-7.36944,197.25267,40.80989,1.27691,-98.96487,28.62212,-22.16513,187.91162,36.85836,2.08913,-0.63809,0.45986,-0.88184,42.64557,14.6832,0.71771,80.1699,20.92189,12.49524,73.20687,4.15644,-19.14457,-0.22217,1.95004,25.28612,-14.10836,-2.42562,-30.93586,1.62444,-3.44679,0.37719,-1.0556,1.14572,-6.21466,0.04753,-0.56905,0.21604,0.30295,0.52283,-1.18301
1359,19.1934,-8.76058,-13.54868,209.6003,42.52137,1.78503,-151.98039,17.96015,-24.65073,200.19858,26.7274,0.63562,-0.92404,0.45222,-1.50449,46.4253,15.1798,0.49505,38.30808,4.34495,29.10028,55.90717,-2.26664,-39.47486,-2.51052,0.0507,24.29757,-17.40796,-1.84378,-33.97562,1.28491,-2.26864,-0.30191,-3.04227,1.39092,-7.04475,-0.14275,-0.35495,0.32017,-0.14736,0.43162,-0.69305
1360,10.38988,-5.68373,-10.04334,220.39046,47.24409,0.89713,-190.53093,0.12856,-1.51759,216.59445,30.06352,-1.87602,-0.95283,0.19642,-1.03522,49.89615,15.70931,0.56367,13.72534,0.97123,65.28521,36.7061,-28.11145,-57.2154,-0.69221,-0.40822,19.41431,-22.47339,2.55318,-32.70302,1.34755,-2.49274,-0.49877,-5.46222,1.70537,-6.24567,-0.24275,-0.36554,0.39868,-0.59884,0.46014,-0.30362
1361,-21.56565,1.19597,2.18834,228.91246,53.46329,-0.86902,-191.08131,-12.27703,29.39872,233.43292,43.40795,-3.1187,-1.27165,-0.27472,0.09948,53.02532,16.09199,0.7196,23.75468,11.8034,83.61333,37.05239,-48.39312,-68.5219,2.85677,0.27806,10.06894,-25.02678,8.02567,-27.53414,1.51527,-3.38905,0.43202,-6.19488,1.8256,-3.77786,-0.10227,-0.57132,0.40744,-0.62844,0.5458,-0.36706
1362,-71.25938,5.80658,11.681,234.42366,55.54033,-1.3414,-168.59285,-9.97508,38.68147,242.91956,46.72545,-1.63382,-2.99869,-0.63563,0.85738,55.95023,15.98416,0.62618,39.65922,18.87021,51.13462,59.71727,-38.8303,-64.55083,2.36807,-0.13909,0.10064,-22.40569,9.46447,-22.95921,0.63004,-2.45403,1.87608,-4.44234,1.54276,-1.66738,0.10032,-0.59448,0.34048,-0.29459,0.54606,-0.71898
1363,-108.27213,6.49063,11.59396,237.51247,53.48307,-0.5783,-128.49416,2.52129,18.92348,244.55296,38.83871,0.17955,-5.0613,-0.55583,0.94975,58.85751,15.49271,0.3991,58.16951,11.98227,-22.02329,74.65966,-9.96282,-44.07827,-2.36936,-2.75532,-5.92224,-17.91863,7.75181,-19.30803,-1.58364,0.16302,2.81729,-2.37939,0.93589,-0.2312,-0.03202,-0.29928,0.27256,-0.01712,0.36223,-0.83317
1364,-100.44036,4.4984,4.59083,238.96886,53.0056,-0.92968,-37.1406,11.93462,-14.70673,241.35399,40.19967,-1.24336,-4.63758,0.09484,0.60909,61.70852,15.06543,0.45743,129.21423,-1.69055,-98.0249,63.62422,10.22702,-28.40253,-6.17083,-5.86132,-9.00658,-15.34727,7.40564,-15.61923,-3.66902,1.72971,3.13476,-1.68776,0.52289,1.25446,-0.49559,-0.06022,0.37328,0.09428,0.06441,-0.57829
1365,-49.58587,1.10609,-4.40181,238.08694,56.16637,-3.11396,107.90021,10.8042,-43.55667,232.73853,57.66584,-5.51506,-1.14646,0.89765,0.04778,64.08038,14.8336,0.84998,263.46518,-13.1184,-144.59735,52.93684,14.82354,-38.33601,-7.28213,-8.03079,-13.01815,-15.06983,8.2201,-15.62017,-4.75698,2.08188,3.29768,-1.75364,0.58616,1.16509,-0.86734,-0.08835,0.6844,0.18005,-0.07257,-0.52841
1366,3.96321,-2.01223,-11.38673,235.19273,58.8313,-5.01855,218.7843,2.78912,-53.18679,222.0334,73.61707,-8.40047,2.34851,1.12059,-0.46556,65.63813,14.50044,1.20042,368.29871,-17.79464,-144.8588,62.49659,20.42884,-59.28735,-7.67058,-9.47004,-17.78722,-14.58655,6.40907,-18.87492,-5.34203,3.37727,2.70785,-1.26259,0.59316,-0.94874,-0.88831,0.02701,0.83013,0.3008,-0.02929,-0.88111
1367,24.54445,-3.56285,-14.36933,232.39816,58.35708,-5.20986,213.77705,-4.48663,-41.06227,214.90117,76.72554,-7.55414,3.16524,0.68711,-0.723,66.44433,13.92135,1.29323,354.39938,-11.23307,-104.67899,60.89229,40.34329,-60.59369,-7.09186,-9.83135,-21.47344,-9.39816,0.24987,-15.94309,-5.33688,4.79164,1.30044,1.10119,-0.2817,-1.28133,-0.63489,0.33058,0.55122,0.52333,-0.14596,-0.90015
1368,16.52929,-3.34226,-12.96151,229.07657,56.05157,-4.36516,127.75475,-7.48944,-18.91829,207.60324,72.59414,-4.55855,2.23941,0.23404,-0.8024,66.68628,13.29229,1.28695,255.71721,0.51773,-51.29752,23.53597,67.10349,-40.84142,-4.2252,-8.17552,-25.03189,0.58675,-6.19383,-2.69804,-4.25471,4.31226,0.12648,4.82625,-1.70881,2.77943,-0.28273,0.4445,0.02782,0.808,-0.53795,-0.14275
1369,5.79559,-2.09443,-8.75576,221.79845,54.20103,-3.8751,52.53385,-6.65896,-5.12465,192.26637,70.34737,-2.50959,1.84218,0.14163,-0.9256,66.43522,12.93528,1.44951,168.12514,9.24682,-17.18441,-12.68747,75.46423,-22.62545,-0.81981,-5.78767,-27.34269,8.99701,-6.47481,11.23844,-2.97606,2.85812,-0.21305,7.21662,-2.17283,8.22504,-0.04346,0.36575,-0.33141,0.92164,-0.86075,0.7752
1370,6.14046,-1.88874,-7.80872,210.31096,53.27733,-4.05539,27.88264,-3.43326,-14.91912,168.95125,71.26595,-2.79948,2.55038,0.25174,-1.23345,65.59375,12.99684,1.78781,127.9766,17.19981,-23.0136,-12.12325,51.10389,-17.42139,1.03044,-4.19908,-25.41351,11.40721,-0.43154,16.2241,-2.29179,2.03283,-0.04661,6.85954,-0.97504,10.97028,0.00387,0.29061,-0.30775,0.75574,-0.80669,1.19013
1371,11.7395,-3.78204,-13.87746,199.98857,52.06666,-3.7776,37.79006,0.18874,-44.81229,147.81044,68.21358,-3.462,3.4338,0.13153,-1.47865,64.08532,13.35053,2.09294,114.16933,22.54955,-63.16442,-1.76872,15.84921,-19.23326,1.83105,-1.68857,-22.65053,10.88607,3.92102,14.90912,-2.16897,2.10847,-0.22787,5.67747,0.30435,10.48905,-0.15978,0.39975,-0.16226,0.56007,-0.57036,1.13722
1372,11.49898,-5.36466,-19.90411,194.19,50.14886,-2.3471,55.50635,2.76611,-69.34369,135.48911,56.12446,-2.11348,3.1922,-0.33354,-1.09429,61.98431,13.79676,2.29094,107.10966,13.54128,-103.00184,-14.99994,2.30956,-18.11575,3.5462,3.48579,-23.7773,12.08395,-0.06872,15.16685,-1.75371,2.09559,-1.35024,5.95653,-0.46273,8.70829,-0.39571,0.5975,-0.27183,0.56009,-0.58099,0.96845
1373,4.02187,-4.05189,-17.74901,188.89314,47.19058,-0.08351,67.76461,4.48352,-68.92911,124.99562,36.93771,1.28171,1.30711,-0.43915,-0.21875,59.46896,14.11298,2.42787,105.69654,-15.07694,-108.01547,-36.07761,9.923,-8.94909,5.86218,8.60692,-25.57823,14.92951,-9.14504,19.06757,-0.7986,1.46312,-2.51779,7.56757,-2.8911,7.82444,-0.46358,0.60596,-0.49792,0.65973,-0.85956,1.02863
1374,-4.18457,-0.50127,-8.38588,179.08455,43.3182,2.03788,71.49245,4.26366,-42.07251,107.98907,21.66903,4.54565,-1.02984,0.25226,0.27848,56.69199,14.10394,2.52037,106.72509,-43.66916,-68.04062,-40.17769,11.90301,6.88319,7.14674,10.6141,-22.95716,17.7414,-14.54882,23.94174,0.34403,0.61456,-2.7446,9.21997,-4.38908,9.0418,-0.20285,0.35527,-0.53753,0.71072,-0.97764,1.50178
1375,-7.26349,2.62611,4.28239,165.62122,40.19423,3.01106,65.97475,-0.1668,6.04078,91.9523,21.77695,5.46571,-1.78309,0.9248,0.24799,53.57362,13.59919,2.55767,104.10455,-45.99081,3.54768,-31.94311,-4.15799,25.7712,7.57989,11.3301,-15.75303,20.90696,-13.60287,27.94689,2.10634,-0.46464,-2.23233,10.35387,-3.82779,11.33754,0.28392,0.01591,-0.41669,0.72202,-0.72946,2.07953
1376,-5.49254,3.32785,14.42529,153.60437,39.78901,2.6561,53.64452,-5.66273,47.13432,95.75273,34.76754,3.92379,-0.41591,0.75893,0.32253,50.05429,12.53808,2.59584,110.14758,-23.94702,58.08272,-18.62415,-19.37015,43.3723,7.43534,13.27469,-6.77819,24.19817,-10.95562,30.37065,4.38103,-1.51124,-2.20917,10.88781,-2.69053,12.52416,0.60701,-0.13031,-0.39472,0.71753,-0.41377,2.22018
1377,-5.69885,2.38785,14.69401,145.51399,42.35178,1.67033,38.14163,-6.01074,44.76123,122.77935,46.41815,1.94813,0.95524,0.13571,0.56135,46.57656,11.10196,2.72682,138.5296,-4.84024,48.98656,-1.73177,-11.09328,50.7975,6.85602,15.18241,-0.24491,25.84173,-10.30876,30.65748,6.21556,-1.85683,-3.23886,10.78974,-2.45779,11.99259,0.59839,-0.00711,-0.50658,0.6852,-0.33175,1.94973
1378,-14.96362,2.41556,6.53509,138.78227,46.67103,0.46409,18.56524,-0.89015,7.94273,151.17935,49.86321,0.76179,0.00467,-0.05836,0.63221,43.60817,9.66378,2.92356,168.31348,-2.53204,-4.35718,-1.86826,9.30523,40.67192,7.59283,15.09259,0.41939,24.48,-10.92849,28.49829,7.40728,-1.76448,-4.16285,10.00797,-2.87304,10.58954,0.59264,0.122,-0.54736,0.63751,-0.38729,1.71534
1379,-30.7673,4.15911,-0.45022,129.93842,50.12264,-0.8203,-3.10636,3.95889,-19.36014,157.76968,48.29766,-0.67452,-2.74579,0.4183,0.54076,40.90383,8.49227,2.98744,165.51399,-8.23851,-44.88358,-29.85443,6.37691,22.48215,10.17923,14.15391,-1.82167,19.70673,-12.77247,24.28512,8.39129,-2.28788,-3.30341,8.7122,-3.87546,8.76137,0.88509,-0.04574,-0.37101,0.5804,-0.51,1.60872
1380,-43.4359,5.96788,0.16555,117.92123,49.10337,-1.48767,-17.97526,3.90533,-12.24167,138.50761,40.79997,-3.00729,-4.89865,0.87198,0.45713,38.00483,7.57738,2.73642,125.23603,-17.19633,-44.66817,-47.7837,-27.10109,18.15212,11.22492,14.24004,-0.50049,13.39469,-16.51101,19.94957,8.83349,-3.34294,-1.29774,7.48977,-5.77333,6.95038,1.19788,-0.38014,-0.13019,0.48473,-0.79331,1.45762
1381,-47.90127,6.77471,5.23581,105.2665,43.91485,-1.16229,-22.21994,0.65288,13.54424,107.9335,27.20881,-4.84866,-5.21854,0.72213,0.41596,34.97916,6.94912,2.30578,72.49007,-29.92986,-20.91209,-21.8212,-58.36548,34.25303,8.03947,14.35451,3.85373,10.22053,-19.5616,18.10474,7.82594,-3.45026,-0.87043,7.27198,-7.44833,6.36903,1.07153,-0.43974,-0.17215,0.42204,-1.10478,1.3744
1382,-45.91483,6.94248,9.24705,96.55119,38.52176,0.0157,-23.56075,-1.00107,32.10654,86.66756,13.57929,-4.13663,-4.19547,0.20065,0.49983,32.09169,6.7485,1.98915,36.31004,-41.98793,1.93211,15.63576,-60.04483,53.05922,3.74833,13.11216,4.82383,12.19384,-19.95179,19.18092,5.48788,-2.13108,-2.22862,8.16297,-7.87179,7.1327,0.55079,-0.14682,-0.4226,0.4969,-1.2207,1.50562
1383,-39.48964,6.69113,10.25026,93.06517,34.87292,1.76444,-24.74675,0.33239,30.17951,81.71572,3.90294,-0.88666,-2.69217,-0.19245,0.80176,29.35938,6.96747,1.86706,30.92751,-51.62214,8.76802,13.2954,-37.62029,57.09908,2.94511,12.01832,1.07831,15.06023,-19.48622,20.42193,3.42696,-0.64581,-3.03827,8.7627,-7.6571,7.49046,0.12094,0.18877,-0.52675,0.61484,-1.16457,1.59414
1384,-31.01643,5.64475,7.48775,89.72842,30.3261,3.67156,-19.14635,2.05456,6.22994,77.67708,-6.58041,2.38475,-1.44116,-0.23828,1.06911,26.74766,7.25615,1.72061,41.7088,-66.11671,-10.56978,-20.81625,-7.85765,47.15411,5.08309,12.80888,-1.77875,13.86816,-19.98223,19.12252,2.92639,-0.27006,-2.08066,8.06704,-7.65258,6.43304,0.07958,0.27723,-0.35602,0.61587,-1.1169,1.38748
1385,-25.42726,3.91278,2.11873,81.82445,23.12977,5.11765,-9.65205,2.6473,-23.60871,59.79562,-20.44148,3.16295,-1.00683,-0.04019,0.95121,24.28139,7.26378,1.39433,38.66342,-83.56636,-43.35851,-41.53491,21.45045,34.16381,6.74227,14.33613,-0.31303,9.37296,-21.19701,16.17773,3.98033,-0.94449,-0.737,6.92018,-7.93973,5.09034,0.35417,0.12562,-0.12785,0.51937,-1.15956,1.08478
1386,-22.91251,2.56288,-1.33201,71.63639,15.7972,5.86689,-3.05008,2.87113,-34.10932,34.10833,-32.33003,1.85567,-1.05665,0.13166,0.60947,21.79179,7.01536,1.02975,17.93459,-92.21002,-56.65585,-35.7549,38.90057,25.92508,6.66872,13.99905,2.37924,6.03993,-21.99014,14.34154,5.40215,-1.62465,-0.68691,6.41596,-8.07524,4.71322,0.63766,-0.00692,-0.1077,0.4361,-1.16859,0.97935
1387,-17.66023,1.77556,-1.50748,63.5588,11.45513,6.07489,7.70412,1.77367,-22.0939,12.22855,-36.78599,0.65316,-0.577,0.09099,0.3128,19.02317,6.68531,0.86399,3.74312,-91.5782,-40.79581,-16.02977,26.3606,23.96445,5.97375,11.09389,3.12183,5.67923,-21.14963,14.01493,5.85873,-1.92828,-1.08479,6.47535,-7.58896,5.19999,0.67005,-0.05351,-0.16328,0.42078,-1.02073,1.11687
1388,-9.57784,0.37168,-1.73319,58.57643,10.19976,5.98461,25.47868,-2.26678,-4.20408,-2.27289,-33.46984,0.56412,0.55053,-0.09834,-0.08286,15.97056,6.20982,0.95303,6.78735,-88.74413,-13.6085,12.06629,-12.31709,26.56742,4.87072,7.39418,3.39207,6.41194,-18.89633,13.62901,5.07492,-2.22195,-0.39944,6.50969,-6.77788,5.75554,0.47706,-0.19146,-0.0001,0.46037,-0.84589,1.36428
1389,-5.99265,-1.74117,-3.37939,55.50525,9.66584,5.99211,33.25687,-6.36808,6.08023,-7.61804,-26.85536,1.37056,1.33726,-0.28434,-0.63678,12.69655,5.38869,1.13224,11.91511,-82.95176,6.08719,36.42591,-42.26657,30.60784,2.40151,5.28029,5.51133,6.73232,-16.62654,12.483,3.7551,-2.45052,0.87048,6.1576,-6.18193,5.63227,0.26028,-0.40912,0.32508,0.48507,-0.79678,1.44496
1390,-9.45024,-3.31224,-4.64583,53.4571,9.69758,5.9578,21.55612,-6.92077,-2.0825,-1.41855,-17.47262,2.74604,1.2288,-0.37816,-0.91865,9.1654,4.35071,1.34734,10.63922,-68.56929,-0.00332,38.62638,-37.25119,31.02066,-0.43992,5.76269,8.19802,6.31308,-15.66671,10.8998,2.73644,-2.21878,1.42312,5.45476,-5.94502,4.59447,0.16719,-0.46508,0.48831,0.4376,-0.81626,1.15596
1391,-14.49098,-3.71412,-4.33324,52.96082,12.68407,5.35275,3.18472,-6.1122,-31.6959,15.6817,0.19119,4.31205,0.78911,-0.28377,-0.57253,5.31544,3.52452,1.76154,12.99964,-44.63169,-37.4705,15.82807,-8.65128,20.95514,-0.18106,7.51484,7.78332,3.9535,-16.28974,8.48608,2.61643,-1.79875,1.20251,4.5707,-5.94505,3.0058,0.2862,-0.33956,0.3493,0.32257,-0.80245,0.60434
1392,-15.7028,-2.97721,-2.7692,55.10052,17.64475,4.65035,-5.16628,-7.89551,-59.06874,39.29815,24.02627,5.6713,0.76503,0.02261,0.04201,1.11226,3.09721,2.37369,30.90653,-18.64421,-73.43111,-19.03761,16.83494,1.40143,3.92217,7.97725,3.34137,-0.43568,-17.45231,5.00364,3.11555,-1.74865,0.8213,3.58596,-6.00401,1.42792,0.51756,-0.23533,0.05079,0.18074,-0.7994,0.07655
1393,-12.509,-0.49909,-0.59478,59.07699,20.73835,4.79542,8.91271,-11.59027,-52.32743,62.19867,43.87173,7.19029,1.23966,0.3335,0.31097,-3.30022,3.00501,3.01131,72.90083,-1.35975,-64.43632,-43.51642,24.18774,-11.80829,6.30217,6.27963,-0.34137,-4.24522,-18.53108,1.88187,2.79701,-1.75485,0.64233,2.7451,-6.36296,0.32245,0.47291,-0.19234,-0.15127,0.07915,-0.95374,-0.17692
1394,-7.81125,3.36484,1.05709,61.05545,20.12788,5.93247,40.80246,-13.54588,-15.24133,74.38876,51.89743,9.6166,1.77943,0.39321,0.11935,-7.70568,3.23348,3.62097,125.06084,2.79776,-14.3183,-36.19274,14.3734,-7.02989,2.95948,4.2672,1.26505,-5.53898,-18.28839,0.20455,1.46162,-1.34165,0.76473,2.31204,-6.68652,-0.03382,0.12956,-0.15355,-0.07572,0.0721,-1.1687,-0.07865
1395,-3.47819,4.90993,0.92139,57.97293,16.80715,7.58872,65.89413,-13.62414,14.99969,68.90875,46.7925,12.35289,2.13743,0.13514,-0.2745,-12.05217,3.75262,4.2639,149.79643,-3.50974,28.64532,-1.28766,1.01425,4.00634,-1.48656,3.28116,4.27971,-4.94444,-15.09296,-0.27392,0.62965,-0.65304,0.4946,2.18792,-5.80234,0.39169,-0.08177,-0.06381,0.09101,0.13177,-1.10433,0.21913
1396,1.4156,2.02907,-0.29624,52.18579,13.8988,9.096,70.27678,-14.66477,17.82857,51.17737,36.31682,13.72194,2.51881,-0.30574,-0.58646,-16.50909,4.43253,5.00803,133.34355,-14.20854,35.01684,31.86221,-0.43575,5.89956,-0.81263,2.90153,2.5885,-3.32091,-10.70185,0.53787,1.14391,-0.2647,-0.62715,2.11611,-3.73591,1.17868,-0.03431,0.08417,0.0433,0.16929,-0.69428,0.43723
1397,5.35019,-3.26053,-0.98881,48.80937,12.91295,10.29259,58.05044,-17.74806,3.45084,37.24553,26.61323,13.20805,2.96744,-0.81729,-0.74031,-21.28044,5.0038,5.75725,96.56436,-28.96208,13.83721,40.9332,10.23666,5.40968,3.61075,3.10325,-1.15019,-0.32638,-8.80529,2.98916,2.61259,-0.75996,-1.4418,2.05861,-2.05309,1.63677,0.14892,0.11434,-0.12127,0.14896,-0.27642,0.43658
1398,4.3848,-7.3783,-0.31428,50.14148,14.50032,11.3086,35.43544,-19.79922,-10.57841,39.26128,21.82017,12.80413,3.04812,-1.26953,-0.71405,-26.27548,5.3909,6.49501,63.97544,-40.59459,-11.39759,27.04058,16.30575,13.471,5.54391,4.01385,-1.10137,3.02716,-9.87867,5.40596,3.58642,-1.56988,-0.94719,2.10017,-1.90136,1.38427,0.33932,-0.03649,-0.14771,0.12435,-0.16549,0.30453
1399,0.27374,-6.61911,0.86365,54.63582,19.54151,12.18185,15.08294,-16.58852,-13.14399,54.19729,26.30214,14.51785,2.67379,-1.31421,-0.43236,-31.21946,5.81864,7.39787,54.35016,-34.29902,-19.17048,3.946,9.00371,17.9656,3.82991,4.62541,0.71834,2.70429,-11.01491,4.04299,2.96805,-1.49562,-0.30982,1.95892,-2.75637,0.41106,0.3854,-0.11922,-0.14218,0.12347,-0.33292,0.13762
1400,-0.76498,-1.82862,0.65347,58.63594,26.00082,13.0639,17.18521,-12.22785,-6.48923,67.53557,35.4062,17.25122,2.48288,-0.91447,-0.09789,-35.98628,6.37611,8.47157,77.35213,-20.46516,-7.03904,-14.14776,1.70873,3.67832,2.77934,4.36784,-0.48634,-3.41752,-10.34309,-2.17644,1.52725,-0.62763,-0.62191,1.2332,-3.30108,-0.94181,0.24947,-0.00917,-0.24631,0.11215,-0.54204,-0.05578
1401,3.4406,3.07359,-1.40978,59.52014,30.84581,14.08979,43.78853,-12.11298,2.67717,70.09805,41.15495,19.0332,2.85136,-0.48407,0.0073,-40.50675,6.97638,9.56318,119.50129,-18.89231,13.46638,-18.40647,5.24409,-15.80065,3.89889,4.20267,-2.78331,-10.34165,-8.59208,-8.43662,0.78219,-0.10375,-0.82083,0.24379,-2.96789,-1.91529,0.10066,0.09122,-0.24528,0.06515,-0.62785,-0.25934
1402,9.77523,5.75396,-4.24551,58.13608,34.30465,15.13233,70.11877,-12.23373,12.04243,68.11184,45.76395,20.23253,3.38622,-0.35257,-0.14217,-44.66671,7.62155,10.62665,153.20575,-19.81554,32.45445,-8.31867,8.53994,-14.29821,4.42009,4.70174,-1.54039,-10.53329,-6.85395,-8.43663,1.33532,-0.46204,0.0793,0.00942,-2.12881,-1.57773,0.13911,0.00767,0.03619,0.0152,-0.55674,-0.36336
1403,14.73845,5.15616,-6.023,56.819,38.53539,15.939,73.61247,-8.77698,17.23178,71.7387,56.24097,22.01305,3.66593,-0.55852,-0.36918,-48.48484,8.38287,11.68242,162.72285,-4.78902,40.03959,12.43794,2.09527,6.68786,2.78125,4.68758,2.06248,-3.95153,-5.43408,-2.34216,2.42388,-1.12416,0.81167,0.85561,-1.30426,0.06663,0.30116,-0.13399,0.31593,0.01708,-0.36564,-0.25446
1404,18.06869,2.36712,-5.92575,56.19743,43.59757,16.52553,55.43324,-3.23259,13.97688,77.51917,69.22511,23.43682,3.76628,-0.79055,-0.41902,-52.07961,9.2621,12.67289,145.70537,20.26561,30.94862,37.997,-1.63969,16.61473,1.44982,2.9366,2.77954,0.56134,-4.67841,1.67634,2.97006,-1.42956,0.08981,1.48193,-0.83173,1.04325,0.38787,-0.15426,0.22672,0.03657,-0.15126,-0.09401
1405,20.63702,0.30244,-5.25365,55.16899,47.95499,17.11136,32.11046,2.71857,5.93203,72.86896,75.51746,22.96348,3.78907,-0.64641,-0.17621,-55.44495,10.25359,13.54279,107.33612,36.63466,13.26602,53.39806,9.62276,-2.37611,3.17833,0.18623,-0.83159,-3.54647,-5.03902,-2.93632,2.95629,-1.53516,-1.2866,0.57801,-0.8641,-0.5863,0.41094,-0.12554,-0.19126,-0.00253,-0.02907,-0.19133
1406,20.69169,0.76674,-5.49667,52.81401,51.79698,17.75579,21.23907,6.43755,1.3232,54.63881,76.30323,21.78347,3.51383,-0.12826,0.20011,-58.37212,11.44178,14.3722,67.66468,35.75856,2.51323,43.72626,24.8932,-29.06293,5.85264,-1.2162,-4.37498,-11.07784,-6.14749,-11.50079,2.90777,-1.81423,-2.13571,-0.94423,-1.32144,-3.47916,0.45761,-0.18366,-0.58741,-0.03785,-0.08406,-0.45797
1407,17.38267,3.02966,-6.78999,48.82439,56.03434,18.36624,30.91359,4.97423,4.08792,29.90661,79.61787,22.55698,3.0081,0.35609,0.46759,-60.58609,12.8737,15.21889,47.65092,21.88935,7.73981,21.78977,28.60419,-31.72869,5.58719,0.51494,-3.29941,-12.38062,-6.63693,-13.7726,3.10106,-2.19885,-2.03474,-1.15558,-1.73062,-4.27572,0.52038,-0.30459,-0.59019,0.03765,-0.26386,-0.47746
1408,15.46678,4.61694,-8.40389,43.62588,61.37148,18.71786,54.31134,0.91101,11.91142,6.14545,91.40636,26.09477,2.97853,0.44732,0.56979,-62.02843,14.52736,16.02477,47.98772,13.35171,26.33499,17.93385,23.9408,-9.65844,2.6714,4.24375,1.62309,-6.58847,-5.9927,-7.65186,3.42628,-2.30612,-0.87455,0.13809,-1.65296,-2.0704,0.52882,-0.35676,-0.11222,0.15718,-0.37055,-0.1687
1409,18.86462,4.23999,-9.76674,38.42157,67.53268,18.61127,74.36559,1.2762,19.2024,-12.46627,109.05269,29.84493,3.75007,0.2712,0.60141,-63.03391,16.28011,16.61666,51.66898,27.16115,45.59122,36.05598,19.06289,10.72472,-0.44513,6.52548,5.80744,-1.48748,-5.28005,-1.46487,3.21268,-1.79838,0.49424,1.28901,-1.32471,0.28588,0.39387,-0.24384,0.43127,0.14187,-0.31118,0.00497
1410,24.05355,3.62482,-11.2938,34.55646,71.82118,18.29333,78.48269,8.77694,20.69757,-24.52845,118.61205,29.99105,4.57803,0.32849,0.56634,-63.82932,17.8791,16.78764,44.36465,51.50854,51.39544,51.92911,12.80535,10.50954,-2.27562,5.5817,6.20347,-2.66478,-4.57946,-2.65329,2.28798,-0.97988,0.72658,0.78069,-1.04904,-0.22324,0.22012,-0.0663,0.53853,-0.03649,-0.17556,-0.36405
1411,25.63144,4.79768,-13.67789,31.83282,73.72737,18.01775,69.24103,17.97303,15.15411,-32.92063,115.40675,26.62308,4.61175,0.81872,0.39286,-64.09013,19.3195,16.63403,25.53806,63.69161,42.30999,50.27554,5.5516,-3.70093,-2.48242,3.27094,3.70698,-7.23732,-3.65428,-8.76966,1.16935,-0.40471,-0.17387,-0.85587,-0.85051,-3.05646,0.11711,0.02918,0.22418,-0.16795,-0.08737,-0.98044
1412,23.37398,6.74666,-15.83523,27.1943,76.18571,17.43974,58.15383,20.99571,6.55277,-46.37941,112.46077,23.17653,3.91757,1.3417,0.16844,-63.53192,20.95038,16.4493,-1.75204,61.16692,29.42827,37.74878,4.19804,-13.19074,-1.84972,2.19925,1.23076,-9.12969,-4.30566,-12.29135,0.45406,-0.3328,-1.21288,-1.6599,-0.89423,-5.33832,0.0289,0.03556,-0.14862,-0.09369,-0.06737,-1.16715
1413,20.3126,6.81961,-15.43466,19.3241,80.02972,16.29429,53.72569,15.20486,1.26451,-68.12408,117.96966,21.20154,3.1688,1.33176,0.06791,-62.3068,23.02149,16.26806,-31.39372,52.84067,22.6453,26.06456,12.18272,-10.97129,-0.93372,2.44638,0.26534,-6.94996,-6.98708,-10.2156,0.61059,-0.80065,-1.74848,-1.11747,-1.01443,-5.47032,-0.04185,-0.00855,-0.32642,0.01034,0.01487,-0.75449
1414,17.54255,5.2182,-13.01895,11.51025,82.34552,14.97078,55.67809,7.15203,1.92799,-91.19269,123.70592,19.35879,2.7804,0.73341,0.06915,-60.65096,25.30606,15.78127,-56.17378,42.569,22.37016,20.33054,23.92434,-5.80242,1.03894,2.68923,-0.18152,-3.52369,-8.24106,-5.00075,1.54997,-1.4792,-1.64871,-0.50188,-0.63451,-3.72437,-0.01327,-0.06076,-0.28458,-0.08711,0.21659,-0.20871
1415,14.5236,4.96373,-12.09706,7.44517,81.2608,13.91958,56.54502,7.37381,4.33116,-105.69725,122.12659,17.42377,2.68118,0.13156,0.01122,-58.5701,27.2954,14.76556,-74.61959,38.29312,22.88031,22.42698,28.46977,-6.31688,5.09136,2.73619,-1.29402,-1.39092,-5.39699,-0.30635,2.92035,-2.00023,-0.90241,-0.57655,0.27078,-1.07901,0.16269,-0.09868,-0.13038,-0.30529,0.37961,0.02261
1416,11.73229,6.55183,-13.01539,7.32175,78.97092,13.16571,52.55953,14.46132,3.7982,-104.3754,117.14635,17.20054,2.68616,-0.06306,-0.07594,-55.86543,28.76794,13.45001,-81.34071,45.03028,20.68124,32.34277,21.52127,-11.97757,9.95383,2.6118,-2.79846,-1.31078,-0.91444,1.03426,4.10986,-2.23635,0.23237,-0.88115,0.90054,0.74237,0.39482,-0.14104,0.00019,-0.39878,0.3479,-0.15238
1417,9.83503,7.09727,-12.39052,9.22255,78.03474,12.50777,51.33598,15.23762,2.93863,-90.35559,112.39849,18.0752,2.66342,-0.12182,0.00515,-52.47892,29.93789,12.20036,-67.71902,46.10163,19.47931,37.79379,11.76772,-18.14365,11.69687,1.59214,-4.04445,-2.45128,0.19163,-1.48937,3.80954,-1.91444,0.74459,-0.61846,0.48477,0.22807,0.42912,-0.15648,-0.03608,-0.23055,0.13365,-0.56603
1418,8.21613,5.16211,-8.93974,10.91952,77.73576,11.61341,60.20116,5.43923,7.11767,-82.92807,105.98333,16.55695,2.43592,-0.4153,0.26804,-48.84356,31.02583,10.99127,-49.30001,25.74816,25.75701,27.32681,6.81815,-20.03353,8.19199,0.61146,-4.24686,-3.77288,-3.16283,-5.55811,1.7256,-0.93703,0.04925,0.27079,-0.619,-1.80687,0.20252,-0.09653,-0.22027,0.08268,-0.10612,-0.89383
1419,5.65114,2.69693,-4.87505,10.0483,76.50938,10.07817,71.84837,-5.11818,15.25084,-98.63708,99.22957,11.62552,1.90537,-0.82914,0.48797,-45.58616,31.94171,9.55195,-57.69862,-1.95344,38.70357,18.90901,6.0731,-14.51179,1.81531,1.80239,-2.13932,-5.32132,-6.65701,-8.75838,-0.20228,0.0121,-0.91429,1.0034,-1.30946,-3.00911,0.01301,0.00033,-0.30025,0.30074,-0.22831,-0.86762
1420,2.39078,2.79403,-3.17058,6.47551,74.22646,7.98616,75.19966,-7.11044,21.00679,-124.83729,94.48563,5.90609,1.34518,-0.91411,0.51466,-42.82631,32.43762,7.85026,-87.26378,-14.04311,48.09569,33.12295,11.48882,-6.01152,-3.53034,4.52852,2.09835,-7.08576,-7.23156,-10.74924,-0.47714,0.32538,-0.79942,1.04179,-1.32396,-2.83927,0.00085,0.08101,-0.07877,0.32646,-0.24335,-0.52523
1421,0.69207,6.92776,-5.36343,3.09499,70.81168,6.05079,72.55247,1.18638,20.12623,-135.49695,87.41693,1.31319,1.20005,-0.4732,0.42917,-40.18715,32.49149,6.1519,-98.77967,-8.43188,44.76717,52.32438,23.85779,-4.07426,-5.63634,5.78603,5.78348,-8.02768,-6.73983,-11.96595,0.17995,0.15574,0.37898,0.47982,-1.29254,-3.02273,-0.00352,0.11646,0.29608,0.19823,-0.20989,-0.15128
1422,1.5394,12.96582,-9.79222,1.89112,66.86743,4.75352,73.17242,12.89061,13.63356,-127.37115,77.66573,-1.46656,1.48746,0.05161,0.32723,-37.50578,32.41478,4.73484,-80.79446,2.446,32.8227,51.3553,31.21831,-8.07148,-5.83415,4.63815,6.88738,-7.37213,-7.08364,-11.79877,0.47764,-0.1475,1.0366,-0.21675,-1.43818,-4.04068,-0.06553,0.07976,0.43206,0.01164,-0.13908,0.01191
1423,2.93165,16.39987,-12.7171,1.28207,63.76015,3.86132,77.45496,14.16509,5.80443,-116.61405,72.88545,-1.23411,1.8155,0.01509,0.15771,-35.01751,32.43787,3.63237,-59.41171,4.25783,24.7475,39.46142,25.0675,-7.24216,-6.1964,3.44698,6.48559,-5.68104,-7.38817,-9.62171,0.48772,-0.51344,0.46736,-0.4551,-1.3778,-4.24296,-0.005,-0.03402,0.2401,-0.10567,-0.05425,-0.115
1424,5.634,18.42347,-12.7362,-0.51357,61.70621,3.03996,78.82172,7.16787,-0.59348,-110.07071,74.66991,1.70877,-1.38201,4.65606,-0.18647,-32.90107,32.43375,2.71605,-50.54974,1.25206,22.37889,35.02721,18.64565,-1.6812,-4.81637,3.67541,5.46704,-3.80572,-7.14312,-6.44227,1.09326,-0.93694,-0.03959,0.10883,-1.13663,-3.0543,0.24036,-0.1574,0.07264,-0.03948,-0.05004,-0.39103
1425,2.5579,11.48078,-7.35956,-2.33393,59.43207,2.25931,60.90441,-15.48673,-0.16986,-103.48969,75.11904,3.97699,-3.79026,5.76493,-0.68608,-31.17334,32.10574,1.8679,-64.35355,-22.6231,21.59546,33.4581,26.96956,-4.72509,0.49328,3.54678,2.47409,-2.56505,-6.64062,-4.47481,2.11867,-1.33817,0.05097,0.99386,-1.00823,-1.79319,0.4,-0.1855,0.05642,0.16644,-0.13765,-0.56142
1426,2.68251,4.16049,-1.89706,-2.48593,55.47766,1.50371,41.65322,-28.40244,3.78531,-97.54624,67.50765,2.08886,-6.52766,8.32934,-1.05003,-29.80289,31.30917,0.97549,-79.81012,-40.3498,15.51236,27.83207,39.58099,-18.59091,6.51215,2.03001,-1.64466,-3.00809,-5.17933,-5.27204,2.74069,-1.64768,-0.00667,1.1474,-0.80269,-1.39454,0.33029,-0.12513,0.02619,0.27208,-0.15946,-0.54342
1427,9.12226,-0.6251,0.97807,-1.43345,50.62244,0.68788,36.66977,-27.16633,6.95413,-95.90392,54.88701,-3.08438,-8.93464,12.43869,-1.15115,-28.53674,30.23821,0.03775,-83.83155,-42.54887,7.37683,27.76221,33.82111,-28.03626,7.35275,0.33887,-3.44759,-4.64988,-3.33384,-7.71029,2.32658,-1.5961,-0.49183,0.58473,-0.52762,-1.53235,0.18826,-0.06865,-0.05296,0.19263,-0.08632,-0.35323
1428,15.41737,-1.87515,1.36091,-1.16853,47.23493,-0.20358,41.00639,-17.2226,6.44489,-98.83125,46.51761,-6.98804,-11.17967,17.1037,-1.33817,-27.08385,29.22665,-0.81447,-82.79125,-28.65115,2.311,37.60434,11.19126,-24.01272,2.80846,-0.79324,-2.36427,-5.48856,-3.34397,-8.69086,0.95256,-1.11387,-1.03886,0.24107,-0.49933,-1.61339,0.11378,-0.08121,-0.11403,0.07871,-0.02901,-0.05502
1429,16.01596,1.04624,0.13602,-3.00758,46.10463,-1.15823,43.46278,-1.41146,3.65372,-106.79087,49.35344,-6.12488,-13.67091,21.55924,-2.06089,-25.55082,28.4382,-1.52404,-90.95238,3.04192,3.1307,46.40156,-2.36948,-14.89743,-1.52111,-1.01996,-0.91823,-5.02479,-5.86294,-7.47655,-0.53296,-0.423,-1.16612,0.34686,-0.69652,-1.89148,0.04906,-0.09632,-0.11399,0.02107,0.01892,0.00623
1430,13.51548,6.64809,-1.74806,-6.76509,45.92383,-2.21776,44.78988,15.00081,2.73883,-121.95848,62.82322,-1.0391,-16.24965,25.76844,-3.27431,-24.22425,27.86785,-2.19006,-108.56958,47.16286,12.48286,49.64841,3.62482,-8.97247,-2.30418,0.53568,-0.21518,-4.9388,-8.74872,-6.98169,-1.1907,0.20064,-0.70007,0.42464,-0.91842,-2.809,-0.06943,-0.01213,-0.04196,0.00326,0.08997,-0.39251
1431,11.03101,12.1493,-3.29365,-11.1576,45.38428,-3.32738,45.09332,21.54799,4.57092,-142.85211,77.50236,4.1056,-18.4223,29.92349,-4.5961,-23.04079,27.5213,-2.88832,-130.89224,79.72293,26.73965,52.11435,11.03411,-2.30215,-1.47825,4.03235,1.09055,-6.01935,-9.58064,-8.83501,-0.61785,0.4364,0.09563,0.33394,-1.1341,-3.73481,-0.13997,0.11981,0.07425,0.01919,0.09028,-0.85667
1432,6.44576,15.66069,-3.79427,-13.89871,44.85868,-4.21597,35.50955,13.13352,5.79971,-159.39073,82.59634,5.16358,-19.96914,33.89035,-5.88013,-21.71397,27.46343,-3.51034,-156.03839,76.71786,33.92265,49.09178,6.992,8.17496,-1.87645,7.68992,3.58561,-6.59008,-8.47727,-10.45449,0.76661,0.05285,0.65177,0.52163,-1.4391,-3.58436,-0.01177,0.15376,0.18667,0.10804,-0.07302,-0.92146
1433,-0.4059,14.72235,-2.87657,-13.52092,44.77059,-4.67619,18.76471,-8.44425,5.75532,-160.96252,74.51104,0.94083,-20.97962,37.17091,-7.19549,-20.32558,27.67473,-3.93801,-170.41798,36.10365,28.67481,34.08666,0.92691,14.42503,-2.9339,9.22968,5.5046,-4.95774,-7.44565,-9.00967,2.11804,-0.78931,0.65608,1.24974,-1.89363,-2.59145,0.31305,0.04715,0.26306,0.25433,-0.3089,-0.70129
1434,-3.10764,9.00901,-1.329,-10.91076,44.25682,-4.8373,12.36261,-32.59883,6.81405,-147.69655,59.10004,-6.33599,-21.59009,39.39355,-8.3075,-19.23878,27.99205,-4.23714,-156.06837,-13.81464,17.54744,15.12121,0.30838,9.2868,-1.98524,8.06225,4.76961,-1.97231,-7.42636,-5.31963,2.76624,-1.57427,0.2939,2.1072,-2.3273,-1.76118,0.57116,-0.10588,0.24644,0.35875,-0.43306,-0.51547
1435,1.74901,1.97386,-0.31694,-8.65544,42.96179,-5.11478,17.72045,-44.48983,9.26397,-132.46729,47.87981,-12.44325,-22.06285,40.41785,-8.87132,-18.51204,28.25129,-4.58373,-128.28352,-34.8074,7.69633,1.88931,-0.05547,-2.83495,0.69376,5.2956,1.60442,-0.55738,-7.89957,-3.01368,2.13694,-1.81749,-0.32291,2.41457,-2.41929,-1.43423,0.38761,-0.16277,0.07434,0.34629,-0.38243,-0.40722
1436,8.43247,-3.95291,0.15938,-8.70246,41.65986,-5.75432,16.99107,-37.93952,9.8688,-130.74965,46.68153,-14.86515,-22.70601,40.22216,-9.00689,-17.78214,28.44407,-5.0947,-125.15829,-14.18485,-0.96318,-5.04433,-0.46564,-13.2831,2.02306,3.07228,-1.34083,-2.5017,-8.28758,-4.40254,0.37633,-1.34754,-0.96663,1.88507,-2.03665,-1.42732,-0.22899,-0.04932,-0.15166,0.23708,-0.24361,-0.31968
1437,11.12462,-6.87716,-0.11912,-11.05229,41.08018,-6.52952,7.59457,-13.85397,4.4738,-145.88895,51.19562,-14.10599,-23.3735,39.09178,-8.93282,-16.79352,28.69002,-5.72455,-148.92662,35.33668,-11.23199,-5.39115,3.19621,-18.06617,0.65943,3.23529,-1.69571,-5.70174,-8.41561,-7.23512,-1.21887,-0.38593,-1.02348,1.11655,-1.51428,-1.37378,-0.74887,0.15597,-0.20179,0.13706,-0.16112,-0.2776
1438,11.29442,-8.72697,-0.70085,-13.75488,41.91026,-7.06686,3.14627,12.57826,-4.07945,-164.63707,58.1081,-10.55469,-23.59242,37.11753,-8.59259,-15.70795,29.00769,-6.29929,-168.09785,85.53254,-18.47077,2.42014,3.94478,-15.60001,-1.9892,5.35986,0.42634,-6.53331,-8.53063,-7.47852,-1.43575,0.45709,-0.28853,1.02341,-1.45189,-0.95864,-0.68374,0.27998,-0.00519,0.13844,-0.23022,-0.27159
1439,11.97169,-12.43847,-0.52877,-14.24939,43.43773,-7.30929,3.49261,27.91271,-9.0129,-170.61121,65.97076,-5.65495,-23.23779,34.15268,-7.94465,-14.72901,29.17666,-6.75621,-171.92941,114.91073,-20.86612,13.25888,-7.60459,-3.93912,-4.77432,6.50702,2.87935,-4.36549,-9.50624,-4.31326,-0.62171,0.29971,0.24443,1.74801,-2.18431,-0.34782,-0.16709,0.17184,0.17542,0.21069,-0.42356,-0.23134
1440,13.1487,-17.13643,0.50306,-12.30075,44.01519,-7.51123,-0.84598,33.71065,-8.36315,-162.52948,71.78844,-2.45041,-22.45597,30.45923,-7.08409,-13.75277,29.06291,-7.16929,-173.58641,123.42245,-22.63428,15.71684,-24.34003,14.86088,-7.82319,5.57633,4.20622,-1.66489,-11.73407,0.02372,-0.1285,-0.72913,-0.15274,2.5394,-3.30433,0.12085,0.23544,-0.06365,0.14041,0.22819,-0.59147,-0.14271
1441,14.39866,-22.69122,2.14933,-10.58635,43.9405,-7.84521,-7.13709,31.27173,-4.84994,-152.92622,75.78767,-1.24573,-21.28074,26.64793,-6.16128,-12.49362,28.86969,-7.54429,-176.28369,120.85448,-21.75279,8.13335,-28.89691,29.93797,-8.56832,4.99054,4.19787,-0.36643,-13.86166,3.37514,0.34816,-1.40117,-0.63332,2.85117,-4.02083,0.50464,0.36994,-0.1379,0.02839,0.1715,-0.63197,-0.04258
1442,14.58963,-29.00697,4.02539,-11.33815,44.40158,-8.23782,-12.43259,22.65371,-2.35691,-152.77922,78.56219,-0.85483,-19.8239,23.12743,-5.38754,-10.89769,28.81526,-7.85302,-183.33527,114.61407,-17.70123,2.16447,-16.89602,27.11188,-2.14111,4.87264,1.91569,-0.15089,-13.67526,4.90995,2.25535,-1.56092,-0.49494,2.8477,-3.85497,1.11769,0.52585,-0.07075,-0.04535,0.15084,-0.57258,0.08662
1443,13.14293,-36.43163,6.21841,-13.33102,45.64502,-8.56372,-20.96697,7.57049,-1.1624,-162.57124,79.20839,-1.12485,-18.30246,19.85988,-4.8828,-9.21929,28.87886,-8.12491,-204.51846,100.62497,-13.99201,3.72825,0.41013,4.64276,11.07226,2.72465,-2.76617,-0.22764,-10.67796,4.53175,5.1765,-2.00308,-0.10503,2.7248,-2.89649,1.91909,0.7371,-0.07833,-0.10007,0.19383,-0.44731,0.26786
1444,11.87498,-44.65856,8.70887,-14.07245,46.78704,-8.80304,-31.04298,-13.4831,1.08722,-173.98013,75.92786,-2.85436,-16.77252,16.83499,-4.43942,-7.63132,28.95019,-8.42397,-231.53392,75.06754,-12.53189,8.36838,15.30253,-19.66604,20.78605,-0.94729,-6.64211,-0.91084,-7.39252,2.22016,6.57782,-2.93414,-0.14456,2.40161,-1.97104,2.12763,0.72237,-0.22293,-0.16779,0.22784,-0.32873,0.37482
1445,12.93479,-51.51971,10.76032,-14.25186,46.92626,-9.10273,-33.73293,-34.38561,5.07458,-181.36113,68.24857,-6.78204,-15.20355,14.17136,-3.72334,-6.21911,29.0129,-8.80223,-244.78864,42.66738,-13.39281,14.78104,25.52452,-23.4024,16.73426,-1.63732,-5.96213,-2.34663,-6.48747,-0.72773,4.98736,-3.42622,-0.54638,1.91112,-1.89307,1.43202,0.45089,-0.37217,-0.21231,0.21082,-0.33386,0.31774
1446,15.76445,-54.79762,11.55576,-16.18107,46.01984,-9.68013,-25.29337,-46.88444,8.71594,-188.60403,60.69987,-11.81813,-13.7553,11.76156,-2.752,-5.1198,29.07739,-9.27787,-242.20206,17.0596,-14.72615,23.90236,23.09045,-4.04931,2.98647,2.68988,-1.50156,-3.47479,-8.1416,-1.47211,2.11296,-2.45421,-0.59722,1.59688,-2.54095,0.79102,0.22843,-0.34941,-0.17325,0.15349,-0.44291,0.2116
1447,18.02696,-54.70112,11.12121,-18.62154,45.4594,-10.4136,-11.82839,-47.99279,9.81584,-198.68236,61.26975,-14.30557,-12.65139,9.42985,-1.87974,-4.29487,29.11758,-9.72861,-235.4899,14.97606,-12.24162,27.85375,5.79856,18.2765,-6.9504,7.3562,2.29405,-3.40441,-11.01231,0.98894,0.43501,-0.59017,-0.15419,1.76808,-3.43652,0.93398,0.16963,-0.14845,-0.06807,0.10199,-0.56483,0.12901
1448,18.65245,-54.79603,10.71924,-18.34468,46.90528,-10.83898,-4.61836,-45.40386,9.14325,-205.21121,71.20781,-12.20444,-11.85816,7.21465,-1.30911,-3.5887,29.08235,-9.95284,-233.26678,32.28828,-5.98515,16.66889,-9.83615,25.76273,-6.74664,7.58058,2.72348,-2.34554,-13.07052,4.24402,0.51178,0.40922,0.23253,2.15556,-4.18073,1.27999,0.14866,0.04559,0.02445,0.09136,-0.64493,-0.00425
1449,18.2478,-57.55474,11.35975,-15.76721,49.19768,-10.74108,-9.65404,-46.93822,8.84532,-201.78564,79.1805,-8.88808,-11.19954,5.27026,-0.9112,-3.07018,28.91417,-9.96003,-235.59468,43.05108,-3.70904,-4.41355,-9.25052,20.20428,-1.17324,5.76627,0.92214,-0.93476,-12.14949,5.49792,1.57757,0.03011,0.3006,2.16853,-4.1635,1.17397,0.1995,0.08515,0.04657,0.10799,-0.62374,-0.13983
1450,18.1375,-60.89939,12.28931,-13.74644,49.35935,-10.3435,-17.72599,-49.11227,8.95677,-191.21417,74.86261,-8.33622,-10.63857,3.65244,-0.49566,-2.91264,28.61954,-9.9569,-232.17969,35.67587,-8.57528,-16.45197,1.11504,11.55004,2.40841,5.83266,-0.64536,0.00647,-7.85072,4.06222,2.47066,-0.71257,0.19551,1.6418,-2.89221,1.00215,0.35767,-0.01998,0.00521,0.11186,-0.44645,-0.06003
1451,19.14589,-62.11235,12.34778,-13.47933,46.66485,-10.08133,-15.83976,-45.04924,8.44406,-182.61674,63.05937,-9.98299,-10.21735,2.27108,-0.0209,-3.14116,28.1912,-10.1061,-217.76645,25.96694,-13.38409,-7.34667,10.45054,3.34636,2.48851,6.51711,-1.00323,-0.26069,-3.37706,1.5497,2.54379,-1.0026,0.06964,1.05696,-1.17962,1.30445,0.47293,-0.14775,-0.05038,0.08956,-0.21779,0.26213
1452,20.45669,-62.22869,12.01168,-14.65124,42.80135,-10.27833,-7.40898,-37.35146,7.96108,-181.20245,55.39576,-11.36783,-9.88201,1.03399,0.44876,-3.61543,27.52187,-10.41964,-204.99374,27.82983,-12.96142,12.40151,21.32775,-3.42032,2.77994,5.21656,-0.80082,-1.56527,-3.22853,0.8739,2.57676,-0.99052,-0.04246,0.93379,-0.785,1.82224,0.53223,-0.19461,-0.09971,0.05426,-0.15972,0.53458
1453,21.0261,-63.76131,12.44052,-15.8331,39.51989,-10.78482,-5.75938,-34.46271,8.70287,-180.87701,56.20184,-11.25647,-9.52035,-0.05502,0.87069,-4.02679,26.53418,-10.74023,-203.50929,36.38667,-10.34525,23.36796,33.96829,-4.6228,4.60418,2.37639,-0.6761,-2.7791,-7.11781,2.93434,3.24042,-1.21161,-0.18061,1.14721,-1.95617,1.97947,0.62831,-0.16278,-0.15018,0.01537,-0.29621,0.49035
1454,21.03276,-66.75538,13.58137,-16.03132,37.04481,-11.18095,-14.13018,-38.80516,10.20023,-175.08769,60.13047,-10.26057,-9.13535,-0.96869,1.21811,-4.18305,25.24295,-10.89867,-208.57027,39.90145,-9.8825,22.97996,31.90743,1.28699,5.92363,0.45465,-0.68587,-2.75447,-9.97753,5.45796,3.98676,-1.54219,-0.32458,1.26528,-3.10523,1.84572,0.69555,-0.08485,-0.19162,-0.01991,-0.45085,0.23514
1455,21.10918,-69.41762,14.47046,-16.65106,34.6627,-11.22794,-23.63415,-45.02641,10.83762,-165.82671,59.81104,-9.59178,-8.83609,-1.6972,1.44563,-4.27226,23.71914,-10.86443,-210.27678,34.41085,-12.1273,19.94718,9.04236,8.60222,5.77667,0.46488,-0.73479,-1.64148,-9.01121,6.38535,4.13796,-1.46213,-0.39585,1.15218,-3.04169,1.87368,0.6465,-0.01395,-0.20729,-0.04442,-0.47044,0.10396
1456,21.65829,-70.96442,14.6271,-19.39353,32.50531,-10.92723,-25.87254,-47.56663,9.99534,-157.1853,54.50212,-8.93354,-8.64245,-2.26043,1.57102,-4.57073,22.08565,-10.68105,-201.30864,27.04698,-14.19013,15.5535,-9.80082,10.7243,4.92956,1.30218,-0.70537,-0.93803,-6.78455,6.1116,3.70038,-0.95787,-0.3217,0.93496,-2.2628,2.00106,0.55743,-0.00618,-0.18223,-0.05319,-0.3499,0.20145
1457,23.30198,-72.3462,14.38794,-22.84732,30.73057,-10.45961,-19.42552,-47.22644,8.94708,-150.79895,47.97589,-7.90994,-8.39866,-2.72985,1.7096,-5.00027,20.47677,-10.42251,-182.84183,22.69431,-12.74248,8.77618,-2.41605,8.37984,4.47943,2.36448,-0.63006,-1.31606,-6.39246,6.18502,3.22117,-0.29874,-0.09956,0.76065,-1.8511,1.94804,0.53266,-0.01369,-0.11432,-0.05237,-0.20347,0.30489
1458,25.70587,-73.96941,14.23139,-24.08383,27.95902,-10.09892,-9.98023,-47.75361,8.94532,-145.78603,40.49246,-8.18989,-7.93729,-3.10411,1.93189,-5.2625,18.99967,-10.17654,-163.47714,16.42848,-9.34917,1.38662,18.1211,5.82748,5.08226,3.30155,-0.6906,-1.77332,-7.31153,6.89948,3.00903,0.21792,0.14242,0.77617,-2.01741,1.92452,0.50084,0.0519,-0.02881,-0.04218,-0.14772,0.25104
1459,26.65592,-74.67767,14.38053,-22.6002,23.96193,-9.85605,-7.41958,-49.06585,9.67603,-138.34813,32.27348,-10.26352,-7.3044,-3.31646,2.15575,-5.36514,17.73916,-9.86648,-149.64777,8.66476,-8.95891,-7.34401,25.67487,3.25522,6.39766,3.2496,-0.89931,-1.51355,-6.93811,6.65657,2.81335,0.29768,0.26577,0.98798,-2.06167,2.23593,0.34998,0.16131,0.03918,-0.01582,-0.1882,0.17657
1460,25.10179,-74.03291,14.79793,-20.7759,20.98413,-9.52779,-15.36926,-49.95374,10.52454,-126.94774,28.97183,-11.43428,-6.73381,-3.46963,2.27665,-5.70487,16.63805,-9.33992,-141.967,8.99949,-11.1976,-16.50984,16.64588,0.65868,6.93167,2.94689,-1.10083,-0.82581,-4.72774,4.92173,2.46948,-0.01796,0.26093,1.14534,-1.58538,2.60455,0.18035,0.18912,0.06413,0.00734,-0.23261,0.23968
1461,23.30834,-73.54204,15.24431,-20.42037,19.9453,-9.08795,-25.82032,-52.25936,11.4179,-114.51989,33.20465,-9.88881,-6.37325,-3.72175,2.33236,-6.46267,15.5318,-8.65631,-136.7282,17.76772,-11.32974,-21.3058,7.82615,1.78694,5.50418,4.91758,-1.28366,-0.32318,-3.57915,4.37648,2.28468,-0.00813,0.22628,1.08316,-1.34958,2.73884,0.19064,0.15255,0.05316,-0.00772,-0.26182,0.37199
1462,23.73668,-74.16704,15.36444,-21.38762,19.01814,-8.60833,-28.69391,-55.81825,11.87235,-106.20496,37.20234,-7.82496,-6.16181,-3.90843,2.41093,-7.33385,14.45357,-7.99211,-131.37187,22.05347,-9.27734,-17.54181,9.06227,6.81085,3.2439,8.29145,-1.50855,-0.47176,-5.40457,6.67433,2.40002,0.56195,0.25965,0.91259,-1.9559,2.82871,0.33583,0.14894,0.04762,-0.06206,-0.31199,0.42177
1463,25.86194,-74.96914,15.00016,-22.82255,16.62331,-8.06619,-22.75149,-56.80235,11.26655,-105.68955,31.92154,-8.43623,-6.01313,-3.70708,2.49492,-7.97692,13.58429,-7.42247,-128.01877,12.93386,-9.29312,-4.68011,11.45605,9.06606,3.36725,7.52562,-1.62186,-1.20594,-7.57006,8.61725,2.66524,0.47402,0.35111,0.70644,-2.53538,2.69642,0.41199,0.09828,0.06402,-0.10008,-0.30048,0.31209
1464,27.85919,-75.62533,14.53266,-23.00326,13.53471,-7.39523,-14.1266,-55.68605,10.1266,-106.95596,20.47096,-10.34961,-5.95893,-3.1385,2.52595,-8.31769,12.92129,-6.91221,-122.16444,-1.91799,-10.74746,7.98248,4.53707,5.14532,7.03779,0.9488,-1.45056,-1.43566,-6.67609,7.41368,3.15451,-0.87502,0.33109,0.56528,-1.94885,2.16205,0.41083,-0.0746,0.04573,-0.05726,-0.11118,0.1613
1465,28.85658,-76.59959,14.39696,-20.90841,11.80996,-6.60804,-9.20276,-56.73146,9.5153,-99.45808,14.05268,-9.36261,-6.09187,-2.56608,2.50024,-8.51876,12.31576,-6.39923,-105.51328,-8.42083,-8.77612,6.26881,-4.03229,0.28548,10.29703,-4.92592,-1.12862,-0.54484,-4.04334,5.77625,3.69523,-2.03591,0.04705,0.76536,-0.70546,2.03483,0.4452,-0.235,-0.06407,0.05318,0.14009,0.2237
1466,28.97554,-76.66,14.29484,-18.05874,11.6697,-5.91847,-10.68769,-57.49364,9.37052,-84.45194,14.77579,-6.38347,-6.41522,-2.2191,2.46173,-8.77801,11.67718,-5.89995,-85.37672,-4.25284,-5.80198,-7.06604,3.86114,-0.92725,9.98744,-3.84281,-1.15868,0.42853,-3.44182,7.005,3.95606,-1.52357,-0.3704,1.21749,-0.32815,2.85024,0.52439,-0.2204,-0.2169,0.12224,0.16616,0.52289
1467,29.04612,-74.86021,13.7702,-16.20879,10.93461,-5.60502,-15.65304,-52.43491,8.88189,-72.11066,14.53926,-6.30756,-6.76538,-1.93874,2.46937,-9.08823,11.00393,-5.50442,-75.27661,2.16641,-9.20533,-12.94936,27.94943,-0.14094,7.86848,1.50296,-1.60405,0.34823,-5.21369,9.22826,3.73036,0.03683,-0.5733,1.29066,-1.18751,3.60238,0.53875,-0.05583,-0.2833,0.05371,-0.10042,0.73286
1468,29.40619,-73.26444,13.23889,-15.19819,8.60541,-5.61228,-18.31909,-45.91076,8.19465,-66.26018,10.0979,-9.43956,-7.02242,-1.45052,2.49855,-9.3133,10.35767,-5.22075,-73.13804,3.65281,-16.97351,-5.43692,41.07664,0.05154,6.44343,3.60179,-1.73994,-0.91408,-6.74545,8.70428,2.96882,0.66226,-0.39008,0.69115,-2.23688,3.20502,0.43528,0.04795,-0.20302,-0.10689,-0.37461,0.59483
1469,29.24419,-73.75191,13.33615,-14.53535,6.50145,-5.5408,-16.6988,-46.57314,8.40051,-63.93226,7.19365,-10.99337,-7.30694,-0.71562,2.43272,-9.43549,9.79705,-4.93761,-69.89018,0.14234,-18.73401,3.08706,22.7436,-0.06408,6.6376,0.84733,-1.45738,-2.38466,-6.36099,5.79187,2.39296,-0.26833,-0.05098,0.084,-2.37322,2.36646,0.3598,-0.04115,-0.07621,-0.197,-0.36232,0.31244
1470,28.48927,-74.91112,13.72089,-14.86683,5.7084,-5.21794,-13.1295,-52.41692,9.7988,-62.27616,8.2397,-9.07364,-7.75226,0.07416,2.25949,-9.53294,9.30659,-4.59557,-63.23458,-3.56786,-12.05896,3.02415,-11.16421,0.07812,8.13207,-2.26925,-1.4208,-3.26944,-4.95181,3.51244,2.67403,-1.4508,0.10583,0.08512,-1.70575,2.20635,0.39986,-0.19201,-0.02608,-0.15328,-0.14144,0.19629
1471,28.35937,-74.65949,13.56604,-16.14142,4.98695,-4.83779,-9.21259,-53.91021,11.21004,-58.61257,7.66482,-7.15786,-8.2611,0.72911,2.08627,-9.54717,8.86285,-4.22493,-52.41541,-3.24943,-5.82318,-4.34363,-28.23571,-0.75963,9.99521,-2.59155,-1.88853,-3.81264,-4.44124,3.1679,3.53783,-1.65788,-0.04,0.374,-1.20661,2.43363,0.45786,-0.20033,-0.07647,-0.06846,0.00998,0.23158
1472,29.07424,-73.20026,12.80447,-17.0856,3.84712,-4.50951,-5.1173,-48.9606,11.50994,-53.4859,2.50325,-8.12105,-8.62202,1.21207,1.94827,-9.37647,8.46718,-3.83861,-40.07458,-0.63441,-6.10742,-11.44121,-18.76134,-2.64945,10.58013,-0.03049,-2.4881,-4.26956,-5.65162,4.20089,4.16872,-0.85919,-0.36234,0.37261,-1.53556,2.35452,0.46888,-0.05246,-0.17696,-0.03946,-0.03859,0.28464
1473,29.37322,-72.26852,12.20909,-17.22718,3.40798,-4.14693,-2.34716,-46.0281,10.89888,-51.8879,-2.56839,-10.37744,-8.71431,1.6201,1.81455,-9.15025,8.06138,-3.4537,-35.23475,-3.34159,-9.11876,-11.12074,0.29763,-3.79911,8.77575,3.97569,-2.76268,-4.32902,-7.55703,5.64097,4.01648,0.28647,-0.59755,0.12067,-2.43766,2.19733,0.4728,0.11202,-0.2514,-0.06928,-0.20573,0.35764
1474,28.60711,-72.93217,12.29468,-17.38478,3.97416,-3.76571,-1.90969,-50.97739,9.97246,-54.84985,-2.67404,-10.58105,-8.58302,2.06794,1.68663,-9.12197,7.55675,-3.16024,-38.44999,-12.09504,-8.62716,-2.75209,11.08745,-4.17436,5.79074,6.46383,-2.43715,-4.09282,-8.14826,5.82241,3.23143,0.90472,-0.55975,0.04615,-3.01777,2.29035,0.45445,0.17543,-0.23883,-0.08119,-0.32841,0.4372
1475,27.17662,-73.96642,12.62529,-18.04258,4.48248,-3.50374,-3.95897,-56.72591,8.65682,-56.3935,1.02431,-7.95705,-8.39352,2.55739,1.54942,-9.32269,6.97075,-3.0279,-40.50382,-14.74588,-5.06938,9.42799,10.5447,-4.37319,4.00353,6.17457,-1.69518,-3.98847,-6.33266,3.611,2.61156,0.81461,-0.3107,0.2424,-2.52216,2.14418,0.39598,0.17961,-0.15078,-0.02495,-0.28102,0.37469
1476,25.03563,-72.9905,12.61554,-18.32375,4.14621,-3.4007,-11.63285,-52.95195,7.20735,-52.01728,4.02685,-5.03953,-8.33284,2.95378,1.33968,-9.51326,6.43392,-2.97948,-42.37303,-3.31813,-4.59069,18.11567,5.50087,-2.22368,4.54935,4.94857,-1.0583,-3.74166,-3.67028,1.24867,2.8912,0.62279,-0.03943,0.41213,-1.28777,1.63197,0.43321,0.20469,-0.06699,0.03327,-0.08228,0.17503
1477,22.07678,-69.80853,12.36577,-17.28191,3.22096,-3.36752,-25.31199,-41.76457,6.66316,-44.74379,4.37726,-4.28237,-8.48707,3.16503,1.06784,-9.52766,6.05548,-2.86874,-52.27581,12.81192,-9.14576,14.59391,3.25932,1.66653,6.75416,3.38778,-0.81579,-3.06829,-2.74762,1.69873,3.83408,0.24049,0.12959,0.38829,-0.4757,1.49299,0.62433,0.12276,-0.04599,0.01671,0.09024,0.08612
1478,20.42167,-67.16774,12.09036,-15.78946,2.33489,-3.3112,-33.22747,-34.4788,7.06136,-40.46539,2.72716,-5.7487,-8.69806,3.32561,0.92194,-9.50019,5.8435,-2.65759,-61.20823,18.39967,-13.73563,-2.27141,6.93627,1.02657,8.8343,0.95182,-0.9331,-2.85451,-4.15315,3.96026,4.31509,-0.64466,0.18077,0.26093,-0.8297,1.95426,0.71747,-0.11403,-0.05674,-0.05069,0.04266,0.23238
1479,22.19557,-67.38685,11.73655,-15.28166,1.89777,-3.193,-25.39086,-36.46114,7.16777,-39.17506,-0.15948,-7.92271,-8.69436,3.59945,1.03395,-9.62168,5.7102,-2.44304,-50.79454,9.80953,-14.77072,-22.67432,11.91222,-4.92875,9.14463,-1.07041,-1.1943,-3.94614,-6.63483,5.41953,3.60433,-1.34726,0.17722,0.11417,-2.13059,2.55233,0.47958,-0.24397,-0.02545,-0.10484,-0.21011,0.49602
1480,25.86388,-70.003,11.4575,-15.70472,1.78346,-3.04805,-9.86233,-43.51374,6.78796,-36.61838,-3.36607,-9.27674,-8.42723,3.8765,1.23717,-9.90388,5.52752,-2.32899,-23.32724,-4.16646,-13.18621,-32.55748,8.34081,-6.86664,7.55554,-1.01175,-1.36671,-5.04576,-8.44217,5.90196,2.28121,-1.13716,0.128,0.01492,-3.4101,3.10742,0.0799,-0.10762,0.03153,-0.13487,-0.45326,0.73293
1481,27.23172,-72.33993,11.63023,-16.22813,1.59329,-2.9271,-3.79068,-48.40627,7.04361,-33.3131,-5.34902,-9.2157,-8.15818,3.88875,1.24904,-10.28139,5.25386,-2.29764,-5.02,-12.49961,-10.94676,-21.27699,-5.10768,0.01764,4.9782,0.7618,-1.35883,-5.10664,-8.7903,5.7673,1.37091,-0.37632,-0.06862,-0.1635,-3.98314,3.33664,-0.11756,0.09767,0.00808,-0.19066,-0.55995,0.80478
1482,24.82869,-71.94863,12.06693,-16.59873,1.42976,-2.81183,-11.92739,-46.79624,8.06851,-33.74158,-4.35352,-7.84777,-8.14226,3.5801,1.0575,-10.71409,4.94694,-2.25295,-14.00499,-9.23743,-9.24651,5.5027,-15.01774,7.65748,2.23637,2.94028,-1.1914,-5.48076,-8.31552,4.23813,1.08052,0.27105,-0.37015,-0.5487,-3.88255,2.67078,-0.0087,0.15951,-0.11331,-0.25274,-0.54352,0.61508
1483,21.8146,-69.47647,12.15911,-17.21404,1.66994,-2.65719,-22.51217,-42.70546,8.71344,-38.37388,-0.44673,-5.63865,-8.35636,3.17556,0.91182,-11.18901,4.66184,-2.15399,-37.32874,0.19371,-7.59223,23.37769,-12.37519,8.64419,0.63467,4.61096,-0.96167,-6.46232,-7.97523,2.30898,1.00824,0.65085,-0.47146,-0.77287,-3.41813,1.47645,0.16729,0.10726,-0.19274,-0.22868,-0.44994,0.2649
1484,21.19715,-67.69084,11.84359,-18.534,2.0251,-2.50377,-24.68507,-43.87952,8.44002,-44.67082,3.25093,-3.86398,-8.58281,2.83597,0.96236,-11.69169,4.43295,-2.02764,-53.06201,4.11532,-4.91868,17.43426,-6.57737,6.33568,0.5806,5.15593,-0.65799,-5.85883,-7.64055,2.23845,0.73015,0.86906,-0.17255,-0.42766,-2.84271,0.90099,0.12351,0.09685,-0.10236,-0.12057,-0.33632,-0.00127
1485,22.71146,-67.34528,11.36612,-20.37957,1.71882,-2.4537,-19.52494,-48.17829,7.66437,-51.80861,3.50154,-3.9825,-8.6284,2.51615,1.13233,-12.22317,4.29228,-1.89959,-57.81549,2.10904,-2.95509,1.94796,-6.84297,5.43333,-0.02092,4.2695,-0.11708,-3.64669,-6.65132,3.23969,0.08257,0.84989,0.26747,0.08286,-2.28886,0.99867,-0.08417,0.17672,0.08451,-0.04006,-0.24763,-0.08451
1486,24.41858,-66.51232,10.66812,-21.35404,0.69867,-2.45941,-13.72863,-45.48905,6.6941,-55.62516,0.28398,-5.68312,-8.4829,2.17593,1.26165,-12.82566,4.24194,-1.75984,-54.61678,4.41505,-5.02344,-4.19342,-7.76946,4.63035,-1.31966,1.95907,0.26898,-2.50423,-5.5158,3.22483,-0.26477,0.12528,0.36404,0.10758,-1.85356,0.9091,-0.10064,0.15331,0.15508,-0.04804,-0.18678,-0.08079
1487,25.2324,-64.56407,9.82413,-20.36415,0.06972,-2.30809,-10.12464,-35.46344,5.89771,-48.75737,-2.97282,-6.55126,-8.29006,1.84772,1.2609,-13.53287,4.23942,-1.59107,-37.74884,13.02077,-9.25702,-4.26701,-4.928,2.74789,0.74089,-0.47671,-0.32546,-3.3697,-5.81031,3.0535,0.87453,-1.11408,0.05224,-0.21698,-1.85205,0.71483,0.2299,-0.03974,0.03766,-0.09361,-0.1633,-0.02575
1488,25.14836,-63.33413,9.39938,-18.54398,1.27309,-1.88084,-8.96807,-29.0002,6.01555,-33.58059,-0.99385,-4.30907,-8.15889,1.59177,1.15784,-14.28796,4.22598,-1.41034,-12.84916,20.49276,-9.00826,-9.28795,-3.0922,1.50987,6.58564,-1.08502,-1.60202,-4.84994,-7.75801,4.11631,3.14454,-1.76792,-0.26156,-0.35146,-2.44841,1.08791,0.62144,-0.15567,-0.12378,-0.11068,-0.19398,0.1308
1489,24.28762,-63.92686,9.78169,-17.40377,4.09928,-1.36218,-12.72422,-31.16722,6.90248,-22.46383,6.83645,-0.16422,-8.0105,1.46559,1.05874,-14.90793,4.1286,-1.28322,-4.31242,22.514,-4.33212,-15.17012,-2.09392,0.78267,9.70545,0.30422,-2.01962,-5.97496,-9.51499,5.01243,4.36336,-1.34051,-0.29614,-0.27849,-3.24405,1.73822,0.70426,-0.0673,-0.1774,-0.10809,-0.28367,0.32337
1490,22.84855,-65.57858,10.63955,-16.72449,6.38728,-1.00591,-21.13329,-37.13022,7.07351,-21.7373,13.20789,2.15071,-7.7251,1.46856,1.03454,-15.28883,3.958,-1.21909,-19.61388,19.28943,-2.49035,-12.35535,3.03125,-0.3937,5.76246,2.21174,-0.77057,-6.62432,-9.66624,4.1756,3.33532,-0.45386,-0.13898,-0.29051,-3.77826,1.89844,0.46193,0.06734,-0.11319,-0.12549,-0.43543,0.40791
1491,21.51226,-66.59168,11.14508,-16.28425,6.55124,-0.84418,-26.38128,-41.13586,5.78886,-27.0885,12.22038,1.27831,-7.38019,1.56438,1.04953,-15.61626,3.82955,-1.13394,-35.62505,13.23897,-5.04295,-1.757,5.09684,0.83558,-2.14693,3.51871,1.1856,-6.58789,-8.57831,2.50778,1.042,0.01962,-0.04595,-0.34442,-3.842,1.54274,0.1394,0.06381,-0.03539,-0.15039,-0.56934,0.33287
1492,20.59415,-65.70995,10.92831,-16.49639,5.29408,-0.79908,-24.31131,-40.66916,4.53385,-31.68189,7.66348,-0.54418,-7.14877,1.63771,1.02382,-16.03193,3.78155,-0.99417,-35.87786,9.72146,-6.89695,9.00715,-8.4129,7.32918,-8.72512,4.34262,2.3891,-5.99305,-7.39624,1.57191,-1.08066,-0.03521,-0.15172,-0.26852,-3.54788,1.19891,-0.09574,-0.04169,-0.01817,-0.16213,-0.59611,0.18081
1493,20.08279,-62.89977,10.24239,-16.63553,3.91505,-0.84743,-20.28692,-34.26388,4.63201,-30.66377,4.64827,-1.50373,-7.06363,1.55924,0.98039,-16.3426,3.73534,-0.88508,-26.43622,13.03397,-7.20205,13.58581,-28.47523,14.64125,-10.68012,4.91395,2.2413,-5.21305,-6.74331,1.68752,-2.1386,-0.11036,-0.27718,-0.04117,-3.2401,1.25465,-0.21244,-0.06335,-0.01602,-0.15526,-0.55773,0.11946
1494,20.79508,-60.28386,9.44331,-16.09767,3.12482,-0.89223,-16.51011,-27.13755,5.33116,-25.15471,2.8468,-1.64717,-7.05119,1.33243,0.99191,-16.47345,3.65219,-0.88016,-14.26175,16.78477,-7.29499,11.86829,-29.62201,13.77519,-6.25171,4.15533,0.95555,-4.37988,-6.39077,2.18143,-1.36779,-0.20447,-0.16598,0.26909,-2.95882,1.55163,-0.15504,0.01447,0.02775,-0.09639,-0.48176,0.21966
1495,22.59571,-60.00479,8.88691,-15.39544,3.99265,-0.70247,-10.8595,-28.16466,5.66742,-21.03794,3.44634,-0.75142,-7.05951,1.07456,1.00056,-16.58154,3.5696,-0.90014,-2.3431,13.85904,-4.67369,9.28094,-8.54432,3.83143,2.47142,1.37015,-0.6927,-4.05124,-6.40431,2.43688,0.95101,-0.64796,0.13502,0.44031,-2.62766,1.59282,0.08422,0.04532,0.08473,0.01068,-0.32256,0.35258
1496,23.71707,-61.19875,8.75721,-14.18819,6.53326,-0.278,-5.38068,-35.61684,5.84125,-20.05541,8.77602,1.10724,-6.99458,0.84241,0.92894,-16.54603,3.47977,-0.81783,4.29811,10.14452,1.10267,8.08389,8.7093,-4.94515,8.82991,-1.7537,-1.71493,-4.6498,-7.17521,2.52012,2.75092,-1.15492,0.32397,0.33682,-2.4934,1.31934,0.28541,0.00538,0.10269,0.0741,-0.15584,0.37396
1497,22.80888,-61.62984,8.9341,-12.37625,8.39873,0.08007,-5.04769,-40.04641,5.85301,-19.80226,13.59197,1.99756,-6.81456,0.65181,0.81248,-16.1793,3.39698,-0.62878,1.83414,10.98013,4.12444,6.08443,5.43017,-4.58086,8.88951,-2.93387,-1.79723,-5.34568,-8.14162,2.61685,2.65066,-1.27603,0.19836,0.10734,-2.7139,1.02166,0.2681,-0.00661,0.07136,0.01555,-0.15026,0.24565
1498,20.56308,-60.38839,9.11525,-11.70049,7.62417,0.15141,-11.00648,-36.61364,5.19159,-20.78373,10.88168,0.51054,-6.60473,0.59962,0.75578,-15.67299,3.38041,-0.43336,-9.42619,13.92292,0.0206,4.09097,-5.59182,2.20142,5.26274,-1.59899,-1.37007,-5.27896,-8.60969,2.68121,1.58018,-1.11142,-0.14328,-0.09636,-3.11615,0.71691,0.13633,0.0277,0.00938,-0.1166,-0.32018,0.02528
1499,18.63116,-58.34789,9.19465,-12.66176,5.63568,0.10951,-20.21699,-27.74019,4.25529,-23.69949,5.60432,-0.7156,-6.43228,0.70726,0.80917,-15.22243,3.42194,-0.2672,-25.13982,21.7679,-6.04526,6.71618,-8.19399,8.39797,1.34252,1.28325,-0.65461,-5.03102,-8.91477,2.62761,0.75662,-0.77376,-0.41168,-0.25961,-3.49803,0.32141,0.05592,0.05261,-0.05983,-0.20431,-0.50973,-0.14406
1500,18.05297,-56.86346,9.19342,-12.75021,4.82591,0.25158,-26.47452,-19.80274,4.00226,-23.16603,6.88941,1.51611,-6.32676,0.84571,0.91186,-14.72717,3.44897,-0.08064,-32.01836,35.6022,-5.96774,14.45311,-6.06581,9.08662,-2.32224,3.7026,0.34984,-5.75284,-8.85994,1.76816,0.08749,-0.22104,-0.43711,-0.42584,-3.4988,-0.17662,0.01427,0.04333,-0.09909,-0.19299,-0.54217,-0.19618
1501,18.76429,-56.50251,9.06919,-10.37309,4.73133,0.38298,-24.65578,-19.12412,4.61297,-15.75261,11.55976,4.4315,-6.33326,0.87802,0.96124,-14.0671,3.35885,0.07534,-20.50375,39.95444,-1.13287,16.44736,-8.39982,2.96894,-4.81044,3.71855,1.02382,-7.00805,-7.09923,-0.37985,-0.71141,0.11491,-0.32265,-0.48347,-2.70903,-0.55603,-0.09156,-0.01407,-0.0832,-0.11012,-0.36706,-0.16914
1502,19.70721,-56.69867,8.88677,-7.37028,3.77364,0.11941,-18.57206,-25.17456,5.32985,-7.32307,10.71964,3.10504,-6.44576,0.86566,0.94087,-13.28414,3.10777,0.06308,-1.99623,25.5421,0.17751,5.36877,-10.33846,-5.44861,-4.3595,1.40724,0.6929,-6.71761,-3.92137,-2.15527,-1.07484,-0.43307,-0.33181,-0.13597,-1.50328,-0.26473,-0.20351,-0.15095,-0.06086,-0.01098,-0.14342,-0.05486
1503,19.78599,-56.84248,8.87681,-6.05239,2.66573,-0.23505,-16.71854,-31.38777,5.2577,-4.04294,4.17879,-1.19441,-6.61437,1.04926,0.92353,-12.52134,2.86924,-0.06002,6.72648,7.01639,-4.41025,-4.52409,-4.82864,-8.62261,-1.48831,-1.63095,-0.26699,-4.44625,-2.60228,-1.24729,-0.31068,-1.75517,-0.60169,0.54515,-1.17334,0.74947,-0.11974,-0.31783,-0.10166,0.03461,-0.12173,0.142
1504,19.14467,-56.96905,9.08096,-6.04683,2.93817,-0.07276,-19.24213,-33.89182,4.53635,-4.32379,-1.00744,-2.7942,-6.78487,1.49543,0.96228,-11.80614,2.84102,-0.07953,6.54007,0.35168,-8.37264,1.25163,-0.46225,-3.89001,1.32126,-3.64246,-0.87539,-2.65634,-5.06305,1.66019,1.15907,-2.70258,-0.86597,0.9855,-2.19914,1.55494,0.14437,-0.33768,-0.15124,0.00112,-0.31247,0.28762
1505,18.54779,-56.92659,9.26694,-5.59104,4.15611,0.49447,-20.00422,-33.00139,4.17374,-2.70732,-0.01513,0.41307,-6.88402,2.01494,1.03,-10.97867,2.94878,0.04652,8.8991,6.12614,-6.11216,14.88488,-7.30281,4.58132,2.57963,-2.46549,-0.66553,-3.14669,-8.26296,3.42651,2.13471,-2.27028,-0.6972,0.89879,-3.22148,1.43049,0.33655,-0.13498,-0.10385,-0.04213,-0.43412,0.26939
1506,17.71093,-56.22324,9.35145,-4.63855,4.78174,0.81318,-19.53103,-29.52397,4.39888,1.21679,5.37494,4.79823,-6.89733,2.47303,1.05106,-9.99221,3.00993,0.17032,12.22852,16.99984,-0.7971,23.67391,-17.88524,11.48301,1.50626,2.36585,0.27575,-4.779,-8.24424,2.52879,1.8596,-0.81029,-0.17715,0.62635,-2.95102,0.85036,0.33333,0.11135,0.00826,-0.03057,-0.34959,0.17007
1507,16.25484,-54.79834,9.38883,-4.48408,4.22455,0.57316,-21.75658,-24.51745,4.60586,0.20354,9.68144,5.62124,-6.93837,2.89253,1.0047,-8.98991,2.96346,0.18522,3.04308,25.08875,0.80209,22.27618,-20.95105,14.37252,-2.65971,7.20351,1.54562,-5.87717,-5.47989,0.32521,0.26448,0.53931,0.10508,0.44927,-1.86043,0.50191,0.13978,0.22695,0.07709,-0.00388,-0.22539,0.1055
1508,15.29869,-53.14783,9.23638,-5.1534,3.5256,0.14645,-22.96824,-19.63328,4.7229,-9.00305,10.02164,2.29531,-7.14975,3.32664,0.96581,-8.06039,2.85849,0.14059,-15.26114,26.69508,-2.22758,9.41219,-18.0653,11.16963,-6.8754,7.83143,2.17266,-6.71308,-3.54572,-1.48028,-1.54296,1.03139,-0.06982,0.15616,-1.21605,0.19329,-0.17859,0.2452,0.08289,-0.03541,-0.20153,0.03559
1509,15.64551,-52.0593,8.90719,-5.51657,3.85104,0.0707,-18.81292,-17.09071,4.96805,-18.65588,8.04481,-1.23457,-7.54794,3.85103,0.99684,-7.22958,2.77464,0.13866,-22.13202,24.1582,-5.09537,-4.03506,-15.14974,1.84316,-5.59524,4.08681,1.34095,-7.55857,-4.1793,-2.11473,-1.56265,0.44248,-0.31723,-0.26684,-1.51814,-0.29184,-0.33636,0.21285,0.05949,-0.09913,-0.26529,-0.04484
1510,15.89579,-51.90069,8.83144,-4.81227,5.09288,0.4718,-14.98372,-19.23504,4.89616,-20.03101,8.18984,-0.37968,-8.01278,4.55159,1.05956,-6.50442,2.76723,0.21097,-12.38838,22.3069,-3.50536,-2.60638,-13.59429,-6.10415,-0.22078,-0.88803,-0.36038,-7.2558,-5.9911,-1.44386,0.12898,-1.00971,-0.54003,-0.36002,-2.32657,-0.54433,-0.14522,0.04901,-0.01243,-0.10298,-0.38679,-0.0333
1511,14.9784,-51.74702,9.04128,-3.26993,6.50309,1.01862,-16.58017,-23.8446,4.32316,-15.49513,13.89768,5.08312,-8.4243,5.368,1.0784,-5.73652,2.81582,0.30665,-2.96742,25.79833,2.4069,11.33479,-11.25751,-5.053,1.95987,-3.72981,-1.38752,-5.51201,-7.01862,-0.15373,1.11078,-2.3755,-0.92543,0.06262,-2.92322,-0.32656,0.12721,-0.21767,-0.12274,-0.03938,-0.51595,0.04415
1512,13.81918,-50.14116,8.98189,-1.93374,7.1242,1.19992,-18.47074,-23.59204,4.18166,-13.50202,21.35341,9.71038,-8.78339,6.1693,1.02242,-4.74637,2.84004,0.32739,-4.7097,34.99861,7.58018,24.03625,-6.7493,1.12418,-0.18129,-3.10303,-1.10197,-3.72951,-6.7062,0.74547,0.59319,-2.61586,-1.12605,0.64435,-2.88079,0.07284,0.17064,-0.34807,-0.15482,0.01031,-0.5275,0.04755
1513,12.9531,-47.40352,8.64405,-1.40609,6.1709,0.8102,-17.08541,-17.67733,5.01804,-15.977,22.23342,8.69577,-9.14541,7.01966,0.919,-3.58063,2.81586,0.21732,-11.64125,40.87404,7.06056,31.02927,-4.65684,3.77306,-0.80697,0.21376,-0.10628,-2.95121,-5.36014,0.78507,0.35876,-1.68888,-0.54392,0.96674,-2.14943,0.31261,0.08601,-0.21418,-0.03549,0.0123,-0.32469,-0.03593
1514,11.91052,-45.25028,8.54341,-1.17599,3.92636,0.1313,-17.25081,-13.51274,5.71002,-19.83839,14.56298,3.30437,-9.49197,8.10243,0.82782,-2.43205,2.80774,0.02066,-19.63569,34.33865,0.61074,32.22714,-9.04419,1.16081,2.68337,3.56819,0.60926,-3.176,-3.87404,0.19678,1.41734,-0.74759,0.48764,0.94303,-1.25442,0.31741,0.10899,-0.03305,0.11195,0.01753,-0.06154,-0.07204
1515,11.29026,-44.51768,8.65527,-0.85186,2.41991,-0.28229,-19.6863,-15.42217,5.3175,-23.64484,7.39483,-0.78823,-9.78874,9.40277,0.77075,-1.44152,2.93373,-0.12209,-27.05945,22.36248,-5.45927,22.71556,-14.38753,-4.16115,6.45216,3.40321,0.24925,-4.5833,-3.47291,-0.85029,2.57149,-0.94819,0.78297,0.60668,-1.03471,0.03942,0.23827,-0.04893,0.10684,0.03512,-0.03753,-0.03152
