PaulMeinheit/Bachelor_Muay_Thai/processed_Data/E1/teep/scaled/JointMoments/scaled7.csv
R_KNEE_MOMENT,R_KNEE_MOMENT,R_KNEE_MOMENT,L_KNEE_MOMENT,L_KNEE_MOMENT,L_KNEE_MOMENT,R_HIP_MOMENT,R_HIP_MOMENT,R_HIP_MOMENT,L_HIP_MOMENT,L_HIP_MOMENT,L_HIP_MOMENT,R_ANKLE_MOMENT,R_ANKLE_MOMENT,R_ANKLE_MOMENT,L_ANKLE_MOMENT,L_ANKLE_MOMENT,L_ANKLE_MOMENT,WAIST_JOINT_MOMENT,WAIST_JOINT_MOMENT,WAIST_JOINT_MOMENT,NECK_MOMENT,NECK_MOMENT,NECK_MOMENT,L_SHOULDER_MOMENT,L_SHOULDER_MOMENT,L_SHOULDER_MOMENT,R_SHOULDER_MOMENT,R_SHOULDER_MOMENT,R_SHOULDER_MOMENT,L_ELBOW_MOMENT,L_ELBOW_MOMENT,L_ELBOW_MOMENT,R_ELBOW_MOMENT,R_ELBOW_MOMENT,R_ELBOW_MOMENT,L_WRIST_MOMENT,L_WRIST_MOMENT,L_WRIST_MOMENT,R_WRIST_MOMENT,R_WRIST_MOMENT,R_WRIST_MOMENT
X,Y,Z,X,Y,Z,X,Y,Z,X,Y,Z,X,Y,Z,X,Y,Z,X,Y,Z,X,Y,Z,X,Y,Z,X,Y,Z,X,Y,Z,X,Y,Z,X,Y,Z,X,Y,Z
-12.809320000000003,-9.416190000000004,-0.8400900000000001,-11.085740000000001,3.4850700000000003,1.34554,-21.55347,-39.37962000000001,2.3852400000000005,-8.79583,3.500580000000001,1.4525700000000004,-25.744180000000004,53.17533000000002,-6.08165,-9.57936,3.1387100000000006,1.2886700000000002,3.9736500000000006,10.81595,-0.6030400000000001,14.273900000000001,-39.73454000000001,2.16036,5.997290000000001,-1.0722200000000002,-0.0031300000000000026,6.086090000000002,-2.952080000000001,1.3826400000000003,0.6274599999999999,-1.7275300000000002,0.42869000000000007,-0.41536000000000006,0.32120000000000004,-0.38306000000000007,0.08228000000000002,-0.22700000000000004,0.11932000000000001,-0.33486000000000005,-0.001589999999999999,-0.05369000000000001
-15.983731598230111,-7.584531866847154,-1.5245195720765423,-8.118185161578669,2.7954221058472117,1.042294351427209,-29.678272576514154,-39.04548633443492,-0.18526763090433326,5.783055942638212,1.033048746393001,0.6012334899659235,-25.786126948228667,54.68893419831977,-7.0236234837100575,-7.968202558821712,2.4126562086138392,1.0203352987984586,13.666630479655689,11.171483928600281,-7.413180154983733,-8.50391308771258,-1.4406841034959097,-3.190650801137656,7.849259448161799,0.31040623068170325,0.031022609874657173,4.269485482932418,-3.422021880138756,-1.3214967264492252,1.5708595670931174,-1.4043018202760982,-0.12263186898642123,1.8651229542332521,1.2255974853834697,0.4425900553001001,0.36825456060077394,-0.07234855356221012,-0.08091399422224604,0.22092625189086662,-0.10532302088396224,0.18993179227460033
-18.93851763468985,-11.047799268090113,-1.2124956085897123,-8.093535073439675,2.3794934302046147,1.1749272603525496,-33.39942570165239,-48.26594001982097,2.1854151042026424,5.152150573511082,1.1969641981734618,2.2178658716156394,-25.731794623379045,56.72238829675714,-8.195965761665557,-6.360534270555422,1.7883158288848258,0.9976841563634387,11.907451182365836,6.874989585536233,-1.9361229531201818,-5.492034212542954,1.082873638006032,4.17677869945837,7.067116218651127,-0.4887193041006942,0.17286369356434317,8.09723377508208,-3.7620453529323314,1.1831846435704791,0.4960824436786164,-1.583779191256977,0.5183889042192434,1.1754510919580776,0.5011801244887996,-0.34347149971807245,-0.021373948989279842,-0.14343727845799414,0.14573985833116537,0.2919187526958598,0.013773689062114715,-0.12387612582150954
-22.668141282703672,-8.444588655846028,-0.9387865547399961,-6.7277130782736165,-1.192778076618052,0.07367372585542083,-43.62079901578849,-38.570656266939054,4.632540418546145,6.50704180865837,-6.56889101494953,-3.8862628968865223,-25.23180764040222,58.126296555815046,-8.858384464370308,-5.208952543547608,0.9955842428384909,0.536774140798754,-1.2076147303599996,8.083043776452373,-10.544911446606632,-3.1014464954156513,-9.816553441597296,3.0250763782111045,5.126014849036039,0.921675759028096,1.239243044758947,5.825586912417047,-2.6995022885080093,-1.0612336899407104,1.7287066182586956,-1.9061220698667976,-0.3234135716740411,0.7024633209689412,2.1705941806057174,-0.7410911693218154,0.3758410646376828,-0.18333099357386987,-0.11785081209788373,0.0132449846977654,0.3356798148237355,-0.13868110874801984
-24.390939748148266,-8.968767446945948,-1.5490196607223183,-7.532452644956475,1.7864766962155538,0.7831770831936214,-34.832569099948294,-52.06155476476907,1.862767373617121,3.8723108323052475,5.302500704293989,6.053557484412103,-25.17885273370962,59.07093115246302,-9.7459413332155,-4.043426436426466,0.8998188116346882,0.4302954467723171,8.10468033106465,8.682393925969007,6.453839047765083,0.7236002564408412,-8.256916596936447,2.9227916894011647,7.810363389484472,-1.3002119942538164,-1.7537574659985538,7.816696074780521,-3.42512545791983,1.1564855204910773,0.9171154103868883,-0.5713442636965234,0.05516034036108099,1.3665610760708649,0.8673494337226385,0.23407992622391632,0.29122086234297306,0.011030149201048629,-0.028093399762126603,0.1995699156862936,-0.035233183625364935,0.0861767849074381
-24.10973342515898,-2.509609336528352,-2.5986626424007904,-0.318437141599499,-0.35540938683357726,0.11911935835292373,-34.27420385188313,-36.44713628782691,2.389587283153744,18.03724024755793,-0.19334241752861095,0.2197942571286336,-24.642868875948817,59.90431242828843,-10.66153120053637,-2.2663321238122442,0.309074694272988,0.3895357758811749,25.84115300130447,16.144508695411837,-3.3808866645277162,-1.2617275960888708,-18.175981887119413,-2.490952309541684,6.706207430976942,1.3965819373127892,2.827528184684986,3.9277716059167407,-1.7706376496025806,-0.3320087245824958,0.24202985858189338,-2.2104309631448875,1.2236590452816485,1.2169327804116579,0.8880057902923881,-0.025267442977312024,0.015404027186525957,-0.23772280680522803,0.30322400050706994,0.17899106663689332,0.007350399945779565,-0.011758189957518678
-27.999833681315668,-4.709546141752276,-2.3998259279645553,0.5209335369528039,-0.25069587532863913,0.06120077130671937,-46.92486087071322,-45.85455799508388,3.1453831903684635,23.30480978675451,-5.710607522138206,-0.094522274091154,-23.924048934498412,61.029623885140346,-11.850155932427116,0.47032309499375474,-0.19674682813880906,-0.06054806813090919,13.940870904588929,-1.233938549059604,-5.18868192514353,-0.1719784062837265,8.521563415513542,5.978112315548271,6.84326304385292,-0.9279209711394392,-2.083017870679181,7.646305632826387,-4.1993247452131985,0.08049944948451002,1.0579230581550398,-0.3244016296569578,-0.6388314708652091,1.0663528868502137,1.0086279443316812,-0.21773098867203997,0.21754631983722508,0.1259615808277878,-0.2576815805919497,0.19426086713920218,-0.04501930259490032,-0.011128991391441965
-26.49013860265907,0.6386004540541724,-3.06197793810674,0.3966576875909362,1.8556395764388898,0.19791877370399932,-42.7979870838229,-28.709266370430115,3.549013626204059,20.21227355012045,1.0375845323970636,2.494417094013852,-23.36921780736262,61.319723402568414,-12.403797409242372,0.4089185139832263,0.008963484983711571,0.04251993413700041,13.870126872150362,28.26507314700393,-1.5707436050563974,-7.688092665297061,-40.52802927541784,2.0776441166246227,6.269833209481103,0.49062643453730465,0.6670008905768443,5.653072438370379,-1.4435276580235037,0.8949719132185173,1.9583310365694506,-1.7636039780135788,-0.2474883431734651,0.7453804106251193,1.1244080798683511,-0.21844970901065022,0.44430079230919645,-0.21230609918231094,-0.03247542461137217,0.09903900314958067,0.14498568568871026,-0.06334226764395352
-24.659299442594218,3.393929519212093,-4.032839732409878,2.965642787683196,-1.710570281276558,-0.284461224472462,-32.95517141099128,-36.89683964304118,3.931001934087217,30.276223335868416,-3.561163218787697,0.0005406476565646412,-22.81037492656134,61.276514353826414,-13.337667431065999,0.2720494283894673,-0.540298888986754,-0.08252263168433378,40.36372782230622,7.71982447206808,-3.5493482463212405,-45.90886623574984,5.278488049347375,5.841122666689329,6.123785609632297,-0.27714686009007317,-0.41166060821196415,4.45039990186527,-1.7814777034261928,0.7252144294367775,0.3152739062141491,-0.8228097023688313,0.21170822379182092,0.2922989229482132,0.6485802187502883,-0.0922176044075529,0.03531078180736803,-0.021517596967990785,0.0018910023843659134,-0.01383993375974378,0.04558583550292686,-0.010348314539409377
-21.72950954448522,6.5726342004578475,-4.804353847747504,-3.4771659659396787,2.123739206347495,-0.02348554845620303,-26.902347177006305,-24.267538963378765,0.44915091674734603,10.806548209637933,2.5129639206841925,-0.19708485071408127,-21.701462353191747,59.384676360909744,-13.320725122057675,0.1702988845037844,0.07968906338293384,0.09124151560273731,18.311855134374586,33.29697324803144,-5.948043832581442,-4.119063949158851,-17.92814815757884,1.264268602450412,7.8558173597491745,-0.16359909960619992,0.9946431968666771,8.886216840511079,-3.52205769099609,-0.3831874574016365,0.650579805292862,-2.002896211515517,0.7605107174183469,1.6769208332798204,2.057325912614478,-0.3834336370275864,0.2594902556721317,-0.24689067959043093,0.13665778732386857,0.5307026098736222,0.12441791623974288,-0.04053237252015011
-22.358720883767734,5.9187634997959755,-4.158592469723916,1.551404654543576,-0.896346643795916,0.19481075557308739,-29.339029388687575,-32.840341188855334,3.677728336941897,30.123390645101132,-9.186371607571456,-0.27255906194750046,-20.905362602560214,55.74520561461195,-13.179675987113061,0.3524666084043171,-0.21539734261936233,-0.03635895638983842,33.4300185880543,1.3398270368891005,-6.918176810328393,-23.4408334636567,-27.595425264848668,4.330973169191531,6.806412771097725,-0.6689034732983183,-0.7175734725239435,6.8949130506940355,-1.9937231322078928,2.7745390964334566,0.2616036365518105,-0.7901734682924296,0.348475133706892,0.036683716348700296,0.38322640403357244,0.3110652781720522,0.051235342204559865,-0.03438765176465095,0.04885643871609038,-0.031440565797631985,-0.0856101971036517,0.16584817695822765
-18.969162648581364,5.588163620847568,-4.216344655646764,-0.01909135920971745,1.4597126270369731,0.4973790608221681,-18.419006441791154,-26.141345689377367,0.8553747773774243,20.30541835578345,-0.06868994409356623,1.0723051247470994,-19.876040339249737,50.61120744180485,-12.512102280110533,-1.5009117765746471,0.884805442653049,0.5952151083931443,36.37073783068263,22.94456450063297,-6.391741939957964,-0.7518220548311317,3.2777074288242347,3.7645811655649917,7.594707320528611,0.5787798724565976,0.9450709919127211,5.880334964276253,-3.01175563226101,1.679946579697184,1.0843033926982735,-1.4244833937801877,0.3979102681913581,-1.0525272850331397,0.02950936021572286,-0.5443535412397101,0.19161210436342974,-0.03153230550737044,0.05464865132339564,-0.23090779371845505,-0.0023787723390870084,-0.06638407950196573
-22.39450619558943,-0.4813900680709171,-1.792016249771593,-2.379576488597528,0.8118757210667636,0.205878229505533,-26.141976768751775,-29.266197923995588,5.7048368767183995,27.57403458210098,-3.639227723908861,-1.1057522987078778,-19.43016733367848,46.01262168642115,-12.352448341643548,-2.1023394792261385,0.6850716868602902,0.309269892344842,39.185128838851256,14.428479976364638,-6.708139818139397,-23.48814652887167,-23.12707287441462,5.458791173051126,7.759633131870987,0.2590300277867028,0.18697752008711702,10.32087808747754,-4.045271507530802,-0.7951425604379334,1.470710987942987,-1.3137144723812368,-0.06314783818519187,1.8296348642021747,2.500281494057237,-0.21156460163688143,0.44672756904187094,-0.10321231287685625,-0.06926857576139443,0.2567141666541578,-0.047253673988136985,0.0003327992697568921
-16.805741971890864,-2.383798694944878,-1.4950707112593116,-2.733210813814066,-2.2063875786436844,0.7951294102522638,-19.77565576783386,-32.252355472781176,5.053751026771345,3.9017123671601377,-10.128009178174503,-2.2440725979881577,-23.017227120311585,50.51120589626563,-12.8309339607034,-2.2020574101142274,0.19081902688583027,0.24180625345394033,11.770120784670246,3.4621522880567213,-9.616588005589898,-14.464246278056756,3.8724029270162177,16.712748764239777,9.867229325948221,0.1233866964273107,1.8932731822971987,9.434727586768123,-2.3043347990728558,3.9761199292489304,2.2875319949400095,-2.623035656319394,0.6513871308608926,-1.338885810281996,1.2582585423880834,-0.860218501824944,0.38421329288119677,-0.15111435851144497,0.18611401540691827,0.08009719340113639,0.4574610828926322,-0.06062197706984125
-14.701176384688042,-1.2995278456936237,-1.1201063391549904,-7.049943834950912,-3.753228266940403,0.16741846965694376,-17.45856243226703,-41.68103410599746,7.313012295469072,5.974176878386772,-9.31029057306028,-4.403650106880884,-30.724242194355657,66.08034446180531,-15.831241096510011,-3.101152227928987,-0.013440162758296285,-0.5316102868628384,17.956935345656078,7.115246801247824,-13.023448625452753,-6.788198813064532,-35.86648464035776,-1.6446938731183647,8.206449558624103,1.9719635752376607,2.7972949718044937,6.872144765498754,-3.332191962027935,2.9952042260664955,1.7832760608359206,-2.1746299457536176,-0.012037898801078105,-0.7879116440532103,-0.9050970290073049,-0.04902499499004057,0.36007623687392937,-0.04657537089353005,-0.13127918834943297,-0.36876388844136065,-0.5111040519941701,0.07106477688589583
-11.856341171456377,11.205276253043499,-2.3306854902603487,-10.7581297235573,-5.368023340639592,-0.05249568324654096,14.199113658920862,-39.17786357974531,9.503289089507472,-6.172739723126023,-8.361093540335713,-3.8837027922333793,-42.88460262043438,87.89140898707576,-19.854563416728286,-4.6786939961010185,-0.7503404608658307,-1.1652207246338038,46.592237043255174,22.509295020654573,2.0597703834111,-32.42248775906571,3.223453469496299,17.70476878781843,13.062850500199252,1.9763486775899195,4.832259218185793,10.219986992180502,-3.021721413501579,-1.1769535614920466,3.2041806593925197,-4.13541080617201,0.9090649396064747,1.6354582830119127,3.2506254222914603,-0.20507992369412337,0.6532550153917315,-0.5173069102456209,0.37082789433134994,0.5870769048098629,0.18077929983810181,-0.00016814612585641506
6.546612674867207,19.86190858136927,-5.314121575088194,-11.776920684648115,-8.598289586385528,0.4709013733677803,50.6581053017749,-39.39338262406261,4.746303242995932,-15.532597703344404,-17.115581627109382,-6.4458194529720725,-54.9926472355595,106.4725684129119,-23.44026824778888,-9.792157932540368,0.5995405707374778,-2.208000039719924,77.41273936847237,4.172580370033153,-9.235630457711745,-7.295087673587894,-15.287781676158477,-18.196053683792204,19.275823258030428,0.6092658728798213,-5.843780597929216,8.086019022684305,-2.3743079772805626,0.7380392524766572,0.17741100680134037,0.6742736622983188,-0.3778719004287854,-0.8430398767098812,2.050789657025457,-0.41680235514157504,-0.0626129523154324,0.5053617343414496,-0.29892263341537,-0.3579178686101768,0.1308394651069841,-0.028588505073516325
33.63978294872103,21.33511973829808,-6.7412255948379505,-8.760651309739465,-7.593952007318531,0.7747737982270105,110.89783863028654,-37.7740987104953,4.35990032700024,-73.8738355506155,0.7440885737006727,-3.1948854270455325,-56.548246779266606,106.91564639141421,-23.337973351127147,-20.089975468935975,6.429787809638406,-3.0574104423381385,61.00848438450129,10.421379071744619,21.811247635093487,-36.607536272319756,3.626377851677714,-0.4166159738403644,15.567932324212874,-0.6022191761878651,-0.29897330644465364,6.070366606225076,-2.2144356275817256,-1.2512727578599536,3.589685702142356,-4.0914604580126035,-0.41192647793878706,-0.21065040243788455,1.8337821593979302,-0.8891806320477561,0.8872493584176273,-0.7880956921144651,0.08981294881796939,0.089183850222005,0.16204982341010635,-0.15486451217037828
79.7012488914858,11.107911120710401,-12.593555687485392,23.849231842383215,-6.5795850470223165,0.9204988640196237,164.02561637913615,-35.176480380660486,-5.649031669369271,-86.86049568331443,28.147280090235775,5.261850627079865,-35.70707362340184,77.8687544615158,-16.50286828288124,-35.418812001023475,16.15397908280886,-3.164435079082004,71.54664614650999,-15.411789184330491,29.612585417859087,-31.457400720536363,9.603994042749214,4.421972466789545,14.394271131785366,4.3029055354638555,0.9884487860118014,4.024080743503523,-1.9623837452303965,-3.910344786771819,-0.2891655930426127,-0.3418193245021138,0.9913788614576313,-1.0697021260261999,3.4649976741609567,-0.7711155192211653,0.03722649296757277,0.3472574421774122,0.07701160692027444,-0.5149455453921026,0.5161513120738482,-0.15498862647492664
82.25072964610537,18.59099672707694,-30.17683698721274,57.68127659835591,2.632260163479361,2.2484318585837024,138.95999034575095,84.89330713270886,-26.47117559405528,-67.19733112905901,38.38741023759304,5.434817512688325,0.4814560970921335,39.05653025037403,-9.175289875134814,-54.04781310041986,29.202283084887018,-1.931179174637192,46.58362742095707,99.29105600422066,-4.757034096281397,-19.513278112548587,51.59797225199765,-11.35041721547793,8.70076927612922,-0.029725393807070767,-8.584232664737197,1.007286096239369,-1.621320945657314,-4.259805570975145,0.718755757084695,1.2990832645539065,-1.4699291666031087,-1.1227556061946915,2.2448011382232704,-1.240363925359365,-0.01504562653109884,0.21226366288784665,-0.3396028019824224,-0.2003698232249699,0.16287161816714374,-0.13266996285339472
38.621874690040954,-5.9956491667004785,-9.066251969473567,76.20260802795292,26.097384117775363,3.975935418819671,100.2982852532851,11.17371771575516,2.804990981527542,-53.35879545109966,56.52516290032279,4.735573079728188,7.47315331110811,7.886507027312869,-5.329971634185334,-67.5302542470671,39.44194637055017,0.5555944675930927,-14.737887903253126,-6.380028332163687,21.636029425130374,15.638824474039794,-10.819457884818593,-14.682219259336748,3.7527898979749654,-0.9698385639828991,-6.119983076890572,-0.8573494925055308,-3.1084203862037563,-7.6484817976678565,-0.8761717483906184,0.6079527981732644,0.47847051672935265,-0.5418717216460285,3.0030334629792725,-1.7664143872253955,-0.05511202909010351,-0.01986846062252535,0.012330972624742491,-0.39078244919525856,0.5414656145102885,-0.38673606655556475
-12.754587996373896,18.340383363762204,-12.622983148579273,79.03700107555225,44.23892163887821,6.699861093475901,42.02915643788154,31.712621834854552,5.164298256182044,-8.833062801108792,35.12345275092659,-5.880883404730694,1.6160218418839292,1.1787219203854098,0.4114680519977748,-71.66111319724463,41.13491425547726,2.521083656814694,-4.636236714945304,-54.788359521163414,-22.465521296583326,33.92300574319876,9.159927512464085,-20.59668174719978,-1.0110532368328573,-0.9612733046905891,-2.842080218253378,7.05952805958382,-4.607201822262787,0.8710008411469412,0.24371665689203487,0.4357740690672885,0.09038224811787485,-0.5326340750553418,1.684417971162503,-0.1365004713384155,0.17310926409908675,-0.08792105616167215,0.023452230907182,-0.24869838511822212,0.0835037111815109,0.23571993102115385
-15.03656534954666,4.397779535343185,3.9201584628183834,58.67171835822795,58.037632231508454,7.059864786636843,25.673812568610234,-11.961044009200364,-0.11139883448114901,12.0122689376021,58.637388806977285,5.970120748791829,1.788693577372829,-0.22204068312435926,0.6361486711896539,-62.36584882071222,37.58575748320587,4.960395242243046,0.8504770382408551,-59.748005898914315,-29.594404082549566,-21.23421842480635,63.854607883299536,19.97481860099464,3.526818329088822,-1.0783438922502284,-9.086634552442474,13.909164271887494,-7.045548822740186,4.092468811017858,1.0101428532481815,0.9449582126774357,-1.8260311688260225,-3.6284677991418612,1.1444843937463198,-4.175707851454779,0.19419927050308286,0.14360365672068637,-0.49616699134228504,-0.8644280422515965,-0.03634799097940783,-0.3358197514632361
-26.69019721213005,14.801346853060313,-4.983593403710475,30.68729260664408,43.944194078083534,5.5092298406151965,12.647918999176067,35.15552429372128,46.309208348094735,-8.944131883966062,37.13598126797526,2.660073195362265,-0.02036977538375743,-0.4361084878219691,-0.3513817642718468,-50.1403155083039,26.282393461692674,3.9687875153549474,-19.714833467030914,0.7858588434424718,8.179212143259662,30.501159722668184,4.723489353953457,5.392004074967758,3.20551528859506,-1.683549273160133,1.189443841490207,11.790613674169528,-7.129345387718493,-2.357730076051796,2.2702186700729383,-2.338250661955173,-0.7048308027654959,4.486638681464006,2.8374666350034294,-2.2810773561986912,0.4061168331768738,-0.4648436899239777,0.2878581765135123,1.1403101114010916,0.2068247974554057,-0.10655958140041315
-19.431435311507595,13.143959477229886,-4.7377772865793775,22.422413992727407,42.129415604959846,1.363495099696857,31.398044749533568,3.5655878506781535,10.143817915541929,18.102222351812465,60.3783841522597,4.84952872376503,1.6765180741982366,0.45824977453563503,0.16792769694325893,-36.30061304957846,16.0782008059862,3.3883661821953543,52.809283858487596,15.11491611002941,-20.469218562529957,37.39679766630342,9.658707270194675,6.5406584016567315,4.486127040341308,-0.6939390964764341,-1.0600937261726406,1.3873139443957028,-6.805790445115547,-12.207609485869071,0.67450716859146,-1.0012687531970663,-1.6896678908786946,1.1372909889862552,2.5700332781051274,-5.773671337222896,0.03385366279140033,0.0833921060140218,-0.29213632664383193,0.06503182414635975,0.483920237509167,-0.4768563851119698
5.541594830498973,3.2096840295402345,-0.29360560069848557,12.795743558314925,23.960934051363644,1.9864635317096508,-2.45288828844735,6.302522886713991,-4.528580046176906,-53.268745371875646,30.66201192682385,3.3532248967574905,3.375071153118513,-0.5537820898652419,0.32767681750527416,-27.26653855292128,10.781099109476141,2.3706436883497353,-70.89312634253787,12.35360050484624,-16.29969232050446,75.36834838685212,-33.982285449483655,2.8700924660953553,5.527566455186005,-2.503662139681187,8.171627193762834,0.9306549055067703,-2.5769759981471605,-14.086083096005924,3.110278290702584,-4.236395538935986,-3.3080881532541526,2.3563232945689516,3.712354173027106,-6.993566552285896,0.6690077983041643,-0.41349214250976746,-0.1734710691233156,0.12910265610278385,1.77283046230818,-1.2810450755407707
6.125096128427235,18.226443443242697,7.7268473836174145,30.57396415407926,18.525263564075075,5.953824845546658,-79.71464930606535,13.906581873578336,4.606819549439575,-14.309138370764936,13.882044952387265,9.880766233691462,2.0483536800716426,0.610169813240887,3.6610936806853513,-26.714733679494294,9.295693332540127,2.386788499778068,-124.19573154413878,49.716572389255795,17.89780784548244,144.2922761264017,-2.0262041527725176,7.971749937328726,11.479833377489399,-4.976261495554307,6.695737171381799,-10.286698807547314,2.073117478696044,-12.605989070980073,1.3273453113473523,-5.59287944192688,-3.834911278177551,1.0342944787932051,-1.227639317237536,1.6061261072087314,0.007387549691847857,-0.7299786743463301,-0.14100031916860842,1.1928404124182757,-0.7221933971629566,0.2562205058158449
9.18380281304937,7.306441027485866,8.082947500848253,53.219279118958035,27.309779411939342,8.438253569233556,-133.48443577654137,-6.2932582600105835,-28.681196290133144,9.154109304089971,1.898635572717748,2.3153616512224335,-0.5911017051671865,-0.1905673507457343,0.7805819492740973,-34.96595910473593,10.559534331280462,2.6722044342332594,-112.3541541247079,-7.340098633962215,46.22297865311858,105.96998190726818,-9.40086961921708,-73.41617371474526,4.577730118739595,-1.8066706189454986,-0.9497424168857405,-20.879379621115564,4.2585620227069585,-37.49529771987837,-1.5869270483839149,-1.2518473670434025,2.0783644206185445,-1.377782314114808,0.7239943804033978,-7.1303556788699325,-0.13250485196488185,-0.2397927880330341,0.43432994208305203,1.2711401868236658,0.04720392198570371,-1.062096479692111
-98.17653452998402,5.616942668791136,-19.605433489683094,83.714796503268,36.44167738220819,12.417827552225463,-173.2053203284635,5.752983275766905,-34.127877361928604,24.133137125812468,-13.066820194702757,2.2946055066560223,-3.9988936673314743,0.7269238129453546,-0.7150328154164913,-38.5790043710102,12.015905945300007,3.709276183983284,-190.54935200964485,-31.500522888787135,-54.997961167738,180.14890569094362,24.86191583165948,-7.098153990298966,5.918540543685501,0.5331482222725018,7.424200159415093,-10.342138379996234,1.9534291246030133,-12.016153204333218,-1.9190247579485755,0.6793150283988731,1.0900271513309194,1.4845893943043396,-0.9304004683444803,4.741925192135819,-0.44745070585850794,0.43498056732789847,0.11344049657850781,1.0270790017537488,-1.4095819767620137,0.7965393667772789
-55.32850842602848,1.462950289084559,-9.703301321600897,110.35806011025946,41.254205278158054,16.82433058927316,3.38496116036985,-19.409715883219732,43.931457017582005,72.10407634583294,7.6323972851211845,19.790850080253797,-3.000528351103971,-0.22360257611618084,-0.7865423854203634,-31.020741935311513,16.483193106777886,5.680173079922864,39.86023806433491,-53.51602553732568,40.414330384801566,122.18245098758764,63.11181251075108,-1.8068633893537045,9.754942781620956,-3.1781311868068833,1.735352127501641,-7.327015141446034,12.13719001240074,-4.920487795491598,0.3699925054647598,-3.120928362518688,-2.138585149611515,-1.2261809758862268,4.633408987234473,2.840698825575181,0.15921494083028337,-0.08262206001134502,-0.1361757600557756,-0.15082265253244212,0.6100575367558164,0.701794689194527
-0.36686838030712465,-0.7293389263593719,-2.751493984658311,131.02601097527415,42.219036000778324,17.915525398013955,64.09981532533446,13.610092875838447,1.7194383019932749,122.07902641608173,0.777692656712476,11.537179215485338,0.48612186204623414,-0.0651746245805037,0.20891015284415046,-17.15562744687106,18.5660220480465,7.617893550176236,152.4398430455133,-49.54457490973937,-25.381289520119655,64.02262143083742,6.35776735198804,-24.118434137639714,7.535441067386757,-2.5460146055552313,-6.1990338179014675,-2.422636831501136,-1.1618756372386332,-2.4698968999740245,-1.1930780452147076,-3.7443900596472726,0.5193646316327174,1.5792605346596387,-1.1561134670348256,2.051958126089668,-0.053859043732268526,-0.7246709736895014,0.11565708704878118,0.45859584676698084,-1.0070441019305114,0.11602219586547896
12.953039887398589,-5.710752300896059,-17.029945614130625,144.09953653063482,42.32260561021873,18.59111713565143,-16.287277927053623,13.670374708259216,-84.55048674517232,140.56020438941084,41.50766584288118,21.356132871517524,2.0625780083538077,-0.08930356076294421,-0.33956339896751736,-5.487508070772332,17.987643419863556,9.053292799144279,73.67140659406476,35.514500118784554,-77.50403880224425,0.8307993176203139,-14.081561289753369,-6.504602644288087,8.109582449041731,-1.0101007557584303,-4.227710732494386,22.331367376398937,4.374108673390849,21.708796467984907,-1.329835527686367,-3.299966286875181,0.849482277565575,6.5284842106795296,1.8410086398557657,8.30420753283772,0.08468770074142132,-0.4095101327573369,-0.10302619678256886,-0.00737290511420141,0.4227623758354246,1.1882417098586209
-10.52546157171224,-1.0495374043047394,-19.509213930526382,150.07207190613727,46.59643987478833,17.096093066661837,27.802302394310033,15.55233260416824,-46.28894748723865,182.9904803229971,58.979921853656684,14.54806684814493,0.9600610832362295,0.39354038812304615,-0.7765628519605791,0.800323501579761,15.13145986217047,9.189843619643288,194.01980320196725,23.446807122621614,-70.96248121424931,35.58009819020301,-64.2926772685482,78.03289794882355,11.355304967863097,-2.036802033330653,-0.5932921964512982,23.325882967285693,-16.837881448003277,19.412339099943964,-0.05517681498731272,-4.925598307778367,-1.4042516979096284,8.846328751556003,-5.220950542826662,6.233107760364461,0.019424602582071536,-0.7472000311994897,0.10888885507820109,0.5912964919305476,-1.201930904334401,0.9751401292288802
-40.26775038123864,3.5104107470727,-3.2513106806917746,139.3502219432211,42.72632543011093,18.91601816293457,-26.093125174187378,6.1952928874872,16.332367203179817,207.41788793010238,42.58801955053427,15.03297094461311,-3.3704328169984152,0.5419419294804192,-0.585133329349266,-0.694452402614426,14.13138169271818,9.146939493704014,177.21160462360078,6.557926902314268,-11.72637072856644,3.251569070486323,27.633787702088743,25.933196105027886,7.41022753677089,1.8311237227303339,-5.70319475222929,26.341500783956644,-18.515797654571514,16.307838091923763,-1.769296178908187,-1.0991719832924765,1.316729236983151,10.858227176933992,-6.342586665524615,6.186231050955185,-0.1640058740181111,-0.044263239232818996,-0.1011326053004746,0.9166602875343223,-0.8537032956640923,1.4236123312041633
-56.655515936131664,2.428734220257245,-14.0845969419987,114.21238078933473,40.260606914725386,18.44329188625765,-88.91086705268405,-4.366521703148633,12.398396215038547,174.91720760057837,30.474499645633596,18.693959761281164,-5.272195417393436,0.9996018792808422,-2.0982488546803566,-8.452729696756958,14.759122404049581,8.985614991674845,74.81486400578548,-10.539465977644896,14.588568882345577,-37.08052383392229,-60.055251607311064,19.047683833242044,12.726298725299,0.23216798812340936,2.0233944795497005,23.912580489059028,-26.874511023423345,13.444069232100457,0.5782355076914768,-3.122687975265186,-0.8420493703558184,9.457652731223957,-9.396626978077007,4.9831384984278895,0.3317002332107036,-0.08497784513557709,-0.10613764113172053,0.7567856723808507,-1.3855180692223836,1.4253047026449148
-43.269866799251595,2.509733062023013,-10.889998405297968,85.70678021261324,40.81188955971363,14.038591577539504,-53.02293890330112,7.347845781378797,-34.536411568473184,141.35731646372582,38.16505819292609,15.932137733148844,-0.7739602540105547,-0.39452865647542945,-0.428963109532388,-19.859053749368616,16.75636771921758,7.429047836756209,84.58889658315123,2.5049497979671815,-64.83521765719571,-50.41744687248474,15.636642035128999,10.539213845525973,4.1127745768559585,0.17236272155477933,4.681420981764513,10.228296412911135,-19.116524062960284,3.2194380291907576,-0.5828349152209679,-1.3307046641365512,-0.05669683396860471,6.0969863782132645,-6.680642101079368,1.2606567359329195,-0.23829460507126626,-0.10152163957910451,0.11742026955116029,0.6145864849342245,-1.019069892428515,0.28635085710441316
-5.899339610162686,11.821760242381098,13.686306904631971,58.11696454337745,45.02498709615407,7.630960777753771,34.957926193233135,9.567885477323829,60.18766325375087,71.66662095675647,52.49124845192432,7.001410744379757,1.4985833094158325,-0.40177289972383556,1.9145056222010923,-29.706250579185756,18.29098440900949,5.305652165585346,114.49941705027926,13.00911538844057,66.25478976301564,-8.1586062171476,-13.196033490711072,7.975247463553594,9.221727706922097,-0.10842146376338235,-0.8969663279318845,15.44149283982923,-16.42741059267249,4.349081209926142,0.17413561936883393,-2.7625432974366744,5.045744167597732e-06,6.928112543846259,-5.206902765592817,1.7965160755008922,0.28119799249691346,-0.27697605899149325,-0.05185880248223848,0.8858097396607638,-0.9701562056849297,0.6292294757729104
-17.25500973976004,5.297383790258917,-1.9355494124223669,42.26729028061983,43.649796858084926,4.596319403480411,-33.62881409197812,12.896305038791711,9.45675141503679,45.2521902931738,68.29212775535558,8.107262847476958,1.6216768997031825,-0.5132365157522021,-0.31057553336897725,-40.739549019327605,19.123879383934508,3.0113668504346007,4.278462602944759,49.77258988369958,6.539215796811776,23.504005415501016,1.5579181097718509,1.273343980019249,2.782608207905377,0.03424892322904741,4.202893580271574,0.5108744338644268,-0.6226146832844924,-0.20217860193954595,-0.3624939271690113,-1.1987227933901898,-0.3419285829912566,2.444452661875422,-0.774823539011881,0.9793094452299792,-0.08892199737595623,-0.1131460850720727,-0.0792848062732142,0.44071706337341204,-0.5479554621283608,0.0624978913192069
0.8510238111119292,-3.2800180282588576,-0.10968142665209235,31.510462961747404,31.530195136199097,6.429146516183057,76.63056001004435,-14.54724479429657,-1.163101242773514,50.503519934511786,34.21129449482225,11.033966302595967,2.8708757275803665,-1.3321697551450409,0.38555484638516746,-53.551942990636036,21.114092378104935,1.5563430683368267,143.89057337902474,-48.437848690891904,-1.0294460608925258,-55.497753908718344,9.927026618232876,7.898164736809882,6.677491192943012,1.2661980837290612,-4.711439512065461,11.85689400236755,-4.6830129553452435,4.005895049513589,-1.089854685709526,-1.417872555289907,2.2423338562708963,3.5615350999802233,-1.3586879140917845,1.3954200450258902,0.01209566427770004,-0.11490924847592145,0.2501061079982483,0.3487629608650853,-0.40168055506385597,0.18578339323953044
-11.460741586153608,16.73230422710163,-5.146088152806439,12.257167014332115,46.99461402571042,1.173796942837011,-27.677203222769656,35.20384355789297,24.644023240552983,10.79652579326263,69.44610366601455,-2.2961227481672597,0.9678134769831644,0.06980031833081785,0.44468790027883176,-66.25257121137219,21.42963595625272,0.47710918577324335,-33.42769852089093,57.64902510999384,0.7345032279177256,10.266004027499015,-27.643795970013247,-24.43358760474833,4.233132284609875,-0.7467050471008998,1.7537080353034653,-6.407722359657407,-4.90276481581766,-7.385970854734408,0.6942777328536099,-2.1199562364441844,-1.1347566653654484,0.7449873887623313,-1.1509054999805632,-2.0541393644836052,0.07714035599123253,-0.33818815011320585,-0.022306851548746783,0.4260326375703735,-0.23404761113719913,-0.3875864950615395
-1.9272356987833121,-0.2897557279887728,0.3125733117834928,6.952151538475035,52.15424296703805,2.2784695491958313,95.70005519415834,-5.514349672867656,14.125670247055087,5.41425422529376,78.5541374726096,8.511858037828397,2.771658748121475,-1.0166656253348478,1.0269091688491863,-77.70701467129965,22.819051566540434,0.5879377321526658,123.51479498075962,-17.037088383947715,7.851377370605023,-13.50994008383834,-2.784696636155329,-20.887470177103538,4.2248252540038855,-0.45505189936969725,-0.665151317579231,2.19741155400346,1.4402594974455578,2.5539775655658494,-0.42475593481142915,-2.304566247428,0.9555075199704133,4.215969294689176,-0.104277047655882,2.4741615659928264,0.08051278539752826,-0.37463275781525684,0.08230205988179326,0.8107792316297956,-0.3887094543581108,-0.049958307719433964
8.445202743895136,6.433842641488432,-4.393459466170651,1.4415505250017917,48.2137928053379,2.785368198865172,75.30352447846253,10.788128108453094,11.030040518322869,-51.60668124809635,50.16201905830416,-0.3159291895619407,3.562839169991457,-0.6478046387068164,1.5715917505446968,-88.28358366895162,23.529065000495144,0.2915217775409862,15.956000159033405,-44.07924827603091,13.422466385231065,-6.184175962260495,29.42780595113269,5.763773449076469,5.72052734090904,0.9248103447810091,0.13010812341692507,0.19141196469407962,-4.373495287359606,-4.282199180733058,0.35807385741607706,-1.394119415915259,-0.7879553836960501,0.6421422430657525,-0.23506986922783368,-0.6802703307433002,0.08127509824200828,0.05219453973713102,-0.18506937363569675,0.09734899513720122,-0.01010732784550658,0.18748519612115402
5.926324658556716,6.155934741293995,-6.5848394002159765,10.370150291075493,58.224543059219094,1.1647884751497215,66.86014987253914,11.557056781586224,3.6930790952085966,-37.660636305314554,78.8202056811178,-1.491875010201744,2.2562220926613774,-0.23655564568696158,0.4573098470210294,-96.26867482419206,25.093211503629927,0.06423506412908252,22.23650708824333,-14.383640767644048,-1.2929806225612794,17.414918978447062,2.6127913718016598,-22.95391323209885,9.294433411064059,2.0068998840918444,-5.919405754653825,-3.6222684238501697,-3.3228659238559195,-5.14655750686452,-0.6453948416337942,-1.9102016698114708,0.7598693808709149,1.5320324358863935,-0.1134512979679121,-0.4286733472900788,-0.12507136331770013,-0.21957325066194458,0.114403878244757,0.21288267728903187,0.002237367602325295,-0.3209674003637694
24.67820334185898,-2.147201452348082,-0.7465229758511809,4.010301352521994,65.1414121798234,-0.5547211286504379,88.78366290382031,-9.920167169914869,6.877700965575005,-80.13038777427779,86.94061806453635,-1.8997014496297357,3.8543529317778535,-0.18170265022397655,1.5513157543792087,-99.1895119186313,27.107663533956345,0.5372434175609154,-7.134661993054796,-28.755724555637336,9.737726646894659,10.241862131645025,29.715441121022483,-5.784737870872273,3.3249581695186228,0.2868948201321279,2.901104691291306,6.678665921651975,-2.2342732610999585,-3.558469698154189,0.4604423945958317,-1.6570471241701101,-0.03618650369046685,4.210356558178962,0.5485459230671784,-2.030437699912134,0.1242133927620705,-0.19945995704743175,0.05864083651279433,0.8820994674624228,0.10822785249518041,-0.5484452165417398
19.621769635964093,1.6139225157019632,-5.29260686695842,12.813917498962532,54.21751929624539,-1.6575686397153366,106.2260271151059,8.194907993311505,4.155074902205245,-106.94323661147328,99.38723997058229,3.6785936484294797,3.132734870881316,-0.795494780355691,0.735230353384227,-91.83793941963086,25.987695883496055,-0.839452394616583,-22.79752324959473,29.442329462630084,40.89839797412465,28.608744761737924,-3.094079082956781,-23.012686486733568,9.300629922710023,2.3519268240593503,-4.48106879441355,-3.276841798784714,-4.783928127800746,-7.073074526168086,0.6013203848020834,-1.2979716722871666,-0.6079908317743683,0.5139738884963359,0.5115911204517378,-0.6926679171675277,0.22473987737197576,-0.10000955407857706,-0.21674612708102414,-0.15410701596523882,0.07877982280973335,-0.014808020307705207
8.137438831552496,-6.427654475767226,1.4058659579274808,9.605043173886843,38.16788727456027,-2.139597092435568,77.8256410538646,-22.34567566087688,6.956670894770421,-96.55692332660715,67.87299113965203,-0.9951385504772001,2.084461999481418,-3.0590642327923843,0.34858190148160056,-78.24798114195283,24.476115953260305,-1.5937695290318237,-42.21856134962638,-51.59048454030464,23.659021403320782,17.80462879439141,24.14008183631078,-8.641363988834499,4.273180963091177,0.5611321026628273,-3.9358744783103177,1.9779020991361818,-1.5021394377199195,-2.420519294430444,0.4712642542461175,-0.11509545541845845,-0.32962184523772925,1.2411353443784812,0.7594162021028754,-0.4438002738731261,0.10405425887688044,0.07441711156301697,-0.06250638267167816,0.020173113807630157,0.10701873101246588,-0.04236212872917186
7.10190016047422,1.3116654064435,-1.3030832321145713,1.6035376284615832,21.988771277044325,-2.8889477037111946,65.63033469204063,-18.926178036891702,-0.3216048864028011,-110.59984824724387,48.46223575000451,-4.783691154248471,-10.552218652645463,12.112293861941616,-2.9572111406439987,-62.71205416858351,21.171090690288597,-2.6933285605892423,-58.660163075513275,-21.40790370730938,14.075586308673262,33.06413763987665,-4.239212689241172,-23.62301695221259,7.2588844862899835,-0.20810966965462757,-2.1654610619610337,-0.09183397997341612,-1.409329791802135,-4.867897640530085,0.7138686952145895,-2.478994122453095,0.34268512882225594,1.6152550946774176,1.3293611622763806,-1.3034499747792212,0.18249398449054813,-0.4034214487322568,0.19280511692304347,0.15027437025289625,0.28238625690275104,-0.3499887677781156
-5.32316479546924,15.572069391541637,-3.535293518556223,-3.0897522006048814,13.271812540609124,-3.0649790681330913,21.40819778844945,-8.420626389772742,2.6571156894037027,-79.3035015062101,42.0016333642596,0.7766331874621105,-26.097682342006603,35.759918769044226,-8.369510832575218,-49.15335348326735,17.157549727505636,-2.8540882537965997,-75.487336812612,13.393527984410849,13.682257664718236,79.1010601893882,-12.185485940101321,1.7649710758454769,5.314282182119617,3.251484863444176,-0.5270210812910475,-1.7025220602275979,-1.775599403576671,-4.397184870335704,1.6404954111320218,-0.0010497278313364696,-2.0705179657374466,0.1099936038352763,0.850800887274749,-0.7816499892827132,0.24065455756021928,0.2879754332321694,-0.5189758449561496,-0.13167382437830072,0.16507018458668188,-0.13614727726183032
-14.886740880560879,24.14343307972063,-4.29097651977755,-16.177487457581663,3.7023009892686316,-2.5681923060604834,-12.382960288643764,-0.6145717957907733,2.099948176738654,-81.0915985688555,26.75827637832058,0.8925186200536337,-39.33473883647435,62.12932207291064,-13.25215553551927,-36.62725045434924,12.91688547788831,-3.4146521830769583,-95.18411315147613,29.61880908413773,7.437603992556634,-8.8882765747043,-23.689181191948755,-9.462566639483942,9.934861488392707,0.17695370665178053,-2.21544259410736,5.237424214333313,-1.2186979858530438,-4.014799559536029,1.8240651048139467,-2.675261917423508,-0.16049211409829495,1.8600154451625421,2.720288616280991,-1.5420780292595262,0.455230542806849,-0.3963157992583857,0.0975185072117951,0.2666654424987456,0.4168358260622859,-0.24139051779716147
-15.711761223841714,32.5615023324944,-7.3634441237381205,-19.55564378694216,-3.377188678450556,-2.0944964812740845,-15.799617330110387,20.418372900210006,-5.7355991266646456,-63.57767704276329,-1.4608212953754802,-9.057199929301028,-47.47301553085656,78.30819162061114,-15.419403934397373,-25.831718300052927,8.206419820549016,-3.2907862139634148,-70.10351267026432,46.02800102191607,-20.74280400781768,31.204479742610527,-5.966717716756114,7.133540851065846,8.77131938392803,2.747218355382319,-2.2713121791013484,4.986942907674768,-0.4598138870010219,3.475273548228186,1.299284862954598,0.06636301650067387,-0.7631472561530803,0.0660637796930393,-0.721936419780409,0.717276106541815,0.2551092435314445,0.27124620578917835,-0.221635082473604,-0.3704095807126864,-0.20592067978715786,0.0821960046381946
-15.844098946993432,23.746953406605463,-5.620170654301047,-21.5815923265986,-4.37487159747854,-1.9020775691130898,-4.542388277990099,-11.414782819242827,-2.2757242933043913,-45.10638539807792,-5.020571635021948,-4.599064684160946,-47.11982251750414,78.26673621789766,-14.327537800512102,-17.838798284240426,4.378624703850747,-3.246542791198906,-26.663614240269666,28.89138847511188,-6.454038560773669,16.700404016466944,-33.59083485565034,11.908031914243125,5.68362909563842,2.4075120007139645,1.8693277665511727,11.638057430174864,-3.2582764540250717,-0.11070026849394825,0.27998698567305524,-2.3374448076925067,-0.017924588686665834,2.244678673530533,1.9086878270844314,-0.8081058133531138,-0.08392320805893719,-0.2097899158857431,-0.03836076197950689,0.2636589106423066,0.024516663900990932,-0.062292093362394343
-18.66299457724623,15.283590535633236,-3.4594916936438516,-16.85967157971876,-6.654040684820487,-1.768906391507166,-15.181893704598407,-6.296896788743345,0.8835913505617853,-22.81678446568729,-7.55549740058753,-3.2907081383393306,-39.12181505607054,64.65503445378722,-11.44342821308121,-12.654193026731177,2.2006336239719686,-2.6509449801496157,-1.0256215011681584,46.690810690978594,-9.106085953974867,-10.908400335931882,1.0713400640116686,-1.430722688457271,15.832500712246086,-1.772079963052644,-3.8048273726273996,9.715906369542452,-1.4421558492101403,3.3188066853051175,2.1390476741697295,-2.5203216436418248,0.45945581374311706,0.3571699053751166,0.7910944990417544,-0.2277382774571065,0.6339763864919279,-0.39030905839118923,0.1961215050081682,0.23366096256495028,0.029641843075913842,0.09729449079375777
-19.8874558880361,3.674824144918851,-1.2996546940331766,-16.95097225718369,-5.8045246639017165,-1.697220487456932,-36.23089994674715,-9.356538215705624,-1.0415634595987804,-20.97123370171909,-16.671465846519837,-7.340425830473782,-30.14393725889974,47.90058186935819,-8.121458922911696,-9.475620979761405,1.1651651537711767,-2.4369808350378337,-34.562975079240644,28.183172513810007,-20.75077346832078,27.869230952002404,-41.360763281400914,19.699950963499155,4.18143092776151,3.606952089996002,3.729705072652019,9.55770184775522,-2.077314076182458,3.5294511860653053,2.9867130969767093,-3.122745196969036,-0.7538728496173123,0.43901593517101123,0.1911385593010857,-0.014180120726437902,0.5217821115346051,-0.12356243653352976,-0.19585100011813325,0.05932558482385915,-0.19934811781552073,0.12884467327477103
-16.218661640305065,-7.044371353063036,0.4934053757739423,-16.33506890759858,-7.142832659526381,-1.7323009847337172,-23.278007828294964,-19.689514511660356,2.5799039466653992,-16.290454527794996,-11.957886468365793,-4.859442124757516,-23.326309575645958,34.444163760524454,-5.83644833236708,-8.28617647409028,0.45625359420752143,-2.1922074051715223,-6.59254651529948,13.78829728182914,-7.730377172627436,0.12571539285285904,-1.1789874235171283,-1.7372153161770052,8.310176447184565,1.4352425068817494,2.4813637361405654,5.083595499915249,-3.220311667651776,-0.9173855146823164,0.8279447902357928,-3.372070777251417,1.0579453450279097,1.624755512550783,1.2072133552600395,-0.3305904304820704,0.07311307027935636,-0.4093380390356045,0.26162127504162846,-0.03390947740813438,0.29534255788386865,-0.2231462811287626
-17.37750129027563,-11.699297462576629,1.3340824476407689,-18.038600571545285,-4.9750095899622275,-1.943245294554088,-50.04006580847466,-15.95675155062186,2.5503911810558946,-13.300723978926149,-11.083290206156862,-4.616533732191267,-20.083469298721944,27.21933994712526,-4.558844155389424,-7.768283460741122,0.30416355486884555,-2.4021449638188623,-35.88800075539572,21.433087728565614,-13.912325114899877,4.741600870073706,-9.07311418044628,14.093048978545227,5.024549502639489,-1.4936770072140775,-1.1749809106753546,11.356178289285765,-2.458423944282673,4.052759116537338,0.4190958008566974,-0.6280415830766758,0.08385206345094653,0.9845706519611422,0.7486607863939387,-0.08022777338958283,-0.056948617065241354,0.005444440342386062,0.0479312261333148,0.2260754312840522,-0.10356172668106153,0.11421996000028464
-12.928149869528015,-18.431562077026555,1.1009139374641213,-13.48270344030657,-7.493682141470303,-1.7636693026373267,-30.646530377347545,-27.716790571366055,3.390885991860291,-9.89669329726524,-10.854304816150773,-1.0724468066171111,-19.432275303399678,23.73855746130875,-4.2540998947466,-6.681736473568374,0.07764166261438579,-1.981843717996533,-7.286429179868609,9.58897320058303,-0.8753720871216781,20.90568966580323,-7.025220810001165,2.1181234031156935,6.366154203356459,1.9723512136121324,1.4620729538128614,2.280027554105846,-1.9821726929322996,0.35489475184948704,1.6292181805573405,-1.7209214756807634,-0.06028684877557031,-1.3020321914400534,-0.1535679350417973,-0.7641830665233489,0.3004794425235316,0.06086480781372627,-0.11808700391571873,-0.344469414711286,-0.12018314558383811,-0.06284726498654952
-19.56938254256088,-17.274096569294244,1.513057347331257,-10.52383050982779,-4.949299571487809,-2.1145716148429115,-49.4069335893929,-16.38309922215578,6.011646836756519,-6.326188241685749,-7.901747820010936,-6.456783696241241,-18.395937601589978,22.027064824838934,-4.074350541473448,-6.314429922362359,0.17836840408738622,-1.5912065131522284,-23.19805705766788,29.95116199130481,-12.755456297390047,-3.4067993087584685,-24.80997655578614,16.215457241483332,5.340113973214355,0.8553822484799142,1.2223064772291612,7.525490543204059,-3.783029071423578,1.0472520709970587,0.4107637323250698,-1.6095052710277562,0.4644671226269034,1.3625211301535987,1.6191042530142392,0.2340766507768433,0.16525039472200673,-0.18303663224381428,0.06247620003895266,0.14509898512781697,0.08437554623979351,0.18613032995481008
-20.629525510272902,-21.56865026620867,0.38879858104422,-15.007197677802075,-3.0121457177437763,-1.1067238213721535,-32.93414173029428,-43.76888836460244,-0.3729436201591846,-2.0697878635554803,-10.34069206750696,-1.536142401297103,-19.061251143182055,21.81555889070763,-4.077787484484652,-6.767411287195886,0.9254161747202423,-1.3317097853245699,5.567182676081227,-1.093747215636587,-5.915993865651721,17.73793181062831,-6.528835481904311,2.619481666560259,7.940762950041624,0.024516889255570662,0.4860605098150655,3.986395116762247,-2.0044350028130204,0.09514763818621752,1.4927750255348626,-1.9807204653133073,0.16088904551578154,0.5950217170499384,0.9025740359694888,-0.4687447665337684,0.30911063474891487,-0.20897577577477022,0.05678422980484118,-0.06825457507939049,0.14931320964702438,-0.12668774881022193
-25.411191518632236,-20.510012392643077,0.4677107939965419,-9.836733897673444,-1.9583609130849018,-1.0441174847085675,-37.83066153011171,-33.0697017391313,2.021873922628182,-5.036468485282129,-3.371798720248169,-1.7142954083789088,-18.506982593744286,20.267817529679103,-4.086229497432885,-6.148000510355436,0.8876483801343772,-0.8379266535372665,0.6615846253422868,18.255090016861075,-4.549610414391076,-8.576314169232818,-13.249865902286862,3.2528324433823457,6.897491280451092,0.06627432043218284,-0.1686072617730548,5.758232968486721,-4.037153082649123,0.4100477451096968,0.9407704623107613,-0.8439449812685129,-0.05924666107086114,1.2897798427736673,0.14468976095688568,-0.050744736520693584,0.26365112964683396,0.09108032461509173,-0.1407209049032657,0.16879795114175591,-0.34616053636769306,0.07542657650196427
-31.469517063906352,-22.62583173168277,0.8871750500429755,-13.501564834057492,-2.265179770162153,-0.37949268688672383,-56.82658536061878,-43.36031911491028,4.530244360058796,-10.080063954955412,-11.6286403803786,-2.9375606026149095,-17.694086466905507,19.784161619339265,-4.180905520016355,-6.232419950969648,1.045259541727746,-0.4900925350705136,-29.575263537322762,-7.421710903811942,-6.160787318103693,13.01029769751885,-12.207053599716822,10.59026166621479,5.422966537184115,-0.7971621569845261,1.3360782926229697,7.131041009990866,-3.738850565383893,0.2744349494201672,0.7817553623443416,-2.497641041088995,0.827689182204569,1.7769153564551403,1.7131198836490336,-0.14359418763718929,0.2136154711497721,-0.37420803349464943,0.24528959418275345,0.2881072165664748,0.22546417458961357,-0.06224689339212734
-26.92977747935056,-17.98618080420368,-0.6512669397180906,-11.54335901827948,-1.3705615676627967,-0.6280319292162085,-23.153343905026944,-26.40593789026007,-0.7010949756981073,-6.39113194139187,-5.778281647138304,-3.3025693360476343,-17.49415625793999,18.23230926429295,-3.979992824284121,-6.058112475651026,1.063190694953785,-0.3944084853133616,18.44997841572467,23.299133109776516,-7.518741457147998,-9.452187168726068,-15.46345679937755,-2.0268067802961727,4.638233886355709,-0.23384623961927462,-0.7596913350039031,4.519382036787393,-2.7968971195391843,0.06069668940154441,1.2439462517502355,-0.5418123495663901,-0.5799339220700374,0.650804266067571,0.7871004301722895,-0.25226273803159094,0.11985920008635532,0.1223851929284904,-0.17985890616608352,0.0459150006307571,-0.16369029394005513,0.07580181599194273
-32.83045048843254,-18.58796095876244,-0.291649334185073,-13.026325567885683,1.5179138134351462,0.013162721703738226,-52.72384275622496,-39.128535250327104,2.249316042990496,-5.946908768075576,1.9689249640899666,1.3875165893405272,-16.579046834561794,18.341077091861774,-4.1639212146838185,-6.25071191052268,1.0606798504438568,-0.3955316489596153,-23.32942542633926,14.155745246300926,-3.2978202658971076,14.926688330509478,-6.856240952532174,4.42690179787432,6.986066829146306,0.6102078413476748,1.7564333766357194,8.858437354359937,-3.0590235648192405,0.915819046580713,1.2456071586540733,-2.4543721477722595,0.6159841541753653,1.0360243513385383,1.4126963995993775,-1.153699621908205,0.36271652866489723,-0.18339371391878326,0.06301853960080407,0.2854378990120615,0.07873546389526842,-0.2605522982494578
-30.09921363542252,-17.79649798054272,-0.8193036407348647,-17.50151399483474,-1.182944897444279,-0.4848446012942158,-36.79128398878795,-37.57779454758983,0.6980475005806511,-18.238379729020096,-4.135995653584601,-2.100918378954111,-16.056657843559613,17.776431292724418,-4.0610706823189675,-6.678816762673711,1.0383848235943198,-0.5247311354776261,-12.180984526769342,10.97453176801978,-3.7430154581551327,-10.636374174359618,-18.341277184704946,2.616774270642103,5.851669904937277,-2.232329731527117,-1.4359367499952391,4.288598228915296,-5.151709153044938,-0.44411839097498457,0.48552750619266305,-0.7679630031526736,0.04870232617889985,2.045716829961823,-0.05086849970262146,1.0593738072011645,0.13072627121268,-0.20191033044116552,0.07065734623675812,0.21827614074741092,-0.5721047230203997,0.33766581230501347
-28.967615685058156,-17.18160696190328,-1.088928405830456,-15.224789632833776,0.4740400065120144,-0.1478494234555181,-33.8394826643261,-32.793307136512084,-0.06780246174223048,-13.099522926096023,-3.8264087854284408,-1.018475461937258,-15.916282620749481,18.182973146677686,-4.054215594967865,-6.847005368816294,1.364214266860156,-0.40080513051104466,-4.171433800739698,15.58767373259999,-4.801018822706339,20.13667034765454,-10.795030257059494,3.7022498304283706,4.8193245229266,0.17885550281470208,1.290477668827946,4.477729008910973,-2.217366422028138,-1.2232496101802022,1.0159561542145166,-2.099330572137063,0.4132236206314363,-0.35752761839938524,3.0774570050220245,-1.0557081266710584,0.07432671145633948,-0.13746863015885938,0.09353519967740226,-0.17614250287167257,0.6682046082633337,-0.09238328215567984
-27.799291069158542,-16.711177615816627,-0.9711694955042893,-14.188092862698753,-0.17204012048517833,-0.5664234266083664,-35.54843613786682,-27.318589704970137,0.3734355347675924,-6.091230682593498,-0.7862770138277356,-0.9200253708635879,-14.695793403865197,18.184417885258675,-3.8512925775516935,-6.7739367091366764,1.2235699162459495,-0.4705385387388148,0.33587796248892177,24.405453157666457,-5.588866054048357,7.997369784660996,-16.306851603607342,2.036283501025857,6.393730703228125,-0.4764363515342642,0.28015776445961416,6.703370713074441,-3.086691870256064,3.369364545070571,1.5225862851514043,-1.492883028379771,0.1958890791138697,0.9883786725592627,-1.8972140305806404,0.959165895162838,0.36942690072865375,-0.03342241460968517,-0.007221706197664586,0.06097902998969583,-0.8289661099416953,0.27186209117278615
-25.149623068903317,-16.32635480005826,-1.081331961870629,-18.287357960522286,2.6417121561242256,0.19718090240952815,-35.09407450598994,-31.575436114212255,0.5623822126548769,-19.501406734789125,1.4237649689258873,-1.211251830964529,-16.108575798057817,18.749462930251163,-3.5323250120634424,-7.576300504061085,1.8679571160902377,-0.18067000718118592,-17.65175224260402,19.627481829349637,-6.223837022807579,14.390504191122714,-18.44044708031295,0.8450151521363937,5.736316674026088,-0.7113879242444583,-0.46610647572267305,2.472248229971563,-1.694696341837992,-3.6357305043878,1.204508247682662,-1.2739923877803054,-0.23259424993437883,1.726721281177616,3.5145762386657986,-1.1510892908571724,0.20776780568843484,-0.1553771870642055,-0.03216180010961012,0.21457393448418005,0.6268375027838536,-0.32593965338876996
-23.46995211841613,-14.890923998695705,-0.9090373848483322,-17.172443602980646,1.283656432123668,0.2117555236498166,-36.00679475171105,-41.1482951286725,0.9479677829907469,-14.564666468628571,-3.5318925719360164,-0.14182008759225762,-16.71706380611675,19.962477923179044,-3.0873314932540534,-7.933302394011998,2.2957541246276296,-0.06040343990196017,-10.230317837214812,5.126171386118953,-1.4300615201929292,-2.661796177172757,-10.108773187294613,4.4199813007415845,5.56559583615762,-0.9657419878239324,-0.09215450197737886,5.946880010421191,-4.4333519873539275,3.3953239727865916,1.5679295888018012,-1.862476408591206,-0.21637762086231752,0.2507283327010009,-2.1373001603882553,1.6803467040472722,0.2356684602047447,-0.19333253982070125,-0.030424640643113524,-0.01661495480995627,-1.0894150285353426,0.6738566263904175
-21.3593209600956,-14.529808870900592,-0.9855451592084347,-13.860335518001964,3.707878531823098,0.6611667072398165,-20.32319824737475,-29.764526574661108,-0.8177680194024316,-13.906072137275965,6.564838746021901,2.6363174889450414,-16.766066323447056,21.636999580344145,-2.8581570151982634,-8.40490435621781,2.5833348596296606,0.24344550490348457,2.7184764819268334,23.88485803092355,0.3091775948244667,3.4837437840973955,-33.398767078691,7.59669732908061,6.614632170199092,1.2318384590525302,2.0734763916181045,8.537735739710206,-2.107578940922051,0.3135631088357524,1.3425916921542784,-1.963784002117171,0.8610751987966425,0.6506951358368136,1.9878228212677906,-1.6189914711668363,0.24430874864144253,-0.09300050306227958,0.2284136739624293,-0.16045111349042182,0.46729884080554085,-0.4387443447378715
-22.08155016784157,-14.444405196546484,-0.6156961401805344,-16.904001077300812,2.1164140580209687,0.17614735815840263,-29.026223071173924,-35.65705106750481,1.1968102575209354,-23.34708915948337,0.4261952832481539,-2.4767886810865436,-17.10195640494874,22.2944032506747,-2.7096379112900837,-8.578094151982134,2.912685627814392,0.2832424941566621,-21.145484781329877,13.843472783829899,-3.6242042611398397,-1.6348595801431318,-9.737367080461565,-2.5053224748293523,5.973768458417222,-1.5623708668549732,-1.2840403444287711,2.425599735340758,-2.2219760397413646,-0.8679902908505733,0.820824277446372,-0.9927673759195255,-0.4471377477056925,2.0217368579598127,1.066885190141806,0.6805734529929329,0.253138569791547,-0.08765822686900764,-0.2192209767854088,0.37144471357005227,-0.01736489899055,0.1173476583737952
-18.889282703925655,-11.780806088208326,-0.9848154435874086,-16.330196475222554,3.271537548179339,0.7333934990494008,-18.012281041149866,-22.30857673353995,-1.2116863190952674,-17.778289324227824,5.2480331942235825,1.9169374408230364,-17.652735823974577,24.582682730391063,-2.5213520643763183,-9.623368875030144,3.0622354740928412,0.4966918254490036,1.2673012688434238,30.588194764109847,-2.1395371711233566,17.276943186272938,-8.413701603351162,-10.381619496753823,8.347648828781933,-2.8011995874313076,-2.141493933167546,3.724090027346181,-2.8987433171996018,-0.9714029279910954,0.5221371109686269,-0.452375843972472,0.199167102100857,-0.6810939106182825,1.5004755306646225,-0.6724235148412744,0.21964701990655677,-0.047321501495188156,0.03008420802869043,-0.5891426300896764,-0.010345304689467077,0.1442984329081482
-18.057822045768408,-15.514001058049843,-0.6539115376994147,-14.166193067675122,3.997429123065388,0.7977734569134906,-18.31070669139809,-43.42021820986036,0.49927770966058777,-9.515149729551906,1.182029077940158,-0.45857519546026,-18.113363024809797,26.0927876873387,-2.455478474266776,-9.97178076670976,3.494627445930039,0.6406675313252412,10.39678778121317,1.6577923061202322,-2.6312414039510483,26.293070590514827,-18.055601296114755,12.000480601809699,4.246513269720695,-0.1874991902363234,1.248728818141237,8.311614010614075,-3.539462724399157,1.3817750905276094,1.723621396620207,-2.5163921345517393,0.1517143366854455,1.3639303107055905,0.6511678430707043,0.0512470995833718,0.2987989204719198,-0.33270863963900943,0.11162333509209103,0.4465626950712636,-0.2221164561678209,0.04992348418751973
-19.953343468179053,-13.041143533225467,-0.4703883297397687,-15.35481277393758,3.8797749774490753,0.9807811184689632,-27.475597495949113,-33.92433216779942,1.1857463831659885,-20.067283995065498,9.18239762789269,3.995379906729293,-18.53988103055871,27.09881129810875,-2.6447727944343566,-10.450282664430862,3.83223080709534,0.796024007828073,-18.37038111977207,23.825527979446807,5.773413426959637,-7.923011958344312,-16.093743929332888,4.386566260923285,6.611191604957281,1.2805121028753117,1.2160428719221228,4.914487413928965,-1.6893287791111842,0.4988641141328853,1.3996073587002402,-1.7636204584257462,0.1437137824906483,1.735348733366243,0.5578592054918989,0.12447314465575741,0.2575317305623229,-0.03955526815473416,-0.04087603408698741,0.23755217986458993,0.029067772829925193,-0.09187147008404584
-15.22506520787461,-11.035405548268265,-1.0925002879730707,-15.003671025548556,4.412211970634496,0.9496250686037288,-16.881601993800285,-29.745590224760765,-0.9078688836343303,-20.839573860249768,4.650776727527996,-0.07108367315782976,-19.546850749568986,28.429985558200112,-2.52833033392166,-11.340063536571012,3.9692087128195293,0.875806487993785,-5.745000986899144,17.951809630358966,-6.170596113311131,38.05488971419521,-22.77512914328562,-3.9584127410207746,3.51829981383716,0.608869453824023,0.780408091780751,4.42634933810092,-3.3446427272960335,-0.4646839538014092,1.4439123693304425,-1.5235248643999073,-0.17893573591883596,2.078012163173424,-0.05265679886307618,0.3295917597070707,0.2343786428117103,-0.12092802053641144,-0.03660845643203399,0.24653748095405864,-0.5529008814003774,0.121836019284159
-15.411975332591759,-12.418115967707205,-0.8860594267092136,-14.463284071962535,4.4731259575551725,0.9416129061844642,-18.022792069416838,-38.549366005069594,-0.22858406152400546,-11.859286682096132,9.20709880189622,3.2117477724885086,-19.302010002607613,29.007702132557544,-2.6298454005432115,-11.434798489209959,4.26479233815551,0.87015204715546,2.683325332305697,17.988742952623507,4.103750216961691,-7.569789557848249,-13.339615289692151,0.559290389531447,7.6269040948844875,-2.0146746849110317,-1.825563570075431,6.337682139676891,-2.231694885107874,0.5195484554419454,0.9764307022904575,-0.5540178698176346,0.024119261426591893,1.630549735009771,1.380416390033848,0.1821044032986359,0.18347993250127057,-0.0001265786591646556,0.031394370287820106,0.29745479924715673,0.1791088353265418,-0.008175793916809476
-15.644750111745797,-11.90859825425674,-0.6018188708949426,-13.21040706136214,6.512817581925543,1.3419187209518326,-24.107816590387174,-26.210814653199243,1.2639391780127962,-12.111792963188584,11.581576225913189,2.0862415213286067,-19.590588160875427,30.177095931430095,-2.6963939515773427,-12.129177476346591,4.4749524982489834,1.1474144416110117,-7.7619999944001306,31.48906139466809,-4.924040557726563,18.686509741178995,-15.45571947287758,-3.5682897796399873,3.5547893077463733,0.3295570382655185,1.436778358802212,4.272536650478342,-1.9228046485882362,-0.6828727403955898,1.8640110872736946,-2.373176796947335,0.003479754001472838,2.347498035116553,0.7080807503359946,-0.07920872773889381,0.2593914231141784,-0.24037571876057676,0.0700833465214277,0.2576334094447477,-0.08586253483466981,-0.14721227062445885
-12.65721156107989,-10.118018510120079,-1.0114697798124117,-17.040896342111587,2.6312551883748285,0.9074471684794532,-13.010341929214805,-38.92336107034513,-0.8915822331153277,-22.146803719461555,-0.2613909636759219,1.3086447481369534,-20.445780176206085,30.954299990728092,-2.5417901803786136,-13.04119680049282,4.8082012262887766,0.9958679768287426,-4.39158555129398,-0.19762998258974715,3.082710433359382,2.5481609078117478,-17.90904484493334,3.9303987604366424,6.980470271643316,-1.2078598273459529,-1.6142954851213884,5.693964757327502,-2.8737105607346054,0.4528888791209383,0.25426795079578374,-0.4498681743322864,-0.19714092018860668,0.4169719296072522,0.7562995545981477,-0.03963506990438053,0.15954194118745674,0.024870954369861854,-0.1930792378762168,-0.0009274879855243038,-0.1788706818557984,0.1529471426963538
-11.512865214886578,-11.389846994938566,-0.6523706193714222,-15.713691450473855,5.607979434618101,1.462314519592923,-16.436655607599278,-32.22888021897345,0.3504387457748597,-26.15976655806385,8.107186178771949,3.5967922988999206,-20.839822475350836,32.165422254879765,-2.4342283054424927,-14.02600571265431,5.1012175161518885,1.1663532268532277,-16.831267017873756,15.140919438935697,0.8615091060318877,20.24917536515307,-11.30989355886583,-1.2621460115110925,5.940367050093924,0.29692507670985246,1.1351151227570773,6.139412176849235,-4.192526939485921,-0.4195907628259443,1.556444412336871,-2.0754986890776688,0.35518758544624784,1.7870166524165623,0.32788947303176563,-0.084064881822778,0.23017899210788506,-0.1969016570056209,0.14870517283324114,0.21053667037592444,-0.17272365144569174,-0.07793838287390185
-13.148479009905873,-9.85218171938735,-0.5116646902750398,-10.373822504813917,5.092004001541393,1.1392791787608685,-23.789010445186523,-28.87117327961446,0.46282560642380516,-4.059274219183641,5.804624365978218,0.9358283096665592,-20.978286207426525,31.68153574685801,-2.4605706076142124,-13.741099747872076,5.296814863386931,1.3391532235925063,-1.5629474640848702,17.132022299106644,-4.730887148568396,2.719793216479337,-4.960866004037255,-5.173992792648271,5.766062351948449,-1.514131990198973,-1.3792048620715303,4.098247473006452,-0.958185270582604,-0.17419088160791663,1.2237011894321967,-0.7549459694852437,-0.2886439878513296,0.9257340845475579,1.6061188655024579,-0.20701336574004053,0.28344601846995005,-0.029533129127612096,-0.092726951214965,0.02594990954314748,0.2501027263070023,-0.05759959111140449
-12.351466895774855,-9.857155180313226,-0.42513291338216275,-12.918492687058286,6.18472908030375,1.4899457446213142,-18.094806262370838,-30.40637251402243,0.5729680058780369,-16.976370029272484,9.265374640247106,2.046342370813213,-21.224803878947938,32.520711259538245,-2.3453129737956626,-14.688839417849769,5.639529951223295,1.5013439265571233,-11.91031114944291,15.45589804198867,-2.733029207135971,16.249602245756172,-32.38406920675807,4.855800644571853,6.075521561960541,-0.22159903618106042,-0.3121774563349288,5.961394173064509,-3.23541424493862,1.0731580685185482,1.5562790745029937,-1.2209031119984952,-0.30998317508188844,1.3889797252854768,0.13713407803788288,0.769667515402762,0.40207466106487944,-0.10387999371164108,-0.11985814106554483,0.27643276682370493,-0.39461502218112404,0.3156742567538891
-10.172447389103375,-11.83812733933824,-0.49610036071963,-13.64587697705391,6.506148073807342,1.7961194116878925,-12.543334010369273,-42.6796944135746,0.33740570856413565,-23.257281450998764,8.780304174762106,3.1542458943357086,-21.38315431067467,32.58986050216234,-2.2990730022139836,-14.822436083841376,5.7067455175168105,1.5806543320190316,-12.62675967706752,-1.6492981559393445,5.607333703141995,1.4147733218210026,-7.336637221839389,2.7956058052213186,6.251437552371247,0.29729861633916704,1.8494450789860615,5.408782995014872,-1.59055679893726,-0.3279624226073919,0.7482004623187222,-2.5691430805898157,0.8891654463927524,1.2413943740001947,1.3624005895555888,-0.733642108186954,0.06376952260296007,-0.34641596213608733,0.2727885652244885,0.0953039244066485,0.25326441184618925,-0.3090174622511175
-13.880487366998247,-8.295403155121626,-0.32946318278443837,-11.035735482232099,5.937966432197013,1.3867736100064332,-25.49906304132555,-13.944594194735961,0.9591359226738734,-14.985120851265933,11.5553328853804,1.5768854641353192,-21.210452926734096,32.32717917184956,-2.4487771671007375,-15.086476609492085,5.609641175403683,1.6701828594766295,-19.250801603353246,41.53024738328752,-6.0744087915144975,20.225594734849157,-11.735216041320026,-4.270701252216837,5.013640569223083,-0.8156291835445868,-1.2137306240415042,4.484884729268361,-3.576746685742085,0.6430794743302909,1.2719436793578447,-0.31745408163006317,-0.4128742687904534,1.172931655997402,-0.05103627053029351,1.0306168489717127,0.2682714797763063,0.07693402459431378,-0.13416950026515356,0.2415634426828041,-0.3532113890667517,0.39978942562991465
-10.579404247260998,-8.814850971156977,-0.7968679683465496,-12.801059215021036,6.099933466264321,1.9253054007037922,-7.072205753941514,-40.85775651053181,-0.941659940452812,-11.03041983080601,8.677670338821,5.620855727019225,-21.388191054366764,32.694872744341716,-2.2407589783135142,-16.124598837920633,5.746360602471094,1.6386963491034112,10.873599989791359,5.013593749003715,3.403709796000215,32.208106366463085,-7.055887334100753,-2.2694056192717578,5.380546790185342,0.2450635458540697,0.6482667848778683,5.535853021647274,-0.9892145674791155,-0.5516843186945476,1.3213777096935826,-1.7231163811429124,-0.03084376108350647,1.7035286986365172,1.5449653750031402,-1.0046412399094822,0.14977987718266608,-0.17834821384248156,0.01710658304888796,0.15546942527793017,0.22058047757023547,-0.4164624331399466
-12.958055104558772,-9.80924567603876,-0.39639438003107474,-13.833052721675205,6.0620440877692525,1.5111868881383343,-18.361917541120512,-29.858041434172613,1.8661923829480909,-26.335378805413463,8.162804173371748,0.1869496565946063,-20.500043099076915,31.934052134718343,-2.57078175424158,-16.65530271046523,5.708543962238258,1.7076692824257904,-26.061345635262693,14.515174718790998,-2.3421722343595963,6.0485539977519025,-11.850690488273578,5.796778437693097,6.0118091994595355,0.34015257658883574,-0.3298642118063408,7.202849674638709,-4.477758087018527,-0.8690184013111307,1.5856643235990704,-0.7229185464133028,-0.3523157021842776,2.433932359916541,1.5212222846671724,0.14503741201421685,0.2947320866935659,0.04345100950595964,-0.11465897602393746,0.5713145847457324,-0.06443701539947283,0.060989150626340236
-12.483126716755004,-8.464510171283623,-0.7679135550228848,-13.626153198245342,5.424546040146523,1.4144422934418766,-14.482026742437244,-37.345445704239154,0.976216711491087,-13.054618175242009,12.301349713203326,4.971943870816097,-20.922495161299732,31.761971790282132,-2.680981133208163,-17.315035737519423,5.588977246091685,1.4564914841171053,-3.943427025085866,8.7488554850228,4.583179617177658,-10.474196128074084,-4.601667388386462,-1.986422413854183,5.217886047269291,-0.5531082511004406,1.1274941008985127,3.7092276504717514,-1.4477291603291869,0.6432298934247271,1.6187760269246096,-2.253805293593274,0.561764131879811,1.1055803362858854,0.2646859841354145,0.44600557635887345,0.3808908258936819,-0.3315927042821394,0.2103003925545259,-0.11180400935955624,-0.1675972744240545,0.13192611908706975
-14.062219829611891,-8.303549037132644,-0.8132948751107282,-11.90097697774253,5.344638082334914,1.4800286955528175,-20.055346596449517,-35.08815260760499,-1.0552938976885613,-12.383606516728957,-0.29039457802040486,-0.8537599363514944,-20.349076995984888,31.656025126617987,-2.6541123967446856,-17.504996284030067,5.887517485086743,1.6386457270460861,-10.303104026204531,-3.7128282888104334,-12.016606665358312,47.8998694104304,-26.089195199983795,-7.334256037493274,6.821597674245853,-0.1013732388634104,1.6419281788513918,6.033678358967023,-2.866706005609923,-0.0737801795143438,0.05898300429276269,-1.9450026415984896,1.360432692729516,1.9626665992152736,1.0292347347047144,0.019513432317215865,-0.14391235281467799,-0.11326084303259956,0.3444741403809441,0.44167591442265647,0.0522267428590818,-0.074266233717447
-14.431998694760498,-9.608829172180634,-0.3831050472571669,-14.078997298763117,8.998495882420094,2.1480787469776046,-21.468967512530657,-32.474624876469065,3.811949026597083,-20.11447453946635,23.29761883624201,7.904891215122226,-20.31136636580627,31.26181994101707,-2.924393970314159,-17.160047612030382,5.932766961650329,1.732360257506728,-23.595520344709126,29.326878852400537,12.301409589885676,-10.277841123727862,-7.154648090447957,3.484859497497946,6.19568201099637,-1.408198181193201,-2.9611394491356955,7.035187211956222,-3.132554131628871,0.19813170353096912,2.061577325923292,0.10869642961063808,-1.430958377577596,2.146411423466321,1.1046831374015444,0.1982220064204132,0.5072516558141509,0.072307989860849,-0.4106826681973721,0.3442692144733933,-0.10090573200168894,0.0494300127173087
-13.043841872050328,-8.29551524465931,-1.16415723749235,-16.959678082759268,6.016345650765621,1.634737373305593,-9.742243029848067,-33.1254268365192,-3.239921797894785,-26.287807404995064,6.11870024838661,2.751017634028437,-20.774155777077095,32.09673841301195,-2.5823411783243624,-17.446579378811407,5.820904592946849,1.4448404932060388,-10.196450326703866,7.051818440641619,-3.1640215293993252,25.595900268726833,-2.209747657660907,-1.2883459296755024,5.9095539878992795,-0.8602965516464428,-1.8881859331775277,3.5179376529006174,-1.0534257401289504,-0.06297500317169526,2.2562965388636456,-0.7878667470857916,-1.4100601828086168,0.01431570515220255,1.2270967619933573,-0.5067927189844711,0.4880971810748851,0.03667448863680809,-0.4648100404796062,-0.18935958013863718,0.206124816542347,-0.10187017367482529
-13.895063041647417,-7.019384279248489,-0.783049526684535,-14.57320959685456,4.85980341113164,1.140118039594466,-27.094670674677793,-28.210581835439523,1.5783977847426678,-18.198128520633993,8.032457921619981,2.718105468605793,-20.982237934178734,32.272333525766925,-2.6916361788509144,-16.82424144431382,5.418805184714179,1.2535468077654288,-29.52561196524611,15.128607326499168,-3.3166949238247256,18.23396756906237,-23.668405535448823,1.4067513071956341,4.482044601405335,0.8245071089513447,1.194553584410812,4.583597210997422,-3.5577351138080164,0.2954585877864755,1.2744650498192083,-1.6588059964576523,0.18075891951214995,1.2839653288484152,-0.09890302150687073,0.5794969409121918,0.20438880640967153,-0.17889799797105294,0.07310530041275398,0.2844600800225756,-0.31151258477494437,0.20648418470249938
-15.084201348057377,-8.181995341720672,-0.7588017354201556,-15.554255126942383,7.132184425112177,1.667850034598497,-17.157996817222127,-34.23175068974298,1.6834438621313625,-25.04537591744839,13.334988468152408,2.979548894372526,-20.914803575633897,32.36578235698284,-2.9757580343560996,-16.148565149185583,5.29865073677464,1.5011971932391208,-19.656972645928157,19.66903263436951,4.50230855069148,23.76065000777633,-16.331286335154683,-2.2527648713546076,6.417236814536216,-2.1038559723603716,-0.8100179299972853,5.783303373100132,-1.6862171923629248,0.6446776431980545,1.1016191359461414,-1.3092672875366764,0.46105738797573204,1.3862035478971921,1.0991391370675145,0.035570366417395215,0.24053030507271914,-0.20373174945997136,0.20534333825879603,0.021387002196760686,0.12175154642940463,-0.06337084033606179
-14.493542001975598,-8.388369263409903,-0.8154068097081472,-13.553259789270314,5.084151970688093,1.228870929303418,-23.05154913314511,-24.781020085180025,0.2705297773119631,-14.424764277612558,7.2623362251785935,1.9826779743589262,-21.520582983002562,33.67874110005208,-2.7918014356995924,-16.01116075495594,5.067076574366455,1.303999353275105,-15.698963393285345,19.842758496228495,-4.523128857352123,2.6066568963434915,-3.6991521022747955,2.831038219708718,4.481462802291755,0.8556191767511426,1.2422844213302786,5.231551903543939,-2.1096993864867484,0.22856100289267758,0.9099123421158718,-1.630015101427685,0.15438757008185489,1.5341650078276534,0.9180911821649079,0.08718566143615963,0.06917499697425195,-0.09087032696250764,-0.0006711689303531051,0.342241606006708,-0.14680701616932815,0.06861286633853665
-13.093613705523833,-7.4393757797331865,-1.0394913813622781,-16.446035034743474,4.578641877157699,1.080437948695868,-10.39790963859273,-41.82574729212472,-0.3465583000767528,-23.531079712613764,7.155822648634392,2.819548571473883,-21.641852314928137,34.49626615142374,-2.661089686017177,-16.216275930844315,4.829059828366489,1.0277293484762688,-8.138228682099175,3.2200133188700395,1.3982145969829625,25.14050250667153,2.424188656047992,-0.01636930618043779,7.028501740026363,-0.7856124485325104,-0.5221548904535619,7.663346089094343,-2.6615298566904344,0.38441279181708415,1.6168371079999142,-1.2794453821319278,0.04125538385081542,0.5606237440256212,1.6875189523553245,-0.7648361564534698,0.3412406743287517,-0.16806235302987985,0.07796046007572095,0.018178350287847832,0.18488981125504295,-0.14362577921113956
-16.287319381553036,-8.227483810593043,-0.7193288087055117,-14.981395658346429,3.904951850814945,1.015274322817271,-22.35804802933887,-27.227628874446925,1.4047530602381908,-20.12970330650828,5.520489504221258,2.174160062334105,-21.833292103251626,34.89608519922485,-2.9986058691804334,-15.500022358429778,4.455008168229254,1.0544497236274426,-19.20709820000677,13.983101421135858,-0.11854940079792786,20.566089533894576,-19.76503793539749,-3.0357151167357728,7.125734493246417,0.10175980656992246,-1.0122465146889599,3.7332437661734734,-2.956592907444755,-0.7069349245824537,1.443638453398784,-0.7322937127585898,-0.7163525609703397,1.8830258735871401,1.1489519262461938,0.6716155773825319,0.3426071481951896,0.0652530551688035,-0.306939283921245,0.5072808793715146,0.06467685926725941,0.15153508823578982
-14.4324974461077,-9.001508546955218,-1.0198457689594842,-16.459595280168397,5.502987109274581,1.0630510317030568,-11.478860180314214,-27.830175565953,-0.616615743470752,-16.337533169881656,10.802585982562508,2.7818260716619436,-22.589391463184384,35.77757805664599,-2.8670423357621297,-15.326258303356642,4.36132624920085,0.9285924507205128,1.4697383950327962,29.950069299281257,0.019610637490332178,12.027085669802442,-9.253544404421712,2.3370261437551108,5.552317468105912,0.2351642837773008,2.24687883551153,3.717542386688102,-3.078668622876451,-1.2757522307155627,0.90621355451233,-2.583926847443064,1.1737071228334204,1.6986636787829443,0.027376874442815197,-0.3304511494874989,0.0960808691739993,-0.3493577503466273,0.38875235256014673,-0.13926760813986166,-0.43835636159946834,-0.10155802563190383
-14.728460609106927,-9.445647531769808,-0.9367776101682337,-15.694729982883636,2.5193652676442584,0.7762589696054544,-17.06748165371111,-43.8411264525282,0.7600466128100475,-25.068816525672258,4.1759426058786415,1.557146524105829,-22.72431695097646,35.6688551392202,-2.9463563206940897,-14.91104242977121,3.9776653815680953,0.9798376514419131,-16.202692622420017,-2.7058811112062293,1.2748463432939832,3.2388331567880355,-9.900394618121243,1.0537099082223103,5.795438361704034,-0.8378830789501325,-1.171978214273122,5.867457148318618,-2.321287947782479,1.4607212689530744,0.9230874923903661,-0.40335989845906806,-0.2009539447886964,1.2201736543823434,0.3317789499262214,0.4314853860657293,0.20686810018751334,0.04723241474191702,-0.0938029435386944,0.26496799456771014,-0.06800766912431885,0.08450283319322686
-16.494727132600488,-7.748582481321594,-0.7862547850012478,-14.943721212220778,4.274444647510162,1.1283511989819395,-30.247765213005245,-22.549154235503337,0.6292606456873245,-16.617475119994875,2.9974754020609193,1.5854812922140797,-23.234024317368327,36.20308798464726,-2.903606629456911,-14.379280778648587,3.5280600172058367,0.8419503306694004,-25.917367559611716,18.066592833522748,-8.593065996811864,9.775125059187314,-7.551765431090152,-1.6654953485718307,5.784344281761662,-0.1231962924885305,0.6942004207859399,7.798857318072653,-3.471052604554191,-0.39855701006998684,1.4825885070576972,-1.7682307196847638,0.20106707017700012,1.618610179076712,2.093699762425417,-0.27254825215133094,0.2568332695189477,-0.10046562664484428,0.02758792056878429,0.3003540981170526,0.022073964480628372,0.035266015805908255
-15.307424638722669,-8.197144320723647,-1.0409638240719719,-12.61117709554266,2.814526344024749,0.7702785392613147,-11.479399863726805,-32.23358262688525,0.9313502410820725,-18.68808339026577,8.139264283261594,0.7280461499123367,-23.221757483935864,36.13558853734874,-3.1119512145421937,-13.631497740179185,3.113015948740384,1.1320803905954715,-5.842546706493946,20.332578432128617,1.0673448719674994,25.98340424604764,-19.873963422186065,-5.092742684146468,4.409747350587944,-0.7978591917443673,-0.39235886452764585,0.6734223586175488,-0.6076262902452526,-0.4165681248431724,2.0619772317266722,-1.8590949521848628,-0.6342695887973834,0.556127798410508,0.43326530064400237,0.08873360599584579,0.25878686918328825,-0.3752534052044701,-0.005336290601713685,-0.0607706379795963,0.16024094982217194,-0.07267525126199484
-15.695613204386662,-8.833306200651034,-1.1345854839461653,-14.295471884280618,2.5772019599840528,0.9430459131750847,-16.057199355651804,-41.07413922777774,-0.619242682436688,-17.672012625457313,0.8472582267204833,0.8794341651561722,-23.436355536386877,37.10907196206665,-3.0013011519914268,-13.57110924486265,2.777786270862426,0.858286259478093,-10.075909287156577,-1.3382103128450045,-0.6221606766450891,5.322171364723684,-5.541328146896685,3.2505543300304716,9.086400113175676,0.4687883594188624,-0.6802172478469914,7.613795533150117,-3.0075842951304836,1.6018817272393757,0.7627966865360982,-0.35754043822118065,0.09515988456728376,1.9348645544833827,-0.056646443089703666,0.2647477091896849,0.3382951312064698,0.17180771494247774,-0.159727477512776,0.3568748844090105,-0.3429633213546018,0.0108625394989256
-16.9603697921224,-7.945749669508342,-1.169001737946593,-14.05552608771172,3.544709512076226,1.231931890676137,-20.92932561610057,-30.63688941923112,0.44111221522295097,-16.633483155325425,7.060313417879874,1.2308247957923037,-23.617373195799246,37.43344847226015,-3.3567945114114384,-13.457610171279919,2.7709799019651964,1.2913700895153561,-7.874452721397006,21.267057999121924,-4.246105466945315,21.31553676149249,-12.055039982670136,2.724992927863139,4.3461984062710854,-0.10279315004418692,0.8984179853065799,5.025510706683568,-2.5871273613093555,-1.635153699906231,1.1230465730250203,-2.0915809209095118,0.10855078837556159,1.5939660435152414,2.6325981614344394,-0.31667044848738485,-0.01531374545938808,-0.2763888275507383,0.12102355304885666,0.2982968150401014,0.4775048997956493,-0.13217282216950307
-17.411010733010993,-6.513168163454961,-1.3451536027242839,-11.46987476582677,4.172984630576574,1.886197702447918,-18.87329768614796,-38.684381093159786,-0.24226032244549597,-8.830762647214918,6.048437736677067,3.6779656970175365,-24.02130857131569,38.346149589373965,-3.4340238507051986,-13.225216038365836,2.667860219100381,1.5559514723096852,1.1957465334338566,11.599711059771142,0.30523831735360635,11.368805179331465,-15.222258968463318,-1.438698549649288,6.833704096836651,1.5080305510238716,0.45549367910752153,5.3383498734835815,-2.6618428579885984,1.787227051481623,0.6376788649116251,-0.5504285592682105,0.24830320267986464,0.9437815946257146,-0.5270283871010666,0.8175574575012756,0.15425299861198713,0.03821632794767166,0.02501119344909207,0.07116359491637934,-0.5862301894066094,0.3175633243161242
-17.535589019885958,-7.727123104274026,-1.1865872445252483,-14.79642619118207,3.9234014279251017,1.8475916027292631,-26.305401305645198,-22.11648005803142,-0.2581509736613909,-22.229721146270617,3.9386166735930535,3.0818007302605386,-24.280754064239883,39.81379764143911,-3.5327598993332527,-13.34635680006538,2.7620649059325126,1.4806760301057587,-27.575259481347068,22.137399335073606,-3.0161953110978876,-4.026816314371289,-5.009546404275464,0.7410692122333626,5.5189305610054396,-0.26313179123956765,0.15667653183844346,4.674720515136529,-1.828834742232715,0.2726068778156682,1.3172110364791831,-1.3407810695184832,0.024868625434746005,1.1859747200958801,1.4212497272426972,0.5435485631277596,0.36600262106850356,-0.03397252494312926,-0.08181519490391748,0.125166700508862,0.06522719519466351,0.18222107002997057
-15.932706903203094,-8.73866048244988,-1.064394477856714,-10.628999786118936,2.8972860053996965,1.6825633718907664,-20.244127965923997,-42.60115804615468,0.17215736851741148,-5.56041127196072,3.7977634603051365,1.0933108944040724,-24.575578186423815,40.269699734735916,-3.3693823369930196,-12.251425206956934,2.626159304549593,1.7874278013437392,1.946586595876963,1.9975858856287798,-1.0962360426286393,18.158857998239373,-16.908950598375057,-1.864172482927623,5.570589617925445,-0.2717265943217048,-0.5104368559500172,7.497066944680275,-3.9605807443500765,0.8362657351846365,1.1795946395276193,-1.0680794261114879,-0.1869315514596873,1.4848996090622537,-0.3364333196676351,-0.2809468367314947,0.19962912547866724,-0.18829490623390865,0.02522834612753045,0.28539927687971434,-0.3257816646266202,-0.14937226736789988
-13.184095849365248,-6.493569227299026,-1.388096082449986,-12.371324851880743,3.691349715891002,1.929992435297358,-12.89698540280687,-27.520133656393316,-0.4394646091031415,-17.479619570381683,3.282960173844841,1.990352282483806,-24.832303838908786,41.18480754170306,-3.131996351767465,-11.983669659191293,2.311230329195493,1.6547823454372321,-4.789268330620401,17.8174934937287,-2.8355474856010323,19.024762150083227,7.267970766324222,1.1328256937033483,6.3560798817777036,-1.2644613517424315,-1.893823632893077,4.486089697931656,-1.3085356772851815,0.11043787602539525,1.26336018137781,-0.7026739414610254,-0.7276754615151029,0.10501897837866872,1.5538151592063014,-0.5029387604863457,0.2172099549104071,0.01490263694488898,-0.24955091132097193,-0.24867465654583146,0.35302932600338754,-0.12337215124083264
-16.908408749599595,-6.979865124855375,-0.8186336695470359,-11.737386541079715,5.14385746798001,2.433284610362883,-25.646249037377547,-28.515389329892066,-0.5809700397355687,-14.128732211160672,10.70337635330351,6.995996319490051,-25.06612534333001,41.79956078700217,-3.057417738906778,-11.712483455219502,2.316188148726413,1.7802512566368935,-14.547512267347603,28.682740908777554,4.081738497845512,16.638144368337233,-19.957687788369068,0.17400150698094238,6.204182744222847,1.801110512148152,1.8512993295922193,5.374887604254831,-3.1772150683885423,-1.2496194779709182,1.3467520389151346,-1.6173397291343967,0.37951345435460426,2.6585069908408463,1.073233976445678,0.1440823926159863,0.33756685130967706,-0.060140262112566845,0.04469336138796333,0.47353620470307145,-0.31015744425750447,-0.003617142116185883
-14.52186529526257,-8.981254764056297,-0.6692282794942933,-10.269884010111522,-1.0369391487745967,0.6831522064263748,-19.965451993308413,-43.26682410084677,2.8318223707102033,-11.522591630131528,-7.049772285299516,-3.5379967049746077,-25.206546224914888,42.310164862221185,-3.08915649806107,-11.616617846207633,1.7406464481818678,1.2495553889882833,-9.494406599615047,-19.393235711064335,-5.187149936312329,17.972095820840625,-20.216285142673183,4.7793090360769055,4.485529236911436,-1.3913253486506216,-1.683619111241034,5.892350545160648,-2.1212051160938357,0.6372679433931425,0.4968867569611234,-0.48549752267304164,-0.42837481270526356,-0.23018477556119032,1.6484831185968416,-0.37736650644617836,0.02171290989318509,-0.08689750775759128,-0.09474636569976137,-0.09808512351575842,0.30380390563641907,0.004247487200431148
-13.113703500000106,-6.948452634526016,-1.9182590097161754,-11.726144946745539,3.3792403415529084,1.4400322256573308,-7.302320890221628,-26.233195869086174,-3.5679549967751734,-17.544234531732062,7.620689643429851,1.6960157905119724,-25.82454014894236,42.622326881846874,-3.3750059368814345,-11.790336253562273,1.9130425208545176,1.4528678476424834,4.214250945482246,34.235906569780255,-3.1075261198182105,0.2981654345744831,-7.261083079474745,-3.5244075436549136,6.690412550568344,0.49920514722142584,0.47536671763954863,7.259757520907211,-3.3689968505935965,1.9299202947735004,1.3713562669544337,-1.3833324529455762,0.05044064351062215,1.0608884669208811,-0.6882702923704067,0.1310310423420137,0.2552405118187733,-0.07760466569792321,0.008061208005521308,0.2149676268281245,-0.4594963775023794,0.0359537529010802
-17.580665117232815,-6.449813858065264,-0.5045054997533936,-10.088538966287967,0.7864200486149003,1.5961251725022265,-28.839602150996946,-36.504363746222865,3.408023683848759,-16.265756704270725,-6.926749365897758,-0.9582326176454424,-25.694878426655187,42.81608285364491,-3.2494986893593905,-11.85953999974862,1.6987654058184467,1.572955302753144,-25.3544068960056,-9.96699545519365,-0.42988621494534995,5.125218139988505,-2.871075347987272,2.472289351798917,4.586811969546023,-0.40246191846557033,0.8445968220286607,3.305478123186523,-1.0088903612914362,-1.9079084577669678,1.2011451690233232,-1.9261547536991603,0.3469878944343269,1.9412719410234685,2.603096588133324,-0.28221817951194894,0.19977444822839124,-0.2588886299061974,0.15475367799014575,0.23141777675934724,0.35930510623933093,-0.15243410977635452
-12.200161348947352,-8.267840839632555,-2.1170466400889936,-11.599418909070348,6.510316912134371,2.043561066062955,-10.678279649344308,-29.642799722252647,-4.214615881777446,-7.536839512451246,28.047203692960515,11.77849955560047,-25.524456074457248,42.98423127218955,-3.349817310193291,-12.361576048339062,1.964884048708437,1.5945767698543982,14.249768821087933,71.27447949246643,-0.9119098020176062,0.2762426242502454,-73.96826653604978,-10.778760826801877,5.823620752741223,0.4227329109472572,0.21671344732074707,5.961301870615179,-1.8807171289676552,1.009013885198575,1.2468972145542498,-1.285078349759178,-0.18802176090970857,0.008785245473290964,1.0116684122203778,-0.3107582452701756,0.23857775848886306,-0.043066518750742945,-0.10756706327456352,-0.23368071471005278,0.13270807227122014,-0.020625915297921738
-16.724933300797623,-1.6800619108571464,-1.2785307593950122,-9.473466924858279,0.35049785210157797,1.7664256701627068,-16.40585146547456,-33.535963395087414,0.6964736734738418,-14.043043074505558,-15.241006313044641,-4.599611411410384,-24.94680277143168,42.701738195769096,-3.2620541600953925,-11.955625941595827,1.7425493405177988,1.7636255075988123,-4.013825533600519,-32.691058404298744,-3.474191609054037,14.4387548241811,49.0462075635863,12.749185716218996,7.4997065978014605,-1.7336886142703853,-1.4835378900745815,6.2943648793406535,-5.698247160578819,-0.3169628258182391,1.2685116295654757,-0.8137235796456124,0.16613499630159034,1.3445843550641712,0.40402374429984805,0.5156000000961569,0.25053482978541425,-0.0530869866862454,0.10530269464455308,0.5141151101054916,-0.3801266276243719,0.2520137435064741
-19.130084360508615,-2.507073756053419,-0.9637247083335089,-11.835527863432851,0.08922368654898848,2.052926523621935,-20.721041203081594,-40.0320828991487,0.49810001603668186,-15.932659324556575,-10.613946919776025,-1.1323278060504043,-24.684894861376314,42.95782022836461,-3.280756084429454,-11.952960634132165,1.8096241771794748,2.007245583224907,-4.962909149631281,-24.887846910713584,1.3947325682816951,8.867658286235896,45.70719745685313,11.039668022119761,6.21456872927018,1.079896641405447,-1.0697719282901674,4.369540556349461,-1.9295966534978755,0.93992673921698,1.4375517332616414,-0.147962044413971,-1.0131202334341582,1.0910513301892082,-0.32578964344369316,-0.03214292456777723,0.2955742310975118,0.1440040079775425,-0.36096553066890674,0.05627892126725495,-0.276701745508279,-0.05822343258584227
-13.084662068999764,-7.6212671188833845,-1.867814212670053,-13.38206531004957,5.679646497540104,2.4542276965068575,-18.82536795699733,-25.714343692563194,0.5205391215347085,-15.909807591288777,13.998451687091825,4.631503530040398,-25.397820742521073,42.48142141557484,-3.6682512826244134,-12.168978104446854,1.7848474142735502,2.1489307549095362,-11.99049225278778,48.841626229822246,-2.3323003205246966,6.2159908566558535,-64.34265697755829,-13.173989976213948,5.149865050246087,-0.7929282055635833,1.5151881632614341,6.924888601666193,-4.2928549168586905,-2.465582254838541,0.6794144169037291,-2.6955653252809317,0.8642823929462845,0.9212162160837102,3.1791967242464887,-0.8847650644734633,0.06502953687879075,-0.3522570160860407,0.2559983604069155,0.10059024881262611,0.3728708069558284,-0.11063028825812823
-14.533073729705603,-3.296390057100121,-2.140156703078622,-9.874551756321962,5.178164953533503,2.7012723450068243,-10.003535444909764,-32.30564236640627,-3.5610900929217557,-13.668277796817087,15.711069622408765,7.39252962344015,-24.88096949345188,41.877636549345866,-3.4080004077042316,-11.98790667136952,1.7141842767512165,2.2905522839027954,0.6369456273580003,26.886498509459656,4.181660646883842,9.551451372031698,-18.872175553007768,2.693652502455399,6.462399412780139,1.0844352679366205,0.7224833715251459,5.318382652576246,-1.5627297730693828,1.343384579170819,1.2024453374170954,-1.296599709537667,0.048082681644608535,2.068853637752949,-0.05875260293545704,0.4938866813324607,0.20995806694955807,-0.058658047247030394,-0.01222082098293299,0.26971197006996894,-0.222155702731559,0.007726399736183591
-13.796989541212257,-5.329625371913517,-1.9732306556696535,-14.126970168578524,4.002480883622185,2.4905884944783723,-12.66720922462634,-35.69099235642711,-0.8998760156522242,-27.0525524583127,2.288160584215944,3.2229978173199783,-24.485297715301485,40.696256415310756,-3.559112948497499,-12.320160248083836,1.4940819490481523,1.8887851557984103,-17.09567215300733,11.170377445326999,0.7120603323619804,24.895862615038002,-16.89813474135862,6.668242683837541,4.851736439736418,0.3172752435883273,0.9424927121436694,6.430144208548872,-4.65904157635826,-1.3377640642392552,2.316613693686161,-1.8765772633861053,-0.11502599966952914,1.2976750286347858,1.501252701616823,-0.4120865917567007,0.47236491872472586,-0.1639074647786677,0.010171376946985583,0.14999438597310835,0.012840317076741721,-0.06525272350144046
-16.95913978764807,-5.746824136373905,-1.2012987273366764,-11.413231257577992,1.0925356633272874,0.9982431490327502,-21.41202963122916,-41.45669474808541,2.2258964354789486,-8.291489283888401,7.310587835513596,2.3212769641222124,-23.472025338576515,39.969329088753916,-3.5616143603571357,-12.75622491257514,0.7261785492803386,1.1694405126793515,-1.8767042684787925,0.5956510330238405,1.8553032458572618,6.985255806950475,2.058176633952291,-3.0748802105524744,6.9836548415536015,-0.20847274590156611,-0.6868138238945405,5.242158969018981,-1.3269858049954713,0.3418257503939762,0.3595327458809263,-0.7619148062416095,0.07988918747083493,1.1878551301413591,1.0172774013396015,-0.34657231459608157,0.06992989588865228,-0.06407090889968393,-0.012180331329209395,0.08883583152340868,0.07750616049166602,-0.13643142461229424
-16.738076054755563,-3.3059836017793396,-2.014930100575376,-13.958621100238595,1.5397755805082485,1.1962779011303564,-18.65462477620044,-27.078022509977828,-2.0099751976114826,-23.543861374905095,6.0702925065635505,4.38691725778008,-23.828363130580282,39.263335423396626,-3.6764768119504088,-13.144275923248097,1.1045944000832573,0.9947898842727964,-20.325962755444174,27.513770503961837,-2.503776955745299,14.649044117056158,-35.16664673861964,-4.002419461232777,5.776725663613703,0.24312777865151175,0.5983913858978988,5.435874625916026,-2.916811414384494,-0.5439093495025273,1.6379202347420603,-1.6896598094212116,-0.125925116743272,2.812692376295703,1.387941891559055,0.817808402278213,0.27766930339220647,-0.0790401852805858,-0.06730457545213193,0.6209737171100255,-0.14414094254023505,0.19694497876518063
-14.993073789906138,-5.11463542222891,-1.862531935568536,-13.019170653848235,1.5591764455293644,0.8936207841751993,-13.320739226072567,-41.11368904479993,-0.17416387510744807,-15.181346563237707,5.379800767662465,4.364773482923079,-23.553377613666154,39.193646868991245,-3.622753960993195,-13.163510478429394,1.0401935570097347,0.6319285509295287,-0.2921339715625513,2.0636940100681196,5.292203911819097,6.303768574030388,-7.363765367360083,8.470561569752526,6.580356791513619,0.10578149539719998,0.3827842748344067,6.079208941422552,-2.960874639013995,2.704400812891062,0.682336884647165,-1.3599235201265776,0.41672633871568604,0.27164082000847567,-1.5077667439931648,0.37211851876779817,0.1312588426554361,-0.15275239474166002,0.11259311073935886,-0.00023957759128047287,-0.4657068789942128,0.09924555920912166
-17.457737763581957,-5.77733858793134,-1.7284021573732564,-13.048977357327255,0.9125312121798602,0.3877295793271372,-17.594852112156836,-27.681255790537605,-1.6805776092048432,-16.04746555159793,7.602125301412011,2.2937585281037176,-23.401088186253062,39.53814902387644,-3.744912218298149,-13.11501059096855,1.5303699519872214,0.6682910010663476,-5.951742749451624,28.698376708073866,-4.136026378236825,5.542822686287484,-27.4916878490889,-7.7552174347565295,6.00115962520478,-0.04207698257241129,-0.0756898996019082,6.667259565783865,-3.409885271690921,-0.5882984781487509,1.2568456762725189,-1.0366712774592086,0.06402855128368533,2.1691593546010086,1.821521223362315,0.2101884095488581,0.29889451927805744,-0.05522463257443623,0.0022033049741782356,0.4424043799212617,0.12614849526514768,0.034755484411667155
-17.089236465381443,-4.061202473216999,-1.4890390868710999,-12.816408622895883,2.363165259994105,0.8055283714407702,-21.473845071314003,-38.04893600040992,1.4920328889945267,-22.16890892564883,3.41716502567489,1.6115392052289759,-23.581393042886603,40.302701213923385,-3.6129101479756924,-12.568117241281508,1.8158323273747066,0.6125033146508346,-19.934184319736396,0.04948265748535108,1.740220788127161,8.910933751386583,10.121973925684038,8.022969615703134,5.667682737902204,0.1536442149127299,-0.2644774909984891,3.8385721189030972,-1.9543301850250854,-1.382754558116032,1.0317428350093472,-1.081149619523649,-0.27040235347021846,0.45400560636496157,1.72327154208447,-0.9195790084436234,0.11081270345799622,-0.04183413856250777,-0.10023539187832049,-0.27600009809966575,0.23671694316733022,-0.2025854036370892
-20.308690844303417,-7.036954891343418,-0.7657255016088196,-12.860175235751239,0.053969260096224644,0.3111573141083811,-27.485135127810445,-38.84004777826844,2.818360704029359,-12.892816661254292,-3.167475607397884,-2.387382326089247,-22.901131803413552,40.54635523062238,-3.5296454926218663,-11.067717856409544,1.7645284851419072,0.6292084361710043,-12.052643021775818,4.226464480523774,-4.044573098817662,9.15885946725349,-19.677206316979547,-4.150518678720288,6.372830583757334,-1.963810271786514,0.2531117534085468,5.573119126257277,-4.47972213265276,0.1296956083118411,0.625540297468193,-2.2683615266637545,0.9548837199971936,1.739066573609526,-0.026844768275463414,0.7647788346552802,0.23434791374084044,-0.35252540100180996,0.2583357093313909,0.47626093506626055,-0.4819681014688066,0.2568740527855482
-20.976397472005164,-5.4447239142507655,-1.0214760307512463,-10.606671427661889,2.8782230253749206,0.5349469474060846,-24.503653164550457,-32.03738860090738,1.1160225222474491,-10.327032203181405,13.447712865718396,4.284083892807226,-23.322890787293815,40.0790559239437,-3.5202264765481273,-9.898253038550381,1.9546080683114053,0.6050670593330318,-8.403793713916022,31.775937610544226,2.7055199285915754,15.724252917845241,-14.535029282895117,-0.49868606191744086,5.343561242990746,1.1318368674247092,-0.3974592874913899,5.339840628551746,-1.3251644694122706,0.5636772209439294,1.854935192226946,-0.4818476745004292,-0.772912508595398,1.0065225854710487,1.5330203640984121,0.18590634219985724,0.3116316291555812,0.09207207619323808,-0.2249209961703991,-0.06217882772918611,-0.020920919303495305,0.16358280073044718
-24.91133,-7.6998,-0.90442,-10.19025,0.90971,0.3001,-22.07789,-32.50689,-1.04963,1.57074,0.06173,2.68048,-21.92305,39.31923,-3.87206,-9.25938,1.583,0.15945,20.8041,20.43978,-3.91263,-8.26975,-29.18258,4.87525,6.94582,0.22459,2.50307,6.64444,-2.03117,0.88085,0.73711,-2.79528,1.61749,0.75473,1.50099,-0.29959,0.11859,-0.36352,0.48723,0.13793,0.2815,-0.08741
,,,,,,,,,,,,,,,,,,,,,,,,,,,,,,,,,,,,,,,,,
,,,,,,,,,,,,,,,,,,,,,,,,,,,,,,,,,,,,,,,,,
,,,,,,,,,,,,,,,,,,,,,,,,,,,,,,,,,,,,,,,,,
,,,,,,,,,,,,,,,,,,,,,,,,,,,,,,,,,,,,,,,,,
,,,,,,,,,,,,,,,,,,,,,,,,,,,,,,,,,,,,,,,,,
,,,,,,,,,,,,,,,,,,,,,,,,,,,,,,,,,,,,,,,,,
,,,,,,,,,,,,,,,,,,,,,,,,,,,,,,,,,,,,,,,,,
,,,,,,,,,,,,,,,,,,,,,,,,,,,,,,,,,,,,,,,,,
,,,,,,,,,,,,,,,,,,,,,,,,,,,,,,,,,,,,,,,,,
,,,,,,,,,,,,,,,,,,,,,,,,,,,,,,,,,,,,,,,,,
,,,,,,,,,,,,,,,,,,,,,,,,,,,,,,,,,,,,,,,,,
,,,,,,,,,,,,,,,,,,,,,,,,,,,,,,,,,,,,,,,,,
,,,,,,,,,,,,,,,,,,,,,,,,,,,,,,,,,,,,,,,,,
,,,,,,,,,,,,,,,,,,,,,,,,,,,,,,,,,,,,,,,,,
,,,,,,,,,,,,,,,,,,,,,,,,,,,,,,,,,,,,,,,,,
,,,,,,,,,,,,,,,,,,,,,,,,,,,,,,,,,,,,,,,,,
,,,,,,,,,,,,,,,,,,,,,,,,,,,,,,,,,,,,,,,,,
,,,,,,,,,,,,,,,,,,,,,,,,,,,,,,,,,,,,,,,,,
,,,,,,,,,,,,,,,,,,,,,,,,,,,,,,,,,,,,,,,,,
,,,,,,,,,,,,,,,,,,,,,,,,,,,,,,,,,,,,,,,,,
,,,,,,,,,,,,,,,,,,,,,,,,,,,,,,,,,,,,,,,,,
,,,,,,,,,,,,,,,,,,,,,,,,,,,,,,,,,,,,,,,,,
,,,,,,,,,,,,,,,,,,,,,,,,,,,,,,,,,,,,,,,,,
,,,,,,,,,,,,,,,,,,,,,,,,,,,,,,,,,,,,,,,,,
,,,,,,,,,,,,,,,,,,,,,,,,,,,,,,,,,,,,,,,,,
,,,,,,,,,,,,,,,,,,,,,,,,,,,,,,,,,,,,,,,,,
,,,,,,,,,,,,,,,,,,,,,,,,,,,,,,,,,,,,,,,,,
,,,,,,,,,,,,,,,,,,,,,,,,,,,,,,,,,,,,,,,,,
,,,,,,,,,,,,,,,,,,,,,,,,,,,,,,,,,,,,,,,,,
,,,,,,,,,,,,,,,,,,,,,,,,,,,,,,,,,,,,,,,,,
,,,,,,,,,,,,,,,,,,,,,,,,,,,,,,,,,,,,,,,,,
,,,,,,,,,,,,,,,,,,,,,,,,,,,,,,,,,,,,,,,,,
,,,,,,,,,,,,,,,,,,,,,,,,,,,,,,,,,,,,,,,,,
,,,,,,,,,,,,,,,,,,,,,,,,,,,,,,,,,,,,,,,,,
,,,,,,,,,,,,,,,,,,,,,,,,,,,,,,,,,,,,,,,,,
,,,,,,,,,,,,,,,,,,,,,,,,,,,,,,,,,,,,,,,,,
,,,,,,,,,,,,,,,,,,,,,,,,,,,,,,,,,,,,,,,,,
,,,,,,,,,,,,,,,,,,,,,,,,,,,,,,,,,,,,,,,,,
,,,,,,,,,,,,,,,,,,,,,,,,,,,,,,,,,,,,,,,,,
,,,,,,,,,,,,,,,,,,,,,,,,,,,,,,,,,,,,,,,,,
,,,,,,,,,,,,,,,,,,,,,,,,,,,,,,,,,,,,,,,,,
,,,,,,,,,,,,,,,,,,,,,,,,,,,,,,,,,,,,,,,,,
,,,,,,,,,,,,,,,,,,,,,,,,,,,,,,,,,,,,,,,,,
,,,,,,,,,,,,,,,,,,,,,,,,,,,,,,,,,,,,,,,,,
,,,,,,,,,,,,,,,,,,,,,,,,,,,,,,,,,,,,,,,,,
,,,,,,,,,,,,,,,,,,,,,,,,,,,,,,,,,,,,,,,,,
,,,,,,,,,,,,,,,,,,,,,,,,,,,,,,,,,,,,,,,,,
,,,,,,,,,,,,,,,,,,,,,,,,,,,,,,,,,,,,,,,,,
,,,,,,,,,,,,,,,,,,,,,,,,,,,,,,,,,,,,,,,,,
,,,,,,,,,,,,,,,,,,,,,,,,,,,,,,,,,,,,,,,,,
,,,,,,,,,,,,,,,,,,,,,,,,,,,,,,,,,,,,,,,,,
,,,,,,,,,,,,,,,,,,,,,,,,,,,,,,,,,,,,,,,,,
,,,,,,,,,,,,,,,,,,,,,,,,,,,,,,,,,,,,,,,,,
,,,,,,,,,,,,,,,,,,,,,,,,,,,,,,,,,,,,,,,,,
,,,,,,,,,,,,,,,,,,,,,,,,,,,,,,,,,,,,,,,,,
,,,,,,,,,,,,,,,,,,,,,,,,,,,,,,,,,,,,,,,,,
,,,,,,,,,,,,,,,,,,,,,,,,,,,,,,,,,,,,,,,,,
,,,,,,,,,,,,,,,,,,,,,,,,,,,,,,,,,,,,,,,,,
,,,,,,,,,,,,,,,,,,,,,,,,,,,,,,,,,,,,,,,,,
,,,,,,,,,,,,,,,,,,,,,,,,,,,,,,,,,,,,,,,,,
,,,,,,,,,,,,,,,,,,,,,,,,,,,,,,,,,,,,,,,,,
,,,,,,,,,,,,,,,,,,,,,,,,,,,,,,,,,,,,,,,,,
,,,,,,,,,,,,,,,,,,,,,,,,,,,,,,,,,,,,,,,,,
