PaulMeinheit/Bachelor_Muay_Thai/processed_Data/E1/teep/scaled/JointMoments/scaled3.csv
R_KNEE_MOMENT,R_KNEE_MOMENT,R_KNEE_MOMENT,L_KNEE_MOMENT,L_KNEE_MOMENT,L_KNEE_MOMENT,R_HIP_MOMENT,R_HIP_MOMENT,R_HIP_MOMENT,L_HIP_MOMENT,L_HIP_MOMENT,L_HIP_MOMENT,R_ANKLE_MOMENT,R_ANKLE_MOMENT,R_ANKLE_MOMENT,L_ANKLE_MOMENT,L_ANKLE_MOMENT,L_ANKLE_MOMENT,WAIST_JOINT_MOMENT,WAIST_JOINT_MOMENT,WAIST_JOINT_MOMENT,NECK_MOMENT,NECK_MOMENT,NECK_MOMENT,L_SHOULDER_MOMENT,L_SHOULDER_MOMENT,L_SHOULDER_MOMENT,R_SHOULDER_MOMENT,R_SHOULDER_MOMENT,R_SHOULDER_MOMENT,L_ELBOW_MOMENT,L_ELBOW_MOMENT,L_ELBOW_MOMENT,R_ELBOW_MOMENT,R_ELBOW_MOMENT,R_ELBOW_MOMENT,L_WRIST_MOMENT,L_WRIST_MOMENT,L_WRIST_MOMENT,R_WRIST_MOMENT,R_WRIST_MOMENT,R_WRIST_MOMENT
X,Y,Z,X,Y,Z,X,Y,Z,X,Y,Z,X,Y,Z,X,Y,Z,X,Y,Z,X,Y,Z,X,Y,Z,X,Y,Z,X,Y,Z,X,Y,Z,X,Y,Z,X,Y,Z
-23.25136,-10.89863,-0.37467,-10.487420000000004,1.9146200000000002,0.005110000000000005,-36.316040000000015,-34.78284,-0.7434500000000003,-11.61054,2.892450000000001,0.7941100000000001,-17.636920000000003,32.88285,-4.14258,-10.025770000000001,1.7650300000000003,-0.06360000000000002,-17.392500000000002,12.609189999999998,-6.788580000000001,23.357250000000004,5.280730000000002,-6.380700000000001,4.843320000000001,0.33228,0.0010699999999999993,3.509560000000001,-3.6859100000000007,-0.14052000000000003,1.4334900000000004,-0.75591,-0.3232300000000002,1.53358,-0.16939000000000004,0.48432000000000003,0.34090000000000004,0.1491800000000001,-0.10840000000000001,0.007830000000000002,-0.32230000000000003,0.12171000000000001
-26.092725507611856,-10.883026156706503,0.503910911686699,-5.429419902172986,-0.0036601958148074834,-0.21874084401285407,-39.35601723984949,-27.860829566013077,4.3163757144953685,10.687461244226192,0.7716533842172834,0.7984540914559728,-17.424979811738982,33.26148873474526,-4.299167378127063,-7.622198569177508,1.056539198840219,-0.00043411048465733307,8.076473367639753,26.35596295894501,0.4720156820152857,7.0026165556330024,-21.931393597751686,3.333307459593771,5.289192961037305,-0.817757300517217,-0.38771930552003664,5.100175827958692,-3.9987821081662913,-0.0516859069192136,0.1928897033391694,-1.0381291931434344,0.2123913365390399,1.5408403111137248,0.3995418786879411,-0.027487395695146095,-0.004555471441854444,-0.20254116774781322,0.12861356624122597,0.13780964627243897,0.001087523016711861,-0.0889097434449872
-29.342497664309608,-7.80521471682673,0.5648613596241063,-7.42318513804899,0.4851563276994778,0.24386942382275423,-45.756984270243706,-25.620275956224166,1.8286806557906472,4.424002374960309,-2.689647418017888,0.5455175947459994,-17.682364013533977,34.240202284585315,-4.169903240327445,-5.95333024402879,0.6670453987877945,0.05658028270184154,-2.4855980935133117,18.582296460661276,-4.984054231118351,-7.509683236876157,-22.182733603839843,14.31018000468886,7.281877168484074,0.1962186473109529,0.6067202521059083,6.627436920929212,0.4111647609104067,3.6650738252070023,2.1348799927311175,-2.028611836239052,-0.3791456214388804,0.5500539710288417,0.3805541406626809,0.30019442596172513,0.6345638889957367,-0.0168380347358008,-0.1176300583478348,0.252948971212787,-0.05755499336709406,0.1456364247387672
-31.025626764158254,-11.90230828109806,1.5691477387759738,-2.6596526442059387,-1.5261810943699214,-0.12426066804106625,-49.800265582092656,-33.69036988356521,5.479745135931278,7.6088706358120985,-4.738384116848599,-3.8421490197030983,-16.77420223027532,32.75346492902421,-4.080219895986428,-2.9173645235743186,0.2952790290012911,0.33226048610874853,-8.739346532891073,17.563781089544943,-2.698549744986499,31.643199641394816,-16.618542046325746,-4.2179573816167615,5.741071842659571,-1.8206815966272252,-1.867805023660901,5.199218311267996,-4.194044677161331,-1.1785413336169748,-0.12571228607003776,-0.6212558237277449,-0.374882058443847,2.380118492545393,1.0923389434487583,-0.15592292440943414,0.0036495348513181118,-0.15028342828734031,-0.14170570718124575,0.19554641905029294,0.053744470683800276,-0.12166400012655641
-32.15350062768616,-11.754931635511012,2.0105023883275694,-1.1805830028960855,-0.01597703374166804,0.3991167979205814,-55.93713007288392,-34.188139990698716,5.226216747990414,25.681406954124384,-2.4188793538738294,1.5043713790288142,-16.892641051443384,31.7869481000578,-3.767867892039286,-1.711855689353974,0.13612049270237625,0.3283337054601242,5.017612753615666,14.500582715644038,-3.985338696301429,-4.152747790074352,-4.5679439387381775,4.494412080573397,3.81030488341166,-0.6205243946742501,0.7400443388391194,5.873169864121859,-2.218214609826918,1.3501669260207576,1.0343826811952535,-1.81460674413509,0.15968321904087046,0.4773236611721154,0.8145508048707063,-0.11376446485679816,0.21099643174572938,-0.20332195605683406,0.14107493395523885,-0.016364179531531273,-0.025721999983656853,0.07905014456241873
-31.13939072746211,-12.240999392884538,2.337344612874581,1.2161564412086796,0.5782789126720165,-0.15583856913524044,-53.800337394427196,-30.86870415359625,6.2348307174106,18.629494190037498,-0.9864128518398226,-2.7156440210779884,-16.288062296482728,29.370272480484747,-3.6089140655482312,0.6086451100360144,-0.20268524066524443,0.07567552601897692,-2.484421119211552,23.153726896162336,-5.648256122735317,9.686305532991172,-9.537035674972133,-7.2587236074647725,7.400600999628629,-0.4442093793023645,-1.108889025165298,3.723195987945368,-2.90436452718374,-0.14486235763820593,0.6433626626057282,-0.341614902930068,-0.3350507496744937,1.1695923226161806,0.28816222874384806,0.11104561588227158,0.14209883014856453,0.13643849770970692,-0.14123516701071562,0.23685218006545383,-0.12623627728207237,0.0336199870163889
-31.968871419713267,-14.732599929950451,2.302547448786214,2.5077308129748483,1.6145183751101013,0.08151763024648238,-41.8280195839329,-29.307844915307122,3.7989050068643366,24.88735945088247,7.777958023088086,6.985124176729019,-15.955481692339774,28.832531676957665,-4.071499440915567,0.45548594205644216,-0.037255505120386945,0.0004133646815488556,20.554621533224903,36.032860717417876,7.78823819923513,0.10156276209902466,-19.465080244044962,5.947279717353642,6.847135420831406,-0.6681650940287495,1.4145855780157104,8.674058527196776,-2.03690922099036,0.13923780421496296,0.10103974472670176,-2.0037915617002864,0.9782313959800361,3.110408009535979,2.364537698787527,-0.2527819811951222,0.2714291880460481,-0.20068896677791323,0.27654033830149083,0.46671791744642743,0.17133613774447928,-0.0845371268232137
-31.012436066344026,-14.991100433301865,1.6304179884395564,4.430126243943647,-0.9066796545007829,0.06396949854113329,-44.86058386841288,-39.464988245958914,5.514362615229764,28.25983015155062,-11.231540789037293,-4.204905315493604,-16.627492360353706,28.143117861202494,-4.957072351278564,0.6939088873992176,-0.09910208414969629,0.12498489243564909,21.21674445335058,-1.1698298099368476,-8.971786516640405,-10.13768311255616,-5.544770516385178,7.347946228664663,5.863083484539261,0.2518953915767008,1.6640345894539854,4.550137450845913,-2.1620426127865238,1.3329529152210406,-0.6351235403262143,-2.708337022534447,-0.17378990773521108,0.6574772417696575,-0.2534014622855044,0.42867364763451205,0.07960672405794134,-0.3098514563121964,-0.15274695448246906,0.09428328593470137,-0.21032227164429163,0.1353139669338264
-31.49862135979244,-14.73647450181549,1.0789877495561875,-0.49372691500973276,1.722636046256629,0.10832309001042756,-43.122241458834246,-36.930025658253655,3.65600297007577,22.452377410976364,1.888038782508515,2.016980735621652,-15.430086218498259,28.376036656529458,-5.788908964320875,0.16381697666508002,0.10400822610838105,0.0815535442466526,13.450926467063201,25.080154207749082,-1.894158686325215,-8.425950416943019,-12.230738310435012,0.5766339722803566,7.515090025673628,-1.9587120861108867,-0.3532330546173386,5.90338409595756,-2.5065189802997665,-0.6435228698342857,-0.5083925866655856,-1.1451008878253293,0.8359162453736961,1.232513238491985,1.558817006090548,-0.6289904362148686,0.22491641695222656,-0.15550187239252378,0.16052344168573154,-0.019601580195724583,0.31379473923958445,-0.22960379473749049
-30.628600823139383,-11.991652688006832,0.6221817445486025,0.5990742473370523,2.646846857872406,-0.532353050873045,-50.11946047960698,-28.08142166028547,6.31833793486636,26.05139773505768,5.067085688357875,-0.8607076684751024,-15.74446058640475,27.554867159769408,-6.671864180338062,0.11021105440498918,-0.04091514835086409,-0.17726421345026921,9.518769507636923,36.35446922893988,-8.100796113721966,5.678822911527985,-29.18832691867286,-5.1983633449636395,6.5386120770654665,-0.4775149112771129,0.20616871337218576,3.4667692525629072,-2.387027323752374,1.1452073996483896,-0.5496610514963122,-1.4468761920292257,-0.12585887409806737,-0.4076611068784191,-0.7890337687393898,0.2265595059773116,-0.011766802485726246,-0.04772571326079201,-0.13247972985263343,-0.11852111707044703,-0.4520344779380257,0.20546044178700082
-27.210624648241467,-14.88625337913497,0.6261680084014326,-4.096092395742548,-0.590738110308209,0.4244834411334095,-26.323588774490705,-43.16052960119529,3.047747913058144,22.834991348610835,-8.868839765846186,1.0216802328717027,-15.993449786394645,27.195985685667473,-6.6432822937182285,-0.5755275700759063,-0.15989868496427376,-0.10277222302911064,39.395268663968224,-0.04129202088277492,-2.967806425019657,-25.468711936147304,16.493501765374248,13.653206257757558,7.863637180559884,-1.0294463059777086,0.3682380920871182,12.30344797449906,-3.1557637225798314,1.1553550661567142,-0.7593287484636286,-1.1328659304098603,0.6034604628685952,0.9493811421846157,2.519263393976973,-0.7648048567002256,0.08587029743635154,-0.022152114183465438,0.05671074526564135,0.4624149679315362,0.28505054130117113,-0.05374550551183695
-27.395362489625825,-8.267995026114782,0.1659563350955927,-2.1436119050455402,-1.2443301785662537,0.197468293112238,-43.55459438436839,-25.144341518473038,3.0933097052353715,16.354962371020285,-4.2846761660210815,-0.45212997861617954,-15.459489933869552,25.053098329920584,-6.720964877287076,0.541946185586416,-0.2597263258827443,0.019955148354753913,3.0472403097641925,27.90841016449287,-8.167738037716529,-2.052210944783754,-15.842337557944996,-5.103890759786553,5.181206364845331,-0.586032202196405,0.08761960572100481,1.0008037746844274,-1.6399840680070084,-0.8417778150420774,1.5151422070564717,-1.865614048247167,-0.6514017101641686,1.0237349563361322,-0.09087648845222611,0.18159838398987002,0.3319923507697241,-0.24780630776168416,-0.012963585921709864,0.02831942843670272,-0.10856338970340473,-0.02177697687188536
-23.069307277272014,-10.870054654301331,0.39974691898608183,-1.81742617723478,2.537861990318533,-0.04691930980296631,-20.625962333574744,-34.72238543515215,5.63619048496312,24.27304724886022,2.490877728952911,2.23091010662065,-16.774968026348798,25.79229840292873,-7.488374647728406,0.1878803301513788,0.24837010880415256,0.046189074326443105,40.083210682336855,22.559257577998928,3.360233561573917,14.572934879932319,-18.943887790655,6.425809573216494,8.942483135945434,-1.116070870906499,-0.19777962469863541,10.491788563417128,-3.5900642196249826,1.8245928404857548,-1.5485766931937246,-0.7191323720725787,0.8128750938784044,0.21933577183638311,0.8435666151134178,0.13457683141601665,-0.03541653169298792,0.16423049565461267,0.00960005444311629,-0.1275436046885139,-0.1605371554941026,0.19215693201747955
-23.31176795694831,-3.9758550534556365,-0.6541254508467326,2.2402463751188764,0.03364681619412334,-0.18112809272868935,-28.293091671017933,-28.691727371326483,4.847127792016954,35.25060909805348,-1.647874588721488,1.8138974719353098,-20.876995333948827,36.775076272781284,-10.041891365900764,0.2640680308899354,-0.18581052151103328,0.02101139916697462,42.710131993225765,26.00853309957406,-4.353289085602175,-46.92639210145485,-22.91481551873562,25.11184360246797,7.682170490943354,1.9017043273017258,3.315861388309327,7.2561944902363305,-1.0844869293883679,0.3220914679604852,1.0888763244155975,-3.140478439127867,-0.8939636785228492,-2.131929287496337,1.953643781304233,-1.973679425885886,0.38236320636556687,-0.30499846317079987,-0.10658578931722068,-0.17486377861919522,0.4558839873831316,-0.30452601795236023
-19.93868588406816,10.549936245696513,-3.073408158127494,-2.781675640510371,0.4115061437415287,0.33995504025158363,-15.114654805026918,-13.222973487372673,4.101187218679105,4.585542494337564,-4.864445492823325,-1.133208954298822,-30.285612377070052,59.92731407880294,-14.897432751885372,0.6162900099994295,-0.06911792093719332,0.14767835004243665,24.12182343071283,44.628268403188294,-5.553653939501333,-10.358289966120365,-17.281377052578215,-10.801223854099447,6.442868184794444,-2.6457579087303733,-2.5858361392898184,-1.3806622980500391,-2.2410118671699184,-2.099693583055719,-0.6647894999890418,-0.43927525755596863,0.5384721739718367,1.4024726598233181,-0.3789377875923202,0.7513101575573901,0.2897974185886729,-0.2857262242724752,0.016550301275189694,-0.02451902756114122,-0.3365436917450343,0.12368608024174493
-8.43614118014663,25.26054348754871,-6.328681912518067,-6.117325244760852,-8.896946706750455,-0.10893169347326957,15.262773825769651,-13.117847054357782,-0.6943371349050388,-12.542929345569851,-10.984715149421978,-5.480981557103847,-42.505086360123194,86.38677947378635,-20.31819000529948,-6.350258647764814,-0.702687804819675,-1.7333023756747912,35.480914314008444,32.36623649526672,-8.83818957682815,9.756852298554904,-17.770787921810008,-8.07293060510259,14.607452027572052,-0.05371280701126206,1.2490867316710812,2.805819659956435,-1.9225324452693389,-3.005847434909046,-1.3611377984073396,-2.446958666481547,0.11282798922986499,1.208362751364871,2.6022720681983085,-0.31343221373717756,-0.27950622055215263,0.20009037079172345,0.07988596364668485,0.0697931662619141,0.4453336288410863,-0.06786928226262157
12.077355524423728,31.816289162071296,-6.896189750187495,5.937524160543516,-12.082702826587946,0.6100189657519939,64.09296717981049,-15.414659837418341,5.735202527332509,-64.1496754057748,-1.6795987124020546,-0.11217700748239481,-48.465990139458626,97.10049991272591,-22.831719328344615,-18.34581864148996,4.57989983183892,-2.005304855160685,15.639584155640476,16.73773327844051,22.550953590313643,-26.89100653128273,-17.5349806938701,-2.5706936314599105,6.761877665249176,0.18322384507777337,-2.1679774932663523,0.6289081944023973,-0.4654908694453677,-2.056239447816497,-1.6685793251627183,0.8362013059467283,0.6586552286008457,-0.41258853961504977,1.65866515354299,-0.9575162691321433,0.30247773502617603,0.031989809072381796,-0.34700012200735175,-0.3780975429464832,0.17179153960316582,-0.12301544678142413
42.14552780127688,31.108427878743612,-11.01629655768518,40.36755584806531,-19.480892698255015,2.5995536950701505,105.66041127839999,22.9175570955394,-3.690530544259303,-33.85114180734316,-13.315980025048137,-3.7229439677174265,-37.481260996241645,75.21893664382162,-17.738996645121457,-37.90152610853424,15.286428244313145,-1.2560325263937802,74.91270488207866,18.89659738722608,5.403174867902031,-31.521898562437592,-32.06355391952966,-32.44964557536009,18.62080742212476,-3.3517912607974947,-2.6884858279527264,-3.5888820657229963,-0.970273548816281,-6.2029403262752885,-3.5293761394154948,-3.2763753195062253,2.1353841537103064,-0.18722249455756884,3.3256534001976603,-2.429094270511628,0.04291571700998552,-0.49734673759931247,0.32776516890547763,-0.17647820324687918,0.8281679396523621,-0.548034576831425
58.76755126145483,25.817913428771575,-22.35180173639942,71.57059176567333,-0.6119924960527638,1.5589246688580438,136.37125960227613,65.99423732981639,-13.356651693743695,-38.761202351419634,43.866483180225934,10.889813408911213,-6.699970785993701,33.27744349434275,-6.461973882361167,-62.60885848132708,25.99015426251283,0.19342967361210595,62.76742860689507,52.16527415574159,15.506160102883427,-14.384143326598663,-16.1334241928024,16.370901823592927,1.878960012555345,0.8850039957655459,5.722859494792694,-2.2389994079492976,-2.2273245202550154,-4.69449077174832,-0.9274280190894959,-2.205360240106902,-0.5536951066137393,2.2431888511878117,2.0372743446568404,-1.250648341610406,-0.18238481893314124,-0.06824533602428903,0.025217267518569838,-0.19101134573804562,0.24171544661088437,-0.13821046291676617
9.717156251014945,9.143887777774502,-12.650397579942144,77.14218292627184,21.992340938696476,3.767272475863742,68.06196828201983,50.261146677933745,2.1965309193540428,-26.310182502465327,67.40416856009128,6.7681052683598475,-0.04244345389636267,5.846363219962752,-3.813696730549801,-79.76909178844343,34.471537619432894,2.7378947469783546,-6.108234040181436,38.81404319086406,1.6754487748945057,15.157682061675324,18.800310634296626,-28.33451753166446,3.9880891149681004,-1.5708257689531613,-3.3172508142374317,-3.7602776668823075,-5.910936067254486,-6.000422594446713,-1.4282027490530471,-0.2860770855703343,1.217291426619295,1.3084165188325894,2.0699868218345863,-4.166873755965632,-0.11723876749954788,-0.046700431669782105,0.14627293644246933,0.3589502718007672,0.612121050118451,-1.0293277359716364
-3.8905993514699864,5.370595401705249,-5.4464317154203705,65.34293704417392,40.65012528625802,8.00227164779416,62.700077662078286,0.33750562147689744,11.612815063407393,-18.63727729202253,51.62394689012083,5.886377831895809,2.66867717130781,-0.4083743132659692,0.627093199667152,-83.06143939908488,39.260167044019816,5.602527967382814,9.453987381853649,-60.20422139647027,11.89828887251082,-39.939587094577355,29.765628320310398,7.583301860204745,0.6607577296704843,-1.7274235090024759,-1.3709353717620434,2.715241392805682,-1.0789150268852743,2.887624947363784,-2.6156455085496813,-0.6156585661307714,2.2723601221708867,-1.0575980830977674,0.2094424282760499,1.3877419379086455,-0.4360233314410179,-0.13678083216133233,0.41824936549230574,-0.3808733740532604,0.16992961908334078,0.22318059932095335
4.705222935386598,4.204042570860647,-4.334093161652559,37.31578497997276,55.020595709771726,5.349229561091584,47.857396084927686,-2.4381234521084667,-8.62177825457153,-20.11215365992721,85.93498824891714,2.455041184404746,3.208993422455519,1.2901028888554453,0.7070328217428334,-72.23064874905698,33.098287132049585,6.78739031204255,-7.7591227818641215,-35.800214897529365,-46.167980293191846,29.575941066171808,-28.44520018995057,10.905429917406114,-1.196897510774085,0.011439505084699375,-0.6247946365464061,3.384654661773896,-12.847227899954989,1.653049510111885,0.25737157793986853,0.3481326656797247,-0.06335310306911918,4.136669338629392,-2.4749939957617464,-1.556109946610795,0.06069755070579351,-0.002455737302873561,-0.052353981626606,0.6781975319474384,-0.567068190716196,-0.48128391527062003
8.539416209735458,3.2376896655170997,-4.360959860272665,6.4964006290505765,38.347424098637966,6.707840668531188,29.88165068746245,17.343333096610973,34.655133694614456,-24.73705516494094,46.85062555388907,14.28827074694583,4.140363679601447,-0.7571712588668653,0.5391267096861825,-58.246448869943656,21.560491053689244,5.978268938929162,-9.1906012396576,14.169321360302762,18.64838328908169,56.76258708667865,21.722471594528358,5.585370105927012,3.545862398702052,-1.5606388233826893,-0.5758268683957941,4.620113283973696,-9.128216064834952,3.244503845701382,1.3463050382101016,-1.860763634740046,-1.298086152945151,4.738183915293489,-3.570659012903128,1.1410869456122401,0.29966651843278924,-0.25075060148271905,-0.01992451044005751,0.5618660363025851,-0.8253520544440079,0.23236794241119796
-9.674854981563445,-1.6455695582669845,0.13092579910777694,-10.236795790621747,35.76475498970643,0.8071111255227913,42.73800996372787,-11.88347165435352,-19.697499828155838,-55.501402958905175,70.54353025864911,5.814420048512672,3.4958509311342754,-0.8982275011202011,0.36360766264119476,-47.699438849662585,9.978355988086054,4.216646421182162,-17.116054130780814,7.058857887965659,-50.51282239108535,96.60458027166739,-31.077683041701608,1.8578291264023061,3.0282818112910035,0.781885502566856,-2.8797239123594367,-0.9246067570503176,-4.429359579352923,0.1992696525751818,2.153219598252617,0.70107099552905,-2.458716883004248,3.1743717550913675,-2.2942372960852206,1.1999313455433738,0.3327387134959002,0.1204723982087478,-0.5869725675215922,0.5651036535047385,-0.6830710573810445,0.36417132674717373
-6.699953873378538,8.529405056051004,0.20486371926693123,-3.9216070271203174,35.02585739369267,-0.42510941707368005,-8.379757210814041,17.547314418433537,-11.407946473074208,-83.38562245934713,54.65170596065914,4.61189458909373,3.4151804060178512,-0.19691819174063208,1.1842743277078578,-42.07254765946375,4.435307290599133,3.8868861689617487,-105.72901035004713,54.31957069112271,-9.749375628173471,147.5052391693174,-116.18690006667516,7.395693819970842,12.407157793980534,-3.2676905894886366,4.739308538297762,-13.889700348147144,-1.4009095613941809,-10.469778525831359,2.45072888705871,-5.844787002808984,-3.4302855356023603,1.9213808382445634,-2.8132890024066857,0.2617680403951363,0.48868548082514984,-0.6312035037943939,0.023492067437666412,0.7633508700022252,-1.1372361516186853,0.1551341853771402
5.419349583491228,6.608275965848576,3.6702569802923812,13.752232828792474,31.352985811609425,3.393960558669099,-118.40387937340128,-7.096163276197725,1.1151145743114637,-76.46863690591027,14.727357342979296,2.083013628129217,1.9259510809286493,0.22654904212364857,-0.0883797842615389,-43.99716597957058,4.553947167492011,3.6728110525237496,-203.56949742866547,16.451086974992524,58.929519188245074,144.3605273827228,-21.779705957163653,-19.092254158663977,9.53537001978056,-2.5776591938814266,0.9124504472865572,-14.21880320683887,1.0437474150497599,-11.247438547598113,3.280753624943755,-3.907605243358859,-4.186668818232993,0.9500519862045316,1.1309196735500235,-0.012934713010880762,0.7416761453027535,-0.40753635684039247,-0.4143475936097246,0.5215095672193649,0.03996554139383994,0.26492968414919227
-64.94436385131682,-0.40164376419379355,-14.320362825731344,53.62821407043425,46.14206496520573,7.932595795935569,-193.2618002003967,4.84938891395518,-56.929423287188506,-8.347321783539797,13.65562116973827,2.579930628358768,-1.738850918197881,0.030523853759236302,-0.44314511480032787,-48.306609427893534,7.667437494634881,5.134503216897414,-221.41845348581288,8.503430040117115,-29.69562543495268,250.09795776329207,-4.376495070036337,-38.41088668695084,14.808351081671802,-1.1722953953949864,0.03850931431696902,-9.423366786483447,4.440194633541876,-7.8403622337386,2.1044315352604013,-2.3986902960362237,-2.88054383515913,-0.7123454574861325,1.921682737906646,-0.6850200019879419,0.6673623313994416,-0.027630169705742995,-0.44777541865294296,0.13190908954512992,-0.08828977251784546,0.08603214080499713
-92.6699202523956,5.609078073571421,-7.205999216090825,94.24748971030832,54.6420048147253,11.638091605805917,-86.62780362375892,-15.699589845091102,30.32228124474513,91.79264358598036,16.221419547191612,0.20898667925656333,-5.488345217845619,-0.2893640146937806,-0.2850005118389625,-51.78428221690012,7.676834376048017,5.757979181378811,-35.661369681857096,-31.502583006873543,-31.48283941835629,63.789470043805245,50.23133933233139,-20.88568236242845,-0.2920727996886998,-0.9128242328128024,-2.4837428288647745,-0.17216361237692945,6.5746527871849985,-4.561864533217575,-1.4471557340811423,-0.5610469905920801,-0.43087090137008044,-0.13675835203545889,1.4078898805899893,-0.625912709443389,-0.4810350767149843,-0.17068535134235963,-0.10388469634296663,-0.032266738189375595,-0.035878333423553004,-0.18039145913898227
-0.025876525438564373,-3.292557844010539,-16.96287880648262,132.52072842606492,54.81061143467473,12.803060392001923,73.42556396927442,9.20362038087999,-32.26212860023373,149.81278870964928,78.47523323411512,16.72850023615402,0.737077780457596,0.4378881840174816,-0.6699624987029377,-41.103164304105235,8.087514152768092,6.354172586244229,201.5942451879817,16.86573867872473,-53.55817050346119,48.61303114705716,-33.09544761820113,-7.419875606516027,12.487400819919623,0.3732622022576335,-8.05305377435736,2.814101826538643,0.3881192147299479,-0.369221227477963,0.25890735313401625,-0.0924416500625373,1.2064456992091148,1.4312862099460901,-1.220374393818801,0.6579369120209344,0.46662191701071876,0.0857783609901507,0.07058189252674459,0.23869377718912957,-0.2756260391485072,0.16880523029508443
2.1996345367567125,-0.4004145093260369,-9.60760707645359,161.77239930897133,34.67376051729028,21.280042901221805,62.9498090995816,29.321495326337033,-66.18424719479549,158.06967208932463,50.29287604048087,25.012332126037474,1.1368006346560813,0.28054872949721915,0.4614149086412109,-22.763730125550726,9.258828190501275,6.8733930197490265,173.41852410600285,28.745310757632602,-98.67532016123292,-31.394586228834672,-36.01307398230528,0.4159207282624329,-0.6587672026900757,-1.6627058280946199,-0.8995639368494697,13.75731945423617,0.9241548733412958,9.10977733293092,-1.3552785397130946,-1.6242418010387016,0.6168585184729535,6.284439223049643,1.8067846320394225,4.8408728380714425,-0.12681522840780043,-0.5820880253623257,0.02706828329441048,0.43773432437981213,0.5222739030545738,0.9893549228249169
-14.56656718377198,1.9456204898874119,-3.7821731205177236,161.82347448882683,41.83427041382025,19.106712843688346,5.193888739227926,7.0265189419563505,-11.955303443046239,165.50619326629558,45.33996810012094,18.31539958694217,0.32167110509756425,0.0315225211891204,0.5008015999418768,-12.36026644331667,7.778652769693377,6.0472580708571675,152.92230650371908,-3.133523102115218,-19.941163307572833,-31.73941531748674,-65.92852331811218,21.47554171433613,9.693475480467312,-2.6976658010840016,0.5558412632054377,18.640432523357617,-3.6133429931639522,10.714734105788457,-0.8351533365914049,-3.885467551742715,-1.2791166091475772,5.969545497327212,0.11116322389850013,4.363393907988256,0.13012432029752888,-0.33710819652543245,-0.10851433574131333,0.44093234067958037,0.04688907557856422,0.8481565501373763
-42.56269404071748,3.271208611700769,-30.666427009405613,147.20701312093095,41.49925853582847,18.356814744315294,-36.42934017213714,3.333982869060425,-33.87308580335046,209.90006686807604,42.008305962512544,14.172064562321353,-3.4072969857325885,2.9899234910037706,-3.5413721304636523,-14.503092015302764,10.775540068031885,6.440419462105116,149.83931322468672,4.215158021392424,-60.91800661163858,-78.06531594030031,43.60991247389202,16.505075993311028,8.226574342698513,-2.5000807150747497,2.834263988498936,11.368255322239792,-20.538330843192217,10.75713977911001,-4.231248098503586,-3.4620969015523246,2.131908262773946,5.053351293631635,-7.289907312672994,4.13789982905196,-0.4650177467869292,-0.44789307819510876,0.32526736295298964,0.31022048849825523,-0.7972581687099448,1.0259712974308333
-47.69953072686072,7.020240867069855,4.569925159325338,111.07879482722917,37.33768349562299,14.051203665907426,-59.8779873167454,3.5645913427569926,7.897970400148529,180.19282329446062,45.77418234383789,17.071973068387205,-2.115747163304727,-1.2517166894851293,1.3772919413432536,-20.987488018992096,14.781186633266767,7.415971592817628,105.86532460246971,11.122989130605962,-7.855388535461031,-51.67785498512613,-54.10286604975418,26.82784070798249,8.430281981057103,-1.4566704139051274,-0.24765000792247205,14.385502220891444,-11.594116670481496,6.653360311852773,-1.3366418416479888,-1.8519953450514193,0.4786437426490022,6.497061804732706,-6.233931119677473,2.9729499892014424,0.08577953913251181,-0.2802410571001379,-0.0013401142400066776,0.5072064472847125,-1.1950197142975347,0.56485142963891
-22.999429674362684,3.501669457937328,-4.749858553021681,81.96869681618084,24.290369609760184,11.619535276293101,-14.381435671609287,7.696142458810531,-11.4523397173343,140.435066632228,16.56974366156398,15.993925879990721,1.3383653299960037,0.30415061978776325,-0.919256905366192,-30.786344767493187,16.091527876262422,6.529263505412218,111.78009224961211,-18.08550669282736,-36.153133685728875,-88.07334997377684,0.8458238497029567,8.08354884490164,6.201810854864659,-2.0029735669134268,0.9623860579213914,4.006414922353404,-14.282346181127002,2.9092754649922865,-2.1977152919354976,-2.1787557745349155,0.36480070702725087,2.719653707486481,-5.175300860766235,1.3364724655019047,-0.31243453705055696,-0.27709175875729847,0.12757927936209895,0.08558677673282142,-0.6676390320878783,0.4620211884334248
-19.888219005134776,12.214182264833168,4.050643932554449,64.6372598826881,24.51229124413735,7.328071512199761,-35.22867526769648,12.0038008353749,19.411375425553953,105.26076493349998,22.738132484763877,15.195988358682014,0.950484972697581,-0.11754629756760607,0.6334085084628044,-41.54591850551782,13.228744769906347,3.591889580654486,57.66911349512782,11.54025136236072,17.78497140174969,-25.838385320878107,-0.8425098708191721,36.99245963797468,5.0974199692365385,0.30259164573014063,1.7436546419681127,15.928237490936663,-12.545816589369679,4.453218013615866,-0.4366407682342548,0.11151910018994907,0.4054129706483917,7.089627756659028,-5.244593684579037,1.707117577922749,0.14225190362533616,0.2868909550640631,-0.018503692734076167,0.8300506141625601,-1.144067194333957,0.3844818604029067
-11.708785012045633,10.737091430224394,0.4962103257784774,50.00082417426755,17.927677009240828,1.6720774236114084,-20.771620185515534,7.05954316401399,-5.6602959236423365,42.88668580140683,44.106657467213225,0.14400061868153008,0.951196762375435,-0.04642924638392987,0.49219980830033316,-52.63952554478201,8.244007054195752,-1.1467798381915648,7.09501203494792,23.337068851039845,2.7514489375959683,8.11404771626439,-34.60593959505548,-33.61629400122973,8.201387694928593,-2.0160638567749283,-0.6639947106744273,-6.032647533679774,-6.922354488011563,-3.832750816275718,-1.2395513856240363,-1.8886885716702195,-0.1007200982987288,1.298843118187974,-4.302347350049846,-1.1671682319601704,-0.05716387221301008,-0.36922620501773185,-0.01954684137314413,0.02538045740871642,-0.992279867758721,-0.2558694534108864
-11.252381990382625,14.064833109208926,-2.04923288054105,53.20423823054956,3.55274518568545,0.9509595288562881,5.138297915571694,16.950561556201272,34.54576496296068,84.14607368411043,29.706526960534493,8.562721992837169,1.3769516090284206,-0.6281717715743115,1.020044342210271,-52.48542857090857,6.750896712550794,-4.470087587830754,74.9952324564124,7.0284138989214116,14.130469934674114,-6.806230452047389,33.85543139227668,20.158329501130602,3.77342569083226,-1.019659936096871,0.06454740619036822,6.643910456319868,-2.477334120492188,3.2447899212274813,-2.1364714477735207,-0.7542685175712385,0.7660382394931056,4.445419652117741,-1.5008199659718373,2.784311180436751,-0.2809526121937782,0.0593176499558231,0.1011697559566804,0.6071365149011005,-0.46422826633750847,0.5369073547867855
4.188036166887851,14.975734390097385,-10.305323727511249,50.04343009270938,2.995701155264333,-2.49359718046687,46.64740209665125,7.17815189085478,23.10231019902906,49.860152593500985,21.24713929586983,-1.6882364784897408,2.893718376451313,-0.7551071205118817,-0.03516540172120394,-34.40110888876485,6.380385747192943,-6.731924061199376,76.2023256054345,-54.89168804599994,-6.755786510905545,-28.13822050730018,-9.588715216957157,-15.599182886267174,3.9923140810529265,-1.3141762308919471,-0.5898689160513736,0.3042332478622171,-9.160844801448718,-6.389547520215286,-1.0213442916205144,-1.0977193597690453,0.8328007542173258,4.244282248047599,-3.5746339113260497,-2.6528026578123765,-0.04328721722611783,-0.24850719955335207,0.1912545308843948,0.6461055129394869,-0.6548635986899543,-0.6556191408405331
1.9641377914049578,12.150766887765153,-10.836918398756936,53.654725504565015,21.321974445375115,-4.3618014107893295,71.94385668257114,13.132208478604884,29.547020271011057,-47.07918670412409,67.83577288094475,-1.4618745571260803,2.909528493491975,-0.6119156296475222,1.2335943733268127,-5.344290161013208,8.072995593316566,-6.291756348652242,-10.416419855039818,-2.3575019746160084,38.32848030942499,11.303645270437789,24.53973400958588,-7.541651783190284,7.275498793780525,-1.1090007034861165,-0.658258767469857,-9.393923675688773,-0.273267103394712,-4.818345876673789,-1.8881300274206487,-0.6739784596172292,1.2698697194994417,0.5575262043238617,0.15629173666162693,-0.32423821402589403,-0.18910658036500827,0.10590980327216923,0.21717727779762178,0.2415666396875677,0.039184788588707775,-0.037492069618023885
19.182629853301723,1.3742111374388382,-7.882559733247245,51.87883616753589,26.4592146848114,-7.043507270118365,86.38708785585781,-3.7405637690125255,18.52421593371315,-34.03738056377843,63.343815949069324,-14.605393187458915,4.580231747009231,-0.7100204423737705,1.5763118354853125,13.257538442846204,10.032556001124927,-6.557764500297306,15.18461077433069,-33.22952495891648,-1.3603621251047977,9.385327141393724,22.437303013770013,-21.223956921568146,1.8067387435366604,-1.4340356374325434,-2.474258610849382,1.3855435234278801,-5.69713652917357,-5.235458327989597,1.117177493615065,-1.2862748303882112,-2.2788683597308763,3.3808472222247667,-0.7108349735379913,-1.440534580792511,0.15349679285539883,-0.2884594482642043,-0.3843750396843928,0.49874176054967195,-0.0607096176705396,-0.3060498489188973
22.305520866907596,9.88658399202714,-20.079974181315954,40.227514894425866,28.38413132990663,-7.050693932749736,122.02125590161295,10.215003670864007,12.468423382470895,-71.16073370635462,68.32342671133823,-10.160073685481951,3.8506178464676286,1.096568400566363,0.446298242425037,20.376227841478286,8.573958812057265,-6.356118535486555,23.10670744275327,-5.319875567475251,24.33045390250963,5.226541498681528,-11.708461610509987,-12.011825799566385,7.310194837784105,-0.6595615971901316,2.3337725288285203,-3.016166390894572,-3.9676045720884185,-7.691558732805571,-2.0851888348731578,-1.5764375274041396,1.6914414869906929,2.9165987007098026,-0.2106306220412175,-2.018826969490131,-0.09115382434724766,-0.23193100447696685,0.26443869329562664,0.5103247851690978,-0.03435005098227721,-0.5046689321797273
17.41535525479351,4.148464307667108,-11.881995706330352,17.236389355012314,20.91853091259036,-7.659533790398533,99.62356747170072,-7.2381953513912745,1.3956231948998714,-103.53235088945178,72.26905577777643,-11.835653126664237,3.370323269172613,-1.0846779816099597,0.14699803539331224,19.17027908143531,5.980941973002673,-6.406173047631635,-46.12521357557458,-4.006923264882916,12.49137015602258,21.810407514131917,41.80255349899306,-28.271333076745943,4.656264131732869,-0.8174463001000566,-0.31409292380711634,-12.462894385576716,-0.7432397851482475,-9.251475872638515,-0.9429301010775687,-1.0010302726455405,0.474396678873358,-1.849413723682292,0.8036423553522716,-1.3786247205750153,-0.14809997218442159,-0.027345251076808047,0.13775542219977252,-0.28842212246108323,0.05071702273773919,0.15779017811895024
-1.7297587066121827,7.72504494712337,-4.848896964540557,1.8457931711870232,10.20027170439158,-6.3105906630996795,70.00401650147772,-9.690082514914478,3.6281032097579944,-89.82482494660987,47.30710618915543,-5.719232332793596,-6.907145353419315,8.387226426575495,-3.0295354866535007,12.51838513755826,3.7516973473682875,-6.120265033994567,-42.274553782200044,-20.115501051697844,20.89418178709659,24.09884152158994,1.4992884846461696,-7.595764861252965,6.128530871261946,-1.4697101684865506,-3.766316740328545,-2.1009203846978757,-0.8448268237043923,-1.7520022028776676,1.2173138323305368,-0.8904009633263977,-1.0440011688330189,-0.7274315575172259,-0.04849682538281756,-0.33778617356109175,0.5224003512751744,-0.13649032636482106,-0.3244507485278841,-0.0740726434091481,0.19174556749314367,-0.26746073883723054
22.104297647514485,-9.866370629585212,3.966410276792053,-12.059537670626653,-0.1438035249732534,-4.935784227319664,69.28767028648508,-62.57916885915516,19.581261859410137,-104.20908553347128,31.516295277076896,-6.5209120363996815,-16.120681243373646,41.53433085698064,-8.628739104936658,3.740446608187163,2.380054424881645,-5.344577975355841,-44.90648366919388,-38.03105891351005,42.58430520893827,36.69416712941387,-5.192194963691428,-26.569507297355745,5.056987644268269,-1.394905321640552,-0.955246771629231,-8.50491484489308,-1.481568134591238,-15.393440899819979,0.08843561156671384,-1.6404897588496572,0.356492888401492,0.5087377803012652,3.9004325652612843,-3.8358362572161604,0.12346239817828425,-0.27045433183879297,0.18697928973780245,-0.1603606343107504,0.8816505918975478,-0.5761718302436519
0.5333996820001088,19.975156809105492,-2.5310666173681495,-17.474524437544268,-3.237312672411989,-3.7904987932233842,7.6968491319037025,-11.2980892803923,1.2916083258565607,-71.06019304394738,7.985687565054635,-5.723860275022364,-23.72791270720996,82.18984581291197,-18.445346817963856,-3.4838432087981483,1.3492884075137908,-4.454869753059956,-49.61901376517204,10.779104229423877,6.358337294129754,18.91877794652519,-13.070719902402823,-14.509038442982002,9.52946311919837,-2.9914115229345146,-5.666960392264261,0.3959133546908645,2.135108066755827,2.050893214380098,-2.1095395953846197,-0.8600145277174635,0.5641389034396357,-0.06687948963037585,0.29122987080300033,0.5309041869871981,-0.23558255598884675,0.049788707002907544,-0.15434658400640255,-0.15799525020738314,0.11313801837073142,0.10102267424934382
12.327033952291192,15.190377106457984,-3.9452498692490527,-19.925172858958472,-6.852457141227968,-3.826458102023098,-11.024097067655362,24.38965289077955,-3.960980736261645,-36.121182822078296,0.036316155175453,-6.512385758908838,-25.922242406431373,103.32302265767932,-21.72549604408858,-7.750066198459155,0.47451411751279127,-3.8623743959320116,-18.31257845418652,78.117799245067,-15.28983451038151,-5.038818209820633,-53.733381915638,21.508184122136907,8.130752103194451,0.550392483348234,0.5490552393756786,7.852985219565918,-2.914947524486502,4.775437940233386,2.6858099077392756,-2.9375120609328507,-2.1302611627919195,-0.5117387858208746,0.7788863568641481,-1.0573083571735389,0.4931128025132297,-0.38321263276613565,-0.2511234968468912,-0.08954005717433206,0.24045884821503477,-0.2230546434246859
12.041900480444646,-13.452968210339257,3.1728139003047127,-15.833396856322745,-7.714557240046679,-2.094704895800461,-31.362904414019464,8.47395455209027,0.2797096277228465,-21.332248363952154,-12.572792467320111,-4.58727735576471,-24.295794741157145,101.24241189052876,-20.37168042253329,-9.626678301843873,0.4651754008921729,-2.184989391719361,-14.62886010825587,46.73155450845294,-15.711053854664948,9.435350440035666,-19.956839128543763,-5.1624265988959115,9.865710783280733,-2.58897756867563,-2.151008816502974,5.028877996413867,-2.239997280563992,1.8437885095891957,-1.7653962764842315,-1.6574781861969972,1.0608900026923416,1.180307560301863,0.8986558203788527,-0.15269604720849766,0.011638245455685665,-0.27225479890079957,0.06549967737239704,0.01407606532823936,0.026875466873840126,0.040257292090525976
5.789222718350031,-36.412498311247184,6.638404245135328,-19.864659313318565,-9.382551164313256,-2.310557279965246,-46.09984869846841,11.367647145149935,0.3913073783671936,-21.904416827600084,-22.431231966202056,-10.070018533347293,-19.58728527079854,84.62782330989474,-18.46071252313874,-9.750522133809186,0.16716962533525942,-1.94233309405813,-24.067455391255198,53.63522329011516,-29.373685560432335,-18.959102521240318,-22.958561244453747,23.76913322038628,9.473917949454135,-0.039145982392052234,1.7738211508607895,9.363872470287479,-4.841356952904167,7.453077411649464,1.3897630333322348,-3.309769048414409,-0.21685737679649736,0.8188270060993084,-0.5175914124432568,0.857210856052067,0.4895064778808992,-0.2688966415203243,0.050007817818144285,0.0762190198321926,-0.24417751895835849,0.20583686458761513
7.792920525699517,-48.91349808006443,4.709545990323632,-12.588078612052286,-5.292057384403031,-1.73821922826787,-26.25778875555076,-10.352802177250307,0.3466924871331849,-4.314576935948834,-18.786268433762096,-8.953971421072932,-17.009542502643892,69.97279194188472,-16.762509631892524,-8.538370364568195,0.4032194873389433,-1.220978188529033,15.169716979767873,23.116669449122416,-19.80437911774514,-5.2578648451481325,-19.057130023153164,28.180319926199388,6.519548761573963,1.8598854993710972,3.144523275386682,8.23368057600112,-6.052369886101908,5.986291580196158,-0.2639138311890426,-2.728526537858123,-0.08082703226027046,-0.5450057105501777,-0.17367239024054668,-0.21769340718884478,-0.0843455437655595,-0.19519234361094565,0.007122789618670545,-0.19027772177870436,-0.12798598151014268,0.019130007551592783
5.294127906764708,-47.221642606721936,2.9249844429262404,-11.547700042972602,-6.932160113323692,-1.5462922181766325,-28.94008965360688,-16.73057781164217,-1.3923071868043329,-3.1428461976955466,-8.487294643332788,0.648162803047259,-15.462576890481003,59.78177588583393,-15.142663021908616,-6.841061207597075,-0.2961376949816319,-1.073156441366368,7.835749091319705,26.033080929985932,-9.388422703813312,-3.252825135007899,-20.207602292935874,2.750020312502631,10.602791088217684,-2.2764409738320674,-0.15673875697589104,7.721238468416887,-5.564358051050933,3.693521279067247,-0.18245306568192898,-1.9959010202316878,0.6193041285911752,0.5630688040716251,0.9454614859866959,-0.46063463064067384,0.2653750401488462,-0.049007384126129726,0.04780847846086415,-0.0038605721619008144,0.059936054841406024,0.029146377179675848
4.797945281605426,-41.30039061149488,1.990072316571882,-11.653278313393177,-5.732232717617161,-1.581648356757496,-51.97738392435079,-24.846079326171022,-2.453937446137636,-0.1334735098621073,-12.458244004056814,-2.5666123980266655,-15.560487037885473,55.3553002875268,-13.251821479159622,-5.297180993361539,-0.29544982622179916,-1.0259047081357726,-8.878127684736723,12.655053301708378,-12.497358928111563,-12.537179672911517,-7.333515670076417,15.298937942603102,7.22473406708848,-1.1002719241545778,0.15758531321480693,4.997474689572572,-6.372494975509957,0.6527431610462741,-0.04140853049740524,-2.2639613043994693,-0.24906917484220528,0.7500313365253891,1.0934332357536467,-0.6358212865248848,0.15742112685119478,-0.33512498776471683,-0.0961916419853545,-0.059392686955463875,0.06761735393709732,-0.013922925267512471
7.65945998904659,-36.51550861783373,0.3501178339980921,-0.9619612833985387,1.1607328873262588,-0.1565236845461163,-38.89085097143713,-16.908892299690283,-0.5912132437167548,14.018746542354338,-1.194511324346847,-1.104764059592741,-16.563618268978967,55.59294173629839,-11.709123194991552,0.14965808126840793,-0.3436644141086172,-0.16498543170119834,16.09438512679214,31.93925548167582,-11.214672573663702,-5.639780796303103,-38.3234117872106,17.12195049010961,2.3969531716749963,2.4668250532239084,4.364368290024955,7.066093124892847,-6.428577988651293,0.3291351672810942,-0.6876167662416375,-2.5059370631845552,0.9506707941114096,2.8664737112172656,0.6821597106377959,-0.735826138376765,-0.11781892134209257,-0.20743105294973482,0.30816127297894463,0.42776059571342623,0.2137776271805136,-0.3676467888610319
1.52172046834779,-35.73341252795307,0.8318725130318321,-1.140877627101395,-1.5991093396284315,-0.4021892032901587,-36.83784832140513,-23.328004013217598,-0.6952403214202175,12.720539070091613,-11.452320179011952,-5.443886248104093,-17.714930437356983,57.300898770490065,-11.341266141416266,0.2946523094530251,-0.16057288885079368,0.01385341194504667,21.445601658892116,13.106686589588392,-11.966630774531877,-21.938826357909843,-13.286779988004069,6.1187709350825745,7.424937290287335,-2.4281268153662285,-1.4079756743160392,4.525938902107971,-5.086781931315476,2.8646424489740694,1.0737442980496135,-1.1429614646657298,-0.3863435180180333,-1.1187472877729459,-0.28066739048596384,0.6814553145603477,0.46257107854701,-0.015985904177712014,-0.16301238300849386,-0.42486447197343313,-0.5546584918325221,0.5801722325822803
-3.9209674495483062,-35.65037006316604,1.3865944448800311,0.1392934163056405,1.0037796514773634,0.47165490461617277,-41.81739321568645,-27.436727697571953,0.028745113698413614,13.832993619427345,-5.548427291207504,0.1888671914804092,-18.467097774457436,58.7533536499538,-11.207087564253092,0.30182971568770045,0.1680845700478871,0.1686602590754303,16.78522327502923,13.339040393100403,-6.115956399760478,13.860639120585532,-18.769996001612686,6.071670630082587,4.864733746213697,0.2477642865962787,1.82983340938659,3.826602740146158,-4.453287349002901,-1.5712641464418187,-0.3919153095842489,-2.288541173489189,0.305262650902649,2.0442172910829064,1.3556586641831303,-0.8240310094960493,0.0453436050927284,-0.3397397093308871,0.06915741506543127,0.2782439241823307,0.22436440677051442,-0.23165496387186102
-6.299032122331581,-29.3070136558292,0.6986554931072919,3.835920836145941,-0.18878046972458826,-0.35483188003834565,-39.656251278486444,-9.989926374282199,0.8762642155653936,21.557139471485062,-1.2625230739157731,-0.19878792751100471,-19.49146324788053,59.09414194855132,-10.657942151275718,1.1055654356448172,-0.3616752250200185,-0.1551730655896726,27.051642804401364,44.19366038496744,-4.830459724248314,6.30224521626916,-49.36350990627332,0.963963432889338,6.0729356316772245,0.03999779783920917,1.6181853950688778,4.62078290136473,-2.9140464345128025,1.4458753860131193,0.5772989374177294,-2.3562289347885708,0.2997970209002641,1.110896844447352,-0.33011005875920146,0.3115735311265515,0.14328280595075818,-0.19020755615933557,0.14682150237564967,0.008408297907664527,-0.19452179821650736,0.07046979710970944
-3.0426846707807056,-29.736425172735924,0.98600196099166,-3.906677187533716,-0.46535148003558885,0.3865607149030495,-30.06990660388552,-29.305054520120347,1.0396204580999506,11.79638367999772,-2.0957381232979966,3.002322705960681,-19.872115350702888,58.90881450275566,-9.020533656769334,-3.7107431815364453,0.6396693628139241,0.4647973793876496,32.16444041584438,15.791703482220285,2.5469751523372293,-12.7770464837193,-5.521121388018074,8.814826002727088,5.27858219752624,-0.9350041115294596,-0.24906399025864648,5.4266472057270025,-6.3751906094803985,-0.6976974470185542,-0.4867317479106358,-0.8539369828227151,0.004673685029211258,1.7908233305449497,1.0493608649033757,-0.07636749573378555,0.12508788579805713,-0.032166210278945354,-0.17516032390927985,0.13213499524948158,-0.1557788876059533,0.16830011136986908
-0.5764696831447296,-21.28904557369085,0.8061503189113343,-12.891733202214793,1.2945958618765683,-0.16818198069634166,-38.2663101419239,-26.64578750866039,1.510260114057228,0.6063745200934842,-4.24222444741172,-3.062877627100287,-18.80334554474501,57.32177786135902,-7.066581067165124,-5.545002956570563,0.9247457748499353,-0.07273777290632201,3.500932284036391,13.272134781954056,-9.734637164986472,5.333055850642166,-28.736405757446217,0.17571042660050762,6.386684524836981,-2.357720626380708,0.5698533701215492,3.297766325444991,-3.183293413022639,-1.2119141692696604,-0.4418674575600831,-2.1821398706955764,0.957645364464034,2.4807041621567736,0.670520076326085,-0.40383618024913165,0.03395541498287881,-0.23391611866974663,0.22109508805624759,0.36219608309784473,0.17656369299115096,-0.24010198659725823
-0.8350761030802288,-19.675343856803917,1.3529421532451558,-15.484080258758203,-0.09747961539660029,-0.27647953511990714,-33.1396667410367,-29.269122521366562,1.4895878821757556,-21.593386750656514,-3.884663238477941,-0.9105906294866489,-18.107271054364418,55.799609030967055,-5.7560379064296665,-7.150088633179307,1.5163541531118332,-0.11580923137533664,-19.569825054672087,12.33071934910612,-0.2327794955272475,8.993048170597365,-7.2187755790625925,-2.83747687419043,5.422428992585102,-2.273412635825128,-0.7998243703280965,6.0017636772374345,-4.988979415870453,1.8073523404677512,0.6131806539929973,-1.6941568048371956,-0.1605140321258703,0.2755929535157324,-0.5318237088677118,0.6147760122886026,0.17003671763262262,-0.19540628624956852,-0.02240134782841332,-0.0617958397394704,-0.4684412979902392,0.3378669186246188
0.7707524401873391,-16.602961635544652,0.8783159853102053,-14.553992086579349,2.1871748194073217,-0.08856544525007712,-21.087812128014328,-23.60363301068139,1.604976917418993,-2.629794637027957,3.777490042050352,1.5290508793529822,-18.122661815282594,55.17154315335475,-4.929320234403901,-8.948239582763563,1.8738035295366258,-0.06786451188419027,20.66376346655683,26.980048225459367,-4.843053539255113,-9.278436247441695,-27.993134764930375,9.438626761205755,4.533382328357853,0.5827232158812691,0.7718469629503819,4.796324616755235,-3.900661721168293,-0.14047765788630862,0.3040804810428805,-1.1136569045746691,0.04378703878663967,1.7946081820751918,0.2799247406261924,-0.16321449625435996,0.13256579196895707,0.007686126529567971,-0.048641263257721216,0.2292906454508624,-0.0017737606604821977,-0.1047820357550619
-1.0948825321874855,-15.26608052837056,1.1480908663382299,-16.002389307377445,0.8961675305825028,-0.2604169666131561,-22.080602711844776,-17.024192148768552,1.5234289818931792,-15.722408709512365,-1.9129895046970824,-1.0637432913350209,-18.58319774144933,55.06070582310054,-4.6725249462049945,-10.14067020257492,2.7907695470976583,0.19674930931030776,-0.9403344724852385,24.199993734336793,-4.306329002560201,-5.811639018321899,-25.26216076357466,-2.4618512872227427,7.470684110685987,-3.0688951169992955,-1.1281228991722634,5.1407515463128615,-3.199408324045117,0.5977039160023754,0.3173517887615924,-1.3301127169274287,0.514883576176258,1.1260791239451258,0.4231343965433314,0.04828490899134291,0.10551748824072085,-0.08443736466695681,0.14559759998530683,-0.09126292350914433,-0.03439042983144826,0.06596980240551446
0.4207816107913829,-13.899680864202308,0.9749892626853565,-17.159095030134655,3.989338824908212,0.42868590702268194,-13.748333897627168,-29.125558154719563,2.9749874437590726,-7.727719518143204,2.8586275639264973,-0.12504777936132266,-18.790749621461984,55.4921497782208,-4.529671754420974,-11.395770775978628,3.3584797957624724,0.4293251690135685,19.001892039906604,13.456654702492397,-2.323957347064971,0.07948993579144106,-10.641878661734287,5.715033990310123,4.042776779663023,0.3673001575643759,0.6324093563110416,3.7979655528554086,-3.0291698869798305,-0.17966070310775023,0.29460593824784764,-1.739174913392751,-0.37458505830693967,0.7493818122442127,0.8111930341785114,-0.14633957299166894,0.09477662783751156,-0.15735303299581285,-0.1540467466799609,-0.09344607166899162,-0.033901774268011525,0.08669358007538124
-0.4899549222487258,-13.01940262137468,1.4036066180879379,-18.88868956996686,4.358030240136093,1.0975357281188671,-26.165559176214355,-24.72780104186633,2.3926252721359536,-26.48398753613231,2.5127539661719616,0.8009157409432938,-18.568335224575165,56.42138380737821,-4.252199143902094,-12.530112679169696,4.490182895038367,1.043190882561098,-26.995866581228487,17.723424601976564,-4.69316620382326,34.243061825152054,-18.396248809306524,-13.539790349402148,8.80007989251999,-1.309215696300611,-0.1991300435663884,3.722992810407234,-3.1268793092725486,-2.1457134823666695,0.5098047568335072,-1.5858901732145922,0.4881887329735916,1.8466537069172637,1.4905883662422943,-1.2666949418491449,0.33790457295681603,-0.19879280538439326,0.10039567502573127,0.2207765093777759,0.21347611968837313,-0.38659861326370004
1.6645309619821245,-11.727447219416108,1.1746499548365519,-16.603915168110007,5.72383406738412,1.4300437663025023,-19.380734052924442,-32.93471337451608,2.6647173576668868,-10.622955621785056,2.4065637943548905,1.2804775012976122,-18.891257647610658,57.72952751210629,-4.0446611680589735,-13.498731856259111,5.3184355794630385,1.2224670579713892,0.997295868393986,3.57772032855198,-3.069980456845408,-13.378981490428844,-21.959261646576522,9.740892992004667,4.686365624115771,-0.8404026576843427,-0.08831372728130271,4.20934866911406,-1.9087798167883532,1.92544158860924,0.826381623829525,-1.4120153578476689,-0.13395021311824046,1.1734342788350431,-0.2059693877539025,1.2177350289753957,0.1531190627509034,-0.10296688774284965,0.0019502125156163172,0.1023661766404424,-0.27578359416703735,0.38013779009554
1.679215005211919,-9.648992115445987,0.7382844553336793,-16.430133710044025,6.935430317540008,1.3339417036655363,-13.355923904111922,-22.248442003017686,2.4764144369073637,-19.511127275687258,14.82146310221957,1.9598583186490093,-19.088444686920372,58.3246807271101,-4.301431681348924,-13.890863251932295,5.682831427593033,1.3471089597292911,-4.272924906244719,34.483394411096846,3.3563810398708793,8.427754780193151,-11.8216660861159,-2.54592285921449,3.743993932885642,0.08742413482885736,0.6468672568515702,4.697305351071113,-2.8111861400985503,-1.5085643484769993,0.815128203462954,-1.634710203339377,-0.23349279753526342,1.8119244593838753,1.9868114927788798,-0.9219988305315842,0.2706508646650306,-0.10177730314816492,-0.10035116458267736,0.35439851106061854,0.38973798502308127,-0.32604322656853263
1.6907658985196976,-8.764048962281914,0.6107750071640364,-15.706340123094861,8.241839674485405,2.471928433247821,-16.45254989234839,-25.444074746479963,0.8947053470880688,-12.885856630110869,13.097735107934314,6.444262020333435,-19.0289376576141,58.874905149645514,-4.253741443496101,-15.090740310715553,6.295316009591576,1.7473914572713918,3.4520471017121444,24.136621146706577,2.347520466507236,5.833069646591557,-22.933831669816207,5.290399598361638,7.115730012350563,-0.17907057678747534,0.8254177731538852,4.95879194955787,-2.2401028752333323,0.29196330125893594,-0.18723076083517232,-1.797701447800402,0.37889343316848356,0.7654055200464458,0.3728252862315691,-0.5010831861244893,0.05308232024140565,-0.19737457707816347,0.04554506220859154,0.054886801704284824,-0.18352730722992086,-0.07736957588546128
4.035510761764634,-10.521312287175697,0.810606156478341,-19.136238768870037,3.4446374659767867,0.1339583737103559,-7.679276604513453,-28.739186432277357,2.9257314128251246,-14.650862781816942,-0.04422141705828786,-3.5050298744257202,-18.970160406538557,59.22405498403919,-4.18625159571233,-15.79352503224699,6.11147769289018,1.185109133835817,4.710730888128788,4.189909741395925,-7.3707526781388975,17.747526450621514,-5.097096170530957,-9.395241359518018,4.556758372708045,-2.5054378986209187,-1.454957936420441,3.3331499487836624,-2.6712529366022326,-0.33437205822182803,0.8760772579915246,-0.6987351337615444,-0.024567079053230325,1.5577471405410315,0.9104943742607152,0.4743713859108546,0.1712229886679227,-0.06447823075690091,0.061961949927752204,0.056812652069332885,0.048427702563828424,0.1254962081258976
3.8749578482973694,-7.494083572012994,0.8274283006814238,-17.132628868652677,6.9046807084834425,1.643597736533663,-15.086929487271192,-25.621597840992525,2.4535058547454494,-23.160343191661706,12.059403157925999,4.45225165508101,-18.98779485725333,59.67517653782922,-3.88141492140432,-16.684476399353894,6.6407277036941865,1.4610954216491594,-17.66266561645658,17.696520374234954,4.112902678028732,-0.278902231367467,-19.850901366702626,3.2580933789930953,5.144783407560352,-0.15712701939223914,0.9270961133233614,2.4282121252291553,-3.9985318684771753,-1.5154003206048174,0.06856921679386294,-1.8838786177487559,0.28545440769427477,1.0007703426285914,-0.01128448599135309,-0.3145507242518982,0.05054813973075593,-0.21295500918786117,0.06590086179176817,-0.11522259463215052,-0.33438196103915435,-0.01829837316382543
4.95004915916067,-5.719000642102926,-0.1448504325374542,-21.130477270941192,8.204627880888308,2.1275956470854873,-1.6143498468122273,-20.71706901255817,-1.0189177587378486,-24.603048963259273,10.42936542038139,4.149508074817228,-19.027274428285075,60.2509630694201,-4.072020686148884,-17.756747455055915,7.141879134627351,1.6828860996505663,2.1440871834495296,24.093224004666414,-1.3216486592043641,21.165283210433202,-22.801493310524055,2.6445788139619077,3.9128530266039685,1.5224848817235264,1.8613626695696177,5.442320416226426,-2.812515234329285,0.9158994876751081,0.42065910743460594,-1.4463723063623486,0.17361543569061078,1.1796798513118691,-0.2569623523965986,0.13291039840599245,0.19526126798970497,0.0676560884817153,-0.057916464770630255,-0.15221974689695422,-0.32168370341785335,0.061151690802928836
0.7498744354922966,-6.2018010953372915,1.5262918711859734,-19.094818081874543,5.57767545900798,1.0358525960799487,-18.31274152300352,-32.84234348536644,3.7505458346338894,-19.526760828443972,2.4923193862623454,-0.3868172381692436,-18.651561215426394,60.54377216108305,-4.041057580724134,-18.335388129132355,7.163772575944181,1.4918210689124858,-16.17665369395057,-2.2902818558711258,-3.800676946892959,25.064291772204776,-2.7302020035226238,-6.468376250167476,5.228756979877057,-3.0292466877047564,-1.4363847039642386,3.9731771662808115,-0.9846303881024892,-1.9697147621871285,1.0029570465668032,-1.519055742974918,-0.16238896287263652,2.389165225842134,3.2967122734653933,-0.7273748688805493,0.2031227718392378,-0.24332174068243723,0.045743516367486615,0.6718348677024518,0.6650152875245321,-0.30772529282284855
4.791414978680203,-4.744099753846085,0.17468925107802918,-20.67184392713633,7.573867276784623,1.8091278766533851,-6.090293703099642,-25.150179309895048,1.386161593747342,-19.615052371902767,12.074164715142425,4.598347161540959,-19.227430382587777,60.75149213979577,-4.06672604538871,-19.06858864833029,7.450418518865044,1.6790651907903984,1.0027307475881448,19.61899706864396,1.1078162416931083,-1.9191708040102875,-13.270807181636702,-1.8329307976177258,5.7275673462219014,-0.21313566988484212,-0.25159605657718204,6.850023288208112,-4.1620340315479245,0.8462496713762422,0.3594440959395923,-0.7869606490669847,-0.09923373861799668,1.148575866050254,-0.42460384163431364,-0.10901225989530164,0.18579906395837237,-0.047999686803861775,-0.09015698822195431,-0.061345023367327264,-0.4727191209560015,0.02178114934787001
2.1266206901811975,-2.8846727683976003,0.6245184877171006,-19.801501333961877,9.679332853475547,2.2100756850125443,-12.346123359091315,-24.90800455609933,3.391210486159822,-26.346644181998872,15.692069879156476,2.3873306341950586,-19.20705677425916,61.1421409406066,-4.200835465878481,-18.624984462357403,7.858047609337642,1.94862368916984,-23.83569268978181,21.730523491454377,2.8803427223600977,19.23624748546549,-18.570997823689375,-2.4746511573030707,3.8329152519237337,-0.7933016680318501,0.3990259318896343,3.20076209854271,-2.4980272638693135,-0.6743856550285041,0.9734014207386485,-1.4955124636115433,0.16455402546763762,2.22654088641736,1.1273796134783969,0.6662661193233962,0.17179041413019272,-0.08834112777030949,0.10969876282718438,0.3935806081684194,-0.043712651448085615,0.16499906533622422
3.8956193193020376,-1.823414224654957,-0.2183558602807378,-21.832450819120393,8.589612826360968,2.3656052944925445,1.3548217141082675,-21.416906375344933,-1.8026195804733491,-18.245634347730448,7.869146595515378,5.098836758143311,-19.266225342975265,62.1375734322856,-4.009280078072034,-19.836066020260436,8.019568077325754,1.8442757800953582,13.202893955650538,14.715209479654561,-2.689674829506409,29.117399455591958,-22.80987444271037,5.395893901879931,4.5557597344147895,-0.06796035497421783,0.8538170701311945,5.964563387981056,-2.494989210347106,1.377940029789742,0.725452127208413,-2.0717282275286357,-0.01952937684147512,0.624646305811018,0.028766817183715633,-0.08873107160141994,0.23467906737867147,-0.24548014461745443,-0.00908900042978173,0.06621595403561804,-0.16019582460515353,-0.004007027610059152
1.8318835684366641,-1.7158512987465433,0.6516139270575098,-20.544791137144514,8.892345452306337,2.009477861260925,-13.532566395568567,-23.53230749411198,4.160101585688306,-24.950438403023753,16.84823479103671,2.5651520510177876,-19.792775760367842,62.252459312268215,-4.216688376695137,-18.732577947186662,7.689697026897334,2.0011809792968163,-19.468198494788062,27.077426878943385,4.2076325441287965,12.93450115873793,-13.148720450204351,-1.3059588101737512,6.557614920693657,-0.894816853180452,0.09301784996945742,4.858023149256794,-2.682743662602505,-0.6820991932625933,0.5342025783632569,-1.6292774451616108,0.22285856952251706,1.8627110273967487,1.3077460239085144,-0.23804429156629772,0.24520766307456202,-0.21195964678502632,0.04686550944438338,0.19778818697678724,0.15090487742383163,-0.12719646818397562
2.9103405648884872,0.20681679579461137,-0.0662790266071292,-21.284027419657008,7.6412853895008865,1.933706266025377,-2.4168083170493353,-18.755525563997146,0.3249094836435959,-17.550010636895422,4.317475880442026,2.7277360032215046,-19.625985543374245,63.38776862500981,-4.065216098095599,-19.64338953634156,7.517298063503237,1.6422441812224644,7.078435421241986,14.289996543612489,-5.882515419066287,21.039312342507355,1.609690899714538,-1.5969098175963705,4.56722662343988,-0.6685684214291868,-0.7956688511287048,4.119185227092251,-2.8240425352735787,-0.8187852457696386,1.3112105574819388,-0.6749524951434356,-0.5402672248070993,1.6637276353964767,1.1321425587307432,-0.0322933022566395,0.34340540483132836,0.04701256810227512,-0.1754025070010521,0.19312163252182962,-0.11411314307111231,0.0610980784786879
0.7485643857562305,-1.3959797275198484,0.7033007481014767,-21.02326158386278,8.999264733183109,2.146436101478512,-11.417814723554967,-26.92161073082145,2.043048778780157,-27.99524890415396,11.660714606331968,1.9747601147831317,-19.974621480366086,64.72919244262529,-4.277958358791054,-18.81000905609648,7.482554446238913,1.853280331111501,-17.533311586679275,14.819899898525472,0.6837407588136298,0.07138901158071106,-24.769214142968966,-7.134380735206759,5.216178691609581,-3.2670430383233846,-2.140166416842399,3.9729255879826706,-2.6476932570383265,-0.5566429927936535,0.21012926338001453,-0.7062099199984532,-0.18256742224794098,0.8931517483997132,0.9121606547065033,-0.3666727508054939,0.041592602423821685,-0.09205720505420642,-0.05505351347937695,-0.014093136572574404,0.04411066261370144,-0.07575848784516867
3.070652309181995,0.12512582587231832,-0.007750278077327862,-19.253427028111783,8.512854108935384,1.8525838694143688,-2.4653057376900525,-20.95387678646819,2.139631758885965,-17.108635995071538,19.196270790018914,4.411376860491865,-20.694438193702997,65.74597862394246,-4.28331757380622,-18.6528033963309,7.521908620369743,1.8352330275019662,4.457219162076467,33.212544086768716,3.780591587624773,6.951425649611629,-9.060407626598833,3.1624371113900747,7.578898404892476,-0.3610532540570401,0.4937376735191768,6.063234327521804,-2.621456841094916,0.8832679667682506,0.4364688005143203,-1.352284789488233,0.5099586222878345,2.0133436017286557,-0.08177563856059789,0.06563226202396517,0.26006578192097873,-0.07041579469910357,0.08145867108329724,0.35182106142672026,-0.304298231205863,-0.025066729943179236
1.0984286967245467,0.5958032312827872,0.3342224336758108,-21.448138339356692,10.7066119317828,3.0442429277118634,-9.907375118101857,-31.843270028740843,0.6087071780097292,-23.618089342758676,10.456196907141134,6.259281110800878,-20.72166086659027,68.04964277461536,-4.287356112156856,-18.799160799947884,7.752828275654546,1.7763314310531158,-9.14756243440031,6.33253983416242,2.665411543379375,14.082730512700161,-17.35307322987399,0.5863201352374199,3.225212049390442,-0.5522951557817265,0.18173847604062837,5.560609081386161,-3.7616667924841294,0.0018728055776705554,1.357960536291234,-1.8661141359654165,-0.43613247011133227,0.6104785232159111,1.0704740061925258,-0.1930151581175457,0.2889192697324057,-0.28964655541101536,-0.03176042761917738,0.0581231687462567,-0.0075373699928141195,0.08777291620978006
0.3685476014994752,1.090391020832605,0.6582603690610195,-20.788733150069813,5.415555570732333,0.8551183723755112,-7.994121620680141,-21.517912631036435,3.4005711991588172,-24.271262441886705,5.6171997131971905,-1.71348531230725,-21.26495412493277,69.94797535976821,-4.5196707787521175,-17.572100992849514,7.093419758680261,1.6443631454093963,-9.34077609519839,16.273161910240614,-2.2517097771605075,8.619536731194811,-4.39446258707717,0.2401316684033232,6.223321012509209,0.09758178688624496,-0.13797131360914475,5.201099450756962,-2.69278009704928,-0.17052297554941384,0.4755673134970619,-0.7919774364774614,-0.22550074277687124,2.6196956761871544,1.1083443544903178,0.2293772599690752,0.11269230927984257,0.15399637775340053,-0.1727911003968064,0.45000452537380153,0.16463490190088503,-0.043516847722956706
0.15309590294069594,3.519476642603545,0.24203209940555465,-19.686518528351126,8.346831404292965,1.9500728581097622,-8.352570615056687,-19.919812574008084,1.1676564310681836,-16.443494934493103,15.817390453560177,6.424174547870727,-21.520662288865086,71.73518308254879,-4.4941556295434095,-17.83344552260689,7.133470499611466,1.4600984421031622,4.049416667468202,36.642594328567235,5.114204293287708,10.149014664339207,-20.076236805157645,0.39444213698493974,6.151258717437272,-1.3888334287118986,1.514155159313229,4.191834693250614,-3.760354105898474,-1.0279411103047473,0.6214940080843467,-2.8447462123101714,1.0298524509195865,2.4856172714816704,0.49687479054520545,0.04345944412216521,0.2620402972851674,-0.4376167816877303,0.35758169487800434,0.2729021197212363,-0.13124939251315698,-0.03868325307037376
-0.12128812301320344,1.915852191507809,0.8775704842815465,-22.9020583757971,5.021109654704952,0.4325362845796019,-17.898119040010847,-28.212652110443535,4.720903256981216,-27.200742786821042,5.185740114321936,-0.8069795238223372,-21.8989334765658,72.62971507723945,-4.583667283198689,-17.56164624953425,6.692948753161201,1.0362043838373762,-23.999560385705408,8.296971972112456,-0.9692266959937552,24.09690388225349,-6.022582123761441,-1.300052064623134,4.897750171678154,0.21264244187423237,-0.7058037474110331,5.4977957465203655,-1.8800878104321284,0.41455247912488685,0.8337330780238974,-0.13920947776742681,-0.533851773325846,1.92293799299538,1.1525508371401474,0.1389762920460543,0.15871599256711746,0.21522362433395173,-0.21747151068993992,0.15322672628853423,0.15941817724513618,-0.01578533564688772
1.0186632716583601,3.7901960587326924,0.020121601308751322,-19.94351048796589,7.670132169202621,1.758316680241601,-4.364898912302923,-18.403143297848498,1.8217281813036452,-23.443859492944195,11.245828730106057,3.0787213925883115,-22.332280371367034,72.83917871683225,-4.619897228922609,-17.34578560099704,6.760241286208788,1.4973033447399013,-1.378341366577659,24.82185628309017,-1.6710718156237856,8.314214884993856,-16.536358441943463,-5.351606103820015,4.532927997854442,-0.7656987340814734,0.27835524656004923,6.056624649059637,-2.322581973781668,1.4652129528005462,1.2741321443359752,-1.7950918488133973,-0.11592203114749937,2.053193524869287,0.06529793964051393,0.5871692411633,0.30340200088736946,-0.1723623998878754,0.013824237219740038,0.4549098192183241,-0.2046937772358969,0.1431847817938137
0.17222318917896895,2.4499295734832116,0.23939663868767427,-22.07176817088582,5.6887994367240395,0.8912834052533788,-7.656268760297157,-29.6062471835715,1.3731205799951716,-23.729548655206735,6.68517433600703,1.390065429195637,-22.1744318830585,72.30263767067528,-4.700318837800849,-17.374039772977085,6.866234382958885,1.2002342231284706,-3.6417795876466377,14.443575924573338,2.682917675408109,7.005478945054697,-23.0574100516048,5.0918307943138,6.1217939702203985,-1.3753707538719597,-0.08645518382876256,4.2138518656448,-5.345542664123851,-1.1105708541786592,0.8269692616640942,-1.7567941239389575,0.17026979980242213,0.42842372413664714,0.5281400240753066,-0.25951838685923617,0.21506182770384638,-0.25846463213973353,0.10923603474661414,-0.2455862861378896,-0.22703026132947285,0.09140047821759308
1.9889483615512944,4.965233703243039,-0.4143772362607788,-20.09294616819181,4.663653881775056,0.4193791804354811,-5.2267766493401595,-18.14212843909421,1.5641616413300312,-23.6266280853998,3.158397429341811,-1.2174088387732482,-22.059762678378778,72.02655053492333,-4.600028991434442,-17.280975981966666,6.740025780588465,1.0919492004772846,-6.3084244346020135,13.189075659555497,-6.387138357296674,8.111544767179183,-11.975561176662325,2.8603175323778616,4.437904415982895,0.5461990259877325,0.6983987079462944,4.342502783261754,-2.475374149777407,-0.8482073373836607,0.00040881621036602256,-1.293760059340808,-0.06347336704542968,2.4542722451976395,1.052406728328696,-0.27617614411130126,0.0862516342866462,-0.0181677731359053,-0.14268862203740798,0.47310932793262006,0.1007851897084848,-0.20567616262727248
1.7011354202849738,3.3069754339212847,-0.16305035844427174,-21.14180224679272,6.6034650619256094,1.4275404666191975,3.517910052354029,-27.94405978581522,0.021140711362497483,-20.272695879633556,7.500759517590818,3.4961146636224174,-21.539081494905755,72.50754647341654,-4.516516937171905,-17.501711142255022,7.03589277931282,1.3169819988694644,17.444394407506188,16.137308107993874,5.452894249237374,12.015033823416358,-0.4520231406938682,-5.414103437966911,6.121141909380587,-0.8082638304397819,0.3065690095153848,3.5732337599843746,-3.1759446766865524,-0.8051862106697147,0.9150911315746822,-1.592228089916114,0.2805255404940197,1.5432023617835728,0.87493721079732,0.08981182073306826,0.26681345582543764,-0.11906103606074683,0.09538782231183551,0.11823289222977375,0.0166582203853352,0.005934011077762298
-1.6894504009569138,5.041044741506482,0.815532217191012,-17.16213722108997,6.880894464842901,1.1022617766245775,-19.966053457290464,-17.24107040533445,4.693860383496423,-17.288288591560974,13.90230623062777,2.1598447915487506,-20.982697101942993,71.88748743317498,-4.527951327049905,-17.278117087314424,6.79267258010834,1.3368886710149404,-14.823739883642373,32.77290767276251,-0.7541909392745192,-2.7369609822829988,-16.514698473048046,-4.475789051183742,6.261026237854763,-1.381040042098811,-1.0489284249347708,5.171128202710011,-2.92416332671923,0.5039402143668648,0.8125411171726186,-0.8350806080749147,-0.2283186280998411,0.8969184011943988,0.7003291104577747,0.09160329653728257,0.3729328842005221,-0.031274671164126466,-0.14038316517178476,0.0389864739116403,-0.13393888142797347,0.12229090606923897
0.4299263547874212,4.349259762493316,0.24406490900778324,-20.100522765652208,5.268419287099773,1.0877112970285854,-12.384553727679446,-23.597441469878223,2.861725722288929,-20.916769237782745,-0.30351332594245933,-0.17189605394836993,-21.01489358282801,71.67863948650742,-4.488032674989194,-17.44904542675512,6.734573381071125,1.3181246106423423,-9.376797451181694,6.870745748954918,-5.142416599536188,15.720713180153645,-18.217933140611073,2.1761732661479423,5.738942436864807,-0.75520889783151,0.5521495215799777,4.999475065457424,-1.9351698138584128,0.9171235967327479,-0.2591597795909206,-2.0643299938747677,0.36643036012056285,2.2011843998630454,0.18274242943007016,0.4397035455486958,-0.03832639805992975,-0.33636760668460763,0.10749731896364277,0.45230880566184123,-0.1312178412142286,0.011321891594811595
1.2138804928384666,2.5057020305905158,-0.09553090496266549,-20.830924072309948,5.182594449906764,1.1431256325230226,-7.26877057187212,-29.445996898315045,-0.7651812224246161,-24.033699623260727,8.451617102331472,3.330297922078407,-20.62781189596058,70.75283913966317,-4.49476745171635,-17.08206081323906,6.425657861334884,1.343436547279889,-4.0387777804442475,9.25605847630178,0.6070148734543348,11.461233338533432,-5.574022361163525,-1.432099335783105,2.9558134903438424,0.0835570502007495,0.5508681011541589,2.625814267103691,-2.2922847008170253,-1.1265900539618434,0.763349870164327,-0.7292625963657432,0.14066216045179708,1.113773405845716,1.3939305284235,-0.12986146240312912,0.1053865351463578,0.14879758806079935,0.032154572148066836,0.04932522204590581,0.2166187990732674,-0.04723724510058574
2.8844237972273965,4.385581595702578,-0.09792092532726904,-16.954959151102017,7.459498218594365,1.1019401032734524,-5.249674218518126,-12.210457593328334,4.0886429013077645,-20.886599850878163,20.90826149183225,3.0974224886591073,-20.510522737821773,69.10906927329667,-4.3077867760676725,-16.28327449167832,6.311575451944137,1.254884691299222,-6.950269407260217,46.04848032490056,5.759210396830095,17.344020504568995,-4.12406064973426,12.2538649801188,3.267407499093855,0.7630304731947892,0.42509534368466667,4.221661951754423,-3.791221239820505,0.5902827492485521,1.8657509185289394,-1.7479059246793514,-0.8913159851333715,0.2549138017657839,-0.38498436647477585,0.012575700515117392,0.35912110945903974,-0.24925487305815794,-0.14772931136947515,-0.11277555903897993,-0.32190336437251643,0.07451135826932738
0.321070941125447,1.9872462002829343,0.24754868065436422,-19.196444381314166,3.6388262127650064,0.9666855611673356,-10.282341856241871,-25.976191861685205,0.5077459113661944,-12.099033237161002,-5.42928531148176,0.6616724781167515,-20.162053368802347,68.02484107143229,-4.328556216088165,-17.428888023541376,6.437665662614138,1.294909385556723,8.95320775692473,-2.8526642420499915,-7.360011935022397,-7.938413953661955,-25.58036227404531,-10.42174235989081,8.60365108484301,-2.9909284120728827,-1.0677393318332506,7.7202071999251345,-4.2262082196924595,2.484914854503879,-0.7661727431773252,-1.143465049407316,0.8931541690050725,0.6356526866454076,-0.9769490277235718,0.305074215196368,-0.0683765919816169,-0.1064457434927692,0.1778701606074989,-0.03379161916123481,-0.6396469755941434,0.18294095433410026
1.7261635953476577,-0.027292352205274296,0.7516346654716213,-17.922197198252544,5.899036934570426,0.9463312548289171,-15.791895555002172,-25.008166619227563,4.9972798438924135,-22.23953030910047,12.004156416398807,1.122982571697953,-19.93126106120581,66.73410311721649,-4.179505954795689,-16.621016719559872,6.4629059951983825,1.3842553721019106,-18.598293896336916,23.14613322186275,0.8927334549406891,2.2465926584776215,-11.480052975831974,6.771362211320643,6.088155072304781,-1.186799059004619,-0.282904217620638,4.265875701893438,-1.1464362672742165,-0.814974928655975,1.709053031453308,-1.8656374000539977,-0.33584057320363986,1.9320970705294498,2.6604610459703433,-0.15144889258556382,0.5276536395166108,-0.2088000535631791,-0.06492738547835208,0.35292135788237183,0.5196275947888982,-0.09455876411710558
2.510695622585271,2.93005089889802,-0.4856059996587444,-17.217648560600725,7.304988176964133,1.728556110001304,-0.7419738604539199,-17.65926771322106,-0.9064183350546531,-15.133052336137338,13.247538467967793,4.929325228650895,-19.797399237489028,65.51475802269013,-4.077435751683261,-17.411451210766867,6.887310490928219,1.569343757406333,14.08256816876623,28.69491699362486,1.0593907585764373,26.536916330405862,-16.966721527825637,-4.078123406302907,1.3120836298818488,1.2398885889363478,1.3756051719209341,4.137113336269368,-4.812565066424086,-1.240586625548258,0.1318213281049226,-1.5414458494663463,-0.33702692893088193,1.147701267783625,1.0256449748745369,-0.10790434907675903,-0.14202780057685635,-0.10801119671518032,-0.09199245741300924,0.10242444406943416,-0.010651043697633316,0.0029427762276079683
1.9128372467262047,-0.9553190894619679,0.6686744228218711,-18.296206095643317,5.574795994155646,1.3021124845668715,-9.458394365291513,-27.154740912115955,3.6874204982286742,-19.472377447516493,5.97568318966939,2.207669452296176,-20.045649300733245,64.47888119203535,-3.9310238116209852,-16.983505972239026,6.6661938963852485,1.4903521814387206,-6.376783882954747,11.513395426343727,1.8393051331801777,-5.39012783921149,-10.036422253424105,-1.7332942710127923,8.563493894948188,-1.5840677014173077,-0.7988742169674984,5.2748340937871845,-2.619068436929399,-0.18923397238814538,0.7929854742964453,-0.7856713305842224,0.46170143080575354,2.2998234639627824,1.003109542951245,0.02767513975300583,0.38280092779068975,0.019673848693111798,0.08749020829570794,0.36074870190091557,-0.14110375209772627,-0.046706665407819974
2.6003656851509733,-1.4813785929525838,0.21943912409568186,-20.18827147931826,5.799199551397198,1.3162394174989736,-7.059181433499764,-24.35036283371893,-0.42930379953638687,-22.250556815977706,-0.2102148410297656,-0.36292037205129535,-19.926319122378764,63.47177674550122,-3.747461375714799,-17.551809396932878,6.899039541382435,1.4595029539647033,1.1295341905676646,9.172687555645338,-10.6203318000352,13.816174576012148,0.61255198396289,-9.77992543912972,6.062361028725277,-0.8440326091351973,-0.41750193298194843,4.756463073414169,-2.698730617480457,-0.10535691405040283,0.37802246802661604,-1.232292602713906,-0.12625637283870028,1.340716839434938,0.5013575983573416,-0.46905132871382,0.10226019904003657,-0.15914333411678308,-0.037818216443518814,0.1027001554691863,-0.0054581296847967765,-0.2022328145438375
2.7038487965549214,-0.18782273485775547,0.8023139345488661,-14.040921315456762,6.329439029419085,1.4038880405428693,-6.652930618761582,-24.687597065509703,5.730388792817885,-16.932681430103507,15.451624939671476,2.8506567566502485,-19.39347143392807,62.460674346927746,-3.647906991756367,-15.942790195777079,6.217680850296713,1.7015000763009769,-4.339426481397115,26.55391428359398,8.233748653206495,3.066344840581231,-17.96377518406525,17.45528410104515,3.639937863858226,-0.19535111037372857,0.8686724336570081,6.61845800359783,-3.7235123655619997,0.6345424262703505,1.6736982322480984,-1.9344284207091895,-0.20804784975075463,1.7261661015037866,0.9422742113630325,0.24073445388625317,0.4174938276482809,-0.09817436072786649,-0.01862847139677945,0.2781426359560499,-0.17113524641410288,0.08422362099474412
2.5904559670644027,-2.3559008611107046,0.5984798207429585,-19.574989427195277,4.313903702488533,0.7853797272194377,-12.126417634708098,-18.695679024325305,1.5818293749643229,-22.916911016955208,0.48498194166099967,-0.4982405155677691,-19.39856267679076,62.28544014200655,-3.6223153468970644,-16.99872063632468,6.508922577109182,1.295921608448303,-11.318547194469554,16.301337652258717,-8.721266776511248,13.962324595871898,4.005907246836409,-12.266814991290216,5.571019890509383,-1.3591811923374062,-0.7214153549481552,2.7167775951524584,-2.5014770481482618,-1.632376440147365,0.32630187440599984,-1.0965040171459937,-0.06374687741734339,-0.20022378430143403,1.7478490100415174,-1.1620900462140575,0.056449023678448645,-0.13786229751926624,-0.004421231519004646,-0.2750769449909717,0.36657102527438257,-0.21750309091348052
2.2807862562477488,-4.3146382410059765,1.3129395492238718,-16.496569221699247,5.984304507970957,1.4248317381027908,-10.79980205475624,-35.14949182691152,4.29844015881495,-11.632644536274318,7.558867626363527,1.7163835843882735,-19.190429477561896,61.986757621659535,-3.50400645618943,-16.208556661119633,6.248223116064966,1.564915379253301,4.0109198719271735,3.3327556061667454,0.46559378511187244,-11.40814535401548,-25.10666316152343,8.451225562386096,6.604264377961797,-1.063380406621636,0.23629803957949402,5.909090977222574,-3.3690683908101104,4.419198720010763,1.0317851748770637,-1.9186875361449236,0.24772931196617695,0.6972370357975041,-3.1392255499132404,1.564031115992118,0.37993000103748437,-0.2603463836636553,0.1025815246274423,-0.08531709913934742,-1.1674364410922888,0.4528542949889059
0.8361799944602407,-3.4030769087773334,1.2245549599995504,-19.100047489087697,4.830415049738443,1.0550451006546258,-12.735910105221697,-29.257507123372307,3.988174038629649,-26.826156296148493,2.828782898771463,1.0465147172088811,-19.42248962104999,61.61891309650565,-3.6392936521407027,-16.24029903054422,6.128685236352738,1.2483838409467851,-20.5185848892665,7.745561504817047,0.7509952247277605,26.77429914673867,-9.108983536551317,1.8313230236848412,1.4364078634084105,0.10355021803164119,0.5062940081056845,4.505172844893799,-2.949622602929171,-2.832653933923403,1.5145610362623758,-1.1478640327244993,-0.37461653370597175,2.0048524422821705,3.768037075645513,-0.7615708995694579,0.15776359321989275,0.0037296620050125554,0.00022553859646776055,0.40796524513064686,0.6520623221506312,-0.20404924433667562
2.9693464321754086,-2.209250713763515,0.1704184002225942,-18.816735644150384,6.01868223184887,1.6255684682935334,-4.52677797710077,-23.525756363333436,-0.4660123762894429,-17.796899927246745,4.708977165719942,2.731125988053203,-19.55549144586482,61.78399298554211,-3.550280183474156,-16.381665702553864,6.151579725621941,1.4423867641470614,5.1695555555921215,13.95171034721866,-3.900991820245226,2.5791605343107733,-14.526930227534352,-3.3202556941653802,7.989669316060314,-1.0840732718246664,-0.3466850111781489,4.670319872623227,-3.818610047587688,-1.2404586291118738,0.37780111167522223,-1.674072274589689,-0.07496196688983975,1.474288420024369,0.9587256384649121,-0.6356606107453185,0.3263379978384648,-0.22711681851721963,-0.1198900327816933,0.0520438550802171,0.0052774880600461056,-0.2320663709998591
2.306349917613166,-4.526511134373367,1.0736451859980716,-16.229829094758035,5.0375197508369665,0.8501249851692813,-6.261612717296759,-30.417140206748247,3.3743054262826657,-12.650503684703299,7.916137547468426,0.37737498600324393,-19.73163845964988,62.161557278454616,-3.533092311993236,-16.04744912290773,5.866884036142787,1.3185058941460142,11.83918683188475,14.796276630776228,-3.0528132723610812,3.1089127662727467,-24.802848631799275,-7.313613050856579,7.093978519990921,-0.7893440416574579,-0.18433508146314517,5.837011493831138,-1.9057430055058853,2.0035140166068994,0.6052978847962813,-1.3145859839564114,0.08597580008425303,1.7173164775118859,0.26315648314172674,0.8986115901003928,0.1429507702945463,-0.05860420778921398,0.009332909892173839,0.43432273706075547,-0.2647205689594381,0.2675730652641919
2.7684096008235795,-5.243486127500333,1.126854744010764,-18.5956935471036,5.359491975831462,1.0872450789364199,-11.669898716225656,-31.620074785619043,3.7865552597460295,-22.79747695575419,10.371433940059065,2.432002895741312,-19.862959585998755,62.512094601770166,-3.5006825470118352,-16.080751042512805,5.935949650460311,1.3317485637110449,-11.741386520830465,17.204436911741038,4.071230120714277,-6.572402026768375,7.299902360431306,6.458288779836559,4.973120985361713,-0.16643445185130043,0.2761945934595757,5.345716835577634,-3.6774176702179027,-1.2993159044903826,0.7002308859249302,-1.3719612343464114,-0.08510865913231815,0.9823090813560933,1.7033838877726857,-1.043098843643284,0.23745327905369076,-0.1390368256575815,-0.04544030158248008,-0.04332140969363437,0.17362481281810138,-0.26313377462943205
1.2969355652325714,-3.555653126035076,1.288689390047398,-17.634373526023914,5.308982486715211,1.4785776513395807,-10.017122138138904,-29.7115044101971,3.6024877057558737,-17.47795258945532,4.961174784446319,2.954202944195133,-19.76473735530133,62.97242217776414,-3.474546831755854,-15.705953935237092,5.587760705448943,1.348307684273855,0.6099522938683315,10.49302293786952,1.7801324700271373,21.063538321699852,-7.624853899595082,-2.854526265414819,4.024507814672487,-1.147061756404682,-0.2605875632887062,4.237202115815397,-2.3599540432744943,0.049017600353169294,0.29451624162093876,-0.9638677065100115,0.17025599270002706,2.7122044596077997,0.3798537424140072,0.5333192290221225,-0.0025891520618463813,-0.04155687330351871,0.06335901604266135,0.49220085240778694,-0.09090346990830409,-0.03469495377265634
3.302466765438492,-5.416764158865194,0.9939596369345118,-16.356660443142736,4.625899164244836,0.763638499014684,-4.368884616963421,-29.38228926329738,2.4401479348649966,-10.639407251385062,7.385665728023822,0.44514878167430944,-19.905391295958182,63.27484463388123,-3.403073615338991,-15.989226090426133,5.883589205705845,1.3292807562429831,13.35368762618129,18.375545135434795,-4.266698432197888,-7.538266585741009,-22.868243947589647,0.31067450685925113,8.350369856282313,0.5424954945507842,0.9966798154354437,5.888703032544413,-2.8693881137085824,0.8814722118067048,0.723188055668625,-1.750711541052313,0.296453546012749,1.2127842804634377,1.0010893904632727,0.2549884371602004,0.3159622260496048,-0.1560088454660708,0.03604506957263706,0.15022448311281908,-0.028121389731960843,0.11704951905893901
2.2334860326807235,-3.7071199152440633,0.776287711505872,-17.810707619397007,6.191555940060181,1.4243277291940517,-6.6679738081828885,-31.91283900781206,1.1315151347650967,-23.37697675715891,10.779759052539372,3.6711925345570666,-20.140461868811233,63.75193977484293,-3.468190655948416,-15.638440917146387,5.716278431372352,1.2417004356912558,-4.865379411258586,14.57223713336663,4.44578173553257,14.746874474239132,-2.723461054591687,-2.954224756584779,3.7233806193715986,-2.0223914959205316,-0.7812007926587382,4.396342390288427,-3.350779447233784,-1.3382963317993104,1.3273743677565306,-1.4755511176813916,-0.2758538279488292,2.2076438572616937,1.418110127726117,0.04261628458665695,0.11403602019509634,-0.11503897279762632,0.03294456226565059,0.32409847220027294,-0.02337887625266211,0.012234336223835919
2.2392985176668705,-2.91107252803134,1.212689972131284,-17.963681734344654,3.3967769251872184,0.8115180746663861,-8.279847217708811,-27.840623452479225,3.942106418002486,-14.790253069280048,-2.1093842182444424,-0.38012889419620954,-20.208676009984448,64.38152206963558,-3.3027928455299342,-15.75251581670272,5.669851583224576,1.2812886723485621,5.648910015145757,6.215050527264434,-2.495567570773278,-6.676762314046313,-4.970874091332322,8.92719581059551,5.8361646222230865,1.0837375688019177,1.6225069723676098,5.5758011817174475,-4.0878605914040405,-0.8287219388745147,0.6509420191643157,-1.8725721538469555,0.18148763673583246,0.9743821227355244,1.3946735468200568,-0.6596941103056707,0.21622246573149223,-0.14024484277225815,0.020386762244581073,0.05893206110042103,0.1740138641072685,-0.17956047544924705
2.0687979753351238,-4.121406705663926,1.4328773620038744,-16.702497941619807,6.020906409254869,1.4750979085511688,-9.336441947230362,-35.81026787585206,3.2124782296793817,-19.478051694467272,7.28709621543619,3.5771764000618154,-20.325427798135255,65.14316852138452,-3.33335333100323,-15.205285667194017,5.697186675822518,1.1727631163905554,-3.1667733304755314,2.7274095007460453,1.9415898617541938,2.086705748671915,-1.8479586533037098,-5.332011984978524,6.6458407935718515,-2.570802875159672,-2.558562469217296,4.589477072566551,-2.162900063122844,0.0984305569752148,0.48786960007506386,-0.32042880469194207,-0.3501663317058633,2.151399692198794,0.8478934388484908,0.3097553814950923,0.13921076384602826,-0.08449014635320852,-0.09068211160964018,0.38910529937186783,0.026509201150981508,0.0039342905913927395
1.2569590623622604,-1.8567689826178857,1.1790198753205579,-17.49946896614114,4.904580314857968,0.7024137561413412,-11.561372092337699,-25.170421425882594,3.149077527948778,-16.949031400804333,5.703416374148485,-0.914227793033875,-20.416958657989905,64.97341606676524,-3.4472904376377236,-15.442527552110173,5.549548197432098,1.1258652454745575,-4.175230844143948,20.790238115299648,-4.006078832704521,8.956425621255876,-21.290865890347117,0.7987176174414978,4.184356907196328,0.07056552567888591,-0.021395567176632962,6.515999484710857,-2.6217634682448687,1.8982044175744182,0.8514881051252268,-0.7840844804313409,-0.25523108110811077,1.1493167584440835,0.2647057184997687,0.5330460004719734,0.18628854917573726,0.013739201326331846,-0.08711514123015912,0.1522779604894554,-0.2036428124472328,0.19803224376690493
1.4135680458368516,-3.125158785167286,1.3506490477128814,-17.22324451572356,4.336578970654916,1.0491340199147865,-11.760727329873571,-35.06388062279576,3.718256905577551,-15.491244939580957,2.3203259818292743,1.9284158846264041,-20.255849651673756,65.08091839122855,-3.4177327853959203,-15.119988594144415,5.75100591470174,1.203721213135153,2.7736124088170153,1.3897323736483675,0.4491176660833916,-8.029112410293633,9.737400308249484,4.141251983633512,7.6723522967208915,1.0659157452180175,2.2137508600000335,5.211293159250215,-2.669516195937565,-0.3765330340570118,0.9158634634541838,-2.7347685107269486,0.3591896112904817,1.5827620184912987,1.0780435786624756,-0.4945577100656541,0.4103720139146352,-0.269194752569531,0.04658677134929585,0.24870246768908558,0.14651724063232155,-0.21717136469731677
2.6949438433119024,-4.494220050455132,1.2668218605682102,-14.326335546007723,6.547048479848943,1.2698277905283637,-4.38863006950539,-36.11393083765846,3.8069899379040297,-8.77510869113791,10.918074081288653,0.7759665350295857,-20.338489434518422,64.87916032772861,-3.4113641825284207,-14.790793930885014,5.685139090891755,1.3688131254943212,12.375398389045062,10.073042100285624,-0.391631125635145,1.8597793573992332,-12.772543903411373,0.6898746257424861,5.590220822509869,-1.142206220541538,-0.5516188088187535,4.631377388830672,-2.7642011797867916,-0.12423038370604815,0.2214983296105955,-0.7933905484842849,0.3264214219735641,1.5197502769334363,0.9854828063443817,0.1230013188180247,-0.04433140666452589,-0.026897442122292208,0.12400716023454163,0.2779197493602038,0.03469755505683937,0.029657072158381405
0.8627811885783268,-2.3236618365237103,1.3019802293532756,-16.484920596675224,3.342641846738335,0.8043314851043946,-15.820510316535419,-27.411301131089978,2.8992272914792774,-17.053038501115655,-2.062054545361907,0.24827511277979175,-19.933711285766996,65.05182132643269,-3.4698212912636204,-15.255800258511485,5.412868616953974,1.1033365262475634,-4.946211485458154,8.53590590501919,-5.22067862549166,2.35571810950462,-20.413307353959347,-5.66033760146599,6.167588639771166,-2.0485742218094654,-1.6783161294378401,6.493218670077075,-3.9476410145303666,-0.5725387792662913,0.5070352352633967,-0.5490573527543502,-0.04322215799193174,1.7011472614177898,1.1038778822347632,-0.27261179589872975,0.18573467904098542,-0.040505311965817005,-0.029493702775932124,0.13687565081971936,-0.2691133144950886,0.03259215252333441
2.8684877272421083,-4.36586393339532,1.03639897597957,-15.739787629362242,7.379426680064011,1.536224032097967,-4.610860594471348,-33.75186082714158,2.8632379952989675,-17.49930730206443,14.848458685875995,2.7692928408423008,-19.854845353743006,64.4298752786712,-3.584155231001131,-14.37862592701282,5.455543328288239,1.3213918210729245,5.5364282997138075,23.803144716822157,4.535025974265974,-8.725095967524144,-27.99578908085988,4.457755993352401,4.063942331884956,0.5951665550715146,1.5063396736953378,3.317693996441607,-0.6533462601762456,1.0306637424570968,0.6761654087193287,-2.0488357912114785,0.17360393507169664,0.9192405301377978,0.5337132192993332,0.23177354149401674,0.18674747513123735,-0.2766892232278835,0.08070734301499145,0.04403679821680637,0.2030250362303036,-0.048742640457557364
1.3046686938467726,-1.203414702446616,0.9135674234629733,-15.44960611981458,3.312994210129997,0.9337655874841291,-11.10792501295001,-27.24589102776596,3.346841415061247,-17.737706066172166,0.5595607660265128,0.6465255662154276,-19.765525254503125,63.97550712802056,-3.5815415259922756,-14.269216437755418,5.428927543774944,1.3186291965849581,-7.239477962481464,5.616965264750777,-0.9965164479096996,15.736368904079017,3.332179761860396,-5.0351781614498865,5.667703587371797,-0.18199793883911722,0.568636562430303,6.49655492668988,-5.317334064828002,-1.7142874412375593,0.2611826107824569,-1.163023032460619,0.41937231858928586,2.7096011800804067,1.5820870831710236,-0.1769594116954738,0.07832603885241855,-0.027816444832691314,0.09130746641320873,0.4937513898084001,0.018476849291257143,-0.06910573067755613
-0.36193407089909707,-3.4245257956998976,1.1570628443365218,-13.747285282694698,5.7206937116126575,1.9886248982452066,-10.799228242133072,-33.64981258116556,2.5723604039304577,-13.363944926851367,4.937705436842468,3.9586880796201975,-19.695305631682047,63.13391443905793,-3.670067269091663,-14.023808830783885,5.499397938006557,1.6598329850418059,8.314901998408269,10.569251219409608,2.005939790257001,8.244979432607975,-13.743807921484084,8.134753246602779,5.736078531865066,-1.3667257232827066,-0.20527053585531907,5.125600657387444,-2.3532831636843867,1.9098482750072634,1.0740784681474402,-1.6993374565996833,0.09187487950354141,-0.430050926206848,-0.15154919424934082,0.0657629286909934,0.3209391737134967,-0.20787778065315268,0.061317850712811865,-0.1655726859098984,-0.32758508906513817,0.19927879933324916
-0.8314725053343269,-6.464627627732153,1.31166468345305,-14.924861680479694,6.3378375553849935,1.6129749816055572,-14.988722778396168,-41.938817437365046,2.6483531429327787,-20.22413810186087,11.605739149545034,3.436140234590867,-19.646518930480905,62.40867788201435,-3.8791802447926735,-14.389954584332258,6.079939076265302,1.6178457474886772,-13.893627057241066,3.254322349175639,2.114095671758114,4.333620962104469,-3.497937547981549,-5.981077296896956,6.068469236762045,-0.21314884191563754,1.2310944606170824,2.542121650229226,-2.4260213200159924,-0.20085233376012748,0.9768191649653571,-2.672709705897642,0.010913677409284202,1.5022825213789175,0.13616831617512953,0.42466345228896346,0.23885503842282604,-0.3136217442069165,0.02111202122018657,0.07388217237461533,0.01861240346372075,-0.01908700477736686
-0.03578985300855775,-2.5086585538112156,0.234912076902131,-11.625909134774846,6.777340939146586,2.2237731774619194,-6.089864824585243,-23.55482417250897,2.589547506567947,-10.032718538194864,7.2344040494227455,2.225357526136737,-19.405789490345263,61.289053281260756,-4.264717839729334,-14.084056245256697,6.030638016238897,2.1016788642434863,12.953393427228205,21.841423061575934,-2.8856991113543637,2.589643849342778,-22.38380708432333,-3.172124292678993,6.449134193600416,0.06295933623264939,-0.7529615769087956,5.350652373945891,-1.4908979791471437,0.3239865580878091,-0.18178580812433145,0.10811171557466089,0.16536436783412395,1.856152908040831,1.5276831555398218,0.07441687186320667,0.09587601101806513,0.12221204309472372,-0.06240095177378548,0.2772111129097947,0.18284489786809824,-0.00259549583058509
-3.6075762030067065,-4.4484342746206025,0.5801108249140972,-9.354222211644567,6.128336222685687,1.978925344012918,-17.736236475517334,-33.54789636773238,3.5007069086216682,-8.270317232483553,8.43966351409288,2.358531825406349,-18.89788733201734,60.30971638209505,-4.780963856753852,-14.155652289135613,6.356580052898066,2.1572647062658716,-2.933160369589688,14.868392519654211,-0.991857056889745,3.1297356322835452,-5.4536744351053725,-0.7113737618038702,4.058409434082574,-1.628018107651647,-0.758021651310931,6.770645331334476,-2.82387115757624,0.9613521258046956,1.1792434575144748,-1.2106077384620093,-0.3059767649876747,1.2947132071411562,0.7576087158325583,-0.1387454014316588,0.15631960136905,-0.059110881515563624,-0.029431615500216175,0.07113852860872143,-0.05091298035158943,-0.03285686607709849
-5.467824664501886,-5.268642206121732,0.6607650389095565,-12.553290809674326,6.386620511422403,2.6496721703686785,-22.79974194516845,-40.83677052871038,3.891773177941168,-13.024719856934897,5.135123490676904,5.430095897890534,-18.38145379559328,60.32437359504597,-5.257104574207557,-14.833981037110814,6.25824553985937,2.2349922940006395,-6.838876433248446,-7.542672491334416,4.465546707108893,4.194572201245424,5.30027696240447,2.6813792311201987,6.455357598909152,0.09961375657158009,0.49400082995446104,4.517386380470018,-5.489838490379639,-2.3961157615600337,0.5595436480235236,-1.2911580072752773,0.3720304518728109,1.3130886950489955,1.2429527277677999,-0.5948777836268373,0.3138817391540477,-0.1434374500469944,0.07418500570787406,0.19605227613062465,-0.08516505326271483,-0.06338100336947276
-4.725275477759634,-3.6056860099587826,-0.4367556219372418,-7.78923004561624,5.173606796507932,1.5366795710834131,-11.065958680479946,-25.161403256240433,1.80855928753771,-13.583773702462448,8.024769737033111,0.21049314271353042,-18.429220216915418,59.791717781425746,-5.729795249411843,-13.472267247231983,5.91217895126961,1.9941779873664922,-2.3762452267581105,21.64078399342957,-4.31138007337077,2.534458165847306,-15.104534975652378,1.5687929532013205,7.160894952362594,-1.3374280149148146,-0.40052557723002036,5.175927884017449,-3.548837874396087,0.5835124391945857,0.49770710817171154,-1.2113181957284067,0.47869744563635863,1.4238477434366505,-0.13809670321496625,0.26061497269306866,0.08460768038898406,-0.026567350520167423,0.14593611176384017,0.07718576842453527,-0.23367750071914156,0.027082629144064625
-4.718448789984351,-3.756752676150544,-0.9334556857670281,-8.691262687815568,5.261963762460767,2.0264569922260467,-16.487262422718636,-34.791955240652726,0.7441831997831315,-11.93368156707261,5.738676912993702,3.832386146337574,-18.403633917921088,59.657908992120156,-6.094585748014614,-13.529860259010134,5.742334525470871,1.9524828853721905,2.087838887551304,8.031018266167408,-0.6041131993029039,10.169788466383022,6.753071708199551,-1.8284690370990617,5.339889336210079,-0.6015105598451843,-0.8738106508830717,6.633631096527737,-3.2097890387308152,-0.928910739469363,0.19004928234863835,-0.8326615089738081,-0.44094550772568497,1.853881611164176,2.546447601913099,-0.4957300939564447,0.14079832638578052,-0.09422665310986972,-0.20772183404081856,0.42837770784941187,0.40639863092181877,-0.11648026929856337
-5.2539917464018515,-3.311066409109418,-0.9338705789866122,-7.507209850220154,4.90277632203806,1.9763445807636124,-14.414130261277602,-31.044137034985184,2.616586628883039,-9.220306216781616,1.7979679793247567,2.3671646073136112,-18.000422545809286,60.24508629036415,-6.548484997406068,-12.539300015414389,5.390350349653518,1.8144959477638447,6.717354436873033,5.845072735286896,-2.8151346081640347,24.11285629440803,-25.602735583548522,0.5693097364370396,6.340099268275752,0.1625620972109204,1.333645683740057,3.2238508844423297,-0.29082615944801027,0.8843214418226921,1.4106600041750894,-2.2040242586632317,0.31944432408502565,1.9766002763974169,0.2976299526063055,0.6120151018425776,0.25969231629148326,-0.10603706382516939,0.13789821554647905,0.1887779065603664,-0.06473498454114499,0.04950025657500757
-6.77109,-2.6956,-1.48291,-6.25113,3.79288,0.62788,-14.33777,-31.13651,-0.85647,-11.7336,9.18206,-0.7671,-17.76378,60.05376,-6.97611,-11.5822,4.96708,1.32759,-2.31482,17.0237,-4.28161,-6.15206,6.88102,-4.51548,5.20964,-1.1573,-2.07737,5.98227,-4.37406,-0.72236,-0.0422,0.44871,-0.29307,0.61266,1.01865,-0.81105,0.10401,0.09009,-0.17166,0.08112,-0.05017,-0.12562
,,,,,,,,,,,,,,,,,,,,,,,,,,,,,,,,,,,,,,,,,
,,,,,,,,,,,,,,,,,,,,,,,,,,,,,,,,,,,,,,,,,
,,,,,,,,,,,,,,,,,,,,,,,,,,,,,,,,,,,,,,,,,
,,,,,,,,,,,,,,,,,,,,,,,,,,,,,,,,,,,,,,,,,
,,,,,,,,,,,,,,,,,,,,,,,,,,,,,,,,,,,,,,,,,
,,,,,,,,,,,,,,,,,,,,,,,,,,,,,,,,,,,,,,,,,
,,,,,,,,,,,,,,,,,,,,,,,,,,,,,,,,,,,,,,,,,
,,,,,,,,,,,,,,,,,,,,,,,,,,,,,,,,,,,,,,,,,
,,,,,,,,,,,,,,,,,,,,,,,,,,,,,,,,,,,,,,,,,
,,,,,,,,,,,,,,,,,,,,,,,,,,,,,,,,,,,,,,,,,
,,,,,,,,,,,,,,,,,,,,,,,,,,,,,,,,,,,,,,,,,
,,,,,,,,,,,,,,,,,,,,,,,,,,,,,,,,,,,,,,,,,
,,,,,,,,,,,,,,,,,,,,,,,,,,,,,,,,,,,,,,,,,
,,,,,,,,,,,,,,,,,,,,,,,,,,,,,,,,,,,,,,,,,
,,,,,,,,,,,,,,,,,,,,,,,,,,,,,,,,,,,,,,,,,
,,,,,,,,,,,,,,,,,,,,,,,,,,,,,,,,,,,,,,,,,
,,,,,,,,,,,,,,,,,,,,,,,,,,,,,,,,,,,,,,,,,
,,,,,,,,,,,,,,,,,,,,,,,,,,,,,,,,,,,,,,,,,
,,,,,,,,,,,,,,,,,,,,,,,,,,,,,,,,,,,,,,,,,
,,,,,,,,,,,,,,,,,,,,,,,,,,,,,,,,,,,,,,,,,
,,,,,,,,,,,,,,,,,,,,,,,,,,,,,,,,,,,,,,,,,
,,,,,,,,,,,,,,,,,,,,,,,,,,,,,,,,,,,,,,,,,
,,,,,,,,,,,,,,,,,,,,,,,,,,,,,,,,,,,,,,,,,
,,,,,,,,,,,,,,,,,,,,,,,,,,,,,,,,,,,,,,,,,
,,,,,,,,,,,,,,,,,,,,,,,,,,,,,,,,,,,,,,,,,
,,,,,,,,,,,,,,,,,,,,,,,,,,,,,,,,,,,,,,,,,
,,,,,,,,,,,,,,,,,,,,,,,,,,,,,,,,,,,,,,,,,
,,,,,,,,,,,,,,,,,,,,,,,,,,,,,,,,,,,,,,,,,
,,,,,,,,,,,,,,,,,,,,,,,,,,,,,,,,,,,,,,,,,
,,,,,,,,,,,,,,,,,,,,,,,,,,,,,,,,,,,,,,,,,
,,,,,,,,,,,,,,,,,,,,,,,,,,,,,,,,,,,,,,,,,
,,,,,,,,,,,,,,,,,,,,,,,,,,,,,,,,,,,,,,,,,
,,,,,,,,,,,,,,,,,,,,,,,,,,,,,,,,,,,,,,,,,
,,,,,,,,,,,,,,,,,,,,,,,,,,,,,,,,,,,,,,,,,
,,,,,,,,,,,,,,,,,,,,,,,,,,,,,,,,,,,,,,,,,
,,,,,,,,,,,,,,,,,,,,,,,,,,,,,,,,,,,,,,,,,
,,,,,,,,,,,,,,,,,,,,,,,,,,,,,,,,,,,,,,,,,
,,,,,,,,,,,,,,,,,,,,,,,,,,,,,,,,,,,,,,,,,
,,,,,,,,,,,,,,,,,,,,,,,,,,,,,,,,,,,,,,,,,
,,,,,,,,,,,,,,,,,,,,,,,,,,,,,,,,,,,,,,,,,
,,,,,,,,,,,,,,,,,,,,,,,,,,,,,,,,,,,,,,,,,
,,,,,,,,,,,,,,,,,,,,,,,,,,,,,,,,,,,,,,,,,
,,,,,,,,,,,,,,,,,,,,,,,,,,,,,,,,,,,,,,,,,
,,,,,,,,,,,,,,,,,,,,,,,,,,,,,,,,,,,,,,,,,
,,,,,,,,,,,,,,,,,,,,,,,,,,,,,,,,,,,,,,,,,
,,,,,,,,,,,,,,,,,,,,,,,,,,,,,,,,,,,,,,,,,
,,,,,,,,,,,,,,,,,,,,,,,,,,,,,,,,,,,,,,,,,
,,,,,,,,,,,,,,,,,,,,,,,,,,,,,,,,,,,,,,,,,
,,,,,,,,,,,,,,,,,,,,,,,,,,,,,,,,,,,,,,,,,
,,,,,,,,,,,,,,,,,,,,,,,,,,,,,,,,,,,,,,,,,
,,,,,,,,,,,,,,,,,,,,,,,,,,,,,,,,,,,,,,,,,
,,,,,,,,,,,,,,,,,,,,,,,,,,,,,,,,,,,,,,,,,
,,,,,,,,,,,,,,,,,,,,,,,,,,,,,,,,,,,,,,,,,
,,,,,,,,,,,,,,,,,,,,,,,,,,,,,,,,,,,,,,,,,
,,,,,,,,,,,,,,,,,,,,,,,,,,,,,,,,,,,,,,,,,
,,,,,,,,,,,,,,,,,,,,,,,,,,,,,,,,,,,,,,,,,
,,,,,,,,,,,,,,,,,,,,,,,,,,,,,,,,,,,,,,,,,
,,,,,,,,,,,,,,,,,,,,,,,,,,,,,,,,,,,,,,,,,
,,,,,,,,,,,,,,,,,,,,,,,,,,,,,,,,,,,,,,,,,
,,,,,,,,,,,,,,,,,,,,,,,,,,,,,,,,,,,,,,,,,
,,,,,,,,,,,,,,,,,,,,,,,,,,,,,,,,,,,,,,,,,
,,,,,,,,,,,,,,,,,,,,,,,,,,,,,,,,,,,,,,,,,
,,,,,,,,,,,,,,,,,,,,,,,,,,,,,,,,,,,,,,,,,
