PaulMeinheit/Bachelor_Muay_Thai/processed_Data/E1/teep/scaled/JointMoments/scaled5.csv
R_KNEE_MOMENT,R_KNEE_MOMENT,R_KNEE_MOMENT,L_KNEE_MOMENT,L_KNEE_MOMENT,L_KNEE_MOMENT,R_HIP_MOMENT,R_HIP_MOMENT,R_HIP_MOMENT,L_HIP_MOMENT,L_HIP_MOMENT,L_HIP_MOMENT,R_ANKLE_MOMENT,R_ANKLE_MOMENT,R_ANKLE_MOMENT,L_ANKLE_MOMENT,L_ANKLE_MOMENT,L_ANKLE_MOMENT,WAIST_JOINT_MOMENT,WAIST_JOINT_MOMENT,WAIST_JOINT_MOMENT,NECK_MOMENT,NECK_MOMENT,NECK_MOMENT,L_SHOULDER_MOMENT,L_SHOULDER_MOMENT,L_SHOULDER_MOMENT,R_SHOULDER_MOMENT,R_SHOULDER_MOMENT,R_SHOULDER_MOMENT,L_ELBOW_MOMENT,L_ELBOW_MOMENT,L_ELBOW_MOMENT,R_ELBOW_MOMENT,R_ELBOW_MOMENT,R_ELBOW_MOMENT,L_WRIST_MOMENT,L_WRIST_MOMENT,L_WRIST_MOMENT,R_WRIST_MOMENT,R_WRIST_MOMENT,R_WRIST_MOMENT
X,Y,Z,X,Y,Z,X,Y,Z,X,Y,Z,X,Y,Z,X,Y,Z,X,Y,Z,X,Y,Z,X,Y,Z,X,Y,Z,X,Y,Z,X,Y,Z,X,Y,Z,X,Y,Z
-13.704700000000004,-7.999710000000001,0.15218000000000004,-10.801440000000003,1.60366,0.4899100000000001,-29.861100000000004,-43.30323,1.87803,4.755190000000001,-5.231300000000001,-0.13234000000000007,-30.370730000000002,60.10595000000001,-5.846620000000001,-9.630650000000001,3.0054500000000006,0.5359600000000001,12.596980000000002,0.10714,-7.412210000000003,2.5939,25.600050000000007,-3.0651600000000006,8.953540000000002,-1.02071,-1.9177400000000004,4.35217,-4.348620000000001,-1.64079,0.22791000000000003,-0.29728000000000004,0.04247,1.64945,1.0420400000000005,0.00415,0.1165,-0.0831,0.009970000000000001,0.15343000000000004,0.013590000000000001,-0.014220000000000003
-13.346048571532407,-8.09105812837387,-0.23191392138709083,-4.998452888740357,0.9988892278768057,0.08834953150748734,-22.627572617095698,-42.087091331969575,2.898216491761112,11.426497129367924,3.3537005288134725,2.6391167534336426,-30.251996074630664,59.16931415836799,-6.306809617963343,-6.799491708242449,1.8459020563583766,0.22992346003021746,24.8533343623855,16.916249436907254,4.176008285625993,-17.855023415463357,-30.045805691515554,5.235394785697781,5.628723248956614,-0.21375265010653066,0.26661731586113746,9.293311790090305,-1.7134335071146336,3.261744581343501,1.2187575701278073,-1.9202016178528865,-0.2527433723039068,0.644370954962786,0.5893308019535678,-0.24145387874122978,0.2862568382379227,-0.22413060530736484,-0.09187558679102972,0.03959635771979418,0.02021049047982594,-0.05728037094747106
-20.755211008511587,-10.363248157852865,0.9959774207577361,-9.275659442982978,-0.2726191678760682,-0.1033084639665404,-48.752422889924524,-43.76707893210468,5.87402814444304,-0.920493162943518,-5.575498994457838,-2.16701948603455,-29.647621786822402,59.637304844708495,-7.07706540664236,-5.164999367966792,1.0897024102087702,0.08238726803761769,-19.71277282266096,1.291921125072255,-6.0734729758941555,2.1776192279733864,-11.301406332471222,-2.0070604947096875,5.199305928230249,-0.5856636084865793,-0.327871154313522,5.156915998034818,-3.918173631780904,-0.4194009487031165,0.6473419616450149,-0.672049444094751,0.3118066443652384,0.9260139869846866,0.9572081179357496,0.20975901745870126,0.037674495508981526,0.07609984395002542,0.09731494613042832,0.14047125187913315,-0.19139285080479237,0.21042473893120933
-21.249985950702172,-9.924506375520929,-0.07868547044581438,-3.133478837040326,-0.7490678310535014,0.15182361305059194,-35.33942675007306,-45.176087474635835,1.6541122630778802,22.538197132724342,-9.0685798258784,-1.5822924332480948,-29.180724381594437,59.220397964783274,-7.818517910425445,-3.2807656685514153,0.4970595863522181,0.22183315482351726,30.323166804464627,2.2593759269791653,-9.228661427694783,-6.050630861510686,-2.8046722411544067,6.9973648589672415,6.724663194198895,0.5998839296704032,0.4483569337701274,8.42948702439279,-3.042698341626856,1.1579318253923607,0.5288102606903918,-1.4343401022867976,0.06752546995311662,0.7664951467143093,1.0823457597350226,-0.7880574564912944,0.2131534518718574,-0.11374690965780784,-0.06589187456784495,-0.013931381531286988,0.15370046245335142,-0.23303949510462185
-23.254461423305465,-10.23431106349466,0.29891691078400484,1.156996435844752,-0.03464705050650037,0.05668935277841037,-43.303360089510605,-41.829306533364665,6.035044433666694,13.926527071988872,1.493348901304503,2.6522572358672836,-28.447395262549446,57.1463433087387,-8.326574938183839,0.45388420127831475,-0.22265358571008403,0.007550414200638133,4.723531913977884,22.80932966921946,2.4930542267866436,-13.319977633829897,-0.7243826725636292,2.536534308747523,7.571158385248555,-0.21619357697148214,0.6989056162348113,6.442493150592105,-2.7888078739609568,0.583766338804285,0.6083326305222573,-2.153856657612989,0.5302119461567211,1.8284334083064542,0.8668694869780825,0.2952334760045663,0.19180867295753404,-0.29393333934243754,0.14239710316304233,0.2965604228889302,-0.11088281938576054,0.08651050629108697
-25.014332516233154,-9.889427528971746,-0.08852172651978625,1.0295279565078614,0.20544126678672367,-0.28290735748749696,-47.15862440853069,-41.496325852684535,4.694258401936155,21.35597957070685,-1.7667279692216977,-1.8615792359483374,-27.30755745406156,56.38234583066132,-9.056085361831201,0.5814582866118996,-0.18214610776442605,-0.05578293650146071,10.64967990786312,22.181199563728157,-5.55219752640378,0.3287325690133539,-27.782522050030988,-1.3294040374941176,6.7125941041841415,0.46286146365126396,-0.045343688855590925,6.18465770463829,-2.6097960970949146,0.7321838849630696,1.302510718300787,-1.0216884978861958,-0.1534647118416918,0.45707845804199415,1.2480157130245844,-0.12386359009285267,0.25473138040047083,0.01968745622489133,-0.03875916268088001,-0.054626983358847525,0.13164349695603628,0.012559572982997994
-26.32463893174128,-6.397792437089435,-0.3969186917058031,5.546560471074577,-0.5286455261386839,0.11073549404730992,-45.82830219861237,-42.97495942055491,6.355274268869663,34.164277483077555,-4.177463354093756,0.23640524331422932,-26.56728502359305,55.85849888455098,-9.527163698815217,0.6934309779660104,-0.11313382403340758,0.187471906803874,25.879135517891108,4.353295112008549,-3.4708040832187796,-15.45442691931195,9.163164804321944,11.93547615990978,4.980947756014635,-0.880772076641048,0.7089857394475133,7.476655080940973,-2.2265947581070886,2.914256477940744,0.5648750914113783,-2.2096060219838183,0.3714392284987773,-0.06904012822770476,0.3351121475475421,-0.11250472923399402,0.16168280992507122,-0.25778848180164177,0.08781403637626115,0.06452671297603679,-0.061052308596353744,0.07363043933141385
-25.620749491731903,-4.175253783051752,-1.4808536790442925,0.5539216528673487,1.3418689655541258,0.07515074474350479,-35.97010428180508,-42.58309731777733,2.942853603429363,17.47835711227995,-1.5459506842421473,0.13588614873013496,-26.32277476433483,54.63446622866196,-9.86119496007153,0.45158233806254683,-0.11977073701294094,-0.03009074629446841,15.776798589417803,15.938073965836967,-3.662288558917115,-42.56353006757162,-9.040775217094362,-1.159931931779818,5.990460434946753,1.3152883783688576,0.6437985018735602,7.536238298364216,-2.204060549020332,-0.8442007124093647,0.38744451353923676,-0.9758218620866072,0.010670966916001523,1.9966529674448021,2.724873579520027,-0.3199468543452001,0.17434942007887158,-0.045202101514727075,-0.06594940943979738,0.3439765552706402,0.3168275959118707,-0.06481040708705219
-26.511867954513058,-0.163426159853137,-1.7716521689036093,4.628841599757814,0.2499355692697242,0.11752649004234311,-40.03252483079543,-32.86068718627979,3.9881727979267376,32.72716211551198,-3.8390506859809927,1.3139763023380586,-24.694888626945357,53.42911536528665,-10.09314186144945,0.40438113604027953,-0.022046674873025883,0.043556199490158314,27.286126492281245,14.017501157101771,-7.2820429781472695,15.56169929427456,-27.85468836667124,1.6432518259461073,10.345148226779166,-1.168609359123905,-0.6916153565323779,4.289503343990542,-2.766207631379572,0.2219580047655684,0.3539146306968896,-1.9558938617116988,0.4593529164927016,0.2584442008770427,0.129975812677216,-0.10463671218840224,0.17653120988598336,-0.17300136524878085,0.052287120897118636,-0.09637567998055868,-0.0889491671993217,-0.04647602124406257
-26.5978085345161,0.6098855809584903,-2.1088491628553436,-2.7541655892907717,-0.1953701426251765,-0.18402250353454075,-32.09387408139067,-34.342363987158905,4.178331674472948,13.779283544479398,-2.0030864221707523,-0.30801442771710513,-23.84140015317574,51.993765008027765,-10.562434946769782,0.09419267785157708,-0.28263849950378117,-0.13265928585345296,12.90963469194321,21.115176364122394,-1.097269900785101,-15.52249448363353,9.881339330090668,1.0381689324318137,3.2764920048438735,-0.1552663439952113,-0.05893711895057011,7.79001099026883,-2.414308998651826,1.273548444394311,-0.4024068509450374,-0.4843260560040506,0.32311950586540583,-0.2362298874788316,1.6481465379437925,-0.6238384340315195,-0.15615400209764158,0.053315324013362475,0.030018099065651564,0.10116230342741417,0.17974973249403867,0.013422595862672266
-29.22395065179497,2.9936070374023394,-2.017368845084705,1.6562750333518905,-0.6780892064398634,-0.17641609325844834,-37.99651423163552,-37.58211404952263,6.704868786142651,25.5967668436731,-6.6216452883231405,-2.8666141178352236,-23.33023023373782,50.119190395531945,-10.776726605287323,0.20492781168471874,0.010033983467057856,-0.024409086016011095,18.726343343764952,2.5375515457129216,-6.434063935067737,15.095186958965815,-28.02421167215953,1.3584564117048352,8.723327586414499,0.9181137927617566,0.3614852277437226,4.321481346206121,-2.0497522546275406,1.3986248507000345,1.5683138994768295,-1.3990909721166447,-0.1736534732974453,0.2545852530259046,-0.2454352635169809,0.27613800138176076,0.44823312427278705,-0.03776878284461853,-0.0648378651601511,-0.05999224845667279,-0.2782778644827507,0.10052395866174176
-27.000958747021585,4.548640349054727,-2.92034712846027,-4.6025868933778895,2.4048098009107974,0.2571454987932098,-21.13768821119999,-34.64908325139834,1.299291152299456,25.21333623281511,-2.5362846406726804,2.7377296003588536,-23.660524814399814,48.86286876529446,-10.861780945381579,-0.3324228076850236,-0.13623661616175461,-0.08488858705367323,43.40191576643293,16.99897032371167,-2.4512900763264573,-40.23870910818988,-2.86416309794071,5.741115622189537,3.9914763366007806,-1.2763251181826627,-0.4235332787224108,7.452923052950686,-3.2255455599998286,-0.4204591087266403,0.48853923331781113,-1.0691727681524938,0.3293779408767962,0.3699129504387949,1.736603707450239,-0.7044540129878897,0.07126290842084186,-0.10120145557664202,0.12906068187116626,-0.08454846899237825,0.22692211913719787,-0.18435230861059923
-27.742501943039834,3.4748314617802207,-2.2199108293020666,-0.22103107634651434,-3.0887380766529517,0.16077286612107156,-20.09526749320851,-35.013941566264975,4.70918427380958,23.737313486690404,-14.496985575925544,-3.6727588735936436,-23.89161030738411,47.51866089021851,-11.17983354873838,0.45188572037341473,-0.49453536354730193,-0.00958075393850648,35.19974522756344,2.269633597859569,-9.276660989012019,-40.15108481395664,-11.657628726292655,13.448581557066062,7.631023708528568,1.0423279206958527,0.6089614964984668,7.800583955920722,-2.3545238655448983,1.6987311899637931,0.011208994092380162,-1.4763226694366567,0.07002137993430244,-1.3316635112561088,1.7240195915674341,-0.7792229642065976,0.09878867714578808,-0.17723157643591586,-0.05367494857706457,-0.06973627699523219,0.17030579217567998,0.09147456665054034
-29.710416802450613,2.3087400695953963,-0.9246215628376458,-2.8026472138023397,-0.0644021641814848,0.017512041721841436,-28.23186320499901,-38.00089031941559,9.36151490624389,17.440154865339075,3.3272047016541357,4.158670432108178,-25.564341203966887,50.53489618972678,-12.068668074607732,-0.030949529320310018,-0.11125932984078317,0.005509027053141959,18.932181604887734,28.529646874390338,4.619154717061415,-21.406828376981437,-3.428799352641376,-11.093085028512908,8.848948345590557,-0.15784817272194326,-0.38606122314986907,5.844204611029432,-3.2609115338108916,-0.3367234289366048,-0.37274573323378135,-1.1853249773835184,0.3356154426865047,1.3923408778525714,0.6411328087998474,0.5212245342355623,0.008193769028651529,-0.06821731345070786,-0.01098996946692495,0.1298406718977418,-0.10438144342605565,0.07500149078191144
-26.6296198259639,3.674464429219715,-0.7121742459036369,-0.1641279106157632,-2.461606614155124,0.44335900785112853,-27.260078452082155,-45.19765440663341,9.58517697482113,28.167891466636515,-16.411087305282056,-3.788481992942127,-30.70340202856121,61.116253725541064,-13.85464997794482,0.5958220337046601,-0.4995664290285047,0.03372298101611005,34.193823571930686,-6.825621291100674,-10.266436520715308,-13.476820124514308,-18.112780501439467,4.035818592040081,12.057498880301642,1.543724457143929,1.1827122364382825,11.012216554515271,-5.097401357396043,1.0590843639475505,2.12467173686883,-2.051534802543304,-0.2184903689560693,-2.3668295471598593,1.7044389821019519,-2.151096547191359,0.5727186047858597,-0.0928251843496394,-0.04859362779870618,-0.4058881207191817,0.00851041005161806,-0.2092699008919947
-21.310859040416894,9.361099039390345,-0.8154009060673336,-0.7460684909912065,0.8527873609046897,-0.1835416860001373,-20.64365107024834,-26.10757429203933,8.468013383905417,13.198982794034105,4.253173368987058,3.313808272687764,-38.368812930378624,77.39356616981047,-16.814748750240785,-0.16350479796058895,0.05819518614687188,0.06598416951150687,23.434641038401836,46.49805983476995,0.9355163256647664,-18.363312221273986,-6.529973631302866,-2.634727140203636,9.721745096992526,0.5016487823955164,1.3226313871999487,7.9610963927091145,-2.2528178174304894,-0.4216291524990164,1.5046203861629772,-2.423329525652414,-0.10681797538830336,2.460878559560784,2.312535094424248,0.4316845324697315,0.42234078712478507,-0.1853256479639405,0.010690620482665263,0.43211544952056474,0.23520444499332638,-0.0002387602444380993
-16.2659654262408,14.492008193332882,-0.7138169712027352,-0.6010472475210774,1.2783266508390558,-0.1869470464896184,-11.832186771256593,-39.21513297709676,9.675116622702397,28.69019833149921,-5.571618082267751,-0.5254500196520039,-50.110125096775704,96.22773713656369,-20.485542183063167,1.4710979202452998,-0.3798626822317886,0.14554427539842837,59.01516272974707,19.48682008925043,-0.5072318758287668,-16.761627794245754,-29.169315399062896,5.49973216469346,13.490487459380128,1.870029000033347,0.06743939315783673,8.369884772686792,-3.3356638450465756,-2.5497776748954193,0.26662998835167395,-0.939236238618627,0.3711797472249985,1.5578379940221254,3.358896771107579,-0.2845020359591051,0.2538839942185189,0.07499418537738155,0.029132705962952206,0.34084590987397284,0.47076889824325785,-0.060827934150635435
2.244851781957599,16.821594003832885,-1.7197828034037386,-11.70806194373983,-2.3806565275923073,-0.8172100416008539,25.392492682505818,-34.772106666473356,11.148871201387927,-28.38878009103037,1.7212285595077694,-3.773111176654683,-60.67948323713328,106.87927495393468,-23.095637546383614,-7.801978586596965,0.9366872365520515,-1.6632901679082799,21.82073616801033,30.696569275021854,2.5493591455595204,-25.280441862177142,21.988228348034394,1.7129685217881345,9.346163595542482,-1.0237789180093355,-0.5275811226737029,9.605271516329946,-3.4471458405667077,1.3126111063937396,0.14174249834476157,-2.392374588664075,0.20829082518632147,1.7145645450333544,1.5656469785673528,-0.32671499490839884,0.29363818154608756,-0.25480834612285297,0.04878526733766825,0.46561257144848195,0.02535968616674953,-0.05999527232969744
28.252377493141356,13.539735025266948,-3.8311177513709773,-4.032492162203918,-13.310369421626202,1.114354273700264,106.04709155448917,-43.032821458068405,6.398290567080561,-56.622013424943525,-15.052165810055602,-9.85378400193103,-62.724556491443614,98.9593702560157,-21.780847194519627,-15.42022699601878,2.629919401319525,-2.659267606356864,83.01815169608653,-18.83811943852451,17.735032205264336,-26.283733508715528,-38.49232949725702,0.26150199280007436,12.049857382684557,0.44513460368544155,0.26382718630992175,6.832518635722989,-4.461641123046487,-3.7582960922906516,-0.6492525022166638,-2.586207058620689,0.009142308824849229,2.2873756914778522,2.0039061004142944,1.039901800199419,-0.002839165257953452,-0.19154070002102647,-0.016318873821951862,-0.021849915606206763,-0.030323139761911415,0.04967433773762612
50.9543674076064,12.864875451291464,-10.135296371716201,19.1531793920857,-11.792771636116818,1.586259271010485,111.73094024180962,6.46075149070886,-5.624558169651931,-63.38897604316978,10.766432474483771,5.0058600208438735,-43.177358841469676,67.22643823359314,-15.054856282906078,-33.956324472867905,13.101999589495415,-2.2717718049063405,49.9460349624773,41.117204164144084,20.091815300460794,7.60549349265632,-15.35146709156999,5.92452299366755,7.119171561275862,0.5466333981954242,1.140404150370414,6.904058077321792,0.6865981291863693,4.721387896257047,-0.32196001154765475,-1.876054896290369,-0.16764482731728997,1.515455433244279,1.9341072350981605,-0.47587871930607134,-0.04668369460385399,-0.2577000527825279,0.01636192983801582,0.43972227510821527,0.5240060369066032,-0.23783902289631195
63.39956696583622,16.134487673899397,-24.850234407777716,45.357707564916296,-8.822867383028829,2.770448643785,117.3919523323852,75.98671008248495,-23.361041409810007,-44.01882571830414,19.519875787929035,5.387219663340805,-10.067633008840819,32.82025929184305,-7.074489706430623,-55.28807756057665,24.13276832235681,-0.9585025644514096,51.21161867613394,63.69618651111691,-8.82668922504319,-12.018818374618421,19.53647526883964,-17.878475240730136,4.055831785890816,-0.6802241233280575,-4.303733548931672,-2.662861396920554,-1.8905160339742406,-6.108904230104696,-0.9461779149455263,0.7528390369422441,0.6688433016897101,0.8811886228048778,0.3131363539069876,1.94395169750716,0.041299486705924295,0.1286995283355163,-0.01733403803547313,-0.24685928234695353,-0.2421853387161468,0.4055528664085775
26.860754845957942,-0.04009961497367881,-8.879367135892458,61.53915795446374,16.67643108757682,1.1848755954222159,90.72356070764846,-0.5155127123783021,-2.7303157422682744,-33.01306791462956,51.948187937834845,2.5737373534323638,1.6171702611702459,8.069018639569318,-3.678960265416677,-77.10655549593139,31.389241712099608,0.7270526565506632,12.454326471871793,-38.2567484320023,7.215127797726287,9.757448238202688,4.876671829650138,-9.671942434979261,5.594556900182866,0.8251746865716234,-3.3193705115227043,1.8265699832971576,-0.7500478711085224,-3.19260302773344,-1.5921601063430275,1.1085343321542862,1.0135714237007205,0.41674362063125214,2.039986269988033,-1.8430652911900578,-0.06770023504411939,0.10934817232772337,-0.0200110361974604,0.1297222351733721,0.6641989579360125,-0.5848016717431316
-8.794995033738312,13.12997276144151,-12.002282665949398,66.52415941410284,29.41853291690973,3.9856821476472963,44.676953760728686,39.238482068681094,10.861184069250859,-25.984885304952694,60.61807882913804,2.541069453389252,1.3378812282457224,0.16454193177394608,0.10233761796664077,-87.38124142294879,34.79787588532865,2.664284416151171,-34.58757847660798,1.4842575404988694,1.1024172537168395,15.922631110339914,4.4346003575074215,-18.66847644419376,2.4664289729860496,0.1836286720110791,-1.9892695305477437,-0.0020332329884460354,-2.6755735596339187,-2.298331490650102,-1.4627333734964127,0.8123742114852593,1.040302540684832,-2.206863873195961,1.0394051686778434,-1.1867750094454033,-0.2359649257311181,0.29784783639981927,0.10423877007651657,-0.7659098010547362,0.033258898118303536,-0.03621079341355676
2.4098792601857624,2.8944535524535,-3.6750020329859563,61.91161725501342,42.530709637713294,5.522281427036263,44.15302320550572,3.6892286314073397,1.460570260508839,-0.04099520664236622,65.20731073327981,3.980731927352882,2.7214604565348903,0.01315213348732526,0.4732645846544674,-82.96780997343166,33.915327972759826,5.39289566235729,21.16688478741086,-34.310491801445984,-8.877991029350497,-27.717345938085426,75.56730860196747,14.308973791038774,3.8701508815188186,-1.0741226672677657,-5.883652386504748,7.372520406823295,-6.792749842451963,0.16257981114977538,-0.060969862169719086,0.6930980853408827,-0.2800333384869598,-0.7291047345839576,1.5514835295537164,-1.9481465353021197,0.03733992166785326,-0.051222283448337076,-0.19859111704320825,-0.17750050473920662,0.1642197888368492,-0.20997784690350832
-11.689459268822489,5.521007136778366,-1.1664817668281684,39.18950080647334,43.795830899193994,4.814641192060252,31.342119954173565,3.1956090952117204,4.653703555040718,-34.49502462968858,70.93146359754874,3.4888788417225864,1.5163987618181376,-0.3823636649499902,0.11854001089812242,-70.83892376420951,28.85188211680396,5.717426604106406,-55.26292343755801,-30.46706617883424,-21.00088820148761,38.23067699263355,-21.871877214300934,9.321548175144812,5.11420842252936,-0.3097488338827833,-0.23980323774341888,7.90461510512401,-7.101807155738413,-0.28590008630795927,-0.32882688828122575,-0.9190707559943901,-0.12877446270120468,-0.1022460147557253,2.6662057940460793,-1.9143886467130273,0.0569936457047918,-0.042590730097069526,-0.029524964749482418,-0.2806816483184306,0.2628374959439038,0.02911727429704353
-4.751807742365693,2.926144864656473,-2.152638547953521,33.99457365671782,34.7786085206624,5.18715833815424,36.37272610716469,2.388426487458942,16.21620504785803,16.92537902110273,43.551090285371316,8.726674567912552,2.4480856158670252,-1.2643580314349672,-0.4134537030231016,-57.15196377676568,19.739749619355084,5.06063168708654,56.80653314266425,-17.69646169036769,-0.7589459955619101,-2.9891088053985557,1.6504634121994843,3.1237065309932652,2.4266844607209896,0.24340051390933107,4.587060699969499,2.796932180697808,-9.133624888375882,-5.852775429535888,0.8797520288362737,-1.8350127285515894,-0.3679659210452278,-0.05093424924925592,1.9535846920142605,-3.4521252144270185,0.29052319933465814,-0.02238885503324671,0.13456674386382897,-0.30501341116175357,0.2893606368080919,-0.4080785012867398
-17.78244535135607,14.67554625822948,-3.391869949354084,16.88215528461361,23.93157303328693,3.407730036475258,26.99161195781632,21.55999698291768,14.959902853417425,-23.00694415459507,33.48638528571796,1.030667356356105,2.206984765943935,0.6023419427072786,0.558655500029913,-46.73399255755184,13.304245636749954,3.80397813621576,-7.713877926331856,0.43089804967500783,-28.41713204358956,5.8949684354537615,-0.9874560573402582,-33.07414573631829,5.146264458331331,-2.083490423610059,-3.6664880359324012,-0.5260590503762869,-6.109200684424337,-8.09452366499525,-0.43116415171067246,-1.3115910274373053,-0.768771309699208,0.8811063055145932,1.5771921973980145,-4.030788914511422,-0.017986962761570524,-0.5355812097678405,-0.22410581392058096,0.44321828523162826,0.2310382077424179,-0.4562138688580369
0.4687002068317358,8.282336123177695,0.07923043568981566,21.707780856687943,30.31129879290436,1.6304592188552292,6.245359151912532,0.9745985332116344,4.436328799766064,-5.931388638029748,61.10245073515116,13.059697196501684,3.8828281339220374,-0.22376211888894437,1.0953662280615784,-38.66008058380914,9.540034482646046,4.469574135370354,-8.482591647235557,38.23443518370592,-2.412378033341211,86.11707247271195,-12.774160634127226,54.32880224008432,3.754744713690488,-0.3206334894979393,8.796141045619661,-2.82482185332446,-0.8606094794762498,1.2137142746054759,1.7878804948557432,-4.250170433079257,-2.507705098070939,-0.655185835198075,-0.42720238629733676,2.8206021465129765,0.2993406757810263,-0.3750643982553047,-0.03719339816021838,0.011189813460112398,0.04497681588934124,-0.018520446236133584
-6.705585507621747,-0.9433032957664531,-1.1654082767617262,19.06772263604201,13.612928665523754,5.1990717904868395,-68.29776146088054,9.265979252480566,-37.74462942965575,-41.824762121697006,4.0029683420440545,2.530665425614795,1.7342622408345632,0.1545622312142097,-0.2567265844044585,-39.26827461336889,6.972427457824665,2.9628593323545194,-127.23943424253287,2.5026799358549865,-21.277871260344412,107.02720062624735,-15.166741617577499,-40.285591971686905,8.061441165667034,-2.016304982634402,1.6539735845492505,-14.897417564431974,-2.901945718445799,-28.986680217933802,0.6798555985023091,-2.5358219941736744,-0.7951708759593786,0.2517506352222589,0.48915972743236347,-10.699425360946272,0.14158427091581674,-0.0596841619360097,0.1916861943639729,0.7041670951703363,0.7314558553232912,-1.708614360072431
16.4391729539425,1.7577343924123896,3.9236999198509217,26.25225083742095,18.82927605019888,7.123188174013245,-54.67535663040452,-8.76613491876256,-5.713643210006158,-56.234849800857084,-6.958734853682834,4.277645198494546,1.986471952366237,-0.8551490950610771,0.884786287515202,-43.731922677152625,7.2518082741287175,4.0606124634332215,-126.84495805336626,-21.19644678047461,50.43009209754584,149.27433473901763,35.36547451824131,-0.6172626232140027,9.413389854764029,-1.2229745860680759,-0.09468977167706151,-16.970610110266175,9.067248489555976,-18.258517424139615,3.790390602337836,-2.0059190159863527,-2.6006087106033524,-3.900425741676238,0.6917071008385488,-2.6227106506043962,0.8663841691242588,-0.28110649622111594,-0.28539051182997094,0.37363526149041726,-0.023702198600093993,-1.1487574208568105
-97.45339809636516,9.385552583719306,2.10380715965387,50.52431948210583,30.900062912488973,6.895108421828502,-213.41441450324865,-3.193822719173121,-13.826484177819582,-3.321274468984231,19.39711781232386,4.208550388139891,-6.059528202689637,0.386632225962332,0.9508593821337681,-51.066341050963764,6.047506436070694,4.700633401623852,-231.84981490750576,18.541383024448265,3.1554822422474142,182.73594438852768,11.138454659880555,-34.234702177229444,8.3099149659925,-0.3263986793741048,4.538314103898193,-25.498112405158707,6.676466548664912,-26.72548218133591,1.7937636811551674,-2.2231906831336046,-2.2623245047492366,-0.5491766358449282,1.3203109513000233,1.7516798791850476,0.33144723694670375,-0.1075956559438761,-0.2337833684411713,1.3101407458398417,-1.1703225290442063,0.2828707621163473
-73.10865683595956,-3.884785241861654,-28.26265332138428,78.72285412050648,29.117358743242047,12.676613069358357,-49.75248587453577,-1.5627545388290898,-16.170278192987787,62.88635791182356,15.191457566790472,9.241321315479091,-2.530782684132602,1.6663483189471957,-2.500830417588615,-55.57767501406205,6.258515538318929,4.9919429823553,-29.80900718039993,-22.43324837551587,-62.72180687171568,85.9436046256962,2.087986880428907,-21.451160605356726,6.777653041707423,-0.8179299892859663,-1.751470923390453,-1.2715749270139631,3.802960772992609,-0.3143904083966976,-1.2850236645953916,-0.66752433439981,0.6679169007171732,3.5228097461423165,2.0951699934276435,5.137926396113487,-0.30700757814522933,-0.012700471408661705,0.21495650152453002,0.3936610509614364,-0.3049823577029537,0.6622265928961809
-8.167644524642375,-4.991452157014661,-13.081121626924409,107.3097310158844,29.45864657349319,17.82073021688644,7.525478157738813,-7.658856505904161,-29.02051776615347,101.83210031013357,5.245730462339649,19.855363061398847,-0.5065908656433286,-0.4388194100190524,-0.333058676226887,-48.24513865604642,11.14783158463202,6.084083539522852,48.92395025889605,-37.935556668769685,-33.11064073967849,40.05651344758543,54.663937340511595,-53.967749702161484,9.521199579365787,0.14342304576888532,-12.402948521328515,-3.1763522640001063,-1.044440582706524,-1.418192989538803,-1.2176622283150602,1.2719516477487844,0.584997654739329,2.765922087492602,0.3219927813386534,2.6602879772638977,0.24613192822729651,0.3093682847798236,-0.49266504368748376,0.31949426251154217,-0.3826948729484727,0.5459515874668603
13.784633595005939,-2.8233007539948027,-8.744962162170284,139.37968353426874,36.09188641391806,18.312043405877944,43.01846531687836,14.634649402870485,-39.94888744435122,152.8297608485038,39.19961577996855,16.96906290354617,2.2743982664681424,0.5245323002151172,-0.3734866966448804,-34.234722881683965,15.485781853810611,7.874940864582527,162.2306674518998,-2.896800474581858,-53.25191893415457,32.485100282111375,-63.98858215983199,41.06704055984164,5.59032414088153,-2.3772394196438666,-0.9710715557845451,13.855825201358112,3.200759457924527,9.318586540808077,-1.3366227605759593,-3.275480813145165,0.40939138792895063,7.057322668214653,0.06160179712388451,6.9939496608178935,-0.26950813386340033,-0.7668070604395612,0.3492043864624485,0.41206587540180895,-0.4656287396039291,1.494501135293904
-7.522867055072359,0.47963975577734896,-6.0292053068035125,149.02053702110163,42.756637478609406,17.8465030648042,30.25222711253729,16.099439526325597,-44.17226005642386,157.60263739675347,35.87611160524839,13.513337636808108,0.4377444729008909,0.11888911243917306,0.613152613261822,-20.86134774597773,17.54524052181663,8.844822535130199,158.05941659212084,-5.672337712637359,-68.50859366811781,18.902895720997048,13.47203363548154,44.73323285328515,7.656909631311131,-0.9707259350250977,-4.186038060578803,22.541320564870087,-12.379721153147404,19.25084607116771,-1.1522005825262183,-1.8413894906374906,-0.02071010522438315,7.379935447848154,-2.957614022712903,6.885297952709123,-0.007310843439634708,-0.1735068837775698,-0.09999203261127412,0.05481220334923995,-0.6141358225442956,1.072987770781708
-42.13147818077181,3.279910617587889,-23.531263067875688,151.5380926574357,52.611072281804155,18.168681565120497,-37.43642288417959,7.454650431463472,-31.019835539876684,221.18450233205746,50.948149206124654,22.043233114146624,-2.753997987046948,1.4093537794124966,-2.2267873717055107,-18.618328301069475,17.170378994597996,9.114486699802967,169.2133635734826,4.144495967078095,-55.04095665252665,-59.110354226362396,-19.216614042366643,27.627697953309287,5.290407058618134,-2.635208212825127,1.3700247832198973,22.95604709856718,-20.018486367167885,18.342159972494407,-0.6280614495738269,-3.7924759913774797,-0.6135798126420824,9.16484809110912,-6.672374967465132,7.194599391260124,0.09209818128313892,-0.7469479743082836,0.006268502453362272,0.5154351841025325,-0.43695828520288715,1.5036899990562453
-47.95361321041184,3.5391592490126618,-22.679446375634505,129.20409224676644,48.76492198412087,16.241598177256577,-76.19169421170868,6.022134353005054,-28.711672832036147,221.01980729024027,34.50804049404248,11.603595705305882,-2.794658911209268,1.3068682537870233,-2.0284345383820876,-24.13937759131126,17.46659023337091,8.661245175654734,136.37689283042906,-4.193597882800681,-53.1998821476906,-58.83011077796802,-7.045414227054304,19.10826621717972,11.126515570126264,-0.5798217854387427,1.7374851594548415,22.235707815346508,-21.01978227732976,16.379563352598037,-0.28258595904911094,-2.592076477713891,-0.3485435595155093,9.341126100968292,-7.8788423970989205,6.876430056103073,0.289406068192993,-0.05237174365514662,-0.06540013118060141,0.6725496074056777,-1.0105175922832883,1.8152104126172504
-45.73193851962939,7.8407617558286775,-0.8768267222457266,95.96487110806746,38.79900388274733,13.275039408125044,-63.98411862264093,3.908503155324517,-8.850008047186687,150.6027044527582,35.20885000576368,15.768983967577585,-2.8402851132317397,-0.07077223560350743,0.2755572540215399,-29.454375716722506,16.87680736973781,7.472258021579584,71.40325663738565,-8.568038800199552,-23.494673499163856,4.880302336230556,20.219140098795346,45.5017096459072,12.03852953307736,-0.07862382457000774,4.7528595514999035,20.352416604567804,-19.535083802332,13.08414911147087,-2.7433178894542074,-2.9614428929360046,0.7347661277567312,8.332796168377651,-7.069807214818783,5.387143828713196,-0.29700893007874446,-0.1565432041743505,0.07122031400882264,0.7653559449711318,-0.830826950977321,1.505118874156033
-18.982730391428156,14.80068295533217,12.11642362501713,70.80502396161025,30.771744368843667,8.433001511004203,-0.5972801241066308,20.963383674591825,30.4728147880714,124.55552462701503,44.72408598512634,15.954723021016573,0.8668756476323229,-0.30341268464803245,2.1062670799919596,-37.901716074842135,14.072233773616928,3.746867298842478,121.65033155181925,15.670010315722156,10.894281838826412,-80.62153496334406,-11.483533310216286,0.9996589519816088,4.468975447117545,-1.7148088888342197,-0.04997459065324744,7.784886602921334,-17.916247504724083,6.592384041618968,-0.3061205377903293,-2.2937663049562467,-0.16604168097279576,4.227226867850991,-6.840090702686976,2.4321287523951587,0.1561104733240143,-0.47002190166636765,-0.013767641115095777,0.11529203251079753,-1.1980738024579152,0.6170387126141679
-11.39597735702132,-3.4893698431576716,-6.926447884094212,49.65121552768744,19.451625167496793,4.795490307185484,-20.10111091090709,-5.399871159074398,-7.121278690960873,68.76804029044628,29.748287205902002,4.4486859517813055,1.4685984706617299,-0.6125768557292551,-1.3935865709867168,-45.4567124277576,12.444413664602951,0.11168270272437512,49.54074612104395,-10.289332867078468,-6.042452727207544,19.713731793990274,17.437406873604427,20.657790681275998,8.137852098936225,0.7497886206967678,3.4216981204286094,16.263335580927215,-0.0779494002622469,5.716755901634862,-1.3573667195586063,-1.3919708741472103,0.41476500116959747,5.95047282233394,-1.373807306655534,3.3616963349727986,-0.23841954595318499,0.07295211775928782,0.13336066663045562,0.4783741917822828,-0.5085309960249607,0.6704735668209592
-20.674197154057612,18.543170744738983,0.5575767333317883,37.674032869006076,18.346080301663218,1.8909659095134148,-4.0032006188122295,16.97054168315961,15.267000247777654,59.27640691385356,41.08965817465552,4.986298959607529,0.8268157214471288,0.3227951574747328,1.1562234170762664,-55.159366466903464,14.663527788225023,-2.930702427016157,34.7565020753472,18.323641412424735,-10.736265545187733,-27.190453395931538,-18.421797743092515,-23.946979616250015,7.7633870841741555,-1.8024692352816125,-4.0330932203464,-4.9673662054220795,-5.2290514139162605,-2.434382725240296,-1.6384536522224873,-1.3224695477994908,1.4771197907376215,2.102778295445565,-1.9818984745673378,-0.27944379516116785,0.11816686256971269,-0.2678364219900839,0.08509833241247113,0.3010302266163349,-0.5253907513028819,-0.14530657519915152
-0.16415158128192742,9.607255545030105,-0.06595986749727428,25.670934152682978,15.11936953979921,0.3600819817508568,41.76133038701272,16.493316665117653,43.13916214694824,26.2949345105745,26.06065338722041,-0.34610461100261153,1.9027854931860204,-0.6206905776674936,0.6032295119329598,-65.38865923567005,21.004912844480504,-5.340558281059395,64.15732448888005,-16.43483638240973,53.61472589326266,-8.118598977224696,-12.080227092952054,15.560177308453163,6.75841326750003,0.12505340360876335,1.4404116072132211,0.19751883747801863,-5.7928040964412695,-0.9220880975164781,0.6915425353540176,-1.6668690476634658,-0.8287573743010683,1.4495936280477606,-2.2272053953082103,-0.028171326885641303,0.1605885977776515,-0.18470384850200156,-0.03998624542895014,0.2692450910677176,-0.7659095293230835,-0.04615548271684083
-13.937647379998925,12.133645778720261,-5.316971830081039,23.284586099790786,30.097696936129587,-0.6813178486917888,27.98269086854691,3.3235442138138938,7.184415656232111,51.10493043023446,42.042989488221494,3.5855849420503816,1.294025425373004,-0.2462782098316674,0.19702909803439897,-74.12284556234664,30.380065445705096,-4.780165171159528,72.71123789083522,-31.907431793075418,-21.25662750666624,-15.743074799525766,43.0102966030419,-17.937388406511253,4.85158921448272,-0.4021354933439802,-5.159791473011812,4.329245664755434,-5.1338036157398586,-1.2869226162180953,-1.1231681653893135,0.5484329816658383,0.942332865651219,4.037684035541205,-2.163522891444005,-0.3348072664782356,-0.08003030419872753,0.15604242086409048,0.0025398542641780542,0.49981428687234347,-0.44060769239080505,-0.2892460844473221
13.667526555040219,16.312239182563882,-8.65200774179588,13.783618694327298,41.164494181461905,-3.041310121988892,83.4769468672833,19.490382706960098,20.123171335255833,-24.86344494180893,36.27018566563464,-7.358120777027221,3.9818549529297487,0.22929168667667044,0.9006036145608005,-84.21857772582831,39.36478770314783,-5.861567539637548,32.299824002274434,-37.39932124192791,10.498031373170708,-14.271944777957511,-3.7576569646714906,-6.7189067056067655,6.019674521750962,-2.0983813632549255,-0.01543031016111529,-2.909304672936817,-2.527904997877846,-2.7206034793485294,-0.9254096054334617,-3.2364705102835685,0.18067134003725532,2.2097851399449855,-0.8552495033286143,0.08616285128176555,-0.0008130651172059238,-0.6218105044138508,0.10021671985580449,0.5143111023275038,-0.3717237042636196,-0.23945553988989474
2.367631019782703,-0.2235858122221986,0.3002973864382029,10.730445673092698,56.06425031698592,-5.755247736735269,75.2070349297368,-19.120643937672234,13.385189096078541,-43.19865599719831,84.99016790924244,-7.338827110469632,2.0855561102369307,-1.032974201158134,1.064964486482158,-91.26618074577854,47.20128325033627,-5.458834898685136,1.4273569020230112,-43.00306135574495,8.874806798499872,7.217716455302204,24.97267691884116,-10.496023736458389,7.281027440868812,1.0285658810163365,-2.4721437042604997,-6.463871948031379,-2.038049703296369,-3.301747853152812,0.21359861891950913,0.32540449555592854,-0.38114395406355817,2.34344768607327,-0.8749897808033129,1.5821043576267013,0.14652114832604438,0.3516776273545408,-0.22017736951346667,0.37748595629182846,-0.3406576594061698,0.3506253004485245
26.360189882495305,7.826850069890834,-12.447906799576405,17.21024937448925,49.31805627337897,-6.718433218239147,117.1736983094351,14.763450706253115,15.229815375263312,-13.55753317565341,81.2891205886363,-7.373012245968581,4.1985136539574155,-0.10203073198599749,0.6221629100225146,-100.28322502807978,51.52780611608562,-6.55259641455213,96.01770165983424,13.351259069050258,14.389403883839469,-10.070294002860994,-13.420371260582936,-28.745489065069926,3.9943591721509066,-1.0684497221186986,1.4456104440546669,-4.897804989116645,-9.01098816254909,-12.731850799753932,-0.9950510364969727,-2.390510135598534,0.6762792021485327,1.44534483603567,0.2891246929995848,-5.026944473623096,-0.21122715924847893,-0.4648381557068563,0.328504345262614,0.5544423938671798,0.2758259974736998,-0.9955811471250029
24.585978413941433,-7.467925156983095,0.4852625451323677,0.9213110931341705,41.954000715587064,-7.755602304663679,69.02073063310654,-22.480383414679448,11.802527364909983,-64.8147116103792,82.84145302890914,-8.964393065796013,3.5140939889110605,-0.714692265518953,1.0852246041679101,-100.84786731656168,53.60834128271704,-7.316963326968545,-41.81575059963635,-33.63637275307275,4.9521403229107195,1.5001957852815726,13.572617873497263,-19.72588080228442,7.465435703345148,-0.8549995875949971,-2.5228378280780905,2.0669610995185956,-0.2694031143617386,-0.12355563006184234,0.0607822023005084,-1.1671232586753029,0.468419459958444,4.129547974638093,-0.7906188558847062,0.8382724167213852,0.4102479542544353,-0.13006991919016575,-0.04584182006593272,0.5117090785555964,-0.18382665684376714,-0.30578006130481455
25.068023482089345,-3.227980248391911,-5.3703988103252325,-1.9944893274455036,28.78041703304912,-7.7137081380344314,113.20192639996134,-10.41472133960804,10.038686490043393,-76.33492070285217,84.36878191484303,-1.6842513931609657,3.037710786059728,-0.6671216228312948,0.9431643359015677,-93.53700668270297,51.3939250991985,-7.603096658191929,-2.8655373272273854,-0.5874022265585791,33.399442488401846,22.722903472971492,16.243289534234517,-15.035539520702748,3.34345805229545,-0.009128187758464773,-0.005713191470487156,-7.182832120487704,-7.147830670239005,-14.088942349951807,-0.7310631227571228,-1.1841771535853145,-0.3892494713883026,-0.623939395642106,1.394116811876197,-4.938051136318656,-0.2431056510242641,-0.2757369234267854,-0.05416265199019406,-0.03905786825207462,0.3157323618170705,-0.5794664737228383
3.869001427922724,-1.357888164097138,-1.5558119158581871,-15.705626948640605,14.88655375521032,-7.832415392736261,62.636711308898086,-7.598417252896153,5.967407663531946,-101.35176664170255,72.49574331855511,-8.738712686772319,-1.8581956127110228,0.6884350159133235,-0.8304055539595978,-80.77582323836825,46.3759613730819,-7.737454315926883,-66.02017626807671,13.210073019581216,13.312015946350451,29.771510239208684,17.267614339746466,-20.951501515987953,7.449472331868215,-2.1188442636513396,-4.793676324449772,-4.433861009133366,0.8497065605120844,-1.70176294393318,0.21199957316991336,-0.6938732525218028,0.016855843251519526,-0.47313602372292834,0.3744092441215837,0.3833991712159692,0.30676204209553976,0.09284801808226015,-0.11507109978750811,-0.13804847272040935,0.1630530559593522,0.08932654887788327
12.624128673395798,1.1231730995331848,-2.558236174897136,-18.691020772028608,3.176726302711059,-6.480186744392619,51.62557931955371,-18.767387481913033,-1.1340019848170577,-94.76988511079135,44.41145742888716,-7.461062988695451,-8.18942505255027,16.13785427268936,-3.703082746295142,-65.57714078801772,40.46890470238939,-7.024571665745554,-76.9101960851142,-15.759835051390265,2.046231002895701,61.51853380094822,-5.043399768868668,-24.29212636121387,3.0470488614509703,0.4374346067250596,-1.1723344930551596,2.56248434319028,-1.161109152086847,-1.5760105794900627,0.3864408877827926,0.3910350916415558,-0.18747013668496595,1.1425371181699653,1.0256398031761793,-0.9039462227243784,-0.03478185455593741,0.06254803614907667,0.02174847929291774,-0.15378984488882722,0.36597092092279404,-0.3320496503159389
7.065148077029087,10.81883130619192,-1.195814592476961,-26.476153526709023,-4.144468004488177,-5.2872200690447215,41.204082665953656,-34.28704903197533,11.32257860557001,-88.5405641886317,27.553724118407615,-4.254096334717468,-16.791888324428747,41.49373552108613,-8.55357508611318,-51.63935597741283,31.71570786998811,-6.716773512515527,-59.28412370922602,-32.24334979445577,27.526962538830787,38.71534451740485,-14.174874494482978,21.108589801352725,4.576261166052493,1.6425707593342542,2.9783700144266114,-4.2415589258702795,-2.6591559513286884,-8.009913485284303,2.32537617698275,-2.6379702982461986,-1.392442816464422,0.4351722229258902,1.3679166172163753,-1.8617682615620479,0.47671587051928443,-0.2805527072609553,-0.096961119100372,0.03416939870991792,0.138587314145738,-0.19192557077415756
-2.7500930654909075,34.59543238997007,-6.517226503150164,-26.53541745814082,-7.224028078769327,-5.454972972160058,0.11479641873435428,19.79587921626853,-1.0003988345661365,-73.4640344036115,31.28264280817886,2.157614166110157,-25.132856658345364,69.8909380437393,-13.97879328730723,-38.50635217167221,21.695954539066665,-6.966860393064113,-70.06671816944262,56.728289977541536,11.57657670743728,36.58558192584105,-31.91781797778056,-3.170168818003967,7.709894641532312,-2.9846669871918188,-4.6634473812018005,1.9349340251221252,-1.3122335456772767,-0.9397782910247243,-1.9557847426413562,-0.32223415095313157,0.9439037530000041,0.9540246079912498,0.677097207135164,-0.2792640472219179,-0.25388011555300366,0.03590074707635376,0.0052298813083063314,0.033787333586234175,0.3112836702214817,-0.23223933062669508
-1.24582383866554,40.64826361780229,-8.5812884280581,-32.17712295978412,-10.737989635445302,-4.6847617963969315,-8.812209837561069,45.07645088197526,-10.496725239647652,-69.61886361146377,-5.327226079133483,-14.993895416129883,-31.22086440568498,90.20828435909768,-16.716606067062905,-29.173171967005,15.054021008690366,-6.664329336699358,-65.11039378975634,62.69149584078757,-31.58066688325475,25.52463623577003,-19.71121566661451,-0.6531538665710179,4.5068136498828055,0.2168975058912997,0.3622667115405949,4.5374300672519245,-1.1349381508927896,1.2458571718762088,3.2090967881150263,-2.988610723686904,-2.3372247945244653,0.7939656823605117,0.4333532730637084,-0.2065925207924362,0.72873256311774,-0.4708011525266355,-0.36991963797113847,0.19134193173065303,0.01512124958985997,-0.023963971784408494
-1.0148000934840105,38.33768789571544,-8.291119134552533,-29.569095878760084,-8.317882524156376,-4.156337891744417,0.5695003256837626,49.19411207130023,-7.298363640691804,-50.69152575168184,-0.21760505785655732,-3.300207745304697,-34.80285740754857,99.7570222116351,-17.951990353185522,-22.189235021982586,9.83818710161456,-6.1506634509185885,-14.431256117379757,82.78773825188247,-8.938588200859792,12.835811586763281,-74.76289896827679,22.704547026470127,7.990957442573302,2.278367683163564,1.6442630542511651,7.945083859088985,-2.2519097270154886,2.8699190556725616,-0.12375860325999317,-1.6988441072301135,0.2359621717499334,-0.7866727912478717,1.0079119835744401,-0.8142525647438245,-0.02958665804571223,0.14395343001371533,-0.01200199872644798,-0.483849996334632,0.00021681546075014765,0.07369887611566978
-6.759617356083308,25.480776434761466,-4.6743895590078655,-30.411345975325602,-8.877478136914734,-3.6392740194700504,-30.897154674539202,43.64159309935961,-6.47791272795532,-49.94707706546846,-17.75886423586724,-12.09645615300645,-32.848368212542326,100.19403683174333,-17.983170515280978,-17.326076127913232,7.015657922010024,-5.24011433896167,-52.550910151381096,55.628991750701495,-30.949871520129008,20.890238220585363,-22.775220297686595,6.493442285298312,7.46197078823506,1.5704558854058215,2.352914879401708,6.0943400685745575,-3.746727984296641,-1.2363626224634454,1.5230328521251602,-2.8724724131400943,0.3072727142707471,2.809459984817554,1.5253989803379535,-0.6619320161723401,0.22496011672552207,-0.2539994660997817,0.2750353229192644,0.3762529105659665,0.36813011579219,-0.272368609594506
-7.0744518186572725,18.937451176416918,-3.436554474724972,-25.623678439580466,-2.138719831854067,-2.7378463093957235,-40.824287355987046,31.813935763841197,-5.656212248805139,-39.176901836700424,-11.235098198209657,-9.90106560026097,-27.7545343729601,96.17167521433427,-16.87149773548709,-13.566155667511756,5.732533518624332,-3.5784235552021912,-43.330278966655385,59.11683801896957,-23.02725463655136,0.5560118438997446,-70.31278181058885,24.50337052931658,6.846794774478097,1.1105196962525024,2.917268777120874,7.998407719441172,-3.282808772751615,5.328706453629614,1.2111761485159351,-4.689000694473939,-0.3761603386897683,-0.9022440510763414,-0.7946467237448246,0.8377207978382022,0.290200653633303,-0.5545384907872736,-0.06435378352140868,-0.2969211184633967,-0.41860401475775594,0.39030173965642834
-3.4597033954518412,14.252317469489668,-4.018117881914144,-21.51282247965944,0.25396276197271556,-1.7858260646658881,-26.404284169028255,25.086648176595975,-6.640549931884346,-22.537747045490242,-3.3799280159389578,-2.5560154713173757,-24.13572611728716,90.6945246135491,-15.686292456235766,-11.420191427679482,4.635348679014259,-2.3847242274824723,-5.992911162613,58.35571823105755,-11.681699987408534,26.623405703764732,-47.16559889712526,10.421530117278433,7.8560474322552025,1.3345229948316697,1.4339824491197006,7.938087651334467,-3.6250909111659,1.8514189612310399,1.4921624698495417,-2.02609180387595,0.38697411795764325,1.8170530459317467,0.5559694046113245,-0.25851936593324154,0.45106579163475874,-0.06201207226949642,0.10456169271690252,0.16638173912819612,0.04002316815752231,-0.11423867992264695
-3.755475458088311,11.873494170518079,-2.771414804037929,-17.96021499758422,-0.5339563703281256,-1.975776903137579,-46.91661591345011,12.059111393815499,-2.771940474043378,-15.352767531352885,-5.236899718184652,-5.109893005591464,-21.791322453817017,85.4672248938902,-14.00689067827666,-9.442964208271436,3.7912316596514533,-1.9898113873659806,-29.687028132189347,38.376357630634416,-16.818052848414517,1.3409362448133098,-33.842448201232884,15.53149467015776,6.688674216673708,-0.1262198177436179,0.08738577532282749,7.86442661452165,-3.607668723060646,3.829417176759983,-0.00851261790296299,-2.047041098138074,0.05126114577408211,0.6522471035360775,-0.15797420714995256,0.561127314740204,0.06695580198884693,-0.3029660044294824,-0.04232085526190207,0.12193019747142107,-0.18518926225453403,0.19579119987008328
-0.6186124885629316,11.95350743833097,-4.2679693260414595,-16.23004365327069,2.8022132830181397,-0.9685242677068346,-12.606126254991018,24.70174738686295,-5.962740074067685,-11.461488614308976,0.31228565519308704,0.5838090847383497,-21.0745044307874,80.5082939705091,-12.549508384332016,-8.610611234811444,3.5784277696840285,-1.4231710893462644,27.947245900237874,67.7707225508138,-5.6834126151110365,-9.027787791467832,-42.66425619669228,6.388706624273802,9.462723912162552,0.27256163851641146,0.4281708166810704,6.378980357397417,-4.19963081635905,1.3670854804445463,0.18888495505281688,-1.8677569533765948,0.5462704873838073,0.3932779001829139,0.6493329001970843,-0.4634297002490791,0.20673671135655797,0.02972081600183573,-0.049469171522029315,-0.021390663849862043,-0.006243056802920959,-0.007883113839632309
-8.357223860882971,4.2979343370871534,-1.0825945823681422,-15.099403098499183,1.745954937917898,-0.9655939530421088,-53.01697791778079,-4.979170663634733,-2.5623841470630944,-10.105621444183345,-1.9457619152165098,-1.8266356411006563,-19.785944490831174,76.4019412276781,-11.29901817052707,-7.965110842578445,3.394842270485062,-1.0290074554858302,-30.76251864722051,23.0497129513365,-10.47664045565682,26.198424851607367,-36.219130818305445,15.49925480944724,1.679070628774879,2.136491943544157,3.094336205468469,7.1830323987995115,-3.99220676860878,3.1412730162722307,1.676059691176454,-3.0382298108780996,-0.05747642959748716,0.1291388815910816,-0.7876213839355609,0.09183133632925905,0.19131981774093934,-0.28244663314528423,0.1553329878631473,-0.2287578281635952,-0.36217702770354343,0.08628831931565445
-4.704501728912444,4.380958307812439,-2.12419952187719,-13.679084523358842,2.7706666712777337,-0.6737970971167192,-29.3125399711638,14.31873951042463,-2.830721264562816,-12.86404436452228,0.8878926318937265,-3.0515931272241366,-19.34490688697062,71.04039990643896,-9.84544847115293,-6.746651222980387,3.207295484317136,-0.5949421916462937,-2.162937773479475,56.195894008817696,-10.360929457857896,-8.566818687575996,-40.83177364554707,2.131530480809195,8.757335893830888,-1.6081683791539443,-0.5437807895669748,2.4615215263463694,-3.847707764740739,0.42272245790498214,-0.3472572888205793,-2.0898952370335424,0.6280762258869161,0.9335031374225651,-0.28748244424457103,0.9192018120508395,0.13047443892264887,-0.26207485081329124,0.004116314446459221,0.07344902052454218,-0.334974128975615,0.3129627643097376
-8.19689318574049,-1.2873020171178584,-0.6230813742445425,-14.316358705729256,0.9185466094606716,-0.3120852448192022,-38.08823039128841,4.746130408171309,-0.8836474727189247,-12.543139150947328,-10.802339907860036,-3.438829737557607,-19.721347295559127,65.98680176623697,-8.564530000952374,-6.651823400248219,2.945983931751404,-0.33533156367777217,-4.397670922413644,31.03488548033006,-11.8968586966976,-6.568259011062256,-24.949034772716658,10.729673070646665,5.086736079756819,0.8068169569300483,1.4010160938813137,8.399464067265187,-4.214629937340848,2.597348548437006,1.2425308642156698,-2.446248950749995,0.20974182433659802,1.9809845683816583,-0.14645065945276559,0.3541222484713455,0.2597408887327062,-0.25199695114565335,0.12998067996326912,0.31050133081614695,-0.2629999104799864,0.03539234050704971
-7.614904032511742,-4.763716811214529,-0.14128664922112513,-10.377456329028446,3.7438258260473063,0.33276265700306445,-40.15584091631975,-8.35366826767012,0.8604203477637803,-4.762434932863524,2.977254602306189,0.235370389146495,-19.64113520101418,61.170393354060174,-7.268425981229479,-6.085867188892362,2.9688746595594435,0.1743635128322288,-2.532550252858907,37.70765380342483,-2.794130835224419,8.762241324055772,-29.806425910507137,0.8320797977089562,7.217814530475523,-0.640120071602221,-0.11299050904131314,3.016666049112457,-1.6257657078053034,-1.0192776021718022,-0.44790885127152724,-1.4131315075880377,0.5051445777626953,1.46820655158824,1.4920123186849763,-0.559448517458605,0.14508674785924722,-0.04571439942097128,-0.11868852995951974,0.3083274647857129,0.19069838941074632,-0.15236897285486303
-10.746308939664525,-8.848983435997937,0.4662280159075612,-10.277885969222243,1.60816789696943,-0.20025902778952684,-40.97235284952745,-5.836677063087272,0.35269657754536327,1.9797624888590066,-3.395914224640344,-0.9088658290921728,-18.78943396537806,56.39956543274813,-6.402366580435388,-5.755900218843547,2.74813621902044,-0.06426900362015253,12.100618048248778,37.62249265131248,-7.512984958470073,-4.414901334448201,-29.067107239455282,6.57176676953403,4.3423439104629455,-0.7673423165289004,1.1037798257425846,4.104598010324515,-4.627903587356764,-1.0643740749359596,0.4211513994658947,-2.315807989742869,0.7992558225537616,0.7083162579011539,0.17361374620357747,-0.8828843574926291,0.006350823587942966,-0.2092995051984297,0.26838873478056124,-0.3158878463992215,-0.03316951476883596,-0.20906305368819988
-8.162893064929852,-10.894900639680085,0.38951412404007657,-12.204219909370739,1.5086935099108418,-0.2625230540884082,-33.772933179420384,-19.39611534230247,0.7392155679957643,-8.416641503229668,-1.7795613924858902,-2.2218516444872254,-18.141845605312415,52.365627299236635,-5.205792850001313,-5.884464066355291,2.4410684850337345,-0.03560783024456589,3.7804343781326994,22.31739199537272,-5.148182667563581,-10.12723186808468,-23.36044731793328,6.932055410438604,6.847207723770983,0.388111825023743,-0.9400957617672532,5.252823657908041,-2.7319245619707457,3.0485606315394675,0.924340834046265,-1.1314209617974642,-0.685965933511292,-0.3341747715665603,-0.3537415901684995,1.1156022657950784,0.3272305267048363,-0.16181104425241463,-0.2348500789600419,-0.14079600990081415,-0.6266964131703111,0.6254446265147356
-10.39639947117536,-10.232742465135,0.3206505487744449,-11.69588434652646,2.70484223590987,0.019371639562156075,-32.99897911421397,-18.21545235208309,-0.5654784504395005,-9.425111171639681,4.686948474948957,1.8850947179825863,-17.819483639073443,48.16151377010316,-4.47890088698078,-6.152223244392943,2.484336012466268,-0.1774468726541068,-0.14912005177879784,28.824711004722005,-0.2817278390506532,11.930624529706018,-10.975413581425922,1.2251774950002234,4.052155707217108,-0.8760848353867506,0.43826746881265094,6.638134203461891,-4.387554232637901,-0.3693311078122838,0.9469393785606265,-1.538114380117213,0.40502217816263386,1.6946800500286745,1.1514096900901194,-0.7636894933193216,0.1323967244109007,-0.00963890692036542,0.13756753525035603,0.4045884612640153,0.225895121353389,-0.30343000421535093
-10.309009890601336,-13.36641603118078,1.3301285881380827,-12.324367071113564,0.36866282106714554,-0.6352458346954244,-38.201953935148865,-24.22495344683147,4.265294053105806,-6.979209509696052,-0.646598405835247,-0.5815322921956395,-16.516446015781963,43.72019298065988,-3.580407163129432,-6.185117884843129,2.046314373721876,-0.28747395431822015,-4.574142968935205,17.47505954004907,-0.18147328092050458,-14.048348138899623,-25.837373863003936,4.246054104154961,6.780743700354546,-1.631778210044664,-0.6533847100232594,4.6377530954078425,-4.521886569498294,-0.629385007033756,-0.039672368627839245,-1.7368440655060815,0.29412072689036745,2.1227618274205278,0.3439544155219218,0.20547301455973258,0.1324623971111539,-0.22957120385208973,-0.043414179712682924,0.12035225942932494,-0.20787410309300028,0.05481568758758185
-9.489472597490483,-12.454777905931895,1.0611984896410531,-12.206832749171374,0.7286608074811511,-0.8735487003886987,-29.712323824437053,-20.372215608639497,1.873459037155061,-3.000917466946306,-4.989143592553643,-2.3681504202425243,-15.546187062343877,39.86916280170138,-2.6920585222256515,-7.113988225042657,2.350681466064027,-0.49905574546693515,14.77894638302136,19.377699050577878,-7.605002519575594,10.2828206844526,-16.436301200535254,2.028430256655977,6.622258944041366,1.2475689991442838,1.105854130300821,5.991408658605951,-3.885582790110999,0.971862184336145,0.9808828530004796,-1.6769444858896412,0.3863940439747313,-0.16852460744450473,0.5484130352262105,-0.18003871333699792,0.2516232323512599,-0.08158448779646026,0.07984978837016966,-0.40693664094748894,-0.10562519483514687,0.1732903744278347
-10.763091654414177,-13.329956797786812,1.5281199079713854,-15.993863999825884,1.583768877817985,-0.5412544719039364,-26.95487995967878,-27.379345793369954,2.537966673072052,-20.543992688252008,0.09315886499850964,-1.1372235345608737,-15.125648222277027,36.210624220527535,-1.9475560048575586,-7.255989371386529,2.6321763917987084,-0.31976508411651194,-6.755972726518982,17.58186291546164,-1.0875500233795032,-6.923583940906074,-12.317548563859255,-1.8423169790275309,5.19939059895141,-2.218170045798875,-1.3373677019316967,6.17286414584026,-3.1365567020547296,-0.14575017295423043,1.0664150611269687,-1.2345356578158695,-0.1636991192526474,4.321765395864714,0.5796690968263091,0.5410089604503117,0.15652981474844002,-0.12922228506382916,0.028866576277151994,1.2465819417008956,-0.2875913699564024,-0.07450952360609714
-11.91707993233794,-18.27097280621043,2.0671437378725703,-10.851967602585013,-1.4454820452369868,-1.383102417634223,-35.41048398992054,-36.97499807147321,3.9016750795510857,-1.9269653138554497,-5.752499195661976,-2.5817497911024643,-14.668674394295149,32.95072030589156,-1.6504255883346581,-7.480578246461406,2.5169172618108338,-0.39950943254753485,3.7916202073017002,-0.37815733546586844,-2.3267684962502755,-2.4861479041869945,-15.017530052308867,8.368592216231988,4.056239571211832,0.3487833291190784,0.8997474703870525,3.9876561261535346,-3.449083656416523,1.3332752545308737,0.7851046103996853,-1.9524107410478084,0.07925024497251791,-2.2112975654283624,-0.5416442254422251,-0.3667047669154563,0.2250270200833438,-0.15981739005836582,-0.04430889849199601,-1.0230887013441885,-0.2765524040493945,0.2101988882201523
-9.477837789148019,-19.475690236418718,1.648229800769445,-16.143569016058272,3.1705148937784067,-0.10630582280873062,-19.802877226333525,-33.19208662986122,1.532202170708321,-16.92254843691746,3.8842886873587967,-1.1866482412563923,-14.493044225034748,30.33728157837413,-1.18936684967018,-8.06182468388819,3.3929959065881357,0.13821864738766346,6.4120969490520645,16.955486042220414,-2.730844680213985,9.139031413607574,-12.965719186084215,-8.300201213361044,7.697023204866878,-1.7736106615196698,-1.5497064615471605,5.629412912329117,-4.725307746294816,-2.612418046090684,0.6780014140582239,-0.8848966053888225,0.05194516539971327,3.3621224479242957,2.225473071978661,-0.6313073513237757,0.13270053776628032,0.011467012772262962,-0.018388133432880736,0.6386949130410919,0.2578386751009763,-0.2479278495232435
-13.532956682069354,-19.942125697280048,2.5072717754773226,-13.993207384262004,3.823460791419075,0.3145504020121485,-37.18769208745853,-30.845903435514217,3.4537491568627194,-15.082642971384939,3.8246051471838665,0.9060035836487269,-14.024183017981416,28.66315612062948,-1.0210328233107244,-8.035312976487019,3.571805314319608,0.19089113155905565,-12.46200379416194,20.363576771566624,0.05548808032834915,8.030514094889936,-12.649624894859905,6.4009056935066075,3.7200021616776424,0.3694493529378553,0.3504985452786079,6.151087548862114,-1.2949507062996226,0.8590373699528898,1.4923464935972106,-1.5729220916301754,-0.3395391492291475,1.171584065896234,1.450418637442737,-0.3709365945130842,0.25987194957706894,-0.13575863944109484,-0.03533253782780514,0.2642689700760409,0.27433170272629986,-0.11008810429934579
-9.880831305382886,-20.97428036614496,2.3286108044426186,-12.247012713402212,2.2925604331560727,-0.11533358139955262,-29.45011627312038,-28.27456558002533,5.17207624685492,-2.1489427354998454,4.824034938136406,1.1946039149543295,-14.141851776119111,28.061605831502273,-0.7836953862397906,-8.318433276284388,3.463992582273989,0.28745712739885626,15.097514908563152,27.79010122460778,1.8175440635814333,-1.9953462205847616,-4.187211461025064,-5.532398572757055,9.979725357991665,-1.2297087528495942,-1.7428135919885284,6.920187146025692,-5.550644777033568,0.9534578085377132,0.8622948597766709,-0.7931642384594468,-0.037718728173299826,0.5528042451579037,-0.7002446390656266,0.0362770513578392,0.27878062717425317,0.08783734733046673,-0.12066793871916477,-0.09648903192655893,-0.5800310699412737,0.13323419554525334
-8.540948325663662,-20.532189800652553,1.7663242475022976,-17.07377132866746,2.2413871112408925,-0.17207207258566326,-25.16023300267294,-33.50226297390265,1.496636684753084,-21.424378268851182,-7.145447755754217,-4.513243671568635,-13.563804604159067,28.340028987918554,-0.6833825591962048,-8.568571594469326,3.864490374611217,0.2976481609871735,-9.410153665291011,-1.0710985786910718,-10.352584500589172,5.376997003533866,-23.43774867708998,-0.5233652544211533,3.081402941734087,-0.7473592157110549,0.27008793610252824,3.473521744687131,-2.332442496606222,-1.4582709923272115,0.5574942303602385,-1.9978476784663277,-0.048659165840116,2.300774573338247,1.4871054991944426,-0.10883586126046282,0.046348841469770155,-0.30476033169654426,0.008113925408267424,0.23168482190303366,0.23542179723637138,-0.10985781879495705
-10.230501040660203,-20.689452077025205,2.299877403366235,-13.448580957304252,5.33464146477696,1.1963366930008226,-29.59792648299351,-37.73519786439308,4.646685722851536,-7.014771767272422,8.578170281723173,4.991360277717763,-13.439346645705827,28.746547027604144,-0.8107018773277908,-8.569786534780182,3.829500797530008,0.5956555150884362,4.199260847295491,18.552475855103175,9.171311361940898,0.6221573370331043,4.584926310632854,9.946754997170515,6.0557611201681585,-0.36115218967122525,0.15387591275117302,5.414395187624259,-2.8239488859450694,2.249712677271568,1.532248957135398,-1.5981528021595346,0.23226614514216234,0.17848103132430437,-0.3512782966366875,0.7627561114736242,0.32325210414987626,-0.15228701516019014,0.1284030566155007,0.004330044420316708,-0.3177182022115615,0.3204340875800269
-5.957237673773423,-19.87953792168628,1.5387434353737088,-17.75523086676998,2.3256004854031183,-0.32283353213014365,-16.45028231149751,-36.81350290914016,1.57354014508177,-19.94274025732052,-0.04621746450580083,-2.6452535139110136,-13.422669841091684,28.99749061103096,-0.5070259815814706,-8.83228129282173,3.5484610627352424,0.21869499357316163,4.052562163877617,3.8339838701816733,-4.581929446848438,-4.201685813987078,-15.024842433511004,-8.580258823200722,6.215215052549894,-0.2888062323158589,-1.4470459279197962,5.575269534926377,-3.4817145756098653,-2.527839262578516,0.2981352532511066,0.06699157989270435,-0.3019634973334489,2.1833704034413897,1.8585540251951784,-1.4049306124737417,0.20243897663035518,0.18148185641020945,-0.2408389354375003,0.38742468970697286,0.02411775934263996,-0.3947581430035663
-9.970409262064976,-17.41015648842473,2.3440226149684276,-12.647827691839657,3.0413495736099962,-0.26753789276192624,-32.155518614580565,-33.80410582929579,4.873376061473174,-4.582189203161241,3.3262432718941146,-1.2825799832971192,-13.41695439641446,28.985441188314155,-0.4858331775368244,-8.960619596429426,3.864482701961471,0.20046631105809049,2.181831318395305,16.53392703093246,-1.6945737536706231,23.323764004679187,-24.654516517360452,-4.711397330313329,7.145892331726345,-0.40913540372833074,1.1909109588298832,4.746496991083305,-3.3437353833656536,2.568598629952049,0.6496263972798896,-2.77331520099829,0.8251765322690712,0.7682943000569048,-1.5032118156360386,1.3797886288694838,0.07916325375676939,-0.346280931120353,0.23486709078370288,-0.10367188160684562,-0.5646846802173978,0.3718514918584911
-6.923545357515063,-16.73327552712083,1.6086266450280298,-17.90444766493686,5.579811885091053,1.359596869090459,-18.659743038866047,-25.93832307174643,2.0180839488691875,-24.169798718682372,7.803491191007109,5.28142532658133,-13.595222674841086,29.999342337055726,-0.44942216063365065,-9.325197587202185,4.0529124437908,0.5824740792260688,-5.957389027693692,25.765516622476547,7.195492071323599,-11.327888781677597,4.326685521512263,7.740450627795009,2.0191764171500943,0.020183431289369336,0.08956487304384277,4.418250190313311,-1.2676072527502733,-2.7458089381606885,1.3954699524492367,-0.9916760612523018,-0.4517301205624878,2.361841954647586,3.8211698213315937,-1.0911547287787393,0.23709951563041806,-0.009417371198563156,-0.09761968218550063,0.5552448925011007,0.8949252279022939,-0.3819481679371978
-8.334994659297996,-18.26412093205874,2.0083350491854297,-13.955912502235272,3.069661744999579,-0.32922685621237696,-20.859714412168522,-41.83078884674321,2.5756522451656227,-7.030346676344835,-0.5511708496113228,-3.9820632368695454,-13.561400807971838,30.222969630511074,-0.44467550094289615,-9.540172731848605,4.306024134411518,0.3498665203136313,12.419046579198882,-1.4669575506765122,-4.7864580283510865,8.217833883988925,-21.156786259477943,-1.8324235810259304,7.20973134513504,-0.21889137832821937,-0.45929071591738646,5.214344316586622,-3.889789699963793,2.080848380899972,0.5024950622193372,-1.433454485853687,-0.057450663821977076,-0.2213320652589512,-1.3906826216886696,0.6708433468426375,0.13865158839499236,-0.13715656501200615,-0.08366513774088324,-0.44602270921372167,-0.766576516231964,0.34354908111069216
-8.553873045660861,-17.662097732923684,2.3429989077356055,-15.404645098863858,4.961817201130652,0.7854376540213398,-25.83829272034876,-30.72500714395462,3.8500884543126612,-15.324205409677425,5.571367758765282,0.6436070499942236,-13.23951976795615,31.346095641965686,-0.35009400315005423,-10.122676528591686,4.952683505177765,0.8497829943874923,-7.0172310601797845,17.432177954545548,0.71237939359979,13.555466722398249,-9.827005743955528,-0.5028268278659406,4.77850575312199,-0.944686811545665,-0.280298630066991,3.181174898907225,-2.5293397000260662,-3.136356838135277,1.7807985971115854,-1.1598508628629431,0.07080551088073674,1.673847661410869,2.9233058351491548,-1.054143493908291,0.3034470066040688,-0.05967577613068229,0.13037855425254014,0.30220088822249125,0.6688917025600697,-0.33309621064862865
-7.228929350046272,-16.86117196626932,2.1215116180254174,-16.527897481813703,3.82507948052415,0.5320583333736237,-23.243276863654636,-30.23083921589133,3.2161565578908995,-20.626414072508766,2.440439981574235,1.9068363785747233,-13.888044974909723,32.36700555898465,-0.3027119767246067,-10.930085325066626,5.126921514206991,0.6238310702433978,-10.489801634093315,15.309871181906692,-1.4770342918253812,-2.4756264357104785,-19.61885066085378,3.1818456551020997,5.513725226148907,1.7646628934013733,1.0422857509992602,6.892831041054118,-3.7640838224820032,2.399728657604795,0.021080152113433212,-1.5404428157198808,0.08034083880898064,0.6519151043589404,-1.0077611722070892,0.5815356960930413,0.08027301286142106,-0.07864160621511479,-0.15223995142422306,-0.07467162802730656,-0.6499564865439752,0.22358265046946824
-6.050103332433441,-15.791981586507205,2.1123278890823296,-14.945979149398303,5.340066642986139,0.8992653646508485,-22.757286823899936,-33.05023454927321,4.455211831881595,-6.234297135184004,6.58702690788306,1.8020595639873778,-14.175073244401988,33.56870738362934,-0.35103141113583897,-11.167978013519015,5.7547523137605925,1.0311348193006336,6.581815196716116,15.238695825793307,2.539120363832011,-0.6434160625314241,1.4275349389691985,5.863146622423544,4.759118951314752,-0.5256995741999355,0.27110108374609143,4.0365898852277855,-2.207992994138971,-1.8641270695738374,1.391461657452355,-1.7426312687853855,0.1623324626412946,2.250305117345222,1.7392797805763414,-0.6492171705728295,0.1498355835721258,-0.1914867680708732,0.1515782271629693,0.27616299572042174,0.3391056980083784,-0.31917988386350915
-6.6469059126003875,-15.16473280288756,2.376477183430325,-15.96075595417679,5.853391651494945,0.6518310585658796,-24.42917918238329,-27.50307423651499,5.147967680864969,-16.36894815113859,5.8352738503841435,-1.9652907165375868,-14.256294628256763,35.56400328640683,-0.3527428740892393,-12.173797518936516,6.075732323491835,1.0373955313137122,-9.33845863661389,20.083700469107956,-2.6111429896202436,19.629840496993964,-20.679436335879803,-6.567274449420782,5.356906464789374,-1.303678651245633,-0.22029732011796962,6.066308133640529,-3.641007660071097,1.08635846734313,1.3220104045478256,-1.48537048988748,0.24514743920772128,0.8161462841452825,0.09435149551912664,0.3894976456419846,0.3783410099504785,-0.09799079843766959,0.04793563264550951,0.19065410975656125,-0.3246072320483169,0.18984848825783474
-5.342303882528731,-14.051258133227313,1.635190482667437,-15.565627978754701,4.53786821763447,0.8912564008976773,-15.456419539287637,-34.538190988960324,0.21213004744915664,-15.598033524695255,-0.2009512791146415,1.405852822510481,-14.646829879807742,37.61348805099376,-0.3719820016109336,-12.586527732147394,6.810330139234973,1.1763509758571162,2.750753271102102,6.02683745319343,-2.299835138794604,-14.037447702443037,-1.1028460782347704,5.739465797244998,5.226810679560067,1.0246917815428562,-0.048730816534523845,3.587528628050086,-4.09282235206811,-2.1496369063941643,0.96421072443671,-1.067410382724519,-0.40055873425178545,1.3135255025689303,1.1305446903185548,-0.29510518431782284,0.048283797704840196,-0.04360878498629911,-0.09002715992690248,-0.096136689073351,-0.17092868268957095,-0.014826373056037675
-5.591305747975423,-10.474853273341912,1.8943679579395984,-16.34202471485682,7.385764603000176,1.2753574013744917,-15.860629371634872,-31.218860960459914,3.5058502132704357,-19.578029617294,14.15029062063685,2.7991492785289256,-15.045358835141698,39.71165298281151,-0.49579201769664893,-13.40470901312372,6.922515236541069,1.289794836930536,-9.164647161167272,17.87531913134597,4.407465947204108,21.51634951019417,-10.945052044892002,-4.986049509584394,6.598615316688619,-0.632736747878967,0.044205781853271134,7.0546477034972765,-0.2873596816443197,1.3537643249114524,0.4615146425865624,-1.4899835360290614,0.5416518377096249,2.141883843686709,2.551499867665041,0.18344179363732885,0.17940737049873626,-0.10618404482362594,0.06951821671328474,0.6291255445805415,0.764328400429942,-0.11879292293707211
-4.651658559491889,-9.511983634786734,1.5368517937398833,-16.461290532869835,4.903876664725866,0.7401875048297593,-19.789801782096173,-26.688266205889132,3.1481934349997913,-15.823594458955789,2.871103216483434,0.5746310845150878,-16.174068316976797,41.719831416142156,-0.7887863241483728,-13.715133480922143,7.141470882653667,1.2307027164190016,-1.9085541145958587,17.896192515667774,-3.1106481774976733,9.410851193136585,-15.47973739169591,-1.4551634204526112,4.661260842008754,1.020014414451453,0.45725170447909136,4.555753072947978,-4.6988243410722,0.6455833496150847,1.635153066362158,-1.7556323491704666,-0.5346316808874947,1.1138245755313936,-2.101065634825822,0.35778421461424287,0.321152736310795,-0.21728098102249474,-0.11628459488743535,-0.005073935997507222,-1.1236057800021513,0.13635397914817732
-3.144015807937514,-8.699858433561769,1.3798160043689642,-16.15089860278192,5.339864529414834,0.8984257165974251,-10.779286932586537,-36.035052761698445,2.277817447492713,-15.595797796051356,3.43893824630653,1.696758295940088,-16.33693563243621,43.57113808104786,-0.7845484597273767,-14.311729099356581,7.7437271955018,1.3089197407620403,3.327060854735078,-2.775944840374145,3.622588976090817,0.22992585373102403,-6.750308414299054,0.60194714079908,6.053961829423301,-1.7564187813487384,-1.5278565283267604,4.468824068550595,-1.6675726778345374,-0.6129289218178128,1.5466762014626159,-0.7215274289880178,-0.14999044364761158,0.986138021035366,1.7688185068825168,-0.24609398515846637,0.3334846126550981,-0.0005540888241714823,0.004846511169408235,-0.08424733161614571,0.002536226740042259,0.04010509197872829
-4.845408097566042,-6.937136301035482,1.3678282124600702,-16.509128382492552,7.717840954345241,1.4062949035677292,-21.122325274265464,-32.45871109068046,2.018206352397644,-19.266808706066534,12.491601036171051,2.952267197972342,-16.39095702980539,45.261840266345985,-0.9842158496430259,-15.030591940658988,7.909402249813873,1.499015010463616,-12.957462071356867,21.509959309509686,0.4364642143063381,13.98830164858786,-3.6747696231426357,3.549111093243794,6.061963800318882,-0.646186795484375,0.06429823465240055,7.464819213717245,-4.841003785529612,-1.7045113738293522,0.43412335040044653,-1.8793869317744198,0.280165452123898,1.8303854525939003,2.8392277712606075,-0.5288510239185338,-0.03541506468204838,-0.19550261550974643,0.06323131268963811,0.5691926542299275,0.5521180540262876,-0.18452200923153875
-3.4625588094368824,-3.9639897851920107,1.1460215079766403,-15.418829004411743,7.204859924648157,1.0656598142072184,-11.852939532211243,-21.681107699754406,3.6263021565908695,-16.217758122406554,10.285499583897238,-0.00301281085702218,-16.85971847244197,46.37979502436916,-1.1235859348006871,-14.681709362236015,8.031932503453499,1.5649481988714273,-3.4492194324807306,21.896659867509417,-0.7690444616070773,7.657363659052374,-13.196577928634388,-4.872792847014536,2.8204609746915366,2.0151142574512986,1.0832640394502409,1.4851858781696237,-0.9201170105723336,1.0937173800216062,1.682668047205413,-0.8698089824173061,-0.3583908430499329,0.44692189038373076,-0.9543655370320469,0.6734655178736842,0.3516432967730503,0.04426521670206205,-0.09318618238438026,-0.2505385883787876,-0.4599625501790161,0.1956870654363112
-3.893575332821,-4.646197782629644,1.0721504082221252,-17.120867774963468,5.9540685017541115,1.152578880095342,-16.605521818254942,-31.705427746292592,1.8636553556579722,-17.577691197053728,6.435934936642321,2.098273590582766,-17.25109768708493,47.881318163298516,-1.1796786934362733,-15.721182664082896,8.341770602119604,1.6628026861766168,-7.177614086564949,14.062932027150888,-0.7204649126564151,14.978182446408898,-15.399925686464934,0.6585254399770641,5.862873899333681,-0.27034280976060093,-0.28626549195235407,6.677782565126832,-2.923230681479547,0.12221077680511958,0.46669751336985427,-1.123823696995614,0.17154550195616836,1.9939503488483012,0.97698246899318,-0.08257806751171465,0.012726353756434756,-0.07437682726319042,0.04035822640321195,0.3735400854590374,-0.02131010608788329,-0.09825774368108205
-4.550845926330431,-3.9793609261147984,1.0680080358051949,-15.732225845592229,8.028443613727736,1.5988428984210605,-13.827337755177407,-30.92141363128772,1.5439886966317473,-17.894944150335522,11.521216811447031,2.4962096168969765,-17.057960330967774,48.83756818231196,-1.3115363659240047,-15.722855805493893,8.654098514351926,1.8220918278054983,-6.118142831407387,13.776475331863255,1.9457248872097948,-7.621378616530478,-16.699049600828776,3.648592075205158,5.513220757293535,-0.5461303638983073,0.5312956188851018,6.258190603957031,-3.815571617224118,3.0868678916356314,2.1032098993617265,-2.203712811097482,0.07749724155874092,-0.3640448579285514,-0.614482329234213,1.3746736754247164,0.4713073166424041,-0.22840578554736798,0.08176077643429853,0.004830395861731399,-0.5817687934054672,0.6596171607115575
-2.53825747932383,-2.0803139851731456,1.0422403145150028,-16.10165750230275,4.047311131689047,0.7109492511916955,-9.554835019121812,-26.942829439799738,3.7528112128005313,-15.184864969339698,0.28519965729718355,0.3604818132523781,-17.364118432633543,49.74968402382,-1.2345154872979716,-15.6929198135319,8.226507766034722,1.6190326715100667,7.57379008400831,8.024014307010084,1.6502649283201314,20.384051449475617,-14.00196789434136,-4.7002788342625985,6.139809479338306,-1.7775567271687274,-1.8793321043194173,3.242954627286056,-1.1528372117063832,-0.5883482317677363,0.6617933560952999,-0.9929651284911934,-0.44768959619928556,1.2031542232363845,0.9194651572921977,-0.42424123920384893,0.1906576769422644,-0.10933496190341353,-0.1792039144597929,0.004260728813824428,0.14925496594732232,-0.22156938169580467
-3.6324751852335564,-1.8541135556239086,0.7864224797322583,-17.180788420722052,8.3412523688978,1.6211407057069382,-16.791062687554906,-29.587181186148303,1.0550155636561658,-24.03603298742791,11.615491338515053,1.616868854844053,-17.63882360323528,50.524895971814146,-1.3272230480073366,-15.560799503014318,8.423582366962496,1.758774535892583,-21.880803704316254,14.589362706289043,-2.789742459598029,23.64445715986202,-4.812980129744745,2.206567301619558,4.165261429290448,3.3222580686564527,2.40649564483578,5.2671689044443815,-3.430747688257248,-2.6468780889556633,1.4352847490941312,-1.567582693123467,0.09901842489099469,2.6124697121419764,2.3541136664811897,-0.6976843449822162,0.20425151573049516,-0.03630507422051647,0.03765310522088566,0.4754062613005397,0.36855804789090213,-0.3422700402749647
-4.33277627904068,-1.673791756336187,1.2232101417684078,-17.752180492173427,6.3700385810380435,0.9926952830050657,-15.891627849036793,-31.10498558581389,3.8170043828225824,-14.083199559069937,7.207639285997949,1.389025004309872,-17.477689686345716,51.258606630221465,-1.3721574363087348,-15.500810126221076,8.137863393188539,1.4377583153667364,-0.7416649797056927,13.057409006036256,1.3019408352651147,1.5240418195880538,-26.509606960139656,1.3651632296815226,5.236363974070874,-0.33235275576837053,0.34819086174135694,5.373933379839916,-1.9452142067832996,1.5873421216416506,0.8814973108976187,-1.477995784157328,0.4338467858973635,0.5771870237172656,-0.2263236648917712,0.10408368263325948,0.11869257802984498,-0.12364461909767853,0.1520237542632524,-0.002163495546654154,-0.37048967411605516,0.09466809167311163
-5.64559562198384,-0.047981205277097386,1.0859756912689353,-16.27817873624844,7.7111508247811145,1.6665435241385598,-14.062388162311983,-23.065354370610443,2.1772765163241616,-16.893558549430278,9.036298488729372,1.9111619797315915,-18.077470735907358,52.605187374053116,-1.445576380859238,-15.245849080646884,8.100325841089377,1.79100187701502,-4.019370662199633,18.49287740819328,0.507378590942541,0.8445874605034781,-8.208331735275358,-5.915555195869081,6.6576602793999164,-1.4215472511965492,-1.4102794752026786,5.218170094820127,-4.152017821220395,-2.2081398038713447,0.5080603766577997,-1.2039151771981564,-0.21407905610019312,2.328924582221202,2.0577171716189464,-0.05597175040178173,0.2888298631409513,-0.08763156510760191,-0.210259104727396,0.34146806391972157,0.17227419104227548,-0.054026445760382895
-3.5351602556838095,-0.6003601132027954,0.654065014592951,-20.66048602597559,5.427360095357546,1.1039735208842736,-11.688048364266932,-26.263482966676147,1.0801357370676063,-30.376713426171655,2.1784848423158314,1.5452529252111606,-18.65133382551548,54.01276806441934,-1.4932440304928978,-15.920405851902856,8.005716706313564,1.4187880491398324,-15.04145172132268,10.827155167387065,-0.9847683885194284,13.025353287500964,-8.995431693918565,4.653847384195613,4.518579849796971,1.7426433469166325,1.1912573535419375,4.976526516574679,-2.2029199253844505,0.7156905286207167,1.7713436244553145,-1.4314006112392663,-0.030838678520837506,-0.19844914245742803,0.7798091488923784,-0.3370933873786839,0.2454146103394339,-0.10731299700900848,0.09197310768844144,-0.05130220812859619,0.019013192728361078,0.025599933688543033
-5.379552034169639,0.8554019753741597,1.0509437511650022,-14.589865079492894,8.353217012238147,1.8231605360149805,-16.241374575409147,-22.570225587509963,3.281799149002437,-4.895446916164459,14.704531197496856,3.5362405433608477,-18.532572279697508,55.15936420079895,-1.6522262853796335,-15.363699668108016,7.811072048887048,1.8719064431367691,7.936957754345729,31.346197180679244,3.7387334485974657,2.227787707723149,-4.3839957984098765,-4.5786411217473395,7.072772847419451,-1.0027254591664199,-1.3701691268218203,4.714091543665189,-2.2534514184466965,-0.63386339271362,0.07409700739419268,-0.680483254326029,0.16795221452918702,2.290562666564164,1.2361002661784253,0.14087567336838552,-0.002839573303646717,0.01315738481330407,-0.02791834223236735,0.25348852876381794,0.004947164752641443,-0.01857430832049427
-5.376785088258804,-1.5772547926426501,0.968516921207891,-18.886195093968905,6.794396955095504,1.443441002130776,-20.664354015574347,-33.120650734432715,1.4239256720040354,-25.34399268667538,7.289334647283091,1.6985605889171989,-19.260051647885465,57.40127573667552,-1.8581835552926642,-15.656233536591005,7.609715271013762,1.573306268513861,-19.757380819046947,6.381564293978465,-1.7656850515727573,15.655218775038385,-12.665400033183843,-4.283681861140022,4.84402564162441,-0.8238003134061093,-0.795972645135819,7.375933252411291,-4.002385356068659,1.3140917283297895,1.5647215596873219,-1.085652064163587,-0.4119952991740183,1.4432924927161324,-0.029738381603240854,0.18541022902639004,0.3158200106199756,-0.015945308626122437,-0.11632173071679211,0.22287691472621746,-0.1555270156283258,-0.00047787079095753474
-2.8935175573457244,1.5560383423157877,0.5279348258919422,-17.283894521293682,5.306470823352882,1.1911041887050913,-11.796030034696464,-15.617810881268596,2.0162143716438945,-22.080011599348115,4.448643764028952,0.6517326131309881,-19.793269469978476,58.68462305356002,-1.821229799618561,-15.137904671468068,7.420221513676386,1.696828686046468,-10.803566443348286,28.843955530748854,-1.7723036329417234,1.81087263067238,-12.960265297481728,2.90186205182763,6.478197307414832,0.4231813927171949,0.5641579023155766,4.788596783958432,-0.9363764306606173,-0.38359053565201645,0.8614869015596683,-1.7046028846884052,0.37747261945868205,3.3521445564683408,1.5441990745662766,0.4471465304097368,0.18046039947347517,-0.2341023157560923,0.12443787433770258,0.6695940014296059,0.09241654284550643,0.040229464412859864
-3.986849583554114,-0.15935540162041567,0.8610199310439447,-15.15308940594749,6.452880712222406,1.2475810666629608,-15.202405722685743,-36.37522033268267,1.7380605398725695,-4.2406392830852315,2.2610069168373976,-0.49820913481460094,-20.418924517694453,60.10489114093713,-2.0208761724731406,-15.082348268042532,7.2281990777360265,1.4844052326003894,17.974710490512994,-4.110475809771881,-1.7270307377205747,1.037779963294603,-14.76450997497257,6.774067483709411,2.8260482731870256,1.8903806858159862,2.294329041578946,6.728727154238152,-5.205207872344891,0.7580691074858715,1.4846563841144076,-2.1623917723666906,0.1038999302427962,0.5518624756145263,-0.19886607046468321,0.0025823770105741634,0.15491580855348025,-0.14982585280261876,0.05442543534313056,-0.11344412647481211,-0.20787857139004298,0.011633033142598694
-5.110022525009266,1.6508084225008395,1.0469370609343072,-19.532033952527183,5.787147489239855,1.2741525642915281,-27.5331789453055,-19.839254833052795,3.4472820691097423,-29.31255619224357,16.112173151793314,6.518725018449283,-20.628913740308626,61.36212322647447,-2.0576883941388893,-15.138429711867703,6.851861932615184,1.336859248007895,-37.935981295588064,41.11537401176569,6.405020940406395,26.323593833197194,-16.81794848245779,-4.507838679167746,7.250500138007197,-1.3693389932575057,-1.283981023706828,5.117124808374798,-1.1778318739515006,0.5209522410663212,0.9872619155622196,-0.9585477017404697,0.03655690029449511,2.447728292391779,1.049497221338028,0.37918126613911596,0.27624158881279426,-0.09997749176400413,0.0029665032606649338,0.43855617331265034,0.07537171241458322,0.03330866922584599
-3.0243564537085685,-1.6497078977526742,0.9486584232990832,-14.219517242900496,5.324260431251824,0.6623383465208513,-13.917402421519864,-33.44296915566851,3.2936506878241145,-11.924251795397895,5.4792777159935175,-1.9363996180591658,-20.71733600270893,62.12588926730784,-2.1545121500207496,-14.220196919706371,6.918554500426475,1.4077257973058193,2.665097960249791,9.847374695546797,-0.3236747809290955,4.309516512611042,-7.839769174414791,-2.8853964782746844,6.483620906276567,-0.9977751871564281,-1.6562707654964501,5.437649442827727,-3.841766841849726,-1.1267899349896981,0.8463487133121494,-0.6854033427763572,-0.4139348804755558,2.4098585420592578,1.2805195312629347,0.07158170672670408,0.21709083819839772,-0.05442422039994646,-0.14680859883215275,0.28049053535699997,0.09932917391191133,-0.05184212359243926
-4.03495834954052,0.42430855073011636,0.5908139982179436,-17.34817979479355,4.9859110236090585,1.2496727393116525,-13.959213031470114,-23.31530057496195,0.3396625680561839,-13.428968109970187,4.839947822600481,2.7827221305521244,-20.879800920374095,63.21810620995612,-2.1434448674080038,-14.973850272539396,6.6951455281751855,1.4669034633107338,7.976972627545379,20.23577404780984,-2.790901283124597,7.884207677097419,-9.0355632192552,-0.2006710785166706,3.905605723001135,1.8283183876219686,3.0945615870193612,4.371555774200853,-2.190460971069742,0.524419237638266,1.574713752004227,-2.8429538469090363,0.6489216468059192,0.59792930187095,0.2058055590471114,-0.24504632991012548,0.21022898739152276,-0.2698082354792972,0.22677875820865068,0.054673947401201864,-0.11445372123569378,-0.04322954767237424
-4.469558862085118,-0.07300350335270311,0.6848078876069681,-18.22727155175598,4.723870435446472,1.156706992106197,-15.643751571868906,-32.73369846198009,1.1955075756523992,-24.581044762748164,-2.5717274148151175,-0.6964737516827711,-21.048799819991128,62.87213014596653,-2.2315575453199044,-14.50016928976764,6.6622377197456375,1.395014274626813,-13.934896614549999,-1.7135878942919032,-3.198708189675527,4.839122808427439,-8.576648348897812,4.816789431176099,6.819938439396808,-0.49481468009936824,-1.6409630900779348,8.570865966260868,-3.5525822110998444,0.630580793753096,0.7149552279888343,-0.39975616318242735,-0.42017508178701546,1.556746586694942,1.6589996072312787,-0.2958714024321038,0.1406822067703119,0.09625323502737004,-0.1859880629856165,0.20670229068583207,0.12335340063975728,-0.032204087528311436
-5.052827476721653,1.7190551812545605,0.6126672653053691,-14.582862305434947,5.0845323523829915,1.0812688262710008,-18.828494723777364,-25.589581965814677,2.7095921754082077,-4.191209920927288,9.859768571182098,3.0342918244417385,-20.865927993263632,62.39690470491103,-2.355879012473356,-14.113299625249141,5.86755374530655,1.3352800280590165,8.107315817814383,25.630187497202957,2.9994932799383145,15.201378584820796,-14.63910384099234,-1.1591642112364322,5.837628830773801,-0.1985051733173131,0.1066058651823492,4.420082109575796,-2.8710129318493127,0.10259585342350895,1.2700282462218295,-1.5644444664666337,0.1639277942874443,1.8769579812142283,0.3008950553889505,0.5265405777925768,0.2537352326710349,-0.17157779755471597,0.08721112884588189,0.2698162451656466,-0.2067274052365511,0.11978872942393959
-5.766576575209082,-0.7530165775851508,0.9663545690399024,-17.663131541862835,2.640040717709364,0.44492647561890764,-19.821458275889093,-29.131373545745504,2.81723752038914,-26.7451863443563,0.09580974979474696,-1.6223757862159045,-20.079393411259634,62.10200711292984,-2.3799647182860886,-14.00037713175449,5.661454609478276,1.2094330718036774,-21.382309053509207,6.845681391332178,-2.5277225409154727,-8.740748256618172,5.38835923006349,-2.177644532967171,5.735286367418976,-1.8370840713907273,-1.36690295450951,5.070953546666008,-1.770161537646041,0.6448049863207587,1.0525313081707066,-1.185480075114076,-0.16328237345427887,0.609551933955958,0.9571593095602432,-0.2569152104010553,0.2638639228201896,-0.1511034533804813,-0.042739897781377864,0.033880866694206924,0.06317359194761354,-0.031077037432097245
-5.465302014264044,2.196409668529069,0.2295582288611521,-15.357766254552015,4.749108772368148,1.1221617602628484,-18.21686313466272,-23.76290291642583,0.32367500369308005,-10.219722353763318,8.977423905996256,3.564056958419597,-20.366857080457404,62.03749312875069,-2.509004129946446,-14.096978375443502,5.6473485623044954,1.2722576161536847,0.5226200374780423,25.962916710361664,-0.30150680102641825,26.59426498469169,-29.330958268666027,-1.3470588374924408,4.609919204402553,2.2764543455332387,1.6905451213130127,4.374387321591891,-4.071655780944279,-2.1316487624717926,1.3884046798646386,-1.5148953034421095,0.025338761408417662,2.297819399588907,1.3857884406337402,-0.11605352613751131,0.2186448167691736,-0.03443234804854409,-0.0061845274951854,0.25958500861934847,0.12937422363404222,-0.13651808151595693
-3.7060648795136966,-0.0422980460316351,0.2652151696903223,-17.100941905901667,4.9643993540367175,1.4526834269015727,-18.15783243627054,-30.176168342269456,2.300063507590281,-22.058287730968793,4.152785520414696,0.16239168497294243,-20.615646442218576,61.7036521801321,-2.5870176697301566,-13.800401117788855,5.314389392913807,1.5913033264029377,-11.091413934397005,13.50868797594947,-1.5026786336688165,-12.588453905254951,-5.55177185389402,1.9179282505973483,7.220098131061726,-1.3266349169644784,-0.37576564214778085,7.511625670622719,-2.9970858329065893,2.225162095376252,0.5504204715021079,-1.7761304237691626,0.5781737254622825,-0.11961539420996972,0.44882042433076325,-0.11994660255559152,0.16037497902193196,-0.29021563912806425,0.17495606871669048,0.01786375572077462,-0.20202627407715537,0.15127097860694122
-4.29161266329442,1.0671360680153448,0.07868457995620957,-15.720866425111861,2.811835981952359,1.0835083917221915,-13.178645493727425,-25.50068059684523,0.5750083090958193,-16.548508205850318,0.48616190259675984,2.4924870624952717,-20.3257343398584,62.00150002069382,-2.675999294018604,-13.814874854387066,5.21191651664277,1.332527349405765,-0.7901229783824046,12.19367185263831,2.2145642096481595,14.963341362283781,1.987896691221729,5.981036030303353,5.041838741764256,0.7346693190191498,-0.21362983806106703,3.3769266167961933,-1.6552331711813957,-0.6837394337140527,1.1911888097942338,-0.5356726126133006,-0.27110873009808484,1.361642509225261,1.1408321396083119,-0.1256670240045735,0.18499093429844848,0.12032502116169172,-0.08952264418440607,0.06604629100832236,0.12936568875010088,-0.09588912806202539
-5.116160592085497,-0.35071018347034033,0.6347090293524001,-13.218913452592266,3.5346524855514585,0.49481680029815206,-20.426331364625458,-33.439464562245725,3.4354013174183513,-9.54170271600095,8.255972389692984,-1.012127765562246,-20.058941213787648,61.341622320431775,-2.751265633908107,-13.177498530122843,4.6796679634475815,1.2382022788796267,0.25061544973332983,15.011858668376565,-1.3059390703954192,12.267388985691793,-21.36940600278786,-5.460860620826114,5.210514485772725,-0.7261571807141122,-0.6044990392653835,4.729093472697417,-2.516574867334783,0.6773783267885884,1.301339864076996,-1.493580168847987,-0.4529891745594321,1.3473358517440968,0.503468896043977,0.48789525193641886,0.2791412701848367,-0.16488249090979057,-0.13224526207728626,0.21575094154552255,-0.031925387842960624,0.10512879332558907
-5.236210219985423,1.74977501965644,0.16460052661551317,-17.515693172917793,2.7254792635764615,1.1897394732234166,-24.339438928633555,-19.66512183135479,1.6097429245436243,-22.53346813418912,-1.5141183946600927,3.5385627279632295,-20.110799616265286,61.740845149980885,-2.8010088999753444,-14.419015985577367,4.9262262189381,1.1438786512085717,-20.417827953046455,19.27416809049568,-0.8814686637309253,-10.742388450872408,-5.371333477710412,2.1221765166243514,5.340419198578529,1.6380396618473052,1.625968734902526,6.253608900080467,-3.3877335306268734,-0.42108304321775475,0.8022599093083923,-1.5488269747443995,0.5079466216364775,1.1617152090899696,1.0800951507505006,-0.668901681200513,0.13441915463974843,-0.07592614782933184,0.11911220300103248,0.0637730117735297,0.01270020766209579,-0.18975901075803028
-3.9876358246006403,-0.3924956240121478,0.31909148325528425,-12.636338337787533,3.486086822522417,0.6521125697686863,-13.58927066845016,-38.511105924178665,2.2734245090990055,-7.81237861296369,10.471343177941366,1.2762822308604216,-19.636762471100653,60.82666201621446,-2.664313040192599,-13.102800756349769,4.581614274758462,1.2486253600620236,8.45764596078863,9.715072415971116,4.343712477616539,19.38492564314693,-18.573090743862693,2.4173149033721573,6.4037359666259075,-1.332141699518459,-1.284268305692039,5.49232507980396,-2.6809530629365197,0.9010939889921139,0.8944302030366335,-1.2593313440980993,-0.2807264932795952,1.086704042599797,0.8435241894735466,0.5908402927977632,0.15626145231779776,-0.1447263747434841,-0.07935213329740073,0.18200716466283723,-0.05628279006301465,0.22116809592087977
-4.351587655502565,0.4078158216751132,0.06805023617849046,-15.264650863910436,1.831071832257635,0.5482871552638795,-11.465488247359966,-23.34195062320225,-0.6232048269834042,-15.985276744474856,-8.571543848789245,-4.318388437438434,-20.19696494033336,61.22688405954813,-2.491958166907913,-13.961500484832957,4.793675895472208,1.2442623988623063,3.9897698011973035,7.887921014552829,-12.676417543887293,19.221786648204265,-20.374438065302048,-5.8592864130481646,6.382226710871887,1.0433599203726487,1.3578912790948656,4.939371581535305,-3.3162712019868965,-0.7328622388611794,1.3745747278550757,-1.780022909661265,0.42912102539143215,1.8070778920780346,0.6509492659821488,-0.1260619458942573,0.41508563979609747,-0.08712692484228264,0.06388549649767022,0.26698472318813204,-0.08083243199790237,-0.09489404644127378
-5.734049564827128,-0.980358275960677,1.197363405875131,-12.673590350472415,3.677420815805811,1.3217363529169062,-24.35370278704675,-33.14401894307961,4.692357566464169,-13.647646305239824,5.962522065296927,4.467987472325794,-19.896179697851153,60.906137941118445,-2.3592756821880094,-13.243590469437361,4.63674833447388,1.2900303440275056,-13.396204380435012,7.567186292106568,6.957630943541223,-8.488707035518727,10.41925365398646,2.3086299826497734,4.870202431936451,-1.0596245906605295,-1.1858353654711913,5.277910032166446,-2.366950359862955,0.007714203810346005,1.0890262207348607,-0.675607771811878,-0.19211894123370946,0.42105186450326265,1.1769567915440957,-0.5398891982242139,0.0888761656090609,-0.088553327810824,0.05848034989896846,-0.13603645933269637,0.12785776596940365,-0.1202303945871893
-5.108008328721733,0.7477385289224985,0.6732297604672977,-15.527890075214486,3.4679119457401715,0.7354332355254526,-20.3925691942557,-22.64010585129166,1.9627773919230167,-12.150096402139116,3.515947793076413,-0.5796865165488994,-20.0105705993207,61.52870508707356,-2.3238901131348126,-13.515707088665415,4.462898636506015,1.1287357115749832,-1.3410438060374985,25.258265203015583,-4.740917305846569,10.50339844441873,-6.432264082848432,4.914343563805745,5.38261749321813,1.51012168575794,1.5602446301841553,4.78638772431731,-3.4389288752112948,-0.4613088866874514,0.908423339881598,-2.0148532263592633,0.08442644628447303,1.7399934328144955,0.9233468966927686,0.5671431420952611,0.16188844284883722,-0.11643087937291562,-0.05621088232305767,0.3131631153251766,-0.12799697007309419,0.18812649638051748
-4.809191575681429,-1.853059237527029,0.6524875316111363,-12.527270800102457,4.443156515673967,1.1258184556954682,-15.070856003429911,-27.51573601573033,1.0949504409933553,-9.429924985360325,12.927573479686622,4.68293870974095,-20.036637829107256,61.76573654651,-2.3820392220964477,-12.716878955357908,4.294510844746784,1.1735024481294845,7.428762949776259,42.77185636040397,2.401446440583062,-2.5592156874018688,-56.263708209012144,-10.284326098271741,6.290980896352784,0.360646950591828,0.9098660467823513,6.719412639050154,-2.8457975734916405,0.23747914150548358,0.5685278709548344,-1.7624907137689518,0.6281111144820279,1.2461348637982077,1.1703520882430956,-0.26224814041243627,0.09580007233640911,-0.14185984721632955,0.14736387886096747,-0.020437699377983953,-0.003994882074446341,-0.06075397232411111
-9.041162146280941,-0.26545220700591693,1.376493863545228,-14.167164009506283,1.613492097219475,0.8335821463877668,-25.832658351064552,-34.63807032983811,4.293351255422456,-8.86861328367392,-7.052578196863386,-1.6096864217379474,-20.289883199601146,63.103204480597846,-2.72623795004382,-12.265456784312759,3.6682879894537495,1.074547543115083,-5.760152331167748,-16.04881405211113,-0.28589073675547105,22.186305054306825,19.86634319608394,11.437442836326557,5.490674538704947,-0.5743097597708472,-1.7649694338551332,3.852110498121178,-2.548190778707085,-1.1075023031660152,0.870833596605188,0.034724983979196405,-0.48317475630746287,2.17809820284096,1.1893949277155689,0.06824612620265022,0.2512576485814009,0.16675579283472167,-0.2047842305367183,0.5112081737945285,0.19992772644939572,-0.09800582002657349
-9.004541211863575,-3.4352588404964455,1.2689350776765256,-12.206788918706929,1.883626930852302,0.4081179908552835,-25.180608020387435,-34.40050200511247,4.690734169092622,-8.95186756944924,5.078575619827639,1.2956147272960798,-20.496511896459587,63.488122810400434,-3.1782993547080416,-10.807690625240806,3.355626126225602,0.814760287685318,-2.9448764293141343,22.489286239613136,1.9763622931553377,-10.112769752315005,0.512822571035443,-2.635061937842558,6.667143704173197,0.2735253343678398,1.0632012232520325,6.196311059486004,-3.89679569821918,1.470340080477685,0.8019633064422496,-2.15387838060599,0.6807006062435609,-0.45998645358423834,-0.32230235599996204,0.05407765944270655,0.16495413322384406,-0.28476746436310957,0.21139869080652116,-0.39056289909830977,-0.4527678748077672,0.17940670424496366
-11.610660921844522,-1.779384767979822,0.5019118306028911,-11.807584476551316,3.2899663130136214,1.1530880553697478,-28.05877408356519,-35.32750469701357,0.9808954018568614,-1.6338503778681512,4.060774986314927,3.367720887665543,-20.528978330413615,64.71050478725844,-3.8945511650505393,-10.16010282333339,2.799534001828195,0.8663810840325012,5.383833580257865,14.737762571588425,-3.20382622555316,4.31453020388988,-60.786468109166364,-1.3750107681687251,4.626181846590286,0.035000462922238386,0.7209530942920414,7.321608065303474,-1.4490113769985256,1.0776466656705914,1.2428212626825694,-1.7325397495129864,0.2795015545035366,1.7119562462405347,1.5260428760252733,-0.19017729242551226,0.24273634759577536,-0.22260293499042402,0.14244227700647372,0.33613606292315446,0.10858634137916824,-0.05278334863062895
-14.26847,-1.74571,0.41035,-9.87379,-0.39822,0.17295,-26.63613,-29.90093,2.55306,-2.88741,-3.869,-2.10459,-20.20622,65.15253,-4.82269,-8.38764,2.00341,0.71515,6.70347,17.9383,-4.73765,-6.16707,27.23248,-5.20708,8.11998,-0.00984,-1.82846,4.89615,-4.42115,-1.86531,1.33272,-0.50219,-0.71332,0.71389,1.63871,-0.57979,0.26695,0.05695,-0.22518,-0.01832,0.23531,-0.12711
,,,,,,,,,,,,,,,,,,,,,,,,,,,,,,,,,,,,,,,,,
,,,,,,,,,,,,,,,,,,,,,,,,,,,,,,,,,,,,,,,,,
,,,,,,,,,,,,,,,,,,,,,,,,,,,,,,,,,,,,,,,,,
,,,,,,,,,,,,,,,,,,,,,,,,,,,,,,,,,,,,,,,,,
,,,,,,,,,,,,,,,,,,,,,,,,,,,,,,,,,,,,,,,,,
,,,,,,,,,,,,,,,,,,,,,,,,,,,,,,,,,,,,,,,,,
,,,,,,,,,,,,,,,,,,,,,,,,,,,,,,,,,,,,,,,,,
,,,,,,,,,,,,,,,,,,,,,,,,,,,,,,,,,,,,,,,,,
,,,,,,,,,,,,,,,,,,,,,,,,,,,,,,,,,,,,,,,,,
,,,,,,,,,,,,,,,,,,,,,,,,,,,,,,,,,,,,,,,,,
,,,,,,,,,,,,,,,,,,,,,,,,,,,,,,,,,,,,,,,,,
,,,,,,,,,,,,,,,,,,,,,,,,,,,,,,,,,,,,,,,,,
,,,,,,,,,,,,,,,,,,,,,,,,,,,,,,,,,,,,,,,,,
,,,,,,,,,,,,,,,,,,,,,,,,,,,,,,,,,,,,,,,,,
,,,,,,,,,,,,,,,,,,,,,,,,,,,,,,,,,,,,,,,,,
,,,,,,,,,,,,,,,,,,,,,,,,,,,,,,,,,,,,,,,,,
,,,,,,,,,,,,,,,,,,,,,,,,,,,,,,,,,,,,,,,,,
,,,,,,,,,,,,,,,,,,,,,,,,,,,,,,,,,,,,,,,,,
,,,,,,,,,,,,,,,,,,,,,,,,,,,,,,,,,,,,,,,,,
,,,,,,,,,,,,,,,,,,,,,,,,,,,,,,,,,,,,,,,,,
,,,,,,,,,,,,,,,,,,,,,,,,,,,,,,,,,,,,,,,,,
,,,,,,,,,,,,,,,,,,,,,,,,,,,,,,,,,,,,,,,,,
,,,,,,,,,,,,,,,,,,,,,,,,,,,,,,,,,,,,,,,,,
,,,,,,,,,,,,,,,,,,,,,,,,,,,,,,,,,,,,,,,,,
,,,,,,,,,,,,,,,,,,,,,,,,,,,,,,,,,,,,,,,,,
,,,,,,,,,,,,,,,,,,,,,,,,,,,,,,,,,,,,,,,,,
,,,,,,,,,,,,,,,,,,,,,,,,,,,,,,,,,,,,,,,,,
,,,,,,,,,,,,,,,,,,,,,,,,,,,,,,,,,,,,,,,,,
,,,,,,,,,,,,,,,,,,,,,,,,,,,,,,,,,,,,,,,,,
,,,,,,,,,,,,,,,,,,,,,,,,,,,,,,,,,,,,,,,,,
,,,,,,,,,,,,,,,,,,,,,,,,,,,,,,,,,,,,,,,,,
,,,,,,,,,,,,,,,,,,,,,,,,,,,,,,,,,,,,,,,,,
,,,,,,,,,,,,,,,,,,,,,,,,,,,,,,,,,,,,,,,,,
,,,,,,,,,,,,,,,,,,,,,,,,,,,,,,,,,,,,,,,,,
,,,,,,,,,,,,,,,,,,,,,,,,,,,,,,,,,,,,,,,,,
,,,,,,,,,,,,,,,,,,,,,,,,,,,,,,,,,,,,,,,,,
,,,,,,,,,,,,,,,,,,,,,,,,,,,,,,,,,,,,,,,,,
,,,,,,,,,,,,,,,,,,,,,,,,,,,,,,,,,,,,,,,,,
,,,,,,,,,,,,,,,,,,,,,,,,,,,,,,,,,,,,,,,,,
,,,,,,,,,,,,,,,,,,,,,,,,,,,,,,,,,,,,,,,,,
,,,,,,,,,,,,,,,,,,,,,,,,,,,,,,,,,,,,,,,,,
,,,,,,,,,,,,,,,,,,,,,,,,,,,,,,,,,,,,,,,,,
,,,,,,,,,,,,,,,,,,,,,,,,,,,,,,,,,,,,,,,,,
,,,,,,,,,,,,,,,,,,,,,,,,,,,,,,,,,,,,,,,,,
,,,,,,,,,,,,,,,,,,,,,,,,,,,,,,,,,,,,,,,,,
,,,,,,,,,,,,,,,,,,,,,,,,,,,,,,,,,,,,,,,,,
,,,,,,,,,,,,,,,,,,,,,,,,,,,,,,,,,,,,,,,,,
,,,,,,,,,,,,,,,,,,,,,,,,,,,,,,,,,,,,,,,,,
,,,,,,,,,,,,,,,,,,,,,,,,,,,,,,,,,,,,,,,,,
,,,,,,,,,,,,,,,,,,,,,,,,,,,,,,,,,,,,,,,,,
,,,,,,,,,,,,,,,,,,,,,,,,,,,,,,,,,,,,,,,,,
,,,,,,,,,,,,,,,,,,,,,,,,,,,,,,,,,,,,,,,,,
,,,,,,,,,,,,,,,,,,,,,,,,,,,,,,,,,,,,,,,,,
,,,,,,,,,,,,,,,,,,,,,,,,,,,,,,,,,,,,,,,,,
,,,,,,,,,,,,,,,,,,,,,,,,,,,,,,,,,,,,,,,,,
,,,,,,,,,,,,,,,,,,,,,,,,,,,,,,,,,,,,,,,,,
,,,,,,,,,,,,,,,,,,,,,,,,,,,,,,,,,,,,,,,,,
,,,,,,,,,,,,,,,,,,,,,,,,,,,,,,,,,,,,,,,,,
,,,,,,,,,,,,,,,,,,,,,,,,,,,,,,,,,,,,,,,,,
,,,,,,,,,,,,,,,,,,,,,,,,,,,,,,,,,,,,,,,,,
,,,,,,,,,,,,,,,,,,,,,,,,,,,,,,,,,,,,,,,,,
,,,,,,,,,,,,,,,,,,,,,,,,,,,,,,,,,,,,,,,,,
,,,,,,,,,,,,,,,,,,,,,,,,,,,,,,,,,,,,,,,,,
,,,,,,,,,,,,,,,,,,,,,,,,,,,,,,,,,,,,,,,,,
,,,,,,,,,,,,,,,,,,,,,,,,,,,,,,,,,,,,,,,,,
