PaulMeinheit/Bachelor_Muay_Thai/processed_Data/E1/teep/scaled/JointMoments/scaled0.csv
R_KNEE_MOMENT,R_KNEE_MOMENT,R_KNEE_MOMENT,L_KNEE_MOMENT,L_KNEE_MOMENT,L_KNEE_MOMENT,R_HIP_MOMENT,R_HIP_MOMENT,R_HIP_MOMENT,L_HIP_MOMENT,L_HIP_MOMENT,L_HIP_MOMENT,R_ANKLE_MOMENT,R_ANKLE_MOMENT,R_ANKLE_MOMENT,L_ANKLE_MOMENT,L_ANKLE_MOMENT,L_ANKLE_MOMENT,WAIST_JOINT_MOMENT,WAIST_JOINT_MOMENT,WAIST_JOINT_MOMENT,NECK_MOMENT,NECK_MOMENT,NECK_MOMENT,L_SHOULDER_MOMENT,L_SHOULDER_MOMENT,L_SHOULDER_MOMENT,R_SHOULDER_MOMENT,R_SHOULDER_MOMENT,R_SHOULDER_MOMENT,L_ELBOW_MOMENT,L_ELBOW_MOMENT,L_ELBOW_MOMENT,R_ELBOW_MOMENT,R_ELBOW_MOMENT,R_ELBOW_MOMENT,L_WRIST_MOMENT,L_WRIST_MOMENT,L_WRIST_MOMENT,R_WRIST_MOMENT,R_WRIST_MOMENT,R_WRIST_MOMENT
X,Y,Z,X,Y,Z,X,Y,Z,X,Y,Z,X,Y,Z,X,Y,Z,X,Y,Z,X,Y,Z,X,Y,Z,X,Y,Z,X,Y,Z,X,Y,Z,X,Y,Z,X,Y,Z
-12.170010000000003,5.267540000000001,0.09314000000000001,-10.100940000000001,2.38213,0.9450900000000002,-20.67384,-33.5478,6.481080000000001,-7.349010000000002,6.851770000000001,1.6487100000000001,-28.60707,64.78613000000001,-6.672900000000001,-12.775650000000002,3.9781100000000005,1.45295,-1.10903,9.152459999999998,3.4206100000000004,0.55137,-32.59091000000001,0.8781700000000001,3.2429100000000006,0.88094,2.3348600000000004,3.0328900000000005,-5.0058300000000004,1.1007000000000002,-0.6653600000000001,-2.5658400000000006,0.5046400000000001,2.366150000000001,-1.78842,0.20613000000000004,-0.03564,-0.14945,-0.008730000000000002,0.28673000000000004,-0.14036,0.10061000000000003
-8.798432322993431,4.954650777312648,-0.1434955994078889,-8.1067454825842,-3.0007184131645066,0.3134832239980851,-6.651256306529158,-26.288246815064795,2.255898181557089,-7.26962385286366,-11.426974826068731,-1.1058319020595024,-29.30210990844954,63.83725777505275,-6.027526217006054,-12.693397877183891,3.8425405645985156,1.2567666942539173,9.444083596458167,5.392548934684943,-8.420175998543689,8.311136687677392,7.732307696455828,6.072215221395238,6.972901021751628,-3.404926917240269,-2.3875807125069413,-1.8980979060870207,-4.544090431270632,-0.36600657079351595,1.0604557902583398,-0.4621135907172208,-0.3701448944831851,1.358634424529841,-1.9059629188201914,-0.3504773061014672,0.2722955783812658,0.08395840758624197,-0.1158164148978829,0.21246480777271368,-0.36363362960054857,-0.05201098332282344
-8.586009920289067,1.2013377472177436,1.3618335964986625,-8.88152110603706,2.351032924380487,0.5480948642134817,-17.57592364918328,-35.64734924518631,5.803544861471629,-10.483372837816047,6.293951159690797,-0.1548076098165022,-28.97198522469175,62.79740077890838,-5.322665644595202,-12.823617463683902,3.8308527919494817,1.1699483409414762,-10.569868929234186,12.367991702785991,0.09362984008679837,-2.5367199761198833,-3.0974640946850585,-5.50327755498043,5.774694245360491,-1.747105340534328,0.36971327716425384,5.159787377579162,-4.060883664515077,1.2351292436479777,1.4490670472285636,-3.491278325534962,-0.20622528509323318,3.520526339336351,-1.265583741510293,0.3140337750325619,0.36603371463672196,-0.5534214336959751,-0.008022935368650149,0.48200433004994536,-0.03004727877096708,0.09223395732112272
-7.065954204271698,1.043633348588077,1.6933589638777435,-8.936120133639605,3.7341377175243813,1.1505173729627634,-6.849855072619937,-31.916997670037002,6.338874789252307,-7.912610458310781,6.519044069082067,2.254062027018627,-28.385144516712582,60.4328258378924,-4.654629427986345,-13.32115341532861,3.9235731366220743,1.3458850981740695,6.1695723633408655,17.18691234448005,-1.8230992953465306,-4.253888577347848,-15.63611920023646,11.601243180473428,4.194936035149422,-0.31166344733070184,-0.43842979070878046,5.253088623825596,-5.88531748649714,1.3228193405407627,0.3911000088005218,-0.6971101001206427,-0.15545098685076117,1.5418366460574997,-1.7953649160991496,-0.08786742765925445,-0.008091112937867649,-0.04733535389466866,-0.010608379975708966,-0.12445174422743044,-0.2603409026427824,-0.06531957946362481
-8.023853722259513,0.7589934941510874,1.5082903096688967,-9.396600049994577,-2.8505132777022886,0.30193560880625453,-8.120632184366764,-37.98497351905754,3.448459774559383,-8.404373333356878,-12.47569812194128,-2.8380298835788853,-28.151788085136005,58.53568196171733,-4.526079538615054,-14.011114323255727,4.048210931882036,1.1101096653028402,4.954613804372452,-12.744489668857037,-7.530429398490271,-2.3069709922854136,11.226327792182206,-11.227909535158538,6.317832363551477,0.3010395242292593,0.37051052427101216,-3.455327788640816,0.31728521984998426,-1.2689883406590448,0.9913989191133292,-1.252375372448015,0.06939509388914733,2.9743126923774734,-1.013906550320196,0.27860252997617485,0.23199343376157067,0.057705454516247014,-0.012985788787222143,0.5679545114127081,-0.22343241985515733,0.03714184752870837
-10.19228674166609,-0.5508682155317778,2.736541624903875,-6.107240589194877,0.9363762980694387,0.45982190401854556,-10.527529446083335,-38.78072040358687,10.05292019862085,-5.239351564970353,9.177505076940964,4.429487041289331,-27.3391864567839,57.041802895759815,-4.67641297895424,-13.2274293827507,3.6004665604854096,1.0143308304150738,1.762134818139149,19.255297954983423,8.978356624055174,-12.975275678406254,-12.709611862426291,4.84169473996477,4.419671895928759,-1.2949492754342768,-1.9822455939312675,6.471194122940497,-3.56866901520701,1.8914443435199242,1.546725707994765,-0.2874894737065372,-0.6942978411996431,2.340580880187133,-0.5828633506711349,0.44724207891749135,0.31401854948709607,-0.1741338984858672,-0.05404431188734732,0.04796445022933479,0.006945295441841553,0.017484556420087366
-7.775355986858369,0.25448679862375556,1.4518446812737398,-13.796198671134826,-2.071113749258073,0.3212006057699051,2.356039406559367,-43.37103387556765,4.496000195237246,-23.463065578450685,-6.552936565136715,-3.578950832982403,-27.674884627136713,56.40994409315141,-4.94032252698448,-13.299078831247677,3.633775955467047,0.8641546037383393,-0.4796975507899077,-7.097920705745419,-4.823707693080284,-12.348345258641986,12.541778349583126,1.3420865530216102,9.192417025074288,-0.12254121086069836,-0.048470079682547504,3.8589837351837293,-4.471024909187087,1.0865893050429156,-0.8670890710202792,-1.81089487543971,0.1664076949433086,4.1393212030571025,-1.3439246763141335,0.7594246605388283,-0.06315021000753449,-0.00481260751331946,-0.20190613875725089,0.7335428841800302,-0.182846902121163,0.29407335178776206
-10.078194921891999,5.183383634550442,1.0911279530956859,-6.349846409205571,-0.20148759628793428,0.4971613526138051,-0.1857160961714533,-29.72581806725318,4.813866467725279,-2.509979076314196,-0.37075456344643454,3.289224813590837,-27.6018550619255,57.99745814058824,-5.7277886401524345,-12.299713379143403,3.00526668800837,0.6733727925633303,27.877329162840592,12.475110596095277,5.664071735501991,-1.8089247795588508,9.042487424519546,-6.079501113914549,2.215301234719691,-1.6850453768218314,-1.4098289878627681,3.8624357150339277,-1.1723554229838982,1.4380851346454055,1.279082796696172,0.02427543224555878,-0.08462936137837872,3.7407033225190753,-0.4604604051460861,1.2819904064808845,0.22077686725748674,-0.02364430139419111,0.11146745582232681,0.39561575503536145,-0.11054411512275954,0.14779047522891944
-8.240826513972683,3.098960792130274,0.7411568633883417,-11.386174515782422,-1.2823943436172713,-0.046499167664253396,-8.33504799378299,-43.751147904024194,8.17512026110693,-19.038834364986087,-4.511577981329554,-3.5531682547164425,-28.91230562848951,61.00872421705798,-7.32763652440827,-11.935839197357305,2.7971054557736186,0.3454515812283884,-14.91562472375864,-0.4147229674242171,-6.547130070326482,-6.0677268658263825,-23.66887111027624,-2.814776634770298,10.542357205237556,0.5890910949080012,0.44513721600652884,-1.5619712735157834,-0.9371731287415219,-1.1308000270630676,-0.7010630956691997,-1.6364951371811074,0.7263401502772661,1.443365859541092,-0.6276754498729029,-0.1759541504342443,0.020922333539655693,0.03657668883932805,-0.0021786688210329312,0.07126009763652204,-0.14456983566163356,-0.15181825319899533
-7.395853521710129,11.616591958303434,-0.9489897799254589,-9.831329405332534,-2.4452511597061077,-0.4448023280502266,-1.1024025305729281,-27.973302723911367,6.305554606329911,-11.27132472851526,6.182600982899869,1.8440270383028956,-30.609474980289228,67.82345336787682,-9.139422597369073,-11.219230214771711,2.173453008191872,-0.05256293967734535,7.062071200294857,29.213875449453326,2.0273572252885312,-5.250533541644302,-7.158578944387545,8.330958587814866,2.788869911589671,1.6163738116813955,0.2758826103790792,9.153530819422125,-3.3048896088111537,2.7760866217334326,1.1563397415743928,-0.4550178497061587,-0.6817860158864059,4.372555229882634,-0.5391326872982002,1.0955949331611776,0.029473507888733225,-0.0020581644180739603,-0.10046834996394584,0.5725161200373284,-0.02270778405923466,0.26503187944793466
-4.087202677998924,12.556280443178121,-2.1209186359264796,-10.964528494525934,-4.427926371123827,-0.2532249738352104,1.1241678598743399,-41.07372915085768,5.352767301356057,-23.256628824609855,-10.946840340385979,-3.575216972868872,-32.80903391969121,74.74227703593219,-11.32256191192485,-10.619470658360699,2.0863637558031307,-0.2878141536812998,-7.847530327104258,-14.328116162637391,-1.9656326213117286,-16.099725988827885,3.6647551129657163,-5.553964725755657,7.572642790823239,-1.2168181765435988,-1.2191960974214975,0.696484825457225,-4.008090367306554,-0.5471912601263733,0.4435925363905186,-1.2588235393970482,0.023867862780808293,1.7810898068174763,-0.9667878642849541,-0.31991337922033053,0.18088943156700454,-0.12402692051855442,-0.021891559934859577,0.06222040793309465,-0.1902717941280577,-0.12708533371455144
-0.33329715421785555,16.180751409775986,-4.049595736688399,-5.918735228840925,-2.8118867376583023,-0.6206269907632894,4.139163469502082,-18.613818700060552,0.32289840328514097,-7.911035192407233,2.29556176133029,0.3409095149091772,-35.3479219914524,81.25578701333482,-13.916789966521366,-10.238008471882113,2.151595896206767,-0.29655127092796274,16.798976244492643,31.432852740527537,-5.659634853112927,4.861860668205836,-5.718931632066855,-1.6961270128220112,9.238885226303882,2.138274451858336,1.8092967226042662,1.22994830323815,-2.741637667970926,-0.2618063551236253,1.737180145652144,-2.05735409259045,0.08091695946229947,1.2891383882848788,-0.25922221506522275,-0.2714902422342511,0.4978155078071963,-0.06571145910859781,0.04522557736079113,0.051106342825742244,0.012421583974564242,-0.04872207143415215
3.2925799559009334,15.134131070820285,-3.529602049769003,-4.870439101622602,-5.704146814028132,-0.2256868329200632,2.055508692485988,-28.35080420367478,4.67962449772206,-2.4236024927581057,-10.096829450750663,0.2476134920781705,-37.05859047659925,85.92469321552105,-15.521945876474419,-10.776259974879768,1.8668821894651932,-0.3569898758098297,19.580615038290205,6.6318042175736185,-5.239706689610291,-17.54080420446736,-6.095503669519358,1.1254531043273492,6.274128428918776,1.4510618331766736,0.8033599949678174,-0.19958489504335744,-1.953535452443977,-1.5375517686362583,-0.3057312066394581,-1.2175290381907355,0.028255706180170308,2.4873897792249298,-0.5638852084544477,-0.34572211395382,0.052517641488659186,-0.026316678142571846,-0.10276173090880866,0.3532164116792828,-0.10812301276504563,-0.03714102761454318
4.9603574338485785,12.21669974515089,-3.2509653443456856,-7.023407124338761,0.2978448529559451,0.07765347143947586,6.543771568665199,-31.098933906575265,4.166623318845887,-22.557724993666604,11.279100372842416,-0.0993182314352799,-39.790804845759645,85.07780297777914,-16.79225565870673,-10.842168716102687,2.157777048127985,0.5256430577548614,-6.197833722742833,23.25009082198494,2.6070204240090273,-13.860235659782216,-13.57415209654837,4.497853972404084,9.613846162873664,-2.3294859293582584,-3.395602774611318,8.870104658884447,0.519204020737932,5.176670146913074,-0.04035730281258412,-0.8670079837216824,0.24973293440334737,2.2632404169691926,0.180937848163352,2.5223484344972964,-0.03112831030683397,-0.08666531437328011,0.0786664074594172,0.20665644603679859,0.045341478796348554,0.4105053697252654
8.878475054754366,6.943517835020686,-2.226685763333021,-0.6462617908509053,-8.506096267367502,0.6792196268884474,10.905610093827852,-25.88497152644545,2.192170991730451,-12.916464754763036,-15.903562248819597,-0.2816185217376834,-41.377033368104236,79.2748956474403,-16.512026740489198,-9.457863930730518,1.6070476815034418,0.042422953604274075,8.813653874446663,-8.428454650300946,-7.820243560339643,-7.00487160725335,-17.882676882713405,-7.502476178104566,6.758640655034944,2.724610172085735,2.9475039502160167,0.3432443228657851,-3.9215271753936554,-1.5836812365538382,0.349086678782048,-2.181786796989536,-0.17123966098411242,1.6091117018516532,-0.5711392547220879,-0.7335093640211658,0.20407314336621743,-0.15236778628517217,-0.07655615525948421,0.005172765121839845,-0.09011472946280437,-0.13331653712225058
12.921821687875706,4.554509116517819,-1.795516860374165,4.872065639464429,-3.2309155132527456,0.1484748154592465,19.872244851337868,-9.076867308071558,4.211501557380754,-23.04620935170622,4.404093196808027,0.3657838938846022,-39.72198020796419,66.75012686829075,-14.702036532105543,-8.19563551943473,1.801182274179225,0.15192192392387985,0.06387645861447805,28.089141621848604,2.0018247251744765,-13.977278109964898,5.009227591193598,7.594624844849198,7.345835414918003,1.6691421717885844,1.084558700688534,2.3036659086350744,-0.36376520787666966,0.5600843251340253,0.03593354258263741,-1.1019881410097219,0.3273561361326274,2.0664584362770007,-0.11410999932320928,0.5115309231125486,0.1203287608067254,-0.0040606836141627925,0.0648970903427679,0.31715579608842126,-0.04162150142321349,-0.08251064656343489
17.514947118275966,-1.936166558417386,-0.6295772685858221,12.67303093397465,-5.020421186668458,0.2881808717822758,35.9522116891398,-25.665446052562523,1.3200889753878065,-8.816766056634936,-4.692019805810314,-1.999239480175174,-30.987525156481258,47.899983033221694,-10.849183376930204,-7.840936807775675,2.9717749109951126,0.0759826191873561,28.637478090285356,-20.82706419446596,-3.265284683334592,13.823023195302616,-17.845790826723476,-3.90190532347231,5.220774554496734,0.6342701010599576,1.287755769735776,2.0573544291820585,-3.47953738324783,-0.7225876369189753,0.3432310914292714,-1.733083188254023,0.031030233436066985,2.64219626627907,-0.41852454209245527,0.03565304898086162,0.08889193746429956,-0.09116507485106029,0.06137882859861689,0.15259344822052084,-0.07191214787349774,0.03907259188831962
17.42825,-2.23456,-0.97431,24.639090000000003,0.23940000000000017,-0.16162,32.73322999999999,-4.010159999999999,-0.08122000000000007,-32.42041,21.0258,0.8518599999999996,-17.090469999999996,24.79558,-5.5985000000000005,-6.96009,4.988639999999999,-0.11531999999999999,-20.165439999999997,4.215819999999999,7.569189999999997,-13.798699999999997,15.420100000000001,-5.0627699999999995,9.28233,-1.57775,-4.29792,2.4284099999999995,-4.2192,-1.6637800000000003,-0.37843999999999994,-1.1641399999999997,-0.15017000000000003,1.52697,-0.22347,-1.25427,-0.09054000000000001,-0.21526999999999996,-0.040459999999999996,0.03993000000000001,0.002409999999999997,-0.21472999999999998
13.066867957927716,-2.954058518181873,-0.7421505017198875,35.865920304388574,6.890516496014399,0.07300581508597816,47.56794436860277,-10.977206235911991,5.017731531409621,-16.521823314721555,30.56818316515182,3.7242484455603133,-4.47253139084162,7.128856213892669,-1.5253391847504458,-6.999713785720074,7.3315328300742575,-0.11525224099953688,6.5455332245315985,-33.96831872933831,14.232028214154202,36.185358964377066,-4.069037960745686,-0.10057048852063422,2.4338358958466806,-0.2816029849617251,0.5788767894957729,-0.8888304957865397,-0.7520399151926607,-0.6029342533478629,0.20595463054534344,-1.3970565926815868,-0.03534765276657276,2.396610237256962,-0.193221521996756,0.7232931250827587,0.17944562361842054,-0.3425530808260548,0.026030959133413946,0.46278931582739957,-0.0804682405512329,0.06549239909748651
8.216463261388096,4.626108540596069,-5.5317492128812,47.61751299402219,19.752237498150112,-0.3687761061286978,41.06295663608912,16.746849816853786,1.8900506877514265,-23.57142698227145,66.79970834669408,5.077620051457392,2.250413859166119,-0.1606611368294113,0.8911027887025212,-7.347760493005111,10.207414061624062,0.2232902849130054,-9.485208861780754,26.874968733830194,15.605861414655196,-2.494235717616022,16.712674429404185,-2.738724665063669,9.138198692676562,1.614156462130504,-0.8525440555516665,1.3393433919234425,-4.658258741369824,-1.9216234042975402,0.8079379601077149,-0.6008025404555287,-0.6015800374352096,2.1531338323505986,-0.5999159015983411,-0.8669942780707015,0.24414825748639835,0.21825958778533242,-0.14102161357071683,-0.003932537385369953,-0.09721226123705104,-0.16810814653336809
-1.6264518780607604,6.971537255344969,-6.328567707819952,64.55314616229767,22.298124816128517,1.1573398574059803,32.525023361307724,11.091094305258588,-6.224289587318545,9.800255331977242,43.47188699107607,3.9844163620299256,0.218989080255937,0.35491326726901223,-0.3865970820442657,-6.366171642226012,11.887234059690966,0.6217644055909036,13.706824026551352,-27.49080987977592,-12.330426208350998,19.4424743335589,9.714625557512631,-10.763566470059112,2.6699703330318516,-0.9671070659364861,-2.0911774266615297,-0.569816889765461,-4.447945906235297,-2.2325903029916288,0.1806292980246829,-0.5373661354381323,0.10425149284511792,2.2610186649086677,-0.10746668337571927,-0.6265441584291,0.031122084495348586,-0.18766847024354213,0.09117983685442682,0.35345744155978875,0.0006108794712924338,-0.05051441037958542
0.18343775432384307,3.0489138236664353,-2.678889699939906,67.04175320305332,31.44071090210115,0.5216923484424335,17.02126045527525,10.030721460590996,9.079122360930656,-13.64074780302378,90.03635324850451,6.479265720137313,0.9517057214395721,-0.8527753083559693,0.4367619253685271,-7.480967117027531,14.318508757992745,1.3024818424176627,-35.27185222607133,20.273413246334005,10.23182255386273,39.27953094094995,-4.103326360582905,-1.8077964175787442,5.00057675989712,1.01058956254114,1.235203100816015,1.572818083038781,-3.2698364995005686,-2.4223113153985274,0.2069701682365121,-1.3406085062855202,-0.787129564674961,3.313324203818797,-0.7631799846122365,-1.1486025068521206,0.11574601778232771,-0.060389244519308015,-0.1738584965285653,0.37809365142391943,-0.15499992428692116,-0.13986905440828634
0.07447388683874613,3.525695982857135,-2.7551126924897975,62.911278883552576,27.7453692399537,1.409016919772025,44.46360807558787,-4.867608629927844,0.30091290945097,-18.223787700603186,57.51454806831955,0.8304486275609019,1.5280318376662403,-0.2469221991226975,0.4891188967542952,-6.904634099672187,16.232731848859427,1.3513259627173704,-0.297819993663047,-39.396635621749425,2.028672240942397,-2.392491329431493,17.484090516929683,-6.76344987456236,7.619093080315994,0.6001697597342799,-3.6299574775837096,2.5349711073120815,-2.863311040577931,0.06522310672198924,-0.6696743156557476,0.21663955424711206,0.5061781464148121,2.939688053758663,-0.28949570024889243,0.34653105809943435,-0.013528907001446693,0.23622971786839306,0.016970579039132395,0.2807311094945421,-0.06914991598013234,-0.1274459125171379
-17.701725870971394,9.864738371295276,-4.685016690374058,62.3262794669006,30.051601201760487,1.8107469229819573,10.837565485287366,6.230325591880294,-1.727193811502531,-1.3485558662292096,88.37565989319907,9.288253890467983,-1.1443217536507047,0.7597680919879413,-0.6009027077172066,-6.583512684566117,17.374357773753125,2.2891758097653736,-19.299034725062818,18.163890526373887,-3.010137261099023,32.412722301452376,22.37673157725297,0.03125127360283331,4.988345927944666,-0.5749684211964479,-2.803638016785085,2.7931799918817,-5.425443955795014,-1.292269618538934,0.13632455365468973,-0.6400998350945674,-0.2870229008100167,2.672187508182656,-0.6390156200308648,-0.7445765213266943,0.023033041599293442,0.03060928206888383,-0.022995614531761324,0.32007488200760875,-0.08233728065038033,0.07819599014726517
-0.3641617530445792,4.639294453170014,-2.3164159463850647,57.494477002692705,22.94612573900152,2.568351717695468,42.63815571953948,-10.660120063610455,-5.062654833412494,-7.240130471882214,52.538277858103754,4.361297782942088,2.1292065854061644,-0.42013617725335706,0.9606262037146999,-7.38861800203843,16.855317368134795,1.7338045098134054,5.332906363946479,-51.08052621291394,-18.178675183045307,33.618051345333704,-4.60802004073419,1.8299388591462185,7.835938519879872,1.640796391408851,4.924330937971653,0.6767748878983715,-6.329064512957628,-2.914136447894514,0.1793884630746418,-2.5376051641087,-0.1223809758505537,2.1258343220607543,-0.49911121770370154,-1.8899747199560888,0.12397970847214364,-0.3081386205292652,0.11510689858217653,0.09259906829151751,0.02963666199307545,-0.33712020572964735
-2.420972781371165,9.032529836451399,-4.2565093540040015,48.739415772769,27.802739241674093,2.348104924504619,51.10543394624043,15.797676364016763,19.14976305373729,-19.196037459298168,69.28171917801515,2.428600259904566,0.6992078555280026,0.16606489771306537,-0.0014330346899942767,-9.727016572504603,17.031556502874917,2.4836565037878358,20.683691499847527,16.639578971819812,31.751549193373044,1.9844638362895228,14.38990805930486,-3.073333677951983,7.653037959891658,-0.9627569760818544,-2.6537625896669077,6.857261241648828,-4.932787727454404,0.8036081130874051,-1.8359324079314268,-2.000781384569304,0.2802907927650252,3.9683572431002605,-1.163526481535254,-0.02741117298876173,-0.23278382912428752,-0.306919375299634,-0.03549213031666693,0.5429335503366991,-0.28907057924415364,-0.04940771805563977
-13.369273249119598,1.9191852807506973,0.027515454484242016,45.433330446182765,26.05111804349444,3.5655758072482135,12.761552926085143,-5.91066202203078,-10.09243685753968,0.25026675489720795,61.098080824781114,8.112598212995273,0.41837665931613777,-0.5362292702825915,0.06659689638253422,-12.625882665709081,17.54895293347321,2.8661540518032798,-10.115150096146136,-16.984853415454722,-22.772739152847212,19.933869831475235,15.681075796475428,14.286070884727902,6.880797495352155,1.275223694785598,0.8351480936824248,3.832483913158921,-6.976190563783603,-1.633553409891233,0.33765327106084997,-0.6964915120696784,-0.27217134154843825,2.363786863025408,-0.793717929022416,-1.7812467463592567,0.15808725723097256,0.1127706358837169,-0.03455898751064653,0.16470403665308622,-0.006555709310875971,-0.23997990939370042
-5.713278776977501,5.2210235521868595,-0.740290612966447,40.630841913124364,26.687410399477216,4.297930796912527,46.563030987683355,0.9328302672479692,6.875342840127329,-5.37489567509276,45.354050247493504,1.7217541378193049,1.0232089555807755,-0.47038369119848417,0.08201482541071821,-16.09915338757925,19.33758317677022,3.9954371942157825,30.855934842668265,-19.290972114643672,-2.049773128034448,2.658704884058089,0.6818904418797589,-21.669450491256224,4.663665348526114,-0.9815555438704089,-2.1409558069141807,-0.08960916544787159,-4.034656210563447,-1.8462314704067007,0.8105020625480829,-1.1175308648772486,-0.5182744590716979,2.6145449604226734,-1.309366344898073,-0.5928599394707592,0.34238402458656875,-0.16157289786886062,-0.08805522888927907,0.34230284364702956,-0.284200889631126,-0.062040609392239925
-10.175402561768628,1.5209775996185875,0.36248178172941115,42.16829145751917,24.560384671783474,4.816826247791183,20.756923601160597,-6.187245925293317,9.015869690089996,0.8129750799673604,64.0911362799062,8.851035738765255,0.5001540982323484,-0.5555064714506631,-0.19681915996997554,-19.299346396025143,20.448688633592607,4.4635264573229,-5.9435803707406665,-4.281162382657636,6.213645260952815,34.533405764330325,-18.25652739637033,17.30214601914125,8.698348585812429,1.375766557499905,3.3390314175617384,7.993235896874921,-5.165571156793721,2.301877654746394,-0.30727406965034765,-1.8744138315475873,0.1574919713573193,4.053070100329369,-0.734795462940501,0.7667304400260817,0.07846786509478446,-0.12090229549111729,0.09041760602236056,0.3771073103002106,-0.10943344383515782,0.11357727270394319
-4.522927626853354,-1.1261637720745856,-0.40190074814017607,42.186535171429334,22.281074574640144,5.530041332404544,28.960795260494127,3.335869308402475,-11.741600294390116,8.499594719080836,58.08764455522308,9.080218791244015,1.0326447050546963,-0.37448949824032685,-0.1909650348817659,-22.45254712346701,20.164685877659295,5.27196182924503,27.00221406995025,10.24026767676298,-10.854088302634207,-1.479864703524035,21.020707714209298,-2.061470103018056,6.24450479385435,-0.5550550299991598,-2.4345133614998145,3.208142319069879,-3.6591012991602287,0.02787269733117899,-0.9358821247356525,-1.0155892742918693,0.061582506971151536,2.0896233351181794,-0.7365541419708447,-0.28390006346761604,-0.11059166365374214,-0.005912343237795492,-0.04272359750336092,0.23476393089830516,-0.12221766501383863,-0.044331859057233
-9.875672033117104,0.3337541373879373,-0.058254054581899584,48.10044536052112,17.858252749134333,6.9909432572648065,38.48115848014243,1.7252989059980255,-6.944276878279242,3.85217551559575,45.65597369255088,9.112955431106393,0.6881813971978852,-0.3102727803932467,-0.4465898113020205,-23.681855098699707,19.443102833687583,5.954133298635042,20.796631343072455,-23.96698988311817,-10.601237975166741,6.372471133227865,-3.7414617110548116,-2.1173586659676302,5.190250993717212,-0.17354299562770323,1.1176704248147302,2.012506735121196,-4.638280595719398,-0.860007660783216,0.06821825429446535,-1.8627286386158939,-0.46673185646398996,3.5379722530559277,-0.6249373511803479,0.22958027478854176,-0.0367274980405286,-0.3035763344739879,0.024673383559567393,0.5944979502271056,-0.03433407663000561,0.22038527582862102
-13.359892609903367,4.489156907744492,2.8383331919872,57.89010302928309,17.155374070729902,6.846430970878595,4.708315948496974,-1.070767759195351,22.194639289142028,26.337927091693782,58.99412859591925,9.735380425835865,-0.3347482622178295,0.035511279654699995,-0.1289532868977256,-22.024169934876166,16.033248954629762,6.784339509720597,8.648422100641048,12.547462385431652,23.746298761702484,34.03483218452876,-5.150730446083084,3.4484569886638923,10.89046124297915,-0.1661365779882044,1.908740334299098,5.047851965665792,-2.407655797456988,1.8292118172440157,-1.0479085416146603,-3.009357697604058,0.325289250051799,2.1520522563874573,-0.7648942636438908,0.48748080515506315,0.24624553658555492,-0.16968132278578385,-0.014754170558048013,0.021125941101038225,-0.1932531889943811,-0.13570203705209943
1.1543339643145305,0.10037545214356325,0.7639044946285335,64.35456255874085,13.579394239120047,7.622027824276967,15.466934354071533,4.755329901784414,-13.991601986332277,20.23925945579188,43.707658026560104,10.620132196835833,0.9003367241763977,-0.2600447279426043,0.5927772084629407,-16.877440264652805,10.963389596906197,7.237386381599974,11.644745499457256,-6.123601474633695,-13.05307712945366,30.848169230412747,17.463524559844217,0.11667247481371865,6.840090014807322,-0.36490231281346386,-3.4043232888065003,5.001930282240944,-2.3797407801779698,1.468350316942376,-0.9021442583611675,-0.8749969414646332,0.04731681585908226,3.3439608842827804,-0.5584131784015434,0.8605440380556731,-0.17243451897934117,-0.2264219155183096,-0.03149467313966195,0.5664872602767032,-0.20250140296655972,0.0750677353561787
-12.417178869813485,-6.485378241864464,-7.4591637301257645,69.21806131462095,13.392761688168749,6.734489063019361,12.651125951122006,-1.8124432612976762,-10.62458836638155,21.840134240360996,45.65647067147004,8.001957135566695,-0.6306549137728956,0.3120820113085283,-1.173922783052036,-12.23091538974116,5.951271465830069,7.384770824660289,8.993737461857911,-8.571358109446983,-5.116467918193748,-9.13025195842117,-32.570485249939104,6.629947947605589,5.491852159859467,-0.17447999405190337,4.05052803697766,2.2330388412706257,-5.786867621319563,-0.7082194985002694,0.5288130367872808,-2.6684685519694398,-0.8427928239679265,2.9705898365832026,-1.2569663949543188,0.33424742628266385,0.1669058823918147,-0.3507142390019679,-0.04055869200371261,0.34338095301104593,-0.122595133620069,0.28290748941869
-3.02177,3.60295,3.979409999999999,76.82045000000001,13.77352,7.22564,14.92913,1.9307799999999997,3.1338299999999992,46.83904,28.07849,11.026979999999998,0.42076,0.26491000000000003,-0.04920000000000006,-8.88092,3.16864,7.7360500000000005,44.18426,-16.4482,4.998259999999997,15.14389,18.97602,-12.228009999999998,10.454599999999997,-0.30194,-1.53283,-0.26759999999999984,-4.909039999999999,-1.56199,-1.3033199999999998,-1.7953699999999997,0.7795799999999999,1.5255000000000003,-0.6151500000000001,-0.22946000000000003,-0.16392,-0.13563999999999998,0.17914000000000002,0.1379,-0.14886,-0.29112999999999994
-2.4642785134909784,-4.225295573466168,-6.2301086168693995,83.02370460356808,11.982885893956691,6.504960050255405,1.965388326280355,3.2554149937270305,-16.323623916007747,57.39599073626762,30.616357362027692,5.597943154909535,-1.0540161055884871,0.12512295305524931,-0.21705781060137608,-8.055544738433472,2.664539679198457,7.27249125645317,40.93151602771164,-5.811865920897874,-12.686409060835974,23.177167343700784,18.140185749491224,9.658002487787957,8.005716193110933,-0.48505939159150513,-0.7981149810520065,6.936074299994391,-6.362680759806604,1.9114791297690008,0.9266596498953377,-1.710089896037131,-0.8158239900377948,3.0111167486238966,-1.0776138010976493,0.5821758672903153,0.5526492094736584,-0.17763789342798586,-0.23276921567864822,0.2891039484901719,0.039277890389945655,0.4232817205536897
6.58103027473367,0.7892570211129597,2.21453924312202,89.88326781856225,15.684564930482779,6.420682441357433,4.862523905136248,0.6354802055118753,-2.6571567243969416,57.993344513519,30.052130337458262,7.496464621518141,1.2698213878329612,-0.3351402722061294,0.30693516458570835,-7.895633616790243,2.3092567240445896,7.466793955441378,40.195744598371746,-11.142525360399425,7.217048677907173,-21.960226170617897,-6.7969130463592045,-3.092660930637061,4.30747790610637,-0.638246271106871,0.21746651017583318,0.04959943056625245,-3.196489854238752,-1.3467879289176905,-1.4466683230037538,-1.4041046394615613,0.42536491552636413,1.6424305968836481,-1.3312970109355726,-0.13684125406308162,-0.4109784559905837,-0.06467439117667688,0.1823235288033648,0.14975158084692433,-0.35447562712983016,-0.2653572858524751
-4.2911086748731435,0.5022870191293413,-0.4240786195338891,96.47873017531438,17.78979545383059,6.882609680539412,-8.281453502839975,2.692064812725097,1.8157323585378586,59.543033064673054,29.286515688328137,7.769480365434666,-1.2414752962724298,0.46613139689594596,-0.09984027271297677,-9.001607805529925,2.953378805176994,7.875985950001626,24.130768087898684,-7.69423156900076,14.668673748584341,2.170071929525759,-5.733433173437264,-6.325853694666712,6.6950622132080575,0.20889528659166576,1.3737427451664113,1.6373753876356587,-6.527913546400338,-0.6420839333760944,-0.7406395515173306,-1.3147197917613724,0.3058881733153097,1.9038648584319868,-0.9193767065688101,0.13480520758197206,0.01637489494195578,-0.11680168679240865,0.028983357746982578,0.2887542321671355,-0.042609091635454274,0.23134408659562966
-2.704121942293168,-3.8321716817705798,-8.422847798371125,109.47430693838577,21.81632971747553,7.1932266993693945,5.912320513074576,4.057154985581101,-20.167730583987254,79.3556714229044,27.72878097724288,5.885942946599482,-0.8579207669725419,-0.2763177610083109,-0.7742428010787473,-11.142663978158605,2.7171465319042505,8.747400431791503,63.670247031762884,-18.11136622073349,-23.136130376275343,17.716020338882274,26.25941789151727,5.7539146366177,8.444966580231277,-0.8579031874384235,0.6677911331500412,3.3423200371861315,-3.1843363799708984,1.3909524516354477,-0.813342279295879,-2.6578089053778067,-0.6785343887521937,1.5075820636011728,-0.47524543525735136,0.4819535043790716,0.01924557348215631,-0.34647721848328955,-0.17971824907418785,0.09208508724100986,-0.04857548903885234,-0.025768404869992073
-1.4560326126672498,-0.7694983084214434,-4.369190610442689,114.30380927411034,21.18824378899342,10.011406514818857,0.34904109459327615,3.309981701593875,-12.246792261182748,62.29422831565498,26.502534471110316,13.00147369907215,0.6206375182243288,0.7704266030462138,-0.5333244312674709,-12.015706850326426,3.551733500692245,10.534845581534455,28.78145574799383,-22.792953952637948,8.365065355205067,-9.39606151531651,5.927488699208192,3.0154253307234655,8.712979406946461,-0.5598634916292805,1.3174501849159566,-1.290981216435658,-3.9313364312569634,-1.7521588700353368,-0.7283186785753233,-2.442115820116294,-0.1750061317472785,0.5674445658365227,-0.5552823302392375,-0.3431785896365631,0.01596602444107693,-0.2147002918000103,-0.009880411128539927,0.06508587122605153,-0.09122890838972243,-0.10518639257307792
10.274481476576437,1.3458076290601282,6.416168524710018,121.94217440375087,23.666129180256362,10.970843206074896,48.60858870675426,4.64739129398084,11.926512269933637,86.72139221330045,33.25316709274486,9.644182049738268,0.7755087335696162,-0.561930790442491,0.9020784728320371,-14.21349795346248,4.349541323940897,12.48761083586364,118.47268547178378,-25.58439875811564,14.369503036737441,12.222961379730387,-5.058564497544197,-8.928541968482413,7.969268625649775,-0.21771422154411987,-0.8837287540221497,1.7825413568102944,-3.154412750651228,-0.15073959580540675,-1.837227660364889,-1.368015140137542,1.194396778949056,2.0733131160724807,-1.1936493035430489,0.19244138929010884,-0.3380424877910233,-0.03863774326428258,0.2804766824492431,0.21497796615568313,-0.16175053149630017,-0.010477099399562952
11.569248347081952,-0.33055475835464,-3.4246765536095753,123.32378104071779,27.133399722995065,12.376518066362545,86.25093962141891,13.740908071456374,-2.3832930291666545,63.892349816355626,41.73184768173965,11.588239899923748,1.1936533850810613,0.4477614743031725,-0.13645613188981026,-15.174873518895971,5.317798615251398,14.82666884350808,115.36228643512041,-14.261825858750157,-4.410051675520804,0.6494919910761483,23.405710057337146,10.159646580498835,11.21555211288149,0.35297761131374344,2.5340531937745996,1.2056637341470293,-7.440218209315748,-1.218050143299022,1.2144814741902665,-2.7027697684181424,-1.5494903075616593,1.0870078798478657,-1.417240219794039,-0.8970237840451621,0.616231910703175,-0.32140979441382694,-0.3508348635167877,-0.0014914391195975877,-0.06467748908519337,-0.14926406107897322
13.157511115708832,-1.0644053209884787,-4.3737124352718855,124.93786707068092,26.182392513019497,14.660485135345349,84.45602926045399,11.546224069852968,-11.056278129217809,85.74798431173012,43.89625361048234,17.946457447294826,1.254837526224452,0.096650325846049,-0.5221554426045766,-17.77613807901193,6.167893462974598,16.154954427551456,158.55001216723073,-20.34541319894423,-8.203955617817174,-1.2836399250458852,5.742054572517795,-4.440025571280968,8.385456051825418,0.5967247791387275,-3.149409200575776,2.449369557387594,-6.949778569664535,1.4149000355472692,-2.5058863833381926,-0.506172581870985,1.6203186953587423,2.455781603234155,-1.0395417126697188,1.3321107242792398,-0.4997084345709562,0.19438536225767986,0.2662973159033463,0.24030858783713607,-0.12520279140047608,0.28032639243073126
0.7866092291583285,-0.9386644626296023,-3.5458215198312897,119.91149783905784,24.767247609302395,15.96753428666822,34.35172988902307,2.3485111582205387,-2.1541027768526493,83.91443327421575,42.569866317853815,13.407624066987681,-0.32531221772718566,0.07720355564690166,-0.23322388280846493,-20.024319058252157,9.788547903732598,17.463018320319264,97.81548789310398,-17.791069797312957,13.002056373313334,14.63116547589946,16.1502145957644,5.917041302780303,7.453813655434571,-0.3749861937965494,2.099673390177666,4.358585818837581,-4.952017770521441,0.9916051070085846,0.9194139213869112,-2.621515854284799,-0.8531536135103335,2.8701293912218664,-1.379665185172351,0.43268132468304,0.251842551232456,-0.3293180660880818,0.0038224853194915925,0.42515744796559013,-0.1606490757025842,0.09905796019191629
-6.422415889713808,-0.2699113548891393,-4.971321204049868,114.76508410115608,19.40493889287285,17.733257968871182,39.471172040893954,8.523918737313869,-9.006732395942576,90.83773549888564,42.4693652355461,20.490910649082537,0.053716964922709325,0.8424473380877336,-0.6327921962594157,-18.89044497094023,11.660270950109481,17.56524761068065,113.05950184874754,-19.768182286694994,-9.631662186792548,4.286892039711345,12.207544095657093,-8.285288904153102,10.351118579664083,0.7246528273399577,-0.39521427646547064,2.2572163726372603,-6.712180657684318,-0.013292998130124294,-1.1330459095549068,-1.9880887241433065,0.9090485925071617,2.3779794686094817,-2.1068362427179648,0.1571356350967011,0.0151717221282108,-0.24209602341321787,0.13312992048137814,0.34216700672804534,-0.3513435924957908,0.0739391264494771
-28.66371858268333,-0.3151912866688493,-2.980391299744229,98.98813775891198,16.33638116340026,16.820299619110084,-33.25228990437948,-1.6595809581198393,-3.812353148344708,82.7617857185911,42.949358154259855,20.849783694217898,-2.055755740736388,-0.2238012178927206,-0.17305820536796337,-18.320684146764517,12.699902612085618,16.2997319640968,27.03963536947433,2.089130813717038,7.770563094643958,-10.989753559141134,11.130453701375643,5.5934335113282465,6.868960944589091,-0.7557590357956282,-0.4067410003174305,5.095818488275657,-6.830016049228331,1.7383724593468615,0.03814643298954021,-2.5511163513902986,-0.6745871206944075,3.0256539308128914,-1.4673496081839028,0.853289516779377,0.010865219775374201,-0.23313975453501673,-0.02366966941365129,0.3390815758613443,-0.10151839687191672,0.20183527164539955
-13.202787660516629,-0.7038677463973266,-1.4224063296654468,93.42555202306886,10.380033711911532,16.29602972027659,-9.674076582996161,3.860341924931897,-8.98764701975251,76.00719592074589,28.0264292471754,19.729812347886224,-0.28021881818295324,-0.38875083701073304,0.5789528805244895,-18.72396413292166,13.897463723925576,14.038560245114459,49.14793997646027,-16.058783310271878,-5.6367630073509964,28.768324450640144,-23.548445446089183,5.240444034721409,4.442260611939281,0.5853248627475763,4.647977697795361,1.8844545919680802,-4.5531062181403765,0.17532155125148954,-0.7432251762955673,-2.477953794025551,-0.10292466932457395,2.40866689778512,-1.4979888228907468,0.46095016075023926,-0.09013766629865666,-0.31247558275558124,0.004670379004977986,0.21644053574575756,-0.28387984440097197,-0.03127683445307956
-3.3109801805606787,-1.088645530949519,-3.1382067235914715,73.52802501292047,11.21708510655584,12.970679236621882,11.706931273762178,3.9251509818384447,-11.310261479767503,49.9259433193795,33.625232954343375,10.696766638680664,0.5495393743151378,0.5239139166746672,-0.9480139426690972,-19.405974053921298,15.155351592468795,11.929790835713936,39.09366787356702,-10.056719419747775,-7.393112906997742,-18.34236665526823,12.272368250177509,-3.5067755495972306,7.768683821930513,0.38594645830017804,-0.26141507825281557,2.3919871977676426,-2.5629132231109795,0.22573738857124878,0.8728783373199521,-1.9719425118706386,-0.31832814937460896,1.4861769420674584,-0.8488770014386564,0.019771298632482642,0.37370532147626234,-0.2438526428720111,-0.005980416854744937,0.24610697133520884,-0.09306219950844036,0.02796874176351294
-13.120146770706032,2.9793853490479427,1.0591432228166708,62.52819561402564,13.507021283447758,10.93247680115216,-10.766742274263562,4.126242872590715,8.029090850757223,43.05763897225194,36.71417091725744,18.681449516177597,0.06580403504144686,-0.10595751952752855,0.3345129213941088,-20.431957201952667,15.528527774123175,9.332451982086614,14.571144820203832,14.158167557930984,20.770813553068187,-5.159964307354839,14.039939816769042,9.8873973760522,4.310956883925476,0.8237817589909779,2.627387686406382,4.2982843492267655,-10.433979417466524,0.3370106582412026,-0.7431915888113337,-1.905126760711974,0.6166151065683552,2.2355920678859222,-2.4167191891719746,-0.47648251575563383,-0.2925936085202412,-0.14606298112501623,0.2723747104026733,0.15995642555511774,-0.29170879369068126,-0.12157045631836041
-11.759788977422625,3.1948437848930724,0.021121038110139972,59.10978802361733,8.332497035118397,8.60628461240137,1.5770261901617912,-0.633081967533802,-4.729381881899579,35.75720323669155,18.260110450501557,1.9145844045587228,0.30979233804634304,-0.12128522975094877,-0.02254687689570781,-24.688037104398788,18.179776632090885,7.106353994168703,17.444878325880147,-31.409275472671293,-8.951997809086453,44.47650969183654,-28.78220881587901,0.8357378974587568,6.979493846290194,2.7360343645396985,4.1461871273695365,4.131945904170735,-2.8543602977777884,1.112868062045932,1.0884775161347031,-2.3959527474101616,-0.9833814572895141,3.436593152037016,-1.7720186897921157,0.942522223685539,0.4098804806162792,-0.0019818960653077184,-0.2528146243739143,0.5291900570076088,-0.37629452102343847,0.23661378550032627
-5.357716362940401,0.3171870557291766,-0.7150448700575591,54.23967325384886,15.887626557140935,7.040973971756239,-1.8445474507235355,5.91945489759633,3.7194624183844023,54.58647682177747,56.63323367181424,21.398122181363977,1.2171985005954826,-0.656920466564983,-0.5781999114529576,-26.867031961580864,19.98292920097144,5.683154966280097,50.948278779965754,25.60004587127814,16.147748856987622,-15.35625043401193,11.664899939489967,3.9707205765874023,6.901175900874293,0.736990369656604,0.3008756291833158,4.500044910770469,-2.2497622463549662,1.02168133436777,0.31725151789751566,-3.3398333609040503,-0.24506884204959878,2.0558778340578976,-0.4122082163970212,0.3818056160447947,0.055288027867259934,-0.6627622027912272,0.041989229763751613,0.24289375487277445,0.03901548659656931,0.07544435440000821
-9.606929999999998,4.351750000000001,-1.01784,47.23991000000001,16.761340000000004,5.00264,13.611060000000002,-4.767540000000001,-8.79812,22.235709999999997,44.46591,2.7199299999999997,0.50101,-0.09546000000000004,0.4031199999999999,-29.11395,21.38412,4.30761,9.58391,-10.86575,-25.191929999999992,26.364810000000002,-5.52548,-1.1506400000000006,6.664769999999999,3.5059999999999993,0.27312000000000003,2.0683099999999994,-8.70919,-0.48108999999999996,-0.016989999999999977,-1.0127399999999998,0.5776400000000002,2.50944,-2.7118300000000004,-0.4497300000000001,-0.022900000000000007,0.14021,0.10150999999999999,0.31924,-0.48603999999999997,-0.06908
-9.991360365363429,3.6086909313220943,-0.9352114482062661,46.52761849499924,23.629007069971454,4.426189578173577,16.017557058085337,8.499657913999243,3.862851010633828,31.394586359965896,65.92324018322066,10.353673853805818,1.039596283948784,-0.6598160799153766,0.4123637988124518,-29.867575092305948,23.446917180359325,3.823969350306001,31.056164861019976,11.379050794221973,-8.21832085629032,-43.483835482693536,10.52702467530443,0.3732571312421272,10.564594394391527,2.061921425665035,-4.730419603728598,6.668162170200619,-0.2661710504007445,2.4716506614857527,1.318398723773784,-2.6651669068175146,-0.4132289642293949,2.884731197931097,0.3864972076701322,1.470902248229688,0.268818423089679,-0.3976161512403145,-0.0309974821564008,0.35529760699891305,0.17664150748163818,0.3029761488686371
-10.501013075306929,3.9563782524653037,-3.014795972402288,43.71779991947344,30.985847437414,4.2104563159326975,31.598852979259206,-3.9394159637605015,14.376598174287372,8.0342639804634,59.02921091594231,7.758103476014435,0.0656038758299197,-0.8333498243188728,-0.5088232870725169,-29.00721385193336,25.548760810273528,3.5719635289584226,22.748309954994244,-12.998499989211385,12.084428488431682,37.49620571944757,6.29178958624773,3.4236080953733006,3.3742787505544225,3.6611298295164034,2.0636584585809574,1.5633043724999667,-4.886193649424309,-0.41245423685259636,1.3364573374424562,-0.9759461348293728,-0.7565784499590165,1.3594390229532454,-1.8417801535905929,-0.31926153096023174,0.10324371552726926,0.06069912674826163,-0.06954455163850506,0.0770165324122416,-0.35395118067656267,-0.05811101344551078
-4.446711687565237,7.150340929670872,-5.329550498951499,47.86580245227428,35.781664383684905,2.811507243909189,69.25964309026604,0.28889191754616605,-1.2764170092687381,-6.509738697995925,77.35664256642393,2.3165958201441605,1.7740184838876674,-0.2820773929376165,0.5889732670655601,-28.21552370256813,27.870619765207376,3.0866386975016162,37.982324445562014,-27.16133771098964,-11.064775882416775,-16.767518509614888,-32.454487223146224,-10.241576090337949,8.692530899274725,3.0377535001209446,-5.266766352778736,-0.7343325868394266,-0.6656875948398421,-0.6554506913220508,1.3928111342802858,-1.5680857410851743,-0.2762263153286935,1.4148124803146307,-0.3594076220891586,-0.15480978146872687,0.3206557319540909,-0.10839903790789195,-0.09073001990625837,0.13807598074682173,-0.1161502350943296,-0.20432628909172268
-4.514225805694069,1.509386338506135,0.05702180145683562,60.108279386183526,44.40914772501746,2.265887177861262,14.76670580536861,-5.91097704335987,3.256843404980058,7.382998101848137,94.1566435271459,9.317612775991824,0.7213545643641144,0.3483264273676321,0.42335510581606495,-30.36520228055973,30.171400652621006,2.844306263999332,-3.174038755215741,32.37525336461271,12.497717819576268,33.2817297919359,-22.053974128847806,3.7490584811920042,2.7542596618922763,4.3422186035580985,3.9055423945119063,6.8461564819786105,-2.465766047841919,1.8534978129354558,3.1900057187065083,-1.1186367114765416,-1.737984500242789,4.0054354059332855,-0.722747846276647,1.3234917883959971,0.5398536672424123,0.11401087422221276,-0.2749223739392884,0.5299825252719237,0.012382363267832886,0.44639125654998685
5.260134158088195,-0.39946962668027247,0.4420840174252143,58.968850911391094,40.598283923168076,0.40454799749426623,37.39178307571217,-16.683763213297635,1.0619328991966754,-16.494890202016844,82.59894999561155,-2.5091105444460156,3.018344121558915,-0.9555141060383765,1.760459875189367,-24.570743694947637,29.559695355558556,1.197373156814341,-23.79763961734254,-41.869807600532624,-10.928917406554557,-2.5593681047030215,25.98063296377949,-2.958214104180522,5.499665140141487,1.0888373125557966,-5.856762682396899,0.4118016448794987,-4.675070612300881,-1.3788581221594418,1.236975681413715,-0.44615476272789606,-0.8412243279052268,1.3938221525537164,-1.812994498899383,-0.7455951748997591,0.4443314533372513,-0.2854746765748668,-0.1183220769756035,0.0172038690688462,-0.3459999353764562,-0.17779194267619197
3.9304306107393003,6.688833078061282,-8.06354994127428,62.46093765060948,34.68119641244934,-1.7451824833356957,87.06577122576256,13.473838264601003,10.29887658184998,18.8986940002828,91.16002007570232,2.5643903387413385,1.1274898993919635,-0.466702973096107,0.26445704825076793,-23.32154589913586,28.139668829397007,-0.9803827370649288,91.29139520364957,24.582933172510568,23.59891766954192,-2.6926336255896417,-30.944236827159955,-14.499197270203808,4.281080546637238,4.90835279953989,-1.1124519516803648,2.5112376769568137,-2.735832625762916,-0.4130535669476716,0.49064725570621015,-0.9778832307698853,-0.1880102003318251,3.003335867141999,-1.5521195504465664,-0.28108494185490385,-0.2775707473602967,0.020128255327701502,0.04119906531092942,0.4195775994908551,-0.3721871329424312,-0.13046096999713677
-2.6471932103045623,5.0718374490527784,-2.7492204424237143,53.81610473709779,31.364136278370538,-3.5270614540677503,30.534607635568264,6.726438890659784,6.053724715843915,-9.301614450038246,69.4647523722916,-1.6805839172738937,0.9550541424589825,-0.5574312750667776,0.6717680584509581,-18.97464136938037,25.682506512700638,-2.934797188824251,-20.687579201709177,-22.288189508737947,6.011837085125519,9.442112030549804,4.7889320512037585,1.3490018334149845,2.719560598077223,2.4337422102359323,0.0018109266850389397,-0.2764757956949765,-5.092031984670839,-1.1793251373612879,1.5370212501416145,-1.077715660345972,-0.4238410099513633,2.6445852271076644,-0.8515071354036883,-0.08519851768695993,0.3665464640047691,-0.10665163975621131,-0.09555953727897004,0.26680818183537736,0.0038525663287136006,0.13770347229173385
-1.8588485422405132,2.774434283444535,-2.0805669166046594,47.06076934438221,27.448406460660365,-6.566509114721783,52.42853175814183,-21.084049078534953,4.845362000824948,-23.4968764411057,93.31166862122951,-2.0587620918963716,0.7696548480217248,-1.0363403807062566,-0.03253481113798123,-11.79332636547588,20.34801380988833,-5.042621310163833,-7.149368993129737,7.329116197382254,22.626582985735382,9.598694026329891,-11.450614129259455,-18.48472767941277,3.5699792371830292,2.6834332060967263,-3.4916219534157866,1.1883079763199202,-1.3000443884804056,-0.38289691452143926,0.4320627076773347,0.4046083918002647,-0.7678581707346206,2.732651402688939,-0.790231863752465,-0.12289881420481248,-0.1581934224413855,0.2213027356555273,-0.10588622405440418,0.4097674537012836,-0.17964073448842025,-0.0856626329274205
-0.32263370799197005,5.183856190567699,-3.0793462238325966,39.835160496568655,13.838231011109244,-7.606626577609182,27.61863084531602,7.863262882354651,-0.6043371983066537,0.9476993300157021,50.65557500293301,-3.4087560655366773,-3.8227995593958295,3.711240080864899,-1.535505764998891,-6.549093134457787,16.002060583622303,-7.056786736513548,2.8489184023283527,2.093415749918699,1.5198507064876514,3.841562242288684,0.5176530048188295,-7.99769295849021,4.490455351200692,2.2936921918755067,-3.9766609893577383,-1.5324087727410052,-3.2239466203415055,-2.0372220535200896,0.7100112019246159,-0.521505981387938,-0.5847680932252832,3.4854478579602466,-1.8054160808495054,-1.01100469758669,0.19643222078051706,-0.1341358291500446,-0.13783310222857204,0.5320551018254454,-0.44482157464874517,-0.2820327483617707
5.503019262537881,2.7222079812222324,-1.9761484285362438,30.31401894963992,12.43521277630637,-7.897840909236386,37.25694105698893,-12.893748254060425,1.2581435869526723,-22.714979161492877,54.9363248597537,-5.313492356760113,-6.527382976770419,9.61573022224689,-2.623049248060457,-1.7151190469897546,12.724508278852827,-6.878703641319564,-10.344306297477267,-2.901221251281006,7.343900422612455,35.24386944669834,-12.446182447433552,-9.174281535030847,2.748726561587411,2.0529567383503315,1.0252730513431527,-1.86879871334551,-1.2160233462472338,-0.8115038150331317,1.3772135237596395,-2.162518146516145,0.7007859525755168,1.7893874229306843,-0.14370352382360788,-0.14245876892459325,0.2813203542086707,-0.1785196807333859,0.022349803881309038,0.13492334943256395,0.0714967759480527,0.06312581579031835
-0.18820688311919354,9.490423427056639,-2.4717646564895017,22.81273779319978,6.5309215405799605,-7.098814665813803,5.742022358561181,22.79887903632124,-2.7308880611158433,-11.93685095030739,52.11611103294024,-1.2292903505253578,-11.717280076254001,20.052669939979882,-4.4680409815466415,1.6631320958677198,8.723053302434902,-6.264054687724376,-30.592710506420165,80.40437770781746,-7.750306009083913,3.0533808395638684,-83.46201257243779,-26.56040827834504,3.547693982849639,5.97673823535055,-0.3307682898216811,0.2286614892389527,-2.719691287995196,-1.7099814661429913,0.9252395014864343,-0.14190592586029432,0.5177290175412531,1.3504006069616323,-0.9696831878506926,-1.5826686927451732,0.06631559624707978,0.1854068892458932,0.1530328838135437,0.03849112538502641,-0.15253648135457304,-0.2620325855962727
1.0245212143785452,3.6574107239557945,-0.2595954335674386,15.05396949750606,1.7306112861256662,-5.464690594159389,16.986883084890838,-42.938803262281795,6.477821792371969,2.1994844036621806,6.761273711444161,-3.0539260847999397,-16.24288662140726,33.65234700084851,-6.724184034755029,2.91591287481932,4.946578387213271,-5.497986711896755,22.35448443099784,-85.13119059050933,13.8654889117113,7.135972528687442,70.77539307405958,12.21786162648532,5.346067028401893,2.237287351583869,-2.709798707101678,0.00011317377920534721,-6.801586672378391,-4.334180046612093,1.8465647395551312,-1.1195867294305004,-0.9048066470811029,3.0845908214246283,-0.9886238947607824,-2.99318030416098,0.3058240329426232,-0.04537471291082314,-0.2877335983592771,0.48539132352783504,-0.1540532201202652,-0.5364313065010882
3.557990613891577,9.568041659728308,-1.6653970963019589,7.532625777173439,1.0510718098336314,-3.9231235253921892,2.1591731347769247,-2.354133810484937,2.4317967048008198,-8.53719333334613,17.902790442125486,-0.7870650399514949,-21.485687039471884,48.208378554142094,-8.963846764111334,2.8051680446669605,3.523108950920421,-3.8450500173676088,-6.347003735674291,23.7132647430903,-1.078682831244899,-9.057967050474883,-16.04098183083447,-7.985910978826088,2.748067545499045,2.003879266268103,-1.6857469986807503,-3.8175228173847873,0.015565642569111929,-0.7511197755879132,1.9121268288825215,-0.3137522237314445,-1.4316865203723823,1.4198085672576188,-0.245439353314404,-0.15254755481520765,0.15244219068572074,0.03625219431149602,-0.1648209941105131,0.054217548761024865,-0.034195735570283534,-0.21850787585866843
1.5763399094381993,15.759367292561086,-4.14630227122131,1.7935690982391062,-2.2552258886778853,-3.135361931181022,-3.0807309907831866,18.13067977859647,-6.510273687369924,-10.356859520352565,7.158414916223484,-2.508587948460737,-26.15229582192936,60.1697312415132,-10.930406138737755,1.3883513483940166,2.174187252160728,-2.9390906535236203,-2.4042100090021465,62.59081358461695,-16.8827041554303,-7.75644143730852,-40.82023173013635,9.436347037446561,1.3806906560253311,7.890899433041695,2.342249793020416,4.839978906087083,-1.8704198516395267,-0.6585439009213134,2.2484231128383323,-2.0802465479888403,-0.15137771547405238,2.267270044223685,-0.22486815148157316,-0.7494673457052989,0.22977183244183308,-0.023142544370264705,-0.2297607821806167,0.151964373568301,0.011013760049093567,0.06891122530734418
-3.2007655825297903,11.442196884630414,-2.5139555524764687,-2.925324245471126,0.5622581755303528,-2.13792620557746,-11.616494105049654,-10.79039257572864,2.295382680756888,-17.72070279824391,12.700888908912662,-2.3571345281759952,-27.046968633262072,68.10194559878083,-11.950221315321528,-0.3211498589434209,1.7956781928240428,-1.9777756533391855,-15.23949102009219,36.63029444046064,3.076270466281896,23.003462348898065,-32.898107297785714,14.721235574053123,4.23711055104672,5.317589124242761,2.4564828666316223,4.552327685122268,1.1965207473501136,2.4095694680760653,3.943470558399057,-3.311584039710968,1.0384855742580557,1.4307977799759557,-0.4145330619730259,1.7519043661637292,0.5300795852122301,-0.2980704622732953,0.4330503652614318,0.08299876147085328,-0.14144007784488305,0.05412259211933668
-3.1243894986046437,14.213954948051434,-3.933445784727191,-6.726399911857872,-2.704090574036266,-1.4935090688808073,-10.373661369350312,-14.359587350320572,-2.6371991127445393,-6.787136815123095,-7.0026093699168435,-0.740472418595083,-26.91001053537941,68.35676637677238,-11.279772389571386,-2.2836076038848394,1.284383293122852,-1.6676752581979921,15.008942858456688,23.29613447356379,-10.040651266558,-10.702784727565906,-10.132475893981471,-10.389338663895186,6.8931681671270315,3.6176021542749788,-3.185789179006618,1.9446149927387393,-2.006077667168324,-0.5368999428980037,2.4509449821932097,-1.2271977402382666,-1.6156692422958254,1.59603323187941,-0.049230595264804965,-0.66812192046648,0.5194861039291294,0.026129677585008417,-0.6045839982185502,0.11819106001448995,0.04429924770095522,-0.1204699640098148
-6.774089999999999,13.74415,-3.3075600000000005,-13.29756,-2.44027,-1.4730999999999996,-22.712199999999996,-11.70251,0.42979999999999985,-25.416579999999996,-3.79291,-4.43499,-24.63689,62.45051999999998,-9.64625,-3.57108,0.68409,-1.44641,-24.631639999999997,30.649299999999997,-8.17474,14.093389999999998,-47.54178999999999,18.99646,1.37013,4.3837,3.8633200000000003,3.305170000000001,-0.95803,-0.8683399999999999,2.9443300000000003,-3.56407,1.5526100000000003,2.77133,-0.44303999999999993,-0.8107600000000001,0.30009,-0.42668,0.6029699999999999,0.15442000000000003,-0.028000000000000004,-0.07999999999999999
-7.281158485623157,9.154558846228134,-2.9249926251595233,-11.647495055337656,-3.367895020531306,-1.0576824000042115,2.567782519745718,-19.312499497734844,-3.2133392490937998,-5.310467614049568,-9.130323253068319,-0.6993805060869738,-22.11167194728096,55.388004725645914,-7.576953774414144,-4.2182524675652004,0.8448958899048143,-1.1144174830211708,37.70150238006389,19.468081688109233,-5.661758288613611,-20.548045577501185,-16.667437625091164,-2.27206073788352,5.030778559355808,2.9906607219859964,-1.3320885570239303,4.876486989694739,-3.896245872530337,0.5711717844205331,2.9751184181761343,-2.212942925956173,-1.3182691550031385,3.205436558069096,-0.4697067487462057,-0.27921491488141187,0.4834244244966846,-0.08013262361977495,-0.4359895607543089,0.34026447571662144,-0.055454454576398304,-0.10046181235668625
-14.289035661060133,11.726145718021641,-2.635737187041082,-14.457979194331596,-4.0668592580637615,-1.4301207153696032,-22.05829339032585,0.8249381803189871,-2.2300335661837036,-18.298284135218772,-11.994594952115781,-4.697427294715555,-19.598492490633745,46.5219207778988,-6.164985937252361,-4.443838472645927,0.559017035472813,-1.1780903949230748,-10.235838918867998,37.91094920333506,-15.25245666673024,-11.540470157446673,-41.33684867959347,5.5381950719042825,3.6836341590585713,4.206918563005565,1.1678236766303465,-1.5641525691471367,0.44636441251608355,-1.2386357901422727,0.7292386438706439,-1.913324539943682,1.5647251446106598,2.219511712806888,-0.9456838817280028,-0.18215399512981317,0.12160813422465652,-0.29412806897244126,0.2865449878031294,0.19346497177269423,-0.21644101831674653,0.04065074488156307
-15.734925186643151,1.9526704521059968,-1.2277713251131672,-14.153164698437308,-3.144456319663291,-1.1553594223415753,-24.58486494794693,-33.53480191215945,3.0517001135248556,-13.438665933373196,-6.824703842278338,-2.3448634218233626,-17.789913259943372,38.820020704002395,-4.874907035781661,-4.198272889187677,0.32433591433149844,-1.048044962714541,-6.830104519983619,6.988605547740735,-3.0480281806938456,10.776150466615345,-16.37300965134855,6.916190711116219,4.866219121740497,2.549237590869196,1.289768076033301,8.220264098046945,-2.004102910362667,2.939416670451435,2.0374383359252954,-3.2226559656613394,1.4931769602416456,3.516285637981928,-0.2500975092187842,1.6396969328658964,0.11047748587716304,-0.2171310005426658,0.33162724301265023,0.44468877076358815,-0.006230698605792615,0.19780079521825839
-19.633044331195496,0.1654714114189983,-1.3860578842108169,-16.207363435400417,-3.992461855328464,-1.2843828762381397,-21.71921041186451,-23.14083729462418,-0.013546304338694092,-23.837160915953024,-4.865928140023497,-2.1757741457127,-16.325768140451906,31.63083395499975,-4.179274134121938,-3.8166211304752014,0.30429342361101924,-1.1135552052366502,-9.21303588141947,31.62826987912877,-0.7336679360780733,-1.9425412308585235,-19.649348710070683,7.467595181340497,-0.49512302469715697,2.9857721648470155,2.751586118383089,1.4493413868631404,-4.541459137722619,-2.50663074894305,2.305993707368066,-2.746951862443078,0.19814715494026167,3.2742399714935266,-1.6425573297442562,-2.804309971462145,0.29240552690062044,-0.22761377489448373,0.18358220715994428,0.3411873502975377,-0.3021617381416678,-0.46862934704464476
-24.86168860369349,-3.232954752521987,-0.5988678007253281,-10.72892379824889,-3.5906387760082996,-1.0443956014351008,-21.876396843518464,-21.845972753108512,1.7768779120515756,-1.1564321577709087,-12.964723807600597,-2.5144632813286765,-15.653034857577616,25.671043384053863,-3.459018675991278,-3.4713456868363703,0.04288993374946759,-0.8741577638932468,26.05163934844598,14.745573033824064,-5.240154018802124,-16.29603714926669,-1.3726146968994772,9.333520039888342,5.763562475990716,-0.3494490068555137,-0.5685360064431358,5.586978019491076,1.0491862170908182,3.269497258364727,1.465441341040287,-3.003266285096086,1.0924342826190712,3.7037543691307753,-0.5370794394260553,3.3010472191651674,0.4010993774524781,-0.5695631562200838,0.01036924177663605,0.4975492054215145,-0.07692482958457487,0.442803111628999
-31.818049826754844,-8.430997678604447,-0.14900317988549142,-10.963331296670207,-3.940850510614703,-1.3684138790168363,-46.03316685781403,-25.093532345557875,1.0644124562517814,-10.416323681199383,-6.892026107318153,-2.699217892836186,-14.000222722184803,20.020838312429813,-3.0869440636757983,-2.898105374562796,0.03963799937468469,-0.9888036983682369,-24.396942193678285,38.56835456377862,-13.634275509993598,11.089393867656202,-63.7095969341023,0.671908996761325,1.8970770620502866,2.6867599307962395,-0.09262375135276871,4.8265114125813495,-3.086590963352605,1.2320797811383928,2.0205654254559517,-2.3911171112396734,-0.8466628468954119,3.214614688168119,-1.5512019893650348,0.6861671737921844,0.06664482800120386,-0.026225131472353513,-0.06621210099230468,0.19899218949546318,-0.19932703466929005,0.3440711665122212
-28.567677806609026,-9.805041816509386,0.07351088492999466,-10.38530007698402,-0.7317544687471815,-1.1520221666176145,-34.52108154001125,-19.709294358133647,-0.2298581994350399,-9.455997650472165,17.212579438236677,0.2945122974944097,-12.668379036001346,15.661641982464811,-2.302782707842694,-2.5436118950168205,-0.1472378940615193,-0.7923057166220842,-16.99877724352905,84.77744653175178,-12.81303648383257,2.743529012677613,-69.58541140780093,-6.6248514315007245,4.079204906965498,1.9044309711251275,1.1876209805864757,6.095210489551327,-0.5260447487907702,0.9499644671234229,2.86739106681108,-3.47722520733226,1.050812565105866,5.263608167598563,-1.5420115978349387,1.1379334530861325,0.48161631047216835,-0.3771348420853045,0.26688471210871456,0.8579907282350068,-0.26032012727349335,-0.016308643409850533
-31.496038956745966,-12.094328948306588,1.2111833440247217,-10.107263857675509,-2.538379075841987,-0.0975242287929687,-41.28995592512509,-40.43341207032224,5.156245071984277,-7.103776624109869,-14.51009681815347,2.300891362335757,-11.451233782379427,13.725406377512297,-1.8955108823941604,-2.9827657475681146,0.245355340959607,-0.7081459072899252,1.2423021036359654,-14.892306247942244,10.97122770178531,-7.93036837825133,17.979812807211722,17.42668540621511,1.8621754262656565,1.3761798288420743,0.4243881584253056,-0.8992923553280472,0.12311564292838523,0.2616395725303878,1.6722505086694166,-2.5858717238899347,0.06987421497890063,1.7782635036986159,-0.9383798756472901,0.8644567106099011,0.28785718116420717,-0.41287207523155417,0.04074380016653515,-0.0016021078306898834,-0.07444253085739627,0.16918205316532478
-27.548823840529884,-14.716809715684533,0.7316795974278257,-8.543274404363798,-0.6137182641841814,-0.9560088404190258,-36.50132174555091,-23.7937019571558,2.508640224782836,-5.3479336757445495,1.9643630302408848,-3.3606341788274765,-10.737902764562712,10.425929105095427,-1.9717640596971442,-2.3504738720910523,-0.12815171009147602,-0.6759332755166678,0.8848882121100317,37.265132430256614,-2.6104248685302136,8.5962874683621,-107.18128529859318,-23.029148456964926,11.331510109751457,-1.839988674779718,-3.8504052610974426,2.6807080605686187,-1.0349327931048562,0.8196361798710277,1.8812295706957292,-2.7667569679700246,0.7105441845130284,4.151313501234093,-1.73287364920015,1.1089998262692273,0.30833560521117565,-0.31747881367184455,-0.12315438629281174,0.4818588372627569,-0.218848257854104,0.1977566210787733
-28.40532685332126,-18.083390905210344,1.154723872324379,-8.454545886992756,-4.605513329776774,-1.0320371800582453,-44.296292321853386,-41.24180147025907,3.9757156275344823,-5.821543717562594,-15.883744719093333,-2.731693007214055,-10.103969919552,9.215748908499572,-1.7498332892986255,-2.367190768934997,-0.13579216255637225,-0.7446039700253867,-9.578486498238483,-9.055703729626043,-5.0708191045414,-19.883630385267796,41.87503334105954,14.242426847416864,8.090102158744896,0.827659376108739,-1.8932013165484904,3.749231842978465,-2.386730684651698,1.9461066165064096,3.407217826453893,-3.5363825062451637,-0.16740652529202305,2.4985712324789504,-1.0488518270579015,1.396759697967282,0.563398253060075,-0.2802574873528343,-0.15234484298592063,0.4159110365840124,-0.18491301169398155,0.304100901281382
-29.86387126575653,-18.218459382547554,1.27096209609842,-7.124600438365001,-0.051636949623279985,-0.5469177791780806,-47.96509291033612,-24.470356352511825,2.5664251283317667,4.7860912795602335,-4.291332325911887,-2.2276650837260688,-10.08901172821899,7.646830081902017,-1.733891536811249,-2.41628193761897,0.15442019320533953,-0.601469011671856,0.649709593587619,25.007000891869332,-9.569292679697782,7.986872813387483,-39.48065307560435,12.14381472686237,-3.064718999784173,4.264926152210352,3.7471477473928028,1.9591384312917417,-1.6270754728873273,0.8029385215062185,1.5197352231848877,-2.84322548597097,0.5938147912085191,2.6913297139489623,-1.2526726154658316,0.7248216030018904,0.155238984500475,-0.366715469836207,0.18768868332388405,0.24888167439998296,-0.14291888538858397,0.11357578531255526
-26.864966637075415,-22.98149262287991,1.6790911427339614,-8.675377427161283,-4.115918439801415,-0.6843001086074896,-33.28115156988142,-42.85121839465575,2.9865892624577888,-3.6529285386445904,-9.254719261520986,0.6310945149156796,-9.652426551948896,6.943020755402373,-1.2865515891217068,-2.407184908405176,-0.08680428057127036,-0.6204239706655543,12.613696131385884,0.7885896731411386,3.132395834907281,-4.1742697617225435,5.77226604463004,-2.2889544457831907,7.859943805638717,-4.874111228084535,-2.8971520102836443,0.8940455612765951,-4.18235647306875,-0.2372781638412014,3.4373819886673527,-3.9882560568215415,-0.9392701458507253,2.119644252107014,-1.2477388179035844,-0.9809491368099046,0.452792033981634,-0.3290312075442312,-0.19031958337547533,0.1797949062708029,-0.19820250738523232,-0.16955885737739507
-29.832944723453377,-23.281744342561034,2.0192057442360882,-9.421517296959003,-2.61868627419079,-0.9448482612694651,-52.92179034106289,-33.26768985351799,2.713634809727714,-8.843067123241795,-2.9989026675755355,-2.618045206368833,-9.296514222061303,4.99506516940157,-1.2431236862590025,-1.7073670923232998,-0.27211408548823307,-0.7289564283580642,-21.007191975807654,20.87087647897732,-6.337828308899942,-20.430053708886067,-17.96772954778102,-0.8071316750340518,12.93841185959745,-1.1028535025014148,-4.306594360379474,0.6131869319081613,-0.9865972568574055,1.0220205027885099,2.3086044390771256,-2.497184297229735,0.02459966920347422,2.116466665934885,-0.6218177667217643,0.978493388153075,0.5734708579575768,-0.3541126963660478,-0.06795113179629106,0.14274640699660976,0.03126497472350842,0.16682319970387752
-24.332446073403037,-25.199177310493187,2.8356454821163575,-6.694652623371415,-2.6906318223575885,-0.434279482776811,-39.21821004863407,-31.662992749979967,5.419960418229767,-4.580497495686066,-7.9815177577937595,-1.3346560623291206,-9.830125446344296,4.415872443158786,-0.5364982602450016,-1.768396839224827,-0.17155800052642858,-0.3739566296523948,-3.9447222707778873,15.547745526400549,-4.456945402358822,18.00447828743581,-16.490681939063272,6.615630199258485,-4.625512100967214,3.149088416031555,4.406648132170108,2.4824217425621025,-3.1271697363816324,-0.35230355241230904,2.4467997498796312,-4.038542811592515,-0.24893589821144016,2.816438579167299,-1.499076906454528,-0.6692263639128975,0.19617602370651002,-0.4179942443146979,0.1551357957134233,0.291744502948226,-0.25448087544812487,-0.0452969258393446
-26.03844833061424,-26.974117623618657,3.0582310225639127,-5.873256482405747,-1.6439899657363795,-0.5326265092420527,-39.862018348014004,-38.73331255045072,2.876195626606233,4.3261821696152785,1.0925626188922255,0.7466845248834453,-8.698552124381514,3.2586502987787394,-0.43927909306236956,-1.0169371394473414,-0.49470628850370124,-0.5384963433097226,11.664339210236156,19.781864972713883,-0.1804133012686574,-23.735009831985625,-14.007036733453134,-0.9163757124794085,8.802796372204812,-1.7850142656289079,-4.495042088560293,1.379185962374669,-1.5722793746853656,1.0015806435459411,3.0235291548481187,-2.0725621080751218,-2.4646357852542478,3.249713151601677,-1.263205036287823,0.9948249107694572,0.5002144336970065,-0.17430217488525718,-0.549345667876064,0.3708049609954614,-0.18536826197278364,0.09187664481687804
-23.0169984383162,-25.33404500774581,3.5694856898349534,-6.409580440148869,-6.196286892272323,-1.2408898816882528,-41.11940225074149,-28.82075471826737,4.814298053791598,-6.073318421409054,-13.771499517809827,-4.006200179602487,-9.10106831209067,3.4560177653721387,-0.1193448308399165,-0.592428832691405,-0.6833768806520114,-0.7053184379821146,-7.569646072079021,9.483009224237898,-6.285169150163523,5.946473953723364,1.3904123243650883,-0.3250351083026114,3.2163416738455606,-0.38719970170442086,-0.0940880524138283,-1.8481136581082525,-2.205848538899293,-0.764486866627189,1.3664232576811624,-1.9938552056493373,-0.05730418076504023,1.717073950350833,-0.6682392373631019,-0.675951822696124,0.2595474486939095,-0.2988269054013815,0.08511505419841614,0.06105222934700828,-0.03215888698291822,-0.037683369065222544
-18.661540000000002,-26.713810000000002,3.850179999999999,-6.002049999999999,-4.91153,-0.79647,-30.129209999999993,-43.05671,4.558760000000001,-3.2047099999999995,-10.832039999999996,-2.8656599999999997,-9.32675,5.033639999999999,0.11932999999999996,-0.06577999999999999,-0.5741300000000001,-0.477,6.98157,-7.722349999999996,-0.93541,13.143659999999999,-17.10048,3.985549999999999,0.01989000000000013,-0.0011199999999998433,-0.7584899999999999,3.26119,-4.26753,-0.55707,1.6545799999999997,-1.0832400000000002,-1.4398399999999998,3.32924,-1.2488399999999997,-1.28937,0.20165,-0.1332,-0.21208999999999995,0.36615999999999993,-0.17803,-0.24897000000000002
-17.781295046300194,-20.958008371110772,3.879587442317856,-3.021769214320601,-7.481491604323429,-1.1922584556592455,-41.440769589247665,-20.617956335406188,4.5827331924016335,-7.733926247555765,-9.95755047469499,-0.521378926100762,-10.554580174711083,10.099837863572281,-0.29551161110323726,0.22305259871326816,-0.5519871696168079,-0.7072793907254431,-14.718714290523,19.666758017353846,-3.130411477719297,-5.872289355371417,-19.937570973067988,-0.38477357179546795,6.787296463486728,0.3167230679845993,1.6252905621982243,-2.1646839716533517,0.7495663901060247,-0.6327518745677698,-1.4469384284206024,-2.483345458899187,1.4900139135796984,2.9715261328202414,-1.3904426979945013,0.5711936659136112,-0.1661933720023468,-0.22341010263495797,0.134390486283747,0.35293730008555313,-0.29771796934633005,-0.04184774797734063
-9.501594035379934,-14.016826486270157,3.183209285639533,-5.188270301642551,-2.4574742281351636,-0.514151725534099,-22.18297226279234,-17.035349055737264,5.670733222379537,-5.167830034877928,4.30351148552001,-0.8035413280071461,-12.533760654674117,16.969740996281995,-0.692173453234868,0.5227156778541329,-0.15096080089870267,-0.18701642249281378,0.21663668229477884,24.97135057200898,-0.8264245665505171,13.267882338459327,-15.554713544484386,0.9017587005117114,0.7579577573201454,1.9074355527973705,1.7919138761975897,0.20341429696939095,-2.7066932586334986,0.06406134930224554,0.867251027778022,-1.1736010870271092,0.14710115259965836,2.4402425667555065,-0.44581070867909356,-0.22256095791798725,0.15222502637885874,0.029289608930545136,0.14228746907765927,0.16300768774204163,0.0677791839254408,0.11121090756023508
-8.141594823854698,-7.154323972436708,2.092752702946463,6.496958834386086,-5.2818648895997065,-0.6301340922834011,-19.193972253057733,-14.740404155536464,0.8994254382965698,11.70776489831972,-5.589934264901101,1.947073016596915,-14.615387972286301,26.18377311165053,-1.847549581773089,1.5731771623812483,1.0278629567146578,0.014949722953564148,18.18693091865288,15.330542084886957,-1.3821568577564856,-22.041511368248827,-8.421601564860426,1.9317781407270258,5.11576906352795,-4.631228469555959,-3.1190742401947973,2.384073603511365,-2.392165368701594,0.5126162470527107,-0.1198923758275337,-0.7011574751684105,-0.5219069655419409,2.858080214159887,-1.1953125680646717,0.16327937739895762,0.016189770561621453,-0.10413456375260878,-0.22085082704415243,0.27048595320768787,-0.21012486867413022,-0.048367190502690345
0.15099320819684825,-1.8218124273570375,1.272084054828721,4.691056794252153,-1.1299970679966298,0.0009325505445600211,-13.620947077614106,-12.0660287668381,2.6037552624645697,-14.296685428353111,8.013596027155144,0.07468270648439208,-16.840888087339028,34.86070886266905,-3.091666959611876,2.3437985841257394,1.9609611282806403,0.526489193747178,-22.669383004946646,16.65994651987566,-0.45136421582777403,18.347691603003174,-19.828354957444017,1.5950397022557308,0.8691242496477571,1.389485767042184,2.7284092529381416,2.431370028975022,-1.323109157245127,-0.0030398505045568865,-1.7819201369734132,-1.4363282218480742,0.9775059476509425,2.880210206999873,-0.9390251662479524,-0.021043333525303055,-0.44596571824459597,-0.28715156099346667,0.29009192843548837,0.2559598004458266,-0.11187125815662341,-0.05425746274306092
1.56113718654379,4.135385473011002,0.553960401274074,12.113868853129599,-0.27673989133975285,0.1623749285596923,-13.970284573783452,-5.9343589630293625,0.6165279515205372,6.239504471255104,7.299168900123146,1.8653270494037963,-17.41548711798396,40.02934210404098,-3.989618780939872,2.981099284970896,3.2128933682486966,0.727724284444133,-6.173590235695955,9.211732281298014,-2.987410053255335,20.28988673971019,-2.5908636122427264,0.027130895949335813,4.620883740298845,-0.5862876957569766,1.183816379064036,-1.2429439967474807,-3.2234400289198644,0.3051577794112449,-0.6398506442885404,-0.9263750090985599,0.6122249430433178,3.101748312144851,-1.0654439599815082,0.1658419226958942,-0.040826935185456596,0.09558909592551756,0.1656476136948711,0.3497277384587774,-0.14178516277601486,0.1664860607445557
9.430509361976982,4.160724455043066,-0.22233283595318673,17.823905213806192,4.735908880510824,1.0094512669628195,5.352584086767172,0.9849351158068603,-1.523238190818891,8.093757835340194,18.541182795422312,1.7561722518952865,-17.274766013919724,40.29039516801084,-4.07469744297113,3.3327762988968637,4.499966248583825,1.5354219751513456,10.370313942023206,23.35961373272213,-3.8177616994167467,4.618851586595998,-30.98368409638759,1.5127052103030074,1.9390114460131211,-2.4639916541074838,1.3370605201268988,0.7603039961226792,-0.23691815161328192,-0.7753608971985756,-1.6479383576646547,-2.492767255822452,0.7768508902759698,3.128182856691685,-0.952190580584375,-0.23216787922935378,-0.2794690298835138,-0.5456962380356878,0.13680747513962552,0.35736844785885213,-0.1521760748650287,-0.22826238025104842
8.973969955166266,1.8907323208186149,0.842829349547949,22.414321253818972,5.588019817060873,1.3806521075789435,-6.736043538878294,-1.4815371773894928,0.5109230840672443,9.733280208622475,23.204371467704433,4.118290147126143,-15.321886621670963,35.478123104794996,-3.4737733495041523,3.6016065438839204,5.453174723900211,1.730734067864919,-19.054595315928633,12.863237943555315,-1.8563012875026281,17.120651918707157,-17.762044720790648,9.146178552534924,3.560107327818526,0.7224679917402608,1.4289363389278051,1.5812974519356444,-2.0348360545712114,1.5014941253832426,-1.228118864818901,-0.19082638153206072,0.4078450232655171,1.967593330673154,-0.8611307348410857,1.1083399250656765,-0.29290747284198776,0.2957254909175708,0.1430377029600446,0.04298124337618077,-0.11627065731802524,0.24155221617817915
10.057712525805192,0.8822960665316546,0.2712392588762792,21.412671237357163,5.25912800437297,2.0038586168623973,3.617353979528136,-1.5771116585541762,-1.636342087606411,17.306365577739268,14.93371633155138,6.173913779968527,-12.526602079653802,28.315194599565277,-2.6999128410116957,3.1257251815195373,7.094023177637072,2.1355139651861244,8.908110766961451,1.1989948462844007,-2.01682401370289,-7.794128734480625,-10.391134144264159,5.9217261373083705,0.17959430458625564,1.0304056662445353,1.965539493917262,-1.4615895884813659,-2.815576520813602,-1.1449492942317674,0.018503158476592615,-1.6970613856724759,0.2958732046395095,3.3896046351744045,-1.0526326980527778,-1.1607171554018083,-0.02923234296038188,-0.2022641851752942,0.18553990125273334,0.545799418301214,-0.1752738641503041,-0.2378467312660484
6.799883274722407,-1.7286847255782698,0.8950362611742306,20.595132025849843,10.852126200051606,2.5958322371526403,-6.472973584273387,1.8622119773256243,-1.8959650464109532,-1.4204405039306613,38.785850798049324,8.389170282934748,-9.413950371480354,19.70284244915192,-1.7757824670706488,2.761435468921796,7.650327798620684,2.367455205703828,-40.62154351971084,24.537857782215482,2.2991664301743446,38.46325899689066,-20.120462244318375,-3.2269391085999475,0.666157260154368,1.1653317585376872,-0.23013546906599777,-0.13437318635212633,-0.4985915256214288,-0.7263065892450975,0.6714961563059557,-0.2960802567954447,-1.0753983405673608,2.9912428329152245,-0.8908136080854951,-0.12333997768612612,0.12606136366419687,0.1803566295689371,-0.2646115727583438,0.23895303572380458,-0.0614072114633692,-0.013479062481704314
3.0911429886652653,0.4531596923141931,0.5737931988567605,25.12510706719147,10.408301179398633,2.5062658600111987,-5.617968073314265,-9.55596017705277,0.8752248819938202,19.659356268900176,28.01481633376405,3.6562653839056756,-5.950727631406126,11.90619536253202,-1.008309204584443,3.015240191676795,8.175349525526682,2.682651294262107,-18.31943643342093,-17.021575568214473,-5.086709246185387,17.838375267446228,-8.967877036576342,-2.5714626764678115,2.2718307649207294,-0.06628763039510614,1.292760840384926,-2.089426521590189,-3.726388557743708,0.2230427408817685,-0.1482385376620449,-1.022852375872251,0.7241203365454907,2.7417254065115735,-0.9150175779985326,-0.4532161876698386,0.025668894536368694,-0.15424054837050208,0.2064441768155364,0.31113313209571214,-0.041306586279187096,0.07645213280671814
-1.168209764700722,0.7541476681790964,0.4984548880757944,23.121159087295684,15.37658530953358,3.4621625145141004,1.1019642979680904,-0.87312841089582,1.410668197438712,6.324699006124915,47.364758168290365,9.670416566911785,-3.3428191860433474,5.381109093868229,-0.4577523856746118,2.7854298449042965,9.20476512075193,2.9122322487557666,-29.317576993367275,14.542175888102872,11.562472525722342,63.158878816248645,-11.639466749345088,4.497979930270441,2.4077385349921414,-0.9473396774680991,1.2067643402923203,0.850477385331696,0.289757759333641,0.2539245557041882,-0.8095030138788855,-1.712433611247543,0.6646854170900696,3.1932825801559,-1.13531984440165,1.0727125099648813,-0.1655593136362901,-0.1305727253088867,0.15009352353684194,0.49134096252636017,-0.24207177521684425,0.14434051151590657
-3.3393585686263916,5.041182906463261,-0.7969923377986725,27.694100113693196,16.056831972711606,3.1056221907841177,-12.145656480366346,19.12745532097753,-2.322972881960283,19.195767157904754,45.73557634531099,7.497588457664532,-0.07474054440645599,-0.027904993531002495,-0.07636165294826804,2.3277075341318825,11.046428388635004,2.929026502927238,-34.54207111706848,26.35610482562207,-9.006434411462267,25.795516708130595,3.4168603843912173,1.9904965736978881,-4.343517321190502,2.9239334003327824,-0.46462320511595145,-4.085808408444106,-4.11941586568652,-0.0756008492884762,2.725445887783072,-1.9781017876371851,-2.415463269305277,2.3617220164478523,-1.114492653121666,-0.8948275630037781,0.2826863815096886,-0.17608235961254243,-0.29568385905184574,0.1448742295318916,-0.1084770394549136,-0.1469444010658205
-8.424296852171011,5.460398464233395,-0.5309166210454406,26.5540083430567,19.592429123064935,3.097022670270258,-18.501822771209575,2.8085138268574843,-3.152935608209895,10.223570121361194,56.57846113099243,9.831300697369391,-0.3363997051706583,-0.008324340009105197,-0.36126686408202424,2.198640188496906,12.729243283653782,2.683982458440538,-52.07985990104389,19.5956048322332,1.6422324838145796,58.462532784889376,-12.251196405624839,-9.13001212174252,4.575778435977286,-1.548695576914542,0.23600382545378903,-0.15694200666256986,-3.129946334549076,0.7714041805959216,0.07460025222669928,-1.8507926924072822,0.5592860722610661,3.844567826689703,-1.1000661075055536,0.2778970048836167,0.024036294347010472,-0.1342077393866666,0.08412438516134785,0.4761838415505784,-0.06449194550858879,0.2260462179393608
-7.517526036184153,4.492572088116426,-0.0806184498670304,29.48649839128199,17.558924877602944,2.074164831735541,-20.71526781475725,1.811265846639794,-0.3624112894208164,3.437449303469046,51.81456322729344,5.657924800974067,-0.3229038057079819,-0.3085599551475974,-0.2860152478578345,1.9157243767730734,13.382722383169545,2.118198885861753,-67.63181665816727,4.596966088093893,-3.2613240731523847,68.1556724770025,-26.74596778220615,13.667139396610843,-2.0603220698287084,2.339704944391532,4.120942617861132,-0.5587868759933114,-2.7411028957419368,-0.5853271359765843,0.10540452100938325,-4.198953878564818,2.0255133698404717,2.5372527141918946,-1.1339459379507657,-0.9253984351740058,-0.13469565661412577,-0.6191138947424915,0.6460729317352505,0.3141729511529357,-0.2121636371264982,-0.2534159604315886
-3.080790662554185,4.109858641427072,-0.6708220700954879,30.546826573307907,20.30598672623784,2.075173375979904,-7.352967088838926,8.078278148109714,-1.2664993804613833,9.869206181245666,66.47338053335822,11.862179819284538,0.0442549927237294,-0.10914403180030603,-0.020765588383852198,0.5683963655085461,13.068158543779145,1.6317172075233435,-47.77091697368238,31.604034443034994,5.56887685583139,60.03793104834164,4.498596602604808,-10.597365577908914,3.2073610445707397,-6.08920784194194,-2.863921883855549,-0.5856247562019026,-3.2578342443103327,0.6071927499970711,3.4798575366221898,-4.098654878949635,-2.575570103490516,3.3230692775020887,-1.0024469353302627,-0.017971878301967108,0.5600024001448499,-0.5054038866445486,-0.4360978769078907,0.45425324385924215,-0.12414068276088099,0.11720865259549546
-2.8660534406181384,1.3921103918012652,-0.07783391678717745,28.283784045520836,18.62153544341622,1.4064557434571108,-7.2191590265310435,0.5922850702460649,-3.4659558476900405,2.083354193218756,59.423810570588394,7.369527695684875,0.2292506001227085,-0.40426934165965855,0.15179752685026696,-0.7784763146277981,14.018331041110908,1.4843034960659738,-45.62103025385117,13.225157653100895,-4.761469093890542,79.7280215256045,-9.66713333610392,-2.9973764949490085,-0.6546103120195456,3.367626679906426,0.37389750813452144,-1.4444976528206228,-0.1282621531784429,-0.691577169551984,2.9493566833598726,-4.090275124189238,-1.3694378252303097,3.410935789953152,-0.7635198976658921,0.10995401625991726,0.4824667300507766,-0.4945610987101769,-0.3220969225863339,0.422646706650754,-0.15434014756662137,-0.19016357874623546
-0.9321300000000001,-0.6379999999999999,1.19577,29.2851,19.07016,1.79894,-13.87864,-8.57191,4.83367,-9.6221,64.22935,9.157470000000002,0.38841000000000003,-0.52586,0.24831000000000003,-1.8513099999999993,14.300200000000002,1.7543899999999994,-79.51552999999998,12.571270000000002,11.039899999999998,71.73759,-24.629150000000003,6.29499,2.60655,-0.12073000000000003,-0.2061199999999998,-0.04694000000000001,-3.73309,0.9687899999999999,3.16138,-3.94844,-0.4552099999999999,3.2599999999999993,-0.68992,0.21467000000000003,0.3136700000000001,-0.30089,0.00881000000000002,0.28200000000000003,0.005959999999999999,0.33337999999999995
-0.025972375593321606,0.8296352654397988,-0.32793859978175116,28.013081181233368,18.704750485465453,1.6882412939949092,2.6185011795686206,1.459893703440874,-2.321481558692391,-5.059974477079964,64.14844184956866,10.15589555159743,0.2541394137136442,-0.3982974252831408,0.3302129157168624,-2.2825094543418167,14.401390157929411,1.7618663331948698,-44.918250429694076,16.177640189636342,3.7331048352558387,65.71450909787295,1.3899472487424962,-9.581133359148089,2.6819427620676035,-1.9535879033520855,-0.8276774175528965,0.17986859144706596,-4.196126333108837,-0.2691909963351948,3.451142818537286,-3.3205266867130456,-1.1844242424432414,3.425408064438685,-0.8752540657129636,-1.1179022786665935,0.6480428848007953,-0.38870907112571285,-0.3376645914214873,0.3080062317258598,-0.09527083753664986,-0.1794613296561837
0.01510324284951462,-0.18261794504042209,0.05632046044615042,28.651908621213167,16.443339268905728,1.2429060261797766,-0.8761033065474588,-3.0252473507706292,0.09143672467176343,3.427860248183603,57.67521048907599,8.454374679081164,0.31823249095223277,-0.5737427867047663,0.14940627613895097,-3.0960762150835524,13.820609707543992,1.7428290393395538,-39.963820973739054,9.484162742095585,4.092990230188816,68.77518891314172,-6.762893878454755,-7.005845143973401,2.241105451052148,-1.7573134149809464,-0.8092451853894105,-1.0333449825961616,-3.138794718458133,-0.6565051867951102,4.751965176685547,-3.8114480657444956,-1.6036894396525818,3.3650391627366076,-0.964519156968616,-0.6823133155536022,0.816412999796057,-0.49051973666129106,-0.1359817913112751,0.41589984955893056,-0.2138292499136626,-0.1683167575763852
0.006306534433417997,-0.8885331313658035,0.6840754411812123,26.317252623515856,15.748353896677997,1.04032943595972,-1.9608732700735094,-8.46167220063283,5.519285076668395,-21.53406506459577,64.95356571983123,7.110816077419084,-2.028818573349977,2.9157853670971474,-0.6912990836402289,-3.060901217547713,13.361503719221218,1.8135689048067167,-73.64376530721368,10.75527140532213,12.689145931596476,73.05357488719437,13.90201216060014,-0.43086288960566244,0.45392373912466655,0.05547628930519102,-0.3604658755472096,-0.18762490120025094,-1.70442674284817,0.8078027805022332,2.369005235711949,-2.019103301023458,-0.9045877678047348,3.2827785877329734,-0.024685564642488333,0.9295817540721294,0.2653495745851203,-0.2171244769455227,-0.05417444105637393,0.4373047174881329,0.05201786619066847,0.22812699319108182
-1.4038611388713909,1.6059451117846628,-0.5615018379754515,24.361901090251116,13.864217456095261,1.2963915436083262,-8.149537053749343,-4.478809986941343,-2.837732394486653,-8.363333799447993,56.527579228846996,10.66818502949557,-5.321132356763861,9.00700866529101,-1.766693811001588,-4.055688588381009,14.22191946607904,2.0167095012370235,-52.24484263915335,11.968183597076063,3.239329880389286,48.73981154630084,-16.014112099417147,-10.900273194391803,5.411837152100269,0.6986131302746766,-0.9921449363115705,-0.4201397710629461,-2.5670480282301265,-0.8554702926408909,2.4841851049560706,-1.8658933461716527,0.6358111043442473,3.2055525417298876,-0.39945617484718576,-0.5739277336095946,0.35067785215303504,-0.07586998433559031,0.004290677857273421,0.2379245365349968,-0.06323089727403042,-0.14741062312067735
1.8314227038599662,1.2882754696878473,-0.09647518835904681,16.126589149801383,11.77804565859961,0.9998356204518906,2.766813818865886,-7.548808261236256,3.9071666028488092,-26.14680252527893,41.37765998441604,3.8221956745562573,-9.04326314736401,15.84957887258899,-2.859191400393673,-5.328671601881527,12.890419817246192,1.8694681033510434,-52.359999005574096,-5.405960409526436,4.233142970847388,51.21938205795143,-18.13562692652597,2.387871833324847,0.14601424915627487,-0.11778349408973947,0.30511910567889977,1.1595256007262937,-1.5788924509938456,-0.1078240714479772,2.362286527856154,-1.6807747552452184,-0.44982678255280084,3.984342200402543,-0.534361900769287,0.34801152904332144,0.35481674495317755,-0.23739819101590035,0.10720431806925054,0.5963597786170267,-0.16480663646369434,0.0022605625639219966
-0.3382612220550617,-0.2730031451533117,0.2703759976666084,15.157448546124487,14.842083394020456,1.6625359855879114,-5.018461064099135,-10.500621355811267,-0.27190536945618815,-4.824254743693442,56.34015640474591,14.300469478927113,-13.038767507041017,23.625385115246804,-4.221371656992324,-7.423524515593194,11.419028043545147,1.9394097052424355,-30.200563783486142,30.005709435321855,6.234575731378421,63.51684275106362,-12.952627317105367,-19.354614367174765,3.6631834912001664,1.548534703120053,-1.5822359987726782,-1.6720160996397786,-2.4141285936980843,-1.413577599968097,2.356378317849314,-1.8275283203656345,-0.6626520059570584,2.9613821771072355,0.08411032879492586,-0.6899256747144824,0.2740745978884711,-0.09527743269832577,-0.354403843360789,0.08782211467719242,0.05563871916022482,-0.16993907444506218
3.2048309232979553,6.747359080446555,-2.1278882250186815,3.162926362273558,8.277592436504158,1.3641301185896446,9.509419426965586,-1.114891253979924,-0.7346418761827611,-37.33050977891793,35.07490917270231,4.485070444552477,-16.2572401206982,30.889800140869717,-5.363070470571767,-9.209057651564882,11.458793340844394,2.234926120705258,-40.28667497995583,23.265524031564564,1.6927001166900446,58.965359059540255,-19.8682090862379,9.824824610196089,-1.997515619006628,0.6260399127525428,1.1411242598658973,1.2862608263456687,1.5333810859930435,1.5242520639471397,3.3347700355614194,-1.8636920043956429,-0.9580881706387437,4.746647410859817,-0.1288371367487921,2.7901443345834878,0.5694277416325512,-0.24782405838203217,0.10198787506859583,0.6307759441581955,-0.05617924918471454,0.47152419985526484
-3.945830301567079,0.8385337999606808,0.10790480278754078,2.0752532139792077,8.762394759135203,2.0101504202141496,-9.43573977596141,-29.470639111500713,6.046724176801615,-21.569911272077743,32.32118861793968,8.418030467264133,-18.83456911763905,36.399388866117356,-6.851332892947975,-9.973550301446888,10.82743111535872,2.528208983077193,-46.27735609234493,-10.870772983937838,8.74231206649731,45.27248239080632,7.74054661839923,-14.392912593079652,4.677869515666449,0.4407654268826733,-3.271086492880758,3.552023718085809,-1.7135071096553698,0.3801082629976306,2.3889146157711183,-0.8646413197773928,-2.121555317260027,2.422961854375306,0.0065019933752822326,-0.2241682696579522,0.2037432872288804,0.15144436340609763,-0.5888418321930634,0.20740320176262866,-0.010602475062254653,-0.16269999627726334
-0.4124910973736356,5.093728867695279,-2.0144312159435502,-2.772037447859129,7.275317784083677,2.370459996644716,6.614961846660276,-15.142507689750678,-0.9313902858532603,-30.753798876754754,21.81184345166294,5.704474587466603,-20.95839680484935,41.95945509341147,-7.424083481445894,-10.337245603891446,10.140886524410167,2.835071194845171,-28.256872660777457,4.987149841735926,1.3023605857930043,13.715536469636122,-18.644981965807265,2.7142045698919057,6.917183045474056,0.3209774819720077,-0.4652775406808732,5.119826065044305,-3.824216897545142,0.7253255110372885,2.409239994103299,-2.008304476414132,1.4511953054500775,3.600349450487504,0.18103162668599698,-0.03814499740764395,0.39142850192317274,-0.22735197315328373,0.38110500674982917,0.43874003074467405,-0.07845778753708887,0.25841079440388326
-4.017477161090758,9.560646997532617,-2.324826043552994,-9.158651137260442,8.82886137545829,2.3336326143635904,-1.6971226499906393,-7.886651883100093,0.681811887133221,-32.09200697657762,29.351746754594103,7.030454254514173,-22.71966831323766,47.39870996798983,-8.102073457616996,-11.462857227666591,8.936545907096306,2.477397676644849,-36.264446211954066,28.347730601475472,1.6345164003202701,62.73863917635284,-0.41162450479019536,-4.259346949413732,-4.1179513315575536,3.810921216291919,1.85828313785496,-4.817824310066343,-2.5603928876933413,-3.3328480267581586,2.1957457284674557,-1.522014848234305,-0.6839280635658918,5.017791470798092,0.2689482169975307,-0.05586693836580068,0.11670624005982759,-0.06656611598774373,-0.08551986892471965,0.5897045017944887,0.05135283599137382,-0.32557004311624127
-2.2580310858213464,7.88973034209836,-2.1863879136466555,-9.382824857185748,5.998921566495944,2.3211330817257743,4.255853095077735,-29.128812951279087,4.691692624914781,-25.672703859560972,15.72004286703072,3.7693176655304623,-24.09592374878802,51.517667283962744,-8.40146525865152,-11.610518314430543,8.662098217777094,2.866293420181076,-19.022949253400622,-3.352649309993017,5.199313568578412,-8.658297803732607,-8.102196977995213,1.288625002063986,4.625633391397068,-0.19879313874830382,-2.2261717200167097,7.261186195971767,-0.7187239228199644,3.475805357917875,1.4924597397262398,-0.24393518036503373,-0.961066685645524,1.8817662627882024,-0.27538504239796313,1.3865471166388654,0.31631992507455314,0.10178731691589199,-0.24255938031205154,0.2436812305509741,-0.09375699039605896,0.24559705787677463
-5.144300192167704,11.568151410671673,-3.0752030865491746,-14.219718865400989,6.279943771390883,1.9028374438659654,-1.1732804443854226,-5.610955023024489,-3.553996154207293,-30.978045946394758,18.832687811635225,3.857055179305216,-24.65743762418669,55.96539549346422,-8.520476597853259,-13.48894581574644,8.193157185429195,2.373343545048146,-31.019903055097615,38.15454498878234,-10.921822589781216,62.02254777116822,-48.113895674745,-2.924543637645359,-0.9943879376030773,5.569586514224766,4.042894431638578,-2.910177390536939,-6.907507876752948,-5.847265288277885,4.280996822432452,-4.552646962636279,1.3691017050533507,4.568731911563143,1.7352596129396751,-2.0682113927915924,0.4659999464526721,-0.47787388752308047,0.25076385015174946,0.5572288488557652,0.12601379135680113,-0.22769968348577277
-6.955349088582977,8.10803633403759,-1.432396188846713,-17.639722365256677,9.713364422615061,3.38843368985415,-4.03718274956288,-51.46364426780132,9.108770176058554,-27.20028820950038,13.193100237114173,6.163539474677191,-25.481348238386925,58.87587343608286,-8.687386937367107,-14.54277280271678,8.077307262462819,2.7387719033581357,-16.224398505343792,-36.32545903748899,23.20172463037311,-9.565084366576277,89.087532150494,-3.8216513464965374,8.028820907156568,-4.035255591438911,-4.490465810796468,8.564294322256936,0.42397026664617515,5.744645328423417,0.8713274453980806,0.8449675844862778,-1.3425910739178435,0.9180051669100843,-0.8599666730284679,2.109062630083367,0.24951419738257438,0.127029889911264,-0.10479498877760085,-0.23846238114372745,-0.17661864845235134,0.2642485661289737
-6.536066428308267,13.56803011774685,-3.290106573093745,-20.140319389741776,2.282401785153776,0.5980865268938004,-12.893869764920279,7.127722549844886,-3.717397246350684,-24.90962505615719,6.622014946896883,0.15873330055550056,-26.031063889711156,60.91636966325642,-8.396075969184864,-17.173668247134508,7.894571860182632,1.930785000109464,-32.14974738050874,61.770349663740845,-25.850861794979416,56.57077426541146,-107.2326608202207,1.1966204773476796,-2.9111474726110966,8.15729687982216,4.542515158564625,3.0216319855313944,-3.6803696416261036,-2.957959679350358,2.130782665730885,-3.1381676355866457,1.4777577149494598,5.327175338393472,1.5712379000123093,-0.8471643633037735,-0.0031692115379944527,-0.26306923900859563,0.24070865673507413,0.7863295534856667,0.11391809995911847,-0.1930567868083042
-6.860440494000112,12.692283141187263,-3.086267919673649,-25.425528558360842,9.093638164495355,2.684627471074627,-6.463527418532529,-18.503433022970622,1.2648059489755676,-35.238541378494624,12.60665297291866,2.6477126828150808,-27.093649179354564,61.9733240679636,-8.43695985854281,-18.124678188721514,7.94532155925091,2.4319748714290257,-24.337583594536888,23.48705791662954,1.2084649933060747,24.114803792668894,0.9897011880739028,7.021142566098284,3.9851331626939843,1.6478026941042263,-0.24767333039573086,1.2548543367866554,-2.213670754954536,0.6006743896440367,1.9960360876746133,-1.338700558805898,0.038178996119239,2.4267958770628018,0.011469235578040195,1.6525799197664328,0.1545489473598479,0.10540815435065821,-0.10294506839815157,0.3430444657891336,-0.08811185398200577,0.33518126460721753
-7.417958860875881,6.221231307504216,-1.9998612794823927,-23.649536075491117,4.2837258269477685,1.5701026742032709,4.632665238887187,-41.162181761234336,3.33744737822182,-25.352277083058134,-2.0516671934178996,2.1156753509368627,-27.575530038233797,62.34730435323399,-8.127390933124643,-18.281632034531096,7.319340302800942,1.8827473593019992,4.22206476889379,-29.143949218505746,14.284806308093067,-2.1325254973400565,38.56739901214368,11.933249234225329,3.4498719449100697,-2.0445413115636573,-1.3190708989543858,7.664965694752095,-4.762395001290189,2.705708214239773,1.978620794429134,-1.2229469262879131,-0.6394906276728114,0.04102262809466802,-0.48140397089178805,-0.2089739734233023,0.4723436140872403,-0.2562158468287043,-0.029282471319306353,-0.19120257787873754,-0.24349667597146188,-0.017104431771494993
-5.85097,0.71936,-2.11944,-27.7822,8.09361,1.77391,-9.69798,-16.36637,-1.62235,-19.29307,18.29502,1.50461,-27.63418,61.17735,-7.69358,-18.01717,6.82952,1.90341,-7.87177,77.7247,-28.14388,23.14649,-100.65487,-28.23726,5.10174,3.78181,1.06192,-0.17113,2.00333,-1.60879,1.17291,-2.72447,1.31427,2.5155,1.46859,-0.15807,-0.11147,-0.14164,0.05416,0.15541,0.3354,-0.21095
-8.81266,2.1138600000000003,-1.8008600000000006,-26.358300000000003,6.199390000000001,1.0609399999999998,-18.53831,-4.340970000000002,0.050569999999999976,-21.502920000000007,15.554530000000003,-0.7898700000000002,-27.575350000000007,60.59652,-7.749320000000002,-17.150780000000005,6.52651,1.7651000000000003,-23.60063,91.64531000000001,-30.54036000000001,72.25635000000001,-123.35826000000003,-19.813980000000008,1.47912,3.6130900000000006,1.106,4.9249600000000004,0.05400999999999996,0.8197600000000004,1.7700000000000002,-2.3000600000000007,0.003589999999999979,1.7554200000000004,1.0742400000000003,-0.19420000000000007,-0.011860000000000002,-0.0219,-0.18507,0.18070000000000003,0.13590000000000002,-0.06546000000000002
-12.129137252069043,4.189350028509918,-1.562456520744087,-24.447717290960053,4.442871585946567,0.7171065384240515,-24.104938177837113,-6.76558465404183,1.7192920628307387,-24.641792099660357,8.069755449127992,-1.5760596625114378,-27.67315541409824,60.32413153982082,-7.800765460283358,-16.510694008220653,6.253211463950644,1.5969951088887773,-31.223701169128375,66.09808333643441,-20.37188685094194,81.24281057550165,-81.37594160579148,-5.32142897258313,0.7957212489502681,1.8306758000379402,-0.016832215515659388,8.770496012276462,-2.659500068392534,2.2834328027190325,1.9736449489887202,-1.4634694571406772,-0.9623682383567961,1.052532536673102,0.8292280713913687,-0.3685266433796202,0.1484931243758997,0.05528596977403527,-0.3177550599454443,0.2055443829237162,-0.009994425052511038,0.028755389946053114
-12.747180175894671,5.278776838410568,-1.5260861048520118,-23.70702659496692,3.303090923080589,0.740414075436272,-19.190746488379776,-25.172062482836857,3.309910072914764,-29.04765828310139,-2.242193921061664,-1.4064940901311216,-27.77928730006719,60.22402911165794,-7.695745550182161,-16.13743491613395,6.0240566185207465,1.3948503146811362,-23.55165130971253,7.639761761724722,-0.21975399382762983,52.77232721797106,2.8882035008976956,10.403989629004979,2.6099623217495362,-1.1319459124491669,-2.120091787447622,9.464275252385608,-4.686370615088613,2.572121293429673,1.7537220756163767,-0.3753844711598707,-1.626283269887487,0.35759064577514005,0.5985186927449178,-0.4064380825022119,0.29491541206719757,0.07186856164715966,-0.34501737668887095,0.13839382148112622,-0.06294308401834016,0.07100415138199223
-11.426274286297149,4.945403040968441,-1.4937450503636205,-23.889414084148157,2.8645380345034708,0.9251497272761552,-9.147859488862391,-48.54381772872168,4.9751396735725,-32.34305766955131,-10.780062962573814,-0.7954503373400822,-27.8230229884915,60.18266384795937,-7.490555767320743,-15.886989556495722,5.838726488423472,1.1914814898172308,-8.49653275534569,-52.662860819258654,20.48006042000934,6.074486146798372,84.59424786216597,23.302129788322713,4.418706340943714,-2.9061842966851223,-3.4643608913018347,7.113691519563285,-5.3085035051889236,1.6510101683490803,1.4793760054991818,0.2862861368445478,-1.7545602526777655,-0.13452934317552812,0.4412257037522358,-0.3197092022325004,0.3734902987249808,0.03206161631040957,-0.2607677038914808,-0.0104297380164316,-0.019097281923436567,0.052270844869180294
