PaulMeinheit/Bachelor_Muay_Thai/processed_Data/E1/teep/scaled/JointMoments/scaled1.csv
R_KNEE_MOMENT,R_KNEE_MOMENT,R_KNEE_MOMENT,L_KNEE_MOMENT,L_KNEE_MOMENT,L_KNEE_MOMENT,R_HIP_MOMENT,R_HIP_MOMENT,R_HIP_MOMENT,L_HIP_MOMENT,L_HIP_MOMENT,L_HIP_MOMENT,R_ANKLE_MOMENT,R_ANKLE_MOMENT,R_ANKLE_MOMENT,L_ANKLE_MOMENT,L_ANKLE_MOMENT,L_ANKLE_MOMENT,WAIST_JOINT_MOMENT,WAIST_JOINT_MOMENT,WAIST_JOINT_MOMENT,NECK_MOMENT,NECK_MOMENT,NECK_MOMENT,L_SHOULDER_MOMENT,L_SHOULDER_MOMENT,L_SHOULDER_MOMENT,R_SHOULDER_MOMENT,R_SHOULDER_MOMENT,R_SHOULDER_MOMENT,L_ELBOW_MOMENT,L_ELBOW_MOMENT,L_ELBOW_MOMENT,R_ELBOW_MOMENT,R_ELBOW_MOMENT,R_ELBOW_MOMENT,L_WRIST_MOMENT,L_WRIST_MOMENT,L_WRIST_MOMENT,R_WRIST_MOMENT,R_WRIST_MOMENT,R_WRIST_MOMENT
X,Y,Z,X,Y,Z,X,Y,Z,X,Y,Z,X,Y,Z,X,Y,Z,X,Y,Z,X,Y,Z,X,Y,Z,X,Y,Z,X,Y,Z,X,Y,Z,X,Y,Z,X,Y,Z
-17.233470000000008,4.891520000000002,-2.2322500000000005,-12.028600000000003,-0.5296100000000002,-0.09287000000000001,-29.35701,-28.065040000000003,0.7800200000000002,-4.9784000000000015,-3.74822,-0.017119999999999976,-25.969200000000004,62.31374000000001,-6.770550000000002,-11.165150000000002,3.724500000000001,0.5423300000000001,-2.3847500000000004,12.474880000000002,-6.219470000000002,10.431020000000004,-22.195860000000003,-0.5106600000000002,6.943770000000001,0.8573600000000001,1.1091900000000003,6.10403,-2.76574,0.5998600000000001,1.3957900000000005,-2.6718500000000005,0.6557900000000001,2.4325800000000006,0.42478000000000005,-0.012740000000000007,0.22626000000000002,-0.3161700000000001,0.14061000000000004,0.3672300000000001,0.16327000000000003,-0.21206000000000005
-19.864405227879082,4.5161590046759565,-2.0464984720689534,-11.728419890173274,1.105044363684255,0.009928469519440456,-32.81352801290892,-29.236588551410403,1.3889008362793327,-3.636948767064911,1.0013726960866862,0.25085769868713825,-25.93504419891879,63.50013006651547,-7.302091677300554,-10.39913334735774,3.3900451183169813,0.39835222168813506,-0.41845272545662804,16.89927124095955,-4.6032282358104775,0.5358137265809739,-15.70415399325949,-4.3455534355482754,4.446989739152616,1.8010243604385197,0.3770105650785868,5.742492266161443,-4.387239533562295,-0.6710529236834933,1.365034218583926,-1.0943802143695207,-0.4947308760306649,0.6794368133464128,1.1949845785026492,-0.5194015537957678,0.1435387737216714,0.04029229556659865,-0.14421347715864466,-0.2799851532246802,-0.04142984432211804,0.011842079888655755
-22.16276443439407,5.614956419179109,-2.776252770879802,-9.027539967781342,-0.9783643284866171,-0.8104949935973694,-35.3949527534725,-30.319981788362778,1.5437490611543647,-1.563898076557522,1.5859364115400965,-0.312987581824206,-26.392160942987562,64.24961737932009,-8.441409632055208,-8.914720222293008,2.7085752746942457,-0.024326775911355212,-4.724464456161091,18.42344393775389,0.6506517758623074,-10.399780829952299,-13.892290966327698,17.96969027594322,6.578230073072677,-0.5829686855557575,-0.08630292738097547,7.914466741557687,-4.074958879163263,2.1225978152541947,1.2073056254176306,-1.608481817033107,0.9253060229526855,2.233967040749461,0.21181889452142383,0.828408307841676,0.292785049360851,-0.16128683887060302,0.25011558992752797,0.47472214710810573,-0.18681357921916458,0.21160348801629186
-25.132226910750404,3.2258688783653287,-3.339021850836675,-9.445792537861738,-1.9272046038366235,-0.7187761502358466,-39.730169010064195,-33.380239037479264,-1.8589468009900556,3.1015894439290843,-6.664034854436667,0.019009938465363654,-27.06000404538755,65.73111636253964,-9.394189139300371,-7.903661340062614,1.7583476474597097,-0.4708479612115769,1.7019617347164266,7.13926769207933,-10.938900917313559,18.070985211231356,-15.500770426051682,-1.2927317233815938,3.0829629243709378,1.7923558455121857,1.7380614930391616,5.052718795334496,-1.9381254884559003,0.6836986152864051,1.7563538771221876,-2.1459008892620797,-0.46393131006742355,1.3520772870512368,0.7343318005955506,-0.20249311204679235,0.1068152881598973,-0.2866781258506023,-0.01946819796191205,0.1248418030912986,0.11116273638338457,-0.10638715033874331
-32.30054364717265,5.664324006872997,-3.054816209456375,-4.203310870162683,-2.2888242941463752,-1.4048897617860034,-48.63400001357897,-20.484293564998858,1.7637947208233815,17.31191605910358,-4.647420615601658,-2.3166965030392808,-26.79172326543845,65.89514527385415,-10.519864302124024,-5.2820629282061935,0.5016068419834314,-0.7955173421829795,11.406661209227705,33.913939101119304,-9.724065291196888,-18.43984360689712,-8.029637141195806,-0.04842705183744589,8.354733480305157,2.0224027656770462,-0.8598281122606949,5.85517004845037,-3.453334397201278,0.1208001849130558,0.39958893829688574,-0.5053984174323167,-0.029857494543758047,0.8418222070449197,1.4422895511260867,-0.21526857718708262,0.07808167425729413,0.22415847702954672,-0.18187954405701573,-0.0417878530936956,0.14941725460417513,0.04000176115102112
-31.322046224503513,4.84093971922138,-4.099411300088966,-5.73770780740851,-1.3912737188753728,-0.5727575874434264,-44.1801877036408,-30.8017243930001,-0.7525832106423437,6.40726046500201,2.179575146393557,2.3690433056162123,-27.293944176374193,65.57554624131681,-11.218865034468655,-3.3168054143484325,0.022195987172326632,-0.5227321333768962,-0.16711663398614118,24.49436646202468,-1.1398263781808462,11.683405517274014,-4.449617208835155,3.6729982435904938,6.192139675371941,-1.0371555969617885,-1.061836808811724,4.968311482721438,-3.5989357451127657,-0.7258858843046655,0.7860811021588816,-1.3849375707632494,0.2840060352917427,1.2050400199288671,1.015230741256145,-0.38592273372550545,0.1278508543050878,-0.12075526290811393,0.04230125881442914,0.2105590111827431,0.059999780699603614,-0.0542932278617166
-36.15382825047283,4.12215191876421,-3.6408712386064597,2.188204384434458,-0.4266719218220163,-0.01987015162564342,-55.12951624716097,-37.9274801693566,1.912089792589144,26.10653116659999,-5.133049770919574,0.2545050890189879,-26.62969048230973,64.99637762421955,-11.870870444780738,0.4164935396253837,-0.11056125959905422,-0.0023036837815577295,12.40643130621414,7.829173910292887,-3.9944604986431864,-13.849842804696449,-38.032966785895546,10.768878046508753,3.195823836179307,2.473431408299115,2.139564488399246,6.382720270436007,-3.5375598818257004,3.0880623658765147,1.8796406513861832,-2.0441171177005817,-0.4399225296968051,-0.15811671963518645,-0.5294508537587937,0.3188349707195234,0.24948678566730126,-0.23370392613023064,-0.05995792954134451,-0.3326226884078995,-0.3592134847527233,0.12519527470200106
-35.69275585552087,6.859388419193404,-4.247504637613958,2.9146568639879,0.5131520840354027,-0.20337877684244696,-52.56938619768233,-27.742360240544595,2.3779708446823995,22.330639366641655,1.886105215416968,0.3681618628996228,-25.56547912180921,62.17062395035246,-12.205598927227955,0.7721981356436357,-0.3003994956473346,0.055825172369883595,5.466443286981237,31.69965771491934,-1.6951471786642227,-2.1919255352488203,-14.469002912744028,-1.3438536958203342,8.267471822132114,0.8569795589138705,-0.32913979601740795,6.871132351752648,-1.9287156172523712,1.270373635826067,0.21059452143666738,-0.4800663485116939,1.3118241748180792,1.4851624219698873,1.5788963800486595,-0.3088450103986496,-0.01772785449954642,0.06117860153261365,0.34732214674691186,0.18654222436678572,0.24125070129763432,-0.06271897075908417
-36.4445473661538,9.61854403937255,-4.875658199948179,1.4449524913249991,-0.2795599130133915,0.6487546751669888,-45.217607241091805,-16.70853658919273,-2.357162351704771,21.953788630882148,-7.590400815222873,2.348821001384397,-25.186884290221023,60.51512859112209,-12.283681751147629,0.2399427826480397,-0.080989246987949,0.2495891861199389,21.12575201213064,25.260520600046878,-10.90536817200402,-26.934013731534208,-16.712842113847312,10.610378679425937,7.094648859018878,2.0430816801034837,1.0009096248540121,6.008982990171842,-3.9980046975170844,1.3556734013620746,1.3636836164677337,-2.019665703957533,-0.24357081250875448,0.0922420959187356,0.20534095896278629,-0.37171421597920157,0.27536405979828754,-0.019568439192806958,-0.2334469648145086,0.01844804115675339,-0.0203389341896935,-0.06617789374217174
-38.990137149251616,6.302407499624662,-3.993813584234765,3.52190743634123,-0.893390244909083,-0.49640029818277065,-51.97432570478026,-36.47882746301728,4.051255098152848,28.935418112220997,-6.457264051229198,-6.263670590648177,-23.632144703284823,57.72020676616678,-12.58613455351861,0.9843757122245015,-0.19992494044072306,0.05489579645812863,10.274887153114939,6.870950722478684,-8.648833949550818,26.209299511639024,-21.912039879725498,5.728700229738788,4.086438674666548,0.07465072195536382,0.8292721238987935,6.852887882103416,-4.6753327934865565,-0.4859501362727787,1.3896809726199473,-1.9424488059598142,0.22058038666668406,2.3359446879094423,1.1344180467972276,0.5621384478124227,0.14672351320167742,-0.3025323242953804,0.16072076043171837,0.2637984351710652,-0.10530345307375029,0.17892297943614593
-36.109130339680505,5.168528500818331,-4.112448616392221,1.0992564416611001,3.6383481612403705,0.30367728115042153,-44.25236884843051,-31.629478788457003,0.17795183429740927,12.632397759476504,9.418159673770083,6.522877857031464,-23.46185560108845,56.044501194241576,-12.29144968830864,0.08210387235556496,0.11976951915894779,0.06515125941928143,3.0754775230626734,34.30319187314183,1.2027096568518996,-16.115855291583646,-1.395543784368636,-1.9570805553592778,10.083640826590013,1.4787640400095423,-0.4371869190284567,5.113060265124152,-1.744674737453981,2.6700743161017884,1.3763492415695762,-1.409029970676278,-0.013690371596854602,0.1909956012970425,0.19011331161453437,0.09813895172681945,0.4117040381426106,0.1503264508613539,-0.18986824234279662,-0.04304768979208119,0.09866593365941333,-0.020987968205745805
-40.350459089270835,7.878905016792978,-2.9954434540058585,2.4236962870748298,0.17621171115609835,-0.31108695781764384,-52.995927803835315,-26.020842794734406,5.315746804335128,33.38615903545801,-5.043590705565419,-3.4146586418196594,-22.71821277001724,55.69295109056314,-12.431361811923253,0.28029870507837307,0.0017250997278606163,-0.06714462142479317,18.474025135523394,25.36510582991274,-10.3069671329552,-12.796217597035486,-10.983110626199132,9.05919152125595,6.989797649631421,1.3046846527968339,-0.11367441004370096,6.569574694484437,-2.112748795521507,2.8099317963341464,0.5952538615017667,-0.8535171163901762,0.43736993721001316,0.7983984148303752,-0.06994773417591964,-0.3322125897119149,0.01613426264231916,-0.03591720948185797,0.1321666803619878,0.24089874937723138,-0.10137498290389317,-0.11384386709813453
-39.37807838291446,0.7637814206817903,-1.9337378757350663,3.555772396342589,-0.14917772414320699,-0.11129602953582346,-48.132288312693944,-37.056195671514644,4.386820611998969,29.018618553506972,-1.443537378315996,2.210896389980493,-23.155281900209758,56.210231952805344,-12.662241506582633,0.6874404809275487,-0.3056203173593127,-0.12312905755368332,12.90323657598576,16.143750931959325,-2.1322090991189473,-7.363948905698835,-16.730172172489862,-4.345710022392032,10.455575866120087,0.3545379498080913,-0.7721833201144936,6.082123464356405,-2.53596573452556,2.2660183194274826,0.9293491452966842,-2.111456891957393,0.355348264153638,0.12813202960053321,0.6193661049745235,0.39705055567806663,0.2827226094644048,-0.08638222193878438,-0.07088777231200331,-0.1659914592492424,-0.1469066550280736,0.2372471697103329
-34.88017240386888,-0.8649720724399074,-1.3727320063697241,-1.6525475773681824,0.5601100189149797,-0.3913753331954215,-42.91082584581684,-43.10967750099172,8.037427912339638,22.3620750135997,-1.7664270912790485,-4.038923147391752,-23.712294352476455,56.75484886723303,-13.01985823757289,-0.05251646541114962,-0.21353880890731305,-0.15566160021651682,12.659503516593126,9.245031939282836,-9.022296496316473,-6.192747054083707,2.3121266173130084,3.424563232367859,6.763819072363115,2.93650310266771,1.69741743318139,4.245439134036149,-0.016136404890391004,3.635230523994767,0.9358910687500737,-1.4965526604522923,0.2864737206089938,0.2394483269333109,-0.3542357246207025,-0.028853741586306977,0.1376102261124245,-0.0022038313263877812,0.015956103161418544,0.21345466224810888,0.13505848240914536,-0.10451620473537881
-32.66600828682747,3.6687803334037605,-1.7712901663902951,-4.800954625341896,0.5541089701497434,0.15033404545175544,-40.82327557533692,-35.51853170610355,4.6375606331731944,13.68256555995476,-0.7251776066869622,1.7030162519333196,-23.845141065091774,58.73976510728795,-13.348457208620843,0.05465909046907883,-0.10479034094553244,-0.16015311147281117,4.097798674911204,24.111033969738717,-2.0449434407138507,-27.562665068898585,-4.356848057380437,1.413212395321361,8.680468367783632,-0.1867271910499464,-0.6977694604616062,2.263082710683094,-2.1335244059524388,-1.4489867397744092,0.8071061443286048,-2.1977617676978074,0.4674063603030134,0.03513511214769801,0.687225835411,-0.37145926486528624,0.08343971166376238,-0.21705399768957426,0.0921981258961842,-0.15988302770773097,0.02703783337508476,-0.06884054983826077
-25.982273718886912,5.881129426251628,-2.1624188103661695,-0.750271301968536,-0.8622223773717673,0.47865088548333784,-36.19408514038613,-27.363735316277502,5.028965675857093,35.091117186465574,-10.320083907979065,-0.10904018409875718,-24.70908581607752,61.0652348028125,-14.206633401028501,-0.13316380197003008,-0.20145943439770914,0.1076698904842619,34.24147610348773,16.742389470255624,-10.839913164697476,-15.637967781451065,-36.225072941878906,6.382028593859505,9.60256726696786,2.338882059064809,0.6421426478432773,10.338879431824958,-2.4454022482578015,7.014440433050888,1.1926281287429,-2.2643813631262644,0.0811781943883406,-1.5887332482421144,-1.429279886002688,-0.009368602985632975,0.32347351354979476,-0.10198441853742794,-0.09847495746275592,-0.36494358855354636,-0.42222740097775674,0.11924397295150721
-20.891884280376058,10.525270036004072,-2.9867052134671894,-8.20827068309421,-1.6191304365045482,0.19258321119913982,-24.49014418808199,-31.218118662545827,6.961059851689053,5.522654669817079,-8.636425454623904,-5.097400835830614,-26.287707926609972,65.95952368495239,-15.617969323267491,-0.2956185017421858,-0.3251598613451428,-0.1560533499574718,6.888417766783588,13.095393815046423,-6.418455590748887,-14.004460790266666,-20.118657555269806,5.727109225033438,9.644345711311082,0.9333949434721779,0.07803280560372491,5.330448069571321,-2.364349330742133,0.8216059472188948,2.2097884696176697,-2.8869063674014637,-0.22996601252272272,-0.7008251737437419,0.8947230215721478,0.4701051409806732,0.23984200254913235,-0.2743511768348501,0.08797494897456128,-0.3081997431839337,-0.051074703681205064,0.3402293532081427
-18.091834197745325,16.8886443135927,-3.7329757928720473,3.3806157269541024,-3.428836760777595,0.21203628072629174,-19.01257755617326,-23.105488241928935,8.261180753208977,28.44497524437688,-7.67320511811689,-1.6841005326568104,-29.54911505272693,75.66932261048518,-18.18417279272844,0.7206263952808195,-0.3558277929733063,0.12273730362756365,48.17236342721011,13.370166227601093,1.7899827299976947,-29.9841306265534,41.365424570738,18.770878165340164,10.70211030840157,3.4416847117059097,0.2703606179279537,4.291860582969491,-1.2138732621610429,-1.9941104513828767,1.591380604317682,-1.7559230556578225,-0.40170051712110355,3.5915145145321308,1.2114275712555835,-0.1881114516287208,0.40572043685090964,0.11513731721073986,-0.19107748010146836,0.9128629157601084,0.3226844634256625,-0.3629111256902333
-14.623396344506332,23.156224756065967,-6.025545655998205,-4.58461128395567,-4.999737352331693,0.5211568475669175,-10.280006289697667,-6.577803833507048,-0.5099693840962363,15.401425865843432,-15.846566403026296,-3.560495641286387,-35.82216233675686,87.42907494533769,-21.86346189347548,-1.9664483420286285,-0.49420148604048114,-0.3689083899742264,35.57922737561447,44.02203404311681,-22.803351772872354,-12.89871672004309,-34.515014220185776,-15.40244733539897,13.082708168695536,2.6588086158581548,-2.735845926826563,7.356878257303057,-2.614767514967972,-4.110091005425141,1.8430559665056412,-1.2974730254957765,-0.46189521210657863,0.780712120704594,3.242087420438745,-0.9499894015889621,0.42640306900234964,-0.10470085430441298,-0.010111377975312733,-0.047479229603060544,0.14226102641499855,0.009780134360438869
-8.13516178864308,30.299389085761312,-7.546762930225224,-8.360369993930126,-1.30664283634172,-0.4794814330834996,0.9361504779001191,-15.513753706908732,2.9956365246833263,-38.499391388704026,4.477836536248341,-0.5622000299697153,-43.131532234516804,96.55126691538199,-24.744914423289796,-7.8886853654848155,1.6952058510428323,-0.8857522636613375,-29.049109631738133,42.53914768441432,-0.504815416361224,6.328239698898402,-65.04448695909201,-9.745030077078646,12.364379399834291,4.821840334210986,1.7266434116142007,1.3790638952533225,-0.28992937963104837,-0.649664715694366,1.7030526991975585,-2.478131896687379,-0.8648115567084284,0.7944475766252609,0.8948357945503991,0.29890837040307844,0.3790457128189844,0.09343983486929584,-0.20130273817798797,0.05166915030929761,0.08107378261377803,0.05040313291938895
12.944015782511107,30.911536434302285,-9.83018636071244,-6.654516857367818,-3.4018789506867844,0.3932576051716505,72.18481888287928,-18.96262831564767,4.716274312331723,-63.944125364395255,3.5344538790822893,-3.7653921572569637,-46.973604422272615,94.05236972147637,-25.129723475463983,-17.004340851474655,4.412958192118768,-0.7541880749573693,32.22544733184011,6.20329599725007,15.448488360155046,2.692365102682096,-20.762748355803154,-7.246341957954308,13.58143228038573,1.0208931486720942,-5.783690038510919,5.5215680863925085,-3.4656462716873397,-5.75923913522808,1.339722201970182,-2.2182778516482933,-1.423566150898754,1.3276467564749241,3.0702830756356843,-1.5679971332768503,0.44219760462948415,-0.24656377260019186,-0.32728114564367006,0.0424277370382669,0.12661236420864874,-0.2308793805288541
25.552536970348527,21.6421379815362,-7.713800341143842,17.340610160907953,-5.341026849860373,1.5288925413426615,92.16879277302833,-2.99301053098988,-3.1037027449544277,-69.99821091896693,17.74840113346832,9.751970947671088,-38.89220520511643,75.29393692649255,-20.33956217460373,-34.544774126204466,9.798580995880966,-0.4024353435499768,18.77083761528401,47.64899304312762,27.665407482143436,-8.905025532261707,0.7200635644496788,-24.027035061109267,10.518597585770221,2.617084434716624,-2.5467632006134084,1.4609972594754768,-1.2741236982475497,-5.075257679387316,-1.8324300426054243,-1.2736821349818261,1.4281253098551974,2.765191760221551,3.456225565928315,-0.9848911910841055,-0.11669745827057623,-0.04822350759977093,0.06934724954930759,0.08498455537475803,0.6493642436017726,-0.49168417118745705
43.28920687017453,15.980802441253344,-10.037298242196876,39.98454768076853,6.3088131620469525,1.8505736867341436,101.90597522409814,2.465538173079846,-0.94468355044365,-40.1580302224369,24.098669682377878,2.552412037598771,-19.134704424396386,42.046897325610495,-10.206321407506685,-58.00081495696539,17.878373880727185,1.4477554754581825,50.0923970544363,4.007299957301903,9.938125537718623,-15.963641837011187,-50.03390977241329,-38.032299606136164,8.81720354825312,-0.6237774800904494,-5.874068437195729,-0.148974596548016,-1.482618435201784,-5.282306139818982,-2.2387164751874593,-2.6834937049943095,1.5727854810894373,3.512401324631352,3.399875898038642,-0.42361154988399113,-0.1303870174925173,-0.4008723600073515,0.15824439831547074,0.16852502638542743,0.35752566864948077,-0.19358626877404683
39.297498951093004,18.15464622527411,-21.802821081045046,54.8687882382164,18.358827554675425,3.980696347518542,120.37096289865582,54.48365573319505,-13.505690165838722,-60.89017675978722,54.9167816349702,12.088122626520583,-0.792979727745759,16.51652861264052,-3.932409087727578,-76.1690680603227,23.05757588383759,3.2600501777212663,28.46950675792053,37.96826422812549,15.332715724867432,-11.232096537406397,35.391698272773056,4.068881762849153,6.908286921797346,1.8579198630070033,0.44464799176214853,4.406547270479189,-1.508981223626175,-3.019137084969866,-1.5861231324409082,-1.0240884156259953,1.1829799781565657,6.035094185643239,3.0240147395736074,-0.0939286544498731,-0.2481948201808034,-0.03259855397424774,0.20661042144675373,0.9130871348028154,0.485681505449345,-0.393347107199386
2.974320090465368,7.700068891960932,-11.85400320515791,70.65048279533447,38.991533430560544,5.542529869776299,68.2857741796291,27.659160250966103,-2.44125836179788,-34.72149174431102,70.01312921944034,11.988321152527948,1.1075843602623507,-0.20591112657538982,-0.9084167500529448,-89.62343542661603,25.998492260331172,5.320608077352404,-15.66682747451717,5.998677233752844,5.449320590020689,14.511352647323951,-14.423845890444317,2.0447278886392857,-1.135398800958256,-0.3431784089377684,3.2670299649356602,-0.28389669100623294,-0.16239500808999086,-0.9225820519727651,-2.425254781406731,-0.8074399178903697,2.382871240461038,2.964799043489657,1.2420886289521,1.1899515515174761,-0.575302091974349,-0.14168989789206143,0.4916885797955945,0.283243434889637,0.10954435394406159,0.2165840405976755
-3.0094945897055427,8.703373723502734,-9.701761335990582,72.172413167825,51.19783692103506,7.741594784056617,51.00316342627998,3.0720628631445157,5.782905414681893,-18.39290671270657,69.08898987244723,4.789651700483756,2.078996851123457,-0.47849036647468535,0.20100359133607032,-92.77634047744233,28.299326877853993,7.367029363664282,-11.0446034897335,-42.084878144934954,2.8628294753797103,13.961319436744022,53.773241176991135,-30.38647318868863,-1.1113506269932494,-0.18650930505938945,-6.38947085651407,0.651604706706794,-5.0133387018115085,-5.660825381910203,-0.08208403425459879,0.2909533872962332,0.571841805348733,4.757255986114869,2.344790187120816,-2.6739970298702755,0.1099450844033895,-0.02800708203848319,-0.058190806162165265,0.4334805447146876,0.40605341288346425,-0.7029071452324709
-12.575272503708774,12.229183874928514,-7.525602657101426,64.64790316719444,58.18177737808897,8.449631307850973,48.43742504933344,13.413946889637131,5.38550934834341,-25.562443496342574,74.46546203862904,7.864409936446071,1.4552792124391531,1.3767899619062396,0.419857095348079,-86.70056212452266,25.745998853687762,8.01709814938621,-32.236880635159835,-32.003508090713254,4.585443818614603,19.250077870295247,-17.62222981681973,16.674516257883255,-0.2580923173529992,-0.31061393483371047,0.5661876134943419,4.541621030658644,0.1814861186460507,2.0727165510512915,-0.7844455348844648,-0.33768357150776496,0.15356002812479694,3.640297687846213,-0.5127030379297624,1.7904374387648745,-0.35504504962511363,-0.015755691649058844,0.19254428532746276,0.43249208995560656,-0.21260959568958984,0.21912915814239156
-17.433581077915296,15.736223405605624,-11.237755753037185,50.60572085317028,55.10876629515148,7.445323386654757,16.045378161036485,21.809689499846698,10.500862678872013,26.48861747517382,75.10909654504343,12.734616526837243,0.48499539380372453,0.9832726905951119,0.02272540023293004,-75.33723299537587,20.353635239701553,7.306550619053004,16.729337809087934,1.7403931030943456,-17.251940948281998,7.864653005216436,58.60374112825228,-2.8271366845095813,4.508888901496412,-2.281350803752061,-1.964504658516503,9.169378566488675,-9.999912365304962,1.4388338193103096,0.07479650906806963,-2.7018959803558995,-1.6037906614301691,5.107432477657342,-0.17694537262321605,-1.5934965139669885,0.34249309376725673,-0.5679208885805737,-0.26273443936186547,0.7029839463456249,-0.028173650551841983,-0.42319967366924544
-10.237861800521967,3.975247554227662,-0.858421073124034,34.78274744491892,47.897208873160345,5.4273648905311065,50.14494678806456,6.659056674104017,18.406639085395437,-21.969527225799375,72.68934337026845,9.59734822537157,1.3764075983745083,-0.649649147159416,-0.25694491341282333,-65.18847290048028,14.818166158860972,6.338187618746197,10.320446222020179,3.7143856187192537,17.305645003787617,-12.095273511099625,-33.1643677997215,16.839532315871278,1.4107620520414794,-0.5717861876181894,1.8574070599865182,5.652781329219274,-10.076521326495655,1.9785967578654977,-1.9102362933792691,-0.8090916067519948,0.8699190997907268,3.085449617051265,-1.1874477759811997,-0.9119302463735683,-0.35849716575346274,-0.09270678707661828,0.11133380638561903,0.24263987793543784,-0.2985916475701723,0.05579899549109917
-14.820609370019875,7.360222249569807,-3.1188164546997665,29.162373434192265,40.44680342849809,4.194362692525533,11.665176586656944,6.702063148412623,30.234513194424448,13.429346400951141,56.16938279174089,6.975636813693005,1.7770322289602323,-0.9125031538801253,-0.2522676657617926,-55.65817996694142,10.811141340143495,5.08085916999917,2.036175966184321,15.735382612796178,-4.1557114074397035,15.89691557326153,32.36954861427787,12.053634834507243,2.52578347695451,-1.913065166546879,3.3516910971887515,-6.2984357284745345,-20.236376666879487,-5.241573863206985,-0.3810508383055989,-1.8463445148795643,-0.9557281927196855,1.5454682199272496,-0.3398144282958759,-8.677693176206159,0.0898643962112472,-0.1989623983244987,-0.010626146751346209,0.23097627543881113,0.037635675406146527,-0.6159091011536463
-7.978879243804121,4.636944172388175,-0.48297226418611305,24.212268134268783,32.14817929430156,4.0994323883487604,33.092218481897774,5.158028672581803,-21.951866151486517,-7.416038310775097,35.78185003595391,6.033173967161357,1.7961735895674265,0.35514745540604553,0.22252291389466353,-48.93249959100168,9.711385438485275,4.483343895696559,6.014765524825756,-29.509859540114977,-53.81447860600171,21.163152032100715,-23.430032503454825,14.816176496143163,6.008882411037905,-2.071309808411655,3.5589980389826787,-2.772132415968058,-15.469635441609395,-3.3774382995570082,0.19234711513355018,-2.085442965533746,-2.2018734065359893,4.875448579463788,-3.3676528266306436,-5.7411229347183905,0.14712788229463356,-0.26176773841477874,-0.21572237896564656,0.7188960869021483,-0.19092149135585723,-1.3608892483707966
-2.047766178294174,-0.0004993048958145119,0.8537076669576183,25.89336597081176,30.963692004042958,2.7021069973494867,1.8543442973868964,4.965713440479903,2.340654463615213,-5.615122343134171,53.582684099061254,6.481050485070271,3.1221896514235223,-0.44792173839727384,0.42182711472203166,-46.45428769700361,9.010838099761347,4.005460340545536,-20.34965631377777,32.445182600132554,-11.63528305157644,43.7766337397384,-17.620903053691766,-2.2057375836338515,5.6602829474639,-1.2938841722577132,0.11033588229253294,-8.361641631774113,-14.141361017134358,-8.28933353616151,-0.5164954228733645,-1.1307417499245922,0.15393480581461363,2.8349461521898593,-4.2457789900308285,-7.775321252425951,-0.03482593491210097,-0.03319625445459411,0.2457082361356822,0.7816618204082716,-0.5537294404395826,-1.1000580624382437
6.143976438743138,-0.10352234980891417,-0.4678583508935759,30.235431621025995,24.55536396485539,5.1413310847788205,-57.11218448370076,-8.987398435135361,-24.73634298889893,4.783971177601682,0.7331385747448779,2.6126854678249445,2.1811645628347445,-0.20830065306693907,-0.03688244376556066,-45.8880925234987,8.880592062636481,3.468513107123634,-56.329862632818816,-26.59618548920063,-16.97791087960736,98.01325450871755,-0.43356823992562044,17.609178298001407,5.365719342646986,-3.032171682460946,4.5864857424823455,-11.45008028545966,-10.496575160767337,-10.266864594149723,0.19549132978165656,-2.8938689935664064,-3.3758921049703723,3.2265662508687702,-7.120908274091365,-3.3090745462775297,0.0024854795170602823,-0.5465353085228726,-0.38190681678239397,0.8082509694467792,-1.3937826096883812,-0.6318174837445953
9.813852072813159,-0.3546640777010331,0.2438614427685962,39.99799754972375,31.178705432938283,3.5610858604299387,-89.68907845079806,2.764536292702555,-33.906180209698405,-7.383471444183499,7.156465093107646,2.752709194360647,0.482127999172671,0.3418303635275657,0.6065097065710935,-43.78953334435402,7.698034857961486,3.1549397179662115,-105.2532050556912,2.7777777514444386,12.564345452517445,168.87236911073296,-34.27827146576985,31.503240441718024,11.627142839230483,-2.685597948637293,2.741026077586718,-6.2693827058793685,0.8699946033336114,-8.63821660838351,1.8558991782592105,-2.2717065630469517,-3.3263448855486,1.8708297139604242,-3.796134838127522,1.3231823209946791,0.444698362684638,-0.06431157489394951,-0.1850534570579235,0.4410276626423462,-1.3030549458183573,-0.01298797254186499
-24.56762294833029,-3.176607049032275,-6.852822032348261,50.965141470280905,20.918482269499908,6.217498119392128,-143.81961038619403,-2.5472145793384415,-60.76479198853851,-12.46478008350202,-17.68806215981203,0.864427465933738,0.5890662331115216,0.3428148789649824,-0.1962240316224456,-38.00123967086933,7.864315531772426,2.7039979103574288,-182.9533377054171,-25.22494808186952,-22.81970289338279,154.65056957971387,33.050585432906686,-44.5335620446597,10.393235565213072,-3.7098160185589615,-3.680116410862449,-7.218781022520049,16.315170002389547,-18.631366706002186,-1.3911761877915483,-2.9716009527135547,-1.123125398395633,0.14205100921316036,1.9695046413872914,0.17896462036987823,0.03780370552932747,-0.34278125081671584,-0.09564894277415117,-0.026248649591216297,-0.7788720501091948,0.34717397363852415
-138.44113110076572,-0.43583475627064594,-6.4426388850781,62.32162758539664,11.723999317330406,8.733334412464268,-158.27919340630098,-21.73467925303186,30.276259670897254,46.70361190086511,-9.00202604806301,7.7462145384773455,-7.691168695251562,-1.6215150157766407,-0.1324366326301541,-31.705063999999492,7.08347118579728,2.419179339954803,-169.2057481362957,-36.92838677609235,-19.471798466910638,124.85713568793027,29.11336173274078,20.91131548394594,9.360926886557408,-2.2584944927480444,-1.7565971335423503,7.001713841335878,8.781027553251118,3.962663356968648,-0.16824226299889744,-2.131843435284782,-1.4883830012380799,2.7331401650661697,3.5921480038047062,4.587970509202524,0.10522313623957126,-0.39765703710484723,-0.21300802500060695,0.09930680751193466,0.30429987131651043,0.7656613349723154
-6.405900768412176,-0.6442895203901446,-2.3582010381903538,86.51582088156022,12.170929301823701,9.155724544635158,66.54549833631377,3.642539573966243,20.132145013174952,118.44460772153646,6.4608079156808715,7.642070126409479,0.5182844524705563,0.5522085409610565,0.21414817864308477,-23.464273395241424,5.970591153485498,2.562695050436386,166.84601153511173,-34.48684085055425,-22.432922356299773,34.02554775046759,40.502621054367424,-23.77795325475859,13.676817296430876,0.19946450335427574,-7.049244748738685,5.2027302426725255,13.47891385611877,-1.8756275089112866,0.343260069026034,0.26227031347160645,-0.27180013585379686,1.9346817367488218,5.099327918064188,3.0519883697454246,0.4351539617766114,0.4270914114794277,-0.186630926037703,-0.08377248506046243,0.5809242990085154,0.883898741396858
-8.264276222289322,-1.054877313134351,-1.8728978919784494,96.67934118950588,17.11137662090037,7.866772591763577,4.555349999106198,-5.418286269992667,8.114728607514003,84.76109185891646,25.128668874195238,7.545934561903022,0.568177401740236,-0.22592458934069506,0.15265628905343143,-15.184282683037434,6.509544191281344,2.6001534456026634,37.36447694638893,-5.262581771587781,-1.0179395606474506,8.548669842726193,19.27807228732513,21.04472561599525,8.91831030264631,-0.9554710659409028,-1.5256094523424897,13.78808504401415,1.0917254522734001,14.857629627668835,-2.495705927742267,-1.395633948817757,1.61905044334452,3.957162384011933,2.829187132763003,5.45208659334125,-0.21397009795137883,-0.16796883167584448,0.21240973285060802,0.5213256783489155,0.5285096957744146,0.3147479522533666
0.7072512488076114,-1.4561472853326312,-7.356405286512721,118.98362809841234,14.741502367043074,11.69026161889379,2.342489951242387,19.90101885789752,-56.258839226390904,122.69808226003366,3.4039375513385233,7.784897591012424,1.2370157717108448,-0.032442442186966514,0.43614657331984047,-9.182443786671316,9.579402558348745,4.147616483831255,86.20498995551301,-13.398258718902476,-89.28226775956672,14.922265975719764,54.960027146176145,4.096821224158666,3.4723993257730705,0.38379340928773514,-7.701460946411773,8.47934602693515,-0.8927674376406383,13.90849810580149,-1.228470322261825,0.30011909900789585,0.7701276274647255,2.7153755368294035,0.5782085987347856,7.6014119179149775,-0.04223176666589241,0.01725598953279902,-0.16106944385189362,-0.16204701189786008,0.19651870100479543,1.0747335910053282
-12.330720176546155,-1.517009427737669,-8.626779104235831,122.94159096956764,22.790392191741905,11.85993248813209,38.39170436351033,7.127004702326946,-21.8278242607458,108.33708501720258,15.840889456775361,13.714360507606163,0.18054501814338825,0.526240103014274,-0.3051061008053687,-11.384830365208668,14.666408070221959,5.38007569981888,121.36729871631888,-40.440531352648776,-45.82498452061605,-11.576442585729012,-18.359568540864412,30.496495503548047,7.758924864264678,-2.5475596576761634,3.2090420056394215,4.762746189399326,-6.433422769509411,12.569200079731946,-0.8143976740728278,-3.178883365216735,-1.2156732616630512,2.036768453255382,-2.123248910644682,6.791845687848702,-0.03321420690090049,-0.5139102033028206,-0.005514165718271721,0.024498397581734156,-0.019124520574512013,1.0955658386206393
-35.845517986304145,-3.072819690046183,-15.636478408411916,110.11115314970401,29.612467697251,10.388409252661276,-11.156867561642947,-0.07091624750951792,-5.594079701262761,152.98273011318713,28.32954410246945,9.251824448214974,-2.0481102833612845,0.7643308459309075,-1.519249071767053,-17.961748866653384,17.30980555824004,6.111872811314174,137.2910784477683,-21.519208899207754,-20.737886510399388,-1.176626759730828,-9.665449235840443,13.049810931728395,9.317448343132087,-0.6664926432110719,-1.6190097345269692,1.8640235800743141,-18.98603903204849,18.234406901068766,-1.4482077491300749,-0.9690952809981084,0.14950948066944733,0.6978697311114865,-6.933499848384055,8.014991362985782,0.1993177148591463,0.18562256160152105,-0.2204752788046298,-0.44421750336087135,-0.7394820302031999,1.3842338514949
-47.76927467892683,-3.0659921969874784,-7.21634189668107,79.85209478225141,34.15708900778916,8.45522501647141,-49.007886768951785,-6.472074623493515,-13.255373908584557,131.16006355022722,31.499425196301075,6.574053710080955,-3.811879332044407,0.5088840594000392,-0.7350435164080882,-27.669165460225912,17.731852999974855,6.097604179400345,68.15588280894934,-19.97022863736179,-41.49988973535142,-68.40442937437165,52.891940637494436,26.615226926008514,6.685026671106247,-3.2360952223655968,0.9039831401778259,6.50816835324635,-12.409066940047728,12.920584614655533,-2.2346372150726186,-3.3776322382783595,0.7051484876641838,1.3399931281830855,-5.775723573496339,6.39195614902435,-0.32057066825074876,-0.5953385721968466,0.39099596640036605,-0.3957750581018539,-0.7267161321456975,0.9802425036583142
-44.946466035470095,-2.836913051951575,-4.678352750702215,55.657593725540714,24.0431535713295,9.312529605488788,-55.36257083900243,-1.9438918439832786,-27.49438691841001,120.03677535583655,8.81694204462118,13.296837684926015,-0.9845863297875889,-0.2469738568529153,-0.05922789887676111,-33.589045200812514,15.110130966117714,5.64215396326635,60.9278133217869,-43.565370127380405,-61.66941611545086,7.7947504477316,6.931143205862509,25.71961955234902,7.475878243404601,-1.2585589134498492,2.8275209299367217,1.7802704535522742,-18.500311939017674,12.534673196985278,-0.09799557241558554,-1.9561614723740133,-1.0152619535718597,1.1448673083739669,-6.707664838410951,5.434408722805741,0.1679902998769782,-0.2884527858611399,-0.14069400058049872,-0.2725915721543057,-0.6182826100199764,0.8653759904830148
-27.308602483821122,10.743430364236499,12.460091924703692,33.276545542765774,22.372964294161292,7.337159609091382,-23.911096951160758,8.28435953063573,29.313258757527713,76.84867837086723,38.384714283504316,10.788309543345429,0.6941381063585101,-0.23253345128295452,1.7422007297347393,-40.135740044249616,11.750771435451181,4.697326597633417,45.56213277737509,27.595910657553837,22.756183817916863,21.08813532419433,-34.58236231919025,15.797261371186291,7.596387794505561,-0.8117165246920371,1.6718927533372074,5.089820551945437,-11.336890646191508,6.295440648798628,-1.5109289235238286,-1.3219667862743543,-0.28236750949410355,2.190736602874403,-5.713520855788552,2.7503017099570775,-0.08688474386584759,0.15076376545526904,-0.08733361548133295,-0.008854070318177901,-1.0048370974651888,0.30299754620318115
-15.39615852568817,-1.273834010560924,-2.0285953232404563,19.015029045175627,16.722102882050997,6.525650886910197,-29.706346377824918,7.233635377603029,-0.6424681176984974,49.85465154464498,20.958265605695242,9.199295222619496,1.9943438131986393,-0.4390527816309024,-1.1831485477912438,-44.9802779698087,6.942000327701728,3.294870653348932,4.647688900408102,-2.813938386457915,-8.02640963085535,-88.50846483234261,47.99105291250029,24.682770222527402,6.671568598613337,-0.6361563643940773,-1.2240395113249298,8.192201438323561,-12.743809998061325,8.760577261551592,-0.21081503687638842,-0.7392407315662459,0.31889337964360837,2.3358631978423148,-4.469491163929478,3.6870142438696596,0.014915384393366564,-0.13170210578213198,0.13173035415509587,-0.08937144172035996,-0.5794545661996889,0.5928844573513716
-16.39390661031251,13.888420667829882,4.3135685306871405,16.640236228598045,22.003167201008758,5.483233094796772,-0.3150835541463315,9.876103981852438,22.617519981076267,63.17476568657974,60.67642284716653,10.680232972493743,1.9449105780737428,-0.3659170867326119,0.9429224421208993,-46.82904170944634,4.07982226152609,2.4875862172319643,52.899656335197264,26.709289717196665,8.47573852420979,-7.655072155514604,-16.029390108721273,-27.951017605210925,8.426738645348724,-1.0841466036842393,-1.3998617595704985,-8.657285618061653,-6.54441562546631,-4.748618771337249,-3.144671139790786,-1.0567275257499122,1.5100397362628053,1.1626381147500313,-5.965459589849747,-0.17472065255677283,-0.2106540632037725,0.04494771073811038,-0.019010884046602772,-0.036353707970365634,-1.2996671324205362,-0.039817398207197
-10.831212477256372,13.38624416148211,-0.862303337359214,16.346584375792535,12.707949123798333,6.561447608797686,6.762935014393551,6.087956543259077,4.419760573013907,41.300924653770224,14.908254111992402,8.753368095115718,1.9691873722842337,-0.13854678430888745,0.4351121488304841,-39.19236169533364,3.366051034355715,2.519350760651069,44.153365055727086,-18.311214295875757,-3.4290670749399617,6.73455951219872,15.645761747130846,9.810215510837095,2.681078673483475,-0.7264409278663787,3.136132833781648,4.323561307427113,-1.8656621844575472,3.3771770927564866,-0.08428164299890338,-1.40879683196591,-0.3629362805609782,2.391368593217469,-1.8060288666580542,2.7238882719166932,-0.05799146087910194,-0.10012198495314718,0.15836839218632195,0.12058294069088124,-0.3818674428605019,0.3580588394433756
-14.66079316430056,5.646287023508349,-1.294018873693678,37.66170650723457,32.00381603983353,6.846573083723724,15.805071526890158,4.91760357981555,17.040777571127578,38.42713071650684,54.591562276121856,5.7066712880278665,1.2651586603695537,-1.0086551552039158,0.03226992829008868,-20.809008578622255,3.6844395893118116,3.805394396416947,37.138805899392246,-32.956263757739016,-14.49024105370201,14.348100978632024,-37.17361457404068,-8.956193468147058,7.171300454560638,-0.9275029226038112,-1.3197275195716496,-3.305694319293308,-7.650705333263691,-3.927946849284716,-0.6120373273490904,-1.4726070868960617,0.4485592486210325,3.8238327149547144,-3.4866736451429294,0.06616296479947818,0.14656864673199643,-0.2842173965586714,0.023865144340126324,0.5966134674254078,-0.7132296848636344,-0.20361286138634124
-2.8496063736636468,22.744699813652016,-15.64961717415888,58.05349758378408,39.4133860582677,7.461658250192212,96.44418987448793,24.020433160976054,21.611847987897587,-17.96930823443705,68.30062197220236,7.085619530297548,2.426866246409614,0.17093141964393016,0.03923245802773785,1.8660636805035518,6.683281790413406,4.34034856252428,52.631933987192284,-17.455755039902183,27.43323742042949,-15.10949363104972,33.932169838095284,-8.037294335251095,5.799854865331315,-1.5117125559225966,-0.7185431275385805,4.633626598214063,-9.604946439037935,-2.234311648473804,-0.7681076017087878,-2.029408409082634,0.12270805517005876,4.816871202570976,-4.900916254719568,-1.0903438503353362,-0.022813154733517433,-0.19521667354789704,0.10727927757340482,0.7001359766010968,-1.041428779620854,-0.527405731205602
9.894763607330892,9.911954783671607,-9.256683031410002,82.76470871165323,51.17040374365958,7.218396493640538,50.44531845389593,21.38184155618881,8.31008372535445,-23.32570813559856,91.41863438638552,6.456680084566238,3.9160895165994623,0.5741132679055764,1.5862019642438387,19.72241562188787,8.431356123022425,4.265274409525351,-14.484332201421934,13.828027441620252,12.41626508359959,1.6346727318078673,-12.267185158598078,-13.73778313551629,6.757920001935728,-1.0553509425775658,0.851968720901603,-9.113200414286633,-4.276744633262804,-9.320196063642841,-1.0019070032126616,-2.6414212434005875,-0.2888561075763386,2.855384553004041,-2.1095204586310516,-1.4152760648814613,-0.06768043526492445,-0.42557883269696417,-0.029050807705485914,0.4860429493639544,-0.3980626025672343,-0.12740817435282698
21.28499704286087,10.526945634008696,-15.44233655557225,83.08564131590074,49.75014028791715,5.392194675635413,89.80426770476394,30.408794184325934,8.23084642030478,-19.31256054618413,88.52207046551884,0.7709313933047315,5.4774700246811125,0.6714922143586632,1.8581730733584678,32.073529464233424,10.088043063079896,3.364017305581203,23.43255889090375,1.3186264150370282,0.5174654881888743,-2.93294645507512,20.70951229815986,-20.939829044198294,5.680207351691927,-1.4991781542328457,-3.0906294882359133,1.0473608575917983,-9.826237392625952,-8.541362316980514,-0.9839850848511289,-1.8305665559714543,0.6312727804830587,5.812706354976561,-1.4613700549370525,-2.9991590725967323,0.022578443723578156,-0.20604346376174704,0.06471338116514594,1.2526533290084576,-0.19683747436753715,-0.5416903868803012
10.20179562269299,4.769011502340109,-8.425491386824271,65.4982742388051,45.79967410023512,3.2679600500874764,108.5241652895398,-30.42882884735129,9.57472877640793,-33.451118453594304,93.78864349635612,5.270270185658785,2.290204745064323,0.08343925533879873,0.36396848535056286,33.42613640716578,10.481535439717875,1.79754178374422,44.39853181552456,-51.39408726962851,35.04139747045816,37.02214833935553,-20.607064805749573,-24.62009156178958,3.2919362786385196,-0.40678368263378595,0.6866617883787066,-3.8145663913319128,-2.9169743177285827,-7.309137358144651,-0.25096255359604314,-1.5915961224435948,-0.31822190908246556,3.0326507319827876,-0.4710557116193923,-2.0208396856811364,-0.014859039328651541,-0.25879181953183766,-0.011084984505081398,0.20846846468430102,0.15106108222711076,-0.5977377943790325
25.637937714253322,10.782724523282726,-18.086429253022715,40.909254937484924,40.172824817493314,0.6677766692744647,108.15018196842846,59.10317153955761,-1.521828454817348,-53.420001043529254,83.29006018730217,2.6602242460424987,3.403070776556043,1.2984709696963526,0.7908888989045045,27.965516616594687,9.675937490535015,0.13733828938954395,24.922566160533727,93.09628305358186,21.476330879001576,7.193912717604339,3.77990287246847,-12.822726076374796,8.491280194187866,-0.4585416538439326,-3.207937128506064,-5.093746522692809,-2.8795786372307726,-8.31681549477856,0.11823323394968438,-1.6536932745048338,0.028761260712213563,1.754638010620812,0.4654751905427995,-2.531056781935892,0.0723735139870313,-0.2107247212762157,0.12087318535628379,0.5133701345169389,0.11209643887229973,-0.505825286562455
9.243494004806816,-4.119578190534779,-0.30964979737880005,13.866398397036349,25.951006619879557,-1.5208998838651353,90.74948984169104,-42.29539433579227,11.477984326730038,-71.17789227140379,38.0568501154205,-4.786880785221174,-0.3540950265569113,-0.09934221831388486,-0.31771606043266815,17.307233941209258,7.23608211481737,-1.6063894016562128,-0.744606351455285,-82.02771097132711,30.31922686323171,-32.18801787606326,21.044829543929826,-17.32085768856749,7.392998260698469,0.6793050472335053,-2.567197567627704,0.05712040826761838,-5.454880179096513,-8.927452349466861,-0.5432102424247218,-0.44556781116877314,0.062170570596102086,1.7658910725417678,2.1573377098642417,-3.3257946006148837,0.10223949379347602,0.22313972338303725,-0.2564839714145724,0.16105010280855508,0.3685463129537338,-0.26059064691069606
12.792562300534811,1.1539314310581705,-3.100377869677459,-7.337371669016785,23.853402165483608,-2.9797241668953416,62.21886345986777,5.905314330654651,-2.028553970093775,-91.13783483037608,60.61966662651052,-1.1048087184159592,-8.916118178124812,13.231678382892456,-3.719844273001866,5.208272135024867,4.923630370460417,-2.574357857698687,-61.1234520166297,37.823547773878566,11.372530169785684,60.1268508351137,-13.981155757773024,-16.160469303459926,3.852079172236014,-0.23934726399428752,-0.20614649325536283,-2.3036257696677485,-2.8025616385220897,-8.075192546642642,0.6441864378058015,-1.6311078414440165,-0.7266634327086366,0.7995795388257926,2.2569551493672297,-2.8697622866680086,0.2423326226843891,-0.371015363048205,-0.11504020483372508,0.025566570174797788,0.5013513483021024,-0.4421019572437662
23.36079220984229,-2.9726649532832683,0.24110261647149944,-18.306421972919168,11.747071697060333,-3.635545316820263,69.71770723025786,-35.48763777127326,6.958144598293658,-64.68927516965421,25.75264368040051,-3.0207649644239085,-20.545557407031485,39.67432894246204,-9.07951012512252,-3.7634010718859408,3.0348970045301797,-3.3418903212810327,12.925954021652526,-18.618220108478155,19.63481970809616,4.5373775476399825,-15.989046843034233,-3.433554211777565,7.207504995830988,0.2031820886617355,0.3854550518915474,0.12319332802232177,0.2908197485602312,0.33188005424783446,-0.10555666781224518,-2.3551267379186807,0.17767662469091966,0.15446382103153958,0.10184488499191317,0.1230990424364439,0.029513012186056377,-0.07197318375039549,0.060851520946642215,0.04595821262229616,0.17633653539716873,-0.10465193019373842
10.682459895479333,14.007221570000388,-3.067920183563591,-26.989212324784436,8.643212879699941,-3.3849914262111525,37.231664119392555,-20.040642275836436,3.8782324363974277,-71.56858156467017,26.960460338144035,0.23631670867963556,-34.2183764903285,73.7452272803485,-17.02503098198637,-9.357866670078002,2.3758720084293623,-3.176412353969394,-22.22939669134526,30.138640290261144,12.83761193540588,13.6109005537934,-32.23630652685492,-33.682144286544585,5.627912261254249,0.29859255280648495,-2.3498158483112874,-1.5967393218266253,-2.2080452656441287,-7.674223764020895,-0.7109684916247379,0.1456506449891863,0.8170846386120989,1.7566215475578968,2.48414383405526,-1.959327695453767,-0.009715596514089738,-0.016123362112701455,0.06084859590191685,-0.06112998873333358,0.4170294071035039,-0.3915772667679864
1.5896253737863038,16.575539072452383,-0.9562352189912219,-32.895046297867815,3.784782419572889,-3.5714163507726306,-10.206175661241616,-21.175212555532756,9.502858865255185,-62.10508640844334,8.416941549439395,-6.178640505621969,-41.90922714905388,100.7699438759319,-22.309678265056483,-11.16999896382284,1.5709636301257963,-2.8051543838084108,-48.46816523083999,25.95027942725598,4.009297468625237,6.059311034907714,-18.215952529486668,-1.1779576928878748,9.67491910203219,-0.8884747249326632,-2.9827368247587933,1.287065437871339,-2.142257870239309,-2.6065938893766343,0.564138538036509,-2.1334066639252667,-0.31935047848823617,-0.986258470853341,1.3336304725175119,-1.286054759710604,0.41577448566393843,-0.14529060502245358,-0.21806419222877338,-0.24257287043839434,0.20064483402663758,-0.10003101988280977
-0.5968404576010906,11.932403614809408,-1.715703680833776,-28.87357300615427,4.026218412642956,-2.308983683020441,-6.244089378012333,7.398139944660906,0.05251616753087307,-45.30651582569312,1.295465528050308,-6.145118823376379,-46.19868785367327,112.67460048427176,-24.520646283238687,-11.187737396467087,1.2106786243398162,-1.9581054696380977,-24.578137817287566,68.12529357058983,-15.44056870164137,13.940446926944126,-52.59608016734563,2.164226646811452,8.217600945106595,0.28394534141546335,-0.6402459260093057,1.9224559943116886,-0.45194074678999907,-0.3857766620163072,0.42303791494363274,-2.674013489595339,-0.5530488690147419,-1.79713969072993,1.2812944434221998,-1.258098686465729,-0.14691346978128203,-0.2118375129873323,0.016159734758983624,-0.6830023959939279,0.14853873168036358,-0.05997490179070234
-0.2127997448864368,-3.487165629703782,0.9557943877152342,-25.771172593765687,-2.801122254665675,-2.630763310710687,-18.17356209601594,-13.895823753858114,1.7711103176707452,-20.530806186343842,-13.099346431739063,-5.198207713024945,-43.723409072930835,110.55501511341863,-23.68644514533731,-10.25982957855239,0.40211405330828687,-1.9018820429854197,7.245442078970192,38.48893039477801,-12.214956321793133,-3.2623906895776424,-20.431827899927395,13.283144493616573,8.227197333550343,1.0937731262108168,0.5805911565119519,8.360966714711621,-4.103174322116356,0.4763550432765044,2.229832096453838,-2.7336609480980103,-0.7979342563256682,2.75721009236048,1.0762477276367295,0.3999914964012937,0.6802775258579614,-0.2286728011170258,-0.14613945869702186,0.6072537263799539,0.14276023348078373,0.047589958672102445
-1.5093324961551875,-13.943026527577208,2.722120256139448,-19.25684507741906,-0.8619222890639346,-1.6824765275813287,-37.232809005921304,-12.327582126440873,4.314737647216191,-11.140905593692468,3.6699592455595993,1.4138310436227688,-36.801824879803554,100.88320431285098,-21.979448032375124,-7.613181210747344,-0.12442803927618093,-1.2087534922777983,-6.9963933187189,61.23315990761886,-3.458406436107059,-6.676328367022958,-11.108897011148501,7.4360198746385535,8.393782786578655,1.5099501633580763,1.242031201583949,5.845351991482935,-3.194461801019555,1.4441663540361644,-1.029401212627903,-2.2122395357862485,0.9843275813738566,-0.6213325973637583,0.5136485714905209,-0.4748137974204033,-0.2348942960556393,-0.10756351805698344,0.1451995783955553,-0.4253846082823764,0.04366207612763478,-0.03530669895852964
1.0077596905862238,-18.839915896429243,2.0558087090487778,-15.560922462307902,-4.423499319166364,-2.2606030879267696,-40.585787543929314,-23.2971229386075,4.711656871698297,-8.81044723960903,-7.652850856356639,-4.611928993750349,-30.090786585036827,90.5834870810351,-19.865351602071225,-5.868528298493036,-0.5301943045098018,-1.0595896400580413,-11.575991446138168,22.69522798153423,-13.315682379344134,4.449387931889292,-56.12724387133667,9.533238467807166,5.893214199271287,2.817859866199783,3.730266221312785,6.3967695829886395,-1.5143449760994454,-0.21458343149401682,2.3760441809299553,-3.965872819875298,-0.5331422956608054,3.581018819375201,1.636862860165049,0.08152016592645638,0.4150594628213172,-0.3397060607208235,0.05195360844610409,0.6895027047073709,0.053761060872785954,0.02885181852959275
3.349080339399085,-17.314606196042,-1.5872619966673855,-7.0685177372845684,-0.18311804365170642,-0.2501836364719186,-34.899792776631536,-15.044951918918587,-5.187595005944789,10.826846490208409,-10.357311050117076,-2.0640338782765872,-26.69409867271036,82.79689518657554,-18.55157499942068,-3.088916455095439,-0.0018702731574319078,-0.2431103689665668,18.579400973783823,29.486253349610873,-21.183936503272815,-8.924996156153844,-13.095383140833855,14.60079803831812,11.875499161511224,-1.1955405126429834,-0.3109318003352752,10.515231277238307,-5.6277577844847215,3.35268566797285,0.5288469011820601,-3.6764010873454582,0.5426828810793608,-0.3038493313185383,0.18089125868063238,-0.8968279055622707,0.43800612390057203,-0.49698617409249407,-0.02476301911533238,-0.31524157130813746,-0.10347820855078566,-0.14374645557330928
0.8261142329519184,-16.63247937672386,-2.2694952449521044,1.3746295568270823,-0.34773466997302727,0.10052924224521867,-30.631714983245075,-20.415476555415612,-0.5972818284753518,24.226021762481658,-8.210744220701194,0.014167783488930767,-24.66849131485163,77.52629817426066,-17.83425929880924,0.6183645424141347,-0.06777507973230179,-0.023308110727604827,33.49369553655696,21.850999863100636,-9.975176855837464,-13.440124369797411,-39.51364974752596,4.187954873111726,7.134621375153852,0.7917563768503068,1.829687112447846,5.191950653956203,-2.305868561301363,2.351367557103466,0.17283931646737488,-2.6827425057678846,1.0650192026837313,0.42725243954695535,0.13506033005068271,0.375475385125835,0.052207003337375144,-0.19728717983803695,0.24616929791580322,-0.07701507938111894,-0.07461409699758911,0.13191662349419112
-4.584424169029093,-17.751806714563084,-2.1713653051907453,0.3585908178019741,0.022084775211535762,-0.34869169140166906,-30.689420195620343,-26.811733788785965,-0.6622941430924155,13.529725122253188,-1.2281813328252948,-2.0921719913476595,-23.642148943007577,74.75238626754641,-17.507235747287815,0.3912734916541672,-0.19859224919978782,-0.11850435844459466,24.809515815199475,23.969721773745448,-8.08288735060039,6.886577293559019,-2.7497272712337417,13.99860229323227,4.777333613659644,-0.15708107336900845,-1.505874265073049,8.855154956517007,-4.843140832876344,2.322378223778025,1.144245668477563,-0.6211020869778199,-0.910278683786289,1.567083801499156,0.7290062994920936,-0.03227129124631633,0.18086099772098507,-0.010115619151303198,-0.19390241059888613,0.33521861567185307,-0.012169367374407708,0.04890907182631454
-8.188233468022734,-14.616368814651523,-2.810774337127096,2.1091645185982735,0.782409362330844,0.6473967670857466,-47.878114170670436,-20.34083731235189,-0.7598453862879345,22.35901852327137,-1.0266358562512767,4.314531436975578,-23.725503537020987,72.90448402888515,-17.103518648526236,0.2720060647737823,0.1386532418464464,0.1715643344221986,21.276800483844692,36.46959518628976,-3.4381739326896152,-23.433867704949762,-27.063959686300162,10.658621300299519,8.835076825042862,0.9242638001675074,1.447595032804491,6.818845399610034,-4.216941097367361,1.7494144355282493,-0.8847692890640545,-2.2106072151600404,1.3440790297224299,0.6077190588047425,0.30897101568785107,-0.4006810023040763,0.007632536157089975,-0.11383699772167091,0.10655308802049654,-0.18159655066206637,-0.027362515582458516,-0.08416180767977097
-10.801969321144664,-17.849051193093736,-2.749522567754339,4.927069894641894,-2.2393991239624733,-1.0386797905717227,-37.04677076033213,-39.5874708627919,-0.7791792501143922,26.080619975607995,-8.99122847620368,-4.796189579135772,-23.024060861696054,72.8536103609733,-17.169813779498664,0.7919714157814867,-0.3078640147407885,-0.23472348257109596,35.6254548786215,-2.061813106398735,-13.404770402867685,9.611472914899357,-16.797848675927117,8.748197208693732,2.975940227337128,0.302222828231013,-0.045380799451900725,5.0447268175390985,-3.4231474147919974,1.169209384498231,1.7891812681801427,-1.7333471662879825,-0.9019954383573843,0.3857417602229518,0.6450254564140371,-0.19159405047758715,0.2989970169465331,-0.2096987630438519,-0.10926310303422945,0.17918861979471223,-0.095071744068525,0.11546955567977021
-13.042650541460027,-17.688814951459342,-2.9902921892959204,5.190012527490051,0.9068382903149096,0.09998359636030375,-44.7318366475797,-21.173043326935232,-1.7680306800511552,30.839749883822492,1.9434658450933842,2.293366563953898,-23.281801202204054,73.22411427314114,-17.30231069903531,0.6500566360738713,-0.16847951302529243,-0.05201227780677973,32.86352765372675,34.525215447868625,-3.4264324183401578,-12.253678823930741,-16.621926092812352,3.9139376955886145,8.602373556721624,-1.0022166025118835,0.23702950276912993,6.87307787651786,-4.393281411812354,2.4753327879441196,0.4485065580826665,-2.535540946984539,0.7957040250700377,0.8244206435808465,-0.140272161669976,0.2925288216060889,0.22936940366721564,-0.2637371732226025,0.15534911220320885,-0.11484919441934112,-0.16432901637655187,0.08129113638827914
-12.231625448813942,-20.41302788794736,-3.0000095636809534,2.9809771863370917,-1.7092112648045765,-0.29983337806703386,-50.236482841548636,-32.71042898466813,-1.6623984178594142,20.782386348657482,-8.919075464575208,-0.1845835175975448,-23.580717641049834,74.23090409858374,-17.201587587147927,0.48548490323300275,-0.055147816924381664,-0.038222712950301815,18.011089568603253,9.914362107268397,-10.630781801194265,-12.419492061040003,-18.032102721458536,9.048012392319452,5.57515062628785,0.8984754370118577,1.2130289247572572,5.1638041338616905,-3.4432345172364296,-0.09451469515439176,-0.23012270094328224,-1.6014747923900015,0.6411967635766577,0.9817505564249616,1.2960811934168415,-0.7439683562571826,-0.00030414560802184194,-0.02106276883026365,0.04388019901244821,0.06743504450120497,0.27905734748243605,-0.17082936790813263
-14.59423346555323,-16.837657771142325,-2.7653904544839865,3.3296994125317516,0.11904335626035911,0.09966232959810833,-53.48098448634033,-19.868544124686,-0.2745638313281674,18.633710697140863,-1.5365948905997842,0.7811862837534778,-23.766660524759278,75.24814853648898,-16.809194602033347,0.6431083862210775,-0.2197381802266549,0.06262680157481584,6.9994911716113055,32.67800476505834,-7.159561838372001,-4.547080658991334,-13.064921060966354,8.08804297644316,5.753207656624841,-0.905675173464044,0.11362701881423012,3.8482620772123037,-3.777002878705043,0.759081970669748,1.7492901443346338,-2.9913910936577204,-0.3433177925912303,0.699730610663423,0.09601047907197341,0.5482898086411525,0.4314708037537723,-0.44803421562153956,0.025424134846650084,-0.043166693132140485,-0.2797496414611875,0.27638239713174223
-11.243899435829485,-18.876156096054867,-3.054026382935529,4.861241187194392,-0.873244348580244,-0.2834662797517599,-45.94103228361364,-32.11514856945169,-3.027295723521788,31.9662761212613,-6.110754618960313,0.304010211794182,-25.087849227572526,77.25480905638965,-16.052112190840383,0.4190689804454768,-0.11071027400019484,-0.01316774774301237,39.43138028860381,10.90817861335447,-8.83760749038531,0.35302261874940627,-30.36473656744853,-5.07331511499453,4.945779739065256,0.10267725981663224,0.11848734459690641,5.870311833480008,-4.395441394076373,-0.16325729281373777,-0.9922521503563262,-0.6264618375421164,0.6441761317198708,1.885419365414304,0.881212553793361,-0.3648576634222759,-0.1179934530831352,0.08716883364277687,-0.04352219185911612,0.20299099413664262,0.05575802445611931,-0.09974619533779153
-10.246341130702834,-16.032106622380606,-2.4617197247795306,4.378813186688157,-1.215542977022766,-0.604681149149569,-52.62999782814311,-33.77410304009803,1.2535620636720637,21.622259411553767,-2.318882106472224,-0.6588171576118748,-26.233988435984443,79.06325496329356,-15.15349877306398,0.9266044183254253,-0.38014026842890164,-0.12190861258049711,14.12612023628615,16.717958738688818,-4.0956250378961645,-9.48703466005154,-17.840299542152664,14.696038989512399,6.050340718651702,-0.9455547292539597,0.48202667464944515,7.367711487425452,-2.5026149246023195,2.80843080042092,0.602623005217047,-2.6647970711005886,0.381399051524328,0.16749409986922192,-0.10146857578240863,-0.5340184961933147,0.22396257636923467,-0.3466424070743611,0.10776591708881132,-0.037126172615079625,-0.14032451412315067,-0.10853645573098793
-10.249818342329867,-13.070304407916069,-2.3331123529527784,8.78758796657232,1.4767601192296653,0.6890395870607223,-39.85165407623957,-30.24176966562267,-2.011081386351391,40.639236662860995,-2.3892776510440097,4.392883329741785,-27.384342007772364,80.98199798746512,-13.973748714295468,0.7464983979016776,-0.028724778984412322,0.18306778520781125,55.87984733490364,15.271461880208337,-1.827683648823169,-14.399941943850633,-1.3737408860318006,4.886185135599583,5.4969061905371355,0.3100603552568643,0.6467061838939235,5.120042915151536,-6.223053692861007,-0.5830063285690803,0.7102739328335383,-1.5244807265328921,0.38577111529599123,1.4695446012656357,0.8211877014961422,0.1766193827541845,0.2924184527370263,-0.02260391351175982,0.026549047961106888,0.2024257143798295,-0.1299276300902596,0.17512140555742567
-7.959171727634119,-11.784441594529785,-1.959494135489295,3.739839258230067,1.860093082223187,0.7654494611448512,-49.5280130125512,-24.56179245102969,-0.2203671563237567,23.197374961932884,0.7146923292419622,3.0779212315262834,-28.840178958591583,83.23737791393518,-13.131362103812995,0.5057735048919537,0.08739682411364098,0.25375680738025447,16.908536922213706,29.763642967909828,-3.2967403107642665,11.557899942237993,-31.608488862991813,-1.1120185126420912,5.506250663457882,-0.7092964081916685,-0.22623470626319397,5.571018766770825,-2.258483895981153,-0.9774539627850052,-0.22984989636346287,-1.6758713755076993,0.21046379857119868,1.8505726735640744,2.4254257502943295,-0.9734404830468657,-0.0765399291769326,-0.17829630078094458,0.007480276275955929,0.18582190213212302,0.4021988775516471,-0.16854049554855832
-8.542398762587167,-13.178132422554947,-0.5275133215033068,4.859603589059391,1.75721546934131,0.25281835723623547,-46.81667368736261,-26.05224233781166,1.3115593354627149,26.531440802437277,4.672419300230521,3.401167770585845,-30.082309443182098,86.12515071489035,-12.354362418288735,0.32216877114953474,0.06528815267598838,-0.035254275646298926,26.785362712875195,30.304450163521878,-0.26321808978115296,-8.379708175386227,-4.616441977935208,3.4398141846091126,6.66750325981475,-0.14276630897953682,0.7945845189523041,4.72087518878488,-5.199900153198081,1.0172761532047634,0.8328503261020237,-2.1858091203549153,0.5475074217011204,1.39986507910023,-1.4358391649492535,0.642317401345004,0.27180768223233304,-0.15289997209248868,0.12633461734052567,-0.001778634189799437,-0.5414268232322915,0.08458041821994908
-8.123599174430645,-9.279012679758226,-0.827698134432033,-4.073991258653633,-0.8438475807428774,-0.5904826697927731,-41.581999929330934,-15.503511276898234,-0.18479080267349748,14.135472203783591,-3.7003697503432433,0.5803064361504063,-31.92897116651252,88.82266786948657,-11.699587377490587,-2.9382323020138332,0.36833049498358117,-0.33282387560418075,19.2133692069696,34.09659073402185,-5.76180098897899,-7.6689908741332,-31.431214332902023,10.6892245246467,3.7113829451175455,-0.6645654794152296,-0.40191899518652247,8.441832625740023,-2.0249943536249995,2.2452815614933725,0.3846994639496544,-1.691812475992322,-0.3748658179242336,0.8374571512945267,1.6332855836961422,-0.23914184197388041,0.05000317093776636,-0.23976220250582653,-0.08618986081349944,0.15190816708764074,0.13022897277286002,0.12211028765322733
-9.999921664286186,-8.806530821770334,0.32872527965448667,-2.2806188819729085,0.3683614192845953,-0.16849810759220196,-48.57368388692461,-26.524570616873564,1.2661616349422586,14.6109425826335,-4.126615978677354,-0.1774522239919677,-33.50960979709034,91.28431868242448,-11.32136315691734,-2.942311319689178,0.825101576756997,-0.07594661978176057,8.908605480592607,15.460171097211118,-6.7169421791895365,-10.89105009073569,-17.142778256286853,-1.2767300014123808,5.842800757823869,0.03564591478402285,-0.062003429080112,3.9231182159436853,-4.776035104721424,-0.3210231318591673,-0.40253397623237674,-0.23155467104104727,0.7082089917676606,0.9240101670333317,-0.17108175645560178,-0.1453412095983573,0.031388691144971295,0.23067416264697863,-0.010295093500767027,0.06457409380017257,-0.18620536654550826,-0.051880816922614204
-8.360911345518685,-8.05116815776987,0.308518640970924,-4.909834879373348,1.1738088159571747,0.22718420293063185,-39.29090001828305,-28.987115442341192,2.7499746904759905,4.261823561698161,-0.997258080076578,-1.1326391677051235,-34.81857139075865,93.32211605856307,-11.087315199887064,-3.1050695339818484,1.2166462583152098,0.3518191707317688,9.96237670170843,20.158781743812327,-0.3812935909625739,18.22861589093892,-21.59374558881462,4.218837314545193,6.231389029716539,0.11456671638346656,1.5542797337679044,5.7737802654342145,-3.2648081640689472,-0.06064742642630203,1.9802529186188502,-3.9932947393413536,0.03427617626413219,1.9575971011226518,0.9484350999884836,-0.05808703153447023,0.48785706409331747,-0.5517619599707995,0.12490994564524997,0.0842227543864343,-0.12745899971108435,0.07175216008894576
-10.217332604158067,-6.554362860237738,0.757412765747027,-5.581573708161522,0.868879372070582,0.4065389847547445,-41.090596122874196,-18.81739297172319,0.8450775477078196,9.692298202287184,-4.0916879434685605,0.6473459049002719,-35.19286916694473,94.63782944163347,-10.76032820557662,-4.178092420734956,1.8539629152056991,0.5081570253383138,15.03532782130809,29.349441281191883,-7.084819976871814,-11.241285861708278,-20.862661476498353,-2.3803383810701724,6.317598459442853,-1.504042418928554,-1.6636442260981872,6.638458658574476,-2.5311117353190227,-0.3112106961079263,-0.8939407010010655,-0.06784989417967245,0.3267337360691128,1.9896869475397512,1.6886385875792442,-0.7858936656985158,-0.048180706820477835,0.06982442753583407,-0.12579496167202217,0.4116402876796692,0.17163855187646906,-0.17027861117841206
-9.50158727804372,-2.5304917349153033,0.7828181873240972,-4.557232018600744,3.3826612544952366,0.6874133646252646,-40.33809152935876,-27.136676371305867,3.343122915633083,4.112422735107423,8.85422589463002,2.1103090604478583,-35.233611806807204,94.70437432576658,-10.453497552160012,-3.6709090113485776,1.850359423969331,0.4857539529186162,0.8490461252712682,31.116969692776216,4.185334129108272,-5.850143241894214,-28.409258380376883,3.9269276972677893,6.119251446100329,1.483121046963829,2.140715738466032,2.0508617254953605,-2.2653351054450015,1.3199212128449613,1.4931829171535433,-3.1077016374949875,0.428512765418375,0.6217140783608901,-0.8734321728579211,1.097329176537962,0.361557648856171,-0.2639462946794665,0.1254692141772774,-0.229588638118806,-0.16537046746928186,0.19905765577796086
-5.3576647376649476,-3.471384838977544,0.0024897738713910047,-10.547464724030265,2.0046947937601507,1.0242088232053086,-33.59059159268726,-33.104865436284236,0.14972212882525635,-3.67348684934275,-9.035255152790175,-0.031192557103669537,-35.00186494818634,93.39820662486439,-10.179944065968439,-5.159239440321114,2.354819418404352,0.5177679280830274,4.41897211644646,2.5045311841878553,-5.385245710326334,9.29833290172623,-14.533705517394566,-1.8746146975454758,3.4276118209300845,-2.0381594342260585,-1.4291262806044296,4.211971635025478,-4.383492984326642,-1.4075971766582298,0.691464621185498,-1.0788244539627998,-0.3815663749445868,1.8068285905323807,0.6955935616417638,-0.40388292719749197,0.06876908454439415,-0.17339035963100746,-0.02801965280767374,0.13082779903135686,-0.1400614314963629,-0.06353421430407777
-6.202218355697525,0.629019552520146,0.510052127584139,-6.158408036190168,2.3422993115834854,-0.17349677977466865,-34.103293861058546,-11.056413004547075,5.433345812078548,10.89841900819391,8.932297303960478,0.3627385624201405,-33.64705684734156,91.1121622626303,-9.850748322055606,-4.692725694278291,2.092810073159697,0.20528706603858196,17.413373320402812,47.7870912075672,0.020129957282309364,1.6849621416175888,-24.952749373836582,11.122705500805237,6.542841683314749,0.4808123097024592,1.0344695123680678,11.979288329461504,-1.8888183706587345,4.20667825148396,0.011214105445481692,-1.677894868902503,0.9724053755339093,1.37056258238916,0.2727176634403562,0.004650168669933152,0.036922536188387506,-0.06817780156855696,0.1732920569370147,0.4224353805885583,-0.23419210905812501,0.06525311935880355
-3.394325618574981,-1.3610860043057833,-0.45348618959582304,-13.177453818512845,6.078516636271285,1.6643907657707744,-23.03078334191655,-28.942654585678852,-0.3701095513424155,-14.54292906246311,6.744713064249208,6.037752906914322,-33.042978885291184,88.86574495426721,-9.904844766855343,-6.3190380468286165,3.0234617573982003,0.13928720248778184,3.4075353942599773,21.686856070722822,5.399356600881008,-14.391357452493889,-27.52172400679148,-4.798972122456603,8.151798653140974,-0.38791458165035797,0.2832475790049802,-0.12621665397685794,-2.8971298667406917,-1.7112650626046186,0.8021690776877217,-3.078801697316515,0.1207094255084695,1.585010732551888,0.2746678329503006,0.4159032861264385,0.2845296795553184,-0.45751593815484287,-0.02857899017906509,-0.07043463671539073,0.008299530732726577,0.04737190018019577
-0.9897447387939976,0.1072220417798039,-0.8746869453454924,-9.674628912258255,2.991727513650702,0.1973719538415186,-16.034659780442894,-17.14394910832679,1.7828318078609628,3.1333322276960263,7.51387640638258,1.1629681621652515,-31.45319999723473,85.67431698431172,-9.931772164131399,-6.37137782409302,2.7543977593536697,0.24587854414901889,24.04323804835898,34.85814879068947,-2.2207424738994743,11.678870660197255,-15.244467155548469,4.598698026571111,3.6156511076702897,-0.990489373437645,-0.4337244207629345,8.614622900889135,-2.40862882887051,1.642324317606169,0.7874398637266673,-0.7203942694353107,0.14900327265108812,0.9452292032186722,0.9727884653537544,-0.5289487086521057,0.1913627547576845,0.10386893483253638,0.0006561148346017447,0.060032651272951515,0.13010782475025584,-0.09920533103721443
-4.4868783428519246,-0.0040454517260228515,-0.07263840706380936,-19.314496734095457,3.2165105172886266,0.18345958588141187,-26.797683150177942,-22.414093949085817,2.289699623450227,-28.42300794201407,-2.142089647770966,-4.558762664589703,-30.04392230271848,83.66396599587134,-10.402077831580396,-8.649698940817888,4.2329302909238855,0.08580182642118342,-27.463928165642535,18.665243415014277,-6.284064058564863,-1.1907299580987556,-31.2050856353994,-0.6855473649574257,5.357514361140422,0.6125344002973995,0.6611093397609767,4.290827295993945,-3.6046345244790166,0.017853310126140276,0.5803341752752363,-1.815249383086775,0.1818245035673397,2.032349041068088,0.19279382560064529,0.606934606871275,0.11424486227833228,-0.1427449790479267,0.012091563545157514,0.1569354700707306,-0.1560345540406084,0.1276477498971098
0.16725716273228605,0.561143028316731,-1.5181259067203534,-9.847250333350743,4.230692730038712,0.8550706286112544,-11.215886963342184,-27.326610848262014,-0.16665922168755795,9.737904162988782,7.755665909278089,5.023278555151602,-29.183718593993163,81.58653040193616,-10.688041643811607,-10.209295549654142,5.162815427726646,0.9547742237931571,43.3177620504243,21.82814814738065,-2.7602668898673812,7.355109323270874,-27.155466575231998,1.2074056191248907,5.998975164818313,-0.07564196578370988,0.07556555382656183,6.5418238534750195,-3.4774751858974136,-0.03302666620929784,0.8820340752103781,-1.8591635686698558,0.037396837829039,1.2740233969042083,0.7691536486471553,-0.5863353788505319,0.2505672137084204,-0.2299924984779727,-0.007181548034983408,0.0814589751346674,-0.11317842849933005,-0.07627795302402973
0.13284729991641606,1.2898415716277734,-1.371541878729676,-15.246797561680918,7.303297755605805,1.8788999175012169,-8.70796632324601,-23.230925309634074,1.7687123973586927,-23.11882750285752,9.184011437439912,3.957796228738658,-28.199248089559333,79.90961567025894,-11.103246819350144,-12.662743696922476,6.789357641342496,1.4071840529044275,-7.211952670005581,19.01076735930696,5.634214875502455,-16.25410885193774,-2.088882725386426,3.50413841064043,7.187878807517225,-0.6620397193148774,0.44930961880739906,6.054174079886175,-1.9165427729675995,1.1824997813424187,0.40571314234758815,-2.485309174901254,0.5050250016819322,2.141538361337554,0.5133969388196028,0.2946021631986825,0.09146839157295003,-0.2200189431945428,0.0640683337382768,0.2904879675373538,0.020933207605183177,-0.020076710807487404
1.0088929247599,2.7923911255364247,-1.4307601944985506,-13.36463653063192,5.717501222118925,1.1791097579582672,-15.88118330200316,-7.053409655534596,2.5583985232898185,-9.54644434343061,8.713159360560011,-0.11023257347614382,-27.204840601991638,78.29096204944611,-11.331557460063168,-14.663663813035322,8.088370337534007,2.0568547101091466,1.566734887057281,40.63796847796517,-9.224686419367403,34.90051835740716,-23.37534464946304,3.1175515549017443,3.395846513249081,0.6678836171936166,0.03256122033085662,5.193081720649882,-3.7924199236427465,0.1657479377531391,1.2620061386358612,-0.6186962810408827,-0.2509605684421884,1.3570495364808206,0.4369022321096725,0.22178385329948574,0.22367537143407948,0.055973869167949254,-0.01641830355333872,0.21118901045648453,-0.2272824695789319,0.1293453658829529
2.800507674096635,-1.9696958799459077,-1.1155421487726513,-11.907886635960438,6.096054290889976,1.6483706219285117,-7.098297189210191,-32.82416857840608,0.9433763812294409,-17.32462984323298,8.98159856927845,5.547591223427089,-26.99788181494029,76.16080376455312,-11.530727368114283,-17.591163480282464,9.581951661887588,2.319991996112304,1.7179243973962781,12.685991565301254,3.6239466554935436,-6.382496945821811,-40.088017404783635,-5.425317656850878,5.622649858578706,-1.006254080654721,0.37157005576814695,5.444528566810544,-2.096024513782943,0.14335019641467517,0.13438951600812854,-2.185881747560942,0.5894265733186039,1.7446140885457513,0.6435503958262088,-0.32652239226686797,0.042058568338165694,-0.3030579200345751,0.14167145175207804,-0.11732828017384825,-0.002092091035442151,-0.13519762681626787
5.434192161282057,-2.417048845155439,-1.4102768413893016,-13.135807533351874,7.532904570076293,1.428470857419613,-3.470809479650563,-13.448195679562348,0.10838180158254652,-16.31528398682592,5.644402633153075,-2.4257529784516154,-26.842463795390362,72.62525096554103,-11.353976810146419,-18.75629931670788,10.230672886742072,2.573452448785587,6.063924568081799,14.873539340251035,-11.181903215064077,3.724091936367239,15.563727578583137,-0.23411669483924336,7.986984199352921,-1.1243726150359288,-1.790186185005163,5.481968482694921,-4.211765498826258,-0.46062552420369646,0.5279528027027464,-0.2085765462639255,-0.09625986615330982,1.6618410382986608,0.9926104773333281,0.10997568615732851,0.25616531150458305,0.26573387491304795,-0.20902111789597416,0.2897141187659387,-0.15109327236253867,0.12224983249747143
5.893282916264175,-2.494826427381075,-1.5118915324970112,-8.102175203325405,4.486776251995529,0.9920743637922661,4.334453185177996,-16.34005201468957,-1.1427043830252608,-9.493599541438252,16.46771387995987,8.411798310075744,-26.99494744673277,69.56021618297063,-11.177670980862954,-20.40462553249248,10.514425174361117,2.5075445062889723,18.677286210281512,33.22415675580961,3.39871971656936,4.7987099898330285,-16.06933928751779,3.8875563344396333,3.2412164344523875,0.7136684604412381,0.8237208504227649,5.678804285974405,-1.1932170545254506,1.6326548503755443,1.5878274319805632,-2.4927930852539473,-0.5226678784661836,1.182437881050067,0.4381439004021913,0.03264446518580991,0.10975515731451185,-0.42468829408575026,0.06369630021251635,0.1126623225226916,0.08798868607798184,-0.06689628333821879
6.8340483920279125,-7.953653168422742,0.5002372255632664,-10.375642638189479,5.252864973740056,0.7084652628815927,-10.545639500200114,-20.340296300440922,4.01039157892799,-20.48213769502514,13.397001339197114,3.0700184254052076,-26.223813120516855,64.68124069085948,-10.652880187350664,-21.27705327479465,9.852470231373244,2.093290205891734,-19.902848963493348,19.053004118572314,-0.8449129225317892,14.484004322833817,-17.570052365707525,2.851709671924977,6.548398144542871,-1.5746360801783206,-0.49462956793725643,5.624053371284508,-5.722134802640457,-2.3064072484674014,0.39736111231640536,-1.263085705782536,0.48902694779522576,1.7831747042258355,1.9877036261800864,-0.3891755519482763,0.4109151985672868,-0.03574369897457609,-0.057828352189603166,0.0425532035797044,0.049761702430654746,0.029690081749379905
9.228685948786696,-7.038063201811897,-0.3892701176914249,-5.007277265102986,1.6369206733465431,-0.1626155063398156,9.614434164084024,-17.1128787940186,1.2422612976488407,-12.961337835696728,7.095581253854645,0.5924720134349953,-25.28243324411474,59.246975993736086,-9.78976510180711,-22.801324400426665,10.144461047596948,2.0660080815748363,11.237130434386446,7.947916407842601,-2.2649902238459374,-5.4530597375084495,-17.947269540673663,0.09591431301128647,3.5388137474302024,0.33426069698878436,-0.052598701753937716,3.3605925711604265,-1.126538955404874,0.6731591407659614,1.2347398723548064,-1.153543719100681,-0.43321132133627455,1.6820091993224582,0.17621863722527625,0.3413140826599919,0.08041436909782111,-0.069477115484143,-0.009215073683812237,0.35956203452116664,0.017854797930249716,-0.04193724671956515
10.198317441024264,-8.311103441471467,-0.3594093610421078,-5.515482787187527,4.439179005831241,1.0934531414136124,4.760189907292538,-7.859223614487726,-0.8099259331866486,-10.660947064626333,17.645906024722112,8.067794670477184,-24.126486357480434,53.76347173781591,-9.174455907234508,-25.06764042411369,11.087758922563665,2.8363301202767732,5.736125472400743,30.298183371288776,-0.14508506911679997,21.038544666550504,-12.1912891562013,0.883661439474013,7.107318117008099,-0.9863613702586504,-0.33542102040120636,5.768292347880811,-3.8413182534140184,0.7165256550907927,-0.1957759033565118,-1.6370742107916991,0.44820800500055247,-0.10208200671305141,0.14839170843824792,-0.2805848690996411,-0.010854998502116863,-0.16971670211031115,0.03459653581281804,-0.23702327430361347,-0.3057595836127159,0.0904490613085715
10.30549822584018,-12.604625633852999,1.7339325208817078,-2.27251098439992,3.800993081199952,0.5138804031633425,1.9321564251976084,-18.004302779763915,3.21047131020507,-16.197324014233562,17.330003904577755,1.846409756632927,-21.878934659534867,46.55049318767385,-7.823687432273702,-27.89722638105845,11.980840533031577,3.164721379861424,-16.163564472757535,9.38651937335447,-2.4536821597035767,1.291038810413552,-14.02121628487071,1.481259245711585,2.7063656724034946,1.370237776797858,1.1105885048652682,6.383412418138059,-1.8287531370684618,0.41772716663699616,1.3835359936441842,-1.306779685720173,-0.10285560721189342,1.9899264602823916,1.4106324887550468,-0.18075262303274017,0.35441226342956883,-0.023356790112056974,-0.031394677736148985,0.21842708971131755,0.06351694611316205,-0.05337940361230999
14.813114003637597,-10.102207356598827,-0.37392974658287564,0.21717930694942372,6.0628318467676525,1.952070288636343,17.363661032595562,-14.499573293911629,-0.9657323258570933,-21.440984041361315,22.337228805140512,8.977941435659709,-19.14766418086202,38.95727347863378,-6.451441002009316,-31.828070124117858,13.94031597598756,4.206438753771051,-7.750578073838505,14.344284686976327,4.778303760527811,31.165541728702216,2.7788975433760816,-0.7247559585745558,5.236818682830692,-0.447032729951244,0.1786373938841116,1.5163594232343305,-4.678345020028488,-2.596175102526109,1.570683729611386,-2.2372857475614345,-0.1920601704336843,0.9746693669449036,0.6527547180041687,-0.25432647008738657,0.3651162127893706,-0.2930748562155886,0.010493232599030353,0.05145647321869886,-0.04824530768430059,-0.04969679107342518
12.601464818700926,-11.644454640387076,1.2997741482342335,5.376890506703611,8.763579388439531,2.089065131135946,3.8864586316593948,-10.849952191545208,1.1633320578713082,-6.319497811971641,20.04608829438676,5.382134446843203,-14.932567709508252,30.391681609948126,-5.007936261645626,-36.01220377205952,16.22213119287949,4.960822920714522,-13.905015373377525,5.748427427312768,-5.996669282935003,33.816604252950256,-26.599418371072,-5.170059847959041,3.3626739673443686,-2.0925381823312548,-1.1293900190096664,5.3953937965127725,-1.58050850856166,1.7261878766670156,0.5568276833792092,-0.4964408170865011,0.09851885913774139,1.1000257309618948,0.36448127716585044,0.3023364424513316,0.061126291542656905,0.03242979503103121,0.054517057234372196,0.15610525126267835,0.08668475861754814,0.008109719996025784
13.510151689174833,-8.209124705358873,-0.013930949433762423,7.369800016886979,11.502908876525881,2.3006774295116332,14.89937144911256,-3.4488597181714375,-0.07612919838904222,-10.925120482721024,34.44599116866163,7.954307424127796,-10.003649970475424,21.77279631134893,-3.4154414513484053,-41.420386186283444,19.244444231935624,5.741880288707863,-16.92944623839211,20.949308769851996,1.341540846857219,10.799343025550556,0.7801260925894518,6.0515849411688745,4.393558709925422,1.907217951596511,1.3899049839806334,5.102772597298394,-3.1903316096992387,-0.6734476015525096,0.8301459416901319,-1.9905744583168576,-0.025423499439947414,2.192763763206681,1.323176757244441,0.08997475846687092,0.1049333173479335,-0.17251621376726178,-0.017069181136747668,0.19078192517895923,0.019855165948278776,0.004991437491496159
9.186725616723008,-11.61861300093795,2.2278893936693533,11.304922518141023,14.622092728593575,3.264138141984326,-1.8210523269006822,-17.535882829138924,1.7512288531918667,-9.181769513794363,28.66316412087919,8.857599576290566,-5.959479276700321,13.592502364100046,-2.0952214759340952,-45.917341322724056,22.386093868128576,6.7127758127178225,-37.50503403242634,-9.983665862256139,1.8489894252918662,46.53666362176288,-20.377067128475137,-7.356895368115577,2.5259020632733553,-0.8754761175173843,-0.8552013919658341,2.84883958888897,-2.3390156115590033,-0.9826010911736054,2.019661150895879,-1.096297074418088,-0.8766636584119006,2.4571068398622122,0.5051757967521505,0.38430472660706266,0.27596399865699955,-0.06155091334760803,-0.09197734827464753,0.3402202958832712,-0.25457920554463787,0.046161810364510385
7.153432175855804,-2.8997271153002377,0.07151631706171767,11.878499643788084,14.769017094922061,2.5110872299233016,6.487446075449827,6.2018273572955245,0.08854673873174093,-6.146655726535657,43.64848835207125,9.869673600831634,-2.8887470339800636,7.776865783487571,-0.874861171983816,-49.6464091831478,24.912035336880297,6.861877470870022,-26.579065689447617,28.990019542806746,-0.4162002160929766,39.360663610260666,-4.493105235365423,-1.6663987414050456,3.8606543675600484,-0.8205213769946713,0.5237385032897051,4.83440521628123,-2.1147319127004187,1.2673521714724976,1.449409586654365,-1.915522132227273,0.29718710875645554,1.2397284385863467,0.31991799213963923,0.4285305468772136,0.41525197438317873,-0.1966291960415926,0.1102737849566235,0.1353475342988899,0.002838080413873144,0.046975210937074796
6.564441796084918,-7.319398130182208,1.2806971720729319,15.851783581537012,18.71865333014529,3.204374735466672,7.3682103265705035,-12.663551067500057,0.27897936522258443,-5.345232854535572,41.16495197151517,11.958676146691307,-0.531192540817533,2.759080034976232,0.04268602201405965,-52.50123392974123,27.15748606231142,7.344833368765616,-34.18443528010932,-6.204856462727517,4.59154327045942,31.978093042333064,9.37413989644321,-3.7631740390135273,3.566194168941197,-0.75736420273882,-1.4348325100594415,0.8129991586039047,-3.7245159724267514,-4.730206701630176,2.377575723078014,-0.8512578908959503,-1.1967712816749339,1.9860626157500765,2.688784832446735,-0.6606718223302548,0.23072509423670604,0.01990815381115375,-0.12043746520161983,0.042856228800953716,0.2861257296836329,-0.096362348669362
-0.30647463786408136,0.26969636614745124,0.41711598080325346,13.158270878421618,17.449664937082517,2.407645516128636,-9.758180718649932,1.2188952976861624,1.5583621977504145,-16.416260197126945,52.00033210481557,11.29051664294957,0.4223287362504933,-0.6808940361292645,0.38828650192614655,-55.00865652546027,28.83038218706601,7.2317214984070155,-67.87780817837393,16.29856820813212,7.556476146056316,66.66223278940477,0.29640270506320054,-0.3992702162078931,2.207214577903124,-0.3563245742420421,-0.4189006526541772,5.613300993377573,-2.398477695487052,0.8426624368400678,2.1958514424319198,-1.1240793195370582,-0.879945884538156,1.9073071937026578,0.18896572031088726,0.06365688811476979,0.37182640804083394,0.024476730140895644,-0.14691015649032763,0.2887717332251836,-0.01623313719458405,-0.13666376486531273
-5.032103171936117,0.43211919991999465,0.3472209727735081,13.719467889173961,15.594982656001715,2.041106750470813,-12.405530468866088,-11.433660682471702,1.8587852204889448,3.2675851771786353,41.26825957992915,10.830840123236952,-0.2345665444617237,-0.471501106761491,-0.5282692343771593,-56.69150299645996,29.376925464541696,6.9389564642567825,-48.08145432502805,-10.134403419079169,2.0522476297562684,38.866703109868475,-11.356624974047303,-5.86638728779581,3.1638303740753106,-0.6523229131754806,0.3297393478582418,1.383402966573717,-2.7420117245955478,-1.6642414353581818,1.7309810201942026,-2.0861802274976586,-0.09908459929339643,1.0963283934820256,0.8853680268726214,0.09482650959995262,0.30502273453266693,-0.3173744254673834,0.11951932866126348,-0.014593161328261044,-0.05804924027519033,0.07427977489908771
-1.7635341857870737,7.249968057853102,-0.6502377404619771,14.143845199776246,15.966897086140333,1.9863007885731991,-14.04791968070454,12.345943300117012,0.1544257836538766,-9.288207198682874,49.21918692994648,9.947428464960774,-1.4073461645949512,4.1186961897593415,0.11892209274138142,-57.29988368209751,29.940000126846556,7.3279130731338205,-66.35679731888004,28.23226397240327,-1.1198932552044414,64.90289418793202,-12.887422883405783,-7.55275487458407,3.890540584797613,-1.0688566420600507,-0.5866489124422845,4.1177398202640285,-2.8211235172882194,-0.7649205343087155,1.8530656372957628,-1.3677849908471316,-0.4188220496851548,3.1457071659031093,0.9805004227582294,0.6321486987174767,0.26805211660305917,-0.09414238995331128,0.010998279753199804,0.43064948235033185,-0.06377981601611167,0.037389394728130534
4.806382225233024,-3.7557979396321235,1.3042016838827168,13.37729550935195,15.571860872061748,2.1839571053766202,-2.819026239047104,-15.5876122906948,0.90484001306116,-5.783832578582024,43.13070648760688,13.871015152249212,-2.939875215408942,9.563680046628809,-0.5580103451849688,-56.591869281226096,29.28328281322007,6.8562368392568915,-42.246406642224336,-10.212264349855554,9.495408165500779,45.22349418517145,-1.4030936639937155,-1.2975357329464008,1.9164716869833927,1.3572733303274491,0.7198967782476579,3.0484767647048434,-0.5365617301454335,-0.4531109879610586,0.6917411510431227,-1.0588710777131212,-0.28940061920238297,2.1802842935296978,1.6020543981850737,0.18346864728809492,0.20185920452722575,-0.0735617331687355,-0.12436598645229288,0.2954030542442424,0.33348495110960713,-0.07746114826369195
6.328214240330715,1.5989397993714547,-0.027873879639880667,8.421278204612708,13.611093652187417,1.5027567804088897,6.0830703516587,1.4917994509207055,2.2820585500556696,-21.443191085695485,48.54810260035421,10.088862910038147,-6.406699795881419,19.104952704363384,-2.4673719381810475,-54.1913950285026,27.48245620177801,6.455400392672987,-50.916133719412635,30.399885449659426,3.983521688735334,75.27773961242387,-11.443131420250033,-7.572871454848057,0.6186200904145229,-1.0313856930759835,-1.5321323473009243,2.214170437719792,-4.218995410235642,-1.9192556059851282,1.8968930058332134,0.11202480895884404,-1.1381292444621325,2.3041497563667095,0.2929008168262237,0.5158521237389303,0.170307213783867,0.1458716570264794,-0.15193565952700272,0.058487998342244885,-0.3419906613932631,0.0885937340930241
1.648730020433739,4.886700706881147,-0.5667935670007122,8.843349633650615,13.02571142854961,1.841072472706065,-6.535159315077709,-10.491545201905758,3.4697358190704493,-13.757639154286991,48.706217846888734,13.930453100328515,-10.263703543265466,29.11801056635957,-4.861609990448057,-50.251898714038994,25.47494931636836,6.4431392837472785,-44.146767306139296,16.343759819330703,13.102305509532542,50.76812483494272,-19.360524537827267,0.2667425052900976,6.392857160101202,0.6513837479823864,0.8993144725091196,3.485289549011945,-1.7097418891285994,0.437855011966685,0.9420545734540843,-2.202110325052318,0.4291401913144517,2.1340789438502337,0.16759640051807861,0.7072330181621239,0.20659786642712796,-0.15603535256128764,0.07417171450588018,0.30879647162825635,-0.20234093363849806,0.10260743615875165
0.718395650820818,5.830733977414639,-1.346023366647092,2.1964518230131906,10.25166069457972,2.3946292418752613,-5.322231546783984,-10.148393344684067,0.5609252322182603,-25.979922055760404,28.129674176016653,9.046301485908907,-13.557537015939996,38.29660531206571,-6.832302066440383,-46.16016282348547,23.14768865198669,6.0056557056401685,-50.6977037827525,0.6749897929672064,-1.0236151236418078,64.92939950438254,-17.062427766147177,-6.0352347079887485,0.3510375604996406,1.0785838363817528,0.45655662167456085,3.7499430314976836,-2.728627207084706,-2.932448777225829,1.6069579827892275,-0.817897678711043,-0.5635490352955917,3.1488490626935737,2.3384476112758237,-0.8051502949616324,0.09762766069677169,-0.008485853276177431,-0.013466616428897746,0.3568881363670405,0.3866052790120566,-0.3541708332718753
2.0766810730474297,7.754224909748533,-2.3570126760196275,1.329007592313214,9.856977141052946,1.8233304314304246,-0.3245920526364267,-0.5723307922582384,-0.023848436568553795,-14.461592500923535,36.19059074534432,7.697216987345311,-16.45510141869693,44.4227784366568,-8.018993592832214,-41.13262579356604,19.51980356321724,5.506168447785625,-19.676640411749474,39.5725949709752,-2.549813678006497,34.84778018468913,-11.890405815640783,-8.48181239450728,3.1127751627187266,-0.5980501475832627,-0.3916149269890619,5.277492112834403,-3.294015076906521,-0.4499557555259574,0.803292900239475,-1.1301081284208627,-0.19770973029987418,2.3346561554557685,1.283531442322958,0.26178607717580743,0.12666797346477604,-0.18016965908629523,-0.006623076708086931,0.3245991269017331,-0.02848209968484906,0.09862385934220742
-3.2022748488705837,8.301801875501397,-1.57284295841179,-8.736352906969467,10.918529682093968,2.877762845039171,-10.534653099641424,-10.62401528457308,1.4217850996798687,-31.088932194597866,29.21693783128362,9.455608404450507,-18.302724401953537,49.20011475583749,-8.58880268750127,-36.33333514540289,16.708410375731194,4.7827286322936216,-51.51329531054718,16.63234937469673,3.5028667183105178,44.51378136150823,-11.327529379363376,4.8296554992696175,6.174404419994194,0.21047773156449198,0.5061552431661347,5.087264113262666,-1.4911298819052465,0.9012442434328535,1.683246793337853,-2.0982565443551078,0.21964004615453328,2.7047328561385013,0.15778502847884032,0.542382969684099,0.3696488309711491,-0.029311180506025568,-0.012790306430152892,0.34282859826825457,-0.21473710494239964,0.024496999042938308
-1.7946343644213085,10.060668193243448,-2.6389111829718046,-8.453292432987977,7.055268747955869,1.931665514489508,1.1135532932241685,-9.945164164445048,0.09017988488470026,-21.964297264220654,24.964679199816633,6.171923911428079,-19.894818158533695,51.841428160076184,-9.004303092093936,-31.74174454750316,13.792967480587537,4.029791089086146,-8.252656094691428,30.25333903261964,2.021459366717777,24.617285818071522,-5.4558044652234665,-2.5891657265449264,2.5154441968075534,1.2746115990522546,0.12761689644709012,4.870410820504215,-4.269295538580915,-1.2480841166443688,1.6143329802778505,-0.7416770222205538,-0.4187980979910237,1.7456313856192098,1.7944916553747678,-0.19471669457464097,0.1540905228067858,0.138473724127122,-0.07742700415714417,-0.0019155154764495092,0.1842151748787356,0.02486873169419522
-5.572376499578051,8.580573716107613,-1.5159874941372211,-13.430857954319713,7.14379215085312,2.489031676089869,-16.07010380089415,-17.01719067713165,2.8423315661341455,-27.831057724073542,14.260904938852173,5.61486669825133,-20.30212499748323,54.05962243158304,-9.023477009824898,-27.884291246636995,11.5466955735416,3.4472003225543446,-44.94887321702455,6.260320190069999,-1.410945918039721,39.02069682809943,-21.172894918573895,-0.7082067510940472,10.030501859710181,-1.898758973423584,-0.65469256701299,5.797360844126219,-3.199936802583574,-0.14224393503396873,1.1695494513515294,-2.746945953516002,0.7214871427794114,2.0023853321842098,0.8686762150254559,-0.27724164246605626,0.2985917490230547,-0.41068967630508885,0.1634047935861362,0.2064571664228881,0.014428246113169082,-0.0965542048745354
-4.554922555745433,11.830149901089127,-2.5744101960501387,-13.02831990189389,6.44796053369606,2.1613722270441516,-6.291204115949881,-8.096532656335672,1.3622450559027086,-17.67214167778188,14.23152737397573,4.8627453612569935,-21.615418835407425,55.96397503113474,-9.089233464102435,-23.91902258326792,9.494355803777147,3.0034366858359407,-9.572896229763606,27.833136319452517,0.778051634335714,43.38333849898086,-12.206437798791573,8.04391210594035,2.7593612735459514,2.0775178593696477,1.3656731552347887,6.700354242345314,-2.2685530768689364,1.4337291725524328,2.195029272484963,-2.200655988857834,-0.07683333981865687,1.701863774226711,0.7328281800801946,0.40923672492397,0.4106231440664702,-0.10236225911758202,-0.05241527400185726,0.1385414174283912,-0.09097039685330159,0.1685158821431297
-8.368314989816152,5.667134934613926,-1.2036500823994547,-15.138784722755911,6.734428403440333,2.310943135033098,-17.989136107061917,-30.668179773366663,3.463992295721375,-18.79636949832478,8.898574665298966,3.705713484852158,-21.53222231298321,56.805741457835474,-9.280461490770794,-20.923149420958723,8.086361968356876,2.6317322353687422,-16.39636803176834,2.381593066503632,-0.6856344573857318,4.163748142424036,-15.83673095054711,-6.189773666508856,7.0586871894406835,0.7377844055406364,-0.02958003080780615,6.834909053260065,-2.261704480609232,0.6718707100001783,1.9861057817148593,-2.006996884744683,0.08774051724868145,2.074815013253259,1.059079509381117,-0.16790000039147152,0.45607165242225917,-0.1955880920694073,0.023506651102765216,0.2661884432620607,0.02916113526775565,-0.015980192630136857
-7.661116733711563,8.545795406826286,-2.127742779559495,-14.400570604220107,4.5411642926740825,1.8743659887721755,-13.887697897076825,-15.797952331218468,2.0212377064710845,-16.436878819581683,4.726909904842515,1.9395996453124893,-22.59112130637978,57.09827605713243,-9.094165704818327,-18.045852281892195,7.119526442078422,2.357236794438592,-9.504956400691897,21.74111890614601,-7.5755140916065935,16.611565404622493,-14.655278227328692,-1.4242862212207685,7.342230563384784,-1.7508745718636536,-0.8124253734561465,5.747116358932724,-2.4503077560692077,-0.2545874491002683,1.0718869482237527,-1.8410380889919733,0.34396476939532705,3.1037066555965973,0.9691522572338641,-0.1453382602640249,0.08715442906616815,-0.06439095438562314,0.01365597337373563,0.5358225673517651,0.07427405916501466,-0.13089201751457602
-11.71893054291361,2.070096856874746,-0.9427092864248463,-15.953805552418459,4.266112903871228,1.6656924197882994,-22.081913036548233,-26.36188189016174,3.884255996216114,-19.723668286382257,6.129286409868211,1.1127914710607592,-22.80618560337533,56.440300003686886,-9.333427502759399,-15.50765766001675,6.032830299731812,2.048939710768283,-17.126905563501964,14.141391476225001,-0.9204093672881286,2.860841530008818,-24.882746983812062,11.540571266053318,7.179886272062734,-0.07367742045512363,0.16104719548995786,9.442679553417225,-5.124230092519327,2.5207195527538437,1.8283351972413162,-2.125957474279668,0.5289665584033666,-0.4494689644178197,0.32785975247171206,-0.03631849046775255,0.5598998772238543,-0.18645647341339117,0.07558568255532597,-0.36331496631733146,-0.14532314110734063,0.1734423944042953
-14.963387623960386,1.0385731647042917,-1.0252413698506224,-11.180089487832975,5.156193063439159,1.9532943817009882,-22.24175874312191,-34.670614942940965,3.6702317628306074,-3.462655319743874,9.046328311578907,4.165241220863161,-22.987626690199356,55.849866681526294,-9.463369246089428,-13.068280101788,5.128211761563775,2.0288791055378583,1.5661193047532462,14.841282758031841,-0.34487420306545136,48.255985725855425,-22.445615510660993,-1.6076159921983788,2.6474313518742916,1.4259242201274656,0.5401959748454481,4.872907127423954,-1.5914226004395027,-0.6707887832655982,2.242262881497085,-1.3419673567206858,-0.3540896303505804,3.9558920066363092,0.9288353339846043,0.03631146142850488,0.14326312795448617,0.042533420211931856,0.02632732104354476,0.7171863692470891,0.01554232500592343,-0.13720704977542267
-16.668602923813975,-1.6263802867200705,-0.7618840610529546,-14.094181325844403,2.3296239464038857,0.9817842398420155,-26.39359777855111,-28.47643768913683,4.505810161762227,-10.487221742996848,-0.646201669522961,-0.9766150252196936,-23.482593385435095,55.69700700125747,-9.750565119153462,-11.677551264622156,4.443743313507982,1.3340965343088311,-1.2610431310107506,18.70896077367486,-8.499366914313129,-40.35370808529602,25.715236236556763,-6.534486992828337,10.765726159912264,-2.1002987564891358,-2.1951777718313483,6.344136056746206,-3.602151927725053,0.7612755903684941,-0.12549888769688097,-1.4509146754080608,0.32892150522491026,1.0790631366833636,0.9344122448461321,0.1799968931920358,0.09018923448918399,-0.22645046146689587,-0.05926042480854797,-0.06668496011714606,0.033088654990216126,0.1165080602877769
-21.38893891040275,-2.5380947844435697,-0.43932242428265444,-6.693518841702268,2.296394187590345,1.1670406980321149,-37.03586437168737,-39.38183225368291,6.066309474475073,9.401331221380733,0.7134017521740862,3.7331588526519988,-23.36495462604002,56.58106202894136,-10.349853326543387,-9.174957226606892,3.82386623902468,1.2891449968454651,5.582116976960187,5.517857196315095,1.8825251021315306,18.11661122716721,-28.849204819051643,8.096765241404055,4.873076394613439,0.03100783790724737,-0.2379313268224006,9.212790713864404,-2.461459434314668,3.0609410513599924,1.4430583945228688,-1.2586030420089234,-0.1760130557020348,1.51503466092807,0.006201285275426932,0.26311485833659853,0.3021428812842663,0.05050473880406642,-0.11604675022263365,0.1914213633831717,-0.24831265645020684,0.08300447549448131
-21.93102,-4.76633,-1.02654,-10.87379,2.56704,0.62922,-37.1202,-35.8221,2.37381,-1.13269,1.73866,0.53345,-24.6393,57.7454,-10.95757,-8.0785,3.30018,0.68499,-6.44618,15.2648,-6.99532,-7.02026,2.63413,-8.16676,8.0399,0.28398,-0.57175,3.8933,-3.46396,-1.9542,0.95247,-0.74186,0.33762,0.7092,1.42666,-1.06015,0.26705,0.08428,0.03014,0.02219,0.15186,-0.19923
,,,,,,,,,,,,,,,,,,,,,,,,,,,,,,,,,,,,,,,,,
,,,,,,,,,,,,,,,,,,,,,,,,,,,,,,,,,,,,,,,,,
,,,,,,,,,,,,,,,,,,,,,,,,,,,,,,,,,,,,,,,,,
,,,,,,,,,,,,,,,,,,,,,,,,,,,,,,,,,,,,,,,,,
,,,,,,,,,,,,,,,,,,,,,,,,,,,,,,,,,,,,,,,,,
,,,,,,,,,,,,,,,,,,,,,,,,,,,,,,,,,,,,,,,,,
,,,,,,,,,,,,,,,,,,,,,,,,,,,,,,,,,,,,,,,,,
,,,,,,,,,,,,,,,,,,,,,,,,,,,,,,,,,,,,,,,,,
,,,,,,,,,,,,,,,,,,,,,,,,,,,,,,,,,,,,,,,,,
,,,,,,,,,,,,,,,,,,,,,,,,,,,,,,,,,,,,,,,,,
,,,,,,,,,,,,,,,,,,,,,,,,,,,,,,,,,,,,,,,,,
,,,,,,,,,,,,,,,,,,,,,,,,,,,,,,,,,,,,,,,,,
,,,,,,,,,,,,,,,,,,,,,,,,,,,,,,,,,,,,,,,,,
,,,,,,,,,,,,,,,,,,,,,,,,,,,,,,,,,,,,,,,,,
,,,,,,,,,,,,,,,,,,,,,,,,,,,,,,,,,,,,,,,,,
,,,,,,,,,,,,,,,,,,,,,,,,,,,,,,,,,,,,,,,,,
,,,,,,,,,,,,,,,,,,,,,,,,,,,,,,,,,,,,,,,,,
,,,,,,,,,,,,,,,,,,,,,,,,,,,,,,,,,,,,,,,,,
,,,,,,,,,,,,,,,,,,,,,,,,,,,,,,,,,,,,,,,,,
,,,,,,,,,,,,,,,,,,,,,,,,,,,,,,,,,,,,,,,,,
,,,,,,,,,,,,,,,,,,,,,,,,,,,,,,,,,,,,,,,,,
,,,,,,,,,,,,,,,,,,,,,,,,,,,,,,,,,,,,,,,,,
,,,,,,,,,,,,,,,,,,,,,,,,,,,,,,,,,,,,,,,,,
,,,,,,,,,,,,,,,,,,,,,,,,,,,,,,,,,,,,,,,,,
,,,,,,,,,,,,,,,,,,,,,,,,,,,,,,,,,,,,,,,,,
,,,,,,,,,,,,,,,,,,,,,,,,,,,,,,,,,,,,,,,,,
,,,,,,,,,,,,,,,,,,,,,,,,,,,,,,,,,,,,,,,,,
,,,,,,,,,,,,,,,,,,,,,,,,,,,,,,,,,,,,,,,,,
,,,,,,,,,,,,,,,,,,,,,,,,,,,,,,,,,,,,,,,,,
,,,,,,,,,,,,,,,,,,,,,,,,,,,,,,,,,,,,,,,,,
,,,,,,,,,,,,,,,,,,,,,,,,,,,,,,,,,,,,,,,,,
,,,,,,,,,,,,,,,,,,,,,,,,,,,,,,,,,,,,,,,,,
,,,,,,,,,,,,,,,,,,,,,,,,,,,,,,,,,,,,,,,,,
,,,,,,,,,,,,,,,,,,,,,,,,,,,,,,,,,,,,,,,,,
,,,,,,,,,,,,,,,,,,,,,,,,,,,,,,,,,,,,,,,,,
,,,,,,,,,,,,,,,,,,,,,,,,,,,,,,,,,,,,,,,,,
,,,,,,,,,,,,,,,,,,,,,,,,,,,,,,,,,,,,,,,,,
,,,,,,,,,,,,,,,,,,,,,,,,,,,,,,,,,,,,,,,,,
,,,,,,,,,,,,,,,,,,,,,,,,,,,,,,,,,,,,,,,,,
,,,,,,,,,,,,,,,,,,,,,,,,,,,,,,,,,,,,,,,,,
,,,,,,,,,,,,,,,,,,,,,,,,,,,,,,,,,,,,,,,,,
,,,,,,,,,,,,,,,,,,,,,,,,,,,,,,,,,,,,,,,,,
,,,,,,,,,,,,,,,,,,,,,,,,,,,,,,,,,,,,,,,,,
,,,,,,,,,,,,,,,,,,,,,,,,,,,,,,,,,,,,,,,,,
,,,,,,,,,,,,,,,,,,,,,,,,,,,,,,,,,,,,,,,,,
,,,,,,,,,,,,,,,,,,,,,,,,,,,,,,,,,,,,,,,,,
,,,,,,,,,,,,,,,,,,,,,,,,,,,,,,,,,,,,,,,,,
,,,,,,,,,,,,,,,,,,,,,,,,,,,,,,,,,,,,,,,,,
,,,,,,,,,,,,,,,,,,,,,,,,,,,,,,,,,,,,,,,,,
,,,,,,,,,,,,,,,,,,,,,,,,,,,,,,,,,,,,,,,,,
,,,,,,,,,,,,,,,,,,,,,,,,,,,,,,,,,,,,,,,,,
,,,,,,,,,,,,,,,,,,,,,,,,,,,,,,,,,,,,,,,,,
,,,,,,,,,,,,,,,,,,,,,,,,,,,,,,,,,,,,,,,,,
,,,,,,,,,,,,,,,,,,,,,,,,,,,,,,,,,,,,,,,,,
,,,,,,,,,,,,,,,,,,,,,,,,,,,,,,,,,,,,,,,,,
,,,,,,,,,,,,,,,,,,,,,,,,,,,,,,,,,,,,,,,,,
,,,,,,,,,,,,,,,,,,,,,,,,,,,,,,,,,,,,,,,,,
,,,,,,,,,,,,,,,,,,,,,,,,,,,,,,,,,,,,,,,,,
,,,,,,,,,,,,,,,,,,,,,,,,,,,,,,,,,,,,,,,,,
,,,,,,,,,,,,,,,,,,,,,,,,,,,,,,,,,,,,,,,,,
,,,,,,,,,,,,,,,,,,,,,,,,,,,,,,,,,,,,,,,,,
,,,,,,,,,,,,,,,,,,,,,,,,,,,,,,,,,,,,,,,,,
,,,,,,,,,,,,,,,,,,,,,,,,,,,,,,,,,,,,,,,,,
,,,,,,,,,,,,,,,,,,,,,,,,,,,,,,,,,,,,,,,,,
