PaulMeinheit/Bachelor_Muay_Thai/processed_Data/E1/teep/scaled/JointMoments/scaled2.csv
R_KNEE_MOMENT,R_KNEE_MOMENT,R_KNEE_MOMENT,L_KNEE_MOMENT,L_KNEE_MOMENT,L_KNEE_MOMENT,R_HIP_MOMENT,R_HIP_MOMENT,R_HIP_MOMENT,L_HIP_MOMENT,L_HIP_MOMENT,L_HIP_MOMENT,R_ANKLE_MOMENT,R_ANKLE_MOMENT,R_ANKLE_MOMENT,L_ANKLE_MOMENT,L_ANKLE_MOMENT,L_ANKLE_MOMENT,WAIST_JOINT_MOMENT,WAIST_JOINT_MOMENT,WAIST_JOINT_MOMENT,NECK_MOMENT,NECK_MOMENT,NECK_MOMENT,L_SHOULDER_MOMENT,L_SHOULDER_MOMENT,L_SHOULDER_MOMENT,R_SHOULDER_MOMENT,R_SHOULDER_MOMENT,R_SHOULDER_MOMENT,L_ELBOW_MOMENT,L_ELBOW_MOMENT,L_ELBOW_MOMENT,R_ELBOW_MOMENT,R_ELBOW_MOMENT,R_ELBOW_MOMENT,L_WRIST_MOMENT,L_WRIST_MOMENT,L_WRIST_MOMENT,R_WRIST_MOMENT,R_WRIST_MOMENT,R_WRIST_MOMENT
X,Y,Z,X,Y,Z,X,Y,Z,X,Y,Z,X,Y,Z,X,Y,Z,X,Y,Z,X,Y,Z,X,Y,Z,X,Y,Z,X,Y,Z,X,Y,Z,X,Y,Z,X,Y,Z
-22.408330000000003,-6.331590000000002,-0.7299500000000001,-7.714570000000001,1.5160800000000003,-0.007650000000000002,-36.631190000000004,-41.84927,4.474690000000001,5.246870000000001,4.66765,-0.5583300000000001,-25.03406,57.80482000000001,-11.141730000000004,-7.109200000000002,2.9387700000000008,0.56121,3.2273700000000005,16.031349999999996,-4.878000000000001,-19.10808,-3.7135700000000007,-6.908580000000001,10.382340000000001,-1.2244600000000003,-2.3327600000000004,6.450540000000001,-3.90785,-0.67775,-0.25775,0.14804,0.35455,0.6911300000000001,1.4839100000000003,-0.8449700000000001,0.012740000000000003,0.18874000000000005,-0.03712000000000001,0.09133000000000001,0.12997000000000006,-0.09946000000000003
-24.929712176670215,-3.9564147963113547,-0.817329522961845,-8.709650403628993,-0.22599848464512887,0.8200216961822568,-40.81528424558661,-41.877770908533726,5.582835382340875,4.703209784297699,-14.005981960935602,0.18355493482686958,-26.234740066110326,60.00109184341961,-11.576332175813516,-5.469166371320399,2.112601946070232,0.469886026406119,3.4275401165898596,-10.178624367029508,-3.531947201546298,6.369767776532434,18.724173554104503,8.727909906191028,9.122237790090232,-2.745306279454056,-1.4195844114126441,8.614670132046674,-3.052535904313333,1.4593583165351982,0.7011462133603874,-1.9361526945049328,0.39071447406270293,2.3100237570674347,0.896499803727458,0.18043435910444874,0.3757316596197822,-0.24639899879367266,-0.0017660549487945312,0.4608242315598253,0.01805720988070266,0.015412818839631942
-26.62315902369981,-7.230466162463093,-0.9377307077669308,-1.4543477810382222,0.9884166306224412,-0.11996769186175778,-48.93407789605345,-39.025035858384825,3.632766238033574,19.909121305504314,5.905263054829274,2.8772240020210207,-27.338022601519665,61.071495699057785,-12.467787869099787,-3.3124952531658236,1.0881612866726587,0.19888295243595008,6.099264355414473,23.001703719416565,-3.95538239197018,-5.434123791032572,-40.57430865121826,4.895802818328036,-1.1742430730072606,2.426046457603292,2.114467823907594,2.430341204807118,-2.0109734035375655,-1.271754358835552,1.5330756716029745,-1.3863797831446372,-0.3309378382125698,-0.6743504217621518,1.3633689043202797,-0.8689926592995025,0.0831675554876833,-0.12526624029021996,0.05123038717440567,-0.4085378574310233,0.239325533362196,-0.1263919144053881
-25.996948725786243,-6.193502902632411,-0.9924255381872913,3.8371050469956955,3.260882118735934,0.5058216592259692,-49.840737310140085,-40.43211381177584,7.536734205961389,33.30812415268024,-1.6356313014601578,2.023575727844935,-27.63387253883361,62.074503737462436,-12.909238315394328,1.0117177588905124,-0.02360764570737607,0.19074631555368393,25.960110495346385,17.075890579732203,-0.675632258430184,-13.519844080100052,15.620217099665936,-1.702598576426944,9.033136610211217,-1.027700368110056,-0.6022460608414019,9.376001073590094,-4.282639370306407,0.7635534425793059,-0.2539075910997137,-1.4575068986978028,0.6784988455147655,1.2537212174185584,1.111129061138823,-0.3289846751700899,0.12027110249244048,-0.20709039939759014,0.07113888617359862,0.29086194110654573,-0.12452485603140726,0.05356652507574545
-29.313666018665124,-4.2446334483363914,-1.6167768752600775,5.444441154619208,-0.9652867616818714,-0.36457449939092484,-52.8844742051584,-40.43787921434238,4.7661443253037135,30.094364094795537,-7.553464508432734,-0.945578160042335,-27.74252407179243,64.03851737097446,-13.828073908169133,0.6352648753831239,-0.21951784560597157,-0.058939725664160884,11.774341952691438,1.9392646970592464,-4.408066552949162,16.377125927557877,-43.431528631749536,10.709529292087193,2.630492765298975,0.13686839422793512,1.074333002326682,2.6099329297104448,-1.2243532043043082,0.6873644917966248,0.07662268467571026,-1.917676311357585,0.0524029876601624,1.1952026377777796,-0.036823620337084716,0.7226574794188004,-0.08814380358321233,-0.11759314736560739,-0.0672549206273885,0.021385135663032354,-0.12598446434614952,0.12537061850055992
-25.50304081422567,-1.5718729268044966,-3.4010735328169006,1.0463984975177651,2.3862656464477805,0.26241869036465,-44.13375154553525,-33.807083517295915,1.840890298099229,20.910972742200414,9.93218579825476,6.7679110595971235,-28.408426111131323,64.73627252336195,-14.529734902279454,0.6843358264219367,-0.055990168106398806,0.19258981222611177,17.614886464040346,39.79250656516989,-0.6482705328349011,-20.54762009532954,-16.522711741110808,-7.754195093500524,7.465057270058254,1.4193109149877612,0.5471409780363946,9.480390062243888,-4.3210777643193845,0.27687502025044725,0.9507408810197092,-0.8602100155189573,0.28842703810270387,1.7697514933053908,1.1324107954786284,-0.4779736257355922,0.10615024820317913,-0.010592196003438322,0.14277879476671076,0.3165491020168448,0.07418862502060437,-0.16556969430343296
-27.853998727285482,0.18521774041862818,-3.9981905814645757,4.769998906574317,0.2512189299297424,0.2340626261645961,-40.052662217598055,-39.92524646787217,0.9219691656848588,29.425219293673344,-5.045041454069897,2.3634182716057155,-27.06182483831904,66.88107753417637,-15.6344089181881,0.7787159680900961,-0.2529847281374498,0.19899570395059546,25.29042236869444,6.473714148738061,-4.221106289898028,0.4478847843041168,-3.2532193771907805,10.322889642252314,5.375991394748033,-1.7553597013017646,-0.46517296227844435,4.550619751803008,-1.167380046188948,2.116059871476834,-0.04766177090299961,-1.3309555876716763,0.42587791094903626,-0.7074338242916921,0.6184931096118603,0.12351520334462245,0.17497502369922552,-0.09892178784299585,0.005592265522553176,-0.2383738473221816,0.018172558932813224,0.17224477356969614
-25.979210924326992,5.3785450779048825,-4.930538865877482,3.5345333525348854,-0.7930563080193681,-0.7180531800944454,-43.422626845412125,-25.905234001936794,4.790161039059734,23.17471171863872,-10.538008500054051,-8.805857124280722,-26.298895689922627,67.5640515327618,-16.515360810458645,0.6656134969949521,-0.12454502288462044,-0.16480217831951247,10.71421883179325,9.771560632230171,-18.219722005398832,-6.040242970825926,-29.8340384599248,-2.0258449674761323,3.970435474713235,1.1119892458604328,0.770348451597927,7.159011565882956,-3.101236717355407,1.3263639880666456,0.2047134154562375,-0.949262405126307,-0.040215033025885825,0.8394688809796784,0.42363954827278427,-0.062463760672173754,0.016841864261807657,-0.10168691672313739,-0.016974089546433802,0.12137651234259812,-0.09914441446083376,-0.0022729833577542387
-27.613839993006557,7.121145881019813,-5.982817800703993,-0.06930684217312139,3.4433620632543045,0.5960874198359721,-42.34513404553933,-32.56472021111549,-0.13909025108479134,15.585946457656629,10.221930662213017,11.993266033485687,-25.957305589692858,68.83442339876535,-17.449600550568057,-0.014609911726495981,0.015437113446445532,0.0026991412588598255,4.099761825825442,34.50072551172289,5.791583823606424,6.318495663280985,-11.576847835747376,5.887743593789221,5.745953585829563,-0.5255064691360556,0.9982450738139201,6.239553651608972,-1.8733520568144688,-0.653163763247057,-0.4172235138817619,-2.0635516873300834,0.6205116508402144,2.385790233105495,1.7861228770291189,-0.07679419279193442,-0.00653463476425822,-0.1922021626301944,0.079944034877831,0.5189617831148314,0.30457594509277724,-0.13065035030191924
-23.428740716611173,10.80060857839159,-7.393340592297298,3.6155517648597013,-0.8083466766268311,-0.1923051566392166,-25.03461939922917,-34.8982831894121,1.487496954359995,27.845020037800815,-9.933471596543416,-4.218888222981332,-25.8857205988561,68.79740646816862,-18.177899322396616,0.5138594433947388,-0.08153847319049205,0.06421769364647104,39.2166641208619,-3.0595482914936785,-9.175375208517416,-36.07133881226958,-5.001290292174763,1.0881815656925906,6.68398221899995,-0.7366890866244955,-1.5981059003987546,6.736415402540275,-2.2547795323017397,2.304850018036629,-0.13659162632972657,0.44053707133750564,0.22787757549434787,-0.657128934152743,0.4578663910252599,-0.4074537478083728,-0.035275033334125634,0.1503661288194304,0.036038968802074765,-0.2634417439499526,-0.14436097209225376,0.04012571759132728
-26.25161716913144,12.53316894015519,-7.693076288184002,-4.251356565224569,-0.18227450600401643,-0.10299142615117748,-29.724988255515953,-32.63248653759689,-0.2692938331697032,19.59314836965496,-4.7759553713902525,-1.8816731515815144,-26.116115773910952,68.94037452344271,-18.865738617579556,-0.3552928941160615,-0.17523327703824176,-0.1243862445133366,25.506881780914973,13.132897629232856,-12.591713132545284,-18.238338525644554,-7.271137026273137,6.787228593701601,6.416690861447743,-0.7191768341770004,1.946521554938388,5.138152500587422,-3.2085714232015006,-0.9711070887425627,0.12433723867834456,-3.3329388230843047,0.40203473786690935,0.3390502220896856,1.246448000943206,-0.10976966985588432,0.18329642893713316,-0.36367443370117386,0.04436259293515608,0.13994959353027916,0.018575000205246876,0.11574262896270462
-24.247177850074745,13.101132032066438,-7.4002691915828755,-3.3010321217631313,2.567552095063204,0.4233682906367943,-32.985726768572796,-25.008045665636995,2.241060444589698,9.406253625178694,-0.41892306787133227,2.189583182406198,-26.13609774287433,68.54693413113445,-19.110717099443672,0.032951214095825646,0.16315868679812168,-0.07624028629222572,-2.1683797753560334,24.402042428778184,-2.257909661991561,-4.268942283505115,-29.309332681819463,-0.43505694417620566,6.865857464857017,-1.0995587817041754,-0.8056593533424271,7.313441022695464,-1.393605724545171,1.1180349528739173,0.708402637609095,-0.9693392680375723,-0.08750260268909182,2.4944839445245197,0.9940994668336642,0.02796887516176956,0.2597896128492051,-0.14589697586787423,-0.006796423927655814,0.4987316356359729,0.08154940895891223,-0.15549609269521225
-24.059554778218008,10.831133115497328,-6.568366030117166,-3.6923170131432177,-2.085013171468452,-0.09356342084446508,-15.515651160917285,-39.176224592724246,2.480024352108186,20.096908505779304,-11.596045297625201,-3.9514468352900156,-26.393524038648337,68.58926825004765,-19.35486389035455,-0.19211466161226834,-0.37552129631413567,-0.16654664781431436,43.8294384982961,-2.5869550538474617,-8.386030356367757,-32.14445144396876,15.729102225540837,6.935866921063617,9.02481004599598,-1.55333077108324,-0.7912742103321111,6.773647038721826,-2.0552229739837977,3.5731256575476915,-0.1824835687199699,-1.0334080808069859,0.2610841739667503,-1.850166110317254,0.34138810212422044,-0.35278071023839846,0.0888603873240445,-0.04527269187120235,-0.0022970205324519787,-0.606292697754078,0.00021310763451730993,0.06403212113428404
-25.110137261634762,11.054530322420574,-4.78905760886321,-1.0359922210323804,0.6264845741349928,0.15282349121009228,-36.36122891258696,-35.24179076390153,8.974130822015631,26.360875459826097,-4.4502109593598345,-0.4451099270035942,-27.06230047008118,70.74436165804829,-19.737433453911375,0.2569061231596764,-0.13626671219937084,0.11892461294047714,18.73208067740703,15.681171349223174,-7.2774426586395835,-20.664314222900497,-34.126796439155626,11.91965960840514,11.237514548285453,0.47768458106968126,1.8505508129054196,9.354665413697914,-0.5236419908439828,4.411207834779281,0.9253355402963723,-1.9357627287041925,0.33673414701065957,-0.2621781880213581,0.9363271433742031,-0.7533564799443352,0.308315530061052,0.020308676575848755,0.07924495755506325,0.21990456853418341,0.007164303532482215,-0.027868802138664314
-20.656385690676476,13.448982375907999,-5.026671314313014,-3.873958049745291,-1.2047983818855612,0.18318134110073178,-24.076265918221377,-30.76165847627476,5.466206101623836,14.946709113638127,0.2027149431557072,4.423086695850612,-30.161693628603306,78.58817407252076,-21.286157001220047,-0.07311269049777383,-0.2680994191027461,-0.11636007056649027,21.04884631354287,30.3322310914525,-1.4341752118787763,-38.164638951378045,-3.7688534901868693,5.665550943671526,8.692234244643984,-0.637391881613795,1.9748231159049616,13.262675753331449,-4.0009900898195925,2.4761262301397093,0.16828074541409654,-2.815262560914866,0.1669671589602658,0.20260468566349193,1.133282267881878,-0.36813194594402254,0.16976331511521667,-0.2504583742214162,0.06521622214485168,-0.07343696967461716,-0.0017657666138257578,-0.06311196209167048
-18.9245244994672,14.161758523312729,-3.851899133264746,1.4112759064649465,-1.0633316979699348,-0.12206326590849316,-14.377116505547372,-34.58804701947798,8.517335626430127,33.18369827396854,-8.481322164647743,-1.846125032496376,-34.136682964179734,91.0887015110075,-24.466279076615614,0.44048988893599267,-0.3810994081110196,-0.023840553920255247,59.33623251455437,16.99760920273829,-7.982326703568908,6.64338907797097,-27.401641033408644,1.9894464423870428,10.061022784396618,0.6863237308746029,1.700148888705582,6.750453338031367,-1.3753216906073966,-0.3676075577400199,0.7770809028161305,-1.6205103637633282,-0.3876391362940357,1.065666405113774,1.67468616719018,0.07665919330945781,0.5435758687634139,-0.050690736010666995,-0.1419403055397518,0.38698694226984703,0.12178808582892597,0.0469000671302315
-15.017293171706866,18.655645963122577,-4.139727222208884,0.5951747482363818,2.4908879521998775,0.21007776674018966,-17.417669137288986,-33.86636023213986,12.643615850874829,23.820439398892358,-1.4115836304516773,3.5842557181747874,-41.49242171825725,103.94432412945824,-28.49962645839286,1.0154050602000466,0.07864367283765873,0.32378324747932774,38.54110516440937,21.77392480709792,0.9607239688997968,-27.763024154553968,25.410683870650843,-7.886071375425537,10.398961289570098,-0.5711803736310261,-0.18616256105483517,8.722775503024087,-2.0199581508330873,-0.9276256970503702,-0.5917514442510862,-0.7310865803042298,0.22185349568675414,2.622662268515369,1.726410560886175,0.8056030266651862,0.031175122298382017,0.012150607622047482,-0.0013259935810746512,0.48981796290607377,0.07393028475072073,0.05453255474214719
-5.204261739878779,26.412575418987608,-7.234816900428948,-8.071182456823397,-7.04490648171541,-0.5100948553596654,19.841492575878828,-20.46353820629375,5.447188494542424,-16.241651447691062,-4.577545833504132,-2.9420095615304493,-48.53620014338686,108.74794787095855,-30.336216916468324,-6.821927012225133,-0.0310812396086853,-1.6584168083449762,30.611513266436273,41.833436703361684,-5.442022782420922,-33.92999699935075,-26.931485069796963,8.787501809216305,7.181252170352501,-0.5314683345982232,0.35846416055620683,9.326613034536644,-1.7951245674504135,-0.8479169398077042,-0.0412792581769136,-1.3361010419666774,-0.3162802250194996,0.09488876455367415,2.0317072513640273,-0.32098450809011925,0.29813985316508207,-0.08433422206721333,-0.10294269573788904,0.3219683788963755,0.12121795071263193,0.015676176293734127
9.893567200023423,25.709366555103955,-8.6355970821187,-5.154004018413456,-2.9084312599546687,-1.6945550721090994,58.644276233741344,-37.8750007815551,4.950247053170991,-48.13219887193735,0.2238428383284993,-6.765984240734258,-49.375025261038736,100.17511646653979,-28.54069718264586,-15.072700671425604,1.4953437966289178,-2.0515163638710394,33.08322853219809,-7.932045680177968,1.097930516021054,-24.439057500800377,-44.41465780074825,-8.585655412949613,15.59660122378567,0.5627111099883809,4.449244528899688,8.085704560326391,-1.4018529466159337,0.4022843152679841,-1.6745772425613437,-2.8092058945416785,0.4994548569760331,-1.2090195014929233,1.0796392809247022,-0.6356820324737077,-0.03093426189563531,0.12431595960022544,0.15033857176096338,-0.3141102087933612,0.09349803400112079,-0.09406619227700969
27.840857709411605,16.610592805938897,-7.848499772248192,15.42189500526033,-6.5961509055091305,-0.9933043343438551,99.18925999934643,-16.59663349795153,1.4234080587377593,-53.92613595557301,21.475070132573023,9.163167652170317,-38.126637599183695,72.72614585767323,-20.935422893256145,-32.08398638865814,7.085241209779457,-1.2524152368227701,55.76917990299165,27.65392494807419,31.562072126602605,-8.231265590011477,18.413413006201612,-11.627405016492542,5.72014023165338,-2.497412311258546,-5.790632172160268,3.7234345594066087,-1.5011745239165577,-4.585904672479446,-2.5352254435214183,0.019158119990035187,0.3415631731952185,2.6836066113253323,2.0635752116547685,1.1118274119674882,-0.31578863657964984,-0.04689412912038945,-0.19848618768343576,0.3579730646500613,-0.04749316181713888,0.042243736549048824
44.364363608262146,18.61320495163903,-15.647439826398433,48.16748886742972,-13.018398451742708,0.7505991758534972,117.00228733619277,35.170816737693265,-12.815502065232595,-40.24643102918535,2.8282890819340505,-1.2631699036969537,-12.766258327711151,37.99808551533522,-8.726416223526176,-54.203806167541245,16.135068343746948,0.24301340881522468,62.754646022311384,22.767904943416795,-2.889310068623656,-21.38032066694182,-43.12247932920408,7.375655503344358,7.238987049654684,1.2552642065068667,5.040698947310375,-2.1301573847251722,-1.4625888017767372,-5.967873591190734,-1.4040751559497555,-1.273846013181583,0.85452740471686,-2.596411864304496,1.9843956771177427,-0.8477167870104956,0.25078626204805715,-0.1074582417155728,0.13740494115649432,-0.657590935200942,0.3376996200720945,-0.059357471845677384
19.346646909108706,14.210649595324142,-16.411350859117942,64.10524641390474,8.246398911203073,-1.4667677041143004,87.45254323819947,5.867137195854188,-9.615468822416203,-45.02165457181886,39.817436570038254,5.07685565700852,-0.11735426819257634,12.219973665989333,-3.702879759960565,-71.32051923068224,18.444232221270617,1.1249842570358068,3.010983876935912,-31.51310178955245,11.048860639667572,-4.397641363707955,50.949876736523656,-25.50664787756849,4.788805559448454,-1.8715084811655136,-8.381174140669659,-8.728901242770853,1.18985951121195,-8.724005327890739,-2.6572222155207164,1.0610341681490143,2.0223293469454373,0.8453542537772006,3.3789584246806497,-0.4575472424527235,-0.583796905963449,0.1089415678469353,0.22844334524526935,0.13104051280278528,0.6324537276120011,-0.31966099139994414
-0.8383858377175392,6.61292574045231,-11.218844602113967,78.40733331149215,22.19701705185223,-1.4088217612744773,94.91936470555666,37.26898097339065,4.231615990892611,-26.651758297692254,74.8687611154557,9.576422785504802,1.7186858321568446,-2.7339466508196244,0.16051233050625885,-79.53228583504013,18.256573945482646,2.401608962298197,19.926884684724214,32.8958757846587,27.90775617818497,27.319928344051675,33.58851836079671,-14.56911467231136,3.1977179774627604,1.2674569125393664,1.1133679416973943,-10.666966670604078,2.1287824335338232,-5.354690538980046,-0.6027345724061997,0.7923901901316073,0.21172625725714314,-5.053856678824564,1.6777014314311336,-2.3968867548713315,0.34995542210938624,0.4379477223879275,-0.2521270046708538,-1.4742512546383308,0.48056233156928463,-0.30820328667991154
-14.036894022684468,8.129756815001123,-1.2151331966736523,77.73726227009676,25.579358775395825,2.490031670495767,26.275253284563853,-7.273512506774798,2.3737236994730884,-17.20294411185106,47.43143419807283,2.5603787141381513,1.244681349358433,-0.4278334081532057,0.3281488400343871,-80.4780855835302,20.72562198990135,3.6323543458043694,-42.76543821474971,-75.54722232394974,-15.143647335754647,-27.79671498706194,42.10746474081455,-1.6243861352664615,4.436382817927817,-2.808919402272308,-7.1178957123394255,2.3013038996581296,-6.957171172571164,-8.482434396748182,-1.7456294950343754,-0.6201172587271456,1.0381644364816047,-5.617925225797555,6.868432075391212,-4.657871053583758,-0.40960316947264286,-0.37539962965826473,0.18868148080631106,-1.1254195396038336,1.2860932496775195,-0.35689140775169825
7.062538204058868,5.966666938226092,-13.747931170362245,59.49428463025815,34.13857694106105,3.491302334466531,71.05107106525331,25.349350538907736,20.867251954589573,-37.67744825995862,51.97816776723135,1.4121125538278778,3.15756358628918,0.2894676226313526,0.24185146572604677,-76.79883089921128,20.858370994604098,4.816924725064455,-2.1993750989299055,-15.775017559786967,26.300327378435306,15.814010110589134,25.579979900676207,-5.255890110740719,2.802626546387854,-0.05230155570620435,-1.4098590731381864,-3.453710022067195,-5.758959151709054,-7.940595562433406,-0.3345413793548668,0.4670811384666381,0.2308080103716631,-1.6433557877663867,2.3805556304048707,-4.314430179829019,0.10329908358979048,0.2437191776666884,-0.07613926536014451,-0.6318384640561802,0.6771511439430216,-1.001446793051414
-13.469701574813087,2.088179647622643,4.382251602071725,38.074100225453435,33.45870437670213,3.4551905335671025,34.39402666966724,-13.069086095605526,-7.574541534276084,-0.5545912186501964,52.23077562168933,4.8559013572924155,2.2224231736666145,-0.9007455181999413,0.40459288707331004,-71.604758646925,18.91979095003545,4.464654728867828,0.4338665671886633,-57.631585926125105,-54.48589707791365,21.730149291543672,26.568960460290686,16.03785687714015,1.6766802652906005,-0.6774126932749512,-1.805784517007327,9.408616470968147,-17.12213139281604,-3.23431087589183,1.0725969365790748,-0.5485276019168585,-1.2233364192036986,2.093903962691641,1.3246819619801793,-4.854567704690101,0.03797849850922887,-0.24492719005286484,-0.148353627629878,0.28122066588623945,0.19311724255430837,-0.7213627403543432
-8.499840546777392,5.377249576958509,-4.240371300368904,28.38255939981605,24.74023221825768,5.098831361728008,23.26786196676344,10.688972152410456,35.39963756054178,-33.03589704131858,43.919840434175335,8.637510532853087,2.423626957512636,-1.3658811102282136,-0.5229759599779041,-60.90832191707149,14.597663872497948,4.3193415541116735,-31.252681211461674,4.841240724476074,19.419544855462703,70.49880899710321,-7.163909207721059,13.140570075140058,6.302319140977506,-2.8299980820248396,2.8939135195564982,3.836585065187032,-17.98288526833444,-10.923539189922659,-0.46594147446664136,-2.7438543246333955,-0.569156005428228,8.467530514687883,-3.789607019333959,-7.621079248013934,0.3070622835060533,-0.06874365340598672,0.14634637384243782,1.7255144151090303,-0.9657389958994044,-1.6394074499371196
1.0075506891991002,11.224592965721879,-3.7461310856439547,19.77155931879138,17.173692840600793,6.960772512872196,39.04674064896799,3.328955590485124,-3.113067663503017,-45.90899341610258,18.9810085501385,3.350159010890725,4.4601841599600345,0.537709824880198,1.3771299939926862,-51.58529145022301,11.892993828629312,4.301793586934559,-12.998000424667822,-33.18657308653888,-29.70795235957554,41.898125616121895,19.760299974183216,-27.416573570845678,7.270913787224346,-2.235415349973554,-2.8052900307042195,-12.094098745430083,1.6570859168765686,-9.790412105187016,1.4941574602074912,-1.3142315889937743,-1.257455627847262,-0.4394914622837514,-0.5050924422394163,-1.1869029194808918,0.34559641183250306,-0.26042979821272383,-0.0644186660416496,0.010276682466531453,-0.2803164762820203,-0.5461965657786158
-4.496202532664636,6.431876497210268,0.12863493696595468,32.218003924316854,26.737911193829103,5.5534352676009195,23.554280338731974,10.44411822354262,1.6623164620598305,-57.224992917338724,59.16659579254497,10.970197185708773,4.242477402816013,-0.7698180953299077,0.7920718739458195,-48.08782122743014,11.022446923299597,4.517741069762803,-51.89199812463386,34.56303227498388,-8.264512302155179,119.5018172619533,-78.216168413952,-17.50127771947538,7.18728482516794,-1.3380013424314705,3.4912568968152047,-9.636472686017806,-2.9595699550943557,-10.30208419557079,0.7330528926601779,-1.9493276738086067,-3.007058724391529,4.253979032449447,-5.36019869151314,0.9544490247338926,0.1067355204923985,-0.1774810182944528,-0.47760780947292286,1.0891532094678653,-2.0108774860205165,0.15061387880904692
-3.0499901695668923,18.197470771516894,8.353806960663638,37.623813306659194,27.423240235171242,7.899522887444989,-106.60412995076672,12.414863139541351,15.400676603433475,-48.395237813057044,34.52150297248562,6.506071183089191,2.1970698689642543,0.41000190071206327,2.226270208934758,-55.55596497690559,8.099986508266277,3.9002527596659426,-171.541851708225,51.460047903724984,61.58513547142686,114.00647402189094,-28.909295163707718,-12.808864907797073,9.34344773101181,-3.205068164288302,1.5485261446658267,-16.4932185462959,20.3620249354082,-18.017938591911197,3.227454696439655,-2.830763216385837,-1.385791254384289,-0.29154929682587655,7.276333607130753,0.14885482245407275,0.8850675620648346,-0.01604734662887481,0.404517941247678,0.4951616659399835,0.38122607484075766,0.38657221277067716
11.157827794377678,1.4253573790453546,4.597633011207112,65.59158931500068,35.81204347106711,12.732372340213141,-88.40755043733051,10.469384107728585,-37.54433945168282,-10.713204762156932,21.38838849321675,8.5997091251731,1.8605609332529836,-0.9877124530825935,1.1939323814725151,-63.77240190112315,4.887283241196103,4.921389837030236,-106.08978022902244,8.978607101674795,16.22634771918754,193.32966431429972,-14.269355263898051,-36.68058422984299,8.579796334049488,-1.8194678494778422,2.0286756143515823,-8.809196712362315,-7.193716605647302,-5.1485187501352065,-2.7756391326696,-1.216863812318416,-0.9563988857854266,0.25040632123105905,0.08927916032158767,0.22794082494548376,-0.2736135531569455,-0.05398166217945979,-0.5166421874643657,0.12686156647260075,-0.030238125367310298,0.16972487859644145
-121.7694559485246,3.955887038969073,-44.63358371540026,93.30415642031903,42.07400359480125,17.790153037368146,-224.11438020830434,0.36616629496524433,-93.16921537239209,24.154129119766647,23.49445579183199,12.90775745753547,-5.928885908627533,2.2244768949475944,-3.111527304371163,-62.44198805261551,3.0534307069603326,6.3711658773989965,-238.97956109708565,22.189014945026216,-93.61221864455854,122.9092009465423,-19.73973515086414,-26.457143702730537,8.545018447431813,-1.3209935910198554,-2.1975582461951153,1.4955214294482937,19.354883503014232,-6.146006134431344,1.7952144496615507,-1.1690406009496042,-2.207261947208921,3.730632731348617,7.9601382699075085,0.5910697105456996,0.358089486836415,-0.19174860015783327,-0.2783163377287266,0.7844114950876967,1.0884941939464543,0.545735808293295
-82.8295573068905,7.177463808275339,-9.127795843130183,128.01557309265792,55.714346739447464,17.4295511453316,-104.2854439318946,-2.6364716976766522,2.2341520026574284,101.09892493264866,43.163050132457364,12.365922266718888,-6.181068320365736,-0.8438212506013185,0.026155232440721675,-46.4269742116976,0.6242882757477228,7.153901042961616,-53.6772301381124,1.1623271304384544,-35.56541494866778,115.96123753391886,-13.427660611899338,-23.001025927984156,10.482445257058133,-1.6193225590932323,-10.992638957199672,-6.729823409004143,-0.046375573668856945,-4.069836860273606,1.6949695200072012,-0.23290722391220253,-0.9251956753465331,-0.4614260506856943,-0.02193639526132714,-0.4723535691165806,0.4625994865579122,0.21041809433339642,0.0017559913065356763,-0.23488174482750074,0.010349109152160639,-0.3589230388349579
22.59287325678843,-3.0258978352117616,-25.76126905305214,158.48712335013892,52.05821398928866,22.79739670537902,81.00199574553685,20.059651993372256,-73.2351796713036,143.38944076906762,37.087885348635275,20.775131523233355,3.8990182160621814,1.5447650884523827,-0.9861643557952355,-21.5092034619571,1.499935503657854,7.04964838208271,185.80912473005966,3.0975333822542126,-101.61924830207872,-11.212905165206084,-17.73356365130041,34.72238521892868,2.9557132665740453,-0.20066466260668972,4.2403714585243515,18.672802705145067,-9.507095066262114,13.380718755967647,-0.5712274787096505,-0.8545092643980418,-0.46286322240437827,5.0105767880698355,-5.002721326021977,5.231662067564346,-0.06697070313017676,-0.1529973606893852,-0.14978911171649775,0.24169043336040244,-1.048463520907501,1.1646190000525702
21.089441057443132,-1.7249992128121252,-7.8831757794768045,176.69803319874424,53.8983317281904,20.283430977958403,119.21621489865973,22.735953292546093,-65.34819098514173,153.5156820264041,72.17535503807932,18.985232057934684,2.775416143736001,0.19388068674968664,0.8636490642935335,-1.437224271777342,1.528226311892075,5.965196177272359,238.46882241488086,32.23254736191712,-116.32051374804328,-17.93310678997267,-13.036400149430765,1.6406643786731794,9.886755792907639,-3.3724761565517216,-4.748822239746292,23.303582810848443,4.273251474715432,6.499839528917087,-2.965363628519158,-4.122081654277038,0.7256489874269137,6.194189417686049,1.2390730381222663,3.4233262826997275,-0.1811871002478764,-0.6756920834482423,-0.07892779415133006,0.20969720387257065,0.14029874606421677,0.3297141519871602
1.6049519276422395,1.9509574593145982,-26.050326253258767,183.68384308776388,55.63742212158092,18.67584624859693,69.3616087449621,-1.912494462667898,-41.02189609329793,192.7926019430884,61.82560075254341,16.98078144731365,0.6846723061638821,1.9138822671273763,-1.807371537621311,8.922137193395168,0.2916893848295238,3.744508617700417,261.7629005542339,-6.4129475908642055,-67.97681658718541,-90.45813685437157,-50.018748565704755,34.65311509186348,4.600358012817638,-3.3415900034582693,2.060152979068756,27.772638261907876,-13.600706578543331,16.707048762981067,-1.9458215246549506,-3.8143004280004495,0.898383587152797,10.156085835811293,-2.299456928866434,5.435620252572541,-0.07215880000735353,-0.5246511829375697,0.2047791928896779,1.4189781411826088,0.2383822915301259,0.9254035767250173
-52.86259999540348,7.389391515468691,-21.286113255571607,182.21064835796008,59.87909765205478,15.765669759282318,-75.9291493605293,0.9140470753677684,7.761734654142966,193.82224324340456,67.60047196646387,13.473288969406397,-5.157977053519511,1.96494406970187,-2.8985723199518603,2.6217721277732475,3.27855669802114,3.3763819388091356,93.79830273257113,15.266267267361517,21.84784535647509,-47.556426975707474,-60.160706968157804,-0.006662812307032251,10.983202208503082,-3.0535942216344325,0.47509248799347376,14.961754845961066,-9.148958886352395,9.5546869820295,-3.4657570094001358,-4.339432498955013,1.3623913421414724,7.353082902181612,-3.70295786372087,5.430630585034863,-0.47907241155732316,-0.5763354005351448,0.26512380711434363,0.5864619096571683,-0.18724078496349617,1.005773171878476
-33.20226626968464,5.79891030306967,-1.0689743922645274,154.15224478587666,42.722669231313006,16.33209395501856,-24.783370183252092,6.148360951942676,-24.715605574957134,187.32880385499433,59.88044484002324,22.247172876896663,-1.5159575931047342,-1.2930761964688249,1.268371924065864,-11.551445300004499,8.851628319915083,4.613443046380696,131.11882571119364,20.937948855784388,-53.612603737351165,-48.323373937320255,35.28165919091585,29.62241413564425,10.423075024138814,-3.58688365856756,-2.3785139701675213,12.275232189983932,-12.52812843478039,7.523134692079125,-1.1449941700713346,-4.130949024106767,-0.35471671372186697,4.883093095072658,-5.6813037298775875,3.718517055870868,0.3511663979821133,-0.557755330270327,-0.1629908241398171,0.4342403939344738,-0.9796929944907774,1.0203770240504941
-24.436895338625664,4.507106464214534,-14.605074331814091,119.07823065756706,26.207656270367156,14.353202058900132,-53.490582117809225,15.028882585474847,-22.72700198901527,158.2973723072807,22.46877916391895,20.204508257677297,-1.0794381620440707,0.8251113143635113,-1.5036937165207713,-27.736410655854197,11.77847098490516,3.3868366542127375,100.33724525124964,0.5706012304546219,-10.319220563600203,-49.55465083284643,-49.49443548522731,22.48713869358003,5.546105930971773,-0.5425986420792692,2.505689273668615,-1.5887573411661458,-8.802816237903249,2.7506173616088097,-2.159188095794885,-1.1200683527818927,1.3038780856818746,0.9632747027416418,-4.671246003381539,1.5273140120860675,-0.37191093898737776,-0.04832215584269098,0.14460427445485569,-0.16568343956289527,-0.5971887403995154,0.38416005392663916
-12.550326030202552,10.072012656132161,2.8397353139286747,89.07605155042611,18.78889909851869,8.763296803729254,-0.6344929825795247,-0.4791350088120556,31.52303021630599,115.34816768445309,30.601949592581526,16.421992231419573,1.1984475124286773,0.14554889032127896,0.26304621346260104,-41.67012667070685,10.3249054539011,0.43232656645106443,91.97351236616483,-4.415897778279787,29.868473369552387,2.72175213016458,-43.63455193012812,5.245658642671373,6.136035058166989,-0.5477019780071529,-2.0596411753886295,5.616922643635383,-9.797234205656686,1.4238473762435842,-0.3289665631819344,-0.71789020027921,0.01407193959316045,2.784243550788216,-5.108066457581235,0.6389940206879093,0.17478122592719836,0.22137687419566665,-0.029410219519878034,0.0869523193053182,-0.7696554856786074,0.14944448993329362
-13.719535923548934,12.516885709416488,-0.4449556907744744,66.72711603298993,17.42773207985775,2.299504130333841,-13.515109647609489,19.563483606524347,-4.392164447154929,96.79023956751972,53.53459641936741,4.689737900633629,0.09078223180722592,0.22312459612753582,1.4583641915118795,-57.747359563793154,7.577105619348093,-2.6337068447531746,67.4369438398134,45.81242887867529,-26.863646146845383,-99.20425421085443,0.9375333949605696,-3.0604495137312178,7.698562946179023,-2.182653603868619,-2.7861456110804736,-10.693367428838041,-11.879959181935659,-1.9291366603698477,-0.8614618188683253,-2.4750987870230237,0.08290257232630296,-2.2911984649457433,-5.420939296362429,-1.53893367024284,0.10736611456681032,-0.5155316588110618,0.019350517010552935,-0.7213229619620602,-0.972407520944588,-0.18428908322991594
-7.970532691405685,22.245111563147702,1.1657865567134957,60.49884337460382,12.830580829013451,1.843633610774101,-18.309567856100742,26.27954879387661,79.448222413471,84.66807031824672,51.36464419772595,13.447431048487246,0.5545306513437872,0.5126402405247357,0.8421664777801601,-75.51501986088047,7.777472297268291,-5.512724031297105,55.89865661313689,70.55137828991053,109.67548733504287,-10.872493700005943,-56.46561517282806,-0.2716507226865037,3.703661677095645,-1.5676399968583372,2.605507103184008,2.524293476189307,-3.865304607691203,-0.7592891403247387,-1.6505323273731283,-1.5258493271812994,-0.3326591753179153,1.7592132547545745,-2.666753242937947,-0.5456583783078957,-0.1609234627992629,-0.024480745438829346,-0.138079373666523,0.04061291744849732,-0.23324039767219418,-0.09988416897389106
-10.639750752326956,8.414711284067913,-5.505456050347361,51.96567055440447,9.10281335589029,1.5585850865476663,30.967696174012897,-14.591194320908773,-44.46357820710964,28.583134383167057,33.081687989944875,-2.6199415225443237,0.6875650160376408,0.8984666400420152,0.3090273581805533,-86.89063093028625,15.595628858247126,-6.070808512422959,18.160504808231323,-87.36460092706265,-88.8059758943844,-45.0896513290432,1.3973741809926978,6.151933030267323,7.515209220842392,-1.6407085634493668,-3.123615917474797,-7.390522515610224,-13.737857424611107,-4.722163007422297,-2.037674384475963,-1.32038394906348,2.2995154029612306,-0.3777723649275323,-5.257633058323789,-2.637709457024268,-0.1349472785052841,-0.10348485105449717,0.3322729252244495,-0.22900060231588926,-0.8863849347670507,-0.19832936108218216
-5.220276910878669,10.49384006993446,-6.166214652661628,50.24972602186316,17.393596327684953,-0.8017144793530648,52.08865533246343,8.631166648034654,50.54380880894387,52.856944842365834,45.7423974719593,3.642393073609759,1.4685152753765953,-0.6657097566092973,0.42194219520706605,-95.34349173921096,25.150567083454746,-6.738460263109194,88.19988004090688,-10.998147762485386,41.84146652106001,-23.346241829351804,13.939781990247033,-5.0710897048155115,5.081066492577916,-2.068087198944868,-3.0868382451165406,1.840377266808236,-5.257978041334766,-2.3203422598018206,-0.7073087233676324,-1.6616469426008833,-0.7288149735841118,1.7176657877973902,-2.8858640955441377,-1.3650735741391604,0.09487761744093992,-0.3099845351638634,-0.2341536938285237,0.135271492777656,-0.5467421488934127,-0.20849056856616158
6.769509773881774,3.398674999798614,-1.33741167355155,49.78662041875265,32.65107169608133,-6.813414170999644,52.61316018825233,-20.546025028827465,2.1953095132295064,58.24424399836208,70.81473029300264,-1.3034783079752466,3.0867854521771103,-0.4488838772449442,1.0585555768084542,-97.28585927494026,27.96339336262203,-8.628013720438448,67.7368873321534,-47.69702730850249,-23.263418639682044,18.752335865274592,-18.49302970564299,-16.874893661377246,6.559392265772951,-2.5414374389916694,0.0653190736927573,-11.794256049757527,1.2972923597305166,-2.1335713360453856,-1.6970284130130382,-1.9558683906629553,-0.717517817655692,-0.41082840555997857,-0.7709504152681046,-1.1758898781862077,-0.3137367227362378,-0.3575722253549794,-0.09108951235763851,-0.16904973331151263,-0.07518078842149094,-0.20765826692016917
3.106144188498951,11.633468208799561,-9.245446637859592,45.761481131885446,41.23752660176157,-12.863140153486565,76.52627289409563,25.681689633212237,42.52417790630805,10.03629120556061,112.24068374114067,-8.186484615217733,1.7108191500720646,0.26272094055571465,0.6423673491866351,-88.02403980312327,27.858807120768983,-11.424379255050043,39.20693864537257,54.47923301825893,34.495470570367694,-27.465469556629667,-3.634421104023416,-3.1371500982510576,8.03712858505936,-1.9957105015141159,-0.0461855351480194,2.957939725737347,-10.497718708918919,-5.068520837398651,-1.0095508300314355,-0.8274381318356842,1.5786950332264373,3.0283848042749253,-3.4816177827227777,-2.7797000708222668,0.27156700143403567,0.28242313231938615,0.2569373035025348,0.29175817126536263,-0.5407848237091178,-0.36859171664037294
6.302885442439767,-8.85418654438271,6.813538655620866,46.75325420696812,37.22108383956767,-16.437724158700696,78.20880263569008,-69.15257180796172,9.407679984797308,-10.769759407590946,88.45847370684098,-18.296205783180568,2.6560406502603335,-2.0842648067649,1.640760116912856,-77.71910665246682,28.699254534994413,-14.314919582727878,9.268154849696428,-88.0127576427519,-9.130817959663144,14.837103202453278,1.1628375020508677,-24.101953746720103,3.1070556601601105,-1.7004009606493282,0.6489670727301042,-17.919923138126865,2.837053622922348,-4.078827038357656,-2.3488717724456003,-1.206769684629824,-0.020757068536776044,-0.570307612035762,-0.04983997017053521,-2.219697433046566,-0.44610999030950127,-0.342594540595865,-0.17599065291054683,-0.12063650582421577,0.03126889479973319,-0.5305302068710288
16.94532785979746,2.1572468361043535,-5.388532764786031,40.25352272257156,38.60622744083376,-20.79391562619851,89.14825471992407,-3.712703240466861,24.393985762106933,-28.437762049137824,110.30750130351147,-16.21299043445433,2.5526581495495924,-0.1098479614433897,1.1418724286051307,-66.94862879049265,29.31172355498892,-16.582969596291477,23.481466646027407,37.13461614512054,27.944285529462434,-29.30238637802155,23.378082850958357,-1.4595232051565654,6.436129814789888,-2.7113464960749245,-5.517538889529142,-2.9332088452534366,-3.3145060452468864,-4.624764217602422,-0.35200217265772044,-0.9149932394492892,-0.06857536890286582,-0.23941528792911698,0.18131654527544455,-2.951835494237672,0.20658183435438884,0.0034340699612986562,-0.040078450145604294,0.06969869685250941,0.04788805703040324,-0.5484632599878937
13.908371197061284,-5.515278492574895,0.2646414367891325,28.776861047318892,19.090491505063326,-20.47669028975742,75.74056096069334,-28.696370424888407,19.406941303658197,-27.86110014182058,68.36374325089794,-18.63714404904256,1.8858595160852278,-1.0478481068578986,0.7150176298338153,-56.50163371601001,26.427824829753323,-18.56629621259493,-1.8405770924702778,-27.898293088987675,13.80189812723697,6.228029040597066,2.4574221329487034,-34.73080792470392,1.8845520325131928,-0.737395870257803,1.6485264302115132,-14.588771012160384,-3.9306186892269768,-11.555800221709482,-1.904177105043545,-0.22101960411639893,1.6144758962540937,0.4365537843092574,-0.21308534046684358,-6.866683579926427,-0.3049288575358148,0.03652637051448593,0.27134636945641993,0.032900590044720346,-0.0035026702625629742,-0.8961352256369584
3.2217775134495783,-2.0222489327584654,0.003422184188269619,18.193938812812807,17.62390083039143,-21.045507694580266,56.7312861397705,-27.932587281821355,11.987707654003016,-12.975885748888665,81.91686896175591,-13.53180186490641,-1.657443741525345,1.4078336643370022,-0.47631404067617417,-48.349282678754115,22.07677617285227,-17.934112293355334,3.459140477894862,0.21220490697005268,6.087411701065288,35.668660058043834,-31.12518482060189,-14.87387040512937,4.940635732841747,-2.746074325329871,-2.8342706461885308,-1.1127310988626975,1.4319357685560123,0.7523099006798863,0.21944495673888573,-1.022917352822233,0.9966107844857978,0.6011773118702513,-0.1292725453266758,0.6970162666949651,0.28185427426408305,-0.37887532682398684,0.22613826779668023,-0.0736886492185835,0.21215260499633581,-0.14769133868937895
1.7813246596608747,6.054679319272515,-1.4608290058420406,-4.850303017095127,2.4725929502878117,-16.80990300131504,28.265590210413617,-1.0384855469350076,3.8901175668510386,-72.49479259084742,48.49019995123903,-14.996029760559718,-9.478578160830182,17.97338148321501,-4.446111216435899,-42.08201838618819,17.084119110982016,-16.52133112853167,-82.65407582435405,15.52689109033066,3.8254517126150613,20.68398655001396,6.706668729676873,-5.8539480690489265,1.9568958146421236,-1.650830883287809,-1.67219555246149,-5.491679097609418,4.13098327093559,-1.4118180559155933,-0.9354812010209074,-0.789099235353357,-1.0048666564091915,-1.9571685776723518,1.8031136792721443,-0.5273800356329963,-0.24292563502174783,0.037532998576776645,-0.17123848123533864,-0.43666731375768475,0.5895635427801446,-0.0460336551645311
11.691747089417625,15.763825848818923,-4.200268395078984,-15.486225175509066,-3.159565001160096,-12.788679321883178,51.190444950625874,-5.644974076318611,6.014658357436474,-54.65139968720667,39.094289981329254,-8.729999099700265,-19.85374543347833,42.18588510771059,-8.223452343214285,-36.20567475501918,12.497262846080229,-12.786968348195034,-15.18926644213068,32.76318443201387,22.55695206538696,33.755165797831665,-55.485642716801095,-3.9356040100975003,5.581536487644797,-2.4432359469816722,-0.7351759946979767,-2.7897290513523347,-3.135302702463139,-1.9302593070307175,1.1222048600254457,-2.210997658749291,-1.2723220909935153,1.5227486217833577,-0.5264432763038055,-0.7516632023674891,0.5101407572088429,-0.3011154449534018,-0.14025576362701542,0.07585113777632807,-0.018119550692180374,-0.021980129892956522
-8.672398991571367,40.13857672381691,-7.694416119189003,-16.554080003812135,-10.927896472727316,-9.013327779506087,-8.586839528841201,40.28310285874515,-7.853687286850739,-31.955466505622574,6.258295043984291,-5.121842644671875,-29.660930918289267,67.27137919556144,-12.871124614029705,-29.959353744413633,8.368200810583925,-9.48490279256041,-29.324796472698697,44.376687220632554,-11.560790427538759,5.317599021142076,-49.097738932625106,-0.5835640534140102,4.9228690330943445,-2.417794786693663,-1.6220347173765124,0.5733207441933461,3.3665122255142808,1.3753815271369805,-0.07845012635966489,-1.2798511957572787,-0.7302103141523413,0.9906654587428664,-1.3306583764823872,2.0402433484677562,-0.01069081774426348,-0.17185009747110247,-0.06027023527025233,0.0135318408006647,-0.26983302756999805,0.3936958717894605
-17.034886450385567,51.41060014998755,-9.14385364385547,-23.774343197177082,-12.385817077149778,-6.04128184848066,-30.12610505341391,68.36304099447754,-11.651096499913299,-36.61187122849961,-11.351943954219218,-8.076805432988632,-33.218416810766904,83.51583646182318,-15.5879749804066,-23.772031323989147,5.327927801000266,-6.7359890970863034,-41.9498314461252,81.04064949269866,-24.25215360599072,26.620749082413116,-60.61195092478905,12.071506955674874,4.569249151704187,-1.6717847120234477,0.9751853548623858,7.811269999921479,-2.4388975846347845,3.3579558563803977,0.045964055256907825,-2.4317518332475805,-1.1776853095860298,1.2608366388720949,-1.4629037110383618,1.4253509318736621,0.18397677557770367,-0.10900435093285062,-0.1236507070726093,0.019770764703213088,0.045659061386987505,-0.18577723111023983
-20.12232554423683,46.86884515528436,-7.811110238826865,-21.269921122538292,-8.873045645581223,-3.739169863408683,-41.03469675909855,63.212023795307594,-8.519070749992958,-23.8070680343841,-4.811563323895655,-3.005692246595858,-30.87773845174111,90.98597221841065,-17.09845222184735,-17.351658270738234,2.9660602317367117,-4.180105845899206,-33.54074165866208,90.90434270340472,-15.925564065152154,-1.877896349485298,-81.2721513728191,30.90909227892695,8.506294791018794,-0.7682672941280236,5.157292648451914,9.66842934476025,-4.108350370627958,6.281891453724246,-1.6737765362858363,-3.912557666880081,-0.3100734340155068,2.1202099850368556,-3.329079001036665,4.314982789083353,0.03211861349609083,-0.48512367487477226,0.019696937440542538,0.05778267748187497,-0.5594430513878487,0.6097687639588945
-25.4731809818465,40.54796847337634,-6.975344934584438,-17.95053420210508,-10.05964450672674,-1.9731907639405817,-69.36103698523003,52.01233657334687,-8.270071627760217,-20.001462526224486,-30.29449685565654,-6.3130520105331005,-26.638369868520336,90.64799223099097,-17.764268389718826,-11.758580219745332,1.3320567262362426,-2.5413595150201536,-52.737804130239454,49.85612171772945,-22.202644127559882,43.06012843779911,-44.20631330182989,16.429858690494154,4.87570281604155,-2.902418049518997,1.377596171818229,5.717305683549007,-3.9816490057311795,3.4072909079231377,-0.32327527980439785,-4.691502597191349,-1.6217768010419207,2.007554170478771,-1.9837673199307981,1.9919790990544761,0.07921575867930288,-0.6360741873966783,-0.1350308541047199,0.13014349584359639,-0.20506352343292084,0.24818489439040986
-21.919997663464088,30.072357124214946,-7.506265959243995,-12.712065934355536,-6.513935571311575,-1.7397996300431033,-45.976287996261355,44.49512532891761,-10.81130877912288,-1.2668446241522922,-11.28432010690628,-3.025470114307451,-22.810712453983403,84.34709088011917,-17.226291379692782,-7.663673101543749,0.2881376570980139,-1.6592762161757617,9.388576102700826,75.157232380484,-22.533409032964663,-31.21889285608689,-69.76231249884759,28.889651007417374,9.521732468313889,-2.561299098925569,3.001600921477132,10.171085278933145,-3.0705304281795223,6.95207095645305,-1.3489564979076125,-2.904333008369887,0.7071626146283018,1.3188399624352112,-3.0162715942995515,5.358489493281184,0.05468367132929788,-0.28121318160067793,0.20599714918995155,-0.06091863112957217,-0.5944736374184588,0.8501458193096909
-26.805900462082484,21.334966740681743,-5.7688830799401485,-6.894492085310225,-6.221232768346373,-1.0472479317872339,-70.28114482806139,28.804596328555363,-5.505987172055814,-4.042412028854304,-17.02764552303943,-5.279608034810965,-19.47148770195028,76.30315295591174,-16.150910109216433,-4.1166620675189085,-0.26898805256890257,-0.7439679685542132,-31.52411050008844,51.781566268545866,-18.847281379093317,16.005459807551702,-58.19105516838546,9.405073609966271,7.827800561842015,-2.4531128693389883,2.1622996444852762,3.768073842812112,-4.264331102824081,0.877129703306339,-0.999372666752707,-3.024449890741929,0.07854470398820469,2.6237952968322813,-1.884495437847112,-0.13593349497528687,0.17231332042340108,-0.4212235844987792,-0.03399331672301988,0.3664792458188773,-0.2967982854560753,-0.10318351919198351
-26.391673010810038,14.59108872532088,-5.95677265068875,1.9387793941758082,2.4651168290433563,0.1567537542279013,-50.93106237358164,22.965817506564083,-7.816458698009704,23.59975782480751,-3.7758463230718124,-0.27080581266230735,-17.025391646351487,68.95769439565635,-14.917128408892744,0.9086032711941437,0.03845839087503319,0.03378281213462063,33.35823644254949,69.73820752081596,-18.487350947104076,-27.977808493592736,-37.663029204871904,25.22666089107448,8.724943960074313,-2.2546985757305587,3.08478617575402,5.059087654864393,-6.484476451221288,2.5044519551950724,-0.8836623182166451,-3.8737596468638684,0.4314732674979607,1.5255985299560326,-1.6549554214267648,0.4257246289717325,0.0562835728160193,-0.5015932286249892,0.23147006820177596,-0.002128468749557673,-0.22078730298165572,0.06516380768157459
-26.102172943702755,8.934014931909136,-5.247922332755413,-0.18727637668003752,1.7411664972368042,-0.058658536940969105,-55.78849213333792,-4.377374836571875,-4.738462613848365,12.996491586444384,-2.1914006251277254,-2.275794074734981,-16.000682378291383,61.2880909588373,-13.189562112204934,0.41287108316901655,0.1921987264730318,-0.009334570568041522,2.4760279957590736,32.688298041621195,-12.364896694991305,3.4572901543535113,-39.84730239329055,12.800694133754597,5.679715497240612,-3.113150367005123,1.097020374602369,5.928044741476182,-5.519433544734181,3.336832788628933,-1.2146228484012584,-2.232842730608676,0.40440025912423516,2.748149330944624,-2.206196455889199,1.9237607485515549,0.12215621777582318,-0.2661801071450531,-0.02857377154603868,0.0980939394054211,-0.33142002309403534,0.4753864866446301
-27.355764629893248,9.791063432747455,-4.61152594361394,2.6787148107156624,-0.25049906892660684,-0.24529630707735903,-57.572897179482545,-0.6803335102755284,-1.785220572263801,17.640195291246457,-0.294479443227632,-0.668946450971435,-14.161129201913631,54.70332971022273,-11.378225454311405,0.7952189328575768,-0.13843173080280405,0.019575960152610674,9.135776938989308,46.43762631489681,-6.57242689194814,1.5656254924341726,-38.53014886428096,6.929864106059848,6.560781488468375,-1.0553930771617757,2.0675945698868707,1.4339963147436268,-2.476807936746398,-0.32677136463966366,-0.33459837687180216,-1.4944942418148404,1.1272533388185706,1.8825467542787349,-0.7616384951381456,-0.7069657079332876,0.058032193750110365,-0.08784993067321228,0.377148517155799,0.1708328070334422,0.03217039219126574,-0.24080348519193767
-27.5800159109629,8.298093345335714,-3.966460426761461,1.9755879324325436,-0.9282329533284753,0.18451208325561963,-49.46343776883681,-13.8208685219956,-0.9847427638103117,19.910212147596525,-7.497748454141821,1.3531370051556195,-14.252658006506707,51.62851123571657,-9.658009456079249,0.30665751745465697,-0.16710486141279288,0.02381797329157191,20.54694985683334,20.81820000872379,-2.9853668308133705,-4.2727369561264705,-35.462917859378315,15.76368943257112,3.9241397266850226,-1.6517767329955364,-0.2942956945078567,2.0425528338566807,-5.677470108337774,0.8208091803376071,-0.11260091766077998,-2.0310987730221854,-0.9625928967196262,2.3945219626505345,-1.4830977402135919,0.08700699237623863,0.093955676325753,-0.305929625237243,-0.3147843081139793,0.14716024820960666,-0.3703724152813083,0.16357218548679425
-30.337530064305273,10.469782429131635,-3.5865642964811983,-0.037282050978453316,1.2816686378234805,0.27564624030855905,-48.772681413087554,-8.113906686726228,-2.801615768789398,6.858594559804329,0.17003326510529818,0.8247734927847319,-15.20785176622926,50.46483260593238,-8.324518682929957,0.27664703044674155,0.1399385579685545,0.038112354462228624,0.0859614903781516,38.20534632594072,-10.369380246109367,-11.41269498961655,-29.308314223447294,6.616956228568021,6.028079374027964,-3.392223293661394,-0.008220386238144077,4.84074346603865,-1.9939734461720253,0.9510866893539272,-0.6976800409770343,-2.0714903954633592,0.5339470381511294,2.7144212096549922,-1.4314835733974465,0.3944664784925807,-0.0463280677330656,-0.3555585176433141,0.20213917156473485,0.33058985488793463,-0.2285224364525372,-0.06024464451043682
-29.333957825393703,9.944283927234308,-2.2776544763488293,4.306968492698222,-1.980295474490028,-0.8187425068587603,-34.988186539560914,-19.168896007836093,1.7911765730064089,31.23130217172323,-3.8815846782310173,-2.0568962057354594,-16.1324878441204,51.452122756106334,-6.936447871582538,0.8270580255498001,-0.4153537714449022,-0.19314333212215457,54.94935365194005,28.789548579474996,-0.6038246906264131,-5.901879364963618,-36.360127379527974,6.466009152273629,4.1692775715159,-2.088049186182067,0.34681084321302086,5.086107653976662,-3.5322554899200562,2.047081147201864,-0.13273485486996106,-1.8177979214442994,0.1295731924227188,0.8833015209118308,-0.8431779963830623,0.8615133012222245,0.21772145427654682,-0.21052360394869502,-0.0176913826727195,-0.25691177464658976,-0.01929932228842561,0.1903246171527892
-34.044062886376075,10.68741661938815,-1.3349046335881491,1.249192701996309,-0.23569099666711946,0.20763484465878929,-48.39954518413772,-14.90342513938106,0.2202053572208843,13.909647486184678,-9.557590054019059,-0.8222346770141933,-16.858406892072356,55.43463736854841,-6.0949635108557745,0.4175903275014727,-0.009575850530335678,0.00969778118197839,15.712250281797765,25.26654202966603,-7.617535944186684,8.378780417263307,-15.696084703729891,-11.720269236276032,6.372253929288204,-3.0117152262139197,-2.077440364630159,-4.189504699656819,-0.21178463568272204,-2.6612560442536157,0.4972299861081996,0.10432518647505162,0.11021093893619521,3.535246378402011,-0.6034696534186065,-0.6733903554695831,0.253161404797544,0.03796854326060529,-0.024492692632926402,0.5233006485156324,-0.2073023237757166,-0.15076343324166913
-33.90662931222901,8.925226662993857,-0.5401453868346873,1.4971057459609876,1.8800182706587,0.28683262488908184,-48.44609334874134,-26.034007273151882,2.2897020607660408,17.047153509234533,8.738236029567318,3.7880247068872777,-17.658584770741854,57.66866195412016,-5.399574304602208,0.5403985932034551,0.13239093802470453,0.06608180592788845,13.269264650993584,33.36460109032052,8.056950995975912,-24.337149119175272,-17.351370708396264,13.424729862480302,6.526808058143247,-2.345104852627608,1.0806914127192702,7.555195720984228,-5.5993111207208255,0.27963547566183766,-0.6650110209959447,-3.017200753974872,0.33227913867179343,3.1983556883073194,0.07074439164405188,-0.613222380286556,0.05971917020910864,-0.3690242244179327,0.07901043090656955,0.3125514319544542,0.09903426099987626,-0.14915214251264006
-29.255256065399976,9.59271888896717,0.16166609903018533,2.0345398811495143,1.4827870684064313,0.04370067760913319,-43.33585639574926,-18.28998534103009,3.4089839701492273,17.859722731246187,4.309149699162382,0.09912823008639121,-18.35471558405014,60.5017385432553,-4.24560955841304,0.5034175858639353,-0.22614227421803493,0.045234856040580904,26.489747401086483,44.47160615667486,-3.6166346259669018,18.420908600125202,-24.216348549736683,-25.687724515236376,7.16358431157756,-3.314138926713145,-2.4093220748462194,1.2725021010795194,-0.7257346774419686,-1.5000412156204184,0.07015113483362445,-0.05714318885759626,-0.03615374333319599,3.1037043849243324,0.07358852081938874,-0.7341341617061624,0.21181205480375964,0.019765806374619017,-0.12310768565869762,0.2964756917614992,-0.014332920259001652,-0.16451201409931115
-31.168426305907673,7.192051990315154,1.7188883304922478,2.638069497173101,-0.952576279697698,-0.12469566014722405,-53.240183119037596,-26.27375051023264,6.533694913634335,15.61069976683077,-9.103275637851592,-0.8116706140160884,-19.1925115490578,62.44142979663793,-3.2941910918445667,0.42881661859891756,0.005354849280621142,-0.12589492358073912,5.917063006662912,17.499277238184803,0.24595417785327853,-20.54706895657356,-18.54190710697895,21.851849768174606,2.9298434029832587,0.16782296889067466,1.468747384046944,2.7224761076666555,-2.9319974548354857,1.4938161094030216,-0.45630749129389775,-1.7428326722674818,0.09751683926514043,0.18221924722784302,-0.8845632159884608,1.034574014247221,-0.11890507720851629,-0.13948816632814018,0.058532937164363315,-0.1265966423462904,-0.3120770841349342,0.3007215898095174
-24.638293601124982,7.03072490554568,1.6445764024617155,-6.232045169107021,0.04576633784382981,-0.07141853202431087,-31.416212824925523,-26.91482488934977,2.1196876324783336,12.380767130402898,4.488990713259502,1.268363568816272,-19.92640247355343,63.38781285293561,-1.9605017166793615,-3.556806939278082,-0.2745491325756028,-0.05939708594681025,27.729233996830086,31.930694494769387,-1.0203311619847792,-3.5148786013596602,-37.01301611082332,-8.512185455178313,6.546441569584676,-1.6315913414452432,-0.8022171822951204,3.601147751965009,-0.5829991585027641,0.07253754076152741,0.15236898996685583,-0.8771405007716593,-0.1394603209650985,2.75530343120377,-0.4835140574477885,-0.1786940389778794,0.15409796387884478,-0.05311442295434908,-0.09055507525539686,0.3430622969266362,-0.006687157116718773,-0.24434770717924945
-24.33464232809722,6.0217392875989075,2.762027466330481,-10.276086183598844,-2.1192594784281824,-0.2735365166200654,-38.98664879804743,-25.301500641290083,4.766418987822393,-3.539983384822957,-8.030669590385406,-1.8336638853340435,-20.291347463638527,63.71798703684011,-1.1194558375296497,-4.963686633050253,-0.04603840741859527,-0.05702632043926568,-2.7197982547325754,19.422421003290857,-0.07068540790317594,3.2100799348406714,-3.2544459770672223,2.5539794641039233,6.262019672458327,-1.4018205084182438,1.2049212623136267,3.6116413778953667,-2.7198636671769743,-0.052926715940854074,-0.6886707301734889,-2.0635725486480228,0.8075594767027665,0.898085000805462,0.7520578168378361,-0.013414175451794085,0.10198386914524983,-0.3291151375987737,0.18800196922414172,-0.10295283231475348,0.11564036736854688,0.11715588758533414
-20.68044523293955,5.760694329556351,3.220344832332759,-8.666817692273336,0.4051468426549383,0.31364704520047026,-34.44507628258826,-32.47200531849527,5.3456693656817045,0.011410799843558306,4.490440051798269,3.268316088171277,-20.754685469587272,64.43933061835574,-0.15949604535854367,-5.515793978877738,0.21091201151307915,0.05447218711129624,0.2036980854304699,22.708052340148157,6.434347831093036,24.963586511272087,-20.2182593025705,-7.972450635154003,5.960812105197654,-2.7739137951710977,-2.451834857546942,0.6015659210053517,-0.530987492930804,-1.4899065016933615,0.5237492042909075,-0.12014627636246439,-0.4098304433697288,2.939743779634937,0.26034031841190575,-0.32130501142595586,0.27678589410014603,-0.007306869317420988,-0.198990450612005,0.2528102498701277,-0.051618788276742066,-0.13045979352336748
-19.55366044312948,6.162487632671372,3.3602490335764945,-12.276778732581915,-3.3552116781787404,-0.4395375554270109,-31.1026121812062,-24.385170672738415,5.163873984575772,-5.768457667278981,-12.899154710556308,-2.9042090060647943,-20.876901657172574,64.20378180799936,0.11426872580000534,-6.933922844902276,0.5106865643800933,0.13299379841634001,4.061332430315767,15.74068136669959,-3.1032300698706567,-25.36057891008945,-29.846186807610003,4.210457081175445,6.695111785639661,-1.8357968738656323,0.45179237279969986,5.1705125333732385,-1.8145739139992827,1.637892953010804,-0.2997175816531833,-2.3038748538431313,0.2596295033196891,0.682320801022674,-0.6183188976092664,0.5119274612041601,0.07395939796440687,-0.2518380879260977,0.04431855820198334,0.09093382594012898,-0.22282125787866983,0.10961435294202068
-17.71822305080803,4.767788931518652,3.386081833547372,-12.59795044849536,1.8298511108496407,0.3718897285616113,-30.301420778016794,-32.93418562326638,5.716126329676561,-6.773880389664755,8.057324885011724,-0.02445115566188283,-21.23221356517875,63.84849132103881,0.3616466989763853,-7.29139637766396,0.9637558770430925,0.39333941442893566,-0.7682753396308569,28.69368437999127,2.6283765369786134,21.70603311252693,-10.347194066216296,-7.431476133730131,5.479524332227581,-0.41777345116166675,0.42019450904746386,3.9431095793589916,-2.4979658652339998,-1.4102889975307147,0.6234312903139532,-0.869217379191922,0.4190499764487539,2.8125801591278203,0.9587238315425797,-0.37675488386559886,0.11616379225311776,-0.01566922124711887,0.20036266894107313,0.3166444504350813,0.0017680298779696561,-0.07289778545468438
-18.11363151798162,5.335912661676804,3.201334637516196,-12.422211052001028,-0.010533953641154762,0.32538764538511544,-26.74253323773274,-33.3763779233964,3.491793905672775,-13.878239519039221,1.6649070690342214,3.170407486179946,-20.91170626122054,62.98891636694612,0.4591070804634695,-8.539249445276054,1.0498043313581948,0.20985952627991686,-6.725602905349653,18.873379001521215,8.09871689922844,13.009333358293373,-36.82983621469059,-0.27284607656184934,2.512986578584997,-1.492859223107093,-1.0946098117135348,3.502466150203715,-0.8741735705222584,0.8179803736646888,0.2318913471379748,-0.9158311098519515,-0.7200449178228733,0.8922234108168611,0.14034423719392336,0.26849856581152853,0.08351665425495942,-0.09864234165743686,-0.23988065944605713,0.06031410571830517,0.12475265506988559,-0.012616809933675702
-17.003372477247446,5.469359870286654,3.3287057229117973,-11.343786179076533,-1.1013718915549293,-0.3923525574049458,-24.62429132860983,-21.397934247702185,6.423996614114221,5.09447058137164,-8.105877717222127,-5.67512711714918,-20.43292088484174,61.9446674431534,0.4185847694706962,-8.67635338285323,0.9958046465602778,0.37986385407807194,18.34473213398118,23.230790999477687,-9.916602384575539,-2.960809574666669,-4.958945505765003,-4.517897617477998,10.378232705028532,-1.3663302414947311,0.009984836899044204,4.388769759377069,-2.6403625512544338,-0.572123209773294,-0.2900342275221359,-1.218592216956906,0.5960058491122249,1.869364363390295,0.4001987225726795,0.0824514832645098,0.25457818776746327,-0.11831806940993042,0.04908210659374263,0.15751972100221148,-0.301539569062434,0.14830305435885557
-18.080971819952413,4.273506219712901,3.1329465668405327,-15.112882944497903,1.3212914364575978,0.46901488909285466,-30.194828319793054,-41.510549653606546,4.420295657544544,-23.002749157815064,4.3591858911285355,3.0697044196568215,-19.9635619281443,61.474537458535345,0.22555417844400166,-9.709215446097605,1.6857126535850167,0.21887909123746674,-28.708255948263893,6.217117114471787,10.819626502335291,9.51890453590856,-17.79114738459363,10.846532581686597,2.609028960228303,-1.2055420018285723,1.1504676995064649,5.239784432683642,-2.3909632326017416,0.11728115258512622,-0.597160212111576,-1.999168386979998,0.6001019476832129,1.0915563083064699,0.4121170377549108,-0.18649994090024535,-0.11062671587679719,-0.20665872592346501,0.20056988691525826,0.12527070913475408,0.13687250866309125,-0.12762976109703758
-15.15162450678738,8.13039221430511,2.653914186061105,-15.298887733338914,-0.4509269215608876,-0.029636689876703086,-18.319112163831495,-19.633234738422406,4.314974237808799,-10.011992938007356,-0.8715094753657386,0.14839562989893998,-19.911837910309703,60.770371549846175,0.2260096482671604,-10.178705458259584,1.3490240875057111,0.23807334617557505,9.652626258054774,33.61394266178732,0.04452449042127315,16.587784110754498,-15.107872417582504,-15.848554269208403,7.981524013965345,-1.8946168274624235,-2.849019610145185,5.93868088935305,-0.23243686892509324,0.5040343510339693,1.628333649023643,-0.10167072867486604,-1.1839524471233414,2.3401944659952547,1.0386967284661577,0.006347458080130496,0.5153330964145448,0.04503885047243005,-0.3944726364805227,0.32809802683488914,0.018717655639773498,0.0027403941088837112
-16.846467904827986,5.955390742008571,2.900521467249771,-12.432037150384211,-0.2297813500641962,-0.5068523221473512,-32.89412149308266,-27.61811332019167,5.253475518093389,-7.503903405728581,-3.4446661440053274,-3.5429941684470685,-19.788594579216767,61.217846649421915,-0.07578041042874467,-10.426213749522883,1.5229156222618534,0.09913076939854563,-14.150000204973958,13.070463884284878,-4.806954928148331,7.025267728968415,-20.037260198456124,3.3712862499044483,3.688136626309937,0.10857987725755014,2.465288401936871,3.158975323790868,-2.8520273840327803,-1.4179884949630357,-0.4635076796935574,-2.2032261807571802,0.9210730933641273,1.720267451999321,0.5924070697908511,-0.23896724065730984,-0.038964814212357576,-0.2319871696216415,0.3079038574634145,0.007389500490759197,-0.04511966977257141,-0.07192134355399007
-14.858060972529918,7.895114939885573,2.28416339837412,-14.86652100002777,-0.2173097130509023,0.027421638123494522,-18.855535274909258,-25.479272683269624,3.814321651655132,-10.702635960991445,0.8132383081624583,1.5785920245494036,-20.729518985068275,62.050116900910865,-0.3494829338257635,-10.869307530196178,1.42469841648022,0.19052623714009964,4.564880012894664,24.572004917205945,4.669397839447978,12.647469041318445,-11.3325942640107,-2.9149993215453507,6.935469946180149,-2.092642250454685,-1.4707611771013684,5.633263246959911,-0.7912474624320186,1.2909671209212086,0.8481848278338684,-1.027748792246315,-0.44680244670108654,1.2569648542482321,-0.0005783008071527573,0.17316359533450978,0.3003974750392216,-0.07250384830856493,-0.14346906642540483,0.1896369477244853,-0.22204340210323742,0.06105279248331398
-14.293648103276453,7.5219623998539875,2.5646359126181824,-14.734789774192889,0.5369856914301545,-0.06412499172031691,-26.412532236199073,-28.996158282114425,5.716570399231133,-12.62093344728475,-0.9243733720273767,-1.2815177608785606,-21.086163123577144,63.658114957004024,-0.3765711088435904,-11.431139251380491,1.815122473031987,0.23429229650701672,-11.191996363044968,13.824205899896553,1.2698638424563329,0.8553346209834272,-1.6327713394198344,1.5762458011137832,5.76285434748032,-1.0404129652254823,0.8280170004596574,5.2035928968646585,-3.195625174790508,-0.4950722245199042,0.15475165455544607,-2.0736718973070074,0.23150023660567054,1.5761564269577715,0.7616116875725566,0.10490235875971914,0.21736608382796146,-0.24977965924971934,0.05837298439264885,0.124329170100473,0.042282446306045225,0.01959749076992985
-14.516771598652722,10.694595991228043,1.6883027142898963,-13.827307649703869,0.21246620209378933,-0.2958692615866732,-18.63816834479233,-14.31659541724168,1.3814165498258963,-10.130649947181531,1.6945515030350393,0.5997484940030383,-22.201038524156438,65.52044393130753,-0.9067706125031735,-12.156547559918291,2.1178109699380374,0.08721807278588241,4.509433021062826,36.77371965657174,-0.6734268941176121,14.395154493371246,-33.58643036635003,5.041733900049522,6.828663883513651,-1.986424844676735,-1.3561891273690632,7.959745781197147,-2.0622987881911365,0.877192685465583,0.16262640055368124,-1.014201604687268,-0.35149467792293787,0.9201943317743942,0.25042293356236195,-0.28904634600873197,0.10148808449777083,-0.11926334848918398,-0.13054120529600569,-0.04317551087791155,-0.2743500731941205,0.01262537852360395
-13.974759486200703,10.383057264503135,2.3534502042285155,-16.071734578727757,-0.16817059924267108,0.08836823796228771,-25.141106354171548,-27.56799091550631,4.087279836651377,-10.11446062347833,-2.5973437092154144,1.0097104201542648,-23.009540555355766,67.68330706457391,-0.631192065443059,-13.022696978336638,2.427310430396546,0.3811611912568034,-4.642663411175648,12.211678353255031,0.6335902326333723,-0.8512093880622597,5.352666987310634,-3.5946322115123257,5.37054953622094,-0.7699995453350958,0.720175685889865,2.832402533940832,-1.8404072580978992,-0.7269366424445818,0.13921028800873458,-1.4389633229468133,0.4410212757930454,1.8234177453107456,1.058002949801022,0.32132648598902674,0.17482909417823048,-0.10174939295717639,0.11572818416687679,0.3349109652128762,0.24299129844991943,0.0012273387613015308
-14.35439376275012,10.542456743236082,2.4737936211394254,-12.940700093435035,1.2161829446189767,-0.13042814913303444,-28.91637317206262,-21.939366504458302,5.58348218008338,-8.899706226967508,4.963976637778977,-0.6330935972879131,-23.681068488258095,68.71068899129793,-0.9831455543024843,-12.984497005385174,2.5938850872659716,0.4632288024200294,-10.844351817814678,30.307308682821475,2.944193380235933,17.626542374989764,-25.78120921107074,1.286121166582294,5.086909327337526,-0.054550563943353184,0.9803980105727931,6.46679080421044,-1.2900485775892407,0.5648190216867037,0.49748488496207927,-1.682742088810785,-0.07665710852994001,2.441172707586598,0.9300145630980597,0.38016534234513555,0.2127164948523146,-0.1311015976178606,-0.02511715372490536,0.217892456384394,-0.1309223805089524,0.10397552151482989
-11.376595254248544,13.119218902110198,2.0061145235740487,-13.447459799227072,-0.09394651807284413,-0.20350268050210352,-20.19125076141126,-15.425771583765592,2.7248233357662555,-10.849735034642126,-4.692471227120678,-1.9441450295037452,-24.89398659394208,71.02257370197124,-0.6302416459550082,-14.161926791907584,3.026372359292385,0.5602882664862672,-4.957171479125111,19.64854459872122,-5.611499205417507,11.972678238009276,-26.310694060448863,-0.028844463600187213,5.483248692947544,-1.6384642937482947,-0.554903282621689,5.127962738759043,-1.479835289678285,-0.2967922691838225,0.3778655136905256,-1.1876351634544107,0.06433838470202025,0.8782758075631674,0.734495896842049,-0.6902178234071691,0.0776551873476158,-0.12692524977936065,0.07077108389343713,0.09673345426739417,0.052462034455142526,-0.19763174210782586
-13.46797229284579,10.4614778595898,2.878897348535134,-14.15007534574582,0.6665138612764673,0.1996793046075507,-23.576129403779657,-18.375126906148505,5.699631937175857,-12.423652908663524,-1.9915570524145134,-0.4661029225381639,-25.28424251854595,71.17055079774917,-0.830907022267349,-15.207715399262323,3.4099516239455556,0.8412873623530616,-10.809951769759282,22.3477693012659,0.6871138814419541,19.02153474565584,-11.30847981971416,-3.7092416082945054,5.272771125919327,-2.214280126566555,0.3140569213226831,4.048601471971852,-1.7400036414720335,-0.3429824720225081,0.5452899401671235,-2.230046705567667,0.4363947102530179,1.446544302783985,0.8923649465811205,0.23125964736387267,0.1932800399607638,-0.3427739957407955,0.23182931004340737,-0.09681402144779032,-0.042907098630646796,0.07470999908957261
-11.619364200990784,10.914550321861416,2.6391612934381126,-13.828463397125864,2.8472073853133693,0.4328369560159978,-22.57583959642967,-23.690511563042595,3.6116989111884186,-14.803964391017852,8.555387442877933,1.8318297554182408,-26.201978275704345,69.7927618425754,-0.5660830159386552,-15.477509722697878,3.7066951269955113,0.8209481196953281,-14.185341540703131,27.07624664838847,4.552289679257997,3.7109364951573482,-15.36808830609195,4.768958145254936,5.341431258897818,0.24702188066913097,-0.6361108713529828,9.497824045668532,-1.8346140719141057,1.3110394264231084,0.3564051075390152,-0.3759512995634424,-0.9191530249684332,1.6026198443407795,0.8584717795542606,-0.3751246834563279,0.1614992027077599,0.13122403316503872,-0.3913531659046055,0.5191854648872151,0.043616633964965665,-0.12686323379762407
-9.23358325152562,8.950278175838909,2.3753469615820775,-11.236244282184542,0.36377621692652923,0.20697495646030895,-16.357539938535883,-16.352204113328686,3.2745107159878604,-1.611070462922304,-4.389558604045958,0.2903089353908002,-27.573651147105092,66.89257059841209,-0.6281678520639856,-15.863087192290665,3.5095363155011787,0.8456829088600052,8.00672547234355,14.949279738392985,-5.041078985337616,18.558255751690606,-12.737533119942864,-0.4122511078746072,5.099146850554667,-1.972499402271637,-0.0558732217640101,2.4282421973929758,-1.3356555680442912,-0.25578247215365224,0.21774641653588478,-1.3059278216792947,0.5950963964812189,2.131700306052486,0.4589683558659256,0.7085694107670338,0.07344572339486394,-0.09661819726108761,0.2257484955382654,0.11032977803561582,-0.06987816915961592,0.09071426965293819
-11.238261838666716,7.028009113774997,3.0370619819368914,-11.675133876905187,4.243676312175847,0.477203343009375,-25.048212184494695,-13.45969456480979,4.67524867249029,-15.072330013681077,8.765537024853149,-0.62070824059596,-26.98549514372437,62.92290169026386,-0.6289392569978423,-14.97353428878349,4.046724093061954,0.9293364307439674,-24.546949037640005,32.793608686554286,-1.3778769219339495,25.02434424424341,-0.7455414441373849,-8.504457233409962,6.418247951542627,-0.37966165349261227,0.6181001345666147,4.067373406220047,-1.4928961611819849,-1.635787048669607,0.6093121873918167,-1.6602421802465017,-0.030975342933451125,1.9794465901622706,1.8468397832026446,-0.5394765146204212,0.3249373927017457,-0.2076359122823261,-0.01585673497938133,0.4450166412669036,0.2564449738988608,-0.2021009856050501
-8.630058286988566,4.037950938000261,3.1394207989893967,-11.46022918933802,-0.1818301802252576,-0.10784743172924957,-13.194087912594794,-24.648612322251626,5.350422823205515,-6.033220052050843,-3.6754938119373923,-0.35814861687979854,-26.421695724713086,60.86367337591961,-0.6088909062468912,-15.438157153746541,3.7194540212867166,0.7869137434490956,4.381785892379126,3.5758285696896706,2.7138842376430645,4.746920787002004,-31.690132285810066,8.200333328764406,2.484798331083004,-0.38693197531250484,-0.2691390697102808,4.3928473794238005,-3.3021075950662153,0.4665030134450885,0.2741554687241937,-0.6898221225022322,-0.40719999102511917,0.7982707691676556,-0.47013155411885255,0.6009020209658156,0.03790055662158525,-0.0069192941136036745,-0.1272706536854302,0.033629900885718766,-0.3702785814143403,0.19448831046558102
-9.502814151663053,5.291006261054468,3.03535095377185,-11.392476341300144,3.41913561539905,0.5855597157445891,-25.080401462047963,-20.34329542183834,3.1462624242186488,-12.756949937590452,6.715758438056163,0.9861255317302925,-25.525719446181622,59.71238405883929,-0.49864107194076945,-15.535639014976626,4.410545293402882,1.094706119507057,-24.6139092985887,16.559223712211466,-1.4293205016641506,11.007490456114516,0.5871366226878387,-0.3229628308848446,6.6635629302205155,-2.341261326510073,-0.1531115063508155,5.846380276041719,-0.858571391061485,0.8694285908579537,0.42449478357697273,-1.919563336405248,0.22847325886195816,-0.3268609938933177,0.5069368200788852,-0.7076517599530118,0.23102920347716743,-0.2456615273490539,0.0889839037258481,-0.3769486439262687,-0.08891060830018753,-0.07403509069954443
-8.673972487696926,3.6303980874561663,3.356197799797923,-11.023466531807443,1.7196463538257487,0.2610044987825477,-27.92683151988878,-17.34024261383102,6.724953312621234,-7.514510102003817,0.9519963148716482,-0.5378090665364037,-25.229033081655984,60.143468760967394,-0.7456487720967105,-16.094690497410134,4.612424756662012,1.1736580440788171,-16.110839130254423,20.69668383523394,-2.68342981564858,22.231742449493378,-19.582386038627877,-5.2573439791797885,5.131920566698083,-1.2077042321152365,0.2492973777386411,4.859279864931605,-2.6352462946481645,-0.3453998444799674,0.5055635942385984,-1.417243605414568,0.20215755284468928,1.756313088065549,1.3326488018192602,0.5734187975310123,0.17012150530329942,-0.1396438972868409,0.0936616179020766,0.571185202448127,0.09103494096488815,0.16679981470211797
-5.403451244333828,3.6383412713884202,2.2751498991620815,-12.528813187085976,3.6543248130879413,1.1357039916936156,-9.620114091981984,-26.913676121652017,1.8402201665112758,-14.583191733748796,4.342207687495721,4.186642561228978,-25.057669817528016,61.19523678192711,-0.795936510041585,-16.899457008696736,4.580727544266666,1.1754105217145723,-3.7123911017657742,9.134223257720985,4.624513673437032,13.129224463541147,-1.9047116666655453,-3.216189818633988,5.3478271379976245,-1.2185888542070764,-0.7928184025841151,2.987490864716646,-0.8317580854576032,-0.7228323835011575,0.4014740663654978,-0.8707817907130505,-0.36773991976765064,1.55704836056479,0.8339277471965263,-0.33319978375210046,0.12483581282293707,-0.08190690190186432,-0.11820815209684288,-0.12067327347678314,0.11041645724904949,-0.22243305349012474
-6.91626067392834,6.148258214013815,2.2308408562893383,-9.198160285435858,1.824143789529488,-0.031407879438462384,-16.135077246996836,-8.815092841820803,4.1920345913906605,1.5497875685196152,3.893584274666499,-0.7052666564310806,-25.033362024055606,61.2489495347353,-1.0966688229376058,-17.36145425902647,4.314083221152112,0.9949551052347647,7.306636881049128,30.90734371834207,-3.957504784713366,19.546360082903888,-30.885219198522716,5.005554666848939,5.021783003952738,-1.1170837991361717,0.2956596037141867,8.639481255775124,-2.4243686591072526,1.8249116780012482,0.6053403331575351,-1.7392693149937255,-0.08611223011652028,0.9153808511544713,0.7155701060854791,0.4719981399995018,0.17531840411202285,-0.21444711456648974,0.022923586855830392,0.3445829356240008,-0.25090549864483774,0.2913440359509802
-8.7434773250227,2.1854271978538886,2.9439039655799895,-12.987835972873743,2.342020885077952,0.4005475338292247,-28.305175121424952,-33.880864555184985,6.1711948283246665,-15.05251638740107,0.9828248319594509,-0.5334475998092691,-24.99089511551766,60.1183584468659,-1.1103881465438286,-18.035289384148193,4.420164335113122,1.0413954166475532,-26.361618705540895,1.2523418621273856,-1.8883526500281655,15.153441383064152,6.1368668182395885,-2.2959546640415054,5.058462368252931,-0.9303208902443736,-0.24174876624667702,3.2670641753242613,-2.6044406607478305,-2.6724900320945326,1.1457202262069592,-0.7115927912899276,0.046956213634809424,2.527840504444039,1.8352431453340294,-0.42549205344204943,0.27972361972987037,0.06589931840460297,0.055735178767577206,0.2201782719217446,0.2126802506293201,-0.2401321539196263
-9.188262061811153,4.473875629670956,2.0457437792788067,-11.996276798450733,2.801876985108906,0.6770407673109156,-9.905257897959675,-23.69639744050524,1.0341703549744727,-8.944702787655732,4.403241225866826,3.412749274621153,-24.23681128676861,57.31079544555233,-0.971574533130969,-18.313766257287323,4.135959106085925,0.9216853055755686,7.4121552843530525,17.516836643000794,2.8147564096951383,5.495040104388325,-32.022997955162396,3.00269758759137,6.889587295661583,-0.9930012686668563,0.28784315600348614,6.414589209761608,-1.1081760202297837,2.1737449682772696,0.028852959927044588,-1.581850441488432,-0.07692845105777601,-0.29615452672837944,0.08422798191881506,0.0883553872246257,0.19952962874950347,-0.12303420962316926,-0.10139319858146625,-0.06409446349188765,-0.15371805340301653,0.15222870226561527
-10.55455865139178,1.2356371341815908,2.5970741657923475,-10.176390359197756,1.342039205633687,0.04702183844102504,-23.69972607743302,-28.66388137295736,5.451853800061629,-11.672014478107476,-1.3931480776275798,-1.9157506579295447,-22.864589152490307,51.83021126558325,-0.8493904889260092,-16.992776348317634,3.6216887555999837,0.7781821225095746,-15.480872027187793,4.163431543071255,-5.250048605655353,15.399750118202933,3.5094938310502846,-2.9980644279408706,5.848471513306408,-0.4730361749753152,-0.15757435675574813,5.083079809376898,-1.431760667103802,-0.2082168532030904,0.2921788772451985,-0.8999838347997615,-0.2461231316535879,3.540124748481033,1.3465379996292592,0.8255277008427773,0.11926106433200186,-0.11796152211969539,-0.0790322859621689,0.456618179976154,-0.048316123467495566,0.0723219583718988
-11.902911560433136,0.027191989776962446,2.6687667486983577,-11.27939176990738,1.5154040802565567,-0.15284803650570294,-18.740078212308205,-22.79516262877583,5.067547620436451,-17.49446471464411,7.37940844451147,0.5492255119478943,-21.755271445738085,47.710147335882326,-0.6582074017232634,-16.5422246048987,3.734327496088846,0.6757789872250562,-17.8149806006477,28.44101564721532,1.869605769159874,10.449958121463968,-17.64273184639338,-5.316579293411605,5.660569623246504,-2.9628101461217984,-0.5660546093406159,5.9390902150169,-3.5076882761843966,-1.5801392042434674,0.5201544785977203,-1.5448129420201928,0.4559405849591261,1.0787274165337153,1.1362367005560075,-1.0920454943645856,0.2326314003400056,-0.12154196108159547,0.17029148276256403,0.016083213876924615,0.04862862764124377,-0.29398105624184956
-12.089064009417104,-1.248160679530181,2.308041960895268,-10.233339143046287,2.992668508581297,0.8528501689198763,-7.941267738080551,-34.819271487159625,3.8900134992639113,-7.2472986151472725,5.858714038303068,4.093661851732642,-20.33932412691788,43.77216129885736,-0.7378963293964382,-15.59662840994557,3.354123594898152,0.8876902830925797,13.057224258092548,7.247125271328989,6.937822933515667,19.718569042822647,3.024787544140962,3.839737635242481,6.190558969041999,-0.6492229818266408,-0.37582633819567557,6.254170715896706,-0.42589603143371874,2.9430033717168844,0.101407524103841,-1.0896726672834418,-0.5675704376435762,0.8019462400697511,0.352258591856383,1.0920133295093557,0.14404280780194426,-0.1526539298727581,-0.2313791344601849,0.26152355419781215,-0.1268919300813528,0.3790008473226186
-13.18593876380183,-2.86698302169302,2.4088094266413758,-10.221869028988827,1.0701234066954983,-0.0748693176322078,-22.577777930564736,-23.50886356764796,5.2233585683590045,-10.53513849459937,5.409913424537022,0.9802060546872154,-20.08297666696424,40.80206956657302,-0.8634089435900536,-15.31488244041103,3.060955362711257,0.5492733011519555,-12.127823828502583,24.519262993772287,-0.05281672910862342,13.797290308929657,-9.788137813354574,0.8219485672412117,5.923431572251774,-2.3294820294106913,-0.02612408192221641,6.489666359298458,-3.8040739861860073,-1.8363360977161556,1.002250952398944,-1.6427160345683116,0.506190552151441,2.4389066921741938,1.5830501849481475,-0.49777163395896357,0.31827483076425783,-0.0887002533969686,0.22212556686003737,0.21005372480838644,-0.05663557018365495,-0.14872345979847784
-8.799148143125226,-2.2216264461940245,1.5868386358214959,-11.093590735957074,1.3961889840541062,0.3004074092428962,-11.698628172295635,-25.20080635621802,2.6860688861224866,-20.64330364370631,-2.7879493099025816,-2.5032915455432145,-19.610908783019223,39.62932888680097,-0.6760245290652944,-15.546627954963604,3.1543256991563133,0.8126213339776338,-14.85511065349968,10.238974188722493,-5.503546810898405,20.203145210520645,-32.586810663600694,-4.809992034985639,4.990406635519494,0.8620162196886844,1.2317367802177106,3.9128012979894082,-1.2041489507312064,-0.24806608673960073,-0.18163778750827797,-1.0259419107783843,0.04079551828853462,0.9415478071356578,0.9910712745164917,-0.3429815235670357,0.0326473210998922,0.012086218906185017,-0.05766633923416548,0.26365319330660963,0.11364352603501465,-0.08832712978575628
-12.288444824175487,-5.658591046190861,2.325177361821681,-9.959854206929343,2.867287013321066,0.6334112737309495,-21.460511904235236,-29.90913933022832,3.951986766151296,-7.419928901876961,3.4384055270066236,1.4095426485515314,-19.268416635419317,38.91023480721251,-0.9088974776077786,-15.29565262797882,3.366242760692805,0.8148758872142717,-5.6064052408360245,6.107786510046049,-0.7711915973362902,8.771340957159204,4.003413177407149,5.923842516229206,4.883286864885898,-1.7270248806648065,-0.2758645588446321,4.4994828904996504,-2.9846842623909113,-0.9514876442740634,0.5819994195135957,-1.7852925853415194,-0.14982818212482318,2.115006444494841,0.8104110463672597,0.10776521905176252,0.22950482736777367,-0.3624772758737007,0.026273183815385875,0.0005861010601904354,-0.07555148888488798,-0.05952841873994748
-7.704006388354875,-5.152746999084275,1.749609112342007,-9.955526104052112,1.716376085115708,0.44198270683558466,-12.956221803703075,-23.398057372390753,3.186163977836702,-14.401720866519833,7.359515182970744,3.6035618739003876,-19.307117126948413,37.624656846444076,-0.6796590464715717,-15.769492613843278,3.2562972603080946,0.8299061442168125,-7.728861624762104,30.148305497315487,3.471572391874287,4.26883397690159,-7.790689504217484,-1.2430871841620295,5.2894849767942915,-1.253242280523374,-1.198293532661341,6.93892465866742,-0.9920331877638212,0.7308576330592911,1.084659455500682,-0.34697643291327807,-0.362676543887585,0.2134994561225505,1.711916478323202,-0.6775214586111858,0.2953960494170234,0.06971798844124194,-0.10467462710094189,0.09891371649638564,0.20821403054510088,-0.03230158673910305
-8.650294439909443,-7.539375943194892,2.0194866511158422,-10.98791611775966,1.0971196712610023,0.3111979827845109,-12.237002587993185,-34.51741714600778,2.273024786837041,-16.306619482176938,-4.912434517620066,-1.5712187445804116,-18.57215583283425,37.08594630713262,-0.6838454202375658,-16.30286154411474,3.382910812074014,0.6829156819428457,-8.753140056415884,-10.774624660453506,-3.911412298917995,15.5857215465759,-7.456040376043686,-3.7297029562440183,4.868742434559016,-0.31135182984922927,0.35596728360423235,3.2046503978173027,-1.7034457161911476,-0.3355911499337093,-0.3101378805231872,-1.0241357181622666,-0.04885009815352968,1.7457080243009762,0.8770665551751695,0.46066114873736547,-0.032220298422912796,-0.058468219590831545,-0.06842706535961318,0.18111886940296107,-0.0727050418540072,0.11929828723814623
-8.400173975743572,-10.195505592878858,2.709923526466805,-6.946978239457536,4.031843666228951,0.7546234456578744,-24.979314202927217,-28.928802850908145,6.774413293880601,-4.074455431289225,13.489525764450713,4.708471690850601,-17.975575966436796,35.80842767142056,-0.609223453294147,-16.62016638860522,3.5667214150483675,1.0595581914990837,-7.793236529611086,28.034550808241768,2.264082663330855,9.89126147556135,-28.20688219163621,0.4587376502649522,5.5908323864131475,-2.717065777408984,-1.6743193310755475,5.630216311591323,-2.0966649104432067,-0.5169398612037339,0.45903584862098357,-0.7163948838055104,-0.03272407409281976,2.820891950268528,1.3146753243396454,0.0912798987105935,0.1732375281596038,-0.08806306440761011,0.0015098481315067953,0.42987597751331813,0.03128712601444712,-0.05769278927856192
-7.1746449710063604,-8.34226442798134,1.8805996805594023,-9.901149884133025,1.0141266192870682,0.22190971723450506,-4.403152396276581,-31.909486740989752,1.401818016892074,-10.836113544671452,-5.624961631901349,-3.3712690109808023,-17.482342707544298,34.80836458017477,-0.4865074480732782,-17.38509909163392,3.670403910074137,0.8477808472488528,7.855336516413746,-4.6544239786688735,-6.769891965900476,15.983846798353378,7.633345901347792,-1.2425129833963948,5.735502107064891,0.38587687014320937,0.721349455831386,5.028625501039616,-3.170099873320492,0.40845183136097685,0.9897737242733734,-1.3544776138432533,-0.16829276317482988,0.6811559144741228,0.14335314953038109,0.0514037323740849,0.2717668842321776,-0.12333378765898033,-0.009942118754654996,-0.04634230769948068,-0.05311936319355654,-0.009728482905055636
-8.91832916312865,-11.29610351312699,2.421544046907018,-7.451823065966937,3.066302553273877,0.7111705806430204,-25.520472941170407,-29.846573661885966,4.557141520224963,-8.79012829606807,11.351833896717942,4.677920026562221,-17.467087064530638,33.46254434440967,-0.6520561893644435,-17.501850581578616,4.021068985573949,1.1593136293621331,-19.489548147206943,22.05332006927027,0.26131100822728465,6.46740345507046,-0.3774405067901626,-1.5240876477107332,5.214243391023141,-1.8058634491327021,0.4588154931932635,6.03505344628052,-0.6930115070617303,0.41668433426828067,0.08764636501916075,-1.7181198503815724,0.676720228145843,2.518623595697424,1.0310296529100118,-0.054563664045367624,0.0999423378186043,-0.18049271760992902,0.22289842942153804,0.47919106715749693,-0.08003292779367135,-0.025311596099623798
-9.551561970134527,-9.733179057754437,2.1935716502446745,-6.320329649353904,3.5693043731302465,0.9513168155270222,-12.348440691561844,-34.41355050361791,3.5719670119177196,-5.59807611427515,0.6599654936464335,0.555053750815428,-17.22963142384728,32.49813605215679,-0.680178757952312,-17.071675090322955,3.764212543195756,1.0995355361896002,8.921354580527773,3.407996639470691,-0.8669507068235766,12.276428065150062,-36.61657268512541,3.7727906186277202,5.3541635340992455,0.18018245744901076,-0.19080280563966423,5.481149513226109,-4.855906136247316,-1.4612908216884988,0.47572900489279674,-0.692819989984011,-0.4775366139857137,1.8491501394275482,1.284611591618161,-0.12137149939672272,0.20979568565834,0.05035260888024617,-0.22551299820319007,0.15693039708738984,0.11735218673324059,-0.04610809320428521
-8.447103257829111,-11.923610694557379,1.8278546700368206,-6.044995534286673,4.454472828549117,0.7968217425302412,-15.45749416868799,-33.31339432636201,2.553125817301844,-13.769511325107104,14.606418118566351,4.973956469849814,-16.88329184263793,31.264599087474217,-0.8430458046520117,-15.354550555255202,3.570051644932362,0.9765011994956869,-14.605308760487157,15.249188867402388,4.222291925944212,2.036913969995358,14.895522279670455,-0.403695694260661,6.472265297277027,-1.9587349314070277,-0.6826063092370394,7.122118418687467,-1.8561071081349032,1.5141776860663434,0.644697247303578,-1.556942224122331,0.0468152006227842,0.44267252780361527,0.4116921867640798,-0.08190916728425264,0.20587394059431724,-0.25455316130454586,0.07107277906379696,-0.08652443858980352,-0.2399588507958265,0.12672239434866975
-9.400384658950767,-8.690211297431564,1.7597045779793192,-5.964501515265256,5.254418740313545,1.6404075577570996,-14.619810639575746,-26.000407506531033,4.452733418045841,-2.1072288544916047,3.4677009058002475,2.5339011842674317,-16.988276717092525,30.851344922290476,-0.9540878524333901,-13.736765271699433,3.6442979476444015,1.345825186121957,8.454193607834425,19.625874832066113,-0.011321814790522473,21.947007898229252,-26.01739431785491,-3.2793068390473588,5.159932303388279,-0.5696604198824494,-0.23057788200463705,2.427184910872065,-1.4727335413779785,-1.173085765556123,0.34511814924404227,-0.8857045574613589,-0.14802798431070463,2.116494775913792,1.4702971445519597,0.10091017251921093,0.1534798502995183,0.05213367842626008,-0.11035326635514724,0.2880509352697327,0.26302716659171266,-0.042077973514701036
-10.77617215519951,-11.263108629376609,1.6402088865975064,-5.937050733742042,2.911765794981402,0.7791572993035752,-26.72762602398101,-32.61641557482521,3.640804836921584,-13.710210645262986,4.624180380191223,0.310054060962913,-16.558952420886694,30.681521130073694,-1.2821137710044463,-12.008438152878108,3.042766075937537,1.0266830280667203,-22.59878793723565,11.260368219373847,-4.572882054169722,21.87762832948203,-19.812501576900594,2.245640861040198,5.11628689227609,-0.6930603821531234,0.4495509332873315,5.175837279065907,-2.636085208181394,0.015625680191023093,0.7105662953195009,-1.7066019696925656,0.19875088727984844,1.3670158408460367,0.68793196525502,0.1348532903029547,0.16438785250163618,-0.22204821395843255,0.1368921679737992,0.06793387126097691,-0.13174057427472893,0.10020504158257641
-10.429414408726606,-8.258493353221507,0.9265557306865021,-6.076804475825897,4.329565349529383,1.3673324629234476,-7.712828899477815,-39.09883865428256,1.551349715639422,-10.579315669038511,1.5025864493116627,1.0962332054567598,-16.881051406803696,30.64176038394509,-1.440393702611948,-10.764348960876818,2.9029951247312065,1.0591893521826221,8.553314141518216,-8.577233344757392,3.2142154924284703,-2.017506970309534,11.204589085424182,-2.2190672807359664,6.128622553303449,-1.067189372537504,-0.7382444113126699,4.473560777831298,-1.9653599068884335,-0.40658420616179736,0.2917923215431454,-1.193567627941235,-0.30867892282476816,1.1056427600796959,0.489518308058606,-0.7402795722312348,0.17691674535736446,-0.19803324779247572,-0.12528520955835928,0.080663666922978,0.09563146065318463,-0.29623558577331477
-9.510657677637791,-8.976288740680934,0.874619903736568,-4.193253377022768,7.534427287743434,1.3013143816771415,-23.507652200109362,-8.495554648038281,3.077574155017355,-15.269781908234012,23.62108746492258,6.701688868348088,-16.448745412959617,30.02767438902167,-1.5209340262400677,-10.209175386166466,3.188716628629902,1.2791663847955121,-26.333392114706385,77.63645746909327,-5.436892451191513,25.282007500822168,-78.43344624547545,-20.20059827288736,3.2770051744751703,-0.0728087250536673,1.5495989216677346,5.911751302147936,-0.6355253133396956,0.6788298504827146,0.3525432171057253,-2.0371153627987812,0.41624954882657234,2.4597904370110713,1.5043271291781755,0.5760806138864378,0.19930917178106425,-0.24523170843108116,0.13872914414399554,0.19134962996453234,0.0013182023288635493,0.2083045076980167
-13.656909415004643,-4.727953044769672,0.9131763335407574,-3.691082449150604,2.8106723401015987,1.1731810677416796,-13.01615129437376,-37.55494105911418,2.352074845920048,-7.672496894309487,-2.894108796182143,-0.11184371768243809,-16.384013889202627,30.714676346675553,-1.536525832466035,-10.771696870918753,3.1245534700837214,1.0646102612806163,7.865260545363342,-14.53865759662937,9.201416535325324,16.838425761702958,22.756285454443343,26.43083809378785,6.28861413532466,0.3841755916134968,0.49946554026010126,6.07868500694577,-3.793880177793544,0.47559404033310215,0.9294903889575316,-0.8082586320606302,0.1861676295064103,0.902012354737294,0.052097531100441075,-0.3230286263914763,0.2148559869442248,0.18200267349534405,0.029200261078438726,0.20570123038812896,-0.13250340707435213,-0.09372335848555412
-11.396305784543827,-5.86395765664917,0.660772550877975,-4.037553951227226,2.9448129324439294,0.7158725846776138,-17.63160341908232,-20.343531649713032,2.658061978335738,-6.497740367242178,3.7081892138616124,-0.0018535842606506661,-16.192230646129307,30.48190328849741,-1.6463332650244,-11.346643275261354,3.1005235877798794,0.9613875256069945,0.608346544343712,27.30993145862572,-6.8814163350405915,4.885680990562781,1.4914328755439608,-12.947289694276881,5.98345301402859,-1.2073040146672096,-0.5506219566745053,3.5319689138990857,-1.925919356947559,-0.11261098725510682,-0.29013146252197414,-1.4200140558999002,0.1465983631893831,1.6185639188520313,0.7924906162598598,0.3250746672979867,-0.07028188325321887,-0.31247586766170965,0.07262509905730714,0.010062577940881804,0.05775700188117938,0.05470026630257733
-10.684966164213515,-6.938837959459067,0.3694332067006872,-7.584900932741508,4.221133307975559,0.95519833171032,-11.244382603016607,-26.06555865695281,0.8501122739556715,-17.677965393973764,8.052472383129443,3.6835739754200216,-16.565376779833866,31.017200062608055,-1.7473186127163358,-12.375711996635996,3.142765499220082,0.7976889706049538,-5.096028327060158,16.461130831859816,3.860727024936753,16.12384547253125,-20.757415707586944,5.245477629041969,5.68783382190757,-1.3328577838181046,-0.7000279057641667,5.498145738320894,-4.495602858351246,-1.9006690293768376,1.507357647484187,-1.3337001686920886,-0.4016664626688205,3.1333700593775666,1.3815343469493597,-0.28630003383744146,0.4599511736404612,0.05167536510524661,-0.14060205876772036,0.5666272720436945,-0.04768051361672069,-0.08978828273777292
-14.55212826924224,-7.238434735990379,0.5235488735577031,-1.9814885718820412,3.892690112849468,0.3215175403150084,-31.62139218330715,-26.246621094836946,1.8993984881437591,-2.6668692447825837,10.965348555004534,3.0109645148441215,-16.34701784809593,30.21701556506643,-2.137570677648222,-12.279469268325263,3.291598819850607,0.5857419410785154,-13.188299690609394,24.109832302231066,-3.9140445752573254,22.10283750960908,-31.092620286251538,3.222732088163737,4.451249729523983,-0.11556345078046998,1.0310894473458696,7.10809657879436,-2.603329795451606,2.5604867528129853,0.14372774011474077,-2.1562996750598797,0.26575769336007465,0.49607503605903214,-0.17012955171423205,0.42627220368530405,0.09290719333245573,-0.2886733505083501,0.08444075020312027,0.006957695426013206,-0.1987796816188294,0.1680967517738974
-12.746598416325407,-9.0961879357613,0.6213584618657056,-7.765012160416573,0.5910545405678079,0.12980121146529233,-19.02089639843913,-27.840890132930447,4.370249698181811,-15.293923550445488,-4.038508773869703,-3.1418932748716406,-16.186908004603627,30.842162901710093,-2.3593960943104317,-12.987694833688957,3.040019066995146,0.5965263174683666,-9.555383136300096,7.848876483999793,-1.603876217145897,12.973994477261684,2.737862318598714,-2.712819560728943,7.260923480913636,-2.1975163366280355,-1.3460413199620749,5.198837394408421,-4.324977827578012,-1.9612323401605838,0.9770176209365192,-1.2606071619130825,0.008917908722448319,2.759409260233584,1.6430182523264982,-0.43959103210720146,0.3749055457222877,-0.07486411858980827,-0.005868978624055151,0.2918755169725164,0.08716347016569999,-0.1322205640582527
-17.218658902222227,-8.704702828914122,-0.2912785942477327,-7.803233168978232,4.6932241682973315,0.740906464602628,-31.331838103139866,-21.095878401924715,-1.9282056148196227,-8.155373406833018,10.621254313765576,6.031972323223277,-16.881007079749285,31.13677914204006,-3.0103397315649136,-12.558744351119664,2.9851705286612815,0.3941237940419162,-11.526076171069773,30.402447518710485,-5.246272682321465,-8.974858301734725,-20.456364698851523,3.5246238230119644,4.392765056547523,0.5063757010824678,0.8564295290386356,5.750255005838417,-1.7556546365124124,1.3952714175298921,0.6189570779544571,-1.34068305713538,0.19352301938176603,0.6042550752334434,0.4033248299913483,-0.3717108861466672,0.07186095322205986,0.008830870247505876,0.06786677939296619,0.1386231649540396,0.021152879396895845,-0.1003436424088587
-18.950736903728515,-12.596809735758072,0.1497142701031952,-5.2642871850373,-1.9249724207716343,-0.6198549888219499,-25.84493755013345,-36.02546080263112,2.060320991391017,0.21774377391500377,-6.044961039802734,-1.5851341263383187,-16.721980246927576,31.8863006322633,-3.5348592350043533,-11.163267175801069,1.9739052927031413,-0.08575758253103266,8.03722881545344,1.1384674388230396,-2.309323225413715,31.051044809363958,-16.206419281865816,2.8396442920568394,7.020868828131909,-0.9996184600640298,-0.6782724399609195,6.207399481992737,-3.6347946249907657,0.5520578647586353,0.8141494156954209,-1.7658512696310247,-0.38836307440655593,2.4469628702877184,0.7375264991827053,0.7095009184456892,0.30086731908656394,-0.23257744069642286,-0.13206910744744477,0.38285635511349325,-0.23202109271293825,0.2423863563997013
-22.69261,-11.4752,0.14839,-10.11384,2.60381,0.03277,-39.02975,-30.46601,3.1532,-10.68674,7.92331,2.15132,-17.0837,32.51109,-4.07899,-10.40407,1.93309,0.04659,-23.80906,23.60968,-1.19753,31.16052,-7.40506,-2.39237,4.65536,-0.05748,-0.27425,4.3308,-3.34742,0.38117,2.04331,-0.78961,-0.47003,0.99867,-0.09328,0.11528,0.4155,0.17195,-0.08293,-0.06993,-0.21314,0.02812
,,,,,,,,,,,,,,,,,,,,,,,,,,,,,,,,,,,,,,,,,
,,,,,,,,,,,,,,,,,,,,,,,,,,,,,,,,,,,,,,,,,
,,,,,,,,,,,,,,,,,,,,,,,,,,,,,,,,,,,,,,,,,
,,,,,,,,,,,,,,,,,,,,,,,,,,,,,,,,,,,,,,,,,
,,,,,,,,,,,,,,,,,,,,,,,,,,,,,,,,,,,,,,,,,
,,,,,,,,,,,,,,,,,,,,,,,,,,,,,,,,,,,,,,,,,
,,,,,,,,,,,,,,,,,,,,,,,,,,,,,,,,,,,,,,,,,
,,,,,,,,,,,,,,,,,,,,,,,,,,,,,,,,,,,,,,,,,
,,,,,,,,,,,,,,,,,,,,,,,,,,,,,,,,,,,,,,,,,
,,,,,,,,,,,,,,,,,,,,,,,,,,,,,,,,,,,,,,,,,
,,,,,,,,,,,,,,,,,,,,,,,,,,,,,,,,,,,,,,,,,
,,,,,,,,,,,,,,,,,,,,,,,,,,,,,,,,,,,,,,,,,
,,,,,,,,,,,,,,,,,,,,,,,,,,,,,,,,,,,,,,,,,
,,,,,,,,,,,,,,,,,,,,,,,,,,,,,,,,,,,,,,,,,
,,,,,,,,,,,,,,,,,,,,,,,,,,,,,,,,,,,,,,,,,
,,,,,,,,,,,,,,,,,,,,,,,,,,,,,,,,,,,,,,,,,
,,,,,,,,,,,,,,,,,,,,,,,,,,,,,,,,,,,,,,,,,
,,,,,,,,,,,,,,,,,,,,,,,,,,,,,,,,,,,,,,,,,
,,,,,,,,,,,,,,,,,,,,,,,,,,,,,,,,,,,,,,,,,
,,,,,,,,,,,,,,,,,,,,,,,,,,,,,,,,,,,,,,,,,
,,,,,,,,,,,,,,,,,,,,,,,,,,,,,,,,,,,,,,,,,
,,,,,,,,,,,,,,,,,,,,,,,,,,,,,,,,,,,,,,,,,
,,,,,,,,,,,,,,,,,,,,,,,,,,,,,,,,,,,,,,,,,
,,,,,,,,,,,,,,,,,,,,,,,,,,,,,,,,,,,,,,,,,
,,,,,,,,,,,,,,,,,,,,,,,,,,,,,,,,,,,,,,,,,
,,,,,,,,,,,,,,,,,,,,,,,,,,,,,,,,,,,,,,,,,
,,,,,,,,,,,,,,,,,,,,,,,,,,,,,,,,,,,,,,,,,
,,,,,,,,,,,,,,,,,,,,,,,,,,,,,,,,,,,,,,,,,
,,,,,,,,,,,,,,,,,,,,,,,,,,,,,,,,,,,,,,,,,
,,,,,,,,,,,,,,,,,,,,,,,,,,,,,,,,,,,,,,,,,
,,,,,,,,,,,,,,,,,,,,,,,,,,,,,,,,,,,,,,,,,
,,,,,,,,,,,,,,,,,,,,,,,,,,,,,,,,,,,,,,,,,
,,,,,,,,,,,,,,,,,,,,,,,,,,,,,,,,,,,,,,,,,
,,,,,,,,,,,,,,,,,,,,,,,,,,,,,,,,,,,,,,,,,
,,,,,,,,,,,,,,,,,,,,,,,,,,,,,,,,,,,,,,,,,
,,,,,,,,,,,,,,,,,,,,,,,,,,,,,,,,,,,,,,,,,
,,,,,,,,,,,,,,,,,,,,,,,,,,,,,,,,,,,,,,,,,
,,,,,,,,,,,,,,,,,,,,,,,,,,,,,,,,,,,,,,,,,
,,,,,,,,,,,,,,,,,,,,,,,,,,,,,,,,,,,,,,,,,
,,,,,,,,,,,,,,,,,,,,,,,,,,,,,,,,,,,,,,,,,
,,,,,,,,,,,,,,,,,,,,,,,,,,,,,,,,,,,,,,,,,
,,,,,,,,,,,,,,,,,,,,,,,,,,,,,,,,,,,,,,,,,
,,,,,,,,,,,,,,,,,,,,,,,,,,,,,,,,,,,,,,,,,
,,,,,,,,,,,,,,,,,,,,,,,,,,,,,,,,,,,,,,,,,
,,,,,,,,,,,,,,,,,,,,,,,,,,,,,,,,,,,,,,,,,
,,,,,,,,,,,,,,,,,,,,,,,,,,,,,,,,,,,,,,,,,
,,,,,,,,,,,,,,,,,,,,,,,,,,,,,,,,,,,,,,,,,
,,,,,,,,,,,,,,,,,,,,,,,,,,,,,,,,,,,,,,,,,
,,,,,,,,,,,,,,,,,,,,,,,,,,,,,,,,,,,,,,,,,
,,,,,,,,,,,,,,,,,,,,,,,,,,,,,,,,,,,,,,,,,
,,,,,,,,,,,,,,,,,,,,,,,,,,,,,,,,,,,,,,,,,
,,,,,,,,,,,,,,,,,,,,,,,,,,,,,,,,,,,,,,,,,
,,,,,,,,,,,,,,,,,,,,,,,,,,,,,,,,,,,,,,,,,
,,,,,,,,,,,,,,,,,,,,,,,,,,,,,,,,,,,,,,,,,
,,,,,,,,,,,,,,,,,,,,,,,,,,,,,,,,,,,,,,,,,
,,,,,,,,,,,,,,,,,,,,,,,,,,,,,,,,,,,,,,,,,
,,,,,,,,,,,,,,,,,,,,,,,,,,,,,,,,,,,,,,,,,
,,,,,,,,,,,,,,,,,,,,,,,,,,,,,,,,,,,,,,,,,
,,,,,,,,,,,,,,,,,,,,,,,,,,,,,,,,,,,,,,,,,
,,,,,,,,,,,,,,,,,,,,,,,,,,,,,,,,,,,,,,,,,
,,,,,,,,,,,,,,,,,,,,,,,,,,,,,,,,,,,,,,,,,
