PaulMeinheit/Bachelor_Muay_Thai/processed_Data/E1/teep/scaled/JointMoments/scaled8.csv
R_KNEE_MOMENT,R_KNEE_MOMENT,R_KNEE_MOMENT,L_KNEE_MOMENT,L_KNEE_MOMENT,L_KNEE_MOMENT,R_HIP_MOMENT,R_HIP_MOMENT,R_HIP_MOMENT,L_HIP_MOMENT,L_HIP_MOMENT,L_HIP_MOMENT,R_ANKLE_MOMENT,R_ANKLE_MOMENT,R_ANKLE_MOMENT,L_ANKLE_MOMENT,L_ANKLE_MOMENT,L_ANKLE_MOMENT,WAIST_JOINT_MOMENT,WAIST_JOINT_MOMENT,WAIST_JOINT_MOMENT,NECK_MOMENT,NECK_MOMENT,NECK_MOMENT,L_SHOULDER_MOMENT,L_SHOULDER_MOMENT,L_SHOULDER_MOMENT,R_SHOULDER_MOMENT,R_SHOULDER_MOMENT,R_SHOULDER_MOMENT,L_ELBOW_MOMENT,L_ELBOW_MOMENT,L_ELBOW_MOMENT,R_ELBOW_MOMENT,R_ELBOW_MOMENT,R_ELBOW_MOMENT,L_WRIST_MOMENT,L_WRIST_MOMENT,L_WRIST_MOMENT,R_WRIST_MOMENT,R_WRIST_MOMENT,R_WRIST_MOMENT
X,Y,Z,X,Y,Z,X,Y,Z,X,Y,Z,X,Y,Z,X,Y,Z,X,Y,Z,X,Y,Z,X,Y,Z,X,Y,Z,X,Y,Z,X,Y,Z,X,Y,Z,X,Y,Z
-26.091500000000003,-5.831430000000001,-0.6155400000000002,-9.194210000000004,0.2975,0.041740000000000006,-19.745580000000004,-32.15216000000001,0.16788999999999998,1.0429100000000002,-3.5337200000000006,-0.21993000000000004,-21.28773,38.965170000000015,-3.823930000000001,-8.713530000000002,1.4747300000000003,0.04828000000000001,22.902190000000004,8.36183,-0.04264000000000005,-9.64175,13.95328,8.823990000000002,8.95873,-0.5697000000000001,-0.4405100000000001,8.152280000000001,-3.4445,1.4195200000000001,1.24573,-1.5388300000000004,0.31725,1.9737600000000002,0.61816,0.2827,0.20583000000000004,-0.13922000000000004,0.1022,0.5581,-0.11600999999999999,0.02633
-28.7320951112502,-9.739085122932886,-0.3737886963567863,-14.560628282023066,0.30101375865094127,-0.09330374798031305,-37.89226258380213,-49.22017151365418,3.7181796364634248,-13.757802342220284,-0.489751208939452,-0.8432990123321858,-20.469906767022632,38.16999765221654,-4.4623574855852715,-8.409423747031425,1.5305123395165376,-0.11468262694663013,-17.82141665210126,-3.750535661962208,-0.16231531547198835,26.51097209936155,-22.280267459205653,2.364961143461575,2.9169310794069934,0.5668152694265717,1.7419355162507777,4.433909567421839,-1.3559933910824922,0.270687020974472,1.4825079495347608,-1.7104425790588518,0.5436378305645122,1.2195428821811694,0.3584731817802122,-0.5992329437771573,0.2515605722735929,-0.20466549126821387,0.2462015610167899,-0.09287727831264425,0.07948698142420904,-0.3106110594550719
-29.864168337056864,-6.6632806772935345,-0.7214653647008928,-10.753847730888763,-0.18654451016528914,-0.21490472163235055,-35.900253149863886,-36.27160882678526,1.681491047881121,1.8844635632128859,-2.404665698165873,0.4854775051738308,-19.88226965732062,37.59742960962428,-4.901661148765344,-7.327259505475062,1.2446740350492318,-0.2855069282998495,5.35778303358536,15.09699136892098,-4.387078036026703,-20.727560090271798,-1.2998865794691654,1.6323844588409147,8.232085349174824,0.13110415252871133,-0.21425652335825696,4.091350566811002,-3.8746599425820243,-0.2912658484114615,0.6783753562278285,-1.1922600241723094,0.24277150190505187,0.4301142687151308,-0.07850268881212889,-0.01829772671628583,0.0946519263897289,-0.011949874165849332,-0.023636700526347032,0.04608900508053566,-0.481769653654128,0.18130239634284817
-29.99655626374469,-9.043351243711735,-0.6264752914755581,-10.768901182699848,1.0043571669491962,-0.46623991344019317,-35.97627227723634,-40.57869772874803,3.4444748814922628,-2.515117167139442,4.362471143711525,0.23910858087438405,-19.27576652051788,37.53774319837299,-5.460490022777476,-6.644776764655665,0.9567612362207977,-0.4107740954785196,-4.487401324833935,16.66206153562461,-0.7637727890354925,7.825304467513958,-31.49383777537505,-0.3560575885608731,7.244766379891354,0.744985615809792,0.3271934731501069,7.43083646050597,-2.420425858097338,2.864651795381109,1.3779751706781407,-1.2755011661554583,0.09733696214466163,1.3157305160037085,0.004656917140772893,0.7377941322783715,0.37789845388461063,-0.034280327608433116,-0.050279104488251306,0.28100019024434614,-0.07377916563723477,0.12603913475723116
-29.396518759935578,-3.740183897278344,-0.7986348349378831,-11.62865238287188,-3.4848482999774237,-0.06625412668348414,-31.76395693781363,-27.463481028589648,0.36146287342344546,-0.4420722726195164,-19.13852053422187,-5.853647250565304,-19.710633184082624,38.430818950827856,-5.237323681629019,-5.814164245998269,0.8769080185641172,-0.26805603658698507,13.410145323004713,6.915553892896865,-13.151381951859982,-8.900578616324264,5.626823287850615,0.3648747456334783,6.8267780947264916,-1.197854205656513,-1.3192272341801379,5.6036049323424715,-2.7519681609909834,-2.2054024465806026,0.6096695903715541,-0.9660122130791378,-0.020407640070056077,1.0071517725519847,2.861238202152469,-1.1354195005162036,0.16089966938220338,-0.07653944849737593,-0.06943392060196213,0.10224850940891538,0.3105502957557265,-0.1999848272652849
-27.32725616366495,-6.300437150333303,-0.20175581346460106,-10.051362644138036,0.7079992519272247,-0.046166796350707626,-39.074178709301705,-37.162246775641684,5.482237539612147,-4.718031183194992,3.310742898230999,1.6923376307529496,-18.961300063329393,39.92761562585782,-5.487061893739001,-4.921977785706517,0.7629574916081273,-0.20259387353061725,-13.810184007017245,18.478860868362737,1.0064842555632416,11.576616874160015,-25.187070865319146,6.549741107679514,5.939435500890357,1.385677956811262,1.4901561246978146,6.766936604809354,-4.334880900236231,0.18022965650509074,2.3841819459354006,-2.1756171933263784,-0.21926310054996234,1.8100696977316948,0.6140402913215731,0.3398571706281714,0.34328169336008685,-0.228159684948565,0.0152193580872297,0.3379202906135397,-0.1167760081097651,0.07937273226972817
-23.4197671113326,-4.342320700044543,-0.43921302269201795,-8.531032499739956,0.8385605048913323,-0.00024915109619702027,-18.695980072057594,-40.03990002131108,1.8636847310333686,8.211087877259544,-0.7116011266654133,1.14940482568518,-18.028010807385915,41.116236982458226,-5.12223242484404,-4.3213600428069086,0.6364887612095773,-0.20427074244513285,32.19378129076606,13.029065381648508,-0.5102484144166664,-15.923626880965157,-12.472108743520774,3.7907186219322964,9.00397089709375,-1.7607308805064814,-1.8962987773908655,9.880796484510407,-2.6916614465607664,3.828205327474517,-0.16314465929423333,-0.5295602137688843,0.6840557425918183,1.4327611581049444,-0.7381203007712706,0.2992086229177057,0.09964234279613567,0.014441284517336317,0.0755925240434609,0.3776587458632091,-0.4479516667373914,0.0755620144640312
-20.642422716373314,-1.0517282410685258,-0.7477076977528864,-9.765484695246178,-0.17550221340933164,-0.21767918602867717,-24.522242482475466,-30.62366918558102,1.6944172693855446,-6.142580085019564,-1.8486297502590139,-3.150395966170004,-18.77522316294336,42.93094880791105,-5.274934220482322,-3.6815031836038896,0.36219318773213466,-0.21451651068060382,1.1096920724086607,22.509800933732475,-8.9409620685465,-17.077945113805274,-7.798703415600769,2.7405845527245356,5.816580433910129,0.09204681762478803,0.6037551855503819,3.591845191937629,-2.0957001014565426,-0.6746131963205789,2.0983129695337874,-1.7996829598013437,-0.010133851827734044,0.5370180864652225,1.342864338049197,-0.06146623902967595,0.35814252212686387,-0.1794733404278659,0.07404580411540786,-0.09306400874166297,0.15101169487745075,0.03562617619576445
-20.289274299689524,3.7534156497868545,-0.8207783038207668,-5.877714947916941,0.89590719609927,0.04678071165857555,-18.860470223620815,-28.00670704005504,4.3827630090162595,10.762925364395954,0.7314881260388606,3.3180227834348757,-18.816104948134768,45.05841530647992,-5.725402395896621,-3.6000330054389957,0.5012865063882361,-0.2094780155821362,26.12357299206324,18.843154228811706,2.846494475750851,1.104836115234137,-17.26722108148967,6.455359845458294,8.534976283320539,2.8302067548061367,2.1598907082697942,7.833515046253183,-4.566154090844891,-0.151916355417601,1.7403726042694128,-1.6633884402580623,0.45970608828476045,0.993181687622742,0.9771862392884553,-0.33229247350995766,0.37265839106266435,-0.03929019795188646,0.09005827256012146,0.2750827802772621,-0.07953361659306614,-0.029625974695099273
-22.43140015488192,8.945492365432617,-1.8749357924987087,-6.122273371609551,-1.7774273628773776,-0.5793277990764681,-16.06735721974111,-13.220315187324113,0.5943840882132706,4.231069268037481,-1.2730948803723692,-2.267858626346857,-19.842049321190935,47.72257433728587,-6.820444200250083,-3.4076175526384236,0.03218105377015297,-0.4759893443666176,22.437710562097692,43.66062933018888,-8.156485315794026,-5.644006548070788,-4.675258055897841,4.301123306015454,6.015911313550902,0.021179353280584012,1.8631079818929404,4.981818387288835,-1.461354419898803,0.22767853865979726,0.7791843246356037,-2.7051713317483252,0.8404751399718629,0.6647329673939096,1.124056371129198,-0.44359722538450613,0.11472068735052915,-0.33921047098789336,0.1952913908115964,0.06457767112024952,0.059193116676180754,-0.0892018496964202
-25.141914000382435,9.498512754137092,-2.4621044079383942,-11.075998547852075,-1.0428311244069288,-0.18110453417780653,-19.78352843001782,-32.94424135063455,3.389873408108586,1.9645015530409964,-5.9076957538758235,-2.107620249473649,-20.309814026734877,50.50063523343617,-8.411690273661591,-3.920954084302901,0.22516982309282915,-0.594564079080056,17.59378989537363,9.671350757150895,-4.700809995513786,1.4843331948208636,-51.79477896630766,1.4972934027960085,4.7827650111418825,0.8929727310703384,-0.5478988062901721,5.017189964754321,-1.3192026509999175,3.353518934519399,0.8065588036648677,-0.4857082201068949,-0.6355841414509081,-1.8559799419038978,-0.042510638913707044,0.46398502087586746,0.15844624859250578,0.08214542876880883,-0.2813812329046906,-0.536180126476653,-0.34767043707497775,0.49045525677913193
-22.738245472762394,14.687044360574204,-4.212491995754223,-5.943679778211242,-5.046273085552845,-0.01384175115961975,-14.647167480566859,-26.54535639414868,3.107420736863196,-3.2247292284159994,-10.293132871314265,-3.1322430814121587,-21.187316128447737,51.8765004795214,-10.108656228629307,-3.356175376911821,-0.24321337721333494,-0.7000416402734909,13.069099773300344,10.278327303612146,-5.220765512713179,-23.60093848746498,12.710677433204863,11.03662121153631,9.463965794179412,-0.2699626147489174,-1.303576107338573,8.83942252494318,-2.3882053129710754,1.0034916986055307,2.1446489888999354,-0.8137829792514835,0.020066127661438407,0.6262709297865912,1.0820714489819625,-1.4233868337779758,0.5661673281714703,0.06914049146872162,0.031512349813470945,0.2259291841621165,0.28931078509368857,-0.46341765816852415
-24.918230871653872,17.102523042056905,-5.043995340807611,-4.430864024033742,-3.5859986808439572,-0.09301404730287753,-13.034878584804718,-6.456554570175547,-1.9423065101261927,12.055200562595683,-5.562327309383396,0.6406553927063111,-21.78084690413423,54.44252476190892,-11.82374503127377,-2.803174395454576,-0.3631334267566956,-0.6439535439665539,35.32627788301569,43.389812391258424,-8.442363662058037,-23.420264110241884,-29.26723527163632,10.26025977644864,9.952189656643574,2.214375928109118,-0.03840728145421757,6.45293279701291,-1.2167230680001602,3.6395649162210413,0.9357861586359756,-0.6643777142278477,-0.032511627914708345,-0.6955276062456971,-0.03885248079040321,0.6093998635822994,0.17100340604535885,0.11266322403478324,-0.09761957180292348,-0.21691714766920522,-0.4141883179464072,0.40042156747355595
-23.10664226978902,13.762973102177918,-4.803878181445869,-9.919528019218438,-2.179342662514234,-0.35388657683179053,-22.475360761228746,-32.41126790137387,5.621424434469323,1.105929075283485,-3.448997838704668,-2.0281613127573355,-25.56352964649099,61.062918388448985,-14.122007768061401,-3.4921779518394356,-0.43888827997241936,-0.8502894123530599,5.401880251463829,10.995760260219702,-1.2635273416483113,36.543854349556405,-21.692674302316266,2.025934227787914,6.9091169247465976,3.6350521231297743,4.622091584779005,3.8767476065759157,-3.4932427005003612,-2.9528850199701826,3.061554267159724,-2.8793326326048594,-0.1295307580393002,0.6678553267766267,1.0903675857278952,-0.6728549753387918,0.41790304798341443,-0.04504160163419205,-0.03993373305576722,-0.004213324398377954,-0.05905263851575086,-0.1719004368993517
-21.264129985534726,17.711781603303468,-4.927816645923269,-7.853451879318009,-6.11595824024787,0.5056645505606596,-18.21432791151975,-18.13760764684904,2.9562801529151734,5.260024566302489,-14.065926229693336,-1.9724457188822875,-35.0623461342937,75.88683603959427,-16.716448792221748,-2.778479065060761,-1.2063245017632864,-0.9542545389343065,18.376381009109746,28.92658554825064,-11.078363788385658,-43.907180812556284,-25.780518383228195,6.600745599582794,11.196754853449878,-1.3906623896913937,-4.404434900371799,9.148602817158894,-1.9199711573742326,0.4492870422631312,3.469026153328448,-0.38587364947323805,-1.0194738153992748,-0.5915325007294608,2.339874912226805,-1.4577091744521238,0.7980545026274622,-0.122270197825474,0.0032180844781487705,0.1490095982901822,0.5442363923470853,-0.2761217272050239
-13.485657200176995,22.810939328923922,-5.4817587331128514,-13.899045721266742,-9.53131398973641,0.7676991309687142,22.46006905484752,-30.833376184955032,2.9678315405924356,-10.527070510825565,-23.729812565105185,-8.38888053748048,-50.283015473585266,93.92615275631758,-19.525985712103946,-5.256989028739105,-1.2633478471555812,-1.7895890685617537,54.81964717181208,5.397747067941818,-5.084436710437233,-17.105439555408708,6.929492574739019,11.799743269952645,10.797259165066938,5.457013732771376,6.0189921644199105,2.8046033901396363,-3.4463052019952967,-5.507776136857178,3.5952282678478693,-3.757017604416823,-1.2119830581757651,1.3622784609656455,2.973157510133229,0.37142871540716765,0.5429451169417321,-0.12927275184622505,-0.25905901746738114,-0.15633087657653216,-0.033999145591642445,0.14637687804913774
3.2947479040810417,22.989641732131346,-4.970283269928729,-12.4046314264593,-9.609513319247409,0.5153048016496153,58.406496419554934,-31.71899280588217,7.143700028626533,-25.29388336903595,-13.55943255165457,-5.3574463896315985,-63.561502616819276,106.49999058583367,-22.280617976294764,-8.837171065828425,-0.9953566319769863,-2.050716057010799,71.01565045427904,16.024565014446168,4.1935323036380465,-24.737822238968473,-47.874548581902054,-16.806047605794518,20.59146827247074,0.3965246966525685,-2.1875354726358314,9.020281365444575,-3.0431932262565216,-1.2076935595384728,-0.5958066706115877,-3.665988610106682,1.9491388530872582,0.36950927236897935,2.7377867732231937,-1.0405729958875032,0.11818983400740724,-0.25102050103190765,0.38975160928779146,-0.06279449205307527,0.36042992833206816,-0.25063505264663954
36.37628647611465,16.852982511051913,-4.9285527348803635,-8.317670817984606,-4.465810133458784,-0.3174587243246314,121.95298450961866,-24.34357622188887,2.323278182045657,-72.43513030232184,19.525329057097384,9.163996026351525,-62.64262526738295,98.838977979707,-20.55597287075111,-18.482558481537634,3.025103644033745,-2.569801422662683,65.11076926866076,66.83902324915408,42.12647852105652,-10.844342487280642,-33.02505892190392,5.961524497883057,11.373130825123992,4.774467921965022,1.7458843522418532,2.5022916521996477,-3.213163580566481,-2.703814118782187,0.5031158270354091,-1.3518779611173686,-0.819208257931334,-2.826482239291006,2.0821490865223025,-2.0039588766986838,0.2355264081037116,0.0006169078389200262,-0.32640454129885826,-0.320112155928397,0.29657882339420555,-0.16278319888521037
81.87064202721874,9.091024580938157,-10.173295143260626,17.41935053086699,-1.5447843300014934,1.0837485136828917,138.35903136834622,-9.134812994106946,-3.128520433281934,-95.4484253225318,7.257443011761362,-7.04650749301993,-34.51910187119252,64.777479434611,-13.109687580689144,-35.30124235143677,10.773832319626077,-2.3053199464588565,36.71565180011309,-10.568743917049252,12.185111838645618,-21.987207443203953,10.902212802427037,-29.02493082035962,8.114183907230576,-2.582396700249185,-7.329224841545098,0.4016545090042532,-0.030580261652842278,-0.7982439197166847,-4.62640845730201,-1.3341994801888548,3.0804761020344067,1.6773874909717736,1.33401612321862,1.0798504228785926,-0.6135618867670662,-0.21086609877295762,0.3006239175586947,-0.40672019795536085,0.19219965717337373,0.09355782497422722
70.78457843713763,16.741216862723153,-24.774209341301127,52.41361260422836,12.977829364915628,3.049764784754802,127.15248347339383,99.05434134268852,-12.462737993570153,-36.90539000954869,26.573805283883644,6.260915559456332,-0.556145167655951,28.578758090540152,-7.123351037726162,-57.22702561287941,19.354960721799152,-1.642053546921214,61.83449330515424,84.12459931997878,9.86766851267574,5.2325363237982625,9.839836112797823,8.607194419662129,6.211670705160167,2.0041055427659327,0.5765912461783205,0.11998024848442171,-3.4528338517805817,-5.968258270233082,-1.6196551898567093,-0.29021171338544394,1.9982309449030962,2.0675123640960313,2.775024174625808,-1.9754767925947934,-0.06560255938849058,0.06254129131596854,0.2471238217024465,0.25162108634635616,0.39751860901963354,-0.4151161648570668
22.161442636415174,6.138979326801759,-11.018549514307324,59.20408740766508,39.23140166069447,5.028118878821564,70.76686363730059,36.292205816819646,6.446396582797771,-3.277110566772836,32.602300745295324,-2.9023598420269936,4.375294599948858,6.995529982646783,-3.334418318721078,-77.0699831963375,27.607150702702423,0.46544749136010866,37.852557668809595,-21.301493408621305,-10.65423372164406,-22.957153438658025,33.920488373977875,-38.27753215212829,-3.0849184502023346,-2.7616486066081873,-3.6040125190770116,-7.729938509038316,0.45152223181306095,-5.10923985385506,-1.8683846953220369,-0.5079231419491944,1.8435922992417244,0.26233499386003334,1.3147739819254638,-0.6877939209407198,-0.3228751181301889,-0.42266706789164954,0.34444141427158703,0.2098365929147282,0.6316844386582265,-0.3451222422017022
-12.182713949574516,14.236043094467622,-9.610911011322095,47.96997380264015,49.53388214939698,6.551045587579635,23.389781008793626,34.465161585995446,5.642978217971905,-13.223985007657316,28.673338839496118,-6.412135211786548,1.859903401440199,1.7723655289985116,0.18311412390522214,-80.02124835097929,28.145515185616485,1.8438718338065454,-23.165362606649968,-49.926372322289346,-29.14188765042736,-5.271748631847349,18.01875933226329,4.5602661467448,-3.9088324430275527,0.08365889875573415,-2.5362220578559556,8.300335252165958,-3.5783351043012925,9.81055800241214,-0.8006335719643052,1.9015658965702025,0.5751113210487805,-3.7817357375986482,-1.9483629864777299,3.495325924896051,-0.255315139582767,0.4434360618347998,-0.05454526179407926,-1.0008817379036536,-0.4892035559180568,0.9054503546129989
2.3609937030014017,1.049900481824284,-1.7653688902852527,20.414631958046975,48.93504305686229,4.694022723240728,27.47506377882043,-1.5769266225432785,6.774814301568851,-36.81692171133183,66.5961245711085,4.745247062532343,2.5438304863155468,-0.7505656624691115,0.4000520195737664,-67.61581827626071,24.647981094415506,2.694552680548938,-28.354458343140198,-26.074257738732765,-6.834809173735058,-13.420746538981705,29.891565485978127,45.19952133000795,-0.23968180552499418,-0.5586652305498296,-1.5390701148495343,23.643512782619766,-10.294165105882097,10.974538607023323,0.9910182091698919,-0.25987526606632994,-1.0523860194055388,-0.3360706452202198,0.19351646971247657,-1.6282209548426845,0.11794020929117723,-0.3021231872578814,-0.10563557379675814,-0.15917913259842786,0.11751281215017252,-0.32565722534776487
-14.781477432637859,8.602181703356795,-5.695694483500452,11.751545108916792,30.70780007638318,4.738571002260696,49.938063796645295,16.149695875151778,19.87250890853358,24.334000282778103,43.880232066999625,11.56341483691934,2.3361272484370548,-0.670195365594942,-0.23488700122497774,-51.671651738545386,17.54826870848788,2.1896165913259305,81.42806755406896,-14.674394856228588,-7.733994498310814,5.474192887480106,9.771263912120325,-5.153352070987874,5.441387727702484,0.012565407426570044,-1.046292863075968,12.471697895955472,-18.260098219339323,-3.241111353051361,0.061892052181016954,-0.613621272632181,-0.04027909390147627,3.0609610766814885,-1.301559315558053,-7.85532961154905,0.2210701598573103,-0.008130077234233497,-0.12880482853704225,0.5545423639746188,-0.2048003806060627,-0.5939172821120234
-4.184607236153949,4.964522617741323,-1.7501629133197154,3.0598634393990176,22.592536133522493,1.5199302278118985,-5.420526160902103,0.11529454558665339,0.18411698872305787,2.68770485321659,40.35277751525242,3.114931130725059,2.364634294733558,-0.24753257960285774,0.7419913571247964,-36.64648857033593,10.09299981223104,0.9625197108483821,-16.040974301924617,5.143470908153732,-41.25979926161374,84.36408457810069,-46.25606923758737,30.895161654642564,5.6165779327969485,-0.8477449747138031,3.8678113775823584,6.379905211541837,-4.332031379949791,0.5444138590596287,1.3582708816658338,-3.2829274870696086,-2.2761417615107407,6.507981693030894,-2.054861806860058,0.926467519140612,0.13801393205052137,-0.43632221222833245,-0.05448512205157434,1.0246223684145668,-0.6021740733127946,-0.14389756916248744
-14.29571541473534,12.996990346587735,0.5590840878900956,-7.849843591310442,18.114214323073174,-0.01493148139707278,-32.447321756109346,17.920048950547745,-8.055800453988214,-49.61974798968396,50.834066812033086,6.035626731402824,2.326487954406683,0.3356816121604597,2.267481305297544,-27.809658692651873,6.767194680032481,0.5579252945257543,-96.78269770079369,65.4322173955668,-9.144662140406052,136.4431648718076,-22.869641708570484,-22.14840716308486,11.118367883766753,-1.1548100053286294,8.465097985387276,-12.850847559148555,-13.945584135819102,-21.555136961091257,2.1058012426558292,-5.283162544862472,-3.1703983166370953,4.027828023678094,-5.181955459946137,-5.727576111072679,0.5288237939217888,-0.35678655173908025,-0.13470577349149654,1.4198252941642027,-0.8005577433032646,-1.0813923627488173
5.267845322607291,-2.2251330139228247,-1.5474708950229275,2.633510182430337,12.883344871384274,3.5933601158275423,-74.16377413657747,-9.666867752476984,-23.472741973031372,-58.636422279980984,-6.453521643797294,2.199327237589467,2.0688909130710487,0.11917458624666488,-0.6508430503760226,-25.087255267708453,7.454659716891667,1.610864349043978,-151.00963581469117,-7.06677513790842,13.889040290341613,96.10983239754316,-78.5167826110829,12.59214477091512,10.075709601324164,-2.4494094261658237,2.8982805202458786,-14.682177240187126,-1.0664090822709134,-11.467818724992153,0.9012267476885208,-4.6620213930279535,-2.983461611285375,0.39300705806114317,-0.4108968229199436,0.15301293805905183,0.2411200087206853,-0.5404601577571484,-0.304657932361763,0.9205264111185146,-0.5260350301317925,0.3951904678877884
-28.162091485945542,8.137283278732818,4.680945170672599,19.63413164958425,31.89683568598195,3.30940225900893,-168.8599659667622,5.688229263901257,-31.301743477981212,-24.830194061682594,7.961138349696604,2.6410909173559336,-1.693172485129947,-0.06268734337564473,0.5634059607566643,-29.276621802017413,10.116039905566126,2.659127822070567,-183.0080384134742,7.96763864910495,14.354999337664227,203.5898171619629,-9.377203861799583,-5.027278401445701,9.594961283805725,-1.1185303218303944,11.401724894928916,-15.847682453298852,6.886417417564807,-10.365347071666942,2.7409967939105293,-4.84983742296156,-3.648302143008149,-3.487770933252693,3.2414638471425374,-0.41963727250438176,0.4177942517164676,-0.5101523972148437,-0.08114494352133265,-0.28393807242433655,0.41649903017743634,0.2009298323662931
-135.7584610190164,-6.996692745825241,-29.822491945644977,47.757500599183714,53.03057930915483,3.3328668891243542,-178.2548714997719,-8.827046568881576,-44.69792466882779,4.916073987325676,26.488758050280936,-0.8649798554841713,-9.899082359220591,0.4280726679386017,-1.57105673278231,-35.546861014947986,11.000375469113154,3.698744780616598,-230.9912082606836,19.969037158727875,-87.1785979932964,175.44311184490618,34.258618190691536,-69.53776802135744,4.966992355400857,0.7785327028497857,-9.603724234244917,-19.504247158125168,-0.005405526949215549,-16.196284280485987,1.3489268148057796,0.9418446297698047,-1.4188262424294433,-3.670561867871558,1.7175206560365313,-1.8904378666187216,0.21582315506204094,0.0096134592238939,-0.2727516194776792,-0.10866732645085321,0.2036754116255306,0.03902033632744349
4.2267025578808886,-1.9717724765225026,-8.681534788779185,79.00084982228222,58.572748161189665,7.079531606769081,95.35210938878227,7.953016665773607,-12.459957220561467,72.2941689640565,45.11260687322313,1.4218387670468544,1.5866116664758454,1.233069953746457,-1.1503494587470944,-37.419394969443886,13.530705040626998,4.893060614369444,164.2952171299032,-25.387695638041933,-40.52523005645205,103.10112572056337,5.0792146615887965,3.565115914444574,1.1962820740460511,1.173401697433197,-1.1574022835190005,-4.229681377385489,0.7616555973782664,-3.9227498035979362,1.3599612822109948,1.1326173770866654,-1.2301207268778016,-0.0054490323070609525,0.14604459084713003,-0.4038317658451984,0.1141813285587926,0.23598492806081767,-0.05247539297035786,0.3338809464048763,-0.48674784212410777,-0.33045269902904095
9.934021373094176,2.126312674368575,10.385196380075564,108.23502915762947,48.165423090711215,13.8613605832021,32.95196902557424,-11.145497391306542,41.43249806863818,104.09973618447718,28.516016184408535,15.405942928762013,1.5471479008778544,-0.6791983999785473,1.1011106740931322,-29.349707326126538,15.496853293986936,6.030026441321695,83.4917435811411,-30.812406513232467,48.043185991066025,15.827957024690246,-22.88089674857338,-9.56729835461491,3.6655798880931094,1.9503079456625654,-2.938647556694983,3.9498628171601267,-0.43368417308984863,3.1687288263138758,-2.63106368925894,0.06530458324291308,2.434463035419119,2.7559553037395736,0.0774221717311318,2.6656401720265444,-0.5161175851472397,0.3396271967087105,0.18099567456739665,0.18189523574003114,0.11315012740677577,0.7905005801753004
-8.002843748269452,-4.90114227692206,-19.479659875533073,125.63015994059822,57.65304634936865,10.299417712350996,11.768105922399489,15.525908318063301,-62.25367488305343,130.95056587962054,52.94699519968401,8.737614035349587,1.5998602097820007,-0.22588581254240933,-0.6620286799538813,-15.864124734545992,14.279454612585415,5.488159431949566,97.17126989537024,16.89467412915373,-93.05048631511379,7.26591644563128,-22.60674307159947,11.625851388065383,7.532307131405458,-1.51581531102332,-4.24546078507271,25.129259359873394,-13.730324579662966,17.411588742570622,-0.29108719511378295,-4.125434344748194,0.18534349914900472,9.396039461464946,-4.721610764023149,4.308554305593119,0.16210181632338963,-0.7816057969192223,0.014990496866714213,0.7934610267228207,-0.6581623866958749,0.6136897437799912
-28.765987572840462,-0.04213819645307618,-4.8526437253369075,127.39675774054369,48.36111831593372,11.784750079670372,-23.9104453190384,6.440751762467397,-14.379875872130514,170.49696044571905,55.35364318521865,9.76257045300314,-0.9836949902634069,0.5325311147956192,-0.1716286688734998,-6.212528604443372,11.431819789139304,5.57163241005804,124.60603844178482,18.929207350893925,-35.84916172642319,-3.4323392653344245,-3.504858174092093,16.468283588892817,13.48877275959496,-0.310866203127475,-1.9824005880132338,11.669499154595886,-19.94337013589758,8.281234175826857,-1.2027770160622562,-5.058135369150173,0.4599203019659364,6.120298199650331,-6.135358859585232,1.8310706110097945,0.0028261249369871838,-0.5449275623453085,-0.019240156807613183,0.8776998892946218,-0.7572121264766628,0.4709387718416362
-56.25710403185266,-2.3458242090822194,-12.335552034875823,117.02278472531461,42.36708581806633,11.503810767329647,-30.495962372737743,4.78815728963867,-25.252344364683623,183.83914073019983,54.94706191182517,11.283296711794673,-5.196626017109277,0.3035640324171594,-1.061468728970393,-9.50512330276548,9.754627763233561,5.585220071564642,160.61580655109043,9.318398033671,-55.815471581259324,-31.01034772612799,-8.510351892496441,17.17501336635716,9.51894057021005,0.09176701398912378,4.786212564569451,16.173055866925928,-22.183977272524853,11.384567922703225,-0.48900783746446963,-3.34623557044889,1.0021222633109073,7.4063110937908565,-6.802187946584241,3.2423663432284573,0.05053496235889254,-0.1818262801506301,0.28880528417231566,0.6690666772237902,-0.9132523310716018,0.3948369797691126
-33.21004706351969,1.8591087135255386,11.780916146906577,86.7168207254545,25.06711070597108,10.156669488867104,-35.93093869036889,-2.9210021524326844,31.592740694005887,146.38279544584657,28.615143925153067,9.31659140791399,-1.8132552000191136,-0.7868920211922645,0.9452319868914916,-20.18083589395398,8.083713156118806,4.354205347667088,101.72573597773338,-6.146668718950321,15.79617569081761,-16.868576994222668,5.90096899990948,30.4548820617628,14.46175211712591,1.9265394133297447,-2.634702525360331,18.527442315935602,-20.38150441795465,11.208559518254395,-0.6776539671751609,-2.2643942759034834,0.30218156946646774,8.29027940285002,-6.645823976941656,3.287319300212806,-0.0034701234215176935,-0.18810792204515417,-0.005345795453748995,1.1241868872267144,-0.9399378407884122,0.736338337296453
-34.69261945712956,-3.519220627078935,-2.893735828174833,53.59684375353361,14.004693644654026,7.546317672155437,-33.02996122372415,-3.6129493210390997,-11.140677436928206,110.67804493027899,11.064575013333569,10.877866728110742,0.38121172778557677,0.17976620917535413,-0.9245703827266044,-33.264246647102226,6.267863735297996,2.06320814356016,86.8263074516022,-28.11369568182076,-27.74323336719325,-42.136431371850406,20.46421839543176,-3.7929176155727045,6.279670064605387,0.05482562339618565,5.919834374591832,4.883129110222079,-12.460381746969734,2.162453331871536,-0.05624500634812293,-2.463170107092722,-0.8129231740689222,2.7252229819525993,-4.2352115882843,0.5868068293434774,0.14241918256785097,-0.06900297299066961,-0.2007135262313396,0.18187528655838509,-0.5916242133715522,-0.07027253416615603
-4.204308764060533,7.726179486206424,5.582216788000137,21.667919956688653,17.285804004317022,3.8695793267313334,-6.304779730539797,7.599753033222934,18.68016791168107,52.36478061955157,18.99098536041123,5.551392155091938,2.820276234294605,-0.33594812164371535,0.43478562541882576,-43.076330913763705,6.461862207581614,0.9294436981065948,42.907538268418634,-1.3292487811689873,14.952341893407313,10.361105030346659,-5.295913981793792,10.382936904480513,5.7966614602796325,-0.08458274925453416,-1.9545446463087937,4.349004919246282,-9.103716240803058,1.693122932077498,0.01959455445600314,-1.470971723829899,-0.02847089487238291,3.8400684476287594,-2.369148726240789,1.5501448830793487,0.05398548975491214,-0.2005447116444312,0.0721162060701642,0.641066863952837,-0.3539322385400752,0.39648163493280497
-15.670684208231927,5.019808746302291,2.698578897026814,2.499001979428779,14.917237957725503,1.5844707526335626,-3.4424488812488008,8.219113812887315,8.700036851438812,28.862977378695955,19.15189309764277,-1.2755363327531224,1.5006823597085797,-0.8427349050342311,0.23199226763118086,-54.08673866508542,6.498797207944805,-0.4062780215690889,26.562606456857587,-2.8809380139091676,-4.925065504878833,-19.493781989344438,7.943192796511217,7.341227310966698,5.874345042098212,1.007651939670065,2.2631983848279016,11.024788903460049,-4.978425697241167,9.428598710952791,-0.859258621628953,-1.217303755031571,1.0143776728427512,3.1994633734473545,-1.0177170948886802,2.671386784992703,-0.06282029903039775,-0.050945627119834094,0.1799871865743569,0.2834429664518381,-0.22406446884760997,0.22415868160367275
-0.061538856221531754,14.472444599778596,-1.3753203921551964,-5.472072496528613,23.46094845865934,1.233679167925317,49.089447050603624,8.635537384949941,6.511094037970243,15.158846688638384,32.44957201571915,3.0997839144952786,2.8931923532015125,-0.030983587416453,0.6647217512322203,-58.916638830222574,4.654056610101166,-0.29549979352536027,75.61401719354119,-25.20794258171861,-8.648562640769747,15.389253009155258,16.14129650087251,-3.685488297536983,4.527969760602461,0.29462840529598155,-0.6769035193361697,3.051474268730987,-8.264626744852789,-1.1171748283045881,-0.5196206115285252,-1.2272300815369022,-0.284582462134669,3.947437430408731,-2.8922490569852,1.502583657571305,-0.14492881217093334,-0.0734363939522621,-0.03744768921806507,0.8279824934359608,-0.8416936246080041,0.31119002058761136
-13.142301452312903,2.3417193116909236,0.16348137599557896,-13.189631795548326,22.30672438431102,1.0153059640438231,-24.089498054493422,9.600837496238091,6.674558079428395,-13.23503290418257,11.785369945643849,-1.4510725999414575,0.7897370893745929,-1.1416911109194134,-0.4864395366557681,-62.92271628405767,3.4985153298387255,-0.5621340566542566,-39.88602970555508,-25.20804559144441,-21.07773592009081,-3.197638619503362,34.73454754031394,-3.0754846341945914,4.497663295355444,-0.17248300702684025,0.5256638329056795,0.3454766352884658,-1.7975048126443303,0.937715509064638,0.2913734920479966,-1.728917270361776,-0.17695077809040183,1.4251640175146378,-0.09896965986059311,3.046255819998029,0.29992191639143173,-0.19651705316742452,-0.08117974357921687,0.006899466566948102,-0.04521788979665717,0.4155241213793488
11.28112809462418,11.446348015429999,-10.033912371803154,-4.888315251270275,33.506740933592866,1.117046498538973,94.69105548254397,18.606380519265624,12.166370493451119,-58.796582975496904,45.61472966018681,1.692644891114922,4.699676611261268,-0.05594634704040648,0.8623269949342669,-69.1444104956107,4.124059967538112,-0.2565417038039777,29.664282106457332,-37.108099834078956,13.358799734576223,37.657354021021625,37.86068991674407,25.64608736486681,5.209270502328227,-0.3141517249037769,2.995013440624536,-0.6994307393132466,-2.206198642926167,-1.0607116236167706,-0.6291445366288355,-3.0955116300563437,-0.3556294794400415,1.0725153863089316,-0.6365447006386844,2.414678894336687,-0.2698138486501254,-0.5648209941412904,0.15574218645983184,0.304065423933834,-0.37909588417892576,0.4155651142019634
-3.0432629321265523,14.15804695149758,-12.769771478633748,5.352985556154193,40.69071921181142,1.7615179860011667,69.37452140849372,30.39529825017533,-1.5855682829768414,-47.42890798803732,40.69938117861347,-1.1229351986247267,1.9872032097998922,0.20822294560611423,0.412249631855202,-75.44782711372015,5.313399003524503,-0.08546099000280961,19.2361590913037,-38.72471212845768,-10.235019859483328,-12.29571325618938,6.333478361829446,-33.15681877151474,5.250111952713373,0.638990437491083,-3.3396689725368,2.7312964121295207,-2.7934429297911936,-2.9307748284595525,0.004501971940178115,-1.1832346222462995,1.415645681777326,2.498509607186217,-0.5787063353928976,-1.3588197348450866,0.2430351637964777,-0.04792141690370389,0.2722264745568482,0.717679823510071,-0.1007001526596246,-0.3533448830687419
24.740614649824636,4.444251067331641,-10.269635308616806,5.353658311790178,48.84259123440835,1.4418152252049077,83.61752238337124,16.106534104789926,0.06151088749382631,-81.94101130443784,65.95238660319745,-0.5574690060993505,4.405697338421064,0.5711835635298026,1.2551875080120862,-84.5865222146003,7.165388290695972,0.3458177573792288,-24.859629166323483,-7.117938657546895,10.358788856108191,14.109223869736606,27.600800427367645,-11.538083806179394,3.136307392212561,1.3059418572359642,-4.385059407339614,0.3824397729907116,-4.096367065615844,-4.671510980238202,-1.9551662228493427,-0.5808601372927154,0.6300150741104564,0.8726182424296751,-0.2907917958304372,0.05177142079483704,-0.3818254878868121,-0.05397053739049799,-0.14812336216742292,-0.10458779140248453,0.08029659374287297,-0.1783212866630861
13.403954936960165,3.174705999838758,-5.986395745668562,-0.9394610349628099,51.82791212504141,1.9161152332167966,101.31776288036455,-3.4315452776201267,0.14303999332420722,-53.776981479693546,70.41272708638857,8.530278973847299,2.7989920972215403,-0.662362002529034,0.9313768111525266,-85.25498149392322,6.048156871454643,0.6019871329834128,47.800361188580005,-43.97302742317506,17.300245424560867,13.52246963057883,62.83172774329352,-14.60845738616151,5.37746142185152,1.0939247845405575,-0.5133460129395211,0.7841548909507174,-2.603321472294228,-9.4199682569538,1.5633015135742294,-1.2223940930403276,-0.8539769011358508,2.920727779055169,0.8300852128343091,-1.1402930596357759,0.23755637250950587,-0.0894323727783156,0.09699494764924495,0.7756595426653037,0.07497530358919746,0.08549405213593043
7.040918708721669,0.20112275226068238,-1.9079709180483497,-10.673128001518865,43.458513769696296,1.1256637153049296,84.57156642764603,-7.0266021320696375,-1.0862275755940338,-105.7425918327914,65.08336294891002,5.926432288626051,1.94082119476885,-1.705932301919606,0.7148281151547904,-79.47449680033824,4.0740786021045245,0.542929807056333,-45.72816559823286,-34.29674404487503,31.636049942652274,39.18762169004995,27.801274419368305,9.889021402305993,1.7498602758278687,1.043117198207248,-1.554775963574513,-5.953024772585219,3.812922016036863,-3.308362706838843,-0.2762307348788253,0.2221012739291129,0.14571980368565784,-1.2124174611791145,0.08009316648489945,0.05506523762387121,0.0038774051787357072,0.06151224569992654,-0.062146967484869906,-0.09360094332241331,0.30497729846200056,-0.23548023912094038
11.143456065022141,1.0468177577410822,-3.954489594204653,-22.36425518931181,30.943391557967875,-0.500996316418028,86.09869840922,-13.633310130733935,-7.788953817306109,-137.4493526108696,61.505933414371576,5.084165634757654,-1.9016225528177917,1.7856608996758123,-0.6779048123919865,-66.77518746550938,3.2372513120078628,0.1302542238349951,-68.15434747544735,-10.138667993544312,22.701357391319977,24.628124921869425,14.2262193330384,-30.129353802115006,8.92963734752588,0.8336537283037994,-7.536022141726541,3.588219264200198,-3.092276960998403,-2.2306106942573205,0.17588909386235074,-1.455449034482328,-0.23989754586874726,1.9699969055069861,0.4643354183563924,0.04331544306332235,0.1580188148818671,-0.2710246366134108,-0.12364155328646569,0.2731909933590597,0.07127409438045731,-0.05452381438757002
1.1629787363888358,1.413004090708031,0.17022744567845796,-24.13158714427747,19.41590618207246,-0.18474117831320186,31.789504034290715,-14.536366160082173,4.722266126999913,-100.38499687510334,25.6724430556938,-0.7453017014971003,-16.519687335092954,20.927514823180317,-4.289024298123074,-51.04480078995364,3.8911297453796014,0.23557191164430832,-78.02698028171486,-38.09313168947657,12.088621241027544,43.75728053674874,17.69178082760224,0.7271985747929753,5.707783907145611,2.729064192198089,-0.23138386463619115,-1.070514007249905,-0.8164567710178889,-7.860189816672247,1.2293797831594173,-0.8017744246602121,0.02882006469523151,0.4667408987032608,1.7593094478884284,-1.7863441116359342,0.3817726356376432,-0.04246518538952404,0.05217000257329787,0.015186164770242655,0.35480494509502486,-0.23761750461222794
-15.76911062447957,15.73419071093711,-2.2047674777293813,-30.58892861474185,5.991798074366578,-0.24011841284014007,-2.320234584367613,-8.518729740738097,2.1323463444030892,-115.81340957852531,8.897569700832907,-0.007862370205053204,-35.46789084739842,50.52813288991577,-9.719434522117552,-35.77237645535821,3.670991589495928,-0.34316784432430647,-134.4429071859239,5.254575007471233,13.765028330650862,12.132696011757304,9.043777849087384,-8.99101296247006,8.13138398028541,1.8041064716025677,-3.7256177314659986,0.9836126470779655,-1.4860988765483982,-6.9156692252948435,1.4142718816819229,-1.3880082347612728,-1.6625161885240771,0.7396198792622272,2.3863064056029915,-1.4013778779305779,-0.05963523046265479,-0.13987155406816637,-0.2571183673974663,-0.20493948322612843,0.31660538287433726,-0.15613368174470724
-17.20234393388809,18.087425892246607,-3.648363242525048,-27.367212632374027,1.8991161059293904,-0.8182324441724443,6.76415637680796,-18.79639848577073,2.599387640590008,-66.74489145379114,3.2566218476205,-1.6375427316357622,-51.436967146502674,77.6937239785899,-13.784867008553666,-23.948515856169625,1.9421905026043798,-0.8176574367828104,-44.06432056175743,22.6438065147663,-3.71333089299705,21.48906850778269,-30.89570295707521,-5.547352114194844,8.592868543083059,2.5921697581939824,-1.7089339771026357,5.9378907764799544,-2.436257486859411,-4.143042517359251,0.7119670936186125,-0.8604713937726478,0.09442696731857368,2.1828427241892085,2.7361926137679102,-1.383224189072328,0.47160218112241437,0.17807253216135233,-0.21889448938284545,0.3085890784394655,0.5022965029757466,-0.3321026636527726
-29.52380717923141,15.143856393504965,-1.8902379854509213,-26.97047040420567,-4.293803195647318,-1.2433217704770496,-22.077354511340687,-38.958357669229095,6.606637154950171,-51.54330697019332,-10.666678108104485,-6.338884432517206,-56.67353063451449,92.80421637209308,-15.11853087437584,-15.137208154441169,0.41058675794739224,-1.3282894633361306,-58.060533216451454,10.119752330050549,-3.24013842491169,26.024724220399335,41.128572346676236,-15.62062513232008,6.794514365197419,2.5947079804044124,0.5303481778527569,1.998668042278314,-4.892197011016017,-6.068420428700659,1.5707888122880298,-1.318092189179746,0.23782243250734275,0.11577073834687421,2.0924842790118237,-0.45672328373045,0.19960151809171242,-0.1557370154642283,0.21186763636998168,-0.5137481596942453,0.22172529728681226,-0.042843633088470584
-29.990107108146155,10.74843173339985,-2.38424960205434,-20.557095180171338,-1.97434612636536,-1.3077026564944754,-16.348234246697054,-50.7361838554886,7.544165737297301,-33.86246954830182,1.3541500797670185,-1.6996598392587436,-53.87032156415855,87.79961201543261,-13.86771098561649,-9.97628839324691,-0.5930085792207744,-1.0023366656030803,-24.14359547175124,26.16016811439774,1.7655045481265652,-16.376916861838613,-3.1117959277403457,10.350270918831267,15.994507587715516,2.538637907724397,-1.2673548821259266,16.174073244427294,-3.3810944742297413,3.9365079646223333,1.7255817923080317,-2.371328895496563,0.08576002158916808,2.3734978808673026,2.214965647304642,-1.0440985761402928,0.4911385062737619,-0.07722570522785505,-0.17111879902473537,0.6278985744649838,0.0753482568759653,-0.058309297319001814
-31.376540519149444,4.889657677364586,-1.8917343046890311,-19.622335534699904,-3.437221894737733,-2.007444373496967,-23.06680418709888,-41.25101640660337,2.2726862094097675,-24.20736681525852,-6.864452537047875,-6.419367385133177,-43.77340094959755,70.60116045035416,-10.778576847556431,-7.179815060960079,-1.029547322399508,-1.5358505186839178,-23.210046316206167,19.31631731395986,-10.731488704557034,34.073075628128265,-19.09284928444509,12.381481675995335,-0.9578941121274535,5.823943642404005,5.540062005479783,10.33005630901133,-6.0399646336791,-1.4759141862136729,3.8511291794867075,-2.4408779402851586,0.08773294263011994,0.41966407483667995,2.683190080830556,-1.5835096442384153,0.12924320459057487,-0.10073604420249024,0.16068073016978066,-0.3476015153751884,0.1641483635753343,-0.1741539412774493
-33.14806962929309,-6.056523646401287,-0.6903094016255423,-13.895164747374933,-2.1436492235851725,-0.9462095482764508,-40.01607883637154,-40.128573930054394,3.910782775356648,-2.588675478667254,-2.266705231144048,2.8870672257081416,-34.48971747326285,53.592539442196234,-9.46487601858137,-5.662119322290762,-0.8615081636611982,-1.0841405323948872,-12.009208691323108,26.110780766338543,-3.765942814189494,13.144716347998227,-19.47263317852411,-5.93041165102947,13.648099660740188,3.776074695039315,1.834945428658421,10.52443524794984,-5.321543761354561,-1.1675591595921397,0.37553420898373835,-2.378839636264863,1.257764016040032,1.6878432405761004,2.7635157163831905,-1.6226001018733263,0.2461658126889864,-0.18331930166736385,0.11758492324114622,0.30247060810732723,0.1986818419869765,-0.18327646700842937
-33.42158453620327,-14.657830282186168,-0.7540749417009645,-13.081601013866255,-6.484340385628195,-2.078772520390699,-45.26587689563867,-45.27640551883956,2.909489563963565,4.067836806611421,-9.93419455673118,-3.623644020442098,-27.900260508153316,41.152504113379244,-9.159069580523598,-4.933235025335862,-0.8857464312947553,-1.282280632605892,-11.462158185427135,2.4360498357583653,-7.834783060533653,-6.311134675530061,7.170847305010573,3.6677302873175575,9.158290962437079,-0.8164445290657406,-3.004917736938301,10.119003922937884,-2.7761999527748427,3.005766564911756,0.5900132039538892,1.5104427058398928,-0.9886921617384519,1.8508525686342365,1.4943798795080798,0.5484875768247754,0.4334650810257649,0.3517824223667151,-0.382974485360664,0.28405935243962904,-0.09037284622290005,0.3273446070345689
-36.92361267398618,-19.33080452975594,-0.4277882509593338,-9.911985766533014,-3.2089066355825184,-1.0569434325879652,-61.13964412814363,-47.590221572643365,7.005685754452461,1.7993886320504502,-11.311515023265619,-3.906378354025006,-23.654063925856814,34.62822470508856,-9.533899893897651,-3.783114786115068,-0.6006865772803813,-0.6799305692365968,-32.5377612080726,-3.8302793852234784,-7.54421359024264,15.710767228980082,-4.635224578887587,1.5732536006954039,8.046104188352533,2.4431445326569308,1.2857488278033031,7.083139441861833,-2.888232805500258,-0.07652178067503872,1.330003150080853,-1.825858536571421,0.5107935145475636,2.9555455323837814,1.7643639306816286,-0.12146973171864144,0.33690342672431406,-0.22988288143243468,0.07578303771485202,0.5635256719183588,0.1467151143136907,-0.08070076560542266
-37.93208407740011,-19.194893000710547,-2.0281633916173027,-0.25112197706975714,-3.104446439116781,-0.7360073786368976,-55.660015009249825,-43.681183658861336,0.4375352275610666,21.49794671397794,-10.872022201374122,-2.519888235996801,-22.685605272620737,32.19535259056753,-9.810785196666757,-0.659478474856879,-0.24400503659897557,-0.28554358822316833,2.9380636936709053,3.026568301975519,-13.287193850971397,10.094134330718203,-7.1351139118571725,2.97381612920402,4.540566903445828,0.16752405239576712,-0.6247751988883974,8.31959148524684,-4.402037103454859,0.07091886401472192,2.7138705114679027,-0.5776108556175241,-0.6648159724120267,1.7219128679467384,1.6289142100523613,-0.7943681598496504,0.3954721355510013,-0.011476718885928612,-0.08745760002326575,0.05002548594578318,-0.004431066319485619,-0.12959944137243062
-40.62196205760576,-20.277395314054218,-1.4483690283823019,4.848191022767941,-0.6377778510311694,-0.17126341314750962,-68.18778022845159,-61.26531905787148,6.2107182869718125,33.459213031679944,-7.648183890254726,-2.369558725693079,-21.760179675329287,32.774405718340404,-9.627348630448667,0.8077408811440101,-0.12040995938444544,-0.007392150430121296,2.7108957157545452,-4.893968023011027,-6.657323519807825,12.61305134921255,4.92993173125528,14.297143917002005,4.344312796528779,1.5827592499063776,3.0994252853646183,6.850674154038055,-1.836615122802649,2.60443977916417,0.8241579359646539,-2.7482779560065596,1.5611443758007744,0.06837599963556128,0.7741666662238743,-0.21078443094237231,-0.031037557654379135,-0.1562017126338883,0.24610842346445064,-0.052167988164667,-0.015921235275684793,0.09634206154236867
-37.78259479405131,-19.14911217953705,-2.7396717897913727,1.6737621788502342,0.6502861587696356,-0.2418273056973476,-53.03321639322309,-45.029442625809935,0.12584284279850216,21.62342301862719,3.3396610670806766,-0.03634534889506345,-22.737457562610867,35.01095919860807,-9.593477738480075,0.3835972664233636,-0.28394140358651826,-0.17839494611835127,6.770122015749034,22.431612694391994,-7.060550702227161,18.008467045267754,-24.340493347811723,-3.701679415560343,4.537828658728716,-0.6626691343112482,-1.638140525813915,2.607461861629647,-2.1615152886936535,-1.0851303040553013,3.1523668935348264,-0.281394162927813,-1.2638855636025719,1.994921623065646,1.271436995773648,0.15197560616083933,0.6304443612259799,0.09376518938474335,-0.24795630073316702,0.19698285238418176,0.19877423067835756,-0.07609015366799672
-37.42551583704765,-16.683448641429287,-2.7046396418793757,2.89980201783161,-0.8013820754737575,0.043892304900131816,-58.41638200055462,-46.00320210848504,1.3233906426648403,18.322112680570235,-5.676321862672037,0.04719819706859946,-23.667260149469236,38.36472169152583,-9.227596353140175,0.5210076539637654,-0.02204446303756369,0.09690922883852267,1.2174671525344012,11.075477344749855,-2.5976833852977927,-10.48979944487425,-4.814913210191526,14.147851969729988,5.610778524975189,-0.08282450675316014,1.9666188987849793,9.121817266355654,-4.692260796607776,1.9245924435411434,1.4356284516691842,-2.8570364364305956,1.239610172327783,0.19409042852103747,1.177999035999382,-0.6096230769436746,0.23172545416537652,-0.3336016873202372,0.3174477340388089,0.01931669952008862,-0.07416459572571338,0.08801364277734347
-36.765412139559366,-17.572142069174724,-2.711002457082867,6.760399245801072,0.3255914051442688,0.4285302869464684,-60.63045125619113,-47.317807239119134,1.2498610932379939,34.02604224693329,-0.437469146872486,3.508260467676564,-23.548139802059897,42.55556745014402,-9.110629816664645,0.6728440139121067,-0.22698126753263403,0.1369432385517058,14.867851402492441,12.448383468169183,-3.707046761418094,18.775139975276616,-5.220194007152132,0.7463046171924612,5.823891133157467,0.03367813234263932,0.27067354642943375,4.806818797514594,-1.857091163435165,0.7341419636482821,1.8189202210918418,-1.3198161983377348,0.22900461332676644,0.522588823445771,1.0054562736443338,-0.552723794450182,0.23098703448323624,-0.004890120947941932,0.08234907141191432,0.06474048930635341,0.24151746229755658,-0.17365542089463273
-34.39895794578929,-14.966903824535919,-3.254075656617716,4.820167515607634,1.1908978251674607,0.05538365051092568,-50.67731359693471,-51.403799130936555,-1.8583088097758762,26.686513938307446,4.732726670513798,1.2613161463744318,-24.13476993436151,45.688526038024335,-8.695643616176827,0.8403804249529645,-0.19237638490555725,-0.05374476504291042,18.309282404982405,12.383650925774235,-3.002937640784266,-9.919169166192523,5.264802628657503,-5.127680807166557,5.91005765918397,-0.22604800556800425,0.20876750616202544,1.4835071129124697,-2.697175991331897,-2.5552018649359463,0.726949865129694,-1.640738384519899,0.27157419091320195,2.507650579476958,1.2875548905447014,0.18252369408040597,0.14159471599862705,-0.161647777069519,0.0025143511913512076,0.34491191851302866,-0.06916460351411174,0.027301059113620407
-31.92256341324647,-13.380248906109868,-3.167368529059823,5.630126499982574,1.333194469738923,0.7159368070639553,-52.91396353443933,-45.888259941196345,-0.7806210461753841,31.029763896180068,-1.3321592180032245,2.7650124200284587,-25.408150581131274,48.558518930299215,-8.2893093342309,0.47771935244880215,0.009653364761249632,0.15042009591649516,22.799002701348705,8.522389904394094,-0.6982996614138953,13.822297392436843,-10.536972532138098,13.375232750909175,4.560423312612018,-1.1145470670044517,0.30918008962507343,9.932754160096142,-3.578154066092556,2.7656870700329765,0.7768390367901332,-1.268122458154962,0.5995256469973017,0.8228429384137457,1.0696948282350087,-0.25453985025288206,0.28960267454216304,-0.08957048936556782,0.10499842947839567,0.23088233274614345,0.061225433016599835,0.008130113416100263
-31.497892406900256,-13.07500754774227,-3.196736730918593,4.989431987324354,0.5358715509181474,-0.0035025732898510903,-55.883666422085966,-40.67548373213126,-0.16469877885346557,29.216842020597426,1.5627514114554721,1.1613608168372076,-26.13459814210537,51.81560992754984,-8.459100787302534,0.7125654066179041,-0.19109102542437878,-0.08577564137188458,17.954525350318065,24.928056096340583,-6.220930582159429,-3.547567696859562,-27.62404066507276,-1.509082241443625,4.032683786228455,2.7331587164056934,1.1634369918085914,3.7420703441465335,-3.359535682569236,-0.36209610782402957,1.5270794635507328,-1.5791436342893639,-0.2649205734536595,0.4684071379251624,0.3778126575501592,-0.21171856873868447,0.11203350524381545,-0.061754308199166295,-0.07831113912514533,-0.22030514148946623,-0.19662890243452505,0.005004706946083029
-29.33092799816621,-11.975370257377739,-3.1569615009190337,0.575424373002013,-0.05216643682825861,0.1782717380881987,-53.09505387834586,-43.444816958976325,0.04426034334493848,6.839101012685985,-0.7997772963778129,1.0510200988684022,-27.41738458680146,55.23846810734841,-8.181356519626037,0.23920605442090856,-0.010689900544954917,0.09653252674818559,-9.501845708190913,14.0455804289393,1.390845284788861,16.912728356258423,-14.802121628287694,1.4921765444918818,5.351431959830808,-1.9353456569656702,-1.060311899793516,3.4191258654581027,-2.622270561896135,0.250361727892592,0.3417075832540695,-0.4601541796656731,0.286365660895682,1.0032620884502432,0.21790967324772503,0.48791082938103203,0.2507766942985367,-0.033289470058622095,0.0106158680709868,0.01586116369429947,-0.24946444631905662,0.16184065129097175
-31.394366283642462,-12.90095503601377,-2.4900337799820194,4.347457418117497,-1.5371502968387643,-0.6493673056027944,-62.241453996858816,-41.20494647706714,-0.6871724506609814,23.19099656757221,-4.98575114132873,-2.2686072592714495,-27.38733694724524,58.57794034028536,-8.123597823596572,0.7782639355556847,-0.33715882780709705,-0.09019803763708592,5.529012259815535,12.149745511859173,-7.698069317613863,-3.3876890893428793,-8.781288208696564,6.424033185974304,4.5460229881613134,1.1678932857260855,1.137996722316216,8.894837680553485,-2.739320086459864,1.2575617657083076,1.5964990224234932,-2.211274861174522,0.06610550678174924,1.4723898161435474,1.838938600994696,-0.3519044966593649,0.1309052543439713,-0.2888082771873653,0.11400699306460893,0.37246928057064843,0.24759007055234916,-0.08875268678890848
-25.416670075860157,-12.630519113335986,-2.826912345982663,5.38125852153718,0.6643132822450131,0.5229203111808882,-50.44049825359799,-47.8311755788961,-1.183181516519195,34.31383159669528,-2.9048440190360965,3.170254805673333,-28.767808148539558,61.319160675465085,-7.489282579915689,0.33481532066479003,0.030426099272475214,0.028321069373889264,33.28266777504645,10.782701363119633,-2.8075519552620913,-22.400021460507276,-5.835553152046861,-1.7749990820380483,6.225809049502666,0.29580144422709015,0.24536200527904148,2.7836353310529116,-1.808530739428971,-0.516861911414933,-0.062193344695665134,-0.7962447345827603,0.6515018444865359,1.2437769675719135,1.0201582211299607,0.2577332637666744,0.025880109780023766,0.05340610125657781,0.055166430791102485,0.09165470084816878,0.06331147264085529,0.03822170282811521
-25.07595299544843,-11.160274680667705,-2.102551056045192,0.39348324484264896,0.8640937640968938,0.3336087228846642,-52.20505134891387,-36.15781384109591,0.9937975611983417,6.606595735949898,2.9517832572886205,-0.04940894464138813,-28.461947689446706,62.707689431416725,-7.045833810151329,0.37509896077064997,-0.23281169144489375,0.19079638180071923,-8.643985692480781,27.2982779858543,-0.02302309440439572,27.157797095337685,-28.339715852728062,1.4959012972908785,4.193057683549911,0.39998907562515856,0.3528984328772376,5.227690194826867,-2.2526415798358403,-0.5146370639488628,0.9578399432473362,-1.5794933283389385,-0.18644529533778326,0.8986279515972792,1.6703419597322122,-0.559566409127564,0.261856253891524,-0.14942107368567117,-0.12930319765091813,0.08482428559847247,0.21301510854875014,-0.1375747019130368
-19.55315643196813,-12.401120011569292,-2.5570545109122422,7.014427119146291,-0.8476059582274698,-0.19842432285140216,-44.484015420284685,-38.377983924710875,-3.4158844904281684,32.36065407240463,-6.156043854665763,0.12993857139875667,-29.24041365004178,63.78240864091988,-6.266299622566484,0.6599593743900873,-0.11885213870951429,-0.09362532665337632,35.11998578967957,11.31952280862115,-7.067324479431788,-26.711360886460817,-12.5370817019826,7.357847015159214,4.77692304225689,-0.05923224475494845,0.8384704693867975,7.9131995770917545,-3.2661132801654125,2.133778004486597,1.579451377059177,-2.0317720920637186,0.32926408461868256,0.5992197864944527,-0.3018340828225604,-0.11901155738441718,0.15218076032530706,-0.18444273154796786,0.1858270636274114,0.07099753688717085,-0.5031511171544033,0.07629274506241202
-16.465835088443914,-12.66670810489326,-2.087662486769823,2.7064360513953774,0.7406394982457577,-0.046709666585966245,-46.11105099721886,-39.36379652474995,-0.23195887550858563,19.433155980739574,2.0499321771532877,-0.20692737253762064,-29.712874727446824,63.78155484160219,-5.6948442339794525,0.25495510211503386,-0.09493450211464098,-0.09432266118290941,14.334217082340142,24.256870486029012,-3.3091759759471375,1.1381151268788359,-24.142300222288323,-2.938159825503097,5.526513699606229,0.7898862689273046,0.6137795451442835,4.542511631712927,-1.5393170661347895,0.09420170215389552,-0.06759126549079471,-1.0797387807673753,0.5443118934962045,0.5454300393770846,1.8282129856857283,-0.06581426121363822,0.00789332543071088,0.017409385126948028,0.021160128208602857,-0.008895346624216791,0.32013718148927106,0.004129471134952453
-13.930587667196002,-14.57144443719342,-2.116861677104434,5.296840916856239,0.06295213658394155,0.25427807002438085,-38.41071878430968,-39.02518878281908,-1.377159482217031,23.227270380858826,-2.6949001588876267,0.44786729410357945,-30.120287937580137,63.43910819853801,-5.350027222441532,0.8941502491275438,-0.25514282096181967,0.10445425351161983,27.138699567444323,15.007047406730116,-3.114698041338403,-7.23302323684642,-10.298304667866926,6.434728521587987,4.809927359760407,0.5472005503460939,0.6660299406681901,5.213303338939706,-4.212950446396144,-2.7103821578282927,1.7071339003399129,-1.6960517958504868,0.03750391495487275,2.856410069194531,1.5858059468442078,-0.6087943276834176,0.3902484492283294,-0.19483423066951414,0.05205506472818662,0.546596565841266,0.08972313174476235,-0.35615574459026617
-13.468523380110664,-13.671981166060887,-1.4001882522605862,1.9475339236269373,-1.2856345471032844,-0.33982622631921305,-40.910985129901235,-40.83101522060463,0.11775502292317852,19.34427780671257,-6.486601073507305,-0.6331652379851161,-30.524709292222227,63.09161270063016,-4.693327340292659,-0.22644589520908892,-0.06973088802318478,-0.06910895656275053,21.95486492868879,9.183187623691962,-4.758142083502565,-10.015274078079983,-2.5397576931610994,-2.793447465480569,7.2764486329699825,-1.726215611356039,-1.1840937178415114,7.709180545353303,-2.250853624295814,2.5760203465474656,0.2036224476911245,-1.003587277857749,0.4416825580462976,0.2527839333069404,0.8945619858694085,0.45521494314653166,0.1274129752854017,-0.14921163877506033,0.09915968290734785,0.08137412014767548,-0.10821701555712981,0.26805152173252295
-13.775894743376464,-17.942286609392756,-0.9866431665151267,-3.3552290062694157,2.448554246566425,1.1917814374658078,-41.59315314001029,-48.063352946911586,-1.0535733360555706,4.239634833451871,1.2919140223383099,1.2517642802653266,-31.083105046469623,62.23338179578684,-4.47386068670581,-2.439119178064878,1.137896269125947,0.7129848468913694,0.6072375256069421,12.13385891433528,-0.11114748601445877,6.575971458997824,-20.28935148356336,7.475147595477777,4.839205077454641,1.63466344287265,1.1989536025836494,3.474786716683534,-3.652913816132162,-0.9831565809168255,1.1916779615579594,-1.7959022741695192,0.0031510419654373206,0.3776402122851234,0.09337722373336552,-0.33841998687280994,0.21630581431317772,-0.10803115319712767,-0.04426711868573417,-0.14856521539366963,-0.441749953187618,0.02965681010929633
-11.74767946125691,-13.595436285644881,-1.238823745570957,-2.96722013882769,1.675818180419969,0.7797450943666111,-38.48985003849086,-33.30253361813802,0.2804260051337737,8.291760678567403,3.146634589893401,0.8101956835742914,-31.076044192372613,60.768002090596745,-3.9549327455575325,-3.0896858299406733,1.255015570142339,0.7898133445345106,6.412400769845701,30.87010977643459,-1.6818150330839348,-10.911831883664288,-2.713622321382662,-5.882770967784206,4.679868041177293,-1.9958398870980214,-1.1690015431258274,4.020111694731827,-1.3726896812896665,-0.2730818298417009,0.09418777989545636,-0.9810948386628403,0.1742351827023822,0.9224703173055316,2.2498115197257,0.22227484855968735,0.005980439021505676,-0.23031405690626602,0.09355004470281085,0.27602018822802665,0.443576544503111,0.051362763712326454
-11.685140170547191,-16.663401257333376,-0.7550241869040877,-3.7581459390160465,2.0008115371292323,0.7009989056570585,-30.997704466205985,-37.29241326811935,0.39293051655561195,15.504829357187669,0.7056213695285796,0.357777545216373,-30.838556310930727,60.75541215610814,-3.818260016156168,-3.814046937980235,1.657420357996976,0.6691710054867498,28.82200039404417,25.710913587482732,-1.2223634226567692,-7.932447399560348,-22.399546077185224,8.375724808831093,5.931883118030249,1.5827016003295484,1.159614547788154,8.892617716745326,-2.585010728056707,0.5019147474702844,1.7350729733591066,-1.684820342232701,0.09500862909614201,1.4722025941774064,1.7523546401631576,-0.855190235805396,0.4182830130258799,0.009847995493690663,-0.05520535854006473,0.18162062993335368,0.18738611207009556,-0.2951539138170223
-10.641481681955671,-16.65781594100909,-0.8728246503607957,-8.282743670717934,2.214100789701751,1.0622126518609265,-34.9882937730723,-53.324115967708565,-2.4240076512808426,3.0514105383811616,-1.0769933655631865,2.2844656043658222,-30.996509870128858,59.86675160347183,-3.5444975773890874,-5.499880932149129,2.253779328019616,0.8037957467568368,8.640086037231146,1.1462586733069557,-1.9642214732456482,17.90705492313629,-13.947710172736775,-11.589046304039806,4.7273053312341045,0.13131211075825092,-0.035654922388990394,4.125255909295412,-4.072356974502564,0.9765784117263276,0.5816871254089919,-1.260029721824289,-0.13740336995499938,0.5718467473599355,-1.336010394081053,0.8879989435247138,0.1203889423140576,-0.12461350831685929,-0.09046859279515583,-0.006560632489123701,-0.8373565535552052,0.369564914699589
-10.675434136715896,-14.439836240855476,-0.252870257672565,-9.986722074045112,3.053795287833117,0.6935291123434376,-38.49847501388779,-39.27467828080416,3.0860927842977093,-3.9837825898877073,5.7182009578868325,0.5561233352861225,-30.167505333335225,58.7843878775749,-3.378808059022108,-6.019273946033785,2.14920075825367,0.5910113179600668,-10.541102460508288,19.86699501658795,2.28788983380156,-13.6578470436944,-2.704243374352063,13.587080354624122,5.464278293590414,-0.13537768011121093,0.9851475395537959,6.163179001747095,-0.8714825019554231,0.094389870797066,0.8443744700085517,-1.8466411304500718,0.9477337505883583,1.0810513229849725,2.8036596916816516,-0.3488811449487675,0.1329079392349042,-0.20152047545597881,0.33217882101718355,0.25170450085269924,0.5556550502931075,-0.12791339357112436
-6.452941492627536,-16.266898634940805,-1.2349389509717812,-10.888725528712403,2.8981272709946144,1.120241984095743,-22.766706677594165,-46.56811479796985,-1.657267151110929,-1.7807825155351422,-0.11126738383380019,1.1147192131899517,-29.854836790648562,56.96186439487431,-3.0765362058926566,-7.042179241289885,2.6861796876076465,0.9398148743387758,14.025763548582388,9.41954030203197,-2.925694465140942,9.013564665247529,-16.033716990743624,-5.8784368317877895,6.859056744132936,0.12331696559172317,-1.9879363347726435,5.477442076127912,-3.2873398358578667,-1.8179405739519336,1.9138064876064171,-0.4289579848459478,-1.4234073177790931,1.031658387435591,2.14025087853446,-0.8072740741515204,0.5286957414244673,0.06311796285538392,-0.5192851210690389,0.12636759978918322,0.2270938680905225,-0.2170931354551087
-8.225537468593517,-14.29229031444667,-0.9610032956083381,-15.41471648519824,4.592349759559619,1.2804050563397744,-23.61299642708892,-34.12641735784784,-1.800264297639189,-5.193064109152224,2.790040922281935,2.221445427340461,-29.03163761737169,55.83739881949064,-2.926640248028445,-8.343558898100525,3.2861405481780244,0.6727136492208523,12.02983782399296,25.26162826439952,-1.7538169544161286,-6.54097399065959,-16.82180193061625,-1.4850216636515905,5.104198300291766,-0.9379747217123975,-0.2700073810588087,5.559953080543948,-2.2753469599668947,1.1842972838389756,0.5428428144540665,-1.143768147462876,0.4268382235869868,0.8885040080712054,0.291939582435781,0.388847416251435,0.14794304261895855,-0.15948668913309452,0.13994215251906592,-0.04164320491458399,-0.29867394944051306,0.1530379339899847
-7.497087649731204,-17.925044172672877,-0.4049451866643746,-15.632049412628522,6.1490753694121105,1.9451130694265182,-31.309663007982163,-48.662117590020436,0.6400323853942229,-20.215060524574678,12.858854819765618,3.8642988440351345,-28.096543130227086,54.06299503272332,-3.0541090971376663,-8.476235493026424,3.5856899284118513,1.1786249968762978,-22.743505236460674,20.13608914270755,6.442462419805291,15.64175764889636,-7.385042432089944,3.92800301617502,3.6922056333306377,-0.3211530545759218,0.836598873291833,4.627840873158171,-2.4044464589217176,0.6800345240480186,1.4208629669963322,-1.9833911581582726,0.21792359897031505,0.9902071865416032,0.23458016243218954,0.3423939107549207,0.22820930830243988,-0.21827650604467042,0.1143688138009632,0.37873902977499524,-0.16897352259844914,0.09960817613989024
-4.704000128263563,-13.746660671360836,-0.9767181476114081,-10.667997965900208,1.8931033505097024,0.7127376512157347,-22.842397534176353,-35.01598499472705,0.6295976176023662,9.670828251153006,-12.737356313883495,-3.167421881982282,-28.40115505999832,52.09125362280096,-2.6413598282791293,-9.308857388030237,4.038743064846975,1.19357628665582,25.93954826025587,-0.10043671444992663,-12.305909760345987,-3.730806851824963,-13.124188709378938,-6.452235225072788,8.642840343261232,-0.23511750692077793,-1.6344853145402898,5.695454280561905,-2.6767208585084914,-1.2277303244870137,0.6637024328911151,-0.4317191558200087,-0.18250334065614798,1.307730703968462,2.05225109306242,-0.4599303721545243,0.11995625150367517,-0.02833224142250863,-0.05047946934420603,-0.052690943617668885,0.2063594479626791,-0.16244539880811396
-6.283679041291218,-15.306577539267828,-1.1640610153089888,-17.123045297136777,7.061988854673015,2.158471042880837,-20.238945273487143,-42.00282823998886,-3.259838258999897,-17.962308244743696,14.213756973997514,5.413894428980418,-27.69300246715038,50.59779407209265,-2.8490925793868236,-9.794338159456627,4.378876479089837,1.2335097170890044,-3.5146477983942077,22.896083613382366,5.811421252239737,5.03060060996031,-14.243387335807178,3.717692606645137,3.9668380236942715,1.0655166683636994,0.8523600303539364,3.8376053596511377,-1.1610971734594515,1.0098208001119506,1.227261427981581,-1.502170944355349,-0.2504943528503221,1.368851602538825,0.5545073935716376,0.7068921204283236,0.2583517750740179,-0.029940864109784728,-0.1562753196475687,0.29905978226441976,0.06530310278159217,0.09777364312945014
-7.268090889824301,-16.269473576306854,-0.31037113455655746,-13.938585286670728,4.429612247942113,1.2665907698490304,-31.276737579556166,-38.99534523681672,1.4216400857522073,-15.576499858451696,11.116744844595035,3.4540413220875714,-26.403892868441368,49.22209100512682,-2.7919629360404077,-10.062680070666351,4.3250378782875645,1.3186152094819923,-19.42084513525565,28.83573680302528,2.737726574405963,11.812408545482043,-7.713460193598021,-2.210041784160733,5.41805964692894,-0.6495641727714455,-0.11686298389654827,6.018935035493369,-4.186943334329373,-1.4675116570619897,1.3455846864871646,-1.5376671594474352,0.13934420845077086,1.0800685988452179,1.245173098334089,-0.39033153443405183,0.26668860646879045,-0.2577394770371681,0.13637105287143886,-0.05659611048863637,-0.38065140716862067,0.039251942277641914
-3.076960941993221,-14.131763197492697,-1.4266367878582105,-14.623009682229414,3.4175463015188265,1.1052443349390593,-15.312992512270993,-33.18573531513818,-0.8183614428957509,-3.700594769194306,-5.610605322801571,-1.398685903253154,-26.869480538517756,48.73286682631396,-2.6933611440299003,-10.685145997618847,4.658145744473584,1.2867080880232458,17.065740826450284,2.834332141294909,-7.45908550665945,-14.340001743660714,-14.913507375890884,2.0669584774087744,7.214283995475939,0.18207531956369877,0.02736357348998209,6.963503191945442,-1.2885583624898396,1.526751982465353,0.7452949743700098,-1.3539999521433015,0.10991679106668964,0.876470960624381,1.0318317465404188,-0.3252248122408368,0.15983666642774208,-0.04031365821970721,-0.04371743518625425,0.32536471438315334,0.16791046278312258,-0.12213437104867185
-6.794851847276484,-19.002957347691837,-0.493271638224454,-16.626038762774094,5.904281854545661,1.7214216839219674,-20.954786477122656,-53.12439837194008,0.04748941668847634,-19.5213208441894,9.86478813630921,3.7832889398881107,-26.154492477934937,47.93152781137626,-3.027417755448121,-11.009884011443951,4.599446457709667,1.2475790616630327,-10.382993339453694,8.343315734234812,5.596559570686661,37.388709426391756,-24.948332546431796,-3.207005782326533,2.7759542482303314,-0.3842409484116246,-0.8616159010780022,4.867402754272694,-3.414291241248411,-1.1077391554882365,0.6906991258062728,-0.29649009307275387,-0.4208960551583544,1.8318380693079996,1.211116743645276,0.13906190147216882,0.07557245815945418,0.02721855432902025,-0.10866543980391907,0.2223661414829337,0.0309567620252316,-0.04268669204763097
-5.706825698454701,-14.589214342921668,-1.02037698677266,-14.860217946480992,5.776213096866986,1.5430598994442057,-21.432738400242407,-24.908911805138075,0.54290944692455,-11.831635900801192,9.59035403042005,2.9503796568877436,-25.718527997692174,46.742189711741446,-2.904849156581603,-11.247096633122265,4.94325009579561,1.3375239749345071,-2.4125459780719716,32.46287642741856,0.008491259636283777,12.719932209563085,-4.13496741084815,0.13026552964500315,6.604093749295363,0.07725031270189013,2.1391609196314407,4.740698761425877,-2.8228498299731757,-0.376126131553791,1.3632576837555241,-3.090763375787189,0.9338550711430175,0.6234062977821474,1.5391955974238922,0.35747178190491663,0.344101237168415,-0.3537628655233726,0.28952145617509767,0.004650498568759237,-0.00013714439798691292,0.21784037376990664
-4.187414069572718,-15.559753380343224,-1.4445396416882017,-15.185279403553054,5.423363967733817,1.3769991396902836,-16.974402918247243,-37.944897420831786,-1.7654064440135713,-14.97895629054252,5.805923630106321,1.1954333253308465,-25.536165807086164,45.653063027631646,-2.9199527916184542,-11.910605114735636,5.436631018462794,1.379020929053156,-3.228809263145244,15.653344053893033,-3.218804298019273,8.65714608355419,-5.0951508926104845,-3.188767690305856,7.116464388548388,-0.3055292680980096,-1.7209018008541728,5.761029851713554,-2.272048912085703,0.28153155849708833,1.1708723503121703,-0.3624566709876823,-0.5609331853055965,1.5462054343688676,0.5018157829962141,-0.221730519113014,0.3108973055586281,-0.056206685253034815,-0.14437632994223654,0.3659681692053666,-0.17394768147024106,-0.11022508926331885
-6.085040474760667,-16.428869270779902,-0.7519792949731073,-14.823306686569211,5.061768439745791,1.4012908456074642,-19.92022451053308,-40.11601354031217,-0.18002672820906312,-10.480396559711131,10.281919523817722,3.322162531812679,-24.910556489810382,44.59702802662148,-2.964609577242035,-12.266872785868896,5.802162774607207,1.697889712409232,3.01910281196834,19.78303238186263,2.9537065030371874,-11.275122485760114,-1.9716034526340862,4.084424839307501,6.22118560431129,-2.0653683729713324,-1.4019250717460299,5.910922015245246,-3.406525935303605,-1.3253449339641192,0.6980391433114276,-0.9849630425024164,0.24581294870789383,1.2219626077507288,1.8335210446395205,-0.493600441408868,0.16036101133459815,-0.06371342760577511,0.06740831556411245,0.26462085904732346,0.16698758144186862,-0.13591081900776966
-4.724515666196506,-15.97387248882466,-0.8663040772937296,-16.469422258260245,5.618738786053193,1.5729396403549847,-24.079592470045736,-37.02313980349995,1.3152097742926572,-21.003356992941274,4.509356130903258,1.1610239666282736,-24.90915105177607,43.609085066892064,-3.0366230344268548,-12.58700914789727,6.110970117416611,1.5827872347266347,-18.855458293465016,10.355790307605554,-0.9494630943380844,23.112259211151265,-18.388265932566853,-0.21773349179848023,1.926438522825483,3.271580958406311,1.9042295850905866,6.093943311782094,-1.8141803852199272,1.6176894901262053,1.6538186815443172,-1.0324945140182447,-0.6545208633183297,1.2457521569433503,0.8632606865041681,0.6489498510292712,0.1701889659696409,0.00619435958508179,-0.14758144197234993,0.11241556986620642,0.11197373317827918,0.10881300702269939
-2.7842809930260297,-14.63279658522029,-1.8171249703139816,-15.498884720974077,3.96036698798782,1.235921083999644,-9.621783101911248,-31.865957003913298,-3.2833015149255953,-12.783218532121055,3.335367208291374,2.6124149485324817,-25.011154852773483,43.07770395849785,-3.0497736422680575,-12.991467828317703,6.441677322058289,1.7028248592612893,10.09442552045559,13.70989689395459,-3.253838269257018,12.35619224470964,-15.99990332566594,2.5591788922954546,7.17293128676595,-0.6304003802790613,-0.16887363959569573,4.9689607750978055,-2.306008363753536,-0.1610234545242536,1.2035055501678287,-1.6300934726751428,0.24908634141674368,2.4065624374632897,0.22027123846196522,0.27306893277185296,0.27231219179194754,-0.1324085768157357,0.07912127023346313,0.5927854042799579,-0.5120112827442096,0.037477919303973706
-5.7658897140439525,-15.72165180935392,-0.586032058795763,-14.603101585471393,5.8725933409412665,1.5683843293470312,-27.204834601299975,-35.22104525365636,2.927344030488311,-10.400383620196097,4.800881409136674,-0.6452506495496206,-23.909400671943775,41.59847375134385,-3.202651554861942,-12.796576547729865,6.250459059520578,1.8724133602533477,-10.070216619323544,13.883435036918469,-5.316848114172112,9.356693373350716,-8.80431240676123,-1.6891859801709561,2.925617190603223,-0.006587841706534569,-0.4328542983757119,4.73756401977325,-3.094857731328894,-0.8732090786232924,0.9097463919207293,-0.5694956437586403,-0.46682947985057127,0.4120596350011105,1.151058581739786,-0.39427159187350025,0.19158365748137376,0.03328522890688251,-0.1665020036454568,-0.24623459532063205,0.04730170214721139,-0.05565144881678089
-2.967363350202764,-15.550582070561653,-1.6405233213948405,-16.156359457694563,8.33918671546269,2.4411410730869303,-10.139480204482988,-34.23663453772704,-2.8481477454276267,-19.511060480198168,15.826791872438111,8.369151252594518,-23.973033549944148,41.3047754023353,-3.15858938327018,-13.497126713776304,6.94765546450193,1.7568989189706052,0.33955851608402493,28.23501681139225,10.084794114715692,-2.703955695159947,-15.22531195433103,8.329222897828817,6.916742632060461,0.17096705346708138,-0.04190647527229607,5.879088221832954,-2.408655006877644,2.206943957905332,1.7196457595106707,-1.249704003203324,0.09693095204601863,0.030829235576005257,0.22488291892778609,0.5706817980880466,0.40247463338513734,-0.050053530242402514,0.06643180249325238,0.013600660614704586,-0.1496982509411407,0.2580901252955553
-4.076245787791647,-17.611385113586635,-0.5752682980118652,-14.1213408286686,3.679875950814534,0.8097409674615719,-19.047587374423596,-43.02616771750092,2.356852420177264,-14.9838679882627,1.3684607026530262,-2.4575902777035217,-23.255101437111037,39.64118931489086,-3.1214143672695958,-12.990644111498058,6.205948393721301,1.6952945146216742,-11.414330292372437,-5.347581326916838,-7.005786020092569,7.961977587589545,-9.047874478849513,-6.237089599079216,3.644228841728728,1.8947548649103203,2.42307054360471,5.67472184134135,-1.9958332261688314,-1.835425362100273,0.5272173969553257,-2.2729605904783083,0.3094799650172925,2.1812685329908237,2.2362237487391363,-0.8089979861894953,-0.0017154830843927856,-0.2755328031842699,0.09208823782052888,0.22050470874587438,0.266506617171899,-0.32212851497078104
-3.930203629845097,-15.095189025250525,-1.5850928597273493,-16.678532176030146,6.501981276561868,2.1093040493767097,-16.277116200606997,-27.917711948497264,-3.514995514066923,-17.550478572990883,9.640469853737,7.038700777976951,-24.148023075091444,38.58979944863229,-3.1110966661950754,-14.348633932213822,6.6678626286756435,1.7438114186263702,-1.0667217939945302,30.400156324991315,0.6220537608181989,19.065475204259656,-2.3572857819209876,1.0188137438065832,6.208068821902507,-1.461964332422353,-2.3643874810715593,3.8222456966250618,-3.300918580842592,-0.4438130645631558,1.4290211728690154,-0.11513025600456081,-0.5249403275236175,0.9114766429839715,0.40545645263130964,0.27279787777216413,0.38035794006891177,0.018325475518139157,-0.10689372138848134,0.17736469557909126,-0.12144778422705169,0.07723838436451537
-2.901269005989706,-16.67383449818481,-0.9642729984271604,-14.257958387533106,7.200414443304257,1.8911145795887925,-12.185983248322367,-39.36597381931184,0.7873718049303544,-12.901361255938768,12.2288713386874,3.083977502002751,-22.977978961631777,36.797932239957824,-3.0576905032440163,-13.768963155765649,6.751850269443818,1.9485597016846634,-1.165099226572991,12.432908239677316,3.4852729314923514,16.993346336651022,-10.6237874136496,-2.60346021806741,3.5744536546586314,0.03871988579799378,0.40237322124305813,6.144105996657611,-2.663683292013654,-0.9378915695808976,0.4697245267223994,-1.1448274117405675,0.14878747370269618,1.808356793712487,1.915727720205341,-0.2407292777357112,-0.09549048583546671,-0.000513143770021267,0.03496011313895609,0.16976366712345553,0.12277094868161073,-0.07604925288603687
-3.1591511424361,-18.435455545090594,-0.8515770542258372,-17.481687058550165,6.63866740707407,2.075722716629809,-18.84073410546147,-34.42496054460274,0.9918448012243891,-29.457736792029046,3.545533939326552,0.532331063739953,-22.559533106728857,35.77058028909307,-3.1032974503145976,-14.267097246219267,7.130739322090831,2.0703475731897862,-28.742706437622452,10.674074202667846,-4.015435772090227,-0.15203191237565927,-23.448388578072656,0.17236068381820946,7.562617256458893,0.48187792999682516,0.19011202859623644,2.14526158428231,-2.428017678897648,-0.07739530731544947,1.2582896870081222,-1.780824985160135,0.0023560105336732293,0.3167760944839342,-0.13062688079376117,0.29850294249524334,0.3427296408634858,-0.24606951751173917,0.002654266000739605,-0.10614080333519624,-0.15286183476708484,0.08472376448216967
-3.4712859639968148,-17.09366016542067,-0.974203357431167,-14.25651191643155,7.245786238982608,1.9398118145084038,-5.8023387084799145,-38.01237015496399,-2.1169388336962016,-9.360863245143392,12.269952981967073,5.040103072192594,-22.059694779615644,35.22460350388544,-2.8237252584937726,-14.711981990240657,7.342545454931138,1.9522029386977333,17.716352487402308,13.554069155608607,-1.1983555259182126,21.587859566772654,2.0816553733247134,-3.68870551554237,4.385812223710547,1.4598732512392483,1.52857302898465,3.6305475159417915,-1.668961315887276,-1.4347530926432126,0.7654493050490979,-1.260771979114187,0.5262222349476076,1.9039904036751512,1.328858343404958,-0.5380027121296859,0.19395333067676443,-0.02686517901130471,0.11238437293336856,0.24404557622546813,0.11993149670829745,-0.24305496345803076
-3.9923449111534826,-16.49357824566721,-0.4590123570802944,-13.459259853177874,4.7057994343586325,1.142391032774197,-20.113603005829635,-31.647260365418745,1.8656074298818237,-12.342343728489956,-0.572319199873756,-3.0342429265369377,-21.498101859113948,33.78129282447301,-2.8065247905435062,-13.670079545122885,7.121401018804477,1.9334963742249722,-9.327966406723089,5.803160769413316,-7.184464386214151,-20.562511385935483,5.052807071869867,8.563693146423386,4.764187757031009,0.7675898889139027,-0.49605326740074046,0.9708157938996055,-2.958308671619084,-0.7974697785122298,1.7606907153872746,-1.0192011278939188,-0.981497750672401,-0.10263287482826396,0.22906188097889643,0.4542095084337164,0.3144438539386747,-0.04643972913389064,-0.27328870976762465,-0.27020762540299903,-0.2530152567466245,0.27093445152347717
-1.9245877947612882,-20.068875212775698,-0.43567804658313525,-15.063704818898428,9.376964443442313,2.3609869555754446,-12.694070694146035,-36.7411700581985,0.7070053848594231,-19.701993140978434,20.458765351466468,7.006936879016013,-21.49985612233536,33.15952215312976,-2.6846744501866953,-14.418441347543208,7.44819690613885,1.9640006522502214,-15.026335986360332,28.611757471342617,4.0395684734232224,37.08077200291631,-28.499430798266566,-2.206691414351057,5.268324710764974,1.1456443628739663,2.0063568747735485,9.523467083795397,-1.7221495120540102,1.4802924222937102,0.1219695231552199,-2.2297347444162052,1.0070278072256256,1.4986987601120665,1.8926802824918882,-0.7440377992152818,-0.04761795637939921,-0.2639634040395697,0.2574168522534926,0.4117894808677446,0.28167004471492135,-0.19260533730112558
-2.5958945450063005,-17.678459720074112,-0.10949491331110905,-12.545755132384532,4.871442773975346,1.5480959202560514,-12.424451362779864,-43.16758884272195,0.7859620031946172,-15.29794898280873,2.9919052058037034,2.5968769906960434,-21.55054235956271,32.675366894431384,-2.2671919852322735,-14.2632926172659,7.137918780159645,1.8719154514019565,-0.9859632848508253,0.7655142692776944,0.1880483665305124,-12.198055122966089,-9.757146535893213,-3.5274557216082165,5.757676213346768,0.170250496930052,-0.5954467700625946,3.992695009587367,-2.348129196325269,-0.22211597474553624,1.4047063084123932,-0.5158382015464095,-0.04130488994959713,1.5254656574717051,0.8587200838554415,0.12137969948703281,0.3153541605731432,0.12000665493479604,-0.029616681298702603,0.02811485849947941,-0.018583994624463827,0.016283911508099064
-1.7292970996597556,-19.14950480506599,-0.32705128134456507,-18.17739990626867,8.996526862092106,2.401196196075289,-8.855953327298417,-33.235664373791344,-1.6140011969877093,-21.875033307535475,12.961444539441255,4.294750932588869,-21.35314671897654,32.18686760002696,-2.1886393154489228,-14.775441842410613,7.466377647429912,1.9768856281354314,-7.6784364364688535,24.450723981439765,-0.7122591919268486,21.055091598843564,0.8434451539484722,9.439455837428318,7.637475880012725,0.8758929986348853,0.44613964075334517,7.150982727406612,-3.784522042364217,0.7846026071590431,1.2172890993930856,-2.1341144146682445,0.09300578025491633,1.767138034477705,0.5762436155957256,0.24276668707393062,0.21522970152655932,-0.17459628972584282,-0.025101062871177922,0.21509984056582682,-0.15971029066930642,0.09858884429257586
-3.70953175070607,-19.196361318108092,0.6866980778999591,-11.715273468652072,5.586704325153755,1.1728719015571363,-15.728452652159865,-32.37103766893381,3.8138075596923726,-12.193788216000627,9.73849224259628,1.433821526968059,-21.31995071584055,32.22135982868873,-2.083649930026142,-14.362336096034962,6.726595508687171,1.6885886710141007,-6.389157241569013,23.277653133951034,-2.383496848092416,7.987596416792015,-9.609855149757385,-10.900565325069596,5.4538404872174615,-0.3832401900765905,-2.004946327703768,6.153451082604153,-3.2942121584536124,0.23015875016631349,2.130840842687533,-0.3407295266587954,-1.1245368949860257,2.5752155293431964,0.7616960999276826,0.27351412167985634,0.4955350832464476,0.03686689881872055,-0.27348751871966426,0.4300317947037858,-0.016962541032180884,-0.0039009738900639764
-3.386902495567066,-21.201121415120333,0.23326427906198743,-17.75107087514112,10.000670209193482,2.529273807595575,-15.96259942025569,-44.08814332571039,-0.9652553370694857,-24.57771247207536,15.642280614204866,4.937267014882121,-21.242910213279583,31.907269199839654,-2.172879381694822,-15.161780832081849,7.141685089596853,1.8448276490900941,-17.30787761206966,13.576309401966515,1.7698015103159344,21.882495640913213,-12.04875743874307,0.27056901633635655,5.957480397584451,-0.46639140301438564,0.2385726221181064,5.322476011711007,-3.169273417320467,-0.19146755474328153,0.8227843405210277,-1.8869110520609509,0.797368419550306,2.0054200961264317,0.7038441828661811,-0.015763940350925182,0.14690379164619521,-0.3136275584006831,0.2984209416557839,0.2590483012423456,-0.05937162377903045,-0.026614913947664246
-2.733294247229406,-19.573120557733102,0.919326384903064,-14.497850578525576,5.140179004126639,1.5781996914147056,-16.631843480010282,-42.223503964510634,5.247372102628893,-9.654702514691325,2.9147224199285517,2.1727391252077495,-21.055417274939682,31.1941003385373,-1.963000441828845,-14.4532963172748,6.667856936045766,1.785967612646861,2.3459404372755026,4.029054196734358,0.9879327050062535,16.424842396640905,-27.919567430313336,4.997037741292665,6.581193776756497,2.3844893938938614,1.2660057903660333,4.33930389517608,-3.0384570159098745,-0.45545616904335884,1.762752148320021,-1.7146146780961447,-0.017802831855670168,1.0061972644842434,0.8750388638641885,-0.2428924478911977,0.2564749250300863,0.08401228729669023,-0.09844750033508601,-0.30684014787067526,0.09169718887638169,-0.07804610812758458
-6.014561738942375,-19.08302167808927,0.7522825488393438,-15.68142226943209,8.791892986910666,2.236735946598554,-20.667912818070313,-36.67177937809399,3.094191690966517,-14.631636374063818,13.288764316709452,3.484094710166239,-20.643075298142428,30.871893182534972,-2.38009705727908,-14.625132483916008,6.721427877961199,1.8754291355466233,-12.101437088948256,22.61109171678869,1.6680937656270387,22.353477175770212,0.6961932051199122,-2.9955385094340277,6.055336401915447,-0.8901532339275774,-2.1330814644581966,7.128474099777135,-2.869478372261243,1.779872927858204,1.4101742484441842,-0.7209268554760078,-0.6491479652765624,2.620980728606775,-0.0491193828209938,0.8717532825022473,0.33761891214815537,-0.20717534271415497,-0.08237499080024556,0.7826019432618319,-0.3429038941689222,0.2363212245334225
-3.7053211950518037,-20.800771373837403,0.16341833326869426,-16.847224285517377,8.047276058344798,2.4443327323488324,-12.153524678581885,-48.349525893313626,-1.036586069440787,-20.44830253094939,9.709369958782629,3.958892755543386,-20.373064576204207,30.492289951650886,-2.3031312476147856,-14.533734930774793,6.648459572497853,1.9955276608889074,-7.625634692130054,-0.1418598583520264,-1.8966614797358843,18.835391853849274,-10.683186349026949,-7.723510077162988,6.263544454886603,0.18576263363450718,-0.7864570883023908,4.1451230085460375,-3.080360819295357,-1.2752513460591581,1.7066244908553485,-0.8443957308379966,-0.29076711907558006,1.3187901291970516,1.5204651071861408,-0.45015316111258796,0.25320385781490895,0.1249806235548832,-0.08673261630593082,-0.11564600295735322,0.25178441480279856,-0.15291024667886252
-2.762010643443218,-16.995153219104036,0.0830830557759462,-14.834159748231205,6.188668697906547,1.2682944521095538,-10.301343409806357,-36.836067279062426,2.235114048939838,-20.95513792520851,9.813145214821906,-0.07587729679493153,-20.308735932683412,29.481962009837986,-2.2565618500453675,-14.494731542178613,6.676713193199921,1.7197901866517409,-9.494279936191774,16.212478836908605,-0.32834316742744635,4.944860215509207,-12.615242586712036,-1.2881983952645917,5.698531918876247,0.581148758040173,-0.43123410377212706,4.86748780646018,-2.486959412185323,-0.25071214625400395,0.6293326895662096,-0.9708843497772999,-0.11762022698793581,2.0023090297708226,0.763065716694428,-0.061652294469214455,0.14459452859629743,-0.06355237188163762,-0.08743704715614767,0.3382230377332196,-0.06016325724000412,-0.04639176480839126
-6.243041717637737,-17.375819606139352,0.2827286682917356,-13.195198183643626,6.964197791949798,2.342678701424423,-22.13155814062769,-35.69548124243315,0.5644550051409954,-13.680427079071425,4.819611975018006,4.263511506944241,-19.737914412241203,29.171040534202664,-2.5269244266278292,-14.677937386377268,7.021665077493872,1.9946031154484676,-13.18714816518763,7.067032227696394,-3.200838315485614,15.892409438112844,-6.515859535783018,-4.079623123399338,6.533038439011475,-0.9691073865442867,-1.5513957839374113,5.2991503832374205,-2.1369515494771667,0.734979263380159,1.6581368627408979,-0.7486465183424954,-0.185996029560464,0.3707658688795845,0.9706321204086925,-0.19582735367459775,0.37572197101478966,-0.0439245305102223,0.007557368159163759,-0.045985333919187445,0.06130683800682612,0.03277618390496562
-2.922435416439627,-19.95037733643017,0.2753296836950331,-16.422670893850146,8.80422288816337,2.263151747773024,-11.959894536522361,-44.91009879209507,1.8931732038055873,-24.072592646919475,14.666170078948447,3.908758498344194,-19.275193786359086,28.220637184397717,-2.5058601577312327,-15.325812319711552,7.155550969814268,1.99173424553826,-14.2699197562391,10.17518394085409,4.2005769700456845,21.758466461851626,-11.5243839681914,9.17503176678415,4.042173862901804,0.8221593866502769,1.4184812463923575,4.274287580909642,-2.176201884671689,0.25442904108626757,1.2301302328477126,-2.2379958608122896,0.030485174949891298,1.3914590922008445,0.3459836222132912,0.1647071047104463,0.06232377758824058,-0.3143434322353779,0.09998947930777324,0.07671973879725644,-0.10979078678089679,0.01933431561203138
-3.960014072122785,-17.142437177689636,0.3142023395621782,-12.251368398350404,7.269705037602919,1.87717988355362,-20.016837370735296,-32.54360781886854,3.0020249423361727,-13.679885932521907,10.925131187608065,2.8125969196399847,-19.067712157507728,27.51944519906697,-2.478120062348534,-15.377321066711144,7.702099239699437,2.0905600507265922,-13.025569771874254,17.219705915801704,1.2983127583639362,-0.4814476624966405,-9.441684227891843,1.820125725461484,6.34841150679528,0.6905054664843314,-0.30110860412722396,6.742106392471159,-3.5624969477255224,0.35526848619360707,0.7384358823545553,-0.7079210350567082,0.030804084460132674,1.8116847588972613,0.7649683575433475,0.025037918380494163,0.2387245481573359,0.011188732618386696,-0.04652317888958616,0.297815968430949,0.0038441750611284166,-0.0313086101614589
-0.635837250323992,-20.421475034886996,-0.2239091494361489,-14.931421442316166,8.045710238049674,2.323788116368549,-9.225355782061724,-40.82308830700033,-0.0661165374627758,-19.76364639258396,7.767370820403841,3.161352899081245,-19.261593244324626,27.456726600867725,-2.5442662740866355,-16.05634997598907,7.999536235459974,2.1549071688000723,-7.100359342941726,2.3947331537998693,-2.462181074148706,26.18127988559188,-6.15792902736124,1.691236296695204,4.439225320254051,-0.6784449244444567,-0.5813089553264367,4.108591958843597,-2.2697843617094473,-0.31002392485536306,0.7880504903125028,-1.0556683210250575,-0.07090609366731314,1.2878633521632592,1.011781315003572,0.12916673843901666,0.16181299847444366,-0.11124088636812277,-0.0058993748553387865,0.27789551632788545,0.009061869495191471,0.08851792109968099
-2.006420364772154,-19.563407208499882,-0.06147960338239365,-12.713421667306557,8.841493856257934,2.3533100734826244,-15.05335445190977,-33.56345005188437,0.8184847220493616,-16.505822548714264,15.107593640661861,4.5242973660784065,-18.797499520273167,27.016136866942738,-2.6136879375567923,-15.917032365029275,7.966219288938366,2.266511345737199,-11.713685442676809,23.747274749122212,-1.8630040989653538,22.778284995913424,-12.948161987293869,-9.77050453058889,7.208700041733033,1.8298564889595927,1.4182291721845743,3.6430638864877247,-2.9555660517797957,-1.3663552658541895,1.2869505647635282,-1.6534211861155026,0.2555959505686075,1.7958511747806365,0.9022625461810223,-0.11326985078744997,0.26494617456553893,-0.06748941055705183,0.06893603652769893,0.04681727953826824,-0.004637167362212587,-0.07024311795615208
-2.8820373757732263,-20.956419257807493,0.46593338790400074,-10.423953240562778,7.201175457599793,1.9710803376488901,-13.016005191483275,-44.6200999471418,3.535940959084363,-12.685327477044291,12.228920846471745,4.299372369502132,-18.675639323315576,26.79385274109189,-2.6659754933234634,-15.881791781866777,8.065969949625899,2.203700768031654,-4.229659129189348,3.5110825706900197,5.561064311953159,10.476706239555282,-14.727745402499613,1.5571357636588996,4.544760210865083,-1.235810001925942,-1.1816067621616608,4.616771202410512,-3.0782334107433473,-0.7558323065329744,0.41674745921002115,-0.869152533095845,-0.13393349548912692,1.2192494187746152,1.2174635852768825,-0.05960561083042571,0.0978976041795029,-0.10711024043654845,-0.04915048093691142,0.11579351123291838,0.11953717260564822,0.006237206602123987
-1.7784617546030328,-20.60159322610834,-0.36454670051068316,-11.652724160659773,6.206557112545852,1.871172030432413,-8.579344939073026,-44.34249662502977,-0.24394400972430813,-14.534480656674969,4.407096989693553,0.6840574966748443,-18.825172953748936,26.464736036465276,-2.709737870968716,-15.977676975712532,7.69398070668527,2.1991555861231844,-2.900315333516981,-9.48798067225577,-6.696925422809332,17.741766982203146,-1.4454835332788125,4.469912532788957,5.283460992199689,1.9952095290451979,2.0071654086702724,4.446796473355124,-2.647017764360197,0.7519507819609746,1.6041291596326914,-1.8120282969492736,0.04727005379543886,1.0502032996609811,-0.43836389827515615,0.37439554638846895,0.2654828201622494,-0.057054623391644986,0.03353447050497431,0.05164726427887626,-0.30237786380556325,0.0947287805775478
-4.225949662625821,-18.665505017048233,0.06560731333051222,-14.973970989471084,7.770336095101554,2.2277517270840765,-12.84813397113399,-31.08222208080306,1.1300872535783824,-20.219313638085612,7.1129359924311295,3.1982956740416295,-18.151501088719268,26.55129552746192,-2.655907636046122,-16.04352116009949,7.847361890497112,2.054361720486677,-10.755197063250067,13.344501245747532,-0.6666241654836745,10.623487090555864,-8.059766056596532,2.145158409225511,7.312070936878303,-1.4714969490753378,-1.3111229400489217,8.029633137138301,-4.480330427975344,-1.5749033137752806,0.6434857875372995,-1.308422073413932,-0.029495788810876916,1.2941255916316212,2.178663737947085,-0.9017646514161812,0.2078055265140784,-0.1849601773804838,-0.0274700567373714,-0.016464113535784072,0.146846996226676,-0.11365627060892446
-4.263698775877357,-21.56346433399848,0.24191910708551118,-10.573583715793085,8.228633070810982,2.294099778371463,-20.341384628435595,-46.8738438573172,1.6887552022027326,-8.282842407153737,13.379221455884728,5.030944787294697,-18.354802370971626,26.42205305767581,-2.7887613522825845,-15.20540748041618,7.490616815531891,2.165283603325151,-6.3059548549391335,9.049094555936344,-0.5062699680412979,1.1149265540945867,-9.267907875270064,-3.718847314195169,6.106253291417247,0.40710200440218214,0.20553603468034184,3.0967051123439933,-1.6194010709661069,1.1226621895917535,0.8861788256203605,-1.372425707538347,-0.0644952689663839,1.688975901024089,-0.4163556350937509,0.9875238730947965,0.20053584574130828,-0.1425841073515528,-0.0170325011425298,0.30911643782773823,-0.10448934584144177,0.15778069611219026
-4.960304165862093,-20.106725108604426,0.3141515711565053,-13.366394390620798,6.197747189469879,1.5227380685777996,-12.222830706719277,-29.780568333592324,0.543939628961738,-17.192426565642243,8.646908519159828,1.4477020960372045,-18.641519801092414,26.737897074602355,-2.555018962327022,-14.963586557035704,7.01150736719907,1.8368759076524015,-8.394124776326576,24.49751199412542,-6.034925068203293,14.75954653800699,-21.035500031324748,0.9379483041798562,7.0050403754887,0.40180510270082204,1.0216019451423344,8.749336389986071,-2.3047085186133467,0.28455516303274947,0.5707010011298435,-1.720313581944834,0.5532816005027613,2.1939385921541006,1.416561798187209,-0.6869207434147864,0.12436682290391173,-0.10580609325720491,0.13000478941232305,0.3755082842698005,0.1292029325414907,-0.2204888250819451
-6.044826364663361,-23.656481887697595,1.3521203896859693,-13.6901509833199,4.223478868902414,1.2127904358243304,-27.32371771050168,-57.27747217683458,6.408287177741426,-11.037163603492054,-4.514783535029535,-3.0192293874553298,-19.128435565575383,27.78442274018562,-2.6850357321677363,-13.388350825006432,6.211200087760264,1.6130843194940052,-16.235944560934787,-30.913172305975863,-2.671733070097157,25.337367324298278,1.4653533565974397,-5.296799723447419,7.285059701234027,-1.4829092664660581,-1.4828313521232113,4.557738653134268,-4.0981155455048865,-0.28368416572385013,0.5863661922100387,-1.1711141805010243,-0.1611476200102403,0.06523321715286481,0.5298033268336118,0.21721143038960788,0.17502053309027668,-0.1158092001184926,-0.08090163858935447,-0.25567634378103754,-0.07271449487786381,0.17109746421793667
-8.353104204214143,-22.153840616988354,0.690165050079969,-11.443908432503683,6.95710575184617,1.9125509639902563,-14.185834124948714,-38.901780971513,-0.03031714725447214,-8.515433590050977,11.44196025238663,4.98959804691236,-19.96329631356833,29.430707681291967,-2.886768532954002,-12.759222575446676,5.602529595941525,1.5928388506979103,9.81673066655622,24.374336160465937,-0.7159444786195022,0.7884085187653236,-24.649353015271075,0.12412918711955709,6.502882293369426,-0.47912136013023,0.10744452033338803,5.570993693742146,-2.7657488167030126,-0.6780078916657006,1.3779583582699135,-1.6009021648064619,0.1226797129989186,3.3730290786158967,0.4339352992625783,0.32668226621803603,0.31133434158774315,-0.12833665310824402,0.07927895548550651,0.5909923354766282,-0.3013839961047243,0.024513941008768782
-10.846362719116195,-19.787436198088344,1.3535838905345756,-9.989144953687012,3.76033499996792,1.1117809501478846,-25.52825516653477,-38.37383329318579,5.7684725479305925,3.1485633136176565,5.140505706899757,2.7951196972154957,-21.291608327743155,31.76671938236751,-3.095895917824818,-10.26365736574537,4.134985977264089,1.1948048551712,9.13252529459391,20.94818586226156,2.362237379299088,3.070919275890801,17.572221811354208,14.200839423465359,7.781308405790624,0.5791251938896913,0.07219620745430418,6.713395057855201,-3.7392842486551148,-0.20557174399640107,0.413619194701507,-1.2362569490290376,-0.012335673192217692,-0.7721508159185614,1.7046132459365295,-0.7803139549510554,0.13216663245501425,-0.09077722358941945,-0.05621494232110549,-0.3222250735060612,0.28341014140541737,-0.043709476553594646
-15.12246,-23.57087,1.29451,-12.23259,3.5341,0.93447,-33.34075,-55.1926,1.58945,-6.35519,-2.06715,-0.86548,-22.37169,35.14891,-3.81427,-9.00936,3.57082,0.83767,-12.16873,-9.85483,-8.98452,0.05105,-16.64368,-14.87766,6.43469,-0.93161,-0.55069,7.32194,-2.36952,-0.24933,0.78295,-1.05322,0.20659,3.16214,1.01695,-0.18955,0.28492,-0.0236,0.02289,0.63634,0.03744,-0.16728
,,,,,,,,,,,,,,,,,,,,,,,,,,,,,,,,,,,,,,,,,
,,,,,,,,,,,,,,,,,,,,,,,,,,,,,,,,,,,,,,,,,
,,,,,,,,,,,,,,,,,,,,,,,,,,,,,,,,,,,,,,,,,
,,,,,,,,,,,,,,,,,,,,,,,,,,,,,,,,,,,,,,,,,
,,,,,,,,,,,,,,,,,,,,,,,,,,,,,,,,,,,,,,,,,
,,,,,,,,,,,,,,,,,,,,,,,,,,,,,,,,,,,,,,,,,
,,,,,,,,,,,,,,,,,,,,,,,,,,,,,,,,,,,,,,,,,
,,,,,,,,,,,,,,,,,,,,,,,,,,,,,,,,,,,,,,,,,
,,,,,,,,,,,,,,,,,,,,,,,,,,,,,,,,,,,,,,,,,
,,,,,,,,,,,,,,,,,,,,,,,,,,,,,,,,,,,,,,,,,
,,,,,,,,,,,,,,,,,,,,,,,,,,,,,,,,,,,,,,,,,
,,,,,,,,,,,,,,,,,,,,,,,,,,,,,,,,,,,,,,,,,
,,,,,,,,,,,,,,,,,,,,,,,,,,,,,,,,,,,,,,,,,
,,,,,,,,,,,,,,,,,,,,,,,,,,,,,,,,,,,,,,,,,
,,,,,,,,,,,,,,,,,,,,,,,,,,,,,,,,,,,,,,,,,
,,,,,,,,,,,,,,,,,,,,,,,,,,,,,,,,,,,,,,,,,
,,,,,,,,,,,,,,,,,,,,,,,,,,,,,,,,,,,,,,,,,
,,,,,,,,,,,,,,,,,,,,,,,,,,,,,,,,,,,,,,,,,
,,,,,,,,,,,,,,,,,,,,,,,,,,,,,,,,,,,,,,,,,
,,,,,,,,,,,,,,,,,,,,,,,,,,,,,,,,,,,,,,,,,
,,,,,,,,,,,,,,,,,,,,,,,,,,,,,,,,,,,,,,,,,
,,,,,,,,,,,,,,,,,,,,,,,,,,,,,,,,,,,,,,,,,
,,,,,,,,,,,,,,,,,,,,,,,,,,,,,,,,,,,,,,,,,
,,,,,,,,,,,,,,,,,,,,,,,,,,,,,,,,,,,,,,,,,
,,,,,,,,,,,,,,,,,,,,,,,,,,,,,,,,,,,,,,,,,
,,,,,,,,,,,,,,,,,,,,,,,,,,,,,,,,,,,,,,,,,
,,,,,,,,,,,,,,,,,,,,,,,,,,,,,,,,,,,,,,,,,
,,,,,,,,,,,,,,,,,,,,,,,,,,,,,,,,,,,,,,,,,
,,,,,,,,,,,,,,,,,,,,,,,,,,,,,,,,,,,,,,,,,
,,,,,,,,,,,,,,,,,,,,,,,,,,,,,,,,,,,,,,,,,
,,,,,,,,,,,,,,,,,,,,,,,,,,,,,,,,,,,,,,,,,
,,,,,,,,,,,,,,,,,,,,,,,,,,,,,,,,,,,,,,,,,
,,,,,,,,,,,,,,,,,,,,,,,,,,,,,,,,,,,,,,,,,
,,,,,,,,,,,,,,,,,,,,,,,,,,,,,,,,,,,,,,,,,
,,,,,,,,,,,,,,,,,,,,,,,,,,,,,,,,,,,,,,,,,
,,,,,,,,,,,,,,,,,,,,,,,,,,,,,,,,,,,,,,,,,
,,,,,,,,,,,,,,,,,,,,,,,,,,,,,,,,,,,,,,,,,
,,,,,,,,,,,,,,,,,,,,,,,,,,,,,,,,,,,,,,,,,
,,,,,,,,,,,,,,,,,,,,,,,,,,,,,,,,,,,,,,,,,
,,,,,,,,,,,,,,,,,,,,,,,,,,,,,,,,,,,,,,,,,
,,,,,,,,,,,,,,,,,,,,,,,,,,,,,,,,,,,,,,,,,
,,,,,,,,,,,,,,,,,,,,,,,,,,,,,,,,,,,,,,,,,
,,,,,,,,,,,,,,,,,,,,,,,,,,,,,,,,,,,,,,,,,
,,,,,,,,,,,,,,,,,,,,,,,,,,,,,,,,,,,,,,,,,
,,,,,,,,,,,,,,,,,,,,,,,,,,,,,,,,,,,,,,,,,
,,,,,,,,,,,,,,,,,,,,,,,,,,,,,,,,,,,,,,,,,
,,,,,,,,,,,,,,,,,,,,,,,,,,,,,,,,,,,,,,,,,
,,,,,,,,,,,,,,,,,,,,,,,,,,,,,,,,,,,,,,,,,
,,,,,,,,,,,,,,,,,,,,,,,,,,,,,,,,,,,,,,,,,
,,,,,,,,,,,,,,,,,,,,,,,,,,,,,,,,,,,,,,,,,
,,,,,,,,,,,,,,,,,,,,,,,,,,,,,,,,,,,,,,,,,
,,,,,,,,,,,,,,,,,,,,,,,,,,,,,,,,,,,,,,,,,
,,,,,,,,,,,,,,,,,,,,,,,,,,,,,,,,,,,,,,,,,
,,,,,,,,,,,,,,,,,,,,,,,,,,,,,,,,,,,,,,,,,
,,,,,,,,,,,,,,,,,,,,,,,,,,,,,,,,,,,,,,,,,
,,,,,,,,,,,,,,,,,,,,,,,,,,,,,,,,,,,,,,,,,
,,,,,,,,,,,,,,,,,,,,,,,,,,,,,,,,,,,,,,,,,
,,,,,,,,,,,,,,,,,,,,,,,,,,,,,,,,,,,,,,,,,
,,,,,,,,,,,,,,,,,,,,,,,,,,,,,,,,,,,,,,,,,
,,,,,,,,,,,,,,,,,,,,,,,,,,,,,,,,,,,,,,,,,
,,,,,,,,,,,,,,,,,,,,,,,,,,,,,,,,,,,,,,,,,
,,,,,,,,,,,,,,,,,,,,,,,,,,,,,,,,,,,,,,,,,
,,,,,,,,,,,,,,,,,,,,,,,,,,,,,,,,,,,,,,,,,
