PaulMeinheit/Bachelor_Muay_Thai/processed_Data/N2/teep/scaled/JointPositions/scaled4.csv
Neck_Joint_Position,Neck_Joint_Position,Neck_Joint_Position,L_ANKLE_POSITION,L_ANKLE_POSITION,L_ANKLE_POSITION,R_ANKLE_POSITION,R_ANKLE_POSITION,R_ANKLE_POSITION,L_KNEE_POSITION,L_KNEE_POSITION,L_KNEE_POSITION,R_KNEE_POSITION,R_KNEE_POSITION,R_KNEE_POSITION,L_HIP_POSITION,L_HIP_POSITION,L_HIP_POSITION,R_HIP_POSITION,R_HIP_POSITION,R_HIP_POSITION,L_SHOULDER_POSITION,L_SHOULDER_POSITION,L_SHOULDER_POSITION,R_SHOULDER_POSITION,R_SHOULDER_POSITION,R_SHOULDER_POSITION,L_ELBOW_POSITION,L_ELBOW_POSITION,L_ELBOW_POSITION,R_ELBOW_POSITION,R_ELBOW_POSITION,R_ELBOW_POSITION,L_WRIST_POSITION,L_WRIST_POSITION,L_WRIST_POSITION,R_WRIST_POSITION,R_WRIST_POSITION,R_WRIST_POSITION
X,Y,Z,X,Y,Z,X,Y,Z,X,Y,Z,X,Y,Z,X,Y,Z,X,Y,Z,X,Y,Z,X,Y,Z,X,Y,Z,X,Y,Z,X,Y,Z,X,Y,Z
0.06439000000000002,0.51762,1.38415,0.16168,0.5924000000000001,0.11701000000000002,0.5170000000000001,1.1759100000000002,1.04637,0.12582000000000002,0.67868,0.47459,0.30616,0.9063400000000001,1.18381,0.13531,0.6329600000000001,0.8488000000000001,0.27476,0.6099400000000001,0.9442900000000002,-0.056380000000000006,0.60762,1.3154800000000004,0.17701000000000003,0.40057000000000004,1.3760100000000002,-0.12223000000000002,0.8449200000000001,1.1874400000000003,0.13205000000000006,0.14566000000000004,1.26725,0.10617000000000001,0.7629200000000003,1.2059200000000003,0.11691000000000003,-0.07295000000000001,1.1824300000000003
0.07178521363970651,0.5247842465298325,1.3896265791937317,0.16390998224060316,0.5918198909710578,0.11639159542301253,0.5170602046062727,1.1596174031953577,0.9956194089714109,0.1287739391543302,0.6762248353892281,0.4744868413194947,0.312709947981579,0.9073347658615777,1.1705656104331055,0.1389430618650095,0.6287410421798431,0.848461337551203,0.27933827752463547,0.6027850925850388,0.9417853218594032,-0.048212733512300876,0.6148265673780466,1.3174434052744415,0.18395867830127177,0.40729558811711386,1.3792214779139218,-0.11922834187868114,0.8452683530999806,1.1799746662961805,0.13721526482785334,0.15136221050719242,1.2736781361408047,0.10832251817431653,0.7625856339714364,1.204868944094832,0.11664232175206707,-0.06745548195903453,1.1905737189430017
0.07646194103894895,0.5330687180889743,1.3950469478431584,0.16644060465613672,0.5914850408098149,0.11617143739786938,0.5164067051376017,1.138956580515853,0.9370319227922754,0.13374496651278928,0.6741599387876289,0.4748952129872816,0.32084961501822895,0.9108240957364478,1.1508578394130449,0.13952658056674225,0.6258172607761132,0.8488574101742853,0.2817154238713627,0.5955505446668762,0.9380665831106644,-0.0424589827032027,0.6243589946592294,1.3191173127270934,0.18770898241784795,0.41371375863103066,1.3813450392702047,-0.11892308639639362,0.8460944703003849,1.1706912701740542,0.15022052212521242,0.15575147881079135,1.277038625854276,0.10976722830699578,0.7686252573258788,1.2012288821234078,0.12331469823997787,-0.060622580947941894,1.1894475378314875
0.08097899735384888,0.540765903778203,1.4010607694463844,0.16758045757556886,0.590798002990744,0.1159529702627418,0.5113007139892801,1.112142828633153,0.8711847695388223,0.13930020646497307,0.6708450360900933,0.4756443546245581,0.33002811779859376,0.9175800364052953,1.126722791712056,0.14002557920184786,0.6205358492218165,0.8493910715504482,0.28383165201966165,0.5895574677664536,0.9357432158441676,-0.03809027473275305,0.6338034742520641,1.3189080525631118,0.1890111475290997,0.41802241800433176,1.386347647892701,-0.12932299761786023,0.8425257569813939,1.1603029812820342,0.15567867509305078,0.16162526402883284,1.2769157957567567,0.10319228203451006,0.7822377476721835,1.1994588150851135,0.1339633710042814,-0.0531170795784214,1.1840284386806907
0.08447699900385211,0.5461811119925656,1.4074723744723727,0.1690271815925311,0.5896260795952452,0.11491083185256462,0.5039637474951071,1.080030392055603,0.8045766409469238,0.14418181490265752,0.666581587475016,0.4755307224478431,0.3425248867844529,0.9260842607436994,1.0982667339612184,0.13878898594437464,0.616816136818376,0.8493156134531252,0.2822605915027251,0.5851548025423352,0.9359684155321725,-0.03363217905907874,0.637322474054644,1.3215055221316363,0.19034629171713527,0.4206851876057501,1.3932394986672938,-0.13293053471845764,0.8297137856649872,1.1478071783772368,0.16207022135842397,0.16840278975392528,1.2733200568702263,0.1029284149586439,0.7891851144489699,1.1920950727187123,0.15305783152989463,-0.04397456573407849,1.1731596612010076
0.08792909654099992,0.5503879668572484,1.4131906479868312,0.17064296092404518,0.5880190179567115,0.1133956234802398,0.4978149338198096,1.0447392678337095,0.7394181488361039,0.14744782880548002,0.6594996155614206,0.47525315084462144,0.356477730626592,0.9324793144956186,1.0610301755886102,0.13556026406831168,0.6136396436555381,0.8493862635161235,0.28095840032494124,0.5804845248703453,0.9321838519321813,-0.03143735146665953,0.641134836668878,1.324784189686129,0.19171524475490254,0.42352674364499193,1.3952848543526184,-0.13309347692671936,0.8150381820995632,1.133804773101362,0.17269717060972098,0.17384837888770407,1.2682945100542324,0.10457881488810739,0.791089397133726,1.1804199518365148,0.17704210107711618,-0.03503778652139595,1.1607912204552124
0.09178303351024518,0.5557806547710782,1.4173483531968825,0.17166383686343317,0.5857224358581513,0.11182663416189999,0.49083979314306275,1.0042402150679384,0.6754106024965492,0.14975802500276383,0.6509266130658383,0.4749461721881095,0.36997334701770457,0.9355010647021091,1.0169874116318438,0.132843290694155,0.6093220932609236,0.8493799265056302,0.28132447875138633,0.574864380656498,0.9259164936373121,-0.030846217211938795,0.6465082538327347,1.3247865598803827,0.18892916905082235,0.42707270795604335,1.393512525354777,-0.13442671901549103,0.8024805275184584,1.1198694554500594,0.18731920035075056,0.18015810239891064,1.2598771573654066,0.10426899253117862,0.7983492234411483,1.1672190038433874,0.2009328651399974,-0.022271174145561883,1.1413382268472652
0.09325669010392605,0.5603908063223433,1.4205583307087113,0.17261953743140757,0.5838557257075041,0.11037402962365404,0.4819107379519021,0.9593871204643525,0.6135768149272705,0.15136771193277468,0.6437589445583636,0.47444174336510847,0.38525658912729394,0.9337799488886348,0.9685583755627798,0.12872129913238411,0.6069404611988608,0.8490712970653261,0.27944237801516486,0.5696176181734695,0.9196625380958245,-0.029314875211846905,0.6505450119108482,1.325207304332214,0.18865152930199774,0.43183350002948295,1.392417705200357,-0.13254879873965594,0.788029036866091,1.1072967472817277,0.19729258079407125,0.18919699780410643,1.2514042157033605,0.10652281023624949,0.8021765220696397,1.150642957029228,0.22796124187113492,-0.004632902411252073,1.1221611366759199
0.0939675535519059,0.5636110691326593,1.4236180819828819,0.1732175639422483,0.5821947390126635,0.10906582717035525,0.4729972428225915,0.9130328827331284,0.5523446829143879,0.15204188916879155,0.6371127914528396,0.47392728006984425,0.40127373214524126,0.927427285159397,0.9138128941060297,0.12466130597861866,0.6037104934104247,0.8485669868420858,0.2780924194510518,0.5654492055931368,0.9125117658689076,-0.02755349246420416,0.6527390688988572,1.3247936388103767,0.18860685498168894,0.4373625194266156,1.3931110976377152,-0.13336097140118372,0.7742812913218978,1.0987846389057703,0.20792106511622827,0.2003522234404615,1.243850696832587,0.1060714104497851,0.8037960460625307,1.1309595491298896,0.25706089293113,0.018127820617081108,1.1038691499149438
0.09556305975295777,0.5668254944811922,1.425894431046312,0.17352947306350072,0.5797012536182697,0.10767753415447417,0.4629763762868128,0.8667077429633252,0.4920797062185395,0.15095277431373008,0.6318648489490712,0.472858252559289,0.4127136406700426,0.9147605633511209,0.8542662071383278,0.12244991610099934,0.6023488970617575,0.8477356383650803,0.27739876102129846,0.5608630441410943,0.9057332115949094,-0.026527182236386417,0.6552714636267029,1.3247830904956013,0.18993442660397214,0.4425860812813009,1.3942158164482439,-0.1334817995126354,0.7611375068019584,1.0915478148491427,0.2192103250009382,0.21229776578437748,1.2363010837955661,0.1049630144508493,0.8070158157123802,1.1081978033712945,0.2858668947323077,0.045626458191074026,1.08467433437994
0.0968934401525174,0.5703187817634652,1.4278708300152758,0.17444568598103616,0.5790252956414315,0.10575750600795569,0.45272334904280215,0.8163980579746053,0.4340581416025732,0.14882950867140202,0.6308499073513478,0.47078543618125407,0.41591792656297966,0.8957005514139269,0.7923377600788488,0.12010563720228443,0.60208859917625,0.8457059073947379,0.2758652409875275,0.5558228738735792,0.8975836856267687,-0.025760719897057374,0.6565504625300512,1.325401548243852,0.1944189111468675,0.4475075793798016,1.394213710521183,-0.12875504674348506,0.7427503876283756,1.0824841025481382,0.23053717181083344,0.22373557267818886,1.2285420646763014,0.10483093216404406,0.8110436791320786,1.0858755584910071,0.3167356999044944,0.0771353763278672,1.0663855613275894
0.09944349117962192,0.5737646383753756,1.429006094458661,0.17516183763562063,0.578754469388579,0.10426655364886954,0.4418117014705765,0.7630601999822306,0.3798926045678745,0.14844704547847618,0.6314412085481353,0.46909362653779746,0.41700806817735897,0.867040237603002,0.7328593360864546,0.1184114088562166,0.6025949527185437,0.8439022374974902,0.2736430493313982,0.5496713890801148,0.8907620520316344,-0.024060539850829298,0.6572491365987057,1.325723980620593,0.19971773288577063,0.4520618342544844,1.3941811098238701,-0.12137779596896604,0.7227794730363423,1.0741687277450545,0.2430905122114428,0.23591575571827408,1.220322104130732,0.10358726176865424,0.8148645135465984,1.062104756852178,0.3479888066840913,0.11240259907175051,1.0501634513462457
0.1024887306349962,0.5775710694955044,1.4284733145212023,0.1751520924130179,0.5769823661416069,0.10336813371405602,0.42685799883767517,0.710588759614425,0.3305445284912312,0.14871667623107232,0.6311866754074479,0.4679920695374442,0.4139611081292934,0.8321732463579864,0.6784887323156431,0.11727498679216185,0.6023219821820746,0.8426880504909606,0.2716856967826166,0.5441956583926926,0.885934500910708,-0.021802810992853472,0.6587156241199045,1.3243017964632973,0.20498241932278105,0.4586691058890462,1.3931436686716785,-0.11460330093267578,0.7069847117990623,1.0671916365229652,0.2568278466552308,0.24908237814657685,1.2136594639465927,0.10156676419902158,0.8148363343617668,1.0376767882293445,0.3767679208602554,0.15271766558440045,1.0360614119782927
0.10633658589664143,0.5800455155044756,1.42730753785263,0.17537756693659626,0.5750265144636804,0.10219624006588418,0.4100596578254552,0.6588362939703288,0.2874395794151243,0.14847318328899406,0.6320764745037866,0.46635076561039757,0.4080662264056875,0.7956206618167033,0.6299250112589931,0.1170035562429342,0.5992419677976958,0.8407128879511456,0.2721282129798036,0.5399151183190875,0.8796156262138453,-0.020372194803037993,0.6595380909468656,1.3212095888359854,0.21226222560643399,0.4660523675094335,1.3907669794250013,-0.10969933136494729,0.6926569284287297,1.0605000017554427,0.2709914176336383,0.2625994086723744,1.2064213139314812,0.09645214627273083,0.8130482655441297,1.013138606679985,0.4020580957088406,0.1969251882504161,1.0227826217237315
0.11031212619932634,0.5828717987151589,1.4268643916624792,0.17578053893145967,0.5746633316296679,0.10117618035210074,0.3927790750733672,0.6104570869817819,0.2493220127973872,0.14912925518497974,0.6349318369612654,0.46482979791234197,0.39870612580357595,0.7565690519100996,0.5878899725819244,0.11652887218365812,0.5985164333224805,0.8387620575896076,0.2714358238349787,0.5358692184958146,0.8730262012202235,-0.016398225902292587,0.6611526161473862,1.3192399554517993,0.21826160171742598,0.47122510332905687,1.3874706136394708,-0.10233492532004948,0.6780629895168763,1.0558517188322,0.2867977876425169,0.27642815247046754,1.1972469527268677,0.08992417363464113,0.8112296039860674,0.9885009670664582,0.42685583380783776,0.24127989012014195,1.0118781069615705
0.11663230699254531,0.5868793973464396,1.4265709739869656,0.17611252098329383,0.5747915057945109,0.10032969456901662,0.37326786734614464,0.5691957812194102,0.2118927461254606,0.1485762226126834,0.6376217270674461,0.46348214928308074,0.38174499532153156,0.7132972560017529,0.5512625637481264,0.11422904253111074,0.5982722485599726,0.8369677335306296,0.2678458392969054,0.5306117418044236,0.867276863323732,-0.01220729452782694,0.6613216266087458,1.320064726825225,0.22484349485048322,0.4752024019566908,1.3843540251931996,-0.0943334259917178,0.6673217353851366,1.0549884076485965,0.3030366847350294,0.29073718002076354,1.187669916445507,0.08133086010312239,0.8102083940882238,0.9657750256833885,0.44824249110697106,0.28463494530034933,1.0030169119269128
0.12428306144153868,0.5898969560778449,1.425022332721711,0.17217499804074557,0.5725279215826422,0.09840202174580728,0.3523365276140526,0.537061186966073,0.18000641717042093,0.1484012497445818,0.6387534399727005,0.4612229674555084,0.3676036909176962,0.670419486862659,0.5235119574624174,0.11270689305054563,0.5963447701839399,0.8342480084176721,0.2644007310036153,0.5230590742344084,0.8609179773181379,-0.005846708548139017,0.6627889423479562,1.3199414878928342,0.23432668577894247,0.4795315996268454,1.3810642054878322,-0.08624965107780781,0.6590683474027905,1.0542938045309485,0.3173728228823905,0.30609105713189877,1.176482983788273,0.07150637117804667,0.8048523197647698,0.939866026008538,0.4674161747256367,0.32653294728331883,0.9968121849136296
0.1328916846683189,0.5911511337028217,1.4232318595561424,0.16765476970006837,0.5711268204437391,0.09521249353947095,0.33355079269935717,0.5142489311472427,0.15076548084393898,0.14822600244630585,0.639067672864757,0.457980124953618,0.35488330509304533,0.6290464001661514,0.500582396306683,0.11315674306862655,0.5957342180894148,0.8309476176290277,0.26208648448712435,0.5157888895028332,0.853812948747188,0.0014729158525097314,0.6654294177103591,1.318499599097445,0.2442479351529903,0.4827375585545266,1.3772797113115427,-0.07662913849652687,0.6538627997941038,1.0523863714308788,0.32918482347838823,0.32101113947784626,1.1640747823358266,0.06418853063437019,0.798855878905463,0.9168003879002801,0.48150698562049443,0.3670268139488797,0.991177074035142
0.14258070628672218,0.5926654711666025,1.4213164139220293,0.1641831156607178,0.5699631368668875,0.09218063742186974,0.3158014252301593,0.4970839412303252,0.12530169924567383,0.14767102081511652,0.6391381338441223,0.45486105842755425,0.3365468428772854,0.5901812453847644,0.4815506624487933,0.11530279622905572,0.5971863791597718,0.8282301606254542,0.26021735030072857,0.5092729152341056,0.8473821787280076,0.010434756583903877,0.6685569993740624,1.3171021557276101,0.25162642222825626,0.4839997442527688,1.3727185303825091,-0.06656865461016473,0.6505385557973351,1.0510317026574776,0.3376965692268523,0.3339847278246304,1.15155912451585,0.05822511717723147,0.7906070211340095,0.8959787606717928,0.4877842215433187,0.40354124505887656,0.984675374096119
0.15366704375707166,0.5938315247341704,1.4195602693291072,0.16194798123906953,0.5697544418929198,0.08950627193201385,0.30180347142292513,0.4859238042051051,0.10601095246527904,0.1482190541931235,0.6407222346074517,0.45194859038358703,0.3163071862653947,0.5590688914130568,0.4671896450899243,0.11624352624217721,0.5969865106526021,0.8251482068657064,0.2577890420146482,0.5031090378099875,0.8408840308831783,0.01988869580863868,0.671900316124902,1.316231218983389,0.2589334820497654,0.483422539033513,1.3678173170900132,-0.05619629569925453,0.6505930027151595,1.0501461665888638,0.34182292981470863,0.34532500818037737,1.1378521595079998,0.05141981287552026,0.7804874461435376,0.8747024665848543,0.49175433545867747,0.4294997633005659,0.9776968609206392
0.16565598000055778,0.5950379414866818,1.4162794194428288,0.16152034078135544,0.5699927033276255,0.08815895076112701,0.29200695198907506,0.4820518741100057,0.09266755940255288,0.150624790067276,0.6451031927693743,0.4498609313860627,0.30190053268005784,0.5363141702493318,0.4573075859078391,0.11760220260008471,0.5953528211692172,0.8222216982134577,0.2548413472630155,0.49480144201167103,0.8344983765870749,0.02974844509908772,0.6763592141050064,1.31342470771514,0.2681482212053226,0.48146045082228855,1.3627510458594259,-0.045398778566896815,0.6545550576939706,1.047112172690154,0.3433782031309693,0.3538296171284397,1.124255372103187,0.0458431446293985,0.7722881609922015,0.8546314446714528,0.4928855241702499,0.4490591345053303,0.9699945860581017
0.17863827299546406,0.5957486592595254,1.4115701037643935,0.16096733142871178,0.5697966585271891,0.08716633081298251,0.2843518902808817,0.48403692471107646,0.08454400574594566,0.15391585710995545,0.6499641061068033,0.4478725602915243,0.29247796981656493,0.5207554150097111,0.45141802919225854,0.11845470501605322,0.5934764146376651,0.8190483645954169,0.2505158430322817,0.48605864548798855,0.8298901021317957,0.04169947928948244,0.6817159348506036,1.3093497955674043,0.2755263765308497,0.47865586074066524,1.3556297149800989,-0.03358730711369161,0.6587561626007182,1.043174093386921,0.3433477438920381,0.36039692448680916,1.1101847328634686,0.0406982870322112,0.7638553797626487,0.8366113344066182,0.48999137254179004,0.46646815276660425,0.9603192284658952
0.19163233636768492,0.5955943438792155,1.4058432042399989,0.15955374982678233,0.5692519788512951,0.08498686998767148,0.27955936450081,0.4848807985031413,0.07862611747153918,0.15675701438221432,0.6526169952539551,0.44502458554264096,0.2855060934027688,0.5094845348236879,0.44655608193895124,0.11747063801060609,0.589344765081605,0.8147174553885442,0.24603536732314968,0.47777990921760616,0.825563931669178,0.054267818580802714,0.6855048404762479,1.3051415149690504,0.2825352514990917,0.47486065548311834,1.348226157387868,-0.022567678076944434,0.6647239144356238,1.0392284867799242,0.34113258566120475,0.3648549606037304,1.0966504795683742,0.03587611559799254,0.7550693463605787,0.8209290841170047,0.48338337168063944,0.4780713063235327,0.9477717765935455
0.2029132151136801,0.593781664460422,1.3995576252934192,0.15609260084111526,0.5678195718269521,0.08276711944270206,0.2775096622616102,0.48213917640881127,0.07368762472914189,0.15945730561135707,0.6529082156185705,0.4423994344397188,0.2803489487223814,0.4995503949238763,0.44206390275766344,0.11699307889180097,0.5850008549222487,0.8109134493638983,0.24244922918894557,0.46990658262907625,0.8213887850036695,0.06654559943897319,0.6879688863855726,1.3018507458446233,0.28913525473019464,0.4695563304448335,1.3404114574753014,-0.008692755112527342,0.6721534535216708,1.0351458365979638,0.3362972487062811,0.36676314422765066,1.0834332137192608,0.032243704767818585,0.7473040231329539,0.8073036685814953,0.47386673013125596,0.4836685056805666,0.9330287495655372
0.21328816075227044,0.5904558812387302,1.3944492958584875,0.15197488481019156,0.5655988310369149,0.08017373738879047,0.27675101085373377,0.47980792732065664,0.0705351390348202,0.1607573786675568,0.6505569090310094,0.4397505671764235,0.2764318329579784,0.4915456310893352,0.439142906006275,0.11737852084195902,0.5817325659323745,0.8079874375004654,0.23929709179977282,0.4629163116633479,0.8186281010780662,0.08020211027873657,0.691304322044948,1.2950424805911342,0.29440855194376747,0.46473249082303525,1.332598949787531,0.0013829815474087012,0.6756400809771468,1.029356264923423,0.32852084073750354,0.36572621252546367,1.0720960859566926,0.029385383017305318,0.7403493991358897,0.7964123974973618,0.4614098526257794,0.48370616192288557,0.9183647729436568
0.22070144078914922,0.5877626738534331,1.3905263568621355,0.14840137385546215,0.5626125300665532,0.07776046371386758,0.27561033097319615,0.47925649449705626,0.0687173702066532,0.1615731751461507,0.6464234695102,0.43746980489939563,0.27366848508896513,0.48596924294402327,0.4374544496085992,0.11751427896918545,0.5790861182343707,0.8059032660559647,0.23654055519189918,0.4574101163701093,0.8169431078903157,0.09072550834338211,0.6934880549252493,1.2874605722180494,0.2984391160363965,0.45921257811066263,1.3260604542398706,0.008972256906902003,0.675679048452154,1.0228042860710036,0.3180080018187826,0.36204571724996143,1.0633668193477261,0.02982915193006493,0.7375140231632527,0.7883369901982297,0.44743800278907075,0.47650478604690233,0.9041143099988248
0.22750753804511065,0.584469614174141,1.3879052020569158,0.14432789775139399,0.5583527183634109,0.07681526966651403,0.2748095855793001,0.4784203420242405,0.06796872687845015,0.1625552901012816,0.6420939047245654,0.4363227553576314,0.27090783873879226,0.4797235346136136,0.43673844382829985,0.11735209787150681,0.5762766901537192,0.8048938798560171,0.2338524793106492,0.45220778392978334,0.8163157888046325,0.09876250654930678,0.6935545506368591,1.2842536961875655,0.30061541875070613,0.4532585346436232,1.3208431209623388,0.01916390498794773,0.6769312662794573,1.0188684936557126,0.3048901740706442,0.356639522264605,1.0572655637855635,0.03344083448914002,0.7355155929831633,0.78306993757565,0.43135769321668765,0.46527487908049747,0.891684040813453
0.23311948840379124,0.5833070586681817,1.3859546831358645,0.138655047791022,0.5538429847818549,0.07672586734246929,0.274537523075521,0.4768211096792105,0.06815384302140993,0.1637412910728394,0.6367808268603946,0.4359995960935838,0.2687609561598119,0.47432853740250674,0.4369015054390849,0.11792400586809733,0.5742839556383419,0.8050669025124886,0.23093332711672357,0.44703188637158475,0.8164079405968854,0.10642253110839534,0.6938225486628498,1.2838794023687994,0.3010073220757675,0.4487483461500126,1.3177843572891956,0.028665145051990634,0.6795035057639986,1.0178018153407622,0.29281082333776015,0.35134733070404495,1.0545917979908415,0.04141897761687331,0.7349466581736833,0.7811686121559865,0.4157302789479212,0.45237165328157064,0.8816733141233123
0.23683875811318503,0.5821450948670339,1.3859905193468969,0.13206984949190478,0.5490492467033516,0.07714168393623852,0.2746679278280082,0.4753376043294903,0.06837174966222774,0.1646603303207755,0.6290520090944823,0.43648940425684124,0.2658397518315262,0.4700959925662496,0.43703311271400974,0.11864711554637027,0.5742405024932724,0.8067445235864665,0.22741964289411842,0.4432137840680128,0.8165116656745823,0.11288627926615331,0.6956184835558412,1.2849756106881778,0.299771257571263,0.4448170175172031,1.317695800775767,0.03615519908807393,0.6809833854575941,1.0186243290996642,0.2813098127862234,0.34537813574994575,1.0557835517719778,0.05311344083541139,0.7355342962949963,0.7820416914121333,0.3990692714380515,0.43631334699308716,0.8739059489501828
0.23909724983927666,0.5801006515591071,1.3881903773965456,0.12615596075459432,0.5442237037994444,0.0779309389274406,0.27477491095250095,0.47432105311841166,0.06900408818878535,0.1642533297120591,0.6219513757811607,0.4372385248886946,0.2622539378128508,0.46622150196235507,0.4375008220414484,0.11898382180808112,0.5740299516933112,0.8085488736271578,0.22393767872685888,0.4398367074295635,0.8170321695289117,0.11901469949879802,0.6983388036285594,1.2870670424818569,0.29874776987654406,0.440284603698172,1.319595296763104,0.041398064880708074,0.6807301679733679,1.0211507313517183,0.26944818473599685,0.33887592464442085,1.0594267803492872,0.06623755145207208,0.736846115713776,0.7856305879717161,0.3820648010864387,0.4201839874905974,0.8698977645895178
0.24104990578632526,0.5781430411967476,1.3908987243628192,0.1194245138986088,0.5394491962439532,0.07846731153196002,0.2751798328545363,0.4739599462568212,0.06959265647414305,0.16295125195567683,0.6142538295973897,0.43777161466284165,0.259458794954205,0.46251748783321156,0.4378780114544064,0.11970236962564383,0.5743075337734574,0.8102654582248829,0.22148313303775802,0.43762845947208234,0.8175434073496339,0.12358643776787145,0.6994390062710215,1.2907044054110748,0.29690639991813317,0.4362433203400665,1.3212131715344193,0.044842991997885294,0.6816123544561464,1.025133526446884,0.2572230867099676,0.33144592756720254,1.063781104481275,0.08131092098237486,0.7399328971188753,0.7916742831581605,0.3653817142070491,0.40526596439571166,0.8686708114033342
0.24252106950232424,0.5763157668502156,1.3925105698934204,0.11169140584872816,0.5362572232878142,0.07890125383082876,0.27495150266140084,0.47242268950884325,0.07003504988441517,0.16086244921362097,0.6057823867897212,0.438534122096499,0.2554994030560992,0.45874128268565845,0.43807155467527537,0.12034075552716494,0.5749026198962127,0.8121939627978926,0.21836312485942455,0.43543299566631777,0.8179206802704575,0.12664744464315442,0.698216288081747,1.2957456129684293,0.2950812022123112,0.4309796376193766,1.3229176600937094,0.04790473423139194,0.6842341167000355,1.0299444565158458,0.24463528021004755,0.32277529143198486,1.0688052334813072,0.09918347500581398,0.7436450311200831,0.7995629814353322,0.3479841265304365,0.3900694096454458,0.8687967030408101
0.2435756957962649,0.5736990484524851,1.394373598551904,0.10620222509871768,0.5344879494126685,0.07786280549537843,0.27380487522069014,0.4706240900683808,0.07069500080781901,0.15684629330596855,0.5981938862667595,0.43837066319190393,0.25079155391604807,0.4552796892400647,0.43845137822926705,0.12178821843089392,0.5752219948322935,0.8131533154296456,0.2148026474966067,0.4323407063087169,0.818434660980382,0.13015325978066877,0.6979769210975264,1.298977309013315,0.2936303285481887,0.426327051554626,1.3238483497922326,0.05066311108253828,0.6874669956522341,1.0332382121275467,0.23208020434137805,0.3141654262661965,1.073933568973207,0.1187563196686209,0.7487749731629959,0.8077633606296812,0.32980363987481337,0.37295753355968636,0.8684873920901379
0.2440932703169288,0.571269778253122,1.3952557971960198,0.10416588337849454,0.5360727921527615,0.07518552912873612,0.27357338334509795,0.4691087333970479,0.07153184815389728,0.15107166278946385,0.5911130779592572,0.43762182569571223,0.2466409625638515,0.4519001537993307,0.4389478567110166,0.12193676007255308,0.574830538467899,0.8132581205689935,0.2116156551253578,0.4298575130203598,0.8190670175884067,0.1336447701214741,0.6982362536805324,1.3007157488097354,0.2917181151170636,0.422056752773698,1.3243732439015512,0.05327729039450626,0.6903817409101621,1.0351409613629097,0.22127136264472985,0.30760721591584606,1.0778696376725452,0.1366385605462106,0.7530268855041957,0.81523726802126,0.31343512153830705,0.3552202447483343,0.8670314924872632
0.24464452828733427,0.5685001899399323,1.3953748879469856,0.10444922061580589,0.5377095904609548,0.07209446408899063,0.273767484173473,0.4682157117707793,0.07209621893926321,0.14608702637938198,0.5856282500762674,0.4361821186824265,0.2441695719225041,0.44902548412397547,0.43920374391715833,0.12173376367000088,0.5739422951838828,0.812330713983705,0.20885143502739315,0.4274581710161592,0.8193269247228784,0.1376642279973389,0.6973054935291847,1.301799361780706,0.28896302127539486,0.4177613064362311,1.3241028919917923,0.05748971930612404,0.6943653913272598,1.0360725606298173,0.21159837619892172,0.30166756004582845,1.0804526665627494,0.1562708381789768,0.7569705202555543,0.822624605878254,0.29852110835466933,0.33870716232991965,0.865310848111275
0.24398366567093804,0.5662241559084225,1.3949081394740526,0.10429754926935378,0.5368255346731367,0.06998820490014969,0.2736282085742423,0.467521778443493,0.07231612270128336,0.1421897161938057,0.5816410652625253,0.43488166595763006,0.24290194444016364,0.44707777591161335,0.43926248182270805,0.12133272886494983,0.5721679890080726,0.811302079633284,0.20543560726190488,0.4239723475258909,0.8190853166082085,0.14048242300509034,0.6967236100447118,1.3009393398551712,0.28458633468341216,0.414147840158864,1.3228866146652547,0.06087398925477706,0.6981509844117353,1.0350390442166164,0.20290902408739356,0.29681046075064377,1.0812512887498487,0.17802105781448668,0.7610370556691932,0.831181880585573,0.28481344628143285,0.3214644659597416,0.8623857794893133
0.2433326502045939,0.5654220044715357,1.3935714828429135,0.10485345774386388,0.5347337257801461,0.06957108204237974,0.27356946542086774,0.465747343077718,0.07290363741700688,0.13994971869657186,0.5787886040397631,0.4348389732892975,0.24195252991490696,0.4457066189355693,0.43979329492415364,0.12020759877245185,0.5703465907004246,0.8113388489818478,0.20086561489130686,0.4202516523458115,0.8190985224333074,0.14265128192179866,0.697965983935402,1.2981362223976776,0.27988662267672876,0.41066945971004776,1.320648507950617,0.06414629849930234,0.7005774749006944,1.0319177210880794,0.19582398226576408,0.2928053848868439,1.080093034687699,0.20134252495816085,0.7624925803241493,0.8406561792788249,0.2717182845989857,0.30454922567670917,0.8580265482292113
0.2429354555164483,0.5653009174612835,1.3917833996759734,0.10546279036729513,0.5338465446027257,0.06916233468590255,0.2738860907156357,0.46310217029668654,0.07394014987944597,0.13873551732105396,0.5759950645173366,0.4348203351363985,0.2419842257296549,0.4445488484953296,0.44088330000249104,0.11889547428648546,0.5674383737458053,0.8113153488572947,0.1956400334739881,0.4153167506576976,0.8193093951853321,0.14515968044015956,0.6995111871287265,1.2943666250092645,0.27410254750929586,0.40893166430481553,1.3186502862399132,0.06629694238748253,0.7024933338705943,1.02825426784441,0.19068775625586884,0.2900055926959238,1.0783887619327295,0.222063398141013,0.7645332391595946,0.8518330081864313,0.2590190161665987,0.2890341296186063,0.8535682403155994
0.24262404670590376,0.5650857373657681,1.3894285259109858,0.1058139639400803,0.5346198866858903,0.0689905556550122,0.27424874691354756,0.46007847971357124,0.07534349105192165,0.13815996495280805,0.5736493525304123,0.43507777645503093,0.24233452713661344,0.4419856655648779,0.44231122495656233,0.1159004123139016,0.5639114404841616,0.811405454535459,0.18932303147083093,0.4101705321115615,0.8196522603505273,0.1470830912417826,0.7002493354129471,1.291419770085101,0.2672028938544091,0.4075156065269406,1.3174998396554636,0.0694940933473091,0.7059902551868842,1.0249735673625158,0.185574131347983,0.28804336471629893,1.0768884838804162,0.24116424748872878,0.7663682171003094,0.8633546710149262,0.24754474396966522,0.2737773910554245,0.8506813849315282
0.24244952159050293,0.564748294577971,1.3872764234211727,0.10684420867019633,0.5353713531720774,0.0694706018678334,0.2747475965207058,0.45647023139340365,0.07748499556349947,0.13892157420812032,0.5729581306179853,0.43573134282302517,0.24245050347236036,0.4381888240341134,0.44441145714017616,0.1133291728082037,0.5611059672359705,0.8117905022559936,0.18196227991891947,0.4051963838257719,0.8205207417884033,0.15086827089997723,0.7016718575984453,1.2893521823200251,0.26034638233486096,0.40475594706945744,1.3160351859107497,0.07617506849776134,0.708973566613748,1.022113654803237,0.1806430449272882,0.2859389665522474,1.0744654502029662,0.2596430215679123,0.7663356343855381,0.8728350979326321,0.23757186750775178,0.2600221379024373,0.8479679729138994
0.24188979966679486,0.5634083394687385,1.385823170182938,0.10758334475884541,0.5354601189110617,0.06946469975954829,0.2747376935803495,0.45176261522015276,0.0799184891604467,0.13967433448692657,0.571703235238286,0.4358599958140386,0.24266005932565016,0.4319790138940962,0.44677853798493883,0.11170355419184345,0.5573897012314853,0.8116678968245155,0.17482190976565432,0.39924275242706797,0.8216583004635596,0.15430090708522826,0.7018982472150395,1.2876994527326868,0.2535053918714807,0.40264521520447605,1.3137096227864142,0.08215127312992908,0.7112532629797075,1.019835605074279,0.17703368481343904,0.28229964515312805,1.0718511254353318,0.2750239745921004,0.7666543384295461,0.8821140276002882,0.22911761452366702,0.24805798374130128,0.845286117767304
0.2399582415424217,0.561445714378607,1.3847715733450654,0.10750531921489534,0.5347245065836885,0.06899924450161529,0.27377828836845075,0.4445980762145415,0.08227045395006542,0.1398477316389024,0.5689671128732385,0.43556543183998814,0.24238070500886844,0.42457766456064494,0.44918352505740106,0.10883355949249673,0.5526737603771067,0.8110517234888226,0.1677960530856552,0.3930617421566106,0.8228830313045802,0.15704783263379948,0.7012045447658689,1.286402375668568,0.2472474902408235,0.3980769674719683,1.3129948223760568,0.08837449613594164,0.7129057868994447,1.0177166064537526,0.17308257448312847,0.27933203407686025,1.0696324457347348,0.2896139689315839,0.7658355079815999,0.8914734472892017,0.22084671706143003,0.23735394321739692,0.8434246685474007
0.23839049210404226,0.5586880824539018,1.3838728111606184,0.1077696903138474,0.5335253681862272,0.06848625392169186,0.27068800700093193,0.43526826262394186,0.08421931639744891,0.13917327038702582,0.564965824608633,0.43538163957273474,0.24158820617469579,0.41737940785322203,0.4514281746244891,0.10697115774673432,0.5494511761805196,0.8107976218026143,0.16168882002749388,0.38845838862925663,0.8242351493892646,0.15999975288555576,0.7004525405282334,1.2850886636220524,0.24068506479582275,0.39350273328894014,1.3149970451504747,0.09530397619557969,0.7145210751684381,1.0155312458014747,0.17087691125663787,0.27846716731837196,1.0685804420775693,0.3052033227216101,0.7630928642018594,0.9023147545758319,0.21383827797627858,0.22778464865512865,0.8431870251285302
0.23653862633065834,0.5543153108564799,1.3843315033223371,0.10809177517282197,0.533485895822411,0.06810811345541745,0.26324134840169866,0.42185584306386087,0.08620826603797489,0.13789777602172495,0.5605667548708126,0.43549316162131535,0.24059019858340602,0.4099315555065135,0.45411990805215446,0.10680569381143187,0.5464565964847862,0.8110599048497301,0.15636279142540999,0.38394902082424653,0.8261886207856228,0.16361538693275418,0.6985480626675109,1.2844442826403781,0.23361161002126496,0.3903246247608641,1.3161078566929125,0.10057091039059822,0.7149551368494929,1.0146282624717173,0.1669198990869036,0.27622320359561037,1.068409452737321,0.31765554469241347,0.758161232620192,0.9134298675861412,0.20746463453353586,0.21860420115595697,0.8442376969276209
0.23471155351080317,0.5510054234912607,1.3855384046813792,0.1081168701749017,0.533724513785963,0.06860141066091904,0.2516601130232742,0.40430932065754593,0.08863453545388157,0.1373603235085384,0.5572690193133071,0.43627547307398845,0.24037484295570416,0.40140066411772457,0.45724359764040357,0.10638891406471973,0.543528931493564,0.8118638057445651,0.15146985905102273,0.37986926514266284,0.8285085760232479,0.1666917399587517,0.695915512602636,1.2850994386377554,0.2273701006575498,0.38639195901219725,1.317136523284726,0.1054482526170354,0.714994628430017,1.0150498742374072,0.16166295914380646,0.2725872166002461,1.0690338132375754,0.32735351464543105,0.754205621591684,0.9230904384198502,0.20210549530418323,0.21069281241641863,0.8459867030773571
0.23201297433216922,0.5475266831431548,1.3872625663732818,0.10802715257966437,0.5339169400691006,0.06976278687030461,0.23834576965901452,0.3855710510472849,0.09159656870750937,0.13698506581421357,0.5549402999528109,0.43760426214797504,0.2386007738120536,0.3908630948395081,0.46036348524586673,0.10611878979897438,0.5408089573463063,0.8131936492516536,0.146739256798012,0.3761374480857591,0.8312416227683519,0.1691824422522895,0.6925309285054947,1.2873541528168193,0.21966608016731076,0.38212334032927187,1.3206442100695945,0.11075496366011528,0.714630250583437,1.0168985150138496,0.15772901275134912,0.2695643253167845,1.0710018035954778,0.33578817116826964,0.7496707884701718,0.9310610725388678,0.1973296372940442,0.2041503367633982,0.848817240174165
0.2299618274204313,0.5417715868140159,1.3892849579578472,0.10820966692022775,0.5338915298018988,0.06998164693508337,0.22300310284660135,0.36455858530343466,0.0942547662816506,0.13534498591738345,0.5513658063872926,0.43815073487535827,0.2362729093029015,0.378931179506718,0.462533684464918,0.10643353595577432,0.538542876423595,0.8139376565193804,0.14334592390295706,0.3731510228395737,0.833396919500826,0.1703275865309505,0.6890822301262075,1.2903500609455902,0.21370126911064966,0.37816603232505913,1.3234047463373142,0.11501622118925534,0.7123368749070824,1.019336228790904,0.1529530066783247,0.2665289970939858,1.0730561650969308,0.34279665815108484,0.7436220700617319,0.939500361150493,0.1922674299658764,0.19811168986721028,0.8517296332457885
0.22770761422870464,0.5355293901844866,1.390612144225316,0.10883118092782403,0.5327245287454655,0.06983048335119457,0.20507087538119712,0.34110537854599626,0.09594879400280001,0.13456193155236137,0.547438690422188,0.4382132113599585,0.2320522112314741,0.36515892497688507,0.4629747514928656,0.10810105241955009,0.5360588835723578,0.8142349648150343,0.1410501982258376,0.3699086146510599,0.8343244354181507,0.17038966638621275,0.6845658329414364,1.2927192626007273,0.20771811627432296,0.37304965981431587,1.325755117849261,0.11811614734202917,0.7088659142030039,1.0212003107604115,0.14658957772496822,0.2630421344493884,1.0747824702799529,0.348600322850345,0.7356892306145711,0.9477805030155486,0.18773212521445914,0.1932713877138271,0.8542107462561085
0.2245020437049014,0.5290237084452027,1.3924971116208973,0.10912172206311435,0.5312602554613155,0.06977102321127837,0.18580746843132098,0.3157842929041448,0.09738263163620117,0.13347679600468854,0.5439718453136196,0.43832894832691904,0.22660383734680334,0.34958700796705483,0.462352584681995,0.10900825012929001,0.5323088414048625,0.8144714677154011,0.13887366888207806,0.3655401325426975,0.8341785085180501,0.1694021315903065,0.6785157248350813,1.2944608328781944,0.20079434386122946,0.3663385316165027,1.327644989911154,0.12141792375007271,0.7037628694848675,1.0222346503984563,0.14134304577376225,0.2574178401988625,1.075793638166355,0.35370894644212447,0.7298581185142953,0.9544595995072765,0.18608496471548572,0.18905844921724868,0.8554810167428227
0.22085675235190808,0.5220227167322884,1.3943714086226437,0.10897504323050286,0.53086255500073,0.06922157949626269,0.16652661394648238,0.29011886772907675,0.09973850367503109,0.13126249823269817,0.5393475822760219,0.4380281715872327,0.22069610530048556,0.3341069019392009,0.4618730872536678,0.11033724305654415,0.528633874924704,0.8144113290078262,0.136365999067139,0.3611840147330918,0.8338399157786689,0.1694926934211486,0.6732665616625658,1.2958434608463092,0.1948567025824715,0.35973736479161855,1.3285191225054969,0.12464832875644377,0.6983281620729698,1.0230690201398212,0.13511857049206896,0.25165768288469753,1.0763748903108123,0.3582799104289372,0.7248435222362956,0.9602555143753337,0.1876107175378323,0.18629681417284732,0.8568585163203919
0.21762279896504663,0.5157967096247678,1.3951173099016412,0.10862769942816214,0.5307423300174636,0.06876625152675826,0.14825794512893173,0.2632674563154671,0.1031001823584755,0.129132491778176,0.5354555268133128,0.43774005138643274,0.21436434388496584,0.3177864633286014,0.46180098775979783,0.11171743520217561,0.5245147087559086,0.8142942709407308,0.13458834985263657,0.3566054410176774,0.8337371590279755,0.16924709897896256,0.6673079512814081,1.2968203237723315,0.1889467566928238,0.3539676351577218,1.329165610291322,0.1261485429515828,0.6921206343246217,1.0237434932040068,0.1260667894247023,0.24511024250645078,1.078116625674519,0.3612146431570115,0.7171890892851194,0.965871875554365,0.18965746175268,0.18337400554632757,0.8604942302043974
0.21537066863968088,0.5085257189311913,1.395311264820574,0.10811099148290258,0.5303404205595782,0.06813024417931966,0.13247482562363147,0.23697837336066777,0.10595079266770135,0.12723267876404754,0.5320757158555477,0.43721611728671683,0.20735512707242637,0.3002406884824805,0.4614869875354266,0.11285002457634634,0.5199164567622784,0.813861603639179,0.13349960954377169,0.35169907098518316,0.8331123188685989,0.16698785758937762,0.660992670659201,1.297629399723944,0.18367090074214415,0.3477229613033328,1.329147171129734,0.12695618683292612,0.6849300720123147,1.024011582789052,0.11668520740025995,0.23871115612990446,1.0792409925561082,0.36332609312453074,0.7087063276556265,0.9711053403988469,0.19297977336799113,0.18100725299746373,0.8646163651313203
0.21396834815242632,0.5008909999943713,1.3955362963887368,0.10805474954033284,0.5294356484407204,0.06755550153278471,0.11933636348726129,0.2120310343171766,0.10833470979219989,0.1251092536097388,0.528417503413755,0.43673939656707933,0.19868491232900395,0.283498959012915,0.461329954030889,0.11466978884356677,0.5153612740360732,0.8134890737939467,0.13272840056665938,0.3468299230300148,0.8326060626927109,0.1665647057334748,0.6542769803376367,1.298555201982316,0.17879110392216166,0.34029612373961193,1.3298873517986824,0.12779701860595982,0.6767001101524641,1.0246287355814232,0.11046739205027827,0.23180672841764519,1.0801098194852519,0.36503392170028787,0.7004198332810889,0.9757081804906349,0.19533246908569488,0.17802713791091188,0.867689166281958
0.21303539771109248,0.4939596719808962,1.3955254966461015,0.10800058922693664,0.52877830228079,0.06783506121572772,0.10840855385204337,0.18807667801672276,0.11038007075784637,0.12375692746711223,0.5249511238175729,0.43706138871181927,0.1892028548306123,0.26658927197161014,0.46154582024314444,0.11606393115850255,0.5109050497878924,0.8138362436545843,0.13087170393436692,0.341928945510933,0.831855389667416,0.16727396090316682,0.647432307844021,1.2989254750643828,0.17607749280212717,0.3321402166163935,1.3307564773253633,0.12686004130865683,0.6676664860885142,1.0250535994287555,0.10473682768005897,0.22504210501940256,1.0812199481694453,0.3645757068600888,0.6938026351291323,0.9798427469283425,0.19756178864756826,0.17480063903387952,0.8712822788162742
0.2108524332488168,0.48593736748937394,1.395486911018621,0.10725663965332961,0.5291672499393266,0.06845639927676413,0.09926488134112138,0.16512119681288834,0.11203891101349146,0.12355853136966707,0.521795165194261,0.43759761501155514,0.1804496357073709,0.2502952622152729,0.4615538510601989,0.11590693301898074,0.5056181677099736,0.814288853513656,0.12879022826860484,0.3363112639150458,0.830520901611107,0.1646404833536318,0.6396356160388159,1.300465751453695,0.17509543070022102,0.3230245631933614,1.3310614731952852,0.12877955822665502,0.6598868473934608,1.025963095827024,0.0982810858432154,0.21749703626531247,1.0824876115231519,0.36684500639365497,0.6859432378585074,0.9825894553389515,0.20144148983076615,0.1730425330654719,0.876103727611368
0.21052427547102845,0.4779625842614853,1.394426458683102,0.10710116654999399,0.5287100289291795,0.06813638629466934,0.09266789169961685,0.14446894405835714,0.11226901543277958,0.1234939611707534,0.5184954839947288,0.4372026761136524,0.17221410829929196,0.23477842536321156,0.4608704076978291,0.11561328675595793,0.5005394649958582,0.8138129643094041,0.126833179779663,0.3309450220667949,0.8281610658784003,0.1631962395389521,0.6311473383081806,1.3008449625799463,0.1724311857889864,0.31518243276712155,1.330957040029408,0.13108683964859902,0.6517266078524505,1.025908109068575,0.09251032395524186,0.20950569790701026,1.083417558085186,0.36954891331465517,0.6768598761223757,0.9842035999258664,0.20671335219838188,0.1720022691626088,0.8815134050840049
0.20960021508071236,0.4680784058603783,1.3937856539628002,0.10711170075680883,0.5274741069552588,0.0675148621622722,0.08837139896370316,0.12498577801584768,0.11180339190229287,0.12329658261532189,0.5152021408532231,0.43653558978509305,0.16331853615434216,0.2207598096932616,0.4599738535171024,0.11561140553509308,0.4950209206724337,0.813033080161419,0.12468509346413452,0.325173252700682,0.8257798367651532,0.16402678364603757,0.6233247314174716,1.300406599944059,0.1690672162885621,0.30649462794613325,1.331043755627787,0.1315763757376721,0.642258468128381,1.0253882351128352,0.0870386297027059,0.20134645567830864,1.083978441307547,0.37031623033366134,0.6692891101688416,0.9865676826331407,0.21246554326275935,0.17101689371125697,0.8876030023412992
0.20881708346543262,0.45796048221559005,1.3926865736143066,0.10742462023978715,0.527341147958624,0.06736794432854554,0.08478636434595538,0.10578247302716358,0.11098308857345057,0.1253229081698261,0.5127404711241562,0.4362223131268294,0.15526227921870983,0.20912944713269485,0.4579203024840152,0.11449667008597025,0.4886239298525799,0.8124102726618965,0.12225295090034795,0.3185436720460949,0.8228157818671983,0.16435110409667608,0.6131567505938723,1.2994283267238944,0.16687008689581073,0.2969572748201733,1.330608533041498,0.1317991621193896,0.6327990609406451,1.024481956103978,0.0811195182969766,0.1935904817070119,1.084050226998195,0.37058978830935285,0.6624421071929529,0.987926975897416,0.21722079696196553,0.17041792722410484,0.8939022313974436
0.20836522742682928,0.4479308640997474,1.389999546784634,0.1069841323338768,0.5279852447161186,0.0674949768559778,0.08003326766886962,0.09029490139825426,0.10895210652448271,0.12926667382550505,0.5109829930297333,0.436011414878441,0.14771379999647918,0.19993235534561735,0.45450654360494164,0.11398408518987702,0.4817030528325271,0.8116790110910307,0.12046527769513808,0.3114172276451445,0.819246351534592,0.1649291868756449,0.6018995518661181,1.2967814561308726,0.16480891632815628,0.2867385729804185,1.3292195890637086,0.13400378379322314,0.6231744166113746,1.0217507005435351,0.07781641383444736,0.18417537590229066,1.0827602414451476,0.3730140911258828,0.6550312039910405,0.9886463835446571,0.22373527829667003,0.16836428652468025,0.8992615157913779
0.20800340148684127,0.43716693621658903,1.3869868442231488,0.1071082450347858,0.5270160754271631,0.06679932964542774,0.07528879561830804,0.08019600758335686,0.10444804936111252,0.1333643383201386,0.5090816232460383,0.43501057499472756,0.14049482837229604,0.19154163299748656,0.44993326169184783,0.11410147645444389,0.4731962935407667,0.8099168985845729,0.11958828112178044,0.3028023389729553,0.8151612188509036,0.16539746112228867,0.591765092639915,1.2930340623813665,0.16366799574875762,0.2757114300320318,1.326493182011443,0.13643148640372685,0.6114772056505803,1.0176831036388008,0.07507719093977244,0.174446829711734,1.0800654028340289,0.37573453290006303,0.6460988017805884,0.9899781200762223,0.23057485793299293,0.16583165077098258,0.9041047809902717
0.20787602948035205,0.42634200970431424,1.3834617599163133,0.10778352369788831,0.5264362949058277,0.06580302244839104,0.07076875578646777,0.07459763657675698,0.09791560775832454,0.1383886592425351,0.5061634234321323,0.4335568452787081,0.13225387973415062,0.1826654968428718,0.4451190232676413,0.11354482333649654,0.46361015774219777,0.8074390646834374,0.11780203763622853,0.2931298152536724,0.8109023516889275,0.16588536884868593,0.5815794429560186,1.289037031395139,0.16221729178461383,0.2660217451219806,1.323696596801157,0.13907333409760986,0.5994803402190672,1.0133485920750513,0.07236955970580528,0.16516609308036137,1.0775661714296554,0.3786492329600552,0.6370132107314134,0.992677949278065,0.2366120981594084,0.16338571723561235,0.9095356972387584
0.2082013034430206,0.41553582174622355,1.379306618687668,0.10865938158146962,0.5259931766329543,0.06572041365478379,0.06690820728276838,0.07113472588729791,0.0921863341169068,0.1446441311542528,0.5040622165808096,0.4328912877799849,0.12466177243130303,0.1745599546966604,0.4414472232731718,0.11299681732110017,0.4535761763736047,0.8052778628111954,0.11607102341290781,0.28305711575148695,0.8079976331759104,0.1650262694972783,0.5715105790972468,1.2838909281464566,0.1611600364137975,0.255647196213644,1.3208289892073986,0.1416512371162398,0.587117432863313,1.0077522260590575,0.07133451827155687,0.15536535380473265,1.0744530394021146,0.3811789386303494,0.6288479786274922,0.9968856986762288,0.2427420439044055,0.16079507474536064,0.9138151057231494
0.20858503324132605,0.4043206990889327,1.3757053471211833,0.10929489939266154,0.5257175753591002,0.06587907690496914,0.06333830204888803,0.06969982921883622,0.08694698327000633,0.1507748622241493,0.5025418538759655,0.43239275160107843,0.11774386413668637,0.16830761324951227,0.43812588485193027,0.11251391581966128,0.44272744254309626,0.8027648993306191,0.11498105792302635,0.2722094168264982,0.8060989196758566,0.16412221330379465,0.5584862907175597,1.2788001692531246,0.16019607152262488,0.2441326751103968,1.3178084861055177,0.1440746276858628,0.5753048596541164,1.0024735224613812,0.07189476918779704,0.14465724670226382,1.0705597806177412,0.3832155265824308,0.6205306415733371,1.002033320144422,0.24920258778219379,0.15896549489779851,0.9170235172796577
0.2096001092545295,0.39311825764086167,1.3729000902369446,0.10962423365714218,0.5261486627428561,0.06580981320406756,0.06082725412058573,0.07035059980855353,0.08242321269483709,0.15589840155295454,0.49944598419220554,0.43150713176196687,0.11211688613811052,0.16405381574666036,0.4354088873294876,0.11191030900062254,0.4322956810342741,0.7999736209027983,0.11437450441092821,0.2618150680079566,0.8050671348637968,0.1626808745386006,0.5443934929655495,1.2749585736249587,0.1588603231355764,0.2329314375811247,1.315334015989765,0.14636219845149384,0.5650294540192381,0.9986378266812643,0.07198428716440683,0.13400386007771745,1.0673567252033123,0.3847009944929663,0.613286046497626,1.0087029503701115,0.2549144896268855,0.15597972778450478,0.921523575478428
0.20964151214493257,0.38186052131589465,1.3712368400055985,0.10962649256566614,0.5262404007105094,0.0656147226097794,0.05889929592046659,0.07136052377364356,0.0783313812978364,0.1573446108914626,0.49590953399059057,0.4308428619817795,0.107207042959054,0.1607378097999338,0.43285995991216175,0.11123159801172151,0.42248799952566407,0.797858280344056,0.11346592166244868,0.2520449112317755,0.8041119816429015,0.16188773986202334,0.5325320731442387,1.2724211729672374,0.15805953021461217,0.2215511352431261,1.3138517511129486,0.14925527484941842,0.5537262264696612,0.995948281025008,0.07185972292830028,0.12382065724318794,1.0651647257215187,0.3857885640201161,0.606933293042497,1.0172203478110842,0.2598672744577676,0.15016765976007299,0.926697945555325
0.20909827765836755,0.3708577036684658,1.3698350766569825,0.11006796580471606,0.5254344283882509,0.06527761550391008,0.057083991726132245,0.07179277991229474,0.07500545287522123,0.15651533010774452,0.49218611335500834,0.4304179160135927,0.1037829688900343,0.15708641092062506,0.43074558169620414,0.11029626723495763,0.41276011937163104,0.7961659241926393,0.11214169014870387,0.24235039623489232,0.8033980916384545,0.16130515022349104,0.5223670741869652,1.270654293379247,0.15733058622267837,0.21014335321777555,1.31333597274678,0.1530885905449452,0.5408349826151408,0.9938206920020266,0.0721201071899281,0.11356061836162125,1.0638597683266975,0.3858845251881204,0.601924650194232,1.029971402828693,0.2639454829068059,0.1428158796268201,0.9313391520740049
0.2090702564446704,0.36114838750659733,1.3691385355449808,0.1102483707437423,0.5245970149411043,0.06541915905907637,0.056110778852337714,0.07081261751063424,0.07375445340921875,0.1548411060393004,0.48802043719342236,0.43046874987318995,0.10157771628541135,0.15320739570501635,0.4303460214527836,0.10915203372961534,0.40393744845262836,0.7952419687229311,0.11035753183676407,0.23360161577040214,0.804069157156554,0.16083493620079437,0.5116741933138571,1.270103996219588,0.15648117204609316,0.19956255261020053,1.313336870010945,0.15601840874755749,0.528040360244508,0.9930580262483447,0.071630839998968,0.10237231901084794,1.063975881918612,0.38327874523998706,0.59771390127239,1.045330996878612,0.2662099711241094,0.13568039668978188,0.9365149011532731
0.20811620516240992,0.35177796073296197,1.3702879537270398,0.1098151936478183,0.5248520412928228,0.06593193493417225,0.05598473061696549,0.07042714889673969,0.07342712665287227,0.15230012786917735,0.48379037644241385,0.4307642031929523,0.09946259534868385,0.14916829414347843,0.4310908222783255,0.10864870766590234,0.39505433090061143,0.7946842590802203,0.10947679398565752,0.2248497118709701,0.8057633459367551,0.1594882529683165,0.5011436471448464,1.271046483746809,0.15615240864114624,0.18955221312714746,1.3150107406631917,0.15941759420675908,0.5162528248063603,0.9938894893059907,0.07063740170648997,0.09135707839245055,1.066267414116315,0.3803002978368044,0.5927867153447641,1.06159391577218,0.26726595295135547,0.1281684724056853,0.9429959717017784
0.2066055679144935,0.3428923480605093,1.3722578730363972,0.11027939476517504,0.5244516186734711,0.06653629386120205,0.05674192090868227,0.07012184755299312,0.07345420767890544,0.1486983037043288,0.4784400329710875,0.43121768518052894,0.0977950377225654,0.1446303934661064,0.4323084398274275,0.1076391181202284,0.3876957582329949,0.7949488680328107,0.10941379600488262,0.2175922336365793,0.8074662261254484,0.15818330472950995,0.49111274812065336,1.2724843420188565,0.15534368123939687,0.17969407743023555,1.3176267023612207,0.16415344729852657,0.5065168625115326,0.995402914232742,0.06773426095967816,0.08107938476578953,1.0697846901735908,0.3778633918368081,0.5870515479313864,1.0795438540391749,0.26598957031417897,0.11781892676254174,0.9491109870155598
0.20587204891076452,0.33374136891478773,1.3745691960414017,0.11013014741321965,0.5237201756282118,0.06754981905521419,0.05660774601528123,0.06945902990491098,0.07366355665577538,0.14465070805770502,0.472994969314087,0.4319999268268128,0.09618587150376029,0.1408200002120092,0.4333202773161033,0.10697346850789116,0.3814684688537481,0.7958901282846921,0.10808259918447695,0.21140050499663446,0.8089331083144745,0.15739917170532208,0.4817427178995469,1.2745190491710066,0.15403405499134423,0.17124237055664326,1.3200881496377885,0.16878838932869936,0.4986088448336423,0.9977006091630336,0.06425590345939747,0.0718870668218619,1.073317426615093,0.3758721147832491,0.5799106732751604,1.0964101569641067,0.2638238910673548,0.10731836155632705,0.9544352202775256
0.20444435706947373,0.32566759072409884,1.3765721366463834,0.10980699360805202,0.5233313037192353,0.06839381179504464,0.05616953053410368,0.06888540713900328,0.07361908343896015,0.14001839208561812,0.46680587623876735,0.4323744374609852,0.09506229422487365,0.13763110329857745,0.43385940201548545,0.10489845205507375,0.37497414572767285,0.7964488539801035,0.106311316712518,0.20495195594500454,0.8100921105922869,0.15641654112647557,0.47180242215104906,1.2760654147009185,0.15063625374391332,0.16274890376603104,1.3224156541304009,0.17331860810913938,0.49203586995216425,0.9997483838469068,0.06175502728781831,0.06271791173554109,1.0755900731666426,0.3726551598093117,0.573393860878575,1.113236684900642,0.26170304260392885,0.097711085571276,0.9572237747091661
0.20237721894630623,0.31813853060683606,1.3783663256078216,0.10976180398941913,0.5228593561110064,0.06919544389397035,0.056396829372762906,0.06843774237110607,0.07368839360026905,0.13599375994735666,0.4615204209456504,0.4327063671676488,0.09461448672217893,0.1349893902658386,0.43441545500514994,0.10401096266891083,0.369620051860314,0.7970516481393278,0.1055803034898706,0.19963470231917882,0.8111186096022619,0.15576532948510843,0.46462263139076443,1.2778990672900514,0.1485342997301552,0.1545861496955168,1.324535724116598,0.1766657058725009,0.4875770315368628,1.002066129565196,0.05873355331562754,0.05369242683587307,1.0783974878739981,0.3676275315983948,0.569982157203541,1.1284596524430603,0.25815494842416414,0.08659665451800874,0.9585482633264462
0.20033894498050217,0.31199636542571413,1.379614822831068,0.10953271985728459,0.5218262372872919,0.0691684688298706,0.055887556042144605,0.06809342080818569,0.0737257098825957,0.13216196348667741,0.4568694219681225,0.4322844194507053,0.09413155918003088,0.13308537165075934,0.4347312213690158,0.10353631212657664,0.3647393157926295,0.7968542558069955,0.10520674869232527,0.19483725138228405,0.8119128803881743,0.15409276360835794,0.4579595305503867,1.2784319006329952,0.148127909772718,0.1466299065036445,1.3257534234933348,0.17884877871462806,0.484777590844239,1.0032692001370689,0.05518841226250645,0.04538509804685362,1.0809334969183206,0.36076692759892065,0.5677162881714762,1.142049062708024,0.2543091508795797,0.07609917197573123,0.9600109102968379
0.19820243954127728,0.3061141070882549,1.3804308793174567,0.10935615906634873,0.5212890462149586,0.06848072871775787,0.055846995797285325,0.0679333268900023,0.07298997047429853,0.1279036757451431,0.4525093932730989,0.4311313837699051,0.0932628157846841,0.13127416132991396,0.4343670949438381,0.10158111327347374,0.35970430130665837,0.7957071115810401,0.10488925349485201,0.1899455601814105,0.8120305797969588,0.15115904359394303,0.45104233102132324,1.2780184481305121,0.14595245309441315,0.13919289142057845,1.3268800764299695,0.18188546862931193,0.4814160635179285,1.003827360104619,0.05250603705353567,0.03814303683139186,1.0821701418183303,0.3546616090776253,0.5638208012855928,1.1541371428957294,0.25111761129835247,0.06677123101349841,0.9598967333164342
0.19575248447675134,0.301066145628331,1.3806632188413002,0.10895593637973713,0.521480263487429,0.06834606335168361,0.056157756510871695,0.06801894398389587,0.0723890357375622,0.1245777416261808,0.4492724002746289,0.43046469376061264,0.09279895977903918,0.12947365027941268,0.43417373424068995,0.10215441048979008,0.3566933513598058,0.7953552730734788,0.10502817126599527,0.18696107300168946,0.8120003314335316,0.15093279230260123,0.44724149612525216,1.2790054112561045,0.14451672315905809,0.13440041871857933,1.3268403006851657,0.18636778859711492,0.4800479294397371,1.0056596202067796,0.04975454968975143,0.030882209253117705,1.0836724669751066,0.3512542327062001,0.5617326223309063,1.1649589186614362,0.24601841445030698,0.056468735249078916,0.9570146832089146
0.1936648114853667,0.2963522392415159,1.3803826607277534,0.10804552207842574,0.5205198312132324,0.06795271301180858,0.055706455176568526,0.06742787045015314,0.07188208398069529,0.12184967360398548,0.4462619233041246,0.42973065929862425,0.09283407991830941,0.12780453299021022,0.43380294427219057,0.10069831194042207,0.3531021208614147,0.79455002043664,0.10458311057088647,0.18346337890157405,0.811915119042563,0.1489461792797347,0.4428171165636987,1.2795252934700796,0.1436959802958335,0.13010010420988113,1.3257952621678104,0.18831789598858586,0.4799849154100096,1.0072823472556918,0.0458233616777084,0.023402440915968683,1.08524941672995,0.3469438911575883,0.5611713886486933,1.1730590703709436,0.23897970517011125,0.04517242618996049,0.9532126344749369
0.19179270818872998,0.29176044187382055,1.3803098471793886,0.1081654312242975,0.5207697865580375,0.0676825617419206,0.05562583069855099,0.06653067310659308,0.0718341530305447,0.11973472316159084,0.44334885876140817,0.42888095489206307,0.09243353732264545,0.1266824092557368,0.43382340990975143,0.0987693794787653,0.3487916563246641,0.7933505630152926,0.10451245447906142,0.17937751537369467,0.8123539887463183,0.14491430554047108,0.43718861066539205,1.2785281756044866,0.14208324176492046,0.12515135808030398,1.324980753458032,0.18841335687374766,0.4808335862046672,1.0078871575821378,0.042526572253964626,0.017271732555647467,1.0856494836156292,0.3425633655821761,0.5590057077046994,1.179237873484874,0.23275230243780273,0.03360479618397331,0.9486742174182486
0.1899883661326426,0.2881472844195038,1.3806818913796501,0.10785048614878538,0.5211053813075108,0.06783740879100905,0.05573280440626116,0.06746778046808463,0.07126855665628513,0.11830318715752997,0.4416964518487343,0.4286338340011782,0.09165382067072292,0.1254762479624233,0.4336986737023238,0.09795572467958324,0.34557281961441405,0.7927228143282209,0.1044051739399148,0.17627276289471996,0.8124684945429613,0.14303651739795845,0.4330956146476692,1.2779520565366433,0.14095198103835543,0.12089440156322294,1.3239511472755048,0.18832067539183622,0.48122044796236524,1.0083599306875843,0.04000009041623875,0.01203360533624461,1.085653751180435,0.3386079919728007,0.5585756623825744,1.1834676811312637,0.2276761434543436,0.025512617175652546,0.9449082221104858
0.18885201322544717,0.28493177838276684,1.3807526451685486,0.10673894244266494,0.5202125346783417,0.06809472189770847,0.055401807800128745,0.06770848322801779,0.07111235178589008,0.11776135464185472,0.44097570923453894,0.4289114954531455,0.09129399004548663,0.12405564196019075,0.4338108875675237,0.09597122148169523,0.34283080441884867,0.792377200990418,0.10310948280616816,0.17363090727837255,0.81276585196832,0.14239605119446858,0.42951551267451765,1.2785137522997647,0.14031065514198135,0.11770751609924657,1.3240744397953843,0.18637885583460145,0.4819933953950739,1.0095234805576998,0.03873778067585601,0.007112826051441574,1.086839270284806,0.3342974579134427,0.5576971306751689,1.187349370207827,0.2226543796292088,0.017973709385433995,0.9409972862566546
0.18701751511653783,0.28211583767217097,1.3809641829592678,0.10605963100752308,0.5184856434737369,0.0687762856236397,0.055205310309307316,0.06726403006514697,0.07113126903677676,0.11807430053000821,0.4400640726519961,0.4297380344986335,0.09107122566628373,0.12323802657519989,0.4338904231800691,0.0935383998406751,0.3404654535576948,0.7926357569426352,0.1009840482423446,0.1712871215504698,0.813100936691892,0.14059759000939026,0.4268020393769574,1.2788314563499967,0.1389506513268395,0.1149288177173501,1.3242241193022433,0.18392459618601428,0.48370086426845565,1.0106292736088045,0.03709808690039361,0.002536334972438597,1.0879568672634978,0.32915950281411843,0.5564488791539423,1.1918702621470896,0.21774622496357238,0.010080811744314569,0.937870150928162
0.18505792429442647,0.2807671374277592,1.3811215535385413,0.10545798024465429,0.5175497672961834,0.0690407579243438,0.05507083346149881,0.06708055531731806,0.07064673707417234,0.11789295005887697,0.4399909487367884,0.4301705617631954,0.08984752723494116,0.12298485582754617,0.43351937263706664,0.09281629677255553,0.3391559568082161,0.7926952021384375,0.10076674403301526,0.16996535580337774,0.8128383336767967,0.13932903160552723,0.4244458481484594,1.2789736681245432,0.13819563943354088,0.11195207378638564,1.3234559459209272,0.18110030278966033,0.485749779721264,1.0114994977508636,0.03540981608022995,-0.001705404423375965,1.0882005264914802,0.32419794348988046,0.5568087369739825,1.1950966370293115,0.21355604329631464,0.003378156727313636,0.9350536400612296
0.18349201066305157,0.2797271230076287,1.3807738678019092,0.10506818857498386,0.5171012943574329,0.06920102635449048,0.05495771120541178,0.06759291224749592,0.07002447051043112,0.11819024836599061,0.4401348579289545,0.4304368154011101,0.08834020048466984,0.12244464079105649,0.4331825187928005,0.09158396350737823,0.33867049433450175,0.7926725765423884,0.09999710729812467,0.16946934690426202,0.8124769510942624,0.13770352707835476,0.4244330675829527,1.2795147519170633,0.13751428964642864,0.10985243677756876,1.3239824905176099,0.17877603381242796,0.4881577988800295,1.0124934722518155,0.03522399475653224,-0.00515914713015095,1.089172015945763,0.3197363271127171,0.5574249347578537,1.1984136525353835,0.21000194987686108,-0.0024232368506189087,0.9321307671262242
0.181774556032428,0.27827111706079605,1.380966143143501,0.10489679232510694,0.5164486403958972,0.06992182624822568,0.05458279728517272,0.06801683989115441,0.07008284961320095,0.11863058184318433,0.44042926630671253,0.43133943595020807,0.08710837505426601,0.12276021988041692,0.4333419462064857,0.08934876299367933,0.3378523933242578,0.793049616446934,0.09896100572672166,0.16869667425151685,0.8127635760391392,0.1348898638374103,0.42462926436983256,1.2796176951358282,0.13784671636263232,0.10846442476185959,1.3246334765892567,0.17662100586277607,0.4896679786761951,1.0130234422461561,0.03639168968796359,-0.008024275243553912,1.0901867002996464,0.3143454468820925,0.5586169968407767,1.2014678888628367,0.208311939647656,-0.007055466014830869,0.9300111279620171
0.18115346172818614,0.2780479319902132,1.38083588388196,0.10444473304901146,0.5159040385651991,0.07086805524303677,0.05415718008609059,0.06879424752518316,0.0703518303927969,0.11947106106964529,0.442046333598144,0.4326819297268618,0.0856595867725187,0.12380070720482056,0.4336615906369127,0.08798763649724325,0.33724127903582335,0.7935662230468193,0.09855671755246542,0.1681405968571443,0.8132323932678783,0.1335010815546344,0.4231131394569267,1.2800466612379793,0.13876240760343275,0.10734730750237274,1.3247677008030647,0.17332957922833162,0.4926291964715104,1.0142914180354194,0.03803455235282445,-0.010164160068707184,1.0905182764244592,0.3106766995623412,0.5603846713086336,1.2034515541855326,0.20706467258745845,-0.009866374050197985,0.9272876739020914
0.1800111878173084,0.2794162131757038,1.3803697930481882,0.10382062245585161,0.5151321005435109,0.07178588128961784,0.05395503798081476,0.06882461186520054,0.07055107362859515,0.12112328247302943,0.444575394076788,0.4341577617595832,0.08393615434209334,0.1254258960693554,0.43374769972062865,0.0875509959856115,0.337770378634651,0.7942742042366118,0.09808929942583731,0.1686047834837154,0.813405694818005,0.133536753864988,0.42292693443205054,1.2808385474783743,0.13903028205715184,0.10784727413579293,1.3240743507896262,0.16902131845404836,0.49712996010672417,1.0157323743470383,0.04108488702804974,-0.011924615421644129,1.089791042175975,0.30765610078489547,0.5627309714270425,1.2047048389636357,0.20774364715966145,-0.010863021640089583,0.9241393912816587
0.17936241421278007,0.28028489781146415,1.3799029825931246,0.10388106690068385,0.5155567836864205,0.07156758397999055,0.05369028424080286,0.06898821112992408,0.07001654532189408,0.12208844351495055,0.4480104084376552,0.4344616866049886,0.08151181855685595,0.12643004288282259,0.43325139331063395,0.08433602776263868,0.3377314336683845,0.7931136598185158,0.09740702651088891,0.16881977562703437,0.8129305070664039,0.1302378860973587,0.42342578274154463,1.2811167431068602,0.14051629800491566,0.10759787342832455,1.3240301419634168,0.16363525090428138,0.5029247962346749,1.0172797355906937,0.046770896906283936,-0.012320624715090147,1.0881073111528834,0.3056407383947371,0.5658886736654986,1.2046433849364768,0.21025023057975817,-0.009652242397887496,0.9193383952801691
0.17822491358439346,0.28084834799044284,1.3793406388448282,0.1050362593908173,0.5179624576895114,0.07132653976820306,0.052815318349504876,0.0693725084782484,0.0694128885345247,0.1225550995479932,0.45229119262235284,0.43460315264598925,0.07834566493097636,0.12646272322188426,0.4328692148696482,0.07994650067308862,0.33801332015444563,0.7914527542131301,0.09607060950366358,0.16950376400528977,0.8123967684702494,0.12543992049636735,0.42498109762253305,1.2818154025413617,0.14364950436129545,0.10589209597919913,1.324310512978731,0.1564882915797129,0.5085701067036077,1.0189603131737774,0.054620513999893275,-0.011896376638048158,1.0855105763323063,0.30419173365022506,0.571321471649192,1.2019360098097327,0.21415492520740664,-0.006557805478584284,0.9130680016120505
0.17695209577141024,0.28245800083507,1.378688116747804,0.10788247804331681,0.5212826457943847,0.0716771381620011,0.052133951459829284,0.06940441564330763,0.06978722318455229,0.123757637535315,0.4582152594622838,0.4354986607711329,0.07635709175672063,0.1266683246878339,0.4333030751994958,0.07837062996334963,0.3396427987863696,0.7905941905308194,0.09576744511349908,0.17138893366268512,0.8125503454225167,0.12271041920266423,0.42740595387611835,1.2827002023100293,0.1488064342085844,0.10645792524130608,1.322909170722778,0.14673981557932225,0.5153440914777697,1.020527245716511,0.06500301398429746,-0.010897901718133983,1.082004708840289,0.3018683419365562,0.5821893275906247,1.1957390864387576,0.22142663547910335,-0.0005865496726074516,0.9069600943693469
0.17542081972311804,0.285093268037963,1.3777315187622572,0.11043257197246417,0.5231088545714951,0.07191907029601538,0.05208931580401559,0.06894226035758531,0.06973127386363169,0.12523243846150442,0.46562613912593115,0.4367072424654689,0.07530475622410351,0.12713437983776543,0.43316770385594583,0.07513411527948138,0.34107340870424474,0.7891086814980027,0.09543700337757327,0.1732979832468698,0.8122045154636216,0.11900399567116045,0.43016449041641774,1.2837212127192639,0.15297916415006912,0.1081112814036371,1.3192294797512678,0.13249953999477648,0.5234304393314609,1.0226404417229484,0.07890877643897203,-0.008498228682308841,1.0748053997839384,0.2991587125882962,0.5950662120502878,1.1848873893936214,0.2341894839266431,0.01146169869800399,0.8995813339811014
0.1749058761220877,0.2881147587146863,1.3767752963382838,0.11180829362800744,0.5241789952476648,0.07338309379604115,0.05217188785528532,0.06902617553611369,0.06938409690826357,0.12681206396536188,0.4746411221541924,0.4393147491718247,0.07392863716972213,0.12737091417803048,0.43288697075730437,0.07134356951403699,0.3435292121506034,0.7885301633125243,0.09437189777694008,0.17610044105724532,0.811585890726237,0.11594851210032991,0.4333315255385751,1.2852576467219627,0.15700635160477083,0.11124687436109501,1.3158526623627003,0.117924726594339,0.530687181637197,1.0253304882766494,0.09804880397294774,-0.002808748391927882,1.0661711047433526,0.29801576344890135,0.6101383654223578,1.1684736699359415,0.2501059403971265,0.02775240721063507,0.8896516088382793
0.17483102923422303,0.2923286121755912,1.3753163497890861,0.11241435082911833,0.5254798425535527,0.07563752308602147,0.05182447402352497,0.06858032415398228,0.06948397485545228,0.1283765439198452,0.4838584607783042,0.44252129009229246,0.07242525054588496,0.12895315187667136,0.4327204874505519,0.06869835820706269,0.34562357065136445,0.7882691350809239,0.09467322061600611,0.17861142674029462,0.8111953576757397,0.1133883501440149,0.43643010274700494,1.286086490587568,0.1637732782958711,0.11527355835445718,1.3123505402788855,0.10470925188554213,0.5378772542704071,1.0278677676495143,0.11904860203904544,0.004877304277643177,1.0581107100095102,0.2969636817020247,0.629879565400457,1.145375153754875,0.2647140004175334,0.04592872142587692,0.8783529507179375
0.17453894663487637,0.2969350066614296,1.3738746125683696,0.11318607864773095,0.5260031225341898,0.07818940178926378,0.05167522622346305,0.06852040900961079,0.06893960246663013,0.12973615665681598,0.4932319521026644,0.44594473083506514,0.07120929699125224,0.13034355025448566,0.4319934900889641,0.06534932830404507,0.34809948634443255,0.7880063591170574,0.09644878628355792,0.18184635340406607,0.8100300587528977,0.10761314576354032,0.43994152470635295,1.2876161358378218,0.1702959203008326,0.12026159142854344,1.3082475573879093,0.08887668768072504,0.5454122665240617,1.0315463676674475,0.13954437401964798,0.015144151949521182,1.049732950993981,0.28975596345237603,0.6551941718417795,1.1141861468518601,0.2774667245708777,0.06699380181888842,0.866691496237143
0.17224613895703858,0.3024397543163875,1.3719931999734827,0.11611931041353665,0.5255190124661314,0.08103383432261238,0.05134541852703757,0.06893756372376873,0.06858508761177692,0.13206616026460657,0.5021619063224799,0.4495275497414363,0.07044667329055886,0.13166970022514415,0.4314979367908205,0.06311596945912694,0.35080176380054146,0.7879927558473637,0.09793235139393414,0.1851598988833227,0.8091052266324599,0.10040293585088925,0.44256885836187154,1.2905081007978216,0.1752899885980299,0.12740605208994074,1.3038464053838996,0.07218045998460539,0.5508331303158049,1.036487801569579,0.15979106105824162,0.028292896018663385,1.04161993109351,0.27248755460950663,0.6841380371107152,1.0730750661382493,0.2931870208727019,0.09168846153988904,0.858857026866818
0.16961425706143488,0.308870275785584,1.370281444136218,0.11976430525162446,0.5256804335313487,0.08363151319414627,0.05136892470601978,0.06924187800562834,0.0681386812076092,0.13428442230029336,0.5116228124983881,0.45265604215741845,0.07050942175952726,0.1329801647273799,0.4308773739488121,0.06161004114439052,0.3542873808840057,0.7875944567753534,0.10023358348782102,0.18939111000864478,0.8078936152748944,0.09190513185684158,0.4461273972110065,1.2926804252744382,0.18203524893450257,0.135017448260526,1.2997544925460132,0.05775181691890846,0.5574692151635072,1.0407284746553906,0.18161469799225008,0.04598395766499789,1.033484751923066,0.24820821785506156,0.7081358590767721,1.024585149254362,0.31254672869678024,0.12336209721166952,0.854365782194291
0.1666141363815527,0.3160725494883257,1.3688210234737748,0.1236385317848221,0.5269080660976617,0.08632802420197411,0.05119642341573531,0.06882492036766501,0.06752029083104986,0.1369152346938842,0.5229227037615582,0.45564409071863365,0.0714584094355098,0.13431775032502227,0.4298939696999749,0.0609385425180318,0.35820845393834766,0.7862756215905209,0.10316978010204401,0.19416554006955206,0.8062219518407271,0.08412612735228196,0.451773346240337,1.2933807514927707,0.18646347654476136,0.14316421610476807,1.2969080660201564,0.04181975164886048,0.5655823622311869,1.0437810485440768,0.2034475094292576,0.06743553406043082,1.0270877999588914,0.21017993227663123,0.7258835052065233,0.9717344100349271,0.33177855907584614,0.16153493414291004,0.854199756203089
0.16272680764200798,0.3245080426617007,1.3671804473171802,0.13004271361666278,0.5288111624133571,0.08837276807502818,0.051638174241621246,0.06879960917724295,0.0670055227159607,0.13993846273935742,0.53406484006905,0.4577850157328378,0.0731326918720109,0.13662422208074726,0.42888299057601476,0.06068795348730425,0.36377609860086385,0.7847977537809446,0.10748438151526375,0.20090944842140945,0.804234794735732,0.07467509129150658,0.45851732978606535,1.291462732978974,0.19042886166066622,0.15389546373816945,1.2950624021848718,0.02415012873790067,0.5714560280188741,1.0429886093695881,0.22416989883508096,0.09189806791591518,1.0233198552738123,0.15505041769784744,0.7334770896014018,0.9171092967914544,0.3504318391835015,0.2074596718599104,0.8623277843523633
0.15468209349710474,0.3340591255968962,1.3662197406790444,0.1381286796007054,0.5330643028801172,0.08882674484413253,0.05193457944481359,0.06965169749458076,0.06677972390345865,0.1445699777665787,0.5433291973054022,0.45821203940116784,0.07622181639623504,0.14025906678904446,0.4279371398840215,0.062480619565806965,0.36973754992975155,0.7827750832961025,0.11564624713505554,0.2088127077636818,0.8020398424985871,0.05993530909355508,0.4637272379766478,1.2879153789137856,0.1972394221206501,0.16920896478616393,1.2964142678031683,0.0031549495249920973,0.5715969072331192,1.0385437256299441,0.2451755768889574,0.12239125627779814,1.023768084893864,0.08619510445180982,0.7251379259836075,0.8689470619911552,0.3684314134362738,0.26055002985362935,0.879065687620568
0.1451925291103001,0.34520322968351647,1.36550457474768,0.14714003768857742,0.5376901546589453,0.08800314652454119,0.05148487431151988,0.06997593379854122,0.06644027230523974,0.14946274095846057,0.5541324438823949,0.45720643750229045,0.08132779160040052,0.14500093857088486,0.42628234422696254,0.06645705024167782,0.37555018891453884,0.7788237745265264,0.12708781303027952,0.21739451386026934,0.7989365561203805,0.04450295272602386,0.46887979048509143,1.283015178210435,0.20153256357852978,0.18625525060992956,1.298885841213594,-0.023861521826552032,0.5647340346561138,1.0316443892026357,0.2645906882751037,0.15699415846466647,1.0268653091392639,0.010695315813149132,0.7039367890784289,0.8350217088248564,0.3818287101998264,0.31722893259262813,0.9011833014782865
0.13541087871288288,0.3580988089234848,1.364522633009679,0.15719766629848683,0.5419434997457168,0.08551641572604007,0.05182444208356805,0.06945357358682146,0.06659896185590337,0.15363244856530864,0.56575490342138,0.45430770025029604,0.09093092188931802,0.14921531551374934,0.42454147795957353,0.07156137264231377,0.3824583663023754,0.7735064837219429,0.13960392495886884,0.22761387647316944,0.7956108189871047,0.03107503224346186,0.4767807238890124,1.2775131081796147,0.20320182199362738,0.20467215602043226,1.301628798311165,-0.051141640375043436,0.5537860820767325,1.0238207275588849,0.2824811767091096,0.19630080177717388,1.032426548877887,-0.06407485096056617,0.6713397857018266,0.8111134667855807,0.39034469178622166,0.3787130533537352,0.9309103869611076
0.12096024981064582,0.37117333173478434,1.3633006073319367,0.16823175138970511,0.545230131604111,0.08140281166666108,0.05362483685151674,0.06846717670022695,0.06731858046918429,0.15802601996063928,0.5777339106664572,0.44940579410158676,0.10479376762546919,0.15368391688153205,0.42246625048664666,0.07806916817879117,0.3919432307566596,0.7676912854468837,0.15390150907289302,0.24102076799543354,0.7914788021223244,0.014686173428055008,0.48217138894430145,1.272706306036215,0.20529184418769433,0.22773317250660713,1.3056911103140667,-0.0820844089861391,0.5364151356338179,1.0182774835862853,0.30196026051406794,0.24016738383578276,1.0423946814328866,-0.12945390255138362,0.6304402188750158,0.7988437451922824,0.39382436276571703,0.4414923751059554,0.9633763283199274
0.10555312564308902,0.38510654867662747,1.3621958089444217,0.17550893116753719,0.5450637082119989,0.07788956099459575,0.055999646991470454,0.0667750480073144,0.07167427213611706,0.16332861719066083,0.5880377906088575,0.4447632060158139,0.12355262236115312,0.16049108198688164,0.421913464940034,0.08571877183825895,0.4026531452922226,0.7638722709587139,0.1711236855085017,0.2571275591956914,0.7887999413203292,-0.007317159543110271,0.4829005387483948,1.2689732293693154,0.20874946215560716,0.25518617333907845,1.3114669886754988,-0.11838428391107622,0.5154429391273921,1.0166785492036323,0.3189588166313221,0.2809920579755937,1.0545277929846921,-0.1833436989991939,0.5894822179365671,0.7941261286830427,0.3918772807630214,0.49676017207834366,0.996731615370475
0.09079251969732566,0.39868540398369423,1.3612061219496006,0.17699115979562138,0.5440678381029359,0.07384517974824942,0.060517580249296724,0.06511382192440555,0.08146956184311198,0.16884311545060604,0.5952993601481121,0.4397710418733443,0.15112292707479058,0.16884417115448425,0.423582160666379,0.09301500406287921,0.41567900104777833,0.762574767681735,0.18851778871953148,0.276750179354642,0.7885041671251789,-0.03160198398281775,0.4812379271406955,1.2655282662674634,0.2085209769687484,0.28300089522917843,1.317492249888277,-0.15175373102166537,0.4902364350527365,1.0154753748350822,0.3314244605403623,0.31736487120417495,1.06741314978474,-0.22584015768931107,0.55724688041302,0.7935443625350606,0.3866076469899918,0.5424675983241981,1.028724292778993
0.07419742126968204,0.4099733300645136,1.3602753408394113,0.17704884340068788,0.5441137240046459,0.07089294866492309,0.073373399126635,0.062385494155084445,0.10006802264534782,0.1705560510961178,0.6046403769194958,0.43542609756532225,0.19029619826249675,0.18031544881860748,0.4293556442079297,0.09982246124545534,0.4295495607174233,0.7618557882368453,0.20711256884025805,0.3004201717029673,0.7919848574047508,-0.055321453882493085,0.47672211676144927,1.262888423773999,0.20437860799963176,0.3094747196096128,1.3233685575372711,-0.17840376124185936,0.46370448527943675,1.0144370933906766,0.3432441161107416,0.35358639586232626,1.0833746207260737,-0.2602322903322716,0.5331008173788175,0.7959863169205489,0.3868878356623292,0.5822597812221999,1.0514314099572946
0.05706717601567694,0.4189659414486874,1.360579682165956,0.17624469184844252,0.5451708712425507,0.07000755511520929,0.10004222430820706,0.05675989418402655,0.12865274351529174,0.16989779190453141,0.6145935078180196,0.43295542566077766,0.23874544997658875,0.1984029721833348,0.439637629021363,0.10545098652737472,0.4459510124677389,0.7640439226559655,0.222226562958898,0.3267604088231483,0.7994337257892217,-0.07582499717978534,0.47139667224865955,1.2613953132822164,0.19842884381422993,0.3334077850024355,1.3282583529048162,-0.19691980562916733,0.44412528100233134,1.013133379217937,0.3519913198387353,0.3866175123132352,1.0993141768365413,-0.28694552551477454,0.5180662653687195,0.799438669959328,0.39110323339622227,0.6155134573387275,1.063390261732335
0.04221721718089094,0.4245638434632387,1.362335808692018,0.1762524663123171,0.5462797816970902,0.07028015307226297,0.13930306789164412,0.05256272262399892,0.16679549862879378,0.16650592923663304,0.6223312426356694,0.4318160348913146,0.2928338488871295,0.22600972203394198,0.453772721249469,0.10714351838150224,0.4625743150230972,0.7682302595156384,0.2331564054884944,0.3549996656934432,0.8087517023907962,-0.0926489900130151,0.46376241644289906,1.2603666111873757,0.1910048081747365,0.3531645891948779,1.3324109784861635,-0.2118367958980707,0.4297574757002529,1.0120089600540363,0.3547498134366809,0.4134693191392679,1.1124595367112038,-0.30731123056261217,0.5158219493061487,0.8053384203440256,0.4031315664938329,0.6380426966646796,1.063024585852502
0.029981287732036364,0.42832808483462714,1.3648452927837589,0.17590070608470854,0.5475113653005018,0.07180205586631089,0.18494873286648433,0.05574127010182954,0.22200676032597666,0.1610365206430092,0.6275426235357052,0.4322995516403747,0.3537509381363781,0.26550682652508845,0.4740257355800864,0.10634548220556363,0.4774642848547498,0.7739166967326269,0.24086189997666654,0.3832013052120934,0.8198821696045732,-0.10558405648848064,0.45143684912411763,1.2588345878961633,0.18324793241968645,0.3695642727325859,1.337273104144589,-0.22365094042008124,0.4187960332334918,1.0097525881919283,0.3532870324692791,0.4304193734145198,1.1223019877793246,-0.32169230839809876,0.52609142359188,0.8145313255810547,0.4268127927518901,0.6435806470016445,1.0561870985765107
0.018213042434487327,0.4325398236484616,1.3669380972586542,0.17594596713081115,0.548015105908007,0.0727898937545622,0.23580111828808006,0.06819933050804367,0.29507851532665635,0.1549964375230975,0.6286591232619666,0.4328607637460807,0.4125295089058845,0.3188346940316903,0.4999204508992897,0.1058322746529183,0.4902417274839968,0.7801889948258953,0.24667894298911958,0.4093807535313599,0.8323427225793572,-0.11753495704766886,0.4405684445837148,1.2589168203370782,0.17618882634368202,0.3835191565141063,1.3400804102671775,-0.2328990994750259,0.41555393123126805,1.007702839638602,0.35174096419745987,0.43973367924748075,1.1283085069827223,-0.32958447540607544,0.5485689511808675,0.8282681751662289,0.449869730474263,0.6348822047920938,1.0416778127805362
0.009149666833643011,0.4339095885190417,1.3693036270938126,0.17621222274006562,0.5479873428762492,0.07266684213425507,0.2960352898363357,0.09165265634102628,0.3765253678889829,0.1486735271589928,0.6265105933657983,0.4327532076990271,0.46336475403678634,0.3822908533258356,0.5299312317137824,0.10582756601681795,0.4985278677500985,0.7848860297821114,0.2510589006675662,0.43148828099868297,0.8441203269398179,-0.12704395015518566,0.43301933897298645,1.2596834718002123,0.17071361761236423,0.39336821287026286,1.3419709378547762,-0.2406613055200078,0.4187346289043925,1.0068347159052786,0.350341349332335,0.4412500539767192,1.131577283684216,-0.33199244759007496,0.5812772996276605,0.8503995925568398,0.4702956543073611,0.6103652638850097,1.0209965430210863
0.0023688410085549974,0.4326143494579259,1.3725138127352294,0.17497258465894702,0.5472316888326938,0.0727150506208974,0.3637394037041702,0.13045970066003723,0.4579072271459793,0.14130312611103585,0.6247078643709828,0.4325128113861122,0.5118787368483246,0.4493310954717006,0.5692103365957828,0.10640529025787045,0.5053242822830888,0.7885272584324662,0.25512517512382976,0.45164982136789716,0.8525456691554292,-0.13589244261642974,0.42844081576368065,1.260456727624672,0.16563584049418234,0.4002022208162131,1.3435227654160793,-0.24816187458011968,0.4287915483159519,1.006601501086648,0.34833338439762174,0.4326013260080343,1.132816576819184,-0.32819666883678955,0.6198191750418214,0.8787846841449709,0.4880742675239843,0.5678788160325712,1.0009587182362334
-0.0032734062562880585,0.43302546215457416,1.3755165826602611,0.1735944613707656,0.5468459473395114,0.07283255097999196,0.4346782826243997,0.1841858213104605,0.5316065300782429,0.1337731410327545,0.6220925646919339,0.4324727336633782,0.550966509428726,0.5232551699700914,0.6183152595372076,0.10658078346690153,0.512643972686247,0.792332592263473,0.2580186845498239,0.46995219385410264,0.8582112618080268,-0.14212140306560833,0.4282402286867656,1.2619898143996984,0.1604677958604773,0.40297032725052806,1.3440311638534557,-0.25697015934717343,0.4485577138237966,1.0101127709428552,0.34462484478137906,0.41772344286738644,1.132613566174004,-0.31628595002863014,0.6642755219267376,0.914296729108367,0.49962545539967884,0.5129413692480524,0.9838703151229505
-0.00672815055113574,0.43583596585728207,1.376620133526618,0.17303231396190516,0.547164587406458,0.07324159867927765,0.5114160092184709,0.24969586750016337,0.5996204217674173,0.12912944995026485,0.620578885849862,0.43279184969414336,0.5735647442397768,0.6039966149482714,0.6809674339836258,0.10894629999825806,0.5198296217764311,0.7956400334585146,0.26054340357218364,0.48562591846783504,0.8659378313447982,-0.14611246063774622,0.4301143024780717,1.2653085941770503,0.15602195888411935,0.4040122110275447,1.3431009291653462,-0.2658429313318316,0.47504325775800227,1.0189515167695578,0.33970301382243395,0.39413254671065245,1.1309876534697016,-0.2947852925678034,0.7082226138921318,0.9555517660248941,0.5018715593236078,0.4474377274051554,0.9695118733177424
-0.0069545680265687875,0.4371559372399085,1.3764210888416146,0.17382413229083837,0.5473299936126056,0.07489915414988996,0.5866527745610725,0.3261765122879188,0.6613680389226139,0.12824562182596558,0.6206606102207518,0.43424997166883017,0.5787297357542036,0.6831389861717276,0.7537108758186473,0.1143888953797976,0.528690996689456,0.7997132298292047,0.2646097270814308,0.5027976004682212,0.8762453612759435,-0.1506072687159118,0.433606663582711,1.2682883264770854,0.15236495118528148,0.40330844927458914,1.3418042526656608,-0.27847042598865074,0.5050445433443561,1.0325001387019739,0.3313298675465505,0.3589832886610957,1.1300683200438586,-0.27033546013223514,0.7454386223233821,0.9954092358860719,0.49406281412050196,0.37325852793394254,0.9611579147434496
-0.006050199560351587,0.4383135085546742,1.3756594065385428,0.17449614433692764,0.5485359524789876,0.07882929500349325,0.6520607231379578,0.41769778741010194,0.7147839535498588,0.1294743500123803,0.6200921585994379,0.43860535751596585,0.564443831076724,0.7556276234979447,0.833670407370183,0.12143422603356036,0.5387347599464708,0.8067572126725964,0.2686005841268929,0.5202641864381256,0.8909929920502172,-0.1535667706766394,0.441319322187915,1.269956699346555,0.15116104176991021,0.3995476422746742,1.3417322609710747,-0.28798386006579213,0.542075296284572,1.0489910657943602,0.3206877582521408,0.3219238429060707,1.1318118311686538,-0.24219240296982975,0.7806176633273446,1.0336539467282715,0.48117093298146396,0.2975705166922051,0.9619111526193931
-0.0027751501317215773,0.4408407672609518,1.3735830647917076,0.17494903189381944,0.5505332689393811,0.08363828741919233,0.7149082653908971,0.5261287872293188,0.7592662115088711,0.1329911186755923,0.6209350460478246,0.444024425485021,0.5373086180796781,0.8092525888811034,0.9151673791689685,0.1298642160738207,0.5471503733656693,0.8138333579270702,0.27240359901734595,0.5336460139950434,0.9065495656349665,-0.15438717083726666,0.4514603965763544,1.2721265976777412,0.15183954898997026,0.394204457348897,1.3422406925200443,-0.2870082732027395,0.5843482574963622,1.0676849057193272,0.3056899410331151,0.28330693197346934,1.1352096231901694,-0.20231243530210186,0.8125212308186596,1.0677094286684916,0.4585229944949083,0.22422397717542716,0.9667830793517319
0.003648731890489313,0.4437520493686189,1.3702397148049204,0.17651399961442182,0.5541149883016062,0.08873135621404729,0.7675833692150248,0.6624628778467082,0.8118656726720757,0.13929833840585806,0.6251311964996786,0.449506581198209,0.49939570448286574,0.8423121327021209,0.9900276136812726,0.1366059701094779,0.5554747739858363,0.820126471740738,0.2726378406946068,0.5420174687634245,0.9221382198407215,-0.14972271686250813,0.4648423844720433,1.2755578321735068,0.15170765019402038,0.3867906675606051,1.3393801366826876,-0.2812957729805584,0.6232376450678243,1.0894278007403737,0.2934396074302916,0.2489211272842681,1.1400489631404083,-0.1533540998183421,0.8301490339446546,1.096753982037476,0.421969327653108,0.14641850305392493,0.9721662823621543
0.010461402326061816,0.44705427570660133,1.3662654704573869,0.17908948254223467,0.5579588076846868,0.09590839608566328,0.7832108942006429,0.820920505541248,0.8742987369963744,0.14652439830300332,0.6309667055635823,0.45673691179281456,0.4623426208019939,0.8640327594761559,1.050931186206899,0.13988128017810458,0.5655374602537592,0.8280806645875622,0.2717271535634998,0.5532744251895721,0.9355966436601759,-0.14331393359435426,0.478136922379107,1.2784481013134414,0.1520033664618769,0.37903512571024206,1.3375377632916603,-0.2693775607030584,0.6597988316636574,1.1106594748052634,0.28047833882992584,0.21894497526199433,1.1459865072071054,-0.10344208935933101,0.8373328054869403,1.1241798605712394,0.3817396058554884,0.07545508728265768,0.989871916530808
0.016798735962771722,0.450921519028937,1.363084944212606,0.18230301777182287,0.5640335518261331,0.10408388207440919,0.7539310960394293,0.9894461310599115,0.9474430911243659,0.15331197641111233,0.6399971733891952,0.46461284528069696,0.4343239535656843,0.8775156471917541,1.0934963807097544,0.14174405022978126,0.57766627998986,0.8363590199745101,0.2715007783060909,0.5644228794750235,0.9462746620462381,-0.13670760950393795,0.49592388611192023,1.279540037264982,0.15360643238195773,0.3731358846512067,1.3383489398634467,-0.2505617859282366,0.699656791974952,1.1292752575053737,0.25872052401296436,0.18733139575983987,1.155984164995786,-0.05793386342454611,0.847374419243459,1.1468224327753647,0.33586766854963135,0.017039622067159383,1.013632988838735
0.024701863066362587,0.45544220441270716,1.3622402753610148,0.1859056524663006,0.5707504072619827,0.11054202875173769,0.6788888416089986,1.1242277361660926,1.040665142794862,0.15775332323650068,0.6495301856742223,0.47052915288504377,0.40903006130762454,0.8868457328202415,1.1233124126256433,0.14491583469265487,0.5884424116334551,0.8424428760856618,0.27316462350724646,0.5722198478661152,0.9537309265116586,-0.12342406114604135,0.5120791874855478,1.282465236868166,0.15531009974505275,0.36859594467033424,1.3398122796706518,-0.22582811771513694,0.7312022998448664,1.146294657703446,0.23295479598113966,0.15649017346171412,1.1730535157355253,-0.01532416558197561,0.8521379331883399,1.1635859265299056,0.2876186371215642,-0.03046203677498372,1.0416126441375146
0.03407872321762361,0.46342302261527796,1.3621736811267344,0.18895396022304936,0.5778113230897407,0.1167668977005012,0.5863310545160966,1.2011784100540053,1.1365796871565417,0.15935271319343589,0.6567494222372162,0.47660383867764555,0.3843945700528938,0.8927120764495913,1.145359246203136,0.14779414885365066,0.5952612313652954,0.848491871453599,0.27717694237416174,0.5770193587833307,0.9581460288250965,-0.10532687008617425,0.5300792572318048,1.2870698981582986,0.15823788354681406,0.3634488912227843,1.3445507678414728,-0.20324407825547777,0.7584447404360019,1.1633306588302803,0.20863001256026054,0.13397862622401097,1.1908343971126416,0.018874354149936476,0.856643123096751,1.1793519530097714,0.24130834679513263,-0.06396957131799427,1.0685130754092294
0.04518,0.47116,1.36375,0.189,0.58281,0.12041,0.52065,1.23899,1.18918,0.15842,0.66082,0.48036,0.3656,0.90589,1.1573,0.15242,0.59997,0.85249,0.28363,0.58825,0.96085,-0.08686,0.54486,1.29152,0.16234,0.36238,1.35142,-0.18088,0.78018,1.17823,0.18775,0.12103,1.21024,0.05249,0.8484,1.1893,0.20042,-0.08486,1.0977
,,,,,,,,,,,,,,,,,,,,,,,,,,,,,,,,,,,,,,
,,,,,,,,,,,,,,,,,,,,,,,,,,,,,,,,,,,,,,
,,,,,,,,,,,,,,,,,,,,,,,,,,,,,,,,,,,,,,
,,,,,,,,,,,,,,,,,,,,,,,,,,,,,,,,,,,,,,
,,,,,,,,,,,,,,,,,,,,,,,,,,,,,,,,,,,,,,
,,,,,,,,,,,,,,,,,,,,,,,,,,,,,,,,,,,,,,
,,,,,,,,,,,,,,,,,,,,,,,,,,,,,,,,,,,,,,
,,,,,,,,,,,,,,,,,,,,,,,,,,,,,,,,,,,,,,
,,,,,,,,,,,,,,,,,,,,,,,,,,,,,,,,,,,,,,
,,,,,,,,,,,,,,,,,,,,,,,,,,,,,,,,,,,,,,
,,,,,,,,,,,,,,,,,,,,,,,,,,,,,,,,,,,,,,
,,,,,,,,,,,,,,,,,,,,,,,,,,,,,,,,,,,,,,
,,,,,,,,,,,,,,,,,,,,,,,,,,,,,,,,,,,,,,
,,,,,,,,,,,,,,,,,,,,,,,,,,,,,,,,,,,,,,
,,,,,,,,,,,,,,,,,,,,,,,,,,,,,,,,,,,,,,
,,,,,,,,,,,,,,,,,,,,,,,,,,,,,,,,,,,,,,
,,,,,,,,,,,,,,,,,,,,,,,,,,,,,,,,,,,,,,
,,,,,,,,,,,,,,,,,,,,,,,,,,,,,,,,,,,,,,
,,,,,,,,,,,,,,,,,,,,,,,,,,,,,,,,,,,,,,
,,,,,,,,,,,,,,,,,,,,,,,,,,,,,,,,,,,,,,
,,,,,,,,,,,,,,,,,,,,,,,,,,,,,,,,,,,,,,
,,,,,,,,,,,,,,,,,,,,,,,,,,,,,,,,,,,,,,
,,,,,,,,,,,,,,,,,,,,,,,,,,,,,,,,,,,,,,
,,,,,,,,,,,,,,,,,,,,,,,,,,,,,,,,,,,,,,
,,,,,,,,,,,,,,,,,,,,,,,,,,,,,,,,,,,,,,
,,,,,,,,,,,,,,,,,,,,,,,,,,,,,,,,,,,,,,
,,,,,,,,,,,,,,,,,,,,,,,,,,,,,,,,,,,,,,
,,,,,,,,,,,,,,,,,,,,,,,,,,,,,,,,,,,,,,
,,,,,,,,,,,,,,,,,,,,,,,,,,,,,,,,,,,,,,
,,,,,,,,,,,,,,,,,,,,,,,,,,,,,,,,,,,,,,
,,,,,,,,,,,,,,,,,,,,,,,,,,,,,,,,,,,,,,
,,,,,,,,,,,,,,,,,,,,,,,,,,,,,,,,,,,,,,
,,,,,,,,,,,,,,,,,,,,,,,,,,,,,,,,,,,,,,
,,,,,,,,,,,,,,,,,,,,,,,,,,,,,,,,,,,,,,
,,,,,,,,,,,,,,,,,,,,,,,,,,,,,,,,,,,,,,
,,,,,,,,,,,,,,,,,,,,,,,,,,,,,,,,,,,,,,
,,,,,,,,,,,,,,,,,,,,,,,,,,,,,,,,,,,,,,
,,,,,,,,,,,,,,,,,,,,,,,,,,,,,,,,,,,,,,
,,,,,,,,,,,,,,,,,,,,,,,,,,,,,,,,,,,,,,
,,,,,,,,,,,,,,,,,,,,,,,,,,,,,,,,,,,,,,
,,,,,,,,,,,,,,,,,,,,,,,,,,,,,,,,,,,,,,
,,,,,,,,,,,,,,,,,,,,,,,,,,,,,,,,,,,,,,
,,,,,,,,,,,,,,,,,,,,,,,,,,,,,,,,,,,,,,
,,,,,,,,,,,,,,,,,,,,,,,,,,,,,,,,,,,,,,
,,,,,,,,,,,,,,,,,,,,,,,,,,,,,,,,,,,,,,
,,,,,,,,,,,,,,,,,,,,,,,,,,,,,,,,,,,,,,
,,,,,,,,,,,,,,,,,,,,,,,,,,,,,,,,,,,,,,
,,,,,,,,,,,,,,,,,,,,,,,,,,,,,,,,,,,,,,
,,,,,,,,,,,,,,,,,,,,,,,,,,,,,,,,,,,,,,
,,,,,,,,,,,,,,,,,,,,,,,,,,,,,,,,,,,,,,
,,,,,,,,,,,,,,,,,,,,,,,,,,,,,,,,,,,,,,
,,,,,,,,,,,,,,,,,,,,,,,,,,,,,,,,,,,,,,
,,,,,,,,,,,,,,,,,,,,,,,,,,,,,,,,,,,,,,
,,,,,,,,,,,,,,,,,,,,,,,,,,,,,,,,,,,,,,
,,,,,,,,,,,,,,,,,,,,,,,,,,,,,,,,,,,,,,
,,,,,,,,,,,,,,,,,,,,,,,,,,,,,,,,,,,,,,
,,,,,,,,,,,,,,,,,,,,,,,,,,,,,,,,,,,,,,
,,,,,,,,,,,,,,,,,,,,,,,,,,,,,,,,,,,,,,
,,,,,,,,,,,,,,,,,,,,,,,,,,,,,,,,,,,,,,
,,,,,,,,,,,,,,,,,,,,,,,,,,,,,,,,,,,,,,
,,,,,,,,,,,,,,,,,,,,,,,,,,,,,,,,,,,,,,
,,,,,,,,,,,,,,,,,,,,,,,,,,,,,,,,,,,,,,
,,,,,,,,,,,,,,,,,,,,,,,,,,,,,,,,,,,,,,
,,,,,,,,,,,,,,,,,,,,,,,,,,,,,,,,,,,,,,
,,,,,,,,,,,,,,,,,,,,,,,,,,,,,,,,,,,,,,
,,,,,,,,,,,,,,,,,,,,,,,,,,,,,,,,,,,,,,
,,,,,,,,,,,,,,,,,,,,,,,,,,,,,,,,,,,,,,
,,,,,,,,,,,,,,,,,,,,,,,,,,,,,,,,,,,,,,
,,,,,,,,,,,,,,,,,,,,,,,,,,,,,,,,,,,,,,
,,,,,,,,,,,,,,,,,,,,,,,,,,,,,,,,,,,,,,
,,,,,,,,,,,,,,,,,,,,,,,,,,,,,,,,,,,,,,
,,,,,,,,,,,,,,,,,,,,,,,,,,,,,,,,,,,,,,
,,,,,,,,,,,,,,,,,,,,,,,,,,,,,,,,,,,,,,
,,,,,,,,,,,,,,,,,,,,,,,,,,,,,,,,,,,,,,
,,,,,,,,,,,,,,,,,,,,,,,,,,,,,,,,,,,,,,
,,,,,,,,,,,,,,,,,,,,,,,,,,,,,,,,,,,,,,
,,,,,,,,,,,,,,,,,,,,,,,,,,,,,,,,,,,,,,
,,,,,,,,,,,,,,,,,,,,,,,,,,,,,,,,,,,,,,
,,,,,,,,,,,,,,,,,,,,,,,,,,,,,,,,,,,,,,
,,,,,,,,,,,,,,,,,,,,,,,,,,,,,,,,,,,,,,
,,,,,,,,,,,,,,,,,,,,,,,,,,,,,,,,,,,,,,
,,,,,,,,,,,,,,,,,,,,,,,,,,,,,,,,,,,,,,
,,,,,,,,,,,,,,,,,,,,,,,,,,,,,,,,,,,,,,
,,,,,,,,,,,,,,,,,,,,,,,,,,,,,,,,,,,,,,
,,,,,,,,,,,,,,,,,,,,,,,,,,,,,,,,,,,,,,
,,,,,,,,,,,,,,,,,,,,,,,,,,,,,,,,,,,,,,
,,,,,,,,,,,,,,,,,,,,,,,,,,,,,,,,,,,,,,
,,,,,,,,,,,,,,,,,,,,,,,,,,,,,,,,,,,,,,
,,,,,,,,,,,,,,,,,,,,,,,,,,,,,,,,,,,,,,
,,,,,,,,,,,,,,,,,,,,,,,,,,,,,,,,,,,,,,
,,,,,,,,,,,,,,,,,,,,,,,,,,,,,,,,,,,,,,
,,,,,,,,,,,,,,,,,,,,,,,,,,,,,,,,,,,,,,
,,,,,,,,,,,,,,,,,,,,,,,,,,,,,,,,,,,,,,
,,,,,,,,,,,,,,,,,,,,,,,,,,,,,,,,,,,,,,
,,,,,,,,,,,,,,,,,,,,,,,,,,,,,,,,,,,,,,
,,,,,,,,,,,,,,,,,,,,,,,,,,,,,,,,,,,,,,
,,,,,,,,,,,,,,,,,,,,,,,,,,,,,,,,,,,,,,
,,,,,,,,,,,,,,,,,,,,,,,,,,,,,,,,,,,,,,
,,,,,,,,,,,,,,,,,,,,,,,,,,,,,,,,,,,,,,
,,,,,,,,,,,,,,,,,,,,,,,,,,,,,,,,,,,,,,
,,,,,,,,,,,,,,,,,,,,,,,,,,,,,,,,,,,,,,
,,,,,,,,,,,,,,,,,,,,,,,,,,,,,,,,,,,,,,
,,,,,,,,,,,,,,,,,,,,,,,,,,,,,,,,,,,,,,
,,,,,,,,,,,,,,,,,,,,,,,,,,,,,,,,,,,,,,
,,,,,,,,,,,,,,,,,,,,,,,,,,,,,,,,,,,,,,
,,,,,,,,,,,,,,,,,,,,,,,,,,,,,,,,,,,,,,
,,,,,,,,,,,,,,,,,,,,,,,,,,,,,,,,,,,,,,
,,,,,,,,,,,,,,,,,,,,,,,,,,,,,,,,,,,,,,
,,,,,,,,,,,,,,,,,,,,,,,,,,,,,,,,,,,,,,
,,,,,,,,,,,,,,,,,,,,,,,,,,,,,,,,,,,,,,
,,,,,,,,,,,,,,,,,,,,,,,,,,,,,,,,,,,,,,
,,,,,,,,,,,,,,,,,,,,,,,,,,,,,,,,,,,,,,
,,,,,,,,,,,,,,,,,,,,,,,,,,,,,,,,,,,,,,
,,,,,,,,,,,,,,,,,,,,,,,,,,,,,,,,,,,,,,
,,,,,,,,,,,,,,,,,,,,,,,,,,,,,,,,,,,,,,
,,,,,,,,,,,,,,,,,,,,,,,,,,,,,,,,,,,,,,
,,,,,,,,,,,,,,,,,,,,,,,,,,,,,,,,,,,,,,
,,,,,,,,,,,,,,,,,,,,,,,,,,,,,,,,,,,,,,
,,,,,,,,,,,,,,,,,,,,,,,,,,,,,,,,,,,,,,
,,,,,,,,,,,,,,,,,,,,,,,,,,,,,,,,,,,,,,
,,,,,,,,,,,,,,,,,,,,,,,,,,,,,,,,,,,,,,
,,,,,,,,,,,,,,,,,,,,,,,,,,,,,,,,,,,,,,
,,,,,,,,,,,,,,,,,,,,,,,,,,,,,,,,,,,,,,
,,,,,,,,,,,,,,,,,,,,,,,,,,,,,,,,,,,,,,
,,,,,,,,,,,,,,,,,,,,,,,,,,,,,,,,,,,,,,
,,,,,,,,,,,,,,,,,,,,,,,,,,,,,,,,,,,,,,
,,,,,,,,,,,,,,,,,,,,,,,,,,,,,,,,,,,,,,
,,,,,,,,,,,,,,,,,,,,,,,,,,,,,,,,,,,,,,
,,,,,,,,,,,,,,,,,,,,,,,,,,,,,,,,,,,,,,
,,,,,,,,,,,,,,,,,,,,,,,,,,,,,,,,,,,,,,
,,,,,,,,,,,,,,,,,,,,,,,,,,,,,,,,,,,,,,
,,,,,,,,,,,,,,,,,,,,,,,,,,,,,,,,,,,,,,
,,,,,,,,,,,,,,,,,,,,,,,,,,,,,,,,,,,,,,
,,,,,,,,,,,,,,,,,,,,,,,,,,,,,,,,,,,,,,
,,,,,,,,,,,,,,,,,,,,,,,,,,,,,,,,,,,,,,
,,,,,,,,,,,,,,,,,,,,,,,,,,,,,,,,,,,,,,
,,,,,,,,,,,,,,,,,,,,,,,,,,,,,,,,,,,,,,
,,,,,,,,,,,,,,,,,,,,,,,,,,,,,,,,,,,,,,
,,,,,,,,,,,,,,,,,,,,,,,,,,,,,,,,,,,,,,
,,,,,,,,,,,,,,,,,,,,,,,,,,,,,,,,,,,,,,
,,,,,,,,,,,,,,,,,,,,,,,,,,,,,,,,,,,,,,
,,,,,,,,,,,,,,,,,,,,,,,,,,,,,,,,,,,,,,
,,,,,,,,,,,,,,,,,,,,,,,,,,,,,,,,,,,,,,
,,,,,,,,,,,,,,,,,,,,,,,,,,,,,,,,,,,,,,
,,,,,,,,,,,,,,,,,,,,,,,,,,,,,,,,,,,,,,
,,,,,,,,,,,,,,,,,,,,,,,,,,,,,,,,,,,,,,
,,,,,,,,,,,,,,,,,,,,,,,,,,,,,,,,,,,,,,
,,,,,,,,,,,,,,,,,,,,,,,,,,,,,,,,,,,,,,
,,,,,,,,,,,,,,,,,,,,,,,,,,,,,,,,,,,,,,
,,,,,,,,,,,,,,,,,,,,,,,,,,,,,,,,,,,,,,
,,,,,,,,,,,,,,,,,,,,,,,,,,,,,,,,,,,,,,
,,,,,,,,,,,,,,,,,,,,,,,,,,,,,,,,,,,,,,
,,,,,,,,,,,,,,,,,,,,,,,,,,,,,,,,,,,,,,
,,,,,,,,,,,,,,,,,,,,,,,,,,,,,,,,,,,,,,
,,,,,,,,,,,,,,,,,,,,,,,,,,,,,,,,,,,,,,
,,,,,,,,,,,,,,,,,,,,,,,,,,,,,,,,,,,,,,
,,,,,,,,,,,,,,,,,,,,,,,,,,,,,,,,,,,,,,
,,,,,,,,,,,,,,,,,,,,,,,,,,,,,,,,,,,,,,
,,,,,,,,,,,,,,,,,,,,,,,,,,,,,,,,,,,,,,
,,,,,,,,,,,,,,,,,,,,,,,,,,,,,,,,,,,,,,
,,,,,,,,,,,,,,,,,,,,,,,,,,,,,,,,,,,,,,
,,,,,,,,,,,,,,,,,,,,,,,,,,,,,,,,,,,,,,
,,,,,,,,,,,,,,,,,,,,,,,,,,,,,,,,,,,,,,
,,,,,,,,,,,,,,,,,,,,,,,,,,,,,,,,,,,,,,
,,,,,,,,,,,,,,,,,,,,,,,,,,,,,,,,,,,,,,
,,,,,,,,,,,,,,,,,,,,,,,,,,,,,,,,,,,,,,
,,,,,,,,,,,,,,,,,,,,,,,,,,,,,,,,,,,,,,
,,,,,,,,,,,,,,,,,,,,,,,,,,,,,,,,,,,,,,
,,,,,,,,,,,,,,,,,,,,,,,,,,,,,,,,,,,,,,
,,,,,,,,,,,,,,,,,,,,,,,,,,,,,,,,,,,,,,
,,,,,,,,,,,,,,,,,,,,,,,,,,,,,,,,,,,,,,
,,,,,,,,,,,,,,,,,,,,,,,,,,,,,,,,,,,,,,
,,,,,,,,,,,,,,,,,,,,,,,,,,,,,,,,,,,,,,
,,,,,,,,,,,,,,,,,,,,,,,,,,,,,,,,,,,,,,
,,,,,,,,,,,,,,,,,,,,,,,,,,,,,,,,,,,,,,
,,,,,,,,,,,,,,,,,,,,,,,,,,,,,,,,,,,,,,
,,,,,,,,,,,,,,,,,,,,,,,,,,,,,,,,,,,,,,
,,,,,,,,,,,,,,,,,,,,,,,,,,,,,,,,,,,,,,
,,,,,,,,,,,,,,,,,,,,,,,,,,,,,,,,,,,,,,
,,,,,,,,,,,,,,,,,,,,,,,,,,,,,,,,,,,,,,
,,,,,,,,,,,,,,,,,,,,,,,,,,,,,,,,,,,,,,
,,,,,,,,,,,,,,,,,,,,,,,,,,,,,,,,,,,,,,
,,,,,,,,,,,,,,,,,,,,,,,,,,,,,,,,,,,,,,
,,,,,,,,,,,,,,,,,,,,,,,,,,,,,,,,,,,,,,
,,,,,,,,,,,,,,,,,,,,,,,,,,,,,,,,,,,,,,
,,,,,,,,,,,,,,,,,,,,,,,,,,,,,,,,,,,,,,
,,,,,,,,,,,,,,,,,,,,,,,,,,,,,,,,,,,,,,
,,,,,,,,,,,,,,,,,,,,,,,,,,,,,,,,,,,,,,
,,,,,,,,,,,,,,,,,,,,,,,,,,,,,,,,,,,,,,
,,,,,,,,,,,,,,,,,,,,,,,,,,,,,,,,,,,,,,
,,,,,,,,,,,,,,,,,,,,,,,,,,,,,,,,,,,,,,
,,,,,,,,,,,,,,,,,,,,,,,,,,,,,,,,,,,,,,
,,,,,,,,,,,,,,,,,,,,,,,,,,,,,,,,,,,,,,
,,,,,,,,,,,,,,,,,,,,,,,,,,,,,,,,,,,,,,
,,,,,,,,,,,,,,,,,,,,,,,,,,,,,,,,,,,,,,
,,,,,,,,,,,,,,,,,,,,,,,,,,,,,,,,,,,,,,
,,,,,,,,,,,,,,,,,,,,,,,,,,,,,,,,,,,,,,
,,,,,,,,,,,,,,,,,,,,,,,,,,,,,,,,,,,,,,
,,,,,,,,,,,,,,,,,,,,,,,,,,,,,,,,,,,,,,
,,,,,,,,,,,,,,,,,,,,,,,,,,,,,,,,,,,,,,
,,,,,,,,,,,,,,,,,,,,,,,,,,,,,,,,,,,,,,
,,,,,,,,,,,,,,,,,,,,,,,,,,,,,,,,,,,,,,
,,,,,,,,,,,,,,,,,,,,,,,,,,,,,,,,,,,,,,
,,,,,,,,,,,,,,,,,,,,,,,,,,,,,,,,,,,,,,
,,,,,,,,,,,,,,,,,,,,,,,,,,,,,,,,,,,,,,
,,,,,,,,,,,,,,,,,,,,,,,,,,,,,,,,,,,,,,
,,,,,,,,,,,,,,,,,,,,,,,,,,,,,,,,,,,,,,
,,,,,,,,,,,,,,,,,,,,,,,,,,,,,,,,,,,,,,
,,,,,,,,,,,,,,,,,,,,,,,,,,,,,,,,,,,,,,
,,,,,,,,,,,,,,,,,,,,,,,,,,,,,,,,,,,,,,
,,,,,,,,,,,,,,,,,,,,,,,,,,,,,,,,,,,,,,
,,,,,,,,,,,,,,,,,,,,,,,,,,,,,,,,,,,,,,
,,,,,,,,,,,,,,,,,,,,,,,,,,,,,,,,,,,,,,
,,,,,,,,,,,,,,,,,,,,,,,,,,,,,,,,,,,,,,
,,,,,,,,,,,,,,,,,,,,,,,,,,,,,,,,,,,,,,
,,,,,,,,,,,,,,,,,,,,,,,,,,,,,,,,,,,,,,
,,,,,,,,,,,,,,,,,,,,,,,,,,,,,,,,,,,,,,
,,,,,,,,,,,,,,,,,,,,,,,,,,,,,,,,,,,,,,
,,,,,,,,,,,,,,,,,,,,,,,,,,,,,,,,,,,,,,
,,,,,,,,,,,,,,,,,,,,,,,,,,,,,,,,,,,,,,
,,,,,,,,,,,,,,,,,,,,,,,,,,,,,,,,,,,,,,
,,,,,,,,,,,,,,,,,,,,,,,,,,,,,,,,,,,,,,
,,,,,,,,,,,,,,,,,,,,,,,,,,,,,,,,,,,,,,
,,,,,,,,,,,,,,,,,,,,,,,,,,,,,,,,,,,,,,
,,,,,,,,,,,,,,,,,,,,,,,,,,,,,,,,,,,,,,
,,,,,,,,,,,,,,,,,,,,,,,,,,,,,,,,,,,,,,
,,,,,,,,,,,,,,,,,,,,,,,,,,,,,,,,,,,,,,
,,,,,,,,,,,,,,,,,,,,,,,,,,,,,,,,,,,,,,
,,,,,,,,,,,,,,,,,,,,,,,,,,,,,,,,,,,,,,
,,,,,,,,,,,,,,,,,,,,,,,,,,,,,,,,,,,,,,
,,,,,,,,,,,,,,,,,,,,,,,,,,,,,,,,,,,,,,
,,,,,,,,,,,,,,,,,,,,,,,,,,,,,,,,,,,,,,
,,,,,,,,,,,,,,,,,,,,,,,,,,,,,,,,,,,,,,
,,,,,,,,,,,,,,,,,,,,,,,,,,,,,,,,,,,,,,
,,,,,,,,,,,,,,,,,,,,,,,,,,,,,,,,,,,,,,
,,,,,,,,,,,,,,,,,,,,,,,,,,,,,,,,,,,,,,
