PaulMeinheit/Bachelor_Muay_Thai/AveragedResults/JointMoments.txt.csv
R_KNEE_MOMENT,R_KNEE_MOMENT,R_KNEE_MOMENT,L_KNEE_MOMENT,L_KNEE_MOMENT,L_KNEE_MOMENT,R_HIP_MOMENT,R_HIP_MOMENT,R_HIP_MOMENT,L_HIP_MOMENT,L_HIP_MOMENT,L_HIP_MOMENT,R_ANKLE_MOMENT,R_ANKLE_MOMENT,R_ANKLE_MOMENT,L_ANKLE_MOMENT,L_ANKLE_MOMENT,L_ANKLE_MOMENT,WAIST_JOINT_MOMENT,WAIST_JOINT_MOMENT,WAIST_JOINT_MOMENT,NECK_MOMENT,NECK_MOMENT,NECK_MOMENT,L_SHOULDER_MOMENT,L_SHOULDER_MOMENT,L_SHOULDER_MOMENT,R_SHOULDER_MOMENT,R_SHOULDER_MOMENT,R_SHOULDER_MOMENT,L_ELBOW_MOMENT,L_ELBOW_MOMENT,L_ELBOW_MOMENT,R_ELBOW_MOMENT,R_ELBOW_MOMENT,R_ELBOW_MOMENT,L_WRIST_MOMENT,L_WRIST_MOMENT,L_WRIST_MOMENT,R_WRIST_MOMENT,R_WRIST_MOMENT,R_WRIST_MOMENT
X,Y,Z,X,Y,Z,X,Y,Z,X,Y,Z,X,Y,Z,X,Y,Z,X,Y,Z,X,Y,Z,X,Y,Z,X,Y,Z,X,Y,Z,X,Y,Z,X,Y,Z,X,Y,Z
6.373508750000002,-34.84771375000001,4.5731675,-17.58102875,11.290947500000003,3.2910625000000007,-28.260876250000006,-32.22086375000001,4.10632875,-10.47197,18.312365,6.874658750000001,-5.13495875,11.51489875,0.4570900000000001,-36.68041000000001,19.477263750000006,5.4964200000000005,-26.484772500000005,4.337878750000002,-0.9333187500000003,34.09095000000001,-8.967343750000001,-0.7581012500000002,4.96553625,-2.1099362500000005,-0.8464800000000002,5.89049125,-4.5489075,0.21757625000000005,1.3633200000000003,-1.7522325000000003,-0.3625312500000001,2.2846350000000006,0.7181925,0.13257750000000001,0.26480000000000004,-0.2055925,-0.03983875000000001,0.27358125,0.004883749999999999,0.022456250000000004
6.410119732296937,-35.00089505459595,4.570633648273749,-17.681262986514252,11.37672992645958,3.2737687751327242,-27.97505208594911,-32.21361940858971,4.086417787390261,-10.668376955126378,18.732328511357366,6.989777533936717,-5.206393375623353,11.246340358285707,0.501640920461002,-36.626436318696534,19.533883133532967,5.463694290831624,-26.455992644135755,4.8677814026634865,-0.6625610703958895,34.34335956113777,-10.828778440730026,-0.5191864083309913,5.10286849578644,-1.9473896219801574,-0.7740723189437495,5.805689455768333,-4.518346584345277,0.14061152712194677,1.3716900026658587,-1.788417737593451,-0.3552581636787425,2.3063933766512568,0.7325938143158882,0.13348531202568528,0.2754105694943343,-0.22011805269477647,-0.04036226710431041,0.2762400192976161,0.014075676026706976,0.018107521719158175
6.266864985267388,-35.17990797594718,4.588774264101303,-17.69772995378528,11.413741464743113,3.2370972329387246,-28.14961073288645,-31.870076390544945,4.117300165555105,-10.756073985503704,19.105103287260032,7.063086455524568,-5.275235189559891,10.938211827930152,0.526300822767622,-36.570331636131755,19.60707923249837,5.431276887851194,-26.659652269924408,6.0118228189055145,-0.5712760473245726,34.87811415644805,-12.586586069307373,-0.31604992235488955,5.27017714218009,-1.6340359040630215,-0.6144297323359272,5.634115518066616,-4.480568342971958,0.04436048702769421,1.3126081775071567,-1.8069336789026256,-0.322295517148965,2.3089538625369364,0.7385025528402608,0.15432098607862577,0.2607834477866086,-0.21856177864551787,-0.03860704708296851,0.27388216616832706,0.021023706718429423,0.020827782261820416
5.97962596065727,-35.46591504369305,4.635527875555206,-17.571634994292943,11.380602240384093,3.1753541942490537,-28.808768983052374,-31.691882397469,4.182945561025289,-10.54400951916439,19.32117949751794,7.102055073830322,-5.3410047202375965,10.614279277863474,0.5375649301393608,-36.51996836952597,19.69479245895315,5.395182741693045,-26.956404046548315,6.938203930379347,-0.6112954341619368,35.24281435848529,-13.35839500487527,-0.1945721171171204,5.355966542167009,-1.3357995346175677,-0.43410064345725025,5.470587756274442,-4.4570785397057175,0.0025131155105713177,1.2334230418587362,-1.8153803660469725,-0.28515498819471596,2.3022431894155457,0.7203041564235741,0.20127760302425002,0.23006961369851633,-0.20526786952944737,-0.0323968259639449,0.2721715289966312,0.01968741635433074,0.0337336191916999
5.655266080739423,-35.87844288456709,4.697182674744329,-17.352643592728064,11.292947081213303,3.0998020430730504,-29.634412462728225,-32.07935277502182,4.21799249736663,-10.048992061005283,19.25923244720601,7.096575685436975,-5.408814775483419,10.302646203342501,0.5482440508429677,-36.48754509294877,19.791808063726684,5.353582445022842,-26.998778203482246,6.849982751812203,-0.7951235808339581,35.275203278265955,-12.743666936207418,-0.20220900279407028,5.311629277944679,-1.1724092995762145,-0.31038818069386465,5.370579955514799,-4.448914384868669,0.01998812401820841,1.1970055019698547,-1.834044505204114,-0.2692190440618274,2.291348647335216,0.6807686400498636,0.25025637211504037,0.20358053143120824,-0.19316518696481572,-0.024506946229319808,0.2753146649549699,0.009833390280034597,0.05034351230872934
5.348794523416173,-36.32740057910681,4.7561993701165814,-17.144915133866284,11.210266659603686,3.031129254498984,-30.422263565186284,-32.89310535990535,4.177346942790215,-9.400012450496455,18.949153674226128,7.07694989122086,-5.479941377439659,10.02272839720734,0.5668954469459122,-36.47381746286412,19.88808314311901,5.306327220621931,-26.784767801100347,5.803410681770348,-1.1532322175762,35.18917226055471,-11.169266545396116,-0.284485156091024,5.161555157189089,-1.1435762551482789,-0.2647999091452996,5.330521680256954,-4.462600583439894,0.027802260536666682,1.2265179826555042,-1.8794946154664223,-0.28247915928273,2.285654347517108,0.6463666195747897,0.26844328832445363,0.1972506214211385,-0.19470019418599183,-0.01942769178354498,0.2825958666997356,-0.0014863484286627357,0.0599300347901168
5.025973907817061,-36.69220562237301,4.8109150805046585,-17.03863850166914,11.199047966188013,2.9800352771125453,-31.206961366838016,-33.62382604507681,4.1234605617806235,-8.823299490652348,18.671585455560404,7.105251164566786,-5.5546162751772075,9.781001197416126,0.5905929805311312,-36.456997276447176,19.975053483156668,5.251348189403036,-26.74274217245685,4.747519700143086,-1.4857807541079775,35.35393476668918,-9.625530154836074,-0.3563647064427916,4.953077402047233,-1.1844593898259133,-0.2748409274160139,5.319708827708018,-4.513715845514543,-0.04267276979292544,1.306104754628981,-1.937468967577237,-0.3237268918296346,2.304863282580275,0.6411670541132242,0.24723157807914722,0.21481506398617733,-0.21095213277638714,-0.021421491472061488,0.29208207055980673,-0.006987648183933251,0.05704503325063161
4.6415541993044585,-36.93344616429559,4.866877088413158,-17.081218326113007,11.26673726376087,2.9453744053821374,-32.02819905285048,-33.92645399736092,4.137940589837793,-8.472082740253619,18.63808396992279,7.207280013912218,-5.637682615730947,9.58233148521946,0.6076732060570815,-36.411420252627785,20.05004432706668,5.188589371589047,-27.022053535583836,4.469679819918831,-1.5705793633721874,35.863150584638035,-9.033961837833477,-0.4111281886974124,4.7478636978792785,-1.2463908877485956,-0.31671872656650507,5.345679066946041,-4.607354628373734,-0.17793879227845527,1.3958534337577755,-1.9652128768579058,-0.3830071440444692,2.3641104328184444,0.6708514185379351,0.2062319396559968,0.24620409001438834,-0.22850682464930905,-0.03216354257014015,0.30401421416805435,-0.0042902886648991355,0.045293506803528734
4.215621394744714,-37.132552160598316,4.927625127448271,-17.230917832036525,11.355163516008947,2.9190250131689464,-32.823686349884916,-33.938147433577704,4.222921925257868,-8.270461634114831,18.77547886090165,7.331242297238791,-5.732489112591464,9.429658160953437,0.6088169085874365,-36.31696312775051,20.107522295861173,5.123521462963665,-27.314387644063473,4.813422163398176,-1.447700348995017,36.394122289973815,-9.634376441856451,-0.5404866483667653,4.653371398881838,-1.3293775757232655,-0.3906188345452307,5.432375704631571,-4.7079499680555195,-0.28117470655020355,1.4443963121877328,-1.9313599433254227,-0.4341750689880829,2.438556133417901,0.7132730232303054,0.17317239397365441,0.27333703242953955,-0.23098741641855974,-0.04796276512849562,0.31480675061131247,0.0016402944494109655,0.033409006970150715
3.8108420483522316,-37.42482931936744,5.000381496807072,-17.376638795366823,11.401242546329556,2.889494749027679,-33.546365486639566,-34.062519951679946,4.3360737089839,-8.056097931421217,18.880108089729397,7.394616697050454,-5.836404647895769,9.317838841512387,0.5928594531216139,-36.15730164639142,20.13317882986484,5.059415111844702,-27.402660058154062,5.114601572417611,-1.285232423969483,36.58450700666602,-10.863144785144836,-0.8477690048390263,4.771852290684869,-1.4417081368431028,-0.5016450730247032,5.560817137526309,-4.75996117393148,-0.28444887932266766,1.4237870149784426,-1.8493691589805836,-0.45630725033165626,2.4891396016504803,0.7402967900591415,0.15850498437253774,0.2860982902128383,-0.21432263373252358,-0.0649942238178483,0.3196827258428674,0.004101349931261024,0.026386846531001665
3.4717042126357813,-37.88149610492063,5.091926409194885,-17.432138623593758,11.380214276001592,2.8501068434203485,-34.26394372302535,-34.56121009699879,4.4443694107235325,-7.74957452177222,18.793174159291873,7.3611849801796225,-5.94825818625716,9.246962485981458,0.5651381132983704,-35.93267016897017,20.112647055633285,4.993100186343423,-27.4013193448081,4.9260192904860585,-1.1957881565166546,36.55851685827504,-11.867640413436385,-1.2955908474477478,5.083311558504579,-1.5329662533528758,-0.6129223500241663,5.657115783447009,-4.727458692899596,-0.22876286498826964,1.352557219873696,-1.7657650299240415,-0.4564645856616368,2.5094917243506907,0.7494251801775761,0.1516430206139891,0.28727290669496064,-0.18812044162796443,-0.08354421316010248,0.321464656054248,0.003772188535003926,0.022081802144401315
3.2032168784761446,-38.47932084055667,5.202104894837349,-17.376950783534248,11.305033387123842,2.7969865755859895,-35.1257048845324,-35.39724081685925,4.567409565504209,-7.3312411923374725,18.52509205297674,7.245834199652688,-6.072597431835307,9.229206840871782,0.5321859527749503,-35.65436627652346,20.039822309048436,4.919006979579798,-27.50718275805582,4.338584619034171,-1.2040270250644096,36.55380768398651,-12.247342387831608,-1.633453875801628,5.410308314878468,-1.5066251472767784,-0.6382665161426528,5.6585046663442835,-4.62823788389217,-0.20097306456617806,1.2759273199957566,-1.7258988869239944,-0.45053036625853404,2.5179385731846593,0.7546672581463846,0.14322065535277034,0.28243843223919113,-0.1673842536943884,-0.10047847905009726,0.32616202139828776,0.006036553482016002,0.017171603655774335
2.9738849852509275,-39.1502101583552,5.327351857280692,-17.248280036855757,11.18933759186232,2.723003500869874,-36.22435429447901,-36.360033943782284,4.770890211279067,-6.853564779308677,18.24915684555581,7.07730418711254,-6.214739931015307,9.274258855521143,0.4958650311957289,-35.32441867275003,19.911611158912248,4.831162979397799,-27.785784629974167,3.827418933518801,-1.2125951476364702,36.434734822965,-12.134022684595987,-1.5818281184664928,5.565817667509161,-1.33132701966675,-0.5192637580871424,5.5742727344013305,-4.529241301648965,-0.2298348530775341,1.2350463252303159,-1.7606942053353538,-0.44157279000692784,2.519999585549124,0.7579210563069121,0.13964638498945203,0.275960188568244,-0.16594047830637737,-0.10661063523210725,0.3322406457041843,0.01112705452934943,0.013234048993927564
2.737162765362574,-39.82644518957022,5.453280937966174,-17.13941941226646,11.046670768191413,2.6341537678720717,-37.46639064345617,-37.288307535884385,5.026244614132189,-6.519579747350979,18.102140395155615,6.912041378778392,-6.378736267577716,9.384584972552869,0.45102031892581024,-34.941194984130775,19.73591441803216,4.728033300757446,-28.155615118338957,3.7393670424679435,-1.0813696730070301,35.887298139802766,-11.752297201633274,-1.0971851219196358,5.51521882045687,-1.1042035482781172,-0.29942965180454756,5.491016095372997,-4.510139783196305,-0.27428306362928706,1.246121937455217,-1.8794260491674348,-0.42654095895041405,2.5097409125716883,0.7557206794547959,0.14992210073217108,0.2732569540522753,-0.18974626163284572,-0.09717886173853842,0.3338654210986637,0.014857382389039046,0.01460734369943506
2.470337425350738,-40.43668314688759,5.548638785618723,-17.11841335566465,10.91283591036447,2.5525708753689753,-38.63208562915441,-38.028849709573606,5.172711093741195,-6.552282288058819,18.072508890452895,6.822357280066575,-6.569558819245099,9.558755893938518,0.3898191899010315,-34.50674979430873,19.533196857323617,4.6147984620809215,-28.569805912897596,4.131945787829171,-0.8023102515487275,35.0319174056608,-11.231924225221062,-0.39835133046858584,5.365843125278272,-0.9604135264530778,-0.0899966999067604,5.496871628835343,-4.607998344791853,-0.2860483205948329,1.3008604378947055,-2.0517260254506726,-0.4103087083228621,2.4895650763719086,0.751807083468002,0.1697889648775364,0.27832753690557277,-0.22995291693356468,-0.07864810297072619,0.32995155986181873,0.015102219711337538,0.021879006711886737
2.1827837889783837,-40.92571958376698,5.599391904351257,-17.16957659482005,10.82346223285874,2.4931654250664814,-39.5768723790317,-38.35026768993918,5.131048239486779,-6.904099931610247,18.087358483993516,6.822631154632706,-6.788762791873717,9.782477418291087,0.31436952316632727,-34.02391438343592,19.31534803467661,4.498918225234277,-28.924820519991343,5.068912260883243,-0.5154989230947619,34.34528159346554,-10.844330143239876,0.22283769492305633,5.216204551688744,-0.9417054018271561,0.023852782619819025,5.603667916687389,-4.786194425002004,-0.24862856595981153,1.3716983170743875,-2.1996802698555666,-0.4011083779440808,2.4668305824433574,0.7476931912295611,0.18813704616758353,0.28730102089493753,-0.26433868465280297,-0.06164780106780676,0.3234739533764974,0.012417780895315013,0.030943686807831588
1.898071505511709,-41.29150817111862,5.626464299922145,-17.231497238286234,10.787826005563282,2.4550171639029053,-40.30171862452339,-38.122897053928455,5.005516225544304,-7.2962022206932975,18.104915090629795,6.861815989884576,-7.03131515288708,10.031987577787678,0.23729281177498918,-33.4965138622581,19.07783762339603,4.387063926267551,-29.001340760871276,6.63636127044563,-0.3521719348253848,34.07944037773198,-10.90879260648321,0.5546105337947693,5.117066034043705,-0.9873841323209054,0.0257442727868415,5.741323419942146,-4.960370562354212,-0.1823419576554496,1.4322088120456506,-2.258387683843237,-0.4062693181735435,2.4425240387212868,0.738568867401773,0.19919369799737147,0.29430254175434906,-0.275070814547525,-0.05487985547977,0.3164682336767083,0.0073435137279924765,0.037828482318205264
1.6343825126763507,-41.59503354394576,5.660583132703739,-17.236341463425497,10.785275116086126,2.426869145412212,-40.90372769596868,-37.578401833212034,4.924820827675067,-7.503248873437711,18.09650907707876,6.876854268898205,-7.287084069531023,10.290249146789535,0.16867751027280087,-32.930500944999636,18.813138502859964,4.282149390189,-28.766243512238713,8.507643858327043,-0.32282212077900296,34.01819439439815,-11.475519652339198,0.5274370834366692,5.112000401306679,-1.0171810268003605,-0.04235198576465299,5.826196042329454,-5.0667437575603165,-0.13573310929834098,1.4661124284822145,-2.229911819135323,-0.424948139824797,2.408210363304864,0.7244355104241782,0.1939505556216411,0.29696144369763616,-0.26322778907346545,-0.06024167405350637,0.3082900151906909,0.0009610214573444239,0.03893039583479209
1.4091701478603231,-41.919556969925836,5.721223571231104,-17.164432677296467,10.758692899307313,2.3942166378024288,-41.46838080696617,-37.208783532026615,4.927678541123983,-7.55671451298436,17.98816099730027,6.798558925160915,-7.539975855855495,10.551464476833337,0.11303310817457068,-32.3314404838581,18.517214622643824,4.182669931863917,-28.48795859523026,9.909599171769106,-0.3387001932921099,33.76678980357398,-12.216825966630537,0.26428506698526916,5.2424445633895855,-1.00418722381489,-0.11038471144130349,5.820592764504861,-5.081333168773303,-0.1458279176425987,1.4588926187600761,-2.1695466602457163,-0.4363526533849563,2.349238416725674,0.7162589178547633,0.15819708484671208,0.294481442491675,-0.2459332146877649,-0.06861253869798367,0.29597114191132273,-0.003913150428287424,0.031407083879825645
1.2358292426331392,-42.30558262581302,5.811657775074247,-17.062814105179065,10.654137290070217,2.344850773505545,-42.034237182788786,-37.35376314632731,4.993015319287014,-7.635380476591816,17.74606265233419,6.584661706906144,-7.775252682154399,10.821989251924157,0.07101360678156776,-31.70420997353576,18.19031447923145,4.0814629189983975,-28.45189694639835,10.324641254675331,-0.30930298233358056,33.14455705040497,-12.721133387979188,-0.015179395656552797,5.49748628682547,-0.9892981529091891,-0.14553804531388168,5.755298604752705,-5.017469142007532,-0.19830109214093208,1.4107656512271236,-2.1264386229742893,-0.4278337029506766,2.264739788537889,0.7281611227326061,0.09560522417712083,0.28963123160400805,-0.23975455215386196,-0.07169710320011616,0.27962300316472644,-0.003947997344978362,0.018286391027154913
1.1212532506772894,-42.72888602863258,5.91968839513329,-16.99806086711328,10.48790032119396,2.280882384016478,-42.605869910185625,-37.95452930213983,5.096642729646147,-7.8696635204021215,17.479365469928503,6.2792374978720815,-7.989794337358601,11.113230019333752,0.04089599367733254,-31.060625255776277,17.839042666652254,3.973592516615816,-28.80241243059847,9.980202485125744,-0.1924109280844507,32.247445004842476,-12.72638257760165,-0.2309318772097269,5.788389086415778,-1.0360248869816038,-0.17635674780900198,5.695422583180252,-4.914851506667745,-0.25474064646475547,1.3372426896449037,-2.107719960487604,-0.41381299851100073,2.187317040732028,0.7700668653215728,0.03235621113238497,0.2861378175006962,-0.24671233044476365,-0.07214033715003079,0.26728483414873044,0.0037645925907874127,0.006912024560658475
1.0692607542256813,-43.140545006771774,6.025123423980424,-17.011436792011324,10.34096633324068,2.220939166104646,-43.14529582122462,-38.696412457387716,5.231497576248493,-8.227166112241187,17.324007782617436,5.981877859612825,-8.193317154296174,11.429850392370799,0.01751997269243144,-30.420414123114444,17.47483234015831,3.8634177798387173,-29.43061839048641,9.494694712175425,0.016055359520342982,31.154559338622384,-12.203103874124501,-0.4896510894686865,5.996517774685138,-1.174925130899504,-0.24095643781588408,5.6563440458029834,-4.816105257375485,-0.2956557997180625,1.256572057640124,-2.0987190992753635,-0.41150370562469607,2.136383353245124,0.8297582864118119,-0.00757403060067717,0.2842728464918605,-0.25837886814284106,-0.07590630769169109,0.2612186117071734,0.01786280418703079,0.001166403600148351
1.0839691897145913,-43.52906257384539,6.110971931850384,-17.100300084677517,10.268353333775421,2.184945925280025,-43.57575104075961,-39.32288204459854,5.369952177004621,-8.559037936735063,17.216795676788163,5.759002378801119,-8.394028290288302,11.764388518818073,-0.0039380391787173785,-29.79858235601444,17.1077716196152,3.7590953172260644,-29.93415885966979,9.226825368837227,0.3038892030494097,29.863947211796187,-11.327323774134374,-0.8773614939826042,6.057353557529898,-1.3780004446911753,-0.3377524891572171,5.608277946666027,-4.747814078321646,-0.3254048951029316,1.1899717487232468,-2.090129324224619,-0.42067487936542075,2.1063462290011103,0.876954982679413,-0.016470137369533025,0.28321842372656186,-0.2676898287871098,-0.08258169213914711,0.2570340585914578,0.031551620010139066,0.000412303075331074
1.131426705912344,-43.95595161420149,6.174878960109937,-17.23685588488914,10.259519419837236,2.181439814398833,-43.92223143690272,-39.863421257547145,5.4357985340130615,-8.755587821376587,16.93470439311299,5.610326330630966,-8.590038927544496,12.097672262311802,-0.027942835175329417,-29.199481374705133,16.744510769582753,3.664937117850096,-29.993089962206103,8.988307335512856,0.6189830998807988,28.54666562718078,-10.402604996844172,-1.2349032338474333,5.979729921347418,-1.570163961142177,-0.4248183702314248,5.557948740215544,-4.713301282304116,-0.34532467620512003,1.159893849656398,-2.0812442186411895,-0.4305993751932572,2.109674515842635,0.8924758709582014,0.00803109772679645,0.28307070594378314,-0.27215663990313177,-0.08623327599256027,0.259855484897653,0.03802613604071476,0.005466196710542374
1.1365446760794855,-44.489678463703626,6.233597947613492,-17.399961907912164,10.277915319588029,2.203363071562986,-44.42286228719837,-40.45657200873292,5.393596786260741,-8.919025986439255,16.42956807122355,5.498857327979957,-8.772430504931295,12.404776226466936,-0.059327698848664456,-28.612342966943352,16.386855575331325,3.579561588645259,-29.969912194521847,8.574087790398753,0.932270392218545,27.60575894748392,-9.739538343302396,-1.2233025690627297,5.813149041783168,-1.6616505429835295,-0.4558038035189736,5.544887842834502,-4.702725719516497,-0.3424699251633541,1.1785582260370016,-2.0689860430702973,-0.43967319812078437,2.150274710040038,0.8794188560470987,0.05617483544336166,0.28268415385456247,-0.2688589311736014,-0.0839093865655719,0.2729019127085268,0.03584701353672269,0.015586019509747523
1.0602019854018714,-45.11599306777197,6.310218092690756,-17.575632978771054,10.284038672849233,2.2332500819379977,-45.32429888061708,-40.95222238780116,5.338100832870541,-9.24249240819239,15.905990649011457,5.39362434797338,-8.932201439768312,12.66576052885686,-0.0983339789000045,-28.011751843723715,16.02842405218403,3.5000096562015255,-30.61303183541559,8.367708946183882,1.265004707798068,27.324006824858575,-9.577434582391808,-0.6951102885504914,5.625556047424735,-1.5972544040090502,-0.4112274017347723,5.577480900682512,-4.699309552673212,-0.3076453295775063,1.226970623447624,-2.0468805340558514,-0.45323375311224334,2.1866002923940995,0.8549218590945643,0.09736769506399837,0.27681169666045424,-0.25381470231804276,-0.0784085424567506,0.28319008868845813,0.029450335967319025,0.023738208755531412
0.9413897253505419,-45.76192329771782,6.416862192282853,-17.74361096807231,10.280883238837953,2.260284686955541,-46.609726359732065,-40.939902146735804,5.413405299559549,-9.700137365920982,15.61593595276261,5.321606591771966,-9.068573027334969,12.880686622894238,-0.1369324048402939,-27.37781598538332,15.66594508113162,3.4252432906820935,-32.03774658228616,9.168367114369474,1.6121103711862408,27.483032719254417,-10.08870424352715,0.048578205156671384,5.500293039226186,-1.4097023394769874,-0.3031874587693459,5.632296410580226,-4.691859818762547,-0.24804213357762955,1.24694822469458,-2.020663130347826,-0.4584212195434784,2.1872279310864653,0.8350470223044315,0.11350256654324266,0.25972955716761215,-0.23095798848118265,-0.07186359269379164,0.2804189038037964,0.02388346036465692,0.025507631784377236
0.8548740224143133,-46.39123903899209,6.550108912542669,-17.890934354990268,10.318251951851934,2.2904555136192473,-47.945730540090736,-40.243570946748676,5.680057064067817,-10.075848984196153,15.61347515019411,5.312300901408596,-9.191083960507813,13.071354021875912,-0.16681977848592217,-26.710225768795645,15.30062506255341,3.3585976972263585,-33.47209063719282,11.294891045793456,1.9595496300165078,27.475446855973125,-11.154367160565648,0.4773925372877261,5.513132802263341,-1.206249043597556,-0.17154779181075364,5.679040564273738,-4.674697351956093,-0.20118733583082593,1.189253799976608,-2.006945650515501,-0.4309906543675843,2.1606986346805597,0.8384350631586368,0.10226201192427825,0.2340796291889034,-0.21337057736996376,-0.06333072902679898,0.2683459956330223,0.024436193061591754,0.020841899327214638
0.8563310059978642,-47.03248619793732,6.693587720492225,-18.05702516533103,10.415512383444286,2.3331449537638327,-48.879924243669,-39.2421264365748,6.043599985733373,-10.323053384666709,15.634764499906183,5.273224313937404,-9.314411294996539,13.271610794610446,-0.18664299761438563,-26.025931780977714,14.928642790500096,3.3012108123456128,-34.16067831588009,13.891833491778062,2.236807433428649,26.821697402676364,-12.145606038946848,0.31404739974374496,5.658841280803568,-1.0753610702257224,-0.07259237781021313,5.680270012612053,-4.64284074843049,-0.22509376999266004,1.067350330844159,-1.9968767014325,-0.3719954592402039,2.1179383614617757,0.8849015952004757,0.05513409977955989,0.20989992372656585,-0.20767663851239004,-0.05333293563262389,0.2527417330933186,0.035964238875824,0.008956562877415798
0.9332101108712716,-47.7312941336496,6.826823110773055,-18.30040692587987,10.537367110583268,2.3886456392721884,-49.23004164739707,-38.613803994860916,6.283841436786581,-10.587022560126316,15.362416132734275,5.066909124739309,-9.453412204159207,13.513063361247838,-0.20125279801662704,-25.34516689177552,14.54062906868064,3.249162650047231,-34.124037646039,15.515129066048305,2.2702373574934667,25.70496230166247,-12.348604947881991,-0.2724559055770133,5.8189699213462465,-1.0389282917172091,-0.0440060397443651,5.615039094201559,-4.60767592211518,-0.3530329338896656,0.9458021309713487,-1.966119723471122,-0.31041445494761705,2.0789703768143433,0.9744576358754515,-0.019278958174442303,0.1946232217134362,-0.2097851869686965,-0.04310186336594935,0.24122684074212855,0.05700851418937962,-0.006133063519369526
1.0053014772815374,-48.501885495522885,6.941804403844208,-18.62205782746463,10.646258186122068,2.4501575983251933,-49.22500919218146,-38.74022325175798,6.256839912225087,-10.91843494083746,14.788106592957199,4.698952947405504,-9.619066472851365,13.80775839128083,-0.2197735859973532,-24.676695469203402,14.133835295492972,3.198142155620514,-33.812419789681215,15.575507019460105,2.035835468041481,24.98839072857262,-11.696164992198032,-0.9181863639076445,5.859493405579096,-1.0812996107615898,-0.08142479185911007,5.497401826623296,-4.584836603748064,-0.5566345471922876,0.8861866534477781,-1.9245665842023263,-0.27821255272060014,2.0757128362854913,1.0795563589017612,-0.08033763956085385,0.19128125534525015,-0.21656281489871354,-0.03458523077136876,0.24157365554423063,0.07916785922511235,-0.0143924732265573
0.9884607099947902,-49.31134804454708,7.054741361034461,-18.960560828743716,10.72641808314486,2.512996442325598,-49.279209920220055,-39.50381677055235,6.067767022922324,-11.165821011636133,14.128906900231382,4.319005967619619,-9.816055526197356,14.14806888381857,-0.25037597912985227,-24.022856717713466,13.719822162367269,3.1490021746736083,-33.452590342715936,14.603391053659873,1.8177893878379754,25.323084074556753,-10.772739634134135,-1.3509428729792075,5.765518223062443,-1.165943870450981,-0.1456606185098901,5.362738669935998,-4.564017544344734,-0.7347760686516638,0.8962935197392948,-1.9099789833852379,-0.2869836398057793,2.0971491848328636,1.1502005515129523,-0.09026673133780755,0.1987726256135607,-0.22713129038078847,-0.03222378545420426,0.24774615551394202,0.09137142611028805,-0.009831723978454663
0.8391231119152169,-50.0976350109054,7.194732351366131,-19.23695638387054,10.789609782854821,2.57630828305429,-49.82029739333298,-40.50803795195157,5.961657514623879,-11.108345861125182,13.581403504506142,4.069763209633181,-10.03995314918322,14.514074080896483,-0.29538269710860404,-23.391055460905122,13.324053784105216,3.1077740364312065,-33.12899858116378,13.542274217528512,1.9203115053912638,26.445172761598766,-10.306679795723445,-1.4551219072542532,5.630464474208779,-1.2393347491778055,-0.17688147382058067,5.282437567736444,-4.523902828022318,-0.7811796477813474,0.9194066761524815,-1.9380354795847317,-0.3099045782489275,2.1096925942974982,1.157736389037511,-0.05213625175127863,0.2080780136783391,-0.23690815161874332,-0.0356644496265446,0.25007877081694596,0.08984804562083462,0.0028667586704335508
0.5846245600251081,-50.80851104968686,7.371111633222006,-19.39976131575425,10.879607966938192,2.640148224809815,-51.04856751701246,-41.31752305531924,6.059313547869903,-10.696559815869453,13.263897745819742,3.9815934708705525,-10.277128631320284,14.883719049751669,-0.35210185292892243,-22.797023366145194,12.977859137801808,3.082669605058907,-33.0712324315472,13.211383336593993,2.3383599153581667,27.370593670013708,-10.737797521767693,-1.2495243775598697,5.534735076340321,-1.2623751047510436,-0.13322029157858437,5.331609421291226,-4.459030986514634,-0.679476970949293,0.8943668883473379,-1.9864379361359459,-0.3091548268849077,2.112308610281022,1.132158146911772,-0.004191286261344421,0.20807494622081346,-0.2395149403862609,-0.03858627247037447,0.251051978042295,0.08340964282026096,0.013915567934150089
0.3128669367619328,-51.47288256271553,7.568270765403879,-19.482984806392256,11.047385097828963,2.708263918274831,-52.680106433651325,-41.830495750188774,6.280086188063635,-10.126891854280029,13.178237007055955,3.9855244469890714,-10.515118358980587,15.253356213582123,-0.4167278753177611,-22.27248311585084,12.708874731802208,3.0803615458387545,-33.311723918258416,13.717824610455205,2.8757484085990814,27.424526454231817,-11.997805203956577,-0.9254572175901363,5.480704865918682,-1.2300117875219716,-0.0383889904959007,5.48798879835395,-4.388369321368328,-0.5208929050629157,0.8262629726072663,-2.0194388931117633,-0.2942157067911315,2.1191148743782855,1.1229082333995128,0.016058490776344234,0.1991066084522627,-0.23392294239407357,-0.04194639692395072,0.25505295315344634,0.0823455039072345,0.016814662451969564
0.08739119397674355,-52.2019335110261,7.770692770917369,-19.598315648623977,11.30466997980341,2.7865731746999503,-54.302246006650876,-42.337042295198,6.476275517031187,-9.68708980338837,13.149547083916318,3.984832122872133,-10.749807926674658,15.643768845915412,-0.4899777931709365,-21.861202891089523,12.534252134639033,3.1001412627977594,-33.73550734137558,14.374759572612938,3.3605804853074046,26.873876709304405,-13.432550404707072,-0.7915405886802943,5.451251584575225,-1.15822318042458,0.025290468050793585,5.615345183924788,-4.33215441109493,-0.4302197027232858,0.7853351767695589,-2.0102518564402625,-0.3182572126336035,2.1265341858361886,1.143694359440913,-0.0020010686320602114,0.19450130565214924,-0.22308770981974735,-0.055883542492992974,0.2582706559175959,0.08827683185067076,0.01048173542578646
-0.10300889418640313,-53.08859139742319,7.972200850243958,-19.83921045702573,11.610403095588879,2.8757667213605846,-55.918125200033096,-43.095635670859195,6.524915303688792,-9.409942681758471,12.88875381337137,3.9346395974678794,-10.984241454688762,16.08044450729169,-0.5748918616248778,-21.598942000913254,12.457842039593725,3.1327090494974197,-34.35069114230477,14.403142111089124,3.56777888283933,26.372975823240086,-14.168594737108705,-1.0641680829332065,5.441334428791169,-1.0736832421684774,-0.010480205982618378,5.599035941647964,-4.291229616567917,-0.4612151766791398,0.8225975402423114,-1.9395204083154904,-0.3996830405112661,2.12232645286661,1.1779099230838588,-0.039729213768145144,0.2010974543661871,-0.20608605114542417,-0.08010819745165414,0.25543199156508534,0.0976493369027486,-0.0008391265957640136
-0.29176058429780083,-54.15403480810431,8.166104968137377,-20.205929241174545,11.899838005086668,2.9697112920099493,-57.650726678303094,-44.13686913756837,6.3542081131397286,-8.956928563006219,12.172657969963236,3.8745725048079205,-11.228121957424907,16.581106848923483,-0.6719261141610118,-21.49074556590591,12.473258670034813,3.16737310930565,-34.75494944427802,13.500829419877292,3.367416362480927,26.178276820619914,-13.749580981853173,-1.6768775408119527,5.450372220615181,-1.0128683567399799,-0.14484926666854575,5.441738905541705,-4.252821529574931,-0.5642928500318993,0.910843844304564,-1.8126221350137912,-0.4943885830820003,2.09410965458262,1.2032140725923464,-0.06772253252147184,0.2096514384701082,-0.18223896676428672,-0.09998950958253705,0.24516848818713588,0.1057008111495192,-0.009394337093202013
-0.48840578158289816,-55.354797056289925,8.349105588356753,-20.613955145287097,12.102842488018837,3.0484136971933333,-59.33577793525929,-45.3223994998277,6.0408801041906655,-7.821654726078477,10.982954368462035,3.850357779274945,-11.500092090507366,17.153119977736765,-0.7799397341495101,-21.489286706503698,12.551771694748622,3.1914608709526773,-33.86781096654459,12.009291274559882,2.9372574981135906,26.140626761764388,-12.467685387901184,-2.2855143009489103,5.479469058237437,-0.9973843251103368,-0.3300236210035474,5.251784645660264,-4.227997588063314,-0.6452809654436666,0.9848764571143862,-1.6563805774863165,-0.5540258256519051,2.0339790318209654,1.2004959548603207,-0.07380617248257754,0.20926768513129718,-0.15492552401356674,-0.10584789686027174,0.22965997130703614,0.10723061374292521,-0.01125004322987449
-0.7234339930494991,-56.618981925305704,8.541349592542785,-20.97044556393797,12.167014170102158,3.082785083326257,-60.86474548044967,-46.37489336819779,5.82864595943271,-5.7332028405255,9.554638239365175,3.864504464817539,-11.823382697407702,17.789761699639698,-0.8974509692872106,-21.481183965768555,12.62106441529107,3.185702197408651,-31.091099595945103,10.826302954171277,2.6198991908437272,26.08025613558336,-11.132995734680494,-2.471333673932901,5.537221167164745,-1.020215686341658,-0.4955809352687684,5.170367893710629,-4.255493993166751,-0.6514141766885893,1.0056190547033172,-1.5113425238313727,-0.5576125138819863,1.9647829319089858,1.1728686694745885,-0.0656762030596647,0.2002891600269341,-0.13176118107886214,-0.09758235502493112,0.21659264153697944,0.10151219861314191,-0.00855675492509155
-1.0864665335939554,-57.90827064180053,8.778832010474705,-21.229789947231936,12.093205078477736,3.057012596717419,-62.52285693773149,-47.062528981954415,5.920864189696517,-2.9026885767208785,8.248371832334115,3.9365241554721404,-12.220568001465548,18.475901936628087,-1.0254118257352878,-21.30435214106135,12.571821450950706,3.1242975382459397,-27.216947158378467,10.787916768781036,2.6761233197669645,25.886718701194475,-10.549976308350185,-2.030252805082518,5.630149155934995,-1.0674758933979676,-0.5740541605856633,5.2510410028429035,-4.337135478674369,-0.5848980306579372,0.9689204924195918,-1.4258559869181884,-0.5057109461684968,1.9181881939296217,1.1385737394980868,-0.0475822431566298,0.18893066533403735,-0.12274317096111603,-0.07799055951132884,0.21127041388042772,0.0915303015518911,-0.002492093621776925
-1.6717227688105951,-59.27157168387493,9.094136340373543,-21.382753249588248,11.900612588577026,2.976455911197416,-64.75393930026979,-47.47915006139981,6.320466480340257,0.15229605227267218,7.240150343651676,4.096680171789542,-12.707332452431618,19.193576805236464,-1.1614386703964619,-20.780532409769613,12.277803754695142,2.978191882080112,-23.712727505889568,11.904642953735491,3.187586552894632,25.341243990063198,-10.952414297730568,-1.1249731564171117,5.740911811607802,-1.1348199105061623,-0.5484914766847387,5.407981959496927,-4.402448812973551,-0.4713559259676432,0.8778583002469448,-1.420025676450369,-0.41370921942129846,1.8974091454891213,1.0988341167274385,-0.014958908128592208,0.17594572782704068,-0.1304119607212702,-0.05189225690087894,0.21057137590344654,0.07809712111116054,0.007485947863656614
-2.549391930537196,-60.83096851232101,9.511125083124583,-21.393404154011343,11.59199341812091,2.8573216982746725,-67.88083924745861,-48.00466510296836,6.870738359699582,3.082516031362358,6.354393796269203,4.309464234545831,-13.294394244567231,19.927075936021954,-1.2995659602764151,-19.760079503800746,11.627776688080468,2.7278211368354817,-21.49726937212863,13.33880753969009,4.016473955626679,24.169815362368546,-11.859824131172388,-0.12236192738778612,5.839403053108618,-1.2148975765820835,-0.46221460430243455,5.520921478859171,-4.3828320774428455,-0.3535539196393371,0.7475938233153612,-1.463300712138441,-0.3075977618337019,1.8914797879542007,1.0520046578560451,0.02639155123975264,0.15909128565276487,-0.14428291882078947,-0.026368314019668295,0.2117889756859314,0.06356078526468754,0.017935159435696974
-3.7580286863624206,-62.694094035342644,10.035650682691806,-21.17440770231444,11.19384180302178,2.715795941370244,-71.99607985343471,-48.96618243348261,7.3767765940237675,5.959696684613169,5.2827915878332545,4.486173996533067,-13.984530699615629,20.672853572349098,-1.4385623038088085,-18.164165873197263,10.569435147784592,2.376816538135536,-20.45873436348215,14.246694222963308,4.87279338907054,22.21365771813742,-12.602527116946009,0.7222706482076429,5.9000486524780635,-1.2817823261347017,-0.37823203592948584,5.539548299182798,-4.289643488829887,-0.2533252422855225,0.6170152769206996,-1.4986422573607143,-0.2201084250391975,1.870803406282081,1.003831215861849,0.061099357750940185,0.1408499191051022,-0.14903782659783166,-0.009581511515596327,0.21121174527261155,0.05182611298065588,0.024648849870877225
-5.255377089960401,-64.85913801319396,10.636775493476552,-20.646193553256634,10.752038182517413,2.5578970454817496,-76.86794167759102,-50.385423198659595,7.720715657338754,9.07356074301308,3.842830379882476,4.525862250831015,-14.756630701277281,21.437714217465896,-1.5878265540659173,-16.013943533816406,9.13336585526137,1.951969041118432,-19.846809513462752,14.395840855865574,5.4712408699214246,19.672982260755788,-12.959067025146396,1.327315481030691,5.910152960281218,-1.304009785318795,-0.33220093837574677,5.482921389568362,-4.1767589916929015,-0.1515319415324936,0.517552904076479,-1.4852381186437298,-0.17348064546639536,1.799261496478099,0.9601823219700281,0.07845897360633083,0.12607877925948688,-0.1379495289584683,-0.006552993744230897,0.2020661328714403,0.044234276331666975,0.0276664310034016
-6.896793587448183,-67.20239459303916,11.245192518281208,-19.748470321619386,10.27955363299515,2.3781535382362295,-81.9666686363183,-52.01378114755214,7.9101669529687815,12.690418630912669,2.031162988207997,4.351173653981154,-15.566791576071873,22.23159782481614,-1.7684041301037685,-13.432111009280288,7.427046041618732,1.4975015371684577,-18.87974669734388,14.00807088362927,5.701283007402253,17.11277815477256,-13.125364525708621,1.6177459231421567,5.866307924132888,-1.2729639802239472,-0.31650871557996585,5.382748671859911,-4.0559840531285865,-0.04939370381637498,0.43398130650998784,-1.4147821323462757,-0.1558989295469659,1.6732918490012882,0.939376938489149,0.06619222876024355,0.11400165868639167,-0.11643249700147498,-0.013357233955914186,0.18303253365823968,0.04431384582884379,0.025794038605310304
-8.531715322330358,-69.53548528356325,11.790060527745045,-18.416272191947606,9.755658512096819,2.1711409237183723,-86.69974831374492,-53.54938613007863,8.011990405163463,16.96086149320758,-0.062456082982691896,3.963222353115105,-16.37883875394607,23.071452506269353,-2.0018000102812996,-10.621177475751345,5.615740048411449,1.06820449229166,-17.01944605412462,13.318674122229947,5.698002153558884,15.061346423382766,-13.363069440724685,1.5314435754434843,5.768532865928955,-1.2069430019541678,-0.3053845163538641,5.256557013388875,-3.91180536660627,-0.0011766534201123058,0.32574999743342614,-1.300249814234776,-0.135462241468534,1.529937307123618,0.9645107537139862,0.01560650890903284,0.09879297325559772,-0.09391194193238547,-0.020618993729933907,0.1606793378462261,0.05762710291872403,0.015208998377660711
-10.082121325493262,-71.64916339701801,12.228945117331794,-16.58010136987336,9.115137881178754,1.9343970930845062,-90.69861864337275,-54.701036125310594,8.080743571503234,22.010365147901254,-2.4484597978107425,3.407100784189228,-17.179671607436042,23.97718068775132,-2.296731642252547,-7.815345076717489,3.8803692622579957,0.7177941281806921,-13.829541106967826,12.454886298308605,5.585579505460108,13.685650521333262,-13.96993916223973,1.2114526561615238,5.629030299229522,-1.1388936785977883,-0.26926484993899635,5.134332584695077,-3.7781577180465047,-0.050732313804233736,0.17628061647681711,-1.1821599996029235,-0.0880033481370409,1.4208799339073779,1.0285464852747672,-0.05499626074406061,0.07750207027699325,-0.08145217977168959,-0.01969792400430871,0.1431703705874368,0.0812698768050349,-0.002608215001136626
-11.534127613784177,-73.41723032015965,12.559170334109936,-14.146904248179716,8.255439093926945,1.6776609733214827,-94.05650285218366,-55.30433576045065,8.163427015761908,27.921165242417125,-5.19178785400034,2.737374325168684,-17.96708431902882,24.943634316677972,-2.648665964113376,-5.210062826207588,2.3586874547995,0.49810107647016455,-9.382396528194654,11.4267467661296,5.342558107487921,12.701430097719875,-15.207178074339737,1.0034678713030512,5.504746783937016,-1.1100173763378254,-0.18442236952140967,5.073922615456645,-3.732186048313917,-0.15765217794503003,0.00708563040176588,-1.1224286455269472,-0.0014065083184508775,1.370872818242553,1.0858625979844032,-0.11071737030438614,0.054399738356465846,-0.08923198300228748,-0.0039028606302154226,0.13187574605216754,0.1002412234674489,-0.02044363148084711
-12.86038125,-74.84165875,12.798615,-11.1764375,7.251804999999999,1.4362837499999999,-97.07490375,-55.40594125,8.26695125,34.4000375,-7.96779875,2.17260375,-18.738262499999998,25.94131125,-3.0422399999999996,-2.96448625,1.1443,0.44147625,-4.481325,10.41395125,5.11134625,11.494953749999999,-16.77299,1.1513875,5.48343,-1.1359299999999999,-0.06994249999999999,5.12552125,-3.8051087499999996,-0.22295124999999993,-0.15484124999999996,-1.13497125,0.11861124999999996,1.37023625,1.1008825,-0.13131375,0.03555375,-0.11243625,0.0246375,0.12499625,0.10248125,-0.031785
-14.025838750000002,-76.19044500000001,12.907156250000002,-5.655348750000002,5.47632,1.021485,-100.61310375000002,-53.503381250000004,8.39207125,44.57413375,-11.678155000000002,2.2226712500000003,-19.845160000000003,27.612362500000003,-3.716120000000001,-0.2618187500000001,-0.159175,0.53682125,2.956035,10.326546250000002,5.260468750000001,8.273692500000003,-17.839341250000004,1.7283674999999998,5.685697500000002,-1.2116987500000003,0.04098500000000001,5.4207725,-4.031618750000001,-0.12123875000000009,-0.44154875000000016,-1.1241587499999999,0.3416312500000001,1.45255375,1.1087612500000001,-0.10426875000000001,0.0155275,-0.13433750000000003,0.06028125000000001,0.14348,0.10168875,-0.0325275
-14.515529428675185,-76.75289823103967,12.921400710651637,-2.7639540205057394,4.578996628379153,0.7452948731131722,-102.42453942543777,-51.608778075908354,8.560436302590862,49.46649704957459,-13.43739515363983,2.3222381203428233,-20.49935020430011,28.598203735326173,-4.112222463337984,0.8492597269778894,-0.6404013694064981,0.5839954670043119,5.915054258040252,11.278220629991,5.279661116208423,6.316987392762608,-18.28513736700048,1.8003945248493423,5.886571623444064,-1.2332685425579748,0.12280530311853174,5.6113270945053,-4.206135640255238,-0.05910995458288203,-0.565975942247178,-1.179827762994567,0.41881178448593187,1.535939790574865,1.1112713486495718,-0.06676256220284066,0.014792839138225218,-0.1539951629304013,0.06655935635044184,0.16121361595930478,0.09682104436324146,-0.025783138678903687
-14.78233618105352,-77.13035763058153,12.89604165064367,-0.30296000444382476,3.790215823023447,0.4555112856193771,-103.81728205397208,-49.3390502046708,8.781392084994202,53.220364772931674,-14.807804673730491,2.446265967406999,-21.124767881980674,29.541756795736013,-4.488327178231429,1.6130011284037367,-0.943056095082343,0.6112947451261423,7.684360010397773,12.76505141701369,5.257592205870377,4.7789587568138945,-18.241099833886807,1.5185428732391921,6.100664109548333,-1.2468309517576093,0.17901475125399507,5.776859333127573,-4.380171181364663,-0.03596994638178276,-0.6384671411051055,-1.2595267122080318,0.43075032411362646,1.6315361829078738,1.1275482794367497,-0.03069380912497328,0.021986394709138445,-0.17286533601414628,0.05636139395634913,0.1804644226588204,0.09249931229214353,-0.017474824552537713
-14.859816379873967,-77.39138956381589,12.850563228219002,1.7989916487914983,3.0867454137779244,0.15626560726682642,-104.78739719931687,-47.029933190522556,9.001357663832973,56.05400204333645,-15.817848159936624,2.563274870338092,-21.71437152438222,30.44104936684805,-4.840271218794726,2.1066766430166997,-1.1119878924158337,0.6196355003902931,8.605256501042302,14.399825572586614,5.144499972268312,3.8662386439080763,-17.750078766368645,0.9643487099103923,6.282998036007153,-1.2623928114024694,0.20634488337512566,5.904682659968878,-4.530537947130248,-0.0465009830363498,-0.6692676613492176,-1.3426689775973792,0.39593571495184493,1.7170099310044442,1.155515161041717,-0.009833951728364897,0.03251352866664118,-0.18835147064823923,0.03677547228924834,0.19822917657563818,0.09049682978558671,-0.011608276343037675
-14.790415112425974,-77.59648800429179,12.805135834223595,3.6197604312666813,2.4451023336242343,-0.14684069929242924,-105.3528181143414,-44.99394342686693,9.165866441412561,58.24502757954306,-16.519500174321895,2.6613727056294527,-22.262155723371798,31.299231075453484,-5.164383590704266,2.4028698219080056,-1.1899210620846845,0.6118739201370236,9.100380586305114,15.79057387892314,4.882889693862565,3.7367101214543097,-16.917390811377402,0.2660888703610427,6.388907084430958,-1.2867736450206944,0.2080628603982807,5.977638463345924,-4.631486313524549,-0.07522992008728754,-0.6700693302258394,-1.4137241796839868,0.33393851748980036,1.769107561000588,1.1876431565019283,-0.011188352469255293,0.041801043914075936,-0.199059054740722,0.015135150174460675,0.2112755453681042,0.09169279425918252,-0.010493472568993623
-14.621433842226311,-77.7781906852407,12.77764762694028,5.2490602540998665,1.8312536811971858,-0.4472718765193033,-105.57867400535491,-43.444348842681684,9.237488116416678,60.074847738135325,-17.015543905562982,2.7216708822550553,-22.763211655553842,32.12705029821605,-5.458700192314776,2.5632299433752928,-1.2109895498328394,0.5929509914094507,9.501378740823231,16.58677108057762,4.395028726919034,4.393258844683542,-16.04447148165079,-0.36173218965565224,6.387307249624835,-1.3125074793403773,0.20642700234306874,5.9879286799723666,-4.661148104723801,-0.09000495082491872,-0.6568032304945663,-1.466811076633829,0.26619437315998773,1.7719337259555052,1.2122374422540647,-0.03134675183300356,0.04525101570554814,-0.20494335605798983,-0.0014337902081735902,0.2179483555482103,0.09593130409684772,-0.013667060495981985
-14.381624442581003,-77.9423011257308,12.779358689308797,6.781155934948785,1.1936179299647034,-0.7415774943288729,-105.5440204761014,-42.468288546180375,9.20452222666708,61.74428544131218,-17.44880858254648,2.711736449364346,-23.213872642661034,32.937488836481805,-5.721919039228128,2.642324149008271,-1.2029212559904987,0.5671052824997659,9.95621067040899,16.534628218467457,3.618112163577524,5.626937865077495,-15.445225048626924,-0.7073731270625006,6.2732432155666125,-1.321155147352553,0.2268166487689423,5.938688747678752,-4.607160810906762,-0.058822662022462543,-0.647828799358769,-1.4981977164289646,0.21050827827187704,1.7185255073321777,1.2199462936756227,-0.06199622469183974,0.03865457773191952,-0.20536115108199546,-0.008445642059048753,0.21745814938857214,0.10271609198336511,-0.019305566158054316
-14.062790090479663,-78.0836170697982,12.808451326266496,8.288096031291975,0.5198381393752961,-1.0262095688403434,-105.28462439237212,-42.045145824068896,9.058727965629789,63.351824242524366,-17.90993786973896,2.620470264648887,-23.613177508393075,33.74443216618477,-5.952760817483185,2.6853973701189022,-1.1839902100612734,0.5407061225477802,10.489526715468894,15.584548423096358,2.549527431037631,7.050779711413869,-15.386889723521442,-0.6770304591047343,6.07875353142073,-1.2963341650935236,0.28637192114317267,5.841931849405037,-4.4731564767631475,0.03503699626445694,-0.6570343846555069,-1.5094761444397133,0.17551610239396154,1.6172019418108516,1.2033764618322575,-0.09143553323298084,0.020453624603252448,-0.20032906270759768,-0.005342590124385338,0.21088035981844827,0.1101832256399263,-0.024719468800246263
-13.62365422190941,-78.19731844322709,12.851562867719544,9.81124187567442,-0.1680068372871324,-1.3006100924791681,-104.78142705552347,-42.09046240921753,8.771371986554314,64.90611862642257,-18.43909627381838,2.464073654554044,-23.96281279920302,34.561236532487555,-6.148479704066965,2.724120938094738,-1.1618301865393104,0.5182037855270247,11.081071443270481,13.82883558597948,1.2179746627448904,8.189640075570042,-15.941080224099437,-0.3271031974609766,5.862652044269847,-1.236636195649018,0.38121097979454066,5.714909886983504,-4.277943822203113,0.18766269357088364,-0.6962804869616084,-1.4999768424656612,0.1665057143340028,1.487701586841844,1.1597149832077664,-0.10815975723217675,-0.008809055970938225,-0.1897816649503437,0.006298393055154845,0.20048542822585597,0.115930772541853,-0.02743068249795635
-13.008743450320681,-78.26183707135229,12.889321246098786,11.341718823822628,-0.8226709012147868,-1.5669514604103911,-103.99996445953684,-42.41397125941042,8.31933849079571,66.3517105378558,-19.02346521012199,2.290532255712921,-24.26640778341376,35.400198361471396,-6.3048059876603855,2.7725929711732444,-1.1358949152410094,0.5006785013622319,11.70812484094348,11.567068294637856,-0.29985605112708713,8.642934352419726,-16.957284307549365,0.13795450173637214,5.689247340803137,-1.1584112694602946,0.4912782370416905,5.568453235145952,-4.048408767390413,0.3689829001602582,-0.768650554935315,-1.4713009806757062,0.1851256763848655,1.357850843450099,1.0937625781285027,-0.10277457254937888,-0.04558613155123675,-0.1749463655892861,0.02405988018191151,0.18928359635810876,0.11790391279038422,-0.025510767024855985
-12.170203096619474,-78.22799752738362,12.902074720391704,12.848782885849012,-1.4060465041689714,-1.8266286772295581,-102.917248538357,-42.73311571061922,7.71747884074145,67.61469284377156,-19.615189028467057,2.1678922329352224,-24.528272670982997,36.26938220124004,-6.417700988923787,2.8346158872328164,-1.105725229586989,0.48830602972787807,12.381734370843267,9.25354304735297,-1.8721319825426206,8.15411044428125,-18.060663135970803,0.47205038263940136,5.604837580446102,-1.085993490628213,0.5859485468083863,5.405008554575651,-3.8177977347262595,0.5300820158963028,-0.8682241080875261,-1.4225713330076175,0.23055739524138907,1.250315651466566,1.0170750563071334,-0.07288998065575171,-0.08458966947917418,-0.15673712154619784,0.04546893560830983,0.17838985204525204,0.11498668103264567,-0.018597448594461413
-11.085029357536774,-78.03377792034354,12.876123234944945,14.27913110463829,-1.8865551733348487,-2.078037752932857,-101.55030646314964,-42.75283659786793,7.030066219183657,68.6392239227669,-20.139478018939844,2.174646028327166,-24.751672407132375,37.17022358946292,-6.485726316661491,2.9038722762407465,-1.0724744873251357,0.48089000250847463,13.142156057020182,7.3874668525228735,-3.312482504333439,6.659175755600833,-18.820494343414587,0.49822233637405705,5.614831360092486,-1.037974558480889,0.6399362429937427,5.224622611662573,-3.616294989346752,0.6183733726025464,-0.9744111941279812,-1.3558350710045168,0.2946306866820576,1.178552122252278,0.9474574037354014,-0.02613850027448155,-0.11868528284729024,-0.1368370484630334,0.06761169316199081,0.16767999928685098,0.1078062917671472,-0.0085082093794646
-9.765430352084184,-77.64072283509923,12.8085022062516,15.579102010459087,-2.2323542470832183,-2.3184756534391626,-99.95396323547051,-42.29864648211607,6.347084186102601,69.39707474858096,-20.49731415194796,2.3917252106622637,-24.938597026711264,38.095497627539956,-6.511495040849811,2.969939520806028,-1.0374766393095198,0.47766391081486376,13.998478533464185,6.3351893963374595,-4.407250309749855,4.30209945192366,-18.959588750848845,0.2214069344012602,5.6812708488596115,-1.017083810320608,0.6439270496984696,5.039251929325199,-3.468572683772992,0.6022750380536369,-1.0604147672592226,-1.2782258214994566,0.36195087444672047,1.1450397039115625,0.9024183748888721,0.02346316591362839,-0.14142695363345265,-0.11748568856916468,0.08691749245973622,0.15701857830578575,0.09851795998646454,0.0016982024919547506
-8.248650293173972,-77.03660597618602,12.70484257866562,16.689977654274493,-2.421919118807246,-2.540494341425084,-98.19837086786794,-41.312399419607466,5.743335120991768,69.90792788907865,-20.633701577331692,2.8776963237943427,-25.08888746391058,39.03359072949263,-6.499214219792434,3.0200404022640885,-1.0011552303537816,0.4777926868438233,14.960279509666666,6.265597277126131,-4.989308815691597,1.3765813421756823,-18.50016469088814,-0.19877541481184563,5.74433185065902,-1.0149097107533347,0.6103593668966645,4.874543301057452,-3.3873529884753277,0.481745922188498,-1.1005507449057759,-1.2063193140395192,0.4147416789761727,1.146520225467499,0.8956636840511172,0.06091600657112897,-0.14794536919674034,-0.1024565389500983,0.10028927615785194,0.14805534136421886,0.09059083717548268,0.0088326031773997
-6.585231042980858,-76.24347491695308,12.577115222212168,17.56106933065778,-2.455976755425444,-2.7339875499778983,-96.34642067630583,-39.84236095586714,5.265888911966686,70.23212857718298,-20.54673787370476,3.6524470146292813,-25.20195122976044,39.971842854670044,-6.455064172893021,3.045660444437168,-0.9652813494627113,0.4786626991871651,16.040119154596027,7.186490236392927,-4.954323021150712,-1.7146264180491284,-17.715827398943443,-0.5462307446764832,5.753673167535197,-1.0199730834336154,0.5596757608361136,4.753211989112466,-3.3716088193999796,0.28313415504448436,-1.0795197364009725,-1.1589453524212372,0.4351293954537326,1.1740193631490183,0.9308435654262188,0.07714736021595114,-0.1363394364039619,-0.09554145592625998,0.10456758894001203,0.14295208009778992,0.08689881631032217,0.011290146592748278
-4.822284413019475,-75.30758417266917,12.436574029449588,18.159387107179974,-2.354299693371865,-2.889995895407934,-94.41526784334712,-38.00005410029233,4.92388767370114,70.4452263450491,-20.292367291973186,4.6744014362772255,-25.27700778980796,40.899934333062156,-6.38687367947989,3.0442473955260025,-0.9320429100227334,0.47563177660695727,17.299872085173355,8.9715136116912,-4.297045993232658,-4.5965760728063,-16.978500669805847,-0.6756372395751298,5.688097143515319,-1.0287600840250921,0.5104779652388455,4.679627736051588,-3.4099398603897804,0.039221166336645186,-0.9964389263382223,-1.1545425719579931,0.41063358466815125,1.2152814751801087,1.000883985284795,0.06991189325298804,-0.10725419680791717,-0.10078283289845204,0.09737495987709413,0.14281952389358019,0.0886145672351085,0.008925798737598887
-2.9957259366778497,-74.28898521457197,12.290257717269618,18.483617998153804,-2.147820938805914,-3.0062594750228366,-92.36073475410633,-35.930708609600295,4.697963297826754,70.60557435360343,-19.954915963243074,5.846475529406584,-25.313061217495786,41.81073641381225,-6.303544505056935,3.021298228799246,-0.9044411965772601,0.4622845813713088,18.832629930137692,11.41031182235167,-3.080365699848632,-6.991918811315321,-16.567676274061505,-0.5638645353192194,5.5580920031551235,-1.0480637360203406,0.4737186313339572,4.637392776116619,-3.4841924992939557,-0.22460630373410828,-0.8688707982967642,-1.2070060887425846,0.33860055731104505,1.255962382048868,1.091407301952585,0.04178929655958014,-0.06495147312594772,-0.12169209878670431,0.07816340221731936,0.14658143440183638,0.09482788302640542,0.002634014157384551
-1.1275612651331182,-73.23142982713067,12.138276676099062,18.568409879206,-1.8798045744927399,-3.085186834689896,-90.10604838015836,-33.75841058287132,4.553477138223807,70.71303806808672,-19.64843921089814,7.004942366825704,-25.30914990551308,42.70039354298479,-6.2125233769510135,2.985347449680789,-0.8849211078355568,0.4325291851920249,20.670581901033444,14.189899591141055,-1.4900045047947303,-8.837516454422232,-16.53403724161539,-0.3036647259275373,5.3961823017107555,-1.0875887398072774,0.45242722497511606,4.6049319312315244,-3.5763077375393375,-0.491048540354803,-0.7297615209637387,-1.3114514035874851,0.23543587491775386,1.283727979526449,1.1855252056251404,-0.0023383452909247517,-0.017096519086598275,-0.15727241704390632,0.05083780579708731,0.15116499972283975,0.10308545031736757,-0.006493409629188338
0.7646286870514141,-72.15230977614998,11.979580760912407,18.471691176039666,-1.59461157063792,-3.1353793541392996,-87.60698647865058,-31.571021671660716,4.47000998555203,70.72248896773888,-19.44025361900956,7.991694365085389,-25.264949366936737,43.56827350044004,-6.118940598805203,2.9427153987504653,-0.8752262073243906,0.38160096610144,22.7099643504854,17.007880147795404,0.26386603521063234,-10.206087600854522,-16.751233774880333,-0.014833767143683951,5.239731984677476,-1.150489264716419,0.44477417957640186,4.5685236150871145,-3.668984783640224,-0.7415790922218677,-0.6125453085952884,-1.442860876659037,0.13107369591013496,1.2894615120203545,1.26891627380289,-0.05578234564162919,0.02786484808778064,-0.2003619850434606,0.022842610486751493,0.15277475862802053,0.11082169235467361,-0.017198135393094713
2.658033718370768,-71.07592020055584,11.820810323729532,18.25667990750118,-1.3481981493863096,-3.162565822097185,-84.89756751501884,-29.48186371331337,4.4512960539529605,70.55911947820664,-19.364399473866648,8.663814877216087,-25.18258594398951,44.41349421214982,-6.026813379775869,2.894278684551973,-0.8770261520746985,0.30838318958983213,24.706255104573813,19.527614849117843,1.9301988734239985,-11.271058128307512,-17.081421546612837,0.2169816641965484,5.122540798511255,-1.2290688291447078,0.4465136112069562,4.529854905818059,-3.7489205099111578,-0.9502925216223576,-0.5421296891941733,-1.5641727040387294,0.05876947295404929,1.2728656815515584,1.3302957653371532,-0.10674667237947974,0.06282435275117337,-0.23951326448328544,0.002431947746410937,0.14924384002325464,0.11593822110186859,-0.02734744866216905
4.521456934779998,-70.06212946868584,11.68051560628692,17.99341385741941,-1.2026183159706823,-3.1709559898825592,-82.06441356827114,-27.696160413439564,4.5032770399828665,70.18076935227728,-19.43290107684585,8.92975139028762,-25.065389513632596,45.23354030808957,-5.940140747733247,2.8409706607454597,-0.891455628768786,0.21514807506601216,26.44173593182791,21.341546957940647,3.2717595800832804,-12.16901722884073,-17.47702997498115,0.3775634168549641,5.06491922927535,-1.3054365081734527,0.4554779256657854,4.503386301171546,-3.806254099660551,-1.0907711954605293,-0.5330875256290577,-1.6410050083491703,0.042466554765526354,1.2433300553949398,1.3674303900044915,-0.14210941945595748,0.08263048899060481,-0.2636071680117371,-0.0049004130284559105,0.14141401221828978,0.11853873239999947,-0.03466932438936882
6.327316342908116,-69.18618104584114,11.578204742192197,17.74003759050587,-1.2068201381851904,-3.1603524392275997,-79.16731296960984,-26.438289595131895,4.61266116278449,69.57486111344045,-19.64491413720522,8.751416332322746,-24.916154833941256,46.02503258822174,-5.862840983260085,2.7876046765261964,-0.9181532755382675,0.10734520106275208,27.840441480788193,22.080054428603262,4.113175432108409,-12.938367933430577,-18.008693303434427,0.5013746184253378,5.074610263652029,-1.3576247483244572,0.4701377717717427,4.502726332607448,-3.8323390988959494,-1.1429854043372358,-0.5885231556115099,-1.652904697838077,0.0870820880736353,1.2159554367300598,1.3837813096974392,-0.1504384633523605,0.08518148696114625,-0.2660538461683167,0.0009265520834307647,0.1327677800782718,0.12034677742364033,-0.03722306650655137
8.067006329061043,-68.48224204636102,11.516507758416996,17.533851770230367,-1.3546176068978972,-3.1345308202539903,-76.18017017757771,-25.785072217283528,4.73849850552371,68.74211936502357,-19.934968354841022,8.189098948287196,-24.73603310270092,46.78720697453933,-5.797781042750226,2.7429419099678967,-0.9519163021983179,-0.0067581022594757345,28.99950818187935,21.692264300732923,4.45106686400167,-13.53752978212437,-18.779469742361705,0.6425761465976962,5.139118491894882,-1.3666749827817628,0.4943473497907728,4.532543130263507,-3.8212893899174736,-1.0965295131460335,-0.7014745700788345,-1.5980620436005424,0.18117368327040168,1.2014517480579996,1.3862979832539986,-0.1296406185589852,0.07100249681147913,-0.24676762341434988,0.01619845723579044,0.12700357389648492,0.12374895538457112,-0.03477631054750201
9.75539542938061,-67.92497988757619,11.477777630599697,17.37956974071725,-1.583035674878206,-3.098970639996937,-73.01928973997926,-25.609636389838982,4.831683079219368,67.69426372077825,-20.185195133592067,7.364728429157235,-24.525851412987954,47.52105889793317,-5.745468233154173,2.7138234594633426,-0.9834215448961289,-0.11673626804969221,30.10188205372142,20.5087538507546,4.412193256695265,-13.947524302519774,-19.85472595427889,0.8342461402921877,5.233413307842334,-1.33161554755311,0.5353433005144901,4.585306673372649,-3.7797436459824096,-0.9534114971504659,-0.8574078786174671,-1.4998015120124586,0.3018234173296235,1.1977689445027273,1.3778809676065151,-0.08636888935841314,0.04315838823459669,-0.21390176740256076,0.03572339751577909,0.12538030752912963,0.12917630475567615,-0.028172651768985955
11.411850110336449,-67.45483591197377,11.436704484227945,17.257774647754864,-1.8086792864513055,-3.05607649389896,-69.63724459973616,-25.66444680472999,4.849711029908894,66.45275172824664,-20.284263312266937,6.4208094044827755,-24.288361720365124,48.227226409950816,-5.7046779848529905,2.7021800082987424,-1.0039728393650207,-0.21237767367293742,31.27184472322032,19.055383485288537,4.160992865857743,-14.216295688967826,-21.17142314063867,1.059162426109137,5.32111108486832,-1.266886098134679,0.600604491315084,4.6441038554254135,-3.726757004403204,-0.7283717087897997,-1.0378199422745833,-1.3933031832422569,0.4246763916156504,1.1886292671443726,1.3579619569000076,-0.03493190238840797,0.005637906567569845,-0.17939820800621425,0.05537598477787931,0.12538235855808494,0.13519691714144513,-0.01929418226591646
13.05721663890495,-67.0111885529206,11.37138242963523,17.12692276280653,-1.9679575875291941,-2.9975798977268435,-66.04571028566235,-25.73807853543431,4.763273230768922,65.0549565607565,-20.182524661615894,5.449379361724787,-24.02837923899526,48.90446537323054,-5.673015816030668,2.705064391082528,-1.0091709187315563,-0.28535325202586037,32.56316789357764,17.713407335171297,3.7567025738295032,-14.377241325891486,-22.546547340334723,1.2519753384973684,5.372799105214831,-1.2012661372786368,0.6836189296131621,4.685580686522027,-3.686571642697933,-0.45671983160104096,-1.218248670808804,-1.3145407460246985,0.5260358045019925,1.15405763326645,1.325879956593829,0.008361323041828073,-0.035819650733598954,-0.155141630499521,0.07181881804041948,0.12252646546132007,0.13923566165094492,-0.010324598081357283
14.707816251742457,-66.53672463264991,11.267612806635753,16.931804435777178,-2.021979317592789,-2.90957305457151,-62.34124119092253,-25.671517983616383,4.5672710058826596,63.51390380696181,-19.86123378436873,4.53682375193439,-23.753299311768746,49.550727288682744,-5.647655782909808,2.714822109574134,-0.998907535909445,-0.33101619803117016,33.86113470033466,16.73558792474518,3.228536239190234,-14.401742119315811,-23.742981459704907,1.317306718203872,5.373015138645399,-1.1623521043265657,0.7647405932192088,4.68807319771501,-3.6750124717990014,-0.185262275295847,-1.371487510397341,-1.2853227674500012,0.5876822958688088,1.082630696653947,1.2830882221211526,0.030022198738853194,-0.07492855199399215,-0.1478130738203261,0.08276395796023242,0.11342870432506963,0.13906379170095454,-0.0035207191584973006
16.37534654165727,-65.97764068255086,11.118859383567916,16.60388546206411,-1.9511112652628073,-2.7766563960503285,-58.681390058621,-25.354769694195006,4.293110703141373,61.800652589212376,-19.29839607466815,3.7725125855165613,-23.47252054739705,50.164501466433585,-5.626286846247364,2.7199265579772813,-0.9749814159985596,-0.3475853605424672,34.901785329093755,16.306513066215143,2.631902033093498,-14.154745930996963,-24.583966289648497,1.194976733315728,5.326733042943165,-1.170050023132081,0.8139411508718686,4.639951100886865,-3.6939775526428007,0.03942959245145706,-1.4754414694790738,-1.3076057568806299,0.6019343596317743,0.9800440658103791,1.2324300162505257,0.024396723881247778,-0.10625851826201248,-0.15695601008803256,0.08734016280095115,0.09820131017349071,0.1333313986196889,-0.00043071743695811265
18.052352651998508,-65.33072724086226,10.936036278962758,16.0759814617258,-1.7515361451644802,-2.587541222678881,-55.276890665483805,-24.80106580228361,3.998161323904861,59.831118849085534,-18.45750056836713,3.2610708909599952,-23.1963855283212,50.742838457497214,-5.609074492863033,2.707567588893119,-0.9399432457500789,-0.3365028161151954,35.2521989609142,16.54238622696743,2.1243431535503707,-13.504801488414213,-25.000484474728417,0.881740835071954,5.249528556512945,-1.225741340846606,0.809818758636671,4.54896630699827,-3.731174008597476,0.18585979986231138,-1.5223485490672393,-1.3633369443364325,0.5764816790087753,0.8688456093165277,1.1813577116027822,-0.004545208679117833,-0.12770566678191717,-0.17527832974766816,0.08736432411928097,0.08087234664836704,0.12283784457111353,-0.0013463382751378004
19.723354162925535,-64.66047342404241,10.744497379751659,15.316730614199978,-1.4503749958476804,-2.3378345710385395,-52.27817233789598,-24.198137061373266,3.7279971005004926,57.54983998279297,-17.34549232808498,3.0400212605982113,-22.932042297238947,51.28289440282413,-5.597949942024767,2.672641622471362,-0.8977916479349596,-0.30204986789171756,34.59550244216374,17.304977710833462,1.8369048419083283,-12.429703177905461,-25.024368501745148,0.43296533160183304,5.158775038965697,-1.3134345027278083,0.7460080912931237,4.438213742897062,-3.769258505135876,0.2430539914759173,-1.5206376331957185,-1.4222791671629174,0.5307474617635444,0.7778348927238712,1.1422147916233167,-0.04489101896156367,-0.1404628234420697,-0.19220893205435563,0.08613633868678494,0.06706435502205109,0.11092823017677043,-0.005069292441827549
21.38569760939489,-64.0456767044312,10.564623491527856,14.353912449590998,-1.078971175241776,-2.0349410852989847,-49.66242440153849,-23.76388773150493,3.49155145608113,54.93871669610487,-15.987506616662335,3.07767819822904,-22.680883072584372,51.784709806787674,-5.593449853763597,2.6215672088747777,-0.8528484187224279,-0.24973675872799975,32.88203855711225,18.307227423398047,1.8172187574035297,-11.045604901763218,-24.73318219896619,-0.08853850134636398,5.07109776425823,-1.407157189079391,0.6317524258103528,4.334876080837319,-3.7949487773498642,0.22340955846682176,-1.488409543287438,-1.455502955674553,0.4849134099918361,0.7266347539679382,1.1238601784407622,-0.08276194056814823,-0.14738071373409012,-0.19852154621429585,0.086269072981116,0.06043462237753439,0.10109346807791117,-0.009749523586746774
23.055810337500976,-63.53228301523666,10.40043371019423,13.265837322141177,-0.6638780080018911,-1.695923917479701,-47.226258072856666,-23.62277406228333,3.2742999996428854,52.00497858661021,-14.416942723166141,3.2778159157061078,-22.440141616850354,52.252538634774666,-5.5935884947567995,2.5662052958521633,-0.8074727923212746,-0.18388993680655474,30.36493754948212,19.222603186681276,1.9872609793397449,-9.584726535845906,-24.193045034187115,-0.6448558763693257,5.004513803016198,-1.4828868829348814,0.4805533550011517,4.254591170271478,-3.8053974362835414,0.15248233960260374,-1.448117783408334,-1.4432717197479363,0.45270340269641285,0.7156075835331964,1.1266332800742562,-0.1105484889575566,-0.15144399287022176,-0.18918535276999315,0.08780388429608216,0.060314033676524735,0.09524998806851356,-0.014399593358810603
24.75480454335932,-63.10128329240044,10.235555917849549,12.13802597969292,-0.21031450847016944,-1.3365836828529891,-44.687214119972026,-23.70141590111093,3.0637307791468436,48.76111261232937,-12.664620164333803,3.5446171950550784,-22.2063193241599,52.69343285743979,-5.595131774165866,2.515507954947065,-0.7619218926438243,-0.10489024883514887,27.464902441560625,19.93108998282154,2.239931265475848,-8.313708625805514,-23.466623622612282,-1.2371687460446292,4.975030920586345,-1.5253031870291627,0.3058734512523267,4.19456781635821,-3.808195307716396,0.057188742358093236,-1.4178509570815472,-1.379958650195104,0.43752404581461235,0.7263340813217304,1.1389413112295257,-0.13011552344485722,-0.15452638996091497,-0.16434565623672526,0.0884909736695294,0.06199711079937246,0.09216828355156174,-0.019525961381826516
26.495300911205344,-62.72312736164619,10.051922412557907,11.025148482970637,0.2791575528285967,-0.9669744901739323,-41.81330792036536,-23.88615384916845,2.8588124583925563,45.21803754169209,-10.773312684468117,3.8176795530621717,-21.977471088174283,53.11363441569756,-5.5967149119064,2.471640603008913,-0.7169266817899593,-0.010688412427288553,24.56158831576218,20.42734945115848,2.554205363578997,-7.493327017082141,-22.660014940685485,-1.862368540558923,4.9973602652302755,-1.5356623805587548,0.11971312707002585,4.140406078392571,-3.818031099285973,-0.045290366117440944,-1.4110678446576888,-1.2768211018790157,0.43866105941649003,0.7324901790316645,1.1476479647008022,-0.15082824713328563,-0.15786200433425637,-0.1290953513449761,0.08648241293039406,0.0592608798913693,0.08973112390607027,-0.026821423462949263
28.28585679360595,-62.36538280555374,9.832519336921894,9.957616340162247,0.7956121077939887,-0.5901073158280798,-38.45174954566234,-24.029976011788293,2.6633888323701376,41.439429787004784,-8.82527670336612,4.079328756402473,-21.75320002061768,53.51859765593403,-5.5983628607832205,2.4336606969182277,-0.675259270158094,0.10133611673796884,22.015596601508616,20.85799747686427,2.989923416320953,-7.264063485984051,-21.940903326614986,-2.4765820295676297,5.079806807194101,-1.5271810169785573,-0.05929222193574307,4.073859872021494,-3.8416885508843386,-0.14509191190545778,-1.4318949333613304,-1.1615109072541436,0.4520160183961748,0.7126778570980479,1.1428289093319202,-0.18244758799505395,-0.161744027471011,-0.09244565571891952,0.08173184804543482,0.04807035912136895,0.08635202715582002,-0.03776300099774217
30.124097196355358,-62.00339553094641,9.570456970111092,8.956506009541986,1.3153687511309335,-0.20544675261855438,-34.57293973865002,-23.99658685608697,2.4849104086444744,37.52262556688137,-6.9286364681108195,4.3327595238405685,-21.5344372445522,53.91286684257025,-5.6004968065769365,2.4007684807303957,-0.6417143944083831,0.2322304009733473,20.058551858209803,21.399063362990617,3.5994618497425046,-7.57899844737904,-21.456663432763037,-3.0033972476426083,5.222640603222719,-1.5185332842009762,-0.2122595433430201,3.9797655710026953,-3.874684435830373,-0.2407449459935198,-1.476667386142886,-1.0663680079628453,0.47148768546511177,0.6598769701188811,1.1233825125663852,-0.2286243196828281,-0.16545883407389783,-0.06384999767566239,0.07511542042014631,0.028246874146713022,0.08214107327903786,-0.052389939987054275
31.995431340568985,-61.610899351956526,9.267042585247506,8.0418863575583,1.7982045034473608,0.19069440342747512,-30.258963417651664,-23.640509351685036,2.3375607671167877,33.5852128564563,-5.21476202783507,4.568301220459887,-21.322691523453468,54.30061616952275,-5.603316196535346,2.371146375145881,-0.6213288522680488,0.3795818060131989,18.795170661628543,22.22597462681952,4.335283946550574,-8.130626706851633,-21.304550517594116,-3.3572901829861514,5.41173596168184,-1.523688778534751,-0.32006954024636725,3.8598532927185967,-3.90677970042686,-0.3379995388010615,-1.5344495805063714,-1.018131475064921,0.4886583145368686,0.587030923957204,1.098790097900051,-0.28471213304029436,-0.16751050774082926,-0.05037185413950745,0.0676263158433586,0.004778835120724301,0.07913800118475628,-0.06900723059462661
33.87209849269133,-61.170133391269644,8.932227042337772,7.218034340514034,2.213197737717154,0.600524183851784,-25.683980749756678,-22.87990923647218,2.2405148292320334,29.722324159446202,-3.776912860729872,4.7777957528033905,-21.119742845244836,54.68627656447329,-5.607688415577427,2.3394314743206985,-0.6168802115726745,0.5368717719092899,18.161209243475298,23.407469004320234,5.060813011004731,-8.44881552106835,-21.440433259729446,-3.493833963193458,5.624736613201055,-1.5508224156402688,-0.37540473394243784,3.7317537432534476,-3.9330245462252793,-0.45063927989878527,-1.591804676352017,-1.0274381248091429,0.49736330930952677,0.5226707698868251,1.0851632399153153,-0.3385082151853136,-0.16626909921723285,-0.05438273517596662,0.06001392712174779,-0.014307076759817714,0.07982580598642362,-0.08443465470624775
35.72756208666085,-60.6986450805927,8.584199531437692,6.4517731328153705,2.5633916729689465,1.0252074350601315,-21.016488279828152,-21.79964461226944,2.2035697269604677,25.99229256322477,-2.6406195185190335,5.003127894109392,-20.927178058447183,55.07420472880216,-5.614434844566287,2.2963563160296845,-0.6274666788683443,0.6961086768383835,18.042509956501394,24.82807881783472,5.681279364860865,-8.077463169713091,-21.755949798621682,-3.412474637191485,5.832857711273026,-1.6010588422397798,-0.37689891087545846,3.6313549765371524,-3.967452989368626,-0.5983017260012736,-1.63525199628197,-1.0920715131713181,0.4944632431724219,0.5019927483658505,1.100851308285133,-0.3744297879451517,-0.16066789879059554,-0.07473534368240636,0.053283633972278345,-0.020588867461980027,0.08627187847515308,-0.09505738276521503
37.54691840153903,-60.227502439349045,8.240574049066607,5.673150340165709,2.888531933654566,1.46661030425974,-16.373410896621373,-20.581464632257237,2.216514411132162,22.382818355119646,-1.724096451827053,5.313206871661084,-20.74675620461368,55.47018445508832,-5.623129054844158,2.2296945430683435,-0.6468934321768189,0.8506029843784012,18.28259019049328,26.30798837113616,6.157823311039507,-6.868310198165208,-22.101557997295906,-3.1784631453764454,6.0107867310975704,-1.6703983876682695,-0.3359565102181581,3.599887533202473,-4.044453324968634,-0.793536654532018,-1.6535285659934202,-1.1961640206030832,0.4806656125045099,0.5520000008641296,1.1560592483549883,-0.37779615119822674,-0.15044214489490024,-0.106700527974909,0.04846681224725552,-0.00893269487758129,0.0981233179530476,-0.0975081436511772
39.323700213119494,-59.78703014299894,7.9164630734471615,4.7996720292042205,3.2180490373966375,1.9217421538728294,-11.830241957739982,-19.420213591323215,2.2519612677049134,18.828374394000445,-0.8937287303516617,5.714840860722889,-20.580734377771478,55.879813387970486,-5.631929350825107,2.129917878326042,-0.6688243056392613,0.9944842853314204,18.696275458271426,27.674501375709767,6.400263740241497,-5.050619345837625,-22.418194862168022,-2.8902401557787054,6.13712994326747,-1.7469271261205055,-0.26299306321474847,3.6674951246255794,-4.204140020442772,-1.0298070826872272,-1.6402675213310975,-1.3188681023806443,0.4568452594787169,0.6759355091148953,1.247181529975999,-0.3422422390264731,-0.13650314835786725,-0.14388728252116628,0.046149557457702106,0.019554683357817314,0.11255755527491781,-0.09022547978234405
41.05855989090783,-59.40190782266144,7.624854315726001,3.7642868984351328,3.5461995886764095,2.3757353587781282,-7.459056812101758,-18.468032355971175,2.283786414943846,15.240886731364839,-0.011333329666269543,6.088477432253003,-20.43128008038454,56.30744099732306,-5.638342293760662,1.9902296987002197,-0.6872545563061665,1.1221365329149733,19.036967292093742,28.797909709685175,6.194492754881299,-3.1127515155970764,-22.794944554243294,-2.676004715674603,6.1936703083957525,-1.814178502091536,-0.16313411160579327,3.837104889888425,-4.4727282061400695,-1.2766713945784922,-1.5967785312858784,-1.4401601860885584,0.4246172356353711,0.8529625916259616,1.3517850232583086,-0.2712295180243472,-0.12117627291737013,-0.1794555319251172,0.04689297004395811,0.05836580674072421,0.123958933567234,-0.07391763605419746
42.7585907744961,-59.104671367284766,7.377198878823954,2.55289747893615,3.8247841528280047,2.790856550061888,-3.30373967992678,-17.84458743358022,2.295554106206687,11.61611238372973,0.9932723331490846,6.204706499183617,-20.29919062414797,56.75354675593125,-5.641221640818361,1.8121222442687333,-0.6975413190633406,1.2258310275162692,19.203753477528352,29.543941418386048,5.207824239129577,-1.5878561165472747,-23.465891710894283,-2.6375376143340246,6.167262479693247,-1.8552393807453893,-0.02868539455036251,4.077208141327468,-4.839564993520673,-1.4899271233009173,-1.5298839367733872,-1.5501947524981206,0.3837593058714468,1.0457346554537366,1.4368230392799766,-0.17776005278053553,-0.10704100195748799,-0.2087682844116369,0.05103381832071933,0.09818457741141749,0.12638123831107617,-0.051781836704803706
44.44219998546578,-58.93407226688344,7.181270687458782,1.1926321069859842,4.004572939915359,3.123968800465909,0.6573970962010769,-17.62870289267287,2.2898274105309286,8.05287624339498,2.0960350159312617,5.907053476115058,-20.18323843330035,57.215970260543926,-5.640290576871672,1.6015494451047618,-0.6981447840021141,1.2986416573026602,19.29116125543994,29.827504693765466,3.3372294139276497,-0.7721708262549176,-24.643347834430017,-2.853882184174583,6.062236188257513,-1.8614602212612055,0.1447664758762357,4.339846239666838,-5.256478890822882,-1.6325027058161483,-1.4489127342299575,-1.6458352293578575,0.33557048014626817,1.2258317809959371,1.474588563997127,-0.07464249486671362,-0.09583286412647432,-0.22960465566063373,0.058944815547323975,0.1327440687014826,0.11634494047874377,-0.02754850638786525
46.135004773920144,-58.90775581359421,7.033621842445558,-0.25218905687961923,4.0683063444861824,3.3414278617545974,4.5062735459019745,-17.800963926088507,2.2731200076203697,4.7395750243356725,3.174011755732264,5.250223103409574,-20.08037299177778,57.693327736205035,-5.6356496117867545,1.3680669824027754,-0.6884660813382846,1.335356049977431,19.57208556761637,29.6958191138497,0.877192014749038,-0.6762245989320896,-26.30960763940678,-3.3447474891525926,5.914519749598529,-1.8391458208946099,0.3452745329520399,4.581635549524691,-5.654304013450167,-1.6977836748081891,-1.3626449554336098,-1.7308311481500493,0.27923326413751126,1.3855586015136172,1.4618815752386964,0.031283860978713836,-0.08733659487110801,-0.24304356517377063,0.06914038685848328,0.1604066384961069,0.09598631226727494,-0.004012868606260989
47.86272996078916,-59.01425919536517,6.919958243148996,-1.718238980445959,4.039488970031043,3.4410515557433827,8.337226640243152,-18.271443509611053,2.24813814168762,1.8510745018065178,4.041489041928987,4.50962100709988,-19.98711782744654,58.18689581195205,-5.62832321297147,1.1205314192734235,-0.6681485763846294,1.334407410782213,20.261789890061905,29.245802938644523,-1.4736197636199195,-1.121922198769421,-28.22863731862441,-4.083704462241057,5.784202626281614,-1.8078230491014022,0.5356378882741468,4.781020894675153,-5.976249629246202,-1.7124019876694758,-1.2839392449371458,-1.807019853672673,0.21519991892628312,1.5380444275470209,1.4184959203753407,0.1408115458588232,-0.0810683272179151,-0.2509052230995339,0.07834120471874936,0.18370226941213755,0.07150490332316115,0.01778765876115085
49.64316099856845,-59.21725628902032,6.819920182605365,-3.148394611347447,3.970959502956977,3.452459144413635,12.217010427772696,-18.912948562366232,2.2065724858740836,-0.5598008867077549,4.533618442697719,4.042666721221865,-19.900492057530904,58.700893888177625,-5.619905946079237,0.8651919402199519,-0.6362721140464598,1.299087205906761,21.438123125199642,28.559885591158,-2.99827467800107,-1.9003969632734836,-30.079900426289115,-4.985456376098963,5.736027703987297,-1.7930375271877232,0.6693787875205097,4.936757125054366,-6.201270047613542,-1.7239513079305997,-1.2256030391640798,-1.877125823822463,0.14142957858788702,1.7009259607044807,1.3741558936017193,0.25700359355596314,-0.07640607960920984,-0.25583093881506674,0.08163802271988313,0.20527941948046327,0.04980169529890968,0.037765738363853274
51.48134736610449,-59.467403863942046,6.71407568851355,-4.504672911510636,3.9316485327513586,3.4366886765414386,16.161421671835402,-19.600142665482032,2.1372416992766485,-2.6277977669774284,4.582520929758834,4.166607440864337,-19.818596400321912,59.241338667423804,-5.61238487221827,0.6078913061067176,-0.5925103367113718,1.2388671574857884,22.97429987090282,27.6755632508195,-3.215732604419006,-2.827217577230954,-31.68702987256902,-5.923107227104988,5.8138740692471895,-1.813277925860263,0.7098975179430663,5.057524963502746,-6.347044072640528,-1.7823193662165637,-1.1953947723706846,-1.9409671409224514,0.05591305076415143,1.8830703398412223,1.3530500671127506,0.37897425813236163,-0.07278141938467156,-0.2593346101552023,0.07474980043176692,0.2259388853122823,0.03569094047779996,0.055541607643939866
53.378073598122214,-59.704819410189806,6.583650860400275,-5.775790451582973,3.987883089989624,3.466158857313957,20.13120928057243,-20.179944179080806,2.0300814422681945,-4.7027282029774025,4.282541309578972,5.046226422217348,-19.738652789658822,59.81534708254761,-5.607189977659484,0.350118360289284,-0.5364193441563848,1.1677939033702809,24.48788018481263,26.731371787132524,-2.0700805419600155,-3.708055537528641,-33.07193227194787,-6.7527023308897745,6.015070678204703,-1.8709290626742767,0.6570930643321968,5.148211278419955,-6.452152503924175,-1.9213722168515182,-1.18853660939369,-2.0001712637576765,-0.04303150740482621,2.075600472562628,1.366780504063065,0.49632279116875144,-0.06918924893031811,-0.2630193678676774,0.056310195663826314,0.24382893083946677,0.031371407692338926,0.06935699836114871
55.32907178830243,-59.88212883061225,6.418330369872354,-6.99280544201492,4.162697339057125,3.5943687965839466,24.017883227447946,-20.532885648113904,1.8902766343834845,-7.199902091655186,3.8368662790225843,6.61172072795749,-19.65807014496319,60.42892323723853,-5.606359040154114,0.09117227483707141,-0.46891436764252503,1.098527977171059,25.397405811510694,25.92330795483206,0.09709291846582913,-4.224210243087283,-34.31955117124764,-7.357554385126397,6.294939372664167,-1.9496080406513046,0.5451648178646356,5.208614886093802,-6.55276368588089,-2.148499379204626,-1.191089628930905,-2.0530547057930617,-0.15163132555948614,2.2594951754172623,1.4147101081275337,0.593032825689027,-0.06447463824373142,-0.2669044533266551,0.029102417042656738,0.2570555260530748,0.03691254315694774,0.07708648176108032
57.33026724729744,-59.99200532019449,6.220983164324103,-8.210567476137763,4.428056453038561,3.8302604392474695,27.70183909242693,-20.664184824129677,1.7336132809761253,-10.454293953076135,3.4938850209566628,8.573035058120118,-19.57456894188075,61.086129096625356,-5.613064583972341,-0.17333357879739444,-0.39267086363747505,1.03960891259808,25.146991662975726,25.359397357491602,2.677947149886901,-3.9357984505189494,-35.39538773882121,-7.687871994138579,6.588263905056835,-2.0252591750672533,0.42478156648042764,5.235293719502532,-6.669414810341584,-2.4444301001384376,-1.1849358876812657,-2.09903267358674,-0.2653319370259696,2.4151212851215904,1.4891642450641298,0.6544881972662395,-0.056858311906496706,-0.27082937869612017,-0.0025054571285486257,0.26505194273736893,0.05117766448641019,0.07756884667712027
59.38297800256476,-60.07784091384997,6.006927884260627,-9.48570589853668,4.725415683114042,4.141983109084879,31.10942194939482,-20.74049574585954,1.5731732434640708,-14.596286942231625,3.4481461144932153,10.54733228038567,-19.4868798998266,61.787209793586754,-5.631429758400438,-0.44720100404325713,-0.31082138578029794,0.9938452887968445,23.457506406674536,24.942604832339462,5.036397500923291,-2.430500872242654,-36.12692806302648,-7.765975500148675,6.834457383476796,-2.0748542210355687,0.33902073499993457,5.227000884686437,-6.806410051508778,-2.773133874066537,-1.1536480220632017,-2.1361117922743547,-0.3792297670240375,2.528916621340845,1.5811523240546954,0.6728092838590091,-0.043926962841574865,-0.2742661664394455,-0.03452689610187604,0.2682327942242529,0.07258277777848426,0.0710637981629669
61.497110126027074,-60.20159962148081,5.7886305223158026,-10.861214274924858,5.009844445519149,4.480460567306997,34.26212753285682,-20.97696037492795,1.4001525637503462,-19.556213841240822,3.7877782877233654,12.244072733900872,-19.394499393610985,62.52869143243105,-5.6660242853157365,-0.7296381480888694,-0.22639596695036662,0.960918361574864,20.43060886807739,24.47036685143064,6.769836243443423,0.4538406574014968,-36.307163109184614,-7.681125214612804,6.9959573944152105,-2.087768584732376,0.30599337494012335,5.184038406950151,-6.9595807537880905,-3.0921637577466674,-1.0931986563366036,-2.163155652647387,-0.4895622583415148,2.5972025158532825,1.6776634632160887,0.6512896321105925,-0.025194192206555596,-0.2773043829232419,-0.0648135707814639,0.2676679248428993,0.09784511941635406,0.05956179809019585
63.678609109677,-60.398837762172924,5.5657012949156615,-12.366306361767865,5.2665650947711145,4.809134273015125,37.2288420393128,-21.465952119561663,1.185077207029257,-25.132172549542354,4.472032456740882,13.57555016433862,-19.297633685329966,63.30345924453853,-5.721632027794609,-1.0126835224152337,-0.14278804942465145,0.9388017348770901,16.41400703972172,23.8432026571099,7.827785025784234,4.492637328477887,-35.87166848145719,-7.539059869600779,7.062565984114569,-2.06775865893078,0.32529814390041933,5.1058912692020755,-7.127791518605022,-3.372574955754839,-1.0168124188658756,-2.183150617986339,-0.5903469137530601,2.6232144249760663,1.7612986232349213,0.6021638723203697,-0.004032093083774595,-0.2809582735531589,-0.09143617937388288,0.2631850871088861,0.12130072240073592,0.04583166023606292
65.91844314581638,-60.660081529014235,5.324423986590807,-14.005324313612574,5.520694406201336,5.129295205467994,40.08536431604564,-22.100874484692298,0.8961830452758333,-31.071072544074934,5.371010413107369,14.683636583390289,-19.19708869395783,64.10358754173882,-5.802557157106726,-1.2848418152496146,-0.06272768768849714,0.9257328900452293,11.814551400336722,23.191020195832515,8.510742319427916,9.101183840226229,-35.0238685704744,-7.424131013428394,7.047492098802366,-2.028289221325678,0.3866626944988214,4.994744986351648,-7.318933684679084,-3.603096183825309,-0.9488204880289233,-2.2024382178576896,-0.6769221586774306,2.6184870581700297,1.8118087846466695,0.5445572034246784,0.012611360491456414,-0.2860310342234759,-0.11242934278771786,0.2542735065520439,0.13539711971928883,0.03316295563013702
68.19401218835839,-60.952398613474514,5.0484531039960965,-15.76125752360238,5.7972816997770895,5.458029346280417,42.906925497651535,-22.674113975031105,0.5203383910910353,-37.108963481106905,6.324800317145894,15.766748638115981,-19.09429931393035,64.92201136980951,-5.912456604992466,-1.5363170450265564,0.010189692865403999,0.9194974536925726,7.032829504485571,22.759565737482134,9.217953542269548,13.60102585340551,-34.20318944902421,-7.370785211559773,6.983324362534449,-1.9862992877813652,0.4841634536859525,4.861834140631819,-7.545355185194041,-3.7930560529775477,-0.909357467295049,-2.2322118081968654,-0.7468098348156905,2.6014217878908874,1.8194682750421916,0.49564519608699015,0.01865024835330212,-0.29279453765844576,-0.12493276384291518,0.241093043366026,0.13565101471262647,0.023288445229010926
70.47660384515115,-61.231998482998975,4.72315751222148,-17.599953268126733,6.108343674199183,5.821778822784486,45.78534760725205,-22.969703812450526,0.06950443103801152,-42.982302140052155,7.210464250079874,16.96196597853455,-18.990979183256215,65.75317630379621,-6.053199460997098,-1.7598507503738998,0.07099397797907724,0.9197955168420514,2.480429113066326,22.80346196223754,10.252405074910802,17.42437868759357,-33.90112106780073,-7.358743663545917,6.917837146256554,-1.962246918542229,0.6092117668756178,4.723537003239462,-7.815251863157835,-3.950841918450052,-0.9051845079829718,-2.287055999432084,-0.8042065802021476,2.5899304603224964,1.7862465543862474,0.4658008284977546,0.012111595131427372,-0.3015905575579987,-0.12716528808349453,0.22444054803120225,0.12217478396088466,0.0162122557101894
72.73952566025713,-61.46364092429451,4.342193742900292,-19.482733956244328,6.437542828835434,6.216857053581894,48.82367800355334,-22.879983921939758,-0.4185583584776038,-48.43803803941409,7.986981322695244,18.20046115512523,-18.888389681737415,66.59202329061874,-6.224399136195396,-1.9507442846459986,0.11700452021999717,0.9254442244688608,-1.4369743930480083,23.423915732754114,11.604758682165333,20.274336239026876,-34.42366691656785,-7.327951780907434,6.901331846738943,-1.9767509741021634,0.7498778805543719,4.596886776480709,-8.132488361155504,-4.070320181749569,-0.9270823017239289,-2.381396554258968,-0.8572697777944343,2.594655210827544,1.7212001416213871,0.45832867397768895,-0.003292527456949847,-0.3142071053599877,-0.11939088419210453,0.20562809975414667,0.0985521374212788,0.011005308819615424
74.96184516543724,-61.63289097163215,3.908839307288755,-21.38371497550184,6.762577471138273,6.626178521022637,52.09966691507705,-22.440479128247595,-0.8915293995800245,-53.32037653028739,8.715591570892,19.28744550906439,-18.78816419910548,67.43152457334978,-6.4241636087600575,-2.105025028137747,0.14720663826664998,0.9379204661222839,-4.491456198877465,24.55811419249044,13.037944097956604,22.079033964868387,-35.65710897763658,-7.220880634230945,6.969607874092524,-2.0445197231094676,0.8730633507646083,4.484636807862827,-8.487163796852169,-4.132166041006407,-0.9537086827549255,-2.5169824492185953,-0.9181903751842662,2.6138755420450765,1.6318763156375546,0.47347034861141546,-0.019983911457021237,-0.33215077138688326,-0.1057270181165617,0.1854724811346244,0.06845863982145603,0.007658585808934023
77.12521572730046,-61.75242166256268,3.4377865670279077,-23.27363602756556,7.047596935036076,6.998293975437832,55.63811355220291,-21.81987792273801,-1.3053583169773795,-57.54291176730043,9.496206520871768,19.948046156008992,-18.69098134073836,68.26048725003702,-6.648930010632286,-2.220724322904392,0.1627019538008661,0.9573676461955227,-6.61408591003185,25.98548643206612,14.152243646622075,22.935944844126844,-37.13065872068768,-7.0413027891885624,7.1270683859665915,-2.1600744837070307,0.9333249525907037,4.373955189969049,-8.85086677771212,-4.126581671766249,-0.9593999837744956,-2.6717115441696286,-0.9968933445635734,2.6366155004248473,1.5270771676935149,0.5078157818252669,-0.029243700036722966,-0.353841919071803,-0.09364896173732035,0.1647164195752417,0.035995529766889446,0.00658539772672791
79.20839153124798,-61.8420288759865,2.948713813752056,-25.119018873269034,7.25942379311455,7.272391826567294,59.3986940936475,-21.21385145225308,-1.6437496414643862,-61.074027564944984,10.410865067663188,19.95693362377781,-18.595934978648458,69.06261909414317,-6.8922684903506575,-2.2961983780495814,0.1653422576422071,0.9825885908724512,-7.856639585243718,27.46615752666558,14.576901587234017,23.03344949581853,-38.23079989500928,-6.875991593165011,7.341626483155274,-2.2973686717049233,0.8884778854487119,4.247473315767201,-9.176361757213126,-4.072403139447174,-0.9292131728751185,-2.8027615654763713,-1.0931378007521104,2.6557607790380957,1.424104947653947,0.5553892459267599,-0.026054897115294254,-0.3736018820286293,-0.0905414555649624,0.1459420769161603,0.007351837508315931,0.008136777674116705
81.17809642827089,-61.9088834976423,2.461988908154204,-26.88155036310998,7.368783237431635,7.386102295413215,63.27757801689325,-20.74962236438305,-1.9129976468212146,-63.87630349746861,11.46309286226087,19.18024754294652,-18.501466907011096,69.81681733004936,-7.145554240984803,-2.3300847564847897,0.15684083896543335,1.0104847379274384,-8.284536225313506,28.82787146818046,14.06679940994132,22.62844150826767,-38.52520984737644,-6.859044827491212,7.557892041783237,-2.4171706067168426,0.7281806598919598,4.097330110297057,-9.414889342014348,-4.005761910403944,-0.8653544590996922,-2.8645409276612153,-1.1929364420400965,2.669836134162302,1.3446470643446515,0.607770146524184,-0.010582814692927912,-0.38389787779012263,-0.1000933772435008,0.13292809418479343,-0.010244508324347555,0.011907641036068672
82.98890866359173,-61.94354846183913,1.9966193401432326,-28.49885957286263,7.3563233724175126,7.301825172114974,67.1257071815063,-20.459593904705017,-2.124465641241087,-65.88495433455617,12.574382088641759,17.618253802803892,-18.406939453321208,70.50089033099934,-7.40090224027875,-2.3214484894380734,0.13766663559346393,1.0388956905526157,-7.925268639161462,29.990872168026772,12.583118724745562,22.042380751095095,-37.89662259622918,-7.093939349204593,7.720749109768492,-2.487795368985142,0.48313240470728813,3.9304490227855604,-9.529576368908348,-3.959657520876076,-0.7881740611083377,-2.8329241237028926,-1.2738311815336698,2.687581322020015,1.2998931647320509,0.6637070721952458,0.011551729798533469,-0.3795195045783203,-0.12010452387855543,0.13058571401203178,-0.012952006374879262,0.018148192765565292
84.59511975476181,-61.94352909136405,1.5746650262070538,-29.890813814359596,7.202842879755455,6.993723443984192,70.81152437270967,-20.35804495929359,-2.2686809770848173,-67.02029192566175,13.607427634597505,15.338802899957654,-18.312339659702378,71.09259619708494,-7.6522091178427205,-2.2731768822972764,0.10868759212046167,1.063424925315781,-6.744483224940482,30.872718384861255,10.235713194595569,21.53890329375261,-36.5373298073541,-7.551608643909329,7.799253400767848,-2.499238653732,0.22315978117136076,3.763018842318958,-9.517960439050398,-3.9317150183121896,-0.7235744335142427,-2.7221996227504386,-1.317435425156223,2.708291902821552,1.283414419215256,0.7232949434226805,0.03335429903161034,-0.3614544697111634,-0.14400030550953657,0.1387973822645321,-0.0029847031308175218,0.026595273396272358
85.98111644270087,-61.921687725374426,1.2106456442017124,-30.944967154998377,6.883740700698093,6.441921766942249,74.3134258622021,-20.495191738034364,-2.3257852938844503,-67.17107657068559,14.409943480448021,12.422377783967026,-18.21649706738696,71.57461686566442,-7.894848451979909,-2.191858407723878,0.07001439481149485,1.0772639436695446,-4.556023425022848,31.31987583377765,7.187566099766592,21.23030850162334,-34.79066386782809,-8.080401099192187,7.791702905023136,-2.463517987602455,0.02026445837893781,3.6092021288185534,-9.402276440502634,-3.8835475517989373,-0.6878352189881884,-2.5731318674518295,-1.320771603698014,2.7217644756064114,1.2766809362157958,0.7880846572269926,0.04993931509055778,-0.3355724241206194,-0.16475708920105137,0.15314893998027163,0.013343073905292244,0.03702314416862463
87.16261904565232,-61.88392050448743,0.9009449586074172,-31.53361603050483,6.377679933098882,5.633531877924066,77.71035724405135,-20.901082508692397,-2.2893427224269387,-66.19201993932984,14.845327494464332,8.954046446738714,-18.116824752982076,71.93718380210527,-8.125439285137507,-2.085141222584653,0.022741997840514214,1.0710492447735604,-1.0428185512317891,31.195933170591463,3.59935061216148,20.98065973840052,-33.02523502660233,-8.48490216349747,7.7153196053544955,-2.4013688102630626,-0.07805144792043128,3.4759008570564767,-9.213385281146245,-3.759217149067438,-0.6810866771942701,-2.429395605007886,-1.2939552034390023,2.709578960231725,1.2658859763299337,0.8513275673550909,0.06023110771017868,-0.3096089155190346,-0.1780038261150067,0.16686827852901936,0.03093117980296095,0.04765560213155328
88.17721184095427,-61.811967918010424,0.6216348954487467,-31.518772397287137,5.679379431378896,4.576045673089631,81.12470781535947,-21.5391390428886,-2.1816620233252,-63.89842974705482,14.817101302175178,5.047866817087446,-18.00947228946567,72.17813925892362,-8.340974876356228,-1.9555917239042757,-0.030179779424529526,1.0346332546947448,4.165398807760238,30.46135119382839,-0.3587445794018018,20.51104275229033,-31.57256995755967,-8.638098772602742,7.596249783631674,-2.3325284506424104,-0.0692627568780654,3.365842300343935,-8.979268435220433,-3.5149399382001763,-0.6941892325884117,-2.316915281548435,-1.2503224506336372,2.6618224768167047,1.2490494404727608,0.9020186051476686,0.06548726529673912,-0.2894227855550139,-0.18282150673308467,0.1755733376573146,0.04791234563948589,0.05606614673307697
89.06450118310767,-61.67215071898731,0.3427314654762137,-30.786744045413343,4.805407184772841,3.294681373100766,84.61718114520158,-22.31156624469852,-2.0474743378978855,-60.12716677885735,14.29193271115808,0.8380175994249877,-17.889815900345845,72.30140019872476,-8.538915427006875,-1.802974034024503,-0.08547744871160907,0.9609056198693097,11.284359338979389,29.206546141707406,-4.524785345634418,19.501134859754075,-30.627600043276157,-8.50711246981576,7.462221376932289,-2.2711673759229387,0.015113688568873407,3.280782846348745,-8.72527811439956,-3.13817225628781,-0.722875282978442,-2.241095119994905,-1.1956340529806544,2.580492112424495,1.2350039801681953,0.9268284237860112,0.0663106440245139,-0.27778031352155075,-0.18009876915828288,0.17859793662654874,0.06512092753505117,0.05956478188513238
89.85124597047417,-61.427565546665015,0.04121634099443727,-29.258657254325847,3.798262991049268,1.8553375019588199,88.13180783917963,-23.100868465903453,-1.9436313320921474,-54.80088294338916,13.29759205759335,-3.4938429907396067,-17.753235506989014,72.31560811373573,-8.716954457025864,-1.6226543905644673,-0.1428469246930291,0.8524903840343951,20.23623229472475,27.591388328999347,-8.73100588090123,17.77626071280701,-30.19421797980067,-8.124069173281772,7.335503322165165,-2.224733705931552,0.12240086040051995,3.218313399846842,-8.470769813196975,-2.6497005760417913,-0.7739909521588113,-2.1890116727805404,-1.1222245949035066,2.4770572224327134,1.2319758120028337,0.9174608192448843,0.0610338156090797,-0.2734862553281454,-0.17039050596412628,0.17766355790527852,0.08317553127851379,0.05681467311085123
90.54829484366479,-61.06740028032391,-0.2851203357687182,-26.94020312168705,2.721234864212729,0.3340752077533886,91.4747238458869,-23.830214934596924,-1.9211190869833685,-48.047255747288055,11.941114076756772,-7.793277252463279,-17.595810298858535,72.23388040567198,-8.874022769035399,-1.414654638637553,-0.20163863909406987,0.7179928720956513,30.510241974991473,25.78665470831873,-12.907397336705092,15.412127673217572,-30.047204540633324,-7.5042739495122515,7.234352077637797,-2.1942643273892934,0.2064480751423352,3.1732997775881118,-8.233919582292774,-2.089490468608694,-0.8617638252205342,-2.1423599320344175,-1.0144177093411566,2.3650518959069444,1.2434188786476406,0.8729770906979053,0.04642547073731191,-0.27272930724657907,-0.15269611056543164,0.1748532123191713,0.1010276204119088,0.04854379244484333
91.16558231219192,-60.6105063371154,-0.6245198302943817,-23.909136106927292,1.651278885120791,-1.1722469686826995,94.4303656580509,-24.500465624322892,-2.008089917811612,-40.113015264109265,10.35009908161138,-11.872338508794495,-17.415117166088883,72.07190192427713,-9.010023364052074,-1.1807136451604832,-0.26133704881990905,0.5719247785533885,41.48545336662158,23.864414800965438,-16.955693066760773,12.697365008614295,-29.811224255537415,-6.617268593961069,7.167764045911595,-2.174825525875868,0.237695211121202,3.1378011455522024,-8.015350525552478,-1.4990476124604943,-0.9928014899999082,-2.0850282779624005,-0.8628673975091674,2.2549945302425645,1.2685284852026473,0.7979349393650975,0.02105433815592719,-0.2706686615312949,-0.12631001223267138,0.17157601187817978,0.11768466626857356,0.03650894739892986
91.73300993480056,-60.09817317981826,-0.9660124048093086,-20.326851753574566,0.6619917350792621,-2.5774803789446676,96.87977802142888,-25.17044265999901,-2.2120768416618932,-31.377273145832774,8.653127324169336,-15.549124781094829,-17.209984491474984,71.84737126172345,-9.1254827648412,-0.929559551598865,-0.3202829265788758,0.43039969535206685,52.600892035057356,21.81108808636497,-20.760617619715205,10.033232577311601,-29.131936170352546,-5.418892519171064,7.132871934602712,-2.1585624925738536,0.21611572805255508,3.106511652077267,-7.795974890993117,-0.9123141126480041,-1.1633212692118926,-2.0112616758089947,-0.672427365212414,2.155826606921818,1.30779186909001,0.6976593717032615,-0.014134221088200187,-0.2637278884643144,-0.09189312223719251,0.16964771314840293,0.13411266118287762,0.0220436646372711
92.2986360661298,-59.57188604621643,-1.308733722109165,-16.403823090761655,-0.1846790808754315,-3.7919482476845654,98.84400112448625,-25.89775338196087,-2.5227439937095193,-22.270923915561493,6.947153793136664,-18.58229052307523,-16.981150758326415,71.57875377863878,-9.221582316978328,-0.6732135576266969,-0.37759691922986915,0.31156998662593327,63.50386140416697,19.604264023702505,-24.078353701438594,7.756713504799588,-27.936834437206574,-3.940090698245049,7.110831532844786,-2.136155426359432,0.16694449852908577,3.0778567376389363,-7.537123789853562,-0.3569631725349478,-1.3585458794244643,-1.924889524212065,-0.4643262674550396,2.075418788738872,1.362365164071281,0.5748040720189576,-0.055986515157729,-0.2503495486516192,-0.05263873989069974,0.1719420228102303,0.15343806889818862,0.00486290096834254
