PaulMeinheit/Bachelor_Muay_Thai/processed_Data/N2/roundhouse/scaled/JointAngles/scaled2.csv
L_MTP_ANGLE,L_MTP_ANGLE,L_MTP_ANGLE,R_MTP_ANGLE,R_MTP_ANGLE,R_MTP_ANGLE,L_ANKLE_ANGLE,L_ANKLE_ANGLE,L_ANKLE_ANGLE,R_ANKLE_ANGLE,R_ANKLE_ANGLE,R_ANKLE_ANGLE,L_KNEE_ANGLE,L_KNEE_ANGLE,L_KNEE_ANGLE,R_KNEE_ANGLE,R_KNEE_ANGLE,R_KNEE_ANGLE,L_HIP_ANGLE,L_HIP_ANGLE,L_HIP_ANGLE,R_HIP_ANGLE,R_HIP_ANGLE,R_HIP_ANGLE,L_SHOULDER_ANGLE,L_SHOULDER_ANGLE,L_SHOULDER_ANGLE,R_SHOULDER_ANGLE,R_SHOULDER_ANGLE,R_SHOULDER_ANGLE,L_ELBOW_ANGLE,L_ELBOW_ANGLE,L_ELBOW_ANGLE,R_ELBOW_ANGLE,R_ELBOW_ANGLE,R_ELBOW_ANGLE,L_WRIST_ANGLE,L_WRIST_ANGLE,L_WRIST_ANGLE,R_WRIST_ANGLE,R_WRIST_ANGLE,R_WRIST_ANGLE,NECK_ANGLE,NECK_ANGLE,NECK_ANGLE,NECK_ANGLE_SHADOW,NECK_ANGLE_SHADOW,NECK_ANGLE_SHADOW,Trunk_Joint_Angle,Trunk_Joint_Angle,Trunk_Joint_Angle
X,Y,Z,X,Y,Z,X,Y,Z,X,Y,Z,X,Y,Z,X,Y,Z,X,Y,Z,X,Y,Z,X,Y,Z,X,Y,Z,X,Y,Z,X,Y,Z,X,Y,Z,X,Y,Z,X,Y,Z,X,Y,Z,X,Y,Z
-5.091350000000001,0.0,0.0,-0.7470900000000003,0.0,0.0,-5.670790000000001,-5.627280000000001,20.244700000000005,7.054370000000001,9.23376,-12.071350000000002,-14.688240000000002,-4.693480000000001,0.0014200000000000005,-1.346,-1.9815400000000005,-2.000000000000001e-05,22.92291000000001,26.475510000000003,13.867330000000003,1.21267,1.43178,-11.458210000000001,2.4882100000000005,16.81647,33.628429999999994,-18.593590000000003,-27.173420000000007,-13.12235,116.49437000000003,-0.00045000000000000004,-87.08804,42.29694,0.00019000000000000004,102.47416000000001,-18.467040000000004,1.5078600000000002,0.0017900000000000004,-12.584160000000004,2.7280700000000007,-0.00111,13.686030000000004,5.719210000000001,40.10046,-2.6154400000000004,-8.04965,39.76427,-0.11545000000000002,4.709410000000001,4.77216
-7.831359313124251,0.0,0.0,-0.5823454385623715,0.0,0.0,-5.542990628896182,-7.218882768321773,21.77839710082684,7.079559061881121,9.381211042680205,-12.598755285943856,-12.699453774744818,-4.048170083057512,0.0008407916623313548,-1.3068098769063,-2.139198449085761,-7.045316298889098e-05,22.33595733167597,26.519918525659726,12.833669412878765,1.2043257457478127,2.1381242734905577,-11.121023470594219,2.1303170346081064,17.25903430549479,34.70035048754996,-18.60073569801796,-27.942652139760007,-13.560367641970744,117.72598430650906,0.007999601035810036,-90.26416386041633,43.055156360090955,-0.0019023057660142537,104.47024517168637,-18.704405333259327,0.3027251843854225,-4.611512305844713e-05,-12.717511278145297,3.700162047221647,0.0005086548245174811,13.70547564645631,5.704483843868828,41.05182256724899,-2.3710670798953934,-8.327723624990218,40.67859766269172,0.021514493587093297,5.574840323755271,4.3447024510631564
-8.575167047540493,0.0,0.0,-0.42477526714907116,0.0,0.0,-5.421769968718955,-7.813872108690358,23.01244261157629,7.208853599404772,9.575640963702108,-12.446894787038731,-11.466542021729968,-3.59383136460485,-0.0006897818264909625,-1.4669152146043818,-2.2935733973957366,0.00016023192970926304,22.19964731022907,26.03627819995791,12.048560167203512,1.5942746122570068,2.1549539735791345,-11.409706409423016,1.9102449810075783,17.619478079045077,35.712358210671276,-18.774749745779218,-28.41479636646025,-14.565097800048376,118.55658336398224,-0.006308529585718231,-91.11305403732274,43.8103159458587,0.000437620261719634,105.56936238800505,-16.987186735026302,1.2923415283022046,0.006265634985212173,-12.449371476639092,3.6016574640799366,4.457465159996175e-05,13.697299228936188,6.016664922463611,41.87777141357781,-2.1672861786790505,-8.253672408945938,41.563663333403284,0.39944002422886393,5.906934100081152,4.088849023183456
-10.067110757316549,0.0,0.0,-1.4594246392896557,0.0,0.0,-4.959056074975554,-8.540022023791455,23.467964821111202,7.747179483449126,10.518155374247089,-12.798429379104386,-10.986139535032336,-3.2783984359372966,-1.4441786509586786e-05,-1.9273980833360653,-2.4564361469397804,4.041664948579277e-05,21.927133339661843,25.755699071525694,11.901266068683068,1.9156981985705452,2.0688641930756884,-11.230751869106129,1.7420718886358986,18.731012771380204,36.19932262367335,-19.09980450270748,-28.597825152462267,-15.60564886816383,119.17667165614155,-0.0033573206209350955,-86.78525253219992,44.18112076533232,0.0008414507764158572,104.8300003873322,-16.93109334208266,2.814707006858984,-0.002889719754748873,-12.89403060301081,1.6386932253460063,0.002449012213567973,13.623108164260286,6.479020471563165,42.37428421659185,-2.101956112645177,-7.943112761106003,42.170495217224044,0.5766446973964524,5.898883628492392,4.270993450711481
-10.131106912810198,0.0,0.0,-2.467437684914594,0.0,0.0,-5.184584345900531,-8.742216941664898,24.036380173421296,7.953899195149169,10.375246312407059,-13.272317446457148,-10.350345704786434,-3.187918897540441,-8.90612504611796e-05,-2.349336404137072,-2.457557455413935,-0.00014995551436667903,21.480042486098174,25.735178569637974,11.800690903060218,2.160608628967282,2.1197570980634963,-10.97160633939159,1.8439962487502075,19.35549626021106,36.603149684283764,-19.31410256603667,-29.211088723610793,-15.591376269269338,119.67855546770637,0.0041891296682671315,-85.8045400865122,44.6786021640549,0.0011370679953753196,103.7570424664583,-18.419473690465768,1.9905993592196172,0.004183125576392856,-13.364199278077164,0.7963236841640516,-0.0008527708454015837,13.540069477632809,6.210511480120819,42.37260044493243,-2.195730015662445,-8.201114415439477,42.095341540753424,0.6942063901508925,6.081062083939927,4.437691477783854
-10.783642008031707,0.0,0.0,-2.127890090035062,0.0,0.0,-5.672331777518372,-8.347733686070884,24.706189101620065,7.973426589183246,10.0513695099593,-13.541635117271431,-9.753586813340664,-3.2672156415902065,-6.568262549248668e-05,-2.895709622951759,-2.524327934754456,0.0001965271068049001,21.55190472862833,25.413745396771436,11.06521779930332,2.688697576977337,2.0105925253650363,-11.043952555441162,2.111922342502968,19.710978491637313,36.87640977274057,-19.415662643546447,-29.726232897632883,-15.246483038745533,120.04486800854627,-0.0003041282759106079,-87.4964028017219,45.30038110404978,-0.0004751016459922123,103.16501592278686,-18.622472297870647,1.5938896480799054,0.0013232530371650752,-13.756384087626856,0.8973548466035745,-6.758785284086187e-05,13.585307114654242,5.815487978891964,42.130179936639564,-2.22574731214315,-8.515733515030494,41.75231852819036,1.0082608673799358,6.11313357832708,4.395590276545909
-10.946329394198203,0.0,0.0,-1.3273441951725433,0.0,0.0,-6.088158095793165,-8.461594681571112,23.87948165421576,7.818683593156522,9.790675350201417,-13.533060762059602,-9.457172389274898,-3.155477115450582,8.930709343421428e-05,-3.3198438190932067,-2.573540666411309,-1.071369203262152e-05,21.309474247712647,25.380917966262473,11.66045332991401,2.727028054682507,2.07492297993871,-10.967972568145402,2.4578397626277626,20.342479841418648,37.26541712322356,-19.256858985748227,-30.063290612382044,-14.445146905732996,120.15994677749269,-0.0007341203136940933,-86.49669533527445,46.055249695734794,-0.002190007411377136,104.7527701539048,-18.404005776133218,2.68534303632042,0.006301488095563099,-13.74870152116174,1.8270169613808007,0.0038908317594987998,13.69778998421814,5.975246871166119,42.03912067000312,-2.12907473953729,-8.337327475179855,41.708233467467274,0.9556119652086551,6.2084660071120945,4.263313060916042
-10.187536656795675,0.0,0.0,-1.4886854024219742,0.0,0.0,-6.43925900232284,-8.894247723446078,23.47293431979344,7.662319999893849,9.537596309310128,-13.545942740335837,-9.373137315263302,-3.0160599728105533,-6.214556127022379e-05,-3.4233555474482484,-2.353573476459944,1.3696195956881827e-05,21.33497718533226,25.25182055478693,12.239966198084884,2.816320965623575,1.8740337258045823,-10.771423929537262,3.339107284138162,21.112214652635473,36.85561402268376,-19.339959428745708,-30.243047767779334,-13.770068321402233,120.11749505380025,-0.0003037631701318922,-86.36590377616814,47.17280564709336,0.00956742858624684,103.81872965700596,-18.686472346383876,1.7916521008907913,0.010825576015141836,-13.862059065374462,1.496029626745164,0.005000356986369939,13.74311991421827,6.042981987682991,41.54888163664891,-2.2002699869078084,-8.138731941910212,41.25314799583512,0.8630928427227104,6.155073294330252,4.756740377721194
-8.709188158474651,0.0,0.0,-1.280735851970835,0.0,0.0,-6.820983947196559,-8.714018507947578,23.209473117674772,7.690723177627475,9.61349244504807,-13.893485770076502,-9.21140298412873,-2.9330903224969362,-3.941169673082438e-05,-3.3908781630837166,-2.287799171315839,-1.3479640769115206e-05,21.564462564854814,24.922639945514096,12.192421386970794,2.892365249624436,1.7004223215806447,-10.837017645036347,3.4936188097632925,21.87641451639718,36.25934930286847,-19.292580227441242,-30.483706435306015,-13.059434576056612,120.09974555825656,-4.980569346715916e-05,-85.29619363076273,47.99590492566565,-0.004691601568904285,103.79412731872489,-17.550906817428373,1.9412147862226403,0.00010987921832608086,-13.805364372069949,1.0694345961246965,0.002666945236119957,13.742804690767745,5.90220670519767,41.3566567179235,-2.2525773215949805,-8.22147422065983,41.02833490492994,1.0894655765251582,6.144603502092597,5.058436528552766
-8.659967477654966,0.0,0.0,-0.8337905842926612,0.0,0.0,-6.769350803327867,-8.42838420991535,23.550030231507375,7.7280679683794835,9.301947400493663,-13.915334802672069,-8.961318039634039,-2.783442236707881,-6.706352156839731e-05,-3.420930014131635,-2.4714932420396893,0.00011598773663443883,21.753753291148698,24.67198449116498,11.70731798095665,3.1363211168067533,1.7678929088100732,-11.011604364995385,3.140001408284486,22.591051474584674,36.380034850410496,-18.153965912574648,-31.003252537304878,-11.347745028901615,120.16714541312328,0.0004412249048542864,-85.61820512840664,48.128657759337635,-0.002028994857332804,102.58349338983149,-18.20525677334574,1.4798441728588678,0.004488446471750919,-12.907440679653236,1.0899181555593902,0.0007315275932089924,13.72327454014708,5.859025018958756,41.56574127888727,-2.2233494317639684,-8.320222354103725,41.218377587412746,1.375129387888198,6.131677696059696,5.055782928372139
-8.984942510874731,0.0,0.0,-0.9452616543239414,0.0,0.0,-6.720806214373988,-8.770417611858841,23.62648520283985,7.61947196535593,9.207865627829124,-13.973397689793131,-8.8824202960906,-2.615586293907643,-6.044350153151099e-05,-3.4886398779787857,-2.5439025575246337,0.00012413616329272242,21.661933284456232,24.68572103473124,11.738712144094062,3.1830284702541705,1.8334892979464237,-10.988428987247241,2.968873324089019,23.280215347452035,36.55588349103878,-16.73086637408013,-31.486929172623388,-9.26510383377702,120.06773670139101,-0.0013453650868285457,-87.49307915449158,48.134865566547475,-0.0010080397946372816,99.4028445071202,-20.99388010116589,0.7629430307993734,0.0005457355656335247,-13.260410748535424,0.3472656273787441,0.001837418128253205,13.631089997006418,5.42192161280333,41.67772355807111,-2.306463795311987,-8.77112256402588,41.20534008265902,1.3411459934779424,6.1933433680781524,5.375622382978134
-10.085605532541745,0.0,0.0,-1.652426185737024,0.0,0.0,-6.759240536741714,-8.738724743454357,23.429990831479973,7.710054799791958,8.917865324682724,-14.402328116949933,-8.84520619373448,-2.514416901289798,-0.0002355245670724752,-3.4315313785744883,-2.3979491884124258,-7.210595032805074e-06,21.934590516857778,24.488659189822577,11.913221224789146,3.3803352574442824,1.703855515978955,-10.941865505923403,2.7363182513401427,24.211377601457393,36.82473147319286,-15.54885508680123,-32.240390957307746,-6.647735306000706,119.89847887135166,5.553266254800898e-05,-89.27948100039872,48.877704442159455,-0.004089454166551603,100.42449745273798,-21.095299984820116,0.06957930439058448,-0.005631812360469422,-13.6866088636161,0.09139281704043298,-0.00013218769127102865,13.63601990341454,5.274493831094995,41.73214310073956,-2.294654928179394,-8.927765987814407,41.21710146556929,1.499636262971162,6.156603666311213,5.337441418244081
-10.167597185639268,0.0,0.0,-2.0374576353507226,0.0,0.0,-6.744078108865013,-8.762128127695386,23.02347596048651,7.814742875878337,9.426081082781874,-14.333051147976827,-9.204596193996036,-2.4421322903049263,0.0007019920962180457,-3.2642374877837095,-2.5688084558719204,-0.00015689674107849185,22.35095180987984,24.48143110666625,12.097392699267402,3.40545457169633,1.8096345507325051,-11.2225365543662,2.719751306806706,25.32352007686347,37.06516250774058,-13.522399589900372,-32.6683555995586,-3.624223926598377,119.55156932448277,0.003550539243010582,-88.29205569425669,49.29287477026966,0.0009046715547200376,100.73114168522814,-20.182918252638192,-0.23243014125531136,0.0009952979370858282,-13.595001656685374,-0.5366921793393336,-0.0011010757747408882,14.005334476357481,5.662941238085089,42.27787203540567,-1.7758257596709914,-8.702518624142362,41.85332828792353,1.3480727332577442,6.010293587411767,5.149206426689373
-9.624159439593704,0.0,0.0,-1.4745332981410562,0.0,0.0,-6.895598498959869,-7.9905887619863085,22.721315913826437,7.459929095156466,9.852692947865616,-14.452417666167513,-9.671240731826883,-2.896297888254451,0.00013819503942516672,-2.863307638450762,-2.5137895229633864,0.00017578033368515638,22.305141959490893,25.098798596810127,11.96276727506412,2.870044906237267,2.13047497994169,-10.9459109656758,2.9533944966919066,25.77248314993371,37.00954164591038,-10.551598504041191,-32.99330717665876,0.02663224764763475,118.90200543601757,-0.0007246142531193984,-87.82720399236133,48.40778750235658,-0.0005360263259720915,99.50562986979817,-18.942226142992112,0.3121811415532066,-0.0032265709646000277,-14.32061991852492,0.06528203280612468,-0.0020111624677634403,14.499062545034903,5.7147344650384815,42.58162586764527,-1.2052241620221276,-8.734679217287173,42.16186078006323,0.7292786683680986,6.144650528871813,5.405641653856445
-9.807445181286907,0.0,0.0,-1.4493245687706553,0.0,0.0,-6.919651407822528,-7.755101445396521,22.34906015770732,7.179099403637302,10.04411202174719,-14.586222428509148,-9.901926514970999,-3.117724309809387,-0.00035282273168393293,-2.404590363464252,-2.4081511132309306,4.257105930882688e-05,22.372797053529876,25.38335141342368,12.175164492510156,2.489434907672852,2.2486257031834294,-10.976172706548928,3.0115820597753666,26.227806624112933,36.64104171108472,-8.461298184542398,-33.4882245820235,3.5206231288673373,118.4054236298684,0.0010456580203703676,-89.22615003140233,48.18883643434867,0.0007360491053284779,98.9592454949156,-18.196771434878116,-0.527121204348317,0.002095582549340381,-15.005833608135594,-0.5310049921549542,-0.0019025714387973637,14.614436741117968,5.690257926940121,42.33622954513328,-1.1512685687423068,-8.692015780344603,41.91737569048735,0.5199276895915937,6.289613573992151,5.6043499380852895
-10.23465566895452,0.0,0.0,-2.3006696503027992,0.0,0.0,-6.326513940476182,-8.375887928851173,22.569849673458954,7.111393072204068,9.698244452146595,-14.772384819591384,-10.69192262916783,-3.452768592671388,0.0006693880059991406,-1.9031798288280053,-2.214261503865411,0.00021857288941011638,23.024563637020407,25.71024069551544,11.875342865183466,2.319593482525201,2.3592983840803043,-11.23068633264509,3.097052367988192,27.523698039315093,35.90844466213732,-6.423028326267786,-33.253858147146744,5.8507785729284185,117.62212704884793,-0.01194235725097512,-91.28634999327997,48.39517216111237,0.001178730881468952,99.28844771493047,-18.488910238959196,-1.8492140954011842,0.000130921458146826,-14.549517354045857,-1.573840403886808,-0.002611925569019884,14.835748173752092,5.604387018060291,41.809603439561585,-1.0621637043392114,-8.631650399076005,41.383663202584806,0.4044910919179737,6.254615321450195,5.960796374161146
-8.69706820961493,0.0,0.0,-1.943911540778791,0.0,0.0,-6.413923340337667,-8.04422856376815,21.72836330177448,6.733552346823725,9.853246489800172,-14.263177754863577,-11.61157600711729,-3.920590455093073,-0.00024356337593238694,-1.6450316727569831,-2.1381226759076064,-2.4949197662196948e-05,23.40551835094861,26.17659142911589,12.100952065792509,2.0977801961993965,2.451986667108034,-11.700999077429932,3.313459320854288,28.32728985782272,35.3317832774922,-3.9008098941820726,-33.164891800774924,8.881148446649307,116.10591952976392,0.0038148384020855954,-90.36667054004376,48.73561129376422,-0.0006380121151183259,100.1377811187828,-17.288732908534172,-2.0087305566971283,-0.00162661891504382,-13.65708349201396,0.11001875104164018,0.008439869106914355,15.083008275878397,5.407271583486617,41.58063243993959,-0.8786556253731879,-8.758646195318303,41.107230953228076,0.1818938784116318,6.291709932551815,6.53739873949457
-8.045427690105935,0.0,0.0,-1.528348330217705,0.0,0.0,-6.390938733257528,-7.546301461324969,20.772858291447275,6.4736286943772345,9.498936273776518,-14.019402502476368,-12.778477884025072,-4.279766242660622,-0.0006760615036998199,-1.3984109930619901,-1.937585249328764,0.00012730762923823916,24.073751046927182,26.35106363781596,12.352678470097551,1.8906972479966229,2.3008273960138355,-12.092212410393346,3.4731526553214476,28.87383359174362,34.20408081313564,-0.86376776269279,-33.01008873155997,12.287533701155407,114.02107382684342,0.05051354041174707,-84.20186733821356,48.71141302916793,0.0013443434914433667,101.71489495397283,-17.252488967412418,0.8474677262336432,-0.011330018602300516,-12.451560606385598,0.9008295739004797,-0.0013359609803557566,15.693769955530348,5.111958173798972,41.09127570782866,-0.39822180003039953,-8.90794622634939,40.55073911378743,-0.0020416397480097427,6.159659103151312,6.822729983141499
-7.2284498595359326,0.0,0.0,-1.8536945802110452,0.0,0.0,-6.314293002669839,-7.08986945684665,19.6093980920492,6.5132026803078995,9.068080079421048,-13.534592990915366,-14.453200329295472,-4.619931031204881,0.0009729391979652048,-1.2519944465331014,-1.749563760458114,-0.00014639865414387592,25.360750860237594,26.418175233645083,12.58372489596423,1.8724338057927585,2.0807555662047927,-12.87303573071732,3.8116693982975556,29.522550717221183,32.949434022000574,2.2809379490296435,-32.13908824685994,15.254972115543072,111.03043621322679,-0.04764640804466616,-84.56056107659572,47.98187249353208,-0.002490568791655385,101.20724028009946,-17.8311433343671,1.947899197668787,0.018396610688676242,-13.031929248929568,0.3989776652308786,-0.0004917100310134641,16.254924425351177,5.100490046041755,39.89507044118628,-0.12003587589531732,-8.585864576525404,39.39007986379428,-0.1019758809234048,5.799918625544743,6.954284537838634
-6.949282174320987,0.0,0.0,-2.035687831726388,0.0,0.0,-6.289504695257794,-6.113231407351351,18.92267531192606,6.7218970237517555,9.569888192916498,-13.826830580585769,-16.087627657612327,-5.033710055408487,-0.001987077503703154,-0.9453010088115831,-1.5100005270635517,0.00031794901003121115,26.115713730523137,26.24433205333299,12.771632315068194,1.2643668450223147,1.5736049761894182,-13.144432618038708,3.859939336158118,29.90378859587687,31.092783571586324,4.874558270210127,-31.096154921814712,18.17552180563137,107.74516310755625,-0.07302386759568495,-92.64326978725371,47.630055414168766,-0.001015007410288537,101.20687957907424,-19.969044417435747,-1.3070021704864034,0.007072914024097173,-13.76887490752485,0.34137389797086276,-1.9702184631865175e-05,16.5355143761118,4.9934701541369915,39.9583100884557,0.17071656269218785,-8.70631077493249,39.42070581588239,-0.3706072047443529,5.466262372531048,7.0968110324667055
-7.201612146075513,0.0,0.0,-2.398009920348851,0.0,0.0,-5.699630161898433,-6.277805944983221,18.072196001687484,6.771958725137407,9.634454100913201,-14.538871462285039,-18.172375645285552,-5.271626144399297,-0.001283799176983224,-0.6556203092343179,-1.3573939567006412,-0.00018574919776972922,27.35154717507797,26.244906173353623,12.967382009699062,0.8602218258979882,1.313290627183598,-13.255593008270308,3.998400665277141,29.90532023756716,29.11700628540771,7.306968460166313,-29.578289966842426,20.710788935720327,103.19946602354655,0.07788731983305557,-91.98438314771313,47.65778197060947,-0.0007556362844155422,99.91411377808025,-20.70557167381819,0.36224369917038507,0.008498661096649226,-13.967784751171825,-0.5331839053677782,-3.396436645484111e-05,16.911973305851287,4.8717219834059104,39.66095073331567,0.4727346414116732,-8.73943532269275,39.09840263811306,-0.4362604067224267,5.224853151766112,7.47044186276874
-6.495479319716475,0.0,0.0,-3.3908318940432314,0.0,0.0,-4.485584171901547,-5.712287212024867,18.26497955944942,6.780755169817692,9.469608339326316,-15.35233859334857,-20.31004879981964,-6.504807386137228,0.004137917874889665,-0.18659425456285336,-1.4740726462495604,4.658148635658653e-05,28.57846297218079,26.777883820718035,12.351222907469777,0.11236454198595172,1.6587021349461453,-13.7298972994302,4.872709686331778,30.126161100194693,26.59079664392646,9.404461847100748,-27.606387509478306,22.465211721095685,95.78377314251318,0.14920161169586324,-82.24581107784739,48.44387208809309,0.004053609067060162,98.19131725127646,-18.60516702591456,4.3503410657137165,0.0261163730163101,-14.11251939458901,-1.52798101624102,-0.0002553498382064485,17.06701582996079,4.939430243551033,38.28489462139436,0.31636040275788635,-8.28296685110725,37.789417261390284,-0.6935967741538385,5.154956304063828,7.995413847928034
-4.103829167481341,0.0,0.0,-2.8678024274832348,0.0,0.0,-3.777799474982023,-4.4239451750298,18.500934469199493,6.701938922620252,9.270921950223949,-15.898263455577347,-22.49947649491627,-7.615960088520637,-0.001846214797776394,0.32590943806033845,-1.4209845817307554,0.00011889078384589455,29.57771971090762,27.095014586681952,12.82296000452515,-1.0427009670271579,1.7317767816675869,-14.377535352244466,5.135817136968077,29.902749559386546,24.249262057352162,11.281271898042448,-25.534846784205616,24.816904142246972,87.49477207341157,-0.09320149132635715,-82.0683419426429,49.81970981860515,0.00029011562731816754,98.38461468748508,-17.62790039668863,2.055588269664964,-0.0021644890705157407,-13.744604573651321,-0.7674002221788435,0.0025252724392935133,17.254682993656385,4.71204805958455,36.77176868151264,0.160051504176895,-8.061605201354064,36.265278236906276,-0.8118061553187119,5.0012121920259265,8.562231093567958
-3.616825042982143,0.0,0.0,-2.6171575305084303,0.0,0.0,-2.9924805100127196,-3.4169823469410376,19.339149909110922,7.086822522913979,9.83764364462549,-16.154078957881236,-24.463889819618178,-8.258347181007592,0.00015142459855231691,0.37962907580289557,-1.4238041450671144,7.249330846144546e-05,30.639001570246318,26.875952876488242,13.82022738806433,-1.490434848422286,1.2402844052651218,-14.96050281863052,3.9580895128995817,29.216796606093546,23.2642032022993,13.79821353523911,-22.940723399251794,28.486945277111015,78.95965241626064,0.001666279900075879,-89.87488368287697,51.262443178038545,0.002037106126984878,100.94191255147838,-15.088157763832887,1.003148732584147,0.019403654958375906,-12.114134549901713,0.3790001915230642,0.0030708465412824302,17.706212597756924,4.590755740265493,36.00124327377671,0.44085586978987684,-7.950639911464321,35.48816207886438,-0.20726379887739926,4.320948356476148,9.026064426827963
-2.5977359761342167,0.0,0.0,-2.5804161044584477,0.0,0.0,-2.2895913783754778,-3.4039987144648163,20.186609777793134,7.346652581529977,9.552996897633202,-16.424099562838844,-26.203430462383253,-8.512171446553658,-0.0014021706054579508,0.14329687254147147,-1.3657232555514984,-7.679690800057326e-05,31.47852329595767,26.702780744540014,14.953057177111255,-1.9138256122213986,0.879410237371236,-15.488930424938987,3.4463678604327526,28.497243171630153,22.374675274899204,15.4189318135575,-20.520574307818045,31.213962962267704,68.32048003788377,-0.017239559566831885,-99.15976517272868,53.810076157883394,0.0060134873491882596,101.93879201468562,-13.86649758013318,4.479057537916018,-0.0014845738966908556,-10.293688397175474,0.2589004365280853,0.007278372004899838,17.75956553700399,4.445446096589885,35.05420147297553,0.28890085121352665,-7.807493235868716,34.534717234058306,0.4175427054780262,3.900004121306984,9.761734472360317
-1.2161541419407464,0.0,0.0,-1.6967312499054308,0.0,0.0,-1.8881329215122586,-3.0975131085710927,20.956735211702398,7.574260693551375,8.855768223411378,-16.454060064882615,-27.834155268646438,-8.33487027488556,-0.00019813648872395832,-0.2541259936661519,-1.115239983007869,-1.7079495000948532e-05,32.40252693845793,26.332133391043705,16.147498412340376,-2.6729341146944003,0.6888280520453582,-17.002292748692664,2.667117620872744,27.394720475521392,21.75667537817875,17.062544229850374,-17.458582001401947,33.286173621340325,57.945821609121055,-0.1525427211761709,-112.02056295890704,55.46751673618169,0.003957812111387492,102.91828097742746,-14.919878644799866,3.1359806305866247,0.011545830244235339,-9.7073546534702,-1.1403344057322484,0.011286822367420953,17.610477379146534,4.561003669600829,34.60062213443424,0.05070744022800144,-7.561203869861331,34.134691608666174,1.4232169449107221,3.6667533942209958,10.26629990510016
-1.8634543356371058,0.0,0.0,-1.4900594953127648,0.0,0.0,-1.3099757744718517,-2.8886536794797966,21.424621490483823,8.914581947506218,9.565868950812822,-17.68133975061222,-29.682901270229493,-8.47955896144964,0.0018507697664163754,-1.041658786827619,-1.1034127995281122,0.0011000268548279095,33.32634566578806,26.089256843514967,16.512141145996754,-3.7349498805370365,0.8123647943143549,-17.797880506564187,0.7980802922642911,26.131400329901275,20.870215726371192,18.607286062805088,-13.63336578799037,34.630459422094916,49.722087897628306,0.0860684032082716,-119.44552960826772,57.34295714466703,0.0076590613439521445,102.23989392453399,-14.614337937487509,0.0555966729075905,-0.0035492614289909085,-7.507637244066296,-1.1417709059705454,0.004972517129440589,17.346728449702553,5.032281368863174,33.17296572788797,-0.4838205243223631,-6.679769928969532,32.913189057415615,2.608667581698226,3.241221024233731,10.964109031664224
-2.488252063697652,0.0,0.0,-1.0101880573221462,0.0,0.0,-0.6981374839298651,-2.477745938586202,21.199578957020904,9.84455309027768,9.677534455898165,-18.397151397137257,-31.27595671592273,-8.081841088271853,-0.0017485985210240855,-2.1859261955571343,-0.7963984278577778,-0.00042205820897366775,34.000798575404666,25.23086411751387,16.867330270114156,-4.964798128413912,0.630141892971192,-18.885473718819817,-0.9052723092304109,25.00024769291277,20.161346165298067,19.612126393293792,-10.810634089023415,35.72367251416368,42.17790317408811,0.10579877203725835,-114.4094013882825,59.035042087451124,-0.01264060863337912,101.67130654407578,-13.781743043917547,-0.7299189273729686,0.0013750032915786435,-7.743325021765348,-1.596068609717033,0.002623867140610058,17.16055708332478,5.045385221450905,30.170533335965303,-1.2426430180065438,-5.737128175439282,30.057973688243123,3.6729783822448137,2.779526036765982,11.976062450498956
-3.1665064055421115,0.0,0.0,0.9370278084541355,0.0,0.0,0.7249631781683143,-1.6569205528787028,21.656625029730524,10.458981739131088,9.455190180509911,-19.420089501703394,-32.813307604144924,-7.427011206170583,0.0018157478850115013,-4.254344210150908,-0.1811424597174382,-0.0003834927853767357,34.782353750370305,23.944482777996367,16.199602153615793,-5.882539046876268,0.29401436596752567,-19.56352861779287,-3.412400797241659,23.479574332667102,21.140344473646977,20.781119774012716,-8.79462487857257,37.10069770358684,36.95315800892189,-0.044251874309255944,-110.14946690324305,61.018540951740476,0.01398587941398797,100.3008706433915,-13.527135632790822,-2.105845503074642,0.0017543956315238948,-6.437643624398609,-0.38122526386063965,0.021918523771149112,17.219890040941916,5.294854997121992,27.544861823929928,-1.6383181819556718,-4.665222597522161,27.649820247861022,4.881581672638653,2.464432977617256,12.431057546899845
-2.936008460296007,0.0,0.0,2.4565219114724957,0.0,0.0,2.6616826886244844,-0.9465975450476476,20.803968083263555,10.778191917136429,8.999395099874443,-20.84846425847394,-34.68396914697898,-6.906454731350369,-0.0016625586718007047,-7.109774591415297,0.4798214875688059,0.0024416124881097272,35.14166105877489,23.176002116406025,15.38548065390217,-7.009500184305628,0.33185728362183753,-19.558550468167574,-6.080257193986649,22.34483359066217,21.800164769578114,21.677865119634635,-7.3747849448598535,37.491377060913564,33.85487952265043,-0.001400462715958218,-108.23913273587328,63.159798774946886,-0.00012702880771061275,97.38137664687804,-13.387474841914981,-2.5036680138300182,0.005425827833675685,-6.426619604339477,1.1901323804313721,-0.02936313965850605,16.839414231358393,5.792396710847864,23.903546645046912,-2.5893604085976865,-3.0063555253788334,24.381858496806466,6.0743160730782195,2.3607801304619804,12.990831738173444
-1.9057293720780555,0.0,0.0,4.450917297627243,0.0,0.0,4.4432670124905655,-1.7005472790656593,18.796629767805697,9.641156498212819,10.62459152352299,-21.14659219730661,-36.006033924609255,-6.022316387062214,-0.0002282363549694186,-11.122641725236493,1.244848900773823,0.004990557646087813,34.84956288838085,22.419920812173142,14.089226766210194,-8.122210575003338,0.40122403206944784,-20.044810642024935,-7.210850741504414,21.55218622711127,22.84647261306246,21.73704657080699,-7.071628905526659,36.02418279863446,31.12320294676248,-0.010269725744642619,-109.18239996219675,64.5835480937675,-0.003541132303155104,99.77928125380136,-15.340659304439086,-1.7205768560198889,-0.0025833277146315695,-11.83598162346574,4.555077937872225,-0.02399046917792641,16.651066395320164,5.759130690006975,18.556424729816975,-3.502128858543783,-1.2352189980026593,19.361622996581794,7.0849545917252446,2.3209885387068656,14.470174892193453
-2.540506054244954,0.0,0.0,8.770702511197587,0.0,0.0,5.863331101520142,-1.6015915268637284,17.457564669053603,4.553779003153525,12.836058717637378,-20.109265401594282,-36.60081464771451,-6.052091777332989,0.0008241690243788783,-16.86383964394181,2.6526710513731855,-0.015037952660043052,33.890213526270145,21.839793257530747,10.866206705927505,-8.679086492970951,0.11548405645160496,-19.429893075397015,-9.054807447832394,20.30480673582185,24.167243984630854,21.571859966780195,-7.658122780824441,31.813771183411998,33.371336596469234,-0.0009006719828270363,-110.9421542754004,63.46092984625023,-0.014768613179490237,100.31064880423997,-15.932059003902667,-1.5140698983595287,-0.01032257920721584,-11.015678143225268,5.711607795681045,-0.006125225914909368,16.577679325412923,5.211015558600065,12.704900391224834,-4.182018207007412,0.28863766275108493,13.712802848653117,7.536429532578138,2.9095920990655944,16.107773405659305
-3.162640632244445,0.0,0.0,10.998004566049461,0.0,0.0,6.595409661791536,-1.3859949633795605,15.641675341978814,-4.916500126639666,14.012416074976768,-15.041381836085744,-36.76118600823057,-5.763828436664974,0.00011165398585239678,-24.159496465058147,4.040501971926313,0.0020429859529987235,32.55898326940281,20.91643922816307,8.335251379553808,-8.110078457237522,-1.2912964359620593,-18.83136889744721,-11.594469952420642,19.434854320658115,25.310013063331624,21.284647749052706,-8.968150855176532,27.56859454509634,39.13145089795403,0.02547188895791829,-111.45035851480242,59.61651950407449,-0.023590440808436624,98.47711338939075,-14.82042115443672,-4.9865463400885375,-0.0026164450531090695,-7.013280937463673,3.803143939093732,-0.010348873813698934,15.833488781211425,5.3907220515284795,7.2019824991345045,-5.315596754320432,2.4172524959534454,8.65890245690424,8.203430314606894,3.5840962075007203,17.02862441303425
-3.2835632053288055,0.0,0.0,3.389024244764466,0.0,0.0,7.262209989335109,-2.282636759014106,12.937982892094293,-16.017037522380136,12.416040005841667,-5.301524327211211,-36.64367731758221,-4.589859897627132,0.00015951127825977247,-32.50029526910336,4.2611945943480265,0.01725653691463383,30.985849776840865,19.252176235085777,7.080412867564674,-6.53946961153467,-3.750881433901202,-18.310314575093905,-13.962224145131906,19.779213943394797,25.07374215357264,21.068836087971,-11.360207433564312,25.493663491221845,44.25987857142148,-0.01885458260821735,-110.69046712898059,54.055330324597826,0.039620162298956,100.75966682850374,-14.52889196681379,-7.3566633581876815,0.0037040560721890007,-6.731648328477252,4.440541933929378,0.002351612643405752,13.708297047093241,5.393592967786282,2.986570231159135,-7.619792529301305,3.9408191329745472,4.742311629513068,9.015862354986195,3.84529786266075,17.179120655204056
-2.06615831721506,0.0,0.0,-12.13171447751167,0.0,0.0,8.394131032987246,-2.6151588572772515,11.975638911974803,-26.89434888367819,7.90365609775896,5.611400085634512,-36.46967655672059,-4.610395534950782,-0.0007033062899757173,-42.03127882179807,4.699720778075519,-0.01716266830786597,29.369471433723124,18.645082866960152,4.3288286693551665,-4.245551471443662,-5.693447295144531,-16.37920737285811,-15.332771716517428,20.994086628471454,24.39153383479914,20.26705672709751,-14.285866653943843,22.039363712098574,49.573223260089996,-0.030326541488256104,-105.88187250718549,47.36684842332037,0.019257674548647814,104.56323594842716,-10.239980751348334,-6.576662613281364,0.014053541824115936,-6.56940332910054,4.524302261002366,-0.0008255772792654957,11.65468125169715,4.544413624522136,-1.0803291221248592,-9.719886934873838,4.625687821078605,0.6482951755239645,9.55092558251384,4.99249920618074,17.017826374946143
-1.7791030400550079,0.0,0.0,-22.915269940310168,0.0,0.0,9.29130742717798,-2.2221255415258385,10.325176386093066,-36.0365094284315,3.377651642700951,14.052350353957314,-35.84542213910562,-4.629342526428577,0.0024088992866151573,-54.521325598488325,5.541909238317545,0.00476591409632507,27.675665539392295,18.36495697430106,2.1086101348738797,-0.6413661428486035,-7.965549288646492,-13.492424623808487,-15.172192086856908,21.89366748472135,23.804600748369037,17.817134387408654,-17.236857716339955,16.25736808422976,55.546971803030935,0.0618320738009116,-104.75691770676372,41.49131238920798,-0.027258778496833266,105.32812758945275,-5.661564140093764,-4.547070839954038,0.0024259717526269277,-6.352625911738147,3.6355898010331105,-0.0009246698353453349,10.34648426800772,3.878645181418613,-5.12066507624412,-10.971789892273613,5.472938579428181,-3.36248847986209,9.836634402846792,6.2410998624178635,16.174210892565682
-1.3919614283372332,0.0,0.0,-26.52066684853674,0.0,0.0,9.122288331196687,-1.6214390228699855,7.747946834230464,-40.67874958149868,-1.2133563526834357,16.288824826396446,-34.5954248782753,-4.2996052016384025,-0.0014060478582579923,-68.46419063363675,5.777392182400148,0.022799944971692753,25.423803686625682,17.588984887447438,1.304763129030727,3.7529187286573253,-11.408428840701474,-10.868225370519173,-13.874735535978669,24.007005191257928,20.35245492378412,14.656099963859672,-19.755029259442196,10.046612384945286,60.64292179896448,-0.038750805807468244,-101.13945458372478,35.85132842530805,-0.00843903059243433,104.88320022585422,-3.777432557859039,-2.6207089795934255,-0.006444899728834307,-7.248348441444209,3.9556026191849725,-0.001876543293896922,9.374779795279503,3.615526071189018,-8.365375441849919,-11.83178394111493,6.4021777768516905,-6.492016558568276,9.655841299261946,6.713590007236897,14.564228214961478
-0.7239311750302552,0.0,0.0,-32.18802625743103,0.0,0.0,8.846518868933588,-1.5802843876247308,5.557495005967713,-45.42700394539248,-1.222904532541969,9.26729105511603,-34.07087557710596,-3.9668377787377955,-0.0023780329694751915,-81.26451136901552,7.113860930694623,-0.07144016211275174,23.8521305244958,18.19769661825462,0.40168283197740245,9.260942524969451,-14.274667593385164,-6.127286889611734,-11.333033370246545,27.05222311910969,14.582927255141318,11.231272029543215,-22.089274766323125,3.1529325090082496,66.359228557439,-0.008032298248959515,-94.83968570117914,29.98876743911629,0.007570162291524154,105.53736419431917,-3.956846127556976,-3.797447357676301,0.018668750416215768,-6.886653288497503,3.115531973923658,-0.00477401917045931,8.577507251941713,3.455406357771088,-11.161681256393317,-12.482689688024342,7.2592691540367476,-9.172014767816167,9.056965927508072,8.053901797931152,12.469286440648494
-0.7232881870558512,0.0,0.0,-36.98755701132963,0.0,0.0,8.814501651346918,-2.047426785482938,2.574544754214231,-48.43870175466552,-0.6351156745470115,2.2597752567930787,-33.279161622727344,-2.5432687565638856,0.005421624814609944,-93.11906042940231,7.094386004802299,0.027952697375795015,21.745280789641143,18.083119718426104,1.718015427037387,15.884911817937773,-17.9455989882517,-0.7501205578179971,-8.916437529688219,29.933671786956598,9.596579103150207,7.322032017854491,-24.64712274663341,-1.99249682448772,72.58661390252901,0.007306957246946341,-91.76462115059479,24.021790190892652,0.03690799502766076,107.91531852970634,-4.964990349540656,-6.070273902287347,0.011934992176366567,-6.28641269595831,3.139815515251474,-0.0009373105962695078,7.931659627836487,3.019537078450601,-12.788313915072989,-13.00479609536271,7.434350874347874,-10.858221602334448,8.145502278351477,8.53787195490282,9.67790802528626
-2.628686493181528,0.0,0.0,-48.340470691756025,0.0,0.0,9.492846159763486,-3.078327749643803,0.24089022752550493,-44.15844253060893,-1.4611757784129726,-0.6447042195196447,-31.5115819102497,-1.4376981165813072,-0.00038374811005716276,-103.89527345922197,2.8456498430759103,0.05278350022726712,18.998745211898758,17.143751928956853,3.913088997168304,25.093152652169334,-22.54466735502777,3.998719006432149,-6.122023643680154,32.94346144191286,4.785475553186577,2.7131705841444718,-26.986824660022293,-4.684185121329556,77.7886660567935,-0.003844852463091928,-89.38605822624207,18.971692955711685,-0.018728417915095285,108.1050589248339,-3.369167874416922,-6.8598925191545375,-0.005060325041262531,-6.474890074626058,3.2837549628200513,-0.003263338446368686,7.123230887085695,3.020269748232783,-12.827040228452077,-13.810570948095632,7.448847698904741,-10.894387287794386,7.12023738755417,8.033646962093387,6.900647091669422
-3.1845800874091736,0.0,0.0,-62.20742953375426,0.0,0.0,10.411906560366926,-3.66773686500881,0.7584723807534476,-39.700758370827096,1.5520982684916302,-5.379823987060243,-30.13946141995311,-1.7115165836909048,-0.0026601266692405914,-110.91605284373152,-2.353329694924663,-0.015589846896447919,16.447601760496838,17.447384520715246,3.197685057372717,36.55370436291478,-24.7205180907673,10.350980361893782,-1.7736731394171878,36.82326980831155,-2.921643740491491,-2.6239970996276782,-28.74130353637768,-8.53384723152684,82.25800031012402,0.017255432281839973,-90.53493389253049,15.060865889708573,-0.03170346790219687,104.26845137278589,-1.860982190730789,-6.699903746212801,0.04086613279836133,-6.436878898001964,4.0410235196798325,-0.0028436933220721237,6.723464283091572,3.5276906984134295,-12.443395720250198,-14.260534704478,7.7856972057921,-10.35040756167028,5.590667604925908,8.664524404856982,4.277722640068139
-3.850377182865045,0.0,0.0,-70.55939109974778,0.0,0.0,10.630528956652194,-3.378991222819881,1.0067630765850806,-34.977336135685505,2.8490005616635186,-11.374970841327956,-28.85807118403333,-1.961267285953619,0.0013919282946668683,-114.40303321421464,-6.916691412646028,0.0003017454954270518,12.603858520525137,19.075123516284297,1.4893978266038288,46.10255929977132,-25.015507989586542,13.688304085440919,2.764619171126383,41.74549730618109,-11.274589912491795,-9.444090559281644,-30.379872203739964,-14.517612710235618,86.08780641449867,-0.0010478502456328853,-92.463187104078,13.390609497535738,0.004601201145067672,102.48221180485726,1.9111535852038337,-3.367960342866419,0.023271561168401837,-3.876658721867607,5.509823209723858,0.0055388746184263475,6.668410933937429,3.6885074293708455,-11.51868637636329,-14.381594393191328,7.604822201877593,-9.422889719733266,2.5111105587331655,10.689865104842028,0.4125577417530091
-5.100495478071687,0.0,0.0,-69.32863924703594,0.0,0.0,10.416761880752587,-4.167441833841332,0.08480081342229374,-35.88903789587075,4.450534008335279,-17.142285986630885,-26.993409691762846,-1.5632046840457834,0.00060754250755901,-113.3109360375498,-11.90909472906289,0.008051936345752386,7.3671770986569,21.638705374164836,0.5760683743821269,53.91164842315085,-25.832613630880434,12.094905320728857,9.097387899591224,46.39326382962792,-21.567501806883513,-15.694528424075767,-32.12153216717993,-18.286342610013584,89.7395224377519,0.005789792375881231,-93.06386797994256,10.775922981012554,-0.006804985967041966,105.3477072569545,2.9633162372287685,-3.1700881865601342,-0.0060973486134346475,-2.3098941249790745,7.9494905035893675,-0.013146672617923042,6.676989947912096,3.739147993831152,-10.321447138634392,-14.442880161654855,7.222261613292396,-8.28039957768325,-1.5696199327008478,13.691683741678846,-4.486312855156772
-5.255967212265527,0.0,0.0,-69.8014092111702,0.0,0.0,9.940154866560624,-4.984252244809897,0.6858724777342926,-38.72605804692946,3.5015675070601766,-17.07017816203921,-24.615387852273308,-1.7337110377705232,-0.0024676239682214743,-107.8097565114197,-14.814176189696445,-0.04379227990583575,1.3656829984079355,25.378520521738402,-0.8668715160115351,60.77369252919801,-25.126581320250803,10.173086718753959,18.19817034658724,50.29502302199362,-33.23922876403614,-20.919814828315985,-33.73408223615684,-18.439793237837407,93.77958266880121,-0.0024980971168011186,-91.89005547628032,6.490255639718291,0.036069366710381794,110.50180119063191,3.972130304421936,-5.2839290894910595,-0.0029051821419054523,-1.8230238456789452,10.14060165887067,0.0014628432844113082,6.891161274640941,4.130710663206119,-9.204350627921894,-14.301299759722657,7.185187168650835,-7.090341457796136,-6.244482227766551,17.783302716247277,-7.999566959240904
-3.8351782184766416,0.0,0.0,-76.06687399754087,0.0,0.0,9.142309684387422,-5.192761352139684,2.0533638011194912,-40.02410800714641,1.1474983193776973,-14.901098650643206,-22.96262859121114,-1.6897331012483856,0.0012932873137171549,-98.94653592428745,-17.063419882195696,-0.030483680043028986,-4.517879680838105,29.35551191538842,-1.0636340608992092,66.81086394288624,-23.642038042124902,5.76404092152951,28.659036066606006,53.73051968037248,-45.84424852944103,-26.43856399338694,-34.34990610841977,-12.883882279841723,98.64640093047115,-0.03598944474470196,-87.90440760047201,1.6416250308755438,-0.06529378618331146,113.13193431021784,5.28729357795842,-6.517919265301063,0.00583393011318114,-1.0301552766103181,8.492978676406764,0.0025552290864778696,7.166360761253243,4.4058623142443585,-7.947201298274524,-14.09017871782217,6.987808869557073,-5.81233636148489,-10.95739441026775,21.97770765818851,-10.456401238702894
-3.4374171616576445,0.0,0.0,-78.71346365485395,0.0,0.0,7.535681467281364,-4.64504563532764,3.6120313592743054,-41.55983981786594,5.400196387933699,-14.495857015384855,-22.59770639753361,-1.5520669413784975,-0.0010933800119301363,-86.88206156075955,-14.116752856012896,0.03572371448042503,-9.275919405783458,32.14009311108536,-1.3253232297011175,71.86442509362938,-23.639564805076315,3.654919648175557,39.548306718396034,56.040610789948346,-58.24030137757744,-32.5153972013639,-34.881819803980115,-11.4631179003596,101.69129129241037,0.0068585369218451915,-84.6801549246144,-1.611380301775908,0.0056063375603084675,113.45441945941435,6.790381882163292,-5.9850615384942065,0.008523188063780059,-0.5986796537183815,7.577607111110371,0.0062950641322163225,7.132441782422256,4.0929128842187374,-5.959492756498815,-14.17380157372801,5.976692187240647,-4.0677091236796405,-15.354708467259563,25.386359924677496,-13.6152430986334
-2.442690593404134,0.0,0.0,-70.5375598976229,0.0,0.0,5.032396211391882,-4.19136761696867,4.943626226195486,-42.93917781852234,10.690195406643873,-14.305553605188988,-23.271067608956894,-1.8831949176999063,0.0020437664733105676,-72.62816082828598,-8.524594151665186,0.07923555873889769,-13.88866905727268,33.1861603594573,-0.7441905941441163,74.99878236367678,-24.09981884613228,2.0772162608442932,48.61412953407466,56.80841163636096,-67.81487764806954,-41.468985962326315,-34.39552877993333,-26.288756900471512,103.2405477224651,0.019935490739526697,-87.17161094925201,-0.5874856255815804,-0.022903602490519495,121.00515231145017,10.70356769696337,-5.39425130163138,0.0018595057736313168,0.28797481086948556,10.08820800730013,-0.00018968645095122862,6.490848546063314,3.5254873177548793,-4.067063950410644,-14.83559912645593,4.761647536331464,-2.5080654952173638,-19.635974484897723,27.204093322002056,-16.06021586457305
0.09912711227551407,0.0,0.0,-61.916799554395055,0.0,0.0,2.8520869979802264,-4.335324677152378,6.671730851996005,-46.31585544585329,13.539414579338086,-18.04472192345826,-24.85985723826237,-2.7543189877030363,-0.00031270160210846863,-57.60140044797325,-2.91923089515328,0.05498941521521047,-17.026831924680145,33.26181068044014,-1.52489923849258,77.66844366823281,-25.179470408440963,-0.6839375978145196,55.09894090978075,56.285683701267615,-75.39896060181931,-49.90438007270268,-32.4266144395633,-38.81220508548377,105.74592067709109,-0.005910437588943126,-88.34728594312404,0.4286063648923539,-5.127178625830876e-05,124.00847993892674,11.003799371376843,-5.198417332677256,0.03663700002818987,0.27346180591345415,11.548500580623832,0.0014160958639594116,6.030576687986437,3.2578349495213157,-2.0923551079593747,-15.30914939134684,3.7951620220214277,-0.7644070325371825,-22.88277909892215,27.82463280018115,-18.94098616683639
3.497594550230385,0.0,0.0,-79.0412049553773,0.0,0.0,0.17026586652391543,-3.4744089728290897,6.379940979803657,-33.044043280727976,18.320461017766718,-32.658119853305095,-26.446857237199826,-3.36090969681696,0.0008931986212989961,-45.30884850884429,-2.0997850829246,-0.10049814630297224,-18.953351279834212,33.47296044576748,-0.17761965358367943,81.77859878081983,-23.42796203778441,-9.204912749999714,60.68706181877897,55.52435943554062,-81.34398776617563,-53.42412016555982,-32.042091845326006,-34.10578518813501,108.83694700208206,-0.00853033735469939,-85.21800390151233,-2.688584552022594,-0.12615768896854782,116.8551480525489,11.89431366061065,-7.856257687086488,-0.053035031100312956,-1.8131024294422282,9.999934797493525,0.020239850705250122,6.377971658629782,3.8496030992287835,1.1181191454278312,-14.957759136824738,3.180132178832819,2.441449655335301,-26.02283418947327,27.8885668289925,-21.007972967596647
5.538201491733089,0.0,0.0,-111.54383702886882,0.0,0.0,-2.052501900767583,-3.7717286379583834,6.909169476331282,-0.24224755636975975,4.366777934682928,-46.180979822884574,-27.408104466676757,-4.4767726027768076,0.00020553881730048007,-36.50222853026753,-4.107812058080811,-0.04477707410461523,-19.745641706370215,32.667533151255604,1.7053904399613422,88.27238389346579,-18.6286610035711,-20.96936656221201,64.51774408789515,54.20361787495911,-84.47114992941877,-57.53935914185565,-31.510632468785346,-38.22163192107144,113.46422623535156,0.02093299174452047,-82.31467792113648,-2.719244605688661,-0.12822793116908307,120.92863883264577,17.809315121157937,-17.11383665148342,-0.15747968790668804,-2.0852339566657054,10.600631506969426,0.01769041104640758,6.006573806393154,4.987483201388479,4.978490973469777,-15.242080339573247,2.842145672426815,6.446238845114729,-27.438682873815836,26.28194486882021,-21.546748336813195
4.980272694031635,0.0,0.0,38.47487609339144,0.0,0.0,-2.3945401077623982,-5.0384226369219,6.181719784963326,19.193617049019522,15.540603192064681,-39.72044474882035,-27.162244753116212,-5.114563053143113,-0.0008114367581500844,-37.91600834050025,-5.497650811380261,0.08384319778782828,-20.976608295127626,32.15772920633717,2.39650932015729,93.62386337157885,-16.05085444483977,-19.750985098983655,65.75160021062392,52.323175886283984,-85.85172264749183,-62.3390151168943,-30.10490371640538,-48.43849380069208,118.9219175943174,-0.026457364665734655,-78.35906638256911,-0.7297675018902822,0.007389282674201431,127.3315112487897,18.877888863210572,-18.444029752933353,-0.02395604777967887,0.08967095222412201,14.225586223673224,0.0017587644999742834,4.607911613480622,5.247562267546791,8.49028256828216,-16.464098906868298,1.8216902260686154,9.804784036512162,-27.328529184140372,25.225714642012978,-24.270025646484587
3.460225784883742,0.0,0.0,0.0117326842445582,0.0,0.0,-1.5535871952557647,-6.317006792233007,3.819433602478716,-12.972487606000481,28.985656947672076,-19.045431351930784,-26.41298029675898,-4.953530501861562,0.00023622385370201165,-46.802720911372006,-8.785443618243455,0.017740152704047826,-22.1825882860103,32.74232966494491,3.512349548433204,96.9127861276802,-15.870424696100192,-15.644665091765056,64.97101739616969,49.35162534852353,-86.23816499935043,-65.87041541137786,-28.118546697320742,-50.74741281745218,122.2400436784842,-0.004419988161537788,-70.61097723079664,-0.5394247110489414,0.032442242089638355,125.40604087428399,17.234369781463965,-17.856460394936178,-0.07607126137037548,0.6170110145171432,14.580202954985836,-0.0062821392900012825,3.1161015854895697,5.105897791677235,10.549037730882919,-17.815298277888306,0.9545359046565824,11.668686977906734,-26.576715005831247,25.375124578122296,-27.1010149568964
4.032516742792223,0.0,0.0,-41.78775415625896,0.0,0.0,-1.2494252712609717,-6.1525044749042745,2.4132774405026556,-33.206691494688144,19.44683625122281,-14.248910886651311,-25.835725831498017,-4.63874573183847,0.00012189418420529282,-53.21911696986502,-6.405364704752375,-0.05266076229701699,-21.160455344273274,32.226959731358306,4.061871569525954,98.70456838444585,-16.135625798407492,-10.716306106592073,64.37837496703891,46.54458970000913,-85.67540963313316,-68.13745078048731,-23.980883675667602,-58.07911895099991,123.11886636057613,0.006272531137012637,-65.11756716777228,0.3669250501817974,0.005672200187873996,127.65748941163298,24.467502757863045,-14.264300930271759,0.19663332326034813,0.7398665660497362,13.828285525835298,0.0021436550119459377,2.6046069520308786,5.122917434666931,10.352903120045315,-18.34119464404617,1.0402467282496966,11.49230473416318,-25.08253860852345,25.187036233468795,-27.744967692614534
3.0522978039347697,0.0,0.0,-40.80172871202472,0.0,0.0,-0.9182384555369225,-5.377021612252134,0.33223330443986915,-33.530458001731496,13.126754907734647,-15.989678678537087,-25.187333597679622,-4.189439398799953,0.0005667905366221779,-55.61574256165007,-5.411076127001881,0.024854047113622532,-20.08106054393478,33.10551053200296,5.756704672089054,97.75198777153577,-16.21803474382397,-10.797975756493715,64.15886304612725,45.32149325780059,-84.68054717896716,-68.18487377068293,-20.255466172131616,-73.05134210614675,124.18201272308217,0.027196519518781336,-68.33657895327161,2.519380144494803,-0.2738546240899856,142.4802799171915,32.35097488812586,-5.209397419978313,-0.003111625216575405,3.6366999456004265,14.600409183177842,0.00308696347567111,3.359098649440844,5.01004248874395,10.129311130516498,-17.602009258504367,1.0144806756011584,11.243900213081506,-24.576390642886853,26.274377191837154,-27.917471355850946
0.870355897195712,0.0,0.0,31.79667440433142,0.0,0.0,-0.3732471273245063,-6.581239289273423,-0.015885232781199406,-41.11038343594199,12.433301281524578,-16.137477694340838,-24.311347329176385,-4.125623329261791,-0.0027181356227270726,-56.82081503599692,-7.425355237988478,0.0019126615467295752,-19.817509581201723,32.433953776051304,6.140605679684983,96.5444162532542,-15.029324410443932,-11.60339747538206,60.40026968054657,45.28779422494476,-80.09652476218886,-66.44300215766673,-22.40431759477319,-66.40876697424915,126.0641965557036,-0.00351242069293718,-73.5154049177201,0.3744182804847269,-0.5019855912099789,142.67237648807256,31.40155249196007,-2.553063081836925,-0.037335519283826,3.325304525572614,13.102998675194696,0.041976897674703785,4.896201424811529,4.505281054192329,12.526916883478034,-15.878661569471031,-0.30837068205388535,13.296740654327293,-24.571545772297,26.44841004064206,-30.622305652690063
-0.1835391892326988,0.0,0.0,47.33292106421015,0.0,0.0,-0.3037893128592168,-6.987171099200636,1.2730664594128929,-41.697369326734965,13.413112391231616,-20.494609783991823,-22.914689637378714,-4.102426504188253,0.0012584115832676927,-57.02324444365284,-8.728532661474423,-0.0068503428196995285,-19.558426306355074,30.581261212125458,5.405571877096305,95.02254100047595,-13.660973637450711,-12.848785024732432,54.1620595515553,45.82541232274872,-72.27897292209651,-64.0778017632069,-26.398479199552536,-53.388949221139285,127.94585702467695,-0.013311340590224183,-73.30166176024767,-1.711446792230124,0.035523335864566755,124.80990650263112,31.905091888164346,-5.951486234341653,-0.005565309280309978,-0.21099988386640237,10.85434287831961,-0.004714171252775332,6.599255438856926,3.8855029605817806,14.934132383759241,-13.963286759701132,-1.7357125871578571,15.324524466604258,-24.074485252680077,26.38985042152495,-33.51481296987388
-1.2292703256053334,0.0,0.0,-8.755895906332364,0.0,0.0,-0.38216979176861576,-6.065490241407325,1.9318639386491427,-32.0970430735315,14.04192899246698,-24.717310995332877,-21.737981692143727,-3.327423513919831,-7.629984918356008e-05,-56.916004648762666,-7.786659328529979,-0.004314638733489544,-18.266123651282708,28.614262019209058,5.037787243021737,93.2510757681819,-12.581593075753206,-13.058066486496037,48.028072311177695,45.68877400263815,-65.44325455811355,-61.91960095747961,-26.30836795711094,-51.283421835013954,129.0869550897382,0.00452204075679266,-73.57069766068275,0.8856332414178648,0.05046964068182254,115.3440536276347,33.81454339533007,-4.801610721497229,0.021280162653152572,-2.5188082218382286,11.408764804457505,0.0036823495306640423,7.139730323989815,4.358371856115212,15.157889205439503,-13.39656313779702,-1.3712641528858973,15.699635054114667,-23.14842279217368,25.879966404555873,-34.09570432817964
-0.13752736834371831,0.0,0.0,-46.0863824358385,0.0,0.0,-0.362737770715833,-4.619631273200934,4.660401966801918,-26.042212354202057,14.445989481357111,-25.106933703685172,-20.332669764265177,-3.4939182411965164,-0.003140102281719281,-57.11867771561037,-4.82645374087134,-5.161572965632491e-05,-17.42912129848659,27.11670940122354,2.3176262705773785,90.24657540452876,-11.92188893846803,-12.389679176474987,41.58633426223748,44.73412651138293,-61.14331797573505,-59.34580697037924,-25.681948662134012,-44.3711904865281,130.15485643067353,0.019352702523712333,-78.44543410794543,2.7776092193881965,-0.01983497333678312,106.86371979572029,30.935080122885772,-3.524008100445397,-0.006799512894197722,-5.33944056372354,8.482535034875502,0.01567499943291535,6.659713153542629,5.204867805362934,14.68514046154174,-13.918224050829425,-0.41325776828680544,15.555739468642608,-22.343668406909952,25.44477452786619,-33.905712644289025
-0.2899407066802053,0.0,0.0,-36.329300191800385,0.0,0.0,0.015064250163974705,-3.7964642926589605,7.429316171239503,-28.16482777141436,12.282079315560589,-21.866428108513773,-19.15400811256237,-3.2460117965887756,0.0009407890061178094,-57.835981347258816,-3.3146942830595134,-0.00225297403374912,-15.58195124124396,25.184452342724022,-0.42671167157651896,87.5412294897826,-11.554623074831264,-13.489079316473028,35.77958577618922,43.37722702196971,-57.65299481964877,-55.36411148198256,-26.11664585883025,-36.12432917810299,129.87823915627516,-0.00791689216744799,-83.59852519802494,3.6866737323064167,-0.016512935795341827,103.15841129016813,25.28707586236964,-3.7534556776575507,0.024463158793649475,-5.630924301376159,5.379564860769696,-0.010670008939291592,7.002706329270818,5.44486168234525,14.274901921997165,-13.614504028356444,-0.0448968989321255,15.257816165058493,-20.834987990031525,25.126922327729847,-34.023345290460576
-1.8016162865915104,0.0,0.0,-31.607833207988175,0.0,0.0,-0.08240107495823173,-5.295258123865289,9.52120857531427,-27.523323998831952,10.619248083553527,-18.972572425012533,-17.91981995985687,-1.9903206430538605,0.0016156827020011534,-60.60239332956188,-3.6190037657688836,0.010746066574486254,-14.160338116531623,22.378126729214106,-0.4549340413282767,85.14523616389693,-10.147238979023658,-14.386779788748973,30.16539577304351,41.91792671093219,-53.617691186742235,-51.036111135836705,-27.155995453682976,-27.265397282331843,128.73771993170132,-0.0023771902875588,-86.39465284319289,4.425468585169552,0.02051220817007363,98.20196935031444,22.675722149528124,-6.488246691731467,-0.012902596962588546,-4.404602239152872,5.195081438282399,0.022367201161448795,6.844591838746878,5.200313891543542,13.790694233581858,-13.818223999148172,-0.10379946557717742,14.720446954844705,-19.14632768665229,24.1178796408468,-33.51342056110158
-1.491840554647668,0.0,0.0,-24.367961646877962,0.0,0.0,-0.7905368093718564,-5.815464998547611,10.528325105645692,-24.12534340905943,11.633273736252711,-20.0224334224781,-16.675822304652044,-0.7608870480822401,0.00032431981086826435,-64.36978116237992,-3.947855906220599,0.0007045328461889792,-12.943504102365207,19.274402483399953,0.7689357309931589,82.76385139950646,-7.8572687410101905,-13.624786779929876,24.019725121610815,40.34607991921794,-49.06546148228717,-47.099488485421325,-27.73908915843689,-24.094262417184755,127.28111980351223,0.0183274331259222,-85.28830914252799,7.2604627002921704,-0.013298894186434939,95.4466933031533,22.064610788677435,-10.122781690137073,0.04495360183930705,-1.0004441935671884,6.812579930040066,0.022744305669829844,6.091822386453298,4.685191545007739,13.337127290009278,-14.612875012094989,-0.4261196316002771,14.115731714716064,-17.455710934582335,22.39099828279689,-32.459375875199946
-1.0811218678026584,0.0,0.0,-20.78275301781116,0.0,0.0,-1.565131755979634,-5.03045879280753,9.880994500399034,-21.993594416508945,12.79797801687299,-21.481502776878717,-15.709819695384386,0.09058417509523045,-0.00015617495407507448,-67.26062896484156,-2.1143182861544556,-0.0023493628927709065,-11.065523316973826,16.17351401604318,2.6398038560848147,79.98923812185598,-5.707764160777709,-10.396168209115007,18.85687945707346,39.154384321381244,-45.65888797362433,-42.92279877214407,-27.471970149514096,-23.533026651928417,126.46761252093853,-0.0033253260543007427,-82.38816954042709,10.852180752179672,-0.006790757029109846,98.51760933745777,13.976761658660168,-10.650774072869028,-0.090497828976406,-1.2347311155638698,4.076435412824018,0.02716822135373671,5.6528501756173,4.560700950509028,13.214505637022995,-15.063010347573993,-0.49933914799474705,13.957376737411247,-15.917357747217814,20.046171953178614,-31.348043538979205
-0.6952984816779287,0.0,0.0,-19.909563626522488,0.0,0.0,-2.1381433565043384,-5.17839591774089,10.116690341177707,-20.230563820048772,12.384084714819078,-21.57715812215171,-15.076127956438611,0.01765667964777025,-0.0008314519623322319,-70.01452108113102,0.5431613568461485,-0.004981601570547691,-9.057807437884696,13.548512027725915,3.315349923258139,76.47153813300994,-4.137612117435446,-6.935970342151416,13.437792203696032,37.932497283712074,-42.402341723097415,-39.09078612041367,-26.977537009103745,-23.15564089481367,126.17088805884921,-0.009133870629356411,-82.9875105013476,14.615990910230929,-0.060828721988194764,103.6931135767816,3.9425330560796374,-5.586104711413243,-0.040667051716260956,-0.19473140738278563,3.6584964910334135,0.01412962978248599,4.765870469836453,4.4880639202482895,13.109574617741833,-15.95937501903219,-0.5302685113571762,13.833838717336148,-14.120180854250217,17.413720189068655,-30.288903712223664
-1.3325924074138085,0.0,0.0,-14.883313128458958,0.0,0.0,-2.2806171857259945,-4.748105352853894,10.626827531071052,-17.653683489547994,11.97289713814692,-21.84671384241317,-14.407492446192878,-0.20855858615108464,0.0004965624377322239,-72.52290459617606,4.076489207586433,-0.007835361810434564,-6.935784719375189,10.876715812436693,3.4946070251437216,72.71450489074603,-3.5904486016002117,-2.97387448469165,8.00875627181404,35.5047985403016,-37.83560028291397,-36.36848396521364,-26.138067808987895,-20.78054689346879,124.31810012511656,0.023528387165774493,-80.6487855313452,19.35234655320642,0.024570217311309775,105.41472408230145,3.8770481633339857,-3.8918435139748513,0.03794213029623412,2.076713093330059,4.3361216521575825,0.005919725664812111,3.265112783296107,4.013097424058364,12.5091380400737,-17.51286022779535,-0.7622621437470888,13.105555649557067,-11.537511827152157,14.588352369726483,-29.114216907003666
-2.3476340427039073,0.0,0.0,-9.957591363799434,0.0,0.0,-2.1175844081430153,-4.019298619655918,10.21182365651873,-15.346987047092298,11.240007578606232,-20.790039296903817,-13.943126426948465,-0.26382881295326477,7.375674777760953e-06,-73.16714871192042,4.344505373938325,0.004810984698097267,-5.1256585354146615,9.168678195734396,4.744596120722179,67.57794696596362,-2.279379419613387,-2.2286149006116895,3.3337759117021237,32.79182019808414,-32.49628578459483,-33.18028805546896,-25.787919446393158,-14.854500127670253,121.69065387662168,0.007692973840325544,-77.59198671548864,23.361600353133905,0.038504554666528204,96.5627027397185,5.506506335184872,-4.992541036518888,-0.0019471230932422696,-1.1120588179916093,0.37516207416438097,0.05053058018429015,2.3153111520971255,3.717328862464023,10.891268061486741,-18.588987291525147,-0.46434882452363585,11.491685088399029,-9.640347922225425,12.903282719854532,-27.39198980755627
-1.1226465034106188,0.0,0.0,-4.7819776032199295,0.0,0.0,-2.8426326845967687,-3.8415625540181475,7.839894410456913,-14.425280934140918,12.676132792999422,-18.21755759509083,-13.94583206020659,-0.37552533815593997,-0.0009145878454866402,-72.33449978825455,2.6236106720700376,-0.009460838678264373,-3.932348119023216,7.540816027527516,6.985777961495216,61.30347941943086,0.0065163925939139555,-1.2131452734597366,-0.3974012171622169,29.637449124839932,-27.9503471484864,-29.00383537131257,-25.89333747526261,-8.99312728692096,118.4549287539875,-0.029951824937103362,-80.08398489010624,26.895105895512984,-0.029083794188642504,92.09033549052185,5.71278575094032,-4.758841743981138,-0.005881565060227956,-4.3342057389644335,-1.1444224834940508,-0.01793454453000165,1.2476848900455852,3.3118092645651336,9.508450731944741,-19.751573488499954,-0.3494884120705281,10.057672458051817,-8.841186949802534,11.331055047400058,-25.41584550683195
-0.028217861615713467,0.0,0.0,-4.374385976553292,0.0,0.0,-3.8062954437649137,-4.828787203924256,7.145418567755122,-13.277301649388468,16.747222417585952,-16.059291860166887,-14.463025462407716,-1.385907155522775,0.001696198031958426,-70.55873046638878,2.5479945092647354,0.007344821797901304,-1.5404506953236723,6.61209187577221,8.037593892044816,55.670327731416535,1.6650053741888127,1.6177401580952588,-3.0096984646408678,26.532740020905436,-25.04289516565495,-25.20356948239495,-25.735320674859963,-4.215881963715593,114.68503666676618,-0.01051242197412726,-83.89495294982484,30.564557353188892,0.0292035719851067,89.35687017722682,2.542483674523607,-6.355688827996854,0.02159128837386065,-4.714457845201012,0.8882201761959926,0.0001661923185434065,-0.7586519629109313,2.77757178624661,8.801768435093837,-21.802469561804294,-0.5950190039197981,9.207294902344621,-6.928596866452342,9.777595271821154,-23.5017460171811
-0.7877550185139537,0.0,0.0,-4.098552839970778,0.0,0.0,-3.3974113376275947,-4.355261869784644,6.935313612820344,-11.474718634109827,13.367326104784233,-17.88338825154728,-16.023013946716446,-2.3832907091721705,0.000854730995858761,-68.68617798385888,5.424409060877848,0.027377202159156212,1.9395357360476657,5.768760529884955,9.216142341345734,50.74793225743153,1.1198926407181244,5.335203023178577,-4.814241779833785,24.38748274372276,-23.423916834501927,-23.613998292734905,-24.04586894198982,-3.3917289663987606,110.98390770596342,0.04696886181873194,-83.75310471769144,34.413520541703846,-0.03683921080256343,90.14233492670178,1.1204377310134226,-8.756863649818353,-0.00968784518960299,-3.7784055471680156,0.7783567387225451,-0.0064753273446836734,-2.8925122210331744,2.2301560087367043,6.525317478042122,-24.053596936849313,-0.28679142094724464,6.888392006004697,-4.164855649435108,8.034464902698279,-21.407064100089972
-0.5919396288276171,0.0,0.0,-2.7759432797066212,0.0,0.0,-2.846983642225886,-2.368865597456941,5.205660271566282,-9.803780879488684,7.488023513409996,-20.736099181981558,-17.89574131806981,-2.163019201268051,-0.002802028447394154,-65.66000420622515,3.34518613757917,-0.03824266665261545,5.034224940274224,5.064132243039171,10.947772242738088,45.259443868921025,0.9618278842630227,4.0283223616456185,-5.809288530032998,22.23429398666784,-22.382118150223615,-22.27117193266365,-21.945807771248273,-4.524364916159941,106.20509661323014,-0.028492909564874998,-83.87296484981542,38.41811078070676,-0.01619874429592841,93.5278708509033,-0.03718722483658894,-7.71447558792623,-0.011668150869501077,-5.224001857511173,1.392902626342821,-0.02047098850317059,-4.941793563235542,2.3179966504837446,3.8450421135078017,-26.19904363243827,0.764139004952021,4.423417960375867,-2.3323729947668372,6.953003107428984,-18.943286749595412
-0.4637924547970219,0.0,0.0,-1.3928452052419595,0.0,0.0,-2.829360952545916,-2.462257578294425,4.826786796983911,-9.267969989408732,10.72793595031598,-19.83437506049445,-18.64314771861136,-2.0995305054517033,0.0008935995686972382,-59.668501326193486,-1.9493209520887769,-0.029985412119712125,6.901892857778292,5.427978055859898,12.264268835319232,38.867240089106076,2.927787360850545,1.402812010232101,-6.428185186989037,20.284132383036475,-21.704378580560153,-19.90328275968302,-21.029632190186206,-3.472180097916772,100.43150444580903,-0.027705047397755495,-87.78259393871838,40.60779580949001,0.020238750852496087,92.05725000144854,-0.3193307371736871,-7.688083654787542,0.001811079498311031,-7.169756792066201,1.3001675561675239,0.002166134155074252,-6.739390724363774,3.0458131226964413,1.7404882902773207,-28.05119619839712,2.205459444416958,2.72819611090041,-1.0181991796634053,7.049015434427929,-16.26968769020611
-2.333998496676792,0.0,0.0,-1.0415353512398227,0.0,0.0,-2.3696788816336283,-3.685695819642218,5.520353511946428,-8.110940062442,12.942948907300245,-18.550898925390996,-18.928753190899997,-2.2784834785008905,-0.0005382803504389808,-53.065562373097904,-3.4479363365144073,0.03733934023194625,8.533254718518128,4.519746637999635,12.833884203417398,33.04194595274576,2.8444902701870296,1.604532981947471,-6.319599132382884,18.6393731046751,-21.186892873785407,-17.653206173362555,-20.182900421127616,-2.5214122457950325,94.33257466700302,0.027167149524610995,-88.50974162146102,42.500309020659095,-0.0006996809204038782,89.38267644972328,0.7354085441895836,-10.165389012152447,-0.003181871916752833,-8.201925173766714,2.2334941865508102,-0.01040687886562127,-8.077420592216262,3.458741532049096,-1.2109681916285582,-29.42364368684417,3.6620509013377367,0.13014362079967928,-0.13222945014453522,6.268008017501178,-13.785256881044864
-2.5846837443149666,0.0,0.0,-1.1522762359658574,0.0,0.0,-1.8125192895360163,-3.8866644583555754,5.809453322916005,-7.197392179490096,11.56239735616087,-15.536040026063338,-19.558858039426063,-2.19637681381182,-1.723257548971968e-05,-46.44345083057136,-4.122426816452579,-0.017575284432772113,10.51207167146694,3.4263139546951633,13.89419669406469,28.672702584292114,1.6882098121635947,0.1872896107441065,-6.941926228182927,17.06890504110964,-19.193200929399932,-15.834456786946095,-19.01060661469535,-1.8953213722369657,88.5414284193692,-0.004379445677738677,-87.47065712206627,44.03724845704777,-0.007141835298813364,90.24039093326707,2.301194756224912,-10.338684630285945,0.010107119304737922,-9.435503515626655,3.1854696339111506,0.003930788910200204,-8.749749112082222,3.62015492611284,-3.8268204592561803,-30.082715076638202,4.762608361921459,-2.2493871019942553,0.6895741095045813,5.170557631951606,-10.902312153732588
-3.197308840728835,0.0,0.0,-1.036730180654256,0.0,0.0,0.18709109787259653,-2.726660598406508,7.571314151181413,-5.7917669833094285,11.765187572196778,-12.955926248167923,-20.193990928150534,-2.834852931438461,0.0006620617136699527,-38.62653486884125,-4.716659999662595,0.003531890229321494,11.998752486673997,3.7341941405501164,13.53481044547204,24.332959240513418,1.8925935303531218,-1.348295631152279,-7.671204319967306,15.712643698889938,-17.40497221376412,-14.020771044581663,-18.076868061591686,-0.8812653671414425,82.40663108583746,0.014911235895083053,-86.19052292166805,44.94055159888884,0.0017272177568758882,91.04714689474984,1.510764227368296,-8.288360874975284,-0.0029824141021925253,-9.447165733385386,2.7961825622368393,0.0009515301406059047,-9.523679524671955,3.84684642931644,-5.178929349494033,-30.839586792309262,5.464449126589619,-3.4285066835797307,1.2559803225370256,5.439895903525223,-7.860891670223663
-3.614740803610101,0.0,0.0,-0.45395388532268327,0.0,0.0,2.07487680145996,-1.9269876789877094,9.93900594332489,-3.299429258720532,13.010749400235316,-12.051802937484078,-20.445348210200738,-3.437558005574124,-0.0003365575273364287,-30.587906985122107,-4.532361765279019,-0.002120980359948012,13.254824736522355,3.692422321842083,12.27688035683154,20.44962903326024,1.8480035894154287,-2.025824346766684,-8.218588514845786,14.588840521313728,-15.730861830222208,-12.204558525193702,-17.543596480931644,0.4942424395574099,75.93981954195006,0.018614607292060797,-85.49714933418963,45.497969944295846,0.004383112021427527,89.2456030740486,-0.4919184226572002,-7.840249150397439,0.005360793762599898,-11.14646961962166,3.4769179560949817,-0.003660534123021953,-10.612362645697061,3.5411519911448637,-5.705846884776307,-31.905236996998042,5.370685077755087,-4.0321568492689,1.5633240965528605,5.877901279670494,-5.3225090573470455
-3.3026013334747564,0.0,0.0,-0.32676942344173737,0.0,0.0,3.447081090885312,-1.5202861089874435,11.988395172931229,-1.3110721748791976,11.731093136115835,-11.117015829744789,-20.779770096666066,-3.290951745968124,-0.0004651019315276525,-23.555613264580792,-3.595539682792267,0.009817949694694557,14.646886640015818,2.6057493556301163,11.758278967205644,17.658180503320647,0.7673258456687341,-2.6177388964143047,-8.454378569642628,13.598794454167235,-14.264533835188876,-10.627115908224049,-16.970439157745442,0.9821257539886717,69.13657416200303,-0.06249537652714814,-87.94162220614766,45.19329552945778,-0.0011709895388302527,87.673801769432,-1.9756575242425303,-8.004511645746689,-0.0011213961736678889,-11.38352866572099,2.4885772430611004,-0.015015244597668138,-11.517702990706423,2.768212692675089,-5.573600515366914,-32.78955651399465,4.602533612655569,-4.190256882228954,1.8268919688374516,5.573431011837039,-3.907036701495757
-3.816344333095078,0.0,0.0,-0.8235156370724522,0.0,0.0,4.765424098377941,-1.081936659242898,14.677414885710911,0.29988917045635677,10.579064258156244,-11.1149057066891,-21.283759482766886,-3.6186091208265334,0.0005592668695671062,-17.500521230278554,-2.466538634592955,0.00034375911000697154,15.670904930282422,2.0067296044836898,10.997815175993292,15.354423412580067,-0.02816872859240607,-3.0770322013429343,-8.18227906884692,12.170585861659617,-13.569020768641131,-9.369313023409077,-16.82628400777336,1.139589750271712,62.95198089483285,0.007643158682711607,-90.55445095087671,44.661276936691344,0.004294964276912135,84.98226541999497,-5.761006422036113,-8.34328501169267,0.0005164169642708733,-10.99112479376499,0.16516092150659914,0.016177447127809143,-11.512986354367342,2.327705982009412,-6.282202011388325,-32.751450735984626,4.448619108271738,-5.012262846479123,1.4518437412063547,5.540499321863248,-2.868787123886919
-3.1559581618087726,0.0,0.0,-1.6841469169133254,0.0,0.0,5.181818376738803,0.14481990597942115,16.10251775731284,1.1351621537402021,10.601977495126437,-10.489685877543796,-21.93577493373624,-4.341259713164396,-0.0008172580620985728,-12.995425887366638,-2.003427136419248,-0.003534714192176731,16.364636583248753,2.2417660128144306,10.771896144392977,13.64070358329784,-0.18364327654591417,-4.163882261749802,-7.8884524062791765,11.321652894961618,-13.029345443292526,-8.829737725777452,-16.49000750295317,0.864385230943049,57.341428939838686,0.058703815314195,-87.69484144277499,44.94535604653524,0.0015907558201439798,84.49328649189519,-9.276440057170374,-9.299250197526831,0.0040242513813553435,-12.194031784709338,0.23313049508946243,0.01186646315014872,-11.392847279169303,2.5681473727176853,-7.253315704425831,-32.605090294746084,5.024020634980531,-5.832429631463956,0.532227796236184,5.723861768691363,-2.0695718032341213
-2.9476697948072172,0.0,0.0,-0.851204105820194,0.0,0.0,5.942789989023675,0.6056772281486437,16.092930157383282,1.2095422469584345,10.10561589856143,-7.765818351323206,-23.415350607582955,-4.593968733268843,-0.0003904802586009367,-9.697707215532297,-1.9925061282919039,-0.0021141389075480512,17.49145510366552,2.757586183970642,11.287095720429381,12.666411031645694,-0.0951480486503396,-5.864220771469174,-7.192289926271331,10.885142193449333,-11.984302182231351,-8.326460947039916,-15.99053150264949,0.7867690911355998,51.041014448603256,-0.0569231117715447,-86.09493129101195,44.65015432957621,-0.008382886744439438,83.47039898399551,-10.437407529882583,-9.679737202988306,-0.004509298095494307,-12.291059342537757,0.3215056111696036,0.004162675049238899,-11.072927046393382,2.9805375667782363,-8.164455284146317,-32.26339582787822,5.737624278290218,-6.534856980346068,-0.335389184254286,5.915255331886673,-1.704898852315996
-2.8668131935474093,0.0,0.0,-0.39409988291942655,0.0,0.0,6.7876596968395715,1.0682386626758695,16.240886948774044,1.0607694921820483,9.549700640188005,-5.908863880366782,-24.94286716465023,-5.224555412041501,0.0011553174333006617,-6.830029202839794,-1.7457104512029877,0.0021640466864285717,18.249904402876435,3.78881984087497,11.17098957065249,11.595373176733352,0.3508355689772914,-6.737826177112564,-6.659227176592088,10.44672890436358,-10.367778057968422,-7.5739425821870325,-15.269835127749332,1.1462807742559518,45.123770157505916,-0.01376286888411326,-87.6158580837673,43.58725017956549,0.005905389319981132,81.88038196034918,-10.040529060888645,-10.867946773756183,-0.007787497301733683,-11.310351631044247,-0.30068593276104366,0.00603040011412128,-10.805658923958285,3.2634543150131146,-8.408886762803016,-31.99646447258531,6.089625714539003,-6.660828062482281,-1.5576352697924403,6.344791190964498,-1.9950228700674493
-1.6065756230520438,0.0,0.0,-0.8399785157684058,0.0,0.0,7.5198370687510065,0.4637593601253441,15.663097763738552,0.4690982610612124,8.779204133978222,-4.603056823004998,-26.311794732006252,-5.589720580119821,-0.0019510044699791102,-4.286537150351003,-1.234873979188711,0.0005034609373934815,18.694215017317504,4.963422043679837,11.641353791256607,10.559286909144348,0.9041651977270018,-6.862281838935555,-6.822938521287884,10.51245993057018,-9.783195401254098,-7.033189701004796,-14.906575898007459,1.362522016260575,41.4978772475637,0.038431744548951874,-84.7301034267309,42.15726041083614,0.005530454507786156,83.8395226559669,-10.801563322249564,-11.822218378416904,0.00496797797456835,-9.943582237863188,2.1455615569900943,-0.0026815261461236124,-10.931199956627104,3.5550331221600993,-8.506433376612552,-32.12941062862131,6.3966967673815445,-6.646110448794845,-2.8177817306678223,6.719352253750349,-1.8723904702759389
-0.996430057381401,0.0,0.0,-0.684869318608775,0.0,0.0,7.700612773342968,0.4777131381513467,14.275980847758898,0.05393353268691082,8.091161466283896,-2.63546262152769,-27.523947166773116,-6.017977211748448,0.001371733870071499,-3.333660564545563,-0.8308491456734267,-0.0013670120686636905,19.85485026859655,5.949467428742166,12.09758141020638,11.189680459564093,1.0960803572489604,-7.255197549752023,-6.227223252140443,10.503489575451999,-9.884616398175964,-7.601674743239403,-14.644280507407762,0.7486700703193083,38.23821689751335,-0.027743309774971775,-84.51141589497604,41.36498279727346,-0.002753198559806979,84.47808906900715,-11.394953192661337,-13.753483203985962,-0.0010773237658577195,-10.172671258848844,2.9467888200871744,-0.001421088345460289,-10.81549614767382,3.6031017598360653,-9.08013461507348,-31.9904540749701,6.648449466270406,-7.165983548584766,-3.2568339752473543,6.729620012613345,-1.1639541064833006
-1.205182249363692,0.0,0.0,-1.1478735709748547,0.0,0.0,8.100860448980889,0.7311441371605573,12.991985997383228,-0.6501328445239346,8.456680932855408,-1.3307619060423552,-28.588648045424588,-6.535097647547896,-0.0007289463221844118,-3.0216712740034484,-0.6376059783524013,7.84378884526219e-05,20.66525806602329,7.152446379645926,11.887411748739323,11.895389800389186,1.5076307586133615,-7.1275440705424,-5.995529316285763,10.945412813753926,-8.971050448313328,-8.651510971093023,-13.961073386656713,0.30018579905489684,36.718229145965374,0.00355517209006834,-88.12819929262467,41.13462656570271,0.0005652675933392222,84.1861570107224,-8.05584712369486,-16.530102929033756,-0.01687557212795848,-10.437870806198818,2.9359934801310397,0.0017829053034206577,-10.68802709838116,3.936357994891444,-9.496175990003017,-31.85816635061375,7.109148370621427,-7.43467826119248,-3.7780496049941075,6.678246062110809,-0.9630283696028097
-0.7519638029760681,0.0,0.0,-3.422087786892256,0.0,0.0,8.395778094320603,0.1703531641332485,11.147492171550526,-2.1966146741631665,9.542405994087442,-0.10809859079330816,-29.489354653762614,-6.353491853478209,-0.0003148214807441367,-2.212938250204911,-0.42141030742514696,0.000571186441311218,21.266083324913392,8.044838149808278,11.86908501534186,12.261132600916385,1.8448961414654124,-6.575502739579275,-6.16699919844685,11.330657698991502,-7.776908349378084,-9.364009405668734,-13.744364474675695,0.414123663613582,36.57150468989587,0.0025879881221297788,-90.23485386294996,40.538585719044434,0.0022344103288828715,85.67073419143412,-4.803253849571232,-18.51268167674823,0.0025994450515400966,-10.211856833736501,4.095674711719341,0.0030788115193868633,-10.698239399302665,4.235290460183161,-9.711763580683726,-31.871900602605802,7.465574848591734,-7.527992088908897,-4.264537792644227,6.590815227593308,-0.7057913893854266
0.22312287452588708,0.0,0.0,-7.852085838713402,0.0,0.0,8.721179964948377,-0.5434778497125787,9.441976642990168,-2.6361084170180735,10.493887524322107,0.7639718676957274,-30.062280929705643,-6.574787141528314,0.0007703696537569874,-1.857869814737006,-0.38644727761019904,-1.3066647626887847e-06,22.259833374281357,8.420962564233946,10.524920306389248,13.39335257807349,1.9127426794528364,-5.814220500637207,-6.370732205588481,11.480979239011575,-7.210904563290221,-9.794000379917376,-13.895100776295884,1.4066330248660641,36.29136719873156,-0.0014955861762016671,-91.47342275855854,38.92977755915392,-0.006395148908257513,85.60451691082571,-4.09874324672152,-18.75623853196413,0.0034488805259034463,-10.030644119972681,3.3034486615040657,0.004740878277874986,-11.073302376074546,4.714832039444445,-9.795149166583844,-32.266423725838735,7.942745401540678,-7.431341746867236,-3.8165337983260543,6.309124024940387,-0.7475902702282251
0.2891011573916734,0.0,0.0,-7.841137746231329,0.0,0.0,9.506686383407347,-2.395052609152863,7.158182157116181,-3.636314061273098,10.014186425567823,2.4231026803957008,-29.930447476263492,-6.103990145768542,0.00034262587073498,-1.6960844245586786,-0.38812233857659295,6.047277424708739e-05,22.486841541761034,8.148415169516305,9.588818475098744,14.21705121519549,1.7372357655406825,-6.07284626631019,-6.365440055636683,11.587753933347779,-6.888541683912608,-10.77105241063173,-13.921222178022889,1.5441513777708384,36.20971802797521,-0.0008496316192432461,-94.4328417598978,37.353251534915564,-0.0005058799137136214,84.7807435636888,-2.9535956227148428,-17.947122253620797,0.0025377527139760618,-11.017275826365687,2.134891680319183,-0.001959849327589784,-11.795892137420198,5.14788237621366,-9.905819096473683,-33.00623806962426,8.386362132191703,-7.376977390389973,-3.493694150612447,5.923151833454314,-1.1864830692605592
1.1833464060278884,0.0,0.0,-6.282948653910412,0.0,0.0,9.874997948848938,-4.148589044283433,5.20987946191274,-4.45585257424764,9.663833919738597,3.2754373135902517,-29.403784203725294,-5.383502717233426,-0.0010930451117389219,-1.9987753453403638,-0.4976843474076487,6.19096875877915e-05,22.485567598790574,7.348879522338067,8.492476907243644,15.15688017005583,1.3546361688433508,-6.60324769230068,-5.954782263209251,11.552164156929827,-7.119057237803328,-12.21308409737266,-13.907417349567245,0.07972374007736632,36.49370567726782,0.0009156949827336228,-97.33215260260012,36.305905467278336,-0.0009462711984947923,85.14479661188115,-3.0293523984615165,-17.847860430284925,-0.0012102070522497285,-10.696576779141225,3.819319038304664,0.002537934281841412,-12.128039670620261,5.300611584136311,-10.006138480157258,-33.3419014356682,8.564889711034862,-7.415271274779905,-3.1313666349163425,5.457836953108323,-1.4523704963072652
1.1988533017569336,0.0,0.0,-7.668139496398577,0.0,0.0,10.177561470283038,-4.603905428892162,3.0568124824908516,-4.512477445051712,9.952446643039643,3.4039435049152655,-28.230870119042347,-4.611314541683295,0.0015319558278198222,-2.658503898511892,-0.6653860811817447,0.00011460635382553432,21.959775093838253,6.446289474387872,7.456623969812181,16.138469820953578,1.0653326703983594,-6.3003262169350585,-5.9576589445479256,11.493545701508083,-6.541578936417561,-13.387452187205179,-14.408825607711409,0.5759707366985689,37.08622207998303,0.00198718191279339,-98.64337912241419,34.51837921217225,0.0042308063077773185,86.60098099559667,-3.3583589499738546,-16.721653555592926,0.0012724757613277408,-9.104579886751157,4.028347812224534,-0.0030686782132728226,-11.940960579896965,5.351332946077214,-9.679817374339734,-33.17269765240879,8.494554697257945,-7.090440500348067,-2.675772155840872,4.892755100339731,-1.677158378770567
1.5723973416183163,0.0,0.0,-7.771062863280591,0.0,0.0,9.135277820456707,-4.963982126196335,0.5616392412037721,-5.167594510440069,10.48658038450352,3.8188587478508893,-26.555615207334966,-3.623326461811047,-0.00017978548860929665,-3.237486282083179,-0.8606319398477176,4.565949011349561e-05,20.616221272386706,5.559356574410191,7.143198412108403,16.390527944399775,0.7848541402501427,-5.800722858639746,-5.906468701728441,11.71747507663774,-6.219652747949671,-14.499327042287774,-14.866293707079194,0.9651512051206695,37.51333712142691,0.00036281189231508434,-97.7446893270534,32.84910463392969,0.001810475071382134,89.31384598372284,-2.8514444404844292,-14.252908822934721,0.0022126168208774994,-8.95094208376499,3.5585668165981765,0.00017235647293397765,-11.309117175937686,5.155696552217906,-9.173742359680054,-32.55279815669188,8.12965864421292,-6.6873403677085665,-2.796005040488859,4.337327470487658,-2.022109675652036
1.0375721874699044,0.0,0.0,-7.614785944009418,0.0,0.0,7.6631524832846685,-4.649946404919555,0.11927786322268454,-5.58060166594479,11.380365037024182,3.4249088408515798,-24.32400387723535,-3.0814797423553486,-0.0019779488817672584,-3.956960455860055,-0.8980952615748458,-5.24238847532097e-05,19.01843039163445,4.68383548562837,6.024305541292399,16.464360460413772,0.4375519449347447,-5.015906499585523,-5.413319827534071,11.864411615153253,-6.8887002258485115,-15.444585268300893,-15.289016887435881,0.482249430724567,38.32375294638311,0.003270063439801466,-96.97466822701317,31.324720331845175,-0.012793824241710166,90.82744699095454,-2.9910533462503373,-12.497574796620958,0.00143424697817295,-9.859374123934503,3.207926013134662,0.001743109746413131,-11.266860761590216,4.478212989489682,-8.959183949964206,-32.48621823870253,7.42073164799264,-6.733815038738375,-3.202366688888707,4.057955616189684,-2.125765912924028
1.0196458789740674,0.0,0.0,-6.55424492696133,0.0,0.0,6.331908555566589,-4.362806642257246,0.030167483641950953,-6.260843632275851,11.604319556760078,3.701116110880826,-22.053107433937623,-2.276418925670575,0.002551002775839492,-4.391005602387945,-0.7364627609204101,7.736908192622714e-05,18.214180897665535,4.055693978682022,5.812771523886198,17.150875222942137,0.14187400912746218,-4.802231473156619,-4.686008295433644,11.909821714281152,-6.953248889212172,-16.034316118812185,-15.760795233620248,0.2916312808424703,39.08473966924645,0.003849976145524944,-97.88050158718325,29.296211732237243,0.00695230777779643,92.18354398323382,-3.9456207815323108,-12.289357843460813,-0.0021166649928268414,-9.70543749320484,3.1571573096588272,0.00023872848272850995,-11.424316689295734,3.818210631447593,-8.430223296928395,-32.63656468279327,6.614545587742224,-6.478940857249217,-2.8855998233863343,3.8183818146185438,-2.4761609822251534
0.8263062081869459,0.0,0.0,-6.496594747359657,0.0,0.0,5.7200438495973644,-4.679533957819235,-0.2955386654770478,-6.598908532564611,11.287038896382635,3.6611666591881593,-19.796674534085167,-1.4834104771305796,-2.9908219795929855e-05,-4.602035223703958,-0.5498131049949105,-3.4007198174583685e-05,17.69557899739919,3.732552399421421,6.128613279874465,17.99074160621244,0.08027050807148395,-4.254594411430779,-3.8571856066664445,11.746442427271326,-6.17254559157234,-16.38365240112934,-16.039812224806333,-0.44520251804581795,39.47986559037941,-0.0025559658009087333,-96.71239966209917,27.37646862587672,0.003714506998804075,94.99735543568364,-4.102160238860816,-10.766341112803866,-0.00647464914318354,-8.91212563294702,2.4061190335251594,-0.000549471601119988,-11.029367991220957,3.3621199665974157,-7.218482859638879,-32.26997590984873,5.751534230246136,-5.511126735834012,-2.3063664113930917,3.690058920803084,-2.9909639135104933
-0.6470094815711941,0.0,0.0,-7.5454725792665345,0.0,0.0,5.931774827134396,-4.594555845231766,0.6372849179909935,-6.625863813419076,11.137043342611527,3.3574439859408605,-17.86930699321684,-1.5094680324622514,-0.0018696813636017648,-4.952213887343714,-0.41299950826898846,-0.00010929986060227933,16.91469449052885,3.670543071086273,5.926523512645844,18.677752267153462,0.23887646206781288,-3.1126518402270063,-3.396134798774135,11.657416198346526,-5.5384590392748985,-16.424125333914283,-16.573184249018208,-0.22502622108177048,41.34425277733609,-0.003263767469165812,-95.06415475070203,25.940932940381245,-0.006689721470637926,95.29036750035179,-3.541315172457638,-11.929288893169733,-0.004652066482057716,-8.784678387352741,2.9984009720997906,0.002601742870628665,-10.5583740030551,2.6893825692769613,-6.1751643341376345,-31.810717238818402,4.746974637897206,-4.7807969342913985,-2.11643548977242,3.51647552357471,-3.1777968068455564
-2.0841827701898685,0.0,0.0,-9.281615287697138,0.0,0.0,6.517862257916666,-3.847277584354976,1.810051685223526,-6.919036696894134,11.15590255082644,3.4566022770617053,-16.621804563298895,-1.717628640314556,0.0004972442617960902,-5.473670110461582,-0.4903513599465312,0.00017409266958720777,16.59284077132229,3.7258570660409465,6.15063223127604,19.771507854290633,0.6607128000457516,-1.9693639437461605,-2.804453054627689,11.939642885405817,-5.715122648359971,-16.371620390320366,-16.800176824279173,-0.14637601237143943,43.11167860654261,0.004720649329758418,-95.67570654853675,24.79499440156162,0.001182180799904321,94.73153217002364,-6.186957387805675,-12.385235559607128,-0.016885039520884156,-9.033309164796814,4.100430589199012,0.000761783510873697,-10.36662367760559,3.0128192555620186,-5.939121657740402,-31.63588076444638,4.962908799469289,-4.442596147580918,-1.8082797776063637,3.023580285210058,-3.141654842491671
-1.1658446973565657,0.0,0.0,-9.310196365810272,0.0,0.0,6.2370881775733755,-3.5568446271137164,2.075079596819565,-7.962565010031728,11.189234085080091,4.712199408735155,-15.31289224816309,-1.4706663111103577,0.0007299887738857997,-5.928731770570112,-0.6471330469818093,-1.7075168668833554e-05,15.889831242411177,3.752271758786906,7.700930980012156,20.405523148234813,1.1352012737482382,-1.6726326761736052,-1.9128567126666929,12.252225563326078,-5.707623069252996,-15.750083623841522,-17.3335412744499,-0.07227619327594041,44.3772865631063,-0.018082034679373284,-95.26767338490703,23.297387610267926,0.006049257827491978,96.24269212674237,-7.854819238459812,-11.337590565244565,-0.00044077950748537857,-10.270743949347906,5.189882147057411,-0.006920564263071529,-10.311364117811513,3.4402318232047264,-5.32375509656633,-31.61026123141932,5.138147955008954,-3.712130162529172,-2.2837151419870554,2.6920052177317957,-3.1577096524780415
-0.8467307793634433,0.0,0.0,-7.895358689984932,0.0,0.0,5.964607542684327,-3.7429541365905323,3.036642413034943,-9.43750377424901,11.733406184221739,6.060751867521938,-14.404591292881985,-1.2210530905370809,9.18456764759554e-05,-6.010200498917795,-0.7839492764935408,-0.00021310721093808563,15.313909014654229,3.800287627091316,8.645224662681823,20.658774746688444,1.5497772454763008,-1.7831844996359225,-1.302747584327611,12.189749866616928,-4.693784705459782,-14.946958660324615,-17.759509092441206,-0.6220236665771389,46.94695221709205,0.010028878874326545,-95.22620918406055,22.435396443659528,-0.0035577782337229452,96.75973468264951,-6.996878209226194,-11.290060782009819,0.0004926309146000924,-10.23313861961798,6.300564696182217,-0.00034946257807046035,-9.845420731964811,3.2949990366909336,-4.674022111149083,-31.153956316369957,4.767184589794356,-3.1585278625328947,-3.247171922735922,2.4137799885017897,-3.5021813600319067
-1.0834810263779449,0.0,0.0,-8.040857403721065,0.0,0.0,5.83764327160036,-3.4786429139815382,4.412739531251392,-10.514705946530414,11.18928189552782,7.231874783695168,-13.774707943202426,-1.289001716549734,-0.0004158015345257697,-6.15736915217588,-0.8786109477343226,-0.00011290709266301333,15.618467136370095,4.118052771313641,9.19459075408877,21.745871458179863,2.1807889596646715,-1.8233330113254003,-1.129160015665554,12.409948416266634,-3.1693593979612533,-13.6727220391846,-17.66820896766354,-2.7930972953998543,50.20145579425984,-0.003960768845630125,-97.80039812617018,21.909494451999613,0.003116735573588188,97.83562021302201,-6.712164047150326,-9.579219292904712,-0.0009153265784127549,-8.044289311142307,6.911924096568977,0.003137109869612675,-9.12802988753063,3.2676343931431635,-3.621053150177236,-30.453664428547935,4.359538355161911,-2.186077199322079,-3.604029717241419,1.958715064392135,-3.77329847911148
-0.8244217679412597,0.0,0.0,-7.6908703533860985,0.0,0.0,5.893461864571414,-2.5624368384286886,5.390510114464908,-11.041705139412969,10.737659538851755,8.516779015233197,-12.96896639710538,-1.684294262690916,-0.0004107665373646437,-6.5599625071836165,-0.9311489497464124,0.00015240413885579177,15.428165226944149,4.950057296977885,10.245458767354622,22.744613730027268,3.166488794997761,-1.6368684113863023,-1.1571104145740971,12.117691374324476,-0.4781378247762047,-12.053630271485119,-17.610982054390142,-4.575660321668981,53.558374790530266,0.020515455234454374,-100.6784801100306,21.597205475812537,0.0015920493992750563,98.7230031210967,-7.012282548217956,-8.592715692070817,-0.005018657847133675,-7.550971344178644,7.639249200551666,-0.005284362229594476,-8.207470249806633,3.0599331501162768,-1.8392032538316057,-29.543683224106417,3.518855437227056,-0.6006394328290724,-4.045964684565018,1.5353546431107452,-3.7133389056867636
-0.7821700799388219,0.0,0.0,-6.2737984569825125,0.0,0.0,6.034394276262739,-2.0407127320050864,5.810594567642755,-10.88442070508644,12.15110714735071,9.952061957346421,-12.4764747140342,-1.8985164128789718,0.0002572339846103463,-7.100981484571863,-0.9224810160616228,-1.9367827049578866e-05,15.115319356359278,5.661232054834719,11.210869039959514,23.345656612165797,3.745566757821187,-1.5466419756800787,-0.775288224404785,11.828353276171724,1.360175566856171,-11.094745593018759,-17.56367894085146,-5.386872977217717,56.819128548615986,-0.0038618262367003785,-103.21494909627127,21.828278497329443,-0.0008821024060162733,97.24773863827893,-6.504065418485863,-10.768848570889084,-0.006078325949609315,-8.865987340236329,5.850951033721484,0.010415015617155562,-7.706205724137298,3.0667673648846843,-0.45058686577275026,-29.04213100458562,3.0206831849703084,0.695550895635907,-4.561904467506305,1.0374415784303488,-3.7250214494045113
-1.1615346172498018,0.0,0.0,-3.3042922580476954,0.0,0.0,5.9513139838708105,-2.5070093491236336,6.294755349140024,-9.923435795719595,12.97695445352652,11.941607060821225,-12.40409779236144,-1.9246820379083034,-7.070274139550535e-05,-7.87991040192257,-0.7383239033158844,-0.0005280818762651063,15.183018935366414,6.225460413058216,11.561864947753348,23.78741946981874,3.856912498869184,-1.7137847698868873,-0.5249924877771176,12.125069404451283,2.3642187926840745,-10.199769584559888,-17.50878863915948,-5.217816232442847,59.97563849339904,-0.02337464024981797,-100.81028323808277,22.350732510049593,-0.0006617414225049787,96.56119652904987,-8.225965288401945,-10.936315067042527,-0.007022186930756847,-10.268775520600444,3.892363198837421,-0.0030813244206367154,-7.473142193133236,3.287045624111445,0.8880511498179194,-28.80156710387077,2.739636263111502,2.0223589683391388,-5.167578955087491,0.6984543907351506,-4.291209284493694
-1.8399251727252373,0.0,0.0,-1.4940557645606867,0.0,0.0,5.617798099681526,-2.7619906342970406,7.497806419603998,-9.183169666038696,14.078377081526192,13.765029728592918,-12.217002399565143,-2.0022815584154676,-0.0002854288227644929,-8.711319785194128,-0.7161809439412593,0.00016704787992081473,15.622900706007398,6.834952783943744,11.198850481175867,24.46061371937389,3.9777911910544064,-2.0434289905691294,-0.10046707349691333,12.160205375219757,3.501078327079502,-9.241413880295005,-17.466453863541407,-4.848754204822141,62.94445645508576,0.012441208590006055,-100.53356653591923,24.158910181186222,0.006883730071484443,95.80351265793291,-11.226745669784522,-10.076967181409358,-0.00013190895189150656,-10.542795271354313,4.99460068744616,-0.0009671235592552593,-6.68112433789319,3.2309341407828818,2.5548723427569495,-27.97918627055855,2.082481991502742,3.5536227763756987,-5.628715946298495,0.604428821413108,-4.939467844600566
-1.9594819563365196,0.0,0.0,-0.7192935550545592,0.0,0.0,5.035155439504923,-2.737834453112793,7.004433805545552,-7.3966126377421855,14.304549773754484,13.52881386658462,-11.79206797766281,-1.41654925247996,0.0008681228453282789,-10.086652027786869,-0.9144575496810926,0.00022373708309498427,15.950920152674353,7.209574459676338,12.564650292049494,25.092722948003416,4.002109911790221,-2.0496527438604444,0.4322717958272522,12.184830669845201,4.755199679738015,-8.763163006729556,-17.15080897850856,-4.429655354293371,65.61765773469229,0.009855394212101033,-102.84723183684886,26.017368757015536,-0.007101450195663056,96.08895791011504,-11.9819970787696,-9.425198685194184,0.002389079059488872,-10.98593234465645,5.11975845736289,0.0057292131071798305,-6.14264215732785,3.0763001103506253,4.348381316824369,-27.389507457998494,1.2886265601113378,5.166988759212774,-5.61291537417633,0.2966752601911255,-5.236494513857339
-2.3432503443664836,0.0,0.0,-0.1614070902355062,0.0,0.0,4.940653709288269,-3.158113102247454,6.726935039501602,-4.918650104222587,14.016446131638583,10.495548967445167,-11.40843104766301,-0.7286234878342026,-8.788957945989791e-05,-12.149838304912738,-1.065291288706662,-0.0005049382570656467,15.906176913141712,7.689149366596055,13.970072184269544,25.469274726701517,4.093713345339296,-1.3171335944146048,0.3512017482566868,12.421135990903938,5.373547858998258,-8.69019489028548,-16.63019956724943,-4.489398282102548,68.22405355557513,-0.009650883441970067,-104.33655475371059,27.443026183166523,-0.0007964456669354811,96.99884987326628,-13.087469390436157,-8.948322709788627,-0.0003897143012064695,-10.311097434815336,3.8967081219013617,-0.002021663743878929,-6.264739226504747,2.7862845539261674,6.005115731545145,-27.448306318221057,0.4194990946173907,6.604633880438172,-5.277227392990192,0.11752681294296213,-4.879703752956607
-1.845770575449841,0.0,0.0,-1.3791432787742133,0.0,0.0,4.80175455814412,-3.440247789560276,7.894414638068366,-2.8731128588387214,13.453930446849148,6.882688913652029,-11.322767135726806,-0.728027466366996,-7.697350021588211e-05,-14.034192679878332,-1.359236183177042,0.0001383773632448265,15.82369399093276,8.44775211234433,13.477302186693354,25.466150774841246,4.232392464432565,-1.1938167279120306,0.4055852590888051,12.661374291544803,6.0705932530360895,-8.13116520662343,-16.134627009224975,-4.806385571342842,71.07474741581775,-0.0019399828799502863,-103.5385875579871,28.72447749276545,0.008187245416853506,95.69390098446038,-13.544325573751566,-8.129261918366051,-0.0008129295373565841,-7.981807530484403,2.935660192968953,0.0016332181451230176,-5.6326414676382655,2.439505097248992,7.925419240693742,-26.726086137118788,-0.5957668526177547,8.268799837688332,-5.2692883329447655,0.19082970996433052,-4.833893622138476
-1.2998241231701775,0.0,0.0,-3.0867584222608087,0.0,0.0,4.343262078696113,-3.480165175132192,8.877099289857375,-1.706603257920278,13.062436881279883,4.142139267853034,-10.97250245276928,-0.5760699093682369,6.0897136037263705e-05,-15.588494145713899,-1.807595256942233,0.0007663565030358953,15.871473699210002,8.935206809006447,13.13367267983763,25.39552896400625,3.9707130690152908,-2.100038861459491,0.9872944781051617,12.42584116077361,7.067522042227452,-7.688596337961384,-15.76889200749491,-4.250076054303957,73.54990738117954,-0.003432144318157322,-102.939207254466,30.266082119112877,-0.010485011374262769,94.88307435833593,-12.690024836109327,-6.939033752101144,-0.0009334771259728766,-7.6665490073918985,2.4617393222967623,-0.0002098844186306256,-4.766542905504287,2.503578234874764,9.304664132756425,-25.78193271170463,-1.0310348558763403,9.577907265827905,-5.142770855926771,0.18565515768201046,-4.945808184871723
-1.8618708712517003,0.0,0.0,-3.315228379693528,0.0,0.0,3.9179278793037757,-3.443338796065441,10.040398620595527,-0.8550757131432782,12.949527061262827,0.9998761485909425,-9.95335566397021,-0.5835106727654563,-5.236660653567771e-05,-17.275445721836434,-2.1909283094514502,0.0009721705309161295,15.487728228131948,9.108740209143896,13.33852263118941,25.23404556592451,3.2893930198880996,-2.563137955513565,0.614868543010547,11.863009211484652,8.618362007941613,-7.855288352331911,-15.61287749156687,-3.3275995646298235,76.38506640981986,0.016232409745100602,-103.481121562141,32.184690357948604,0.010730983706191495,94.26267245846535,-10.46685758797237,-6.128883640482207,-0.0010269876227128674,-7.860111117835354,1.978698444081302,-0.0025415341893462867,-4.102995434364035,2.404054643820828,10.326112355176978,-25.054475496663656,-1.4894123175726814,10.495319520276475,-4.723467675348582,-0.04684707739800563,-4.830301319093727
-2.4975030534248037,0.0,0.0,-3.0207797922222825,0.0,0.0,3.539245555596226,-3.967855357362766,11.287523070873329,0.2733674319890801,12.68990891128816,-2.3664725275398997,-8.91343639406037,-0.5570173153289814,0.00041705390189294804,-18.581013422050276,-1.8134757496527092,-0.002291613394296632,15.000832897343907,9.291849680727225,13.714393872037123,24.68198590991447,2.3091775999541126,-1.8104472695552072,0.07934610205699119,11.648081115467237,10.455069861746383,-8.07825648021147,-15.288946182813982,-2.071024157996854,79.40648133811077,-0.012099129978984244,-103.62167817625178,34.43350180719761,0.0008143565607025283,92.44417971728616,-8.486572510530316,-4.88850350945161,-0.0013232909672009315,-8.057789548989769,2.579304447107378,0.0007908997769587825,-2.981782523535774,2.4715539263178816,11.781208493571537,-23.829911402343303,-1.9449939976102983,11.878150927632918,-4.271903324199911,-0.45030270772235165,-4.79345388512471
-3.398469902205582,0.0,0.0,-2.1654906906958247,0.0,0.0,2.928189643333818,-3.6983083120509948,12.032118701105702,0.5759746791083874,11.951689885842793,-5.2586864610373185,-8.401839737844927,-0.7280834333428138,-9.985520090790358e-05,-19.38338240900526,-1.4106799872372546,0.00037067898019654713,14.864745106040502,9.628881530317658,13.775604489964515,23.876335825825798,1.1733725027942767,-1.1399241223866419,0.13819768186489675,11.23114068301702,11.137105953428215,-8.636889390506768,-14.865804186764588,-1.8944310962622302,82.16584509602572,0.006853135402707496,-102.94878980396908,36.75776362301743,-0.006262598033645088,93.02346863100688,-7.822456773958468,-3.321698914975082,-0.0010681505630888892,-7.297804416877946,3.4214205745104236,0.0006569320023586062,-1.4203220568554056,2.681753610480297,13.424179882837807,-22.134511177062695,-2.33084172074561,13.488371149058493,-3.6853058190633243,-0.6378485777664882,-4.430491587175841
