PaulMeinheit/Bachelor_Muay_Thai/processed_Data/N2/roundhouse/scaled/JointAngles/scaled6.csv
L_MTP_ANGLE,L_MTP_ANGLE,L_MTP_ANGLE,R_MTP_ANGLE,R_MTP_ANGLE,R_MTP_ANGLE,L_ANKLE_ANGLE,L_ANKLE_ANGLE,L_ANKLE_ANGLE,R_ANKLE_ANGLE,R_ANKLE_ANGLE,R_ANKLE_ANGLE,L_KNEE_ANGLE,L_KNEE_ANGLE,L_KNEE_ANGLE,R_KNEE_ANGLE,R_KNEE_ANGLE,R_KNEE_ANGLE,L_HIP_ANGLE,L_HIP_ANGLE,L_HIP_ANGLE,R_HIP_ANGLE,R_HIP_ANGLE,R_HIP_ANGLE,L_SHOULDER_ANGLE,L_SHOULDER_ANGLE,L_SHOULDER_ANGLE,R_SHOULDER_ANGLE,R_SHOULDER_ANGLE,R_SHOULDER_ANGLE,L_ELBOW_ANGLE,L_ELBOW_ANGLE,L_ELBOW_ANGLE,R_ELBOW_ANGLE,R_ELBOW_ANGLE,R_ELBOW_ANGLE,L_WRIST_ANGLE,L_WRIST_ANGLE,L_WRIST_ANGLE,R_WRIST_ANGLE,R_WRIST_ANGLE,R_WRIST_ANGLE,NECK_ANGLE,NECK_ANGLE,NECK_ANGLE,NECK_ANGLE_SHADOW,NECK_ANGLE_SHADOW,NECK_ANGLE_SHADOW,Trunk_Joint_Angle,Trunk_Joint_Angle,Trunk_Joint_Angle
X,Y,Z,X,Y,Z,X,Y,Z,X,Y,Z,X,Y,Z,X,Y,Z,X,Y,Z,X,Y,Z,X,Y,Z,X,Y,Z,X,Y,Z,X,Y,Z,X,Y,Z,X,Y,Z,X,Y,Z,X,Y,Z,X,Y,Z
-8.630370000000001,0.0,-9.43205551420811e-210,-7.39372,0.0,0.0,-0.56566,-5.61491,28.781410000000005,1.8831200000000001,13.785830000000002,-9.67836,-7.535120000000001,-0.9248600000000001,0.00020000000000000004,-4.621060000000001,-1.1132000000000002,1.0000000000000003e-05,16.26921,14.922100000000002,14.067150000000002,10.572030000000002,-6.658810000000002,-7.204560000000001,4.92412,20.056950000000004,21.378170000000008,-15.427650000000003,-17.13987,-1.5925,117.65575000000003,0.007970000000000003,-93.33389,64.18111000000002,0.00105,86.53316000000001,-9.61314,2.0557500000000006,-0.0031900000000000006,-11.794690000000001,4.63475,-0.0009300000000000002,16.82928,11.250330000000002,47.00869000000001,2.438580000000001,-4.52529,47.865300000000005,3.4019400000000006,0.29978,1.76199
-6.85748182102742,0.0,-4.0436520802954844e-195,-5.0988450557175895,0.0,0.0,-0.933425137241945,-5.8050433392288605,27.96459238933121,1.6511850583797305,12.301069396568652,-8.784780885389045,-8.8735892685565,-1.2057187273148284,-0.0003978350186020177,-4.745930808381848,-0.9481864828014583,6.264059333533591e-05,16.91095016192638,16.027406741616726,14.649760904982761,10.821881683830062,-5.950134082393959,-7.118467894121342,5.676422076206936,21.253204930970814,22.815261255200618,-15.79424417799553,-18.071690466318504,-1.6920974266365836,120.2453758764714,-0.006385027665693204,-96.58066420954611,64.6276733241141,-0.001931884719660079,88.91187702045677,-12.035372181165632,0.7343639847872566,0.0021912058575519018,-11.575432723233135,4.033240800790519,-0.0018639081060869357,17.216188571824997,11.062627158508633,48.58981986210478,3.2540481640735326,-5.087213961592889,49.328482718136236,3.10549630495399,0.5075679990177654,2.0869976982786174
-6.889547064411054,0.0,4.487576177409968e-193,-3.4740767751953654,0.0,0.0,-0.7017348297627877,-5.780514914569633,27.551564672133985,1.0353325529158477,11.48805479156823,-7.953128335120849,-10.27665229733472,-1.316707923210663,0.00019819491285599474,-4.247333181377798,-1.0428857190472336,-0.00018361961682122552,17.768530861545052,17.547991482969547,14.80658793945662,10.696676073193956,-4.597518403065414,-7.789907826263257,6.328617265449783,22.773826641950947,25.077972274067353,-15.786829612977556,-19.14476973982965,-1.7229051947854268,122.53751047823275,0.005456195942376244,-97.36623507869902,65.1047213306134,0.0005924797833520027,88.87174713792177,-8.977280921843104,0.21848960205618687,-0.003943476054603652,-12.097897541885898,5.391030218401703,0.00011221957311746378,18.035319844380037,10.77812964469794,49.087767187880814,4.205091494237287,-5.480806605023528,49.7365172569302,2.805041708085861,1.3842589381122672,1.7638856879797056
-8.280736080998246,0.0,-3.660741750152197e-191,-4.131559216445265,0.0,0.0,-0.4259298291754863,-5.830386972186804,27.697820530436356,1.3073878137267698,11.393235166079664,-7.743566449860405,-11.300436284584473,-1.8672189086664996,1.1942457082836038e-05,-4.004523303259018,-1.2657340147289213,0.00012679197225027813,18.785740859964587,18.794242906464106,14.508306064958298,10.962451819917007,-3.604930445909983,-8.36617208343759,6.377810255460367,25.102510286876313,26.759020525619327,-16.33246773206748,-20.120460049094913,-2.1231385082978718,124.5751383320236,-0.0022119870846675264,-100.427085025195,65.44326775252998,-0.0007244781569636552,88.1842211962159,-11.98335200261429,-1.4650337702258232,-0.0014097960047039224,-13.470815448137236,4.150756707990858,0.003265676868070166,18.275618738383677,11.18132699205505,49.67757442108597,4.619407564876227,-5.226712887625411,50.39761596178884,2.750869661054051,1.717310911725536,1.3470447782004207
-7.0330108767314234,0.0,2.5986659337760906e-189,-3.9197017860382672,0.0,0.0,-1.190268564807687,-5.606531236988909,25.552984393962653,1.2817095594836976,11.004030277417952,-7.269934557782097,-12.248636542985178,-2.428919374365274,-0.0001535570058915346,-4.017441748216256,-1.2233885224572925,-1.4544631632035503e-05,19.479161393551504,20.300331837599135,15.311213832305741,11.273858065776594,-2.668362519472773,-8.445382846035908,7.092967194224609,27.815353177155252,26.631911901149913,-17.152222176628957,-20.411630490478075,-3.4978329737018545,125.72532159270253,-0.0023193693359192585,-98.0906014385921,66.6709147122927,-0.00026821110010594775,89.66577251096928,-17.009889080445856,-0.9988194500221003,-6.100539997791685e-06,-14.059422320874486,5.592893982214363,-0.0007365483546382246,18.492175905414662,11.579467141735773,49.866202275256406,4.897389047518294,-4.883333325264351,50.67219464004427,2.418491798687184,1.958854647806487,1.393313719538697
-6.3424371750350295,0.0,-1.6955830552066648e-187,-3.893306986264787,0.0,0.0,-1.7401304514882212,-5.90268143406875,24.430021191985944,1.0567226752659555,10.758876232813845,-6.858736329191332,-12.67225023314009,-2.596962207364877,-0.00021035837247909703,-3.777527529411233,-1.3547164544750518,-0.00019661685375998506,20.30663274140183,21.24374614263286,15.376207882336224,11.543230826432298,-1.8257249052693685,-9.07444201933027,7.219295844470755,29.723445024915435,27.630141210568247,-17.424088994765903,-21.195740118552404,-4.641879647830956,127.34472040191969,-0.0005807851401041443,-97.50420568214172,66.84518427455183,0.0017249845234069902,92.36106478404722,-17.551811538788492,-1.9758569136357091,-0.0001358456005347431,-13.800147392239662,6.0798512347066005,0.0011971345683814449,18.832192889390814,11.084815223289999,49.65586706438699,5.167778100818397,-5.315455990008659,50.35394850721564,2.3715272723572327,2.4089126649730646,1.1212952935896714
-6.81871077833969,0.0,1.0415567037578188e-185,-4.7670498861308905,0.0,0.0,-1.5150736260462523,-5.800475131823472,25.995908930615087,1.3919068422254006,10.799197647086759,-8.425657702935775,-13.190415353446369,-4.033783730514382,0.0004636626841205721,-3.539668686002252,-1.285469520635215,-2.1723548354176565e-05,20.101716284667184,22.465146059968394,13.603900055668166,10.865057465050974,-1.154377841479004,-7.635598183638966,7.2360564888229355,31.230976931662347,27.84287775095668,-18.388285066683043,-22.626168731966754,-5.314456911214203,128.39630182671286,0.001311881343078758,-104.53475248701966,67.35483275920008,-0.0008934550037150722,94.83891496985508,-19.891556341038367,-3.8236836445294498,0.010292277074951258,-14.352117913688767,5.964534591257246,0.0006570784987919014,18.67112895643157,11.014385167296275,49.34763047792031,4.918758368265199,-5.312184166235708,50.04200616633303,1.4737958685919106,2.8525500444448633,1.0340422568505498
-6.563545630185574,0.0,-6.094453812904257e-184,-5.79554767024873,0.0,0.0,-1.3921187610801973,-5.741656043558989,25.273460441980898,1.6379436798423017,11.437704644403398,-9.234482348249468,-13.703771158677805,-4.341962342549323,-0.00034823187751079776,-3.055481953658113,-1.3067003526156467,1.467957308847372e-05,21.361232879973773,23.476737526289167,13.35105078256194,11.117731362646852,-0.29115300549357714,-7.88816104097227,8.10892677782652,32.62849865439642,27.876804701645607,-18.95918027532741,-23.280864029497447,-6.407615125764797,128.98658817304187,-0.0019065885620954293,-102.93267842874842,66.85965559908884,-0.004716636268240556,93.9756576986904,-18.914063321226184,-3.398840233437974,-0.0011988045168574947,-15.61159255163059,4.825553082524081,-0.008228971495051448,19.730007562514782,10.954587739906625,49.113524025589534,5.9109421121595425,-5.315506837989093,49.8035312951411,1.382703807683635,3.471736813026431,1.0009002026396352
-6.332958520257789,0.0,3.414745891603897e-182,-4.692876480553208,0.0,0.0,-1.544289933225115,-5.028835440691487,23.330647817795395,1.1426028593391988,9.7653090374589,-9.031960312808183,-13.924193883845792,-4.407704242212832,0.00018868661215071714,-2.3909005987465504,-1.1531760841382876,-5.544554577600743e-05,21.75981575582428,23.568157214423312,14.347958195005477,10.717452868462237,-0.21841623352849746,-8.789392540403968,9.095953013367229,33.95949416506205,28.47738051439183,-19.1984569821199,-23.85841760277126,-7.115773644392841,129.02157862840141,0.00047397330122755715,-104.02146098986542,65.38701621855957,0.0015608614099054767,92.51002765098107,-15.589966082672323,-4.740367429469727,0.00908340467682009,-14.680382418911737,4.308994435614616,-0.004500013405927648,19.69144506221327,10.975169639906962,48.78486727706857,5.781442942099021,-5.2181962670085875,49.493895790219334,0.9231667430033862,3.3642897533185274,0.9231078622875976
-5.118866407577287,0.0,-1.8333538565147187e-180,-3.9655436673928075,0.0,0.0,-0.6180989680130663,-4.927575580034391,22.134642342098907,0.7828493779808655,9.63208345707669,-8.982269255421341,-14.48723134800174,-4.329130106407023,-0.0006887998154990728,-1.7244541478885635,-1.170980417940442,1.1193027605552946e-05,23.032548304704417,23.600226292726614,14.648217846714568,10.75598867667717,-0.054628856828450825,-9.74311974159184,9.042358253868828,35.183503114946994,28.16218364638307,-19.21527796058167,-24.66587623729924,-6.433632522005922,128.8967670138867,0.000480884766506131,-102.46548083672258,63.02761616535995,0.002921565556327607,93.30108999636727,-17.282517196281585,-4.4093464195302765,0.0028159819241156897,-17.480173856900443,1.8141141505978633,0.002785979330862462,20.517470816773088,10.281122028628607,48.475483487305986,6.505715475511695,-5.818384910486151,49.029207795290596,1.1279602266898283,3.6913117339351222,0.5236288653496043
-1.3222004290144158,0.0,9.394729271751343e-179,-5.230426729107142,0.0,0.0,0.4839791879521802,-4.18643361332024,21.618443025560882,0.8712911691251827,9.764912089738706,-9.851470028530738,-15.072619410359557,-4.893188193087779,0.0004000521573989865,-0.8783068685315881,-1.077998854084438,1.1234422352857384e-05,23.824234005283785,23.460776532742543,14.721991803750361,10.445361853320268,-0.3430984652960973,-9.899489815556526,9.315680993226342,35.75340235694454,27.55223549547015,-18.555405272436424,-25.366924473497765,-5.702371823646105,128.60094137255373,-0.006468841265540799,-105.64721688484485,60.54403937085194,-0.0007271618232246586,96.2611643399657,-17.693585050181262,-6.7684394178317895,0.010064668436802399,-18.8949516485884,1.4743801552367868,-0.0030345995609314036,21.577913438322774,9.85108115868111,49.01495287039489,7.704408974619957,-6.363742005902176,49.44345374307511,0.9950856369058163,3.4597452590326903,0.7388742072713154
-1.423511524202138,0.0,-4.546354384239801e-177,-5.9264566346635625,0.0,0.0,2.4825472545934075,-3.3097774009856726,20.560867202418606,0.44869038833089503,9.749156123840635,-10.488630427309081,-16.419847387369398,-5.547986654330591,-0.00016161066049186093,-0.11212874136102458,-1.1743160077625465,0.0002882421993652594,25.085649276327697,24.136278222195553,15.306279007035627,10.2344119234885,0.07555443106143944,-11.140459361836553,10.181691493159647,36.36422415465851,26.992730116630412,-16.923975502623527,-25.7479674690853,-4.423034573987017,126.71898529015323,0.012986156192977365,-100.12795030780585,58.29338002570581,-0.006410843851163507,95.26423582692745,-20.407065832683358,-4.441274089104814,-0.005200831701225082,-14.594039950557313,2.259494976226958,0.013079414590961682,22.166580625280695,9.49899387417415,48.2632819912411,8.075907569327683,-6.526369661816633,48.634243232392,0.7608639200033562,3.8418387919182977,1.06747982939808
0.13808047038161125,0.0,2.0290758902436496e-175,-5.974425832931384,0.0,0.0,3.2757601983801043,-2.6076104473136072,21.855746682615553,0.6074401246152755,9.477483818178136,-11.28080725413411,-17.84640236523102,-6.2458980769512715,-0.000525851920609993,0.9918412161868275,-1.1499116288218845,-0.00027345470060976943,25.810472413382097,24.302463412882478,15.989547493886207,9.102553261177956,-0.022429306220358904,-11.689966525539624,9.653337000097846,36.63608544720905,25.92680190728681,-16.147175592238696,-25.33262206348633,-1.8972725963618204,124.24542773318775,-0.015685474970376083,-97.72318481159922,56.02357081792367,0.00609590385802608,95.85616500873395,-20.538096645081307,-4.265858852125456,-0.011981320086880066,-17.080200228841292,1.407111300829445,-0.0009501485482776283,22.024051903984063,8.983640475008212,46.51411360840348,7.445345553514203,-6.5981901376624,46.82206305839715,0.8220949289955702,3.6496469935062477,1.752624784398031
0.45315435943303484,0.0,-7.879064404676575e-174,-5.2184274280551985,0.0,0.0,3.40194104052619,-1.749049877216821,23.16015724655728,0.31538982189737774,10.543213053488092,-12.751170546474537,-19.495151224940038,-7.085698774707704,0.0010179744166712349,1.6049822135327558,-1.1690920081702925,0.00020111278544062073,25.97376641717301,24.823839050804203,16.92228212091958,7.81811269545112,-0.03187318323992644,-11.61251317457529,8.188441526258734,37.12102141142197,25.835781909181502,-13.89259563426724,-24.687521708888557,1.0099381080899077,119.23307582055845,0.0025168980609659337,-92.68430612063237,55.45117595555581,-0.0010210765160726136,95.68508442404291,-16.517114549379926,-2.026795159525418,0.02002178001943446,-16.729136998225755,3.200662752294349,0.0011139451102379551,22.517417861651126,8.86339270177828,45.98670709915173,7.795126959883081,-6.5827520401368,46.284012645897306,-0.15733463777982004,3.2780585942563154,2.6310466690814733
0.7180372965241918,0.0,2.169893885007822e-172,-3.8841037318812512,0.0,0.0,2.835501325729902,-1.7347902307865077,23.66750537440917,0.6460267647362197,9.914492121784335,-13.606532860670866,-20.514073850254835,-7.139476414428791,-0.0012551392866230417,1.95698820591821,-1.0318087027783776,1.2081260942294175e-05,26.249947198873038,25.085261377618966,17.80132195564357,6.480634366398066,0.029731457148819147,-12.16183818498538,6.175437591998218,36.010826984756406,26.682636398496086,-10.753063338051959,-23.945425293468233,6.031134561055516,110.2068692759604,0.06646271252357941,-92.21166240004582,53.68883603513197,0.0019366486008132234,95.96380525748427,-5.256248265204858,3.075369452951896,0.03875982862083268,-16.563662794007534,3.1016776833297137,0.0002485973854023134,23.616513555763635,8.080527671653792,44.575064238766174,8.501837564406065,-6.97976187387026,44.72237311008196,-0.5749249695940214,3.342383789533811,2.9682997874343577
0.2798301867086503,0.0,1.8147682577031812e-171,-5.6442951735369125,0.0,0.0,2.285943479614619,-1.9077585944225073,25.687890803201746,1.461507708498193,9.659440530592097,-14.97248945484565,-21.927704816295297,-7.924957078449951,0.000865128094378374,2.4743796977139874,-1.1487454975533764,-0.00012988166718727416,27.193158756074617,26.473806564327834,16.589824364341254,5.104798166114024,1.0589631681523635,-13.12934327452983,4.635920703502542,34.03423979412394,25.19487477021762,-8.373284624992328,-21.998353666004622,11.398417254718213,97.01725865506326,-0.08554064171099757,-99.11707577790459,53.05247342692425,0.006827102237278889,95.54365716535587,-5.907770417432843,1.6748214266699994,0.009542504014813907,-18.136740179367088,2.45093948636602,-0.0007984597936712375,24.7721865747689,7.451094064530365,41.66524315657285,8.90770484467218,-6.816176141190145,41.75440556667356,-0.357944243100008,4.136351566077959,4.0144473235595095
-0.44130698669278584,0.0,-9.335371279897402e-169,-5.245377880676253,0.0,0.0,1.642763056838063,-2.5768459294461215,24.585186993585733,1.6965710036777082,9.655296424291164,-14.774887482116482,-23.68074083242813,-8.310354448041643,-0.00114807710286754,2.7806499974630934,-1.2099975889863392,1.9433809261464927e-05,28.39599626168772,27.311454247128488,16.52774040973528,4.246955092899616,1.491528331306488,-14.789306089479009,4.950390930283607,32.02580530207305,21.521557440449318,-5.851555615913871,-19.35625608121012,15.137707749498073,79.43570253030063,0.04815453225302193,-104.16513326028141,56.528892750848215,-0.003714389595742422,95.67884591119542,-7.425469140353417,1.1730099178010556,0.003173431729711664,-17.008004569855235,3.1566886741110816,-0.011250419199454157,24.576880806475955,7.24069489472189,39.51785637232473,8.19347638744439,-6.426767218787909,39.63586994563173,0.7257524383447651,4.369337741545256,6.037986474631358
-1.004050552379841,0.0,9.793138481260697e-167,-4.217553097418835,0.0,0.0,0.7311857509634446,-3.3491467238537043,23.170078420698786,2.481390947190033,9.365289901613682,-16.469483714286795,-25.24279302801075,-9.083455107702436,0.0016380475968501144,2.1637977370922536,-0.780881576063057,-0.00016499288614556031,28.3395536870759,27.566583381977402,15.587776371370627,2.508601420281539,1.1601050773477048,-14.97865550544263,3.4633404854280427,30.59441620751258,18.76441945958853,-3.002789420527555,-16.087062075509333,19.128050271975155,60.888705103519015,-0.04553600267868494,-112.39105954170678,61.96402585838783,-0.0071881723463488615,97.92945628316762,-6.825478570071532,0.9776330773039226,-0.001856609367256494,-13.361641976142538,2.1964594788040106,0.0027857839642638433,24.381162845075227,7.102693572266974,38.960392479724355,7.864138908421492,-6.402487666093191,39.062726851015455,1.1851383130700068,4.31574504671095,7.205157407297005
-0.2772003252577426,0.0,-7.810354406948614e-165,-4.3142895280103035,0.0,0.0,1.5303776149536559,-3.2527377015556405,19.807968351439307,4.427577831248189,10.045780681889374,-18.029551642386917,-28.372978482895423,-8.447724382207124,-0.0021908441520995556,0.6112130589046112,-0.6032699533152162,0.0008236869146323175,30.311411618489966,27.400549277175852,14.503660655042975,1.323023132256702,1.2259964870373765,-16.941465492396578,0.5336844076214626,28.013790249914525,17.302074693251814,0.1114579757978408,-12.695462266925361,23.763136964296354,44.239567385659996,0.015063928432722667,-115.2001297936428,66.94933069319669,0.006227387001267459,98.98096466052097,-5.769031610696943,-5.15082794083884,-0.001134003690289293,-12.910358081495543,1.6846138187692088,-0.005526158533793003,24.499703166279804,6.8329405623332535,36.15087216294876,7.346781604782151,-5.852835232049685,36.29959326064342,2.3892851052576227,4.611107301723653,8.08233465628108
1.187055254758523,0.0,5.47508667731889e-163,-0.7498944330558677,0.0,0.0,2.4328983825931974,-3.5076922112549487,15.526203342340178,5.559993936699304,10.496607236866724,-18.576973503866466,-32.67753609077971,-6.837704484062392,0.0004996833545966573,-2.0903340166626894,-0.33144626090548607,-0.0014744540582602471,32.10700309572564,27.312440560230762,14.949263789069326,-0.36374222367589576,1.3630309640446447,-18.68126210883336,-2.263114830785706,25.091366985150877,22.677246866585275,4.394091970774447,-8.150752425785598,27.571001766483867,29.074860547997325,-0.035760919356156225,-120.29636028519053,70.28528021219103,0.0032683728665575274,95.35954012972547,-5.939726153383934,-2.2665013287544467,-0.0017225107510801692,-12.301082777501767,1.7745043519943493,0.005968899382963424,23.502459890777413,5.894925404792015,31.41772238793326,5.358029635515217,-5.31974255697951,31.51000459049928,3.2719501549000665,4.403347258139575,9.1079894032716
0.7371508112160002,0.0,-3.5421288652833558e-161,0.21446819725253327,0.0,0.0,4.169187822229115,-3.7934040886708775,12.81802239740124,6.527679985441634,10.863904302131214,-19.21850373966038,-35.40190531967604,-5.07806102628181,-0.000537034461547122,-5.965346555815882,0.05308478900125124,0.004508632508638599,32.9528465016872,25.80041976825071,13.726944082205437,-1.9398324080211233,0.7422710955977843,-19.56771917242133,-8.828796864149197,22.56513145356791,24.585753347878633,7.960249035837366,-5.6875682222181325,29.317988343473058,22.68083430074744,0.049297936281254805,-117.36310573223504,73.49683882389945,-0.0017217976158447168,97.11368337584324,-4.880810341365214,-5.4046755697270905,-0.02300677189181017,-11.169620740077304,2.7077725198669147,-0.002229225915433945,23.050262143424636,5.538789097860645,25.2509627900575,3.8236995265893348,-3.6894244781669054,25.565194476610383,4.66337583300518,4.362831021951577,10.553400498230939
-0.5927728301395635,0.0,2.1616349497210134e-159,1.791498599868144,0.0,0.0,5.464127998855969,-4.058200039801574,11.584474143778705,4.455427655644401,11.368905539340739,-18.805402036550884,-35.84197346130993,-3.9256968903293323,-7.293105209853646e-05,-12.196610615734883,1.331318168173395,-0.003886995441312296,31.761731760357854,23.725453393167793,10.859696856901317,-3.1845990826369284,-0.7104265740081355,-20.098366318178144,-13.941998159891078,22.443519637748892,21.19609623206631,11.413917206286856,-5.656059740632283,31.26054639383468,19.428841742444085,0.0019037456353940875,-110.47459527308426,75.34156754428237,-0.0025955794076126266,98.61381676099789,-5.719856933972717,-8.647191163157807,-0.02994782645649388,-11.267761900388455,2.661510176992287,0.001318437747299151,21.53524695219972,4.491778295352711,17.08548945874189,1.2007191083350108,-1.9173345229809355,17.547865347436556,5.674680704818759,4.157128550470673,13.37441964022268
1.233218237624288,0.0,-1.2577677391753536e-157,6.84368834054148,0.0,0.0,6.355540576614669,-3.698634356657737,10.736778489390097,-5.293887576820047,14.063832431560341,-14.164252569129701,-34.99078862157917,-3.0177569569939404,0.0008138498836698573,-21.61687563155752,3.1653338933261703,0.002827480438018579,30.232623391215057,21.974847379612015,7.327161792392804,-2.3198805945211083,-2.9088509982646222,-20.236516257892376,-18.594373164885862,22.772532941354765,22.976432098735888,14.199028528603895,-6.662913883492784,31.065548066217765,18.79359182635817,0.025063759986770795,-109.62171037279154,74.85373255579928,-0.004838413514103204,98.3463585554667,-1.255588971089823,-9.880197340859162,0.008410416681307402,-14.386424218391705,2.2450343293170687,0.004957548622408323,19.66127142828944,3.646781658431772,9.730504746664623,-1.3232007430699106,-0.11614428226616134,10.384617409242457,7.37063638869693,4.9998016262970575,15.172577831882611
1.8119311852916353,0.0,7.01018021092981e-156,-1.974736537142905,0.0,0.0,6.167347108709839,-2.963811992775694,9.198173054565416,-21.429813749294645,10.674275091918716,-2.4489756510403384,-33.86195452820529,-2.5784008239622076,-0.0008083410274953691,-34.05780659641455,4.968763092565272,0.00207756709632262,28.223034459772975,20.046891116731597,3.7930946013732005,0.42486322165762647,-7.177327715995984,-19.67617659071274,-22.89408891966221,23.051555763542602,27.329102123798616,15.673519446221668,-9.77252451547565,28.78783782176198,22.267218149880254,-0.00842268558713987,-110.00706858245479,71.58618698975764,0.011304213315199691,101.09278930951028,-0.3355269380377236,-10.645283613096376,-0.01115572167504002,-14.479335279752764,3.293942587048196,-0.02274643940763403,16.95392358223941,2.0519933806198587,2.824205057406692,-4.327130111748711,0.8862992814227892,3.3762119402834667,8.659781471047102,6.241447675975723,16.237228879126718
2.1074469174965165,0.0,-3.743052529474889e-154,-23.609570908891328,0.0,0.0,6.629151169589097,-3.491763584530772,6.919245311535672,-34.89409663274287,3.2649637674414023,8.500623077160633,-32.78882864296345,-2.164142364694643,0.0006375132237524646,-50.05351777825377,7.088306134604657,-0.04375612307488158,26.077181044491343,18.63564848381065,0.9871405018827133,4.749621860979682,-12.286881663028579,-16.44219202500323,-25.955754723384413,25.24585485075246,29.193326011608978,15.636724471319544,-13.088110969420894,25.572244343684417,26.39696457295532,-0.014133625794310122,-101.83714863199627,65.2342936195723,-0.012993165194334817,101.03438973147121,0.3220066624885284,-9.6681710486025,-7.787759831736354e-05,-21.489511867942532,8.784795379296309,-0.038644348678599026,14.935014982008216,1.3002053014981536,-2.4464266435956663,-6.365174912591041,2.1000994160330198,-1.8070875797226877,9.384869656307211,7.274170204603874,15.802615938561663
2.634406942438206,0.0,1.9058392265580541e-152,-31.36553911303961,0.0,0.0,6.407412665482664,-3.5160247642605365,5.340601798756825,-41.25642310798857,0.05844404545821072,11.467009133910475,-30.208909931892194,-2.437432793116633,-0.0010134328115960194,-68.37144595310559,6.188243426080242,0.06558391624141718,22.428802562199202,19.729882737158146,-0.667506286714945,11.526961616275324,-14.998055737341563,-10.871942544831287,-26.45630852844887,27.494277784648215,32.082127154389255,14.59715694980942,-15.904006378698677,17.848031944546065,30.79850397858043,0.027927057502099766,-99.20680624293166,55.13263368439712,0.02581223285926667,98.8783837524787,2.4652517067731123,-9.686854783643598,-0.0008757704926571144,-15.031693421692513,1.3188102136592443,-0.03097133444032089,13.631091495144279,0.7818896609753953,-6.495640754389406,-7.563237414763827,3.08477823391297,-5.7722115295830765,9.15451913641759,9.457493777397106,15.158128500168532
2.586675753770658,0.0,-9.145470900551036e-151,-36.61940655905814,0.0,0.0,5.825683628509935,-3.5492768264418313,4.922761902180278,-46.62335155648499,0.9298345959035905,2.2192307274286733,-28.477708345587704,-2.5225147752433204,-0.0006022759459210423,-86.78873638252841,3.290507573670841,-0.05010299102981925,19.791866626325678,20.160167539336687,-3.787101793546261,21.466936139967235,-18.430490917390983,-5.734022922205736,-23.962056746415296,30.732577916804953,31.183982835681658,12.752639716486188,-18.152817866840724,10.037651324965005,35.07125902496763,-0.017676486508181728,-100.68175475211883,44.9203120132848,-0.06379732919573881,94.5019145231625,2.46202838541003,-10.124908540161247,0.001352902868661622,-15.609521237555002,-0.11761741614082384,0.006355005690161479,12.388477377990933,0.8230026121725341,-10.364057587225721,-8.621226144857086,4.5161983963999415,-9.37388736702872,8.350614676275681,10.93257611598818,13.464719844709034
1.890584565560663,0.0,4.02885536631086e-149,-38.858703926642754,0.0,0.0,6.3291027293716535,-4.327363791534441,2.21242839472384,-47.09288390517538,0.08562596632695905,-2.946738645223153,-26.432091141762317,0.11120966196297462,0.004301508011716274,-100.73242716264139,-1.6411752330775893,0.02628963682061957,15.83203808744068,19.070598201516546,-3.609590727150021,31.124070635039608,-22.9236364764,-0.9884800776196733,-20.130611504449785,34.78369086192187,26.98155515798751,8.306070939898536,-20.985482125658375,2.332495520063176,39.76911874858041,0.015307028951829347,-99.47067494046335,35.91087247188523,0.1109821936531427,94.46980664114093,3.197251419546465,-7.304409008695845,0.0023746264410677877,-10.057137818297075,1.6651492820155411,7.534885548475398e-05,11.001048790227559,1.0451055345401619,-11.910620242269207,-9.916981321278943,5.276886400629593,-10.74341500461101,6.139039344605492,11.477765816074545,8.960845732538818
2.966472303310765,0.0,-1.5247122043599896e-147,-54.860674355111584,0.0,0.0,6.214139399021484,-5.4539065732423015,-1.4845488855944553,-38.816658147482244,2.314266028831522,-9.222561446082587,-23.13362873919695,1.449152031723022,-0.004157967534809521,-108.98835286963345,-9.827791896622731,0.006112041120815777,9.577747417337099,20.86239357773912,-1.7370827821776356,41.72216427088249,-25.038844077222727,1.7987224091067053,-17.14181845924584,39.56056433224066,20.89522763749809,3.662866965090314,-23.689247046364066,-5.383427320339872,45.82769042248409,-0.014483090796479811,-92.26450795493524,25.459971502888855,-0.0925281562370467,97.60731987137089,2.751973136821138,-5.222534735114955,0.0006530411198520787,-7.088359643928969,1.600534979646026,-0.005271135462943132,9.609747735270329,1.6603190774532597,-10.877433559013895,-11.395444909276073,5.4818618548132845,-9.5535567488887,3.0622473018049394,13.56382513196643,3.945465604293802
0.6436450308229527,0.0,3.8523190197594105e-146,-70.19491651621203,0.0,0.0,6.527100225583701,-4.254477398386117,-0.12049891104618592,-34.830171236576604,4.275297934584658,-15.91927454565991,-20.416337065841688,0.17695006535910945,-0.0002225413021053616,-111.4146501360292,-17.29927787563547,-0.013455848653473297,3.209036252525161,24.498693325907027,-3.7035567152017244,53.54191515778369,-25.15028119368216,2.3703656239561375,-11.58710702786517,45.86315746966017,11.575806666620489,-2.643201820199796,-26.82141561465541,-12.097005379588953,51.64509531015336,0.01510839775378451,-92.06171936821205,18.60115491284244,0.01780356007579958,99.4766448076601,3.403720963115541,-3.7836478002234206,-0.0036193247355634788,-7.27296153179136,7.327877686769269,0.011969523723017614,9.46900168136123,2.3498448799858784,-9.891345301170958,-11.616695795476463,5.771484240115162,-8.380536842974756,-0.984963316868759,17.09414767827224,-1.0761773607565652
1.153993778023191,0.0,7.5055302753798e-145,-74.74963156603108,0.0,0.0,5.636103080315247,-3.1678833412514247,1.6783746659095788,-36.98258612082642,2.2053597610263203,-15.714854401975776,-18.406916392839594,0.46134301773210945,0.0009808160621837243,-106.27206814660455,-19.93789489332447,-0.0008894325524364102,-4.2577644410740465,28.88641374698149,-1.8152716908007185,62.642155222194944,-25.249206378713136,1.865452346743029,-1.5497482057106517,52.77700683641363,-1.540639676083884,-11.42282458059984,-29.135445684824305,-23.554085858387385,56.320979098273895,-0.019306322171959385,-87.31454772197583,14.029894907254775,0.030502706222745788,109.01201855483494,7.7381019389544345,-5.451636546269309,0.002124723802566411,-5.421546030858709,8.965971674909602,-0.008503252406640491,9.004258959168832,2.7611195062420033,-9.093693466340861,-12.13673580620256,5.8681119586941275,-7.484413304544291,-6.427304126493244,22.139453441880605,-5.888707735570444
3.850959478701842,0.0,-2.136464869767725e-142,-82.75012445324346,0.0,0.0,3.7774252413466907,-3.6878080456139752,2.768255583983439,-39.16547826133483,2.204655555332029,-9.926359788704529,-19.393765867295144,0.39284014957853164,-0.0003051369975734659,-94.3603528866875,-15.333482772342505,-0.023163895390031844,-10.539960364154126,32.97067106163687,-0.14119464592687178,69.40301086667456,-25.227819798395192,4.450270520312234,7.995400185382571,59.35713736243471,-14.397062219365017,-21.42659585309652,-30.311017858898197,-28.646759732044,63.849435710630885,0.028235480986984737,-86.62616990404263,8.566798515469939,-0.030002928635140143,111.36838618056375,6.4937479417399375,-2.0825114654595613,0.00830201779753656,-6.428122387040711,9.004266599888268,0.00121110183966792,8.636048453854494,3.5904834294437116,-8.961000390334052,-12.54377461763747,6.593734140284281,-7.0589555335389775,-12.804443225171632,26.688487868011997,-9.569851807895768
5.1943896071879685,0.0,2.1289573417989636e-140,-78.26946037111922,0.0,0.0,2.208209997241986,-3.7962301125310143,4.984589219475006,-43.66965397105823,4.9928812759016745,-12.020821061960424,-21.004780374383753,-0.8462852673119939,0.0019380348067649308,-77.94802879929851,-8.640505257986538,0.07650907073107195,-17.308071654073473,35.358002449537615,1.6913084498518107,75.35598988190036,-24.79898079842881,3.3725678929460563,23.3193208534596,64.71277179790661,-33.853432559532266,-30.703229066042418,-32.044938875298946,-20.862679241198602,70.8235529541506,-0.016079845585153803,-89.98741468532339,3.8449865817637097,0.026424957722377147,112.08897693562523,9.768636674108757,2.964650962133769,0.015224517879179049,-6.381173885339212,9.792936449463628,-0.0016869740497412976,8.134040906026023,3.7665918816578534,-6.576392593373494,-13.142516794410282,5.89612302844543,-4.76337183948269,-19.750293907621675,29.461412028876342,-12.030683188918843
7.6354826783430925,0.0,-1.6631652312595172e-138,-67.01402757560774,0.0,0.0,-0.6551499805452088,-4.559414417097078,6.508392950231848,-41.962957201209925,15.99159294505909,-19.238680932075738,-23.986862080567764,-2.265663451802546,-0.0005127006992031915,-57.494924051910786,-0.6631502376202006,0.015440940908225361,-21.489662436082664,36.81980705594822,0.5101426372976483,77.82757242657645,-24.564409041203668,0.24618560698335296,41.25094165941287,67.37847543626785,-52.60758637691282,-37.757033289538896,-31.780266021458033,-17.465189443413678,73.58873575135597,0.008312842807511744,-85.83353639350851,-1.8154946285256357,-0.07386525742925597,110.88372980130978,10.24284792464593,-1.6479540160549087,0.0038452126406429642,-4.287903568559813,10.494915834308015,0.0041437523964274825,8.65499609305372,3.9226351142723863,-4.378491947234696,-12.67899747346821,5.244635695539859,-2.6536365112890574,-26.016335425184433,31.551322889365743,-14.074670785033875
6.124604021332829,0.0,1.152125344939124e-136,-37.57685452312876,0.0,0.0,-2.2724769875091915,-4.450445019495144,5.04094213250932,-55.5636602211718,-0.9593970915219587,1.6483087274916144,-26.099552130854047,-2.7918031780285038,-0.00022821842883096347,-38.59679241966008,-3.122088186834746,-0.11574712409531959,-23.627986827199027,36.23535476054225,1.0641508682984266,82.2230640257833,-21.733956102139835,-7.6744581540670245,51.62186309769497,67.73986224710532,-62.06354015455146,-45.76111776857127,-30.216152801402323,-19.411100865570067,76.53434440788799,-0.013982367358581221,-81.71404598657693,-4.688885953655901,-0.030263502512483487,105.24264641207105,18.045013011578128,-1.0955116905828735,-0.0012799320381184395,-1.9314657387454157,9.77410677002659,0.01011351829975335,8.71810992150145,3.183642584140267,-2.1414802386539753,-12.619582411302487,3.7439009443715037,-0.8372492569307018,-29.453460844124717,30.974308906977495,-15.175249334259874
5.315682527709618,0.0,-7.392972318904137e-135,-23.272186037354587,0.0,0.0,-2.779908726022994,-4.257519835840554,0.39344627283562195,-54.627815496579316,-17.356295271968254,16.755962868353116,-25.875051395958884,-2.897956546534257,0.001520875198052448,-29.729680113335334,-6.488596928727289,0.028106961520112838,-23.34082176086498,34.37448043071974,3.7647216183999985,88.40466923522521,-19.15649500876297,-12.634861735987467,55.055192166718385,67.6343829132946,-64.37057580465505,-53.57313249627913,-28.397044889757225,-37.35223275801435,79.894218967799,0.03244884950806966,-82.83303865341428,-1.7682735907892249,-0.013987903752582364,122.25497448228222,21.16517465730523,1.845590294195379,-0.01474992539264838,-4.092705756717684,11.347512568372686,-0.00866718211752693,9.418800420314833,2.7204129671549238,0.011877245906357893,-11.908533855118936,2.53004090516426,1.000143264775663,-29.166890550526755,29.481709506231766,-17.87315546038962
5.965736839330597,0.0,4.482925603135176e-133,-24.93905985620811,0.0,0.0,-1.4405913980192446,-3.415233263708776,-0.11782718550841709,-45.118939733002286,-5.005228855727083,10.58387647951014,-26.368805046684294,-3.7512728184923096,-0.00028689517108255384,-34.56245242546375,-4.8974587037805035,-0.006093671419792481,-20.804589650646875,32.01602507587844,5.183298647393809,94.6894827243408,-19.30997538587397,-9.38115723018969,55.69007137775061,63.98646904991815,-67.16772239623228,-58.241806763375976,-25.644849429419917,-31.60418803020772,86.75212392886007,-0.07306701102200693,-80.86999666880175,-4.313363236822595,-0.09344130910039562,110.5835901700398,18.276176598779156,-12.52802508861583,0.16609122955934583,-7.86670903770456,11.9865634184168,-0.00825042258508956,8.390022731000288,2.5758402644659646,0.7877361417351442,-12.928606597398968,2.113546876033444,1.67010570225588,-25.381040014333042,27.412859274051005,-19.677543058650375
6.06828427621182,0.0,-2.594038845125516e-131,-29.131405202871385,0.0,0.0,-0.20172117101384196,-3.8029469336243498,-0.9726688160622988,-30.771558765698394,13.449679444461934,-1.930306351979939,-25.953372310068488,-3.3001567038405475,-6.190157191449368e-05,-47.43501842794932,-8.042760826949225,0.030529832612688712,-20.142330241892864,30.042257375573133,8.355175457642558,98.94915457419181,-17.36483632067146,-3.9912374692280594,51.519108152631524,59.69451607880221,-62.09261318991043,-60.19791182628669,-23.240793378274258,-31.01477815525388,93.34096898814163,0.01155874692846213,-78.27958878400251,-5.203177997572066,0.040497682643459675,112.09443344811278,22.061824490137163,-20.215880186354607,0.015293109614673832,-7.2753454531892245,17.776671099144178,0.07070736728901263,8.406701241936679,1.8202662233643414,0.4918576219447459,-12.905853740249231,1.517132680780428,1.1197334158428829,-23.679233309350817,26.71830211357332,-20.149372537685423
7.932598775191036,0.0,1.4381737426051904e-129,-3.5933378813074555,0.0,0.0,-0.11581336908414859,-3.55982319587658,-2.00294391695511,-30.660869638850848,10.321968441542436,-8.048005193337525,-24.80563007682751,-3.0948903050481507,0.0004432098206437703,-55.905632677271534,-11.435634286445,-0.007123407715596578,-20.195863289065894,29.049341695021237,8.342139022009913,98.32472002202431,-16.600285962585104,-6.160346220791617,44.65423583682474,57.36229819237711,-55.95200772526883,-60.020085351327815,-22.94372205233399,-45.74392990558851,98.52783285335985,0.025046619250314935,-72.37357522965792,-2.8803937998398617,-0.05661659683350214,124.94175330092338,20.67385785168068,-11.872604126555768,-0.03633604224428692,-7.841821268867036,16.40565142106406,0.04196497426830542,10.134088546452944,0.674203204020738,-0.06704336317421762,-11.172869504150674,0.6524830975056369,0.182510834873848,-23.89700824894757,27.506583664858987,-21.41321427911488
9.704868395407187,0.0,-7.636366842010954e-128,13.934676195741714,0.0,0.0,-0.2826249324022698,-2.446694327586039,-1.8019061776385392,-44.93511981021702,9.548431787857785,-16.26204466940479,-23.604268862652315,-3.3487496599374955,-0.0007824618258664496,-54.402231582554975,-9.694035081099129,0.001329928657382745,-18.740644022832683,28.96944003890211,6.826714028205862,93.42276694580842,-17.60020869191,-12.344292489663193,37.510598938472924,54.64083379565428,-53.01700297429325,-57.21298396346812,-20.983808845361246,-82.452757240483,105.3487291922805,0.06108185957112833,-90.66710244823719,6.589076879813095,-0.46187045334729643,147.58255397367049,16.581217654331773,-12.637914490850196,0.04466684041319379,-0.3109849679957224,13.103540530377591,0.03771457128768629,10.98219040932308,-0.112323829483322,0.34517188352937245,-10.323101045972471,-0.2300550903164878,0.28076991422064135,-23.982345403404246,30.09941564323163,-21.391552453682866
8.902914592677897,0.0,3.8627197408728925e-126,-80.79779007186697,0.0,0.0,-0.22797627102804313,-2.449264109705977,-0.500501312694087,-36.69164108368319,10.821495571002382,-21.465784395273214,-22.24876559709234,-2.9326213225571998,-0.00039645705445143844,-53.15887266039015,-7.581391131270867,0.004676866579992352,-16.124180985363264,25.821847140998585,4.471608492582532,90.15798351023399,-16.067681373476233,-11.905316412072501,27.06445197993388,54.59581091256025,-46.48791917919552,-51.80681799686273,-24.81082608930874,-64.35007998214266,110.34430040804588,-0.05739276664654343,-90.78019640476747,4.658655560708025,-0.050610059734609206,132.85008457668926,16.400304363596838,-20.32139228172538,-0.03313188758546572,-3.0620569417108348,10.75856072365254,-0.0425494487256102,11.731890763018473,0.7464235361355119,0.7062692875519756,-9.572604460832133,0.4388081453007725,0.9291987662557012,-23.044645997327095,28.90617209956448,-22.35328319006503
6.822826270101227,0.0,-1.8373271504977179e-124,-47.830581235726584,0.0,0.0,0.5437379505518188,-3.0484003758482223,1.6886284542517966,-38.18359313168004,12.038126190958694,-18.73910144634145,-20.84873573009134,-2.110684089555595,0.0015308996301905096,-51.55148646487679,-7.309295947346614,0.00017403838298086062,-13.586201567237715,21.336672359012482,3.4874102650951655,85.91065123773332,-13.489158304192552,-11.876180402760813,18.34895933240989,54.35779660107918,-41.29265968559362,-43.31987274195442,-28.663134318670913,-43.44719131432445,111.12796655799166,0.004158407100941026,-87.97371663485394,3.075963368118198,-0.40147131100606304,110.74760760192905,23.074699784112205,-20.008767354189665,0.02805494536565789,-3.9218849563971743,6.813158814790923,0.01687961522702391,10.687455178010675,1.8138763918783283,1.910481386122267,-10.609023254790946,0.9959939752773441,2.4387463367629985,-21.826530238331816,26.157375576011454,-22.57196583556181
6.878341716539221,0.0,7.981760441571301e-123,-29.434146209452628,0.0,0.0,-0.31879967274483373,-2.110713296967736,2.2165833516431475,-29.791776397264137,12.420722656684003,-20.59933185158799,-19.9424182844127,-0.8359937982873291,-0.0010391834743266391,-52.991536210460026,-4.53983355113138,-0.007175830836818299,-10.28025254872238,17.7422758432453,5.556936527729164,81.94168801128012,-11.074015949020598,-9.243479168926724,10.815468875833268,54.177855931725375,-38.34107885776581,-34.23326868825926,-31.65709899771441,-18.625280909132137,110.68491299339925,0.011541583563303827,-86.55319423520996,3.2353978127436362,-0.023053386953559404,85.04911780859587,22.61655629638705,-17.339308265881776,0.004786399461824804,-6.2691254597186035,3.900464957126641,-0.02087612794514074,9.553075589212302,2.833757597486844,1.4156047209460836,-11.76102202764349,2.1258301536148774,2.3485871909737406,-19.403497532466922,24.352079235344846,-22.395782301662088
5.282323850216926,0.0,-2.935084235894762e-121,-23.43575945339814,0.0,0.0,-1.140844628523819,-2.2193114981033495,5.021232866157848,-23.921043719375746,12.447413863000438,-21.94468586667514,-19.81904288400086,-1.525657065762913,0.00021875665023678945,-53.81335775897056,-3.9576254517708214,0.0006310570275379498,-8.453474268710343,15.541469076534897,2.6114737624445263,74.87705786542493,-8.473415865885544,-10.270103266951383,6.2600448903975545,52.39487471031144,-37.37603570757393,-30.138291150205575,-31.406052775472343,-24.823672832382034,106.07037703453503,-0.03922178820703818,-86.69073768965897,12.389316807556312,0.05510219879446838,98.51876128907652,20.797082193003195,-17.680430445184605,0.005771661653047008,-5.0451051384596095,4.088382098335691,-0.004609636670665083,7.672054556763181,2.7358182401575757,-0.43664940356401893,-13.65779996866601,2.707350132996395,0.5879835113538757,-18.588895780095122,23.00307594545008,-20.923864855231905
3.285856941390687,0.0,6.648440786899146e-120,-17.966906417079095,0.0,0.0,-0.88318053307449,-2.4237342175090024,6.050202117202756,-17.598492153201118,12.496246588678954,-24.913512733474803,-20.015429943708543,-1.1652485356895645,-8.037250749599833e-05,-54.40226514118011,-4.990048243120729,-0.00061169995334204,-6.097251434907151,13.182417334620581,3.1507267123953864,68.26203374980692,-4.601440310987486,-13.08800023664087,0.7954185094907021,50.64841151028376,-33.738440660205185,-24.093963121704512,-32.97580239771945,-13.932098395753863,99.17675917603756,0.015718922895839094,-87.36441085757872,19.632131979873904,-0.013930508106356073,95.33471355980164,20.32047178959085,-15.772090409682944,-0.006286846654339754,-4.197925198724195,3.131732032084961,-0.0047371233498346346,5.2564092507608855,2.5987423752245893,-1.8272767559914767,-16.070171769604066,3.084926553144415,-0.7575755532328186,-17.239591302138408,21.09941026671085,-18.776063565677337
6.599330196285799,0.0,2.326814813027337e-118,-11.86129000794033,0.0,0.0,-1.9814203134864585,-2.026451143121626,7.872357598090919,-9.325135708876028,10.31744662250621,-28.36686372889241,-20.89423016532772,-1.3902285281107223,0.00015232790888382362,-56.008886587131826,-3.5034458546687572,0.0005264220864316465,-3.0450258146197973,10.071073531112535,4.192482755035122,61.94069688033611,-1.4709561688959847,-10.233285215670973,-4.147759860543034,49.92355701013309,-29.57656674507717,-18.38540853027658,-34.355608517891305,-3.385776342243686,92.63863745035486,0.022235697449799353,-84.47323081804102,27.575057385804147,0.01870018528389852,94.91215724766025,22.22306168290674,-14.996425084278929,-0.0043913058869319505,-4.676238751198528,0.6376262970132291,-0.0005969269214705955,2.9444059452898026,2.214814685193993,-2.2544681049828736,-18.372116535367976,2.8824597624911297,-1.2954941903388726,-15.071602990748712,17.932525168303037,-17.63069236366911
8.596190581592536,0.0,-4.838459621070905e-116,-5.07120676668988,0.0,0.0,-2.565894217339582,-2.4077539897268614,7.427079498574862,-3.5293514015496146,7.554330761229038,-30.6343733791434,-22.143710037873078,-1.0102649908903993,-0.0002617585386713448,-54.901427569596045,-4.020950495100601,-0.005796789813947166,1.2109602287266203,7.3605345702929394,5.975684726915421,55.25434334644081,1.369433346468956,-8.23912141977741,-7.73401431052951,49.484661933269464,-25.46173406472838,-13.287329180036549,-34.990426683655116,2.37354182636343,85.02019031171884,-0.029157576870694816,-82.42528820017215,38.50315701568331,-0.027085227796498103,95.08171960315,21.211277382344367,-10.205409513070304,0.0021817548000348853,-2.227264892540198,3.1093062955993545,0.011463387662493888,0.5862999624899637,1.9845867384304872,-2.115492342282477,-20.72732374084754,2.6174960431025744,-1.2497413893680314,-12.060481006107254,14.807573292557016,-16.291453858497665
3.6490149762923427,0.0,4.612244617655967e-114,-1.2516662822732365,0.0,0.0,-2.2266311942074566,-2.273177938853534,7.042403160621301,1.287768409380871,6.337027411857799,-30.35586242424382,-22.89256760248809,-1.576208588500612,0.0001042414924040914,-52.78140713598711,-5.991020823880695,0.0014241353934844145,4.264825004529061,5.790437562207036,8.606976991979856,47.23097797187096,4.667198119438342,-6.278164270269521,-9.559270500874518,49.435667282610844,-21.999753186858282,-6.924628231240983,-35.78345209574696,11.42866985748223,76.76838692280867,-0.021201321153299608,-88.15753416498956,44.75398006736495,0.012114202918428709,88.8691382432936,22.766937527131176,-9.611170061465462,-0.014427568376936602,-2.423015588909246,2.15513688555357,0.006045484024381667,-1.5382560093364972,3.0173391592989143,-3.522973942466777,-22.858533308096742,4.090759569198727,-2.185866926925202,-9.990753745649101,11.873226838199475,-13.01296648201052
5.746058383347358,0.0,-3.535225662552139e-112,-2.1211810227697776,0.0,0.0,-3.0805246744969996,-2.1130024790772284,7.200465326731608,5.586191827724879,4.655312922074106,-29.572417442416285,-23.598435689615222,-2.498214004793938,-0.0011407434538542685,-51.245202153451196,-6.27870091855575,0.0022383177103693533,8.166753898648961,5.506130963968924,9.203831182779194,40.487762653053515,6.033287310671968,-4.214446525723836,-11.50894886655118,49.54121365710986,-19.496804829746125,-1.1701560407795295,-35.854195185147084,18.149387431854016,68.9123167626096,0.060522760622494565,-86.68798746042683,50.886319162569855,0.004427243828806891,85.92260606059507,20.49036613780396,-16.35331482168327,0.03302316626974413,-3.568173396138758,3.5762827659536613,0.00010591840187183458,-3.541825421830524,2.881791756110282,-3.8940521563433745,-24.852954539376494,4.099194714395821,-2.581381422161662,-6.72685510122005,9.992348739317796,-11.232337322437875
2.7637343989196865,0.0,2.4215881976031227e-110,-0.13068626934116967,0.0,0.0,-1.7105177080823137,-2.6459608067652085,6.659877822937958,8.007234743869576,4.3332655383478365,-29.62073400058944,-23.770643733263753,-2.442001568965389,-0.0011858434923734803,-49.43806887163409,-5.834169547641178,-0.006760573503687302,10.686301551806494,5.648752995213487,10.503317707330485,33.77916378578044,6.6244425508430735,-2.3849130340509994,-13.192299154748723,50.46418729642017,-16.326066321969666,4.645312250693105,-35.458415624933,22.497934683756597,60.119515535607924,-0.04906076214037404,-88.2816949199605,57.34936854690869,-0.02788964182795822,88.70425830875759,21.018689324750138,-10.664309305299588,0.039938643805587995,-3.1377086254297417,3.9479731390628445,-0.00360547076877943,-3.9077388712973757,2.891916269715495,-5.069224014375494,-25.195779457477485,4.5349811708256915,-3.6743151336584443,-4.906447083578067,9.16846801845238,-8.669967792210041
0.5193296463633398,0.0,-1.5416825095970718e-108,0.7594556394960851,0.0,0.0,-0.7622125122896889,-2.0960667785344675,6.473212623907701,8.496102448568001,5.741302018368249,-25.327958644196258,-22.69024338152811,-1.9179047343144597,0.0009032874644813316,-45.60620366936326,-7.240647811502972,0.004866344777444355,13.36159090082398,6.023614224245692,12.237392582408585,28.323822726774925,7.412753093280483,-2.993384994481501,-16.14810754151682,51.03345546232424,-12.02082171356309,10.242381915626272,-34.828112339878416,27.03978596388821,51.64433073303614,0.004847684938573074,-92.56001319358688,61.33742800668621,0.013036714942367392,86.89691272288191,21.240688139855937,-1.8540031331784577,0.0007598714542285508,-4.90210981857004,2.5569907787787485,0.012881299401474961,-4.117183251212155,2.944657464641978,-5.905522582708748,-25.38523381390369,4.887222266620487,-4.436031340604409,-2.6359892681558583,8.73323125063603,-5.658791965050927
0.7875271825022709,0.0,9.290222348523886e-107,0.5432348953762155,0.0,0.0,-0.5408010799941954,-1.567633301535706,10.286645994414604,9.32725398224751,5.486314089918442,-22.443946234017336,-21.737696769743625,-2.2139898469328285,-0.0005708675760338646,-40.61052065251107,-6.948349194146929,-0.001434737976903719,15.47278569937088,5.592174954145188,11.833749655779066,22.793070507967204,6.543529719876601,-2.739931921962372,-18.69723506929035,50.371831373114354,-7.3039936893101505,16.502965818507448,-34.163439900005265,31.932350471195896,45.996086176065084,-0.004916781769008592,-92.03609772923348,62.40840638318891,-0.0004213541679212638,83.9313732393459,19.618395014429957,-3.90566783907128,0.002064945631105957,-6.559275365080666,1.325376900176362,0.002611527297384365,-5.862482729196029,2.801366125355557,-7.199457273936371,-27.08426678469076,5.221958360225916,-5.697334892025857,-0.9918517111708733,8.376475221284583,-2.2853837790499045
0.6053931700187218,0.0,-5.346438054795368e-105,-1.1911073705698312,0.0,0.0,-1.5220963208270561,-2.3732535854787886,13.05102031075186,10.784915350916293,6.691368528151564,-20.172393599778598,-22.32327987136573,-2.271865909159254,-0.0010413643680400343,-37.01591306832299,-6.468941579122283,-0.0006208367633253572,17.61295181551246,5.092655913804299,10.378808063058925,18.516327678535117,4.512060610133451,-2.5808261343974044,-19.72468621671385,49.538075167132064,-3.649563876321876,22.244638717128964,-31.791392256788708,34.30296256782327,39.924468005044496,0.030081880192989616,-88.31105123626999,61.51358403986197,-0.0037469195848031395,82.93149912029054,19.61540413632051,-9.520579084209691,-0.007078720355445763,-6.5980076668380745,4.399100931259546,-0.005403464681935198,-7.0329655823025785,2.6303401599350607,-7.52166189860761,-28.237067500516826,5.178974622224374,-6.0607436910796855,-0.5691477553577265,7.492372818972239,0.3876092514657784
0.15154745005192355,0.0,2.948512656235814e-103,0.9287333515014363,0.0,0.0,-2.7000761436355125,-1.8544654816119057,13.937419073575839,9.191507173431539,7.302693590607379,-20.827689285016437,-21.34885988640338,-2.4917644186054155,-0.0004374428859335749,-33.58168265208534,-4.59726958552232,0.0033324022477610213,18.78295980812354,5.330518952898691,9.815880889026108,15.296451602711,2.2814310142296508,-2.83435449162668,-22.796869494390485,48.03796319951409,1.7564975586051765,27.21176151463881,-28.39255921004146,37.1186481546668,35.122378267417616,-0.022623682234117714,-88.9939680923186,59.27810540185822,-0.0008743585755506863,82.43447522071051,20.955805544038014,-11.064207597373526,0.015774367382396178,-8.005962219454567,5.893897863946655,0.0019253231915941874,-8.289922177413771,2.1257834388295334,-6.8512203443749655,-29.50349740197611,4.46626189946481,-5.6172236521589625,-0.47981113264947356,7.135862446612789,2.5792225456281934
-0.09513666841458894,0.0,-1.5567625736570836e-101,0.5708484312755937,0.0,0.0,-2.719522846723014,-1.5081781164857755,14.74457583521488,6.229671168686544,7.267380933756699,-20.74398826809154,-20.256733301292517,-2.252910246933743,-0.00013267762313585573,-27.5874504987542,-3.691725459615983,-0.003176414474975759,19.610936586241905,6.419608930408121,9.67464550884928,11.865662513511461,1.1397779674960034,-5.0555819409149185,-25.438502659037468,46.61098891018323,4.340753699584616,30.199756775330012,-24.831941290124217,38.3845803921905,31.349813452027096,0.004233736895808701,-91.64528099621602,57.29585679176001,0.002941033995187625,81.89995064797027,18.7473316854411,-9.823459177734126,0.012900025344222759,-10.305894571924384,4.229989207065101,0.0020126726569353903,-9.33715085937728,2.4236755980564455,-6.541337918358969,-30.56998454268646,4.631861141655874,-5.219496457370035,-0.4755297548967571,7.314769282728584,4.470800832774996
0.5313387936731959,0.0,7.821510683021993e-100,-1.459173303872371,0.0,0.0,-3.074851468606416,-1.9371277941795146,16.953913634063152,4.953273286675096,8.523189857116604,-18.705985743573013,-20.405685752192,-2.4294832764883325,2.8348788135017095e-05,-21.672187122155506,-3.681225403989671,-0.0012961706502912207,20.681244854191323,7.826465327959735,8.702571644289417,9.10982206306933,0.6303427443333438,-5.898344499811712,-26.89547988703959,44.34052764953273,7.035416395155474,31.42634695491812,-21.535436529815804,36.90005157659177,29.49769632507653,0.006658444037315374,-93.05537120185983,56.55517837704151,0.0012066439209274863,86.28944082451447,19.440295082760947,-9.796543415223079,0.006130719614902453,-10.51533097268671,5.046264220216706,0.005165717984154572,-8.924402455799475,2.3351873755799155,-6.641903657636618,-30.15126622249936,4.585760244792804,-5.345598216436537,-1.251168533939742,7.9090174054545885,6.618446978654386
-0.15177301164067675,0.0,-3.686143478661579e-98,-1.1924181795835658,0.0,0.0,-3.183125131441432,-1.813660639263051,18.365916839880242,4.6327648556019465,8.877328689200107,-16.198517293412692,-20.391508069783818,-3.024851783991463,-0.0005485783152448984,-18.358782303633802,-2.9575626379616966,0.0021337637263176903,21.190310415851766,8.819764254153062,8.760921706891553,7.863313288364639,-0.7458460237088692,-5.623676052579712,-29.46956100416977,41.21754051736491,11.183199519271543,31.506642126047115,-18.786408381916694,36.14760236557641,30.32924946867547,-0.003782096294220406,-96.36378714184121,56.50071435844015,0.0020754128020384656,87.34763752005516,17.891450025618465,-10.611869150254114,0.007379474498038432,-12.77531119150932,4.964612319809452,-0.0038878690051169767,-9.529809251542257,2.2218948940542456,-6.531468382479179,-30.757162182944647,4.440198374182514,-5.283554350833367,-2.634153615164399,7.309658223139293,8.820326946074118
0.133716452460636,0.0,1.577476478339196e-96,-0.4820973042998903,0.0,0.0,-3.7970838804678038,-1.7397345224834364,19.361692002696632,3.5591922501507076,9.119257362942216,-14.974758187430751,-19.277871998108846,-3.162153979860479,0.0004548712392457387,-15.270101965790078,-1.615180925503127,0.00034861274745437323,21.393174183956067,9.044624993566245,9.624986767989373,8.050079507976614,-2.9594941911435235,-6.454366388577055,-30.55128417668707,39.01345305951053,12.395596972597547,31.688199850416414,-16.12306760373486,35.79001402970998,28.73571583175139,0.0007531207190993299,-96.83065465680342,54.09748838201874,-0.0006840407059650192,88.85097749944445,18.85482798709204,-7.609118027771032,-0.004843251720309397,-12.123041513506461,4.862140009348094,-0.0038278012101164165,-9.436427509345288,2.454651662073683,-6.084204069273804,-30.684664515990377,4.495262724943127,-4.781184440680546,-3.3618381195575875,6.153272775081668,10.492871906108096
-0.1501139219987911,0.0,-5.615879357967969e-95,-2.1798223012399385,0.0,0.0,-4.671107791875151,-1.9158861052227207,21.384702337318977,-0.4997903411458652,10.946242037403941,-14.860812059630462,-17.4745382993301,-2.5741526027498587,-0.0003591958315119573,-11.736198796214543,-1.2466626439819388,-0.0015960908314805566,20.71191121073271,8.680741374564075,10.54360407350417,8.022363636792733,-4.709877057422379,-7.891751727940418,-30.52468228611629,35.66701511785483,14.14987358353455,31.063490563940405,-13.642719477015932,34.56344490260661,27.799515644517182,-0.001005416399776348,-95.36345920458164,51.50294432589665,-0.009316849846101465,86.63524258163928,16.948007139851146,-5.023327975636167,0.001957158983550866,-15.486016745870748,1.7265569613212683,0.012033538781503544,-9.079984020709093,2.872914074959823,-6.104587821112074,-30.34006212265654,4.892462035005031,-4.648087598280686,-4.963006125207828,5.094926795431751,11.570604131035154
-2.106961717939669,0.0,1.101381264453893e-93,-7.2410346332819815,0.0,0.0,-4.278706369303582,-2.4596525262990543,23.788584508006018,-3.0719802609256965,13.386957268648949,-14.9429074036028,-16.37021347565039,-2.480935329194593,0.0004615909441966109,-8.679729696789261,-1.6180023576205909,0.00014859338195790774,22.274429792140896,8.957349094048478,10.21664464261163,9.896796808871256,-5.240817024271811,-10.057208111722884,-29.694566262761484,32.81065796763033,15.318905985968188,29.179110103878493,-10.768959967402788,31.810629835098972,27.2782247193933,0.0007319001784311327,-90.01408990969213,48.790248927037226,0.015480022421752795,88.65006465825279,13.130458794334322,-7.023512742507053,0.02852469982247277,-15.855436554268298,-0.023455447335153368,0.003372140761772595,-9.671635944347033,2.9631616572722073,-5.654567036734463,-30.94714446095893,4.813533787370439,-4.1948989255214535,-4.659494598875743,4.203591092142578,11.266053675527367
-1.0029025009786847,0.0,6.408509794523378e-92,-6.992181855135249,0.0,0.0,-5.560311626932383,-2.34188871387903,22.474864827201692,-5.798753301146578,14.984871592032345,-13.508217916950024,-14.785486023192863,-1.9195380910495516,-0.0003640152208195009,-5.863480078507698,-1.349369113938752,0.00048488904544845014,22.560733639683946,8.85123106318481,12.70089642875519,10.865268940810425,-6.328667336199335,-12.373694934298298,-27.763325818331346,30.252577091568625,18.359930255686635,26.540233811824905,-8.91536502091368,28.094226621292837,26.47207970019393,-0.009477374618455598,-92.69272093137076,47.11525468837811,-0.02159692727547197,91.6076807007012,12.168038969028299,-7.078134768192507,0.0011423732315478435,-14.580340342196468,0.24508126230839328,-0.009873848683518644,-9.58229998211243,2.9515823671938315,-4.634566316264954,-30.881593318199457,4.4329339025851375,-3.2468847781355303,-5.310631173714963,2.871969989399224,11.196674897413248
-1.514889401740283,0.0,-1.0862535095175677e-89,-8.189686020755872,0.0,0.0,-5.3336902801284545,-3.313834735791292,23.734532747714738,-10.348895845057921,16.308256967169825,-14.512129402776516,-13.023018214584466,-1.8948612650410523,-0.0001517794312153806,-3.501707509606052,-0.8209885990847761,-0.000670194174069847,21.46851019671974,8.350031262102197,12.486778598583964,10.716493049810186,-7.408884165218876,-12.897162076345,-24.997971022596992,28.221765922358973,19.577656217525455,24.483876113680896,-7.630299611923507,26.011230573368323,25.5932259462938,0.004748786474926947,-96.54845763966014,43.50918245574311,0.006490528978962463,82.60789022360876,12.854002423444975,-5.046782377235265,-0.012512483582256642,-15.975194337017454,-3.0169466371367664,-0.003930760286544983,-9.153244215578502,2.3543500341288657,-4.233880501017232,-30.445127254504193,3.731119122498328,-3.0904601312090634,-7.105277642587184,1.7421813927751024,10.981450757692178
-3.8810459712941006,0.0,9.960900047754077e-88,-11.475602568383403,0.0,0.0,-5.129397196153209,-2.352894041747183,24.20984436179644,-16.225077033920332,16.96393377040417,-13.179519359201775,-11.675135029231413,-1.8235266441440676,-6.349666251764006e-05,-1.8632205189502364,-0.8868738974894778,0.00010935274596437192,21.898399516402417,8.063647167171384,11.841367378317834,11.470710577980148,-7.647259870324523,-13.462234188648203,-22.24008145839494,26.57950509704502,18.65539519139532,21.819377783115677,-7.108121138705792,23.862626389214874,25.362904556135465,-0.0013844552005948074,-96.62317921763507,41.37768904254561,-0.0029487195374931384,78.96458526971938,8.33091984056308,-3.0916442986779296,0.0031995423665570196,-17.779072366538923,-5.385113713121588,-0.005741287566131056,-9.849211924403804,2.3878604183323517,-3.908656910012053,-31.1479337994882,3.6443217137600135,-2.7748794517798765,-7.785938232056587,1.2003943468418596,10.064474689066891
-3.8069133098578036,0.0,-7.50177744281403e-86,-11.01869984523144,0.0,0.0,-5.081939548289725,-3.0154301409968878,22.783429515892003,-19.585520370380785,15.520867992135015,-10.35908832441888,-11.17081829297246,-1.102743880068578,-0.0003954515421158646,-1.693678603991416,-0.7032402781306112,4.123165023444652e-05,23.3953348181292,7.486865369401331,13.520677777241932,13.446858834492014,-8.339041099752125,-13.368653068014249,-19.866404148757933,25.261680586026863,16.22348706591544,19.652820179810508,-7.055325368400433,20.83520963819844,26.31025803957413,0.004724368430900189,-93.91454709043448,39.05851270243422,0.01854147742168611,79.17443259118969,8.115321513180835,-4.706804030806026,0.0022720879117174735,-17.36535268216183,-5.345097613719337,0.0015657385484807548,-9.90322530737579,2.1123853823432635,-3.877319683286595,-31.196371954460254,3.3762833654396163,-2.845886785327818,-7.756898205116307,0.4447000651921231,9.080162963350158
-4.3377416020558295,0.0,5.084101907012078e-84,-11.22636626963864,0.0,0.0,-4.540843178807181,-3.5912241817271733,24.06183465058748,-17.555653177565198,15.687673082693571,-11.115235460721049,-10.801176611013528,-1.565143302825718,0.000329073770332472,-1.8970790901944172,-0.9156376218909191,-3.8138251319134768e-06,23.822244168335683,7.445185045832004,12.957370595325607,14.358442859704033,-8.378767993079704,-13.200626623470018,-17.347019364208304,24.347784562637635,13.819768538616602,19.00932709206298,-7.20780244376181,18.888734334026903,26.909565708159587,0.002602518845213734,-98.83491124975593,35.077139785615415,-0.012120496593190772,82.5693524580388,8.18694002924448,-2.273044808826088,-0.01585696977365749,-17.136718317212043,-4.0869769063909,0.0004083860458579158,-9.617363549354621,2.6568630593632667,-3.8873500625198942,-30.9228919322811,3.887219039139242,-2.6570640604891245,-8.716282374635822,-0.13648192669574755,8.142295401564613
-4.177607151756716,0.0,-3.2122009013777186e-82,-9.101578232733436,0.0,0.0,-4.389601636567113,-3.5432813882701586,23.96053408177618,-16.08462903858089,15.627716728313656,-12.51107353126617,-10.818417224002662,-1.5860242986875905,0.0001998336130940976,-2.0146755184773215,-0.6788090871750144,1.9483994483406398e-05,24.960103145346835,7.668188897689243,13.374462319768297,15.565042484521761,-8.227691214464542,-11.98151919838532,-15.060798983611523,23.795044274581105,10.493162292423387,18.10657239603278,-7.748981177712844,19.176110403494054,27.957233732362013,-0.012394481924213859,-93.94514716645347,32.168116428507254,0.013460755599276217,83.7660170755221,7.943578115584181,-3.0385225915607936,0.004272202933976697,-18.756278997135848,-2.4947951478760855,0.004612142374490815,-10.076478587151588,2.366883038009733,-2.4677496463449016,-31.3940389890652,3.101598762496168,-1.4389414799483602,-9.07824185591289,-0.44585230745697957,6.8389781961180525
-3.432992360963989,0.0,1.9238941454064135e-80,-6.101766027785527,0.0,0.0,-4.740676982342503,-2.4493858742387866,23.74161748882576,-14.78895297360504,15.085981767764261,-12.079781942482088,-11.017253253966178,-1.740561408821375,-5.8965934262214306e-05,-1.8806298668338937,-1.1546644140343472,-5.93362723716872e-05,25.528761174886128,8.02813893940214,13.511475081755934,15.750616653626633,-7.548520880419588,-12.720515857272845,-11.797959003270376,23.032277091223584,8.525838170787564,16.642961096846808,-8.921626286825886,18.032963639111426,29.64445414139568,0.006257972497446469,-91.69767878830098,30.269799939007104,-0.01115521262352382,79.23616668816115,5.319351071136876,-5.351151086823749,0.0028485996832010663,-20.67441025449709,-6.9687020337957435,-0.004178984646014558,-11.26465351576371,2.5840798170983432,-1.5869445834187512,-32.59194408796919,2.983951915868084,-0.5389475486022072,-10.07155431501461,-0.47702889709648333,5.601175886288416
-2.5828222691246636,0.0,-1.1011991745895417e-78,-5.469503702492534,0.0,0.0,-4.783832479768479,-2.477315719529448,23.870561756938077,-12.846611931840982,14.10687549505798,-12.93367289682848,-10.581320835197776,-2.065198676946834,-1.2636521042768995e-05,-1.8844084031060728,-1.231837227388273,0.00010906073182407691,25.936203640196673,8.2010117315568,13.313679476204713,16.35601658912927,-7.276372049544291,-12.562672520034363,-9.22580709816071,21.586468745375825,7.335524688487127,14.902910786831475,-11.246383927120148,17.520184159622644,32.2956055568399,0.001080007560632253,-95.47229778386047,28.98717609017481,0.0033153929182767414,73.67546909086605,3.0079437469243167,-5.2887694793365645,-0.007245568107521869,-21.065108912216743,-5.831058735285665,-0.009194510182928311,-10.826560512365987,2.3559807415728002,-2.4737976279156526,-32.14384292259768,3.09364507063566,-1.4485492351814968,-10.073200123995624,-0.392735562300795,4.935319286968956
-2.1952924671779863,0.0,6.0409008224164334e-77,-6.963800084294934,0.0,0.0,-4.0839989129311265,-4.430814739691827,24.17944879440872,-10.153784428001707,14.27194334465757,-13.158868744107815,-10.84944707308832,-1.8906838205471619,-0.0002811206408795907,-2.343486547698116,-1.093564996998399,-0.00011928174225710377,26.609713685560443,8.041819072640441,12.940910719009308,16.875438225056122,-7.632760133254826,-12.125544498022315,-6.886616675813813,20.597153151205443,5.942937596604486,13.716776416352339,-11.885289932797065,15.039371611203096,35.97828046211497,0.005600202609903125,-98.20834438082879,25.497064804967742,0.006791647994422403,76.31873038183305,1.4551746179117357,-4.485699483705723,0.005597855453151658,-23.915140754617905,-5.730460213322723,-0.0025316455304405967,-10.160058194623256,1.5400040664301002,-2.8433717420808557,-31.458788966804125,2.4676624875627313,-2.089926086767211,-10.221758918941498,-0.7602998073112588,4.125301691010902
-2.8170513637836665,0.0,-3.1712135142706244e-75,-6.551039845616633,0.0,0.0,-4.097989802368341,-4.486088693862202,24.814343597590614,-9.130444606600825,14.208276050411355,-12.901160385249293,-11.551762497203017,-2.289823392958095,0.00036774718593659314,-2.3114951071516447,-1.0906601552050548,1.3075890125255645e-05,27.40810866675066,9.002280893582363,12.524578970464368,17.21022037182767,-7.070393025216349,-12.268144892923464,-4.340773703166154,19.919012791604978,3.305651845555128,11.427712858139573,-13.070932417536472,11.888391602536933,39.783756836420494,0.004136710604035103,-98.77090183313068,24.39545055056684,-0.010415027292300118,83.67490751634018,0.31936622042524787,-5.9655825048907785,-0.0038140800414634755,-20.717396249787022,-3.552468577531217,0.01997528863253239,-10.578812034635327,2.324467572269081,-2.56024634615981,-31.894664522453034,3.0956791201121856,-1.5406028307730641,-10.507557113439615,-0.2529910577536774,4.005832141566355
-2.343749927925832,0.0,1.582204775995611e-73,-4.856996972778217,0.0,0.0,-4.740272912057986,-3.9554751564260813,23.420268283334654,-8.160779859520206,12.12073156514781,-12.840378658411536,-11.651770337485459,-2.5131708523040306,-0.00016091462980093695,-2.2690674605129133,-0.9880638186766544,-2.0575309678945663e-06,27.63793892101716,9.662842160115419,13.455453555537652,17.81375418496962,-6.724165981003929,-11.965094379036369,-3.1737210428612226,18.83783025471323,2.8275864609440617,9.361950008004364,-14.2928502958491,10.468877684694887,45.0567300491653,-0.01891701882010451,-98.05856563471288,24.697593819333036,-0.01191958531506548,85.34888946365704,-2.0917158499041597,-5.929072770600463,0.0014664618377132662,-19.46319726469757,-0.4983049051692179,-0.002951470654493074,-10.884362303362272,2.9691747680667673,-2.0539403423105465,-32.21757102520857,3.5123323562756803,-0.8338404582279675,-10.729788694944421,-0.5741256629970671,3.4942298264028024
-3.06475249629746,0.0,-7.384604533379437e-72,-6.366969772446808,0.0,0.0,-4.5630093752124194,-4.948533373144559,23.66572310082235,-5.812863277796991,11.854318016822166,-14.56049477330309,-11.359484356618655,-2.4110183836817094,-0.00019378450542611352,-2.6405373298127714,-1.0725540754738034,-4.713101312218639e-05,27.47089943526589,10.174803788058165,12.850084980440728,17.883650907527617,-5.982650330660822,-11.257955168121203,-2.064980482468378,17.847848140398657,2.24725338317191,8.275304667234483,-15.42868759108632,8.076920881740556,50.91276886219856,0.014286190597540303,-98.05343204284411,22.41091954571258,0.01381919534476425,85.30035068605962,-3.786161510809211,-5.9251216582029755,-0.003513590073720904,-18.165787392996613,-1.5113476490357172,-0.001189666692865514,-10.540172574411873,3.111181890451885,-2.5100516517968225,-31.87373218504075,3.810307401057534,-1.2072134026113275,-11.024677824046064,-0.46659745692840787,3.3202653950672367
-4.145396294833706,0.0,3.109383685792841e-70,-7.595668008696885,0.0,0.0,-3.9204554370578224,-5.763380642556316,23.75867201385234,-3.9404598627198686,11.842639481422594,-15.705646073373103,-10.83610819451355,-2.0970849612262277,0.00017414098765460132,-2.803063718445201,-1.0667776506113593,-0.00016861463471716122,26.68750517898073,10.75393366314278,12.644001255405282,17.50383705111773,-5.05796925305655,-10.064313286451402,-1.6408020021353118,17.18380138772342,1.4160526144996524,7.231870477759427,-15.847429934520012,5.939000687625286,56.565428298086424,-0.002340569588172975,-99.43788810477508,19.617887882406688,-0.010209312456291291,88.35309463859224,-4.158477845384021,-6.751213450678514,0.001966023933536654,-15.492358000963307,-2.5812103758791167,0.00040244397844488864,-11.782694444243113,3.125193615440672,-1.8180780480122072,-33.12044820888251,3.5719709104526967,-0.557161410516886,-11.00401326379662,-0.3251935267809124,3.3239210576546587
-4.492466655179172,0.0,-1.066918928663446e-68,-5.7246080613819945,0.0,0.0,-3.61380367658596,-5.576003983259958,23.344790254205705,-3.0129343595496616,11.632193103378997,-15.100599983347129,-9.900124931718178,-1.671152722423382,9.865111023169756e-05,-2.4055165756030146,-1.2050204958094222,0.0001646047848447084,25.523909155224917,11.123126213130618,12.852840706332914,16.695789469306817,-4.335997051582846,-10.7797632241784,-1.4263667162107132,16.661572752358936,0.05818729131520752,5.378156112764321,-16.93449889829418,6.069277696668446,61.37694258159172,-0.012227355653571272,-99.1957540107233,18.435186035562403,0.002722703880869844,89.50200489895695,-1.7933057845511435,-5.304543957400059,0.002348285002728744,-13.840091054740704,-2.42258345859105,0.0006322310605457939,-13.314221308844392,2.5838226746025077,-2.1716592944910977,-34.638487599393386,3.19613722241133,-1.0839654079017853,-10.6880126261917,-0.06874421073322533,3.350473116855207
-5.785361620995472,0.0,1.710317442453661e-67,-8.68929271615232,0.0,0.0,-3.326918074484214,-5.6424022338200945,23.088563174465385,-0.955480347645425,10.285056226507674,-15.572524409092603,-9.148995447992633,-1.4074862150547314,-0.00014962717619344237,-1.776345159773158,-1.200220919425752,-0.00024188026698344735,25.421244243241688,11.739101549241397,12.757460517925546,16.455823366362228,-3.421356946839214,-10.699172145676348,-1.2469478530532707,15.885840312839369,-0.7278610534998936,3.838443138938846,-17.648665471640754,6.232075504660495,66.37973606887972,0.024763834036255823,-99.16522709354138,17.638939533411786,-0.0005893295429662507,87.8005778849518,-2.0571684315778054,-5.756073993171532,0.0003102535635127328,-13.50265013920101,-1.542314242926284,0.0003784491558849241,-14.642158737077303,2.5567572251559363,-1.9890327581685723,-35.96704626131535,3.1045749365717286,-0.9236083080148529,-9.442335714779842,0.4113386557500985,2.96084302542815
-4.284416356364071,0.0,1.65385966239761e-65,-4.746940316658422,0.0,0.0,-3.5564377621554177,-5.273999727279561,22.32699196934983,-1.1874610197834783,10.256489284588639,-14.803751571645083,-8.29853488911967,-1.255209729088622,0.0001252546238149528,-1.0383527868140905,-1.1995348276502535,0.00011476965104774551,24.39932273305475,12.112783086702281,13.314201386406786,15.4680888763834,-2.782982526127765,-11.389789092906147,-1.3438089571775682,15.119934717979811,-1.2427107633706707,3.1174728730184698,-18.25535582254726,7.354297800124288,71.21373383598794,-0.015522878917405057,-101.07835659720486,17.063910795796193,0.003959898453113541,88.92577336971529,-2.497024271816073,-4.423032555802631,0.00018776128367024606,-14.039354251423124,-0.4140088745827111,-0.001870643200618616,-15.787428294022822,2.998161383954592,-1.9807526823465664,-37.12164972794546,3.512740053795253,-0.7550758269439731,-9.367880549831133,0.7385477066992554,2.5265550053142944
-3.1149838132073464,0.0,-2.4207511572083296e-63,-3.7717545903152763,0.0,0.0,-3.7580635868387344,-5.028518984958944,22.75542887744663,-0.5528846508322639,10.170497857661116,-14.322649085743135,-6.87396532479139,-1.1072597075870412,-0.00010230542898478089,-0.4762674252461209,-1.2951412530753548,-5.209406280647017e-05,22.704900904371016,12.46679282364688,13.323241511412995,14.21836679126859,-1.9764828451214222,-11.259212040264112,-1.444308332602067,14.643265697024106,-2.164214497777791,1.9015499733032075,-18.46709142021202,6.226068171775836,75.07622291272065,0.009654700471123928,-100.7676222827806,16.90541154908499,-0.0060873343737503985,89.51243422638765,-3.844730085400934,-4.325536587456753,0.011376745673605453,-12.169856725127952,0.2245654399123685,0.002139091128478994,-16.079205841229022,2.654948209523548,-1.8781952629436736,-37.406657689726615,3.155773436451403,-0.7845458949366423,-9.142428203801687,1.0212023899344245,2.4641839344067002
-3.466213399428639,0.0,2.1450918714274744e-61,-3.8429231236755523,0.0,0.0,-3.3829012524379687,-6.244084407599713,23.237154406466637,-0.06270902589060563,10.036729216799017,-13.490566698911895,-5.98897660718543,-0.5527991357960033,6.586870444889365e-05,-0.18007237840645174,-1.4142574415999412,0.00013449616479162103,22.448251936876023,12.761839725701824,13.537016044477367,14.434627829927534,-1.3174580944262804,-11.90309994407107,-2.18423399127324,14.512589888455002,-2.970016553470056,0.7769020936579073,-18.579405381897917,6.262124057587562,78.56653980937905,-0.002614628334488821,-101.22946288745906,17.614379100008456,0.0006255603072057015,90.21161055779464,-5.134178404972947,-4.89710538899738,-0.003152467208603599,-12.678004036364804,2.3644595441239624,-0.003437714589104395,-16.227459621255303,2.8761891655140692,-1.774306595497812,-37.55992606280534,3.324122097381171,-0.6071293197820907,-7.764166664782378,1.3825500909393686,2.183946454770834
-6.060485055692451,0.0,-1.5893503322803313e-59,-7.300926604515466,0.0,0.0,-2.8232271110981126,-6.596703347894708,24.71040295324313,0.7246154435427844,9.668503467418725,-14.189501955503218,-5.486097591020159,-0.6786085869225008,-0.00011798963210517572,0.2591764524990374,-1.4511174469357146,5.906912029302002e-05,22.155394230436418,13.472179033334626,12.485863791745027,14.32959455173062,-0.5260638062313123,-10.818921110324304,-2.384885734170012,14.182437899544869,-4.270313203850352,0.4536921855887299,-18.704530932601678,6.1736675462528225,80.22974920134472,-0.001408160390202508,-99.6674613720411,17.27493565248673,0.0007273081991841419,87.45284969835056,-3.636489813731861,-2.6289707923185723,0.00992947406231899,-13.865618418735453,2.5998138853340858,-1.1751832592696552e-05,-16.343689392357234,2.7237477563996357,-1.1929873181969293,-37.67444590143701,2.9709099892712043,-0.12100137624715913,-6.830508631446565,2.0338094110059206,2.3454524964925305
-7.273489442520319,0.0,1.0662555426196826e-57,-6.770950184269097,0.0,0.0,-2.9714297609592935,-6.955640240811534,24.80986664381584,0.3109746182316059,9.640795028945705,-13.831673285841672,-4.984754515631443,-0.7650088566261536,7.991665131637076e-05,0.6675433904710825,-1.1297085785874152,3.653384270213844e-05,21.312535852581416,14.012477648403987,12.767035131593156,13.951675758583699,-0.22566941860692077,-10.650553334241742,-2.512935966246892,14.057986415885411,-5.206032664109449,0.0847299744438868,-18.45414813981918,4.6913059411325815,81.36026723012945,0.00012023141498573681,-99.51078787387502,17.412006493562654,-0.0012437787620125538,89.64444031059759,-1.7765673262183386,-2.0453509857758205,-0.003117131305987677,-12.688392958304101,3.3378035275982088,0.003090731011871427,-17.12199750906225,2.1927478357778676,-0.6923086106266938,-38.443841027954925,2.294355865756422,0.15213654654081904,-6.196542235507405,2.131248415314131,2.645389695060234
-5.818250738813426,0.0,-6.687321479020588e-56,-6.190724182328448,0.0,0.0,-3.6371480492811368,-6.82807694493823,24.24192760014767,0.15132372831040766,9.322114643773489,-13.602723112302085,-4.688770110535208,-0.6421827152931373,5.656800356260681e-06,0.7040133274645262,-1.1234086482709218,-8.06557585774882e-06,21.100997309826273,13.949471416609393,12.743753707658891,13.940910226387455,-0.148788036761422,-10.58085259855218,-2.643318036777666,14.405129221032986,-7.085966292554714,-0.00817052077714873,-17.99550629283259,4.3170727642919084,81.83922422436117,-0.0003472164445636869,-99.62463865189893,17.99555161043327,-0.0020574507776930763,89.0322902504575,-4.471266721423881,-1.2125831088658237,0.0020044442469850554,-11.481928274768851,2.9034656255205236,-0.0035284608200341697,-17.504624443287153,1.9528698374697224,-0.32899524526832225,-38.822589807425814,1.9388864602969802,0.4033270680783347,-5.603103650319124,2.0815233191470535,2.1816143923062867
-6.511027131127526,0.0,3.9813584016752786e-54,-6.17598409153815,0.0,0.0,-2.690547386720656,-6.740851543538195,22.54607060905537,0.3771194372170165,9.092537579938133,-13.495351426959962,-4.660197452776339,-0.6541323056821767,6.763493479421585e-05,0.5029420505611596,-1.1470038485650569,-4.597302379031966e-05,20.572246328569747,13.775723266345464,13.070573131592445,13.91371157754793,-0.2398966495032918,-10.447824043304772,-2.528147885872021,14.714535484002056,-9.26221338837008,0.17653565805180593,-17.693945624534788,5.7864165877226155,81.73583313082551,0.002419449053624748,-97.82446738290537,17.573298853516263,0.0011243816276753824,86.2893495499644,-6.117977081883574,-2.9852585718816864,0.002286005898677658,-11.981255849245837,3.1648390262370625,-0.005105023339309515,-17.74329309916814,1.843437603510672,0.266072340761779,-39.05752080117023,1.6207442584961922,0.917854900304153,-4.957172365799196,1.990795314221553,2.0699950724013227
-6.396140107270462,0.0,-2.26663339194731e-52,-5.826010301506617,0.0,0.0,-1.345117068884931,-7.273430564319392,20.698798802685005,0.5356959517451511,9.325887398877809,-13.0802304741131,-5.054340137343532,-0.8654942382656657,-1.2185233640895325e-05,0.14716460216239488,-1.1941586180214003,4.0905904720554755e-05,20.286745260766583,13.863349843479392,12.673965668387803,13.90181258430463,-0.2745481969929439,-10.686791630707457,-2.4585096762620022,14.882398244505465,-10.7760221554142,0.20216841449687142,-17.07907849154164,5.886957018378934,80.87165621828984,-0.0049864528946678924,-93.47293814032119,18.09376083280192,0.0006456859822145096,87.00974926644662,-2.2901661964078044,-1.8911596702426827,0.005123034381018249,-12.490983696842195,5.38581543409852,0.004317340892898779,-18.156919980716797,1.5928654616759177,0.4014717233810264,-39.46799925101699,1.33812564294406,0.9528715543129748,-4.467155017605962,1.997103209747465,2.082510650023343
-5.0523234428077775,0.0,1.2368145346000227e-50,-4.235564028574244,0.0,0.0,-1.2845747244490051,-7.561280343391767,18.102023587092663,0.18914551463218165,9.807342909933121,-12.534955618006064,-5.050821805450035,-0.6345360873947116,5.714706981451805e-05,-0.06617283679318028,-1.3111191797385993,2.664249558302568e-05,19.293655446477093,13.27185975109211,12.864770139731444,13.207613974810945,-0.738381267741136,-10.92885799388777,-2.196483528650707,14.641238441327276,-12.181225126576342,0.09922566029574688,-16.505738954779257,7.168861702722242,78.28983200569382,0.004430905468628915,-95.58922709323205,18.664280179029287,0.0001400598779684156,87.95537642871687,-2.382648778318022,-1.5543488243007404,-0.00011321406108280512,-12.790951595500792,6.8679925335746805,0.0032854535551562693,-18.44062585202461,0.8322216518371025,0.7241321790037488,-39.74526578779365,0.512248791404631,0.9770095914927546,-4.403440141639815,1.657548189886291,1.8894195041573814
-4.420540022651486,0.0,-6.4548783289096455e-49,-4.72444648313425,0.0,0.0,-1.6137751027922838,-6.969626872392061,16.351419963682037,-0.154635573079219,10.481341890385645,-12.232295298765814,-4.9185303719118405,-0.727649765421729,-3.376422190953421e-05,0.2245110985080997,-1.4369437143673176,-0.00015662096371753647,18.735054010006323,12.847145287371651,12.41272507215295,12.881531456443042,-1.1038877662752709,-10.70633402176988,-1.9334470802566697,14.829212675266053,-13.126675867057642,0.4738768832453929,-15.57423063029094,7.240091494583406,74.49221101264946,-0.007539529951733629,-95.88432827957642,18.458483156537117,-0.001961726667942075,88.3243075492353,-2.763175567153275,-0.6738323663139218,-0.009081473284916737,-12.38406487724596,6.483013021721345,-0.0016662172222213208,-18.268171242931214,0.5411245995285158,1.1995293198993626,-39.56883126873812,0.06835333972958546,1.3141388323876904,-3.9660908496987863,1.299413421763114,2.1502594087015225
-6.550612773742483,0.0,3.197362094800483e-47,-5.7355057903347175,0.0,0.0,-0.9500321217099634,-7.183939025716367,16.49681767254373,-0.15261411982146403,10.051817979945229,-12.939541911723143,-4.985611373484931,-0.9214763843069025,-3.0723630495479106e-06,1.0004928728944273,-1.3650631275040181,0.00014913772156952527,18.08944173118031,12.452690828822684,11.103022858726519,12.16355411048542,-1.554675123974589,-9.66407495581867,-1.017554747776325,14.347507280288315,-13.889950666453707,0.8316224090486237,-14.760162287454667,7.121641496150939,69.09880709403444,0.01677167475200498,-93.98555942401094,18.363715047146844,-0.0014944245553009754,86.27016294307711,-1.017118344431989,-2.1803738384086127,-0.0011953279647734937,-12.038237293551246,4.2729820738535835,0.0022282528188663055,-18.31277163221022,0.4134614715949633,2.0965089096781924,-39.60382781679318,-0.3763616071963966,2.103477539284319,-3.690520204905166,1.0046695869079765,2.1473521602841537
-3.916746376873705,0.0,-1.4771042642273537e-45,-4.801320272249777,0.0,0.0,-1.3505636352099861,-7.1490977007506045,15.705774654612014,-1.0083752329093467,9.631505333234724,-11.720231232724991,-4.658280830803343,-1.0378469520841476,4.70439423919916e-05,1.5009472759330251,-1.294454715147946,-1.4923661980147117e-05,17.39960528946912,12.527000508243455,11.098167270439875,11.794424627288086,-1.6148623181734822,-10.072016660790547,-0.22867230037333608,13.713485244609966,-14.591293118926332,0.6944380275495317,-14.243679255541895,7.492003178372203,62.75681276853738,-0.018728976153728236,-93.77810877205178,18.882015776027224,0.001699100870095156,86.37555510372017,-1.6941504696287948,-3.7992930297285756,0.0019574039680014645,-11.503108694677056,3.919152275773438,0.00021063191452396082,-17.850455327212075,0.2526087562719507,2.6627243310113538,-39.13369170027103,-0.7317984413570726,2.572689352733421,-3.0051399736023927,1.1348471357207295,2.3642155490686325
-5.538969634602732,0.0,6.111059781768424e-44,-6.796344357947516,0.0,0.0,-0.9934515774071278,-7.79415399090577,15.465251647482603,-0.22071448972056765,9.600579961780657,-12.117015136015482,-4.338214535257111,-0.8931377334408998,-0.00012586673812634797,1.5235181418843973,-1.3177349384034382,-4.4770714798873825e-05,16.95264534912019,12.197632622061112,10.757515507642877,11.72139482070086,-2.0192075033747607,-9.498390444398957,0.9694231960336888,13.016794561889546,-15.94842077854404,0.9293417405753189,-13.95451551011578,9.296474599489418,54.85453499330796,0.014790026382628859,-95.3891046068557,18.44024706689399,-0.0017809384093620164,82.56988855084742,-4.159076890070508,-4.065620945407112,-0.006247828556582058,-11.95449907019347,3.754858639271886,0.0011845319561206928,-17.06719699180904,-0.134630556969316,2.741105928675945,-38.35144045447972,-1.1210735534578782,2.505142650593301,-2.194130059289816,1.1949347313085235,2.5499753152325386
-7.622829105737894,0.0,-2.0099479147761647e-42,-5.537886709566386,0.0,0.0,-0.7975463282275396,-8.079041308557166,15.760502448561965,-0.5248526461272275,11.026165806795907,-12.131897913838833,-3.762882255829149,-0.7096322453703902,0.0002224133673651993,1.4214973812011464,-1.5587107208002122,0.0001235473804435001,16.530230833455647,12.216427747537814,10.703194042276495,11.6930721841024,-2.0192232545957167,-9.274700387782893,1.421231504984473,11.872675389237129,-15.230620969963153,0.6812510352631547,-13.713845382088072,10.396129907190435,46.947314806335164,-0.007317554215909011,-95.9766134506781,18.444403910468676,-0.003070423243070901,82.37348219775639,-3.535337182836667,-2.2993793779642417,0.013224239674101466,-12.650850737950776,3.087640433054002,-0.0006410348013010424,-16.4411964662956,-0.24621384226840365,3.0222713519502418,-37.72163738792361,-1.327101362167064,2.7266872054717677,-1.607137566202678,1.705526585438748,2.591936224422632
-8.109643486573761,0.0,2.3605538225537496e-41,-6.926931154455896,0.0,0.0,-0.6164586483405319,-7.81586921499483,16.794320332754744,-0.18959587547304033,11.440115971721841,-12.122204992449364,-3.1006571634741653,-0.4631451038135108,-0.00039864673133219836,0.889568262153413,-1.4314620929931896,-3.1641773336784845e-05,16.1557312825472,11.961636262301308,10.248553073172168,11.888748519482427,-2.20024515789297,-9.122794346709998,2.1795374846943836,11.24710125767239,-13.759375292828208,0.764162204375534,-13.070811325893434,8.783433468595387,38.98645457687001,-0.009856917432813413,-97.50571443971552,18.669261351883613,0.0016472425081662725,85.14621135111949,-2.540761363032743,-1.6653957668641484,0.0033826752906451884,-12.115699950195102,3.6730127713203466,-0.0018016823552016877,-15.209359352385404,-0.7720924601890677,4.208359200387334,-36.471802726375884,-2.2474325086965115,3.6415872300707557,-1.2096621120333295,2.010547142808085,2.5052109989340505
-8.530983658357808,0.0,4.095376524567129e-39,-6.577106805203137,0.0,0.0,-0.47166501060554344,-7.367151684654738,18.12677572900796,-0.5963155499471617,10.933185452916646,-11.328111504045118,-2.3510266502552213,-0.17399835560343602,0.0005171901542237873,0.6836239730814013,-1.593215411387175,-3.3128180736520915e-05,15.557742289382757,11.055308040125764,10.11194900320829,12.009188329418617,-2.7284095194882654,-9.241499482718222,2.2874326286807616,10.603366611911287,-11.974455820323413,0.7581021029550405,-12.426656557691102,7.0246581444108145,32.51819211689759,0.025004294196042467,-99.05688606303389,18.80216723403687,0.0016471656077581957,84.8449218253245,-3.9106465511498514,-3.4669104825320116,0.0026733241571683525,-11.365277519380545,2.965584125950852,0.0003057549157812216,-14.020312193769639,-1.2923454891641255,5.306336253329234,-35.263336918922114,-3.1302449160703745,4.4770618226298,-0.8813544279152711,1.785295101888934,2.2970449299849043
-8.314399194278943,0.0,-5.36064729256933e-37,-6.308084215275012,0.0,0.0,-0.5087937054103153,-7.37873616537254,18.288649766345696,-0.6402109273640816,11.22423998098728,-11.184690789660957,-1.5521498748750528,0.3226505429755745,-0.0004754064118584559,0.1969075071057606,-1.7431120747255446,5.317896123496854e-05,15.00693892336458,10.107778108734179,10.982394997477302,12.194115149524778,-3.30206009181892,-8.76942065064694,2.1530739716371503,10.53839362432504,-12.524954386231785,0.5663566398340694,-12.12695056847971,7.430826716953031,26.80406841385753,-0.014535272990010416,-95.84589063773379,18.793011010452577,0.00025271527816232334,86.22463986365916,-6.572018631222633,-5.631405029976508,-0.005210927373281449,-12.67662157910618,1.5767256001035759,-0.0002374424243059247,-12.66803609616997,-1.6320746592511863,5.847117935115316,-33.902333124167676,-3.6427402182631976,4.8585559491337875,-0.43769202570016413,1.3375677868753582,1.9687982340201104
-8.304333698993979,0.0,4.6074205713414654e-35,-7.32138682767518,0.0,0.0,-0.6321218274528556,-6.70523148154382,18.692385304280755,-0.5633652537905198,11.800017959711155,-10.819617671136456,-0.9023790734791751,0.49301033635828223,0.00040415213465854925,-0.08627158821878199,-1.9471028024163628,-5.086089970108426e-05,14.526390064394299,9.24909386616692,11.029392489303264,12.240524029173544,-3.8945194034981316,-8.833278414358592,1.2390259064472353,10.101870805119685,-10.819295726785592,0.06557777036773212,-11.81829449420492,6.869252367784346,23.310731271559835,0.003975308785016079,-91.54686245004352,19.857499036959275,0.0005948595192896623,86.29288961581987,-9.104931998258264,-7.366544461367426,0.0005873425868033662,-12.706256739248378,3.3446288243761124,-0.0001989799942491506,-10.896554010181887,-1.1393863498109984,5.681062275410518,-32.12544178503588,-3.1233676474775667,4.882270956114478,-0.6001381230093535,0.9308430131159475,1.745312156736581
-6.9276340141883495,0.0,-3.362190110214481e-33,-6.209255168912202,0.0,0.0,-0.9832717638492474,-6.599909174763965,18.536305542354118,-0.6939141223453315,12.050078112987926,-11.017587359838679,-0.13485557637887474,0.9186371851745584,-0.00025182070750504303,-0.8061569678285165,-2.043148764440774,-4.1349123953804916e-05,13.803808025894952,8.310903157776842,11.244091434161259,12.503129757449624,-4.599309553659077,-8.191271247834548,-0.3239239426016225,9.990372309607823,-7.809261927849953,-0.3709333015381481,-11.396352063390905,5.880148743704624,20.151209068348912,-0.002683783430097649,-88.51931630972703,20.166951498217998,-0.00033559607898859677,88.38160950745572,-9.470524971447455,-7.5488467491380495,0.0015491608629810498,-12.421804470326956,3.1315407714881727,0.002723176620140556,-8.9332675700368,-0.844560780066544,5.688434820810889,-30.15634826604912,-2.8512139895935364,4.996048576847609,-0.8167359090258393,0.3268657702552171,1.4009360867034395
-8.952608087372251,0.0,2.233878167615696e-31,-6.29245355009608,0.0,0.0,-0.6792076198731297,-6.081309602552652,18.978567087613644,-0.7370611851009781,12.575687330400992,-11.315793225054993,0.6793144648254287,0.7898768805841054,-4.448005707745912e-05,-1.0700394645933253,-1.8518281092015576,4.8760100034635524e-05,13.096292648421088,7.651079807692803,11.67589765371567,12.633920163703467,-5.351708047243395,-7.49761570632388,-1.7205123539242384,10.262266038933273,-4.995663590224472,-1.5258525622912562,-10.770416733749546,4.5449497790486495,16.87509703948979,-0.006741749950880875,-89.80984249673587,20.081426542490593,0.0007599635469921521,89.27252667014919,-7.462139071919587,-8.382114284243974,0.000877807942569116,-12.55473879780596,1.7035039960156069,0.0017807692067379733,-7.194892058374443,-1.1748783678093886,5.545367413860722,-28.428618394780237,-3.1073156425304296,4.742760786807607,-0.41246280804002916,-0.43179918395647626,1.1465681842921753
-7.916208977834042,0.0,-1.391081216241879e-29,-4.848480520096738,0.0,0.0,-0.9806498015507163,-6.554338078692345,17.960766996415767,-1.436790492071548,12.184496197376507,-10.712072473905211,0.8789659478586993,0.9267593755936874,-1.2400149478757595e-05,-1.4186589137861707,-1.543825794763434,-0.00031060878249245395,13.28912540775458,7.011329673272346,13.012054598690217,13.177865877206346,-6.111775270391786,-7.896702093608822,-2.773494072461971,10.383498003027691,-3.114826569308662,-2.698191595508168,-10.832891240523795,4.626777881339479,14.198607468574204,0.013224956535774914,-88.7553874088127,20.292018613401,-0.0011186659106046507,86.97902328170412,-6.714902436776443,-8.913420839370103,-0.0010767827915836787,-11.996444994434214,1.6617139945644874,-0.0005712712780914122,-4.9909741057278465,-0.8288406448206613,5.655336705426998,-26.214810523079784,-2.824574644602147,4.970855063821722,0.11336553205459968,-1.1074402400875059,0.958203832900353
-7.600683923384516,0.0,8.23342330117504e-28,-5.262333333415642,0.0,0.0,-0.646096490859227,-5.682809417618062,18.371265243533998,-1.3874380452036266,12.688374794741957,-9.744390064235798,0.714282391802424,0.6581531874716441,-3.24578575065525e-05,-1.8472009720706302,-1.507905783479837,2.9746260472288445e-05,13.545635663601805,6.751556133043333,13.35094286411094,13.870376245918322,-6.539165132162472,-8.387058253041827,-3.378662196767337,11.129609494603534,-5.541149304535338,-3.0117186576589017,-10.631632660643753,4.00345969585995,12.035903428147074,-0.0031791335058514916,-88.26195941632042,20.33267647242247,-0.0011386295269210386,87.75178060783782,-7.977548316691753,-10.676220793666635,0.009028198935336818,-13.2924211389815,2.8164919521440206,0.000801246770164713,-2.306089764181506,-0.8486131542950597,5.921475428446115,-23.52170952177918,-2.9393341528293098,5.2120674290381315,0.1301665184090635,-1.6722114058472077,0.8114274837083648
-8.188681524295061,0.0,-4.662416958403503e-26,-6.34629334374292,0.0,0.0,-0.21790784519543466,-5.771149428642277,18.906976509215035,-1.0749270443041712,12.388606155265473,-10.41667725563131,0.7280932170579199,0.9541709901159563,1.7613297356613654e-06,-1.9240588117197344,-1.3391265666721854,-8.975452164843705e-05,13.637752485108237,6.453479166418044,13.13684826175593,14.33880777036756,-6.748492138804113,-7.356759007838409,-4.704539836066009,11.36229172467833,-4.374337482552458,-3.3057609933429006,-10.322581674107,3.8740180054127604,11.649874151751492,0.0049068860146754675,-91.37045252992642,19.524330889765356,-0.0005608638740662789,88.81825170029317,-8.343948496880808,-12.436678968136903,-0.0017724055312455936,-13.14116511031835,2.749792355900372,0.00032094964550111177,-0.09644550340719132,-0.5119897233774326,7.31135247497299,-21.253445820818772,-3.1277533648921474,6.631551655167817,0.5343482758639679,-2.3437988989584086,0.6511514569415603
-6.441908532081573,0.0,2.5305107835459145e-24,-4.406995651602005,0.0,0.0,-0.7705932848692496,-5.839149074327925,18.61314524982781,-1.9066145137472017,12.020915565801666,-9.643154789161063,0.960696541303754,0.8636632618264847,-5.640067693426966e-05,-1.3565050029147252,-1.2187489244264806,-4.6041492751785726e-05,13.431561502617239,6.5561956664989225,13.677088511723673,14.09003998941262,-6.657447040369026,-8.156642668670338,-5.629411951549155,11.100507072426385,-1.9604934295432057,-4.187945997123184,-10.240873747391234,3.533818802706724,10.995390059625185,-0.0005428665792471278,-93.85515922006734,19.161624153647246,0.001204930368007155,90.58933282950225,-7.408208434765866,-12.017573895180199,0.0008991666933822279,-13.106713811268714,2.5173504211736817,-0.004378817747597627,1.3090586776370443,-0.8057884051300118,7.2012885819435954,-19.858501902453696,-3.3620047899750767,6.422518709404962,0.9630223719215307,-2.449313927984008,0.5401178206958807
-6.320647002018629,0.0,-1.312808050153072e-22,-4.607229562716383,0.0,0.0,-0.6872531774882299,-5.701672853041573,19.579112598732788,-2.4005097933525437,12.072887804734773,-9.309115183923282,1.2207337249096026,0.9545607581128885,0.0001793919756556616,-0.6731645028863589,-1.0412548073921575,0.00024093145752003865,13.228228172928748,6.667282076528723,13.263147636430572,13.78415165900664,-6.455527830326426,-8.819265458160325,-6.138250664497903,10.95284157942109,0.8183030120514615,-4.376176043452971,-10.293600485599724,2.745694109474001,10.937824137515506,0.004758444563661552,-98.54847867069111,17.889436726053336,-0.0006592816466447117,92.32391424372238,-7.585587235405252,-11.409969206709466,-0.0010552034293969644,-12.137578544296307,3.153087009947948,0.0013989375075015682,2.339578585607328,-0.8687182251225115,7.220269252047053,-18.828547251152816,-3.4275459655407445,6.4174829801576925,1.2496177392377226,-2.457789939136899,0.7794633428239944
-6.730444328587196,0.0,6.4544421125782676e-21,-5.928671437381619,0.0,0.0,-0.659209180027929,-6.052652993525133,19.9738119869656,-1.9839851928054457,11.992615851444025,-10.55347026644488,1.2395151311096355,1.2806125384411047,-0.0001354689488927282,-1.1148423416595126,-0.7964157565075514,0.0005044847577639637,13.415857418179728,6.816547130706069,13.371453749240846,14.001956732398714,-6.365436603950682,-9.100611542837223,-5.88772350022261,10.904041465024541,1.5975813712462896,-4.25949069063323,-10.630391908703821,4.173487574791885,10.357600667489319,0.012060109973892083,-95.78536960107726,16.340740357793752,-0.0007941121168242132,89.9646452513971,-8.63075070632942,-10.52126718272859,-0.004013383613538902,-12.773917732228835,1.2922773998996033,0.004294870129815776,2.8916430486793114,-1.6766417915829357,7.4584677835547,-18.2864692555265,-4.266942830111864,6.347581482209894,1.9040422284838119,-2.3515731736335974,1.1404305791945286
-6.679867822751235,0.0,-2.94970532391945e-19,-4.827142427341777,0.0,0.0,-0.2592001888051969,-6.972505003945534,21.058549007402483,-1.883381895083846,12.335288040981627,-11.852073113328451,0.899282876058652,1.4888340807217082,2.115277402416271e-06,-2.344137311723692,-0.9820155643764863,-0.0004259836092766918,13.375039499098554,7.067838268350755,12.836485612452693,13.901047209494017,-6.330427456235785,-9.844617997460869,-5.404505164788825,11.205661385618527,-0.2153646646660889,-4.30633277461919,-10.528447745304309,4.425201750786684,9.849324687071903,0.005805915485590139,-94.74580039007184,15.930574934156267,0.0010079888384056355,90.03594831517557,-8.19253135081376,-10.47693497778482,-0.0010617732033846219,-12.026160410926687,1.0472914452875235,-0.0018703323773527126,4.163410139790212,-2.2442813262585846,7.674826457203504,-17.022377786428954,-4.8743664325087295,6.344089674818574,2.1373542515202155,-2.284530486044479,1.2244858592771992
-7.8953788467214165,0.0,1.1971619413304964e-17,-7.192341502630919,0.0,0.0,-0.2952150013425408,-5.8854352253107605,21.757982765922346,-1.254261993838222,11.522644040269395,-13.223455625991749,0.921638302266099,1.4650047079388937,-4.852218095306336e-06,-3.5601319055510676,-1.1259848928295846,0.0005278746231791757,13.277679458328192,7.442600554870525,11.924341255197026,13.565859002827537,-6.266936594438473,-9.316751161189318,-5.500707589123322,11.26664148189963,0.20658740310744528,-4.5932769657152415,-10.58773163340781,3.589789275651838,10.793581475470369,0.0023393135081714684,-90.18142798042557,15.649851468163693,0.0032055293988449336,94.70387661428053,-9.173147175308749,-9.41936556450265,-0.006680411554707804,-10.550560643377212,1.0888952039223998,0.002321090054114215,5.417482248695325,-2.857575999687152,8.61054761323488,-15.749311017092271,-5.783923979610286,6.997031991958054,2.671656665084229,-1.9360714710061562,1.135088819661694
-6.037422531125156,0.0,-3.748160375964964e-16,-4.829558242021154,0.0,0.0,-0.9418872997395371,-5.869652406959425,20.843101529369292,-1.6568702783503053,11.546728374681766,-13.143876488509235,1.1315621853762348,1.3416208074731235,2.8729988097057224e-05,-4.7591591328746015,-0.9846727689031078,-0.0002254187127632856,12.711316667350857,7.65726224363036,12.930591880493647,12.833884740676972,-6.837398171998934,-9.446086078105735,-4.644935035572456,10.911149215040371,1.467486089348546,-4.648211023630673,-11.046853716464064,3.0238556947940136,11.494843857611663,0.0059734452751583345,-88.40798909867118,16.11747150813023,0.0004863509846201025,92.97578932723673,-9.880938813373158,-9.23537917546448,0.002692005799673376,-11.191632262278244,2.282089558085259,0.0029066898155907846,6.59234265447476,-3.675022860103947,8.213634779171993,-14.622822840068551,-6.402851945341058,6.328303108796808,2.929844286522759,-1.555879626530018,1.5982898271087331
-4.357293674069041,0.0,2.443226771193791e-15,-3.517457838377534,0.0,0.0,-1.4195536665502146,-5.545235294266375,20.64940698576661,-1.7682315019153978,11.235291883592858,-13.684173637396645,1.2574549744777186,1.525639560814533,-3.9656136366182135e-05,-5.6366631883694165,-0.7302021369772715,-0.0003110329308410195,12.088899288572549,7.7330781362189995,12.94836246911687,11.485669938848469,-7.451186910698938,-9.917410197937075,-3.7416310979117076,10.950359393085186,2.6621833411330735,-4.714172828468274,-11.055965057646508,2.6414098028843216,11.69017590812789,0.0013246676926857086,-86.36723423039814,15.816829601128399,-0.002026810125198454,93.06291931081735,-8.710840281887178,-9.38855344842083,-0.0037300195195855562,-11.041946271850584,0.2864678206495791,0.0034609398110558836,6.68903235847709,-4.576465422637513,7.837420538113337,-14.579179320418376,-7.107113117773014,5.647237106941149,3.303439218567447,-1.4377562263854928,1.5866581376179523
