PaulMeinheit/Bachelor_Muay_Thai/processed_Data/N2/roundhouse/scaled/JointAngles/scaled0.csv
L_MTP_ANGLE,L_MTP_ANGLE,L_MTP_ANGLE,R_MTP_ANGLE,R_MTP_ANGLE,R_MTP_ANGLE,L_ANKLE_ANGLE,L_ANKLE_ANGLE,L_ANKLE_ANGLE,R_ANKLE_ANGLE,R_ANKLE_ANGLE,R_ANKLE_ANGLE,L_KNEE_ANGLE,L_KNEE_ANGLE,L_KNEE_ANGLE,R_KNEE_ANGLE,R_KNEE_ANGLE,R_KNEE_ANGLE,L_HIP_ANGLE,L_HIP_ANGLE,L_HIP_ANGLE,R_HIP_ANGLE,R_HIP_ANGLE,R_HIP_ANGLE,L_SHOULDER_ANGLE,L_SHOULDER_ANGLE,L_SHOULDER_ANGLE,R_SHOULDER_ANGLE,R_SHOULDER_ANGLE,R_SHOULDER_ANGLE,L_ELBOW_ANGLE,L_ELBOW_ANGLE,L_ELBOW_ANGLE,R_ELBOW_ANGLE,R_ELBOW_ANGLE,R_ELBOW_ANGLE,L_WRIST_ANGLE,L_WRIST_ANGLE,L_WRIST_ANGLE,R_WRIST_ANGLE,R_WRIST_ANGLE,R_WRIST_ANGLE,NECK_ANGLE,NECK_ANGLE,NECK_ANGLE,NECK_ANGLE_SHADOW,NECK_ANGLE_SHADOW,NECK_ANGLE_SHADOW,Trunk_Joint_Angle,Trunk_Joint_Angle,Trunk_Joint_Angle
X,Y,Z,X,Y,Z,X,Y,Z,X,Y,Z,X,Y,Z,X,Y,Z,X,Y,Z,X,Y,Z,X,Y,Z,X,Y,Z,X,Y,Z,X,Y,Z,X,Y,Z,X,Y,Z,X,Y,Z,X,Y,Z,X,Y,Z
-3.883540000000001,0.0,0.0,-1.7858300000000005,0.0,0.0,-1.6222300000000003,-7.553520000000001,13.614930000000001,7.614360000000001,10.633180000000001,-9.284720000000004,-12.99619,-0.7376800000000001,8.000000000000002e-05,-11.456070000000002,-2.146340000000001,-0.00012000000000000002,21.55083,19.930750000000003,9.17551,10.684410000000002,-2.77531,-10.707940000000002,7.578330000000002,15.56756,20.90978,-12.16209,-21.07684,-9.646430000000002,118.21903000000002,0.0020500000000000006,-92.10132,40.30431,0.00013000000000000002,98.67365000000001,-20.406000000000002,5.770160000000001,0.0008299999999999999,-12.003770000000001,-0.5917700000000002,0.0014500000000000001,17.21365,7.887760000000002,43.04462000000001,1.7040500000000003,-6.765420000000001,43.19873000000001,2.77723,3.347630000000001,2.8834800000000005
-4.019812243541582,0.0,0.0,-2.2265694974351096,0.0,0.0,-1.4924352614815481,-7.732512159903373,13.193712361092313,7.8130129247365865,10.067399235820725,-8.723341692028558,-12.753824867645873,-0.40723881575800086,0.00010276374369278859,-11.510001456290835,-2.116764309216471,-0.00010228281157427608,21.381020091994085,20.13836459572836,9.968681709721297,10.921525635720124,-2.54788632324824,-10.576732175341435,7.621440247093657,16.013838572471457,21.615008313417157,-12.99017366982026,-21.529665108540836,-10.912003173164134,119.11209680510201,-0.0029722147634787077,-91.86315890737421,40.45406877134924,0.0013663235144103483,98.1309126092236,-21.279779878120195,4.058293075031134,-0.004174691602816287,-12.585613496706978,-0.1372525843985486,-0.0010156681874573625,17.382126516040337,7.792110314272136,43.61935467362382,2.0141474341930143,-7.009185506611283,43.72588072536509,2.812718583845917,3.6188356036825367,2.650546589882453
-5.271269316030963,0.0,0.0,-2.4510228580563305,0.0,0.0,-0.9628019751445922,-8.51261812261197,13.61627035797577,7.8525296170656524,10.797203888155302,-8.805402206008068,-12.592720179603976,-0.43352538261976187,-0.00013921622972453608,-11.43438603656842,-2.3152994185590194,-8.402568004473436e-06,20.97283177612329,20.460544445535827,10.01930991379523,10.831772550045812,-2.2003324233862394,-10.266524519098557,8.068783929353584,16.651454556581847,22.26431501996421,-13.928848292740707,-22.062883962839827,-11.854414048022496,119.7170960738537,0.00032172926390821926,-91.89511659855353,40.24920013070836,-0.0013899733941634203,97.57476132716428,-21.805106449465296,1.9812484924065525,0.0009951584923368218,-13.411903950871897,-0.5755640583679793,0.002042372185308047,17.420832716951654,7.7221264914997905,44.33150684439505,2.2318760966024476,-7.262644266060307,44.393294153038,2.63657154530974,3.8586749967769576,2.4674063509890583
-5.560580863834281,0.0,0.0,-2.1422535575210153,0.0,0.0,-1.168855830379747,-9.228831084400186,14.798964186718365,7.6162220462270485,11.17523569749976,-9.267787758317738,-12.222426921761091,-0.5593538277160197,2.6371018166828328e-05,-11.469904808887378,-2.335185189333673,7.542746219453927e-05,20.322123071163762,20.92411908060498,9.848897320694109,10.6414417246261,-1.7384887742746442,-9.484535365026654,8.315828114097194,17.544149586953598,22.66329379006129,-14.697897443720368,-22.668899078479207,-12.661024167389186,120.53001336872352,0.009927798553853681,-96.08338506645629,39.533022992935095,0.003224671475711347,97.87777590682137,-23.32055064141624,-0.5007536227877422,0.004881913101437146,-14.022765749926755,-2.029070018248872,0.00022547260998169327,17.38831436289401,7.79476642557347,44.432227032412314,2.227609853140645,-7.218658913282645,44.509555434009876,2.2737111098103426,4.037051593810877,2.638203149013642
-5.183973504919508,0.0,0.0,-1.7868592934694925,0.0,0.0,-1.6155725333696591,-9.681649154959018,15.254695095660272,7.570166034240658,10.361555524827041,-9.172890318075371,-11.811694672225226,-0.5836943934759902,7.031897370717031e-05,-11.371964053573448,-2.154466890426587,4.278900981131497e-05,20.15700518010944,21.224148850992822,9.583610984235515,10.816285915579614,-1.5353244654375782,-9.460048839415377,8.363778089000297,18.319141439117907,22.996380918357076,-15.635726047379213,-23.173265086006825,-13.829484292953195,121.32386672395747,-0.003246130083125331,-98.01452396357276,39.698165560078664,0.004659657615657817,98.21837494837422,-23.753193220351804,-1.155658457445052,-0.000542064103566229,-14.14991793234491,-2.8687301864034622,0.0013340867354193569,17.395921834169723,8.010777772757505,44.75691486978162,2.3259174352079426,-7.093983483560118,44.87924656135083,2.3395356743795706,4.228678182179704,2.4704508542853914
-4.5821245030738496,0.0,0.0,-1.5091670071713414,0.0,0.0,-1.9468077237813466,-9.387748379340964,14.618269304105054,7.718636493991341,9.400402995177092,-8.733902945647305,-11.62734090651363,-0.516857595745828,6.630585248515976e-05,-11.276306592944534,-2.1742015237367665,-4.266572278435833e-05,20.140360064267792,21.53133684408143,9.847125311075239,10.903027678225337,-1.269561625181473,-9.861960049210236,8.181803569014754,19.099565115794732,23.93963064442266,-16.483381531749924,-23.534734369794467,-14.745022731948698,122.27684451261952,-0.0026579979506279002,-95.65748344968809,39.828624824234325,0.001347903837486863,98.35160792614559,-22.604660156510693,0.38926566469028856,0.0022075727169402946,-15.56927840097535,-3.3941215915361735,0.0007164276466006784,17.665485287762635,7.922430035387164,45.004780120264705,2.656763886940195,-7.2430001042962076,45.0950669492027,2.272761472965555,4.492426553533979,2.4306327471111366
-3.8049851644578605,0.0,0.0,-1.4687323587950383,0.0,0.0,-2.828814775302773,-8.604407985618415,14.132953257693872,7.762640569144355,9.592450663143977,-8.73041338035087,-11.579990257881898,-0.5828510560335707,-0.00029095148461125554,-11.369051147524527,-2.1329289995788314,-3.979122155356478e-05,20.115009941179174,21.75262452987123,10.22263623410553,11.012128642965733,-1.1591906833225751,-9.86912638399454,7.76909540057461,19.94678454677728,25.04517058654064,-17.058378309519618,-24.04811088404573,-15.317816729053698,123.46832013346017,-0.002359139398912004,-93.4724502833406,39.99021715926824,3.814322715894837e-05,99.02762655948753,-22.52962409510817,1.6301914721217992,-9.038681346493971e-05,-16.939772636741242,-2.4544550598898587,-0.0030397168781349853,17.574685665708966,7.674037131927532,45.58384015999522,2.708534353696044,-7.630884467974857,45.58952008005664,2.1578544098822703,4.647232903157099,2.483016170151564
-3.6244072905217473,0.0,0.0,-1.4472429542864294,0.0,0.0,-3.517033120334909,-8.514150254879027,14.614208473495493,7.645951251737529,10.128934639709781,-9.073903957073433,-11.61653624206755,-1.1374098375122472,0.0002423340390861243,-11.37643769710989,-2.0501564997439914,4.799192324451581e-05,20.156414515280915,22.280742192966315,9.937454965978581,10.981756627395548,-0.93889640878379,-9.700846272870512,7.736005536321224,20.699559941763653,26.094112242373406,-17.6253172250556,-24.628200097035972,-15.843621859732801,124.57175095330786,0.0023404736630210656,-91.87128920834363,40.71660344233378,-0.001196122746666536,99.15274105387836,-20.770660116898913,2.2720307599847285,-0.0006570248256366936,-16.57981390521061,-2.0082859854494286,-0.00013948637733728305,17.57195330014997,7.656182168337874,46.052730932278855,2.8284576859802244,-7.766892307716193,46.03827491495017,1.9529516846380963,4.8741122500320655,2.346718863265504
-4.159777738707313,0.0,0.0,-1.2719417608762795,0.0,0.0,-3.2995005129324437,-8.008882201561496,14.640431377103411,7.099197827725747,10.276851109614654,-8.659196093524939,-12.121992016628884,-1.661872889267596,0.00026101294280208437,-11.223786100902968,-2.1843161394189363,-8.540732395930357e-05,20.338347256185717,22.95519813505819,9.960143316008526,10.86287186714293,-0.5409558831432009,-9.92603676035366,7.8600151266574,21.6598616855814,26.76621989448014,-18.18860429521257,-25.508584528383434,-16.210314680875747,125.59833065317896,0.005039161753549494,-93.84779106969991,41.64237394534341,-0.0004492887513160858,99.89990796569818,-19.76495528549269,1.0293388685460303,0.0017848762023057305,-15.697537446692822,-0.18231196527595947,0.0059069373716720075,17.88658373486521,7.647344542225534,46.58509842884823,3.2839430201885955,-7.909088914416679,46.55124209098921,1.6005888335528018,5.415622701083955,2.402389348815565
-3.6966805777199547,0.0,0.0,-0.7475923351842908,0.0,0.0,-3.021645646471628,-7.723416140816331,13.683493379076806,6.738841952185256,10.940614444804886,-8.379540447184535,-12.774023296114397,-1.8127956168392871,-0.000578624122401983,-11.177097862826923,-2.434537819211554,2.4035105889271113e-05,20.873945163540988,23.502796787550473,10.127890046546234,11.101081429924063,-0.14239829044351154,-10.06834685213844,8.020855761733312,23.246385739919827,27.02338851801229,-18.163225961766628,-26.22498641342503,-16.356075924010653,126.4398850477377,-0.008842175355345509,-93.5141988750371,42.10368240636781,-0.00022186047234179577,99.84923971117135,-21.528661587889076,0.7095839564690435,-0.004266973252867946,-15.631119850042582,-0.7080926423992203,0.004706566592815321,18.55602350114714,7.388194693886541,46.87334675583159,4.021062734465825,-8.231785326119116,46.7647579628896,1.2932052408754666,5.85680850617536,2.8197378177020385
-4.008814788856958,0.0,0.0,-0.4658374792145041,0.0,0.0,-2.9993512353029304,-8.24669420478255,13.094485014434488,6.599276341261478,10.90710335210926,-8.016494727190798,-13.513440461191614,-1.9006303656471548,-1.4832420073124488e-05,-11.216044570116424,-2.2959972644649067,-5.4677441808008206e-05,21.4700258799429,23.714748312730983,10.415355365075563,11.25303194586339,-0.21959872086347973,-10.218019618251844,8.206194925358314,24.68788451121605,27.23527821215414,-17.743148438283768,-26.85941132719318,-15.62713751465933,127.49193946429439,0.006622987398864218,-94.37826969113391,42.19550422623428,0.0004238356602081798,98.58811287657808,-23.83295958576363,-0.7269290767204052,0.017756863313523597,-16.404177990585392,-2.447734943031427,-0.0017415365336855258,19.02544644386214,7.356227325985222,46.96241386494777,4.513162189084028,-8.2848812273888,46.84306155167296,0.9405802358454857,5.877239370616574,3.0498156405633963
-6.059464551804656,0.0,0.0,-2.041079511203177,0.0,0.0,-2.5235805467102286,-9.043676212511077,13.209857533926405,6.777707853940965,10.020930073057862,-8.605916486534278,-14.41432784719968,-2.409974303103673,0.0013536025836944682,-11.254053362946543,-1.9552992101138689,-4.086143946544713e-05,22.191705882044822,24.049689555021953,10.251421221273697,11.25690359770806,-0.2797786911256833,-9.947257822211382,8.725971970719312,26.005323368736455,27.136719103982106,-17.1932144421172,-27.488928166361582,-14.585982002100522,128.3792458589585,0.002710758386491367,-99.01108233208399,42.53439864425987,-7.304665103096288e-05,97.51284088472813,-24.599905216310106,-4.6372379331438,-0.00940825663318189,-16.0147817491586,-2.4225543843434045,-0.0010566083963516075,19.296311876465545,7.278414747069642,46.95514200733154,4.779233000956986,-8.35840941222782,46.816292442948416,0.5129058149804788,5.978145322032636,3.1143992643544536
-5.112941078856068,0.0,0.0,-2.184265013708948,0.0,0.0,-3.1825258216119305,-9.136625414964643,11.77004853465035,6.717466618632626,9.309372822452138,-8.699811936910486,-15.432247372924401,-2.6545439513709828,-0.0009029108784165358,-11.140746868052755,-1.8661843300174044,-9.192316415950849e-05,23.27379724460606,24.273039949453118,10.408320332386971,11.118409695696299,-0.32744680486284844,-10.524319385441817,9.583789978624887,27.37978507356356,26.649179959207203,-16.104209258875212,-27.81479209649558,-13.732552619933465,128.4652637553255,-0.0004701677381385503,-100.26953177863739,42.742661613457166,-0.0009957903739298889,97.928388247166,-22.692249914384707,-4.7813542569588,0.014597591855356674,-14.815308008977748,-2.2502518378652914,-0.005450606230719355,19.66848040847364,6.677234347167087,46.69172395093652,5.058143192810311,-8.874529325186286,46.407446397835734,0.016643009718514575,6.160991568818719,3.294413911142885
-1.953937062345709,0.0,0.0,-0.4960003596381061,0.0,0.0,-4.938455146468291,-8.725298241431565,7.973123174873077,5.995111213951044,9.058408834723005,-7.454158115361527,-16.474083401058724,-2.3763895091839156,-0.0017839953117196358,-10.82233263781422,-2.0235120657188372,2.4812194714806277e-06,24.424303548284964,24.634772936603227,12.717200867568327,11.1618147531563,-0.3223284676190369,-12.061677040511816,10.7454171033078,28.84859707851093,25.769484578431438,-14.288929411135642,-28.264011850812892,-12.288659444933796,127.9900404914841,0.006228291783218014,-96.53133768391133,42.835708177339825,0.0008491073311225812,98.36543884065111,-23.726140466125177,-1.4793654224082025,-0.003676442119369746,-13.404069074093284,-2.9722414990895514,0.0009864406924571974,20.450524872314144,6.1669030438317805,46.33937458063974,5.726021280499645,-9.279564862636146,45.93356614077273,-0.42803094797768637,6.4509642758158,3.6975436709563057
-2.706028373338225,0.0,0.0,-0.7765232059087759,0.0,0.0,-5.350028524061875,-8.9472807342963,6.999113160926232,6.235284975492011,9.60400968845935,-8.337394599161094,-17.62109691032944,-2.9242408271343203,0.0009718965084327903,-10.457503207174216,-1.9342095802678487,0.0002361591171700721,25.52495234589659,24.760884984457345,12.760306493135866,10.812928014691453,-0.5267266653627717,-12.60259989926378,11.823909839494606,30.188883140895776,25.38886108143233,-11.406839934165673,-28.453629813319605,-10.238274223256148,127.12231567278783,-0.012272320112750092,-96.81414496371129,41.75265763726414,0.0015115484910484375,99.1914215191496,-26.09451194041452,-0.7525156095995061,0.012178655034351995,-13.925612135197635,-3.6770035155698064,0.003278565494111357,21.41842087976276,5.679650699661301,45.52664568632878,6.459806036948563,-9.543511033287999,45.0149743586281,-0.9729473274860515,6.585717346028228,3.815240808209167
-3.9322067219936003,0.0,0.0,-1.2624342314868862,0.0,0.0,-5.2787465023354825,-9.679602014713707,7.603244742458694,6.784828595784572,10.116812183143594,-10.261340426866914,-19.54981902513895,-3.967004109960812,0.0006673724564024571,-10.662276117507007,-1.732442187624059,-0.0002747818572330027,26.871847106514306,25.15014691312871,11.605024266678852,10.636376656929137,-0.6625634056987184,-12.154114009107039,12.564056150944888,31.624439334860398,26.103403387000704,-8.167253769938524,-28.48468234941935,-7.277803018017968,125.93295219921048,-0.0006783816611702164,-98.642181868743,41.71076457561041,-0.009131368031933495,101.50507799185232,-24.65220931964295,-1.0547442133975802,0.0025484421997646455,-14.709826355063091,-2.6320320896363323,-0.002592768433994777,22.475057905355392,5.478820626217165,45.596967521311306,7.525977984569915,-9.755581250126445,45.030992617935155,-2.1517697376760143,6.743706337674452,4.03561091215386
-3.9198529043134065,0.0,0.0,-0.5528927165166363,0.0,0.0,-5.468642691447978,-9.190524219626456,6.7181003772250545,6.566128081754405,9.891378853880626,-11.301902014300474,-21.91531671947089,-4.788432577220679,-0.0008226687949530795,-10.88979790928373,-1.6049220829466373,-0.00011036803529822779,28.039719324985533,26.237862525954437,12.06199114423161,10.346890109831401,-0.3755683038530186,-11.799795021741584,13.241188944634523,33.84877055142035,26.27207786472203,-4.595301760241353,-28.864567721685766,-2.5290420743740163,124.03112968741173,0.021158633019042198,-95.3035174959054,42.06689136909181,-0.0018280651184236184,100.6618388167811,-22.314572551976124,-1.0248309522065724,0.009630469766602522,-14.33537790834161,-1.7369011402909773,0.00038333630257134327,23.051480970718046,5.27085703952324,45.598378399000644,8.093453261003337,-9.956863615705448,44.97790890614018,-3.4519704924569066,7.1352487161822635,4.933295832000047
-4.111874818364862,0.0,0.0,-0.4982261585000421,0.0,0.0,-5.416122317810963,-7.8490421981145095,4.940528302549382,6.494646195816188,9.822734906310199,-11.096328480958876,-23.791721832264344,-5.738655557159975,0.000910871004070584,-10.534254820725288,-1.5643487759402332,2.487200591145112e-05,29.106001993771134,27.002969547533894,12.823779567651533,9.674086303622644,-0.2854354596983804,-12.762511621173097,14.043566715240289,35.64380676714387,25.262896495721527,-1.4921885899116174,-28.46549654396864,1.5610745782159228,121.24049603476686,-0.005917183634104255,-93.83535262222728,41.68704046352029,0.0026287080920879336,99.12727656819267,-21.0340056375119,-1.7248248495784584,0.010687327651078757,-13.142705814121767,-2.7122531724588557,-0.00021928283477432012,23.61168642104908,4.897222172790262,45.010767781976114,8.484084863600621,-10.165787103701705,44.305347014924955,-4.055233189654648,7.374827571440076,5.490052322875604
-4.0925500499921075,0.0,0.0,-0.6568638018926709,0.0,0.0,-4.745909507211255,-8.105759756682364,4.2594049836608745,6.739238513502008,9.858868087686302,-11.61281756936261,-25.35195686155985,-6.802907368176779,-0.0011169734526390793,-9.988900734117239,-1.387562154477689,8.869696543168928e-05,29.61687957379798,27.244709959776262,13.087087592653148,8.313854580238903,-0.4769699406850979,-13.429708037447615,15.07496324404873,36.896767166024645,23.515951572959462,1.39634670423109,-27.480075149993404,4.396644268471147,116.85830643922317,-0.020669997714767557,-94.80048353549695,41.02423109128427,0.0026038061739913857,100.12867278812176,-18.75901468317871,-0.7591212499815667,0.02866882857000401,-13.146780564793481,-3.188014461532849,-0.0007712946878822522,23.747765106821618,4.286778860567055,43.86893830271682,8.299730214925798,-10.45452219255659,43.02584210526443,-4.94888457497928,7.6247810746205635,6.001356383446818
-3.2987244526162898,0.0,0.0,-0.5326609633681408,0.0,0.0,-3.661333928570044,-6.833628819623842,4.693274419049546,6.684127876590402,9.817930957471948,-12.45296065844633,-27.09661678605552,-7.559842001128923,0.0005998049252215833,-9.364943016934554,-1.2062376505271806,6.0308429353365265e-06,30.495939015020152,27.15645561028892,13.617510143438524,6.997673953172765,-0.8427170690164492,-14.006318647789533,15.423266381279399,38.24230646507929,21.881807387824463,4.350567545992653,-26.527669634643654,7.440185663887737,110.71930624504274,0.022650185908308952,-95.1676889982592,41.28953212253701,0.0017882569254795394,99.56185058480973,-16.407492678475478,1.1929041012013928,0.0014251886715859158,-12.427988377628665,-2.2307794430924806,0.0025686989276048895,23.336093741892043,3.663804962339903,43.19425560605523,7.6877254820979575,-10.874291592102935,42.196099804396404,-5.259223312381703,7.954496556727899,6.328136523234643
-2.9996186764910493,0.0,0.0,-0.3514653196686028,0.0,0.0,-2.4660387442428733,-5.065918049397106,7.726756600475314,7.03295440646672,9.632876211525877,-13.628355373450686,-28.96972906143552,-8.433429770778591,0.0019811829818344585,-8.882904573011196,-1.0479475288076296,8.25751037812564e-06,31.701161970320246,27.147494939236747,13.82835127952261,6.010119505971172,-1.1033048575949587,-14.100108939567303,14.319589394708155,39.860309196303625,21.252620672822943,7.684151379874506,-24.99286615580239,10.260035224862214,104.01007025152734,-0.03315186770133081,-94.81231435551743,41.948342173182304,0.0004648666552337145,97.89277526319033,-15.558770885182762,1.2553727431568746,0.0035071820535497473,-11.201840717238518,-2.0348910952647827,-0.0016905211995663972,22.867647309628442,3.3838095601476827,43.13218315104957,7.189175629761007,-11.127155485943062,42.058318406400716,-5.094305128129912,8.087711113821985,6.422429728129719
-2.3015438129053623,0.0,0.0,-1.21737083551559,0.0,0.0,-1.6664716583670631,-4.129473661102926,12.780557629657457,7.85123775886512,9.542940180730247,-14.217190310107117,-30.182717375134658,-8.463982948875945,-0.001771343679027676,-8.62767173616004,-1.0931645306376818,-2.462100549500701e-05,32.326593789926264,26.83565592986382,14.989335986889238,4.820944278968627,-1.3564900993012186,-14.783638922271283,13.461953154804727,40.96235083891494,20.597657580585167,10.881063954368347,-23.107090328022725,13.193535368478988,95.71428579696315,0.0008703594156815185,-93.77333424611345,42.621655843233064,-0.003794277224751169,97.62513769971505,-14.039399913706598,4.1018151635344156,0.023230471876189263,-10.86333923472234,-3.4564521217756825,-0.00341557549093546,22.543369917685904,3.15638482530888,42.7710794201449,6.763476935981805,-11.248330889737682,41.641728307406495,-5.031749403317585,8.050352458679596,6.925207097372362
-1.7317554856044088,0.0,0.0,-1.7142229048787234,0.0,0.0,-1.1739771921868418,-3.872954501957353,16.781465517801816,8.460616909146694,9.219327077213563,-14.884289238218352,-30.523607268319974,-7.894097624311449,0.00023026340815401918,-8.15050969146208,-1.0538997213327692,0.00012080002077305622,32.45534577505462,26.3748441817813,16.697447713531187,3.126300181647666,-1.5421785611045917,-15.694577430689296,13.91376886493699,41.638648023310004,18.1831841637774,13.854388839744814,-20.642191934808537,16.19482909306419,86.05919131078679,0.16509195275344815,-90.13050815915813,44.11981300188757,0.011579641106765673,97.65322682151549,-13.616120895417303,4.993978692515652,0.0037246831155205167,-11.727049099283295,-4.23220137680493,-0.0008054240780381495,22.673897949437915,2.680015388299805,41.21352755374556,6.49074463397862,-11.277982193924053,39.98322497850508,-4.969308607832402,7.970339893056034,7.57994944045155
-0.9612766426032553,0.0,0.0,-1.0329854086229528,0.0,0.0,-0.7343349890842744,-2.810743329800737,20.16632908705147,8.88909182961235,9.31476645352941,-15.398494344537516,-30.581926306254505,-7.709357803451597,0.00016336218304887574,-7.808130155925238,-0.9659690138627858,-0.00010863567314012865,33.19352220681698,26.405752190482765,17.12059033713528,1.868712436338796,-1.2693980842033765,-16.980554733336813,14.374944274738256,41.9647654591046,16.069364080964732,16.713969378280275,-17.841445467370896,18.498397498534462,75.11072017188069,-0.12457377164060111,-91.08964668753423,46.32281547844847,-0.01821618050500696,97.9666302727344,-13.383087188877285,3.62205384790366,-0.001952185922901438,-12.610590766009354,-4.004270820142895,0.009055866292129011,22.61787255639785,1.8630813196245999,39.30167294453041,5.942856177668995,-11.521202550727036,37.87829046037524,-4.31113569443262,8.343725308390104,8.256033370459841
0.23772593958600424,0.0,0.0,-0.8993532352582652,0.0,0.0,-0.8040807588835417,-2.1571101003886426,23.080808770378745,9.164047975998624,9.401315016149578,-16.139725818540775,-30.413792360377712,-7.57869795297415,-2.1632754738857033e-05,-7.520072034453406,-0.819718987550841,0.00012184341284493115,33.821151550701465,26.69479245977608,17.543535895692038,0.8427367558813126,-0.9283463857930158,-17.781441865027322,12.35777413605932,42.148362610104165,14.963943261623882,19.36625280879925,-15.234599528423388,21.04350064750131,64.88474294657769,-0.08102889301314542,-101.74597519789934,49.38743266196655,-0.005220338998787867,99.7987561696382,-13.570754344895134,1.8917430240907007,0.012955678444868127,-10.771112798720615,-3.1913297664176237,0.0025429175692869782,22.580689760508665,1.427222865016083,39.20981684773718,5.858821300231869,-11.912296785697944,37.660575854996175,-3.4562422333958693,8.994900907994582,8.851780133751287
1.0724459239004291,0.0,0.0,-1.697488483936102,0.0,0.0,-1.8318416491457272,-1.8603635542801924,26.057291003178523,9.715353611971942,9.349268476831872,-16.882316612120924,-29.935204648220587,-7.459120991640254,-0.0001627690725460135,-6.942523325732376,-0.8092709044705833,-0.00011063324300546335,34.156384116803856,26.370440631149584,17.956993433219104,-0.498774054468125,-0.7031218629624931,-18.45035796683025,9.635546818255447,41.89303585578628,15.790941973364145,21.772384401287592,-12.189797056630384,23.050445347085983,54.77671135218516,0.04835204045905513,-107.96924883173438,52.61227257844908,0.02205079161292896,97.97544267628741,-9.25581866610902,7.170822976442595,0.1494547776275126,-8.991585939739101,-4.6447557555848915,-0.003765227686381242,22.552455791084626,1.505061728712963,39.33985346735516,5.864850868601647,-11.875112670606935,37.81069426403843,-2.645509519388028,8.989270340552315,9.334222004537628
0.7461698491326029,0.0,0.0,-1.3461567396691356,0.0,0.0,-2.912744700244019,-2.473157466290199,26.951957580956428,10.080531129232677,8.907760669627157,-18.32648452997372,-30.65543478508482,-7.487026880393331,0.0015602607382276218,-5.8440950980360835,-0.8790368117808138,-0.0002584194187357814,34.56931099932202,26.441609662898774,18.70957222761413,-2.8992945725669332,0.14319942116451448,-18.79360573377362,7.559650524813421,40.76865651178337,15.659200943025189,24.273935061872375,-9.209177799031481,24.985564078198593,47.735588319630935,0.006065124999284309,-110.56615189626366,55.89749800742579,-0.007753651348735286,97.50191445990967,-6.717763393927148,7.5897537826675965,0.013824853629036992,-12.923157132186228,-2.650671998578837,-0.07754302051756867,21.975963051927113,1.6827574570908608,37.66694933678377,4.925363747338256,-11.219774161300103,36.22996212848112,-2.0830300803907,8.760923216906171,9.944707467092261
0.2940191285034777,0.0,0.0,0.3482033415059918,0.0,0.0,-4.041852353037728,-3.7101867517516234,25.30877593050905,9.755974136836675,8.860481862818908,-18.79538530713799,-32.530366865502096,-7.464576858925847,-0.0003756566350778665,-5.252100123148314,-0.7996214817242042,0.00023837751365822865,35.09764121143312,26.91388246266173,20.446680823406037,-4.975342827209849,0.7143285100328521,-19.45412483044394,3.434519803108469,38.27182531162892,16.64985537672862,26.825219090785552,-7.023468100028798,26.43355214045074,45.81314703298585,0.017091025116641016,-110.04566793104979,59.09220034407659,-0.015767869042750418,99.44003582179961,-8.041543956990992,0.7079488032698936,0.004873018813122043,-14.93328405661109,-1.0735565121921764,-0.00376421172267986,21.553700381254945,1.6792838916532036,35.784384365553514,4.10019096584308,-10.664965865588435,34.39852360308023,-1.0624074995460548,8.70309264017403,10.850217552942748
-0.2946504088644721,0.0,0.0,1.0396229717292846,0.0,0.0,-3.288788342407686,-3.4873453057802166,23.792562577958837,9.862582492605112,9.130521707156536,-19.040552116071023,-34.218994000203054,-6.782504367083835,-0.0018224423940082978,-5.423627872770318,-0.3933150900932923,0.0008525792691222086,35.768124760868616,26.056001111976148,21.435688189697835,-6.471041726076709,0.4429590863697812,-20.7995910339446,-0.9112902938200883,35.11686900079552,19.31947952856279,28.362867751471352,-6.120763721492617,26.93152323139615,44.79796247242674,-0.005284788740186428,-104.07457069496665,63.00032871558751,0.007061001763051748,100.32740264785353,-8.192438355181892,-1.0546669150495125,-0.011079105168484277,-12.208000251323663,0.5453948763803225,0.005102761310123738,20.95029660559726,1.5055812775706845,33.415570539670696,3.0076793242136195,-10.11050602078942,32.05143489739014,0.8177955644965182,8.272811333806816,11.959267768498103
0.5954165881317168,0.0,0.0,2.0211629281911154,0.0,0.0,-1.0441216644434148,-2.3331506238860733,23.99314175160541,10.437448434678613,10.056580053843735,-20.792985065113132,-35.81297178942552,-6.429841735355431,0.001024941537464907,-6.354761024615691,0.4407099433313328,-0.00012122172812644999,36.037500023045375,24.270253771647788,20.238341528391125,-8.527457407409084,-0.2628804878796315,-20.900732496380083,-4.556447116886064,32.13188764900902,19.134163095102874,29.165236956325842,-6.33805410091171,27.5925727792865,46.80287049525267,-0.02927360856543581,-97.12145345820205,65.82078539571611,0.006731980904595521,98.79189927298157,-8.446863671907627,-1.1959446920057126,0.003845104401928625,-13.394247185964453,0.8835855960763482,0.001237450153857823,19.953984274535934,1.4454613825286773,29.195827861481206,1.2309090259694253,-8.840166929477993,27.972707119775116,2.7387220423221743,7.458443911002489,13.270307127260402
1.8010791961396782,0.0,0.0,4.130090977560527,0.0,0.0,1.3843643906575462,-1.1498544684165317,23.45463071082246,10.259709637633526,10.786642118666755,-21.747481885533368,-37.08917242052826,-6.157871690289996,-0.0004904060404268719,-9.011128922425632,1.273743218347953,5.5002492896169165e-05,36.21074435460161,22.578461778334372,18.723119663265898,-9.776895569570355,-0.7567385242120787,-20.855309968127393,-8.629523402801851,30.24811936174477,16.931587153614323,29.16101632213027,-7.273172677632493,26.47905979042084,50.71683845681957,0.062175057176762624,-99.74197028296905,67.25296443418914,-0.0010686763285038898,97.42732583354135,-10.501470153762009,-4.2520937487451675,0.020677131359559977,-15.071968814112811,1.6273767011901408,0.0033357978544838046,19.48166298674769,1.34092335638394,23.955703485013228,-0.07245647713212285,-7.22032058108679,22.940224319685903,4.8163894464128445,6.869358859760648,14.594727263261111
2.2617449753260934,0.0,0.0,6.899713386268326,0.0,0.0,4.2147875316135295,-0.8478373778760074,22.136214195701974,7.159169952957663,12.594583387656275,-19.905533100523623,-37.41807584587894,-5.835887547401219,0.00014337162570581677,-13.385678867199376,1.998097770360222,0.0018588255983810792,35.77646755063566,20.98085552911768,16.728130822009543,-10.202691842442471,-1.187560908717566,-21.872839414635447,-12.038339917945393,28.957002830335163,16.384796030943573,29.430263832541637,-9.25556134981467,25.3313606747411,53.87675037476004,-0.01504509992657968,-102.91614388232469,66.91634939782872,-0.0008888613177602952,95.37799748353558,-10.187379204220433,-4.468410161122016,0.003630596046504201,-15.428615040124933,3.5321529810743573,0.0016143310355130063,18.258935931535373,1.680144428129116,18.956524921080625,-1.9263300545816284,-5.201861204651916,18.328650633411378,6.801495086765593,6.469152047537014,15.220702194193624
2.450937867788837,0.0,0.0,11.195807456237361,0.0,0.0,6.475051334816202,-0.6868497425255345,20.907722554557697,-0.99553952434066,14.765200060329702,-14.948756012608515,-37.298117545941096,-5.611769763603894,-2.190212805676912e-05,-19.44265216451561,2.865039296018706,0.0029118671263631845,34.649352739722545,19.917563143161363,14.422453809878512,-9.96525238149936,-2.1432003890466693,-22.184920821585003,-14.895577980540377,27.320116446352902,17.521878737007953,29.39344414170174,-11.774704976955523,23.81771499841734,56.89551669165501,-0.022895443149364404,-100.09923064732307,64.44535510583158,0.0005630085082665879,94.58464113239853,-6.258300116844103,-4.069963058247487,-0.006385147982089085,-14.293713113576036,3.3002074723207917,-0.010424359579197226,15.960702354848983,1.7119037505700774,13.951533338265406,-4.725720902321482,-3.424342805022029,13.638686819926704,8.681874656758803,6.694621664130166,15.925784736958908
1.8862811008478066,0.0,0.0,8.232347037491895,0.0,0.0,7.675152520401756,0.027800273636095822,19.37705842899537,-12.37859178745974,14.591640419740262,-6.386239763370569,-37.15522117981731,-4.96408320110485,0.0001425982580284864,-26.775807073114585,4.184390674148409,-0.0031721943839504783,32.87599777222431,18.47935565788556,12.644241173276948,-9.666682463996787,-4.215024254272473,-21.229823234952942,-16.673421486518933,25.997008438790548,17.953021968546583,27.976470732187995,-14.989476643132305,22.03929200193747,59.14506486272614,0.004472101589206006,-97.47397314681766,60.53632843376877,0.010421215694453544,94.38188938727872,-4.3418433856818295,-5.007478189460602,0.006607763908293762,-12.434169726595522,4.0299612942479595,-0.001960984619413382,13.977610745887777,1.0514239274873793,8.451557414489024,-7.099972514941971,-2.080106257766824,8.26011932770634,10.101291727465613,7.010633396635094,16.322968475230955
3.3427588751784114,0.0,0.0,-5.575828633459954,0.0,0.0,8.344406854694089,0.06029269544316326,17.997963032871127,-23.940834473230744,9.972691478965586,3.8222516950778074,-37.4848263596066,-5.41725875225331,0.0018074715995375172,-35.96369459668625,5.825910717410718,-0.011229691741383946,31.183450131291547,17.63855200166508,9.356425852471794,-8.495892979724767,-6.2647619798706184,-18.58909375925712,-17.213693776203517,25.70214145263147,16.805801922290026,26.24461915569687,-18.15126000779578,20.259735016895213,62.641103683258336,0.042656965093215614,-98.03991713467504,54.71326620052968,0.014082812062224524,95.47972981972259,-4.98627840242963,-8.330688192769848,0.011406519752943883,-11.702950845412543,5.485105228369528,-0.0109695210245076,12.337737528623087,0.8640069001692885,3.002452785131684,-8.937437878078612,-0.28537159450100574,3.111138726364436,10.785441550536964,7.318260394783513,15.968929249001553
4.7414393489604105,0.0,0.0,-22.41089930965202,0.0,0.0,9.606031565716433,-0.40557683740162026,16.61545857307585,-34.36579306150643,3.2989985424312294,12.554298714369523,-37.70418746648885,-6.30940960460014,-0.0003928390556333372,-48.65236672218344,6.7197581304657446,0.0107415181393346,29.24606828737772,17.98401368690487,5.813308956536522,-5.75570141007425,-8.030027844450515,-16.27214769949122,-16.828316656912484,26.03765559664093,15.715899504126488,24.031786802605918,-21.156659003157383,16.11242722443354,67.57572183325756,-0.03397673851521747,-97.07737667749178,46.3804599944689,-0.07330707558453434,94.12149563489345,-2.906601743425375,-8.154609041424791,0.02573986364066738,-10.88021830183108,1.689082289195641,0.007200708019194541,11.2877658642651,0.8206545314920423,-2.4370637622623748,-10.006811126422845,1.6498960899696216,-1.9726231567707644,10.85891356960865,8.096357039295176,15.734019961334964
5.3535643874896195,0.0,0.0,-30.508639329789556,0.0,0.0,10.45343218317074,-0.4027630835003767,14.035482099124046,-41.139355833447226,-1.4192382047010825,15.803485058599655,-37.62723976668868,-6.148848021813068,-0.0003779351995501313,-62.842297011003936,7.125804650550904,-0.03069675095591077,27.551503543992105,18.249605053387466,3.2818369366122044,-2.0208369418812966,-9.743963354646212,-14.27921747200409,-15.427569972500075,26.906722921148564,13.771208349725171,20.271356560473993,-23.965897456158153,9.952094988456555,72.20734583011107,-0.0222947519584005,-91.82407066674207,38.794516610248955,0.03980450991891432,94.59362813765641,0.08353964532069541,-6.078105227585542,-0.0009972682034669724,-11.073084345362311,-0.5223675633749635,0.006573907381813754,10.401598813228503,0.9697338006746884,-7.673741384410324,-10.749790843019479,3.6854150890755446,-6.804609435921612,10.827978555536324,9.06416800013183,14.79513881961085
6.143594460268026,0.0,0.0,-33.19394712682837,0.0,0.0,10.734548028330966,0.4050009885006583,10.629358587010255,-45.09783362656545,-1.0840794798357398,10.429031975701236,-37.58931937810916,-6.059028992519337,3.343299513043938e-07,-76.53039533350527,6.417187589059199,0.05914493276548613,25.80674213889932,19.221459997028905,1.842999862517804,2.19931864426523,-11.444848865516999,-12.647397886812932,-12.393714249077686,28.545709731563264,9.703037652821976,15.460694150479954,-26.26673157187842,3.8017655824080947,75.60728479025457,0.009638046137684987,-89.4798956665434,32.171024083641754,0.028046756522587823,99.38132517430878,0.7457209722167332,-4.980838799828375,-0.011735978112490138,-10.637121103641181,0.7596427962720811,-0.0001118568088713706,9.177973773059852,1.1692578317127234,-11.798569015792197,-11.75175815159879,5.352838531360446,-10.59379758164927,10.316910878356646,10.10695271320258,12.888012183551103
6.042328495939987,0.0,0.0,-34.56977874536627,0.0,0.0,10.991383990466435,-0.060522894808609624,6.7605276802280025,-47.994162960391435,0.7421490156611015,3.5101567145698267,-37.25544741405659,-5.592082977339191,0.0014071393414052738,-89.35520592681787,5.073903173042597,-0.06421711144125465,23.742870072801505,19.847810583502884,2.46369780600795,7.730823254015973,-15.581524011117812,-10.00658145868349,-8.485094263854183,30.501724980359935,4.385123400848321,10.366692971643495,-28.144627789581172,-0.7644691237369479,78.51676580268953,0.024664466723947207,-91.26297426264176,25.813975447386685,-0.011509609671776368,101.71872458729473,-2.3869061806917946,-4.9698452048624855,0.017791204087505674,-8.855722364024183,0.9062995475531751,-0.006739381332568956,7.918782196565163,1.4024351616701591,-14.169889651450605,-12.844370659550243,6.414499009861508,-12.737625540720298,9.675389763378933,10.152579459178257,10.569788505268741
6.424921356871287,0.0,0.0,-37.61720467813361,0.0,0.0,10.758348966340076,-0.6130028936998717,3.81307476600305,-46.04570303582564,-3.2322094955559133,1.251302955355584,-36.34310879361531,-5.674019583282231,-0.002179878789759996,-101.34786528723862,4.070639556909016,0.015581127749577688,21.61812483586247,19.717250507883236,3.0055436722779687,15.26380543234788,-21.59772648647424,-5.846088238626974,-4.525868613367638,32.34329563400745,-0.2809702210262738,5.437884792073105,-29.319216868221865,-6.054601340548231,81.51859746323404,-0.017971088144081073,-93.53262767479671,19.73890579411779,-0.010453848427061551,102.7162401652113,-4.601663444241347,-6.840852663637332,-0.001179875214945365,-7.984253414751323,1.072280553465266,-0.00611286094170382,7.396405383926759,1.9488369938694223,-14.950587461285846,-13.32555479375239,7.201871902563522,-13.277696322624362,8.972996746978556,9.17707920918043,7.505828096065111
6.314685227445417,0.0,0.0,-50.27606981302377,0.0,0.0,11.062506974316095,-0.8459567705137446,1.211114373359248,-42.1829216544455,-4.3097164045451075,-1.1436458302179722,-35.78153159725514,-6.040548977985988,3.186718897416837e-05,-110.04688835248166,-1.741489882779686,0.04204891946674766,18.355513682738195,21.346118490528074,4.3639596094446755,24.00726573638202,-25.969703854928696,-3.7076953532962884,0.12100968955143954,35.03592046468611,-5.69964014688261,0.7689591052310161,-29.885269382709673,-13.336178286140344,84.49189646489558,-0.009047818170183988,-93.68672669072674,14.683802164129496,-0.0057046385838827205,102.20807298940056,-2.753228558535596,-7.419094562734654,-0.009967137600376466,-5.621825627423392,1.1119400464536922,-0.004439027253995157,6.9058341074718825,2.8632722973080895,-14.202217871953904,-13.91937350565848,7.79165423604881,-12.24545258080557,6.785073687704634,9.365782542065567,4.2934198257886615
6.588150083943283,0.0,0.0,-70.07931892881679,0.0,0.0,10.755133390432169,-2.465270893915982,-0.31347211986669543,-39.02850106681502,-0.6245094231886816,-5.826232265747796,-35.60395147761517,-6.28503060430986,0.00023109277316492118,-114.38212963481178,-7.5250565733442665,-0.013617362936202054,15.268596086976517,23.577645558309836,5.527817567998456,33.951251950076525,-28.5801142483446,-0.3569692366324108,4.470058637978232,38.415902728333094,-12.084216626296547,-4.658672428599757,-30.574673147919484,-19.24666601511593,87.0099763671979,0.029370326713743587,-99.17705801009926,11.370155643890929,0.013369069532303303,102.34364773713844,0.1687449881883283,-5.543662810781838,0.011125805447517826,-4.413091004252901,1.7614870114568575,-0.00833556937977154,6.162667141570757,3.7029788773303993,-13.273333414881941,-14.773572376064665,8.24568242977377,-11.068187752265901,4.509264100224549,10.287546706895416,0.9477843461063199
7.044728966772066,0.0,0.0,-72.57630720704786,0.0,0.0,9.539452391175589,-4.001850000288179,-1.342853537948324,-37.89111574404463,2.242140706884362,-9.197171837933656,-34.43850370847635,-7.1330841197115555,-0.0017778688571300954,-115.85615078603871,-12.927116711549251,-0.01145852916106636,10.679012487757033,26.484177264294953,5.384080875364374,43.039474578029676,-30.327065090880385,0.5842070855318401,9.561452914696465,41.75996189227217,-19.527408625961247,-10.573687968777413,-31.392930763312783,-22.33470957171112,88.3200269954356,-0.005840700632039357,-102.11929770117202,9.6106014510364,0.0030158485094153985,103.31507496595233,-0.4227884920820892,-0.6222439863330431,-0.02454035408855119,-5.607160904587648,6.148161186879839,0.006393479464084019,6.194469958130153,4.067331373700773,-12.340869845028795,-14.823444280986683,8.252832435654726,-10.058659181785032,0.7559521117587154,12.005852691078669,-3.0033531298243035
5.788081023977897,0.0,0.0,-69.64936339208538,0.0,0.0,8.34596646089745,-4.66935397967789,-2.139329041487365,-39.25939728011292,0.5778402378235045,-10.18663075086539,-32.99201281194755,-7.904684739708669,-0.0008890113058071543,-112.86681445291121,-15.862503585335157,0.0062606933690427975,6.18299524272347,30.820266604229968,4.188218452629912,51.05896771185804,-31.030879196901683,-0.07820903334884961,16.19979633872269,44.9940937626468,-28.104675234461837,-17.067232980163375,-32.50471770239489,-21.9765672696076,89.23273746159735,-0.006165252207173871,-100.15864958384076,8.614401703751565,-0.005672410940331405,101.60957596237057,-1.7763251777936269,1.0961685399584815,0.0070693675188829574,-4.425225991450822,12.489513277226969,0.030500930084190643,6.448586696871199,4.446113663742103,-10.8741039294269,-14.6758579799654,8.080367455502925,-8.542185336402131,-2.9669697665065073,15.173688394105211,-7.41866497097435
7.766059730455922,0.0,0.0,-76.58999204758821,0.0,0.0,6.296880351358274,-4.580310809846209,-2.155560264164518,-39.3173136914609,-2.4697237943505117,-8.344876957369284,-31.68060271306421,-7.376427130672131,0.0015486615166100557,-105.53013879889558,-15.131444525473103,0.008645828164051034,1.291450159397167,34.321464807872516,4.341427135130971,58.381148777661465,-30.415592187418078,1.8388880470121167,23.365312727184133,48.15590650118957,-38.024414888560464,-23.997692338996107,-33.37839872052345,-24.460938298371772,90.83208096395433,-0.021288761308116817,-95.10426074136814,6.447155147137248,0.05431349248336697,104.57237671862143,-4.45677180040064,-0.8664670443690214,0.028071736072457363,-3.570257019692825,10.915872878888141,-0.010621815093401776,5.764749267198576,4.984201677115728,-8.633195789174655,-15.492591330944357,7.774678008571278,-6.243414612450036,-6.610398676502005,17.99544951229822,-10.470399855655025
10.481369178583332,0.0,0.0,-81.68538578686163,0.0,0.0,4.169358376994246,-4.849727422652352,-1.8214158877737172,-40.65432270360824,-1.1833882459126954,-5.2276770056782835,-30.6675431709516,-5.948147987353275,0.0003070861432629353,-95.33072246544484,-14.662584015854003,-0.12120381542479583,-3.8993119385938195,36.0318267414747,3.8087105295265,64.61057402112134,-30.271470202825604,1.8428806304704064,30.95150814169834,49.42504294917684,-47.79095885452567,-30.835568853049185,-32.98824502137247,-24.056392983875536,91.28122061293539,0.0040379022716498306,-93.15091431131758,3.67610832402358,-0.06285541336302039,104.02080779472281,-4.038286832857492,-2.667375181016061,0.009332128827561114,-4.07282392631125,7.968844793293184,0.0015732218046636103,4.797024338463929,5.492458022310853,-6.457389917818202,-16.55635539634597,7.460836290156815,-4.020498659332509,-11.236775495487908,19.893141985483467,-12.95752715025715
8.2650566291158,0.0,0.0,-80.55141805093601,0.0,0.0,2.792912436491942,-5.347740413036911,-0.0847386985691676,-41.533431856614065,4.831789267678955,-6.415787222905503,-29.22978513089168,-5.59350051497448,-0.0022235908619082207,-82.66683462609318,-10.46332575546593,0.16212355524103814,-9.290050932778183,37.45385956462944,2.6073979689956333,69.77760250376521,-30.009186512354308,2.2665526063790447,36.69773408061602,50.74824795619125,-55.195344129742416,-35.8293478225221,-33.20665872177175,-15.529922250145637,91.40257593078725,-0.0011210583680628767,-93.83388788892196,-1.0704906570723927,-0.10853768994826844,93.74483235903529,-2.00628061929048,-4.158154528245256,-0.013772545383173681,-5.471319572241171,5.348845340023613,0.006633747774552011,4.015142129769458,6.141071180131098,-3.2027243969974943,-17.417504905650503,6.883364818363919,-0.7435163995535716,-15.491559729544802,21.41811906795305,-15.28755755233496
7.833630949566702,0.0,0.0,-73.32853168072296,0.0,0.0,0.30686722772838015,-6.137477799883076,2.3332171856455823,-41.892685053813096,9.897194976368015,-10.91324758188293,-27.69113246649353,-5.479838846065708,0.0005980120045220767,-67.06060139860767,-2.739513643664965,0.06845096448301774,-13.749944129387208,38.255094339515914,0.9173610063736706,72.82115945880743,-29.849639209106705,3.5624824616276554,42.747077984725,51.92714232564026,-62.41678323513972,-41.87000161766058,-33.3157149673956,-23.556572058363074,91.2710299950423,-0.002120233416564167,-93.11737743631404,-1.8746305694571408,-0.07821206575775493,94.61606749016599,0.9922893283437548,-6.598086665828781,0.004211874272718425,-6.653538449737909,5.572524504419917,-0.006589806475918369,3.207883341337774,6.566882638471994,0.17559251993603928,-18.222852982777134,6.052560073939708,2.558425421348552,-18.872296047260104,22.302997420393776,-18.12204738381207
9.605957960567848,0.0,0.0,-56.94835211841065,0.0,0.0,-2.5049993937458668,-6.076714263586781,3.626595365146123,-51.097552754606994,7.0750317654098005,-8.81418325421102,-26.640949324374255,-4.848583788582168,0.0007179156531945864,-49.92139447153587,-1.2154488772219343,-0.1647167032255464,-18.07133642683636,38.66749939431643,0.13954561129216164,74.13986246216861,-29.559694338065402,-3.0358566007777066,46.77709059933928,51.569385879536874,-67.38586437695035,-48.9965808553889,-32.49223424213809,-35.26048210430028,89.47015098385873,0.012437493235879556,-90.34569036919733,-0.2377914101074889,0.001737673075935152,99.7596967325055,5.775943809300032,-3.260059075654288,0.04006817457768198,-7.028259005611066,7.15960191552923,8.466974645946757e-05,3.224961830921401,6.759674528564001,3.4825318829638,-18.125670834422774,5.03378560967004,5.701714527594392,-22.176906988032176,23.07873208400915,-20.85035909835341
9.937323488065866,0.0,0.0,-25.374680277780403,0.0,0.0,-4.462474176528695,-5.58963371369044,4.073009041506368,-63.66974484760158,-10.32472127094966,-9.05787238817714,-26.110261803713275,-4.794818071884841,-0.0006604574215886142,-34.73702237385563,-0.11907136380411024,0.06729348387562462,-21.037279083437905,38.66477383189089,1.518743164921455,77.28712201185083,-27.244423731855736,-11.883544641901517,48.28633846716326,51.51761563010783,-70.2051563080451,-55.47513550519186,-32.06358946553668,-38.657662546169426,87.89533671649019,0.0002709367359524953,-86.9652185970945,-0.02905515100365303,-0.0026890494239040475,99.36221295659355,10.277147934525988,-2.937091709972341,-0.037864882864736674,-6.278077260361611,7.568962518884632,0.0015071465546723536,2.7432953885186193,7.682329462072478,6.17088524546245,-18.515054851321995,4.924201750304972,8.532355015384278,-23.67541422786613,22.245503242804386,-22.215663951409816
10.908092707739463,0.0,0.0,0.39414532749212117,0.0,0.0,-6.013707693092727,-6.253644855771418,2.965248762832168,-40.284703478594516,-13.679484412491295,-21.54070452703009,-25.511006204395613,-4.900234126539097,0.0005329608704420914,-29.197772492356876,2.094115472035805,0.05781003889322699,-22.591667364438774,38.13759461510173,3.6757321382238866,83.34855965795495,-24.379498588578425,-12.825660347418589,50.360640197390865,51.76386723898083,-75.00719490145522,-61.60055922772827,-30.454933771918625,-46.56529366092109,87.9759160322177,-0.000952677178269291,-87.2565186025141,1.3135244897079785,0.008262950580131172,100.45259019764008,12.72932987521394,-5.0889871746826145,0.0034244790090196234,-5.194778055408179,7.821273451699772,-0.003571675483646146,1.9559549917877468,9.172068912507344,7.516078750259778,-19.2728530178697,5.830563879982674,10.320264325756296,-23.771055203660985,19.688467984834507,-23.350653765936332
11.255368688942779,0.0,0.0,1.2544524926660137,0.0,0.0,-6.662995252582783,-6.3984406617249086,0.9178895305365615,-12.945996455290018,10.58428480035774,-15.634114990692671,-25.321403026828428,-5.414821423103914,0.00040183414588386017,-39.05269221686356,-1.4798433463343834,0.1624955996046301,-22.91251400462675,38.82764379190787,5.223450731486043,89.97003382784386,-22.361454289972926,-6.960423524550798,53.15294556204078,52.1797091693737,-80.71266186780115,-65.25971387611911,-28.84939244382891,-49.724213920182166,88.72905255811808,-0.0031435941508404304,-85.69976822256557,1.6462620863875101,0.02771209820370933,102.4009604088656,12.74417958118591,-6.470822634482181,0.0051091821316724545,-4.474833923279178,7.1164175466592186,-0.004861500570666176,1.4736614732150262,10.971679756046582,8.512939741468745,-19.758961291926617,7.152647304727943,11.896889776068189,-23.644601949196225,17.90156140539599,-24.436614932967316
7.967222704147394,0.0,0.0,1.0827191992688732,0.0,0.0,-6.666101278095255,-6.66934701700945,-0.7741408838457288,-20.524761612552922,13.944208597393445,-11.268376218129715,-25.38915472339732,-5.653534245514862,0.00012954141692543192,-50.16590409541686,-0.24876622050775418,-0.12392437310794448,-21.5823632794734,40.5967069091446,5.193830121229517,93.94790415997383,-22.50247715615692,-0.3210070450283972,53.785822686449784,52.47678439767992,-81.97680409914287,-68.70394040427179,-27.646073864406013,-63.19598005462966,87.41343701567487,-0.011458494813013037,-83.93581910825912,2.9800938213607333,-0.23636568332547225,110.46922828921699,16.20792865803258,-4.32737006720573,0.05239402087690655,-4.010793992303422,7.3458018020651785,0.01817844006629506,0.2688440193553283,10.911892618405812,10.312360539986932,-20.81636708564998,6.459123295504608,13.53446910257437,-22.211881486464378,18.27460294850665,-26.657158616253486
7.852989061319294,0.0,0.0,-10.260221407645995,0.0,0.0,-7.210623122091478,-7.409782545134857,-0.9172404409094222,-23.510455170534783,13.541906781223956,-17.32017778233451,-25.29607162685314,-5.498948300849207,0.00015415998902302853,-56.060592184840395,4.887199812078421,0.004888234762939842,-21.068085019835138,41.30718011737247,4.707168721601792,94.62652498513488,-23.389265332362726,3.2508249081175187,53.13582521082927,51.57759488320697,-81.28239303880177,-71.92502710768261,-27.003364935813597,-73.31744026627268,85.87696080941392,0.006550082016680445,-85.4970455375779,3.3032903714047452,-0.29846834832937075,109.62592976091375,20.711424116710557,-3.2246864007503406,-0.017150340725828682,-4.73475193604925,6.29804247175145,0.04087201832808446,0.06497243852929913,10.436663049460044,10.715968875614895,-20.966989932849135,5.8731237999365105,13.73498607456614,-21.023809438390018,19.094935756298163,-27.768297517567703
10.771394991703572,0.0,0.0,-26.418249984356567,0.0,0.0,-7.9641672690107255,-7.0345992943506275,0.22929301204163594,-29.26119877201681,17.164574197222134,-19.726103952530227,-24.855874799937776,-5.286462058191698,-0.0003316126433922422,-57.505545384517205,5.790053711262028,0.020878981859720404,-20.82033408293073,39.90184325592442,4.691823023447517,94.65096928947123,-22.40993928825904,1.897549491356202,53.06126744196586,50.97621417479272,-81.80164640021742,-73.5109588481672,-28.123120922276787,-65.71988295380667,87.20253564131333,-0.007443232105815708,-85.01017985756144,1.0626965834142914,0.017927633937872504,99.98463742607747,20.799488247967858,-6.716565514208471,0.0035574402350627347,-3.2956146983599823,6.2734553974050655,0.01929905633309007,1.7432354946153625,10.888137738905787,10.427043734723016,-19.33114107025572,6.396463066531852,13.63160594765965,-20.303870506262673,18.393292501491754,-26.848155357550073
9.78450200679412,0.0,0.0,-37.603120331647986,0.0,0.0,-7.669143985940181,-6.8452563313567625,1.821427948328317,-30.93541264669605,12.701412035850097,-20.875368293665463,-24.101322987507142,-4.886437428293582,3.092387932347299e-05,-55.9371725102185,4.825071095540478,0.004713597794901963,-20.313883290130327,38.37866367465727,4.685818505966707,93.62612354858604,-20.164886276780216,-1.3206859553654273,54.29998037614852,51.86493463561788,-84.12829598189977,-72.86859468828821,-28.249539838870707,-75.84508532821188,89.50781930874983,-0.003458398335303027,-81.7106826792362,3.0347464286053154,-0.1330953137520116,108.01964318836784,19.698118577115803,-10.5756526551681,-0.007847297728882055,0.23607231373486876,8.57525937608541,0.01645550633283788,3.0405480112220236,11.075785895092373,9.931209644133688,-18.08374163943395,6.746754837263827,13.24248022594454,-20.001800124957402,17.749918163442672,-25.66320199339457
9.227602549177353,0.0,0.0,-53.71889932509601,0.0,0.0,-8.334406004077145,-7.5192573623063215,2.795785184245554,-30.70388566091333,11.867433014083456,-24.49820175312365,-23.239293429227498,-3.7308110958539644,0.0002847870514469483,-52.143196989315605,3.4564998088753396,-0.0037190915022982537,-19.89681442668428,36.37514190568057,4.927383285619491,91.02845232012761,-17.75283024996505,-6.083261772202405,55.71258869881576,53.98860871565419,-85.81113538993418,-70.69021466982356,-29.310281027841214,-85.15531103412651,89.95454224562508,-0.005482747664670487,-84.2249420766443,5.17209840942957,-0.08899955738507752,107.6770507669013,24.088010398671692,-6.107452657741332,0.11152679674674414,0.287345842818903,9.476553803848317,0.002193077190943597,3.4765798745389715,11.723262012898598,8.816427824209107,-17.7682743914979,7.745382523202724,12.451216543993116,-20.1770659400514,16.36231065741159,-24.871674215196037
7.10196483156481,0.0,0.0,-41.41519991289195,0.0,0.0,-9.000849321363697,-6.646893215149335,2.4621918913153236,-35.269998393260245,14.119618491978258,-24.93644868880798,-22.052925654009005,-2.5335367403120594,0.001284253764806345,-48.06051474694295,0.04847822183596992,-0.02385189764505664,-18.404621202550047,33.91950725669805,5.3679586935917705,89.02423350735691,-15.626941970957562,-13.246969364789587,56.12162204182353,54.443027534023074,-86.80050870346541,-68.4162233097356,-32.71137200427638,-71.47277559916427,88.94619579404277,-0.012846242567611915,-83.54279398091707,3.1887001396606207,-0.0768428359875222,87.5746303387911,25.60993763578324,-6.530584074375098,0.3284698412235368,-2.388241325870662,7.446838958277593,0.011278326468949499,4.39997633087663,12.416778221720978,8.627057184273896,-16.895685025814483,8.458834938547305,12.531001819683759,-19.212588069763527,14.416574420596545,-24.853806052520348
6.402177206748372,0.0,0.0,-36.58554229361528,0.0,0.0,-10.673463883342011,-5.7448274450162335,2.2562513447008614,-37.85382639948778,13.337128570520864,-22.044821971725305,-20.506963199198893,-2.1378837179617265,-0.000969658409753016,-45.39396995657053,-1.414213705328217,0.01246452314336664,-16.58306778508904,32.140347008481434,5.502057204386579,87.01830674506891,-14.23836409948171,-19.086012110909138,53.60805288231795,53.77904109703235,-86.94075256443251,-65.14766606362868,-35.82746737971632,-67.33188876143511,89.44276225718703,-0.02397392280012403,-77.56748682073993,3.7739229656030506,-0.055021310387788375,86.5013984904662,12.541608655325945,-18.793127475362365,0.27851232721352037,-3.7635238211716366,5.578618146040883,0.0021430686040700185,4.750732019158901,11.861673879591113,10.10823860109096,-16.39368997823931,7.417231135387213,13.691083878859413,-17.644272546354426,13.376884966909321,-25.628494589341134
6.154218566795384,0.0,0.0,-40.1485946411895,0.0,0.0,-12.98369923417626,-6.793408543116866,4.922970333754863,-35.00469898496553,10.87657687782318,-19.447125905403556,-19.280058125544237,-2.556350471901438,-0.0011156074125065665,-45.88361743793137,1.1545253677150913,-0.003241050256421128,-15.251191585842887,29.53418224879252,3.526642637949565,84.60744755358537,-13.384563714086031,-20.35779090070974,48.31289363728841,54.620014614208394,-82.05254013933633,-61.54682995212279,-38.81091744615065,-64.56881584430595,87.90323679292781,-0.03359328681989524,-81.69853809723011,5.629996195509843,-0.05249169325925669,90.02612417727472,8.523046055125228,-19.131354689289743,-0.08690663671375115,-2.5935214908681763,4.25497883149301,0.001456336599461963,4.900132738941819,11.616092729530822,11.82368204679557,-16.076888497761107,6.584459987607531,15.181305598720726,-16.6418907608707,11.973463072330931,-26.249419630748093
6.730665767471694,0.0,0.0,-40.02168049326061,0.0,0.0,-15.339152080968459,-7.102438594405599,7.101709234130352,-30.868645551645898,10.677741603839095,-20.141404649528333,-19.341440278889067,-2.9765026632151472,-0.0007652538263358106,-48.63918428967157,1.7291539692007052,0.004316101443466467,-13.232299360444792,26.89310820458715,2.1126432182252866,83.25069651691884,-10.93776126202023,-20.803534915030436,42.43482123817098,55.398763505220785,-75.135497636599,-57.40310117758098,-40.99970307295324,-56.93676087316314,85.36233262825375,0.031080317210916343,-83.44904203351838,7.203346496249536,-0.07032289515544086,88.82223451953188,11.057967484239208,-14.77234826637335,0.0032593854530947224,-0.7858550011190492,3.1289911007940203,0.025310066532047995,5.031482856234988,11.681423963706767,13.491734408422975,-15.780456434343003,6.062801549833402,16.74034357523114,-15.483728181474929,10.053510877351695,-25.657700246273432
6.163065115930286,0.0,0.0,-34.74847477391682,0.0,0.0,-16.017578533132895,-5.312033594429536,6.748094874287374,-27.1613376881391,10.26963761516645,-21.660363715502672,-21.40352778549311,-3.2157694986884566,0.0037518848151105342,-51.5125619769294,2.1531777153012386,-0.009214448500785084,-9.999879089490358,25.518246750038166,1.8605807071350957,81.59656761990279,-7.4056600642602515,-20.612561127287982,36.98553934188816,53.759448135889585,-68.75476889509568,-53.54588722717743,-42.36463989865314,-49.32747281967256,81.70077000529801,-0.052024058059623714,-85.89629780749517,9.215923340701874,-0.012846162573878916,86.79698847262331,10.89672828304827,-10.247965348782952,-0.016397193560022182,-1.7060298700369638,1.0581670297541594,0.026157785525257018,4.974287004881476,11.457470710229488,13.78015018032631,-15.79890173414696,5.753140865689636,16.925987719136813,-13.774358323764853,9.221130872981268,-23.615327696493082
2.7860181108289295,0.0,0.0,-24.88263378683782,0.0,0.0,-12.669928196677894,-3.0727610925586317,4.943566646195483,-24.856540811241256,9.979150380473016,-21.60501512172997,-25.821288413515255,-3.4412622982223597,0.0005610214451401888,-53.80335518687267,1.2420345538604531,0.006753221031150233,-5.051526114100399,24.486959830781135,0.29252412428748503,79.74241099404313,-3.698530808169297,-21.700875659403334,32.06479515204642,52.29695198826845,-62.15186146857908,-49.24692585330275,-43.028043783431414,-46.02278514074694,78.8012169775489,0.01099528238069053,-90.81186736959674,12.503529917941043,-0.005646761009891423,85.24647661959264,11.182933839547111,-7.3473752454075845,0.00236096049507848,-1.2386232577628626,0.8130908574882691,0.009063201240017317,4.8826483669719725,11.375594752088515,14.064766494416507,-15.85720420020106,5.577704198498531,17.158985682581427,-11.87685906897423,8.838757452162895,-21.380747421116403
2.3287202439105466,0.0,0.0,-20.410230327078906,0.0,0.0,-8.629398956524794,-2.9185036457548157,3.088437413466585,-23.076599983850333,10.07383366952919,-20.8348431761366,-29.746109591008267,-2.9681832866244395,-0.006364204172147523,-56.52459063149828,-0.9523943163145409,0.003447810372128126,0.2798971950774153,22.471804357701597,-1.5743539676936122,78.36096000673409,-0.7272843825169817,-23.07989783412217,27.366927840730238,51.723031252712616,-55.522120045788654,-44.56677187275046,-42.46335505744235,-44.47461100367486,77.69826057113856,0.01280422451358125,-91.58522135101076,16.858630059095866,0.017344563226531575,81.2335899593826,11.513161507322495,-8.393790425450746,-0.002271489929190164,-2.5896014355495316,1.0267309169892482,0.008889357231300408,5.34074449821201,11.267625836121923,15.28704655629578,-15.259949576915938,5.053611210694021,18.246901401184726,-10.110009287651781,7.163983232879939,-19.386190687986343
3.4160532132502395,0.0,0.0,-18.441453491925525,0.0,0.0,-6.551690654117329,-3.6850452762291144,3.685716632883202,-20.882362285602376,9.471611881428071,-20.70182657424136,-30.294886803900265,-2.002243840526317,0.000582579241022241,-59.75488446426177,-1.8706910676854536,-0.003110506994622954,3.6954224568246947,20.371330802966174,-3.2921364368705026,76.48313321153215,0.9670492716992758,-23.338648961315187,23.14261765052892,49.621074828092055,-49.733520555033316,-40.23314697837974,-41.679030681850264,-42.99226678974793,74.28791309940854,-0.06261622032944773,-94.26911218702087,20.88624998025549,0.015176765707106727,76.23105038372643,9.709887069622006,-7.860401652954548,-0.014605535581790912,-3.402301118935424,0.306249554878303,-0.0034517858828832532,5.4366365843655595,11.365269805432279,15.754752154005535,-15.1129950059394,4.98385829743586,18.712346339637925,-8.732343661379625,5.095149013788149,-17.501810937411488
3.080969394124601,0.0,0.0,-14.31462821175278,0.0,0.0,-5.966470778399776,-3.9900265318434585,4.178589634667638,-17.149906787492192,8.189754040660844,-20.64024297266742,-27.636192217277774,-0.22521466767953308,0.01248726731637978,-62.9710214532013,-2.3334738495774268,0.0034324999249961637,5.133637356821589,18.687694342120217,-3.9488971215286455,74.1353091975028,2.7769959599219276,-22.892651398718602,19.482525837268284,46.65205169000172,-43.905443877862545,-36.099557551463974,-41.662444964670854,-41.5615673042847,70.51260251030848,0.03821287388441106,-94.78882103656424,24.071709118639745,-0.016880275911967613,73.00574011939383,7.466875084110556,-8.09581967002211,-0.0026066666864122297,-1.836558315292087,-0.8893923817082847,-0.0026583763427631972,5.070995078191183,11.273143314838517,16.032897617533937,-15.443140207496171,4.801920769021863,18.93626646593622,-7.644932487144912,3.7505406026462147,-15.079660890208915
1.1405841426451107,0.0,0.0,-7.633349077691068,0.0,0.0,-3.309076872533539,-4.622505532933183,1.8555192881004883,-14.431022800844067,8.456733859900279,-21.753114417121708,-25.684135258559373,1.7026767349769902,-0.0038428081167605826,-65.8138738348491,-1.8964126342158105,-0.003509138093529218,6.245128218092711,17.376377324865658,-3.7973964918603134,71.76164925408065,4.273331308834644,-21.189969975947687,15.584097928667953,44.103638606115446,-36.78683277842577,-32.1153436568656,-42.35874571625172,-39.17386588355727,68.35886476851672,-0.026406192786998333,-95.37113801973717,27.417285812136264,0.008491835033130744,73.07144383452857,8.469508178439424,-3.7373103578399745,0.041031653777370926,0.056317220517610476,-0.32656891010440525,0.004748272332898242,4.598969018793883,10.160165281827721,16.458204166655623,-15.836247313182618,3.613083689840204,18.938458428214975,-6.349035676284655,3.088856734167541,-12.68069690554752
1.0900184310836036,0.0,0.0,-5.2244997381625184,0.0,0.0,1.3811676885271582,-5.56397903466335,0.35221016929156185,-11.145207913793184,8.724895802299486,-22.832199156660334,-26.268593487215078,1.8594617511855263,-0.001513774587438419,-68.55671767078809,-0.613098951282541,-0.007930347472726506,7.50281912655637,15.940342033596473,-4.620629236925978,68.65904375779401,4.3337205966363355,-18.337292199079688,12.666165296743044,40.98938602159322,-29.848593469499846,-28.252926592664796,-43.31043541024917,-36.33783529402056,65.56396117159662,-0.02266837594072592,-100.79568262726156,31.07050358748073,-0.018515236022527984,73.54709246046158,9.958266655790908,3.0907006103785495,-0.005766778900343975,1.2456337458377091,-0.25183464294145663,-0.0013338150683776706,4.813238200189806,8.732233112926657,16.02592820822524,-15.645528260877171,2.424077986121588,18.03883924944088,-5.679177270681995,2.18672710056277,-11.201252956812441
2.0183828335778795,0.0,0.0,-3.433234823731944,0.0,0.0,5.697068872114485,-5.495830674424589,0.5587574358336381,-6.057875683946894,7.688848907234388,-23.218766071390302,-27.606018670589805,0.9596326052989828,0.0018248935026267414,-71.3713530570807,-0.8081883154383905,0.009543581428109951,8.56451752846267,14.043173550301306,-3.2189099066398996,64.82692826118011,4.351943926944027,-15.903217886974579,10.661934635128166,38.99204084427337,-25.45764800700834,-25.894516338591185,-43.83577473768062,-33.54414754876728,63.98119765374613,0.016218429805120647,-100.5839616656274,37.41742863796391,-0.04033676951029508,75.34401276443899,8.680961081324924,2.3454176036151924,0.013327647380226714,1.0760680572944714,-1.4393234019804528,-0.0002071353695948466,5.441622930630926,8.409101580075747,15.346445583652919,-15.087425592544026,2.3566309138745676,17.295690882180647,-5.8891468903023725,0.2763735754175798,-9.590463017096768
2.7920792082423382,0.0,0.0,0.578753739777303,0.0,0.0,9.722083097954732,-4.53985503400951,1.9207151182495832,-0.7379477621148294,5.230922586594497,-24.262941790213212,-30.38177831513048,0.08778643292335912,0.0008413327982546645,-73.72150429364457,-2.2044725155850515,0.0009947229081622517,11.28607212154483,12.13033500301876,-0.9742570181708047,61.4862189565946,4.567605085513783,-14.635166718903248,8.341631616021207,37.221449407561614,-20.76722490361377,-23.11318837647346,-44.47019744113264,-30.753615197862434,63.30072349409638,-0.004841152593338657,-99.33844470598947,43.67843657529032,0.0668323787018736,72.15608222473313,6.460103103301087,-0.4903797459664871,-0.0019585312553234272,2.7770840165642086,-2.4735934457921034,-0.0017739184603549887,5.841174644953824,8.393283311520204,14.907263118406284,-14.734561374069832,2.4943484712804302,16.882948774064438,-5.730168774324527,-1.5836854658710449,-8.210725614095647
4.024831178609251,0.0,0.0,1.210434188374619,0.0,0.0,11.61508007205597,-4.425383036957875,2.7600644779415533,2.7827555084352356,4.004860982103044,-26.39170794599908,-33.87324373749738,-0.37489033100794417,-0.0012306122619359532,-75.26373239531497,-2.459505439618108,-0.002486107628893356,14.652721511603035,10.535496792769496,-0.362222326486119,57.90371665230707,4.323926463949173,-12.867421569062847,6.383533753738835,34.71893404436693,-15.998780275194353,-18.855257903006635,-45.2270988456551,-27.195812045796107,62.34690718351763,-0.0021675006908183575,-101.47775013859436,48.66230634475703,-0.021374561553448742,69.39070274832119,5.188271981273655,-2.033163935702026,-0.007167163036391383,3.818804657086851,-1.7783732206208518,-0.0003554372047960958,6.261354018545421,7.848830114745192,14.576982907903075,-14.341104565038064,2.0996478444260585,16.38500512029029,-5.917334726933568,-2.729296995513337,-7.273710436942321
4.529742545587823,0.0,0.0,1.0599675696830386,0.0,0.0,12.065694159172052,-4.05722461292935,2.652566815051821,5.158525236314144,4.53356463905484,-27.81535480792182,-37.46000569555501,-0.7830606569080798,0.0012349609162631233,-76.25470775726676,-1.815217866863262,-0.0015178139697547863,18.411710033046564,9.529446238969175,-0.2579645679020914,54.479556283533626,3.7129498213955716,-10.82028012703416,5.6630108873089995,32.781362631247816,-14.201363399389116,-14.873804407112901,-45.793813228679596,-22.844879962604853,60.91362696458734,0.01071703177211131,-100.65702633654823,53.064256550638476,-0.0057448054758379614,70.19256368534948,2.6795407286180266,-0.5042798971897121,-0.01313221451099658,2.7288321281471433,-1.9362832438832234,0.004958908069204546,6.155045743717542,7.621442077939022,13.129416290793268,-14.586434346305017,2.393295318810862,14.961599810816967,-6.066600078079985,-3.4420618582834117,-6.136390673812345
4.215265464021953,0.0,0.0,1.9740692463384237,0.0,0.0,12.630057075535579,-2.8426964507006707,2.7555389014391785,6.341705262590377,3.884008546819212,-29.008196303491726,-39.67406713260774,-1.2597020329182298,-0.00021917998091744429,-75.83903463681153,-1.598834483460827,-0.0007672053337774819,21.505828420286587,9.644391748908543,0.14726840599106028,51.00386712464628,4.045425563281935,-10.043954093178652,4.4946500901211985,29.854045710280456,-9.784969758984044,-10.183852555881264,-45.80540418358803,-17.887660659490127,59.56342304426877,-0.008373868785569127,-101.96956069856853,56.568159210122765,-0.004241617899943075,72.58296420093122,3.7847696402088395,1.9137527109116708,0.010292218155229814,0.2750961879354086,-2.051600225430831,-0.007977580641034763,4.85279255796201,7.196714818683638,12.034808640244485,-15.981257782459473,2.3814652772763374,13.795040334709505,-5.931131796984421,-3.3988761515842243,-4.9076292523112235
3.1685929695425683,0.0,0.0,2.1283452756696373,0.0,0.0,13.085246005657426,-2.52869917105649,3.2754504937614355,7.773215375380705,1.27414528892029,-29.01981656917151,-39.57493382049772,-1.6100220502370681,-0.001908992028828164,-73.2374705364248,-1.353830951350715,0.0020009280309346046,23.205490956243473,9.802910835530765,0.5016124995515392,46.879014227572256,4.907839111876993,-9.206193891481428,2.765746791387684,26.23269453252158,-4.638783008096468,-4.691683153150146,-45.59413905536235,-11.533587734056065,59.246268216319365,0.0014197881980778549,-104.2283544124308,59.49887306046417,-0.006986399566487778,75.36423469037351,4.823835296671972,1.8917788850271036,-0.004438056353586193,-1.7481778205943603,-1.9319700913699571,-0.0017925296780663138,3.217300081810961,6.606118707937501,11.24976964697585,-17.674299666265753,2.107151676535369,12.855732626975739,-5.345060409837534,-3.2137345582484413,-3.8174516968936585
2.046682018640361,0.0,0.0,3.241509579477545,0.0,0.0,12.537832576330025,-3.0763699811046363,4.085127059407998,9.243600825204016,1.554417201223955,-27.460330944066115,-37.969452447622956,-1.402130437165387,0.0009530313022753849,-71.11335863465557,-0.6771949068120473,-0.0016253739845771195,23.812549820408332,8.74997001758107,0.8413751729672003,42.91193951478061,4.589182031913619,-7.339214381736892,1.3288621860343375,23.377619722961832,-2.5685260489570343,0.03266463581562355,-45.8970276464739,-4.882272412776059,58.873609786060584,0.002374644569862215,-103.11962778040875,62.181557281790035,0.0082211129978829,75.98109634491846,2.0582645191422424,2.470381427543892,-0.004504117363978253,-1.0268051543573773,-0.8074088513264345,-0.00016291796681261266,1.4155297629015022,5.805419414979537,9.5143836495028,-19.596009187922792,1.97634581827114,10.957082579860728,-4.785557393831478,-3.7674891105258745,-2.749824573502719
1.6172678589875702,0.0,0.0,2.4894727738047004,0.0,0.0,10.815991790416982,-3.128441552563257,5.180887948244667,10.573085050557014,3.139389441717989,-26.22649573367514,-35.721783281387495,-0.5465126105863498,0.0035846175512810985,-68.91043301236681,-0.3971135080085925,-0.000690629645706044,23.957813792257753,7.644745386525215,1.976565837065916,38.85930663098411,3.956053457491613,-6.276809730611808,-0.25766106571167635,21.043185931334264,-1.3993273046779515,4.066153026015711,-45.6624021283736,1.4203988186225243,58.264465078878494,-0.0026371540774230732,-101.98797819041991,64.7988326699911,0.005472772381260564,74.63661028243389,-0.4896348114355477,2.749536704438557,0.0022540766328354015,-1.7099343981172483,0.9230988455242333,-0.004005861304619998,-0.9578246040868464,5.2051086140497125,8.196171983608277,-22.047295599138195,1.887420980697574,9.516076388359862,-4.119408289940795,-4.204093523394542,-1.4307790106061478
0.6822832904751835,0.0,0.0,5.392807833717064,0.0,0.0,9.40917185167594,-2.6274747311975704,6.706644841159396,9.905591982777146,2.670065954660258,-25.31023676203691,-33.52902649176141,-0.1471680328176389,-0.0029217599296775853,-66.32563955309392,0.32258250139951417,0.008733091153819237,24.493703818479087,7.1894923363663885,2.6919360413872577,35.14977611890677,3.4990638816365998,-5.347532000657362,-1.1667707114463333,18.738704634717696,-0.05209376880409006,5.925299385206281,-44.959463133653095,5.705529504297742,57.40615758908167,0.0002499538018013205,-103.01459483189313,68.0700427730211,-0.00038491081489794787,74.48954567780092,-1.7338949324836166,2.2061729563210264,0.002180206809148335,-4.7504407549086185,-0.19439239775665304,-0.0026838892563370797,-2.896435828203751,4.787954666385068,7.392120189998375,-24.027145706495354,1.7867522785973287,8.618136772735834,-3.2008352257141692,-4.060058133747707,0.1423251736276897
0.25383047984856205,0.0,0.0,5.792023118613092,0.0,0.0,7.744575924616125,-2.9188428914913116,7.245240984463704,8.297676387446955,3.303087910702392,-24.29440823485679,-31.133390343454185,-0.26315033757321726,0.0018099142393559753,-62.805767828814055,0.12246579384820785,-0.015366056314758002,24.654448734237626,7.323221812895687,2.931199498572554,31.420630565817536,3.236637894092974,-5.061085178522181,-2.0632647558264665,16.613664304675712,1.0836658424597947,7.237875072962753,-44.02310980672394,8.286172196584562,57.33697675850265,-0.005709600139696312,-102.16391706384763,70.80093784782744,-0.008594101193702183,76.5849355529598,-2.2130071887230542,0.6036391214405429,-0.001872254225652126,-3.9792198983629423,-2.218333325599826,-0.016084999854549344,-4.398880300629801,4.476778414020183,5.724963999471672,-25.607890331697046,2.096723265125706,6.955234282796539,-2.952646199104956,-3.792625110164127,1.6287471950419803
0.38760651445187577,0.0,0.0,3.709695595863095,0.0,0.0,5.370626854194482,-3.0469784044819397,6.696107114015966,8.963819226844443,4.671848948753521,-23.003062577232548,-28.152516450696794,-0.4206605401241082,-0.0013789892921078127,-58.1458406279982,-0.9304850146855658,0.0007287903002556068,24.305169950214772,7.335116336714103,3.7718639240613134,27.71642640761392,2.4129278843607893,-5.727595121372315,-3.6281331476848595,14.329884589057821,2.701632216359328,9.434868232884536,-42.886159438533014,11.085783686092453,58.21403439005252,-0.0016820890852777624,-99.44245548266157,72.57499577821103,0.0028924259028617555,79.37242462597297,-2.9618830827167186,-0.8727260475952251,-0.0011688525468739183,-4.131341609728879,-0.4474052593959442,-0.011479692365169148,-5.397938694756151,4.52967839035337,4.759839770990232,-26.647535545946692,2.4944392783140383,6.076838171271228,-2.821883635749253,-3.8995990113866443,2.546981917923084
0.04175329674712111,0.0,0.0,2.8488291049939463,0.0,0.0,4.068257862025361,-2.9370684915376124,6.493799660153187,10.016850206045499,4.774046001018412,-23.402515579160685,-25.05126022888088,-0.8435392336920137,-0.0010754654038199506,-52.91153646475044,-0.6749458279540358,0.0091771830236755,23.473408705083866,7.463248555031099,4.2908095831996915,23.868883132672252,1.4660014651241184,-5.577338080023752,-4.981935409456581,12.253068134464499,3.7618958055142016,10.587290909529079,-41.434280885478536,12.924702638530453,59.27067635540796,-0.0025795335122675636,-98.84637601388604,74.15454983604441,-0.001049964841556634,80.6504300985555,-4.351821569008873,-2.324420176122453,0.0017494210127414083,-5.14914220725967,1.1743119964011084,0.001389370557253225,-6.132308634649589,5.19807507171877,3.6208400076894867,-27.435602430109476,3.5290902250925194,5.260703894682856,-2.6424517309103894,-4.016172074175322,3.528327128006769
-0.03306131078840111,0.0,0.0,2.321816740883525,0.0,0.0,3.4590670655990117,-3.2060576485257486,6.0893411180924595,10.055778299445954,4.502940713513772,-24.51874617903038,-22.13659482739293,-1.1062815607280359,0.001657348167768134,-47.40197285569821,-0.7063662448469983,-0.0008802289323411377,22.67099088170995,7.714248626395459,4.460398792314914,20.32437662616927,0.8489336006288867,-5.72612389644396,-6.498187950075365,10.747137336855078,4.296322304974988,10.592124839444832,-39.447315903245254,12.997391966492474,61.211499164841804,-0.006131966127796405,-98.02509007226433,75.75437954512034,0.003643745774498473,81.35921671965414,-7.250449853719249,-3.9390680761721515,0.005928555818204778,-4.637121484423891,2.1791489457579405,0.002325608623631399,-7.567394444600481,5.8520114071583835,2.254804949615228,-28.92881734720323,4.632851087377568,4.229447145359016,-2.3320799616346184,-4.1028919291429355,4.547714549305041
-0.0801558392387468,0.0,0.0,1.7195365973310153,0.0,0.0,3.095573915156607,-4.243390558391704,5.363300570087402,9.909145063239182,4.786445842477206,-23.70090458132965,-19.807566413895763,-1.4063058930309194,-0.0007699681858133363,-42.97715095225837,-1.622883622023899,-0.01032185502870625,22.7768218885731,8.126752960317175,5.013876067186027,18.330095198035863,0.2459617590407074,-6.825831725804968,-7.564529725465735,9.418837779653682,5.29133807398105,11.52885567309027,-37.822807061776295,14.100548061986043,62.341503259163005,0.002650064128356338,-100.52997341565478,76.26081344190943,0.0026757453357644737,84.20801814285409,-9.937075476162091,-3.734674351358719,-0.003979837978746766,-3.968113813835142,1.7392339631653988,-0.00016873392730343937,-8.487753636129588,5.662947124235488,1.748010989298758,-29.85635624912626,4.640484323220004,3.6892121544022944,-1.6372599499735063,-4.23009503688416,5.0135363559297
-0.36261750644472435,0.0,0.0,1.128333401678257,0.0,0.0,2.882893146280829,-5.014016069496396,5.007542751797217,9.559967134622918,5.81119169010047,-22.17678249706804,-18.093749154375395,-1.9164675044090806,4.978529090868073e-05,-39.05283265762615,-2.285403877966566,0.0022125036924123404,23.02787219177564,8.766556776016712,5.588280177669291,16.568940322895703,-0.3335015786585761,-7.762040631105573,-8.723286292635958,8.717099142669491,5.649144448527513,11.87862845371871,-36.68454163412762,15.176905410953934,62.715672032273105,-0.0016634235857457566,-102.4992246156294,76.52515773566827,-0.0009424144993437516,87.75635382286436,-10.245357316273504,-1.532729252917083,0.002788228427365535,-4.899436216811385,1.2375004340856384,-0.00040908381147015135,-8.972393117953773,5.0738228546866555,1.696489509634455,-30.325741673303572,4.110515101195405,3.426085833858014,-1.0669495355381369,-4.150482267663585,5.480707779196704
0.004595941898768316,0.0,0.0,1.0346845310155564,0.0,0.0,2.506372828932056,-4.711899233658579,5.169547212172137,9.182678405128742,5.660138428551527,-23.563746403710475,-16.179818874744377,-2.164988603118623,8.619593598365312e-05,-35.41481734434594,-1.3609220163095426,0.0066189108515503905,22.67989322420307,8.9106307354711,5.778221275889619,14.156491408915986,-1.3296256592740507,-7.844832816364475,-9.291568991706358,8.234235633572485,4.890833502373901,10.900204757022303,-35.906487167294586,14.639664530732167,62.99574486357597,-0.0005287215800966412,-103.49693753997711,76.64071514047275,-0.0018104442415362457,85.92745667734016,-10.717817868177699,-0.5377218693570172,0.0031786640516863864,-6.571754829016129,1.2153899277831008,6.993871708172421e-05,-9.839576354395145,5.313896229654447,0.5960672516100975,-31.220388223364687,4.733365928652951,2.4901975101040197,-1.1910590515329655,-4.041414853286206,5.993931588899949
1.156618091518988,0.0,0.0,0.8778490883599247,0.0,0.0,2.0037347251038047,-4.664784865234342,5.668061335055467,8.600679627951045,4.825640695995214,-24.711632093861592,-14.252531314255801,-2.3287541248601995,-0.000381539419705903,-31.775110459026838,-0.2850116240464592,0.0009745795222571782,22.484164514778826,8.96212254058002,5.897172752677271,11.94323213484735,-2.299464826328683,-8.607390930677116,-9.138653007893293,8.218213443336186,3.16183699730941,9.536092508672734,-35.28948435847812,13.756780381455249,62.92057527353209,-0.0007149003766849769,-103.74715287458173,76.54378346092786,0.00031069187266541414,83.62839381290667,-11.55474651920124,-0.6468880132253937,0.002053714618008694,-7.701867276067673,0.8434279625431109,0.00092212083084832,-10.026676117931787,6.028455314302912,-1.282558012047552,-31.453072159436385,6.08088012006493,1.003854951514628,-1.3730765719762026,-3.8897199858104003,6.683051346867558
1.030855224650696,0.0,0.0,0.5542500487402947,0.0,0.0,1.5793887439357701,-5.5268511588432805,5.4648078015546995,7.380075716785686,4.425695258690394,-23.66949472624692,-12.956511694756765,-2.258116727233451,0.0002104471797099822,-28.31828763931612,-0.14687878737267399,-0.0053951331552127444,22.669152242851442,9.148395605449736,6.794952223115566,10.248606833820547,-3.012011674197515,-10.461292593872322,-9.528203780712191,8.406318734248757,2.1512726506669457,8.36953257864138,-34.5503369905184,13.685764576798782,63.095016920228844,0.0006888837910740831,-102.76862165878401,76.14813108833982,-0.005451283609796703,82.54661127210098,-9.82945197595109,-0.1820389566531615,-0.005826030651386559,-7.540084646017975,-0.118227015722382,-0.0013999133085852212,-10.419465251774112,6.581639670682547,-2.0606435918302237,-31.872513775225016,6.878485807674647,0.4828636817324165,-1.2354462863493236,-3.8068275786216215,7.082870038572862
-0.05255812512597809,0.0,0.0,0.3911158474462538,0.0,0.0,1.2189652351685822,-5.684467759358373,5.83266683028475,6.167154660035009,5.133577114441456,-24.333030040588316,-11.811311365814317,-1.916923722861045,0.000513759124116251,-25.376617741812105,-0.04716990941588475,0.003832441334694582,22.80921145124652,8.964189186094991,7.750266695862047,8.862509037728003,-3.7902288061095266,-10.652375667996527,-9.653405957727596,8.684142462713115,1.536219459882725,7.808249518069596,-34.02983379711716,14.113720109854047,63.124298467448824,-0.00022555938911761824,-103.33862623504876,74.97704701551912,0.002450890020716142,82.93717222574752,-7.905523429004432,-0.24044299003315234,-0.002207773233819329,-7.187573619803001,-0.06532626660356905,0.0004072654695404804,-10.75890205710838,6.59101330275745,-2.036470619575863,-32.21229916941006,6.878418481215958,0.5088178342175654,-1.1506336743974575,-3.9944733546546005,7.25643584087592
-0.9568971666946373,0.0,0.0,0.7770402456141018,0.0,0.0,0.6908100745112536,-4.712150550061251,6.1815212677571525,5.499881586689094,5.910927919373676,-25.462120961932385,-11.089823464800673,-1.483101222047099,-0.00014273810983554352,-23.14723187708415,-0.04985547537030473,-0.0013273615380991757,23.228178476087916,8.369659791622032,8.510894565029416,7.751748808663539,-4.807365125803978,-10.999303124762427,-9.239149789264951,9.43326815446855,-0.0009369904567565618,6.686521343692113,-33.62917032543939,14.032230132572389,62.66365907718275,0.00025824256888447826,-103.01652838268474,74.0601014127388,-0.00018836844489386603,86.73346217781341,-8.37098535315735,-0.6459498409655497,0.004460671903120815,-7.2400799784304475,1.6033472654799525,-0.0046736303259725795,-10.937077357392198,6.707579090284779,-2.0638205948834525,-32.39574430525196,6.996842848321285,0.5263116411942184,-1.186303240177771,-4.318485419815957,7.171440250168518
-1.1039292668607432,0.0,0.0,0.6818715835323728,0.0,0.0,0.6435391859455852,-4.463514191168507,7.208571451566238,5.506743890134918,6.68058609805754,-25.08646099984847,-10.97734835433376,-1.4282284387543813,-8.535117776885923e-05,-21.30422602670643,-0.5736792629317213,0.00010793971334484494,24.091763744962662,8.448668702930394,8.698895467617392,7.1915197560135455,-5.480078880252378,-12.583267927429944,-8.616543171328155,10.275241693546747,-1.4709900218383387,6.090500517570186,-33.26722330392981,14.444076200256331,61.873418035643226,-0.0007761011633451343,-102.12907316128901,72.35754397769553,0.0030230321610331457,89.84780386641887,-9.424553678162948,-1.6181646648816432,-0.0009569252910255971,-7.525277883592866,2.6278863009602165,-0.00043387504945260934,-11.227441868211335,6.898818021365516,-2.0162935948028693,-32.69461320864157,7.157562388335628,0.6410762774233322,-0.9341651072829806,-4.489018426239003,7.273162061015604
0.39782448964793826,0.0,0.0,0.7765847807018466,0.0,0.0,1.347819454463501,-5.713407653606588,10.803360813519724,5.241869035199537,7.004820923110369,-25.033010067778264,-11.065919377127114,-1.901738756709098,9.3272687071842e-05,-19.1378545983963,-0.9191415188938086,-0.0010147060136631758,24.449519711976794,9.052799706642002,8.439902566372286,6.571901254648741,-5.960369536852863,-12.535852282041237,-8.687378067111496,10.950051911142717,-1.7400477306786752,6.2224671108980605,-32.988814406396,16.448162937158717,61.83395328379966,-0.002499394760514235,-100.67341760495266,69.4209263392081,-0.008191576310050384,90.68011067269654,-9.796698668895345,-0.36477313333129346,0.001187371904664755,-9.69586253123932,1.833665287851689,0.006833338787006802,-11.160898667607867,6.816531991815234,-1.407340530238526,-32.62082610454353,6.859753482423647,1.1776376535960622,-0.9690446025025123,-4.883110678384025,7.672109177011826
1.4804833638500392,0.0,0.0,0.677233155299849,0.0,0.0,1.3639719477447476,-6.072660231971699,11.061445662817057,4.800583597062871,7.346125786086457,-24.28507922576704,-10.919485104839282,-2.109418309597042,0.00018179933520521717,-17.42288035050466,-1.1190905006476157,-0.0004297358226133316,24.801776126846335,9.187354489226909,9.464967979118164,6.3245933851122,-6.8427155901001,-12.775182484752118,-8.787922483688556,11.612897103837009,-1.868009049158558,5.89759967530582,-32.29696247904595,17.55444171882541,62.22417942406492,0.0003013638524317775,-100.68263375463508,66.4157363767284,0.007318993181965366,90.85090300068083,-9.093175037713719,0.12879422569711585,-0.006380088163090817,-12.006575128793388,1.1796459287741998,-0.0021547587227308328,-11.077721591748203,6.719784140265691,-0.6907681488831887,-32.52667715000714,6.509438300246661,1.80881315045502,-1.099579925126495,-5.754273352624137,7.89682399242256
0.24386674653986778,0.0,0.0,0.5965920805635523,0.0,0.0,1.3136578821261136,-6.129009499222722,9.416605068347932,4.424703537498624,7.834495065157766,-23.405999804092026,-10.671652318232539,-2.203089678314122,2.397087054337988e-05,-16.02145023022292,-0.5934882312791947,0.0021329900740269586,25.299258695349693,9.362472020332957,10.610096965619146,6.3206036587368635,-7.74438869227551,-13.241746162812264,-8.675860590620509,12.227730423893775,-2.496479755305724,5.49021097153243,-31.876574817353145,17.900922575752855,62.717236878188174,0.0012554978209546623,-101.72611321417199,63.67790049584313,-0.013191133372346713,90.51991283910074,-8.28288923339161,-1.615823308024623,0.0032821532207619165,-10.646256935366976,1.0062480012000987,0.0011438518545803206,-11.219860258579775,6.146668485337015,-0.4741043555761024,-32.64355530011692,5.897280728354499,1.7997116774831812,-0.8845453649883516,-6.301444992593422,7.992791735680314
0.6778708939209357,0.0,0.0,0.3118505211711275,0.0,0.0,1.7168815327431513,-5.631275222625821,10.960851613474476,4.1146483867881996,8.05286036207592,-22.71982228002976,-10.539560977860003,-2.740690809218532,-0.00018974305710816979,-14.273393095121882,-0.0223029731826579,0.0002481235478416184,25.386587879293334,10.010573360104125,11.133837889703399,5.937901229234769,-8.10819308809774,-13.571239103415586,-8.44848480743205,13.217216639548306,-3.2657814177196793,5.233682727055835,-31.833345099177382,19.039863946524775,62.99907291113954,-0.00020649236461451012,-103.04599112559167,61.043827483409544,0.003095125066407695,90.05493960283567,-9.53605342944653,-2.5861823489485523,0.005092795522050788,-10.069826999451855,0.28158257945513937,0.002766384468541474,-11.202351315077824,6.18732983392878,-0.10845294300105437,-32.62295665161014,5.802356884189685,2.1548401216212727,-1.0527902540506382,-6.517516484195152,7.966558736679573
1.1660646813176674,0.0,0.0,-0.5124412684027867,0.0,0.0,1.8924442715152083,-6.023375659595041,12.856922446218732,4.683075248834969,8.103156070666763,-21.853176483986797,-10.19290539671512,-2.833829610357136,0.0003708498478195719,-12.453738921300722,-0.0012764731368150439,-0.0006987262890019696,25.291639971097766,10.352203987378452,11.118351005352624,5.483358026263405,-8.292160613478996,-14.546848515137787,-8.419202565105174,13.99800152131984,-2.7734245892029694,4.540194967347104,-31.55101085811278,20.35827828536231,63.388190839275005,-6.511326592502206e-06,-103.29670229520401,58.387691222842044,0.009565703996130973,92.83501007618041,-7.771503018505912,-3.313737542126651,-0.024135993440327984,-10.984944098971631,0.6025558061066545,0.010416182271532841,-11.512357132097573,6.282564263491425,0.45983488152331853,-32.92764516324619,5.684717442492255,2.7183522840225067,-1.1621056084032015,-6.81835257910426,7.720441757499338
1.524648480823003,0.0,0.0,-0.6371035867431676,0.0,0.0,1.7610358141567597,-6.65417197403684,13.888368042777795,4.927693287265847,8.049927601286662,-21.4696199204111,-9.882615050482334,-2.4045606559923898,7.788486944971145e-05,-10.404547019100423,-0.3766269115639389,-0.0010547285733660415,25.192086146908878,10.581054471678705,11.348830936053744,5.000295955764782,-8.151348423775662,-15.509901612188022,-8.510156220385596,14.512577833655161,-2.0275637830121007,3.221968915011975,-31.054591514021016,19.985271167980947,63.837809531012155,0.0001283817566442502,-103.14618764664438,55.96877985082731,-0.0041696138970159806,95.05194558103439,-4.771614518506169,-5.013983757237715,-0.000997219027116864,-7.507642828749518,2.7040345956101324,0.011492423704423521,-11.906746119248629,6.0036656883336486,0.7522637136440051,-33.307010287802484,5.3189350959162605,2.888023772991667,-1.0653545038211092,-6.918689904612055,7.62522980563234
1.3225342717049646,0.0,0.0,-1.2339572675977108,0.0,0.0,1.7129393221723817,-7.479612494902041,14.833926941404586,4.689340897799738,9.251862502153585,-22.29585814735537,-10.057349626182875,-2.2216081384445476,-7.332989878847817e-05,-8.373644857769065,-0.7036242528466731,0.000293604692465104,25.272930800664668,10.816311876304098,11.5446130252183,4.799799606961835,-8.160799164507257,-15.035012065139066,-8.61503431861204,15.031469315507785,-1.6194678473607087,2.1143106456757295,-30.66104395880559,19.095614742167918,63.82459736387743,-0.001801244894378454,-104.1854796234288,54.39018285857482,-0.0002654843900344637,97.31827990456307,-4.942686061366041,-5.464259743136169,0.004250540598887462,-4.753217268579989,3.451525570084224,-0.008882257017788765,-11.504026977333814,5.594052474036391,1.490573227207107,-32.87640647046096,4.669681388127127,3.4246627148622384,-0.9972948164968714,-7.162825375685773,7.527744554476663
-0.1337131284490238,0.0,0.0,-2.0876366143646123,0.0,0.0,1.4227167372804876,-6.840403472371857,14.217536588417627,2.4193064434584732,10.746305351555574,-20.33892069875193,-10.556621867116283,-2.245702733955881,0.00011264412720001695,-6.530659142993907,-0.842193198861083,0.00030375015194747623,25.82589074933217,10.730848918414031,11.754890864360146,4.882323422987223,-8.579654010669934,-16.008742520669447,-8.748254741698602,15.303687900298048,-0.9816679065466244,0.7896267604731775,-30.471743503417347,18.538378773507983,63.79099406981646,0.0037254962699641916,-107.67261710235952,52.92056922123306,-0.002478606491864065,98.6414195198418,-4.806461155986655,-6.177498612707992,-0.0011169745450173602,-5.346704369576877,3.7862077593436854,0.0007920905635096698,-11.081852953957327,5.217024044749103,2.145949188927222,-32.428476224396974,4.080912965130986,3.896354274996283,-0.713546327903077,-7.58854528428225,7.02599537335477
-0.6099358844836802,0.0,0.0,-3.1471973757511464,0.0,0.0,1.4529102107305825,-6.152730128531056,14.929245032142246,0.33515104991721373,11.970123776611207,-18.3973618497381,-11.047948236019682,-2.3064433666326694,6.038611979837584e-05,-4.9912813272480445,-0.8861900985319606,0.00010630283021753114,26.163432635268,10.72569469075608,11.891075624647863,4.849533330952576,-8.871376680235274,-16.493982015005106,-8.930373135395415,15.702285273758058,-0.7756951336385001,-0.4669515897436797,-30.26102263191198,18.35882236282406,64.12550880452349,-0.0004378473266374409,-108.28942592088384,50.6725197887467,0.004937527059203094,99.0014780558836,-3.658605442101051,-5.982753627804694,0.002626574781741594,-5.801421490626,2.583244984357848,-0.0016905816885616608,-11.13543625132103,5.078010192627806,2.4396295615114303,-32.47107653538968,3.844982094851339,4.118734160725152,-0.43031470359327745,-8.01515846775843,6.796863484224819
-1.0857074014022923,0.0,0.0,-3.855689533554129,0.0,0.0,1.4612302022959136,-6.919088190051103,15.906357670304269,0.9477930178897941,11.957425229087733,-19.699354315972876,-11.471623299514789,-2.1213232895703116,-0.00015727562594411307,-3.9606099085252513,-0.9676125063737642,5.7157558133799704e-05,26.51514605580732,11.05152031441759,12.129739039566084,5.0308013949596715,-8.586033969797061,-15.690394645039268,-8.7398365606356,16.11679660360628,-0.21723289695794665,-1.8726819259549208,-30.232066238553834,18.113792216871808,64.23843738457096,-0.0004452633772474191,-108.5530321105563,48.97118991119295,-0.005662285394094298,98.18403281949404,-2.8618012833274165,-5.676626263462711,0.0012866999530784238,-5.550947022805251,2.0081799215267004,-0.0007441309333941576,-10.744584100197674,4.733691105260015,3.423245225559257,-32.04437812054076,3.167941733929684,4.908004543723521,-0.15899634737117854,-8.009682135604661,6.522395579224243
-1.242190053619825,0.0,0.0,-3.4017373545374507,0.0,0.0,1.156491939765268,-7.223650942576382,16.281931029054896,2.389706909478703,11.276877694122032,-19.652731273692613,-11.56694861240811,-1.950937261350571,-1.0130133479018479e-05,-3.4983462361685174,-1.3217484467974916,0.0003072270920326987,26.68405584717633,11.460000749703996,12.855052840176288,5.427918659294659,-8.158798253668314,-15.80050103768056,-8.814072738866242,16.673361361189265,1.1090471748074762,-3.2764872253183572,-30.171970406272308,18.09798365877668,64.51163783266142,-6.654617327925039e-05,-111.290148833156,47.90781225585809,0.003084087842353677,97.6826021576665,-2.4501525902526007,-6.292663581271919,0.0051739157687699655,-5.441353970404163,2.4877866620820797,0.0011919754999865123,-10.280929510207972,4.285482269564332,4.802080123614112,-31.525242493216204,2.2515756973846908,6.027548892349616,0.14557373134372475,-8.03528974448556,6.065404091615879
-1.2968095193081624,0.0,0.0,-3.633230350069731,0.0,0.0,1.2721519698795567,-7.248879916260211,16.897675669953472,3.5930397897126363,10.801809353784915,-19.36462372048068,-11.705733163046595,-2.0850614004453654,0.0001061186297724552,-3.349324986180867,-1.833962213886848,3.058028595892709e-05,26.55666728272049,12.285436006086384,13.021886556593008,5.642122400180637,-7.346156004471117,-15.67002694314604,-9.094721030114854,17.279717771369388,2.394838816630221,-4.488811208172451,-30.100468203434033,17.986224935813713,65.89780100243284,-0.0046503543513694255,-111.77873262093735,46.46562638809834,0.0051188249022803,99.722884935049,-0.06890589788485463,-8.201526687551908,-0.013987569878684629,-5.5696998969010165,2.809801997490265,0.0008165207562708372,-9.807574080872593,3.4928468257878684,6.255721712506915,-30.983418456550158,0.9879277363963339,7.09327434097178,0.15076727932268874,-7.716328800235158,5.730058088236489
-1.3702726096736284,0.0,0.0,-3.7464614365450504,0.0,0.0,1.2152475332155899,-7.988933965110708,17.514105469387495,4.16850548790722,9.811002862164516,-19.24169321307278,-12.028672449790351,-2.3768418232041952,3.561505330081299e-05,-3.068179596819378,-2.351499953821092,-0.0001648720009487338,26.583183238413532,13.52541478863103,12.521603329489725,5.841878753797727,-6.17210301053669,-15.092251496439266,-9.301879726027726,17.10091585631975,4.06092732280087,-5.54174943306179,-30.05650002836096,17.75620993234586,67.5577619760949,0.0022085872459789426,-112.63609374923159,44.98162754577112,-0.006434465769434871,100.51145019987038,3.6004931572611634,-10.567465451263388,-0.003565365905116976,-5.729204164583794,3.5366208784036193,0.0013145007825120878,-8.897235066406006,2.8456453845051914,7.84609260961174,-29.993847132799246,-0.18833273893866803,8.341043165782382,0.2685780723935582,-6.882530475336284,5.572892267556064
-1.6229671981473024,0.0,0.0,-3.9038416987242814,0.0,0.0,0.46944068021058655,-8.188639455679828,17.83391778786794,4.502598698800852,10.016980339572022,-18.657506400738615,-11.948252871424378,-2.458542961671419,-0.00013377928129069153,-2.9711911329557528,-2.660959016391633,0.00017447326745887923,26.337621858107724,14.756518383848055,12.527609135168625,5.947785455508572,-5.060696491048634,-15.035655387307244,-9.02580789435193,16.652994694945047,5.359477648867529,-6.645077462522157,-30.06955948772839,17.251928135440217,68.26779133178637,-0.00412162119447628,-115.13494182809544,43.54320994878273,0.003919866640365829,101.09031440967652,4.939870963569274,-11.999648624761278,0.007882881049702455,-5.53565791839795,3.591098274621833,-0.0004614443278580582,-7.827367289646883,2.344439813487719,9.573078867025862,-28.827506456344118,-1.2757344287119952,9.77124634204263,0.25061119388059017,-5.6596442515377685,5.788274471846374
-1.7443749854098451,0.0,0.0,-3.5947127140873802,0.0,0.0,-0.2934071061761409,-8.280691538131732,18.532976142179198,4.53465362870985,10.391698657382284,-18.067564222203185,-11.160325737529382,-2.189762345025493,0.00012150619353295584,-3.0131510203371508,-2.4074138419793187,7.406270608228298e-06,25.57978511047168,15.505698304643067,12.21985993372721,5.701399910661861,-4.398215824948029,-14.834514174653266,-8.627329621671013,16.250857936110737,6.620769495742585,-7.45640908397079,-30.12962950041229,17.19377971297507,69.12842804880152,0.004691015431297291,-117.91008862269226,41.541632359043916,-0.0009371777333745288,102.03949446049451,6.3947075397348465,-12.890969356036816,-0.000982656053618594,-5.547147467933625,2.664533041567611,-0.0017626873390799171,-6.473479750762956,1.6500608514218507,11.770517475167972,-27.33428061683653,-2.7088602099958927,11.575473866988924,-0.1529345252588078,-4.425586574541024,5.89667279960829
-1.815448376721722,0.0,0.0,-2.806990200667274,0.0,0.0,-1.071463712104593,-8.634897384019531,18.49420096681624,4.3234971125377095,9.85042450976222,-16.890448799214887,-10.212758059243926,-1.701760578108882,0.0006478269380330304,-3.356973222950654,-2.076242042585983,9.44939537188168e-05,24.954913339726634,16.103544373688692,12.202889271542533,5.826704155360504,-3.8208568790523163,-14.842977454629107,-8.355611899767636,15.54343755443979,8.248580278034249,-8.584264004821621,-29.9834229614313,16.51881587948321,70.68179631520866,-0.0029843862530828697,-120.8546855556406,39.98329718709698,-0.0005052707234395375,102.32574093373768,7.418510005207269,-14.928809536520031,0.004429817427374361,-4.803559149842836,3.3992778602443816,0.007610222879570735,-5.065232496285466,1.6215323244523907,13.459817993528405,-25.795010353316126,-3.3350846171803394,13.146126766039277,-0.31530605349343205,-3.297692580495821,5.962201597571798
-2.8875306740998457,0.0,0.0,-2.0431368308429256,0.0,0.0,-1.8464836245700673,-8.439618731548693,18.444547615654223,4.455402896122038,9.653048473090493,-16.13900498996594,-9.471063432896795,-1.4832894270908257,-0.0006352334651047901,-3.966297049365504,-1.7374616182536053,-0.0006062079597086488,24.286181132437044,16.544993890784813,12.352306054854013,6.018216787988735,-3.4419245759902792,-14.728267395938524,-8.156433967282135,14.032939798737544,10.546624725576722,-9.660564005546416,-29.420639527999242,14.63141091568808,72.6805345637838,0.0020895570249800464,-122.70610707822975,38.59463460745504,0.00947645146221243,104.08629494736026,8.606388578656494,-17.52871288425117,-0.0080928576418455,-3.5084037441295948,4.531189489807461,0.003944405100376164,-3.733538710284361,1.1715226774251004,15.17814099846752,-24.323964476297327,-4.362269116464817,14.59796407613359,-0.5498793262425864,-2.371771202296008,5.867148248685811
-4.110145827994129,0.0,0.0,-2.536159619849413,0.0,0.0,-1.9636301072296156,-8.567102997034885,18.875493041218398,5.060023437754642,9.108240554424496,-16.62380870670362,-8.8882748260411,-1.630433380493458,4.938962479295461e-05,-4.68046685140117,-1.5601008573198503,0.00026704117463216586,23.95211058722596,16.589736103486075,11.267544711361227,6.441010959157803,-3.2775160586772474,-13.865202155511492,-8.08245643764512,12.609663418857481,12.323842802442316,-10.873394240781847,-29.047544323003052,13.490205968720458,75.256635665154,0.010968213388937166,-124.57842059245034,37.17858958355717,-0.008217952203162321,103.70193640551447,10.61027034226503,-18.11233311900233,0.007227480013990765,-4.622133484557516,4.507802684744625,0.0003468297035121703,-2.5190762851761797,0.6797400894213841,16.785591388050914,-22.969867700395877,-5.38626705513255,15.935660632054757,-0.5898447675361459,-1.7218290010141468,5.706665147496649
