PaulMeinheit/Bachelor_Muay_Thai/processed_Data/E1/roundhouse/scaled/JointAngles/scaled3.csv
L_MTP_ANGLE,L_MTP_ANGLE,L_MTP_ANGLE,R_MTP_ANGLE,R_MTP_ANGLE,R_MTP_ANGLE,L_ANKLE_ANGLE,L_ANKLE_ANGLE,L_ANKLE_ANGLE,R_ANKLE_ANGLE,R_ANKLE_ANGLE,R_ANKLE_ANGLE,L_KNEE_ANGLE,L_KNEE_ANGLE,L_KNEE_ANGLE,R_KNEE_ANGLE,R_KNEE_ANGLE,R_KNEE_ANGLE,L_HIP_ANGLE,L_HIP_ANGLE,L_HIP_ANGLE,R_HIP_ANGLE,R_HIP_ANGLE,R_HIP_ANGLE,L_SHOULDER_ANGLE,L_SHOULDER_ANGLE,L_SHOULDER_ANGLE,R_SHOULDER_ANGLE,R_SHOULDER_ANGLE,R_SHOULDER_ANGLE,L_ELBOW_ANGLE,L_ELBOW_ANGLE,L_ELBOW_ANGLE,R_ELBOW_ANGLE,R_ELBOW_ANGLE,R_ELBOW_ANGLE,L_WRIST_ANGLE,L_WRIST_ANGLE,L_WRIST_ANGLE,R_WRIST_ANGLE,R_WRIST_ANGLE,R_WRIST_ANGLE,NECK_ANGLE,NECK_ANGLE,NECK_ANGLE,NECK_ANGLE_SHADOW,NECK_ANGLE_SHADOW,NECK_ANGLE_SHADOW,Trunk_Joint_Angle,Trunk_Joint_Angle,Trunk_Joint_Angle
X,Y,Z,X,Y,Z,X,Y,Z,X,Y,Z,X,Y,Z,X,Y,Z,X,Y,Z,X,Y,Z,X,Y,Z,X,Y,Z,X,Y,Z,X,Y,Z,X,Y,Z,X,Y,Z,X,Y,Z,X,Y,Z,X,Y,Z
-1.9413700000000003,0.0,0.0,-7.548590000000002,0.0,0.0,-26.745020000000004,-11.644259999999997,22.7751,10.219940000000003,3.9541700000000004,-18.7649,-31.89369,-9.845510000000003,-3.782214244836077e-21,-3.6230400000000005,1.37482,-0.00109,34.762600000000006,26.622930000000004,26.90045,1.5661200000000004,1.1070000000000002,-17.659090000000006,21.94571,19.59972,14.624630000000003,51.057750000000006,-7.2909700000000015,38.26799,120.72630000000001,-0.0006299999999999999,-108.40890000000002,120.98131000000001,0.00047,118.82610000000003,-15.00319,-16.652110000000008,-0.0015200000000000003,-14.146000000000004,7.957220000000002,0.0033400000000000005,-0.11873000000000002,-12.0703,11.182269999999999,-22.150760000000002,-15.325970000000003,5.901290000000001,1.86119,3.112410000000001,6.55712
-0.957079158185211,0.0,0.0,-7.0121657297151065,0.0,0.0,-26.248234755847843,-11.389050508466651,23.02249002173414,10.582429932942263,3.4578845196623424,-19.40504048019123,-32.57800273182787,-9.586049262904433,-0.0006416165626130922,-4.579099843554847,1.3221671630017322,-0.00029752629484818563,34.596208978083986,26.642242242880403,27.692856280247184,1.6329979523245026,1.047865452241389,-17.281879363017314,22.05306014216415,19.422236891260127,14.571456331648948,51.26117724864643,-7.623715325170082,37.85585559685596,119.70262785702609,0.0202243663160217,-107.82420334879295,120.89669479935273,-0.0010938219894983513,119.02514766605975,-16.117406796851483,-16.208024072587257,-0.0034093847413999446,-13.997709737156914,8.140555648216617,-0.0019535512383861485,0.43813078792061155,-12.20747611728132,11.619643553854798,-21.590419336620126,-15.613511267708923,6.259182903715971,1.7169993008745006,3.258545240629511,5.989268897618475
0.10303458386453565,0.0,0.0,-6.1901384162784865,0.0,0.0,-26.441458917881285,-11.382068591245417,22.39021839804305,10.765794148448832,2.9786221012308425,-19.804432760924573,-33.1158534563235,-9.19917743363406,-0.000517152747716601,-5.554234057661643,1.028206087114986,0.0008069360838145065,34.452187050485,26.62000614416419,28.476195050960232,1.8097310750772873,1.078225821332309,-17.16396763207217,22.362516028939392,19.185936835448825,14.272333570123818,51.63870847672023,-7.892227603774382,37.588006930867074,118.39576956402188,0.005933206156492863,-107.07441077874634,120.53948530042688,-0.0010778601978333811,118.8191779067799,-17.79426902287824,-16.138288362766264,-0.0005158104498160531,-14.31674369617221,8.389205886425309,-0.0005336243684220651,0.48375387369265455,-11.9427386695079,11.21750760270784,-21.533821177232102,-15.220640139288323,5.984010628284817,1.6188133099207138,3.3540747644064948,5.56111445923687
0.4974221758788178,0.0,0.0,-4.965782622810287,0.0,0.0,-27.037670249450624,-10.619928657388408,21.53151804637049,10.791359664816483,2.890839286120638,-20.0096427830861,-33.379481206889956,-9.027007277639004,0.00023879192240507013,-6.4355905194355545,0.5578605702800354,0.0005824660983372714,34.28110147799264,26.40541313065624,29.07749843823261,2.066582088027339,1.032910617495124,-17.41908778226173,22.488410462618152,19.005043177929508,13.999962740784616,52.05975475640282,-8.214058727068926,37.21682598165015,117.1291500654047,-0.019524783074427215,-109.89106396934793,120.1765936724137,0.0009378129299007126,119.64070532689347,-17.329556749712808,-17.283793999545672,-0.021946864657282718,-13.67049998708992,9.24187840192054,0.00985201469140523,0.2269571072688316,-11.407018157995868,10.466461310861392,-21.766115711587435,-14.448354697416123,5.486205972117533,1.6612179641819262,3.2505698715827314,5.338402131573678
0.3894942904333518,0.0,0.0,-4.00403632437197,0.0,0.0,-27.151291550321346,-9.669975128224259,21.003964138240168,11.030850314163203,2.8305681684025834,-20.438760117271897,-33.48777894496821,-9.029014974196263,8.417694096597817e-05,-7.403764084225717,0.18096790062908444,-0.0008443659179304785,34.10152105389289,26.072228641635142,29.464032064447576,2.3946529489795125,0.9026287336744592,-17.497494415972664,22.09223382914295,18.9721699287642,14.269737190818764,52.245445745430594,-8.79296898540055,36.508903952073645,116.15398387497696,-0.0064580746548181965,-113.80667752151041,120.07626834561023,0.00023894950999889706,120.54294687493578,-15.000158422180789,-18.615956379455035,-0.009321418341197112,-11.828232263744262,9.56922611110543,-0.0009149244894136558,0.3870481996649232,-11.21893979946657,10.415272328955178,-21.58985280023665,-14.25516855586995,5.510849072278718,1.7714805730038397,3.0993740782682258,4.962787361700217
0.8943400012847534,0.0,0.0,-4.223803930489262,0.0,0.0,-26.403542933367454,-9.686741531693238,21.08057044606998,11.729370497727569,2.648091747234574,-21.437464393449847,-33.640111335160015,-9.073961754837352,-7.188785949141806e-05,-8.48602447362043,-0.0666912032423581,-0.000361099739426815,34.15563775895851,25.837515067564055,29.212149088333565,2.7443683910297443,0.9755456587685745,-17.12117136455675,21.637676138531756,18.974082720028672,14.402282541556156,52.33971772956518,-9.617215251259957,35.687992176594754,114.92127805660331,0.002323300366542159,-114.88257717579992,120.0281876999855,-0.002262080362270312,119.02165761578782,-14.40547867932415,-18.83096339030402,0.006668468597907222,-10.610918483799033,8.548795573468292,-0.0029879738742064794,0.7073759839355303,-11.411061666737494,10.604354858420146,-21.280974554003212,-14.502716189445838,5.614093707591179,1.8101435578283394,3.2462177149865568,4.452291179643772
1.7144500017232773,0.0,0.0,-4.642429454308966,0.0,0.0,-25.286984723779405,-10.095251477352372,21.13098836412109,12.36556602327585,2.673734193030046,-22.383628458482907,-33.82166510196698,-9.15424190498183,-0.0005719655460883516,-9.547663237980569,-0.4818561884820938,0.001599967610899713,34.15506340036916,25.856452525327427,28.75342233266826,2.9992309949092673,1.323889706191771,-16.777919912189404,21.361711354349293,18.916415200800202,13.852907056122694,52.530903385577226,-10.454741948940281,35.27510280161994,112.93026958516465,0.006077365207613087,-113.54592145277738,119.70966857140552,-0.005030741912522935,116.71801436183969,-16.190129811846177,-17.91387528275769,-0.010133069543170716,-10.964175448981345,7.618669555702322,0.0025138251991647154,0.7541830138427054,-11.537436128618939,10.728008063916105,-21.24185321155338,-14.665276161353162,5.6813054477709715,1.708038068991449,3.6725624351927038,4.294094557355844
2.347514379016767,0.0,0.0,-4.79939776340698,0.0,0.0,-24.253690375090414,-10.159863830554231,20.943014265673696,12.72444996579563,2.7678744086407443,-22.986803927431882,-33.979635301378494,-9.30413391023703,-0.000556185958750419,-10.538228033982417,-0.8624526485637998,-0.00017046863628397243,33.95201280734325,25.898272596673177,28.491793488628655,3.2238450189568617,1.5130911843161057,-16.640076031876298,20.914689633640172,18.951568916273672,13.035546518911513,52.613471770552586,-10.925878599605003,35.153914007860166,110.28579629675966,-0.011152823621932956,-110.83690358224665,119.05387346207797,0.004087165756196981,116.37528521456146,-18.078897798968445,-16.24801681025333,-0.0023504545956512884,-12.069387097652953,7.366598079201065,-0.0004082266884453328,0.6316873087173605,-11.500889195888112,10.927535745349033,-21.35309733003786,-14.704601075484382,5.882854845137704,1.7771709791115224,3.9556279206782574,4.401799294562224
2.7181673772642156,0.0,0.0,-5.486002686565339,0.0,0.0,-23.240635373471815,-10.109590952344751,21.215244122579872,13.1361708551569,2.3689228945351677,-23.731282476929366,-34.26619882990467,-9.743677033327131,0.0002556707071916992,-11.53013196224106,-0.9381959936378086,-0.0007548711376732259,33.929394611498964,25.914176001729004,27.795641297214235,3.6123210835614032,1.4807657490469313,-16.256672733921857,20.302590764529004,19.14973030241341,12.0431108410402,52.53152195601967,-11.036605174023515,34.844561434164696,107.33924001762017,-0.010936912580478169,-107.12156475950898,118.249589406729,0.010729064733544381,118.17737534813261,-18.90303535395007,-14.518736200206778,0.011467407927199318,-12.400309525031684,7.161907740152724,-0.0022211106239652667,0.366087658997016,-11.489617678629088,10.826062382668372,-21.621526793350043,-14.656914537133472,5.791903720323015,2.1839508419804607,4.002296499159538,4.502271044966596
2.6920522312385393,0.0,0.0,-5.885356621932117,0.0,0.0,-22.307913436606537,-9.770051552084777,21.52699047775416,13.599358377861455,1.8856440700076522,-24.262901097089312,-34.798536998770025,-10.210734750919883,0.0001936731491537176,-12.509273722168532,-0.9617068179083716,0.00018208360294342735,34.18630692344723,25.91946281005145,26.946983300184232,4.099050630231356,1.402833258597216,-16.019706992573305,19.90536599166618,19.262860672706044,10.474590040890046,52.392451995349845,-11.050983398014546,34.19021823573653,104.0691394530806,0.028394004103144223,-101.22421664401273,117.33740776684877,-0.0056222683040117565,119.31276630650586,-19.597617904433143,-12.086691610994475,-0.009145843538635783,-12.121858645775774,7.055284434079599,-0.00046503326937041134,0.31094878089030276,-11.424296702117866,10.450135005562329,-21.68435809001931,-14.45838439548934,5.464214171360411,2.6644175594585393,3.8939764370655694,4.660083555903034
2.926200271802911,0.0,0.0,-5.688370810489239,0.0,0.0,-21.77405011848979,-9.303783581225813,21.488061386923135,14.011196356097482,1.6953773553630744,-24.658000608487928,-35.493707823550935,-10.586068756621357,0.0008000802278749247,-13.264423036399428,-0.9225628567974817,-0.0001747212895917756,34.561949510939954,25.954748928976805,26.195434341982278,4.4078976935963,1.3125052610969323,-15.953596875753876,19.511944077344033,19.21799240760446,8.370569087327937,52.14372837764514,-11.14140933924068,33.45347867096323,100.26660286703195,0.022097718288155332,-94.5979613839792,116.23521624554164,-0.015464636599967208,118.16831447019594,-20.73706162077013,-8.532684832604113,-0.02195053339946412,-12.866118760848675,6.873618063288446,0.004507258459099575,0.7821530714790604,-11.168063034045502,10.10555936735352,-21.200969819071762,-14.094271597777034,5.239906434956152,3.03864403855827,3.746409250425939,4.859136193271579
3.814072488573963,0.0,0.0,-5.601466103420768,0.0,0.0,-21.750203184693593,-9.381586638147738,21.140089802411246,14.319332515650029,1.7842066335515276,-25.151772467621146,-36.41316095435729,-10.872344428198383,0.0004583590200341081,-13.734795308174895,-0.8762885191189485,0.00010563285919220544,34.90500561448043,26.266316259877165,25.529304087256246,4.332453824955986,1.3692357881556603,-15.915115053704913,18.564723962170767,19.24317524764031,6.3327448617788304,51.7259540023883,-11.41797876690467,32.9680936126492,96.05978869062332,0.0463325958520542,-89.16833391662436,115.02222574334081,-0.001042237970759322,117.14153580303292,-21.09185421312016,-4.677016367745143,0.017482903961889864,-14.09676990177462,6.346659985068223,0.004383228052196733,1.1423106688825262,-10.894218734551968,9.549585014766313,-20.834031380429096,-13.636080733065478,4.824255591835307,3.225449740145014,3.750308120530298,5.1688716961126575
4.8150243226508005,0.0,0.0,-5.845298746768754,0.0,0.0,-22.12802399020197,-9.65508139856696,20.431457490757882,14.587330270103644,2.1360316934141017,-25.501208596335836,-37.59096576423981,-10.84759488937189,-0.001245010910398266,-14.064068662785692,-0.9080754963279016,0.00010857275298919045,35.279138450156275,26.5544682647495,25.137388402351856,3.9827812251678933,1.385316825987369,-16.263158259277812,17.23872621704184,19.245941455230337,4.78793672252511,51.41010110876413,-11.508859486056787,32.748553348861634,91.4227474333408,0.03130634798689326,-85.51855517387062,113.74699721188402,0.021522270831932675,117.38095531826413,-19.6140592340776,-2.092086102479291,0.018882442452008444,-14.08954062467248,5.8875448333748555,1.0271596084331428e-05,1.2244993286264785,-10.628619481977157,8.831532014120114,-20.749752277249065,-13.125805044633545,4.253985654784477,3.2334015073469584,3.7173347688188345,5.557246528237377
5.647966459421933,0.0,0.0,-6.1928005219555065,0.0,0.0,-22.751472791477457,-9.327799516450108,19.69274955230531,14.807797460076149,2.190357691168352,-25.828108676447314,-38.842309305667456,-10.618516631190174,-0.0002978870406821184,-14.195574781893848,-0.7038650055185376,0.00023697932422672106,35.931853188028164,26.462191975564124,24.672617605506733,3.545153383774586,1.1608708260497431,-16.889235313142084,15.98206656222988,19.02201584395678,3.278768218164584,51.466314017564464,-11.071112036463164,32.78580139335513,86.08322991210264,-0.10431594205828151,-86.08582597567808,112.43561345926582,0.021240445585075946,117.56429502893144,-17.382347642211315,-2.5194267279022062,-0.022845489132600354,-13.127170700672247,6.032308849054302,0.0016533544606345363,1.4715179760758215,-10.235214525625567,8.062560745646426,-20.489421441915972,-12.478060898416636,3.685673015037394,3.2552121009759025,3.500142853499896,5.818086572652721
6.0046697316869535,0.0,0.0,-6.016704440667471,0.0,0.0,-23.324217363831533,-9.217472605920069,19.242784513840736,14.85535942014873,1.8628086436953089,-26.12029656763852,-40.0045919798118,-10.378709680863986,0.000745267372182042,-14.079044480452495,-0.21696400407280303,0.0005128438264882169,36.7053407330463,26.27360703817748,24.089649127339104,3.107393054897561,0.8334667860877626,-17.358971531704036,14.511349836709908,18.708727969181062,1.1344893212052216,51.96495288058185,-10.11787141596417,33.61518638743953,80.25937403392695,-0.1134791298398298,-89.32243022615523,110.83773141228552,-0.035648391615590996,114.25590043298837,-15.9916677994277,-4.664818795387633,-0.009406914667065046,-12.598167417505381,6.503061095429175,3.3696171119502065e-06,1.9438949540822061,-9.989052759873415,7.391397795976702,-20.01218942981579,-12.00268161618877,3.152799290617115,3.393378744060918,3.227528696059786,6.107480673022447
6.2514973427214695,0.0,0.0,-5.7586731770048445,0.0,0.0,-23.99611699723229,-9.587929841097365,18.59700488322268,14.975974412029993,1.8093840618982067,-25.98793247888382,-41.17019568535126,-9.980852687258327,-0.000903678825210375,-13.952683114411842,0.17045367664409264,-3.1535389325328936e-05,37.46914707659753,26.18428137998097,23.839697166840285,2.7808788866520415,0.484747667473367,-17.97181966848849,12.377502018772994,18.34424347787277,-1.3866922070384602,52.52345136753421,-8.847436961519698,35.209453043988034,74.18854657994096,-0.002592579291052741,-90.08585000675463,108.89723875837151,-0.05592442210487231,107.54439042982241,-15.353148150516533,-5.381580597528394,0.011253612539588564,-11.788349369730662,6.5603795439554435,-0.0018848572730890962,2.345321453122394,-10.048808327487077,6.895849035751132,-19.62497671968406,-11.875589286680945,2.6673764075540003,3.7232114197334996,2.9694086018686288,6.6549156886540795
7.381341334316045,0.0,0.0,-6.191885606672057,0.0,0.0,-25.13400837092603,-9.70496228660585,17.65618611751112,15.241468400937258,1.9317715613291833,-25.657476841397997,-42.391170886467165,-9.40609970303036,-0.0014100214741845157,-13.817184111795719,0.3597195993018834,6.399172456868899e-05,38.431442574354136,25.881249184458547,23.620828473565023,2.4685181552255786,0.09539815855238191,-18.966921179746286,9.841062217902303,17.749894720907267,-3.3611868097492255,52.857183577880946,-7.595759273288591,36.83869749618688,67.5979945849108,0.09844460095393276,-86.8987949646942,107.12159349755127,0.0031717288801928834,103.16920362773902,-14.33946064097639,-4.638025872310508,0.009331635440781503,-9.872944980489414,6.286943387341098,-0.002116819838240219,2.4652064424832107,-10.030411480690512,6.013814817874599,-19.516744904434397,-11.533498141723737,1.851890762702557,4.268368731095234,2.636911345383311,7.177747898065938
8.682819040163066,0.0,0.0,-6.2761260080496175,0.0,0.0,-26.346378609954616,-9.811274567947521,16.814002974215303,15.281013753586475,1.8481767393002175,-25.573785025666442,-43.734598922429846,-8.868582439297729,-0.0012789145010226818,-13.482525709472952,0.47901514790161254,-1.0299073879662754e-05,39.6574896544049,25.499828788669166,23.01297515444783,2.065048179274873,-0.14395251879937723,-19.973657234072874,7.578908483427363,16.69340047340707,-4.4349401533606025,53.100111658571095,-6.414175505621112,38.32944852241367,60.34189929743011,0.14485255700327,-81.54153574206795,105.61244824410467,0.03867403080700145,104.29696316194635,-13.787617644920601,-4.103481378122959,-0.002435551298730965,-7.749978361460577,5.9517835518000375,-0.001639164050437014,2.4673751803034736,-9.69113398402954,4.940245336856718,-19.49947156288931,-10.823076793911921,0.9814553866859056,4.9207052675038625,2.255927500982638,7.666234993002971
8.560980852764802,0.0,0.0,-5.366746930926346,0.0,0.0,-26.85123219879949,-10.101075320865261,16.236358371907198,15.146552424567604,2.010752776469027,-25.571108209038172,-45.235997523357156,-8.591869649717294,0.0013539786499767862,-12.996150006867122,0.48846145721514833,-0.0003562647724978148,40.78560021951899,25.49249327218968,22.304089628814612,1.6128721409057398,-0.15993580377831054,-20.710747970615,5.416008922204445,15.114025901971686,-4.049055080370391,53.289554684976885,-4.948233614402922,40.193617679325456,52.746782737103636,0.009287111034982197,-77.82737070114315,104.07769916193554,0.019098168407761008,107.56679967293148,-14.391502250576895,-3.6662988015415126,-0.008634787995469573,-6.192554764157566,5.6337553864919645,0.0008744436943711969,2.7099835012340305,-9.35612204193728,4.510178177438902,-19.235825810688745,-10.353775270903132,0.7086981524566595,5.574685506260113,1.89107699992507,8.66675137511499
7.029821740395085,0.0,0.0,-4.53833776413119,0.0,0.0,-26.537704141035256,-10.339494550669743,16.087434680614844,15.03258083105857,2.1875974407016736,-25.503571318685907,-46.615308065111535,-8.589483048557058,0.0007221447032611598,-12.527526631807556,0.5976167873958044,7.888179343112982e-05,41.537601398470265,25.526748689785197,21.57661125705557,1.0546389525201125,-0.2613990690225715,-21.190665134785533,2.8908006951348875,13.226993277310951,-1.3659118263649241,53.59687307862814,-3.1225424827343007,43.0886687539449,45.208075492373645,-0.11202348695364547,-78.50601527684914,102.59728742895614,-0.0180645623438887,108.34780126758133,-14.794650150892576,-4.375400648886097,-0.020856196342631635,-5.407894282271464,5.435137282880148,0.0016418688549649171,3.425202422923842,-9.220155537404583,4.622543228388146,-18.510773044176272,-10.269097669872297,0.864888804010023,6.135685018094733,1.4874796238823398,10.026636432151939
6.061131921953231,0.0,0.0,-4.168058031754412,0.0,0.0,-26.156182950089082,-10.583319707735333,16.20837386029743,14.720407266364916,1.804935521850441,-25.397311575615724,-47.74506454607882,-8.513334273105325,-0.0021063647473108533,-12.203015228342526,0.9346424650138935,-0.000279550605929464,42.255736101179075,25.162661390587687,20.62597117142042,0.4555217810506872,-0.46069244557306227,-21.72143353543824,0.3282757565564206,11.333626064530632,3.839173489260628,54.07680713711517,-1.158829232953738,46.879602404648146,37.993516682972576,-0.06722559039211165,-81.49073043435668,101.63416158485076,-0.014322300352587537,107.16562889697046,-14.821957701489202,-7.246323623839002,-0.004592608713851253,-4.553094721216141,4.879843106738781,-0.006056363276865872,4.342437376868506,-9.191549691444777,4.321454284529784,-17.593071932068092,-10.131534900723002,0.5956213527631997,6.560914553533695,1.1619115661760853,11.38640438284907
7.001290161460735,0.0,0.0,-4.00777633733382,0.0,0.0,-26.344383651408116,-10.885110179698946,16.35662743372815,14.391345165274114,1.5743292638228925,-25.39311033383483,-48.60193672227693,-8.583270704159808,0.0001976209407486106,-11.892289571059708,1.3086603987944343,-0.0004498556456709185,43.16586808245879,24.30877866601843,19.09840169296827,-0.16592384185565623,-0.6853208836251958,-22.552798727393114,-1.8764686668894615,9.779121391742507,11.825125555831317,54.12742127098774,0.6951640051090949,50.90837756340731,31.47573909941431,0.006374442517633605,-83.97183863052398,101.5220343682591,-0.007977475716235556,108.37851206727535,-16.88099549406704,-10.239939409100504,0.03587366526981293,-3.0385964920529243,3.945959180763321,-0.003375882114832968,5.281908158666186,-9.235407228649454,3.08471977524831,-16.656529874306557,-9.71612926958412,-0.5705886901951801,6.933035085765877,0.8018213677719624,12.863686483646315
8.03112882654865,0.0,0.0,-4.130173048175002,0.0,0.0,-26.728633893367945,-10.971274053238048,16.215210404684033,14.509056882457392,1.9266430205632001,-25.546854766541447,-49.21400526823731,-8.971469441671672,0.0009090138018362539,-11.369915312695497,1.754014385357508,0.0009640601669502168,43.75875702990685,23.023812255739227,17.6916416632495,-1.135621903303206,-1.2489286952254561,-23.5985282633919,-4.028948543077044,9.073966746790061,22.907840930988677,53.82895105719685,2.332593253509381,55.13911885702326,26.361309047575954,0.014843590212618255,-85.16654790728018,101.71476938020226,-0.006011873798665915,110.28236710488926,-20.72908164384024,-10.76620279350943,-0.0031811478291861603,-2.0208298248450616,2.9308496334539416,0.008884116973586452,6.554398804108328,-9.070766463521283,1.6626401324046494,-15.362805268898837,-9.039094496171751,-1.8283211452190635,7.2198675109587835,-0.10584631960227965,14.443194202876313
7.38466934242509,0.0,0.0,-4.259540265560489,0.0,0.0,-26.51840124021738,-10.759270294257702,15.584627869296591,14.966525476391753,2.405952721524058,-25.74449932470631,-49.88793102905364,-8.946354301546565,-0.0035209931643732546,-10.686625527435432,2.2990529829482735,0.001249593324554735,43.79139314850047,21.700936875738194,17.670360535054026,-2.4667445275885793,-2.0901719783407664,-24.449478253961097,-6.816922857716772,9.682801135396902,35.65457684982755,53.89683512288413,4.264542601045415,59.52182291922419,22.90905938406801,0.0042587763818893775,-85.30288194491395,101.52886125203952,-0.007723302099923539,109.40883302292465,-23.542369009541673,-8.937570573654368,-0.01120029371688847,-1.1769365057393115,1.7006315285549845,0.0023462184918758714,8.123505502271515,-8.485598863786532,0.7438168925115795,-13.747874726648115,-8.157511714757344,-2.4597815970674097,7.409329467713318,-1.5026709420724256,16.14144443958223
6.6656001762222585,0.0,0.0,-4.2995910496097,0.0,0.0,-25.683201394937612,-10.400590011485686,15.327502451976203,15.164868423573475,2.950949408718834,-25.91519768040109,-50.73271340108282,-8.540892197806096,-0.0017543020087963251,-10.125861256867143,2.6150612808078244,-0.00034560951629504966,43.77261178675839,20.7820859548908,18.293439765957437,-3.6636871826761013,-2.5128756935863823,-24.998575135945167,-10.224180100625398,11.373812796609762,47.61635399093059,53.931269805994305,6.345264953366794,63.174620437253026,20.668682851358632,0.012827532417087532,-83.4227970813182,101.11519561883922,0.0013284942081437567,108.68089734619289,-26.642132397578937,-7.26179050240047,-0.0009412426571489242,0.6312341431036026,0.3643455608362125,-0.025272487551781613,9.304690146394005,-7.757991659396765,-0.4050325019056036,-12.509238430652815,-7.058988843849855,-3.251720960356834,7.750154811522094,-2.5774741865495963,18.33695688273365
8.774413570685782,0.0,0.0,-4.626629838694817,0.0,0.0,-24.850569922407423,-10.29173086235965,16.470729911549192,14.746190196053462,3.560678753302045,-26.014011742161394,-51.353576792257066,-8.962635506702426,0.002305290795046355,-9.792507900930001,2.4933970514738606,-0.0006238126358235039,44.06431920822544,20.29562685321526,17.526908819409933,-4.393390902278529,-2.16985208954848,-25.56297779352858,-13.365211896149242,13.889661334411464,58.88606304618066,53.50466139042103,7.2505011139720175,65.4878357991712,18.99961797908512,-0.012762727552746716,-81.36457538860348,100.36934512929815,0.026281438001530134,110.10004689241022,-30.22784638079759,-6.592304183282984,-0.0011829237504020324,1.74243236364228,-2.328497509152863,-0.016872173008418544,9.95849267439,-7.384570552383337,-2.606618134733718,-11.779836696920867,-5.902525592733558,-5.151973285350797,8.519600991438429,-3.011989577535083,21.299658562199337
12.793723260832694,0.0,0.0,-4.5237898960156775,0.0,0.0,-24.387642645366178,-10.502509556312122,18.004279012329917,13.82771009842931,4.078049544043406,-25.928696093179266,-51.380277217381064,-9.978577254814315,-0.0009042008732838842,-9.690675059134627,2.095001327556742,0.0008157589798430638,44.40175145753449,19.584815834993606,15.681740608481126,-4.7015749014886365,-1.7734183274808284,-26.319754213815735,-15.828619693889875,17.272428154682185,71.11788076927773,53.18923530418,6.80131071908156,66.69188327288852,17.578001043695174,0.013739851085015247,-80.26820719520852,98.5815931461355,0.009292952782133932,111.13706861567282,-30.613464245761513,-5.320788644946098,0.02385488485976229,0.24479233409429055,-7.660289430215544,0.04832063859107032,10.114420556959812,-7.323330115485823,-5.769281227423661,-11.487008689913111,-4.687152045437362,-8.056673355833219,9.82719652719635,-3.470328203940234,24.80326405150923
15.495063980104733,0.0,0.0,-4.1575526362593775,0.0,0.0,-23.86080361059696,-10.470919123960067,18.92180011130563,12.901215195660377,4.435732711001534,-26.228068175137665,-50.96228409470645,-10.674624728293097,-0.0015478110097200454,-10.249291903907515,1.9242260560123348,-0.0005818914905397687,44.407810644155646,18.376309819879673,14.210795818235708,-4.609308925592213,-2.0851205018157146,-26.42302417906582,-18.37822188829379,21.225272812363244,82.95944182320522,53.150328348707404,6.221135746711634,67.56069757686444,16.82806742316192,0.04006232823459644,-74.41810450347624,95.6605980808684,-0.043864216715813156,108.82863952465763,-27.545984592201446,-2.93336549814588,0.04992550838208081,-3.270302217036469,-13.960596793549318,0.03811441176646526,9.87506509541237,-7.166198435227302,-8.714139609441396,-11.544703333841934,-3.469588162877009,-10.723653001125362,11.64460991030106,-4.147598792011331,28.288913698959924
15.826883109585477,0.0,0.0,-3.9619150192773365,0.0,0.0,-22.699231272399587,-9.808466428063948,19.516872504891666,11.752252554475927,4.948712554204199,-26.8849998708062,-50.485288474208375,-10.749611845148069,0.00037447460730696103,-11.921363009754174,2.191257689501645,-0.0048902009706348355,43.97025894882253,16.96178910684936,13.473601263895395,-4.272118921721134,-2.8985734226631483,-25.86941589442204,-21.734945540960812,24.97174245901548,91.13989885467419,52.774448992782204,5.970997015751706,68.53607671573093,17.666376088088818,-0.05026474432757674,-63.99239555114782,92.46535038514423,-0.019649080029236512,104.87708583801165,-24.272077086623977,-1.5238573291139474,0.009891673119090344,-8.625077596555528,-17.911944479469877,-0.05261359933760832,9.889032162385574,-6.878920323615136,-10.222923184422713,-11.415311639484493,-2.6565508333243164,-12.01542295972085,13.51628718388926,-4.600440275386686,31.03825196687067
15.548975144927752,0.0,0.0,-2.685345737144133,0.0,0.0,-21.503815626976706,-8.691468681721787,19.41947086770738,9.235999580339545,6.140509420393061,-27.2112542358387,-49.98338272593265,-10.31124040307663,0.0008738260522598289,-14.616938628043545,2.4450775748127818,-0.0003342911935218561,42.98873563440932,15.586903048078693,12.88368868026609,-4.0691567997982645,-3.528123118109431,-25.738643624484403,-25.224678859416468,28.30717826799791,94.06537777529697,51.72188071181253,4.973503375547369,68.51562079705107,20.490772287619695,-0.09476444234340925,-55.92425846102766,89.42136231135383,-0.007197363321467596,102.20002243618829,-21.958004940748317,-2.7451079017410267,-0.01080028527707957,-15.110074572712408,-19.86081929570887,-0.0031741961621355817,10.074919196091136,-6.588429149368354,-11.34267965324338,-11.13589055435824,-1.9826309916682299,-12.947232722755341,14.711886179194195,-4.811670828412216,33.12166340841061
15.349268664722032,0.0,0.0,-0.5423420263235205,0.0,0.0,-20.55690816062093,-8.215746715058287,18.418776988737484,4.9365455721926725,7.64518757234999,-27.104714306661663,-49.243325504182195,-9.963553644705671,-0.0012144145072343069,-18.22257219278511,2.4255856425323086,0.008847114702450535,41.58804629066515,14.32500150139317,11.594730063626228,-3.782597221169458,-3.952324370814301,-26.164759890928742,-27.70554345903099,31.944333673534757,93.8502018468457,50.297760952036995,2.7838811127812346,66.49201587172867,24.286187673930883,-0.010414197145388548,-53.59720270303195,85.65165388350188,-0.035764610789933975,100.63456978170568,-18.91811790235204,-5.239787922737532,-0.026518262579988856,-21.68616109550875,-22.092335777978185,0.08014861363664484,9.74902424802165,-6.309956985150859,-13.555160383519322,-11.26269872985434,-0.930977763073627,-14.898498059838404,15.313558919507523,-4.962551389132531,35.15769738444219
13.282496798372225,0.0,0.0,-0.35182312037784685,0.0,0.0,-19.003144524339643,-7.889172951845918,17.39523965434216,-1.1230720479044858,8.613002866294066,-26.175143817389788,-48.1771404585042,-9.750754297600812,-0.002727339078048097,-22.807974486615898,2.464458287253103,0.015500243694884761,40.00205889468918,13.30628883874121,10.096993727104033,-2.9433778462727065,-4.454114735451855,-26.724041152397138,-28.583349920991722,36.514507060449944,96.27069228601111,48.699276667950144,0.5150963569318981,63.04902909283814,27.241006633367615,0.060835627067908786,-59.49995515102773,80.25632389911132,0.10391513436276661,100.61809575703822,-14.782137879381006,-7.47124210637703,-0.01950993273961261,-28.833293529537602,-21.800312775891705,-0.08777515100829732,9.064138464961149,-5.957290097893558,-15.527357867509048,-11.749373417519605,0.09848291562353007,-16.604369035790487,15.947419308930906,-4.8183402340621875,36.78863541883556
12.036234742756143,0.0,0.0,-5.429236026535476,0.0,0.0,-17.56678445801898,-6.9742610656169,16.706937119364387,-8.784705439504823,9.022856619562116,-23.553519169264614,-46.65148235336411,-9.406413944886857,-0.002074841674145511,-28.606687186980857,3.0348751138893,0.010652683092421792,38.2140728439889,12.469968829478582,8.830702312686569,-1.6025605216786891,-5.050005642351025,-27.028336726122635,-28.216403984028254,41.670354410126514,101.57008874351615,46.79209113955457,-1.390728845957896,57.85913814713359,29.353055985502312,0.03492987479070187,-69.58571439877952,73.1442806671293,0.18536566306182586,102.39857686698205,-12.481842440858424,-8.578677096710999,0.004629374218668052,-33.65297129474025,-17.284724354192228,-0.07842711294445744,8.459398496383967,-5.675660146877307,-16.323386150269123,-12.2693021972346,0.6426647441529406,-17.24496307968593,16.478703537529082,-4.389957083488073,37.230482954628464
13.944551658794246,0.0,0.0,-14.608336579324797,0.0,0.0,-17.64611370396252,-6.266122586069151,15.530193616461334,-17.42509280584477,8.836889758388805,-17.96890630675255,-44.96861198669955,-8.5864936781184,0.0026704604292807936,-35.505782954898436,4.494161522820564,-0.013441625150942505,36.49570514718368,11.482338080487398,7.330467951777802,-0.20038201744394254,-5.512270747928768,-27.02025136018028,-27.402655855813308,46.74577827158094,103.80397639033097,44.52073293187635,-3.466706132034726,49.96188126463205,32.04475147161541,-0.04456911363050954,-74.5637668116466,64.72976966272024,-0.17362824325626292,100.44554109572266,-12.885349914428165,-7.7408404012830685,-0.008779264606319564,-32.21102932260556,-15.451369430246393,-0.12049356138669641,7.953301905079363,-5.765601988559717,-17.701190153127445,-12.618697899640805,1.0419986133050032,-18.5596812513957,16.38277351409238,-4.053968189670328,36.177067081624735
14.982814530625529,0.0,0.0,-22.6660146546075,0.0,0.0,-18.287242696583423,-6.0177542366486625,14.001304727334638,-25.58813343509268,7.695061548110559,-9.2655966333697,-43.405137350549836,-7.320584290139688,0.00259441551613278,-43.25897940623567,6.738132838935606,-0.03860238482643782,35.08920153550429,10.836914927643722,5.821820737541985,1.4399771716975,-5.5276766554416685,-26.763173649430215,-25.9485696924182,51.905336078379214,102.08693334560596,41.791019058479215,-5.947020771589031,40.76826600398345,35.39108599573072,-0.05473406772638566,-73.79283562244791,56.263102724341586,-0.2684385637151671,92.85969486410048,-12.829732918084616,-5.734068220502501,0.005944550295801874,-27.581839383450752,-20.151555055833775,-0.1600011878447033,7.64098823272924,-5.9049018972534135,-20.05812385163168,-12.637006822003515,1.729813990976575,-20.806239446778935,15.92498433946174,-3.5942597830328458,34.01873240677337
15.10732867100506,0.0,0.0,-27.464502534190018,0.0,0.0,-18.71914249374901,-5.48024837911717,12.605955201306646,-31.129767380514306,6.153776572140843,0.1939031593831343,-41.660602483764954,-6.288416026642297,-0.002479684855253071,-51.955915533993824,8.930059586395299,-0.022600923759008643,33.553771909133346,11.47198377967424,4.675124681999553,3.6658532964214032,-5.045452345768191,-26.42058574625824,-22.74215077586772,57.2157803080235,97.93197956645699,38.33232381315785,-9.109100879545059,32.08899707177239,39.021149024343735,0.0301620204296848,-72.97297904439773,49.04194111572491,0.07413226711684778,86.93672921832372,-10.567121631844513,-4.29931541804227,0.011268139320819576,-28.679118155179058,-23.2043753940159,-0.10421196243207047,7.212397409548178,-5.4524850882868705,-22.60572715272448,-12.721051749301747,3.026212983357465,-23.033231095637102,15.357603812607483,-2.395144353830839,31.85096220123562
15.363358707735356,0.0,0.0,-28.93811795970319,0.0,0.0,-19.499123669037893,-3.8461528651778223,10.814495869775751,-33.90600429349845,5.436857147430648,6.938964430130078,-39.638271358972574,-5.601748103491116,-0.004209059543073911,-61.44307785578906,10.255327166078098,0.029853209937953377,31.701593488639634,12.990486105833774,3.929074314109365,6.403707465329888,-4.70930309507358,-26.566076371836296,-16.473408998290434,62.163446898652836,90.10079270866282,34.17401336841472,-12.667612008377997,22.610691862373788,42.96563376458199,0.0032255312645776777,-73.17751028978273,42.1746831766185,0.19212958243651931,86.2935629540653,-8.560248640333338,-3.586356328496482,-0.006766706275071398,-35.385606182914294,-21.05137759629804,-0.19830191265745234,6.1691588702735,-4.577065508634464,-25.345872356541864,-13.369655197156955,4.772038173320902,-25.31219772521486,14.551378382443508,-0.6552871406657392,30.053222248268245
14.361173314246404,0.0,0.0,-27.855832240277085,0.0,0.0,-20.836121494030703,-1.939229693444495,8.053608101364915,-35.17353041551068,6.028633810129609,8.358722365390424,-37.491980746167926,-4.747569118183419,0.0017178479225776,-71.30949018615465,10.860607426060575,0.050661690917413335,29.852459644590724,14.281444018740219,3.9774516817400665,9.772193760463228,-5.384354559448859,-26.703325397388216,-7.504083559479066,66.51970126104423,78.27049748614073,29.817771583070062,-15.807126507412088,11.736300814784641,46.82792485905935,-0.05644811078987734,-72.02651585547542,35.11292098377822,-0.03061032565211671,85.50339977260856,-9.615992837055783,-2.903968773471753,-0.026420265489151096,-38.52823352933971,-19.73031623446765,-0.06442939665636545,4.788332756068915,-3.6682411290793255,-27.905244006475513,-14.358908247061938,6.4751607915632805,-27.430008155009077,13.650430069109815,0.7323905664883047,28.04563566647177
14.279112179592582,0.0,0.0,-27.653229032192122,0.0,0.0,-22.66512642146994,-1.3440591307691985,4.772616830202361,-35.309065220972414,6.5335248380406235,5.7000650786806455,-35.26439364919101,-3.5640875100185165,0.007172711446715006,-80.97800418702549,11.74507087817694,-0.009858560005933369,28.165946895717557,15.320642606235745,5.17319140756232,13.725792070354665,-7.066760632268336,-25.437074758271855,3.872392116783512,70.3122580586866,63.62206165208246,25.578997840320465,-18.805703133900085,2.0212803154162975,49.986740193913626,0.03350800084293334,-72.20049386336545,28.86869719855697,-0.07432684202499915,81.92850076134835,-12.820588790247312,-2.9222538789517634,0.008680313436733377,-37.469693220698325,-19.24037126323826,-0.008445208475103251,3.725652757673315,-2.6823333550751096,-29.754852077648962,-15.1380210959415,8.008765226092448,-28.866505704724794,12.768349726674778,1.7646423140790717,25.61087210449921
15.159679276788836,0.0,0.0,-29.788311061042013,0.0,0.0,-24.02226030190546,-1.8568122247963061,1.679022684550112,-34.79242902296412,5.7530661831444965,2.907172759313254,-33.130442381515806,-2.479668282585613,0.00396758920950943,-90.06964433970384,13.697742887406795,-0.09818149211719429,26.99107052143171,16.72044536750865,6.598399909233125,17.93368096499821,-9.220838366187424,-22.358251897855705,19.485385468659757,73.02727715708154,44.8952263041943,20.795780191973257,-22.187956819683542,-6.184422646339253,52.75878216844462,0.07625753615492312,-75.64051986094756,23.85476900214333,0.02596777302607686,78.40634498431601,-16.28071665654078,-4.50337135718409,0.038830330403312935,-36.20785716060266,-16.724112666974595,0.026866211758827294,2.9794306241510062,-1.681248964645006,-30.98287571874197,-15.709294810041701,9.351538149331274,-29.715844837507202,12.037789268453732,3.142107763212434,22.63152402680831
14.744490366778782,0.0,0.0,-31.916280707079753,0.0,0.0,-24.170303326580996,-2.0557437113133714,-1.1808339078740357,-34.533303812686604,4.480825605505898,2.645859695064364,-31.128336708537635,-2.1519669000476136,-0.002018792563270845,-98.55369817773291,15.368585605724068,-0.015050279979548468,26.631416652326333,18.525400890113605,6.924590910692469,22.284070216210264,-11.711933583517038,-18.794873648323343,39.639397454198615,73.99039664846767,20.870568824931823,14.562196046868662,-25.43481735876681,-14.86980794667903,55.31530701199886,-0.04074918682071832,-75.41907009216044,20.11984221714156,0.027397893867753244,74.97708509711316,-18.65476631299073,-4.749186338007084,0.007938571109851708,-33.010955924977615,-15.716139725685029,-0.049053569292872044,2.111840695185127,-0.7655782634794822,-31.737113190598272,-16.487108649394003,10.460218464142036,-30.14400108236605,11.75563459753506,4.808311543532468,18.869024657292524
15.03021256006656,0.0,0.0,-33.238981711148924,0.0,0.0,-24.573978922574344,-1.6185487232098053,-3.657308017157745,-34.59697328162236,4.057915039259881,3.7281284695557564,-28.921898028713525,-2.5848419147574377,-0.004237798634617703,-106.16499501686508,14.475058923500386,0.08947686077276448,26.353697144989358,20.312555714582164,7.144569397651956,26.66007613951512,-14.617666254260573,-15.877080246096606,59.985220360616154,72.8685681855848,-3.5590398992885186,7.664606196051472,-27.961119346043493,-23.9431398428901,57.1473290785572,-0.04526290245649761,-69.74442460473136,17.09124768190194,-0.05986758754353937,69.52101058954614,-18.313790351291733,-1.765407224451622,0.031286491289356275,-28.683763197692283,-19.032824284269914,-0.09387664358199072,1.1234285803298512,0.22734864495594914,-32.185648569776546,-17.45229597623774,11.544318445537028,-30.25468385917655,11.5081414840575,6.161075264783746,14.878572098788807
15.11813828247474,0.0,0.0,-35.465981912395556,0.0,0.0,-25.99377728892524,-1.1079090819989543,-5.22983869178226,-34.453805565563634,3.1816607080291073,3.340314202925708,-26.644061192479253,-3.5100171131217404,-0.005115095676265792,-112.42612179518584,12.652490670260814,0.017961141475502082,25.35898223715281,21.99672874383196,7.740103984735927,30.24325162419896,-17.641319115863503,-12.314971823405498,75.8795866847596,70.2806895510979,-22.66037265078821,1.4409806749569252,-29.928673224134876,-32.06339290713037,58.51280814901354,0.04179225190713558,-68.21995841924533,14.27014784905893,-0.03297163531015336,64.01408225923598,-15.888417471428003,0.24662635003684039,-0.0015892765253607514,-28.331033731756342,-22.964964678932823,0.006533261225525786,0.1123723952135275,1.3503035757608988,-32.19159376228335,-18.53893765996986,12.610441918289023,-29.89388839037174,10.367814401197528,7.31317947359704,10.978762597895429
12.966357062025068,0.0,0.0,-37.68933564907916,0.0,0.0,-27.690260741633555,-1.0314150263378794,-6.28070848289292,-34.53651054198185,-0.05719319809846107,3.0927307309111085,-24.854617747482223,-4.594937623981821,0.0005469469276608047,-116.9229543250056,11.727158475404622,-0.01412505860586118,24.244140940747222,23.93056169853034,7.833212911373668,32.57400998883283,-20.606750115031378,-7.255588059002358,87.72984874155132,66.2542080512577,-36.63041656371644,-4.5767833774026005,-31.222006410861706,-40.48330281464154,59.46140629574659,0.034878675592700026,-73.80782262407149,12.466578037472502,0.04094445856882394,64.05989229221191,-13.366171248521379,-0.5105722635670431,-0.0231202497957965,-31.580029054085436,-23.080676270392996,-0.029769846809003398,-0.6234643778937781,2.253769117493056,-31.55063235333577,-19.460632572408382,13.26012669959422,-28.973563119271684,8.322456573719519,8.923750700382433,6.836648056137564
12.265007927487535,0.0,0.0,-39.40788150623194,0.0,0.0,-29.732501184015305,-1.3319855326974679,-7.2662099109712734,-35.191781665978695,-2.9209189097446244,5.1593646828435125,-23.356372626930412,-5.369374429631663,0.0014670928220342928,-119.06483103818024,10.119943664921934,0.013176084672735936,23.525305242046212,26.241148295876304,8.452943908501961,34.644169502788024,-23.5469678018458,-1.4238235749575223,96.05355440908217,60.2109946270307,-46.02436317578675,-10.916208967383437,-31.262746278835213,-50.85106476540332,59.326955973962505,-0.023675503939609637,-81.10261069756294,12.140586714403064,0.009128612105981083,69.14187339930692,-12.146824596072374,-1.855785982177573,0.00016807558803379685,-32.952351502230016,-21.126167448709293,0.00805564786302335,-0.6544459057089016,2.804401754829622,-30.984686497061563,-19.63696759399034,13.597805897370472,-28.240179011117945,6.069093828153977,11.095848108863404,2.942106965161599
14.012781073085675,0.0,0.0,-39.93455059402847,0.0,0.0,-31.896762652444764,-1.561633315846042,-7.533286078781014,-37.20856093243819,-2.1692973881908872,6.35040484500287,-21.572815945306278,-5.882612695896494,-0.002426497078850435,-118.38827391387224,5.834920995322215,-0.03726507533250308,22.55797644463534,28.544075245164453,10.578120013484515,37.454151021134564,-26.39848271991299,3.459006315740627,101.23946530807177,53.32430595081618,-51.41163390542408,-17.016501850449316,-30.19572843991232,-60.68747823016907,58.51855875279164,-0.018926441597537882,-86.93750624470465,12.987980438233746,-0.0317929769107785,74.61231730391899,-12.017301480019619,-2.9230454460958972,0.006810007748105702,-33.5102080679297,-19.359414284154354,-0.013657039079785199,-0.3358558710074161,3.190437663747871,-31.19378844111483,-19.311629965144782,14.030772247583629,-28.314242442540433,3.9226737042101933,13.527742530604854,-0.25251127829614417
14.287993520544688,0.0,0.0,-37.918929714574794,0.0,0.0,-33.158919040494965,-1.5936546919533034,-6.858763815199393,-37.57722242467808,0.31531278171209737,4.086808492140131,-19.814751891206875,-6.083850789257458,0.00011247738105088913,-115.30707521272157,0.12325539316293604,-0.040044375008779616,22.604540874232843,29.79629708834131,12.926564256540482,40.95420016168779,-30.25748458833638,6.399629476732915,104.95144364922498,46.728517295050246,-54.793784624209245,-22.669365099724732,-28.494655111003897,-68.03583744085313,57.859885474002716,0.005829066280834483,-89.8817282376852,14.482939428040616,-0.015894239272889018,78.82238422330188,-11.941991828601937,-4.314641513348451,0.0003222210644192115,-35.75682922860583,-17.29696124447598,-0.034289516658760066,-0.026240309135670943,3.789373195523565,-32.18746935808081,-18.870351116613634,14.918796080839307,-29.08287611898481,2.910869855316818,15.784274430756382,-3.6681533220834566
12.057051483192962,0.0,0.0,-36.09443258706461,0.0,0.0,-33.196727123649,-1.4272688778774465,-6.009867746846945,-31.466221164848164,0.8371188620424579,-0.13357782668481644,-18.630345786360717,-5.8278387366135,0.0026876960387813027,-110.82401246663454,-3.8278692927235567,0.07595545591819006,24.01518887662861,30.19252516867548,14.836407085419618,43.589790977027775,-35.16158802391563,8.619134889749699,107.81092816636743,40.38860538179086,-56.80423169689818,-27.632166572043737,-26.568460341472132,-73.18163673920873,57.511013360180264,0.007719769688667826,-88.83432359720373,15.673048731629233,0.019517808649082046,79.45026886643322,-11.034049293419262,-5.348386134997558,0.002347657931242834,-37.33147901102024,-16.261092162650232,0.003565822360770459,0.47922283409215294,4.612527319815797,-33.22507354292097,-18.243057681024194,16.031325499381794,-29.82439130597261,2.751636228695465,17.995377349525057,-7.715333256552998
10.900711678537848,0.0,0.0,-39.56684610372339,0.0,0.0,-32.74471984723089,-1.3179638604988975,-5.4951756666039895,-26.743036132595854,0.443221754142829,-3.7825969988716777,-17.53713616556803,-5.658527950782503,0.0011488634495085937,-104.62802785241479,-6.67887758090618,0.056014307082281785,22.958762730775355,31.709208702897186,17.70663475761931,44.30202222916204,-38.412853445423295,10.867449500087128,109.4487157496451,34.591802041000236,-57.50700300345655,-31.4467321085085,-25.11094169513299,-78.07478684074228,57.388532739758546,-0.0006534868250431876,-87.02315962067757,15.559468986994439,0.010776765708601813,78.60458190426218,-9.442715655143592,-5.060699585645058,0.0074096957878201945,-37.049612526594686,-16.722087623043425,0.0029796449663320687,0.686697575647224,5.203482181930282,-33.286928021914406,-18.079385763960193,16.61074898126953,-29.687349188686113,0.8337334573686156,20.903908736737336,-10.757911839461714
11.64724,0.0,0.0,-37.37088,0.0,0.0,-32.18314,-1.99287,-4.96847,-35.7636,-0.22146,-4.19529,-15.89225,-5.91155,-0.00427,-94.84967,-10.91476,-0.09071,19.50955,33.71474,20.94285,45.05128,-40.52484,12.34486,110.22753,29.70685,-57.91111,-34.43354,-24.27786,-82.97832,57.47643,-0.00089,-86.84951,14.29188,0.00813,78.55146,-7.87671,-4.46428,-0.00013,-36.04909,-18.85664,-0.01305,0.27867,5.72653,-32.40031,-18.7046,16.82014,-28.63868,-2.04596,23.73785,-12.75639
11.45699,0.0,0.0,-14.637610000000002,0.0,0.0,-31.449690000000004,-2.5950399999999996,-4.44094,-45.326180000000015,-4.684980000000001,-3.51429,-14.519120000000003,-6.23797,-0.008440000000000001,-86.35580000000002,-14.192490000000001,-0.10139,17.698350000000005,34.39967000000001,22.08294,45.98158000000001,-42.73294000000001,11.977470000000004,110.60609000000002,27.025880000000004,-58.18663000000001,-36.126960000000004,-23.888460000000002,-85.81041999999998,57.72007000000001,0.00234,-87.37560000000002,13.547420000000006,0.0098,78.27689,-6.307790000000001,-4.27632,0.0031600000000000005,-35.52169000000001,-21.08976,-0.012670000000000002,-0.06498000000000002,6.291990000000001,-31.373970000000007,-19.290520000000008,17.02038,-27.437110000000004,-3.1648,25.079330000000002,-14.536750000000001
10.833971199427458,0.0,0.0,13.281987116361869,0.0,0.0,-30.835198944518282,-2.8363876478245746,-4.104862315112707,-47.40984245271189,-9.15473125384431,-4.680470835955483,-13.590541516674486,-6.431496315708165,-0.008795147757182098,-80.50556769927384,-16.137573634677295,-0.0878175995217421,16.93135375468164,34.61572033105957,22.368035879917663,46.47754766612678,-44.474347195784716,10.760264289032305,110.85416982312606,25.557106116945405,-58.32469632416539,-36.99378817375051,-23.640464271566607,-87.69473945856507,57.99510795836701,0.0037393365985745066,-87.78353711606641,13.42474335713466,0.00911803446304623,78.04804803757783,-4.952063260056274,-4.174954113974607,0.008334926786952506,-35.2107940306653,-22.352163024938967,-0.009067297132505906,-0.2769446871283166,6.714152576912715,-30.50580918447946,-19.697340163306055,17.133491839771363,-26.43952061182926,-3.54432156131931,25.82498829306495,-15.971317755731707
10.141412299968815,0.0,0.0,59.32098286595752,0.0,0.0,-30.226885657586717,-2.879961083651751,-3.89598298696158,-41.209887920232354,-11.475092994927675,-8.478087622379272,-12.648575555149023,-6.51358092300599,-0.005521518846129415,-74.43969398857607,-18.006887404708678,-0.1323619967706954,16.323993702005318,34.81989871463103,22.594504144420675,46.69440576201918,-46.2454717742103,8.278369706128288,111.13384014840256,24.2606086148628,-58.42796129644554,-37.597360933323195,-23.36301573614455,-89.99073625970048,58.397245863116524,0.0025253086524568494,-88.0945445462704,13.74602296167035,-0.009246278595238598,78.14217592745767,-3.4366519613435598,-4.078838599725503,0.008484097489201673,-34.76858446750035,-22.994031918170425,0.004859338718243192,-0.5130725717061635,7.07874305984008,-29.444630440546366,-20.14930226106605,17.124717510868397,-25.2729039170364,-3.8685609515075283,26.666396010022297,-17.54432000864929
9.501323986065538,0.0,0.0,109.60299822592096,0.0,0.0,-29.674832782989007,-2.7851085106186098,-3.8746537430622476,-25.015152175035418,-13.01218492671416,-15.650217885781007,-11.72570132223328,-6.420248324616644,-0.0004294570169780746,-67.93184566821203,-19.7417608620276,-0.17666453952708902,15.780515600114867,35.08595634127128,22.87803843511503,46.52344055432801,-47.86881604317294,4.631522587238068,111.44327638455826,23.096584785803497,-58.49336369078118,-37.934726356432655,-23.0770187210274,-92.75933190243781,58.92263629328512,-0.00048225422046268575,-88.26112331260339,14.39826721357222,-0.03441667446199892,78.83835111198552,-1.95000368620566,-4.06024325081831,0.004907944360450918,-34.1708103836316,-22.931184773246162,0.023220558071090067,-0.7387458486669949,7.326983451591653,-28.262463181400648,-20.590968222028632,16.96220024251501,-24.030624374855783,-4.276263758964356,27.685868826522572,-19.11934725622968
9.009143123172333,0.0,0.0,151.10178746026983,0.0,0.0,-29.222375805971183,-2.6193313285364774,-4.085190742609923,1.4435188378489623,-14.98773703858785,-26.28647518365359,-10.852284835196699,-6.0986391812176795,0.004678060764150025,-60.807598232336524,-21.2498111368689,-0.16494463311643948,15.213719100602747,35.472865765874126,23.314710890002385,45.894702402501586,-49.18307272291296,0.026485794177325772,111.77634775784561,22.022891925097856,-58.51607035842242,-38.01428756054902,-22.804954516622566,-96.03572861200503,59.56321056807026,-0.004301822817253422,-88.24814129147238,15.251510463149001,-0.05443258330322412,80.37644008800402,-0.6683430917584221,-4.1819268789338295,-0.0007338980015547786,-33.412334327377664,-22.12625911191332,0.03949326902074822,-0.9182995772870097,7.413549072422752,-27.03531148775241,-20.967241043600527,16.628308072611095,-22.804921532994825,-4.891100786488522,28.944122115258644,-20.561413866089687
8.587120833723716,0.0,0.0,176.33265312866052,0.0,0.0,-28.868857592174756,-2.503055173784878,-4.466872715269898,29.043669755263704,-17.67402472017682,-36.22233003024724,-10.04480628540721,-5.568717076806265,0.008053143526917663,-53.233326842327095,-22.219089279218593,-0.0587991730136402,14.592526616490096,35.94283472861979,23.872406068505192,44.99225695642775,-50.1331705425543,-4.632123650528274,112.09872648597293,20.98215411501485,-58.47968400609945,-37.91864601337782,-22.579515787918485,-99.68674734032722,60.28325600628895,-0.00690228269180983,-88.10140253007671,16.065388955979014,-0.050385584410546726,82.73915906882934,0.31233231384037896,-4.444302088944376,-0.004456809155001039,-32.61291964005915,-20.847707663607597,0.04309238773135619,-1.009466875469794,7.381099243068674,-25.864919624659013,-21.225540142991715,16.19835132722445,-21.680423965245545,-5.737800775419116,30.360393705717367,-21.745162203714422
8.145808592138703,0.0,0.0,178.30782968792647,0.0,0.0,-28.608376377191064,-2.5366459518447577,-4.892508962075092,48.72113770625364,-20.33520603483403,-41.518313062019615,-9.306081811289062,-4.897530062339727,0.008742591961233058,-45.67819198493281,-22.338805590353523,0.11462288312936321,13.931651106547113,36.40121400578501,24.475563719251113,44.172004970365364,-50.75176572083523,-8.353919397974254,112.35931830224976,19.91785697394216,-58.36520990853327,-37.757301525469096,-22.426713479102595,-103.4823443173882,61.030280945973324,-0.006655188924950188,-87.91012498083849,16.617170730083725,-0.016171321065696936,85.7122723870336,0.9649894820755057,-4.8031411546500316,-0.003906860804185075,-31.938248268755338,-19.461292107225525,0.030783246032353568,-0.9943975799731397,7.312514348658486,-24.836510238646092,-21.346278888962964,15.780411134734123,-20.709972956997667,-6.756454948398717,31.76555381958263,-22.58483410321144
7.70868748575766,0.0,0.0,148.69593384738494,0.0,0.0,-28.457003323324724,-2.735151179811251,-5.1922707732796995,58.90146388591768,-21.339211372942458,-41.918710698462945,-8.624958615507342,-4.18489226487815,0.007273218955104052,-38.892516994873496,-21.495749803543983,0.2240219209064182,13.293134202310355,36.726489348565934,25.062318305319,43.901477709490635,-51.153054175876704,-10.590153831568495,112.49852552282033,18.787612484250353,-58.158597580343134,-37.63106034611237,-22.349699082512984,-107.13230283591793,61.740901310351035,-0.0036524634638821925,-87.78222091974823,16.81482296918625,0.024911527137617268,88.88944779490413,1.337460290813062,-5.180066463613824,-0.0015538448821637602,-31.53264676174519,-18.272913539466543,0.015968132880070533,-0.9080846715111877,7.295324280343313,-23.97999312628985,-21.372088638439003,15.468053867203999,-19.88938578648611,-7.800633094111796,32.940214321428755,-23.070858157750067
7.342611329239819,0.0,0.0,100.57082696791696,0.0,0.0,-28.41472070414185,-3.031055685731331,-5.233107469948758,61.01288613265618,-22.269870209027236,-37.591082988778716,-8.004902754345473,-3.5198425636500525,0.004415533616992073,-33.26562461181488,-19.90257457421997,0.2098743205445321,12.776988654402022,36.87746876162226,25.55551971900377,44.42043013572345,-51.410955461118675,-11.632061722031894,112.47679797314119,17.55983542378916,-57.85799450552922,-37.604032743764336,-22.32348116297867,-110.29230877755936,62.35000915379861,0.0001622065843669912,-87.80362619043363,16.72096045877127,0.04984643633048896,91.6958658730032,1.5384718121942416,-5.529115020666369,0.00029582928025084754,-31.389973415668134,-17.45462638474367,0.008554085187813193,-0.8051876748493219,7.3651025302141235,-23.27340104983821,-21.366273375382704,15.287816384684389,-19.183282218661155,-8.705028425603713,33.770204306252126,-23.29134150923134
7.124734878057114,0.0,0.0,56.01025981700846,0.0,0.0,-28.466432068707615,-3.320306464999513,-4.940405088742652,57.47623099939889,-25.986448516502207,-29.32981856901228,-7.462497904444477,-2.972958053316853,0.0010523499435504343,-28.906446444483933,-17.955397412780865,0.08647291921799562,12.483087482184265,36.89733013195335,25.86954417003762,45.72333376985179,-51.55686828304399,-12.145136297797972,112.27762614631904,16.20960366810957,-57.47194911141446,-37.71084629855483,-22.300579419880073,-112.65233384810136,62.79904911899324,0.00236964808342889,-88.01856167830998,16.490328441417176,0.047042591810105464,93.5295575515454,1.716971479842516,-5.824595115187666,0.0007445152980360099,-31.349894571806438,-17.084142156058462,0.009051465195470213,-0.7408202496374687,7.516178609764101,-22.670482725356376,-21.390937719164054,15.218828582538615,-18.548138571290316,-9.332557052227449,34.25349095086535,-23.382646265555344
7.106435806594679,0.0,0.0,24.299186803541005,0.0,0.0,-28.58826200105867,-3.5303600445073275,-4.338164328674477,49.534124453038935,-32.76584093237828,-19.848214874894797,-7.022059296444397,-2.5856400551191387,-0.0017632493937699064,-25.83086121820465,-16.017983431514757,-0.06922763573391544,12.44535883819729,36.92358270902983,25.929196003104515,47.525019257035,-51.58675272352854,-12.399781395040158,111.91393423475122,14.715441427750843,-57.01843440048247,-37.96429410756902,-22.21508670651662,-114.1070144613308,63.05179700278183,0.0023396877526059684,-88.39090679497846,16.286154000432138,0.03211444684687123,94.00393894538304,2.0391528016024996,-6.032514132541086,0.0017298976269200976,-31.07185657880521,-17.19498919392597,0.0003095806847086115,-0.7446458705426389,7.719178598966977,-22.14012656987527,-21.477742562528885,15.222984925828005,-17.96417680521707,-9.651808936157188,34.51396652786993,-23.452999274126338
7.363606154601677,0.0,0.0,32.13271512840342,0.0,0.0,-28.784364569033748,-3.660873951328766,-3.5061532856949413,36.80662975520214,-39.40877406939434,-13.450911641768798,-6.687155658754223,-2.371560264895215,-0.0033472678266062966,-24.177042224718498,-14.263061334388222,-0.19309966039949578,12.606262888772847,37.08256256666394,25.746702480409375,49.537064026880905,-51.46483016702036,-12.087236506273994,111.40369538235765,13.07518201139196,-56.521897936811186,-38.35462344032641,-22.0123663047119,-114.84732540869747,63.11228459096489,0.0014560019737841884,-88.85608031594843,16.2031528997949,0.018751863975164835,93.17288520034218,2.586675303696665,-6.103498282832021,0.004384562837535469,-30.236695709337837,-17.7836750210608,-0.029401343684545847,-0.8244430820212556,7.959089695066295,-21.68892507699799,-21.633213411864798,15.288792188079846,-17.442782017259432,-9.72656291217486,34.675738014880814,-23.512208050826914
7.986731463995123,0.0,0.0,91.87719143276787,0.0,0.0,-29.08227894800979,-3.7830540590232817,-2.5536131125729153,18.711972670969384,-40.27305255382805,-13.999948037045684,-6.4378817171134495,-2.3147924358971634,-0.003524134762152958,-24.12952452280425,-12.679912001061632,-0.25049390644765507,12.829213860011345,37.454314942471754,25.4301760911162,51.538331166067024,-51.126488085572966,-10.54236237060317,110.76225914782218,11.314990672456425,-56.01015810554034,-38.843064601832126,-21.66236253064569,-115.31778643919435,63.031765447969754,0.002319660295959595,-89.34263364336987,16.258521019801925,0.011924272029968635,91.51767327942568,3.3245686957496536,-5.990051954588659,0.007924501825513542,-28.648901086848692,-18.79809594526036,-0.07751494448322295,-0.9669648807332014,8.240045317782748,-21.3526779560154,-21.841286531302405,15.43293305467873,-17.016480565967136,-9.696886876666145,34.829485976004804,-23.474107608909442
8.998475120660215,0.0,0.0,57.575442284300514,0.0,0.0,-29.48404323260483,-4.006392791647056,-1.5578093890208187,0.16096694747082813,-31.846419439867887,-17.50820252943691,-6.243834912002266,-2.35954088761714,-0.0027202106964733194,-25.447188345737796,-11.227252861968687,-0.23664108531633513,12.963184846125575,38.02678929157638,25.154425157929523,53.40872019805232,-50.48564929604665,-7.722927859270932,109.99415591709322,9.5118790321919,-55.505183591892475,-39.33627117390176,-21.186507086166955,-115.98859310459565,62.92290390645171,0.005583380042401094,-89.80821916523763,16.418460118803182,0.006917832889086948,89.72962745588599,4.060209110569481,-5.718698961681536,0.008537136964919891,-26.461515075160058,-20.084208731875055,-0.11291579669675551,-1.1364690164635165,8.57191950828032,-21.14606053571144,-22.06668336809305,15.670045299536012,-16.695381209962065,-9.721080715665792,35.010839190255204,-23.220956058769726
10.307453644274647,0.0,0.0,-76.03532681492364,0.0,0.0,-29.931419915896075,-4.4068451804950515,-0.5478037529963937,-14.448335665233794,-15.122670314653362,-19.8839778744257,-6.085465746088154,-2.4355265827011054,-0.001519206114360268,-27.57885170591937,-9.91418015438163,-0.1693635044853719,12.903814149431426,38.725468191057026,25.066161706730057,55.07387760165465,-49.50740799410854,-4.088179627436505,109.10163134054726,7.772708764702417,-55.019050056260944,-39.7246757058138,-20.643469448624245,-117.15055984968807,62.926025381993576,0.008761237262598554,-90.19613056959687,16.641158156298303,-0.0003120854166090872,88.43950669330911,4.5746738582939885,-5.3782465573784375,0.0050279859460477215,-24.096074777338924,-21.407577444819957,-0.11186087850457752,-1.286332390351053,8.957431494403096,-21.031732516166144,-22.268132296390924,15.98964383737504,-16.4423861685499,-9.919986013171762,35.223225682626946,-22.690864529366472
11.679957046614177,0.0,0.0,-75.74275870270766,0.0,0.0,-30.28818465606048,-4.984060949984808,0.5057725135022693,-24.086586649686407,3.4569614079151574,-20.63110321590206,-5.964535157241796,-2.4736304255738593,-0.00044871588825658236,-29.74959887164559,-8.836139259321618,-0.08613210871943168,12.629932182259791,39.425371321289134,25.22726709037562,56.48867736562538,-48.250869227764696,-0.5096235631889323,108.08842387789521,6.221901021768979,-54.55225830041087,-39.90847691004477,-20.121981467479113,-118.79810610843985,63.187851190705196,0.005882741715201393,-90.41387178446656,16.893924884986404,-0.008111625665985639,88.06987582740257,4.698023712061387,-5.110367472355702,0.0012905136456387225,-22.193741478985757,-22.47166308343922,-0.07736775412181035,-1.3680452262390181,9.386365488157475,-20.905295825570267,-22.408087807353464,16.345318213055258,-16.16093595418479,-10.340926706590471,35.44356426892122,-21.93003494969817
12.82991195763408,0.0,0.0,-4.673322591107391,0.0,0.0,-30.403062426709994,-5.644198720493346,1.6557238772843628,-29.09318618566857,18.493919726044172,-21.32711670129362,-5.892682517398375,-2.4453039290101675,0.00017671194431915802,-31.488962732520793,-8.109230510766624,-0.0203284253831063,12.201903733917348,40.00487361622352,25.572009364748748,57.65894289697969,-46.858398331265285,2.422151030330139,106.95866127192544,4.953125024833692,-54.10676811044496,-39.86527276497175,-19.696811997030522,-120.70081159023697,63.79535515013149,-0.007385948138520266,-90.35499373444951,17.139784426075853,-0.010301217148965772,88.76969653923516,4.414500052629087,-5.016481447252633,0.0008556645241242639,-21.24434123581988,-23.065188168146214,-0.04089061391586196,-1.3679668302733519,9.846171993083823,-20.65318861616247,-22.483665165958683,16.68496058323588,-15.7465363877865,-10.93350726907847,35.62072172532142,-21.099693988979897
13.49903795198841,0.0,0.0,1.3134308909975905,0.0,0.0,-30.161090412410527,-6.253921883988051,2.936726614702676,-30.48857639388565,26.848742259711674,-23.371590602604492,-5.880626977953616,-2.3560534013804237,0.00029399427552208584,-32.63427087115433,-7.8454033437243265,0.009846861525856654,11.722071576943316,40.376104739073256,25.95972169604101,58.60495575962872,-45.506417398252815,4.398965500127641,105.71355019661439,4.014259154953215,-53.68685369502319,-39.63778815360848,-19.4118482622549,-122.54525101463203,64.76782246959739,-0.029845258646219164,-89.9646420912791,17.325173863441947,-0.0016393126915743832,90.42478138487938,3.8125449230806185,-5.137858763425324,0.004647905534666361,-21.445714346479885,-23.133279868061567,-0.028693421840690077,-1.3066642420781496,10.32270662748174,-20.200270531767735,-22.520887550021104,16.968351017417348,-15.132336917264457,-11.58816464934542,35.69679805951901,-20.409553997443908
13.550137034951405,0.0,0.0,-14.151042924182729,0.0,0.0,-29.545407378028663,-6.691418098216088,4.317105499255201,-29.63939941617093,28.965295175712075,-25.78078889477142,-5.927442947224501,-2.2435362696565715,0.00017618548110974342,-33.3722105248715,-8.12701665702955,0.014833332219438314,11.302777786960608,40.523010216088196,26.219732069879573,59.32874752525855,-44.35854455786198,5.419898692356459,104.3472438059813,3.3809930674564237,-53.29825763878713,-39.33158515486406,-19.25702172777557,-124.05775730365153,66.03520003052529,-0.04991890074745553,-89.32666960009456,17.365076865447364,0.0155820101512516,92.59408358088902,3.051834671604513,-5.426134325600107,0.008630134285266626,-22.506695952396868,-22.882692173807126,-0.026681185840745143,-1.2435926928161973,10.798931114489484,-19.56753822151861,-22.5728810629321,17.186426460764974,-14.345250762507058,-12.165354136909171,35.62900135705124,-20.052267464937714
13.038408301639434,0.0,0.0,-26.504859462024505,0.0,0.0,-28.632340951541554,-6.905402903201377,5.695078631578307,-28.122483536832643,26.76398211864221,-27.189970449699008,-6.023398016763402,-2.140284263424482,5.793598908682705e-05,-34.00053302129723,-8.963186530093047,0.013516444253876036,11.017859213267492,40.483134305043265,26.27745243864501,59.86552900388763,-43.48303644777831,5.677302293813072,102.85145150213407,2.9706055313983497,-52.93039294495138,-39.04937467379226,-19.190777735942834,-125.06100883877727,67.4900893470151,-0.05611739507818414,-88.67049791100283,17.18107019370887,0.025348558573664737,94.62763141259765,2.301464355517218,-5.795395118001202,0.00984943329967415,-23.91862907519404,-22.628860222273357,-0.02240427143755237,-1.239082019638345,11.24748194875245,-18.85165224265638,-22.685794285367837,17.34785382855653,-13.48877112595182,-12.567330595938007,35.40284349325904,-20.07857476297977
12.194283419060502,0.0,0.0,-40.686211138493405,0.0,0.0,-27.561829861056218,-6.916130533852041,6.935591595861264,-27.227230383343716,22.775328079681117,-26.608685021261156,-6.152922371037992,-2.065997541011501,6.777411297347101e-05,-34.82940940674069,-10.287969780596255,0.02249004399342279,10.894300090412061,40.321284245748124,26.1554811559149,60.29924824973628,-42.853032854750495,5.497483029138212,101.21746246650041,2.6624883749403243,-52.55771159779806,-38.868969279626974,-19.154666490606942,-125.46761848895466,69.01685730174385,-0.041762911952637885,-88.31220295052414,16.726246262120128,0.007124164293935514,95.80172241273151,1.729199536285929,-6.1513110640700175,0.007350933588446027,-25.135932243450466,-22.67893595009767,-0.012690570676269513,-1.3450193224743046,11.635932555136206,-18.187897550308953,-22.894459084091665,17.47086268522138,-12.705232540385783,-12.74809614873335,35.02299063285427,-20.40031210933606
11.405851382437202,0.0,0.0,-49.72451497234432,0.0,0.0,-26.48764165234013,-6.816357791311651,7.950248965170228,-26.75847047640086,19.056245918524453,-24.544903181841484,-6.298828509676249,-2.0194870516197763,0.00017770083618661174,-36.038427831879964,-11.950750343269272,0.03776991407806569,10.896684091294514,40.08160761611112,25.95575764426288,60.79210106175982,-42.35139963178505,5.279556638846406,99.43907542387606,2.330910929731402,-52.14577258363106,-38.80784331383235,-19.09418897713171,-125.27247379561122,70.53880968753124,-0.01356781940597747,-88.5351162909654,16.040250983396966,-0.04102892594160033,95.58017881420335,1.4965123272790122,-6.438798069383661,0.0026135166962941866,-25.892966885135458,-23.10844550331902,-0.00808507384643714,-1.5942727287734513,11.940881755790965,-17.6803916780676,-23.22136890649677,17.57164499032372,-12.103128344874976,-12.72534065405804,34.4923945667188,-20.805356561178563
11.022295100063598,0.0,0.0,-50.469299077071064,0.0,0.0,-25.52840953217946,-6.69975224879838,8.728570459894424,-26.202177063272735,16.775439000983315,-21.871913926226306,-6.4458475864474885,-1.9897343950190094,0.0002994442506002303,-37.63069379238647,-13.795329958503299,0.04839652957489307,10.967239812231517,39.76698950797235,25.738665159124736,61.468472482028815,-41.88518246614557,5.310337265695575,97.51219068536571,1.8816689734511385,-51.67632701211739,-38.83831010840549,-18.959881250730074,-124.53862748521917,72.01691712969443,0.017705637166133832,-89.47601665436585,15.232963901631262,-0.09797961542057511,93.7896484159156,1.6929817393268756,-6.656452458739444,-0.0031022506473466945,-26.20202760689548,-23.80103255506353,-0.011449724157244708,-2.0006719587953734,12.15565474267271,-17.358403746896624,-23.678606336271233,17.6550644607549,-11.712913910901023,-12.536616176254212,33.80664899486476,-21.12068733625266
11.260112880601854,0.0,0.0,-47.17209715578647,0.0,0.0,-24.749209610303087,-6.628709719987383,9.336021782580318,-25.146061984328213,16.104493507286495,-19.419334994201783,-6.582428192996419,-1.9587156232644347,0.00032120845381339156,-39.43252644274001,-15.696113133667314,0.043614529816016455,11.042673953552319,39.33778883046088,25.488913161498328,62.36717993351993,-41.424024049726356,5.691192519527487,95.4372232177009,1.2655359750373028,-51.15812318735049,-38.89750713262702,-18.70621666286899,-123.39791628278701,73.4457852842306,0.041460031168436315,-91.0912355458899,14.470170154666688,-0.12451405787335025,90.69325609211204,2.295619802353917,-6.859638247743647,-0.009016251426487877,-26.32044777581825,-24.48505367562494,-0.014609205603069317,-2.5517481693897346,12.29047438853908,-17.16421592771251,-24.260666505674028,17.710186977714514,-11.475526816386349,-12.226373103705004,32.956947154948736,-21.270705359374052
12.046085288532533,0.0,0.0,-42.947661163484376,0.0,0.0,-24.152492398327563,-6.582913192011194,9.837362668094608,-23.654997923830607,16.52342060578903,-17.588934384443167,-6.7039461585265885,-1.9014452758106917,0.00016088295512168185,-41.20803224158997,-17.619000408388676,0.02919732311235109,11.083136735742798,38.74715092519236,25.140481440323494,63.39234290792724,-41.01086728000369,6.286084242479023,93.23124157832682,0.481808546661862,-50.6380944675016,-38.92597408929951,-18.28406886282646,-122.05477184016308,74.82641166463691,0.05489190093871449,-93.19874670788401,13.908338347279475,-0.10050293357556701,86.99327071970697,3.087632623250222,-7.139799883244629,-0.012074681529252444,-26.52047788314915,-24.902937406151587,-0.016222655549833105,-3.178143762163099,12.357408443778718,-16.978403114771485,-24.909163863928494,17.70519320033003,-11.272492095974199,-11.842402061478776,31.954665738680994,-21.309224210528704
13.139562814503526,0.0,0.0,-39.64099728439588,0.0,0.0,-23.701933748013378,-6.5068703985682586,10.266343465518023,-22.03852908235636,17.297094347619705,-16.490488451803742,-6.813678915798358,-1.799393516110682,-0.0001987463133862985,-42.781963439482844,-19.563169997960948,0.01680372591495951,11.066607813257868,37.97884785357385,24.64366045388133,64.39461630879637,-40.70411436696666,6.885885506229398,90.93274042990612,-0.4310192107307854,-50.18580680646874,-38.88700103434789,-17.658981974466055,-120.73534112974957,76.15937547099635,0.05832696595585476,-95.5654688098225,13.64697870344006,-0.019249849469147352,83.51141412500745,3.756028920604527,-7.576590029491675,-0.008381912247827783,-26.94301308231297,-24.87486419205054,-0.014711607344267573,-3.7776108399386534,12.368981342321767,-16.68153264701791,-25.53217342927035,17.60851388701728,-10.985319474603001,-11.437197213859198,30.837521152560875,-21.337152588305923
14.203632496948938,0.0,0.0,-37.80784660096316,0.0,0.0,-23.332220790005483,-6.340647529108874,10.605756720819105,-20.69716467520451,17.766627934494014,-16.007984951018898,-6.924903404203346,-1.6528641656251992,-0.000665576168676941,-44.13244613161039,-21.515941151959527,0.016389183596327055,10.98925915013741,37.07807969205431,24.013312193690254,65.22474896411408,-40.5380854254799,7.321603704288484,88.60679853722966,-1.3909760893076888,-49.88278722695574,-38.78205927798775,-16.832319112704397,-119.63871992187563,77.44303572361504,0.05217909274628526,-97.94617424834868,13.685245964344768,0.11582339319082613,80.94955154224245,3.9579957738921214,-8.199087665603393,0.004877427641655064,-27.488133615718983,-24.35781153464357,-0.0035468168384261466,-4.23260860917426,12.33897601508303,-16.197661968381436,-26.018604399697843,17.405344528581175,-10.536717585315545,-11.065775299364555,29.676576295033716,-21.452748855803375
15.030236242551863,0.0,0.0,-37.263700682601886,0.0,0.0,-22.977415504660055,-6.070763699257472,10.834623822878495,-19.72168742827428,17.682924603301668,-16.100921457199643,-7.0571386552473,-1.4966858491954576,-0.0009797568595115188,-45.385369688670714,-23.34446580155642,0.024598040671809183,10.872354974400562,36.142928106964256,23.329705869058497,65.82829428519504,-40.48559310629136,7.637085942024659,86.31844029006258,-2.2651282060110316,-49.773253369805545,-38.63466341761708,-15.88533316762765,-118.75798453458583,78.68998935742115,0.03335222463074097,-100.03598371654414,13.925542286866685,0.3043053015965129,79.39996686605238,3.517376458644837,-8.94570354456656,0.019865844911132368,-27.93142347507439,-23.474758798937398,0.021718183547619195,-4.487277335617195,12.291790783385654,-15.52156497407033,-26.314156042557745,17.116163997935946,-9.912880782641194,-10.746002651425915,28.551081338376655,-21.7061753667297
15.548965219341488,0.0,0.0,-37.50646461746691,0.0,0.0,-22.58509772644516,-5.7175704326806605,10.943754232516781,-18.93350875854806,17.10880015300092,-16.796813012648165,-7.229036325981797,-1.3849143812921287,-0.0008501664431508062,-46.74199733783203,-24.826979039980685,0.028048884236555504,10.756667454800871,35.29324871826484,22.700691290555163,66.23494497246034,-40.47008487962751,8.04180925729739,84.11060742418033,-2.9073782475317156,-49.84639420507726,-38.483957436452805,-14.95885953361481,-117.81568364740558,79.92226748545067,-0.00021604727320114706,-101.51484471719854,14.207150005057306,0.5193083519610416,78.3691878509824,2.4575775921014404,-9.686695838072731,0.024669400279333543,-28.032740858025132,-22.47328917065903,0.05715091060276376,-4.552643422702447,12.255881159018152,-14.701991827555677,-26.42775984627243,16.784751820493735,-9.149790499335149,-10.457171066485776,27.53376666086259,-22.100858836790046
15.845112792709129,0.0,0.0,-38.131588590805116,0.0,0.0,-22.137101398694437,-5.320310644969804,10.954419715807388,-17.931689778154723,16.319674760069233,-18.146156128543296,-7.44806997513028,-1.3708488550309201,-0.00016607948814736584,-48.39401639819011,-25.692868580019006,0.007782641312886965,10.697921327412596,34.63264530292899,22.212046285426645,66.54948361510303,-40.375109154732975,8.85923581020214,81.96819877000459,-3.215246953989748,-50.00053539125683,-38.38405286509764,-14.234080692227169,-116.09871885053538,81.16334849473618,-0.04183911001657392,-102.12838510815874,14.333284667193444,0.6500453852152992,76.69879628824583,1.0837151926264774,-10.243428500888383,0.013676167115693076,-27.668805934424604,-21.697836697627164,0.07996856821122279,-4.522667231361453,12.253443935498478,-13.831295950236232,-26.448380314435543,16.46511194900906,-8.326854784192246,-10.133911835957747,26.67149837561601,-22.58700282247446
15.998313927357058,0.0,0.0,-38.752409527534425,0.0,0.0,-21.637628121600258,-4.930620896942078,10.899489712190068,-16.465458933446623,15.54146265895569,-20.057739481190072,-7.71012255277725,-1.4755818894665016,0.0008193388006120521,-50.41344143517786,-25.777479660635557,-0.03652952527299752,10.724963901663633,34.226254226270456,21.865991064352468,66.79522360996076,-40.108183948445884,10.269853103979582,79.82996513347148,-3.2030608683515576,-50.09493145140195,-38.41049467446076,-13.862964054669922,-112.50058626847746,82.4095560850865,-0.07663527928938987,-101.90533624979955,14.091655662727527,0.47646602388412224,72.97174133369217,-0.17342128488371028,-10.468458126860332,-0.0032392959105419345,-26.75973027599521,-21.452029134169816,0.0637552075986054,-4.5049844893162225,12.291358145279178,-13.025782918512316,-26.477662548014614,16.20607408575851,-7.551315837822779,-9.734149838941867,25.999662515223662,-23.086786817558078
16.04439105742828,0.0,0.0,-38.99508193379542,0.0,0.0,-21.104221554325512,-4.609597247720901,10.813551928718953,-14.527837567866923,14.899903914235008,-22.283827449947474,-8.003204838183283,-1.6836447778601358,0.0015944738566406541,-52.73581070825554,-25.065443566385476,-0.0853457744612706,10.833105091703525,34.09575038381952,21.584252984759267,66.88631527178872,-39.6271748459415,12.244435861940689,77.60833846009234,-2.9978005292889702,-49.98379490429408,-38.62907291317789,-13.972053859000555,-105.58140441933163,83.62951312008377,-0.0869500434585133,-101.17686336884921,13.190170558118572,-0.25930344050743037,65.62052658926092,-0.8603033222237455,-10.273252061797344,-0.006592333973003539,-25.24382550706565,-21.95908897505246,-0.011154118594723482,-4.590377162529537,12.360206915591077,-12.414275660247213,-26.600115385891012,16.0462061277781,-6.947843814070138,-9.257100565511799,25.546294622614383,-23.511521801403003
15.95117468303203,0.0,0.0,-38.544169273897815,0.0,0.0,-20.548783156513185,-4.423198196789962,10.713728619342074,-12.457337381036277,14.409897975891822,-24.45382233159587,-8.318380321441511,-1.9431881775448658,0.0018110348506574334,-55.1543122368737,-23.75638851682673,-0.10809255133527297,10.984572402067515,34.20917587098828,21.245000493741262,66.62413443630649,-38.99315949666363,14.460167862377386,75.24193020321115,-2.7960729006898477,-49.59278232704387,-38.98441876995014,-14.71038839805255,-93.7141731163196,84.77699260504583,-0.0691731104626385,-100.5465898152054,11.033098782759884,-1.598103143173808,53.027549520357184,-0.7318086155382927,-9.676915265529052,0.009157200121092588,-23.052216599045174,-23.30654949387183,-0.13213965618074738,-4.795501968178852,12.434046604351964,-12.114873783864855,-26.826862125829685,16.005026316360453,-6.636966817860537,-8.763725911147601,25.33382838253735,-23.799641980105893
15.721716103128152,0.0,0.0,-37.28992203211104,0.0,0.0,-19.982940006734324,-4.403825806347516,10.613819967479195,-10.685781075094162,14.05859784211671,-26.210419697449403,-8.64937530936444,-2.197811256773953,0.0014346281729332596,-57.4462771294839,-22.142061320511154,-0.09083567025335317,11.151387039287098,34.486122746804966,20.755426279251516,65.88281003552979,-38.31799562834092,16.53459195309236,72.71225500327039,-2.752959833627805,-48.92167448729732,-39.196668664697434,-16.012849454039785,-76.79174314396788,85.83214314664865,-0.030383731784977015,-100.57773276411109,7.4022389916273825,-2.9370858843318897,35.30106761957083,0.21669081100472398,-8.774583822837656,0.034854967470542834,-20.282556807684973,-25.416493123651115,-0.24461474596912972,-5.077667915250702,12.477316549105606,-12.196339935219333,-27.110028230226977,16.074971979188835,-6.696818472370572,-8.31458516643267,25.348839550011668,-23.93134118360527
15.435383623194875,0.0,0.0,-35.39670378827716,0.0,0.0,-19.41939941672789,-4.5303720822560045,10.534151467914432,-9.616977568903975,13.839218718869406,-27.287064439081256,-8.99127530858067,-2.402295622586848,0.0007919763839276554,-59.4360341120731,-20.541356168184436,-0.047291424199488334,11.333504002863299,34.79799879660223,20.08317278147832,64.699547312153,-37.735773353852885,18.147637945679808,70.0516239981656,-2.9272817665283677,-48.04651917331953,-38.8170407511048,-17.488382419970453,-57.23188719987952,86.81944149303172,0.013537390726436036,-101.62607856798225,2.8381041703190584,-3.082011889708864,15.27709334436219,1.7303100445735908,-7.724593337972632,0.048860161912839026,-17.304169216451175,-28.001994638311956,-0.26126524802738765,-5.3430858526427265,12.448578665207526,-12.652220417987659,-27.351215557233257,16.215235948278405,-7.137663552647505,-7.940362729048182,25.523417154182173,-23.936713088899495
15.203052931813327,0.0,0.0,-33.17416527823232,0.0,0.0,-18.86489852849246,-4.732079928327724,10.527210303214327,-9.453879415966428,13.768761193988174,-27.629549449678183,-9.33212142318169,-2.5419786119876115,0.0002419464985549561,-61.071523730186655,-19.140707573494634,-0.002049007736483856,11.552048820393082,34.99713683180646,19.24227915540286,63.29280644510222,-37.32200511817834,19.238847889255634,67.31682868324738,-3.2607676231582614,-47.069229059818554,-38.02598303931411,-18.527967388743235,-40.50829997609276,87.79089521175013,0.04863023241393105,-103.64255308702651,-1.101520492962867,-2.2137264203185882,-1.3313420660188549,3.4452557152457084,-6.689511300161337,0.04327351654295964,-14.816276018684285,-30.510120254973806,-0.17885553286712516,-5.505898021473888,12.314229620515523,-13.379962842227794,-27.462764582858664,16.356725230924287,-7.876751825945562,-7.62181918248304,25.728684511074405,-23.875984567544762
15.084735659220907,0.0,0.0,-30.955118593259268,0.0,0.0,-18.318022629031713,-4.925938215944501,10.63954488844907,-10.231256787341447,13.859353712789076,-27.366722500619048,-9.65679300753654,-2.617341741383273,-2.0015893575102757e-05,-62.37980410177741,-17.992369541603246,0.0245067879388009,11.819875086754498,34.95869378484237,18.28274339154963,61.925812061536675,-37.096621425896636,19.929154406973883,64.56912803138371,-3.6464925768067333,-46.08484209157697,-37.28063264900361,-18.68960794808178,-31.963216995278756,88.78698824778736,0.06490461263079553,-106.3142044454532,-3.018376349240257,-1.293611587133513,-9.207559613412302,5.006933551860768,-5.8057778267347775,0.022020201049274463,-13.55458154952897,-32.307415352728995,-0.07102018408909994,-5.517622000417377,12.058558091831848,-14.22452936553963,-27.399369110773286,16.427708534552046,-8.77455456699038,-7.326489682141088,25.826164668536045,-23.80647485182111
15.009582253783389,0.0,0.0,-29.018712479261538,0.0,0.0,-17.7680261740819,-5.0483318462543085,10.868603671265276,-11.807256558976809,14.083090734326253,-26.817177731307666,-9.950880233540877,-2.631561920150038,-0.00014634498205247053,-63.44008469217252,-16.99367687410645,0.029610882212624638,12.113152306297522,34.62646743777113,17.29517718901862,60.7873604785565,-37.01639238015385,20.473255758811785,61.85838870326238,-3.982317128264675,-45.15303992633249,-36.97362923435369,-18.05798534097148,-33.771136395817045,89.79918867331824,0.05904366217490805,-109.14926001005368,-2.743457089195052,-1.4749081773540595,-6.548549974060667,6.172074573849669,-5.1528567015967734,-0.0003151285401799339,-13.996948970241071,-32.85782315963725,-0.07862709688075946,-5.4000814510483455,11.697379990295406,-15.010137177334308,-27.193996849477312,16.37842410406818,-9.658455693755622,-7.040786136342056,25.716762260317783,-23.751119597973478
14.880361835703356,0.0,0.0,-27.81790485929438,0.0,0.0,-17.228651333200325,-5.069616153090691,11.112845879526803,-13.892023988273108,14.303481950816307,-26.308312620324262,-10.208784135424741,-2.5714046422963306,-0.00034980371534878063,-64.31965893724525,-16.02736105715343,0.020405630729920726,12.382026141006367,34.03538254433302,16.433357599419413,59.9220712164039,-36.993220470056116,21.04018528570358,59.215816192493506,-4.219063178439556,-44.30285905800505,-36.88502155778108,-16.76807246260169,-44.775579954470636,90.7820409486653,0.037936727326761836,-111.76058949923237,-0.346509685567463,-2.3773132106487225,5.4138268089902715,6.816417043930805,-4.768614930835424,-0.013547201736402484,-16.006499232689702,-32.04802465615019,-0.18835219816888987,-5.222798945045602,11.273981583439028,-15.616633108304008,-26.93027444470386,16.2054294938827,-10.397067657625442,-6.7814740295467555,25.38856709224302,-23.681980488538475
14.63036816102357,0.0,0.0,-27.88065776441698,0.0,0.0,-16.73523465357413,-4.9923005703127545,11.213662825942357,-16.101346371807608,14.30407388251562,-26.0912377002267,-10.431821462922759,-2.4140722555468117,-0.0007580087530563395,-65.07051437475597,-15.022284161740624,0.008169424036369348,12.570137843440067,33.282899172446506,15.880153501613078,59.26623489969994,-36.91779713736723,21.66882154036571,56.65688034247655,-4.348450089438183,-43.54421655257426,-36.49643724726809,-15.064613044745528,-61.030659461828414,91.67565079139912,0.013879901941242268,-113.89834571752976,3.6687778809521046,-2.7614102143864327,22.794604800087885,6.911952445844988,-4.65783901521001,-0.01384274838269411,-18.972415182475405,-30.18204683693022,-0.2811089571149563,-5.072474304147355,10.845341643914695,-15.990986363565034,-26.707814387283868,15.942773829868303,-10.917102941959218,-6.5793569626561945,24.896167168486283,-23.539815473400328
14.316816441743715,0.0,0.0,-29.54765059065741,0.0,0.0,-16.334905061860226,-4.854019732960652,11.03907712346465,-18.030003119986254,13.844685653375425,-26.194622538222525,-10.62418663003721,-2.144228773342999,-0.0011791057231379867,-65.73623377753408,-14.050189131158113,0.00021693759122950277,12.649036189245534,32.48373774560169,15.777957936793895,58.70545962393295,-36.697178208061786,22.200420382493046,54.18415186855662,-4.377844607441492,-42.88312694084268,-35.6831417542011,-13.575593505200299,-76.13603243151816,92.44292996409335,-0.004412123786509745,-115.47719235326592,7.594848611489933,-2.1084462856925232,38.94288765807759,6.512158452341864,-4.792925717184264,-0.0054226548305298244,-22.048661908249333,-28.005731950319355,-0.26089421811430086,-5.00250287087995,10.459502316386967,-16.170141998810955,-26.584394044378865,15.648886321439443,-11.234909266199553,-6.447162590987511,24.32579026956151,-23.269576765519226
14.031755296883698,0.0,0.0,-32.4753093438201,0.0,0.0,-16.042462252353413,-4.710232014551609,10.579317741576846,-19.39166142621407,12.819297307153274,-26.49901769735219,-10.785653107879135,-1.775899415563198,-0.0013554731485330936,-66.37107719634167,-13.241615744960319,-0.0007851434832048501,12.616095303162465,31.702629827773883,16.13952517003061,58.15173375018115,-36.30490454433652,22.445219679803238,51.79767683155948,-4.297240762363501,-42.31972931948448,-34.65692440938814,-12.673972443126832,-85.7493390251393,93.0687324456016,-0.01389513249623043,-116.40974301150264,10.320181562259519,-0.8188381955658428,49.35600828578163,5.732612899342429,-5.106646707427428,0.004662532734944545,-24.58733890386442,-26.207983106960615,-0.13949887236496736,-5.014468938999477,10.142489422992298,-16.214692753679778,-26.560686634054512,15.370164459161247,-11.398126407224336,-6.368252948934886,23.73147181810002,-22.867332382296347
13.862062955815802,0.0,0.0,-35.60328471213554,0.0,0.0,-15.829498168759482,-4.622705401594426,9.965372815435115,-20.064889435698614,11.30559841223692,-26.79167365111998,-10.911227923435115,-1.356980078635684,-0.0011018028375300148,-67.03879438652827,-12.73440231682738,0.0034238339382302455,12.492269705541482,30.939230262012835,16.82653254525743,57.56387493166222,-35.789954205667726,22.257364516868897,49.497366063641586,-4.074791199326081,-41.84330390278757,-33.825166809347174,-12.349671978657256,-88.70527520199094,93.5564464535714,-0.016557094920740104,-116.56854825697314,11.72122460700087,0.0733058444286731,52.89049653409195,4.738923626326396,-5.497239425333958,0.00929781304073065,-26.264173136473502,-25.223759502432493,-0.02449580682409631,-5.061528802125068,9.89522073060989,-16.181428176448378,-26.58552487359661,15.128122551879233,-11.460622836448064,-6.298455751112932,23.120019286888574,-22.389223507733465
13.814461040270873,0.0,0.0,-37.64256157795534,0.0,0.0,-15.6299366033551,-4.627066481915089,9.431278736715159,-20.126248014357575,9.590045480760223,-26.932783043458016,-10.998400452981878,-0.9615263145355877,-0.0006178735547865841,-67.7844697320968,-12.540576361505119,0.008797468988415769,12.313082277692448,30.142781806258192,17.568507620185372,56.94804610016398,-35.25292809177447,21.674332932826104,47.28185995825647,-3.6761231252870816,-41.41362064979265,-33.22550995083634,-12.406401744447162,-86.58629422329977,93.91300174082299,-0.013957069404544302,-115.81112557806189,12.253643667647703,0.4200486613423873,51.25954520218424,3.7092711935077105,-5.863139140155292,0.0076747980713117656,-27.120912723343217,-24.946165777279372,0.03676479273358046,-5.088265812702016,9.696397637256121,-16.077207504327063,-26.600610876845415,14.905484905227576,-11.437205986244077,-6.18911065703451,22.460469270986607,-21.93274779971629
13.829926538811485,0.0,0.0,-37.74665578024503,0.0,0.0,-15.370445217727196,-4.729649195321176,9.2081994816206,-19.769913427062853,8.001690685867132,-26.882284528476077,-11.05539048244347,-0.6624763725604361,-0.0001116746995997645,-68.6148515687028,-12.577383518985854,0.011529140342428162,12.122156672614139,29.27515647843717,18.09103821524668,56.32730501800285,-34.77354767104659,20.834772402017546,45.14439708704777,-3.0836600138414183,-40.975964006461254,-32.75614287430613,-12.622784671167162,-81.80933172069983,94.15236147867071,-0.008641314212008196,-114.04876047425715,12.45684905683139,0.41034976124289596,47.082319615580424,2.778948329303733,-6.143546962786097,0.002694055200643646,-27.348371202135926,-25.003574475928378,0.043805808405009895,-5.063222549173273,9.515541004894155,-15.88717475234196,-26.5723592194506,14.668527808864503,-11.325506701203146,-6.005450947865468,21.730390987518025,-21.574717039005986
13.78454358528743,0.0,0.0,-35.962791271674014,0.0,0.0,-14.98881704270753,-4.901820224129685,9.455412843202614,-19.273607953025984,6.805769454084217,-26.720833655417646,-11.106996866662314,-0.5133749943929184,0.00041294699870220023,-69.48224218496684,-12.682024907279356,0.00971594820925099,11.96742981901553,28.35046936744964,18.200875733980226,55.72668330387153,-34.36248738799235,19.933471220215505,43.069463014315765,-2.3088291959380753,-40.47145267695231,-32.301903099299054,-12.83477738674041,-76.62524533603127,94.30016166616423,-0.0049037755306227055,-111.30205856270007,12.698822783849902,0.2675860240405883,42.85785318626198,2.000263880042576,-6.3473170307070035,-0.0006091157512688811,-27.172121994961373,-24.9125075111956,0.034142554770622974,-4.998930660565259,9.321301481787183,-15.592682127272742,-26.511441556564368,14.381290092738572,-11.119870577556625,-5.739448202348346,20.94434275991967,-21.32900061570165
13.526223621588928,0.0,0.0,-33.11645395522839,0.0,0.0,-14.45531042988497,-5.09194451887548,10.190312442419453,-18.900271522739374,6.047342751763913,-26.561496418526435,-11.186827006618516,-0.5274299131112636,0.0010721095097491822,-70.30514330055243,-12.719462446504618,0.005047828449491376,11.884622417185897,27.444630257138424,17.889706230808105,55.164463976309506,-33.93893987283484,19.096098641668984,41.033940631739526,-1.376818604456789,-39.87121337298625,-31.799659965255845,-12.944204616671962,-72.35562739456485,94.39929094954313,-0.005475242238663534,-107.74329720095206,13.168950471607875,0.11109666581683345,40.03077907015978,1.3411847417128224,-6.536059356367452,-0.0006517183700241731,-26.686924637662134,-24.418508894784438,0.028426513691452174,-4.931041619211131,9.104486754405558,-15.212021116175553,-26.451000779583417,14.041767873358175,-10.841301528882742,-5.409688224596914,20.156784254975747,-21.12424213181916
12.961834023353381,0.0,0.0,-30.27243049969529,0.0,0.0,-13.785992187558191,-5.243644873847732,11.30203224672622,-18.810922320590546,5.631970157016712,-26.509030877882648,-11.321128091442976,-0.6796160326201305,0.0018536827440597294,-71.007090221808,-12.600536142565536,0.0003979407547146662,11.886791285644163,26.64287347011753,17.285995329016547,54.64008331562827,-33.39668724595633,18.382852602434475,39.01774720601957,-0.3214942899962753,-39.17402849597605,-31.227306038795827,-12.916969910954464,-69.4903810274455,94.48620449796326,-0.010140208670420897,-103.68531583188744,13.906672209320208,-0.009552614358828336,39.08875315892154,0.7558257451705258,-6.775081174069773,0.0016085898837500594,-25.92976354558395,-23.492854579663312,0.031025812662207275,-4.893056236285048,8.87686482459251,-14.789013230965319,-26.422194137433824,13.676720273725133,-10.527005421423665,-5.0509218089891394,19.427180370022693,-20.857249432606324
12.174748610796879,0.0,0.0,-28.16972874856244,0.0,0.0,-13.06955519081854,-5.314972411405005,12.538882913656934,-18.94190039826003,5.4007126574759905,-26.61893618890889,-11.508124918173863,-0.9005860066358389,0.0022915335598255888,-71.56237604562536,-12.304334136929405,-0.002931236066612378,11.947141343128513,25.978236485459625,16.62450992028238,54.115142594710775,-32.67883347983809,17.788639226958107,37.01737092276657,0.8163936270851262,-38.407495989714384,-30.59470912421934,-12.798492015862696,-67.65382424821331,94.5599137274225,-0.013609739466051061,-99.60393609883513,14.793265416839844,-0.0772811361927599,39.512225629895966,0.26536112045984384,-7.077457774252064,0.0036923639282573128,-24.970465740977698,-22.35384563109363,0.03247570991629053,-4.88777552700424,8.67308719717968,-14.381887511728308,-26.426778618311566,13.339494391652995,-10.218980845896256,-4.706203364890785,18.77914480100887,-20.45059481758337
11.27536,0.0,0.0,-27.49701,0.0,0.0,-12.40578,-5.2662,13.62773,-19.19519,5.18492,-26.93916,-11.74175,-1.11424,0.00185,-71.95308,-11.82036,-0.00388,12.03279,25.47573,16.15615,53.54546,-31.73609,17.29843,35.03184,1.99505,-37.6036,-29.91659,-12.64631,-66.33852,94.61369,-0.00982,-95.99981,15.68593,-0.0799,40.62832,-0.09872,-7.44824,0.00289,-23.88398,-21.2574,0.02121,-4.91329,8.53129,-14.05105,-26.462,13.08748,-9.95994,-4.41984,18.23078,-19.83085
10.37292,0.0,0.0,-28.17208000000001,0.0,0.0,-11.742840000000001,-5.020780000000001,14.491900000000001,-19.161100000000005,5.117520000000001,-27.88791000000001,-12.119130000000002,-1.2660500000000001,6.000000000000003e-05,-72.36295,-10.725400000000002,-0.003920000000000001,12.096000000000002,24.82809,16.077640000000002,52.39622,-30.03871,16.687440000000002,31.98174,3.8068200000000014,-36.33374,-28.856820000000003,-12.47624,-63.964890000000004,94.50556000000002,0.004260000000000001,-91.88768,16.987670000000005,-0.044300000000000006,42.428290000000004,-0.16978,-7.985290000000003,-0.0007199999999999999,-22.515580000000003,-19.980210000000003,-0.0060500000000000016,-4.983510000000001,8.433290000000001,-13.71184,-26.545810000000007,12.873070000000002,-9.67667,-4.118720000000001,17.4717,-18.552060000000004
10.56666169228242,0.0,0.0,-28.417828824530197,0.0,0.0,-11.556670106099151,-4.638496697208595,14.080734766549607,-17.726104758654273,6.5304550300017405,-30.084308187395855,-12.590982735397054,-1.0694401499972157,-0.0009995227916097303,-72.59880333358446,-8.661049211412502,0.0005913991835726351,12.018235627138285,23.848678285051353,16.768023567616936,50.2474081440848,-27.78217889318785,15.905350472563372,27.73401215542886,6.211091303082364,-34.63521010514021,-27.484639580148873,-12.560958854671556,-59.00146256923775,93.83081696496586,0.015167940709229692,-88.78636203278799,18.968019777931953,-0.025461596217316976,44.23651745863483,0.44190521895167795,-8.348435705846644,-0.0014558931918556648,-21.867108771239113,-18.936895278251896,-0.017518688444880394,-5.328812408164188,8.310452226844776,-13.458211171861747,-26.896836160425636,12.666607170957858,-9.483691509792354,-3.8138808087700484,16.427380529846797,-16.594227456832392
10.768847557648513,0.0,0.0,-25.135915922141706,0.0,0.0,-11.328974670400028,-4.605003555590732,13.717615589048163,-15.758075678331025,9.009562068599893,-31.963192123784783,-13.000749816941337,-0.8278449328519224,5.025511676856911e-05,-72.29310824643588,-6.730535690751377,0.0032056867550672684,12.028280104454062,22.52751188806085,16.63625267234302,48.06154088848345,-26.39966101345616,14.507678724343522,23.48267969827902,8.643348156277236,-32.85846587162466,-25.98511029014051,-13.258604280835726,-53.407201221843586,92.79679024939674,-0.005408242108491094,-88.387095848578,21.35439609962585,0.01419730737589753,44.46721781620735,0.1766376342389206,-8.249424521427628,-0.0025950270973753822,-21.470320682088328,-18.217325841489636,-0.006325198302953954,-6.074403051330799,7.955898926748589,-13.008391845103343,-27.641292711795913,12.173180690152536,-9.193104592960745,-3.2988116497479343,15.228710985146353,-15.359384223954008
9.920124145783872,0.0,0.0,-21.90189908600777,0.0,0.0,-10.593603866675911,-4.695534591409263,14.1518293735761,-14.443054588965586,9.959109114557554,-31.724727231205367,-13.4731559099138,-0.717541597989871,0.0005006428595861498,-71.57804326530069,-5.53977695552776,-0.004855390081398556,12.387995411449351,20.865742157770676,15.40303667095868,46.073519368578026,-25.855946717297577,11.906783496530576,19.26321519781655,11.151217619054659,-30.182006920076567,-23.876357983595998,-14.454557823257508,-48.33384774147053,91.62577139789514,-0.02596733114559455,-91.34157460362786,24.037713909343957,0.10163730126860729,41.73507230616331,-1.367604740057439,-8.196363978632322,-0.0019024708694383606,-20.062777872069898,-17.58265817730988,0.001316393268534148,-6.592382052114956,7.573322352815682,-12.257789378565894,-28.173535055374042,11.543945589408464,-8.630148555860265,-2.654074546539981,13.818108277586385,-15.028470387932352
8.683281902574793,0.0,0.0,-20.875662694368046,0.0,0.0,-9.672375494716311,-4.308041524470417,14.666530626519146,-13.69677103774782,8.58367822246585,-30.4035475592908,-14.223004419766411,-0.6032812742285738,0.0003623037279970701,-70.64569543670355,-4.5588687319569905,-0.007007714780867251,13.182660288503063,19.192766198662508,13.898618755218598,44.157494295447286,-25.387569278241834,8.715537988285405,15.062500517310882,13.330003677330106,-26.380420284751956,-21.62248657152098,-15.554581801281564,-44.150882604572985,90.55162675558722,-0.007000906302122217,-94.91473820662598,27.159256927836353,0.041723025226079194,39.700741319408735,-1.9848590449431494,-8.462878760568634,-0.0015819512701736,-18.42868373826787,-16.364082353550234,0.005130905919899426,-6.417869801742084,7.394572026669535,-12.019756019574796,-27.999099665142907,11.29090644891109,-8.473321686831,-2.04073329336842,12.434495426343492,-14.516662786862522
7.7436447449137935,0.0,0.0,-21.494642660185885,0.0,0.0,-8.888950005571772,-3.6056897298225663,14.797842056236927,-12.61941064760393,6.577780251827864,-30.11841557923026,-15.246260702717427,-0.4254532752308839,-0.0005017695702986084,-69.21626618615302,-2.8788325470711325,0.00947783209614877,14.025852729953003,17.875891548561558,13.01606027817854,42.0343027858386,-24.289184983817858,6.128398185873409,10.767201124139032,14.975285078224733,-22.104451071983075,-19.872289141312955,-16.496655926999427,-40.35800955844238,89.72556315113145,0.008067089000514014,-96.25438295611028,30.855859816188403,-0.12334119174538238,43.60606958956803,-0.9427261240263068,-8.2890186128275,-0.0001403644708298014,-17.52431129731344,-14.106417761019326,0.004955826534484073,-5.763945205894574,7.309690242391941,-12.44593620439186,-27.31469341840705,11.367340222492754,-8.906045191752288,-1.5330040857056983,11.323266272139135,-12.956210635949498
7.6926199365319174,0.0,0.0,-22.83582174625826,0.0,0.0,-8.303909998315001,-3.420047117056407,14.571791046203668,-11.021386726355502,5.949427490676694,-30.451382069573597,-16.2010657527441,-0.1313747413178997,-0.0011527294833764857,-66.95315842757181,-0.7387832261026784,0.020052376830653553,14.490278219512263,17.090411610039116,13.477373682238781,39.62392692975673,-22.46649498647458,4.4626111683762755,6.5137018799911255,16.31915906744945,-17.725585921485404,-18.512745144263814,-17.304143247836997,-36.52281455895827,89.25778119848084,0.003146060156861993,-95.45467950149866,35.349799441235966,-0.09902311681859297,50.40618452495223,-0.3823100961954365,-7.7870454084655085,-0.007420697692769774,-17.298794598150913,-12.076125543976337,0.007068035927660423,-5.206242808985059,7.075995393948874,-12.211679924056227,-26.75352591589013,11.064610659904186,-8.773166107092539,-1.0585612804367464,10.435317496495074,-10.877379078902317
8.28684824242592,0.0,0.0,-23.547953859260495,0.0,0.0,-7.832938848996517,-3.6813141271780094,14.536437203363167,-9.91655844207091,6.218246519984032,-30.484582315964836,-16.866326808039865,0.0777777506004737,-0.0005573820059960042,-64.28975878266493,0.5710711549464134,-0.0039182749294611055,14.667271241096312,16.558800675435688,14.707601518596316,37.30733596275908,-20.441117360021416,2.5966829634913164,2.3020553219448106,17.62802635998686,-13.347070799354182,-17.17684795169878,-17.90166755028668,-32.452337139473876,89.34621780844272,-0.004331453176498336,-93.7939699207997,40.21450321660925,0.07112190292503305,53.92588982501663,-1.5506305681197878,-8.699005318833146,0.009921307798663702,-17.248704661490198,-12.274322024783729,0.0037897916582387866,-5.118380471175828,6.682259707800653,-10.973674652207515,-26.705182340773405,10.24663382227509,-7.757350925552159,-0.45607849030587577,9.434923787126396,-8.927261849325538
