PaulMeinheit/Bachelor_Muay_Thai/processed_Data/E1/roundhouse/scaled/JointAngles/scaled5.csv
L_MTP_ANGLE,L_MTP_ANGLE,L_MTP_ANGLE,R_MTP_ANGLE,R_MTP_ANGLE,R_MTP_ANGLE,L_ANKLE_ANGLE,L_ANKLE_ANGLE,L_ANKLE_ANGLE,R_ANKLE_ANGLE,R_ANKLE_ANGLE,R_ANKLE_ANGLE,L_KNEE_ANGLE,L_KNEE_ANGLE,L_KNEE_ANGLE,R_KNEE_ANGLE,R_KNEE_ANGLE,R_KNEE_ANGLE,L_HIP_ANGLE,L_HIP_ANGLE,L_HIP_ANGLE,R_HIP_ANGLE,R_HIP_ANGLE,R_HIP_ANGLE,L_SHOULDER_ANGLE,L_SHOULDER_ANGLE,L_SHOULDER_ANGLE,R_SHOULDER_ANGLE,R_SHOULDER_ANGLE,R_SHOULDER_ANGLE,L_ELBOW_ANGLE,L_ELBOW_ANGLE,L_ELBOW_ANGLE,R_ELBOW_ANGLE,R_ELBOW_ANGLE,R_ELBOW_ANGLE,L_WRIST_ANGLE,L_WRIST_ANGLE,L_WRIST_ANGLE,R_WRIST_ANGLE,R_WRIST_ANGLE,R_WRIST_ANGLE,NECK_ANGLE,NECK_ANGLE,NECK_ANGLE,NECK_ANGLE_SHADOW,NECK_ANGLE_SHADOW,NECK_ANGLE_SHADOW,Trunk_Joint_Angle,Trunk_Joint_Angle,Trunk_Joint_Angle
X,Y,Z,X,Y,Z,X,Y,Z,X,Y,Z,X,Y,Z,X,Y,Z,X,Y,Z,X,Y,Z,X,Y,Z,X,Y,Z,X,Y,Z,X,Y,Z,X,Y,Z,X,Y,Z,X,Y,Z,X,Y,Z,X,Y,Z
-3.9511000000000007,0.0,0.0,-6.793300000000001,0.0,0.0,-16.025210000000005,-9.815880000000003,14.159810000000002,11.572170000000003,4.635500000000001,-16.46287,-17.90932,-5.4888900000000005,-0.00021,-5.076090000000001,-0.46078000000000013,2.000000000000001e-05,27.314110000000003,22.17079,16.57796,0.9827800000000002,3.482060000000001,-14.045310000000002,22.717080000000003,18.14458,8.837260000000002,43.12936,-2.6145300000000002,43.84011000000002,130.86621,0.0034,-106.87826000000003,124.43374000000004,0.00014000000000000007,124.11318000000004,-14.076380000000002,-15.161120000000004,-0.006440000000000002,-22.121440000000003,13.114870000000002,-0.0003600000000000001,-6.479170000000002,-9.349100000000002,10.105179999999999,-28.30252000000001,-12.40644,5.936630000000001,5.880630000000001,6.800060000000002,9.069820000000002
-3.932632732088701,0.0,0.0,-7.014366057942552,0.0,0.0,-16.134332748762485,-9.175040562280644,13.442206571441387,11.405277492033674,4.422282161044134,-16.335653473318853,-18.907299722279447,-5.772842687302731,-5.2705339716191244e-05,-5.199083375820921,-0.2842461128365741,2.9844308994643627e-06,27.4923115081396,22.56207422763325,17.316406724344713,0.8887188250039999,3.221709904286874,-13.576558956944588,22.769710082778705,18.330723837421264,9.565674379114242,43.6609717405025,-3.115061935675116,43.77378615435725,130.85332041324565,0.0012908843637771074,-107.75220665804434,124.13341189459734,0.0005580578861459124,129.64793985748491,-11.692120714378005,-15.713504838545369,-0.002197305979992327,-22.722393855016396,14.983140695654093,0.001419058889629789,-5.468431702475582,-9.279256494226258,9.645438732144083,-27.3034603661018,-12.172915075836224,5.532179955129382,5.208469189925734,6.736847825094117,9.502075518213877
-4.6001179551478755,0.0,0.0,-6.405934559285194,0.0,0.0,-16.660665905581528,-10.090447837429968,13.230799472553066,11.408874402824013,4.229065633420762,-16.298660364640618,-20.432175294375458,-6.72770551377742,0.000819755058213964,-5.158639508311403,-0.07149848982732511,-0.00013548089402405067,27.999028980604603,22.688802154279273,17.90163831602007,0.6525355352852615,2.3791963949983512,-13.99764846634041,22.723129350398096,18.61136041043673,9.729040682968828,44.20708440099381,-3.2372423793175096,43.726283784111246,129.97995462619843,0.002883155284676535,-112.69130193569767,124.2850715008084,-0.0013069673728462175,126.17490351059884,-11.298608466651494,-16.325378445476375,-0.0028343362916385746,-19.751363954089946,12.52251776418931,0.005986878669025322,-4.602999192823347,-9.648006312115234,10.33715453490792,-26.4420169212079,-12.768991426668792,6.040358810537789,4.898363957150277,6.101589122786997,9.126921283687043
-3.75366180532833,0.0,0.0,-7.307669297169404,0.0,0.0,-18.756811443415152,-8.882769992019453,10.9846754925697,11.508663200531808,3.7518908708488463,-16.508217221053613,-23.266697365942065,-7.780960016240175,5.4350922224694675e-05,-5.065673101436511,0.6673931623078837,8.415709527800998e-05,29.63408167784697,23.762556384848537,18.372782701744423,0.6199119403380555,1.8755993865602039,-14.515618306333327,22.641234532360077,18.950846184655546,10.43128271658523,45.14834509400271,-3.646945245771642,43.7482124712115,129.4337591746951,-0.0016512350907904303,-109.44750362220697,124.26449507343378,-0.0034178337092141127,124.88854809538111,-12.512277826833866,-15.782100700933972,-0.0012951774158145664,-18.89029089016654,11.836305294663557,0.01108915223109586,-4.301347236760299,-10.041707373228654,10.573720062411871,-26.164700992033634,-13.221165228273117,6.111992850303396,4.522504243535621,6.112435891014773,8.61902518854926
-3.058073264931947,0.0,0.0,-6.247292301174765,0.0,0.0,-21.806126609782854,-8.779711009742213,7.835707225525497,11.123971745324772,4.7099219630516425,-15.654804591966135,-26.555296583161304,-8.621799798472061,0.0003964878809507932,-5.071757567153901,0.8763023624747585,2.3678804301262445e-05,30.940538145998225,24.856975198283,19.800599486940918,0.0877349340664951,1.1063858934165827,-15.37135584144989,22.22534644116217,19.00258007106582,11.111766626347164,46.25907991172335,-4.097295270053491,43.22710888276925,128.62219189667073,0.0028644048212586107,-106.8855304903856,123.97472208416308,-0.0036718678060830684,124.51554865993236,-13.087979499736255,-14.223716062688466,-0.00311774790267812,-16.91990801121974,10.564521518061662,6.299739958531333e-05,-4.032585808274294,-10.30026744106409,10.648526657412942,-25.91580979572986,-13.488540390511636,6.083219691046904,4.084945697438053,5.83069968684737,8.300168539904487
-0.4923439770034032,0.0,0.0,-8.20946301830114,0.0,0.0,-24.135673453076755,-9.184593500143492,7.8064038495500805,11.406662976764643,4.8008460787414435,-16.29794708525069,-29.79666236445485,-9.695025026066723,-0.00016019384281936065,-4.614525199531511,1.479361749690704,-4.3474388289402236e-05,32.82957248552667,25.933938922981113,20.944963822253577,0.023609579135237948,0.22759884915326267,-15.00830864383459,22.407384761631114,19.88185571512565,12.014038400118233,47.312362446376966,-4.356388667066101,43.52573338620725,127.68090802902306,0.003004750278595995,-107.04237788240962,123.93466800150006,-0.00043760476996806876,124.55181821508964,-15.002774465013744,-14.466994660736969,-0.004355350859717304,-16.152276371221895,12.54067335512468,0.0007596190068187734,-3.537640789672916,-11.01768781002042,10.934956037322321,-25.475451326991344,-14.259182596727005,6.076466095480341,4.259422988390899,5.653324297010397,7.976994411867424
2.084852387171183,0.0,0.0,-7.804154956823805,0.0,0.0,-24.612102239462104,-10.093587361966286,9.15528765503375,11.332729789207487,5.155974529122953,-15.922340437671524,-32.968617769085526,-11.018718810046678,-0.0008974788720367221,-4.266059810125068,1.6445678725396278,-0.00010317515686595618,33.99988205283927,27.52762720077221,22.28540642989185,-0.2538734979012794,-0.298725105571923,-15.125564902018219,22.053750662681765,20.14285999947095,13.897476629178843,48.82322481707912,-3.807022536825095,44.13319428675531,129.05887405825308,-0.00339664369976276,-110.75283007370302,122.90476484748376,0.0030912795665841535,123.98914641670697,-10.837927635906814,-18.34510309058637,0.003002160175815895,-15.600618148766635,10.98500348425439,-0.0036437795213063455,-1.8814583259211657,-12.230752986168767,11.25498469551771,-23.92723329601362,-15.501371694296983,5.907192463615344,4.063954445881325,5.917809394296349,7.64226851704427
2.8068894108830404,0.0,0.0,-8.230251901993283,0.0,0.0,-23.785679449470265,-9.36264438159092,11.269137401243702,11.702936462793849,5.576281444011847,-16.289401288443553,-35.145146023508566,-11.745296192581598,-0.0005593288365479908,-4.860857250765004,1.3735814264164752,0.00027799158859185473,35.0175001171023,28.19605046070072,23.357339259486416,0.22840326599358696,-0.9828326394893854,-15.00347157502703,22.896986751767773,20.850581356414942,14.250598489472356,50.62093019679713,-3.8016360326963663,44.346024731545214,129.42807597828656,0.0013129081224906478,-113.2835691282586,122.81684782742397,-0.0001989917290014087,124.31592811124904,-13.388238482708477,-17.948425085137707,-0.008214560492654269,-12.831619828226879,12.544279328209406,0.0020651395493182607,-0.43495912792465946,-11.923465208370533,12.255196037876098,-22.40578167140434,-15.58300599806323,6.9679313290911935,4.217426180048946,5.9048676420862725,7.534187267607817
4.841971195370513,0.0,0.0,-8.649762197415344,0.0,0.0,-24.443852209901944,-9.389352906798505,12.686024422862443,12.656203677903097,5.239903501766497,-16.784532656555072,-36.00134890369987,-12.207023813583248,-9.60819164272394e-05,-6.589037994441086,1.197785740478168,-5.225402601042647e-05,35.55276140453909,28.566659362406103,23.550365963418393,1.3672525092262273,-1.7314725810016969,-14.585523680656681,24.215291339298375,21.827952904426194,14.398456025358689,51.91986224165239,-3.425100189585981,44.74750501888242,129.86916833937917,-0.0022214486409583138,-112.48685484749042,123.01560143375167,0.00019335712598789632,125.63232577642296,-15.650381994936955,-19.217353336980608,0.011581811936198883,-10.851055240375075,13.61800134339648,-0.005404678581451168,0.4084286782853179,-12.719702897497067,13.063216516823697,-21.609626797959127,-16.616924846530775,7.4193893729892855,4.6960771674012785,6.082729242309859,7.382551440963442
4.367808372274841,0.0,0.0,-7.866735169559975,0.0,0.0,-25.94574237192115,-9.039652725901261,11.347962002510917,13.227399229889672,5.329546600524436,-17.217920572265584,-36.30822532713728,-11.326378521505301,-0.00017692847687117178,-9.017818225102925,0.9169783978867113,-0.0001773859554148381,35.77933037429318,27.823040549728777,24.193258958900376,2.41405935961479,-2.798231729691531,-15.005805055863723,25.698019479694775,23.77431946609136,14.642212089489599,53.82259963899575,-3.1112326875125116,44.321371150249824,129.00613854164683,0.002304540676137819,-107.39345941615322,123.3130304667943,-0.00035442464458342255,119.35479049529698,-18.0111325605357,-17.988426210555044,0.0060060862942320796,-6.905553652251654,14.11316488919387,0.007519187447903634,1.582672953010758,-12.934285248239918,14.678829092549947,-20.37174101854237,-17.405709626895316,8.86293321634944,4.350344588754335,6.401987300639775,6.68591959162114
6.675846951513779,0.0,0.0,-7.549865304976155,0.0,0.0,-24.94769595040281,-8.776033345374035,11.048230633883602,14.243775400755268,4.962069040206625,-18.05671528914002,-36.99608067674686,-12.036060715524636,9.056053215616964e-05,-11.790426514514383,0.7710936786709781,0.0004658528367206231,35.781526891535954,27.373290992549165,23.111552149008865,3.2175958727843157,-3.5282063787014404,-15.321141031925944,25.307729500361663,25.37807049518013,13.698379222986503,54.64455910118551,-4.030189858131467,43.55372776739921,125.90486569830342,0.011500708305584455,-104.45873030110828,121.77889982878213,0.006384260532722786,117.80135430339998,-21.40089520206225,-11.839867930109609,-0.01176623643894725,-8.145267689403305,11.840318101618772,-0.0028522104630038965,4.365704972918458,-12.213947420073302,17.533487201762355,-17.30526383951526,-17.772448059823088,11.857275734365523,4.084728395405533,6.611098205073027,6.846689969770594
5.7915182776274285,0.0,0.0,-5.645873152927408,0.0,0.0,-21.545036950108454,-6.805338574011367,11.40614099038939,14.805321895277755,5.253878051727823,-18.66333442981921,-40.37061776075332,-12.030930777757499,-0.0004898627837929568,-14.068180483708208,1.103517520041245,-0.00042252152338754926,37.349234253310186,26.95070277004531,22.024914616769614,3.297211258732295,-4.112718300330056,-16.94517558606754,24.435431520817314,26.066426865841013,7.263888704387497,54.50185716537394,-4.839428254247739,41.78664687385809,117.4761237019447,-0.009409121543882903,-104.5221352556308,118.65311272908933,-0.014184182313718945,113.66546233968674,-24.56870413743721,-7.103448421792717,0.01077751887264806,-7.952034568082038,12.165535378307155,-0.01142909253775683,5.142205096446471,-12.57690727940283,17.933663003746133,-16.54014808945545,-18.25410954491551,12.098221866128648,4.036199935191356,7.27260937504236,7.370648078266043
7.353870947910004,0.0,0.0,-5.232349153512691,0.0,0.0,-18.55477077025637,-7.509363267040905,11.354284965284055,15.610130061689516,5.286385139720104,-19.19079013067296,-43.49454880348057,-11.781219652068131,0.000433882702919174,-16.708792337613055,1.5707180958785951,-0.00020749800683684814,38.063397750527656,26.337513824741592,20.158814541569594,3.0853793100127844,-5.318539009346721,-17.484718118864407,15.723394947622388,25.98195543200666,1.1196476549996872,53.00525100419391,-3.0289436106090335,42.06390606209773,103.06193719799181,0.05837592540455934,-91.44599733272311,111.73038585280666,-0.01229017253804005,113.05713295208348,-21.638145118179274,-2.6446111898606874,-0.005746606158256514,-10.27053890267265,9.405143409616205,0.0059548992794462,5.380050502141551,-10.94392197060296,17.218043763781697,-16.171939814651846,-16.477879380187964,12.046112631476147,4.060317519672634,6.9925011555062975,8.662667722605082
12.944250670370398,0.0,0.0,-5.869743229920062,0.0,0.0,-18.625206957436767,-6.886663671765075,10.776322466615985,15.12272293393191,6.088194026035688,-19.491597252317945,-46.11483976002809,-11.245223514695468,0.0006328350692077266,-17.955230422819618,1.8380267949134037,-5.2941569476206175e-06,39.352653569937544,24.241616045458837,17.37154818341729,2.220952204177724,-6.770078378246745,-18.58881936119719,6.420897699024716,22.05275148279848,-6.323395048489117,52.99616451915617,2.352908079116789,47.482365519468075,76.9908226348777,0.1638559105482144,-87.9050482921666,107.0858151633286,-0.011846522408123181,108.54844401774066,-18.277214650111684,-7.08578397901669,0.0703077813717103,-4.610502544239953,8.706471454526628,-0.010381455801336955,7.1758685765098145,-11.266346906611778,15.85439271367378,-14.51412163075963,-16.284542287501147,10.625670168337852,4.991036565002433,6.54105395193843,10.393656983191205
14.628712933633047,0.0,0.0,-5.564387112211033,0.0,0.0,-19.031517904719703,-5.768609831567314,10.580229783516785,14.577206069479798,6.970397538003505,-19.564302687833166,-48.65446710406734,-9.922868942768284,-0.001055057271322196,-19.247073576703002,3.0085658042252064,0.0003207691563465844,41.23974498737756,19.96632042650747,15.394101885993287,0.7313690066932584,-9.608359206960635,-20.762037867222368,-0.014543918524182603,16.008402499460857,-2.2667518390914942,51.314124248187305,7.461111913975516,59.36820611074233,42.14506939433962,-0.2577806507723565,-80.91258857990053,105.08675165429256,-0.010241887256180575,110.18884283851143,-15.874595378325232,-5.736880474731823,0.0025055334078025837,-5.657066164455943,4.83714714073151,-0.03519555188254549,7.611082908586936,-10.720803247510386,12.008503347715036,-14.251229836370083,-14.376973303991665,7.200325528894804,7.796842181059323,4.495780102658822,14.331351925565047
15.877016165420315,0.0,0.0,-3.112482442510996,0.0,0.0,-19.63788874884391,-6.098411892135207,12.22621667205175,8.474389226851377,8.943310002540425,-18.49908542342526,-50.220650625506025,-9.855909355468974,-0.0007087671319816154,-22.574549756530473,3.9639811908540277,0.0007798172767629603,41.62868491443979,15.480071218842518,11.30792785830839,-1.6210796703774786,-11.756594208477642,-23.388599579602324,-7.3582120504216455,13.969606602788893,39.15599129515993,50.91829355653024,9.359774516968447,68.82961995771332,23.111374264331296,0.11812654457523333,-88.25546781633767,100.91409681277656,0.008036559941019025,112.8864558346679,-27.90437476980395,-4.704656343534043,-0.00924846055482983,-10.884576776886783,-2.0892157968858798,-0.004129136812126479,8.675077743428014,-8.019110831436967,4.388121609680847,-13.186092964480222,-9.068268870293334,1.1011372976079632,9.039359241210724,2.1931106754280374,19.88103490160706
13.15510940384801,0.0,0.0,-3.084034741864602,0.0,0.0,-19.2535684009236,-6.908469957628211,12.029559558168298,-5.561711146329854,11.343591079720131,-14.651473300618974,-49.12949168101578,-9.052336450534861,-0.000820616124121016,-28.17605090495006,3.9078544257357164,0.0062242651156107455,39.28390658748428,11.891435655576975,9.046473756314903,-2.3279255947084487,-13.963317419413784,-26.865624550534598,-16.258726885660163,22.865721849916007,67.69468077669904,46.228467597834374,5.6257522261699915,69.82125479717206,29.922110707801817,-0.1712097108982779,-53.16034812386424,92.0008134257895,0.03608260158535097,111.63329847597844,-21.15102569011131,-2.4456258732547345,-0.01950137055832606,-23.065136074424107,-10.530898169730369,0.03641409880127945,8.959052373409147,-6.87346760949074,-6.066543109819486,-12.614183591436904,-4.160294053334261,-8.16577187851248,12.514537244326755,0.07326888709868026,29.634244053413507
18.29276111850529,0.0,0.0,-21.63166434571696,0.0,0.0,-21.606435428373874,-3.957771779161627,8.713784812265112,-22.707048238918375,7.850030265890923,-6.740384309648716,-44.261914038640626,-8.684510623652631,0.005651910363168747,-39.84655384029477,6.169002621633886,0.012125276302658222,34.15291383847368,9.780705181999634,5.888198282948046,-1.544005034710892,-15.002364403337754,-27.107668315014386,-18.94410223211061,35.63759308269972,83.37750547192769,38.65836672678869,0.23063182542478808,59.430648973057814,44.67564541565523,0.17073821528329303,-59.71447519720071,78.94237130238932,0.041353388525687346,103.32431535421979,-11.908299983601166,-5.965765734959657,0.008668514275664594,-31.191929470814728,-18.200707306560354,0.019345177136855875,7.131574102487741,-5.276957311067127,-15.853909021069235,-13.649424054060711,0.8498758165304419,-16.66660842841652,15.263766225224702,-0.3530919458257925,35.70111388668639
15.884478567676743,0.0,0.0,-28.125703230955274,0.0,0.0,-22.760411568961377,-2.88771593598699,2.7998886916773005,-31.747527057375244,5.899531839386717,5.752770100180161,-39.33740037356606,-6.252414771380134,-0.0075944882124905685,-58.63426007495076,9.969087922905615,-0.04480767192450489,29.457717859991334,11.095949912635207,0.44838557379190525,0.8133189229991044,-11.602124132071292,-28.30603305989293,-13.642529943007277,49.470800789472456,85.18732332306138,28.415587711034927,-5.3894213981403025,36.567125241404206,62.17505419600843,-0.08833911937301353,-69.06572856099243,59.89220548540054,-0.1327924012919268,86.91218005536044,-11.432869779022598,-5.753125140349665,-0.01998605794854734,-22.271718236131385,-24.595590851222678,-0.010383092312811617,3.5969029909687142,-3.344751293857988,-25.684163168683252,-15.92747286479458,6.04629427426535,-25.217847331547485,15.425664135792939,2.6805725429492155,34.06059473898609
15.541148705625286,0.0,0.0,-27.603349945562435,0.0,0.0,-26.30081694006743,-0.704882322038558,-4.274872169106547,-34.183996548906926,5.793717892620478,7.02681068986941,-33.45183566334717,-3.6348068425810367,0.0009121161530736324,-83.68033676859409,11.862842998604936,0.03353931086346655,24.486786429797643,14.104904942095523,1.4633641693302522,9.959085889855553,-12.155652803194616,-24.519049119416458,1.257772007107017,62.40914223497468,71.79583432864503,17.476076451426945,-9.37513983202201,17.119930829592636,75.81043680167731,-0.0025269831521547562,-69.80580170499451,42.187580272589955,0.05722915081439631,73.988936083358,-18.563077350249564,-6.945459644728974,-0.02972307651924785,-44.75999483363749,-22.050131030899138,-0.20718693604902447,0.6951594786091811,-1.8315991966829628,-33.042668286206485,-17.59184344898564,9.861881858572355,-31.74451792117886,13.761063340860582,5.692353182642141,29.56997106485935
10.365316718006513,0.0,0.0,-34.03636241663819,0.0,0.0,-27.917976426695876,-1.4790792439568714,-8.76926986612457,-34.231632239774434,4.1438078678306915,7.768591881309746,-27.849815567831087,-2.2232227503989983,0.0005421455394209313,-107.50992612986391,13.226906725914265,0.05530601555054757,21.36144733770809,16.257530136431487,2.0558855636295146,23.13195897032607,-18.65102800551829,-13.785578593130088,32.739181930753226,72.72118088605428,33.21349046514199,6.1521953362197355,-16.398169887459527,3.512494518997582,83.75037995566409,0.06467757310979115,-66.47697663486471,30.65665106665646,0.07992651063116121,59.57002717386835,-16.90800148103418,-3.0249111621967595,-0.0026226668646514126,-38.72100280080363,-19.859490357576355,0.00834784676186675,0.006836580011520024,-0.402196383071548,-31.41882004290349,-18.673344156273092,10.702785025387694,-29.7190631519792,11.648151137749165,8.306327952173763,19.874051021251695
14.504955514847532,0.0,0.0,-38.40006373623781,0.0,0.0,-30.58627107562016,-0.020426638152527887,-13.681353403704033,-34.4679019472529,2.337810443623829,3.463230392576851,-22.874798930954142,-3.154774984367527,0.004121824708566203,-119.50516750751737,6.493533097142857,-0.005959296207712071,18.942967235884286,21.530502427593575,2.088288382400498,34.91851953038387,-25.230064799220514,-2.96743346080316,88.73668241394701,67.70649701098344,-29.80582572409047,-6.008216439892873,-23.4214754734253,-15.866819089755491,87.00762960447967,-0.0110093823520052,-80.99672414198704,22.968216848889064,0.022810407318103822,56.66192710434467,-12.532507959527779,-6.112801453823024,0.005022963082764115,-40.88703713576301,-19.35199987799985,-0.012996245488888484,-1.268306135773666,1.3111771232619844,-30.601839497840785,-20.208973658332802,12.061288684492196,-28.366696062481026,7.954381436012689,13.80554812225857,8.986110944581574
11.169099937431675,0.0,0.0,-40.00805346125817,0.0,0.0,-32.86843384125351,2.9506091550458526,-20.130910296937028,-36.38262454110391,0.8459254480054265,-0.9410495701749212,-19.836298440013223,-1.9419211100285656,-0.0008123870863149371,-113.7688883575797,-6.6469141882183,0.01745221936588936,17.99646024201974,26.242445838815172,5.835895326368014,47.22053283746812,-32.641578436695376,7.1959924611242645,110.7895456615541,50.89121639501498,-56.7659997834179,-15.250695306847877,-27.319682673630417,-43.58781102035619,84.60134058487797,-0.017090569625245293,-81.16533505527667,16.961128083387084,0.011230177706996546,60.934818835180984,-9.441866019840933,-2.4608699892484425,0.0001558866151751358,-37.46700193332381,-24.355053030965635,0.0016093787468304688,-2.0799194807140657,4.625404075379903,-29.163534775739645,-21.528622206893754,14.719223978560112,-25.85224884649028,3.8646231527562196,20.05736768147248,-2.2784196701231623
17.962892958045263,0.0,0.0,-26.01978932124406,0.0,0.0,-35.144893603582936,2.782924241826614,-19.907897564529907,-29.94196027322935,6.4888632477308885,-9.684632088597812,-15.64864697239325,-1.2612280157937419,-0.0009143145458559945,-90.27180756177736,-20.93446953145358,-0.13750632649181782,11.676383838070388,29.37788868187416,8.865699662708808,55.7785089468805,-39.55939931210294,11.20169831985463,115.7947060286447,31.939521084078063,-64.79053164491575,-23.08263742929585,-29.294515864006666,-71.17274992440872,79.97112762056081,-0.007267917266475464,-87.72078341430507,14.966501008468004,-0.017593271585703826,70.46813311672555,-4.560578757657419,-4.298738835864678,0.0037534700746348483,-36.467712042224456,-28.22817654263567,-0.03074912952684106,-4.887869317082782,8.063682432170571,-28.857354064760937,-24.724267625281023,17.855294508322583,-24.34971583649846,-3.0863190729977745,25.538767769596248,-8.798836401017839
19.045020754220204,0.0,0.0,-5.328780506951271,0.0,0.0,-34.09580224011134,1.0196334499615547,-16.042460005847182,17.147889940560578,23.876027303847696,-19.307076643706548,-12.079086742101222,-0.033777389913362335,0.002340440641366342,-40.93548220540204,-20.168747729113303,0.3223497232944316,5.5793855100325525,30.185215839612006,13.371557939081793,66.87169569209323,-41.84174074244287,12.562971957103475,114.53237118920113,20.005262714341004,-64.77426727893126,-25.101533557731987,-30.142383940279778,-91.6225612860402,80.3039071061653,0.03491319590292351,-101.43441227004548,16.307514050965562,-0.026042321083780313,73.82791341092098,-0.4676845934249456,-8.782662039928866,-0.005224053615768687,-32.94777580123179,-34.520585599189275,-0.10788924658017626,-6.1985089393649115,8.064237653034013,-23.468235053724285,-26.803886130871383,16.010172153031625,-19.11575086172025,-10.042088408643245,29.401299121204172,-9.667530164822894
11.716152979814332,0.0,0.0,-13.72575800150792,0.0,0.0,-33.980217132141625,-1.3042039950485458,-12.004140799759774,33.58696216963916,51.18059503512072,-1.034381488434682,-10.265507295629213,0.8876374873298366,-0.0019146312883097695,-18.779058793367103,-11.166926312482651,-0.09151535089849272,3.239520497706931,32.747444548377636,14.754641849253524,69.08440246032488,-41.35577704971825,-1.8651118678395584,106.763768903944,6.311613903405139,-60.10637543041251,-27.730785304117788,-29.39321771540143,-90.45224397854513,80.09828492194887,0.01380331809872552,-110.97633165975658,14.709251679762978,0.03719673453013331,76.36551011623354,0.8849126563526362,-9.342404313200037,0.021658644710927016,-40.17833647483205,-32.93836638478899,-0.09498016440040387,-4.332565063149858,7.886588707710461,-19.971410279326825,-25.322089869625497,14.614194788711679,-15.824662814851596,-15.734958582975462,33.02926185338161,-9.752554708065526
10.497382534887885,0.0,0.0,44.57418264603521,0.0,0.0,-34.26654938856717,-2.8775930467119926,-10.084546306883816,-2.234098330295025,8.003345716738547,-4.539653394767157,-9.568611438918108,0.9005012470529813,0.00029410017731274515,-35.50125070792811,-13.231126264810458,-0.019978860623141758,3.118708422405653,35.72687975298975,13.803592848070972,70.35320855554815,-36.670123231986864,3.545133475340829,95.02977989676812,1.833548077520671,-59.46922641553725,-30.062566022212312,-31.0851907009806,-71.76143148886426,85.80939060659342,0.020759012493808536,-106.35042587892859,14.281469509212366,-0.02412732355537531,56.92265784728556,-4.3209096132375775,-7.95296383990199,-0.0008188266938548965,-40.77608722428354,-34.95451126141325,-0.02161525719806796,-7.188146290625833,7.090569841897389,-12.379248048072595,-28.72678218544567,11.13923881297965,-8.925334659816947,-17.084264007815595,36.373025442237875,-13.7555951016719
17.08492376261116,0.0,0.0,-18.488009963924938,0.0,0.0,-31.872764460020907,-2.0651328279441343,-9.54550215013484,-19.985094404490532,8.543549615457746,-14.336656152888933,-8.98026755247193,0.4011180637806394,-0.000515839388551426,-47.18342961633822,-18.6345651803463,0.04778939698143223,3.1260562939345466,35.35612284174672,11.855553041810333,72.7447683112459,-31.346643416586975,8.958034313005605,80.56323230902058,5.025940997542502,-59.72875969261969,-29.923730038054707,-29.9370441047425,-60.57084868443062,95.00491063984644,-0.0101275965892023,-112.17955030902031,17.26695318527082,0.05720456596699487,41.24071651904237,-2.413508245889508,-9.36598793822943,-0.004497871710677081,-31.090768738802755,-31.506007036498897,-0.19160791070031902,-9.441651906108268,7.975872302664516,-9.712781511478223,-31.174982516852726,10.987308313317724,-6.089034594298615,-14.479348438427175,33.49844140932027,-15.843372399305627
10.666340852961696,0.0,0.0,-6.2698621310390745,0.0,0.0,-27.613750616157372,-1.9969721200109385,-13.920158421100455,-9.88837333912423,11.364148385920583,-23.934850726693444,-10.367455698855006,-1.1861216622564308,-0.00026871257124300786,-62.484237858741814,-15.03447643898465,0.021939594542880705,7.249384880889913,35.00172953758513,8.927622253127682,74.32429723283065,-29.35983397217169,19.309145719638906,65.1493112868148,8.86086958375442,-55.93716188720325,-29.4185534438779,-27.49456439943623,-53.93466341189554,101.62647662903012,0.04924710005089746,-122.37511456609957,21.60311078338634,-0.07446684184600054,20.345245061790326,1.935068989594273,-10.729921552283564,-0.0027066935170573588,-25.477338085740747,-31.920687540498832,-0.1231401422926387,-12.503292425298701,7.554205110501928,-6.379280835213684,-34.30890568037158,9.370492643646864,-3.1315373037869714,-9.86724898076722,29.282454224792897,-20.765265881407853
12.914116288008971,0.0,0.0,-19.029624014739284,0.0,0.0,-24.321578625073965,-3.1867107234272614,-11.852011392496935,-10.082351396979512,9.957340656075841,-26.148162974347407,-10.774835597798265,-2.4891223715716744,-0.00022199842410423862,-72.94302126100709,-16.3964255747443,0.003718831411292405,6.227053048085026,33.279055835648265,9.392806135123827,72.89164805058122,-24.821283726728055,15.723954406746886,50.402330182182595,14.023708649877088,-47.36880002740113,-28.229827623715305,-26.39755616389355,-52.49424895471267,105.05807537404273,0.0032195653406335897,-109.31606291941826,24.332616921770015,0.05508958088625744,5.6913560610003335,0.06029773250328151,-7.618502473750535,0.0060428891380569505,-13.286398839494566,-31.578197685047773,0.04645412653437911,-13.000478112529997,7.414948581189838,-5.4031844121605515,-34.814997310221955,8.88163011083625,-2.2739049530690703,-9.50535223166744,24.769703976020217,-19.561323537581554
13.262861980751818,0.0,0.0,-21.736025467324733,0.0,0.0,-20.79808504738719,-2.5245050462606953,-7.931936628616259,-5.285423463686087,8.217732736075224,-28.034681543576156,-10.814847684091227,-2.4778102553658456,0.0004926702657216565,-81.14096002347084,-11.817734128913253,-0.008582751295842402,6.91894118644219,29.043216356945518,10.453482273820029,70.91749439544962,-23.077516937832186,12.254938518973718,35.418270024042286,19.77561986238062,-33.52328354318415,-26.231336871985878,-24.984582930228232,-52.98609779776457,104.50362924761735,0.0027093174598135325,-94.22064616368749,30.513248769570552,0.008386180293057731,17.23866191191606,-5.303243692130197,-5.258330711302133,-0.00032609907053609893,-17.860241809681206,-27.23957993733682,0.0015584932870461715,-12.58511303289712,7.413466209920555,-3.2007780594378623,-34.417444590239846,8.068273834389762,-0.22463448314161585,-8.061529737615006,19.33565148444155,-18.42431368365699
13.509116919851802,0.0,0.0,-21.225461346107068,0.0,0.0,-17.221566609642828,-4.189699601959403,-2.767542143218148,-9.598896557829576,8.338890012262828,-27.308676014338136,-12.317537114545146,-1.9467947772825016,-0.00044954905482722126,-84.01507326052304,-7.110075180897365,0.0027589934744360394,8.58408866726622,25.258411450112508,7.974064246171339,64.77929260234583,-22.708589415919338,4.961580413729005,23.93640271082691,19.79104057179291,-18.32152362913049,-23.40944970846823,-26.68526154896882,-52.198871653605295,97.04486129545298,-0.028254228195110028,-86.8220519155021,37.211978527369006,0.032625787390848815,32.808129235210096,-6.6920224349434,-5.562270230369245,-0.014127774819396524,-18.99017848569665,-22.729320518782497,-0.0035151110212132235,-9.737791454058833,6.620572605988291,-1.929764736107829,-31.52970012996326,6.8634240800350765,0.6594367883824998,-7.402680257949825,16.187940087331175,-16.738078030489866
11.66764702338533,0.0,0.0,-24.365192585176903,0.0,0.0,-13.56440282384293,-5.251394065966332,0.8626224006091139,-16.459044082740334,6.677344116921131,-22.89372384877135,-14.157455616321643,-2.666274131719931,0.00039010084372911814,-84.29970625673695,-1.2264628743320942,0.006172619364261404,11.611720952043884,23.374333603911655,9.927365857413117,57.03253318865973,-20.74972727861184,-1.2493180679921791,17.091966174943206,18.512985787249924,-6.017456009384592,-22.008714256838484,-28.25025236896852,-51.68145720224815,88.20967629379388,-0.004152866645555205,-92.6561637506924,44.23312945407914,-0.022137377853932442,42.565016634723435,-7.556936028421381,-9.493418438277034,-0.0012364261068414828,-18.653767521684028,-14.763672693945278,0.030922133051633764,-7.34889114213114,8.848871027392455,-2.8186379041222582,-29.262157023574225,9.259437343661528,0.6714074602415243,-5.624299748372051,11.694579114713129,-12.128516980096009
13.265765667929262,0.0,0.0,-25.543770745542535,0.0,0.0,-11.396940594878082,-5.400067273628431,3.1898498443439713,-23.30719437610653,9.443130152639903,-16.35859185428617,-14.35238661801294,-2.936051598674947,0.0003686683504139561,-83.82499171824725,2.8735231373496246,-0.004270574378859395,12.848234740639237,19.749911285617184,9.544792732966668,48.00314962894928,-20.83673943617329,-6.580871092329248,10.099902410782777,17.805483215887335,6.863064761199932,-20.706622930244766,-31.097545877141236,-53.50798959710522,83.49271013959695,-0.0009364929252421483,-96.66682417637988,49.72088834205285,0.0031713252491894313,39.50461959403652,-5.95145479133244,-10.892359316659643,0.020565374268153924,-14.337586215120744,-13.957591271520695,-0.0007172560400781254,-6.928329732086821,10.050644148695671,-3.886244637077512,-28.923760304000393,10.767775183597871,0.13579603002273535,-4.236271994650448,5.774041422955321,-7.786431968433557
14.89239122400917,0.0,0.0,-28.727932386317995,0.0,0.0,-10.000410630719653,-3.6519258982103144,3.7972086563394134,-24.13105565744261,8.708025853665836,-14.348286753172212,-16.645842114949033,-2.4863189488957786,-0.0011920708308196038,-80.92355066681748,8.661688010193133,-0.000952814656939604,17.547000216920193,16.77646221067893,11.323386631479964,40.40206279665952,-19.734698263086084,-8.137715221617238,4.288056376610328,19.041288785300708,16.164655727279687,-18.925894717891484,-35.21031113806324,-52.36535714184562,80.87110613795487,0.0006184693699358175,-100.75866996268171,56.46717823883413,0.06795246704588997,42.93195498316229,-7.7858010436001654,-10.504972206828262,0.029659705264045367,-15.122826157125507,-14.740863565441728,-0.007951402830900445,-5.539892387570982,10.336045845771613,-3.9738782128214543,-27.556012779555495,11.064695014286933,0.163258186316398,-1.3089637136320103,0.7397907864128758,-3.906879062155702
15.081959073563441,0.0,0.0,-25.36815464737509,0.0,0.0,-7.893945567191327,-2.709276578399008,7.036703175878232,-20.793612785875773,6.438918514255962,-19.08021089777633,-19.10353796000082,-2.901633180430563,-1.5488504627951596e-05,-76.38068861658182,10.359377948630764,-0.005499846093405984,21.20716955535836,15.924119702551442,10.859379279384795,31.148665420293913,-16.683159075010767,-13.220668084317042,-1.6775719780895642,18.96758779840945,23.560246311159673,-16.709753808358627,-40.38917500390353,-50.58011591679868,82.34495355740512,-0.007492893731921936,-103.06560004442721,64.1314701732398,-0.028760190774021182,42.780677602572965,-7.25551809692859,-10.071504913601611,0.013997127040562581,-17.695869211902185,-17.195754927508954,-0.0021500306405674422,-3.98309049816681,10.704547067361549,-4.546694745675025,-26.026829249866292,11.617533881487102,-0.22823215533756613,-0.19701374289332882,-1.6755221753260545,-0.3747558088381884
20.11963352724722,0.0,0.0,-21.21695012695305,0.0,0.0,-7.83825348901993,-2.529469572720076,9.648434740122884,-16.512187183246553,6.868875088413739,-16.840114645477435,-20.95153930974378,-3.819043327698325,-0.0006463700590900681,-70.33159654545419,6.416515428266477,0.011663888440486587,24.142825390443402,14.682800783155162,10.977826521643792,23.516288472758266,-13.039737151679631,-18.175071937066253,-7.178496272217432,19.445246497539348,29.97158968729752,-13.280520753895782,-45.653023055046,-46.155607812548,83.09529076432484,0.00030786439138868755,-100.83825500164414,72.70245324897428,0.014166132480981895,43.381484197578494,-5.333432405742931,-10.387494582918215,-0.00362518714453903,-21.811446779577032,-19.097611906471794,0.004769021397986477,-2.111120280131608,8.91907888822967,-3.9645004921465694,-24.029913496174792,9.747134572062622,-0.3669398112983133,1.6601677216620438,-4.889296986195337,2.7370775639799207
17.849824844520185,0.0,0.0,-15.657719363370463,0.0,0.0,-6.8327952702174075,-2.3315453714923398,12.022971759435661,-12.03759999661277,7.455612358580471,-11.99353201848826,-23.728603183151975,-5.338830201426206,0.0008626664804647954,-61.29344264614395,6.439670342562373,-0.00033706623026745486,27.98563615721753,14.933557990755146,10.744361410480387,17.15094597047023,-8.317470202159537,-17.391065247006296,-9.898084029314084,19.331620212117038,32.169565128663415,-7.034698230845557,-49.496139695686544,-40.651445847087956,85.36784281792623,-0.0022166516983627114,-99.07925150867463,83.32580373556199,0.0024864861411266013,51.46665418061918,-8.425175412425345,-10.710125551657105,0.0009866448123276807,-27.24228155513303,-14.126867959008333,-0.007075343293307557,-0.5212203073500413,8.402216632927674,-3.214061347393466,-22.40877163700079,8.990841992270658,0.13528591429861617,2.7151173372325834,-6.926105180813702,6.484621947637998
12.755209671245014,0.0,0.0,-10.754891119785052,0.0,0.0,-4.67946471773663,-4.238208927825689,12.079173525058877,-8.06291093741874,9.10285966187551,-10.818724723232316,-25.921581006945736,-5.598500669325858,-0.0006991155947944389,-50.43859691752247,7.103834045147219,0.00040366586657336183,30.469591453304016,15.134223692336219,12.470044021217676,10.561507324336782,-5.093349871755283,-17.95788059805757,-12.233902564354949,19.96274493834493,33.75162661970753,1.8583597704054529,-52.12923553916364,-31.14352324094958,89.20272526634137,0.014411856643977216,-98.3735730149994,92.92760166834414,-0.012425061512864889,56.52634547557458,-4.483989480594299,-10.519905781581278,0.0013713359483961225,-25.188803276215793,-12.834932782446181,-0.007607466189678413,0.2476512828079316,7.829377044433355,-0.9409333612858021,-21.592738234686596,7.621093305933891,2.0303217799209685,2.715916300216011,-8.520497822096093,7.676006882867866
17.468449574501253,0.0,0.0,-8.275210031319238,0.0,0.0,-6.475349750526676,-3.7362745822588908,15.269725719060824,-4.2585384987236505,8.11229780883829,-12.14737452473052,-25.78520199986402,-5.10001833507465,-5.1677954672564716e-05,-39.72554860570098,7.615624477936387,0.006722484306894836,33.43994178276952,12.413152542712139,12.768254609698422,6.977010421668179,-3.9984914879543725,-17.710989440177126,-12.528362732599648,20.237614771766815,30.189714647717338,12.96853242437577,-52.941653533158785,-17.766258690795183,94.33288190560388,0.0037798094699903755,-98.5482510399648,102.62848921514882,0.03193758432895354,59.24914887074652,-6.14017850381806,-11.460453015076933,0.02931245253397985,-24.073914506841838,-8.560394147304198,-0.008720460777659108,-0.26911500796452914,6.371906085501135,-0.15380345421703503,-22.03413131794413,5.977783365933864,2.215542097310768,4.094952739085357,-10.773948410231654,8.652564020205045
9.844637586853516,0.0,0.0,-3.9380640743806263,0.0,0.0,-4.832870157408928,-2.797463595678383,19.989991008315076,-1.9331652716454593,10.401010221287613,-11.015845009217102,-23.949896920761542,-6.422808340446586,4.3315960751624776e-05,-27.782332698938564,5.072363792658258,-0.008541194549340598,34.40669999406333,11.97292156988708,12.863747240789845,3.633276374533962,-1.2971005426155566,-18.646661607124553,-10.839803075457956,20.699415036728833,26.132901564249305,22.589549958508496,-51.34178712676766,-4.786566758025352,97.62821860981542,0.013761336353818841,-93.94484069345471,110.86044238993723,-0.03223731907658028,65.72367343367108,-9.9303222322092,-10.568297041832553,-0.007297489458507671,-19.819761349337007,-9.675761551447916,0.006589544982417955,-0.29880165483264093,4.279588610283483,1.1482618712198631,-21.978804603437307,3.554262506353346,2.6470951480997362,4.859799727648108,-11.418701227978367,10.997539214180147
4.891440147912418,0.0,0.0,-0.6360966266458147,0.0,0.0,-4.307389719159011,-3.7856815600312523,22.105801515242003,-0.15154844931406666,9.812662924423417,-11.496699650943473,-22.8083163651246,-5.690143804012376,-0.0005317155130834748,-18.833267677200013,2.8700429297028975,0.00015486447352607463,35.69223695780882,10.476686417356845,14.951073378289562,2.1352182214811277,-0.04636715890286081,-19.845955618671624,-8.256010182536958,20.785777691377124,23.603093787782914,31.198308962107912,-46.380249865443226,8.080883129569745,101.56222982918304,-0.03369073025077381,-92.81089367430273,116.94712762951298,0.014687602401852191,67.10952805230116,-5.390065190188201,-8.367558651070052,0.0017933364616848169,-13.213082696415684,-10.287726411432166,0.008800168674693598,0.3171765457070322,2.968526824744879,4.436394961501694,-21.259879126630857,1.1258650037701732,5.216519991256233,5.162193339212974,-12.441093818327598,11.106286210925047
6.062862498494163,0.0,0.0,-0.4850926679627237,0.0,0.0,-4.949551019130661,-4.983569148576613,22.521893011615447,5.461894337588066,9.227849932385523,-17.728644492283905,-22.680399863119955,-5.944652601370399,-9.950508233918125e-05,-12.966214775692553,1.4913741681041077,0.0010208496509128487,37.78742249273245,9.899493413643743,15.58887770212637,2.2012614786254137,0.7146307806137256,-20.358531914803294,-3.7858877067791856,21.9062992231269,18.986770081207034,37.89933855253655,-40.116647401528915,19.53981147793424,106.59604737217515,-0.02018260144892454,-103.35091605947107,119.96021014902286,-0.00515700550696962,73.55392186328791,-5.656575737241383,-10.58253271836398,0.004568060388197145,-11.369406757159116,-9.715652290077525,-0.004967357820112611,-0.794417784978466,1.188366289093404,4.910033874658621,-22.35351316606762,-0.7036477127944724,5.002329815169472,5.915778942184725,-12.91325412207981,11.550474214275777
4.289727571107577,0.0,0.0,-2.40801456050566,0.0,0.0,-5.295075010329934,-4.883022901936928,25.541792084696663,11.767199011537185,7.730853904846248,-20.221560016938252,-22.901887624950724,-6.7010570194178305,-0.00016243996436599215,-8.74249832359889,0.8760018160075536,-0.002085425365410459,38.756833599112845,10.782200053280933,17.295542283933493,1.9682481792942352,0.7779182973173738,-20.681915522882818,1.4708824473262028,22.455934788483056,15.843700689545527,41.54806601472654,-33.21879279068634,28.794711565203308,109.88649935064271,0.0025442370445309635,-104.65236866635502,120.76728930962943,0.001960521884262459,80.93179784250741,-6.145831668356939,-8.390298855139875,0.013656065943015707,-13.316790154983186,-10.48589464356271,-0.030618380967410166,1.4662510357789025,0.10923908157655257,8.658694552939025,-19.948147810999767,-3.0810084644746234,8.096633530120789,5.162420585303531,-12.029996183714363,12.056407867569837
3.9134400044107687,0.0,0.0,-2.4525822475935555,0.0,0.0,-6.171371950176679,-4.931561425721126,24.634154388765754,13.963133047905131,5.4069808574985645,-17.975619661001264,-23.013127863599077,-6.92804425017187,-0.0005063787907423554,-5.777768704012194,1.5581340661120453,0.001184097423588522,39.26344135906493,12.40549678362607,18.529085318091084,1.4754138864231248,0.9557521753012963,-20.292542217479404,6.671704098639849,22.679007610436635,12.687682362683063,41.139893340345445,-26.525588695497206,33.350805442915494,113.30981968891717,0.003731713567451057,-100.39100043265448,119.97014317533996,-0.00444572909940699,83.01441982851507,-9.130985575276249,-6.786689250641204,0.009645801788543096,-15.105251033077698,-8.524863704728165,0.006275741631763441,1.6623621790998107,-2.04059191925501,10.644438986983484,-19.702725618636784,-5.806794122748729,9.164569490028706,4.3638197776504235,-9.673642065260537,11.503819997981331
3.8021270409553445,0.0,0.0,-3.2959897717430864,0.0,0.0,-7.7513965178787965,-6.451709821374247,23.013891387291977,13.301116392373626,4.785944374858445,-16.799805852692927,-22.419554974288268,-6.902198900464648,0.00046572692872905315,-4.210180997066607,1.669910276317539,-7.199314466151839e-05,38.746061041793844,15.673296589547592,18.751389698192025,1.1126846443438851,3.2931944755429137,-19.27426689309156,12.074631287752515,22.402365599509487,10.275858118098487,39.29655940487464,-21.161663839199715,35.60674338234105,115.66329113898941,-0.012264702131864149,-102.86292563535119,119.28846110817474,-0.0031329797978496146,87.01908417185737,-13.954544678660112,-5.333924474148669,-0.01447394443261485,-14.838574463142242,-4.002556722074625,-0.0015241042888272667,1.845890656310199,-3.7194917694465133,13.955132951934747,-19.37374986178015,-8.57182359135386,11.65534815487426,2.7412214752425395,-5.3773680937401815,10.619785318820547
1.8467221196897874,0.0,0.0,-3.962908006212978,0.0,0.0,-10.151609872574706,-7.1880971207155655,22.433261014449222,12.88193038497175,4.320158572685687,-16.78949856804254,-20.493924265701843,-6.620949813167702,-0.00088410817650561,-4.479377238577496,1.4977824892649574,-2.4350998318762797e-05,37.228546349771854,17.243741750098465,19.06635612173815,1.2550166122150264,4.600533083036359,-17.42180673204144,15.349311157793045,21.230706165033688,9.231577898049617,35.89537907530108,-18.088483259867644,35.92549787380842,119.4074832851955,0.00851170917449371,-107.0068804113098,117.78328586541691,0.0012059582295098608,85.51963852766286,-12.463133384928502,-5.908510316558198,-0.0015339198571677787,-13.889227108146317,-6.002379183726371,0.0016520002233962995,1.6747260796665349,-4.41094225312122,15.026859441251027,-19.501465963277106,-9.603040719626458,12.411531551912056,0.5901527485875612,-2.725050432223722,9.733775183787175
-0.6904458782820083,0.0,0.0,-4.255637145002625,0.0,0.0,-13.321287703005366,-8.506376083180346,19.433523279469874,12.897440226516729,3.515395017213636,-16.706594067546977,-17.32360204351711,-5.337425661912837,0.000204965317175899,-5.427068334166084,1.124897062866316,-1.0182869918416843e-06,35.27631080697571,17.58290998844245,19.49786958058001,2.1405849653044635,5.019413015420967,-16.184113097757834,17.212782589379252,20.224770111350825,7.63231158841548,32.76427608182038,-15.763203967523472,36.084102605675945,122.27913194727932,-0.008545020162261753,-114.08831335097442,118.36974847871801,-0.0041345602248643205,88.91609467961406,-14.399171317090085,-6.577234581140617,0.0005472202720210619,-11.891715845316718,-1.946204606612048,-0.016221647700321327,0.977182070617999,-4.949231475322465,14.746859086841821,-20.254755842552854,-10.003954026691108,11.949917302202111,-0.2925714947824302,-1.456974235972927,9.06686342231562
-3.217270013488638,0.0,0.0,-5.642668561850126,0.0,0.0,-15.843831555729901,-7.978079558304404,18.867925861482114,13.146742326084091,3.1581382542913174,-16.326355701971657,-13.583986849981624,-4.69751763330953,-0.0008044711672262222,-5.580371651606404,1.3885196608822143,-8.1653781429946e-07,32.995628381592745,17.248271895815588,18.278036226667183,2.3502971862620865,4.758227010215105,-15.494152017647728,19.414180915714635,19.739908946888473,6.795286325480337,30.92737836538327,-14.613960057559657,37.84308599324499,125.28509897163576,0.011160379611847137,-111.73626322333588,117.69966717857767,0.0032504430363385502,88.69992940167381,-13.179123934879955,-8.001357837442116,-0.0027286424624447156,-13.417066953147454,-2.5334349526821818,0.00016666609214995235,-0.1599699136290551,-5.118640779673556,15.834123027800846,-21.31528376089027,-10.553465227476932,12.913953851489053,-0.7504538736954327,-0.3027508592734842,8.326861562779953
-3.2966729538660497,0.0,0.0,-4.364234816097096,0.0,0.0,-17.618005888197292,-8.945045032064721,17.32736821772303,12.232819537974029,4.34426047256479,-14.790457447381618,-10.412066536124883,-4.005949217804552,-0.0010280222050062936,-5.042766762257491,1.711737193630461,8.196341731241607e-05,30.423391922408545,17.71260495888101,18.0581905555769,1.5470167858390538,5.025186292926996,-15.47330048034035,21.12833525779353,20.362836928363365,5.89189854216965,28.956993452192183,-13.830305065483621,38.71346079162403,126.1747140702726,0.004003223921231347,-106.7080538056141,118.01300012508773,-0.00368396432308092,89.26567496831787,-13.288279774708526,-8.11291732041284,-0.0027449285730465575,-14.753200032590058,-1.8294136295185974,-0.002482283559273755,-1.385417223661207,-5.083907278762453,16.530667588875463,-22.478466584115278,-10.77109178531025,13.585224159928313,-1.1853105014764485,1.530995861333634,7.692330502414375
-4.601803361340157,0.0,0.0,-5.980050441270408,0.0,0.0,-18.227338149463133,-9.866588680180975,18.46698572677381,11.91285751963866,4.276036713264847,-14.410074205363433,-9.293146209599229,-4.055760375991917,0.00014153821823036097,-4.24253559729323,2.389725311494389,0.000313197585183625,29.79211834873726,17.9509392159546,15.685755253728862,1.2850335033070928,5.183890839767761,-14.946665351187683,23.135393138832534,20.0558194211306,3.9648884687506603,27.50140417010757,-14.116211375288772,36.573318789831816,126.84491824318495,0.0022392550528078196,-105.09125247130666,119.10028252099534,0.003754914587291572,91.62153175006357,-13.539198414220863,-9.446780477115231,-0.004494537643855938,-12.098965183783953,-1.567616373255551,0.007397716541349159,-2.1223803748225634,-6.430475383868839,16.237587404633327,-23.338112906886213,-11.92169699909238,12.812222918572694,-0.941952762426671,2.9113558990954456,7.423393953586038
-4.510312376100664,0.0,0.0,-6.178333753352013,0.0,0.0,-19.10455996890947,-10.515555734276543,17.95954485702192,11.901242184069295,5.197834992621643,-13.67189074502795,-8.84130323240882,-3.8375174311699554,-3.754364528027963e-05,-4.2789104045699755,2.4759702780957977,0.00010017884241409036,28.861752295894778,18.830217436118005,15.99595228359114,1.2039117232083467,5.479054131703153,-15.101753855431548,24.367511415095233,19.79541522599263,3.5495823442365038,27.86364230355573,-13.870417129737037,37.25553075493189,127.47018245378236,0.0014906803250162803,-103.98081832110404,120.64858506939642,0.0010885892683137489,97.60548092957168,-11.118977296670955,-7.8988326565713995,-0.004446126663855786,-13.281002076046098,5.296358542788667,-0.0021065907661942662,-2.354648993226038,-6.5318801565064515,15.140345240667369,-23.665924075675658,-11.620805181910814,11.73682487652797,-1.0900693729424717,3.999970448659889,7.819537911745502
-5.8676670497778805,0.0,0.0,-7.072808072191959,0.0,0.0,-20.078358922710148,-9.871160588098313,17.38446940066794,11.517674756648765,4.6719827271789285,-12.140776836384763,-9.187971907190137,-3.8285123004436348,-2.9547803916492885e-05,-4.960670851692005,2.2073746593138126,-2.4259760514924406e-06,29.0962351486053,19.502965541953255,15.125217687253448,2.1768324882630603,5.722605344043409,-15.39235627798667,24.017839107861985,18.90128267941312,2.9621158985235545,28.737652925318603,-13.850748571364484,36.41354100590892,128.63020024405117,-0.0026467175891343895,-110.15855541097173,120.9803286937259,0.00014493764443332963,102.61317393363213,-12.82964227515739,-9.513436742718282,0.0006899050332358895,-13.040363542795825,5.9031859518003555,-0.002085976251919579,-3.3531316797755784,-7.1906878084133234,14.466310974473542,-24.764314235461278,-11.990601784988698,10.854963090879984,-0.772847338601576,5.100715848137253,8.44987845938814
-5.375417436695143,0.0,0.0,-7.130719432857242,0.0,0.0,-20.88329224372643,-9.771160510419515,15.612870807814003,11.14835169169644,5.206129345234276,-11.868123907324083,-9.678365055304397,-3.821645310954239,-8.217728206973752e-05,-5.2616758608125815,1.7980210084981425,2.287214411550411e-06,28.631588016821272,19.77247486133902,14.9350490554768,2.4129438052359844,5.681049254565473,-15.065815190132751,24.006422383060986,17.337352853988165,3.345419502325964,30.364034703419907,-12.656418843466778,35.0175719258955,129.57740773413494,7.257778441801043e-05,-111.63855843639293,120.55681515703667,-0.0003611186020760965,99.99160435858553,-11.110170817214371,-10.79256316366898,0.004272018363452583,-11.2085874191641,3.9712518187161043,0.0018433609633897678,-4.284013869843054,-7.3490044343099195,13.561236894117927,-25.76896331678588,-11.809664887167374,9.941823923384442,-1.0098942533499633,5.579832123835139,8.995604172262958
-5.281486581065862,0.0,0.0,-6.964523842163803,0.0,0.0,-21.165124070362506,-11.032589323439467,14.467356103533522,10.333901547073694,5.130340042135611,-11.477672821858512,-10.195999763484554,-3.676047752702311,0.00015766664993457352,-5.251193938842711,1.491969239392493,1.1904632872031068e-05,27.981423067901535,19.768626136584462,14.41359690216235,2.3874505935283477,5.580289927699374,-14.591884729119238,22.954537838818652,17.024968211442925,4.5062497251708935,30.730446805945682,-11.095345767013633,34.34553689337664,130.49594481787,0.0003710010293336871,-109.06088101056608,120.94398745700363,-0.0010679665665579091,98.35553041414465,-11.10461344397163,-11.900930733851446,0.0008039052989597074,-12.023304707482714,4.3500967593698565,0.0007789415043240981,-4.922479221651882,-7.354511572105113,14.15187044421999,-26.36834976188367,-12.02915127022584,10.496925799818861,-1.0284773037335453,5.85224726862499,9.080998150543934
-2.933263308282614,0.0,0.0,-7.070453609786735,0.0,0.0,-22.532124109224224,-10.540813564964859,11.692339478906737,9.58617490582148,4.288028941554329,-10.94762192377526,-10.729976148109209,-3.6800976949149167,-8.698562190526616e-05,-4.921853606009448,1.1244162016305048,2.6171004722505794e-05,28.08218183367133,19.768165339036923,14.383463357795163,2.5175155531629367,5.656279056480434,-14.598534471761806,22.65702619900815,16.705404243675186,4.285268530005441,31.654023003569886,-10.021861552219791,33.5672971774462,130.60364020809445,-0.0011242126586116505,-107.92224218770045,121.1401132519081,0.0011445701085845827,101.16931361924614,-12.475341796579674,-10.956700829906536,0.0013110953827713242,-12.400145321598798,6.712803268778544,0.0037365050210454846,-5.333465306051835,-7.459464138134305,14.183472221526179,-26.78538675023627,-12.138295600337196,10.487515829095928,-0.5123897093845032,6.0315753859354615,9.081398299157506
-2.955021212962075,0.0,0.0,-6.522354059255944,0.0,0.0,-22.820736343494804,-10.928276851745027,11.004075198570623,9.31816409157591,5.152382246372567,-10.447557083324288,-10.736688020772645,-3.795210485577563,3.812664573186581e-05,-4.794432648201791,1.0301860965339134,5.627021862187729e-05,27.497813350831294,19.63499621842991,14.123244016056594,2.1893289933476234,5.402156990649095,-15.005261291389147,22.24040106328944,17.046009263359657,4.596199118283055,31.581755255124524,-9.15687427100111,33.20012402745486,130.6350444850919,-0.0005659686322788074,-107.74914961499664,121.40721901239377,6.655989091937451e-05,102.12823843793353,-11.877446943426419,-10.839736566156065,-0.0005124765752863255,-14.38760755466152,4.166120153203756,-0.0007551209813523182,-5.82710570899287,-7.297723375085202,13.587858091387172,-27.306376762414875,-11.771616626058655,9.98611524713728,-0.15556428467906006,6.151090606183057,9.014413846705184
-7.322553710723562,0.0,0.0,-7.65076938192884,0.0,0.0,-22.1392064459745,-10.665159507967134,11.403921866005957,9.022354411701631,4.263099105986144,-10.598146300518216,-10.848760672006263,-3.6030810122467725,-3.4566664930414095e-05,-4.6314558097632705,1.0577737011934112,3.1936391899649384e-05,27.58424031079347,19.71208661972934,13.28993223317951,2.1870559448619047,5.671527852744906,-14.583134754012061,21.99484752251412,16.734529080829894,4.864398209101016,32.3930292255035,-8.454962491653113,34.024668794600494,131.82617111511732,0.003900687118563406,-106.87047684069206,121.97111684084516,-0.0005167203561411928,102.29098463207106,-11.8525573488195,-12.287985807829797,0.00047489005219559296,-15.115717659127979,4.30931007800498,0.002726354966597344,-5.339415665984686,-7.211487305535708,14.000378716405939,-26.784607429526197,-11.841090055960203,10.407418510918191,-0.18323350265536592,6.390291382516868,8.825680216701521
-5.608224383004019,0.0,0.0,-8.393393358843934,0.0,0.0,-23.479937943999172,-11.462521967824612,11.107561307639532,9.483381090720702,3.9118569376359513,-11.657205997255046,-10.399466727267313,-3.2830855789581834,0.00014375927159812157,-4.475124837101341,0.9601783780419416,8.263876110139713e-06,27.25936122911252,19.531840925933473,12.843921594858722,1.879290025608671,5.782518114446736,-13.699245508427115,21.007694260498052,17.11073633109872,5.448204121087883,32.640698910503005,-7.77085068296775,34.15874689937317,132.39840062454772,0.0011329484484194237,-103.51790922180395,122.5989844315454,0.0011751049898686592,104.77742707168538,-12.48235709161037,-11.716599732030295,-0.0020880424709079862,-14.46017287419384,6.244352336051731,0.005530440406437257,-5.355988818540286,-7.185393793413638,14.047803084911228,-26.795932700424174,-11.833998897278388,10.461913133257259,0.10105275800460323,6.706122985059547,9.100499608061208
-4.713654515837974,0.0,0.0,-6.773479059490942,0.0,0.0,-24.210871340617516,-9.812163481181743,9.264485796098686,9.136635075206684,4.259499283966879,-11.396416447588999,-10.069253989832541,-3.076318261755332,6.484445927486621e-07,-4.416328410186241,0.7154494038655643,-2.9758674105058292e-05,26.7287943970591,19.29614350086505,13.803214023232103,1.4247149353499398,5.876024411163076,-13.898169367132208,21.411929777438075,17.159901952706658,5.037135044753787,33.54778633343951,-7.338519080823118,34.186943862416896,132.1514267568631,0.0008299483173551703,-105.01738511920229,122.51428615657277,0.0006192340360625055,103.11443067316762,-14.341610489473075,-12.388171183900454,-0.001094149531362972,-13.01483763257218,5.686375918102643,-0.0009314057644087591,-5.444616109910708,-6.880760909911395,14.775961087192576,-26.80958905569098,-11.814096306115758,11.2629204585388,0.07047806661093536,6.48616089208699,9.480866624202811
-7.781484590412006,0.0,0.0,-9.60060645340869,0.0,0.0,-23.140688922866946,-10.497632675170241,10.627895531218794,10.087412984207855,3.689370709925192,-13.115238597358335,-10.070670231965035,-2.931735782053519,0.0001150736350579716,-4.590472425750971,0.8893078641419832,2.0739818020363905e-06,27.090050134160066,19.064814885942635,12.38357357052407,1.3656025431259589,6.243472343044218,-13.179377302473988,21.5389645415862,16.728574833419913,4.668520762617092,34.467384497665705,-6.731167426342188,34.22226650641975,132.46473175188135,-8.391498434490207e-05,-102.80759161104172,122.17488036335392,-0.0014411654926796606,104.13317682599094,-13.76946623567581,-11.585891697778724,0.00011577528411815206,-12.448570765785131,6.4856451124496015,0.0008627161141438947,-5.446532742434398,-6.990835412106163,14.664641349550687,-26.82806335240206,-11.876331649055134,11.116786660036507,0.3684401208540029,7.00931304681215,9.26323997800073
-5.8047900230003915,0.0,0.0,-8.803903824402694,0.0,0.0,-24.014621583072575,-9.766762034274977,9.788719389827229,10.220073274586337,3.440017111157192,-12.978377042752575,-9.671841739936427,-2.861277276670523,-0.0002798937059838285,-4.678014224029335,0.7524984324006427,-4.8585685942559314e-05,26.80054917140164,18.613573366860514,12.697577256219915,1.130387891770301,6.1455001830129445,-13.782319911997725,21.856631977180392,16.691748781282936,4.218973887204411,35.467962269976084,-6.105373434128373,34.66218848377743,132.42523133028027,-0.00031548192132858975,-103.46257086852826,121.80195192025079,-0.0011330715667137532,107.35080302765854,-14.14311417947003,-11.000847938198294,0.0034062031400387757,-14.17527181828814,7.6632966681147305,0.004030209320651476,-5.542243274365423,-7.481026038219692,14.23405170611451,-26.992386816902087,-12.176700747110907,10.527194036037491,0.40028391033927857,7.069798941961143,9.28448354833595
-4.85714216487274,0.0,0.0,-9.174273156690388,0.0,0.0,-23.76163442119816,-10.065968727524893,10.503679645790216,10.369982809926896,3.682181388082588,-13.635752276684359,-9.733653824483333,-3.3807323692442472,-1.6894133887668145e-05,-5.070639492793098,0.2881665031402412,0.00020235087138309105,26.919537559375986,19.0308291317341,11.656186773166793,1.319468370544138,6.775807880318407,-13.620291933930899,22.214019410619876,16.74052211154762,4.392127469294759,36.645911968025764,-5.4292776962788665,35.4418629642162,132.10886270540368,0.002994250579660025,-101.39418765697398,121.11691912055791,0.00010455475021810644,103.11856113294819,-15.03398741946511,-8.809153003928364,-0.00478300697961023,-14.76479432893481,5.301849919519589,0.005282684559695978,-6.3579327351595,-7.388918344289562,13.941235301058734,-27.8208055290106,-11.984768456966528,10.285294212783832,0.5459506476989124,7.580267555175454,9.181823956918985
-3.3416588491830668,0.0,0.0,-8.010729862639254,0.0,0.0,-23.8794867332609,-9.720298202495238,9.34300056087453,10.797152696326371,3.7669338296710526,-13.276807448793294,-9.877216878899018,-2.9226988832128646,2.8918921919260652e-05,-5.708908409135831,0.12363875916623203,-0.00017326246627758483,27.049236672702047,18.5690930388408,12.93671005407528,1.7026611459949788,6.4367110395084755,-14.303658841411998,22.68525482260035,17.15396027026504,3.9792070942867297,37.254223405303364,-4.635214145488885,35.80599474046184,131.94007647272875,5.622734265689017e-05,-100.81009071314645,120.6757243037584,-0.00019169461396124156,103.77510901075486,-15.733172766828785,-9.851954104603566,0.003244962190593877,-14.185078776608684,5.928000563335725,-0.002001160148862234,-7.215381066797675,-7.885275962332221,13.103254557997174,-28.770919761761554,-12.142026904436323,9.309039196524777,1.0311732987125852,7.3084153051249166,9.418512174120815
-3.486242109223393,0.0,0.0,-7.3863510431847965,0.0,0.0,-23.594603673796232,-9.569262263371924,9.339823146474599,10.961702328219035,3.4745767497819506,-13.710914864307844,-10.259811193434965,-3.191562254804674,-6.828262210314277e-05,-6.08689124557,0.021426748079459622,-1.0934965922340594e-05,27.03050102366439,18.405889628808662,12.974176264129992,1.68974379285264,6.228195797811525,-13.878482175981576,22.946786025200215,17.276381838354688,4.134231586930817,38.087179825334346,-4.542516729967698,36.582023204296675,131.87579827077474,0.001145179759527156,-102.91923554218633,120.26785356754766,0.0006034500238454939,106.71179043192431,-14.708702855556758,-10.779426382237878,-0.006517738405284444,-15.28290709663101,7.989212514292891,0.0009148576671804422,-7.249212026243943,-7.4978125550346135,12.466265929805937,-28.81278505835821,-11.54971230360381,8.854650491838424,1.0886894454518043,6.946389502202392,9.669270424632604
-3.5078344953753833,0.0,0.0,-6.705733441067674,0.0,0.0,-23.0724179339894,-9.192637648597525,8.796021066072639,10.970106886117213,3.3978768223733162,-13.847755140273282,-11.223592531977625,-3.2190107944369823,-0.00010831446478206335,-6.24742412636316,-0.16803424714145293,-8.055331097045726e-05,27.49370392424344,18.35787498068339,12.833617442238292,1.542803395823296,6.31498612759522,-14.46925602993451,23.786008405747395,17.11557455543286,4.330901435892406,38.59269106029381,-4.5112277391119715,37.165435379799696,131.45911209118498,-0.00040666099670795693,-102.58551016125699,120.84576765677215,-0.0006406757970089147,107.17085640938052,-13.449928140506145,-10.90847598802795,0.00023811311446826644,-15.944720563643857,8.022642079893789,-0.004682079358736455,-7.375851731721231,-7.701621841400967,12.11979159998756,-28.974403630362684,-11.612916095479102,8.452127851483985,0.8881227503862756,6.954799051472864,9.7777235809614
-0.09913928965895293,0.0,0.0,-5.726817078765254,0.0,0.0,-22.680394853741255,-9.25497766048919,8.799254701575277,10.821826685844178,3.3430286524848016,-14.655348168820712,-12.208416371913964,-3.330072040477121,5.9208014580811195e-05,-6.157424761044851,-0.3393476279726556,-1.3436766731653242e-05,27.857946132435313,18.277688837404444,12.49630727281594,1.281861367338665,6.31299867077178,-14.118108057203225,23.665984302734586,17.183054040941915,4.583922955129208,38.49634753973463,-4.4470026050463325,37.70549515854155,131.69788614125443,9.514683865327538e-05,-104.75750975092882,120.83469666500807,-0.00027485724344065066,105.80692897839693,-11.606029277603017,-12.312936908665852,-0.004430551650218429,-13.825365699078644,7.520382327069089,9.719581885948057e-05,-7.600841425064984,-7.1314918242106575,11.975011453968282,-29.165452800352565,-11.02994180950527,8.529853548417599,1.0201333179385705,6.849063194681688,9.693447588256145
0.30726794146327285,0.0,0.0,-4.68304220946025,0.0,0.0,-21.840478172839532,-9.284672063970437,8.309545426717955,10.768096954570922,4.053475972360422,-14.263590353785379,-12.849475374872734,-3.5659199391620438,-2.8718416789626262e-06,-6.173542440843343,-0.4198394267200658,-9.682371347793028e-07,27.606887381792806,18.30988011851603,12.62219944246854,0.7267041799147731,6.066107574283803,-14.460701325687271,23.71242680086102,17.273163451927058,5.22368262932466,38.14989654827531,-4.966030621232412,37.94644522685752,131.5626419474866,0.00020115907815550585,-104.37732643643741,121.03933055443866,-0.0008009869589290574,106.39863922642935,-10.555998450350772,-11.820544489254496,0.0006338448929057769,-14.778520140547828,7.08435249713108,-0.002301766230321758,-7.872217710476001,-7.073764710805149,12.025455053851253,-29.429866954602772,-10.994645649249009,8.59889271237065,0.7566245675569485,6.616647678941785,10.164016696275539
1.5893717521571378,0.0,0.0,-5.056607423164114,0.0,0.0,-21.469459420019565,-9.950126720842125,7.817485915242268,10.762897139049485,4.01243239878423,-14.413618151827299,-13.621728619086054,-3.4288405576473253,2.056504429765264e-06,-5.880579843818089,-0.3070074310973245,6.113651398702444e-05,27.772823864401193,18.30904884734425,13.189881003598321,0.3753927962031148,5.880241447569969,-14.418493862131992,23.578917832531324,17.160097932704737,5.456808586982519,37.4577418362821,-4.639803124137508,38.00081281817356,131.57908621464964,0.00037041580968914583,-106.66655940606198,121.1504759256593,-0.001096049610513092,108.79192188569469,-8.971892773355162,-12.81185177464787,0.0008107670963265165,-12.04168460015173,8.394662203037004,-0.00016402834782807736,-7.7347121440225415,-7.159190302447908,12.247567504704545,-29.285899021118297,-11.155078032557482,8.775792277705248,0.9648323670092985,6.3274592714749085,10.145724661990194
2.629816427177852,0.0,0.0,-5.18544457975763,0.0,0.0,-21.06654966259988,-9.868461965007574,7.352016957641196,11.029152527008451,3.5473860526435192,-14.593868110173064,-14.051452928561025,-3.584888930262339,-3.207714133828855e-05,-5.6361475180624065,-0.5447957665610413,4.336870472849007e-05,27.904072432103295,18.177151403479186,13.191132141620065,0.058820764303552,5.830014416992885,-14.588110338941163,23.041662799229773,16.98503580937302,5.8898321121760615,37.105261589436154,-4.642349503589962,37.51288627804725,131.43035313345953,-0.0004545661633107138,-106.6611706978515,121.07913681158445,0.000673029052495243,108.18205725171397,-9.753473502284587,-12.188570368164157,-0.0005393586571272715,-11.068740979665606,10.688430292963865,0.0017056157254390202,-7.911023303946997,-7.277854965344815,12.656084849766486,-29.447020766575783,-11.414273197624492,9.115759036024476,1.2970399703806965,6.21746560712771,10.190874791210337
1.5540373324543932,0.0,0.0,-6.611253105199793,0.0,0.0,-20.30918872990743,-9.165260906815613,7.341314636477229,11.567973579272147,3.806303259408236,-15.235876166441424,-14.48254521708697,-4.165787489323258,-1.3140685730514375e-05,-5.794402111033117,-0.34569941250707537,7.061727449922491e-05,28.11168500114213,18.266448884049545,12.794741352235773,0.37798525090151713,5.363670388288264,-13.864949140006152,22.87504396957862,16.773341031535658,5.852135095536851,37.00830285716459,-4.331195964541474,37.88134664530928,131.21673753718906,0.0003978105192225041,-108.47356754804727,120.95805877983223,-0.0002117128988911973,107.02639078483585,-10.386939157780226,-13.112900766010137,-0.0006672253324603132,-12.197246869783713,9.921441139551707,-0.0013192893867679828,-8.102260272776352,-7.196884719204622,13.099453577107584,-29.605169437573995,-11.500285595123529,9.563555594848811,1.787800464074378,6.025377001499678,10.542196054718064
0.6685472821760396,0.0,0.0,-7.345268683422631,0.0,0.0,-19.613985458177737,-9.645434244109197,7.663942345160202,11.912989721237402,3.6407556137960944,-15.220632412421965,-15.148327911206872,-4.3824102739855855,-1.7126329946089762e-05,-5.724082344928467,-0.5208712022600491,2.348058778886227e-05,28.212014902123258,18.435077768333947,12.200445168337037,0.20054745651259873,5.370988518387131,-13.950974029114118,22.655212064715077,17.05467902140494,6.310922457569416,36.84800609192646,-4.235368079756349,37.589383614303095,130.95855998541822,-0.0005421780953071189,-110.42599076529346,120.91536910843902,-0.0003162200231835023,106.42120256382587,-10.534206351789845,-12.250415361263597,0.00023422344438817687,-10.997202063716877,9.09399659720458,0.0015770175035559875,-7.869418741728014,-7.629557854087176,13.091437774279541,-29.40568743747799,-11.89987506135978,9.393926508227832,1.9120300618133221,5.988517033291948,10.960237143429156
0.7872436888542115,0.0,0.0,-7.1744494770048,0.0,0.0,-19.2708533761622,-9.23694695578414,7.516212508925218,12.04370941264924,4.292726022184799,-14.951302807981843,-15.528320263111587,-4.440862494528337,-1.5186235308059784e-05,-5.798228531833698,-0.6893367149365686,-4.066256420560627e-05,27.99826539899636,18.291263853514444,12.408438609743353,-0.06586266491687014,5.097257755078013,-14.418103336249665,22.484320665243057,17.370137043251084,6.960669601261612,36.78646270561563,-4.101539889894292,37.49384283171046,131.08360709275843,0.0003802776033149372,-106.05123702749212,121.27542419500695,0.00028405913665962673,107.33925005934384,-9.743890293941744,-11.959597431364081,-0.0006315955460817037,-11.363148748816368,9.244900003817373,-0.0011944895520094303,-7.181720172341313,-7.247571727424314,13.296309974075964,-28.67600503311855,-11.61901003173137,9.730067093962619,1.9550306934309964,5.648094678728017,10.98605517573642
0.6847461164473664,0.0,0.0,-6.513872897049701,0.0,0.0,-18.513443824713125,-9.121008192074123,7.8690764814277605,11.905778337745339,4.99997314348549,-15.634574562782197,-15.954944118849612,-5.032203718359857,-7.242313133899833e-05,-5.7638648333703335,-0.7502072445121307,6.006580851676537e-05,28.05393731766218,18.815354862472425,12.337642922488264,-0.029835272616850067,5.14608670807835,-13.646258381442921,22.741250612459336,17.67825284033005,7.04702524604912,36.91919995701743,-4.077013377096198,37.98546164109687,130.8416324229746,0.0009189596935217461,-108.03044811315083,121.75129171233705,0.0004086617607925083,106.2376595493099,-10.859395693682503,-11.67953559253146,-8.802618112689582e-05,-11.266749889720934,9.18004464565874,0.0018084822207593448,-7.876489311049555,-7.310659550788712,13.548163834778036,-29.359354191231173,-11.769236061184893,9.9438457252564,2.3502453274380946,5.647813619385818,11.029318836562217
-0.9906498034934723,0.0,0.0,-6.946124722545472,0.0,0.0,-18.153026936691777,-7.887984221357234,7.703405087835437,12.01377738886595,4.609177449229663,-15.074031542959977,-16.176146790815928,-5.326513517617073,-0.0001739341538691778,-5.653081664541953,-0.7653106794479803,-7.871148320166097e-05,28.363906321439366,19.261357342266034,12.573689472512942,0.18079588221608905,5.362945168706797,-13.995966139384901,22.80602721689408,17.791817378802307,7.401588749070435,37.21213024802459,-4.149819427810132,37.881620765995045,130.6899891056151,-0.00020823780141642547,-108.81153254330277,121.47576196213649,7.047445957396122e-05,108.1012798064499,-10.701732569600798,-11.102747331770445,-0.0007778791459204217,-10.487842503373573,8.597381520290014,0.0007743467463811305,-6.974109747661296,-7.252475658978744,13.704969761924131,-28.44225008788573,-11.772032931849877,10.113460080635233,2.7262495399937836,5.8831039343745894,11.273147751565299
-1.3758880826818645,0.0,0.0,-4.84323057769908,0.0,0.0,-18.310454321303585,-7.3527032607696015,6.697208569360646,11.417884515480255,4.492665118092939,-14.726901928525065,-16.265906263995763,-5.064214011204541,-7.351160693074944e-05,-5.651619174909163,-0.5271657800667439,-4.7087268994877254e-05,27.980742363605764,19.260187955224502,13.614396472333016,-0.33066368462554024,5.3062477764270914,-14.353933833195542,23.26320390601784,17.18919833432001,7.535202486363814,37.41139543959201,-4.54420488452731,37.98784168012446,130.93488441125976,0.00042322461141902244,-108.64604227174048,121.38530055534551,-0.00016995625302118836,109.29586003774044,-9.392113762097162,-11.7177118424,0.00042918753540264473,-11.794742995425027,9.35352411361376,0.0037811809698902114,-7.250655200244842,-7.144644070583658,13.940636897117326,-28.694787212732408,-11.757200031529656,10.376018723586617,2.323746677354758,6.176113802848844,11.310664895236199
-2.3508653590615207,0.0,0.0,-6.560961973852926,0.0,0.0,-17.742447957693823,-7.599417743527929,8.545095669956101,11.840678132329252,4.478914480785968,-14.968393448907332,-16.482511317481364,-5.599579313578839,2.1944255522020787e-05,-5.729205595980266,-0.6251008782606281,8.652948327031851e-06,28.289905829240634,19.522374342326202,12.809554746484165,-0.08719192427823608,5.536443228830143,-13.932974949739211,22.949286410522014,17.104358118394497,7.635343393480406,37.36817908256596,-4.830225465059878,37.97946270796656,131.00442103994908,-0.0005695903829025638,-108.21693312017132,121.62549993978816,-0.0004679292707244671,109.72875499810435,-9.24740153923061,-11.809747875752713,-0.0002524577088157937,-11.722065957017017,9.095318723148026,-0.0005089841464500124,-6.899296210928622,-7.354217327226952,14.42734731291807,-28.325995486052673,-12.128727125678918,10.75710954345469,2.5583486144254097,6.380345385849259,11.21970824443261
-2.2759783188366596,0.0,0.0,-5.502090744302981,0.0,0.0,-17.634888576886013,-6.537292485398887,8.193699022129108,11.712060701035204,4.407336567793478,-14.458041984335738,-16.644351672092366,-5.455773299710686,-0.00022567774157061893,-5.743880350727775,-0.5788518450604316,-1.179030925948871e-05,28.28194614498406,19.37825166791162,13.504807018884422,-0.16962936841845674,5.403071551104045,-14.249313954214884,22.910188114355435,17.282863895994,7.86164617048846,37.62900959204321,-4.712649557621123,37.78609453516437,131.06642855340436,0.00018554560971022248,-109.50488064498542,121.77581785100591,-0.0007301540191737422,108.06193250207062,-8.952258199913679,-11.746262533123494,6.568157479819641e-05,-11.993799334344182,9.222057358535075,0.0017876142591715545,-7.452049450356948,-7.4950772572273925,13.988057216354795,-28.92005795707051,-12.100546991207763,10.289756011148027,2.425831584098353,6.384995721345109,10.993471918586325
-3.1607395030449603,0.0,0.0,-6.882599953041049,0.0,0.0,-17.463880014000832,-5.878214257952028,8.641261438900317,12.105548390123586,4.9736983317568635,-14.54959742758099,-16.670976235395557,-5.772801334761003,-3.397929994830667e-05,-5.7121563181170165,-0.6120363323637299,6.113029308120521e-05,28.327623661329476,19.414196667138043,13.05123603819028,-0.3016873836484236,5.4670498648888,-14.357673993247436,23.06631286344291,17.12466896340936,7.760226812498226,37.52204417110074,-4.785718620270534,37.94216285806135,130.86527413151776,0.0003236215393500164,-108.30667531605624,121.62066793646231,-4.55454354055375e-05,107.87082871582065,-8.731002866183802,-11.209052891588772,0.0008806109046339765,-13.565832770279517,7.762712019224376,-0.0025463879063077825,-7.427673529434219,-7.038278040607115,13.598945550435072,-28.886647130215586,-11.534191204288096,10.093519246677001,2.354818279073935,6.410902740739976,10.953349300859466
-4.6363830318290296,0.0,0.0,-8.287138525521422,0.0,0.0,-16.75118000858324,-7.370328091672784,9.314055763712902,12.682418380823542,4.150778236334567,-14.96748195099675,-16.767582791552176,-5.824597356765348,-8.703043451389193e-05,-6.126304806434303,-0.42247530491074414,-5.067160542781025e-05,28.63663422822511,19.74275163068835,12.634675679129447,0.21799513072811938,5.604944170555089,-14.100343976139765,22.997987838858176,17.54499912274145,7.658459103538708,37.573880517102985,-4.779808111190447,38.11410115603242,130.8292735813132,-0.00029251892301235884,-109.01567806704065,121.70298454758776,0.00036029781585204774,110.5974580599993,-9.387859893133118,-11.246646564899626,0.002209334035289071,-13.049504223385116,9.968340606908379,0.0007942681315004634,-7.54398045839428,-7.065870745499419,14.304687801428319,-28.956972135780067,-11.81585406246312,10.748948137505826,2.6374534235868183,6.586925171536733,10.784559293610771
-3.230839300225751,0.0,0.0,-8.132320027485761,0.0,0.0,-17.203493379568734,-6.966495434513396,8.470667915450854,12.48575728921843,3.352657906565931,-14.726065175261576,-16.74343727597269,-5.818332498818773,6.664800844003254e-06,-6.088406735801954,-0.255938086126045,9.085541709192938e-06,28.695230638744793,19.90776487912758,13.245538863861219,0.3653417138955114,5.58633494899561,-14.105985717796033,22.826806804636703,17.441968921264618,7.313433946881664,37.5152026769854,-4.834632865114173,38.00923028591545,130.862027176804,-0.00029715103280251824,-109.68954243125752,121.79490331736888,-0.0014030027509753357,109.76544809488519,-9.481421473496024,-11.490264937301868,-9.325642489766697e-05,-13.150959942408655,10.155980511083625,-0.0002744471860727327,-7.789820255376873,-7.2206010983181805,13.883861461512884,-29.24358849948652,-11.80729166832259,10.29409608973416,3.0087305086665834,6.67066183914258,10.855117059580353
-4.648551736749351,0.0,0.0,-8.676254574843721,0.0,0.0,-16.572145996060136,-7.484518667728293,9.171340757940769,12.27771318353305,3.9352815545465196,-14.530008282182576,-16.91036477026747,-6.085014891495025,-6.246792197336805e-05,-6.109250781515188,-0.4131306365268283,-1.9211318286882886e-05,28.65658075671498,20.46869303101216,12.712124112908178,0.3575236592008291,5.97050405375775,-13.771166588722105,22.952643284329724,17.544683511496714,7.390017900348608,37.482285812982255,-5.1995952683550435,38.17862658163227,130.8367541440807,0.0007086933246223577,-110.49272388027748,121.92120103781866,0.000889727702252938,110.74943230532702,-9.550351505969601,-11.573049360591599,-0.0004039592729081725,-13.140485143710352,10.910924434236193,0.0003538484701260249,-7.397441416254427,-6.8695230420300515,13.640749468772729,-28.84114639818813,-11.392311774966744,10.195898389939444,2.695818736147711,6.894586417597125,11.113583487199051
-3.3977985064521894,0.0,0.0,-7.219663553118534,0.0,0.0,-17.27329886988228,-7.738714585741843,8.621581459472013,12.275784520709536,4.032729564754394,-14.480170179930443,-16.78735326746733,-5.7078876283453175,-3.3423349333595554e-05,-5.820802033937902,-0.4591988720099547,6.069435302515309e-06,28.429951096880355,20.047696715463246,13.663950448907642,0.11681425204274776,5.595749805226576,-13.82001407812752,22.854005461523645,17.600699990623227,7.627587298360682,37.153597038040054,-5.366426295788117,38.29550079258927,130.6342142151885,-0.0005925615330379478,-108.50594739129274,121.93584191705285,-4.635472718206985e-05,111.90101512731914,-8.810187257907234,-11.352388208705754,0.0006523099486589603,-13.108311923726756,10.592281087462068,0.0007833219052735946,-7.488593063057909,-6.953821144047049,13.352307483536071,-28.957421319988097,-11.366021729042956,9.892605440014558,2.7852619935133074,6.6240690888107565,10.606301897931768
-4.715874467412564,0.0,0.0,-8.973182078815805,0.0,0.0,-16.796753278821296,-7.6690922066588465,9.104717348156957,12.453667283919465,4.154879692863589,-14.578923491483899,-16.814580236135303,-6.163315602072361,3.963816572999409e-05,-6.00636552654617,-0.5233273407691216,-8.841777407528092e-05,28.411779490070767,20.553733263847306,13.174509128729467,0.19012268587892764,5.942450670591174,-13.748809082407957,22.81925966717164,17.689273459833316,7.4547005234939485,37.24671089037686,-5.674015339828418,37.90577036622458,130.4319389439475,-0.00014801926047871956,-110.98597776626701,121.94125766066811,0.002153683180723067,106.89318336721534,-9.116775337777774,-11.29899184542705,-0.0011837780008458938,-12.453158239097492,9.730624181336475,0.0011588096577724862,-7.619979730089248,-6.865964851897157,13.353702433063065,-29.082275741270454,-11.28476444379681,9.926699100141409,2.7368724128687676,6.839422735153512,10.648135165271983
-3.7605073627355035,0.0,0.0,-8.350224787857995,0.0,0.0,-17.084837911593837,-8.225552527190933,9.05210889752864,12.783893099906606,4.583798502136251,-14.453881483106942,-16.677157313890895,-5.933254182110678,-9.199251460802843e-05,-6.1187180588318,-0.4450428901342116,-7.209398777512223e-06,28.295450419186842,20.125048425645616,13.324667413089923,0.1808720687774941,5.510668449432233,-13.915775254662504,22.290839342918098,18.011049006326715,7.839938364859288,37.15089922402459,-5.419744126359713,37.75346159197827,130.16027061415014,-0.0030119680793876543,-107.34265194904452,121.65690594575962,0.00037309572601696,107.3964995841374,-10.95724244909605,-10.296623139860383,0.0018153787944511723,-10.912591585328844,9.211585902323142,0.004641193126914003,-7.843617462704599,-7.278638036449105,13.686693289226495,-29.314970319535764,-11.789745322462057,10.086447144225458,3.05850282348885,6.578688140719554,10.398420373749714
-3.8891210516330403,0.0,0.0,-7.525215551834823,0.0,0.0,-17.428730688864544,-7.586302153639484,8.36414775209332,12.225845960691688,4.279544776162135,-14.09349863265256,-16.641637860977575,-5.867277732326678,-0.00010836081553887807,-6.119881045838846,-0.4351286912933056,-1.5521553177312716e-05,28.110424683353568,20.311179524804615,13.81153480961701,0.14724052583988026,5.621881905435991,-13.930045843297666,22.141155399224477,17.91924011078976,7.83949485935753,37.1716852278474,-5.816882815686791,38.17536896526692,130.65286331736706,0.0012467973136976558,-110.36637899728395,121.52093321788182,-0.000742457748145423,108.09938564506093,-9.649772879594751,-11.214306718108197,-0.0013130608506237466,-11.844621471330543,8.62193906914301,0.00022840729701845792,-8.165835581394905,-6.878912573837755,12.947637922505344,-29.654880735412803,-11.149214474824705,9.539405915835477,3.1781691399172174,6.813162306189056,10.009124651623022
-4.006334218091744,0.0,0.0,-7.5759744321324085,0.0,0.0,-17.277736310580764,-7.995043920539298,8.167026969448928,12.611589477975572,4.13663024617197,-14.432070542347356,-16.849739138135774,-5.825938217145754,1.7398972539175113e-05,-6.220588555073109,-0.41808552363726154,-7.92295979290409e-06,28.149301793294196,20.547011739018583,14.278374655746564,0.27564184244149814,5.714072582487267,-13.326854335751406,22.476256183300674,18.06902465542766,7.28665617372062,37.57367196719299,-5.323450565574065,38.018667146495545,130.36042111126216,0.00021465792265946634,-109.37887042819905,121.53796836184212,4.059857419184329e-05,106.77947971031955,-9.835675164738674,-12.430275848989318,-0.002415198023404858,-11.520842981918577,9.167750549119289,-0.0032702568754467577,-9.048920070734786,-7.013770187242913,12.643353394113715,-30.566339834532215,-11.163967511870885,9.202584576224965,3.418414685634161,6.793552383055706,10.070249815324786
-4.872986912915512,0.0,0.0,-6.527980102344531,0.0,0.0,-17.56839692017651,-7.179860991836848,8.141145009821953,12.223288517844967,4.246466785474922,-13.871162599200598,-16.48452607156491,-5.949677580986798,-7.418054522071688e-05,-6.216423107174929,-0.35463252868977946,1.1360353908630866e-05,27.442075689171972,20.578736085637242,14.574282863766438,-0.10875652037152993,5.545391926761658,-13.610613172499681,22.89197108562383,18.20282126958956,7.436868050035144,37.963298552109336,-5.197851271385835,38.57820137453794,130.4566018132006,-0.00313565403133277,-105.06799181606482,121.19776881062708,-0.00030387616196518005,107.516918274518,-10.500268796133847,-11.155607998180551,-0.0021823010483358507,-12.450414348658585,9.267408242330418,-0.001099273951579533,-8.973784104151825,-7.239408663802829,13.493852887630696,-30.454757856375757,-11.683202813510858,9.919296850921114,3.223125762268182,6.803635866000557,9.825902408646455
-4.8159838273805295,0.0,0.0,-7.917754707881081,0.0,0.0,-17.601545041058806,-7.271220452511805,8.482512624741533,12.628617600164489,4.045616230381019,-14.093771043624821,-16.52121853708723,-6.018360797586461,6.786181853827716e-05,-6.526581821033665,-0.4047251741307619,5.210810784908723e-07,27.89217878110006,20.764450331137148,14.23499135545126,0.43817732244961366,5.717917669799876,-13.295083853039687,22.563378412420416,18.42980716889428,7.55350814558696,38.402974309051444,-5.3014398522228445,38.725877076893255,131.11557598093862,-0.00047192132952250996,-108.35722134113392,121.54762408324065,0.00021477196593072367,110.95392089242048,-10.688632386014007,-12.984843119087548,-0.0015896067151624294,-13.560427461376491,9.090652041837977,3.643005238060273e-05,-8.772806872811634,-7.322703321891439,13.073356294972715,-30.28676903697186,-11.60785346024082,9.491886876855192,3.682946499163302,6.832334554424494,9.633898645288033
-4.815974053117951,0.0,0.0,-7.803260068418149,0.0,0.0,-17.73069398752587,-8.999628587591896,7.948150221093586,12.436575396482397,4.587718502681511,-13.854257761454779,-16.44737009793346,-5.590028126419692,-7.069216480909761e-05,-6.257117091130783,-0.5788931063913487,3.497280414766895e-05,27.389513541223124,20.81555840939459,14.52641759462698,-0.19855057902665113,5.920696466906079,-13.330787286161842,23.081935794421984,18.536623134041502,7.243259844375431,38.424294925190054,-5.768905390720437,38.49785250823052,130.7527547866347,-0.00020525644803501983,-108.62349430235922,122.10512932573104,-0.0015052062962834982,111.90605663882259,-10.920833328647115,-13.356320491298758,0.00012426826938858433,-12.035005889533593,9.052070220606547,0.0034989005844809945,-8.928382943162239,-7.1510740786168565,12.205808865573095,-30.481381911815145,-11.132308985154115,8.73955086325009,3.3933680665225077,7.000104153060277,9.655858526341769
-5.473919328384182,0.0,0.0,-7.691077547277791,0.0,0.0,-18.11926319636215,-7.983889166003216,7.906567299271127,12.56972402693331,3.783063738546268,-13.720518278142345,-16.425521418383386,-5.557311731057565,5.0587304124545977e-05,-6.259988692537365,-0.38317695183710476,2.948683581952265e-05,27.827509697461405,20.82189597836149,14.647217865197558,0.2945591463380051,5.859264498121208,-13.327632196985721,22.975287688747702,18.737541504240898,6.865726427327532,38.502315338442955,-5.6779368400657555,38.23973003641675,130.79775674504987,-0.0016132309459817857,-108.5695289230481,122.30133666973695,0.00040738631234016613,111.20628976358182,-12.28469449181393,-13.1014967445895,-0.0026879634129385976,-11.893926263815962,9.416905883020318,-0.0001727699580981489,-8.10723925725244,-7.640287661704262,12.699229441512026,-29.6679851458144,-11.767086315031527,9.0204836851813,3.8897909511088438,6.996281408794868,9.579552244208354
-5.582146547862451,0.0,0.0,-7.409600997121802,0.0,0.0,-18.001609316168807,-8.833779380542945,8.415614540165434,12.310394436041223,4.1263862596463765,-13.346571305085723,-16.30793772426802,-5.455824054073065,3.5067493023639446e-05,-6.2644259567853435,-0.6344960950754882,-4.869851584251704e-05,27.37627124361654,20.891418495340186,14.680262272975927,0.035532449952854116,5.942358755515157,-13.35385559852885,23.129430176799012,19.135341233716645,7.947668216054724,38.908848488388486,-5.152348295431236,38.887265725902914,130.72276718805188,0.00028788338974909287,-106.47054280165064,121.89692158589752,-0.002629639167845739,112.22586529826069,-9.843793627154799,-11.891844938997691,0.0005884326092545074,-11.501373907089683,9.421044619674129,-0.0006377169040992507,-7.731195834079297,-8.234743430249972,13.314107816442963,-29.30192916928351,-12.54376571292597,9.376316188873066,3.534212789677177,7.069402361830241,9.210733778523815
-5.304936764294373,0.0,0.0,-6.723783353615336,0.0,0.0,-18.33520136315923,-8.210015598864732,8.790749397123442,12.310647826194849,4.119729652256358,-13.401164051371707,-16.365792756598772,-5.003903865464215,0.00012326276866408528,-6.469695855160129,-0.43354424396479885,7.373782821341056e-05,27.617858876852132,20.6953106173101,13.958224574761747,0.1879478052032175,5.913604110254226,-12.828507470085768,23.14271923715197,19.357639811966003,7.358134545416693,39.30901460436283,-5.331803814488694,38.858349433247334,130.58432711394616,-0.00010259351438726881,-105.93218431925456,121.98735252192132,0.001088734921685719,114.88349594142518,-13.042433503322375,-12.350529318503606,-0.002473871921878536,-12.607042307816487,11.231665178438094,5.238327529369134e-05,-7.608152551992308,-8.344199410231992,12.649747022782034,-29.227226845053643,-12.403578960687454,8.709007786298292,3.5009729908326137,7.165043019140116,9.54974355049478
-5.629215759185322,0.0,0.0,-7.383417931451065,0.0,0.0,-18.314190770429565,-8.434281555196577,9.381117414971538,12.458264715661484,4.628982365729897,-12.654819680419283,-16.41494835095488,-4.237780072135411,8.039295788055309e-05,-6.629497227032965,-0.26646115199294107,8.789594584562337e-05,27.80652674582457,20.139362298985546,12.460125839414804,0.2046659113782292,5.684886594589956,-13.635642678546347,23.863430146915213,19.28506440341093,7.128932755652887,39.48271071056799,-5.841228561138498,38.834680104844566,130.05797241573137,-0.0002388725163157077,-105.42202353620931,121.46754709128977,0.00042590903985018015,111.09226134946337,-13.223333111935439,-12.353224530778371,-0.0009206385223782327,-13.78679302193474,9.241518374688791,-0.00021569554701292396,-7.586529593984269,-8.374119252603286,12.7964683733036,-29.199592925405366,-12.484865894524386,8.83592812049552,3.2738482461360014,7.142932837251886,9.730056842438074
-4.895140426153088,0.0,0.0,-5.370742426698171,0.0,0.0,-19.085522533641438,-8.260164549565314,8.53737766359215,11.87906005895111,3.4455663048631715,-12.129996962541078,-16.619898198021943,-3.073600093737442,-0.0001428395707160874,-6.911030802619141,-0.34276738328812373,-5.218567057053429e-05,27.847687645991165,19.726224988329058,12.737606134984327,0.31604317810677457,5.5598877261381725,-13.663762120360802,23.260363592237155,19.246515591913802,7.651316006441684,39.15284359182318,-5.920636281617769,38.92184461612471,130.6067358766874,8.43578314300436e-05,-105.0608794919071,121.49858053156625,2.8275258858808323e-05,113.13096845077354,-12.259014247537968,-12.547978473939851,-8.276556796646477e-06,-13.49544482204803,9.945664439547583,0.0027047726343455273,-7.735778402955406,-8.54465608581743,12.9682934408087,-29.3528533676053,-12.706029526300473,8.93344853011509,3.267711360157306,7.003425011656312,9.978132247408027
-4.270618490185555,0.0,0.0,-7.383428277558116,0.0,0.0,-19.77520505762148,-9.02872383392276,8.301580908094863,12.081274068511025,4.133906992700993,-11.752060564882921,-16.64938449736796,-2.9511587662764227,-7.411036685908896e-05,-7.092443106942236,-0.34549061873004405,3.375528265023059e-05,28.116579452531134,19.93834199869973,9.504019274538447,0.5718688046252483,5.5284449216979255,-13.37848871133965,23.06525999324964,18.6467477563272,7.977067274795778,39.26830804769698,-6.1193653176355225,39.400104941940846,130.42546599147082,0.000831059391412849,-103.3375218682731,121.3879359036512,-0.00038355407428882496,113.59398066555447,-12.797047995529981,-12.487446069062335,-0.0007254402121272378,-15.013231158972982,9.6574289010348,0.003942714073211065,-7.795646206132369,-8.660277712038386,12.802461032742327,-29.431966331385695,-12.753076375510306,8.733494252901092,3.480675559019099,7.461270604608283,10.311924660567316
-0.7748968138787481,0.0,0.0,-7.09668388201714,0.0,0.0,-22.067889762129173,-9.551202788660053,4.732025728578429,12.311466931426324,4.85929959254533,-12.127662770975148,-16.910507614553566,-2.41511385278939,0.00037105786065902234,-7.37942487327926,-0.5419058612172023,-6.430303675838949e-05,28.35584998226914,20.346199546774084,7.358481996066115,0.6410180498128621,5.588293132611559,-13.236836666912088,22.871686380093216,19.46558615884103,8.115310613303953,39.16130923296779,-5.3592463461508535,39.77672958221782,130.41759996012559,0.001566925416368875,-108.42693147945577,120.84048602344949,-0.0013861142337961766,115.76019969360135,-11.999736464683489,-13.495358275400308,-0.003108227830597961,-14.809819356164653,9.587067919218494,0.0034905607402563586,-7.750096585878998,-8.535293010238272,13.713645707369116,-29.320889391248095,-12.968591210431965,9.639913638862861,3.498394934897812,7.3014160729890945,10.302181298061205
-0.7426917115979967,0.0,0.0,-5.456954345834288,0.0,0.0,-24.87854783697106,-8.810987673044027,-0.8329493994121259,11.741368759096025,4.978150399044814,-10.97196363780253,-16.612223693520775,-1.4977713700435673,-0.00036502222592396124,-7.308266015303074,-0.5319238172470343,-3.8057713661129065e-05,28.456631779816757,20.663184606462824,6.840051974794994,0.6387525577484138,5.28697884924592,-13.532769000097183,23.022092198087083,19.199426157732383,8.201174772466684,39.00569602247405,-5.605862734325461,39.63254696903892,130.83806810916053,-8.93381820894848e-05,-103.30434617743153,121.47915839238048,0.0013451796057326658,114.36821394526584,-12.708003790308064,-13.195112445197218,0.004456204659232175,-12.914801908127654,10.142343137493093,-8.859369433820334e-05,-7.288141406475237,-9.064411793216541,14.05919329365451,-28.88279105255907,-13.586222666855667,9.766188307139124,3.089491426191087,7.11702127892479,10.819073850312794
-0.7070046506492741,0.0,0.0,-6.208932864840573,0.0,0.0,-26.97369137728464,-7.570959184747934,-3.9143186937025582,11.920787998638707,4.060176623977084,-11.458024532380406,-16.486127602584574,-1.316685540751896,-9.89514540118228e-06,-7.313604365754185,-0.411505866482786,4.072086764598303e-05,28.951346937586845,20.90646072926034,5.3912081998176875,0.6948026395613518,5.166310332424588,-13.220643856389364,23.1755981256043,18.939232366293066,7.43766264632994,38.99350606552687,-5.422180321547535,39.99365545117916,130.8593641632035,0.0008946293457841075,-107.64488435446381,121.33643900231498,0.0008599958715182625,115.99688594157314,-14.790617011400705,-13.077293313351024,-0.0022097679859355572,-14.54195966879516,11.299398002861514,0.0013188409776195068,-7.570151652261258,-8.764555934530714,14.34578666609807,-29.11952630810888,-13.411472104205842,10.150353311990253,2.934299441835902,6.965853380810805,11.271497675881367
0.13886759424989284,0.0,0.0,-4.850389156682846,0.0,0.0,-27.680001021737056,-6.779596790815227,-4.0697136443819275,11.411923780263377,3.771903072694444,-10.65296689595439,-16.689151884749123,-1.1009285019427721,6.865781969151191e-05,-7.087093782677356,-0.593296918357907,1.9430364751577953e-05,28.881681631956102,20.666539586560685,5.796150226662449,0.2915404825193353,4.9961109688441026,-14.086609182271399,23.32173197426334,18.98315058321697,7.839814415289118,38.92057823355108,-5.588766628639263,40.04928789589912,130.5415821280037,0.0022781093098649175,-105.61929002940128,121.42171564509648,-0.0005448411367340511,118.15384732389334,-12.33692548996408,-11.452092937769049,-0.001696157573585766,-13.799836343950195,10.37817763676711,-0.001149530444012826,-7.351357673336625,-9.15647141639931,13.954654277929187,-28.960892954513334,-13.633802614017261,9.63257285342072,2.6033667850261835,6.591942274110718,11.33918920262883
-1.3113674100692552,0.0,0.0,-6.5297145543869135,0.0,0.0,-27.068314247251127,-8.453865992750682,0.5768329817117055,11.553180443746744,3.724354388811423,-12.452096753849267,-17.469042439103248,-1.5091109740135784,0.00026139540854699207,-6.764107827715826,-0.5866617368553436,3.811202454734494e-05,29.389139121738086,19.702617862392383,6.461154080858797,0.07613714139182012,4.983154269043506,-13.03700408357771,23.40655599713516,18.912436445246694,7.486026891017638,39.198679926625864,-5.899828870595721,40.01232382036393,130.29436001627585,0.0007364135670923017,-103.11220673448673,121.3323532184772,0.00017527456974755865,115.38199337693597,-14.689149081997163,-10.553468528604867,0.0015444911541534696,-14.63879109381147,10.514360398569783,-0.0006072813950485378,-8.032889111400813,-8.931716798290173,13.713194747101525,-29.6377796236197,-13.337046168474776,9.489708267459363,2.336148033737236,6.433712162706895,11.059471131103585
-2.2376402054985105,0.0,0.0,-5.7829271497559445,0.0,0.0,-26.347443172444567,-6.949527957182388,5.671023291021434,11.26325540864508,3.985626290353869,-12.985436359259984,-17.929088951356544,-2.630212751163104,0.0001990913281389797,-6.943443349643329,-0.6846779442762255,-4.997430055494264e-05,30.074970153288444,18.760221487140406,9.575610812437562,0.5194841080460477,4.773930226787595,-13.318923809864993,23.429381186454506,18.49138368618707,7.073748691226425,39.454347200337274,-5.768201559278246,39.87220530703829,130.8136470189782,0.00312630937483021,-107.69026041856,121.29503770633552,0.0008412145370776145,112.83034269888448,-14.378397898771079,-12.605961326833032,0.0016162871805428679,-15.342324943663964,10.107612606689964,0.0015045009869106242,-7.613598177426409,-8.977951204585752,14.305004139107192,-29.18452335466935,-13.595130275296679,10.031159976233116,2.418210717020813,6.340064514513135,10.905316696897325
-4.4453821779748175,0.0,0.0,-7.690593310479664,0.0,0.0,-25.55053932633157,-9.694967169153156,10.978108133163389,11.543372088236408,3.4630999005692895,-14.212951185354308,-17.84251981104013,-3.8372768399947197,-3.64228570681547e-05,-6.775314392588651,-0.6577583823318348,-0.00012477475276616705,30.5408446913911,18.150898925594888,11.585938972914295,0.47398436529648263,5.035361105427442,-13.135152116737737,23.98192702556422,18.250047087397125,6.118330847782302,39.21386711148011,-6.106662141994743,39.23774147610324,130.6746224719462,0.0002359363808868759,-108.55729077741495,121.18499137528275,0.0004994299823357265,110.59695412739704,-13.415639960292241,-12.420471828870953,-0.0005550751815157106,-13.935355568285486,9.192763021336864,-0.0005792418923043955,-8.016831832139946,-8.861241537160206,12.89680047287245,-29.664656045128154,-12.974252676465737,8.746363997518172,2.4177786267426034,6.519209196959468,10.491867936167193
-2.5214701641442194,0.0,0.0,-5.305383619478343,0.0,0.0,-26.45623529172854,-9.329082042168945,10.117615043710098,10.919174242792195,3.370195392780133,-14.045403989221796,-17.419798849356646,-3.6341255784555466,5.996528057969264e-05,-6.681753185168262,-0.7320894201417892,-0.0001365082778641085,30.169873068541488,18.087511025216347,13.354349560388776,0.13551639438650576,5.29083379077629,-13.869963141023709,24.70185251274787,18.273736977593657,5.648610304382269,39.933249173706656,-5.786535896963124,38.78920659133757,130.70496471685885,0.0017979320150896328,-110.52872493954328,121.39394546151995,0.0003191442357032677,109.87258111851149,-13.407618497925082,-13.063142767736748,-0.010770258583034396,-13.558861074923255,9.99431266797791,-0.0011205044838521147,-7.777803365980603,-9.454507570093643,12.529926290915032,-29.497407377579403,-13.39171880067299,8.175562360370106,1.8467236164279441,6.719361056927885,10.270502389846474
-3.3794163150214613,0.0,0.0,-7.385110839482042,0.0,0.0,-26.445837842096655,-8.062234587371472,7.852760063569088,11.742727547685115,3.5757018776052876,-14.04903093737617,-16.68359847361002,-3.4508396476396923,-9.440448889604734e-05,-6.785719231330262,-0.5744200141261522,6.602169603780818e-05,30.12364264666992,18.085822965783525,10.802745272615333,0.3844411226812416,5.290502807525301,-13.99716444048383,24.90933849934328,18.18773912496836,5.326984858322893,39.785349281278954,-6.23517754669896,39.06959359041553,130.94463463216437,-7.80662769051864e-06,-109.65211659137857,121.49395509711249,-0.0020379439194934423,115.37033404299203,-12.263613379863365,-14.077935459860935,-0.0009193910146084296,-13.227759573873492,10.486912910321688,0.0014383193733096657,-7.729022102697047,-8.841581887999505,12.345685261940059,-29.405967132462624,-12.754969837731734,8.23469286071588,2.126742036695197,6.878804792981951,9.979570087479175
-2.796273129300141,0.0,0.0,-6.629988795572087,0.0,0.0,-27.251345514189634,-7.619578446224356,5.294936375235038,11.814760903230761,3.7454842941340956,-14.201082506021123,-15.920766237875375,-3.3485844466924752,-0.00019325536189568058,-7.144901018958094,-0.5925062585100694,-9.411910811190031e-06,29.47954028841918,18.849244335142824,10.116149936366352,0.3863940179241779,5.569869872730357,-13.659545108596351,25.084815806822807,18.331769335209053,4.72175745332427,40.424011162817585,-5.849361550172478,39.08060654819604,130.91664402348468,0.00019896543888782862,-107.71872621945063,121.2532158965019,-0.00045473578855812684,114.64302620778976,-13.22431951046355,-14.073789011661535,0.0023166005098537346,-15.164586719417875,11.203329528059278,0.002259336073317938,-8.33655620065781,-8.744043510017363,12.246093413865076,-30.010768025408577,-12.627980049574312,8.177864453157447,1.8502777787518745,7.176675726733404,10.198261571433662
-4.335376880328078,0.0,0.0,-7.369802451018787,0.0,0.0,-26.90144393654053,-7.794772451487767,5.268589120171012,11.757712422785882,3.5634357607828853,-14.313565437610057,-15.331057765101475,-4.002483794244213,0.00019252238718387094,-7.157873582232933,-0.5813660674315801,-5.833547624808766e-06,29.128754094383407,19.48054890830196,9.732666313114096,0.5560552040737945,5.850550744620971,-13.399779644127888,25.001940659796773,18.500863861592755,4.8660198666207215,40.16396940301108,-5.412889285268121,39.06072634408624,131.0389379168138,-0.0001400616708996457,-108.96432389664429,120.94583135054071,-0.0018351988305231018,116.75670053413187,-13.33341793126932,-15.119744021865595,0.0009792840205550498,-14.777205174929586,11.660020687415841,0.0012500652646729197,-8.46310366149072,-8.876389676563837,12.084241007277981,-30.15688852584726,-12.691857079175607,7.975414980698868,1.6999946134359927,7.398550382872561,10.362372746150552
