PaulMeinheit/Bachelor_Muay_Thai/processed_Data/E1/roundhouse/scaled/JointAngles/scaled2.csv
L_MTP_ANGLE,L_MTP_ANGLE,L_MTP_ANGLE,R_MTP_ANGLE,R_MTP_ANGLE,R_MTP_ANGLE,L_ANKLE_ANGLE,L_ANKLE_ANGLE,L_ANKLE_ANGLE,R_ANKLE_ANGLE,R_ANKLE_ANGLE,R_ANKLE_ANGLE,L_KNEE_ANGLE,L_KNEE_ANGLE,L_KNEE_ANGLE,R_KNEE_ANGLE,R_KNEE_ANGLE,R_KNEE_ANGLE,L_HIP_ANGLE,L_HIP_ANGLE,L_HIP_ANGLE,R_HIP_ANGLE,R_HIP_ANGLE,R_HIP_ANGLE,L_SHOULDER_ANGLE,L_SHOULDER_ANGLE,L_SHOULDER_ANGLE,R_SHOULDER_ANGLE,R_SHOULDER_ANGLE,R_SHOULDER_ANGLE,L_ELBOW_ANGLE,L_ELBOW_ANGLE,L_ELBOW_ANGLE,R_ELBOW_ANGLE,R_ELBOW_ANGLE,R_ELBOW_ANGLE,L_WRIST_ANGLE,L_WRIST_ANGLE,L_WRIST_ANGLE,R_WRIST_ANGLE,R_WRIST_ANGLE,R_WRIST_ANGLE,NECK_ANGLE,NECK_ANGLE,NECK_ANGLE,NECK_ANGLE_SHADOW,NECK_ANGLE_SHADOW,NECK_ANGLE_SHADOW,Trunk_Joint_Angle,Trunk_Joint_Angle,Trunk_Joint_Angle
X,Y,Z,X,Y,Z,X,Y,Z,X,Y,Z,X,Y,Z,X,Y,Z,X,Y,Z,X,Y,Z,X,Y,Z,X,Y,Z,X,Y,Z,X,Y,Z,X,Y,Z,X,Y,Z,X,Y,Z,X,Y,Z,X,Y,Z
9.52781,0.0,0.0,-14.189340000000001,0.0,0.0,-5.879430000000001,-3.7688600000000005,17.916609999999995,-8.07654,7.73399,-21.921430000000004,-24.705540000000006,-1.4531600000000005,0.00062,-22.018150000000002,0.12883,-0.0043500000000000014,26.622880000000002,3.50114,9.40509,8.63592,-8.850250000000003,-11.916300000000001,16.550210000000003,34.188250000000004,3.3349300000000004,47.79962000000001,-19.351480000000002,32.23042,118.66425,-0.005830000000000001,-95.06418000000001,105.89047000000001,-0.00275,102.03583000000002,-11.979720000000002,-3.7435400000000003,0.0021300000000000004,-13.234720000000001,-5.11805,-0.00105,-9.00279,-3.5908700000000002,3.376110000000001,-30.67688,-4.582370000000001,1.8128700000000002,3.2114,-1.70378,10.838770000000002
6.141041205182552,0.0,0.0,-13.046138355697797,0.0,0.0,-5.515939402995951,-3.8313587403229903,18.59048666495824,-9.929997351365996,8.963991924005928,-20.83846298908084,-25.353621852451646,-1.9042503190729891,0.0015238952961251645,-20.174690206488258,-0.5471297317989715,-0.0034321965628594034,27.17307663590402,3.946241063796367,9.484683898582812,7.965088152063687,-8.437245628950361,-11.970193848592217,18.532299774094852,34.34215413496112,2.8294218198018557,49.65854521161084,-17.292117048433536,33.59258761604159,119.71784097504036,0.01582135891557944,-95.8231022167695,107.10475223645159,-0.006079553462712264,102.76045716604663,-10.90156863090497,-4.328209695961543,-0.01172698218813569,-13.355542595572315,-3.5687466233419674,0.0012196097080090771,-9.046952920674103,-4.028530976031018,4.49059571063115,-30.718941981699793,-5.399768492627293,2.6879721399794283,2.5853161159214775,-1.5353638425689549,10.864650101290879
4.379261098286496,0.0,0.0,-12.699352835053382,0.0,0.0,-5.586741128172892,-3.9640167725095603,19.71552773921882,-11.147146607513102,9.478973393159997,-19.391562174963212,-25.80558318235372,-2.4675173598593867,-4.1849899137298496e-05,-18.50178201913264,-0.8900343832706499,0.002812888799464351,27.89812434724072,4.392160103141227,9.82726305761652,7.674226751143129,-8.209896372665352,-11.77303018237028,20.259418333562156,34.59909660188503,2.611121383944853,51.552152123374526,-14.787244687086199,34.79835337310634,120.62260213736393,0.01941278343713984,-98.55618975029002,108.27927143683337,0.007383937997877444,102.97521125076307,-10.254443513720053,-5.671027505264745,-0.018085426764290532,-13.19583545176427,-2.104302900103909,2.0169325347446086e-06,-8.854115761027485,-4.641918645218881,5.694827476004286,-30.525128663252506,-6.413232029515438,3.58210720621079,2.247038308611903,-1.4365848547056577,10.62931036526058
4.695157650590542,0.0,0.0,-13.73975937857452,0.0,0.0,-6.076913490501371,-4.065584678801236,20.830991391677777,-10.65590741439693,9.402776556644268,-18.484006670466176,-25.887652939389927,-2.82579200889652,-0.0006115213711436221,-16.93753530690827,-0.833024368142376,0.0025242420092463293,28.757364504500867,4.650833487316273,10.71950284754601,7.642395462146297,-8.24775405807006,-11.64935914129416,22.71186545356325,34.836761071230654,1.0653833251534226,52.87113584784088,-12.366239872568167,35.55265371278442,120.5109131361372,0.008911877992613122,-99.31942921834406,109.2281759337054,0.0025335649106240587,102.81733673761899,-11.658400112908467,-4.477198151233839,-0.04302459517756279,-12.690047168973795,-1.2660782192774533,0.005254091034555115,-8.588882304304684,-5.5924157673099275,6.781706724827014,-30.27582288121916,-7.696391138764489,4.2419614737211955,2.315699799290534,-1.4856717396168537,10.536736064524309
4.379911797779044,0.0,0.0,-14.255078017224195,0.0,0.0,-6.046604161808276,-4.516157608529011,21.493958105289,-9.115921072340733,9.793056180366584,-18.295604915140025,-25.897922926994582,-2.884753101906639,-2.372312278967784e-05,-15.329353721529081,-0.899943957270369,-0.0021649277424496834,29.49777126648522,4.842934886510424,11.825802720033774,7.480500450221002,-8.170819594560891,-11.801415629942326,25.819632368346465,34.75397588426101,-1.5364834684048143,53.36760130634046,-10.574834713799842,35.96838820534717,120.15768682970986,0.002320076364938791,-98.72520329857662,110.31653489291246,-0.015558669914122273,104.64266904651132,-13.46342563088831,-2.7510075851848232,-0.01096260014284813,-12.236385714949456,0.24960000729484802,0.0003770334326457924,-8.388214571135627,-6.475820432025376,7.672610239866981,-30.09659502263761,-8.844758438266183,4.74379757627197,2.378512182362269,-1.4597196480241619,10.698700965260029
4.392823153589994,0.0,0.0,-14.1209281792998,0.0,0.0,-5.852890299683521,-5.021110339591944,21.421193549316207,-7.707079550977487,10.209213376528135,-18.387597703376144,-25.97943825129802,-2.8424563375283705,0.00021372317839365464,-13.56986584026061,-1.0515165131599717,-0.0008319247488015265,30.19529677496148,5.065104860627996,12.792261001818765,7.2478945670703965,-7.954569985873768,-12.0667357746759,28.726652670392774,34.269665294739355,-3.4395889093240224,53.659612047978754,-9.274916810594892,36.34990898965936,120.59242932073106,0.008487005013549407,-100.34783093382524,111.29113725043264,-0.003179609232018997,107.67819996555615,-13.273399066764597,-4.018282503976488,-0.009371347775452269,-13.013637253741848,2.0685431879258775,-0.009514987557900745,-8.258629629072338,-6.9657231519445775,8.652823569115395,-29.96389230224433,-9.659961402695336,5.476579117412818,2.2759382093430203,-1.3256068681352386,10.812184902201489
6.073425525362423,0.0,0.0,-14.126330879382817,0.0,0.0,-6.223293768480578,-4.805214461832333,21.158874121294435,-7.007859473611534,9.903311363738506,-18.177618467232485,-25.76553188435214,-3.045618436444629,-0.0008707820244275939,-11.556698750571826,-1.0062252348468013,0.0021691698984018823,30.861131788091136,5.337450407098853,13.465692110410151,7.079026014224276,-7.780346729130092,-12.37352813921935,30.975748303945515,33.73185040264779,-3.947775165333334,53.97437463565332,-8.014552908037485,36.77784043615734,121.42953296864047,0.0054814955862891295,-103.12203553218845,112.0168780133661,0.0016291808510035047,109.69633809114472,-11.552972782314153,-6.064627188250196,-0.004321983043304666,-14.21648063700332,2.7419093573590945,0.0005096807906466734,-8.157519870645883,-7.344126345592038,9.657873019915122,-29.848992723477483,-10.380254266769244,6.275415913463417,2.2122764069786807,-1.194812148741484,10.643189083832107
6.906341426016862,0.0,0.0,-13.787846154823745,0.0,0.0,-6.578392317700928,-4.13134887657808,21.54231983173539,-7.045606081761389,9.469518053551155,-17.566407397477658,-25.147873981336993,-3.438617382871013,-0.0009289965734017293,-9.436613275777912,-0.9011518214866908,0.0004978136244881419,31.15756228955919,5.560005987522319,14.055231893594385,6.749349340567086,-7.7012451582840535,-12.658499150929078,32.53758913423417,33.49919616891005,-3.757588691458271,54.31525905844687,-6.61975495250301,37.494642366402594,122.15372347460206,-0.00672205198880669,-104.75127918825689,112.79547317215926,-0.0063926324922656316,111.38898153149059,-10.75829956798057,-5.791832841853192,-0.0028949067440444316,-15.248549714873828,2.7452880517672176,0.001966079100234472,-7.786506381434555,-7.76972167530614,10.540855301498382,-29.469646870073642,-11.099184227681354,6.943204515033435,1.996017244900299,-1.1161757673496437,10.138559136799444
6.70874369743565,0.0,0.0,-13.765419438846639,0.0,0.0,-6.703491846359688,-3.7956212656056882,22.11767131445467,-7.113563066053423,9.391698290688923,-17.168779300971664,-24.63288204745032,-3.7761360700590902,0.0004112622393907541,-7.589945951121909,-0.9244885728462864,-0.0015490232422104627,31.167684145464445,5.737631406349752,14.883326412176702,6.333913339764608,-7.7126996027843315,-12.859918037542053,33.51096991880946,33.541331273356384,-3.650648115156366,54.92803365705181,-5.301119512763095,38.519618615453176,122.95599600127545,-0.003065240205554205,-105.10028748881076,113.40826223935048,-0.001664529414341174,111.83768281205076,-12.80626591190592,-3.9909083317209415,-0.01671264074542322,-16.494292391803132,2.780490145773543,0.0017148909814671508,-7.177198256292114,-8.040029390484268,11.123578936001683,-28.853023571225627,-11.563591142539648,7.388374183607068,1.4951335660144418,-1.063091388376055,9.544636067498436
6.394402866475724,0.0,0.0,-13.978431467208546,0.0,0.0,-6.805319731156407,-3.7572932854759595,22.306299892090394,-6.903364012047952,9.547091485881621,-17.34176318541129,-24.442021346429758,-4.108873657776801,0.0004906166817596673,-6.25881946922544,-0.9213857359427509,-0.00010155474222679794,31.322587054434592,6.133663705961941,15.782117753418826,6.301747267799651,-7.707630134256196,-12.836197078244005,34.56106572552949,33.378377605843596,-4.198817657742167,55.62094217794644,-4.447687757835339,39.45620672131487,123.64296023963806,0.0018443714248890589,-106.44645823710763,113.73552350759442,-0.002732635599553979,110.87837238283122,-15.932201529479073,-3.652793375021992,0.013593158423855887,-17.483623340191546,3.1394479228031815,0.0007826143263561061,-6.731962622581906,-8.146218602783295,11.062602867191815,-28.418747438956892,-11.63996841646843,7.291067823809033,1.083255077611066,-0.8513301095773637,9.26650792721159
4.411361703267333,0.0,0.0,-13.477061856535407,0.0,0.0,-6.3820380112157,-3.739707024339248,22.715908649339255,-6.692504644488416,9.78640200849111,-17.48096267569143,-24.2446424176067,-4.426599155101675,-0.00026689270751082257,-5.558132585941984,-0.670014170271778,0.0005239948808388711,31.429230486190207,6.760796651618503,16.532556903585686,6.715413868747661,-7.74769955582292,-12.543568414642166,36.02486673747401,32.63029823511176,-5.204285379932819,56.18223050593914,-4.18334432117486,40.301827723333496,123.89936404712843,-0.008859920385657284,-107.17432402170695,114.10912765343629,0.0017525589647827179,109.85622577807625,-16.18671885365521,-4.983363598474427,-0.008760597439672488,-18.097006179515105,3.8441373909864684,0.0010540216202900468,-6.2195434260919535,-8.28162698655086,11.458249311072386,-27.897424730311386,-11.91046625431132,7.611665517009309,0.7282326390731236,-0.42364098886895823,9.348547663441167
2.3887832603409564,0.0,0.0,-12.799997732810876,0.0,0.0,-5.675048148815297,-3.6726174057802035,23.59417081794807,-6.430175504446673,10.03443713503152,-17.227708906237197,-24.00135550804573,-4.627015451067855,-0.0002933671089197721,-5.359792529650875,-0.3576239208076739,-0.00017882870361022964,31.472050830689366,7.403920367033466,17.132965864724433,7.4082771277448565,-7.805594416774937,-12.229876657529788,36.97492675331607,31.70100289025136,-5.592983655266823,56.487487240819235,-4.170969209040404,41.22233902968331,124.23204699357058,-0.009636308841226932,-105.43158043008307,114.6545118743343,0.008120823366211947,107.55838665366976,-14.435466279977424,-6.189775965272457,-0.008618973038904973,-18.780651639651698,4.266409181373019,0.0012538238452938048,-5.5599159656461685,-8.536851708387694,12.72402869748017,-27.19044955847124,-12.609746836763005,8.706259694621583,0.3479401535100666,0.09873535840924696,9.341871404261342
3.1407428573460727,0.0,0.0,-12.57621176996282,0.0,0.0,-5.4876957953934005,-3.686460248747348,23.920191569448455,-6.006671122025013,10.199834978842835,-16.660305668477243,-23.80055971287848,-4.502507724676152,0.00036487148552772123,-5.275605036178453,-0.21357873283973763,-0.00013472094137698777,31.77165148780968,7.798493393743632,17.916744564795454,8.263564670081223,-7.861124082224552,-12.147730497897935,36.97702557136391,30.92476784027927,-5.1797845048927895,56.39322833583954,-4.033505320832638,42.04353163522272,124.86631436154975,0.010720867082410499,-106.11533756120365,115.08872028656008,0.0010456853170135558,106.1549027710947,-14.553828414615937,-6.886158081381247,0.008542239988470595,-19.49692650269631,4.820826721783477,-0.0014097876440217986,-5.706741418646764,-8.894826886670298,13.29599319551751,-27.33397975318905,-13.150912184160326,9.110018560867593,0.2959539408290974,0.5076845243044931,9.072154000466863
4.7697558230634876,0.0,0.0,-12.878068979705422,0.0,0.0,-5.713505322737985,-3.9146146652314537,23.486181650381468,-5.553223122468271,10.187553010460526,-15.962149067379592,-23.471993490424175,-4.100679450029655,0.0006420801771784401,-5.118211946891621,-0.20453802268232998,-4.097312898754534e-05,32.091115667234966,7.775070106942572,18.679768822493127,8.961354104067176,-8.037814056232728,-12.256585205744312,36.91470181770209,29.93878943021468,-4.700618551828421,56.22444051817705,-3.8243734276663215,42.64765880444524,125.49028183509344,0.00733940131351191,-109.3337456541289,115.19844862624042,0.00026545318909903647,107.30130042516288,-16.550912555066624,-7.480299619168231,0.007388338711617286,-19.877387536685138,5.916262426901096,-0.0002527263594447043,-6.641781387452642,-9.147556510383449,13.051742432017553,-28.305317543668725,-13.296826144223555,8.783927833773248,0.4272098307922155,0.6914968178564613,8.691723171666531
4.520310456538537,0.0,0.0,-12.511142514388409,0.0,0.0,-5.6531115484172005,-4.4194968533321,23.313609359062802,-5.2653954231601485,9.96031694295667,-15.263887925844566,-22.991333592785296,-3.8443973271483127,-0.000546482633166046,-5.099560670672751,-0.31327380653568027,0.00011196393828454483,32.180528231392124,7.616002350426989,19.01381652121946,9.474563613225994,-8.212171660290622,-12.499246644551684,37.3825833582282,28.718828781399708,-4.345830124366526,56.20907762268307,-3.6321628146743286,43.164583198391625,125.84333504802245,-0.0029201480869955384,-110.61088113476532,115.19260278605844,0.00048362045869470107,108.90660831878051,-18.042306501127662,-7.4802386426439815,0.00045639798486517047,-19.912966482059282,6.700326157543232,0.0025048138108704977,-7.272376571258769,-9.140654098639763,13.079724251287091,-28.933686841856655,-13.300622144906049,8.812931449747296,0.4296164631342179,0.7635546773856176,8.188203957236379
3.4095945383980992,0.0,0.0,-11.128211531558957,0.0,0.0,-5.235435020300887,-4.827472877233431,23.897737877732318,-5.0018088773471705,9.786763652708238,-14.721226947639607,-22.43241579742688,-3.7819230084397226,-0.0005251217474546363,-5.293128876338716,-0.415997870538779,3.4043139775238366e-05,32.10800465991543,7.5826934326259225,19.25081526823329,10.02014402109729,-8.295990991682746,-12.582874192816881,37.940829894486846,27.406203819638787,-4.013255001696,56.14326444689921,-3.4008348186169104,43.613109460648936,125.89956040800782,0.00024008178733026908,-108.83867399893522,115.1372513145901,-0.0015699172598917523,109.25583103107627,-18.003708335954368,-6.634509718476186,0.006301405755085946,-20.480302266833963,6.332584610843565,0.006962583530299715,-7.3427574595750675,-9.149844595777468,13.419604008031165,-28.984792144594177,-13.432970448079438,9.13001078005353,0.38588237793615965,0.8498228649560138,7.757064152150782
2.8236949033774357,0.0,0.0,-10.12181139996761,0.0,0.0,-4.996518719086545,-4.749803626838758,24.554140491768063,-4.62363754888104,9.960151658895011,-14.182125392065199,-21.85032828930234,-3.537862865424794,0.0006825875661531016,-5.362798285811264,-0.44235522282726775,-8.532515702710626e-05,31.820466051496744,7.454010776943769,19.71081306783231,10.25791706862154,-8.399221042450396,-12.667211429298316,38.20680415406885,26.017943720306388,-3.9859520468665672,55.759051024503705,-3.293774837174509,43.828756722100536,125.9566275854255,0.003102428701819764,-106.51780192980907,115.15328202729634,-0.004852782852552544,109.33601362899532,-17.43760730719221,-6.227725290752419,0.0021815909642858996,-21.21871098315659,5.954256000595391,0.0038079856933608625,-7.2539981420270205,-9.28532125939272,13.646886632268844,-28.894253440505622,-13.641635703487259,9.293111028247708,0.2512240131855982,0.8614340890933582,7.5251765907656845
2.779610575698798,0.0,0.0,-11.262784106610924,0.0,0.0,-5.077849178662455,-4.783813102927925,25.15925086878749,-3.7826123002725525,10.398285995622437,-14.011057019542903,-21.25251469484635,-3.2516620711439073,0.00041650782760691663,-5.33830628041188,-0.4358629257605938,-0.00010684341219153021,31.28982968896888,7.2216285602306955,19.92704817305593,10.067076957365828,-8.506343506260615,-12.541850097789178,38.11445956673425,24.774807640262356,-4.084769635450276,55.169318865786444,-3.3475957734052417,43.78865447573426,126.43359207820748,0.0054652951793061596,-106.71315114496609,115.35306809039486,-0.005491078049080115,110.36796075847272,-17.1818102119153,-6.915621825457985,-0.0006884853139393156,-20.900857639310725,6.304831370933135,0.0014927941590942813,-7.188919471056379,-9.358252263874512,13.568930397447,-28.840465619121776,-13.681046536962587,9.191845631610809,-0.07970925822211154,0.7658005336600731,7.311351918159452
2.455757473008237,0.0,0.0,-12.013944110442536,0.0,0.0,-4.871220943626469,-5.219477502278258,25.955092372217376,-2.989102845666508,10.846580915709795,-14.20702036512996,-20.644068981713357,-3.1791191824487024,1.6974865823188655e-05,-5.485759306167282,-0.3816697834531766,-8.891068850983867e-05,30.69765537407875,7.188334214987368,19.96545137020559,9.980010885049438,-8.530959629723357,-12.020402889651916,37.585199117133,23.80551841553455,-3.644681590454604,54.823322179341446,-3.3059416968021536,43.770153078951694,127.14632032444412,-0.0006706161787726738,-107.30766095081117,115.69056153486136,0.005160665184316226,109.3297335519727,-17.18897448287172,-7.100513578542635,-0.0011797249731620668,-20.246771752605063,6.734774221352698,-0.0001562693913320424,-7.14635803159086,-9.395499397813028,13.465037963768857,-28.80751536961941,-13.677837190257595,9.079649836837516,-0.45277291936536485,0.8341102254668772,7.018411967997088
1.9567513146054276,0.0,0.0,-10.500536936749732,0.0,0.0,-4.6721775977279485,-4.995077829077095,26.71016656665458,-2.789074145806742,10.781741525771277,-14.049837310453333,-20.01093124920041,-3.350454825921843,-0.0009418687253446871,-5.678028264553679,-0.33066934204711024,6.617827459391746e-05,30.190345062172465,7.3079024605694896,20.066859737108807,10.102890813480428,-8.494652060717252,-11.662069075026377,37.00623725655133,22.89969033493927,-2.817502342938509,54.712069910285805,-3.294948994678075,43.79945640217685,127.55473226012164,-0.0013919097532863686,-106.94770348918388,116.27629264143665,0.010694524227343443,105.58117659761868,-17.388613958909154,-6.725997055405133,-0.003531659611392406,-19.870480944375153,6.957857262614684,-0.001500132476544432,-7.291181120890544,-9.531621378472366,13.437747259077685,-28.96625771425992,-13.79441327731177,9.0021561130686,-0.705233406199078,1.05047216392115,6.630207041589484
2.350726071705954,0.0,0.0,-10.579657366525083,0.0,0.0,-5.251174549016103,-3.831007269773697,27.380751654222475,-2.303929584743612,10.133779342528053,-13.81049538258443,-19.365555138170826,-3.684138568449049,-0.0007502339734035372,-5.616325914108421,-0.2726878596712744,0.00017955748750579363,29.824666112655628,7.231236737854805,20.01534456311944,10.093762685757827,-8.598447551028809,-11.379446328850195,36.85042715246247,21.936824030726008,-2.5505854582304415,54.40927378674222,-3.4846241156148676,43.59002877031807,127.72987910978819,0.0042537565838828145,-107.46927836507693,116.91077807369207,-0.00015772379770982899,102.46846539574835,-17.41222411419351,-8.049202361731794,-0.007578970206505384,-19.31939293449248,6.5050268038854036,-0.002480507136063962,-7.518973155360182,-9.838516109143193,12.89564603032231,-29.2530806603731,-13.881904548897046,8.373936950660903,-0.7893210517663118,0.9500563553277361,6.2437304636177515
2.9261184647108482,0.0,0.0,-12.226084457863125,0.0,0.0,-5.793052493691275,-3.343600323414012,27.813111103647394,-1.4332647466683766,9.66441443829716,-13.650763841167036,-18.85641596515626,-3.8005013693926233,0.0005606019494934664,-5.3402162350205975,-0.2725630827095537,2.9690094660916552e-05,29.555706181764904,7.029120182886703,20.271549636679232,9.950451993882808,-8.773546231710366,-11.05382792647728,36.79424968716621,20.917077345723968,-3.0292488529367616,53.78070749708128,-3.672261452789207,43.21867160652897,127.90926541624806,0.004803883233427722,-109.40034543126269,117.36740092645935,0.00033094078919232824,100.82193750602876,-17.468237346029497,-10.68132539365058,-0.0040062511330412765,-18.435310567490305,6.010167777869405,0.0034236003272837797,-7.631188361608214,-10.183019996134494,11.972742172889678,-29.444903348725884,-13.864692955403289,7.372923888285402,-0.721001320376734,0.5697379510892804,6.0437784294752115
2.5583362590790193,0.0,0.0,-12.734238043412194,0.0,0.0,-5.6948661985167925,-3.572823823809778,27.93058996451815,-0.761055328586884,9.513862249648309,-13.43716751781549,-18.548338197707277,-3.808025265950453,0.00030731967570307576,-5.1370475213439235,-0.40585455627937683,-4.254841855246941e-05,29.306755015260993,7.1207542835926345,20.6398689238248,9.845903733606123,-8.67606230588387,-10.804840878289115,36.479029093065414,19.91717132602391,-3.36462634190231,53.07330238599031,-3.70327116532481,43.06187096998465,127.89642394437661,-0.0012811589010807262,-111.21555562355908,117.74254115439936,0.002355479020797952,99.8914758905156,-17.78316740269496,-12.096664844099362,-0.004098421147275071,-17.728164319712928,6.572244424115572,0.00638703519038842,-7.824619724183343,-10.379038128384384,11.3872038389457,-29.68363938711787,-13.83234769259893,6.747030748796274,-0.5876216852020478,0.4734529143829299,5.929857778783857
1.222706239271228,0.0,0.0,-11.893635079588961,0.0,0.0,-5.166342451045045,-3.71249312081525,28.30626889242221,-0.34237907403051215,9.280771176967386,-13.455210973417342,-18.415594019927386,-4.091776794198264,5.5129219991236565e-05,-4.9425084532395935,-0.5502556139116792,-9.635460263715035e-06,28.985585027983124,7.491308803971322,20.27071732768291,9.557831226630425,-8.331230477333724,-10.58782057626624,35.97203738618464,19.04155860624456,-3.181826631291477,52.50053817570546,-3.7239156602309462,43.3264122563992,127.74712202432754,-0.0029181992429819685,-114.4526320202084,118.15000335351024,-0.00763016278321203,101.67656256369644,-17.52538731686247,-13.145927182693375,-0.009106566436684714,-17.69924762486967,8.85435644415623,-0.008064857125375932,-8.189044317875128,-10.357573809278517,11.114593844175822,-30.05804500705707,-13.71256720687268,6.499027472285724,-0.5631454055501629,0.6970393560930176,5.644115053346259
0.13968137975737333,0.0,0.0,-9.581283693222595,0.0,0.0,-4.711004463161317,-4.0842224466925945,28.908466691900163,-0.2401968016396843,8.88455161835765,-13.433848792754697,-18.305122900340738,-4.3968469964140455,0.0001335140300588247,-4.709062543889638,-0.5803978581833775,9.392841190108477e-05,28.528776897286132,7.780414631260131,19.794235487945137,9.073366687029894,-8.112778957245876,-10.556328285860445,35.29856993872466,18.408363685959902,-2.885818141999835,52.04722673067342,-3.877676788618881,43.72095642542419,127.78598621501695,-0.00010962643970564703,-118.14227423915167,118.61615060694216,-0.0054803499089816805,104.75372178613709,-16.688526469683357,-14.134899075221819,-0.0017089600174604595,-18.13467671812192,11.185301055580311,-0.014165858647865945,-8.51264076567906,-10.135610277582458,10.754061818151326,-30.376911457894185,-13.374435097815468,6.245385862768042,-0.700849128195928,0.7612595515273524,5.2930367334961135
0.08309431285546107,0.0,0.0,-7.3228738504900726,0.0,0.0,-5.011570981579736,-3.9977033390117653,28.533975827919704,-0.11901131816928835,8.625402087866973,-12.886741556928875,-18.116088379978994,-4.416103041659301,0.00019019245039349694,-4.671896941864205,-0.5530529331548597,-1.1635996535685499e-05,28.14030092051398,8.002369153694156,20.445409034526396,8.875424224987954,-8.082481220516414,-10.76992005623673,34.57456736777757,17.936190571324673,-2.56276551353654,51.60589391184542,-4.036276955733438,43.533468006546194,128.01042601874502,-0.0034513799525115758,-118.36802942786457,118.91395579428995,0.0024321360169886736,104.8402647197849,-15.725193053014875,-13.641742315757787,0.01117385860224094,-17.482574530806577,10.79330619947607,-0.022609628986288197,-8.705769061316198,-9.92561548035621,10.460132162084403,-30.563597891471993,-13.07177277387619,6.049765299333457,-0.7517938075163316,0.6203336478192332,5.254049194254476
0.2882420457631855,0.0,0.0,-7.571189322961253,0.0,0.0,-5.519691498839392,-3.509710809393746,27.450853089617922,0.6537679727242206,8.93120369425543,-12.710574351753188,-18.03697328484818,-4.38531142957248,6.333628632928222e-05,-4.9015906551013355,-0.5241945274454783,-0.00014508295268719738,28.101852267065144,8.470735133631212,21.395927807904993,9.061240689260785,-7.889383811214335,-10.638697706868536,34.201596093453624,17.33509407815384,-2.462861253072694,51.196036345669796,-4.226832614618046,42.81927642189244,128.07690656705338,-0.00032749841618040347,-115.54294900519606,119.02226649544095,0.0020365870303994137,102.78575962538943,-15.490106800085611,-12.046795078752833,0.0018487616561405718,-16.18792311475235,8.981682446571469,-0.010628242352021864,-8.819119784973932,-9.933825689459292,10.543166105540871,-30.67431888133033,-13.109831718107788,6.124563789494419,-0.6268483921205471,0.6610595624355985,5.481365178313834
0.19587427704581775,0.0,0.0,-9.108510118946748,0.0,0.0,-5.557145286394146,-3.4936273843273584,27.04711790122303,1.6244104868808278,9.441144418950223,-13.111944344759742,-18.12153437800744,-4.500853395874616,0.00012231283914645164,-5.023426868258832,-0.4769177942158641,1.337435431311946e-05,28.159682231772834,9.048163456240271,21.416108525520123,9.043064575560084,-7.506582886152994,-10.26455279690223,34.134832624596086,16.510694464577853,-2.9585068713490887,50.801478702188135,-4.474585923257907,42.31178013882585,127.92227729821765,0.0008980817082278547,-112.1552834014451,119.15986032024382,-0.0010615387234831875,102.82034688947626,-17.02714004819631,-10.891402136865391,-0.003992880547474072,-16.748605722285436,8.284607699108404,-0.00533036509267712,-8.952656210967207,-9.988681786678875,10.733718004894062,-30.804825227744733,-13.230617034311035,6.282488556652119,-0.5935212063901402,0.8953313463072102,5.670692416535606
0.05959284359319547,0.0,0.0,-9.921950716887425,0.0,0.0,-5.307227368656224,-4.014017263744458,27.62860370598959,2.216180756755089,9.58526443219724,-13.315814202975277,-18.198375235674707,-4.710342525658784,-2.488448940985928e-05,-4.8695005872303785,-0.40643979533791746,0.000156756163773967,28.07833368069019,9.426500143029655,20.687825438649114,8.678592917649311,-7.1972977216536265,-10.24268158732167,33.91980445534375,15.7682766032017,-3.4137572364956137,50.46397867609931,-4.648888360123633,42.196319738322316,127.76061227735698,0.001668127704124342,-111.28033715646,119.27046898553428,-0.001612317176873929,105.62588341576827,-18.586437767690807,-10.513750454125818,-0.002047191872575393,-18.67942404003076,8.4901639079408,-0.00955437863844562,-9.087810196386801,-9.959138605014184,10.520117532229342,-30.946118954395377,-13.124873497790778,6.093250819160368,-0.6611878235966901,1.0802003068335129,5.723732826310317
0.24194910342753442,0.0,0.0,-10.717533140882141,0.0,0.0,-5.247258793510292,-4.609433638998626,28.480115139882578,2.7745949827334364,9.406453670461826,-13.198753224636512,-18.162634306763355,-4.958284951705339,-0.00017610325834828544,-4.674498760690885,-0.3944404095306851,-7.02132137550798e-05,27.913979479612465,9.713464439767192,20.0557247518075,8.31131937705146,-6.945751865191914,-10.443994085302569,33.12683485842585,15.44769636030131,-3.048060226169286,50.08464748220238,-4.815026637508031,42.033479783969725,128.00992461974624,0.00904174280853959,-113.51384512330348,119.35414920755397,-0.00018576855484685564,107.31858144045036,-17.182002752150996,-10.350652080413717,-0.0025288414836093067,-18.882445198745515,7.749760211786483,-0.019364522740776862,-9.080345471506243,-10.046269437743609,9.964748272926283,-30.96749908701078,-13.001978315054249,5.538892053610496,-0.658442710128861,1.0978434808193187,5.825635227997368
0.518548978166966,0.0,0.0,-11.962146369893782,0.0,0.0,-5.530518183981626,-4.745658630618478,28.982396011761214,3.5450755809052747,9.212708963700067,-12.752772874401098,-18.12681361546048,-5.132083535625214,1.8920873985776466e-05,-4.444140183572862,-0.48514789851699053,-0.00021895519542466647,27.661072839691585,9.989879177196423,20.003098281007087,7.885018767257265,-6.695639210093194,-10.728957484000416,31.780832953938937,15.463341426450324,-2.329935900968569,49.49919035576851,-5.03092156988637,41.70271737675024,128.5964917036413,-0.0007356865847639134,-114.32585691685173,119.5860651771617,0.00416846823638107,105.98345498000862,-14.715056880194949,-9.843379169985285,-0.0005338196282468784,-17.76942354665476,5.803385764818092,-0.010981629604312995,-9.152923035852345,-10.178312573941538,9.564713671007446,-31.06550813447722,-12.977610596833848,5.113340301779666,-0.6640110213698112,0.9358902500577413,6.002837845203662
1.0345973171341116,0.0,0.0,-12.974579263745198,0.0,0.0,-5.896423178246486,-4.738365383757852,29.136890187669547,4.209645111475831,8.990642834530354,-12.543714164593807,-18.279631467467496,-5.2496739826154375,0.00023871754403415038,-4.133197949771456,-0.4950159503377499,8.584921815499512e-05,27.537613139826238,10.331122100670024,19.984171971358098,7.387974896051015,-6.369444670070854,-10.97166742857276,30.587649021346643,15.434887264533698,-2.3261253537912925,48.90054230046525,-5.148554627119731,41.4899169736422,128.92823983614304,-0.0013261307503105951,-113.41030867263675,119.86651937093254,0.001708182957244272,102.62552257040755,-15.196709208174976,-9.534412141162964,0.009981433007439259,-18.68446469362578,3.5896380718306795,0.028541996842910686,-9.52769350856782,-10.227637155868253,9.024679855961846,-31.46176476123964,-12.824923875360788,4.588630377194119,-0.707507963463625,0.8855760996492663,6.145469503371002
1.939814521311767,0.0,0.0,-12.931756729637423,0.0,0.0,-6.25708195869836,-4.831086653989285,28.87514159469456,4.453495256954215,8.569164424323393,-12.701833543713681,-18.55492555154861,-5.328074412196885,7.77187214779003e-05,-3.871169015428979,-0.3400348766295905,0.00010904612974452419,27.665125425926213,10.87821012095884,19.750791664108853,6.983187676582083,-5.829315879228247,-11.318201829834086,29.84755092917233,15.270093416457895,-3.004027174974378,48.49858490427165,-5.181219684546075,41.47050532882304,128.86600984659424,0.001304694248130081,-114.19063882132008,119.98486929918488,-0.002566865317698101,99.86956212980259,-17.35697509202699,-10.237577245474284,0.015595100227094875,-21.477108845117634,2.2208515723547615,0.010183117454777787,-9.940395475580605,-10.279702658151923,8.319732551266018,-31.898609166379295,-12.613950039215204,3.9090745406179144,-0.6962877705164865,1.1538501292123524,6.212821876325967
2.5406544597037755,0.0,0.0,-12.027031847165267,0.0,0.0,-6.542190667866752,-4.838474933368592,28.283471277967344,4.573777497919067,8.035669095895468,-12.632480687174974,-18.765003012716438,-5.318522516811501,-0.00010489572390999222,-3.7089882018659637,-0.15296241475154249,-7.049909482284175e-05,27.84660001069421,11.501899214595374,19.795302916477272,6.693000842282448,-5.203894677026153,-11.917667921170542,29.307304020139846,15.3112735322328,-3.393026776064518,48.24871886727873,-5.412114162007821,41.38565134854607,128.55066243785637,0.0048297641124579,-114.31005794140785,120.07603241962147,0.001435654127072489,98.49349224913286,-18.001351999068362,-10.360409176291357,0.0009084154358872071,-23.307368812783345,1.8553826256249812,-0.008882519785448554,-10.195986018384044,-10.368729133455753,8.09649985687333,-32.16722940818464,-12.614374666003197,3.666230366232493,-0.5426464537129656,1.4738533080221745,6.160500025533311
2.038724411807235,0.0,0.0,-11.630776748927904,0.0,0.0,-6.635871939276502,-4.575487716734157,27.495259700354957,5.119119421006771,7.520574908150905,-12.586673117331701,-18.947135989752944,-5.235221696073489,-0.00020614575184879448,-3.518125886933722,0.014910571098476698,8.710593492035672e-05,28.009465953536548,11.942692018048676,20.311991080954904,6.480709283350619,-4.781877003302898,-12.198229326645327,28.68975604187003,15.571405916482785,-3.107624012008967,47.987444016698106,-5.77048559404093,41.23363859857017,128.3302875910365,0.0025110968117931613,-113.09224401233557,120.19925168123233,0.003173867485835451,97.97516746263271,-17.261108160463028,-9.800482956937708,-0.004333436633874493,-23.195937044322807,1.6443024300129028,-0.007716763101797171,-10.286477844173334,-10.529368303177664,8.223871615195034,-32.268169601273414,-12.810210943420804,3.7236851834866314,-0.23099270910596395,1.611527063863562,6.0324797394263046
0.7577122935270759,0.0,0.0,-11.908586388606771,0.0,0.0,-6.669844784486799,-4.02593973254318,26.702040295007127,6.003173249485165,7.24770508223692,-12.882666598795183,-19.08615882900113,-5.172173446778836,-0.00010159289450506855,-3.2630487851486603,0.18370391475811845,0.0001400869855935445,28.093639700605998,12.161206532037355,20.622614939764077,6.162664853056425,-4.548599994143661,-11.931175404147542,28.038201279609233,15.712766858528889,-2.5474101810180354,47.693417322719874,-5.983019232882024,41.1810996726535,128.2986244746111,-0.000491418718550762,-112.13614535369128,120.44953331061684,-0.007975715249168378,100.71171026638446,-16.8523465898629,-9.651028730530689,-0.0034454286203202244,-21.975981333996067,2.549155275418078,0.006753475235013798,-10.300997889183057,-10.71825497947151,8.272880465060402,-32.297694542613925,-13.003401107955847,3.6969496156847255,-0.031413474214389614,1.7292842683202643,5.892183384282259
0.2777978836007229,0.0,0.0,-11.926932408706444,0.0,0.0,-6.846000472002713,-3.732581674854442,26.35222354871159,6.636076526175923,7.15997081443092,-13.146945240038395,-19.063131326132076,-5.217649939203217,-4.580441533779374e-05,-3.034596147778092,0.2688688128501743,-0.0001704354534192766,28.128409497165908,12.401554546602984,20.287982567999677,5.775621498893905,-4.192495219430346,-11.751248698561698,27.51312102352036,15.662123671465357,-2.406753275743826,47.37837377561294,-6.050008140419546,40.97001100947174,128.20214952889845,-0.00433675972089108,-113.42803683490136,120.99170730855042,-0.0068770439789400326,104.83364643653739,-18.065497925174775,-10.280959675811827,0.011903961527757748,-20.766850055357107,4.8284740867263425,0.00957264219893348,-10.47518586766507,-10.813758129854127,8.172629380995135,-32.48257512408035,-13.055044770785488,3.566504032411457,0.027686991444372526,1.9590139006381584,5.901726973132833
0.8742904456684903,0.0,0.0,-11.121370447204963,0.0,0.0,-7.075241569005676,-4.086967930142077,26.20572529048168,6.7768107959590616,7.028681136104428,-13.22123002286995,-18.998928548067045,-5.223790963405854,-2.9474625884910037e-05,-2.7217304980118526,0.2602233543281946,-0.0001976875897692528,28.22833386329762,12.769801234806435,19.97219834148688,5.429299894515989,-3.629899894689946,-12.043163385527537,26.97406984862654,15.596939949561525,-2.6115086372089666,47.05039542349093,-6.0617449869373585,40.468413502450304,128.11322906382816,-0.0014041706038387925,-117.67867425848578,121.54259440337609,0.006434443104459263,106.18808895780802,-19.58205290159357,-11.571040212143423,0.005739082094984962,-19.860078712252843,6.308404697975833,-0.004244025104542947,-10.774403766587081,-10.775421002901018,8.203343979334518,-32.77773388914218,-13.030812033142524,3.6099552158147894,0.142634432455016,2.0935568306068433,6.069860396357607
1.0714348952887243,0.0,0.0,-9.371405825609049,0.0,0.0,-7.1178776877399015,-4.727710134659639,25.734996120454813,6.650837826633616,6.804465974852858,-13.23512102924138,-18.998320378953853,-5.049443143136483,-5.0149111057564556e-05,-2.271944408053256,0.33872663015600996,0.000255164952655668,28.237128621443155,13.078292356260329,20.134607390225145,4.943500548013797,-3.1141305697915342,-12.627763226213284,26.286065517557905,15.527954380739802,-2.516276097489449,46.66041055104971,-5.812358368523713,40.18428773827397,128.26869775774273,-0.00119576028828237,-119.85945241595468,121.85639758698443,0.0010048294740988611,107.01281896014666,-19.312169883957438,-12.023197116041953,-0.00040049558765393794,-19.137065604356568,7.031687384442002,0.0009802819033933765,-10.844025719737019,-10.475686976540276,8.339925398407678,-32.81824985641002,-12.803139442278368,3.8528003083889044,0.20180193968341903,2.0626913551008292,6.119287577222788
0.5992251886793377,0.0,0.0,-7.5034566601079,0.0,0.0,-7.011257171916311,-5.219283304988872,25.004535045500234,6.490445838210645,6.30029070405381,-13.070589355734345,-19.022947870589924,-4.801388211227954,-1.4515697354272329e-05,-1.8858713816356998,0.5282303691500433,0.0002043293397116048,28.133612418742654,13.322485343638006,20.618243904353655,4.428622842411275,-2.7024023217744264,-13.300444249372056,25.532164816133285,15.512364482936352,-1.9659818385175754,46.2164196159893,-5.38560152783337,40.307139748247465,128.53543431786085,-0.0024791071311383085,-118.60250017763921,122.1152826162031,-0.005622419443604719,109.90902124172933,-18.303198776716645,-11.015066743764526,0.004448818469341585,-17.983699741878787,8.215350390393398,0.010202196602356406,-10.629561892349711,-10.083045529640216,8.23035665883356,-32.57377426647176,-12.398674101850323,3.900790269839889,0.1929573413162066,2.089672165073652,6.060516341102784
0.5764066417255962,0.0,0.0,-7.262891686064391,0.0,0.0,-7.344934113373508,-5.096947049549058,24.633230832510375,6.685616728563698,5.711158550993421,-12.924865379302732,-19.046368063502495,-4.770400556330014,4.583742729778619e-05,-1.6845019786488058,0.6593810702742701,-0.00010687836710402464,28.111494201161282,13.69863404507879,20.924814037701225,4.159152520415444,-2.2768641138126267,-13.640209554739204,24.820079108139105,15.70612579313184,-1.1369966805910325,46.023646896220086,-5.149663534055626,40.49819946961662,128.76207332004915,0.0005568651387229599,-117.60246501362239,122.35462983259136,0.00044248718013329953,112.15166956525312,-17.56335782239054,-10.296819074822045,-0.0008118369871125707,-16.92035122648918,8.856604925621001,0.0008711951688394204,-10.36113372117873,-10.022489803390435,7.96626950384256,-32.306971940720885,-12.245322308936544,3.6770938283322674,0.21304679460787465,2.2066697269616022,6.143005051469107
1.1303053377470642,0.0,0.0,-8.789323392604295,0.0,0.0,-8.220827386064427,-4.385804469294979,24.80859433681979,7.340138031831137,5.607700576919389,-13.021010080420277,-19.043950427501084,-4.983459791917177,-0.00010631144699394516,-1.5842303305600232,0.6826940061848608,-9.803795611557436e-05,28.262180967805694,14.195470690699247,20.71636695507998,4.102130139654524,-1.83788266560212,-13.619220091767609,24.26684919207362,16.004511283555654,-0.1940496829069837,46.03694336292594,-5.1558003027201575,40.46910183477282,129.04759434064292,0.00015455155382836712,-117.3904952796907,122.63067398366746,0.007672388926903005,110.96642432688492,-15.761432661385095,-10.81988293464439,-0.012903847616988854,-16.418719099943086,8.451130555445317,-0.0025722254377096316,-10.148265519021852,-10.363880489343636,7.77380438738618,-32.126566816978375,-12.491093364459054,3.3665167321666694,0.2419439636857709,2.3449790937387074,6.409774334368067
1.4302810561172126,0.0,0.0,-10.31313704322957,0.0,0.0,-8.81329754247118,-4.263787329335373,25.081747656861193,7.836722698457665,5.695550066739454,-13.086045215496954,-18.923894502060342,-5.104317074933983,-0.0002801245333427832,-1.4201616064419058,0.7149840168503298,7.18514972960309e-05,28.40186830176982,14.536765640595021,20.341941555664906,4.042395768603049,-1.502561506397879,-13.642066753985285,23.842332590593983,16.15927047278345,0.6762623291352365,45.8908841608759,-5.182745261510014,40.35197097514492,129.3851683817459,-0.000635794580673605,-117.07370414475972,123.03168159964703,0.0016958332048870968,109.02538141454086,-13.083882041503669,-11.665380544934262,-0.008150076160713785,-16.08783730542972,8.087059284214057,-0.0011776430204770846,-10.004647589314176,-10.646539667838285,7.5492973906962435,-32.01132471367733,-12.670519366481223,3.0483405543784756,0.2735425011849497,2.440312979015194,6.764097986839705
1.166836136440303,0.0,0.0,-10.89467014716809,0.0,0.0,-8.845865748288272,-4.998609942295562,25.014263364336635,8.032603550203614,5.760208744767291,-13.06059927449574,-18.742863070731307,-4.995175671029407,-0.00020496820045403548,-1.2342222539534577,0.7768673630118976,7.320997910264385e-05,28.365221350312062,14.742119402402643,20.220311764617108,3.9360668757116484,-1.240814295900313,-13.605230997088842,23.527332564863077,16.082655490699718,1.0920351404850324,45.5546458033771,-5.026217723545695,40.34065130755806,129.48623598824474,-0.0007703458348231518,-116.78967018203686,123.37287337196908,-0.0036362471902530538,109.29687074985156,-12.111960828347874,-11.94192404805704,0.0015325843416351874,-16.10647199900771,8.332675013795601,0.0003888033526082723,-10.023909128047961,-10.627229220064843,7.1316073586218405,-32.03683507142465,-12.498777573986688,2.6657911934385154,0.31120444641830564,2.503304131320737,7.28043123226946
0.3203117695661832,0.0,0.0,-10.301700218262747,0.0,0.0,-8.87406642684125,-5.358411767765013,24.288347413899725,8.082300625222283,5.986417981099111,-13.215713180254948,-18.662791107739366,-4.697262456503988,-0.0001221352800159007,-1.098958249086213,0.7861827263537616,1.255581312143397e-06,28.263330204162862,14.985876862703874,20.521771995116126,3.768924117978545,-0.8730431270608718,-13.476584663373174,23.389680645190204,16.019985335872722,1.2870491261505392,45.26965651848537,-4.688744953343767,40.48336781361753,129.17947484460086,-0.000918182120915482,-116.62780012796465,123.68164872412285,0.003617546468900451,109.07514945559466,-12.904231704153743,-11.548321722265918,0.0003155890091000274,-16.941124237326086,8.230295922073566,0.013633230756752053,-10.138451451839508,-10.592724267613912,6.861700969748731,-32.15305186424939,-12.367336770427448,2.427184136079375,0.2972857462706182,2.6467821424602613,7.686426171558309
-0.06647177961559637,0.0,0.0,-10.104885942239274,0.0,0.0,-9.347061955780598,-5.039200041914482,23.990552339509264,8.232735222736043,6.124345422406474,-13.699838140528351,-18.459808386901457,-4.637056476680438,-0.0006791341122260144,-0.9301986304646441,0.7375066972532045,-5.834515175948654e-05,28.216148306166378,15.201620823165264,20.166755114583406,3.513335363133745,-0.38499603602818994,-13.494444217532411,23.25501549812942,16.16668810975045,1.895822589824304,45.18735196822101,-4.292707809617038,40.701952958571106,128.81114383216803,-0.00041191304804302683,-115.9545497510618,123.89495540484145,0.005077724245976621,107.23625783399842,-13.060394561518052,-10.97566407528161,0.0027153220409003092,-17.901892070052146,7.123825600255275,0.01533377304788161,-10.10575621580126,-10.668184956342706,6.813746882014996,-32.12733434289034,-12.419630441689009,2.3534732459953105,0.30798981201371944,2.8771832580670766,7.575914270458768
0.10764434064583156,0.0,0.0,-10.841806510113345,0.0,0.0,-9.826943716288135,-5.096884891267056,24.657186715452237,8.4709071643986,5.946138041369851,-14.241078430802482,-18.14595244538477,-4.899818140759491,-0.000813571589650023,-0.6854598005530248,0.6715881354875495,-8.764646072824685e-05,28.298721417967872,15.400200492424108,18.861041538914662,3.2941525727399497,0.14070337010708503,-13.64588687159912,23.013074905574225,16.341375681477768,2.4734219719999744,45.09802123428694,-3.916701453486967,40.77358342544917,128.6409613714268,-0.0006357055936502902,-115.30303281134923,123.86057268414497,0.0037231654453802566,107.3482308787082,-12.701521273869536,-10.96108229400626,0.0010448548135523034,-17.35737361468077,6.586626922717599,0.007454917728904307,-10.016386450478317,-10.756642873055698,6.5773399617644195,-32.04873023573502,-12.414504119825216,2.099030845607828,0.43724864005495045,3.108121955635755,7.359349654428292
-0.605676509078587,0.0,0.0,-10.839451211362395,0.0,0.0,-9.743941789973471,-5.787330982014959,24.858278316424457,8.562728537717827,5.70644070562466,-14.458429940450646,-18.047471741873508,-4.909872953421553,-0.00026704695200066423,-0.4443928916312779,0.6577568012404635,-1.1236948035793151e-05,28.479554167098474,15.601178735604089,18.282219321141735,3.1746268859181224,0.558623487322553,-13.779457439717207,22.679066776573354,16.331896863848346,2.639355281367782,44.84590338064671,-3.6838348208064837,40.74874895366887,128.60710723175885,0.0027252280698165992,-116.51506805036993,123.83745581352017,-0.0014565751082424505,109.47953826659497,-12.433690343835341,-11.629772623577539,-0.0006370955195877819,-16.913538794032608,7.265835022923455,-0.002602385035068415,-10.232518444689392,-10.831262749409387,6.182269827516487,-32.275965355318746,-12.338062255534258,1.7020711907228765,0.626148038603785,3.224301837523979,7.50752310951829
-1.257972881929656,0.0,0.0,-9.921318032712522,0.0,0.0,-9.819959293530973,-6.391209193843655,24.131416179257958,8.555825059585123,5.762048969186619,-14.487998689323549,-17.968168823857035,-4.490830718765044,0.0004932059883312595,-0.27070686106080954,0.7537114182284582,5.805447386353622e-05,28.550205975351968,15.67057410810369,18.994238224314216,2.9492703545159396,0.8231669758339699,-14.016118065880923,22.240902193252772,16.127195126869708,2.8994466976454154,44.470684009011556,-3.68235644016017,40.784712640214536,128.7333983472015,0.002068786793343295,-117.70150492957421,124.02656745326709,-0.007828415603164397,113.43159500505,-11.71347015790866,-11.914988141365445,0.003081301206778549,-17.6654304794641,8.623361053432888,-0.008854572352953862,-10.64208412715451,-11.07707447148881,5.926950890506011,-32.70842860765987,-12.47176030926148,1.369682498177664,0.764166609555269,3.3477423392490824,7.692666822716935
-0.70402,0.0,0.0,-9.13647,0.0,0.0,-10.73865,-6.24502,23.37263,8.38699,5.9471,-14.49157,-17.57329,-4.10793,0.00031,-0.12482,0.93109,6e-05,28.41039,15.67439,19.79605,2.62941,1.03554,-14.30669,21.82114,15.88321,3.31746,44.17127,-3.61653,40.76711,128.9798,-0.00727,-114.95837,124.26299,-0.00036,115.20912,-11.70801,-11.04103,-0.00454,-18.04386,9.33846,0.001,-10.71074,-11.37602,5.99041,-32.80166,-12.77218,1.31365,0.78544,3.62021,7.68796
-0.52715,0.0,0.0,-8.894420000000004,0.0,0.0,-11.394080000000002,-5.988490000000001,23.139320000000005,8.15794,5.961150000000002,-14.347330000000001,-17.197270000000003,-4.07168,-0.00059,-0.02076,1.02901,2.000000000000001e-05,28.27321,15.721920000000003,19.927370000000003,2.5400100000000005,1.1338700000000002,-14.397570000000004,21.66828,15.817320000000004,3.5084500000000003,44.16093000000001,-3.4582800000000007,40.750820000000004,129.1393,-0.007090000000000001,-111.22392,124.36944000000004,0.0037500000000000003,112.61333000000005,-12.759980000000002,-10.299630000000002,-0.00972,-18.620960000000004,8.553720000000002,0.019030000000000002,-10.472860000000003,-11.3915,6.156140000000001,-32.563590000000005,-12.847630000000002,1.4620600000000001,0.7830200000000002,3.7535800000000004,7.720220000000001
-0.7726593294673647,0.0,0.0,-8.879487234630377,0.0,0.0,-11.632468945571555,-6.0060598357568615,23.120396878503545,8.014060089304673,5.905340854314715,-14.21516120137546,-16.966177340482936,-4.126033767188544,-0.0007752631800940264,0.05961172956686969,1.0733481003010916,1.0963540197771662e-05,28.214845358845114,15.7680589929456,19.795263585803582,2.540539838120995,1.1882803901785433,-14.425979267444726,21.654401476988017,15.82676444531957,3.5780347439891087,44.215720665678354,-3.338932076526617,40.76514349079222,129.19254415994322,-0.0027632428011244584,-108.71068639326872,124.42166621361962,0.003877633709787541,109.65173265929212,-13.752921534986802,-9.955928155949714,-0.006315739739032328,-19.44060629798066,7.485741289776532,0.032375171495551094,-10.234181880081413,-11.312339358024419,6.322029805618314,-32.31641542803442,-12.835435589922781,1.647161551867027,0.7991698454129443,3.7897889198252948,7.767357201847818
-1.237494975766043,0.0,0.0,-8.953827683605713,0.0,0.0,-11.640685380882221,-6.269433494184921,23.179730406329327,7.938248078040666,5.81944642432885,-14.138845756050946,-16.813340211747953,-4.176452595913834,-0.0005318177058332627,0.14376293312393196,1.1034804399824163,1.004280142955682e-05,28.21443795983041,15.802005439421468,19.536721061777037,2.543201927445813,1.2547793971377827,-14.474065272241758,21.691427245452,15.86449639782816,3.6522083458444623,44.24864015390513,-3.230023218995531,40.81114197661262,129.15906670079005,-0.0011506186655430904,-107.09406078913673,124.46343096784902,0.0025355986514265473,106.82049672495194,-14.506480710782936,-9.776960924191226,-0.0007964524897200219,-20.419504656456176,6.353003000876834,0.027827652580811515,-9.994449525524947,-11.214680336221477,6.561829341615423,-32.0655191242841,-12.833326489049169,1.9083325110729412,0.8336111542614248,3.8045496378199184,7.78781938095857
-1.7294818684302198,0.0,0.0,-8.999597449153155,0.0,0.0,-11.518485319679911,-6.648484053665667,23.23892980668582,7.9280128107282835,5.734611114700078,-14.143655715135074,-16.73997381441595,-4.177911442968561,-0.0002092257178960963,0.21956049129004498,1.1258725861108039,9.75668397436417e-06,28.256471148074805,15.811242182559207,19.288946362425282,2.516625323750663,1.338056639830081,-14.560696459320983,21.734141934490918,15.90373258549547,3.7779298973947153,44.2110744544828,-3.108376356105017,40.89222715751796,129.0551710219731,-0.0016978166941114218,-106.421536488415,124.49391433444679,0.0008504305779934186,105.1516290602212,-14.759624256499148,-9.62014965992533,0.00681132368701347,-21.137114789909074,5.594376674038087,0.023021142368231426,-9.800218000426632,-11.135913741327393,6.86223381571143,-31.860446268222802,-12.871041509385474,2.218832398816103,0.8814434641874904,3.8193827066674992,7.765965536136291
-2.088877342647909,0.0,0.0,-8.924044714867057,0.0,0.0,-11.367870408835374,-7.017018383579327,23.235710369755015,7.974928427689019,5.673956092224645,-14.240050065014898,-16.737455432321312,-4.1038934768096365,-5.180112265902982e-05,0.27684662219856043,1.1463421776228997,3.736909942797387e-06,28.3239245688649,15.78930511312775,19.166864240928064,2.44142776475617,1.438255352447702,-14.693465804210422,21.752216012818995,15.91847118982792,3.974699678077576,44.07103591942124,-2.954764991939257,41.00700637744926,128.90573899132772,-0.0031991852683456263,-106.56787300308528,124.5126145739208,-0.0002568904858873827,105.45989298780057,-14.38691012436435,-9.36579387835543,0.015150930254275875,-21.234217230216014,5.53822170442969,0.03108218786703103,-9.688406161936348,-11.105013109388121,7.199050962503895,-31.740673238713995,-12.966510021439815,2.544993616953501,0.9385049869103737,3.8483560521264275,7.699294385650218
-2.2565905492337275,0.0,0.0,-8.715294593902614,0.0,0.0,-11.291201678561444,-7.268400672172705,23.159260022881302,8.055127245846236,5.6367651011068025,-14.396871448481594,-16.769041630256446,-3.9824568059975123,-1.786515523535415e-05,0.3116249227017194,1.1688257415337018,-1.0167328951832542e-05,28.39593794781606,15.748165885368975,19.212690275522622,2.33328326579731,1.543197634091022,-14.846530413344016,21.758181339763073,15.887515483102604,4.184696908536052,43.84666986572669,-2.7631921696365507,41.141252130837834,128.75847727385374,-0.002928503524473319,-106.94120366867968,124.52007983101227,-0.0005064256808731812,107.8634330352823,-13.655783271553322,-8.970758238999155,0.019425129513008926,-20.55803179409545,6.17004586434973,0.05080706551792799,-9.664823036726949,-11.126161229157603,7.519665872771486,-31.713240946397363,-13.104222277127032,2.836139715238695,1.0027099466511191,3.8844837310428075,7.622544543598032
-2.2918410114052197,0.0,0.0,-8.486545290397219,0.0,0.0,-11.32475821726706,-7.39286480428547,23.07412472029599,8.15647178749751,5.604996077757122,-14.577817902836449,-16.789187664065047,-3.8769523980602028,-0.00013754317342690018,0.32745097185691296,1.1963368393504166,-2.1535947917624656e-05,28.45540786915281,15.71793416772466,19.34738565805012,2.2274180415566263,1.644204664959782,-14.970437538031234,21.78132431691589,15.819320191884069,4.3387667409215,43.60032714651498,-2.5529423957672153,41.28655588524188,128.64969776628192,-0.0013968615895283674,-107.09950407222462,124.51870690724311,-0.00040169805761940705,111.43638665562972,-13.014415445902465,-8.537629544266869,0.017711525669649317,-19.360871384395626,7.073918232703507,0.060840589148685245,-9.686575594419477,-11.187735383035848,7.792033794813833,-31.735093655913257,-13.261604128761247,3.0667834409905437,1.0722161451333987,3.9169002220187816,7.57860315039141
-2.3146117735828056,0.0,0.0,-8.393455374096149,0.0,0.0,-11.447522255417669,-7.4477675297927535,23.071725070351373,8.274504063891264,5.556408504650342,-14.75302523446751,-16.75616522636009,-3.8531231763562905,-0.0004939464864133045,0.33148029110685034,1.2295317541440491,-2.0954702901301366e-05,28.48342191292392,15.734558692849719,19.431408923133304,2.1581083952468094,1.7392014621538707,-15.013080628991217,21.838893648037914,15.754106676567268,4.405451268323068,43.415490694759974,-2.356821166769291,41.448542497617034,128.59484908832144,-0.00053178175064887,-106.87365106811335,124.51019457171178,-0.000668611076434728,114.69152988883702,-12.868828552110754,-8.22692710439421,0.01243614926100382,-18.174339640222954,7.684444871848077,0.04792801310790111,-9.679376423327952,-11.265694816362116,8.012275209613975,-31.730241957015885,-13.414955391145158,3.2424857152542086,1.1418483916440096,3.9389289731091077,7.598714330538247
-2.4267222653822644,0.0,0.0,-8.510831760992529,0.0,0.0,-11.611004974004556,-7.497611255186775,23.197087142690215,8.399117062531596,5.478865916512499,-14.902444429669277,-16.645429848342676,-3.9399738145087593,-0.0010600562434540095,0.32990841460233933,1.2647772544036733,-1.5318506756335924e-05,28.45338133678196,15.82176258596919,19.360739098644796,2.135785980289515,1.8320723252518978,-14.94915823368633,21.91045173310836,15.754711613969466,4.428161347183873,43.36452890547368,-2.2031832216926257,41.64741675411445,128.58476848504208,-0.0005185846870387982,-106.34880729689246,124.49307169921842,-0.0015145229905512393,116.35280201652174,-13.354537859083164,-8.125352927761991,0.00935147423707974,-17.559505494826436,7.63036829567138,0.03514016748528639,-9.570609638770941,-11.32704535774437,8.199735307757587,-31.622876413316707,-13.540838535224482,3.3940087454355075,1.199888989084802,3.952809845960673,7.6846992050928975
-2.63830062503767,0.0,0.0,-8.72304398675858,0.0,0.0,-11.791933946182581,-7.54097572282078,23.37376101102576,8.499792787605442,5.374199068617611,-15.003519081318098,-16.46759966852702,-4.099106786410565,-0.0013509502842549799,0.3292439147508516,1.2960225292886751,-6.347328947352318e-06,28.350705332874114,15.965270465179989,19.1752198725533,2.1336402096622242,1.9260486445727385,-14.826023918806987,21.96142749187372,15.850153373347327,4.467028141515291,43.455244112343195,-2.102234191459491,41.87847507505026,128.59231163898227,-0.0005236944858148316,-105.62523884387235,124.4684598194024,-0.002302960366429154,116.39879023085749,-14.271294692741305,-8.153404314175766,0.007018183711244931,-17.60967452781167,6.998065093270348,0.02888705872352774,-9.361012910512478,-11.349185364977677,8.368070125771515,-31.411419647588076,-13.623328356327367,3.5428340614150824,1.2345829704111035,3.962983090748813,7.807637114380269
-2.903617519712491,0.0,0.0,-8.831443980649466,0.0,0.0,-11.996784528478436,-7.526400243126963,23.463061465122617,8.541181663796321,5.254211980139241,-15.03394834006476,-16.25713505383384,-4.256536748638555,-0.0010234527149122772,0.33668939948798604,1.3193735377097142,8.31684312157254e-06,28.188863863185524,16.123526464574415,19.000706728644197,2.115702616007077,2.0203431427629375,-14.73015098130559,21.966966663419154,16.01907578763677,4.550901667190296,43.637587914899356,-2.0519738621906303,42.105345652278245,128.58727269554262,3.4168688128506707e-05,-104.79778967097074,124.44298913937536,-0.0024726525455153175,115.68278846871384,-15.260500361078988,-8.16223616573756,0.003482091714219003,-18.023358763854937,6.1336807234824615,0.024055320933081513,-9.117167748879798,-11.324718822711597,8.515283666321373,-31.161825315773434,-13.654828899671003,3.6899481774142404,1.2449966742146361,3.9714742642198964,7.929167573936789
-3.164833813660463,0.0,0.0,-8.675442035658177,0.0,0.0,-12.251353743901143,-7.390202042380876,23.338304830048422,8.500631800132199,5.1355583434811605,-14.979012841401358,-16.057604514995408,-4.338858949049281,-0.0002995605732005825,0.3586346177838609,1.3357845740189147,2.9708431531173853e-05,28.016264401981665,16.24576435300901,18.97164927172189,2.0647858216799833,2.1095898235485655,-14.7418682965435,21.92533748015223,16.191966665535976,4.6553860102029265,43.82524556940719,-2.0445970007018768,42.26884754811406,128.55051500081086,0.0007531346374197846,-103.96577936162618,124.42865620510239,-0.0021474312849904596,115.35460233628507,-15.979632765446699,-8.03244781860822,0.0009438090929185495,-18.303770664145596,5.428089433348854,0.01509227161983151,-8.941692303077467,-11.260387607232007,8.622041519937262,-30.977832741090346,-13.634480838375953,3.8146458930908698,1.2471337086288738,3.976284178237338,8.021043554668381
-3.4117857411669315,0.0,0.0,-8.29227286645765,0.0,0.0,-12.554921668136977,-7.153689691690332,23.00431752829391,8.389499130088584,5.028502177472509,-14.848693714160078,-15.894252987396127,-4.326449666757418,0.0003068756680142443,0.3932771629495836,1.348295501403184,4.6321741742024206e-05,27.89419496420223,16.313504631971988,19.100637823275065,2.010497111760379,2.1904970000521082,-14.85450587329673,21.847678859698703,16.3049746006543,4.744700459361124,43.962923851369496,-2.07300322545821,42.33967079247398,128.49136605495528,0.0008813800648255421,-103.23812562935122,124.43363461149099,-0.0016887594981637598,115.74575316173164,-16.315731577851313,-7.77508759991237,0.0004463240944488342,-18.296688273093302,5.047408112063606,0.007614984164165321,-8.878285994693007,-11.161194042287185,8.668623075666103,-30.904239350845074,-13.559672756447995,3.896506950726093,1.2648719832707953,3.976835451370372,8.084427988187915
-3.635345721032148,0.0,0.0,-7.822654026110729,0.0,0.0,-12.881671064807358,-6.913209303158469,22.55555280248716,8.237115068611995,4.929387183336965,-14.662718648530063,-15.774067183142114,-4.239498388121598,0.0005213419578699007,0.43105559403476507,1.3584809569097744,4.991627081911699e-05,27.858789821197718,16.339362600466885,19.320426812677027,1.9929391226707724,2.2638282602171405,-15.011166383685458,21.749086145600828,16.330856597477887,4.802888978030788,44.044169486893544,-2.1251355411429396,42.330363659761595,128.43478134568784,0.00023475651971588106,-102.69337134367053,124.45703644199642,-0.0010644455128676874,116.47458327076772,-16.344927634573732,-7.469155581702542,0.0010070922714557633,-18.175555835980635,4.984597131831071,0.0033509306414751605,-8.895804733256195,-11.034343462524593,8.648695682947285,-30.910862347408333,-13.434748272165885,3.926782017760282,1.3077442693292638,3.9744857563356484,8.13858837590942
-3.800007050078146,0.0,0.0,-7.424326465650837,0.0,0.0,-13.1928569461774,-6.798050793052434,22.122883943575854,8.079183564457647,4.818470035972745,-14.443516713775711,-15.689868443199108,-4.120427274602175,0.00044245683153871606,0.4587032701874721,1.3673566523481215,4.301748249356188e-05,27.90446632751015,16.35446849042526,19.53343181629137,2.033971996495815,2.333183861837394,-15.145138189350234,21.64526875736692,16.286678616960696,4.838660506865027,44.103274459326336,-2.1813848920247425,42.28631501864355,128.40616293055785,-0.0006580750451123873,-102.38610673118241,124.48866358761171,-2.9471398191859425e-05,116.80150399449002,-16.25348067773491,-7.208263100990825,0.0006730599012108468,-18.282153135068203,5.134976518245725,-0.0028350474948700263,-8.907377002972641,-10.895731146862452,8.573904930438493,-30.91203846716074,-13.278714952920337,3.9102087260157914,1.3631853437923127,3.970660302975414,8.207473811805745
-3.837592149407562,0.0,0.0,-7.16211577967845,0.0,0.0,-13.465184676077298,-6.869329835503241,21.785210462737865,7.946928649936243,4.664094272356375,-14.217927770066037,-15.629616702562195,-4.005852203098782,0.0002598940840079905,0.4698025359571182,1.381973163875286,3.7263147767049694e-05,27.985891327419857,16.377462923086963,19.687032835570136,2.106255099237662,2.3997271988002016,-15.239379187839102,21.552170680066688,16.219364590354733,4.863579894154354,44.173387482276375,-2.2160112558224716,42.247896904583975,128.40614651029506,-0.001275918062005999,-102.41552998320458,124.51463224745929,0.0006818206915350506,116.41874071170741,-16.17568334625178,-7.036800579646699,-3.921625982373929e-05,-18.732464215151012,5.42256496018473,-0.011072805967729995,-8.840133635351268,-10.78004288740005,8.47073715442667,-30.83726711961702,-13.133489096476586,3.8582198528018448,1.4040008163260933,3.961813580852328,8.297073236871283
-3.7444171652636364,0.0,0.0,-7.073316863264246,0.0,0.0,-13.682792890785068,-7.102723705314226,21.585935708226607,7.873241380856729,4.445226979057143,-14.0386031037855,-15.576093988298542,-3.9307296699469365,4.501664562436279e-05,0.4652024721040597,1.4120337581779512,2.7576552543306006e-05,28.057182654055485,16.415914931742197,19.74627703921381,2.17181465386628,2.4641941919308574,-15.287984636132983,21.47418616391324,16.17894261538784,4.891360676682342,44.26127270609999,-2.2085778723227474,42.23438109790096,128.4200867320884,-0.001452256560875192,-102.89605190296555,124.5228152432907,0.0006354681822733896,115.47803623477384,-16.141335294590874,-6.9680096705253005,-0.0005309596599540936,-19.358704814413134,5.7773980461581464,-0.017584042420262787,-8.671716171825558,-10.717004871294211,8.377812773531707,-30.665712890050386,-13.040849666550054,3.795540766256569,1.4175122049926605,3.9455973044451187,8.395725416051098
-3.5945506784544805,0.0,0.0,-7.179067526282804,0.0,0.0,-13.835659694336782,-7.418561843973603,21.540764465221535,7.883615253628764,4.1694883042252195,-13.966295232775922,-15.508171419754696,-3.923717241249728,-0.00022330070280889426,0.4488309978914051,1.4619783003755527,5.721462959813818e-06,28.085640141804074,16.472181297476183,19.691575379130654,2.205281224136747,2.5276070286037684,-15.280052134009429,21.40131572789563,16.20246457938923,4.943832152149579,44.35227048376652,-2.148419606835322,42.24963270290947,128.43290482294475,-0.001224190511998962,-103.86959066739357,124.50325226267788,5.0160983709824855e-05,114.38460953179467,-16.103258998389585,-7.002022161078846,-0.0007813683601205885,-19.845154886896204,6.124051793508236,-0.018397994218100996,-8.426634345814136,-10.71232762309429,8.345246191397017,-30.421032479548046,-13.02453146542167,3.766882256233799,1.4098339043498216,3.92354846983541,8.483409740277994
-3.5084403772307478,0.0,0.0,-7.463920374009078,0.0,0.0,-13.923497856933412,-7.741061279208142,21.63669318105195,7.9761754257263275,3.8923084421638596,-14.025272362937384,-15.404873259550756,-3.993680548248824,-0.0005116194478127586,0.4210227084630605,1.5193918030685127,-6.912424852243156e-06,28.05614262609679,16.55017205719288,19.534178226258494,2.2121481766763664,2.5907335217752423,-15.197019515449266,21.31124243264224,16.297657100594,5.058251236988376,44.43058238690223,-2.0370996853257894,42.29789126546929,128.4488538906137,-0.0005138623543983656,-105.16485505867594,124.44722647805536,-0.0002970225453534575,113.45940607264811,-16.008724743923704,-7.144535515189955,-0.0011656597219762304,-19.988949407059597,6.385503591000112,-0.014576743494989244,-8.153776208567697,-10.726857929097555,8.431477772468265,-30.14729250914953,-13.06973687894569,3.8419456108358645,1.3975625167985697,3.901578399371671,8.546935609459133
-3.5445837796159783,0.0,0.0,-7.841496928935333,0.0,0.0,-13.969736787489916,-8.03763665683309,21.81215360715155,8.120896037868018,3.683737172146489,-14.172981379804545,-15.261147954510832,-4.1109869139285085,-0.0006300187581959807,0.38234670241009405,1.563209451162594,6.7020853957679745e-06,27.95955215761936,16.640129042648304,19.34176816152011,2.1959420386983814,2.647890644066675,-15.061809276446118,21.19025405785898,16.442803425213764,5.2543732266929615,44.494075212004006,-1.8841099347071886,42.382294068112714,128.482433080854,8.21412282890585e-05,-106.42312515021449,124.35431700667611,6.275392516201159e-05,112.93859750168717,-15.860055699414513,-7.393086952324635,-0.0014703998224711286,-19.824319762624896,6.573537255546378,-0.00807692569703311,-7.897711489624354,-10.69871591029863,8.665067211764068,-29.882639243104187,-13.12957840137236,4.071289647577942,1.381342501474708,3.8778431119976595,8.581506203231854
-3.703694468501178,0.0,0.0,-8.2348960574609,0.0,0.0,-14.008370421612602,-8.305509399550845,21.991784870735145,8.287785780054527,3.584851653183716,-14.343585668104788,-15.092498296901116,-4.224943716153403,-0.0004449144890154228,0.3381959644107426,1.5774970771566317,3.667524150880282e-05,27.799783950790214,16.716573687322196,19.19183440385757,2.14773195710162,2.6901112663697275,-14.930548734535279,21.041170072704904,16.599383021402886,5.515876428342377,44.54450117750274,-1.7064375672304883,42.49355956784708,128.54248146620512,-7.522467572305837e-05,-107.2490820124075,124.24165027198374,0.0004795809096289732,113.01589610362464,-15.701198108006977,-7.713803167192493,-0.001267979935378821,-19.49215227839308,6.781823682006709,-1.8966159309258962e-05,-7.691617568850208,-10.578591379968005,9.020512755499404,-29.65606240801492,-13.148900840926919,4.4501030732564395,1.3499657824247169,3.8435303213545864,8.583620058092858
-3.953458319477193,0.0,0.0,-8.661247434394486,0.0,0.0,-14.06628976545672,-8.547154249265626,22.128951297756924,8.47392887770859,3.5688789849757097,-14.501835415112502,-14.935164797796121,-4.289108977842243,-0.00010378953559464576,0.301825455318568,1.5646189630282599,4.0270393930322524e-05,27.605267699678823,16.742591856294254,19.114301975605564,2.046167337079356,2.7108729135542573,-14.868456763833192,20.886656786225668,16.727204075409972,5.780785180361561,44.5746631362183,-1.5293552402680832,42.60019148334053,128.61769935849756,-0.0008111893159512857,-107.38423765689667,124.15065460848923,-0.0010725212736152118,113.84895021725181,-15.58598655886281,-8.020477286161936,-0.0005167542713192277,-19.07622048773548,7.149434902160296,0.009800753916393044,-7.554664460890385,-10.36616648287828,9.403502657774252,-29.48876890375765,-13.092642515037634,4.890308257910037,1.2928423552005586,3.788330306315801,8.544540565410589
-4.253171742490126,0.0,0.0,-9.17700624433108,0.0,0.0,-14.152542736292185,-8.73790069904011,22.22151492718035,8.684706034443192,3.563380040775749,-14.664914557032038,-14.824853907169027,-4.290950551144143,0.0001285340719445498,0.2853220055008497,1.5432599984587627,2.225129911474221e-05,27.430838505137288,16.698890520640123,19.071358358656852,1.891685412131272,2.714499130045507,-14.899101077305687,20.754142867488984,16.803843872684773,5.983303477750133,44.569122723111086,-1.3844070793808525,42.66684355604893,128.68337075386526,-0.0010058210998388532,-106.83690528666719,124.12677879657981,-0.004785426727470859,115.36185241675433,-15.521324407141405,-8.199319331989157,0.00029750570240398555,-18.539343687010376,7.748916537956768,0.01945081300375896,-7.494257052139784,-10.122295529931765,9.701827900922556,-29.397339215880994,-12.97599406048291,5.263299694520614,1.2234717892922746,3.717374524867252,8.457317776547137
-4.531763382854361,0.0,0.0,-9.741838477301185,0.0,0.0,-14.273445677261911,-8.84633359012023,22.27422278724143,8.900476938827424,3.512391915513792,-14.859320276567484,-14.779449940485344,-4.244671393860639,0.00013404545110735862,0.2927362853301381,1.535173211458599,9.938840011106838e-06,27.33272067647061,16.595202531004038,19.012423582659157,1.7141205260488117,2.7123950012655507,-15.006554958008891,20.663315232402052,16.824611421985253,6.0858909627606135,44.52045876231196,-1.2991723193850895,42.67523885663035,128.71894074635037,-0.00019935030900819424,-105.83337874711289,124.18897523274825,-0.008131862635654762,117.20076983191288,-15.474582550644676,-8.183756691978992,0.0007729352888912208,-17.873871162237528,8.539343697194925,0.02453900463645292,-7.505173374283527,-9.929399223645099,9.838161129193207,-29.3869281148217,-12.847063468044162,5.464892318695515,1.1711165833668393,3.6493886586821236,8.327629607658789
-4.688343715095933,0.0,0.0,-10.169292522732224,0.0,0.0,-14.440246055967693,-8.857212448501238,22.276923828186916,9.06772306390957,3.417945884610451,-15.088981327205667,-14.789786862628894,-4.181969289160796,4.2458746724813594e-05,0.3169429129444974,1.5541265316712392,2.2201714616794528e-05,27.345972707398076,16.471826046434174,18.912835857440037,1.5675478060449104,2.7187935532142156,-15.146408942041619,20.619094361054177,16.79971849438101,6.0946030433093465,44.43900555105332,-1.287410680846445,42.635627691734875,128.71861470799954,0.0007015797611704352,-104.74512401174391,124.31249867937763,-0.007201862456035111,118.78869755218636,-15.39736905630462,-8.00368890818819,0.0008804731067232187,-17.202546378924275,9.35778998292947,0.020539552984233142,-7.568929908737506,-9.85404640953221,9.801189587225764,-29.445629596523762,-12.763562572651276,5.459028471283608,1.167757911463481,3.6104817101729356,8.178351713453115
-4.666318690572703,0.0,0.0,-10.287398648439048,0.0,0.0,-14.65761642476607,-8.800502613101159,22.21836917216839,9.149461996063847,3.3467372646844256,-15.32451067369996,-14.825311836937873,-4.136649370447967,-2.425768378262805e-05,0.3438135265937765,1.5948974692021645,3.369308004561848e-05,27.459877212205363,16.378448946432425,18.782341516325978,1.4941850803330505,2.744464006259964,-15.277200566156147,20.61289972668401,16.74546034789414,6.044201717524664,44.347985348351614,-1.3368015969051052,42.580191348419135,128.68917854026992,0.00092037309170612,-103.910701535437,124.43975095123675,-0.0036060705059735806,119.66071562354361,-15.29150551904232,-7.782443945925819,0.0005182639577041561,-16.76149531092725,10.001082211490836,0.011867765131128154,-7.657553773775917,-9.8997312282492,9.640905191515149,-29.5437799910189,-12.747103729011156,5.291330576033222,1.2217232968506369,3.6164364611165505,8.03886493412835
-4.506332945739734,0.0,0.0,-10.087164009632067,0.0,0.0,-14.907180994917317,-8.73035284229744,22.109492022046354,9.15880617605896,3.3694102359960567,-15.523721760970128,-14.854858521501097,-4.132532738396981,-4.069210246299773e-05,0.3569980146124584,1.6381453135265815,4.085637006211667e-05,27.628687891170827,16.349610602896693,18.63801792376661,1.5053548976667206,2.793346799656329,-15.37634986107926,20.628159796577215,16.68558250275918,5.977588224783481,44.27106470031509,-1.4163419044856735,42.54637586898567,128.63652856237815,0.0005588042321339577,-103.45471844002718,124.52120027082094,-0.0006759223705848677,119.67219151537317,-15.21485105486329,-7.62697321952192,4.406403705752995e-05,-16.73803369161644,10.372070026177534,0.004293976856638366,-7.7484689142305045,-10.020427129956966,9.428066116431284,-29.65215116559181,-12.780929121972404,5.04574760606467,1.3175446346299031,3.6666221361818305,7.929198945700502
-4.3379321661948556,0.0,0.0,-9.72772046508869,0.0,0.0,-15.148950100383914,-8.70557786804129,21.987227719572743,9.151439733101252,3.520772229883121,-15.650007077109969,-14.857964406443925,-4.177479755567817,-5.901429910422418e-05,0.3416790733194602,1.6599821600783766,6.640126116371558e-05,27.789964818904004,16.3944971963751,18.48812624027001,1.5828783308680312,2.8606747382017446,-15.439012842986811,20.64373582681246,16.64887649692637,5.937735186326767,44.22640360283318,-1.4860392122820119,42.565049828033374,128.5630596898966,0.00035946712014375983,-103.24825082028319,124.5374989996797,-0.0005723585743843181,119.02536985320268,-15.249555210743964,-7.575659934023937,0.00012788289363219454,-17.18325983217766,10.540369616456163,0.0003355920978781147,-7.830459483876998,-10.144363716887058,9.229183700917389,-29.75111018138476,-12.82283811125573,4.8120112538497235,1.4250718597306762,3.7445280283855102,7.855695743685984
-4.3047773341732,0.0,0.0,-9.404985876389395,0.0,0.0,-15.342462711630597,-8.762334154096116,21.899698287018992,9.174308174858586,3.762287429377731,-15.698526991663494,-14.832781059608529,-4.259862746371304,-9.133326861410842e-05,0.29032184545294926,1.6510377257298061,0.00010185883876434582,27.900071451650813,16.495170778298874,18.319703832063244,1.699869014992946,2.932012714500809,-15.461196320861566,20.637823460100698,16.659116829343247,5.965555717510505,44.223281571061904,-1.5140208192063256,42.64604534786956,128.4751435040468,0.0004717255061637033,-102.99971264784126,124.51411451658956,-0.0015581948325754504,118.13679209414576,-15.416266021404823,-7.581551928267033,0.0008006423408983474,-17.955270969359045,10.742927503879288,-0.00339982729119525,-7.90288827724598,-10.219754107278977,9.082785330965384,-29.83451740162537,-12.838971004328686,4.6460437247905055,1.5213518562547137,3.824993929738349,7.8155463820659
-4.48396746001169,0.0,0.0,-9.242449601535517,0.0,0.0,-15.471271202290186,-8.906126954008633,21.875214325695893,9.234737957770278,4.022689300509731,-15.702347137851781,-14.786636954278464,-4.359796143654823,-0.00011019457458507835,0.2104239874461492,1.6200860127719308,0.00010580360840120285,27.949708886549743,16.625357220759668,18.114292299860008,1.8332915242105452,2.995844247540246,-15.43417931751662,20.595080520771383,16.710885756920963,6.088249395075023,44.25942067232384,-1.484785070374544,42.77429009653451,128.39432840556594,0.0005436175868732214,-102.5774715281267,124.49649276172372,-0.002439341983096312,117.39985099498742,-15.62523262577085,-7.606926610441825,0.0013599340788725993,-18.798771779806856,11.189462224208558,-0.005143551356040756,-7.956852517422498,-10.241324791360812,9.001040671044992,-29.892798741913676,-12.828930364475244,4.561250727336284,1.5962723632895297,3.8890270287863404,7.804657369653633
-4.863254293606756,0.0,0.0,-9.266805409178287,0.0,0.0,-15.546314883127184,-9.115308508681224,21.902317286990193,9.305332462406135,4.2390091668440615,-15.707975905020202,-14.729346818103606,-4.455274978864322,-8.357329349366072e-05,0.1230249227477756,1.5836594821445567,4.945830841850419e-05,27.953747107593244,16.761197778246302,17.873947810614283,1.961404564751115,3.050881947217186,-15.359268061583972,20.511239611874874,16.77061807760217,6.307244353062414,44.32381255712089,-1.3996726593189994,42.91795047168253,128.35191064566772,0.0005553630793209033,-102.1026348706751,124.52408287952069,-0.0030595578176285955,117.05076330682961,-15.719828324312424,-7.665170037410184,0.0005798309031103083,-19.45203477900641,11.943504619075412,-0.0009510047447899603,-7.972304658023224,-10.242618006823335,8.974295244934966,-29.909163194023108,-12.820292970543532,4.535720022510054,1.6467296039931505,3.9299693565443823,7.8177451250215775
-5.338331592305845,0.0,0.0,-9.411309053130877,0.0,0.0,-15.600786249137043,-9.350170422048313,21.91450619268517,9.344303194550118,4.4014994399741445,-15.735825795930635,-14.667018317997075,-4.528075586110142,-2.384680496154519e-05,0.056056548819588645,1.5491121723851735,-2.1733947101425582e-05,27.930787706941242,16.8903163212045,17.651801357322906,2.0572434351025244,3.1113808331303274,-15.270774590427694,20.398129450517224,16.790356649036184,6.5834463767993805,44.401883021144634,-1.2748182428596928,43.0431750198338,128.37419088846048,0.0017465547232406065,-101.94583884143891,124.59923178376616,-0.003300677526625751,117.05786916082384,-15.571055295443696,-7.8426432159459445,-0.002648286769390484,-19.784447257030333,12.821668700584306,0.006754209544090201,-7.923111327057467,-10.271277537452432,8.976114198174841,-29.862356373058454,-12.847548434598403,4.52644394130674,1.6673971289596063,3.9567028921654246,7.845589235312928
-5.792939025782505,0.0,0.0,-9.586849969232652,0.0,0.0,-15.66219705823108,-9.580070179752695,21.849023046522213,9.331463773866046,4.530353296237291,-15.774747118247769,-14.603020354763586,-4.572360916526885,3.460695946333471e-05,0.023633240484152686,1.5117680945482848,-7.049201244639094e-05,27.893537993107124,17.00867829506525,17.509343223076545,2.1046343464624266,3.191305312326852,-15.213445263267117,20.280810398759428,16.749896124842564,6.850723177016654,44.47969500397154,-1.1307856427395213,43.13250940532868,128.4592367635713,0.003851266779784732,-102.37441349037145,124.68482592608149,-0.002679485674970133,117.28208844428949,-15.197987495163117,-8.217484764690287,-0.006556553101538453,-19.83171127403924,13.555755827102319,0.012035781119076886,-7.801993584285922,-10.336738642210483,8.971038183355859,-29.74698870043034,-12.906401509908775,4.496595996066425,1.6596020825334188,3.9796849352538746,7.8770397731476995
-6.150475419116659,0.0,0.0,-9.744199599744286,0.0,0.0,-15.74120530975511,-9.79569544697096,21.6867366401647,9.279403968417654,4.637033292919254,-15.813037107401282,-14.540710374624748,-4.593935718898239,5.990754375239212e-05,0.021160557706791205,1.46715365821721,-8.136977186930518e-05,27.85285611003035,17.11557713278132,17.47415944907566,2.10640573969105,3.2935436490797807,-15.208499317337601,20.188024356003016,16.66060894491921,7.046871224087493,44.542739339178716,-0.984896839916385,43.18691981082955,128.57890851145982,0.005218153336216302,-103.38601537920563,124.73210882507318,-0.000819865008056899,117.65754496347184,-14.729625636448842,-8.800319463119228,-0.008142412554861684,-19.70488817583584,13.970436819592011,0.011714612933693804,-7.625496059044821,-10.404503071035988,8.929704852840407,-29.577516309242377,-12.954050348744486,4.431912247138299,1.63595883895675,4.00255531841759,7.902830724443547
-6.40444261845855,0.0,0.0,-9.907994318582313,0.0,0.0,-15.829303685668833,-10.011697327680572,21.471094353570084,9.23231399170682,4.695724709341593,-15.863778316241884,-14.486228856778707,-4.605441773251704,4.3027135579875465e-05,0.02596256657851354,1.4226719612164176,-6.24731215997207e-05,27.82094525859374,17.20964760460475,17.515172863188244,2.086431114047934,3.4031027264202645,-15.229840975067745,20.141762242105298,16.558926055067953,7.14415260368907,44.57657782558582,-0.8463344808894722,43.22473797970531,128.68709511183758,0.003920657374439989,-104.63520761465487,124.71024868690942,0.0019375408684594124,118.30132933093631,-14.3318701808024,-9.49452904835813,-0.005627943095340949,-19.506009733231206,14.117637140048462,0.009436607456133509,-7.432281052050159,-10.407152319301488,8.844684547554765,-29.38698061686099,-12.925247105449557,4.351316975533316,1.6198209884399406,4.0179750923098965,7.918628368981152
-6.571378890305221,0.0,0.0,-10.086746603865818,0.0,0.0,-15.926888231832889,-10.231680999921977,21.23859791779268,9.218008797731132,4.669470677550093,-15.940291239779073,-14.450593588897036,-4.606394010166454,1.5837717620621682e-06,0.016749084347327973,1.3960042534474366,-4.571378967560624e-05,27.801215497564538,17.28847651215415,17.601883288258907,2.063998028433118,3.4968889055466774,-15.239683438799037,20.14531850662591,16.472847630779974,7.166238563463803,44.580185092570005,-0.7214492221432204,43.27236348480237,128.74661441774734,0.0013108201824148715,-105.70821977455915,124.62836768535477,0.004049785683673656,119.29223957023522,-14.058460601531952,-10.145335351497028,-0.0015061644667199552,-19.32682273073171,14.194522048139271,0.0072115568177995235,-7.258638942240792,-10.30922456719436,8.742491789679924,-29.207916600363184,-12.79684371877174,4.293226558079727,1.621390155919005,4.019051145344254,7.922990714940032
-6.686126584085697,0.0,0.0,-10.250629235317621,0.0,0.0,-16.044420223234752,-10.43427300485225,21.00367274507555,9.231398609709542,4.549269524869556,-16.030943260572478,-14.44593270106461,-4.590633133299149,-4.842243511953378e-05,-0.01551859484550859,1.3994498661622687,-4.9655572232645245e-05,27.787839507560527,17.35237423870251,17.72057476916939,2.0456490155899467,3.55795387441533,-15.223322043328482,20.187474955517345,16.414686343694086,7.160333854218802,44.56923700215056,-0.6205302210728055,43.35328370125182,128.74027001645123,-0.0004566356299897432,-106.33187923431075,124.52102582399974,0.004050404549683032,120.49702352239967,-13.876825119844195,-10.604918254883177,0.0016112449144093776,-19.27557714797493,14.377888882325284,0.004287742916464668,-7.123448370007269,-10.130802517330489,8.668175293790025,-29.059792467080218,-12.604018141598578,4.292042035869327,1.6321761810498332,4.007923498874335,7.914612794543672
-6.802608588403966,0.0,0.0,-10.347858903933117,0.0,0.0,-16.19641762091373,-10.575791208852188,20.76512039633519,9.2381801447787,4.36991146910663,-16.093110807088756,-14.479780693097188,-4.556479173810282,-9.48097839602514e-05,-0.0637484793804592,1.4306347932196626,-6.108367205587822e-05,27.76794486496075,17.405693963851284,17.86897429362479,2.0243058665520897,3.5830872857481038,-15.202703604277525,20.248329889703367,16.38088230771129,7.172541479084433,44.57117045516853,-0.5602296353047129,43.47870273387227,128.6750079798145,-0.0003245853585868209,-106.45863950677054,124.43394105458819,0.0016701042035395198,121.566361610684,-13.720179312241923,-10.77381922898662,0.003100514610501693,-19.462958658443714,14.737318098406206,-0.001658777032406039,-7.022573768729502,-9.944500391296161,8.66996296466387,-28.943431622768557,-12.431848842749751,4.364978288279055,1.6278131021933147,3.996835196300724,7.89172655042258
-6.988942461031374,0.0,0.0,-10.390815678722376,0.0,0.0,-16.38328945113441,-10.624127792251777,20.545446850348274,9.216023927021046,4.186864241596288,-16.08194277574265,-14.5429914183399,-4.523119283149072,-8.452829894190032e-05,-0.11103505768227953,1.472313819255334,-4.9143074779157517e-05,27.72964610952654,17.45321443698633,18.016728590850114,1.9891593275113244,3.5818508467166996,-15.217675231985538,20.3110511540984,16.36113890066809,7.217230400865916,44.60109011713524,-0.5586995344684036,43.6349953359214,128.57677759997475,0.0006722579882371374,-106.18256721879429,124.40291252781876,-0.0010283893808382086,122.25743182087051,-13.598583841217856,-10.626986392160283,0.002787709344151546,-19.89718885205402,15.245648114168542,-0.009515624847287204,-6.937348072346673,-9.821506276132725,8.775147949064777,-28.845026394357294,-12.356415533489567,4.510410852924828,1.587290655285913,3.995474421091337,7.85514732174827
-7.2498560739005615,0.0,0.0,-10.413682342198488,0.0,0.0,-16.605250199921592,-10.568238735303742,20.35629543447874,9.166988806484499,4.031807073185368,-15.975720189000425,-14.61411383302731,-4.511122865305245,-2.456770742359763e-05,-0.1439175840601386,1.5078237353666635,-1.740254419268427e-05,27.66707837124822,17.49564024952326,18.130462227289247,1.9326238608913302,3.5674826229181646,-15.299014639648194,20.362017507826735,16.34323412493061,7.283253546873464,44.65220920199796,-0.6271246254186471,43.786719021572864,128.47922759144106,0.0012484206881322965,-105.64233078585623,124.43936446786401,-0.0024125269840454275,122.54223210593716,-13.572141743440275,-10.223851592962957,0.0008069180227374569,-20.505325873430312,15.787419440315677,-0.014668344719217878,-6.852080215413631,-9.79309797515292,8.977994586603026,-28.751276292853333,-12.404623364968765,4.711128028661586,1.5053914916078037,4.0034421946279375,7.8104472622928505
-7.506617657739938,0.0,0.0,-10.43340097713076,0.0,0.0,-16.86447288843339,-10.423380497462093,20.183867296010593,9.11174300287448,3.9041865978629753,-15.789418148510038,-14.670849768320949,-4.529090896370723,2.244905341465789e-05,-0.15936267913200453,1.527269134225285,4.625818087094908e-06,27.586859132295153,17.53146115778631,18.19073480975894,1.8565240047877634,3.5543395120630565,-15.451853631404603,20.390784999251316,16.31753725770803,7.3435967274552505,44.70102457091177,-0.7646917616443758,43.88625949492103,128.4133770977412,0.0007916005508597999,-104.96231062877828,124.52472895479048,-0.002434818249552744,122.48933739640279,-13.712973834592308,-9.693857299715873,-0.0020410724485881797,-21.194810853441435,16.150486150898473,-0.010501125101367876,-6.762736048272816,-9.847594694709807,9.235858184512136,-28.658246976436217,-12.549949082784313,4.931764740760699,1.3962943117337931,4.013669808863226,7.767484044513072
-7.619767377050718,0.0,0.0,-10.404225909094444,0.0,0.0,-17.156640215380445,-10.236957225311478,19.988749014101842,9.068356235814672,3.788508939705748,-15.584791965715844,-14.711899880746582,-4.560906541579285,2.7136315190392787e-05,-0.1694917760818198,1.5288250362997775,1.8391659077605047e-05,27.518304897646118,17.564417749385523,18.206964258773688,1.7803430102675348,3.558827814872101,-15.639971926150466,20.39174037615917,16.283580350317884,7.370469889154117,44.72599450148577,-0.9538981589703551,43.89419188348752,128.39209400192595,-0.00011928041635903408,-104.19223754243154,124.61002874659876,-0.002871274757304552,121.93894055665837,-14.04679708497665,-9.192863393868755,-0.0036472726900326543,-21.965196525208057,16.01758683272523,0.007730867702529881,-6.682864096974239,-9.951878803034601,9.470259411359812,-28.579348096332126,-12.7328262183515,5.111482558168724,1.291870421221822,4.025396780637097,7.737777995660607
-7.4991380261444,0.0,0.0,-10.277750647465934,0.0,0.0,-17.455159285666237,-10.075332662945666,19.753071237130317,9.039575877468256,3.693714994031594,-15.433365639663444,-14.757771061533866,-4.583088653566182,-2.6187018207775662e-05,-0.18738395628417764,1.5112836431596,3.38383387753577e-05,27.4991192223946,17.603012082556727,18.195711164984292,1.7289294824341637,3.5939165731540745,-15.811673193845825,20.376851837805205,16.245344227873233,7.339277848520964,44.721618194742746,-1.1676908439402944,43.80222015736252,128.4014293653108,-0.0006470129104570182,-103.31873668611748,124.64950116989789,-0.005309522054986446,120.59478222047422,-14.552706292395943,-8.828533433323054,-0.003126550188606046,-22.858084761429254,15.193808769615556,0.03416942351829803,-6.635924824747699,-10.076569177248707,9.598426798157679,-28.538638861252657,-12.895595421637738,5.183888429890216,1.2226865451604554,4.046128347694188,7.732958692545964
-7.139164271308396,0.0,0.0,-10.048731558023308,0.0,0.0,-17.725214702837917,-9.9908399454616,19.484949217678878,9.01867856651595,3.6487446461717914,-15.380540261776689,-14.834875383842892,-4.5783357246114855,-0.00012607659865319427,-0.21850164676035524,1.4744563888997098,4.944025150713043e-05,27.555627584497806,17.653800824260202,18.171603126954626,1.7186221563497524,3.6619576679502472,-15.927717373522256,20.373275513085282,16.203039678224435,7.234264393123585,44.696029296497784,-1.3779218781500404,43.6368978125776,128.40923117474324,-0.00045631901783733833,-102.36568390537451,124.62271388877731,-0.009087527628838542,118.32454464629895,-15.163203685445128,-8.64618712192024,-0.0011786043440352525,-23.892997218721042,13.751607628035938,0.053548335512941046,-6.643768924199712,-10.198526709459594,9.564351185042046,-28.55810275405514,-12.99622300463431,5.1052704075247295,1.2062576621056995,4.083226865692639,7.762658485625292
-6.633628177529754,0.0,0.0,-9.797823550165466,0.0,0.0,-17.948464368791207,-9.982034977154855,19.209786245700062,9.002331488445767,3.681060841066247,-15.410015053328086,-14.952683245736186,-4.548371641440565,-0.0002120662006145977,-0.2545694671465118,1.4227421080105844,3.930490142533794e-05,27.68021644080212,17.712212214223534,18.14102312123663,1.7430763690069824,3.7465006900973195,-15.989300297973713,20.413114364671486,16.144821218419125,7.05835047493807,44.66272883442233,-1.5643617291058345,43.45699570700432,128.38141163063088,-0.00032647255156209934,-101.51672185727975,124.55330371166792,-0.009897200581224832,115.54122843696213,-15.763804415228593,-8.627913695340574,0.0003553179422888914,-25.00246211834883,12.147612833521352,0.04779687298856433,-6.711626140312262,-10.297404666492278,9.374543585158488,-28.640717530472184,-13.018215919046296,4.889549894065111,1.2372638917602499,4.131858281957977,7.830464197661702
-6.123210844953455,0.0,0.0,-9.656813509155771,0.0,0.0,-18.132550161280218,-10.012715847239521,18.953070067175062,9.004879043995814,3.7796001273061717,-15.475320956874695,-15.092051963599374,-4.508898337680012,-0.00022139780923844513,-0.2869047544065875,1.3691963256544768,9.77591102855342e-06,27.838496668295395,17.76221532467306,18.09701033707433,1.7855646254678952,3.8190094807565806,-16.01498567069114,20.501303769535806,16.05992523986857,6.850351978745326,44.62571893825103,-1.7134024435614428,43.32409446430645,128.30839601676138,-0.0008531061813824409,-101.00917893717896,124.48428910464244,-0.007111908729699299,113.10555190263881,-16.226602801924628,-8.702149271237188,0.0005475733615684649,-26.090086331669784,10.963064692460446,0.018974457877275835,-6.816801189566588,-10.3572506101818,9.10239217943499,-28.759591442175626,-12.973714369586805,4.61171508510848,1.2991341884305962,4.17468642060324,7.923347840958511
-5.75130922856762,0.0,0.0,-9.725652304177858,0.0,0.0,-18.292387895462713,-10.045703722527028,18.731694865033255,9.045867315299999,3.9032124271312214,-15.53303769786153,-15.21898310375253,-4.4772944012555245,-0.00015756198356709034,-0.31285765991702374,1.330400668516168,-1.7706557947852392e-05,27.98956766745921,17.784526263652936,18.029083378660527,1.8314452150733107,3.852301957092361,-16.0216221633361,20.61245784511472,15.953333451331263,6.675530323393817,44.57784340920514,-1.8139906918624298,43.27971201340698,128.20573196284397,-0.001738263954199277,-100.93924716265032,124.44928231328375,-0.0032055594393739324,111.84276330044389,-16.45323273506185,-8.76252350351203,-0.0001278433816122933,-27.055076089538066,10.609202420524113,-0.014898645363030321,-6.921483313378216,-10.37518658373971,8.849936858481739,-28.87330477492079,-12.897538423896465,4.368503474652933,1.3758250389302629,4.192626882088398,8.011299730166687
-5.617840899569652,0.0,0.0,-10.001621620650338,0.0,0.0,-18.43435404683253,-10.06304177433703,18.547442476637567,9.134717666111076,3.9998979730692654,-15.567075976012985,-15.302413263235321,-4.463606520959886,-0.00011150123193158485,-0.3376317236063787,1.3198502464573454,-2.9179483853449213e-05,28.105212583267903,17.766737262910286,17.932965694858098,1.8764278221017943,3.833521292573346,-16.01312767713009,20.697707349136827,15.852672966776552,6.603088860951188,44.504630556296995,-1.858197255783008,43.3268141121175,128.1069703533757,-0.0017629230152780982,-101.15234159754463,124.45379582735683,-0.0015473775324130123,112.08577510508175,-16.408721488075965,-8.703375907860954,-0.00013843693874489947,-27.79580999102259,11.103401836184181,-0.030646794578232713,-6.98874517795995,-10.366363008118764,8.704757448681791,-28.943962328643014,-12.835963725618313,4.23601649751225,1.460337058215377,4.176076030483659,8.05461029410452
-5.702466411410428,0.0,0.0,-10.36194943995039,0.0,0.0,-18.557635960825138,-10.040910401084387,18.383505474418364,9.25371877022024,4.054273722715777,-15.590837584898516,-15.343203844879369,-4.472520713755343,-9.533349424836651e-05,-0.3632685766004814,1.3379148695082008,-2.948729582599127e-05,28.187944977776368,17.72004258111836,17.816323223357184,1.923305966069784,3.776129251507098,-15.989088962392213,20.7220695251005,15.785069001913936,6.6370723630000485,44.40449199016409,-1.8579673151941072,43.422695784188484,128.03352122678535,-0.0010075834508664467,-101.48015059621486,124.48876011872815,-0.0014505264191416217,113.3677024034543,-16.121117852080793,-8.532330820351469,0.0002498689896495788,-28.16747812391496,12.07949376490385,-0.027154599826445393,-7.007034240853385,-10.349223692762003,8.677761512340044,-28.961494281392618,-12.81013113673353,4.217336120729724,1.5554586177162606,4.136304277010451,8.039949126058893
-5.94296,0.0,0.0,-10.64395,0.0,0.0,-18.65911,-9.95276,18.21687,9.37572,4.06448,-15.62746,-15.35361,-4.50703,-9e-05,-0.39042,1.38034,-3e-05,28.25093,17.66391,17.69092,1.97709,3.7026,-15.94795,20.65631,15.77674,6.75795,44.28071,-1.8323,43.50945,128.00185,-5e-05,-101.75747,124.54076,-0.00074,114.94962,-15.63912,-8.29776,9e-05,-28.00975,13.0459,-0.01141,-6.9739,-10.34282,8.75273,-28.92573,-12.83177,4.28993,1.66721,4.09179,7.96379
-6.29656,0.0,0.0,-10.80641,0.0,0.0,-18.753980000000002,-9.698100000000002,18.000120000000003,9.51241,4.054280000000001,-15.781860000000002,-15.393800000000002,-4.617460000000001,0.00011,-0.42818000000000006,1.45927,-1.0000000000000004e-05,28.37418,17.639950000000002,17.473420000000008,2.08334,3.631840000000001,-15.826350000000005,20.432450000000003,15.841330000000005,6.89747,44.11209000000001,-1.8372200000000003,43.50569000000001,128.00911000000002,0.0006,-102.21639,124.66180000000003,0.0032300000000000002,116.12431,-14.811310000000002,-8.08502,-0.0014800000000000002,-26.838400000000004,13.760600000000004,-0.005200000000000001,-6.861380000000001,-10.334200000000001,8.90787,-28.808010000000003,-12.880820000000002,4.438440000000001,1.8646100000000005,4.069380000000001,7.843920000000001
-6.732473314191194,0.0,0.0,-11.031280684905296,0.0,0.0,-18.647185817215068,-9.417853047883384,17.97008228017345,9.575515704578077,3.918433159694133,-16.26649904739194,-15.626224310375381,-4.939931020136816,0.0003598241168070064,-0.5299616185456895,1.5845561453098411,-2.1575607742743042e-05,28.684280529568483,17.883146410812152,17.049848681298414,2.379895636295312,3.6719479602578904,-15.40608415641182,19.921675425536392,16.000669719830476,6.862241243210465,44.00558945864664,-2.034557903606847,43.20592991334419,128.16984390235137,-0.0005928206390675839,-102.90854340299055,124.98979593189887,0.006467175750108213,114.31742286369602,-13.825672260204438,-8.094529947492319,-0.00039906832136417175,-23.53644881975182,13.413587450907936,-0.003180766509255425,-6.570951428166703,-10.269060897220445,9.115785958867939,-28.50578467961973,-12.896834910781092,4.658050147009501,2.2238487359563512,4.162652204537186,7.903875632956895
-6.6341719318723715,0.0,0.0,-10.760424279301175,0.0,0.0,-18.717466748855013,-9.902677928181223,17.93596001656836,9.240420520490504,3.6052168750887925,-16.023760401727763,-15.611793435770599,-5.015748400462572,0.00016744366350140492,-0.6367407756629608,1.6098805296941225,6.704635706973155e-06,28.452092620335716,18.156094177630926,17.48685988438783,2.4280391746647427,3.7064104235096456,-15.478875031581254,19.713348201425287,16.115037182427592,7.195378082773113,44.13236292347828,-1.9489658454621248,43.376588709686864,128.49008908534688,-1.6027137933050643e-05,-103.13807716622135,124.96556545950112,-0.00038643468290916195,113.08255220889345,-13.640677634005186,-8.291912343029292,0.000495545141354876,-21.862979363527636,12.587523924364437,0.012054104274073415,-6.441695424239272,-10.274683464720097,9.292947800854083,-28.371459996926575,-12.967163098340281,4.821821933577514,2.181486562890069,4.162179820027167,8.062162349183993
-6.520082107566505,0.0,0.0,-10.026900145887419,0.0,0.0,-19.256283884275806,-9.884707789789879,17.394378818577366,9.049078977177242,3.373426768278369,-15.336823158196617,-15.357187494852784,-4.966736653127174,3.1641498404458144e-05,-0.7180420992496588,1.544261868570486,3.307971313382468e-05,28.105072247327154,18.30356333796796,18.057127748299344,2.3444111731414368,3.794787026573436,-16.09070180715483,19.700567437841357,16.239453913577787,7.652162373378474,44.02753968385715,-1.7881238863875575,43.6452198303667,128.7547894361137,0.0011084205745167056,-104.81223763426182,124.73794222975835,-0.0013155281913898955,112.79066374694219,-13.433782953559565,-9.34547147359287,-0.0010345369465516883,-22.641619149632447,11.792954498861187,0.007572942300449191,-6.390026967297573,-10.091459262775738,9.4430301671536,-28.299243418045894,-12.852330714497473,5.032584630090245,2.146190841909123,4.128622718424301,8.012953166283307
-7.0048872094158385,0.0,0.0,-10.648823686594064,0.0,0.0,-19.386929655484625,-9.592218923402704,17.207913113967418,9.199682458329388,3.3450130668490843,-15.457313731354855,-15.359720026119025,-5.08038378749625,0.00011764857161219841,-0.7729641461535895,1.4366341786874681,-2.9887349975547634e-05,28.305696893921905,18.4694689091271,17.682376333415704,2.4842154218278965,4.007899860689602,-16.13491117926559,20.028909487720167,16.253288237288128,7.643163979370199,43.803058788148455,-2.02609602810341,43.22408521102724,128.78594130234862,-0.0005788979500869433,-106.47464357691673,124.80463494558867,-0.0009654539786906343,113.03266045344601,-12.949119282346532,-10.497042833338979,-0.00244574779054048,-22.7030834717018,11.891834614923496,-0.003262064234027306,-6.16748552366039,-9.813693244201465,9.307492465410283,-28.057837530552575,-12.544813242507509,5.011817333498505,2.362371955628203,4.218623232971359,8.106502778434237
-6.648922402492068,0.0,0.0,-10.363150180992134,0.0,0.0,-19.716545440141445,-9.149498076833478,16.880468504440056,8.99138623660975,3.567489377149043,-15.676211335005654,-15.443526572076113,-5.030532226609128,5.2321545467853045e-05,-0.6708347042174385,1.3014436320571163,-6.443949083693549e-05,28.44895544171747,18.35471665948577,17.549382896854528,2.4076163561351223,4.059939017205279,-16.23436257342769,20.5975227317177,16.221018455858307,7.493613303564021,43.575407064563734,-2.329295276210344,43.02551749277668,128.64599433752122,0.0008564785927769883,-105.8608272261108,124.89145896987962,0.005093072353116582,113.30358860452552,-12.81286813774173,-10.912537465416989,-0.0003464044671936411,-22.745579874925966,11.28375433979346,-0.008245465337983345,-6.058513522199691,-9.941881496288664,9.14247660162954,-27.964868679830396,-12.603119406261099,4.8082861764245415,2.417154206915655,4.212647813230185,7.976197402296524
-5.7574721718416395,0.0,0.0,-8.983422930453642,0.0,0.0,-20.42039587276293,-8.301058731518742,15.799820636713587,8.719028477076385,3.5198705255648224,-15.225227347534513,-15.594900504983242,-4.790051189806985,-0.0001550562776730159,-0.46694189973921774,1.2750177420991287,9.56781036765139e-05,28.590491804217596,18.066010019118213,17.914985446541806,2.1743696001817465,3.9992087398082123,-16.913373024070403,20.709384085705953,16.181645893008252,7.154106998578031,43.28120464115209,-2.5838139497490933,43.159789435836664,128.686456889602,0.001034337953167043,-105.40524682593781,124.64213076505594,0.012917162579257261,117.7257052806936,-12.714541067628385,-11.303288451967262,-0.002648358559200043,-23.163794595383308,12.086312433136706,-0.004642571433170031,-6.331386653184163,-10.097127660858172,9.158922817926593,-28.250259847724458,-12.753186531165856,4.76430214922194,2.54515836404877,4.109584582685391,7.67134190884119
-5.341809999999999,0.0,0.0,-8.989009999999999,0.0,0.0,-20.61975,-8.70497,15.337489999999999,8.693719999999999,3.2596100000000003,-15.16253,-15.74061,-4.59082,-1.0000000000000004e-05,-0.3170299999999999,1.2831800000000002,5.000000000000001e-05,28.540709999999994,17.9273,17.96355,1.85791,3.999369999999999,-17.027339999999995,20.61485,16.005309999999998,7.040730000000001,43.30008000000001,-2.6961399999999998,42.916160000000005,128.82566999999997,0.00068,-106.47871999999997,124.24602999999999,-0.02044,115.19755999999998,-11.60781,-11.632700000000002,-0.0025,-21.83103,11.790470000000001,0.02511,-6.239789999999999,-10.09977,9.439939999999996,-28.14981999999999,-12.8589,5.02651,2.57003,4.106929999999999,7.592709999999999
