PaulMeinheit/Bachelor_Muay_Thai/processed_Data/E1/roundhouse/scaled/JointAngles/scaled6.csv
L_MTP_ANGLE,L_MTP_ANGLE,L_MTP_ANGLE,R_MTP_ANGLE,R_MTP_ANGLE,R_MTP_ANGLE,L_ANKLE_ANGLE,L_ANKLE_ANGLE,L_ANKLE_ANGLE,R_ANKLE_ANGLE,R_ANKLE_ANGLE,R_ANKLE_ANGLE,L_KNEE_ANGLE,L_KNEE_ANGLE,L_KNEE_ANGLE,R_KNEE_ANGLE,R_KNEE_ANGLE,R_KNEE_ANGLE,L_HIP_ANGLE,L_HIP_ANGLE,L_HIP_ANGLE,R_HIP_ANGLE,R_HIP_ANGLE,R_HIP_ANGLE,L_SHOULDER_ANGLE,L_SHOULDER_ANGLE,L_SHOULDER_ANGLE,R_SHOULDER_ANGLE,R_SHOULDER_ANGLE,R_SHOULDER_ANGLE,L_ELBOW_ANGLE,L_ELBOW_ANGLE,L_ELBOW_ANGLE,R_ELBOW_ANGLE,R_ELBOW_ANGLE,R_ELBOW_ANGLE,L_WRIST_ANGLE,L_WRIST_ANGLE,L_WRIST_ANGLE,R_WRIST_ANGLE,R_WRIST_ANGLE,R_WRIST_ANGLE,NECK_ANGLE,NECK_ANGLE,NECK_ANGLE,NECK_ANGLE_SHADOW,NECK_ANGLE_SHADOW,NECK_ANGLE_SHADOW,Trunk_Joint_Angle,Trunk_Joint_Angle,Trunk_Joint_Angle
X,Y,Z,X,Y,Z,X,Y,Z,X,Y,Z,X,Y,Z,X,Y,Z,X,Y,Z,X,Y,Z,X,Y,Z,X,Y,Z,X,Y,Z,X,Y,Z,X,Y,Z,X,Y,Z,X,Y,Z,X,Y,Z,X,Y,Z
-5.1374400000000024,0.0,0.0,-6.335860000000001,0.0,0.0,-10.495060000000004,-8.912390000000002,13.248090000000001,10.734930000000002,2.71699,-18.438789999999997,-16.45499,-4.773990000000001,-2.000000000000001e-05,-3.4319100000000002,1.38566,0.00023000000000000003,29.503690000000006,13.150640000000001,17.34548,2.1717800000000005,5.185580000000001,-18.22763,18.25516,14.431190000000004,0.56667,32.02881000000001,-4.2387500000000005,34.599410000000006,131.82298000000003,0.00082,-103.95440000000002,121.61577000000004,-0.00035000000000000005,116.50076000000001,-11.365750000000004,-13.006930000000002,-0.0005700000000000001,-12.64287,8.154550000000002,0.0016100000000000008,2.97152,-9.61655,4.73069,-18.991260000000004,-10.676640000000003,0.8148400000000001,0.9127300000000002,-0.24621000000000007,9.04009
-6.72176383938111,0.0,0.0,-7.6011084957834765,0.0,0.0,-10.423346412178386,-8.221966887274904,13.345781354663742,11.1103065399394,2.533114647189506,-18.775854252909355,-16.54349987745286,-4.875663714015403,8.158724206064555e-05,-3.002715062195444,1.4796249251540226,-0.0003481871060707499,29.673424385767337,13.256584188642048,17.264764206045374,1.9985982966470321,5.356625988156961,-17.953897801791836,18.377640500236105,14.390645156497236,0.6832635311070809,32.442127072978955,-4.544569999255678,34.87209105367075,131.87698474189182,-0.0008460053272185363,-105.50767209803529,121.55283538095783,0.00019796769482764584,116.40885880196196,-11.06114441255189,-13.329596644028253,0.0004900203494299465,-12.82016579895386,7.867269246083939,0.0006967214871664415,3.2112956852393166,-9.535273807452258,4.688511904233868,-18.7460183828011,-10.585706754159435,0.8065252154708691,0.8975740512168695,-0.021638865003166252,8.997382489480422
-7.948239201271983,0.0,0.0,-9.30141630069146,0.0,0.0,-10.226639070212542,-7.952220283320854,13.898785451872165,11.450990465559315,2.288144006059488,-18.80936975284708,-16.54008603980386,-5.135864921213437,-8.14630480201936e-05,-2.6940904516628637,1.4668645155276063,-0.00014520425115060854,29.75039279767447,13.482779531240148,16.92607458559132,1.8964945098399295,5.580246733551547,-17.8045945742688,18.630247653406908,14.468501674208934,0.5801676414263919,32.71993918705534,-4.770797612538627,35.0844563208719,131.74897567522657,-0.002148069455511205,-107.36275207630571,121.5240246126084,0.00100845875388856,117.07712494800383,-11.364299361959901,-13.711953774353235,0.001999627952414665,-12.496339345783587,8.013231907695804,0.0013321536351965815,3.242223058733018,-9.499735653849124,5.156054202532252,-18.709421405460606,-10.725127463961973,1.2552121206035036,1.0318986809260078,0.2567074553402876,8.983289220631482
-7.123276237827383,0.0,0.0,-9.191757060889785,0.0,0.0,-10.555924680018249,-8.073943524873226,14.519259370546207,11.146780495892637,2.1875207468207103,-18.336797540470936,-16.428038492055055,-5.243430456366669,-1.7512093707668582e-05,-2.530472286149856,1.5194043516911198,6.575181983709586e-05,29.848820374418406,13.731157475937849,16.65307101508051,1.9419033921635585,5.783055287294032,-17.996099811269495,18.681628133144102,14.633904165250526,0.5619815472983585,32.76511356294525,-4.7197349255782015,34.92466725521111,131.75239145757442,-0.001410145785560868,-108.18417020933458,121.51877651609313,0.0007111155445702566,118.53772899512396,-11.494636334336963,-13.735655274895484,0.0020524441904349196,-12.314074759938167,8.423317713516449,-0.0010836927717924902,3.065122329898498,-9.79303767926088,5.420573880332618,-18.90537536588861,-11.094677320841804,1.3898120372048794,1.2441850429776729,0.5856176096685592,9.164035639149066
-6.154275960382597,0.0,0.0,-7.918525974270721,0.0,0.0,-11.182421004027843,-8.019464722174787,14.759561955506925,10.687225445738571,2.172274592409621,-18.123524052640782,-16.220651420171897,-5.172466637945096,6.977683546382302e-05,-2.472220950999964,1.6208635807859209,3.8336183343205046e-05,29.876426424078186,13.80110228170529,16.774880172045766,2.0193296704576307,5.865966286709299,-18.00743130026671,18.404900024068723,14.885919984864117,0.9182274143236656,32.78099236003978,-4.473592731807277,34.87841963254195,132.1743652785279,-0.0013727973562548393,-107.78375660881827,121.64609506503653,-0.00042483516423931625,119.36408575533113,-10.693966805406463,-13.928227606844931,-0.004932049118164186,-12.839303443076462,9.017546722986271,-0.004727553399038715,2.6830307058715173,-10.157169356453588,5.565157098826929,-19.313364821663217,-11.485645074368634,1.385465615463295,1.4202873301082535,0.7683348002545046,9.336474187757512
-5.978929565946066,0.0,0.0,-7.091239184075923,0.0,0.0,-11.797723841533067,-7.832388066242689,14.632144749191859,10.515847956093673,2.0480623167192182,-18.325513265864878,-15.972407295262393,-5.084642417519989,8.454300394031421e-05,-2.483102541718469,1.7169798148937527,-2.060520169866106e-05,29.750819236309997,13.742913034250162,17.23818458067829,1.9926423545337673,5.865427950357389,-17.79135385063377,18.21079706824862,15.073660206221561,1.464100086862156,33.24873192384172,-4.429372606895775,35.3930159281727,132.65745612526393,0.001072078354051048,-107.6852447567555,121.90585743851109,0.00040376374721361977,119.20115054674159,-9.217809583049045,-14.790204021741067,-0.007968636532938,-13.075639707775474,9.633375603800749,-0.0004483846251697299,2.1841599012516935,-10.2547301893658,5.773948216336182,-19.817702011078506,-11.653079574855372,1.5426440958175023,1.487865480477487,0.7871288322870338,9.28535527193511
-5.938929052128939,0.0,0.0,-6.9549559991517995,0.0,0.0,-12.382923898162332,-7.93828279844035,14.74482158906499,10.502146602421861,1.6374529244795462,-18.150380651280184,-15.71248750761263,-5.013050261391562,9.431323010048878e-05,-2.529576811575352,1.8308758345601075,-9.221975615934149e-05,29.642889193324663,13.579739182039834,17.344398078656567,1.9590779251245274,5.790509717127807,-18.00388620598089,18.293245298764134,15.096150304145914,1.6115792914349378,34.34815235854873,-4.8945989723114005,36.100724076759846,132.7766932554762,-0.00045272401645593964,-108.48618910124416,122.11070466326255,0.001782289650797038,117.48272901056735,-8.475353352343056,-15.661449548268507,0.002385890532204913,-12.210820889809662,10.363955923554798,0.004152930884487875,1.8998302768150135,-10.359852029409605,5.862990214376768,-20.109286140730422,-11.783364795145802,1.5853635528095196,1.5260922806115007,0.8549559048709081,9.226674638444896
-6.513819070723547,0.0,0.0,-7.297627332815626,0.0,0.0,-12.64920048409045,-8.22102701565539,15.43185440814844,10.4412375625627,1.1822784319908002,-17.876892976654243,-15.460849781875678,-5.036807212029862,-7.19520883420356e-05,-2.587648717786183,1.847000361243592,-7.662342445217251e-05,29.656953712852715,13.421592339004603,16.691901479700856,2.0584857163518997,5.790664978812682,-18.320828948979692,18.28383583151934,15.085763046597567,1.334543381022117,35.596522557544624,-5.576016338553162,36.42577792584669,132.69060056801828,-0.0014585005802012318,-109.8064402628975,122.10110320883783,0.0005100258878795878,114.94458229709221,-8.830372008518784,-16.137187602831254,0.0034198874148084948,-11.561619183516019,11.269532050584155,-0.00025525831769143253,1.8472788967065474,-10.646218006035339,5.9225451302425745,-20.183916681736452,-12.070795965392136,1.5311094640449936,1.6449167796976982,1.1263004037688114,9.340674314962298
-7.457488182292215,0.0,0.0,-7.933394576666357,0.0,0.0,-12.687751718635036,-8.413473459355279,16.090075070233084,10.397614026872482,1.2502840733825293,-17.99448609028841,-15.334849236136975,-5.072670146466233,0.0001148645008794297,-2.669725672367975,1.635793698173113,0.00011196696194028217,29.70926810598786,13.437364168030587,16.1586137985373,2.212519400593648,5.986108941563601,-18.249166504434513,18.235194671734355,15.201504127333658,1.288090224162286,36.35389227888059,-5.802456190146512,36.42758552693911,132.69274246661132,-0.0018590952339094852,-109.74612928311853,121.87148533279262,0.0007670225298573548,114.01328416204372,-9.272542056252302,-16.170530762355835,-0.0003890611170071561,-11.631588487724686,11.428317978266806,-0.000648488132940062,1.8516363618016245,-10.790305669104512,6.457914252632216,-20.1850944117307,-12.401698987809521,1.9747435262449935,1.6927045015553333,1.438896841558867,9.450481630807376
-7.177544799406975,0.0,0.0,-7.7304535772854255,0.0,0.0,-13.147307685804321,-8.329512392951207,16.02023850538672,10.334334883074156,1.659834215361368,-17.87183432833592,-15.305341423039032,-4.845278627751686,0.0002219551657676653,-2.8735199095276713,1.4277304390157615,7.000304190504757e-05,29.581792432774456,13.43557879357006,16.808298588854587,2.211441634487862,6.0564150152742995,-18.27068250717319,18.528815526747927,15.229899469468045,1.4970527638560673,36.44157596234896,-5.580787297229908,36.33419875514254,132.67979194463902,0.00013683190230977398,-108.32184876177799,121.65471550938095,0.0003160438961579307,114.49428487725588,-9.465193780657566,-15.898940447579335,-0.0020018324528319077,-11.556871500124638,10.858159509083444,-0.0009182373681124283,1.6726638976175654,-10.813352122979769,7.132304882492008,-20.355834049740135,-12.671571278743583,2.5949471320315958,1.5518298531954484,1.5627700932896766,9.590570133488482
-6.154092987996824,0.0,0.0,-6.904680236566357,0.0,0.0,-13.866805893510332,-8.141290025015094,15.577997053815864,10.131814459112045,1.7191770676049891,-17.46488587486897,-15.314508155244932,-4.489380162001637,-8.120430404263912e-05,-3.1330356233322734,1.4549320632353522,-0.0002796376212691362,29.35832477822533,13.409557634106662,17.95019016557447,2.100500176981824,5.960351970712685,-18.398135050804477,18.96316413051984,15.088566753094792,1.5208309680766205,36.31906995305937,-5.545668555082883,36.290447575228676,132.45025649490177,0.0030746001511749426,-106.7612241554993,121.5867855481843,-4.598382691221159e-05,116.39634435204475,-9.74342945208007,-15.440290570891966,-0.002574869263345314,-11.8592387844635,10.963228250072547,-0.005900631589150229,1.3687187289694467,-10.964971443182309,7.2633614559470825,-20.670395521901167,-12.860403790464915,2.6589478481597184,1.4587878558128258,1.6778499115934706,9.846550745293758
-6.5327004988332,0.0,0.0,-7.073817247768769,0.0,0.0,-14.013716366045285,-8.185352185460365,15.80678928600732,10.163693952721282,1.6747039514802193,-17.77682759203907,-15.416204205964627,-4.392854714193806,-0.00014216178435022235,-3.3087496912121623,1.5468839978176627,-5.584119875634675e-05,29.316779113376928,13.453335161437119,18.179516243804393,2.031032281728087,5.977304540593141,-18.035983036316807,19.39948786835723,14.841304256001216,1.4660550309573925,36.420891351137534,-5.748001179867199,36.48265889968051,132.21180034785328,0.0007884830124728944,-105.97344041954791,121.58350915649748,0.0003088851144809381,118.6581955557088,-9.810569166268264,-15.377701859202158,-0.002364726445818296,-12.910676787667411,11.450695923437902,-0.0038047670299434623,1.137249787330899,-11.235671814210118,7.06148710330664,-20.928571643759636,-13.0369156511143,2.3662638056512,1.427038132076065,1.9320249302561727,9.914272072207778
-8.160980239683699,0.0,0.0,-7.711824790193952,0.0,0.0,-13.652958655918273,-8.081485714254313,16.71589394339318,10.489489352206606,1.8990498196216135,-18.355987465444283,-15.591293590852416,-4.6204718735770935,0.00022002935480593867,-3.5640632271469475,1.4363654290767383,0.0005069725370769633,29.35759704097998,13.509411389255012,17.732735667234483,2.052265096953732,6.095924850468381,-17.62077036872596,19.757019750771594,14.687249823159924,1.590761948126565,36.705508818794335,-5.737745883620051,36.704429039785715,132.2474776292588,0.0016304358797759287,-107.24870988618547,121.51646175722779,-0.0015421094661608027,118.26411725946433,-9.403139357699713,-15.994854890782284,-0.00214299508236641,-13.129950485529408,10.790053498985426,-0.005931961742437411,0.9049559430517868,-11.42332237558984,7.262977723014293,-21.174134735240408,-13.285057377357248,2.4818697429896366,1.30854206369262,2.147572727721732,9.767025021174081
-9.813310080489664,0.0,0.0,-8.329260557281225,0.0,0.0,-13.437442349222513,-7.506879911684839,17.736348423903703,10.810738246663083,1.9137513578629326,-18.346051915032064,-15.838878562608828,-4.997248022060804,0.0005651177126450117,-3.9577144814068497,1.2636784598662498,0.00021695965898926902,29.47763477008563,13.536299803525088,17.19076292257553,2.2051289155451297,6.135833204045872,-17.72934237428974,19.830743861102018,14.822661790588716,1.7618150348412578,36.969454346142385,-5.4205076506873,36.56491673736598,132.41884626144105,0.0007765554248557362,-108.9372391044533,121.30043347169097,-0.00022971011470644922,116.34993446088355,-9.08206380416497,-16.475557358961083,0.00045036889980980087,-12.140792034679786,9.774267234739757,-0.0033917641084828115,0.891328166601455,-11.426636185123023,8.059275988155086,-21.173012241798045,-13.581420573395873,3.224256389263546,1.3361049884646057,2.1910917064307793,9.621120455138954
-10.582287427650074,0.0,0.0,-8.687112379541988,0.0,0.0,-13.698244378779808,-6.918178200285025,18.184102605424187,10.871575635579433,1.5972689199180072,-18.01091049444915,-16.209174707191664,-5.191352574061256,-9.85948915087084e-05,-4.242187246741801,1.2608943360536922,-0.0002292975556333449,29.70284260685234,13.507529775941535,16.87388708307305,2.2860825775406095,6.087081017406767,-18.16140564168116,19.782033910882767,15.086010452483425,1.8032340418863009,37.03858840147885,-5.1009328146040875,36.238107854683534,132.4237760395459,0.00010041601721190155,-108.99089606943542,121.06253691281123,0.002766505256519156,117.37101257464788,-8.968228495847898,-16.308429118612832,0.0011697801738468246,-11.927314828244263,10.08652583935264,-0.004221823854001169,0.9803124626085816,-11.269737940858523,8.79617832338634,-21.05219901286939,-13.707217617352569,3.9739543106786437,1.4814910805926673,2.1947669685902462,9.496832554679639
-10.687527990840488,0.0,0.0,-8.688671955589012,0.0,0.0,-13.99447930185199,-6.81542416421072,18.047313311727237,10.799718994974201,1.4348818304408313,-17.772286381869023,-16.74765769733386,-5.020242273226866,-0.0010217171259926411,-4.412842784734097,1.2987280772398386,6.197072200020073e-06,29.833910571975323,13.469137279735932,17.155908633667696,2.1407517184316465,6.039879260072723,-18.556142386975612,19.889199309068847,15.252824279361995,1.636149468436819,37.032567217274796,-5.266146804046439,36.20825365342204,132.26277720810356,0.0010927433199980552,-107.87630355624619,121.03430898138993,-0.00042688584783636557,119.95550817307473,-9.063717185823094,-15.786635349538198,0.0002056395478908386,-12.876666409065386,11.076799098642773,-0.006308678503983403,0.636397054176796,-11.244958370940479,8.983806448953004,-21.38878748353952,-13.753280497507058,4.159132603115793,1.4345899175703842,2.319268269452673,9.510054793269514
-10.246855143190599,0.0,0.0,-8.435983418174128,0.0,0.0,-14.172094084182426,-7.111515940439127,18.032371155591733,10.852620780756052,1.661360647561293,-17.71959022593021,-17.28948499654797,-4.785986545874116,-0.0006022938147790714,-4.669517428898807,1.203845990761386,0.00029258462876026036,29.88121457867919,13.459946837413638,17.796347524204062,2.0344478257970957,5.983454094941089,-18.75529060834097,20.25017835716495,15.287483117115514,1.2982296943567573,37.10940524463139,-5.738594249465899,36.4290368844463,132.08405049525373,0.0007699284768379543,-107.01610135521676,121.1459771072465,8.93599963756489e-05,120.23898174593845,-9.659315490961054,-15.412648275030044,-0.0016834385347971933,-13.816427020356347,11.010408379938939,0.002888703079393377,0.08936323138770878,-11.535989909860461,8.97374895053274,-21.963099808924554,-14.019334498973876,4.037227765457085,1.3064651734946777,2.4630506326439603,9.715161639048985
-8.809278070913209,0.0,0.0,-7.2942668072189765,0.0,0.0,-14.695086484764188,-7.464499630353417,18.240429707359834,10.811802952282628,1.952778308024331,-17.960274834222936,-17.677506144526582,-4.821922388309613,-0.00010866179101271431,-4.873939936723049,1.0947593328933027,6.011069361517558e-05,29.953883582439357,13.570521622592,18.322226503451212,2.0266080811909712,5.95218464255016,-18.542267220990034,20.71269288835105,15.325036458716141,0.9401877217630569,37.23916569246913,-5.852281276660972,36.62007006887146,131.9089090449611,-0.0016052581511121972,-107.34868724329313,121.16114785610321,-0.00023178753904350808,118.75198213218334,-10.569985781507189,-15.231286313310909,-0.002836858173028758,-14.569958407779493,10.392655896788002,-0.0006571208318959356,0.11573893151905239,-11.677261222317624,9.175140189713758,-21.944571127634028,-14.224354236589182,4.171061583870741,1.2637413660029064,2.545342601411431,9.980828741730578
-7.71439753786916,0.0,0.0,-6.469736321812055,0.0,0.0,-15.507874439034826,-7.594065499288682,18.543783603214514,10.654156244014715,1.6471697780157513,-18.39065165119552,-18.140037444862294,-5.131111999834122,0.0005929689027798344,-4.867820259815168,1.1397295799515201,-5.415353503583175e-05,30.20461330494289,13.839370065476361,18.309740480155597,1.9732724725861637,6.014293530787046,-18.125393688965598,21.13861228600467,15.39795942064848,0.6342729727330558,37.44150675378386,-5.627319396657818,36.81072886109995,131.72099495973026,-0.002396861162336165,-109.25813429582934,121.07020069317294,0.0006322097467664056,118.62166882899879,-10.763233348618545,-15.512715184894459,-0.0036301040073559864,-15.29539090327756,10.747115520072597,-0.00523072622956335,0.48184566916029226,-11.543769341872709,9.28718403081988,-21.562651421246628,-14.141832300351725,4.327668350212809,1.2944058202597208,2.642450822586952,10.038030272602692
-7.5305882771083,0.0,0.0,-6.514107641700709,0.0,0.0,-16.21447356494056,-7.414432202686882,18.895222008795802,10.463512689472527,0.9353026399471923,-18.65169528376594,-18.811004989449387,-5.575644125477281,0.0011875432508109882,-4.859097732109089,1.2546747216356273,-7.029951171601503e-05,30.68909302397216,14.246835168932668,17.889674455687295,2.014116438837027,6.166219054539636,-17.879164688413017,21.432185742578852,15.484312107818571,0.4322191006069792,37.806941777621056,-5.537792242462153,37.02034057388861,131.61328616347498,4.974614155938816e-06,-110.91069635798526,121.01752097571152,0.0006861583526908928,119.16532617685456,-10.543797587116611,-16.258903869543843,-0.0007524803112858406,-15.22646613075427,11.57140101857256,0.001475385118741536,0.42037700339879674,-11.358687794316113,8.942784370800421,-21.61639843581392,-13.843606159404386,4.076801749795711,1.3966288017972026,2.8495749147985947,9.866298122833665
-7.184859029062617,0.0,0.0,-6.538709741653269,0.0,0.0,-16.84603834732059,-6.889392486712089,18.81465496666371,10.325956584635065,0.6436187741093086,-18.413392460098326,-19.573540744469433,-5.894888063725841,8.769449740089686e-05,-5.011371178440054,1.2424714251519848,0.00015784709707385625,31.100405507212603,14.6409968600723,17.98823071169733,2.094495878393434,6.2635329021966815,-18.01651804049345,21.67282411535183,15.55417639350097,0.237697178177379,38.15478167572164,-5.637889137341685,37.00757684672077,131.55349151342097,0.0006605392796372593,-111.10938639001287,121.03431871914627,0.0007347709002696074,116.99258603860258,-11.084579228749472,-16.632371509770685,0.0006253737059189175,-13.766109852017872,11.315468374940712,-0.008871220524172396,0.15045143899435273,-11.299267191458275,8.621481190723873,-21.88925624152757,-13.67031709553176,3.799116719722796,1.462465251327852,3.082214744541817,9.724357251498926
-6.582422191386729,0.0,0.0,-6.446299092903622,0.0,0.0,-17.354147831911682,-6.378406462226481,18.256670127696562,10.440313094047186,0.7561260894327404,-18.165107218729425,-20.497100340303874,-5.916192971510681,-0.0018874368721207015,-5.28007819258919,1.1275228398082149,0.00017211068107305383,31.394399668653023,14.83518233539693,18.76036715482495,2.0651981496920575,6.198161573514867,-18.357182127763853,21.98330261291995,15.52539773266792,-0.13430224387337508,38.30613356380768,-5.764456627977682,36.6863163673683,131.46189170639482,0.0007681509282087705,-110.1963560118199,121.03772861778228,-0.00011791326341550624,113.32584647672967,-12.013276933065107,-16.333673207414495,-0.0015284423883580665,-12.118168716797008,9.959320715315844,-0.008107244075689145,0.08968663303984037,-11.562066041999694,8.67638354492914,-21.972895093824118,-13.934093406898487,3.7488804516083634,1.4207421093388055,3.1858294887134426,9.646897365479836
-6.687111112886236,0.0,0.0,-6.210986448070752,0.0,0.0,-17.632600665467073,-6.060380145351336,17.407024395746177,10.612815077240981,0.8244838846002848,-18.31528880363024,-21.623564763358182,-5.812828863192608,-0.0018721401569969617,-5.504767113150218,1.098142654631755,-6.454461142340611e-05,31.69744908003642,14.974240651022061,19.70592031443496,1.9044354348978827,6.0627433452445825,-18.52071268322086,22.088853759110116,15.623324842686584,-0.4492211406225473,38.45954382942851,-5.850855454496552,36.50372376519121,131.44145999773306,0.00025677001187892186,-109.19405948892197,121.00681031803262,-0.000816434926155163,110.47339474049392,-12.357519198154595,-16.007868291948448,-0.00443940856633851,-11.356379991863513,8.865111142133072,0.0024803964746524334,-0.13549412348652748,-11.729733977253334,8.808815672037616,-22.210490712715345,-14.138207237426041,3.8078431030638487,1.3248563687979924,3.1345963249619726,9.496495946501202
-7.532427624527671,0.0,0.0,-6.3865060213756495,0.0,0.0,-17.875082293199732,-5.88680596231834,16.814227488768715,10.825828821109493,0.9788126695277121,-18.69277093668683,-22.787474922711553,-6.044786787266031,0.001807568583246023,-5.735000618621743,1.1138968771933153,0.00016667294744672468,32.09232568394055,15.390155134525507,20.24120073381837,1.8332028486398297,6.0254185094207795,-18.253688913186572,22.264499057314353,15.760694980781931,-0.38975751879555043,38.47891797296824,-5.835241177387291,36.544785767473684,131.48320238040367,0.00013599187199108865,-109.71176988604695,120.98445226372098,-0.0005063614363278652,108.74978570790643,-11.5659078865106,-16.464912006559807,-0.011000039671913063,-11.42274103180516,8.410197008848886,0.0020931036872148113,-0.50865599949605,-11.550794930899867,8.867273205436321,-22.56531310920724,-13.993890731143262,3.931835271215592,1.2671945999731513,3.090947097601499,9.408935495877397
-7.699447583946812,0.0,0.0,-7.317629467315634,0.0,0.0,-18.25008587808823,-5.580393705842123,16.761171385051078,11.286065977789956,1.1830869903469363,-18.824950264355415,-24.144174913814517,-6.526714563306041,0.0007332294508135349,-6.0776717176220805,1.0626892859274066,0.00022264826122527615,32.79389462256714,15.940746758903158,20.411028311192815,2.0124522248956698,6.047569233418501,-18.125523574888884,22.953647625047754,15.49207717842764,-0.312983567017813,38.115798295338394,-5.799634295558778,36.34206098942577,131.35981309516805,0.0018474454687098134,-109.92771011970989,121.08719582373227,0.0007192645351182283,108.94862203664991,-10.90794031498949,-16.983395735497343,-0.004954915695918761,-11.716999723166683,8.356257853560221,-7.742180129792691e-05,-0.382327645668659,-11.416034165968204,8.940747450758838,-22.42447664514032,-13.896012489966873,4.052742052216058,1.2969965092560605,3.118553988454515,9.41595579186969
-6.555410471519722,0.0,0.0,-7.879661316998394,0.0,0.0,-18.60997504230721,-5.353479837444912,17.021859262426954,11.748359342329904,1.0353025729947956,-18.72900226332138,-25.870765638848106,-6.7618385237374286,-0.002128488197304522,-6.444127645334675,1.152691755202535,-0.00029686805885615567,33.658950406136,16.17308024455662,20.701623593460408,2.1659942109105983,5.814766955204054,-18.497475488290245,23.789330306043695,15.080820169464156,-0.5189217923373658,37.93112257013789,-5.6892233641161285,35.97765321243086,131.12957292652771,0.0018846439712921585,-108.61770889099941,121.16280311386878,-0.0012770486563837978,108.35756585272918,-11.064021585369746,-16.718273995496777,-0.0006323873728177841,-10.832268252278867,8.254255887373596,-0.0022268417440642514,-0.06740035211846823,-11.393120921002605,9.047793990977826,-22.10450688644622,-13.914152475434607,4.16179069891479,1.3445885544210063,2.9525009795677715,9.166525253530878
-5.294317326919316,0.0,0.0,-7.6348140669222255,0.0,0.0,-18.863486923222972,-5.420617836740717,17.505990150456537,11.807142316423604,0.4595163377501705,-18.866390022738464,-27.584011245614448,-6.952029163020608,-0.0008278911845991184,-6.661369318434624,1.4267160527643437,-0.0001426345390197935,34.30478190578929,16.27459075107841,21.10569968420813,2.1724978757661826,5.390463571859137,-18.687924783339113,24.15725568325945,15.08800967652735,-0.6781343947194548,38.39430240693894,-5.489257176319294,35.84980411463087,130.96653192117958,-0.0008935561268813691,-108.55722040587166,120.9030497386342,-0.009491223350678738,104.80303718004073,-10.640514149789226,-16.317781775345,0.00026380796689487636,-8.789213794115437,8.033729000873901,-0.0015056587107624428,-0.23623476574916086,-11.34681394876875,9.088230391943837,-22.26791744081596,-13.886090946138214,4.217540343057094,1.4657105668888637,2.619352986440657,8.723267440404491
-4.478212185702198,0.0,0.0,-7.222689144590767,0.0,0.0,-19.06093015666456,-5.707102127374718,17.938362088542895,11.622790847431292,0.015361109345068928,-19.083107673943836,-29.166515764396724,-7.284911831868565,0.0015390027630636032,-6.714419178146222,1.586396501512348,0.00012080015380737323,34.637847393634146,16.5518696202896,21.605016338043406,2.0296963870883986,5.055150442865232,-18.677298560797208,24.131283624054188,15.338946314539458,-0.6082012450281915,39.026262485117705,-5.404338355464238,35.873685105412434,130.8375127708006,-0.0007992898082974794,-109.6054608009673,120.52711265067913,-0.0024794949230326343,101.08363513281401,-10.271657211619218,-16.10787606641945,-0.003307334050069111,-7.306366399379693,7.6581628852668056,-0.000331100575486966,-0.6088123386853103,-11.306545810956699,9.06835561481514,-22.637321486725412,-13.841455948885086,4.214503517583157,1.582382006995912,2.3605058853479246,8.363067349380666
-4.151043416422002,0.0,0.0,-7.324198989194994,0.0,0.0,-19.208948222160558,-5.911124341532015,18.243716140488043,11.687072675166192,0.2702201480983222,-19.15529358654256,-30.88062659568498,-7.6976990706885955,0.0022251280051505166,-6.840359805170684,1.5037892557279775,0.000222718890094325,35.12114150303073,17.023425002016683,21.904313285577494,1.9951938178171602,4.935184939139051,-18.87258201810377,24.232037789847674,15.475549775819283,-0.5336018560398766,39.50387091834354,-5.400696284788095,35.952179764591165,130.62818034924538,0.000685853356072153,-109.6663405166846,120.30287515604758,0.0021735889987663953,99.40750837776937,-11.468850370151397,-15.999109231761626,-0.0018380650047781371,-6.952468032580013,7.0360299357001095,8.528520517723826e-05,-0.6689925694833129,-11.316285150836716,9.321471915077662,-22.69113783131174,-13.943570904409498,4.447747874350852,1.6916104258564646,2.2758308501822415,7.994289724820326
-3.919731238166112,0.0,0.0,-7.467857686796369,0.0,0.0,-19.61460567701618,-5.982633919647403,18.22227641088793,11.872250588260297,0.7036495939988427,-19.12038290547727,-32.608948586154064,-7.912508893583143,-0.0022529225885321823,-7.074334710669471,1.3979380357751687,3.478116679255332e-05,35.81116979167507,17.535551053310293,22.261649534324757,2.1188132991505415,4.866907146230949,-19.12266262911071,24.474358898140135,15.555587932108024,-0.4105207653439133,40.02541676008271,-5.420852321555635,36.22253894122764,130.36883044936135,0.0010683816757711296,-108.73634979408772,120.09205455817863,0.0009595462404120773,98.70233148615615,-13.437265484993292,-16.31844051192813,0.003293027601656032,-7.4863693052666775,6.885168953492636,-0.0028263278892908944,-0.5237266238678595,-11.441004319882206,9.760932519614197,-22.5441222828608,-14.220726337409708,4.811309541597656,1.8498706156757698,2.219444260190396,7.579438562019933
-3.6956116954726164,0.0,0.0,-7.003782142233135,0.0,0.0,-20.47819957465838,-5.784890300735448,17.749146025754175,11.84072396451451,0.6675176242804257,-18.999393229105493,-34.086479152808124,-7.93794049050066,-0.001475479039489826,-7.2428108550723405,1.402014242705185,-0.00010320802686625325,36.402889602098675,17.875705600196447,22.867453348664615,2.1961367106079352,4.621656580308894,-19.357867639709223,24.706084144226693,15.643247412559884,-0.2894664725718579,40.471880447834245,-5.6364341334402,36.38779314284089,130.13702902968177,4.345128441896699e-05,-107.75829755308675,119.86857791611412,0.0008110484243939916,98.86155005807753,-15.051879771173384,-16.73100306495436,-0.0012682050070407164,-7.92276000901983,7.0718899788423375,-0.003835789629302065,-0.8630339111851115,-11.505670590958283,9.51550300731464,-22.897173920037275,-14.190464469913875,4.556286739263348,2.10018112308683,1.9557834845625346,7.27591799239326
-4.414732621380458,0.0,0.0,-6.974715534008439,0.0,0.0,-21.402075855169922,-5.104382203310438,17.455955385739287,11.92835231230034,0.5596177447920072,-19.081914130163277,-35.37367556484175,-8.27128903532775,0.0026007104209549692,-7.368557013845351,1.4214302406074057,1.0684141869910291e-05,36.889619697032686,18.21020413134788,23.121625187974306,2.219059516923262,4.343488211443222,-19.413692396939673,24.92512775103421,15.635006963300613,-0.2859678885075348,40.771932400537125,-6.011550013378025,36.37659006498689,130.01867688491728,0.00018418329697525044,-108.16049414193728,119.75971546311915,9.392190262685649e-05,99.7754589401408,-15.783192764439224,-17.300686064394338,-0.008933939747031178,-7.362637696777496,6.915539440803226,-0.002285889582638174,-1.615408711175428,-11.321899071033325,8.512225996793562,-23.659871667620543,-13.651088195895854,3.6881792888651814,2.3697141341135266,1.6904314513908274,7.189716670027305
-5.466293961572009,0.0,0.0,-7.408647619862955,0.0,0.0,-21.98212309835443,-4.902217979498606,17.577590755795203,12.182016654547885,0.7877296773617575,-19.318841298837498,-36.58261728675009,-8.678854577275523,-0.00011992094525996499,-7.5098495160443335,1.3452688700487603,9.855781758460142e-05,37.251849041314664,18.792380809390142,23.2456638119828,2.173835917449125,4.281786202221966,-19.137872361744307,24.981848463235615,15.605283594115978,-0.17530295490156572,41.31507566761806,-6.259447218612956,36.54966585214432,130.1440489870072,0.00043814562994227984,-109.45445271091111,119.75645378283588,-0.00019861031348167985,101.3097668366386,-15.230531650661119,-18.484612359644196,-0.012560213574321214,-6.645259337953846,7.214963194870946,0.0013410837723329821,-1.9792521496118252,-10.922286347563762,7.774810684189164,-24.00487444662991,-13.009210136422158,3.152973118973683,2.479818322016874,1.69673066995947,7.323029630958897
-5.492805168890465,0.0,0.0,-7.290803300002254,0.0,0.0,-22.56841375998234,-5.600713004696169,17.751408268901415,12.336504561306054,1.1265255083183763,-19.54220596453592,-37.616094056269255,-8.833728554612835,-0.002034571599885792,-7.6142198900781715,1.3188965319642747,-1.1048084438791027e-05,37.56572056696632,19.32747397081662,23.475914615408133,2.055075022251577,4.221875720168507,-18.83794690008261,25.08246991353306,15.497655438072233,0.10648716356253973,42.0598304011847,-6.4058843121335185,36.811725666034405,130.26648244759406,-0.0005312884789741136,-109.1978091917856,119.81940924545525,0.0004610667601606313,101.03556879016642,-14.749707942663603,-19.174943518854686,-0.002109097292404198,-6.712639308952994,7.837651464436854,0.0001937769972425443,-1.9694311501324084,-10.609563717609802,7.648961973869346,-23.970958239177424,-12.672936633938138,3.1556313249748293,2.551837120211264,1.7766842157875724,7.33571466941067
-4.753774797703535,0.0,0.0,-7.031004479553956,0.0,0.0,-23.406916487863878,-6.3844506211001475,17.869841054642826,12.45254001474571,1.253489352292905,-19.99048661558343,-38.42488461695807,-9.176378641266748,0.0005647604057462473,-7.647117758082859,1.4687057895617595,-1.296314142030018e-05,37.946875947565644,19.819424061491254,23.35904979540859,1.9672900117124057,4.08301392077938,-18.496001928416614,25.177907506190053,15.344479333349852,0.45000577076786397,42.79282445151622,-6.594014583982911,37.079724212279864,130.01554348422903,0.0038035498701249667,-107.6200837665917,119.9783662986485,6.695265143778008e-05,99.32860041632539,-14.797975362224523,-18.36098714510386,0.00023132114026787464,-7.247503138984948,8.350303151455442,-0.0007393926789553226,-1.744498709243734,-10.586904932230109,7.806479375832505,-23.740755874297125,-12.709932433684926,3.3114828024590692,2.7933512985473796,1.8017699030409282,7.171619073149831
-3.900375412722555,0.0,0.0,-7.133624109474017,0.0,0.0,-24.10595640906905,-6.65727336040996,17.962988164258338,12.46143706800682,1.251887287623896,-20.51424647716457,-39.02598331688976,-9.890419806259725,0.0010182783173950654,-7.617876144383632,1.5698412820146026,-4.170830105822671e-05,38.31769663658268,20.58953334724374,22.873137059030384,2.0072161710173146,4.1366094960166695,-18.031553619284136,24.706245418870324,15.6381420966724,0.7717667921175294,43.675071269213454,-6.726902881728261,37.40475054861753,129.47550180681455,0.002490390846023722,-106.43978401738478,120.24476580394303,-0.0007148025427669161,98.85277256585432,-14.844251833656767,-16.2374097751676,-0.0014090978592634616,-7.486837066565104,9.379733109671255,0.0001856860210397059,-1.597026022714995,-10.537576013129481,7.913428653336798,-23.58673713699384,-12.703561887286835,3.4303549567469114,3.1932483962019917,1.8760171081413888,7.224464952448379
-3.0375312974441457,0.0,0.0,-7.041572552439562,0.0,0.0,-24.917416301519392,-6.279172063967147,17.65258409349838,12.293743207730685,1.2968479842241163,-20.08267246169736,-39.610686952644,-10.229768554815303,-0.0018106634267275,-7.5707564959058535,1.5431034103566519,-9.856012406811717e-05,38.511149875949364,21.31424986386407,23.146251500918503,1.8839039115576113,4.11829535308072,-18.446060010828706,24.615518281798284,15.994085898915289,1.0252006234795,44.08702569519361,-6.707554311592848,37.39347412542481,128.95653922997616,-0.001888319588516971,-106.82875316817291,120.25535301338327,0.0015014965784183802,99.5637436538047,-14.97909755325494,-15.041388871459551,9.321082494048242e-06,-7.170751138386435,9.628392915840983,-0.0013363500674366021,-1.8949378027070378,-10.168052693738078,8.026366952137188,-23.851217857526947,-12.40245110662382,3.67756534472604,3.4559852599549163,1.7538807479219884,7.278257446899112
-3.0404527980130993,0.0,0.0,-6.734680242635085,0.0,0.0,-25.626345224794797,-5.850694981662334,17.34110695638101,12.124911709581877,1.3079996514997934,-19.11812517987199,-40.157495371300655,-10.10072713265721,-0.0019293604376273534,-7.4732839874063774,1.618350027312601,5.9718631746462895e-05,38.642836171724355,21.663161954404067,23.83293931747408,1.5099818175646182,3.8579574915959887,-19.35523877718045,25.420980517798828,15.872600644660594,1.0521166924684606,43.893293015741385,-6.775045456822621,37.109176688242805,128.46638749730036,-0.0016081224729153464,-108.22693656440865,119.9770206357346,-0.00037025929135792076,99.6471908668299,-15.525469054320235,-15.629185194389688,0.0036504640548790314,-7.060418546588105,8.454689480322955,0.0013230094949548072,-2.041111453096535,-9.703357559938524,8.160627588673584,-23.956429859674536,-12.020802262158893,3.9806888480269618,3.5436706813790555,1.41515685846944,7.070380286079347
-4.024136595996226,0.0,0.0,-6.841973263317752,0.0,0.0,-25.544209600987486,-6.3429672168906786,17.737176083620884,12.107108037799403,1.2897655046036987,-18.875142974720706,-40.405818792775555,-10.193637623689689,-0.0002907957597980627,-7.221917914057616,1.7895580864788028,0.00020823446093224,38.894370176443225,21.95925532814166,23.561835965742112,1.1973057566558556,3.754314908838862,-19.387544643653943,26.14005465913972,15.378307182546353,0.925190544725468,44.01506411808774,-7.005614873530156,37.1062035256671,127.95920714918151,-0.0011711396340166908,-109.64214512837849,119.97150795009085,-0.001799275772960361,99.56585469030081,-16.34423941501185,-16.394138523103173,0.0010384274698199984,-7.486642060995931,8.405637529847716,-3.071317628619948e-05,-2.1742511222636396,-9.367169500517473,7.776569102402952,-24.073127535405376,-11.567576643638379,3.7498478672479982,3.7529039007902,1.2841741284576156,6.939774219165322
-5.622563065256692,0.0,0.0,-7.539224217563679,0.0,0.0,-25.15554504988152,-7.230584708792646,18.347676765881165,12.278077649488747,1.409374105792467,-18.88950959935767,-40.56351504513071,-10.4814605988406,0.0004413080224247802,-6.907633703740451,1.8872261081170179,2.2842949848273083e-05,39.236936225899946,22.48705077204034,22.98473368791533,0.9413447897843515,3.88166757924027,-19.267495112598223,26.77971195157091,14.492275591229372,1.070830566768348,44.39412401549113,-7.112328691302476,37.33101061493257,127.6755568809598,-0.0009740969365264111,-110.8650037045008,120.21803135269549,-0.0018667113601370635,100.79637140552381,-16.757476699273155,-17.066631574753924,-0.0025978356015154587,-8.00631690884928,9.23396269823951,0.0008877961357481236,-2.783998044875923,-9.290200655891415,7.100885147552544,-24.69237936688081,-11.247426949169588,3.1480523433138634,4.0479127814306874,1.4207726859345056,6.893112045695226
-7.088041374044905,0.0,0.0,-8.110129811931934,0.0,0.0,-25.386805557873632,-7.304111123600631,18.625274434323273,12.417536207305295,1.6172113513007391,-18.50474784283076,-40.62461019116544,-10.698736566155223,8.927859523375865e-05,-6.70818518493504,1.8518250197186583,-8.330518235585466e-05,39.47378687616306,23.07318006611495,23.03916282803661,0.6990896370748796,3.930714259542336,-19.678076479261073,27.388388613515716,13.70449524937824,1.6431005782981773,44.72377101249627,-7.1704204720876605,37.53865656326452,127.84581114240713,-0.003471289805942452,-110.49232518589568,120.36361096042864,0.00045062047602212937,101.9920624813675,-16.642404349756372,-17.923548375776505,-0.0031311278883651666,-8.464438077562834,9.146095716367299,0.0006692347770985314,-3.1837802979574197,-9.456108868023248,6.764411323423028,-25.111032828722525,-11.277424455438101,2.7708668313105718,4.250449051416579,1.5408004076803818,6.905741439046874
-7.352770533476556,0.0,0.0,-7.5798204283061175,0.0,0.0,-26.12088559764701,-7.205008692925683,18.604139892277303,12.3360268837931,1.8395729196302022,-18.3051395317381,-40.3681017561711,-10.741226030960657,-0.0002725590761549606,-6.550488934331597,1.7522260904667908,-7.415056410020601e-05,39.44300746826122,23.47967783022993,23.568458719728,0.5105488686195894,3.753724789286516,-19.777030189591546,27.81515936505362,13.427269794332762,2.168218355984771,45.33634109712589,-7.3446373421080065,37.757838507023635,127.86063503368085,0.00031992681173653677,-108.51062850234254,120.42003659262556,-9.963306676299087e-05,102.7331609624581,-16.633696966047587,-18.25503644186544,-0.0011148423703179885,-8.884754583329375,9.186950419563336,-0.0019214078497602869,-3.1063686781440145,-9.62498006729512,6.464533718050577,-25.051341619551955,-11.323594321273466,2.426790330059433,4.462762901380181,1.4195662213214801,7.130745719358513
-7.241543105957045,0.0,0.0,-6.5691605401572435,0.0,0.0,-26.96329143814872,-7.421221671086827,18.040653239426394,12.371250292988659,1.9991248819229388,-18.653524942724967,-40.06207310795144,-10.554510823365403,-7.599182836679715e-05,-6.276429859740067,1.7249557376083036,9.530588828776897e-05,39.11871129614987,23.692088870964675,24.537528462373825,0.041060538476601564,3.400646041652922,-19.45256945046018,28.429873824881415,13.416244391642701,2.540769111921,45.82825007188665,-7.426414791008084,37.830977220356154,127.16114620959644,-0.005619310182180329,-107.88182702840183,120.53258505412023,-0.0011305935374993808,103.54172210152696,-16.308446672330916,-18.37656867518647,-0.005629310475781978,-9.411451708851235,9.333267270788232,-0.00011194481359400702,-3.1310924482417453,-9.783854761231796,6.099642773774863,-25.093299065954433,-11.336490000077228,2.0259951705670365,4.649943670508589,1.032276176492994,7.213342239229455
-7.512176763228616,0.0,0.0,-6.233639084879076,0.0,0.0,-27.984161908939335,-7.585688250565145,17.061630704217,12.661989590077225,1.7615748965787303,-18.833282005823968,-39.939772481152175,-10.10764585669126,-0.0001524953878259456,-6.0036309636639515,1.823965756219298,0.00010979059361051922,38.876141767935316,23.750815274227005,25.786164343318603,-0.6193216430471552,2.9865251058735276,-19.530431751652205,29.122677743975075,13.397091656200908,3.0892219267310868,45.667945645239435,-7.260600473247075,37.66885734942408,126.42929505385453,-0.004082534814032319,-108.50233303128108,120.64362908111809,-0.0013851232928120032,104.04546775329719,-15.269231881159278,-19.092558578453424,-0.007954735226109082,-9.578247673422872,8.378449177471255,-0.0034241386577905505,-3.383926709412152,-10.008388923748978,5.971247301978497,-25.364717903625937,-11.497384093690636,1.8206292228900383,4.77770489780556,0.5509404809962849,6.822103594673463
-8.007819962558251,0.0,0.0,-6.8341000157517025,0.0,0.0,-28.78574794929555,-7.6632018082972895,16.36062641830376,13.071893676554726,1.5967408716679161,-18.77367199893263,-39.79447530310413,-9.842617956160082,-0.0005372864105465446,-5.975272010149557,1.9587780263823429,-0.00013385020583150164,39.03165387898479,23.829149167527017,26.19581596542232,-0.8865250028274144,2.695200718570707,-19.812601078281872,29.548745326824996,13.2111101054928,3.5880119265544326,45.54036528516651,-7.039899601525553,37.787555827402166,126.21012803090954,-0.0001733563313685391,-108.42966908212796,120.61558667904094,0.0010348144834645438,105.65536569334539,-14.737860870733154,-19.868302588212565,-0.0007502005057577916,-9.736198883283947,7.428802398253235,-0.0024240911101890334,-3.3931071054407282,-10.155608314356254,5.879574664961042,-25.386213804079286,-11.600113879262226,1.6789474874481627,5.004843791397268,0.21676432961587086,6.438959689471494
-7.693303715074283,0.0,0.0,-7.514792793417424,0.0,0.0,-29.198830725019345,-7.800436585131017,16.001213934129286,13.29107451873923,1.9276152452767166,-19.009020792235617,-39.48095162094291,-9.95827195613515,-0.0005541578123210277,-6.082995757490891,1.9382954285753842,-9.17458380542432e-05,39.19226824526903,24.05504714931199,25.84587976023107,-0.8256696534508525,2.538755196022983,-19.647118792256304,29.820288085776276,12.89107261715307,3.8032446650294394,46.03139889674013,-6.880414759874455,38.29096893133794,126.15724501827239,-0.0015325503887410135,-109.28537466860543,120.3825506059926,0.0033155131647729184,108.25870743999556,-14.930516418321865,-20.441150244025007,0.0012760913936995782,-11.000802056188505,7.048557697147998,0.003696084970895604,-3.2287996679919084,-10.12623625516686,5.582749217392015,-25.222685027874693,-11.463444581612807,1.413665188840468,5.2919981505028035,0.018478165570129653,6.5469355627236006
-6.431802724938058,0.0,0.0,-7.051051121084881,0.0,0.0,-29.493635155874376,-7.772971309499908,15.459063901213987,13.202450630378465,2.1363225505840022,-19.196579023761114,-39.213203740674125,-10.00743248654495,0.0007567200739672106,-6.181482706417322,1.7155558317915056,-8.912237957197855e-05,39.01887559931971,24.363676909599285,26.12319747101263,-0.858706801703601,2.381503431766551,-19.467091815355253,29.848866344074665,12.658216367407263,4.168953890368786,46.64236894391155,-6.654513389616596,38.71261755043233,126.10453383160167,-0.0007333137861323035,-111.22525622169869,120.20454049434606,0.0009046998429631818,109.54257220672578,-15.280535989841363,-20.943379426746812,0.000634411054600143,-12.42062590145549,6.873748812021556,0.006229716936480586,-3.4377066052061505,-10.093235800042871,5.415487925014674,-25.43056437417439,-11.37118316542407,1.2705078328383608,5.497671484191359,-0.1908476604561706,6.703447066295946
-4.776581278338973,0.0,0.0,-6.0203754968153245,0.0,0.0,-29.54874823263171,-7.701980239958123,14.900837352968203,13.074972982804384,1.8273372683108509,-19.099430971174854,-38.95611179133922,-10.029358037645897,0.00021742411571036308,-6.409938199638911,1.5138481774446333,-0.0002376811200360739,38.80329034272193,24.632018186552454,26.502414129760595,-0.8800744202474754,2.2361162636885736,-19.550401174041124,29.70505811008034,12.568671119572421,4.965580398426071,47.2265981243844,-6.520385309736347,38.85195808863633,126.12092471434997,0.0019721213428895916,-111.20431291604778,120.40366668007746,0.0006540863801974546,109.49745670774107,-15.05897808605087,-21.39393471486092,-0.00029610629620887527,-12.248160016520458,7.255001045997293,0.0072274061067376365,-3.845603458999833,-10.06083207597946,5.433604465825937,-25.835870629141166,-11.347815600177286,1.2997541146169445,5.7328091672716806,-0.30686057018409063,6.539725176230205
-2.4403939608480636,0.0,0.0,-6.378270592399219,0.0,0.0,-29.37055322402028,-8.383671666569624,15.142877562730346,13.155189405833413,1.5235573541350136,-19.362028000495542,-38.33978170600125,-10.51260811985138,-0.0029810152945110796,-6.81911140019198,1.3830430505059728,-0.00019252884197980795,38.804242320103505,24.976746947146264,25.477757956544437,-0.5578739927963902,2.318108995558298,-18.96277054252177,29.85425171269961,12.43680082564027,5.653840438924471,48.07666847994874,-6.6050927486516215,38.84648103064736,125.93874194148307,0.0021352960893131026,-109.68369965997866,120.83882155990648,-0.0017450097433032803,110.08077786474104,-14.287118749107396,-21.759312505043948,0.0005976074890743502,-11.133197758862474,7.502508957307539,0.0008675227227479936,-4.001062207853156,-9.667969196014676,5.4353253924809914,-25.962314830320533,-10.984132372475745,1.4512079086660072,6.166598159644413,-0.12369476066153416,6.58054467207504
0.52706,0.0,0.0,-7.6113,0.0,0.0,-29.53714,-9.18934,15.69228,13.52536,1.71174,-19.98271,-37.55246,-11.13914,-0.00132,-7.34787,1.16661,0.00024,38.79192,25.35199,23.94649,-0.23054,2.55863,-17.98764,30.31111,12.23946,5.90968,48.85853,-6.75796,38.88784,125.41404,-0.00765,-110.35455,121.18425,-0.00153,111.78447,-13.42862,-22.23365,-0.00068,-10.28752,7.33615,-0.00125,-3.76843,-9.19603,5.65116,-25.69368,-10.62595,1.83181,6.54346,0.16866,6.91329
2.3120200000000004,0.0,0.0,-7.771530000000001,0.0,0.0,-29.85066000000001,-9.430620000000001,15.687110000000006,13.791140000000004,1.90586,-20.303970000000007,-37.21729,-11.2484,0.0006000000000000001,-7.7716400000000005,0.9833,0.0005000000000000001,38.69622000000001,25.539360000000002,23.537250000000004,-0.18090000000000006,2.6925500000000016,-17.738060000000004,30.673020000000005,12.129420000000001,5.9194,49.24579000000001,-6.839750000000001,38.94131000000001,124.98042000000002,-0.0083,-111.84892000000002,121.29299999999999,0.0004400000000000001,112.77492000000001,-13.06398,-22.85367,0.0010700000000000002,-9.914850000000001,7.247380000000002,-0.00037,-3.4190900000000006,-8.99074,5.8993400000000005,-25.326810000000002,-10.52696,2.1410500000000003,6.6133700000000015,0.3143,7.094760000000002
3.073081348041625,0.0,0.0,-7.428640053033256,0.0,0.0,-30.01391377391058,-9.512240126916726,15.503532307904496,13.912519652133314,1.9658499243112904,-20.427087144665084,-37.116934857616165,-11.138505802367629,0.0006665851621698011,-8.100001806528585,0.8589882965596535,0.000586688617581895,38.64013370606068,25.63482546296024,23.60000559983556,-0.1670154655751957,2.754754629720355,-17.80274520880132,30.920496052381036,12.047000008552802,5.88638833698374,49.50526789399429,-6.871595923291703,38.988373308098716,124.69135567966342,-0.004241540637480374,-112.74167656506604,121.30883396273713,0.0014332666438193315,113.24412717802974,-13.087118342154579,-23.380456382407363,0.003928271871788417,-9.708313705338522,7.210992604178821,3.523158616529258e-05,-3.1746526895361136,-8.887201379184624,6.043350078686231,-25.073094267859098,-10.483974550783257,2.3145718987318245,6.6174966313859755,0.3985051060891557,7.166253637532984
3.206371894879454,0.0,0.0,-6.82416040141285,0.0,0.0,-30.05089235964112,-9.578052460177686,15.260276732759921,13.970833023982994,1.9626006076333629,-20.461386753371603,-37.09887230087485,-10.904021790706773,0.00023468350393002557,-8.446559802893916,0.7513544267816842,0.0004476112024815584,38.626179022105845,25.694366048657265,23.883153514449766,-0.11347105934832229,2.7696256730733846,-17.97971256376752,31.141404889536396,11.937769769362502,5.846734592491117,49.78973929258318,-6.8724195966617,39.04639470475443,124.43108410452517,0.0009780560792695015,-113.17117192181001,121.27528204768572,0.0021191253377656686,113.68980735645204,-13.430131434799312,-23.789482720245697,0.0020429249656623346,-9.518026611468196,7.159381128695504,-1.601935988323821e-05,-3.0180597359447123,-8.821580336916307,6.130235432642984,-24.9106505686312,-10.455098070799107,2.420459558302605,6.639729937338695,0.46636474972195996,7.196292786062653
2.824777046984275,0.0,0.0,-6.187625895886398,0.0,0.0,-29.994602384187058,-9.639762126972334,15.048513609749191,14.018599961254647,1.9488222003173796,-20.473366965131586,-37.108597377073664,-10.633519996530572,-0.00023172589681306704,-8.785176960865204,0.6741886317352187,0.00013619748658743827,38.63111026958671,25.72612219607033,24.26251392975686,-0.03938718148506005,2.734979979975602,-18.152433322894137,31.327492772967805,11.820564149943792,5.824796037776645,50.10002600965316,-6.84548847318876,39.1170666680924,124.18880502587231,0.005469145385375195,-113.13354820573655,121.2163170402768,0.00222317239253146,114.22069175617229,-14.010013788001485,-23.941594410200373,-0.0033812020786783835,-9.393309049981886,7.125988293684686,-0.0007112476261049634,-2.9629498020741547,-8.80361128085591,6.175086968275089,-24.853587216172674,-10.454944132393772,2.4690896912401072,6.680457164567076,0.5121080679903814,7.186165268579785
2.092962597817373,0.0,0.0,-5.728112659980456,0.0,0.0,-29.88954537184673,-9.702561175966066,14.941496943402187,14.105472230691822,1.9698326320706931,-20.529902813256797,-37.09805454829646,-10.41415730478414,-0.0004541153113193614,-9.09292288077489,0.6375061925318508,-0.000252242333525372,38.62838571508806,25.741625555090522,24.61784941191011,0.02937034313288663,2.656243814374823,-18.22426918767672,31.477130141059313,11.718073412311462,5.838871727748024,50.43163510163753,-6.795129942564928,39.202720515491706,123.94976976000642,0.0074845028604153966,-112.7052681133419,121.15848405169325,0.0015413912578665064,114.9149127185486,-14.71305740541143,-23.756877240466032,-0.009677567258269732,-9.385880226020058,7.157241827070567,-0.0021583286484654594,-3.00357410793841,-8.837663576137324,6.193576015029372,-24.896250391366806,-10.493354193745674,2.473414703029181,6.732816831721132,0.5324723173557379,7.136705616227729
1.3153262050480212,0.0,0.0,-5.582989269373453,0.0,0.0,-29.81087135903465,-9.754027997694013,14.956924654404702,14.269125958459062,2.0470041984314458,-20.69171784860882,-37.03964397364692,-10.322451338079366,-0.0006455149777958231,-9.35821527386031,0.6394454992046813,-0.0005135944914212517,38.584495262899,25.76052479402785,24.84725438601762,0.05104095475662858,2.5595123726009317,-18.161802720135398,31.607709088028525,11.662070571601827,5.88884186050497,50.764608730705625,-6.728297514392708,39.30699783835609,123.6887044563692,0.005796016368287886,-112.18828133678132,121.13377373326968,0.00011532192496920913,115.76322644491133,-15.343358851242648,-23.328175179654526,-0.010692802492664032,-9.546671992188191,7.329747045237979,-0.004136598594670564,-3.080367109361846,-8.911929245768667,6.2008680702376555,-24.97807152605356,-10.564951299287884,2.452048980271475,6.771461205952493,0.5311409907442071,7.048441747678904
0.7495511777676278,0.0,0.0,-5.722675009472671,0.0,0.0,-29.819119638867257,-9.787308195986668,15.047726660883788,14.502240009971086,2.163460462339344,-20.938690431028935,-36.934232462523035,-10.359556025426413,-0.0007539161886932086,-9.596864317543425,0.6625587779796939,-0.0005287271664838172,38.49056742266593,25.78778855201222,24.93164794186946,0.015903019979856377,2.465552926166926,-18.020894951040045,31.74351501508944,11.66600533122137,5.956767270174028,51.071191175790645,-6.648387110578312,39.42832291315657,123.38539686418964,0.0005689873462771315,-111.90990447123392,121.15502639463755,-0.0014534922465566386,116.72988806067313,-15.740274615814519,-22.839799847133524,-0.0067141797464332735,-9.842938299063762,7.653815288075993,-0.005227375610600769,-3.1344068157885947,-9.000289234425596,6.188320708543981,-25.03848337389111,-10.642312175503942,2.406823517076786,6.789653556986061,0.5115618452436149,6.932644893368485
0.5523662718098845,0.0,0.0,-6.002317350829646,0.0,0.0,-29.93892924042716,-9.824235192263544,15.143760739846597,14.765757270842098,2.279611351752355,-21.189927438541297,-36.79765982352941,-10.465957836429828,-0.0005898376412590794,-9.843966319487997,0.6808090851824093,-0.00027953602764612523,38.36495523053217,25.812440262465277,24.906534732910366,-0.04870631246214517,2.3850573122522776,-17.90185139950334,31.905443304663567,11.723697751129123,6.014562413448813,51.326888482423584,-6.558770526797518,39.5610586356641,123.03417969829428,-0.006022180667460811,-112.07146205994867,121.21344907921704,-0.0023831955034246274,117.7760208220268,-15.834654991540654,-22.48200221871084,-0.0022320505670267382,-10.180352462322983,8.078581111672852,-0.00417830171952582,-3.129925830448449,-9.063692996641034,6.126896763158457,-25.039410033917534,-10.678505537590295,2.3254811782560316,6.803963706613592,0.4777923769401165,6.814838765224492
0.7499907715159264,0.0,0.0,-6.254984445088439,0.0,0.0,-30.142682510335124,-9.93202970848027,15.205636677581824,15.014319026710243,2.3553419771020048,-21.35329951176647,-36.64265507944179,-10.560582572639401,-0.00017142849835962256,-10.137642480897544,0.6704330836462342,0.0001586568381735456,38.24655341876938,25.813650766257187,24.81078796907385,-0.08690358879854813,2.319642739662363,-17.88298737913214,32.100623444566814,11.814985461867373,6.034323316494625,51.523801542272814,-6.4688015002646475,39.69931577867889,122.65205825697588,-0.009722486243109707,-112.61047613192846,121.28214036600372,-0.0022614461372809477,118.87005697088236,-15.690204193355445,-22.360797853422234,-0.000636830219541498,-10.458245828666216,8.524209841296065,-0.0016439740028688023,-3.0674479277973985,-9.054000041148301,5.980066937355467,-24.978422051860314,-10.61540504449216,2.1922848724797737,6.84859324964975,0.4372249484175812,6.734718518726226
1.2260003984302261,0.0,0.0,-6.410903514231115,0.0,0.0,-30.359483242031963,-10.169228317609994,15.247753641488542,15.223920596296372,2.363965301472952,-21.406738788881093,-36.47050326585393,-10.612762337052347,0.00020167059566589225,-10.490427098914028,0.6254523543185291,0.0005370441154652392,38.16531945736301,25.783088975098487,24.646533527061884,-0.054163606619625035,2.2688791720815344,-17.953404142762157,32.31748034297283,11.920086986464165,6.003315950559162,51.68142063803091,-6.394833268558943,39.84442665296943,122.27352297737633,-0.008472695609485891,-113.24094559598171,121.33195254181892,-0.0012467133813201961,119.9754511926829,-15.46654804200041,-22.441500935037734,-0.0010283716675548312,-10.658874519568094,8.931019590146247,0.0007584995390839357,-2.96821661899276,-8.940441776766939,5.73621628013954,-24.874686648456954,-10.420181788813277,2.0081063473547,6.9476725236677455,0.3992239085919003,6.726750748631638
1.7697621670736745,0.0,0.0,-6.468103567835584,0.0,0.0,-30.51888617569135,-10.529546501319857,15.293156724507499,15.388927786007764,2.2954532680543895,-21.387341895858373,-36.28199236392702,-10.636946497172701,0.0002697501738488274,-10.88745892240348,0.5560243039245462,0.0006040020646292855,38.12563345733078,25.729406543882355,24.419470445092706,0.059745750261865294,2.229255024872755,-18.04563687885926,32.534862835052195,12.024399175092013,5.927295593490467,51.83353037786412,-6.350961621128828,39.997019457559595,121.93229341672065,-0.0033958463030049776,-113.6487226416482,121.34278287829156,6.02810057224723e-05,121.0324803723521,-15.32052512439107,-22.597089525917113,-0.0017256954161997892,-10.81882304955987,9.24820034593293,0.002029809385585291,-2.8588918723186225,-8.732133079772188,5.421803039838297,-24.755195486131235,-10.11102634734835,1.7941187018778824,7.101483938353597,0.3680741481421881,6.803800808515382
2.1348015403384326,0.0,0.0,-6.451490110189039,0.0,0.0,-30.585786526581572,-10.919923587935596,15.338591936235085,15.517234896274239,2.1609868289663807,-21.36811082839923,-36.08697553998123,-10.67384996804155,5.248644864692571e-05,-11.292147494400885,0.4829095186349479,0.0002762273817267126,38.0999376828177,25.676644355879436,24.170990315830153,0.2208131247827101,2.193475055647724,-18.07704463434412,32.73136374980345,12.120393843863054,5.829623073182982,52.014114512787785,-6.340714729197747,40.1494958854096,121.6461674862168,0.0017125220986413177,-113.65356924218551,121.31209097420376,0.0008649830041825904,121.95886791118615,-15.323860430045375,-22.66929807524457,-0.002610732695057714,-10.984518637318791,9.431001449122014,0.0025510973373386605,-2.7609458159670304,-8.488918211639794,5.104299419540494,-24.6448746550315,-9.768301704502665,1.5904360996980527,7.281407944583936,0.33905740091920306,6.948207047641532
2.1634187369869853,0.0,0.0,-6.359823244392381,0.0,0.0,-30.576291879349977,-11.240979466106541,15.354290906706035,15.625012943392784,2.0028093793826636,-21.408096442998644,-35.90744553032989,-10.742639225844703,-0.00018412620975396868,-11.672925749722532,0.4202212485715675,-0.00020116641206839088,38.04964815372119,25.647345036674093,23.969983815277278,0.3744489915702766,2.154871901190883,-18.014309016360478,32.89754864871954,12.205367283386598,5.737261998461343,52.23816240103305,-6.3517294330203695,40.28250005884309,121.40733577291982,0.004817213984476146,-113.31549869685445,121.25975632341573,0.0009004198983026416,122.71089293565761,-15.406804083522125,-22.58436874502516,-0.0030860660362548187,-11.133365879180868,9.483011319110306,0.002622572764098718,-2.6846322549130863,-8.295030822519578,4.864436272621633,-24.558654568327963,-9.499948757017643,1.4403765742803496,7.447529160854279,0.3050644710700873,7.123723145871253
1.8388088994020186,0.0,0.0,-6.183441721467054,0.0,0.0,-30.533884604769217,-11.444836281608643,15.31952336821147,15.734350479247196,1.8754189866295787,-21.53182474833002,-35.76632409746369,-10.834582093215253,-0.0002598350578052368,-12.019050534746516,0.36681319226097675,-0.0004822550877702844,37.95015848395841,25.6530016565855,23.86488643538782,0.4791807807603228,2.113925015764529,-17.878058998633925,33.03433603162991,12.283344515386986,5.664499661369283,52.505425653993136,-6.365691214197936,40.38096097044447,121.19110282140194,0.005650729057573213,-112.80921482686679,121.21402840819201,0.000499285313329905,123.26219237610448,-15.456503115919244,-22.362714279242358,-0.0026845987185789184,-11.213721882677056,9.461833889009842,0.0024746076021088153,-2.6264211394725985,-8.212152674195499,4.755635654630566,-24.49631643987515,-9.382925355065924,1.3703881693672473,7.56979662027247,0.26722024414550366,7.297943461946195
1.294663011746284,0.0,0.0,-5.916319743361096,0.0,0.0,-30.517193889942213,-11.540596743094984,15.231387511130107,15.868912037099953,1.8263651272318384,-21.72153068389106,-35.68029400791305,-10.916230203479284,-0.00021493210952639103,-12.344037133142484,0.3065333509954659,-0.0003076862566682149,37.80078362187365,25.690874441546807,23.868122711620828,0.5218805881529519,2.0786208004348774,-17.73274604491735,33.14970328230845,12.365891432952115,5.603917860603236,52.80529731054203,-6.366290020320504,40.44107600676648,120.96395986909236,0.004863523258279976,-112.3350375981838,121.19850935987793,0.00033035738122935547,123.57105752044436,-15.390771874387331,-22.097924427815904,-0.0015356424113788093,-11.18090930565303,9.452333209984221,0.0022304677156809397,-2.5709231770574994,-8.254520560301652,4.782569494275982,-24.443184872107135,-9.432174765390027,1.3794575172136307,7.63698909984657,0.2369645756260439,7.453603066651615
0.7768818312823819,0.0,0.0,-5.5638554448331305,0.0,0.0,-30.59390196254144,-11.544171860801173,15.084609898962828,16.043897776610493,1.8661652855460102,-21.920561398728275,-35.65393568096621,-10.944276907167403,-0.00025326588254481557,-12.676363704340755,0.21995559183124205,0.00026261257543119614,37.62258378426526,25.745889169798346,23.972261255436766,0.5196004904739562,2.0567201150847656,-17.653335593084304,33.251735434334755,12.470634220188408,5.521371772865523,53.12428404631089,-6.34910266575595,40.468008229140004,120.69611292459741,0.002079507523386076,-112.03131389324832,121.21316976856394,0.0005941024324164872,123.52784985099828,-15.235608438002323,-21.89065447545041,-0.0005656006720220914,-11.03799110534914,9.484738053489805,0.0016223385612129377,-2.500212013066347,-8.377153243457663,4.8920096610360115,-24.379125410609298,-9.586318703220167,1.4350099582719427,7.656652213956854,0.22800525960434267,7.592776845921052
0.5265659177736752,0.0,0.0,-5.160460533002075,0.0,0.0,-30.81261148141226,-11.48389820181763,14.870754660021358,16.268736413663035,1.9742742912629596,-22.087626271720158,-35.6819986953817,-10.893256604491215,-0.0004038006643446743,-13.040932062467201,0.10524192550297118,0.0008713373175566301,37.44741738439229,25.795679877531537,24.15202486858048,0.5021466190578732,2.044992377915401,-17.674196135318283,33.34102114298807,12.608307857891988,5.374228430693253,53.442745268933336,-6.322479424651743,40.45478609463167,120.3743437417958,-0.003001538723083155,-111.9917142499066,121.23798799537329,0.0007866623709544378,123.07274532238124,-15.059251541161638,-21.80584885622472,0.0004101185387099394,-10.77547501583913,9.52226913288551,-9.068542161376056e-05,-2.4040932482593185,-8.505858718826332,5.0142492651911965,-24.28999683743928,-9.750813704231518,1.5001741687728771,7.647901089575888,0.24196311778406918,7.723412815945532
0.6937192729115629,0.0,0.0,-4.764597600425479,0.0,0.0,-31.17526850946437,-11.407605905117594,14.593416375003573,16.54743229123295,2.1117488120256467,-22.21948752038003,-35.75336430975128,-10.770589288740306,-0.0004981478838407697,-13.450713088875675,-0.01850500738439241,0.0010666898399615823,37.31058326332759,25.8159351294861,24.354358060267487,0.5002465204302525,2.0296312570893393,-17.77818767900206,33.409414254033116,12.778167921922096,5.129388818380644,53.73538973569706,-6.306048464416257,40.38381180093715,120.00290410270735,-0.009503995015926102,-112.23685750773133,121.24357228041164,0.0002441304476734088,122.25445237168593,-14.934543618686487,-21.849219691170184,0.002333669255306134,-10.365834277627762,9.498037149327583,-0.003309953080399525,-2.2826180588800318,-8.563991727774793,5.0903616310981885,-24.171510729280936,-9.832823477931335,1.5490638006093087,7.636840371547344,0.26636111234535004,7.8490728077304555
1.2390651465077251,0.0,0.0,-4.435569092421295,0.0,0.0,-31.602150253307183,-11.386449862471158,14.29275788390705,16.8755357668763,2.239492537853806,-22.36000970053342,-35.857153546463024,-10.627319503461237,-0.0003135881696522333,-13.900810140916844,-0.11658250794196817,0.0006526145330850467,37.24123968383499,25.78839450041424,24.48594046968005,0.5323883558364743,1.99278140769299,-17.904460355923778,33.442882608185094,12.967029375662355,4.785982049724467,53.97560181638561,-6.327856288650799,40.242650116751406,119.59758306000461,-0.014194853718590304,-112.64607710344472,121.20798101180844,-0.0008436473368202355,121.26346463288412,-14.910738887280905,-21.94326696323369,0.005256949294460645,-9.796059978635556,9.386200114820111,-0.006728108748005456,-2.146195908771598,-8.506335223749126,5.098574953503426,-24.031285912591173,-9.782353187530509,1.5785249004610222,7.650758551062272,0.2789097144188948,7.958853546281728
1.9644021497828628,0.0,0.0,-4.16363566530559,0.0,0.0,-31.96096736382652,-11.460445315293748,14.01808819770339,17.225230567113538,2.327792555593019,-22.5381340303854,-35.990409962145335,-10.51435520809697,0.00015341556237665117,-14.374569915655545,-0.16337519173502826,-0.0001598197894416211,37.241670644287,25.711702129273597,24.483230482884757,0.5947024091246105,1.9254539740613048,-18.00518698746958,33.44040525996974,13.163465997241412,4.370251074967414,54.15421002621761,-6.416350515014548,40.05555633011788,119.16091481548719,-0.01371700095879522,-112.94023062599273,121.12676650555797,-0.0017113708831049466,120.26621583080725,-15.039905095877662,-21.947911878013187,0.007214427854357109,-9.180875105416813,9.241205599069822,-0.008452822214968113,-2.013772316632248,-8.338967013514944,5.039847539906562,-23.888826323249717,-9.605386380549811,1.587102020047702,7.701325282164617,0.2651364422489077,8.041234666202243
2.6259451315095057,0.0,0.0,-3.900888799590544,0.0,0.0,-32.12078889215091,-11.628516776708457,13.807662190829745,17.55644724076417,2.3587618123917,-22.756517092044465,-36.15600735550678,-10.45833602174658,0.0006936221014398525,-14.852212211669725,-0.15009591977729442,-0.0009258044350727365,37.29111717712562,25.60317621045327,24.33893368448292,0.669346467734422,1.833027201125881,-18.053530874595957,33.41647334214877,13.362368167848002,3.911159427738603,54.28432624811544,-6.590747600856918,39.87306421480158,118.67830195325271,-0.006231345469038165,-112.79871654367227,121.00886731289548,-0.0014410102311957964,119.37590639977962,-15.366105209952437,-21.713734532434007,0.005606891991170566,-8.71553019412414,9.15863657061115,-0.00789742783141372,-1.9050619362619616,-8.107458832266962,4.919616709954877,-23.766961840865626,-9.346211306102008,1.5625648952662257,7.782505928232142,0.2277159723844444,8.100334357567966
3.0602448861792326,0.0,0.0,-3.614817750878723,0.0,0.0,-32.010746109690196,-11.845746783941472,13.670421072392262,17.834697208432367,2.3297631340058746,-22.993115462425223,-36.35863162476003,-10.444625717966552,0.0009353520081945735,-15.319987634357375,-0.08956457588779775,-0.0011851799169835,37.357272608552876,25.496407144392293,24.112961958252853,0.7374613287901699,1.7382318503101202,-18.04363266348508,33.39546843868996,13.56634020875514,3.414219275026942,54.40024836842686,-6.850306591657973,39.75005064932605,118.12136926213824,0.007007118625909276,-112.00675962613754,120.86934952439674,0.0005507104251062012,118.66510312454133,-15.904133909189056,-21.13832618993548,-0.0008306042866820604,-8.581298585277853,9.216495357766895,-0.006955810522589921,-1.8317117571817516,-7.876392372560387,4.731953474702885,-23.681530306151895,-9.062572120372106,1.4749814864351545,7.873457415555697,0.19182720288621144,8.168402470191369
3.2782220657619057,0.0,0.0,-3.3488340053927206,0.0,0.0,-31.661639323660715,-12.028398799302998,13.578403537934134,18.05561893315588,2.2622404267864664,-23.223171793965037,-36.59994437585931,-10.430525616582399,0.0004100220300853998,-15.778986325599396,-0.01511830601985076,-0.0006290394916867173,37.42872497104606,25.41777050219716,23.88204800675188,0.7990073145012879,1.6708621443958351,-17.995729722652573,33.37598491316009,13.778474583683765,2.852668006356487,54.52977134090699,-7.167562963446452,39.703848891394955,117.47277238001564,0.020868327959847017,-110.59370091790471,120.71627920185202,0.003829488132900223,118.25321083093036,-16.618401958609887,-20.193991023178228,-0.010046931968649805,-8.77306832216198,9.395961063207233,-0.005701018613834622,-1.791589637496765,-7.682990035091469,4.461014976332337,-23.63253960578276,-8.78316794767928,1.2956154639072892,7.959031944516018,0.18879058575557167,8.284656036877418
3.4312976258471304,0.0,0.0,-3.163337581233886,0.0,0.0,-31.17163761559214,-12.080024689215644,13.479732567323467,18.234507151601484,2.187695494669059,-23.41758843258123,-36.88239988437293,-10.364227036330648,-0.0010244981874901046,-16.240556017591516,0.03509368987147812,0.0006182329204889287,37.5168094646789,25.367739490655502,23.712259737675552,0.8663411307508636,1.6478046750963893,-17.96641132705666,33.321191928105414,13.999955317432512,2.192902197316232,54.67393536144749,-7.505529286189338,39.71975568179716,116.73143789124612,0.02842781869974988,-108.79267916388861,120.54922092170506,0.006291203978549312,118.13633330106104,-17.438734609816684,-18.90728204160064,-0.017724668231299652,-9.167745803871258,9.592456909697384,-0.0032870194134273813,-1.7782721233521346,-7.52640840613832,4.09933776166916,-23.61309523314138,-8.50446554307584,1.0179327011974557,8.035999207967482,0.23353165367138418,8.464214797960675
3.7748396749030877,0.0,0.0,-3.092485476833319,0.0,0.0,-30.667588802740426,-11.92441166830138,13.325119998896922,18.396508997372433,2.127053180265992,-23.55032640339422,-37.21124988545522,-10.209800098825818,-0.0028153416476089247,-16.71922363802645,0.037542234163304655,0.0018524006753125486,37.65192448000482,25.31509600934788,23.628090038006604,0.9554284281962659,1.6609801777607494,-18.03790716946885,33.162822593680104,14.229290536638727,1.415339230407781,54.799400382444354,-7.835050095147198,39.764221939627426,115.91116047041231,0.02350883770305643,-106.97955688780488,120.36103614187182,0.004585027778783732,118.06529352123894,-18.274265763336015,-17.34618930282621,-0.018812256743346262,-9.60930364292307,9.649826713077333,0.0007360803995057463,-1.7834568779700104,-7.372229476021124,3.6627545699370834,-23.61224855939865,-8.200363477939575,0.6697266416229029,8.113808816132721,0.3130658348512708,8.680357447779567
4.600534671191888,0.0,0.0,-3.138744258664172,0.0,0.0,-30.23693657218888,-11.571630141323837,13.140994157992132,18.567498683327095,2.0469458237824685,-23.638583093271013,-37.59103814501625,-10.002475903636624,-0.0034631082907774563,-17.217098964590352,0.02022116396149691,0.0020189373215581657,37.868395286133,25.221222791993743,23.549665367085687,1.0708274501167978,1.681188053909021,-18.243090855667813,32.839140345384436,14.463443696293945,0.530328570803149,54.858812381250395,-8.15864319587044,39.81725795650745,115.02556420489407,0.005597705172614303,-105.52603351258563,120.14631856362622,-0.0023559095675563537,117.57204929169413,-19.030573309647384,-15.616809742784886,-0.010879609228989921,-10.040296833372732,9.463717702548536,0.00475326174355363,-1.7811624701605357,-7.192111451550676,3.2000754523501502,-23.6019882176811,-7.8625345009559915,0.30707821326005513,8.204852178726174,0.39796113720645354,8.874035955473843
6.058916376116074,0.0,0.0,-3.28515401521045,0.0,0.0,-29.905614939828396,-11.082427339736352,13.008044291638843,18.765838686345766,1.8885631377680572,-23.72777184153336,-38.023708692051585,-9.826049450055539,-0.002185062349372888,-17.72686594202765,0.03867576967151925,0.0008102385750363877,38.180956829676674,25.07252363322239,23.345477839784934,1.2023289505853603,1.683094468081171,-18.54765793066046,32.32416429253792,14.69589512715345,-0.4344405148859945,54.83310580767002,-8.492256956389104,39.88319487080346,114.07854657904778,-0.019225869239886128,-104.63830797987758,119.89646635137721,-0.01173319187127943,116.4543745666464,-19.64300690252418,-13.831983362137287,0.0034588561742568717,-10.456451771208538,9.04706395234603,0.006908747653966508,-1.7169213537473973,-6.986092413911171,2.7629615680881066,-23.527813154819903,-7.5100643067206025,-0.022024122930180322,8.307704851266154,0.470344290562989,8.999736588885442
8.050422593934524,0.0,0.0,-3.488059538978783,0.0,0.0,-29.63687214926454,-10.536630843657168,13.014693945940225,18.994721825869945,1.608902489528702,-23.85781196210892,-38.50877699712611,-9.76625671143864,0.00037297376504866035,-18.240538329900446,0.14333686618976815,-0.0010563059177349523,38.5695313424188,24.888749687317233,22.910052998107453,1.3272548040776904,1.6548345087249055,-18.875085672808307,31.633197936969484,14.91611513863556,-1.4405646463489696,54.75181788030469,-8.845043762352379,39.9895950418969,113.06235488995455,-0.03973438175838528,-104.27445737780634,119.59019487355445,-0.01781980753538768,114.9618261753574,-20.100026210463575,-12.072716517902773,0.017139403838883783,-10.86463869145642,8.530180980217956,0.006247539962422327,-1.5216877730180238,-6.780632949690752,2.386079647305406,-23.322367262403006,-7.180319188032852,-0.29534697071046245,8.399887488734088,0.5329624096303016,9.050120872034022
10.147768082212606,0.0,0.0,-3.652129051610224,0.0,0.0,-29.34975195444162,-9.996462438960926,13.167063063025832,19.231705864016657,1.252246678198956,-23.997677956067598,-39.04455298900477,-9.820121305344138,0.0021730074011703207,-18.767257612375708,0.3238447738979441,-0.0022881522467141234,38.96561994925388,24.711429570219174,22.29959929555222,1.419854145526384,1.596994747718381,-19.18317577053437,30.80723778277941,15.111084631871167,-2.4424241686688855,54.70046712150466,-9.188551485408482,40.17480313571475,111.96242208645579,-0.04433648600475094,-104.09771444089718,119.17559810642749,-0.015897802219998,113.74323868176879,-20.468451809571178,-10.323085906452574,0.022622929145668276,-11.233634198887458,8.096373008793103,0.0035956815634630664,-1.159643985959027,-6.602817161036244,2.0706010675370026,-22.951323253029514,-6.898874647136369,-0.52195372674444,8.437832591291818,0.6037850860062133,9.070927788672098
11.972558161458378,0.0,0.0,-3.712191636071078,0.0,0.0,-28.979156453728557,-9.552021882643201,13.41477102202395,19.449505937752452,0.9253073544712028,-24.08092975512256,-39.61729204167362,-9.920029265280453,0.002073477112889048,-19.327746961883413,0.5238595181369697,-0.002085115415791572,39.291428801986136,24.573511262625367,21.658992447726543,1.4682796686953183,1.5108229879897115,-19.4718108546943,29.86823727860553,15.27625831089602,-3.3917768847167795,54.769935472293746,-9.468368105203531,40.469866694412346,110.77506134368926,-0.027978113237556623,-103.66827472041257,118.58021685442465,-0.005250267568599854,113.25007348436498,-20.86119679094515,-8.503482840072317,0.015607050654309819,-11.53084307186722,7.889565327129968,0.00039565280638559927,-0.6621043034135139,-6.460403865851366,1.8288042695870999,-22.446539101948332,-6.677465015952468,-0.6933563856283218,8.389266011581109,0.6968596277526294,9.1212945688896
13.360270138901067,0.0,0.0,-3.664375131754583,0.0,0.0,-28.49826973030674,-9.310602712207064,13.69144929514191,19.627615434419575,0.7459616482828383,-24.05150824984951,-40.20244083854226,-9.984002047549964,0.0003423898786739173,-19.94004735186137,0.6749669633161406,-0.0004931740944821615,39.493248783117934,24.489693967776017,21.130794103174367,1.4793765378077433,1.397769470729943,-19.756644824918908,28.803076495714702,15.420185396097947,-4.251964705657128,55.02064080545692,-9.623453038148693,40.89321461198493,109.51203297922532,0.006037061373243603,-102.60684076815937,117.73451609564648,0.010789289974251357,113.56355910908265,-21.41010727758394,-6.544806499014775,-0.002977141588911077,-11.750025628200515,7.980992835193564,-0.002386257605562,-0.11457980169838904,-6.3486355119348765,1.704449388673991,-21.89361824332579,-6.527817236737228,-0.7671342993939814,8.25202820896401,0.8181788413991119,9.247363604028994
14.43270160977396,0.0,0.0,-3.5726124503061145,0.0,0.0,-27.92594011641498,-9.348612813702193,13.963957011678943,19.760876919360463,0.7730580001142889,-23.919377045232512,-40.77292851636629,-9.982007101002708,-0.0015178910182985141,-20.599785664080734,0.743471703064669,0.0014847518015198432,39.57862071061377,24.4534126024236,20.748619268448998,1.479699190449144,1.2631680694449854,-20.026928271459603,27.558852011523964,15.566118290564916,-5.019065121240354,55.44671014589551,-9.610150053600295,41.44974139662336,108.19810516891651,0.045842354990556174,-100.78806385272051,116.60638313101654,0.026379822300853138,114.37412664676044,-22.230553674061483,-4.494525395177543,-0.024853971155769906,-11.934095752014445,8.348186904880267,-0.00523362729156009,0.37719548494020266,-6.269198935673374,1.779038237321752,-21.398869750849215,-6.481554117371273,-0.6681837045973145,8.070417000548609,0.9664626988632204,9.4574088488827
15.17464488254777,0.0,0.0,-3.45190815025261,0.0,0.0,-27.267070129380745,-9.59504598135402,14.227798120950364,19.846013338904697,0.9853088878862172,-23.75056026998974,-41.32334058145094,-9.940354234051886,-0.002309163391758825,-21.28152408876716,0.7465560387753212,0.0026873636153306344,39.60753463252095,24.45122611431378,20.467195440498205,1.5033402663380389,1.1139236378964579,-20.23811892013996,26.090398762267803,15.732357157096747,-5.720179207427487,55.99497716676085,-9.399594674216639,42.14313327333633,106.83864909692389,0.07668654317219764,-98.42943147013312,115.21793928532998,0.04009789208817244,115.34554220748754,-23.354650548096583,-2.550347354389785,-0.034874849701457905,-12.116313019307208,8.888183998240432,-0.00772010771953684,0.7359964386524451,-6.246491333211141,2.088406508632298,-21.04008956379048,-6.574557376242377,-0.3722497903642263,7.913132467015347,1.1364510587840182,9.732404697739902
15.407079285378236,0.0,0.0,-3.2683018703343385,0.0,0.0,-26.51146992797247,-9.872815588603812,14.495528255628354,19.8817193188567,1.3080525606055404,-23.627303549013053,-41.86437069524247,-9.914342690546288,-0.0015324808579986011,-21.9529818557505,0.7335501317109722,0.0024682693446207047,39.65280014700706,24.46680815666506,20.2145085138739,1.5765378246311328,0.9511125559560106,-20.338953411656007,24.39125415667119,15.914590476154366,-6.374843972318079,56.602358520508396,-8.96527297016468,42.983122731868455,105.40488712588194,0.08424445931805936,-96.02084348401662,113.62658787777544,0.051411494409448734,116.22014432040632,-24.662595886507177,-0.9857118343931696,-0.0238611608805412,-12.272712588499292,9.478625558268657,-0.00837201979509518,0.9299356671974539,-6.30849172806199,2.587062223484207,-20.849356557180187,-6.816034532400732,0.06803826202897885,7.840869278439611,1.3158668481134055,10.041352372981688
14.906080177797906,0.0,0.0,-2.9732896390322545,0.0,0.0,-25.654315605622834,-9.979124952379417,14.784896138982042,19.872883239853362,1.645087304166085,-23.607485521297548,-42.41097913963504,-9.95790967893332,0.00046762929649080316,-22.58804302333428,0.7631861965818907,0.0011557107060886306,39.760095749685846,24.481674581935504,19.935322782477282,1.7015700485285876,0.7641592801378762,-20.304612962606875,22.514287797560907,16.071039388069458,-6.953730619698793,57.23047229283318,-8.275581885359163,43.988395161815426,103.82711319414722,0.05837158660995745,-94.20774705159316,111.90152040740467,0.05560670015953808,116.83516870375654,-25.82942179142012,-0.05311873421155444,-0.0007362885877051895,-12.293970222305282,10.040007356055732,-0.005113233968455612,0.98336101972719,-6.459875169790255,3.1389201131979965,-20.801760993917004,-7.160121502267453,0.5245309528972895,7.875955829503142,1.4827778916869276,10.35421354863978
13.887819328928968,0.0,0.0,-2.611002195561568,0.0,0.0,-24.76730961127614,-9.858762826887471,15.100617960779818,19.839990183818887,1.9231225038383917,-23.6910785414864,-42.96006093333517,-10.087572248125754,0.002755782037620707,-23.16942962763061,0.8738173655230265,-0.00044484090099604205,39.92006792047474,24.472811809113598,19.601600546813454,1.8416665125956995,0.537918879982385,-20.175323700818932,20.54787187965403,16.126412207605096,-7.355026486769023,57.88396790164922,-7.313575308292258,45.17291259908799,102.0217355503269,0.0012094602221546205,-93.46069300788592,110.09050784313821,0.04014711456997415,116.95392822189885,-26.404915674018117,0.16779957191045264,0.010179933602149438,-12.052131794676324,10.580525367001874,0.003161301439155275,0.9694601934686417,-6.64675598576962,3.6153426623301494,-20.822420714085208,-7.50933703231832,0.8977083389274584,7.988150356183514,1.6131358921145096,10.649171616883846
12.908029605153963,0.0,0.0,-2.2803648837937893,0.0,0.0,-23.976603848196095,-9.588655264804535,15.422176204744487,19.808317729960883,2.1104652494898968,-23.837037445584695,-43.5013986977733,-10.276785312912471,0.004332903323957654,-23.68376580426878,1.078262916103535,-0.0015789053110129307,40.098067602575455,24.422050718071265,19.20558945302914,1.938345707183526,0.26743991893221913,-20.03524479080602,18.575466594936916,16.00777332840624,-7.474046460893625,58.59498121580471,-6.1035204311554025,46.53111924760419,99.9219579302474,-0.07179092134270668,-93.89509513997018,108.21826937257586,-0.0015976818822334843,116.29881170042916,-26.02706820308818,-0.21444196032412047,-0.0023257408952454444,-11.475566193861965,11.133276339549647,0.015412144488902987,0.9783320032680655,-6.786710714844448,3.954099453434727,-20.81822430592198,-7.764198188916873,1.1604640984863626,8.121101393312054,1.6954495233302371,10.918207449679281
12.634186733452534,0.0,0.0,-2.079789756271955,0.0,0.0,-23.420212122259947,-9.330323064606102,15.699828484062996,19.795949039675538,2.224214702741743,-23.979612967738614,-44.03070943198204,-10.458327401226072,0.004431266048299553,-24.11987819539428,1.362815015915032,-0.001855569060638491,40.26078399049069,24.32290744269986,18.757561856831135,1.9300130509773012,-0.03375953819490632,-19.986498954314225,16.6478707484616,15.677597703906496,-7.269627190178507,59.407860865653525,-4.723074336198561,48.030937806460614,97.49670042482424,-0.13517298443626505,-95.21371803073794,106.29208452030434,-0.06102279464245847,114.64969708613341,-24.571423782270237,-0.9331237720396159,-0.024220945648800785,-10.578139902324713,11.699150341250649,0.02751295040942781,1.0899925671120447,-6.804112842191183,4.174716569481793,-20.705637738721336,-7.86168851737003,1.3592561919152646,8.2147108263801,1.738402172022297,11.171807295602175
13.294101974163171,0.0,0.0,-2.0040686822389837,0.0,0.0,-23.14809482937593,-9.2087255508985,15.866475222206905,19.794761915196496,2.319977483244723,-24.051334750878603,-44.56921165007589,-10.544449647966548,0.002583870831901963,-24.47276537488507,1.69202190545368,-0.001381751103762303,40.40796422662242,24.1839820365917,18.29045416648604,1.7834398511273946,-0.3351210016176237,-20.100827533466152,14.762518999056576,15.178023491150073,-6.85102268833995,60.35523454184788,-3.288724290947334,49.6196591931149,94.75805264268861,-0.16760154988991627,-96.85693180546198,104.3222465336984,-0.11137162580930153,112.09677826130499,-22.247563972453136,-1.7000272030774572,-0.03307639799631487,-9.41384358943551,12.178668685085599,0.03145214487321461,1.3391840032729263,-6.690516176549688,4.323410512983241,-20.449257474150066,-7.8110266303715,1.540224051468928,8.232447334254536,1.766942750183506,11.443225436973151
14.600183173313049,0.0,0.0,-1.965588812588273,0.0,0.0,-23.098838494541404,-9.264483017527375,15.871272677593142,19.77685794239839,2.4576668078191495,-23.991570079410398,-45.149265930132174,-10.463410700429804,-0.0010078654918849153,-24.745258375463724,2.0217288099367003,-0.0005085110482479348,40.563894484583216,24.01478230250806,17.851152815472794,1.5053912087903465,-0.610639915096869,-20.403457807545994,12.87958676919216,14.608355530448671,-6.411654803123646,61.438091695627264,-1.9059257443062272,51.24495294095952,91.73558322557797,-0.1558359900955173,-98.23068145592877,102.34471980828754,-0.12420069039408965,109.08179668631863,-19.448968523698174,-2.313701697358006,-0.022115538427404026,-7.99045205803297,12.403761149211489,0.019306222241221253,1.720970543327014,-6.489282028888553,4.420083387247194,-20.056302894143506,-7.659805205930885,1.7055850898512637,8.172252893525485,1.7991735504872644,11.774510224412182
15.908872025957221,0.0,0.0,-1.8420041372215334,0.0,0.0,-23.125287595955744,-9.448841627847798,15.703206960533592,19.709450729298126,2.6807675608954176,-23.756757536814547,-45.796318001116056,-10.186181434817845,-0.005186093562544973,-24.948317363827858,2.311363351894461,0.0003609755770542075,40.76411069598073,23.817278989075273,17.485309736179335,1.1428881644604914,-0.8534837523167915,-20.87036535548525,10.947447107267525,14.085407240433543,-6.1457507106858404,62.617243036937225,-0.6414285296555895,52.865297406857295,88.45466166469986,-0.09670469107142016,-98.8273131873157,100.43462328930468,-0.08455871571905198,106.3382133876372,-16.64253413016004,-2.686994175861776,-0.0021682538147319496,-6.247630754939366,12.205254874986636,-0.01147315506986164,2.2041498241704356,-6.268172116367556,4.444817133461323,-19.5619601725423,-7.463578506867706,1.811349479121059,8.069683408229858,1.8342745836799528,12.203499978092932
16.630823138885926,0.0,0.0,-1.5654244049427635,0.0,0.0,-23.070687962026845,-9.646455308441517,15.41673354176071,19.58315289269975,2.9960413135782007,-23.337966791012704,-46.50040909187765,-9.758350586241221,-0.0076287681683460265,-25.101002092836218,2.5420598891281574,0.0009968491078962752,41.032139718673776,23.578790382581747,17.209303780889115,0.7735155291480567,-1.091421440379414,-21.434744718502497,8.94819281026884,13.671481410417044,-6.115615482879363,63.810015156655375,0.49961561812729854,54.456710717666255,84.9078128308535,0.0004966333988550516,-98.33604910239453,98.71895320298208,-0.011857642875812022,104.71206216826216,-14.24014374974379,-2.829097889149439,0.012435555041183283,-4.078727925245103,11.54335915779018,-0.04932604829231387,2.7548473725964677,-6.073162755877831,4.347749483046168,-19.003074101891386,-7.246682684080125,1.793878363548006,7.995109960674264,1.8444884375832293,12.745240538348806
16.581501066318133,0.0,0.0,-1.1778663816124177,0.0,0.0,-22.858193339587135,-9.740682903676829,15.097785390899883,19.422078189635073,3.3801880360106025,-22.75418117144924,-47.2178393336195,-9.277217410458167,-0.006995435388679916,-25.23213227905571,2.7200862629443177,0.0013532086713786949,41.35633223173056,23.28132215030151,17.00094108194414,0.45888270616946636,-1.3728630730730609,-22.03354419453326,6.922802475390136,13.33903727214105,-6.236009223678898,64.92241016255454,1.5482548860488754,56.00273215973915,81.05204633201052,0.11398970977267814,-96.72344388450881,97.35160149750286,0.04814388164121626,104.76980842560562,-12.540913915791423,-2.7833349588185983,0.014632159554631019,-1.4173849720954237,10.584813271465602,-0.0709922787322447,3.341300105297395,-5.923885248857598,4.079684487353672,-18.412641238522347,-7.009224319783832,1.6001005968216595,8.008544124194813,1.7958200105932267,13.388115408640891
15.932367207887665,0.0,0.0,-0.8096723511760611,0.0,0.0,-22.492742805694824,-9.657166853794026,14.829713789193088,19.264329113992204,3.786587981005726,-22.039645839661528,-47.891369281918216,-8.854681670369498,-0.0036505187348539014,-25.377196162538187,2.8708283044050606,0.0014681496508233863,41.69207496238161,22.911642886732977,16.80940537928519,0.22181189062451978,-1.7457785131490937,-22.63078992775012,4.959681380016358,13.001003500356623,-6.33054189537557,65.87682568336784,2.545328429691073,57.495766421719,76.823511840602,0.21318619502097028,-94.21904990340124,96.47556566370712,0.05624662770734745,106.55811577820941,-11.694324381770176,-2.6086697368701603,0.005571234646429383,1.6965554604719053,9.638544311423296,-0.05694081746776527,3.932977532860317,-5.819139309037241,3.6118735193854965,-17.820550041527778,-6.739475547659367,1.203853614046715,8.133809270268625,1.6639857842232957,14.102450808340803
15.029301277718195,0.0,0.0,-0.6243991298935927,0.0,0.0,-22.03409960593407,-9.407692417303357,14.658530773980802,19.129549414352052,4.152804331259328,-21.232269821263564,-48.47830053652675,-8.571555961090702,0.00017996071975442333,-25.572528705151356,3.0298246399201774,0.001337484638673869,41.97483945759636,22.472729517005504,16.57317588798083,0.032198548645009054,-2.2320005903434996,-23.230140204769533,3.171029229538708,12.567639821070516,-6.2113434481708545,66.64230424324117,3.513624370859201,58.94454644219784,72.16108838241125,0.26296694949287286,-91.27945284549683,96.17021703813491,0.02116075726558593,109.39283255265977,-11.654308380369153,-2.378723217573743,-0.00732754183574374,5.04354872536368,9.029547119358364,-0.012430883202740247,4.500997178393602,-5.742283832937339,2.955663279492529,-17.253096396176126,-6.426126241062032,0.6221266532643529,8.339436931494259,1.4495307385764897,14.855038430111755
14.083544779808204,0.0,0.0,-0.6912649653075755,0.0,0.0,-21.524829395241674,-9.0931576914102,14.601354337644993,18.988526030977575,4.42123591547403,-20.38842115436285,-48.968834517142014,-8.449860217757704,0.002717078996298581,-25.842944755217914,3.2307475445627825,0.0009425132296180641,42.164694946756526,21.985310809010397,16.252160888630808,-0.14742490168949815,-2.817470286480242,-23.820757111984996,1.6563173252551344,12.024001072710908,-5.73371495858717,67.24103373968293,4.451960853090015,60.38538978560032,67.04302639012681,0.22481562456898893,-88.46582791922378,96.39279105389966,-0.012684352809654732,112.19455062141992,-12.193626202201832,-2.207749578142337,-0.016160401584383477,8.222948331059772,8.889948166152873,0.02970502738680072,5.03806727462079,-5.6531423004175085,2.1634477359973863,-16.713789751029204,-6.051180702051301,-0.08116860317193908,8.578980769337278,1.1701933680686185,15.63421029256863
13.168102576902829,0.0,0.0,-0.9518893412888496,0.0,0.0,-20.990422425134042,-8.836584684082336,14.652601705569817,18.777631942507327,4.570391065766726,-19.5822475222394,-49.37750377084686,-8.457137566986814,0.003257935914781148,-26.19779087369325,3.4966673383314415,0.0003447463098440651,42.256796348123224,21.477798329595537,15.850270682242343,-0.33614449654205186,-3.4654855312460837,-24.3585688900118,0.4766689235300632,11.424235344791489,-4.7852466173764565,67.72726875600048,5.344300071859861,61.86003567248989,61.51151472099566,0.09275531762186694,-86.32973672456967,96.98821726081088,-0.01346462590430682,114.02433120689312,-13.02703233674779,-2.233683151687278,-0.015982715258746578,10.78548482984263,9.109503505386327,0.040836565404599665,5.554205061900428,-5.4995387399823,1.3028606133604284,-16.189343010800734,-5.591146952067278,-0.8236364445171552,8.821571267371588,0.8490689628614078,16.456611144737067
12.274000774370682,0.0,0.0,-1.228648465067798,0.0,0.0,-20.45369838613623,-8.714282963235238,14.786013064325147,18.422369795133392,4.637979202745147,-18.8939704179874,-49.730135167849205,-8.521466267018942,0.002319429233096921,-26.630073973922563,3.8340519623560962,-0.00028381138897700823,42.28058883859392,20.973935193688387,15.42053490657158,-0.5238621766317304,-4.132539950875652,-24.771380414738317,-0.3752021572431578,10.868546051444048,-3.2639619238196196,68.1611609874826,6.168540663846748,63.384593689335226,55.70436026715082,-0.08069815578375407,-85.26182294281843,97.71877614164836,0.006043913314977629,114.51272560976024,-13.949011517538512,-2.573535829996054,-0.006855275907376197,12.383913398415464,9.35032838411336,0.021633305570423977,6.06365548571392,-5.235556722389857,0.4283441867984431,-15.664189189496808,-5.023492433145098,-1.5377190754706143,9.07067681301913,0.5041258366955448,17.3625806024712
11.46177002875503,0.0,0.0,-1.3687010981379581,0.0,0.0,-19.966410703176095,-8.686762482394508,14.954106034566413,17.887347089593273,4.705349407644675,-18.35944624548096,-50.03716244025309,-8.590427044569157,0.0008054195966888427,-27.12654363286768,4.2358073084488534,-0.0009021603209421385,42.26763667806343,20.471881358189943,15.002606368380416,-0.701210219481258,-4.794291352663607,-25.03696698694432,-1.022745608131415,10.435553350308545,-1.0369876254311805,68.55918487241871,6.90478483959893,64.89461043842473,49.90466152671328,-0.21502903017188757,-85.15819949732982,98.37462654447569,0.02424231671215555,113.92873966363688,-15.03146246152351,-3.1860026130531525,0.007744510385097602,12.982375222965691,9.28153865529497,-0.007229845827252115,6.545176543344094,-4.862122620677155,-0.4572127155362725,-15.160511173333273,-4.350162165288538,-2.2213305593441564,9.35085916922899,0.13842779099725697,18.371621690862725
10.81957,0.0,0.0,-1.23194,0.0,0.0,-19.59081,-8.67436,15.10242,17.15159,4.86766,-17.99837,-50.30312,-8.61988,-0.00028,-27.67222,4.69049,-0.00152,42.24917,19.96074,14.62975,-0.86002,-5.43351,-25.15199,-1.62903,10.19464,2.04,68.92191,7.53412,66.29746,44.44475,-0.22152,-85.74215,98.7586,0.01779,112.75288,-16.44356,-3.97347,0.02327,12.6538,8.58205,-0.01882,6.96462,-4.39682,-1.36905,-14.71415,-3.58188,-2.89547,9.69317,-0.25016,19.49498
10.724060000000001,0.0,0.0,-0.6184,0.0,0.0,-19.359810000000003,-8.58244,15.254230000000002,15.781300000000005,5.33665,-17.688400000000005,-50.57220000000002,-8.668660000000001,-0.0007100000000000003,-28.549210000000002,5.397500000000001,-0.00212,42.224550000000015,19.166220000000003,14.000720000000003,-1.0663400000000003,-6.31278,-25.21181,-2.84747,10.227400000000003,8.282,69.26413000000001,8.25929,67.87739000000003,37.95673000000001,-0.09902000000000002,-86.60730000000002,98.79697000000002,-0.005970000000000001,110.42374000000001,-19.479250000000008,-4.924050000000002,0.024930000000000008,11.012620000000002,6.585470000000001,-0.018150000000000003,7.414420000000002,-3.67267,-2.7891400000000006,-14.219120000000002,-2.38607,-3.9462400000000013,10.333710000000002,-0.8776,21.209549999999997
15.57778684043874,0.0,0.0,2.0110213949094504,0.0,0.0,-19.819214227532772,-8.444619777955735,15.569726403643934,11.254428745707573,6.945532219547801,-17.098581003063657,-50.72037761444867,-9.017668919519943,-0.0002699145993451681,-30.87126275525408,6.657069387295995,0.0019477004867061046,42.14978800496458,17.47777141954893,11.672890147867399,-1.24536673158385,-7.804544187900746,-25.526561107760696,-7.307054730921817,12.037318025392905,27.851148243443856,68.71589601424404,9.118548048124245,69.11744723252335,31.27432323915162,0.06631639230576242,-83.89292325897429,98.1135236124077,-0.005931731290837676,102.90095122697043,-27.86308213792561,-4.75303706185537,-0.03680704540544484,2.747178088510045,0.8528588487896558,0.011659578020099563,8.333868770398288,-2.3154193675856054,-6.124268418113417,-13.177254573245067,0.10077586421108559,-6.545020763625341,12.372951551130665,-2.343956284822413,24.841568023924413
20.81064366979638,0.0,0.0,5.570434203640987,0.0,0.0,-19.68044727077177,-8.014240618837054,15.313707012878467,3.0957625870732715,8.409233529943767,-15.597586771129311,-50.83458522144866,-8.997329224103742,0.000498032516386063,-33.830321679938635,7.346348477054478,-0.005462500514392396,41.75575835653486,16.267052378218942,9.413072081939475,-1.0142028193893915,-8.847185266683438,-26.144732479581887,-12.068210563348005,16.188684289285497,48.30801632816791,66.55551715179953,8.382173230562007,67.981111009356,31.144652121476376,-0.0470755557966377,-70.73075309915892,97.91149916988687,-0.022153081124590215,98.30895620062307,-32.397651882243615,-2.7367887520103547,0.0013937195033765825,-11.608148001560451,-5.13479480545957,0.06743849177272374,9.44412520993871,-1.3726449661202649,-10.104104686660591,-11.864585785860285,2.430854753594793,-9.904930734799072,14.952887745960057,-3.206815874605993,28.567011549988873
17.64337783457097,0.0,0.0,1.8558818490505538,0.0,0.0,-17.562289670282055,-6.750195512453994,15.113492624129638,-7.391155319284194,9.314776121905727,-13.27067482235125,-50.225119123570636,-8.753519395049972,-0.0016626138935813813,-37.973857046760195,7.829500682441479,0.002525945814947709,40.079907063484754,14.957232163867458,8.04324309116647,-0.8373266784919341,-10.113506946817626,-26.495673722726945,-16.82439341927702,20.99781921173007,66.35944732371604,63.15998476269203,6.345216261130669,64.33888214087396,34.70925200262237,-0.05686495093397335,-60.522236615876785,95.99414037476376,0.009728180451731077,98.98003094538677,-27.718548731003224,-1.5435787486175658,0.017811151159805513,-23.09281999123565,-12.300090487396105,0.02508788405054983,10.483551914873008,-0.9746016444148515,-13.295943511853286,-10.601793052153967,3.9560516175041514,-12.740617382577357,17.156491654146645,-3.2185709768836768,31.385310655389915
17.181253567411467,0.0,0.0,-11.98433440982901,0.0,0.0,-16.200118253441495,-5.534415745283963,15.51095882596589,-18.8091278501877,8.465234836494826,-8.268294721800004,-48.23438718796584,-8.9828199547172,-0.004720242617781974,-43.32627824118386,7.273597106121127,0.024157587476413975,37.17477179322153,13.667901620732472,5.47400769516348,-0.7930540672545402,-10.350118122534282,-27.043892607804356,-20.905850924575876,26.104143135363476,78.36338906926828,58.66124132880269,3.139788522338874,57.50387358391814,40.64593193668507,0.10991534689909215,-63.38114016135384,91.86719318350987,0.09347051457251389,107.69808539573816,-19.855977194156964,-1.8022047854855545,-0.014972940391312455,-29.34851803820459,-15.74288353543213,-0.049825154744283104,11.887753564297347,-1.6452581715150552,-14.943128545914961,-9.037558107329083,3.920296249018015,-14.5225409550764,18.16766726607966,-2.730200215236295,32.14559980526053
17.848371850086075,0.0,0.0,-24.327301795926598,0.0,0.0,-16.269274491301353,-4.497525794952211,14.243700113115615,-29.844273001432008,5.803433755774635,-1.1941357114039712,-46.139738347151834,-7.791463772692801,0.0036247046343651584,-50.13688275391474,8.131570253958282,-0.020154223554491375,34.83819703737621,12.806278151864428,3.37117935706864,0.10779845033104765,-9.243893554957104,-26.10943302438582,-21.930754445840574,32.47006178409465,83.04257654584404,53.00386400788102,-1.3412628263310487,47.47388369230195,47.403373200586365,0.01901763552454741,-70.78334899056473,87.59252590311931,0.04228009007870986,111.62981335984412,-17.897644920298816,-1.9362421062343815,0.00016573443987562102,-32.85282454626035,-13.48616921647578,-0.037694645560343715,11.997642701250575,-2.320361321232901,-17.821561479502872,-8.617222445190825,4.3094040956572925,-17.459238281731356,18.305930335954407,-2.239300727216663,31.823363174129014
16.964612007902357,0.0,0.0,-28.879452146508083,0.0,0.0,-17.239071495427478,-4.484496144817878,12.387819913451555,-34.864754927843954,5.254924840670163,3.824481228385104,-43.8278873081179,-5.754703912951586,-0.0007346951946409418,-59.27226708480777,10.395322581225386,-0.03508503597011518,32.49580644557458,13.11047693453397,2.1956756904499453,2.18172976111405,-7.541352189280084,-23.91338009546746,-20.43053674728835,39.01094034146537,82.62509540168077,45.598831036348834,-5.806827225689048,35.17944632700863,55.713207175034576,-0.10460638690324237,-71.52076025006222,82.34521812286785,-0.15208044211266084,100.92851565406764,-17.368064424646278,-1.1052208977546703,-0.00728756443228202,-36.34248704737649,-16.174218856745632,0.045884774573207686,10.538015031650733,-2.441812955651064,-21.73900242932315,-9.593525566493557,5.5586623028454225,-21.184439892228298,17.83060449775609,-1.1792393753233852,31.164610313597116
20.633060000000004,0.0,0.0,-29.151840000000007,0.0,0.0,-20.026310000000002,-3.70628,10.149820000000002,-34.716950000000004,6.63749,4.29318,-40.64743,-4.077320000000001,-0.0009300000000000004,-70.16195,11.344260000000002,0.029990000000000003,29.880360000000003,14.262180000000003,0.9118700000000001,5.39783,-5.895430000000001,-23.248700000000003,-15.473080000000003,45.68042,76.46521000000001,37.022800000000004,-10.001230000000001,20.93675,64.33723000000002,0.060050000000000006,-71.84785,75.35868000000004,-0.09980000000000001,84.32856000000001,-18.75447,-2.80814,0.04357000000000001,-35.564589999999995,-23.82964,-0.05174000000000001,9.194520000000002,-1.7977600000000005,-25.41645,-10.432790000000002,7.41427,-24.4422,16.772170000000003,0.3231200000000001,29.407640000000008
