PaulMeinheit/Bachelor_Muay_Thai/processed_Data/E1/roundhouse/scaled/JointAngles/scaled2.csv
L_MTP_ANGLE,L_MTP_ANGLE,L_MTP_ANGLE,R_MTP_ANGLE,R_MTP_ANGLE,R_MTP_ANGLE,L_ANKLE_ANGLE,L_ANKLE_ANGLE,L_ANKLE_ANGLE,R_ANKLE_ANGLE,R_ANKLE_ANGLE,R_ANKLE_ANGLE,L_KNEE_ANGLE,L_KNEE_ANGLE,L_KNEE_ANGLE,R_KNEE_ANGLE,R_KNEE_ANGLE,R_KNEE_ANGLE,L_HIP_ANGLE,L_HIP_ANGLE,L_HIP_ANGLE,R_HIP_ANGLE,R_HIP_ANGLE,R_HIP_ANGLE,L_SHOULDER_ANGLE,L_SHOULDER_ANGLE,L_SHOULDER_ANGLE,R_SHOULDER_ANGLE,R_SHOULDER_ANGLE,R_SHOULDER_ANGLE,L_ELBOW_ANGLE,L_ELBOW_ANGLE,L_ELBOW_ANGLE,R_ELBOW_ANGLE,R_ELBOW_ANGLE,R_ELBOW_ANGLE,L_WRIST_ANGLE,L_WRIST_ANGLE,L_WRIST_ANGLE,R_WRIST_ANGLE,R_WRIST_ANGLE,R_WRIST_ANGLE,NECK_ANGLE,NECK_ANGLE,NECK_ANGLE,NECK_ANGLE_SHADOW,NECK_ANGLE_SHADOW,NECK_ANGLE_SHADOW,Trunk_Joint_Angle,Trunk_Joint_Angle,Trunk_Joint_Angle
X,Y,Z,X,Y,Z,X,Y,Z,X,Y,Z,X,Y,Z,X,Y,Z,X,Y,Z,X,Y,Z,X,Y,Z,X,Y,Z,X,Y,Z,X,Y,Z,X,Y,Z,X,Y,Z,X,Y,Z,X,Y,Z,X,Y,Z
-3.516080000000001,0.0,0.0,-7.87956,0.0,0.0,-24.530040000000007,-11.600050000000001,15.34903,8.25749,4.190310000000001,-15.54824,-23.945200000000007,-6.133590000000001,-0.00117,0.13912000000000005,2.1028100000000007,-0.0003200000000000001,31.333100000000005,24.240420000000004,22.310140000000004,-0.11581,3.1022500000000006,-17.592140000000004,19.804060000000007,17.586240000000004,15.26445,46.46041000000001,-2.918370000000001,42.616730000000004,126.39651000000002,5.0000000000000036e-05,-106.58328000000002,122.22504000000004,-0.0006800000000000002,124.06338000000001,-11.427550000000002,-17.916960000000003,0.0027400000000000002,-17.53891,12.829400000000003,-0.00017000000000000007,-1.5194200000000004,-12.795830000000004,9.647170000000003,-23.678100000000004,-15.434290000000004,4.177670000000001,1.35094,4.173269999999999,9.4425
-5.285475488409611,0.0,0.0,-7.514710108025286,0.0,0.0,-25.261202967074745,-11.113998413327838,15.935097511524395,8.207485801944388,4.524396436948251,-15.149402783360205,-25.011710203682117,-7.101683193450441,-0.0003444660615219299,-0.059335930600857414,2.1144546939132995,3.667745628038771e-05,31.94322446535894,25.325380980420256,22.889967411973302,0.4496809123570698,2.9794579780894934,-17.381499785235757,18.852465537946834,18.510885506603856,16.311845490845393,47.307496156738026,-3.3144274075283002,42.89256128752041,126.29697677278617,0.0013197624891088976,-105.25914634648636,122.04858560133073,0.0016522937508134084,125.0084141431109,-14.768770176238668,-17.326457951408823,-0.0036698015388030927,-17.43573673845271,12.217860783621973,-0.003811507000534553,-0.6306415284434169,-12.82085184537253,10.284229099159136,-22.77293424630696,-15.691689373601927,4.765128628862387,1.5077593806976382,4.34972105796465,9.208857877066851
-3.8574715141317397,0.0,0.0,-7.353181691922515,0.0,0.0,-27.798748782238153,-12.002902030425936,15.527860092687877,7.957816405477461,4.269863835692928,-15.787940527629464,-26.760419937452177,-6.948972553515119,-0.0011427123057666147,-0.20419438466577575,2.1790520851442032,-0.00012989788572214742,33.120532152728785,25.457698685468763,24.442639711469447,0.6195583254127686,2.3537838498251964,-17.56339434783767,20.13106742829932,18.82013845087055,15.762471558888972,48.575643104101935,-4.213585305573807,41.63924423798905,125.22300220512531,-0.0030733372272840503,-107.39981870525497,121.62221508688641,0.0016731070921368644,119.81105617679374,-14.532542483479851,-17.953257062531105,0.0003981072829596544,-15.797979863116257,10.277676034162724,-0.007252324231261686,-0.4669062546515196,-12.244538645520706,11.231354545761887,-22.51504602540243,-15.505473899339712,5.879609561591554,1.5142908289543056,3.574758780011295,8.690756148308518
-6.514314797484647,0.0,0.0,-9.748807979812714,0.0,0.0,-28.687144649508944,-13.001101350464687,15.873191068480443,9.050448786606351,4.424061176342558,-16.92519989449781,-28.17623775830347,-8.598521288047847,-0.0010881405740263096,-0.9424863490471165,1.88444310529957,-3.580655371606719e-05,33.34172647972828,26.271406710139125,24.97456680871854,0.9180465440621076,1.7968562261687293,-17.24595820781941,20.541451531935287,19.18140354423969,16.112069708720444,49.479810895159964,-5.208856041359692,40.622630921173226,123.94483185677862,0.0020105736132660303,-106.61819000769025,121.33104167597124,0.0006420349060975054,123.08014004318103,-14.708331565972463,-16.740607769143594,-0.004255106087453587,-14.226891618283423,11.038135374012834,0.0027763113157582104,-0.5970948290223393,-12.6540244385166,11.311740471145834,-22.68536548246389,-15.914456721169072,5.795360001639701,1.5951631401340371,3.2271979878122172,8.178226450872431
-5.292088685598516,0.0,0.0,-9.065882753114456,0.0,0.0,-28.379764196354394,-12.38518274929061,19.197298451660775,9.55736824675615,3.5832966539018143,-17.901195813775647,-30.341848039809303,-9.89568110555157,0.00042401420989404475,-2.148120927627735,1.6901245163092562,0.0008668209343292953,34.459597056868866,26.96178796430795,25.58940724850912,1.2988258518693312,1.6318463478822303,-17.42810248482896,21.14582889475567,19.329687900729613,15.602593133536605,50.6322474201723,-6.333504273385847,39.307225535657224,122.60334890061614,-0.000724457332302569,-105.7683106595761,121.08644382065422,-0.002250405349814039,116.40687210160496,-14.236032155300741,-15.712429038976444,-0.0002093460805220972,-14.784832378724767,8.203078343573534,0.01668914869953751,-0.6330947239200818,-11.734220243722355,10.999787114104237,-22.63818975211509,-14.94744640426973,5.860339206779404,1.6715589626809728,3.265231048340169,7.159542522783395
-1.1521120524871225,0.0,0.0,-7.1245948998412025,0.0,0.0,-26.294077687240737,-11.387523929534488,23.06226434449776,10.525551207021454,3.578388184360249,-19.29848635516197,-32.45569921618183,-9.65237088585993,-0.00046497867220221225,-4.38938141328378,1.3472435261433813,-0.0005649290287928506,34.62857629181262,26.633991707272887,27.538626024739923,1.6110173487845845,1.0474819856007005,-17.351053787153287,22.017813802985597,19.462126446700363,14.590948352118078,51.210023535805625,-7.565590779979077,37.91657975409354,119.91594351737572,0.017063207172494422,-108.0781323589174,120.93640277706676,-0.0006707968868509301,119.05653551004393,-15.797669547880266,-16.301482598673957,-0.0038342954384644303,-13.94906800663649,8.139015059097781,-0.0012426834162680097,0.35475370103017656,-12.206317222605902,11.58095475625722,-21.67529167159284,-15.598256086028034,6.223239008162105,1.7468096532007509,3.2283385915032827,6.096365971376637
0.38656833711100574,0.0,0.0,-4.144215585790947,0.0,0.0,-27.20628883221756,-9.833169913365008,21.07657837285595,10.926738816991383,2.860060223510019,-20.283310725976,-33.46194024190842,-9.025987135345714,0.0001434931835405709,-7.152950669603709,0.25375736826111234,-0.0004908052823804558,34.128631153236725,26.155239643507883,29.411121069128242,2.3089438119901287,0.9296549388407372,-17.521600037855837,22.21910142544384,18.96982992046822,14.17486135377983,52.22249053555592,-8.624679752404619,36.712061779132775,116.38630782963631,-0.010620646178874874,-113.04610232146183,120.08098580575896,0.00043605493441667154,120.49588713136654,-15.537794292815763,-18.369621810739222,-0.01683617649152056,-12.302544165271694,9.622279451071828,0.003177429272934476,0.3084479674204409,-11.21525734275,10.37230602571697,-21.66965580236228,-14.235981596251568,5.471948977292834,1.7444152587358817,3.1208118727991154,5.080942245175851
2.175543600442654,0.0,0.0,-4.707115385992048,0.0,0.0,-24.55430213532253,-10.163715915596216,20.96836321312319,12.622547924238264,2.780447228554869,-22.798615556884922,-33.92998284834663,-9.230774756932773,-0.0007026254047672339,-10.244868429860945,-0.7829559561272185,0.0005810146780697435,34.01146842209342,25.894366744685676,28.596710280237023,3.144926178830434,1.4906163194459365,-16.70058358305384,21.081701108483788,18.919538832132595,13.285672642078781,52.609982757580525,-10.834894359060904,35.19081067065253,111.12535228959365,-0.0034264153400813888,-111.73390318759161,119.27709853728206,0.0002782301513096568,116.19918167142741,-17.62389104463979,-16.77507321322762,-0.008306145639514767,-11.75212357824546,7.417591514180752,0.0004603406156576731,0.6815841898135028,-11.51665051295355,10.8772083622115,-21.306710841642992,-14.700749363410923,5.829477374084594,1.7165662717016406,3.9009647518279675,4.367575933456389
2.7608649171671997,0.0,0.0,-5.779795684367769,0.0,0.0,-21.90420638535724,-9.437314468030944,21.537790471085277,13.874505532906214,1.7329431277884433,-24.503065469617432,-35.22671463576631,-10.455606341777152,0.000470219305962344,-13.031760557725024,-0.9482672349014684,-3.841358007682213e-05,34.42493936314586,25.918694580438864,26.461465359335893,4.336374180823216,1.3343043398276424,-15.980141146245806,19.694145979017893,19.237388033011253,9.15236081205533,52.2551557064919,-11.086044233833812,33.70139319212649,101.68210866272146,0.027145633562722784,-96.85962126563851,116.64653483882822,-0.015293695740327335,118.7153198772038,-20.326179984666158,-9.888005336855537,-0.023344257994824136,-12.45692089449108,6.977296376767986,0.0026316818064008583,0.5839813378126923,-11.274052699448884,10.23620179947443,-21.40458730969787,-14.240525315717244,5.3215326127853055,2.9218548581392785,3.7863444471935965,4.782064671700081
5.3416344386836645,0.0,0.0,-6.082756155029676,0.0,0.0,-22.4847706333379,-9.513087272147832,19.96383436457447,14.736367846794526,2.239657327445013,-25.681073216879106,-38.33209897405857,-10.719118330173009,-0.0010326216191695278,-14.176705214509076,-0.835313094360602,5.119135633405051e-05,35.62849553343564,26.539497040406285,24.89748756670371,3.7320987434804227,1.2776839227507484,-16.634608163838763,16.49430257207394,19.13733799795802,3.951749011528872,51.385618768062656,-11.320180794129172,32.711356434203495,88.37556276837134,-0.04768496678738994,-85.26882207571599,112.99033484138026,0.02793494598996206,117.7041121235947,-18.276020188206292,-1.9670564766056358,-0.009548146928581155,-13.525236095365079,5.890375985253173,0.0010825338123262977,1.3342352787836074,-10.405320510560113,8.387203226939864,-20.632802175395693,-12.75528185921102,3.9240160808733946,3.234927249401804,3.6066379434491864,5.727120396953651
6.729817398405106,0.0,0.0,-5.927739973094689,0.0,0.0,-24.544827791229284,-9.686574932522383,18.10478015338129,15.120587846645213,1.8936445898033578,-25.795920374666345,-41.811009892319305,-9.683912082014873,-0.0013200344081158756,-13.89722830996153,0.28389504382845876,-6.41001291678577e-05,37.94146307700212,26.06212374530503,23.767244900542558,2.626085707935306,0.2764209388601295,-18.470404362204807,11.033854233958454,18.072769839008405,-2.5374456306305295,52.722318138470314,-8.16522231743551,36.099445155293594,70.77915674811108,0.0525975023826343,-88.81872937891353,107.9104724026549,-0.027909088228475282,104.5708955573314,-14.85912902124678,-5.030604811340595,0.012832875105106408,-10.872686586124075,6.429731653702663,-0.002311144173406834,2.4404514993957833,-10.077578263799793,6.4966819645540195,-19.538578384691146,-11.755199218157632,2.2840208963395554,3.9909853594260625,2.805548683797283,6.95706976273908
7.925062187375133,0.0,0.0,-4.906883958132255,0.0,0.0,-26.77122240103698,-10.228497358788829,16.114370683599926,15.101364530161606,2.1539532529616134,-25.547743213190614,-45.92079252565137,-8.579316874929589,0.0018852932183598937,-12.7603459664071,0.5075446180588394,-0.0001561870438617914,41.17945551681465,25.543627456830844,21.967340433075737,1.3625987877699892,-0.1825186743256667,-20.954983157586817,4.260584167157091,14.240936400970607,-3.0914929195069947,53.40053459214302,-4.114428266248634,41.41812155810314,49.15053904161217,-0.07009327547328773,-77.63995212728105,103.34675224847888,-0.0013004934971265199,108.38805238207016,-14.696348332892022,-3.7312115071111425,-0.012704039483494078,-5.743419662138965,5.541662373745653,0.00216095380259234,2.996678176704819,-9.274274387768962,4.5470810061874385,-18.943377378524257,-10.29146735773491,0.7741218114071181,5.857391059763916,1.7028832790503043,9.302343057783967
7.577538058458155,0.0,0.0,-4.0257761155038665,0.0,0.0,-26.532465668928616,-10.959392000581712,16.35621392716958,14.374109223829969,1.6722127973745038,-25.441787599841952,-48.87357233461841,-8.735684970912247,0.0011925045970615025,-11.705762597412114,1.4763345739532046,3.576442820334899e-06,43.48648604500385,23.80775534291122,18.408672868173486,-0.511247612504143,-0.86555155203648,-22.985911413570694,-2.7393687744724677,9.34417341069121,16.10090279614958,53.994710743872645,1.3861797357670527,52.63447877246436,29.13455512181556,0.018781206494910288,-84.603240739026,101.62083058034051,-0.007462325764466441,109.41880778388395,-18.467565031362643,-10.835344618337734,0.024689997871602025,-2.508189220655005,3.5444158355549753,0.002424575989813302,5.753618269833365,-9.212918185770913,2.4465279192731986,-16.17982526338443,-9.459943668197786,-1.1546842171147351,7.069661580093548,0.5085912661131742,13.517061929174366
7.04606600163343,0.0,0.0,-4.404513401010353,0.0,0.0,-25.35170842089262,-10.307567631214194,15.585544115463513,15.090446451537538,3.1732854837976365,-25.97517397445678,-51.01049029006444,-8.564726023356291,0.0006087283638088861,-9.982877362819275,2.6217296509162042,-0.0006789002792599838,43.84473857183141,20.58377473472619,18.226419150955845,-3.9833431639740153,-2.458141279580974,-25.170770876826317,-11.435672560031314,12.18508990916801,51.655841569853045,53.811844919864534,6.863759333944123,64.16636727719805,20.031734081868617,0.005753680817453508,-82.48017459475426,100.91973438689955,0.009729398550772459,108.98900526200741,-28.059225557836363,-6.9657703711339085,0.000988429275628621,1.2717324476506535,-0.3438288367297162,-0.03158934499139103,9.590170225386274,-7.567287141433161,-1.0630968866884305,-12.200242980124697,-6.63969428393165,-3.790273488410177,7.9691509647711065,-2.7825656115519717,19.32051580043502
15.798648529261566,0.0,0.0,-4.11814271724539,0.0,0.0,-23.568342262249054,-10.34991940925191,19.13372794858539,12.623031948093146,4.546185744436198,-26.424862372965876,-50.81153203442928,-10.768842638579702,-0.0010366772088204563,-10.63659134597937,1.9711339520403601,-0.002136743478149918,44.32511849512436,17.95183727912976,13.920741461112868,-4.512583542166119,-2.315167327692103,-26.275206533711167,-19.317891694243823,22.418612170681964,85.96030708841086,53.101908431536955,6.139782654783964,67.8662245923445,16.875326716249166,0.020455859986895673,-71.40911432197365,94.67194347390412,-0.04539820387662548,107.62440556302931,-26.444020208158037,-2.2734555603360866,0.04142637402086479,-4.69739534801798,-15.507210199759392,0.011367901301755093,9.831423649467995,-7.085308646875526,-9.329188010523342,-11.543368887951086,-3.171599145634168,-11.263267163840768,12.24603816094853,-4.323925216719283,29.225243156895743
15.034446955873575,0.0,0.0,-0.16603238481855595,0.0,0.0,-20.247854654307943,-8.180936576173814,18.125575621686462,3.6012300517033693,7.95261647395295,-26.982531188249755,-49.0149881669364,-9.912314295699783,-0.00167602219580754,-19.26028274677512,2.411257683953396,0.01092342696880124,41.21116113155391,14.043833745305362,11.198228564113636,-3.635883454186317,-4.0634234884347835,-26.30457977233967,-28.080385604071616,32.98629533924997,94.01125905592392,49.920487863949006,2.182533937064758,65.74590949586792,25.1478657944778,0.018011697636439332,-54.253830753457024,84.48069587313238,-0.022342351240535942,100.4102295497274,-17.913172277691356,-5.846504717963938,-0.029309974412872038,-23.43170227892011,-22.443891376469843,0.05677157467658037,9.586693137662595,-6.2308961187403415,-14.159501480931452,-11.36630871405254,-0.6420531056023305,-15.431126021152672,15.45379313786435,-4.9652874573863865,35.635422691518436
14.316291169524925,0.0,0.0,-16.372553129036167,0.0,0.0,-17.776400735009297,-6.194249648746173,15.238650421457109,-19.095821080546052,8.690777580572238,-16.499382301428955,-44.664008641229465,-8.359894677831136,0.0032258405487674714,-36.92454057898575,4.879856764556444,-0.019476121406113805,36.20757301892406,11.297275656437655,7.02539470908289,0.07797187621499044,-5.558356711314439,-26.993586752471906,-27.19711279386168,47.71454295261964,103.70791284446588,44.0408145852762,-3.905064892436284,48.21871638557327,32.65328149032487,-0.05762425910878655,-74.70084036394545,63.05515611484055,-0.23895174544887857,99.28144338757636,-13.021701726866084,-7.390342259963809,-0.009014777811809227,-31.310278268627158,-15.977127095778135,-0.15503954947803533,7.878457339820203,-5.812044641777045,-18.106015431539504,-12.645182524071556,1.1398600274938926,-18.95318935488057,16.306344622024472,-3.996083142557259,35.82042188282498
15.293169349853322,0.0,0.0,-28.88559019138245,0.0,0.0,-19.646110053137004,-3.5647916298180964,10.50045113439376,-34.146688566040865,5.454477043287117,7.463135126146815,-39.353839156295535,-5.5066993659501104,-0.0037304068898661507,-62.76547701310416,10.36203220050109,0.03624149259289293,31.445496244204417,13.194181576075595,3.8755304604022327,6.818025652692708,-4.729446180197467,-26.61521014976372,-15.38954028020119,62.784107800064355,88.70601299492,33.58337126670817,-13.1249624640146,21.18233185470872,43.50988410539487,-0.00949525377697592,-73.11150496726908,41.21435540743406,0.17169450705051065,86.3487884011897,-8.502541614863745,-3.497317590634445,-0.010193961547174349,-36.1743793361384,-20.70674521337747,-0.18266816814252274,5.986203446423483,-4.454480271614712,-25.71962797285438,-13.496624513879507,5.0120241963818595,-25.623594901078302,14.42959101275343,-0.4320481048920721,29.806365261879847
15.173493890798413,0.0,0.0,-29.993223563683845,0.0,0.0,-24.071488974933885,-1.8981593627464073,1.4471911750281674,-34.753106438131965,5.648743223594652,2.781661493953876,-32.97126384099998,-2.420644730774652,0.0034105556942703743,-90.75987900911463,13.87777638642797,-0.09960748822895224,26.93554765091389,16.8520632663502,6.667505806480221,18.270359520399598,-9.403229233535642,-22.069331697909977,20.930938486872858,73.17468541341498,43.17963303544918,20.361628220158813,-22.46007052081504,-6.8314177988266405,52.973796039691365,0.0705543864359026,-75.867934158029,23.515343633066564,0.031293015066402974,78.16087331612587,-16.53129139104862,-4.630489204832834,0.03714968363624503,-36.06044488991591,-16.521303302960046,0.026782332305573538,2.9190771196795824,-1.6064623624542425,-31.057729524944765,-15.759733614986315,9.446352459584094,-29.763404829222445,11.998264893568622,3.2703756163157465,22.36240895218561
15.089171321839894,0.0,0.0,-35.52235500453469,0.0,0.0,-26.03023988990863,-1.1004129491668526,-5.255315303478183,-34.450925973720054,3.135016822511424,3.3185309124068327,-26.59758933783604,-3.534584561982725,-0.005052862132086471,-112.54710702551492,12.622711701223357,0.016001383541833995,25.330961561470357,22.035796107429054,7.748081498983842,30.307297991303454,-17.7074228569256,-12.217931526663293,76.18168250891831,70.21004085819978,-23.02134884352467,1.3091235854643524,-29.966844250259587,-32.236754753623075,58.54092686679801,0.04309926744911939,-68.28140776204138,14.2152266691238,-0.030756144834133477,63.93882331936507,-15.826189485868515,0.25421079576694383,-0.0027624794004462543,-28.384156151094572,-23.01447992312449,0.0066707982313896005,0.09083203185081226,1.3741408685333252,-32.183523771813135,-18.563705730552332,12.630446722344736,-29.878242445814514,10.329417195608581,7.342251991923472,10.88952838472984
13.954370834219635,0.0,0.0,-39.959050387906956,0.0,0.0,-31.832252160321154,-1.5576023136718748,-7.541890627605613,-37.13000728399291,-2.246889362006689,6.3662652873568994,-21.637769981059375,-5.868476230733181,-0.002373165542617824,-118.45636261811492,6.023790483256152,-0.03493922740049864,22.588144223685603,28.4764934337642,10.490778616102787,37.34269606148665,-26.29339923260391,3.325849464711574,101.09576248237859,53.556684216636356,-51.27108069816405,-16.815485007089233,-30.244260836069902,-60.38923272857572,58.54658796719569,-0.0198289894743004,-86.77374418838674,12.944537728770491,-0.03107567315583335,74.43676141380891,-12.015220342235038,-2.883462416340309,0.006911149293015621,-33.46059029730532,-19.42474384449036,-0.011851713909560056,-0.3461772222748284,3.17588143391235,-31.172202751392145,-19.324660331630405,14.009998947729898,-28.298113987119063,3.984888744209794,13.445166662203661,-0.1474322479173916
10.884733343971197,0.0,0.0,-39.04567946586948,0.0,0.0,-32.7836946716929,-1.2966210855805291,-5.534347504226363,-26.64869922530339,0.39952047718423944,-3.5591755474020106,-17.655931873842068,-5.656080797613503,0.0014372976666125227,-105.31800858329963,-6.374592637308683,0.06776360196659492,23.20573234596936,31.518118557711958,17.394741568185992,44.266215097170466,-38.211519783993744,10.673240853177816,109.34648786583345,35.08213862796762,-57.46705395497745,-31.14425053613881,-25.21361089551218,-77.61188472690439,57.392028795762165,-0.00016471910357049392,-87.12199618004585,15.633095672708482,0.011593928952342139,78.63647030241542,-9.57923694557508,-5.119188420798669,0.007842114534667766,-37.125848058204774,-16.620080041629347,0.004472105342976924,0.6992228986352633,5.161502941618731,-33.32550635318773,-18.055478600649927,16.58334718676713,-29.73938782806494,1.0920830433803408,20.621600043099495,-10.553119761229933
9.590768609236807,0.0,0.0,101.71704544116328,0.0,0.0,-29.755060708170284,-2.8082338752823848,-3.862320735678369,-28.33469358167774,-12.825886314685444,-14.261865702216697,-11.86851998503103,-6.449616243231564,-0.0013163433058056113,-68.99172411937896,-19.478141631275715,-0.17054782448529326,15.866474474185123,35.03605675447521,22.82278957541043,46.58129678789369,-47.63094973271774,5.285931190108208,111.39239584701144,23.2723422045765,-58.485649296024455,-37.90044961900293,-23.122246944779917,-92.2865089651569,58.83148884275219,0.00010919841435923987,-88.2475164898558,14.275281063226995,-0.030110307131837148,78.6760799904291,-2.1748944332046602,-4.055765435540339,0.005772497505817335,-34.27775381852356,-22.995659333035817,0.02009567560914266,-0.7045396233234236,7.298621366625508,-28.454748227512013,-20.523495767737533,17.000234278900013,-24.228281978596602,-4.200119499573276,27.50917124958773,-18.876519798410044
7.095345454035789,0.0,0.0,27.145525562000007,0.0,0.0,-28.56873134051677,-3.508608773445854,-4.432501196133456,50.81205390978935,-31.761310161352338,-21.02955618260325,-7.073383571714596,-2.626370165400383,-0.001457376424718597,-26.15823045893286,-16.26152731298158,-0.04973779289351162,12.436282546411679,36.91477111222924,25.937028718490332,47.271875730513656,-51.59023565125129,-12.382686690178408,111.97026853181156,14.919687876691855,-57.08087370005869,-37.92276348472024,-22.23205064858572,-113.96612630719534,63.030405523973,0.0024531097295631635,-88.33523331944487,16.306727206079167,0.034141647207913704,94.02473731972333,1.9842626604243874,-6.011763601572959,0.0015049387862219087,-31.134130881210062,-17.152659139074043,0.0025589728806456728,-0.7396720408782718,7.690525401211943,-22.2058514040582,-21.462249972571936,15.2192392808945,-18.03781578331848,-9.626700501797652,34.487711135226824,-23.442894016005425
13.456355580166484,0.0,0.0,2.785922110653879,0.0,0.0,-30.20390613850891,-6.196402878709565,2.797570901306385,-30.472490651989165,26.28638553082308,-23.118474259618697,-5.879076185357373,-2.3671609406968908,0.00029807359700971883,-32.53794155818334,-7.848658910790189,0.008131142018572344,11.771198774394243,40.34782420958368,25.922413050934548,58.51667160889613,-45.64058036143502,4.238333840006689,105.84903939724268,4.09727771145051,-53.729284481316256,-39.667151173422006,-19.43515851033641,-122.3638332896603,64.65108323203674,-0.027391922272426303,-90.01896978216554,17.311109032281802,-0.0030251575366864536,90.21933815708311,3.8857018379485035,-5.116297756301332,0.004165418614296721,-21.378063855298322,-23.145385479158765,-0.029165698225216377,-1.3142511512454766,10.272668759483299,-20.25665284686646,-22.517270053850105,16.94177175054849,-15.205326037108962,-11.521079441952166,35.6949328935656,-20.469027919848564
11.969704060055575,0.0,0.0,-43.2549219266082,0.0,0.0,-24.192913360936554,-6.586754155073661,9.80087983324949,-23.780719390784608,16.46898218383729,-17.70414192134056,-6.695051707121586,-1.9074234486207429,0.00018121636633781045,-41.07626913781102,-17.46862983629703,0.030392925338083493,11.081907534315244,38.79983191533896,25.172856307834056,63.31138780616042,-41.03976550854983,6.237120328461526,93.40694753734483,0.5482958263152843,-50.677176846662576,-38.92606818156256,-18.324027865428324,-122.16126609261381,74.72068102404069,0.054214180843413576,-93.02241972060426,13.941637920732047,-0.10444322201719046,87.28329847376204,3.025946563930013,-7.1129932398297955,-0.012028843269185413,-26.496448041077148,-24.885318245464905,-0.01613688777833903,-3.128842654392322,12.354350405693438,-16.995670778564392,-24.858190526335523,17.708597223454714,-11.290130265224137,-11.873775761553453,32.03757656253738,-21.307929930826887
16.045001957367862,0.0,0.0,-38.9970176043127,0.0,0.0,-21.13217265526583,-4.623333692787761,10.818397189457663,-14.63401765631516,14.928963479504192,-22.167721569107634,-7.9875845802975025,-1.6712108863385522,0.0015658631231321868,-52.61241191284905,-25.11864077568864,-0.08319978442966038,10.826120478520465,34.09610167100109,21.598964192625733,66.88831822112145,-39.65630458869057,12.133990542633407,77.72523132338875,-3.0100414668522206,-49.99584455384757,-38.61373183981413,-13.952425014757347,-106.0423893038324,83.56835526633694,-0.08710917744363511,-101.21752265113344,13.26123642755758,-0.20659551810198723,66.11122811412504,-0.8433946440174778,-10.293429674981239,-0.00687482434379957,-25.33736219666925,-21.913075191983328,-0.006002540333239494,-4.58304771046908,12.356297899809645,-12.438984321879493,-26.591217122087677,16.051627069009843,-6.9726524886259105,-9.282594452013821,25.56383461263607,-23.492633151604736
14.885018187090829,0.0,0.0,-27.83412238520737,0.0,0.0,-17.24158049507539,-5.070369798933058,11.107943997984904,-13.837456360919617,14.299728217284391,-26.3178730854767,-10.20285453582106,-2.5739784469698264,-0.0003420960188364671,-64.29970219982215,-16.051705441281257,0.02070673292218551,12.376196848993079,34.05235322095257,16.451573566594956,59.940508876924454,-36.99400287127567,21.02514953675153,59.28002961872401,-4.214520573368797,-44.3227615208807,-36.88957362890226,-16.806805498707586,-44.41865978535242,90.75867488562191,0.03853567704731194,-111.7012373659078,-0.4300899361809147,-2.3577808597977357,5.030768704903847,6.807198978841881,-4.774749631586299,-0.013379641011954052,-15.942322477988885,-32.08301852651967,-0.1854010477161811,-5.227130964976044,11.284704605398632,-15.60445941721108,-26.93660004885064,16.2109754651631,-10.381386656427436,-6.787269852833585,25.398942757551783,-23.684324859890964
13.782472593068102,0.0,0.0,-35.96555239060556,0.0,0.0,-14.987600295843873,-4.901736435091198,9.456567399172547,-19.274412918828045,6.8022916716613055,-26.720771117619506,-11.107363313832614,-0.5133489047691409,0.00040955073584220207,-69.48331198849773,-12.681977658997118,0.009730423276707954,11.967423767493292,28.349446901977352,18.201197249143593,55.7258649638377,-34.360668273502874,19.93181625670216,43.06535302611559,-2.3070439141510883,-40.47039620861675,-32.300778135063695,-12.83501592295454,-76.61734805501744,94.30085891555491,-0.004844438374175854,-111.29685766054666,12.699096071317799,0.2676682994784644,42.851274893240124,1.9981394045750087,-6.348294248801347,-0.0006385200521152449,-27.17000881507694,-24.912266033905045,0.03400767230689309,-4.998965351523086,9.321078511300735,-15.592295123585837,-26.511482152062644,14.380942194976324,-11.119589203184141,-5.738995563573075,20.943260909866027,-21.327764864043882
10.364647965500529,0.0,0.0,-28.79071246581998,0.0,0.0,-11.570310720444384,-4.751014244514396,14.345989802116492,-18.404362084408817,5.76447170914567,-29.201399626690627,-12.428599450490362,-1.174679365308838,-0.0010077483891896338,-72.56737736390889,-9.453227158676075,-0.0017604960664158145,12.054992590254686,24.238545793377792,16.523874782170484,51.07297702409466,-28.533990849545386,16.21388610007016,29.28643845839419,5.345020026833354,-35.23741174045299,-27.969901758034737,-12.472378161154795,-60.9898210629434,94.13945105065733,0.014222352509161972,-89.64452905102641,18.18854077278557,-0.026793509402339842,43.67496063826887,0.21188137340603133,-8.284241955173187,-0.0016925381315859526,-21.960803106164384,-19.261746315997758,-0.01822473103495724,-5.145485471172564,8.37962907380233,-13.545634803286145,-26.713793761865112,12.762739969129498,-9.540086870310486,-3.9376562333258285,16.818442748281615,-17.273721869404312
9.054582211999925,0.0,0.0,-20.971211135979868,0.0,0.0,-9.945453265514931,-4.488249292923219,14.537743954586388,-13.913080890523288,9.176982861843166,-30.75001883384249,-13.96075104075513,-0.6415642749855613,0.0004382799299908719,-70.95691060883016,-4.897905647538452,-0.008173541873361839,12.911469438611682,19.67145698070537,14.33175897960582,44.739166368645286,-25.571863702643626,9.658588139654569,16.333106826971683,12.732257300314538,-27.604132916286883,-22.261154395956762,-15.251369045265909,-45.32842882934764,90.84905656055186,-0.014823467358970553,-94.01931280944305,26.170964627036405,0.08156616058625552,39.81806568471491,-2.0154737988618003,-8.380447882502951,-0.001618662796585753,-18.86183534524501,-16.839926221974174,0.004576454532028433,-6.5386660811260535,7.426859297794094,-11.990642718695595,-28.123882016814417,11.310313841514569,-8.433837625372611,-2.2180955141211083,12.827866100690352,-14.76794750302709
8.106770891959892,0.0,0.0,-23.48349006753422,0.0,0.0,-7.929046120999912,-3.624041177167254,14.503617263780066,-10.082805413057303,6.159000490238647,-30.502564311544994,-16.735571841637835,0.055206173690952244,-0.0007307060120564839,-64.88516466342466,0.3948910794201505,0.002656830793710809,14.638540846240687,16.689515900276966,14.414477213299547,37.815245391608094,-20.890650261453168,3.118311575278996,3.2741669479750355,17.32623835398346,-14.35034364634509,-17.498149893829115,-17.768061690903775,-33.426531227768855,89.28023604036018,-0.003733986938403377,-94.13847332167393,39.0935504705579,0.038470090394106336,53.49901673671277,-1.1466376957456665,-8.307034372874478,0.0033366491337199593,-17.324519593187993,-12.01622073500348,0.006577196763068699,-5.112947618128394,6.780010430241235,-11.294678701620004,-26.689783627164516,10.45478928194764,-8.022151214185122,-0.5972276838154494,9.694561852811434,-9.365128106150628
10.713051477321736,0.0,0.0,-17.87285618591978,0.0,0.0,-7.337160562736094,-2.896918344750915,19.1291122455839,-9.669764392248556,6.928588242675167,-29.104087600185558,-18.510144855960714,-1.187813698092181,0.0021021698455190663,-59.459695099201646,2.0214918136943805,0.006529264337755204,15.61877837892677,13.253924727011508,13.909241238865757,31.452952741713762,-17.842613769022716,-4.9312688972802485,-7.8343647299152614,20.051007672811586,-2.624548106588874,-13.041553274173095,-20.8444970878685,-21.970366353368085,90.56780547089205,-0.0007054388220253677,-94.72795540442735,54.05463683707565,-0.07983574724675369,59.18953465327497,-7.737399037602346,-13.927732044287456,-0.016747339605278907,-14.533516260218308,-14.400350454517064,0.0038135761519672204,-4.612632522487715,6.12689575473948,-11.333585946044884,-26.14438778055455,9.8615506602537,-8.30244909424268,0.164790987243786,5.782869253156647,-3.451144295316366
12.7900298657459,0.0,0.0,-14.900654836368913,0.0,0.0,-6.319085376119816,-2.2983629682685778,19.572518150031055,-8.079474615129476,6.7482839354044,-24.71436113703814,-21.504477316438663,-0.7107012710968669,-0.0008712032239599212,-53.21059324942553,3.5672136065145024,-0.005701942151878736,19.353022128309657,10.275838297794046,12.168690352545983,25.427634589042697,-15.249720470052361,-10.928125521461647,-16.20582074364505,22.002787534766387,9.435871294109068,-7.919573474501414,-24.39045782788727,-13.624076893546057,90.89737801089038,0.003608527974491341,-94.43211897124208,69.07314382235371,-0.026520078489822473,67.96772735880342,-4.321927781258306,-10.184777533770854,0.0017852966023632244,-12.923651404385293,-13.453687252387137,-0.0036678612759461385,-4.615881969054219,5.099896162429627,-10.42446434420078,-26.134190930865607,8.5742281859671,-7.831488736981996,2.4141847400976197,3.2691938111350005,1.3969293888127552
10.119675130179493,0.0,0.0,-15.016068970135134,0.0,0.0,-4.107940003704579,-2.971558585921554,18.4131257812324,-5.576380005109058,6.436005082838044,-23.323870339042497,-23.676772442742415,-1.3985190296452457,-0.0007958273479373712,-46.939238344157445,2.4012486826572803,0.00437683927605681,21.869248412545122,9.021751244029776,8.55598849036056,19.818908377400863,-11.697010084568175,-15.25654207649966,-23.423715801777536,23.46389625557965,18.998294498776495,-0.3173384884323761,-28.192343529270964,-4.178622953669478,93.13669776675033,-0.0014173074361979335,-91.72227552132917,83.75127442362651,0.07403372908548814,82.13974489866291,-3.796323375535526,-8.65392656892886,-0.0009774141411252324,-14.76456125038059,-10.108251450473597,0.023438487987216348,-5.153708772591142,4.287057381783918,-9.568170947039214,-26.67197835267857,7.505012503327772,-7.330788268100395,3.970075611578772,1.8312059629443247,5.074202135932792
14.636172858147784,0.0,0.0,-15.015950608731169,0.0,0.0,-5.174308855567474,-1.3470459626533873,20.27140841831745,-7.373900015214787,5.531159383319598,-23.28213707729801,-24.44442402017342,-2.4221045832675907,0.0004940226641754715,-42.19899093243902,1.2775839904593365,0.004511205842022038,23.70377408924594,7.526005476987112,9.321200371350997,15.689871222396604,-10.082414969805287,-15.775584355685533,-27.85220928923785,24.740719610769755,24.516515500499747,10.353393260334167,-30.44685002513372,4.768026799891587,96.4143832616724,0.003283623196936273,-92.8431986930264,94.3192248228284,-0.06012933966329168,85.13887894090053,-2.70795022614435,-7.938154619494423,0.010324530946582807,-2.7355424062350613,-15.067466719197974,0.0047684183114685705,-8.508306357086038,3.982542263417036,-8.460430552487422,-30.061769580767844,6.816170457830608,-6.407641734073427,4.8240895864951865,-0.11781192355062457,9.661826156654953
12.807215118242643,0.0,0.0,-16.280241298907644,0.0,0.0,-2.975964466263811,-3.4517531547824998,19.850392466360525,-5.906701805044575,6.512705143992035,-24.124892347188105,-25.561851214170513,-2.180597505289434,-0.00033764942907149386,-36.16958622234623,2.3136518076768997,-0.00027847443137918315,25.783539752209823,6.206060545464444,9.23564215080185,11.013613404646057,-9.67836924875715,-16.250451278722384,-28.933789958181816,24.52290506889157,28.505180467652206,20.998045662901035,-30.401729121752,17.81772527929304,100.1616431411625,0.003914057978572879,-89.80318426212793,102.6341624515652,0.01034403539715498,88.02052905591806,-2.904713026195793,-5.987490451590053,0.006893509662540664,-10.349762037183002,-14.100457909203566,-0.0016661514992446674,-12.339166365240388,2.155875699818378,-6.022949903847555,-33.91599072446764,4.222796868096913,-4.807963264519096,4.948318379010453,-0.7658564514387729,11.790116430567444
10.533561476553745,0.0,0.0,-14.957573832093612,0.0,0.0,-3.529676925673622,-3.341419047646398,20.31195154757557,-6.154918152365349,7.610517952379577,-21.21198651784616,-25.444629293341123,-1.837326255676258,-0.0002009240862317978,-29.104017479289666,1.7624214800854379,0.003967369338298,27.730060961598035,5.07788894901666,8.484694157448294,8.321887376662724,-8.816112452037098,-14.226420711875015,-26.628663367564677,23.794227048713218,31.662896700108394,31.979237421444356,-26.895169656490506,26.55372970398656,104.70442448814967,0.016897011528071226,-88.74091966212826,106.75574705056187,0.004916034094138696,94.86109414509293,-2.753163844853385,-2.6570656751910606,-0.0005132890840616757,-10.054908860427346,-7.379926477916296,-0.0011428291011256286,-13.582658011807037,-0.27474964909314736,-2.1656619964031663,-35.208204245349485,0.5430858041496642,-2.11440606292908,4.222888270246874,-1.3884623868708503,13.672405631612293
7.248874585812052,0.0,0.0,-9.059212636513578,0.0,0.0,-4.27309042502149,-4.5860696521356905,22.939214711677394,-2.1533123179673197,10.436533359687854,-21.938419041008938,-23.306037059461943,-1.760025521294014,-0.00019421261116940464,-20.556691922525623,-0.7526064412370993,-0.0027622827739729955,29.01265707802588,4.893905680487126,8.00054277280185,5.946822411439817,-6.830654608356842,-14.586144010183316,-20.65689323437833,24.906431978803184,30.921003120679625,38.52043388695378,-21.671443129893163,31.20421245682674,108.7456226606519,-0.018451934975614967,-92.79380526866923,108.29550004691212,-0.0007581712600829488,98.46134324392466,-7.586903251477697,-5.584366164810754,-0.001025906436637006,-12.577984701690525,-7.574903874454189,-0.010635975810803163,-15.726625282372254,-2.0274236864690085,-0.5528596693918821,-37.376110457549714,-1.6806147320315028,-1.261734565427982,3.838547842861008,-1.554602193939512,15.253974135604249
3.4655485694244943,0.0,0.0,-7.820736596657341,0.0,0.0,-4.074238908904064,-4.991495546668773,24.10093790098114,0.8976942225039285,9.569773706987108,-22.421763384053406,-22.565861485395178,-1.4043052509228837,-0.00023922392146382744,-12.44165296241183,-2.1014956972443946,0.0005472155734976578,30.55927550410211,5.253734375164592,8.285755530700486,4.184746919857868,-5.1404434168461535,-15.589102923457602,-14.440102925426258,27.79396293062961,29.088014661223035,42.773253524269045,-15.39602027954765,34.132977459037996,112.12543573914748,0.005587499226338008,-88.25316332482261,108.85099485238587,0.0033729526391205185,102.47572648810927,-8.775912320341241,-1.0610393836094973,0.020199557524947422,-10.1684378172927,-8.389995996457246,-0.0009774830941502455,-14.900980773844193,-4.357339687210144,1.6297689864831306,-36.6076223517333,-4.650631286136655,-0.09537813258027389,2.6386436045308224,-1.9342301109782627,15.437735005711524
2.5735508405028025,0.0,0.0,-7.847707784806738,0.0,0.0,-5.70542932968573,-6.180339585922616,21.922901153264917,3.036376874376325,8.648909113874272,-22.208694883074838,-21.04966615944919,-1.0120403239645566,-0.0010062743517117623,-7.688816617899245,-1.1356451576614321,0.0007131212286328446,31.806937355522493,6.030858390598404,10.403864276627084,4.697727975571404,-5.208860366172577,-16.994764757841413,-7.058465938684456,29.577224352504324,25.338692346322247,43.998213371672314,-10.16810590660913,36.13717946579403,116.18556323549885,0.004864411140355273,-94.72516913919438,110.15573323161125,8.172397077190776e-05,107.66506986796786,-6.322782670921482,-2.400791172342813,0.008080615679474126,-9.11649969620108,-4.188522839792128,-0.003091915188319127,-15.184134366530987,-6.018651526715769,4.560431160356092,-36.93685667734183,-7.2744493365846274,2.0122569313300964,1.730375488886582,-1.733252017408969,14.29649689864444
2.7400427601772206,0.0,0.0,-9.092100059255284,0.0,0.0,-7.3817272762599435,-6.2918292988770075,20.416607101139245,5.3503988052041285,7.933847026436141,-21.034410657448845,-18.84791445711088,-0.7902563285684701,0.0008412090183603366,-6.413181123708719,-0.9256229246531318,-1.0629223198210685e-05,32.75843086343582,6.755273803086796,12.545414346065295,6.215035926556649,-5.3770685201488595,-15.671430299234881,0.23693295961503538,31.067687484402782,18.78172594786394,43.85811876916403,-5.982478273486114,36.852905578294944,119.94233697072622,0.0016996925903595963,-96.34261970073756,110.9525638074329,-0.0005961773864053513,103.00493226928216,-10.457504184291876,-4.620943433563747,0.006891531559184962,-8.780838332540895,-3.4836600020152595,0.0015450445250946051,-14.087178451352251,-8.146003013498188,9.305249458487722,-35.848390470075884,-10.995830223408467,5.643037851816462,0.8035627511064141,-1.1492781216224224,11.815711283724912
-0.05858472597212572,0.0,0.0,-8.781811986396026,0.0,0.0,-8.297836226029238,-7.439792614930205,21.172073278689012,6.725496349536767,7.051457304949389,-18.897312643246234,-15.457358254776615,-0.7191225280002483,-0.0008402221677150331,-7.060500339927435,-0.7358755912519608,-1.4859632256391257e-05,31.64715132089783,7.104720669628372,13.587416960068277,7.48646712702176,-5.856542332710362,-14.842302473146026,7.8977959596337035,30.65317054729874,11.068836986927522,42.810405376942036,-5.143854883602983,38.27517048568601,121.6678512736633,-0.013025263914966684,-100.18952330452221,111.97376760038183,0.002775238829047962,98.22559073588374,-16.23967159011311,-1.2696359673681903,-0.007767528737090811,-9.475601266070917,-0.7678659560125308,-0.0008146833892555034,-12.933199915463133,-9.411911162612148,12.36808198126199,-34.657713160829196,-13.293054196368015,8.03933206563929,-0.32516072526252676,-0.6421369771181694,10.077353297365175
-1.5351459612677287,0.0,0.0,-6.4685220629397895,0.0,0.0,-9.884617556086496,-7.514557561846957,22.097086889615106,7.129851722221711,7.708751790392037,-18.13622738603755,-11.610147749693668,-0.5192895420163502,-9.946644715302069e-05,-7.389308806010138,-0.8938904891586019,1.660202249341423e-05,29.52120444591351,7.52537773759196,15.237468980971755,7.687893015312832,-5.183021266101554,-14.825879479260623,15.18694389969881,28.611740604396353,4.970937540763969,43.068866754677934,-4.321772449551591,39.07687110364887,124.190434601246,-0.005851671270256673,-105.6715718114798,111.9371476818237,-0.0010641087429765687,101.8529607622264,-15.469529497872397,-5.744635149807511,0.011084561393798195,-10.483788881445665,-0.3282480687795524,0.005380464941995633,-13.721257843226692,-9.389637034045647,13.513156707545367,-35.37899276428372,-13.689911763322051,9.127284366987917,-2.024037897958161,0.4079634448908048,8.573960449823236
-0.6257202073621349,0.0,0.0,-4.953413543031627,0.0,0.0,-12.190564095862678,-7.863981592437655,23.142688325542714,6.784100888291187,6.961077090839889,-18.598013126469905,-8.002860918542842,0.24644838900861507,-0.000738027849932921,-7.979274682976386,-0.7848605528430418,8.612061940046764e-05,27.89218165008229,8.222667544486914,16.881638742207834,8.561409048368535,-3.8587021444588907,-15.198411823644093,20.82004903014488,24.69633268678885,0.12380973401801196,43.07797399023698,-5.14055427083517,39.25983073948329,125.0813861653404,0.005706841650283312,-106.88791534299989,111.76045021540267,0.001247369149949929,99.03141374412236,-12.273755972841846,-6.445227547484673,0.0004130322950614389,-13.186604656443478,-2.4493505657544916,-0.003073975050769616,-14.357086795239708,-9.952332250373471,13.000213908066351,-36.09588789664618,-14.025784792985565,8.42909914777904,-2.6331875783902015,1.9971169588589743,8.448396801036258
-4.7515820080114635,0.0,0.0,-8.928624260649773,0.0,0.0,-13.613968483838807,-10.583134015398329,25.905885791176097,7.697010950142983,6.884070802216628,-20.139139780467453,-4.183112412927826,-0.050721299032480516,0.0014642764151757,-7.584264290345426,-1.2205406855174832,-0.0001623135249084785,26.071236766842485,8.713234186577258,15.796273763255012,8.668899236070017,-2.6223964517612477,-13.491591105888688,22.17087037551324,21.221693790479375,-2.1046795323772423,41.87455159251814,-5.522117934353685,39.2119998053986,126.00036852667778,-0.003040727268266784,-97.75048710824868,112.71792508138596,-0.002322002007039062,100.53198852763096,-9.935784918765187,-2.8899338102920322,0.0008037133312706453,-13.094051095788124,-3.5736980629589694,3.643418078873081e-05,-14.85506290644772,-10.273074643408831,12.852157394281708,-36.631952239592955,-14.269655624383105,8.166872269344996,-2.348066182097765,2.6345663174984155,7.909603025067253
-8.123659853212637,0.0,0.0,-7.922871624181189,0.0,0.0,-16.96248033751342,-10.54769724281608,26.080231068212257,7.762713960823824,5.895538470054366,-19.76440858252531,-0.7902653519611577,-0.4568122651450178,-0.001685929986490169,-6.357553918432976,-1.00625100501649,-0.000261220065180391,24.30317950355173,8.248973320038068,15.449060785961048,7.315958589732971,-2.6091296575079093,-13.679846333632346,24.29444435880565,17.76535443712878,-5.738858397377706,40.064032516787194,-6.1988530069475924,39.37970589454027,126.37273575306399,-0.0015025462775523652,-112.90662616105871,115.26436841177083,0.011044081406246683,100.2513041534716,-13.658059921488992,-9.823067002418606,0.0022134602012933895,-12.64590833214682,-1.2692659819808323,-0.0011767934738007007,-13.907091401541377,-10.489389713956685,12.603619064942563,-35.717677220396745,-14.379740200940342,7.849712032849163,-1.9077117875454592,2.8736028268986016,6.905368778322525
-8.439718381225932,0.0,0.0,-9.390105926608477,0.0,0.0,-18.545814449624284,-12.459993573412262,24.91786003509889,7.761775163213509,5.128206909339912,-19.672354538814005,1.026582650079565,-0.29314350878978124,2.9996946289487174e-05,-5.917394561446785,-0.6546536358262686,-5.6639214877963205e-05,23.1257719661194,8.585526451402815,15.44462204458449,6.732753322379608,-2.213934841327846,-13.159040417562032,23.61237971884358,14.631456231755836,-6.753900427063274,38.73840508335525,-6.382420499226775,38.57408773840412,127.52037977201499,0.005563053432181642,-107.5523586062531,117.15106530710544,0.01663426961346676,96.62970102342298,-12.583739233633324,-10.302958723261126,-0.008313242769632152,-12.245570718989189,-0.9412278718448951,-0.0010823996356809377,-14.638260569674301,-11.632174646524987,11.570534201693425,-36.609775111988455,-15.062102125129034,6.436453699913809,-1.7599386344591574,3.3556532267846135,6.543369158232322
-8.359740844410092,0.0,0.0,-9.08334914377968,0.0,0.0,-19.81630022079278,-13.168987757271859,22.999876111729375,8.091959993944972,5.945558214125836,-20.476827406686752,0.4672618644553882,-0.4183329701335329,0.0002496753565421656,-5.928409531104108,-1.1519888046126556,3.185762992703304e-05,23.24641750644122,9.03703647782772,15.014826442611302,6.97097871824757,-1.7677823484743025,-13.09879262883486,23.463314809989296,12.36473505845109,-8.219742516265876,38.25158051916096,-6.770047867895652,39.163430078739005,126.41628928227087,-0.0023674165036632064,-109.33367528118194,117.70970512456371,0.004266579873189297,97.34134317902677,-18.064842149933764,-9.398671391826387,0.000558357992952878,-16.421259158330827,-1.8449498276094853,-0.005235729001096076,-13.982955078703798,-11.174971182571298,12.493378383309091,-35.86597066344451,-14.975794770929372,7.482091474542409,-1.7753724625710094,3.6986707331486812,6.181321562673788
-9.593757080830763,0.0,0.0,-8.833271904353879,0.0,0.0,-19.969583058120126,-13.12514121192283,20.518895348443504,8.55805511616403,5.75977515275083,-20.89639833542946,-0.7817019605604871,-0.728821300395099,0.00027413133995675637,-6.763798162960568,-1.2076972827773431,3.778423557333111e-06,23.531922150646874,9.843837274984075,15.335050916513755,8.003698289489042,-1.480574543934755,-12.766014372291815,21.325849408442313,12.488865434464795,-7.269237648837653,38.513100123294194,-5.817032441488015,39.23344435731692,128.28005895259986,0.008832315790396218,-105.64301958934452,117.81846039406692,-0.005112932761790586,93.46520705837304,-15.744607416525616,-9.537481455295547,-0.018563189458013385,-12.884111514537013,-1.271225421158754,-0.001878161739194232,-14.215227651405833,-11.114335085110358,12.661314331440138,-36.08374878147909,-14.980917549358235,7.66376030662878,-1.6354133883076098,3.8236283914770186,6.60093137953029
-7.160408323377295,0.0,0.0,-7.287046493297277,0.0,0.0,-20.3415689778666,-11.906638216892672,17.98987050076794,8.10838698456256,4.865054664533832,-21.03301639872135,-2.7656986358962263,-1.438024886277785,-0.0007819739168339621,-6.37097387448442,-1.1471901342333124,-0.00010310907519236227,23.3967055247127,10.498191567399042,15.84116480526708,7.6007818841700185,-1.1602647456187645,-13.942924350843844,19.998683079273054,13.08967439317994,-6.625899809512642,37.977410814393096,-5.434774908614505,39.25280390867631,129.7460635774952,0.0022229227895216035,-100.73115328109627,118.11978190546301,-0.002523046718960854,95.5134312653302,-11.103544845995827,-9.467642259601595,-0.0017341552466234882,-14.72017123894575,-0.1940893803940685,0.00027677263915634005,-13.85866768066376,-11.02719079531125,11.709015524315141,-35.764336600569344,-14.55165692652724,6.8005278080342,-2.069368566020358,3.6586728577546572,7.361323851020259
-7.739948494746396,0.0,0.0,-8.164762977207907,0.0,0.0,-17.611140267720547,-10.146198267371188,17.561655486497024,7.956223511030918,4.308468462563133,-21.985520418385207,-6.9311278790014965,-2.5284162319365264,0.0019501202897562568,-5.6637579181563265,-0.8549946516326802,4.67418559808779e-05,24.456939594755422,11.429451349249028,15.018931512388788,7.339124060538527,-0.7864000861735188,-13.936470598964071,19.50667383842776,14.152479457000027,-6.219505838059411,37.9336187699257,-5.678295430940695,38.943680807038696,129.8805828159332,0.004371981428785872,-89.93309104396272,118.21148549932634,0.0005428995896196837,98.23436858075341,-9.813208433396293,-7.309304010369094,0.0057559673595969025,-14.151001800870207,1.5545106424139343,0.005816330970686185,-14.011391017800934,-10.906321162903488,11.57352330735771,-35.91150925941883,-14.389891736791553,6.719630318479071,-1.8743635274279806,3.845440252844179,7.423462037535856
-4.799968385597432,0.0,0.0,-7.446675444204808,0.0,0.0,-14.733024541377876,-8.685027538865294,15.704689999162055,7.918379294919181,4.174734523786464,-20.758986036838905,-13.00177449703816,-2.6848218609299046,-0.0013839243163982367,-5.58952196272906,-0.8320112033294944,2.0612886028486642e-05,26.09296240494047,11.991485597657245,16.91586770915874,7.450912263668922,-0.7803494048122264,-15.209811162723637,19.481343063088545,14.834208228810725,-5.895064300072373,37.98397080130445,-5.25925347531249,38.55905146106487,129.9828349609077,-0.004226383348461596,-98.11144549192824,118.44218017697732,0.0025657132723371284,103.61874287653153,-12.558961294346375,-8.592143583356302,0.00885789760351492,-12.511582806607748,1.3810926144738374,0.0041030581821125105,-13.81620030365321,-11.25239308030639,11.507053573190344,-35.75274791943441,-14.68659974595609,6.523653071564688,-1.6625160692880332,3.866272272596897,7.355161776616369
-7.79490664318127,0.0,0.0,-9.698200815958803,0.0,0.0,-9.531584835311927,-8.180205837443763,15.16131969275208,9.01777979389432,4.967319109559963,-20.644790717398607,-19.012382084000773,-3.5229843979362423,0.0024593043881637323,-5.708674109439566,-0.524901366630784,0.0001622274320198447,27.464628430533832,12.492113741280468,16.9199635307197,7.901026054667527,-1.3233043042569081,-14.019557665460967,19.676225650841456,14.795248045604682,-5.273384625080012,38.16906514641368,-4.932264013578398,38.81951534368793,129.84964979318264,-0.0006577094505894504,-105.2349563578206,118.79254277260951,0.0100649146461207,99.11578636692789,-13.409256696370498,-9.548603915465046,-0.0108284169855074,-13.864890375122322,1.8081789584000534,-0.002923919977162943,-14.979261731213992,-11.122502820499514,10.821411651414378,-36.931583927376394,-14.314753710087006,5.92938024380517,-1.2489312840374365,3.2182343904967694,8.240314901375745
-1.984564427770003,0.0,0.0,-8.776215635677932,0.0,0.0,-6.325029019283555,-7.56795006236767,14.246311970642067,9.136311589290559,4.231551543429682,-18.66041303424848,-25.168556736745295,-4.809652559246567,0.0002654393431178447,-6.678038650225935,-0.17064692224788103,-2.1695340050415633e-05,28.796125579166176,12.97070325443191,15.964550061996427,8.508721079084749,-1.913389687514888,-15.58879868754905,19.73706064711922,14.941687070106196,-5.121735272193175,38.5702243327075,-5.346288728444992,39.111252580784694,129.71401235861367,0.001363308164994783,-101.31749186216152,118.89812803702488,-0.0005684650085425696,96.70756200950993,-13.243972558745096,-8.6766263186682,-0.011875782397938928,-16.978375928653872,1.3091053351946564,-0.008073491930122237,-14.013982014333374,-11.218627105668036,11.442762542614746,-35.949998918860295,-14.631720113644652,6.476229629933252,-1.41004064544641,2.992765163003851,8.356900510320601
2.2974857753603013,0.0,0.0,-7.746633372238028,0.0,0.0,-2.0015333272680023,-5.901297595556974,13.847903357651315,9.70362042895267,4.587412128531894,-19.052567165872237,-29.16605717132374,-4.924913327141053,0.0004921208623196999,-6.785533033063968,-0.07110624668158114,-2.7404160035608277e-05,30.040788803226533,12.744376719832092,15.461613140135547,8.500995608040627,-2.123058113723583,-15.634830323732665,20.058437971090697,14.590467957310212,-5.453323799576772,38.1973083560328,-5.660971592360314,38.70310052843239,129.40504434608135,0.00976342318435346,-103.34707147607944,118.9431019462231,0.00016552720423393676,95.92281198237204,-10.553891191951106,-9.35774613735337,0.015575597282750939,-17.39909590487808,1.4379326093413352,0.00036367187650118357,-14.337551924518005,-11.32731571113005,11.056138607296834,-36.300258146008794,-14.59080870300829,6.070816025123495,-1.2733223476506026,2.7145961471454427,8.066658284347024
3.363626906929495,0.0,0.0,-6.942034439135046,0.0,0.0,1.7925678460926942,-5.503604394613456,14.673989386349099,9.046798214389788,4.201653914836158,-19.577194447229804,-29.8800140857822,-4.198673007334066,0.00021309689747346368,-5.713731113476705,0.39082138366387564,-0.00015069501431060097,30.55224391739017,12.592247497315759,15.631937553003823,7.806372124138697,-1.8726243973253602,-15.40030707214427,19.327583078896406,14.305797435767271,-5.401315702756671,37.62934829040051,-5.233598508446057,38.25129568796531,129.28943612761617,-0.0007870886731302735,-100.50064710136286,118.2627140989436,-0.0014590115374413103,97.43629792231039,-9.594764687529358,-9.115676617924471,-0.01060335625332255,-16.76809563362672,-0.15766801174935022,0.004748227254712375,-14.549594431216335,-11.117313600966755,11.133851231251342,-36.48881213724894,-14.424523543976619,6.224935410595214,-1.0908872179129199,2.797902195266322,7.658662782098716
5.592332365389792,0.0,0.0,-10.831070389519,0.0,0.0,2.988323893694007,-4.009716417669956,16.20324814827749,9.537024963632755,3.3971727411831663,-20.37254872982202,-27.76076002982016,-4.061903744325315,0.00017577129215281973,-4.8792050157048,0.4080567131815645,-1.1506095108757836e-05,30.657723634076895,12.191477524983037,15.594964748063777,7.6814243275998,-1.7251851501079352,-14.619525438385773,18.997187200112645,13.749528926832198,-6.340415499079137,37.1356932909042,-6.491337116619782,38.24207576168937,128.60584371689097,0.0017583204367231072,-97.26602984909651,118.11414447851742,-0.001294598740281726,95.85206617322774,-9.711852526643453,-6.530558919901999,0.015349678722507202,-18.414821818513037,1.5878189827505291,-0.004256077764993126,-15.944698954304547,-11.330971450006249,10.431559298358057,-37.93170187040749,-14.365027509249726,5.48286301788277,-0.7207434865329448,2.6154466570477917,7.55777699774367
7.058277009520489,0.0,0.0,-10.166234307473806,0.0,0.0,1.547004762103804,-4.184173137336451,17.93610506875072,9.310533369662634,3.722946043884914,-20.31985350145656,-24.855504212588443,-3.985407881543749,-0.00027711584147759505,-4.678071109966747,0.5428960506931595,-4.880972585264195e-05,30.238360584764067,12.462479511314442,15.556545793551061,7.547336326564648,-1.1815065616237403,-15.040524063397688,18.9750272185725,14.690725416474367,-7.211091081331887,36.149357475271565,-6.3393806486305335,37.78477427459087,128.50050764128102,-0.00024365957054532853,-99.96373738250048,118.03399586254035,0.0008482118677348963,98.86727474092378,-12.283997442160203,-6.547200998672387,0.005838428578447601,-16.767659140032006,2.6384368711180732,0.001499210279254133,-15.96940602459593,-11.883218958377967,10.979737154344635,-37.990251924568945,-15.078238127625562,5.783679096446098,-0.6722329922519182,2.785385120593158,7.382016150021849
0.8183806954662837,0.0,0.0,-8.654238520585098,0.0,0.0,-3.2726105362222557,-6.663887914632427,18.34067549647956,8.792607966975154,3.0153856831663175,-19.539352769320487,-23.081360712719768,-4.124021771572136,0.0003763294096585964,-4.533176387342958,0.9476829420664071,-2.222401169427014e-06,29.616324575794298,13.012242960221984,16.27998223401784,7.227550184799109,-1.1234031140583047,-14.790439752541616,18.380584031430935,15.295097276780911,-5.553042772926139,35.871154175131565,-6.67125332980967,37.29965529658717,129.49012533700474,0.004767571806570407,-101.80510303870555,117.96977238090815,0.0006011925448940439,95.19661938254136,-8.658571781370354,-8.807186676363237,-0.004567946586042136,-16.177730832395714,1.5397175440130575,-0.003382168891258966,-15.795212745459215,-11.31222704373203,10.858228437729837,-37.76430561277444,-14.504224291711193,5.890709855979034,-0.8167501409655495,2.420875626380329,7.515555100972339
-3.893759829778739,0.0,0.0,-8.631738622462853,0.0,0.0,-8.058946992053507,-6.697369529509539,14.080522032264048,8.975121545643997,3.6120974290782715,-18.772683975904457,-22.958017441592734,-4.659760956083494,0.0010624956436827843,-5.019236371078972,0.7328948024072252,-1.2377267306476081e-06,29.77428474845209,13.962770421690346,16.518597184156352,7.283926108354931,-0.7033680381918858,-15.242123354461375,19.06328725972935,15.09729150802303,-5.591495173904936,35.9083078741486,-7.690503430223859,36.93866431184629,129.88191717265028,-0.0004931280576177207,-102.43896059344819,118.17775600330454,0.0005973620125783718,96.3657545539704,-8.577114133134923,-10.33101004299333,0.0035828165051939587,-16.927776589065047,2.824111667256597,0.005063579569395687,-16.15118604933239,-11.047108803239148,11.178782162293224,-38.08180031679366,-14.375878051509055,6.294234585841206,-1.0814644724586517,2.659098455739191,7.78684327459477
-5.2472189870666535,0.0,0.0,-10.040559668391577,0.0,0.0,-7.084411878177889,-7.281328577381411,11.82904886012773,9.498231859172607,3.815509474886285,-19.71512910596001,-24.963985273140878,-4.824985255608513,-0.00037357955644682885,-5.433308917199444,0.7064268891203836,-2.6319301310741386e-05,30.185490934328918,14.551552958065393,17.19395089964504,7.265393210586827,-0.8882529462235651,-14.33387553881624,19.84081599900167,16.244576304339464,-4.685884082886404,36.01221899526612,-7.987200337874548,36.65749705128297,129.71540682561397,0.00309201462694934,-109.21151554968871,118.43111116483666,0.0022093741873468534,97.59899226450493,-8.17018727192576,-12.012721187088543,-0.007642598880478539,-17.928207201153747,3.1988359283088634,-0.005265352894670485,-16.180573022063978,-10.655379410826228,11.585583820482508,-38.05633494269493,-14.161456312825667,6.827508930167796,-1.6193732905881664,1.8828341920827212,7.742293611525099
-2.910033391984751,0.0,0.0,-9.336221806334196,0.0,0.0,-7.423570832819278,-7.4315288352214735,11.926443499017338,9.494054852597108,3.7411499141796827,-19.300477260864362,-25.452374291539755,-5.184543482135325,-0.0002505579398292585,-5.374458554025016,0.7123761742671989,-3.702456188328907e-05,30.203623764425632,14.877040670743755,16.178295382474687,6.8388599509275325,-0.9284535694558166,-14.547131371997988,20.630131380422362,16.499232602640912,-4.42087860105783,34.976970696676894,-8.365454959522356,36.23460256714798,129.66120934704864,0.008389704889502851,-108.0762264262343,118.77171613496108,0.00031595901303212956,95.73262300345023,-7.021720017113629,-12.549681281047306,-0.003722627087159136,-18.747549757991802,0.9426819049181675,-0.002239551034223232,-16.09909416698414,-10.5919874395195,11.337657340061622,-37.97996685531462,-14.011826397990562,6.618724626050168,-1.7605353801023849,1.4246470631764068,7.56045025471503
-0.9947018325566731,0.0,0.0,-5.9849746819162295,0.0,0.0,-6.942211871792894,-7.047214392580253,11.108571732472528,8.467364564805486,3.867734848734635,-17.91798305130954,-24.68091420009835,-4.596639595602307,0.000655197185587278,-5.39725129333857,0.5580453904570674,-8.802108352242392e-05,29.557593998825052,14.704819043141091,15.871759205333937,6.375065866768747,-1.1833498758252798,-15.673873006057962,21.27477947343521,17.20777915654129,-4.14556793341337,35.024839330137524,-8.478910930832688,36.21442267973463,129.3689263373144,0.0002043211055332974,-102.83764128333632,118.42032560178072,0.002548799381970068,96.92958231396076,-9.444799151378287,-11.203295721166153,-0.006379676821344254,-21.25713662665178,2.306885421448429,-0.0007295360905162447,-16.067183406820973,-10.35589325215093,11.835952221901085,-37.90340609698491,-13.97514587128414,7.177982627059543,-2.1027151624047735,1.022961486874262,7.3946438980503775
-0.5739385380662346,0.0,0.0,-5.959283666842306,0.0,0.0,-7.810099490671183,-7.8974524629958225,10.469857921020003,9.272207938044154,4.292261854886938,-18.467564172711967,-21.913985008809306,-3.944587991882179,-0.0006951259400478074,-6.0062269881611625,0.2776539740784731,-0.0001884461182505795,28.298715143074038,14.671691301198255,16.021275570101224,6.439347859627349,-1.1595955549562023,-14.678758312583218,20.497358088452057,17.441123533110307,-3.5839678476217927,34.561165859123776,-8.664393212434714,35.77007370806381,130.00087359500867,0.003029065771060563,-105.60901023122852,118.26693619421306,-0.0007391699253619288,94.45540570588408,-8.785613558066414,-12.514461203584665,-0.007155934836840856,-20.141391607547806,0.6838180430300357,0.003296915242713469,-16.719829680298762,-10.651282103054253,12.143489453415054,-38.56901267607068,-14.361834315422655,7.354112956636849,-1.9484554379563659,0.936440976196919,7.630962128384203
-2.6869871010683735,0.0,0.0,-7.660198719130657,0.0,0.0,-7.001745759374064,-7.032080681785314,11.354072015366121,9.965134372850223,4.67183467457457,-18.711293488962358,-21.34575517527269,-4.190237108430485,6.473356000125929e-05,-6.417217824709054,-0.4170110985963678,1.9385793642863574e-05,27.906527533091054,14.635766348713695,14.927164482775009,6.59933479662111,-0.907275185230564,-14.403069259288516,20.12617924032026,17.59691909521149,-4.188673244537154,34.44507830600136,-9.04462194230073,35.088071823240945,128.8209717857083,-0.0007993879155181428,-101.87544429936968,118.8425826139528,0.0007973615207165404,97.87263578662998,-10.730442916340511,-8.883751009066824,0.0012118475754164654,-17.988919537969156,2.452424603425008,-0.0066577436411612845,-17.582841968365475,-10.502925465982509,12.196448243677649,-39.41535611337875,-14.24349715325531,7.46094061511307,-1.676849302625632,0.910835130984547,7.468882605675171
-2.0765960383271347,0.0,0.0,-7.655071261600243,0.0,0.0,-5.514964067403995,-7.723514759527818,11.006548207440023,10.062176245909628,5.540711876441249,-19.115243227475016,-21.599505467115186,-3.7343272874135596,8.758053588638718e-05,-7.002571755583995,-1.0229984792893283,-0.00020443389310281822,27.391776355940436,14.296083359555453,15.854442516493902,6.9848370063537555,-1.2895106881600682,-13.082788797754874,19.367480213842068,17.992903390498736,-3.888892346942675,34.178539312451605,-9.006695056119453,35.243033037957176,127.98862728313927,-0.005453554461114892,-96.45954747015661,119.00686488579863,0.0001044492108402287,100.46935296507733,-11.12656353440636,-7.853518937829809,0.0021968204916224874,-18.45363591963217,3.502182058406875,0.0073058964613080995,-17.7645208719141,-11.385690720385188,13.086883811249104,-39.638364324899776,-15.38822857834757,7.960383329246784,-1.390840415826122,0.46074086531659847,7.049360732843487
-2.626093721240803,0.0,0.0,-5.87953910614311,0.0,0.0,-4.450319910421875,-7.571559890088878,10.666087476376255,9.208722828408163,7.025163968686479,-17.922818434550614,-22.091477220121398,-3.6651226825589465,-0.00024357243837862773,-7.587707829192685,-1.8720811305558664,1.6618474313857036e-05,27.132980405478076,13.96397775015947,17.122339111877753,7.467145045204239,-1.835461110355332,-13.571080175078611,18.965763099002192,18.16816371443074,-4.717773907183918,34.135681432287015,-9.439467758292853,35.30485443287515,125.82897420514631,0.004111667164575171,-92.12792482827753,119.05452481678348,0.0004980907979678898,99.60063895958153,-11.88316353831838,-2.6378478732816837,-0.0133172131897949,-18.766042858420697,2.131030226864716,0.0010639716075688849,-17.72220379038209,-10.974220552546901,12.964713826262,-39.56098088955972,-14.961716369602538,8.003847800580278,-1.3949482371271904,0.06260413325904156,7.005408470978379
-3.111392299238369,0.0,0.0,-8.13222580556787,0.0,0.0,-3.855044939106497,-6.206758135005808,11.610140508765054,8.867356068192128,7.538240169864899,-18.812026936994666,-23.235469352205257,-4.124143510460968,0.00020475826506503162,-8.1973833346377,-1.7707225259800616,-0.00012664724101662226,28.173538957773598,13.788776387240276,16.834372815523015,8.427499085234206,-2.55865495346623,-12.710311542683066,18.525123482507233,17.883688213021017,-4.990702754627569,33.94021027459981,-9.631702639011914,35.717082314898256,124.7017903526722,-0.002095244242627948,-93.24827499854258,119.08409624566534,-0.0005172288160441858,100.77343886652467,-12.642938057090738,-1.6471393070310916,-0.0001550880261418075,-14.879738718486976,2.600536002598772,0.0010647439189089443,-17.512008537746183,-11.333152953052373,12.725786433351745,-39.399233181741025,-15.207537393485293,7.640092310277387,-1.19447026333414,-0.1807768359422192,6.602194814077851
-2.023657076400174,0.0,0.0,-7.189853250990774,0.0,0.0,-3.7315892125482897,-7.268681532897157,12.373462840224903,7.009405414132795,7.26091884575085,-16.735610292630664,-23.447215993863296,-3.8327974641885754,3.5290541336170655e-05,-8.70379159952878,-1.5020948193850217,0.00017583001030987148,27.95978790028954,13.384032594138857,17.880332391365105,8.959328840030311,-3.6258257669585063,-12.783963224541004,17.6047520514453,17.793818382301048,-5.124355309477929,34.1172396280476,-9.767749544068682,36.2269024647389,124.69079423741353,0.0015078817780141988,-94.73192880389553,119.36748835399918,0.0013870085984045405,98.15395650554089,-13.702845599481003,-1.800443423958309,-0.00395782880286078,-15.658109414837536,3.478069543285101,0.0018599901156236313,-16.497679169590658,-11.227147021565967,13.60927414124627,-38.32663144263917,-15.431739546507552,8.514768754984882,-1.7961396960490588,-0.8208497756008764,7.298548175142714
-1.815601271258629,0.0,0.0,-6.896461640931,0.0,0.0,-3.54957539958086,-6.537478519560293,13.550624614510786,5.979107502902499,7.759655068105017,-15.152480104146221,-23.153384987347255,-4.298610696614421,-0.00012942631366815843,-8.972016321845194,-0.8084535796837845,-0.0001990145608283737,28.186579762230558,12.816414726028956,17.280015249987308,9.817475354802042,-4.879974656867945,-12.979445960093761,16.11653248886576,18.291367328672518,-4.153900921572,34.46794994212714,-9.015039597539198,36.466202987585646,124.68103216587295,0.0020685216846841126,-101.34341358265972,118.67588654037117,-0.0031092977440156924,98.53421915390932,-10.373857806770983,-2.1480965610731326,0.0020595218535767166,-15.452527985775983,6.28405973624643,-0.00014744388027973363,-15.999444223580468,-11.572028469571368,13.99079618448376,-37.842455404870435,-15.89098961245512,8.74209052388945,-1.4865195016915669,-1.6192390279236801,7.475326953965613
-1.733725064989445,0.0,0.0,-8.926264671127791,0.0,0.0,-3.1500186443713742,-6.594847425747202,15.010290008966402,6.3633057998632125,7.915366719532706,-13.706100754312896,-22.99928380014769,-4.481331937260753,-0.0006704935844358712,-9.559527703557603,-0.41015126547210834,7.55824751261744e-05,28.319875117465386,12.37299457040023,16.65707697739607,10.610075381729633,-5.886041065281025,-12.872433015478043,15.22365338027547,18.19813493635318,-3.3280179324773744,35.7432763802913,-8.11583731530534,37.594036902781966,125.39712992394898,-0.0014592086490338306,-93.60211347358015,117.94262061452002,0.00021227230684672612,98.52023679146102,-11.594325282533262,-0.7859937855732386,0.005674483175243751,-15.358639113208032,5.6483198649341375,-0.003413669345180549,-15.357017589472544,-11.480379938245319,15.464135751887259,-37.09726168727827,-16.34183420363889,10.172811975072843,-1.9141450875162176,-2.270780703609108,7.543642001758295
0.1858825549683406,0.0,0.0,-6.034943474862473,0.0,0.0,-3.1921891380300758,-6.719866026140557,14.814127108560186,8.061948415803483,8.867737894278605,-13.47248790159697,-23.24472578471234,-3.9424506534894768,-5.43352461298577e-05,-10.286385107594315,-0.34684781423552424,0.00023058736632145424,28.61242839368975,12.053480927827732,16.469082937447745,10.348100565079568,-5.979092602546894,-13.22041242505715,13.849158952012075,18.30873267071495,-2.3279457277828546,36.19610791532802,-7.858983259817974,37.8279779706234,127.71777160310079,0.0037394988358399866,-97.69594772659849,117.56750846721417,-0.0005390723789070626,102.55917256226476,-7.381487020718335,-6.376919735672556,-0.012257646804814984,-14.721968670121168,5.718396900523624,0.0002778816863061763,-14.851648506995174,-11.66508730374982,15.720983805529293,-36.594530553548864,-16.606610722097088,10.345180377876526,-2.0813170363766207,-2.5395720843354774,7.4483968794235755
-1.2350290991113684,0.0,0.0,-6.403922557017079,0.0,0.0,-2.743584578660963,-5.857613243686689,15.252813427728064,10.40243795520071,8.628518923425144,-13.902500828111068,-23.561388777103346,-3.738756594015611,0.0005021285058376931,-12.967143849231839,-0.25259979919797443,0.0006109475764440471,28.902887099254972,11.544279547543907,16.794337661353925,10.716644710534222,-6.397903771942547,-13.234093875787414,12.632845350605995,18.458997612877102,-0.7393557017846843,37.04992982014119,-7.7225217917180755,38.703320766445906,128.8420666084634,-0.011186809597789737,-102.99506667873483,117.47415292777586,-0.0007065830196915498,100.72810013102263,-9.70837798812625,-11.345100046499144,-0.00947264890205424,-14.742258455125578,6.164827474635877,-0.0010199523579199005,-13.909749688184,-11.572102288268116,15.657488076925597,-35.64676167071676,-16.49720768509722,10.320851027390463,-1.838052237003899,-2.8112915966325094,7.61833211419693
-0.42947084994308327,0.0,0.0,-4.813074875969518,0.0,0.0,-2.8878907984130673,-5.74708657078501,16.032955455139327,11.116428240106337,7.991725560229275,-16.009348157753855,-23.787009329909903,-3.7354930757341864,0.00015015551881811153,-15.833877990449523,-0.015153792332394452,1.544217180462366e-05,29.22985912903169,11.238173408375957,16.39920236212371,10.42534673197553,-6.2694729256326,-13.328549120186374,14.545482577311846,18.351844941559985,-2.411239939584871,37.43592858235902,-7.085759418312033,38.98285891486587,125.77982189318578,-0.008544501382591347,-93.09849310267047,117.88512475480982,0.0007130537881868855,99.26799438041071,-11.975411460641421,-2.1751854413455898,0.0067077703186422585,-14.985539511831483,6.7573653207571365,0.00017062094729087472,-13.759281930909806,-11.11985092214187,15.499740242939975,-35.45836139192253,-16.019821028214952,10.345499775392701,-1.5327772898818504,-2.9694823087655307,7.734248445201973
0.28898567526919716,0.0,0.0,-3.9101469445748545,0.0,0.0,-3.215818860720316,-4.706574288212305,15.668555200342414,10.45166123771432,7.516681553068253,-16.22196665587479,-23.72007164278925,-3.9542879953747168,-8.737879066107924e-06,-17.72938930689197,-0.15453370794753574,0.0001632082176083356,29.438341485287054,10.980499970765532,15.920888518483364,10.00197226368387,-5.967751837609613,-14.257008697996001,14.033525030288557,18.161746593686185,-1.8783830015559937,37.384350492245495,-6.608418868047245,39.2289177978846,126.5922786148214,0.0021421330395420854,-85.08927466230669,118.46861609046894,-0.004509815130974317,101.38402415979384,-11.391687568297266,-0.18542493819797623,0.00260419555398599,-14.58907372534319,6.717127767909388,-0.0005705667772731678,-12.443593222651211,-11.66493079943531,16.545270180243307,-34.127314052645886,-16.905125642949116,11.128490245554637,-1.0835001690913921,-3.0050940811934255,7.9933907591984035
1.3443569381756288,0.0,0.0,-4.295491780604935,0.0,0.0,-3.525271164134681,-5.993948116084751,15.866799030735104,8.773379517959576,6.98105504529104,-16.678522421720793,-23.84402266965868,-4.080272610480269,6.3659951834566e-05,-15.708781360654932,-0.313949136608673,-0.0004677154298875857,29.7271391968847,10.690916455285615,15.406089855809057,8.664474670973082,-5.308143259421657,-14.162774948013698,13.178385752514496,17.938705358683297,0.058091920096509944,37.19124125184537,-6.543371505501652,39.71248188429519,128.48311145314773,-0.007292605615181953,-87.50973734878755,118.40416822369805,-0.0008627145186724843,100.97603198465431,-6.246135695956022,-4.2176686010520354,-0.01540077849090423,-13.187443438596466,4.692538923816767,-0.0011758114855668542,-10.977233411168925,-11.446789291209123,16.149265534382774,-32.665761995754856,-16.559054787348835,10.836210149726568,-0.8370253748013795,-3.1621699216923576,8.617137855457417
2.1465454356929086,0.0,0.0,-3.9631282752825587,0.0,0.0,-4.51194977725254,-6.169243618057689,14.402573859148973,9.271962496954322,6.631100844342086,-17.77057044702761,-24.19531955490274,-4.22409347334814,-8.209586143645887e-05,-12.933915259278589,-0.864822662025866,0.0008125305348886326,29.682464408785666,10.97117095535335,15.688993563051573,6.842859054534717,-4.413577261688114,-15.5499324418624,14.827069431867635,17.09357461569504,-1.3776631059773068,37.08879878677011,-6.093219542488454,39.863600409695245,126.86936601821492,0.0055425770730752714,-91.86345039955916,118.47635709278603,-0.00027570688451659524,105.63625355481325,-9.819240147490675,-3.1529980773043427,-0.0038450625506919476,-11.359598593612636,7.62891431570817,-0.0052529309124324285,-9.992842196132424,-11.550260358674448,16.98592350921076,-31.630203905857247,-16.957875607812237,11.592064637419623,-0.559361550443449,-3.2055614290198977,9.297801531748599
1.2565163025526385,0.0,0.0,-4.800725196089294,0.0,0.0,-4.846584016201522,-6.713598297573356,14.15352922683736,10.00170014240882,6.559658758756103,-19.03914404411245,-25.114031275597643,-4.453002041679696,0.0001469861156340234,-10.790663755151314,-1.168311332704855,-0.000789491935627077,30.49319608596578,11.615682973547658,14.975339364873088,5.579739688676649,-3.0358004609835443,-15.969414011598898,14.513848544153968,17.02772573676085,-1.5983834632629705,36.580957765516544,-6.015113067554963,39.76811259735054,128.08571504588758,0.02294554422321005,-98.43307161606185,118.72321708652326,-0.0006041020586140816,101.68729428330869,-14.32728954894693,-4.820924670759508,-0.02125419725245731,-11.759677871750984,6.744492151708032,0.0031033608646620545,-8.774274719546835,-12.568419147585583,17.07779018323206,-30.52288977623469,-17.937144373450746,11.28507393119194,0.06235931810129854,-2.7423606002789533,10.093927158095212
0.8668928141273954,0.0,0.0,-4.679730473230822,0.0,0.0,-6.370374488587623,-7.338115792681492,13.634117771463782,10.075469762481456,5.233159568241235,-18.626407892949906,-26.12299708438983,-4.41972873978036,-0.0012299890320099625,-8.426496755182628,-0.8831147702000222,-0.0002171810991683398,31.5054089993639,12.081895227883164,14.452689754895733,4.243672452425339,-2.2676141978997575,-16.537193597820593,14.763275457100702,16.059493779987452,-0.29134378982176545,36.6777341073251,-6.085235325846592,40.40610996950367,129.95428231407058,-0.005688324576645617,-104.66178450107515,119.51573468332812,0.003239919978255238,108.07640464543292,-15.751209396924725,-8.607027860142706,-0.01497365371038086,-13.7455905559171,7.955964319191273,-0.004811579862520212,-7.379217734041227,-12.880704142363825,17.07545694959996,-29.16580977258861,-18.22631165627474,11.161039494960303,0.019715929327474534,-2.3243159546737164,10.657664283565113
-0.6030392057527469,0.0,0.0,-5.2561406306786465,0.0,0.0,-7.168118152151337,-7.536626122964342,13.07453594858516,10.42382218738415,5.961802145889663,-17.413755811677216,-27.151813839034094,-4.733612233833153,0.0003536657539980612,-6.902565641933819,-0.9704623528700348,1.1960890700182474e-05,32.33494689483355,13.285863343504046,14.729335032018147,3.4871727184721406,-1.3147551571928224,-17.124874359930047,15.456796168930222,16.14957545886732,0.6978207785526837,37.67403195276802,-5.398033483233103,40.41271411668356,129.90754184010865,0.0010681212701848131,-106.5712364592481,119.47537066010506,-0.00031600683526867006,105.0541633448975,-15.665983951863623,-8.079518189727793,-0.006756556293430591,-11.753811517309332,7.301641434916092,0.004519187985832049,-5.204908943218764,-12.69550981131822,18.105816901459843,-26.887698833265603,-18.42637768201734,12.216523149607422,0.23532104710620166,-1.795785362055755,11.629035655316711
-0.2780601652322808,0.0,0.0,-5.646523831674784,0.0,0.0,-8.957580445948004,-6.567033033742766,12.246344003186518,10.477698669022418,5.0725209600359085,-17.678436963714645,-27.36900848298124,-5.383645595268758,6.233033401042489e-05,-5.289175075557263,-0.682244167370395,-0.0005166083165667533,32.76255286034499,14.330660487151334,13.968662571018585,2.572866917383141,-0.31073019379214933,-16.961422757294663,15.024266161840787,15.630996219447521,2.8951177972101756,38.76089219145862,-5.146593538484379,40.431357752095856,131.42239353862624,-0.0019779329716806686,-107.02248738477951,119.39578116677565,0.001060631491089236,105.25361375949255,-10.583776917683958,-9.445424638727351,-0.0003381245795085159,-11.524171190645355,7.712558638868438,-0.0037367255851859247,-4.717942591707455,-12.266434314688052,17.62119549168344,-26.388137110788684,-17.852871745604983,11.920585898803571,0.40081234504848945,-1.0232186171867916,11.964074471866796
-0.26526352733244274,0.0,0.0,-5.1531092022239315,0.0,0.0,-10.686640453136144,-6.935568156456921,10.728097806888204,10.310197459539488,4.178994530725048,-17.37188423816754,-27.35111210803164,-4.938429848427518,7.445351923197296e-05,-4.03065076235169,-0.4250023947049147,0.00027703202399507554,33.21427000878767,14.460747049691468,14.666697761449361,1.8105865724846941,0.37464500032407433,-17.957279747346305,15.087227152814485,15.603919914505234,3.2745118428431264,38.98643663078587,-4.8133393269099285,40.45684683615342,131.5279678191647,0.0007408651851915373,-99.93476317661035,120.03148479266964,-0.0024322653265682684,104.92067677292444,-10.468261319737113,-7.7387504953549895,-0.0009245452396686321,-10.60174211419339,8.431032942229079,0.001452403778076189,-4.526644438565884,-12.491205850884317,17.350296067203637,-26.245066996944306,-17.96391749728027,11.57488937310728,0.8310561934736531,-0.40750971093058597,11.61688968768265
-0.8448302030738376,0.0,0.0,-7.294943334156139,0.0,0.0,-11.80187453423412,-6.183927860914426,11.330281612066063,11.087540575454714,4.0704133452303655,-18.848156921383705,-26.544809749443054,-5.475861288036356,-0.00020190782528785615,-3.724390950708288,-0.552172093799554,5.8618811452932897e-05,33.169219090349365,15.154120587168647,13.409328061943066,1.6496065612339454,1.5391849255257508,-17.069016698479206,15.079790989948751,15.97000299623571,3.0199125403552016,38.6561504186933,-5.1126427442292774,40.064146021291236,131.16929447501934,0.000529121692173815,-102.01292015633919,120.18563972095134,-0.000918268638512968,107.06503742111332,-13.869563482941466,-7.088165273849392,0.000555873597102598,-11.91946235871185,6.886828072702191,0.0015421997982374863,-4.484104345245212,-12.708602554024637,16.711573676564193,-26.27683427194387,-17.934786300915853,10.88163140483557,1.4126736335865786,0.7265831331537829,11.727624784270178
-1.0941591244600701,0.0,0.0,-6.4575510199601345,0.0,0.0,-12.608773474578538,-6.517065882600714,10.937280343417171,11.06724446075658,3.6456331749191855,-19.133993003917908,-25.507236111072498,-5.365299010530004,5.811229680987302e-05,-3.975060468281576,-0.2878662176417742,-7.030183598740454e-05,32.82396898909742,15.338149890527776,13.156571370486601,1.6455435549110877,2.0293936515501803,-17.23887516529985,14.936201498718074,16.03032731637846,3.421035013093664,38.8795592479099,-5.2221912697284045,39.489183420057934,131.64696472102892,0.0005384402712799971,-98.63992284748659,120.60746391166184,0.0008991043361765381,106.69575043278884,-12.827296131233519,-7.555744500818432,-0.0021848478156411832,-9.821136048841657,6.490455180927416,-0.0005300178349596123,-4.313947583565971,-12.017745117010449,15.751614367959101,-26.0941280569792,-16.945244534147406,10.237716481977149,1.7794755461874272,1.4742448856826518,12.052014763670284
-2.266663740297465,0.0,0.0,-4.595573249213854,0.0,0.0,-13.549253327853066,-7.289033587432204,10.65107200441294,11.763364828485605,3.570417357108235,-19.750448119561703,-24.17231308006454,-5.179979046609049,0.0003734676553384134,-4.747937497831458,-0.1899039750400173,6.478753462558104e-05,31.994385460512003,15.513823274200645,13.473538889459574,1.7643418057932654,2.2080686732824555,-16.939289453512615,14.671182880561831,16.42051772878571,4.889923061557589,39.542978543786134,-4.767287057875272,39.79898439727612,131.7845942030467,0.0028655651681371375,-101.45343109011561,121.04970315138605,0.0007440735842791231,109.8218648136451,-11.682060311322182,-8.074642958135845,-0.008297219683336337,-9.682034495421828,8.6867452799859,0.008276802612784018,-3.2204788878681714,-11.430196834680231,16.998504205221483,-24.8434241721397,-16.850808571474744,11.650300919598322,1.7555365634203792,2.0747100999644332,11.846623100973263
-2.0176522984601872,0.0,0.0,-3.91556908815234,0.0,0.0,-14.681147155237612,-7.149193695171959,10.316767872209985,11.76907142801664,3.15068727558054,-19.21779833967794,-22.912798537784052,-4.796205107773198,7.445316440994714e-05,-5.407189231395345,-0.28494759673702497,8.098720984137717e-05,30.895898802715244,15.280982309659128,13.660739515279015,1.4651576856026929,2.359736029524955,-17.502179415981484,14.417770595546799,16.491182527976704,6.10365120602938,39.61156072836959,-4.783845929995733,39.98597516406429,132.5694957597948,0.0005946317548131971,-102.06314867126466,121.27879783496537,-0.0009482751065968527,108.47695746400913,-10.591430594590616,-9.097960930004117,-0.0014078571599402863,-12.123287116885102,7.9133100760066775,-0.001517697263882303,-3.6072823631869717,-11.636249606513529,17.549095499006548,-25.20980163351495,-17.241083134519197,12.095500823955495,1.6072568085349155,2.689797429011312,11.512129218944414
-3.0061534306821787,0.0,0.0,-5.049161121159527,0.0,0.0,-16.03265051963187,-8.64592074819024,10.186960922132686,12.17655274911813,3.2618700360978967,-20.148993199648018,-22.577197376399173,-4.558212775293126,1.7068294932336854e-05,-5.533822236802062,-0.015049602766080014,-5.9578173181756056e-05,30.873964318447737,15.399523227053917,13.759694992554515,1.3534224428720212,2.5937071555535307,-16.818595140790215,15.09572287505178,17.085180699892575,5.836036160772939,40.21560622081946,-5.017378306079268,40.26402343065993,132.04001202358018,-4.580995149266475e-05,-104.31682488401533,121.18093621844831,-0.0005957580360523491,109.08843542162313,-10.422929736617585,-8.189884883375296,0.0017284877482304322,-13.405940179073589,8.404119175891967,0.0019323997143465051,-3.8988799502908433,-11.477621505013607,16.577539542982823,-25.559272547547305,-16.74273299619871,11.231439065424059,1.7510477733469754,3.0642780787529134,11.22162979001462
-3.1162979791137175,0.0,0.0,-5.993490673077621,0.0,0.0,-17.728660082502955,-7.242238736332803,9.1550820792753,12.300297085704607,3.060414957708247,-19.84960576146063,-22.10914275275851,-4.94292186212053,-0.00011958908883755821,-5.935104176646169,-0.24191174352300862,-1.631660771069024e-05,31.325963167463602,15.77073837022731,13.771037632028207,2.0288243091705604,2.8402401355451254,-17.35327748351281,16.13072647310757,17.24062609506785,6.8635723150092325,40.95185788744979,-4.249105825134857,40.80256530082418,132.14517522740522,-0.0008468096829108113,-99.2216698609509,120.61233404710313,0.0009726941714681734,111.11608564252764,-10.170163460187919,-8.139017598099665,-0.007186215395568227,-14.971701140755977,10.015648533176023,0.0009634959880898486,-4.288877972514484,-11.136407604611838,15.82952038835419,-25.966653797576463,-16.1547869757372,10.652071420291879,2.602306346028972,3.150831814486794,11.130994369706782
-4.627742123722612,0.0,0.0,-5.278544718272713,0.0,0.0,-18.64939557430681,-7.421683702170496,7.708975914917066,12.127778294635224,2.993941038317945,-19.48702991310995,-22.34801381807108,-5.154507159369881,-8.007979700515468e-05,-5.782750500245416,0.031993915535197134,-3.83897472239965e-05,31.31371510203187,16.46237679511327,13.757323833241937,1.6666983959866528,3.0759315357504184,-17.675076501021973,17.23872921791868,17.324947875575813,7.150799642679027,41.17756744547617,-4.264337029363141,41.01394721091723,132.09898227017388,-0.0005554197438212548,-102.12832091586077,121.22296404303282,-0.0014831216412533673,110.94517289818393,-9.702483891891445,-9.283731565947697,0.000696058347500689,-15.539325957984708,11.504822336465628,0.0011946981079849761,-4.92537651973619,-11.380652877723719,15.025950392935744,-26.684045337856606,-16.09005302274927,9.795837685835735,2.511091005543764,3.580653494264897,11.357620139399046
-6.139003288979706,0.0,0.0,-5.4547835287825555,0.0,0.0,-20.103698442559974,-7.991966473480301,7.055114508340443,12.551371403618685,3.1153965488199415,-20.198786441279612,-22.175684246810675,-5.483098415535483,-1.5354877412608436e-05,-5.81435758204939,0.10857121138561689,1.8409480214415375e-05,31.139896181883238,16.72246635423057,13.434263929940675,1.4895255518017745,2.7312399789021864,-16.955859810228542,18.528636370961134,18.111924215969456,7.0766849623041965,41.68373348901674,-3.7673801276966787,40.99539664948633,131.7507040037254,0.00036090569882691833,-102.04249484205077,121.47613058550532,-0.00023060801508235085,108.31349495354876,-12.120023913990808,-10.972078518425029,-0.002575677451329434,-14.491508874651126,10.730225603372082,-0.001872743280660524,-4.3549177251898,-11.071550457782028,15.106319556156244,-26.075542807797767,-15.832138973911697,9.991081686116184,2.534968603492334,3.1530049059718968,11.302591761333455
-6.145128966191517,0.0,0.0,-6.897576227541114,0.0,0.0,-21.048276839556273,-8.052469545276091,6.466318404369163,12.622124366510825,2.4687610353605094,-19.794601208999016,-22.114200500731275,-5.787637821693474,0.00016922737710227552,-5.980495700302523,0.14768103917296974,-2.6357994121946108e-05,31.20069640531366,17.36536955480403,14.005376591452727,1.8147750323594252,2.590777554123298,-16.765140033576593,18.381492695834016,17.794027244235785,7.903558911464538,42.14563129655456,-3.6114322046404994,41.04680467713804,131.93239850316436,-0.004721334769938826,-99.16289000231066,121.03573856477581,0.0025805802632946667,108.48519417955228,-10.80086091828242,-10.85614156128863,0.00264152157255708,-16.150678924525,10.4083100048854,-0.002570511169852233,-4.436159297066613,-10.860931949768483,15.028603596105267,-26.140014123115414,-15.608235818007937,9.99839002954238,2.826231442973024,3.361999847661946,11.325384598637239
-7.1911939819656086,0.0,0.0,-6.358999154806525,0.0,0.0,-21.2420920452758,-7.826673148151882,7.4771697489138305,12.048481923943502,2.3508224884832085,-18.939203355062055,-21.943570931594838,-6.051278523388301,0.00026044482828966686,-5.401439799092078,0.3123093290769557,5.6454398217848553e-05,31.344848576713392,17.560849021306794,14.048865962449588,1.8216656278777235,2.5605756951382137,-17.483813949487157,18.53880819850576,18.089415260883644,8.13716781596346,42.477616602803415,-3.4313020642628898,40.95949146183291,132.3678195813196,0.0007639178819371101,-97.61463424144306,121.46821459153054,-0.0005825981636625303,113.75458932729305,-10.988622412183787,-10.960597033562046,0.001186005621160007,-15.140737516399167,12.26764127453093,0.002034041337522524,-4.535686871122138,-11.143913360774416,15.190972311667462,-26.25828682554999,-15.930112381691266,10.043467688645059,3.1671845561262395,3.3345075576097014,10.966190575629275
-6.388607871020724,0.0,0.0,-5.720385977520545,0.0,0.0,-21.68610408914215,-8.741796694127357,9.609868936288864,11.697698923776375,3.0341626258866703,-20.16145418505874,-21.176390235383728,-6.138799192133915,-0.0005522588093987614,-4.622074720033246,0.46910448204916544,-7.991543897988976e-05,30.434463206524878,17.506000494990374,14.42863579289127,1.187172101420482,2.438568309003688,-16.323994118456408,18.60628909748891,17.92212206424721,7.682490227086426,42.87896247372478,-2.6848961571794496,41.43137381641171,132.39965411288853,-0.008624990291777232,-98.23814720413144,121.28273219299682,0.0010805286446899647,110.11490903106417,-13.820037970072873,-10.21434294980448,-0.0033581510304307232,-14.760560366627319,13.9500945753374,0.007689089280322093,-4.3395990306899845,-11.122039228708775,15.433711502316708,-26.04345364337691,-15.997898477016031,10.28203560274573,3.1271126869209174,3.3238078231257306,10.84773676680707
-7.558695410981147,0.0,0.0,-6.598121098322733,0.0,0.0,-21.630683453343593,-9.46994110360093,9.44256400820963,11.657231291138645,3.3528862036255727,-18.88675343329339,-20.227182463602183,-5.146905089943622,0.0001222000965337401,-4.484131495267708,0.4731634155405875,0.0001906874276580666,30.060460210991508,17.02999285321648,15.267661890225115,1.3410723795276578,2.46617106548613,-17.11285960572091,19.40191592856375,17.61705066801382,8.340843218695891,43.10319521290634,-2.3294885118592017,41.53285795579948,132.25159967290497,0.0009413419689402469,-97.73641820525609,122.21896185927592,0.003907002791594758,109.85193052707021,-10.15119218473178,-12.636754356162541,0.00796494343353637,-14.244500676901563,14.847376917855721,-0.0033190200884839908,-4.8763767034131575,-11.14915931199718,14.610349820414717,-26.63727423742583,-15.72395978195,9.491457624330046,3.402587500322433,3.665818514018585,10.655864874654204
-8.324291244732434,0.0,0.0,-7.664189053102056,0.0,0.0,-21.969578275452342,-8.61698796433981,9.455626223150022,11.610654687048639,3.2792699145046313,-19.24621830323562,-18.955958716516935,-4.969915047496338,0.0005842406950112462,-4.073528249735425,0.2240393244365761,-9.129782893253309e-05,29.90525518268931,16.54036729560568,14.881780847572882,1.3489380942568365,2.887121024831262,-17.101769544972502,19.127516329542775,17.85736202958336,7.19647593680528,43.31806358435317,-2.171147693420629,41.61611203429606,131.27674903134303,-0.035184142137511885,-96.69238138362995,123.04193720190858,-0.0010772859735537095,111.29504287623911,-14.92802747489437,-8.65917503280965,-0.05022637771687858,-14.339580304923816,15.750522657142541,0.0032766743911259943,-5.1343273805192045,-11.308090455329731,13.796622407466455,-26.960916899979797,-15.575196485141634,8.660546637927832,3.991843482612301,3.942913956824086,10.251179746912763
-4.624167030254499,0.0,0.0,-6.140640580822409,0.0,0.0,-22.78836207034014,-8.817887343643623,9.583617734750867,10.903396733074514,2.081577542128762,-18.317731457787538,-18.03482764613307,-3.894992565504568,0.0001261771996244244,-4.324438004982811,-0.012596468426421896,-5.928756802147825e-06,29.289492966133164,16.134544574649,15.809813179748343,1.3885146228997531,3.0765734203579758,-17.14747391000632,18.714494282824003,18.05488322801144,7.742202910725001,43.045122609565404,-2.3332947363794663,41.35295150958577,130.83565211436039,-0.002731101823177895,-102.75063293835228,123.77338447637315,-0.0006241251184459127,108.97752754743922,-13.493020853087547,-8.279870900450012,0.0003907583324922187,-14.704382526528414,12.63466473302568,0.002382613869660292,-5.522256358926758,-11.472963718676505,13.659463144832001,-27.3738261056805,-15.678222456643521,8.46725972223093,3.7924237908073035,4.298883043423088,9.950525205944585
-7.462043047681134,0.0,0.0,-8.025058840355248,0.0,0.0,-22.106125133126096,-8.80816923134129,10.621858212827684,11.245961701554068,2.359415318819632,-19.037376781743934,-17.132613332077653,-4.2619042267801905,0.0006027945527870265,-4.206266291848145,0.09983758644978646,-2.80814325077929e-06,29.21297144562091,16.187646155387764,14.021333112391149,1.7447814331908644,3.1964322268934677,-16.406412004714838,18.94734600615705,17.726920943894626,8.431777000696291,43.39315858419881,-2.020495325794353,41.26302322171881,131.17345234736155,-0.004996375486104384,-102.56421192581209,124.2225936566603,0.0032165001394502094,109.55265196112394,-9.70224850123414,-10.89635962707797,-0.0015171315361698448,-14.534966501446807,10.453421614802995,0.0007783882297147797,-6.066108123685982,-11.60525535348095,12.33017201544425,-28.000534303951795,-15.315314413199726,7.161988541733896,4.137703114893532,4.728472561058134,9.82624229694135
-8.230681050060094,0.0,0.0,-8.045034107831796,0.0,0.0,-21.73507907416216,-8.102345814168936,10.70209823508786,11.53039985972914,3.0303575142415884,-18.95138898532529,-16.473551476453697,-4.198763475229554,0.00011658379206378192,-4.5491251755132955,0.17263737075985705,6.071166950949401e-05,28.85861582239022,16.206352439579096,13.25644967157557,1.9448739743427674,3.146188258193,-16.183656557992002,18.069299517308366,18.012771108527176,8.785959853872376,43.846895190231834,-2.3735880577059008,41.9868932137032,131.02376926667773,-0.011173275450925835,-103.64206458528518,124.25017522193073,0.0015588346594723052,109.27835908448384,-7.6386705163142965,-10.03524546967127,-0.0012977864548142284,-17.808359356257274,8.251491726955104,-0.004450126069369148,-5.8856756257961,-11.20170046212999,13.009516468099399,-27.744889208232035,-15.18921932847316,7.9584241482955465,4.370216024059178,5.140846440783058,9.556131008948737
-6.1326463559431765,0.0,0.0,-7.074410462052564,0.0,0.0,-21.684617461504242,-8.926011366651307,10.190438860151252,10.795125248936577,3.368331934985659,-18.401881825205052,-15.840745514732125,-4.017751170943167,-9.385315922798094e-05,-4.002677691353605,0.11884319729782065,-4.624297869927408e-05,27.931316069367124,16.526007561582464,14.126497550069324,1.4949063642429314,3.2150163905670714,-16.223086779355707,18.059386065456845,18.20522104298576,8.387100253646274,44.58563135357324,-2.13564845687255,42.811712297407674,130.48327641345813,-0.0016087654459490633,-104.79322816418939,125.03243446645774,0.0004747190093296684,113.32795033552293,-10.838118158970298,-9.073179936469021,0.0025412724449616862,-18.100807016453285,11.089562065314711,0.00368397621490957,-5.733210218004134,-11.298364225691982,11.963940340769314,-27.653861036804315,-14.89657644264516,6.935795008386816,4.290417165083292,5.2878804323065,9.700634174064028
-5.3770923825024735,0.0,0.0,-6.976407427592344,0.0,0.0,-21.935111064209195,-8.376549206144235,9.725660651654978,10.697681378416387,3.4757340812207604,-18.050703022865353,-15.343571733827483,-3.999635683046672,-0.00012708066052240046,-3.962490876921593,0.27109518318739767,-1.3893212173269004e-05,27.649467462515073,16.511493935189698,14.515048605105964,1.5792428521565045,3.1016942097102804,-16.083397946574536,18.328501362243912,18.218323896386543,8.637753670391985,44.424829567248665,-1.5847565300913466,43.3135101649142,130.1479057788514,-0.0005615430425545051,-106.23692671629156,125.26934107336774,0.001973726524136254,114.89969369737429,-8.801949106010209,-9.742831624923197,-0.003060184171927478,-19.2301457338778,10.305392903515175,-0.001838402672140107,-5.571053403704359,-11.37817511891057,11.606208828867429,-27.515660190607434,-14.8396021278638,6.568318509129351,4.325704483040003,5.141402817918666,9.306972496152886
-5.5413506785589,0.0,0.0,-7.6149056260277295,0.0,0.0,-21.47995226195176,-9.299782942545644,10.133192223224885,10.643106497717106,3.694015736643957,-18.112757173998315,-15.236996128021847,-4.30812239824689,0.00012848333340930557,-3.760520443211962,0.2595482772468714,-0.00014782643110641613,27.897349281246413,16.82910864400487,13.87371081390081,1.8101875944696864,3.3183014055083593,-16.16256032613825,18.095054814755567,18.396603510247623,8.80370912387585,44.55842484042324,-1.8298721774381892,44.223067140373715,130.30277461057852,-0.002269190744974378,-106.1278707557109,125.87496243513603,-5.032467400753872e-06,123.11867760464274,-9.561497100447536,-10.682066057300016,0.004046866672512203,-15.822724015970998,13.140002493265698,0.01623365346187911,-5.928311480078421,-11.35134910653078,11.685086671707438,-27.866806525267265,-14.843610426897362,6.652898742595015,4.734565050258278,5.310157363896489,9.185037146398967
-5.032171851651372,0.0,0.0,-7.4891340943071825,0.0,0.0,-21.420453596527352,-9.180379729249118,9.85489035057547,10.382550100008721,3.9261940898230017,-18.296038296841413,-15.111037796996229,-4.172942308761769,-0.0002512532972135336,-3.4420870468471043,0.079510943004964,9.423769075564103e-05,27.41019090044712,16.85834872859893,14.43972574511487,1.3115782882044396,3.4989136965719196,-15.911260719246409,18.73874973829957,18.331394759902278,8.218314372634156,43.913058828650875,-2.610819094748924,44.574944403967564,129.27209488771533,0.004383561139678969,-102.9429012700825,126.08611548321518,-0.0002532319912966401,109.06698307250818,-11.68925090289733,-9.057851301207558,-0.010968149110089651,-18.318049162630498,9.622239808325569,-0.015611638221214346,-5.375386329621231,-11.28748707817015,11.536135521715423,-27.31409420796534,-14.729807480702426,6.537457307150492,4.30346890339246,5.461587276047484,9.041049513046032
-4.671128797152196,0.0,0.0,-6.427198989654192,0.0,0.0,-21.480410331760865,-8.241998311530677,10.258170604934225,10.100070133805945,3.563310467488184,-18.103225831257,-14.952686646000501,-4.271740373276088,4.7044453552346964e-05,-3.489938206815743,0.28666354354481355,0.00010082445156463488,27.29258402853958,16.730817911414878,14.497688962373473,1.2891716505621094,3.250781424866633,-16.12535421140366,17.755518151543882,18.15285772648288,8.742257098399378,42.78569609830353,-3.1146857000511465,45.14494661057311,129.41756273278938,-0.00037682728658583356,-102.79252715673512,125.49820724574155,0.0013700218641661103,111.46598131140097,-11.00212583378377,-9.653473202162186,0.002949612121070978,-24.148899958669066,6.188030004759693,-0.00617654245950129,-5.2424422926431244,-11.098149381780955,11.3656535203246,-27.170070607052512,-14.491708309089958,6.4502185292666825,4.408312466983414,5.500206974923392,8.878805776845482
-5.424764495454592,0.0,0.0,-9.44413860962065,0.0,0.0,-20.931818283451904,-8.676413036403671,10.72885359434264,10.924463942057642,3.341646518941905,-19.062232388673277,-14.736831862223378,-4.661690387300998,-9.218353657268634e-05,-3.553691681602353,0.3863282024213822,-6.606446893190106e-05,27.253382232770704,16.766829456025054,13.74140275198077,1.5193834773592079,3.1472190325043865,-15.3157835948944,18.003000304027015,18.069847209112574,8.574750977534357,42.38688329799153,-2.7770689615978656,45.109921816579536,129.08600365977063,0.0014464420931293678,-99.62435005345185,125.00407996857666,0.0007547944381080838,112.38941966945656,-13.700034061483032,-9.113222181077024,-0.0029325558580654636,-22.43796538449068,9.397904714303236,0.004535187951246759,-4.839743715501647,-10.54329021337545,12.231787966344523,-26.674318485138453,-14.293878196378405,7.4787307595640105,4.436211197313846,5.304646549597912,8.776043865611252
-4.254391176327325,0.0,0.0,-6.94847464282334,0.0,0.0,-21.082162667794172,-8.883477168355613,10.004564889107014,9.916860114117727,3.3638057690090832,-17.64966443537224,-14.735662114811976,-4.2584039547698325,0.000116551645035965,-3.383925684243988,0.46530950069275545,2.458251493508846e-05,27.03104639759125,16.77823838062392,14.280936942248243,1.3897013131053395,3.011557271927033,-16.1674302190824,17.58065644346782,17.803855257596002,9.082278269039417,40.8747590167014,-3.2443922195027475,45.49286986662224,129.39159304439008,-0.0005705512819766951,-98.39294575167966,124.4567340296143,0.00037507310154758443,113.02786322484299,-11.027621668658375,-9.093823400424384,-0.0095415903399014,-15.887467164585596,9.849222880576885,0.004499227239475297,-4.486520046556345,-10.862688070503214,11.846959528548123,-26.370016754825972,-14.449521967018203,6.993683333294736,4.182764949127175,5.592778531733584,9.080202134419995
-3.3680069052664185,0.0,0.0,-9.699289740232125,0.0,0.0,-21.55447675635402,-8.786289778533886,9.491348363884923,10.930782842607332,3.6983005006092053,-16.893127790164026,-14.874388477632854,-4.084060338553387,-2.8599320562893218e-05,-3.3535773787936063,0.4668141185725874,-6.039694734286735e-06,27.085285249645995,16.643168990676923,14.401259794084202,1.121486710926195,2.9482732384838006,-17.184499314680032,18.015309890410954,17.898724836650302,8.584360547068291,38.47298440834431,-3.0946504666576464,44.463286425911264,129.3295248026759,0.002971954574361467,-97.9610522845385,123.53753590824687,0.0008764396878814877,115.6941624710106,-11.17302692759907,-11.26814969837167,-0.0016201972398178419,-15.554498533426285,9.64297071919784,0.003449859305690261,-5.400137269997929,-10.258883150755013,12.642966341794589,-27.18687590588193,-14.18009253459294,7.975127059628458,4.491731167827943,5.226174044853204,9.211193028783525
