PaulMeinheit/Bachelor_Muay_Thai/processed_Data/E1/roundhouse/scaled/JointAngles/scaled5.csv
L_MTP_ANGLE,L_MTP_ANGLE,L_MTP_ANGLE,R_MTP_ANGLE,R_MTP_ANGLE,R_MTP_ANGLE,L_ANKLE_ANGLE,L_ANKLE_ANGLE,L_ANKLE_ANGLE,R_ANKLE_ANGLE,R_ANKLE_ANGLE,R_ANKLE_ANGLE,L_KNEE_ANGLE,L_KNEE_ANGLE,L_KNEE_ANGLE,R_KNEE_ANGLE,R_KNEE_ANGLE,R_KNEE_ANGLE,L_HIP_ANGLE,L_HIP_ANGLE,L_HIP_ANGLE,R_HIP_ANGLE,R_HIP_ANGLE,R_HIP_ANGLE,L_SHOULDER_ANGLE,L_SHOULDER_ANGLE,L_SHOULDER_ANGLE,R_SHOULDER_ANGLE,R_SHOULDER_ANGLE,R_SHOULDER_ANGLE,L_ELBOW_ANGLE,L_ELBOW_ANGLE,L_ELBOW_ANGLE,R_ELBOW_ANGLE,R_ELBOW_ANGLE,R_ELBOW_ANGLE,L_WRIST_ANGLE,L_WRIST_ANGLE,L_WRIST_ANGLE,R_WRIST_ANGLE,R_WRIST_ANGLE,R_WRIST_ANGLE,NECK_ANGLE,NECK_ANGLE,NECK_ANGLE,NECK_ANGLE_SHADOW,NECK_ANGLE_SHADOW,NECK_ANGLE_SHADOW,Trunk_Joint_Angle,Trunk_Joint_Angle,Trunk_Joint_Angle
X,Y,Z,X,Y,Z,X,Y,Z,X,Y,Z,X,Y,Z,X,Y,Z,X,Y,Z,X,Y,Z,X,Y,Z,X,Y,Z,X,Y,Z,X,Y,Z,X,Y,Z,X,Y,Z,X,Y,Z,X,Y,Z,X,Y,Z
-6.688920000000001,0.0,0.0,-6.518170000000001,0.0,0.0,-24.316250000000004,-8.3647,12.319190000000003,14.270630000000004,0.7140800000000003,-13.692360000000003,-12.506410000000002,-3.1973000000000007,0.00012000000000000002,-10.41277,-0.18318000000000004,-2.0000000000000005e-05,29.594020000000004,17.79749,13.10092,3.63508,7.543690000000001,-11.755820000000002,22.970970000000005,14.85623,3.3221900000000004,30.52830000000001,-8.756660000000002,29.79255,129.55385,0.0036500000000000005,-110.96020000000001,122.53609000000002,-0.00011,101.76400000000002,-7.109540000000002,-14.12728,0.00101,-12.28712,3.6780900000000005,-0.0024500000000000004,-6.582580000000002,-6.007560000000001,11.517650000000001,-28.0967,-9.817680000000001,8.519690000000002,-1.1295400000000004,6.020120000000002,8.831290000000003
-7.1769257819800885,0.0,0.0,-6.436724611248371,0.0,0.0,-24.27979593853352,-8.165540032841209,12.739833930064494,14.315573821772174,1.0143451221133601,-13.504046525028397,-12.274235002573276,-3.242766784658816,6.525401116855772e-05,-10.515249985633304,-0.26510272579492905,0.00011847999149011688,29.62048610486881,17.641900162762393,13.032888080912803,3.794894965630271,7.4824988429228885,-12.11029331937796,22.750648723894276,14.881734503605452,3.2781627812429552,30.977591052208503,-8.488162430699017,30.317443548155325,129.89932564685404,-0.0025672344310897982,-111.1846336211798,122.40019663668616,0.0011071230279037832,103.10304701006643,-7.2924148302972505,-14.593599384623104,0.00246928112185469,-12.836018722330799,4.057558962371067,-0.0008615524395136688,-6.392837762855945,-5.942552337282086,11.720667274397538,-27.891437502228623,-9.831229100499193,8.734524927004399,-0.8474729630178401,6.0848369974622365,8.571791640360749
-7.874835910666671,0.0,0.0,-6.264620248511925,0.0,0.0,-24.088265071817858,-8.218938545821594,13.146665028728219,14.23372500971339,1.617937141977461,-13.513346723366368,-12.059234499683628,-3.428696955094816,-0.00019246138620850425,-10.626053235175615,-0.3986652625893949,8.858708992427195e-05,29.32525785454892,17.613786422972108,12.930617845499425,3.6924575175782812,7.4852565803910505,-12.263208073531157,22.70377578300577,14.779967729131371,3.1817747847465996,31.4402253189874,-8.215584604981697,30.766709764179772,129.99282914282765,0.00025109833527123666,-109.21939909232619,122.15466919213313,-0.00010969827672220135,103.65017345420614,-8.670914917695583,-14.05161609307155,-0.007406132483562628,-13.483136709842915,3.8320977620644423,0.00188764553287393,-6.091908451956753,-5.989670967704179,11.651550157440246,-27.597406806738135,-9.849871042053735,8.652077331029473,-0.9761131769176256,6.127888140339626,8.608475057573616
-8.514719708671748,0.0,0.0,-6.834908966725503,0.0,0.0,-23.959611116813157,-8.443450251067091,13.641540555859756,14.296260048996878,1.8374825189855646,-14.263841821277568,-11.861200733624925,-3.6707326716920576,-0.00015765053628849878,-10.642756115799745,-0.3725173861052981,2.8516332879657452e-05,29.177045503540718,17.56845557553253,12.475112507854334,3.5817499781314264,7.555099677316188,-11.842551323919313,22.81365702264653,14.550761750293722,2.8567452859962983,31.77560940011319,-7.970081702338845,30.979864481399627,129.83570059488082,0.002009457234630207,-107.19364688820876,122.1143319670822,-0.000810053227132142,103.50705536762443,-10.049159919126831,-13.174989908065017,-0.002640347845839641,-13.668548266202475,3.8226410547142864,0.0008459687321225607,-5.9626613760370555,-5.927916732831298,11.19107235544796,-27.489584338991268,-9.624448731586135,8.242761850875677,-1.0446332277899704,6.211851767089869,8.712711807484306
-8.196051510098425,0.0,0.0,-7.250094760590291,0.0,0.0,-24.00276484472546,-8.959346939915523,13.686054119039305,14.39515676666877,1.97561593495366,-14.865774270011963,-11.803298715556197,-3.711777227981464,-9.20020918017755e-05,-10.572270671454977,-0.35305111609557255,-8.353411200866252e-05,29.20614879156343,17.4262150443742,12.466730822126687,3.51246087928796,7.56073668957587,-11.733399497214902,22.9068573880295,14.500253358981352,2.469406430750587,31.951868451496708,-7.826461618677031,31.14849324737141,129.62346838286587,-0.0013409809904783511,-107.3680802106555,122.36073019192193,2.7101419132471284e-05,103.34042336910673,-10.201878402940064,-12.740480989294603,0.0019499242509904736,-13.521412181565951,4.489951646335322,0.000572634145277347,-5.965433302757568,-5.810773661074425,10.53524613172051,-27.519132212313913,-9.275952332479696,7.671185710452557,-0.9169270044859675,6.2330686905118835,8.768369892856855
-7.058429927875194,0.0,0.0,-6.330391552450903,0.0,0.0,-24.285326206450808,-9.221458144835061,12.911748855322823,14.023102891952464,2.3897921756906864,-14.50479711257975,-11.920484880359162,-3.602230359913869,-6.771569058414129e-05,-10.504159657950742,-0.5439732857313833,-5.649484659002342e-05,29.16511198232058,17.35756861982322,13.399175277455562,3.423914564061649,7.509410135035231,-12.450033318843454,22.955852929973513,14.601170327084754,2.2290182886653356,32.13956420201651,-7.708674131178193,31.455779896680504,129.4609420174064,-0.0012251156747285386,-109.32909924553272,122.58539987138093,0.0004864365103810333,102.57352638444512,-10.212904457628477,-12.584410297645052,-0.0006513950272984643,-13.45690947928111,4.636143734785686,0.00015655630552327044,-5.914094330678791,-5.86506989209641,10.247932356013726,-27.485114938014927,-9.22140397920465,7.381650090170584,-0.8593926351012047,6.161059289234884,8.816188717613503
-6.333467998650934,0.0,0.0,-5.6311685911584615,0.0,0.0,-24.61745601904047,-9.016904765625014,12.392790955368461,13.50606575409943,2.6269014420714676,-14.032780796876986,-12.076054857097365,-3.634813469410655,0.0001229168956139598,-10.558047899153847,-0.7286086468146276,5.935126478925329e-05,29.216816997824946,17.32965429628504,13.932134452831145,3.4757137834596548,7.434637449296337,-13.003302893952693,23.11608031384417,14.453657196608253,2.0703337340186314,32.36322055083079,-7.533279083985133,31.703677290751322,129.3587143609475,0.0003013583201674222,-110.48326503671917,122.6833493474615,-0.0005808773009193434,101.67372250923015,-10.345685795875376,-12.2998377680654,-0.0008724249069401092,-13.43097771501366,4.453228101554156,0.0012056711908851592,-5.992608085514678,-5.921114882698641,10.367022070522825,-27.561234943513966,-9.317078448895217,7.472404653541009,-0.7533622890293252,6.063436795553517,8.82242384618507
-6.272505857835937,0.0,0.0,-6.320332910307262,0.0,0.0,-24.764175751844956,-9.067969915333949,12.552696869105818,13.454343971889475,2.5438943376149106,-14.370041776559935,-12.221190257308912,-3.7114494121546917,5.227477744483482e-05,-10.701494263445989,-0.7236926008832221,-5.1534064164407286e-05,29.48153973197184,17.104721602795685,13.4517336425293,3.6485070760466503,7.281634047651268,-12.805678216507745,23.28432646701087,14.11854311552198,2.0117346350131577,32.56312798722568,-7.468665450211745,31.773988261504698,129.4295617360087,-0.00025196207767719714,-110.15246162506583,122.90122460029133,-0.0016370927182643492,101.71639347446532,-9.839271123470393,-12.21901920079567,-0.0005954146725627458,-13.085717212141747,5.001211312060771,0.002844890042907673,-6.199160249483308,-5.8662731294474355,10.569657659065467,-27.754483478579704,-9.340148756282932,7.682793602977471,-0.5368537128853109,5.933251846029907,8.709615838959786
-6.759721000983421,0.0,0.0,-7.445118360066603,0.0,0.0,-24.66432639305975,-9.528668367221444,12.810820760504603,13.701844983256116,2.350579172435035,-15.17718431108167,-12.460825718341525,-3.6902109243014043,-9.744874969937752e-05,-10.822211735199824,-0.5812192569670975,-7.648610284938684e-05,29.821795048905223,16.86731954922368,12.911753493365602,3.810161496986611,7.127517486832169,-12.32175198893575,23.34264208774664,14.079501431765097,2.0914025957128883,32.82314093342489,-7.525380772028478,31.8202711157298,129.63625758476343,-0.00029929585582305607,-109.6217611825779,123.16352385649573,-0.0005735115468352064,101.94368877696013,-9.496501841694167,-12.559813522258045,0.0003747874778390765,-12.724135782934066,5.537929033504747,0.0006925030856977088,-6.14550723733288,-5.839369010600912,10.711356219685353,-27.692070191019234,-9.366903258900036,7.825677918670313,-0.38994898408870116,5.8119251150908156,8.591824234620969
-6.800436897135218,0.0,0.0,-7.488222206528989,0.0,0.0,-24.773700989474168,-9.48407884484959,12.429209751797263,13.68269895543441,2.2316399145619736,-15.153944135933134,-12.844045872059638,-3.6388875157238036,-0.0001327369422849201,-10.864045674021138,-0.5082838966122831,-1.9871821052405335e-05,29.950889718297127,16.74982613245507,13.27962174151957,3.718867197912917,6.950000791182577,-12.576343252581912,23.361956097391495,14.260676135905536,2.1229711600477743,33.102864534700906,-7.565417805356865,31.901071001404265,129.75413973269204,-0.00033666029119345484,-109.68000906509778,123.28795084575242,-7.922624141850375e-06,101.69036546595632,-9.677688334053824,-12.870189665571171,0.0006159662495714044,-12.997234071841056,5.68331822908583,-0.001262381554783603,-6.015235463217267,-5.838295083503876,10.708342229284586,-27.561876034254063,-9.36480578215434,7.823246812278766,-0.46388352345456,5.679530250294249,8.622859658549329
-6.454909037914777,0.0,0.0,-6.856277797995681,0.0,0.0,-25.060373759808193,-9.069054011793652,11.620970419131506,13.433191922706632,2.127933873316274,-14.597157685629641,-13.311263406002507,-3.6483367653889385,-6.335357702240122e-06,-10.798127978794245,-0.5480187317536501,-1.9729194339670438e-05,29.92702900232666,16.572735990270907,14.016755756276579,3.382267625127435,6.710986737012819,-13.253662898095858,23.546810554922576,14.184483365408843,1.817322586179335,33.39050279960554,-7.601221591086163,31.981082727285294,129.66046213847864,-0.00019254724007817517,-110.03409487104459,123.28695025474963,0.0006679673866647595,102.44091521091458,-9.770303367462327,-12.91954479642474,0.0002097283376960778,-13.565392786721691,6.150460891469931,-0.0009121250582326113,-6.199260708998261,-5.778174259682848,10.457578384359095,-27.75487295430697,-9.2172503344193,7.610516615854028,-0.681495858186665,5.475460583494339,8.830366735191985
-6.671369778874693,0.0,0.0,-6.791514556415595,0.0,0.0,-25.11567578368642,-9.16466559362111,11.047121495848817,13.351224467350493,2.0759632777474915,-14.69679008959088,-13.806870134214506,-3.7342029136084367,-0.00010434812501331374,-10.723228915746281,-0.5777947353470795,-2.713792451638392e-05,30.0151514903526,16.336404316067814,14.23381837853415,3.1098920474509657,6.478027154137023,-13.342718772789103,23.967095835214167,13.971722508885705,1.242961289501647,33.74746835500784,-7.7030091256974345,32.14473026000412,129.431067986094,0.0011052975941529648,-109.66108724184546,123.20241169860775,0.0006096522456490972,104.08384370368077,-10.048046700688717,-12.969585573940758,0.0010472747307831252,-13.620373205499549,6.694767806733461,0.0007454258792862841,-6.504319390550345,-5.742156603594415,9.975734352246969,-28.080959855017554,-9.007530080140544,7.172369742863239,-0.8769837221883791,5.209368061390841,9.079911671383417
-6.994467357623236,0.0,0.0,-7.098565923992259,0.0,0.0,-24.98339971046027,-9.355478645633614,10.77776693227336,13.38904454161916,2.1655849280171924,-15.05860600676034,-14.235051717165344,-3.8814539807060764,-1.264101437226161e-05,-10.73122105030985,-0.6284318855548108,-1.834414783758727e-05,30.201649993545225,16.220019134343374,14.257067715999819,3.08470844000352,6.29978131056545,-13.12859870710099,24.23819116067257,14.12956668640358,0.8266205671445023,33.95705654298521,-7.681384291396491,32.347609926839176,129.27022332356876,0.00029398514215823,-108.84398578700862,123.15857086303564,-0.00023213949750824488,104.33866416516415,-10.941029168844995,-12.961380693014798,0.0008048844001427805,-13.135905816001028,6.512702974655181,-0.002923262357340699,-6.693672120286618,-5.866954130857469,9.549810809800661,-28.296824059989405,-8.967644997117416,6.726970566533457,-0.8841406515374151,4.896861208547534,9.28775476628193
-7.737970982245312,0.0,0.0,-7.697088507954739,0.0,0.0,-24.445601463007034,-9.082240917043862,10.945072249493272,13.53584375932135,2.1805501362248756,-15.239489665560747,-14.63868483128801,-4.113739423305641,0.000426755283357571,-10.815879085611042,-0.6990126817041312,-8.532107975544835e-06,30.466346396553075,16.23424932937102,14.205484294716484,3.2709662130466084,6.196464539168995,-13.062708977048644,24.188253805054153,14.474374949832232,0.707081247152506,33.940086141853875,-7.377377551188487,32.43420696684476,129.28651914121988,-0.0002925591691871627,-108.51082686704825,123.21870114919858,0.0004144580670625523,103.08784807959184,-11.79528809065496,-12.834987807352839,-6.546477940373634e-05,-12.46090840103146,5.96371261533412,-0.00121018953305429,-6.695406023559163,-6.068569498696544,9.418636268143027,-28.3160226778175,-9.107041809132156,6.528964433543132,-0.6763240920426709,4.627351396669387,9.459125633233823
-8.552952852952608,0.0,0.0,-7.995782626787299,0.0,0.0,-23.86120233850671,-8.60491488563465,11.142570852162061,13.692852200497274,2.168154244183091,-15.349681460370268,-15.173385504657466,-4.300992679851503,-3.457606881631871e-05,-10.914260761974159,-0.7792158549127184,-2.1154904472123707e-05,30.73058038569434,16.218394177544084,14.191323601617325,3.3569869400308607,6.112518960971793,-13.205999110620505,24.228831615070938,14.446189096899312,0.8448339210609763,33.945576814357146,-7.042390680299575,32.51775087736587,129.3451660711853,-0.0005981508820359507,-108.41604827129966,123.3751661011898,-0.0002663494183085061,102.27944394467117,-11.403733719710404,-13.04216347837116,-0.005611129745342597,-11.987877322491775,6.150547948159929,0.003007907166960921,-6.591681874624323,-6.085869816095406,9.463933281182923,-28.211383615048582,-9.139724936010523,6.56491635682908,-0.5668949568871939,4.435486275648503,9.52562660583034
-8.025361470893827,0.0,0.0,-7.381844820240616,0.0,0.0,-24.015092633114737,-8.280055231052845,10.925644466940224,13.571710130428437,2.216820775162122,-15.285601071323981,-15.717552939998157,-4.280544266441179,-0.0007316548421908676,-10.926690267656715,-0.8259974358702222,-7.423778451554552e-06,30.82295744223892,16.013098351496332,14.584791230490318,3.1606744399444584,5.8907583413820355,-13.573776014111571,24.458323142574226,14.09183705872458,1.1614370478405525,34.116518171007684,-6.830266221750913,32.79898859078099,129.43113002375648,0.00041719330781105497,-108.72796337659268,123.51738262247098,-0.001407423702593207,102.5512670968827,-10.060852211553986,-13.60599252566719,-0.004958320136801458,-12.157346245502612,6.804334994125602,0.0003200993180534072,-6.39408187089489,-5.992186402013841,9.638065733928578,-28.000691918764403,-9.116410365450934,6.76292396021517,-0.7116736128949912,4.201670760993249,9.401332925394463
-6.494385832411826,0.0,0.0,-6.456492471960313,0.0,0.0,-24.39860532414854,-8.25253401560448,10.954712529427386,13.308745083624105,2.1014319295914943,-15.199619955705103,-16.149468560820328,-4.270945204284802,-3.301557215053272e-05,-10.883760533891055,-0.7284773583282967,9.833654753230072e-06,30.7915100507871,15.776507451558953,15.045893256626787,2.959394433447192,5.52022487000347,-13.731555954528389,24.485056554695408,13.930409905151405,1.3986937962596444,34.334289260310186,-6.631225116090886,33.35869964602823,129.62476196115688,0.0021461263908737643,-110.22944621391086,123.50122242518256,0.0005044675457572122,104.04158309136729,-9.66214958983763,-13.936808357371898,0.0015161861785361547,-13.137675243831545,7.4908578043473595,-0.003187712084672172,-6.235958269295265,-5.954091032233003,9.828796077715195,-27.831816467656875,-9.150829607636826,6.955766699825326,-0.8243297498221063,3.8905179116660644,9.299758597492717
-5.517471290854012,0.0,0.0,-6.059762862721357,0.0,0.0,-24.186549378045534,-8.34227274005372,11.41063336710155,13.310259953681175,2.030218513180692,-15.452887890932436,-16.697686385604758,-4.475322336234282,0.0009236920966809875,-10.84433886970396,-0.6097205302325642,-1.5894195865821897e-05,30.878142536887733,15.758330419401029,15.179689773012841,2.909589522209656,5.256170729824342,-13.492727212347035,24.292134081231566,14.151071534715076,1.551556670177649,34.583800820287706,-6.434270600704183,33.868841507028165,129.78123692047745,0.00020774035580133876,-112.08734237092011,123.19236221012467,0.0006188617697409392,105.58415917684572,-9.609553820667742,-13.821382693387024,0.0030247127740901463,-14.2954866727478,8.067459092035662,0.0008621380032118342,-6.360663242569176,-6.006045557789702,9.840610306429786,-27.95907143988632,-9.203457687667024,6.9474655112130765,-0.7493597602932487,3.638791806207281,9.397840986425289
-5.783265371474813,0.0,0.0,-6.254230328798637,0.0,0.0,-23.51867421800546,-8.149017777660067,11.692958425761729,13.537447853449196,2.0971796329803527,-15.904637301607904,-17.370658594132713,-4.69871184286759,0.00020765950432419085,-10.784300690908728,-0.5720701089200996,-8.901140157792217e-06,31.15003885017806,15.806090271741544,15.063165241779686,2.8974371209882257,5.190047509630725,-13.221241184295321,24.12975983469145,14.285137857841212,1.6112697295725582,34.858046076126435,-6.307771634439206,34.076916124789456,129.81886649469732,-0.0005676261453865958,-112.82758312897018,122.81230140192572,-0.0022787770838271597,105.72836243244912,-8.727637877195896,-13.75222325059806,0.001121181600086097,-14.860786839712436,8.320397117081463,0.0055664145564428,-6.352194645547841,-6.123030660983097,9.79675506921937,-27.959590357697472,-9.29616687113722,6.86274358564323,-0.5575599886285847,3.5197529188107137,9.598469234571732
-6.501492024783352,0.0,0.0,-6.302962446558057,0.0,0.0,-22.933449858186314,-7.598961121035601,11.615135042809708,13.560562050439074,1.9181872766826757,-16.059557118941374,-17.943417773356927,-4.737239235480628,-0.0005874380893450256,-10.71543105189578,-0.5131298141010416,-5.1809436249932485e-05,31.502216456934192,15.653298247612126,14.939401315139735,2.933935353842395,5.090023097863437,-13.270823054892597,24.00379601825357,14.10458932373689,1.4938797831906125,35.0006789725597,-6.246545365006727,34.30109748875886,129.81949785678844,0.0001913180741665275,-112.66600804054639,122.6999789116023,-0.0008892460393563986,105.16306638301174,-8.444776942108357,-14.01788253948265,0.0004435262486540608,-14.466516668812254,8.398463883107977,0.003718838514931252,-5.9681541231842,-6.264374503194661,10.026669066841498,-27.573775821497826,-9.511738109112606,7.025393046239362,-0.25121333522638484,3.472055101323721,9.688435540407355
-6.451484949165315,0.0,0.0,-5.803152748780261,0.0,0.0,-22.485273617316253,-7.280552343448363,11.588501291983137,13.471944061630168,1.6160315539761865,-15.651564547457848,-18.383815692285108,-4.740906977012882,-0.00017249501436130457,-10.688969759667788,-0.5480459285091666,-0.00010541508445896156,31.823788535561995,15.345225246760753,14.826198319644801,3.077050705060689,4.849412883450286,-13.774081285513386,23.940282029576878,13.860067653288674,1.4160178313483371,35.03245308945693,-6.196284395986315,34.645260084472056,129.7555913433856,0.0007791029039330872,-112.02473139184607,122.55233993900607,0.000580289634473584,104.58714142802675,-9.424961923534902,-13.954324770924375,-0.0013103826701331353,-13.882720598744013,7.84732079573035,-0.00014520050999660504,-5.930562317950595,-6.61820923465406,10.329064115501218,-27.544549590078038,-9.9513725530865,7.176621738891028,0.12594806218436866,3.4245693083242377,9.725984459304234
-5.926971831998907,0.0,0.0,-5.644108312097804,0.0,0.0,-21.89073759552846,-7.3988186428868135,12.049014135710827,13.714762445968976,1.8671066864592438,-15.204392687726202,-18.779472903670232,-4.8895118752304025,0.00042385981282381857,-10.75104533073054,-0.7693461882826241,7.491545887532597e-06,32.03271777760791,15.122098529436967,14.607635961097916,3.185855731039161,4.693112431718912,-14.342153581956099,23.97285346061511,13.687907954917273,1.4023776159162964,35.14975385532394,-6.243406669212458,34.76158460600295,129.680357828889,0.0005012773199805576,-111.05816368385032,122.28501263271693,0.0002446587750280267,103.5872458452072,-10.50792114692956,-13.498505992465834,-0.0006273940114775562,-13.956390538121191,7.187437022659501,-0.0004109514136115237,-6.286742606560861,-7.076288952919579,10.337589955035874,-27.930606210607245,-10.380317782539008,7.0130828364250615,0.3706602116187227,3.4268543375271276,9.914887844876358
-5.479646619695054,0.0,0.0,-6.022848443020172,0.0,0.0,-21.43617910528474,-7.242904523977603,12.759144710716127,14.070694407374843,2.393188270129133,-15.32536973056671,-19.20180539680133,-5.036474158830652,0.00023002223502826522,-10.85260013681827,-0.8837175963873053,6.274312892006602e-05,32.139873374571174,14.9993068450602,14.595028688608323,3.1201964163393825,4.644906519918535,-14.460933188345427,23.93353661888524,13.74238333669812,1.3993054622963403,35.47352761313744,-6.203352419091386,34.87449421050039,129.7040542629909,-0.0018464153855341917,-109.86652356737176,122.08296233009467,-0.00017890595360986158,101.93505222413113,-11.42804165841248,-12.922195259772753,-0.002379316125136259,-14.862371248355673,7.032744459303393,-0.0021460354585486406,-6.356396308969436,-7.283415876703926,10.367300117839813,-28.013045486077246,-10.583715096307015,6.9632299387059895,0.4387124592591626,3.4139848368572436,10.001882114878496
-5.184768891357883,0.0,0.0,-5.979892059212044,0.0,0.0,-21.182749570037554,-6.743654529462183,13.191857613801185,14.090503617372145,2.4799092990288596,-15.872932200883804,-19.66727362208822,-4.989338319722805,-0.000163450138481004,-10.786051722698872,-0.747545960584942,0.00033176018671953773,32.14727463964939,14.897044974857154,14.98449746969569,2.836775469284681,4.619651544432589,-14.103852484031476,23.815040165578104,13.979712520346643,1.4128190132692007,35.93079342332805,-5.832789932670701,35.24122721915572,129.8549367437738,-0.0041428467173851655,-107.91073689984923,121.86214115952603,0.0003113180123711733,100.97657296322359,-12.43809253074478,-12.498863164821337,-0.0017546907127598225,-15.812222942033207,6.822170505589032,-0.0007600370374523965,-6.202641096575799,-7.178375959966655,10.579334142702299,-27.842245545554754,-10.563680404018259,7.201537007167532,0.4480006763376066,3.3470284540119546,9.892968233008476
-5.0949726746987976,0.0,0.0,-5.514227282038779,0.0,0.0,-20.754256381554633,-6.517467358054564,13.238207548525118,13.958664499078768,2.345305814535324,-16.42729457285564,-20.155799222449513,-4.756273852277823,-0.0004724555973288223,-10.646965221740096,-0.5983915162085357,0.00019902696205349081,32.17498958154561,14.842867661881451,15.394071470944162,2.5172787006671347,4.740329974210066,-13.69781018020072,23.99488893764451,14.12094699620683,1.2824437667241697,36.45500624777257,-5.574821919946114,35.614855005786886,129.8449804366849,-0.00014049280359060593,-105.87254430836565,121.58659684186354,0.0004266325618655214,101.0321254228096,-13.045411390004666,-12.685748848876205,-2.7707937719705705e-05,-16.33233005578838,6.050865455159245,0.0019682203355277476,-6.211908001155288,-6.9220887498593,10.583012091622573,-27.833919432278087,-10.326789140779468,7.301054650003544,0.42471036080517005,3.408111120092993,9.845903271558988
-4.252373268739801,0.0,0.0,-4.862825245799351,0.0,0.0,-20.338074174091126,-6.827017771153418,13.025992079186674,13.928141960230652,2.412823146917944,-16.486985900884,-20.5826196117184,-4.434296875894206,-0.00023884921567241722,-10.679000451219975,-0.5873705816346548,1.8360484038274455e-05,32.251077748774314,14.743465075799804,15.692495904698887,2.3060302304185423,4.890804283415624,-13.868777547857754,24.574475979280923,14.133505521954032,1.0234438692810572,36.93510868816955,-5.693459435080061,35.98050561823534,129.5140652736463,-0.0003198742585344191,-105.33033317893768,121.42162611121182,-0.0003100911380193035,101.73471968701776,-13.204158340714537,-13.121725159724093,-0.0015569055697968357,-17.043095233947323,5.500083036045205,-0.0001259102445080148,-6.231041957859243,-6.902585834156659,10.28000729621876,-27.865910550207307,-10.197791099416428,7.024179148301669,0.32700103548236714,3.5537407907617893,9.88806679924046
-3.17015458353554,0.0,0.0,-4.307347958611597,0.0,0.0,-19.96307127178909,-7.189890528002416,13.004242503353266,13.975984693542083,2.5168843023208134,-16.223467724903486,-20.888636212959376,-4.239871893492219,0.00019345879859028852,-10.783938485004642,-0.5212143623835195,-6.794273041630454e-05,32.31937037476853,14.470816688918767,15.841459926447838,2.190333535037125,4.758800031885127,-14.355179020950372,24.888422975201912,14.081643780167257,0.9462994310759014,37.04128110216019,-5.75026831200067,36.304757182077886,129.39144918338738,-0.0009141540106662436,-105.62549266532571,121.56796762975297,0.00029273451046238445,102.72079740905635,-12.744523661783175,-13.372622099142422,-0.001846307929989554,-17.868177643923953,5.790441403124644,-0.0022173694083726108,-6.104909343605507,-7.148434750122913,10.013083098960173,-27.76815501351566,-10.328553075012977,6.681776821364152,0.35330712343120874,3.5510555034119053,9.98404809156559
-3.4510398795001294,0.0,0.0,-4.366483908678882,0.0,0.0,-19.40398347818326,-6.943213213729964,13.327245950781384,14.062038526137911,2.281346462494344,-16.127112056987663,-21.082843885577475,-4.2756621562493935,0.0002150002988076011,-10.877562240597996,-0.4442089640713445,4.014221685773689e-06,32.43520448305124,14.19743373260165,15.739557491112588,2.263589328426493,4.504973007970032,-14.584641227574132,24.673987384801304,14.04719493245732,1.154068904170163,36.94757059533608,-5.497808730483215,36.467393327905306,129.56838292701767,-0.0003722642940727176,-105.75706032446624,121.85243118955604,0.0014041288019126046,103.01279345519812,-11.806158503641587,-13.369731586951605,0.001293544178896363,-18.088472102698955,6.196618698042486,0.0014165704289596434,-5.964665958601101,-7.368142516706131,10.058124382525989,-27.640886967140368,-10.549232090555133,6.641501727754928,0.6896335598237067,3.4196783426840907,10.082247201430341
-4.897627982668052,0.0,0.0,-5.069764064483013,0.0,0.0,-18.63131020454537,-6.514638530475507,13.7597346192843,14.24509227206935,1.9298224609635213,-16.383182584517204,-21.22724980213069,-4.349724492916602,1.7562771101242143e-05,-11.048743456250506,-0.5426247717562563,0.00015462113118781503,32.61548450186398,14.064055646838717,15.40011261528823,2.5029114214301713,4.452325009094833,-14.530599751562503,24.39350813371826,14.073405016449954,1.3138857046833292,37.0982458871659,-5.138546935326195,36.460586687714446,129.66478559449118,-0.0005206604014095133,-105.90577838951764,121.95210102691867,0.0007369476473285617,103.28147625570918,-11.382497091751071,-13.01276175525118,0.0010017758388572357,-17.331632564668542,6.446187704544669,0.00181700780300944,-5.902813962006404,-7.3391270455435444,10.147062107011427,-27.573160562972824,-10.554846779012232,6.735785593792485,1.1331600163083668,3.306932473113483,10.067109173264381
-5.755856050503315,0.0,0.0,-5.333994108928897,0.0,0.0,-17.841628689210843,-6.457606518066801,13.903927084158248,14.434899622909112,1.9524792958473824,-16.75362701396354,-21.43803593886615,-4.2471582691830685,-0.00018550147806415505,-11.267213921149557,-0.7289736924502529,9.072407111157572e-06,32.684282369678186,13.941481901570938,15.08527757981826,2.602813516063609,4.501063451666981,-14.432439545104367,24.23679550622862,14.076187869893591,1.2255691523843435,37.32763344172815,-4.917613727231037,36.32616057350459,129.71996101337987,-0.001549649501251427,-105.67654525651629,121.91440857213925,0.00016869298581471333,104.1851914474014,-11.912424473707617,-12.522906500254223,-0.001809004463270919,-16.16752011493511,6.458639276516668,-0.00016838098183019525,-5.80390933831079,-7.160377474275822,10.239691942936467,-27.457910684116037,-10.422643893556764,6.889743999861204,1.3781083406490187,3.2712287243540312,10.079467427297779
-5.027969090318649,0.0,0.0,-4.703923373524517,0.0,0.0,-17.37222737964325,-6.317138888217004,13.529152845105427,14.473347614946084,2.3500678479845143,-16.94076591638519,-21.7115046836219,-4.028781987947541,-0.00014103741054619033,-11.481088137297531,-0.8812611060922304,-1.8130095412836456e-05,32.56351649275101,13.815110916693705,15.025348327593724,2.472761688511209,4.49840404567679,-14.40367646378912,24.164297824411232,13.984803809399295,1.2440145635877815,37.48444612998693,-4.748324773129651,36.41789654377069,129.80074183340685,-0.001559139312686638,-106.09554253344821,121.91945576348513,-0.00021402835427720445,105.09350201589604,-12.336032403215206,-11.947157774126177,0.00011378190176555242,-15.327287366045146,6.419967620560345,-0.00022434110721387767,-5.55981069821501,-7.053815459792923,10.3692930727001,-27.200703468881834,-10.371036715179455,7.051239351318865,1.4078322576667999,3.350509222600571,10.18449123984936
-3.638638807448144,0.0,0.0,-4.412093603171966,0.0,0.0,-17.044221684016183,-6.15382720150543,13.027006591900575,14.54971324981152,2.7300452163560345,-16.975116307339228,-21.94142196453011,-3.872049355487828,5.5295270747508795e-05,-11.783025441446517,-1.0236211989706478,0.00024062170147118404,32.40528121680553,13.78465661426483,14.987007930597793,2.3687515580025207,4.493877071352246,-14.373677458355502,24.195700439624154,13.887562117399723,1.5217138223090585,37.773845869161306,-4.521718186108419,36.923872810522475,129.89781849951447,-0.0027048935545770365,-107.15873289099935,121.93075664895923,0.00046804820842208654,106.15997856848345,-11.898519319487123,-11.421712908751713,0.002435397066822107,-15.349284369670311,6.77407516069144,-0.0035122183751930946,-5.51535332163111,-7.054615588443469,10.356638393694588,-27.15687755283369,-10.367145430042344,7.03907360532545,1.399518863807411,3.4651134673473156,10.24571709413036
-2.626924806311137,0.0,0.0,-4.504736934052653,0.0,0.0,-16.538966798009085,-6.332341010051591,12.692454189700936,14.710189725792606,2.877576600071583,-16.85294868733099,-22.0724628439039,-3.8013113757101107,-5.221978206438896e-06,-12.12310125311287,-1.1385131943501061,0.00014706531310852426,32.25147051823604,13.748981336133284,14.978887076085146,2.3893974354874334,4.385085242294105,-14.421522270036162,24.1604783765146,13.759211133465513,1.6927075323697747,38.102657092243945,-4.364492776158977,37.44506832508945,130.10207134383393,-0.004020329842882002,-106.06755720515609,121.8848104282325,0.0004458771607937582,106.95614621075445,-11.551016259038693,-10.805820732479804,-0.0023038884026689425,-15.920005270908035,6.916850673942331,-0.005364608349900909,-5.827651860570863,-7.0371922586493785,10.415573982573708,-27.465280602411852,-10.372526731737475,7.100866723436325,1.5131966024548145,3.4248609141896953,10.315687093174654
-2.1039121035352615,0.0,0.0,-4.302460342724962,0.0,0.0,-15.980810284453195,-6.163834964261115,12.435025750752441,14.746193707457733,2.9077139291513365,-16.6872467542726,-22.199351028438773,-3.8716251637105334,0.00017813596834338787,-12.477292237537249,-1.1132883539869234,-0.0005707240034078403,32.246198298266016,13.617538852904836,14.739984322279414,2.578293306985204,4.150329991988831,-14.615398191970268,24.113753614218655,13.536019486948604,1.4457822311303772,38.2422976033433,-4.402636243016989,37.58201173763738,130.24174632047811,-0.0008510843794515689,-103.79016446330206,121.86972030760944,0.0001968398462912015,106.37406986387549,-12.550902285041643,-10.245657588423626,-0.002187925632366617,-15.328039154539729,6.337227624995499,-0.004073329694052141,-6.040643019619546,-6.9446096638059185,10.490032449485865,-27.668569881869967,-10.31370366402551,7.205399814403324,1.8506039732937156,3.328145430127616,10.384532637002632
-1.9694927125265158,0.0,0.0,-4.659047887998871,0.0,0.0,-15.392000380051185,-5.955241963800417,12.630969804462355,14.83288986065562,2.9710237916738977,-17.00570922363582,-22.334023563490096,-4.143191061830814,0.0001885539363491028,-12.905163046078197,-0.9683500888312813,-0.0006901670482862794,32.41351538633971,13.462630153014471,13.644497870761509,2.8996357072807135,3.974634514557723,-14.48284102794867,24.213431659267762,13.46724483429604,1.0783697575456732,38.26223324966794,-4.547888667137673,37.54119829395164,130.27249746263794,-0.0004238760147692271,-102.94863776982878,121.9194001251238,-4.499755212534086e-05,106.45916035326735,-14.177809411874934,-10.494928992078322,0.006074812403568469,-13.387621809421079,6.470220719519103,0.00975570758685375,-6.019040413299052,-6.946749731291217,10.575898253626335,-27.64306231563713,-10.347106296348931,7.285143793244005,2.3300213845336657,3.3405215611988464,10.352821607506138
-1.855041138498693,0.0,0.0,-4.950685357044672,0.0,0.0,-14.718053755743096,-5.980434241048718,12.482968011935135,14.898481169466987,3.246915281789463,-17.096228932186293,-22.470812079091257,-4.120873864927083,-0.0002771885029676506,-13.273475408058058,-1.055542074687226,0.0001851328685142624,32.33579346935024,13.256715303382473,13.04121980772157,2.96814860245966,3.8304140164107747,-14.429813056513865,24.31226529185036,13.665486651866113,0.982703083791328,38.296020892084854,-4.529966520838808,37.60570738503945,130.30678192229817,0.0006541273052121275,-105.0705657016473,121.99244776770584,0.00023451834229180945,106.84209367843532,-14.535674206082563,-11.285276988122897,-0.001180961023832304,-11.929016061433096,7.277375987600208,0.0034909252483948158,-6.0225607825976555,-6.908027259817966,10.844273311728651,-27.63096979656555,-10.409246227011886,7.551440197609282,2.56538207012914,3.261111448477837,10.291884221564157
-1.9652486896205859,0.0,0.0,-4.993461970874257,0.0,0.0,-13.905731637825786,-5.833522361272239,11.893837553334293,14.854876492074919,3.654529309157464,-16.762023520496474,-22.73018143471523,-3.9371542379486195,0.00010149163089100026,-13.586679634793597,-1.4013319741413977,0.0004835071359266379,32.11569630477943,13.127947438598444,13.145121051636552,2.8806046033228756,3.729267849639447,-14.586350301648674,24.34495054707798,13.845972286886932,1.210858642063566,38.4606675466832,-4.294246954514814,37.80644443629449,130.40040070921913,0.001730014768301484,-107.96513670966795,122.03798929548398,-0.0003529196415101624,106.266599044257,-13.511921316618615,-11.819196906284633,-0.0035349199233483423,-11.719082414272599,7.824482952017965,-0.0020394243683228767,-6.0531999242426,-6.847893687880042,10.992433409017726,-27.65015767330793,-10.407499595283435,7.713009479540536,2.530026348184361,3.1346193462664824,10.289245934006491
-2.1147219652207445,0.0,0.0,-4.863406347496543,0.0,0.0,-13.046886064876707,-5.887931218397396,11.594269843137106,14.650373279379187,3.9350534603750162,-16.688881042937673,-23.070625236821982,-3.98120026359829,0.00033809331702825025,-13.913416102477498,-1.6753219515145834,2.6945896296730473e-05,31.91298595183267,13.237130966948243,13.0351248442434,2.8103220727785434,3.7701629929237566,-14.495597372901079,24.47000636072066,13.814487966659414,1.4615463497759484,38.68021854486328,-4.211992869648012,38.05627410319371,130.4077704130504,0.0021460719855092287,-107.82815502287707,122.00944375055843,-0.0006153549905414267,106.67968592254178,-13.03651565020522,-11.88076850401583,-0.0014499786558703673,-11.820481717408665,8.441227609744109,0.0033884702136309976,-6.039429958063072,-7.176522368539206,10.870587183472006,-27.6649440283652,-10.668493788174933,7.475520202759014,2.4463272829445386,3.302669739981056,10.420192132177403
-1.7309320633448737,0.0,0.0,-3.8041895756292634,0.0,0.0,-12.462155864566778,-5.9372255526846605,11.223263245905637,14.137125217247997,4.024345828249,-16.772481377187308,-23.25236708539814,-4.025663188495669,-5.375289360963147e-05,-14.209507295701178,-1.711278824222257,-0.00022966712082718752,31.574795670351765,13.308258319983887,13.039446400937026,2.6293580469455318,3.7731146308787404,-14.319357525348789,24.653468755634513,13.678190064654418,1.4693564892225723,38.9095485398378,-4.351131412681045,38.15374116905522,130.29957298602793,0.0014506737980701867,-106.14531688437754,121.95219287748566,-7.597565658891452e-05,108.60282381598037,-13.75795564838189,-11.714573790108558,-0.0013503303927192428,-11.554621521469041,9.206465672488006,0.004480861379730764,-6.041526196530233,-7.610875097980152,10.628317185807964,-27.709208296154515,-10.983579850093834,7.085047745941736,2.3574438987440858,3.596199501647648,10.5359512951277
-0.9830953427705603,0.0,0.0,-2.832750909956492,0.0,0.0,-12.121735110488169,-5.529780460538503,10.943696703373964,13.648648851610671,4.259437540040217,-16.637831652867582,-23.231501887325443,-4.104598264585023,-0.00011492387117711684,-14.614194809336068,-1.7093156217685384,0.00011089755023199349,31.30757939063392,13.24110416639786,12.965258791833586,2.576461502184005,3.722230683434291,-14.416681876764994,24.801698169306007,13.603555466590286,1.3286086982780414,39.209192389069955,-4.324013414560396,38.05692213252781,130.28964066668198,0.0002874993571440153,-105.55455258032862,121.88677758351602,-0.0005158431303900326,108.93197920180445,-14.171730941809953,-11.708505034609738,-0.0008242992814275857,-11.368565139859523,9.296781114583245,0.00052328385657645,-6.104400016356578,-7.692304031677901,10.461228814283334,-27.785565414857754,-10.998094805469853,6.8976356378615975,2.392078313187952,3.752404847671702,10.447940790030275
-0.5033404229234975,0.0,0.0,-2.982176310903302,0.0,0.0,-11.722944698929286,-4.958218185285724,10.8910164313411,13.582066801793008,4.757295256965252,-16.477085253749856,-23.173429958172118,-4.235211524878577,2.1060066873930938e-05,-15.28775606095868,-1.7380126916426355,-6.435950079088157e-05,31.188478394907463,13.15277432302534,12.767844306540688,2.779423091077212,3.631572623143444,-14.618856903990503,24.926452310238012,13.66985854426363,1.0971832589324537,39.359653456799656,-3.9246652871892125,37.85714151382069,130.33265929002246,-8.75053290632132e-05,-104.82333565444517,121.79828389164786,-0.0005921223204830662,107.66533948135049,-13.88343543329798,-11.538024852408366,0.00021078600212318132,-11.352959885079486,9.04409344430237,-0.0005898807342796603,-6.038664201255395,-7.558773099507847,10.483036789180163,-27.709309035366118,-10.881990894531382,6.968323456646066,2.62554282251981,3.7322237991100318,10.317970023364788
-0.48397726654867784,0.0,0.0,-3.228573490150691,0.0,0.0,-11.13734109110641,-4.519095881397213,10.527988742068768,13.570519704533627,5.035051061057667,-16.45586921523183,-23.079555755535626,-4.208706075497439,7.757956145498652e-05,-15.996427232204233,-1.713442721799028,-7.749628956954643e-05,30.876185667668114,13.018783538648659,13.118131098071455,2.912381622655488,3.398967620080546,-14.75533258778343,24.896284060214377,13.828488790852312,0.9696757293142142,39.31979926877034,-3.4505620243944573,37.796177347811856,130.49403151143127,0.0002021795670028998,-103.53064638047752,121.61538205130789,0.0013895355076600606,107.47251194348178,-13.444662215247007,-11.180548206711313,0.00011342345223090375,-11.353389242656164,8.948902303623106,-0.0003445186019390079,-5.787993861785989,-7.415996859223312,10.660741994281677,-27.440320844144967,-10.814324588587727,7.1887229620643325,2.851003675541066,3.6011431671197487,10.20851639106678
-0.6630807682898926,0.0,0.0,-3.2558995853272594,0.0,0.0,-10.30271125250486,-4.429042663788786,10.378798419710016,13.353112219638176,4.794172146663821,-16.554566196201367,-22.868660609959694,-4.151355899798138,-0.00023496039068633649,-16.64231126477506,-1.6155810018100782,-0.0004227637992078013,30.46904475563977,12.863946220829948,13.494032716058898,3.0673165503361246,3.143666051926109,-14.733320857068707,24.643789300539495,13.895019922180971,1.0798201361335849,39.20866330943738,-3.3114019612304366,38.03416766728405,130.80635077268548,0.0028944064880086664,-103.81977576659257,121.45526914609296,0.001397499906152588,108.71283423645957,-13.230094671100852,-11.530012186393519,0.0012552218561835216,-11.578908149421785,8.704117951608623,0.0011966558143100467,-5.669948940308823,-7.22047940375051,10.892128175271587,-27.297476817988088,-10.717232490612371,7.479253817785513,3.1234359326659624,3.5835390325847105,10.041750956969356
-0.6785722443821929,0.0,0.0,-3.4797604876899033,0.0,0.0,-9.437706328416343,-4.621846376511578,10.937912166414675,13.12236417269004,4.5038509833822475,-16.75716712002437,-22.617640628758643,-4.177969625760016,-0.00032150341511302306,-17.396592726068935,-1.466005786457678,-0.00041139610622618455,30.218539342605062,12.711143746810992,13.179611625654067,3.4048954860902025,3.0039830623375763,-14.45807383441533,24.61174257715724,13.88315133137748,1.123320313806368,39.03428583213575,-3.5126673267874624,38.27597967035666,130.83040728446423,0.0005002267494375345,-105.12671167061478,121.53557125733668,0.0005034763595418689,109.47925320292883,-13.513112690666494,-12.554677323789008,0.0028570822478985024,-12.032816617077927,8.408483731457865,0.0008166863017164268,-5.765573113404586,-7.085043565910871,10.984053570167276,-27.3791561955966,-10.624931509361275,7.616318756455039,3.4296579878836653,3.735424489951416,9.86784498948738
-0.4984000779439593,0.0,0.0,-3.256716518556602,0.0,0.0,-8.722494064020132,-5.041614286100507,11.48691762820942,12.783989927516078,4.540439337648877,-16.67445723325347,-22.279787323473837,-4.097695596851945,0.00016864396490658256,-18.20364288417005,-1.4247864364335412,0.0002600809546107503,29.740912221963555,12.414635068675285,12.78206051225851,3.5661531277037555,2.8326477280356728,-14.290601483118936,24.88730584066233,13.949980594997983,0.9943327759434658,38.726870457743736,-3.6987501600891437,38.18092534950385,130.57466754649386,0.0008713093225195402,-105.46956875952513,121.715919240626,0.00018397574265261146,109.49758256339979,-13.574573850020242,-13.295903522145322,-0.0013509726110537757,-12.325899705647492,8.361030256567979,-0.0005162767896070637,-5.958563360775621,-7.127610058915693,10.951843015466977,-27.576697275178546,-10.652719671238398,7.570138527461376,3.4949361888218435,3.7115783444441406,9.804856184456105
-0.42666566361503033,0.0,0.0,-2.461913449900904,0.0,0.0,-8.058064503193503,-5.6360098444739295,11.567849128527858,12.260422651533306,4.7301667993303145,-16.38751001663176,-21.7654988926716,-3.8627780816470887,0.0002171673101578071,-18.823106067036402,-1.5181118212443248,0.00013266419530819995,28.934855393205808,11.946884464896227,12.810221827745561,3.4639333863648343,2.5082489547143503,-14.42332303391249,24.882644494146344,14.086829035058072,0.985907071813805,38.30494741345243,-3.6878224720917956,38.02409411132448,130.4897733070161,0.0006676956871039374,-105.3886172679975,121.67769532211057,-0.0006453547040009672,109.57235681204001,-12.633999762983304,-13.415704452797165,0.001663059635377148,-12.573205838961364,8.241516747536895,0.00040959373205048054,-6.160668823520871,-7.131502230255677,11.092405538725348,-27.772069435736856,-10.707718430327219,7.7006313150085,3.5329616790927423,3.4442862010786395,9.72875277805678
-0.48159324016683547,0.0,0.0,-1.9023365126218128,0.0,0.0,-7.3284630706917,-6.07108140115448,11.712611055497034,11.67378450751897,4.689298173471669,-15.997965218003433,-21.102830776684513,-3.6320651858728663,0.00021256246995876756,-19.391545666067277,-1.561541118603136,-0.0007764532195980818,28.265651753579544,11.508740386057436,12.955592963544918,3.585305100810446,2.1222932850544254,-14.537544423514369,24.57823890618156,14.214237622561265,1.1121279181918793,38.06941133245368,-3.6648304929966624,38.12671382689942,130.5416873596046,0.00016287768792671453,-105.53068312134117,121.5203291700215,-0.0004968445162846447,109.67355970960321,-11.322760696426505,-13.031282200950482,0.004060468086821213,-12.788100914441419,8.277430986013169,0.0009336808853402383,-6.1461304763847195,-7.078483089854824,11.56217895715305,-27.729470277517404,-10.830005337896235,8.161702743417411,3.8333934956826163,3.263214555235369,9.634721582660502
-0.5461220514812721,0.0,0.0,-1.6386684540752883,0.0,0.0,-6.477147287856916,-6.116714034011286,12.1177570871755,11.180316723288241,4.731950204866406,-15.665444129756247,-20.36965964276306,-3.402784816608776,0.0003954479904714037,-20.231235282591733,-1.5658777454817085,0.00012577528615051445,27.64746287975126,11.21470833569856,13.06804756407716,3.9142870137019243,1.8528880647019839,-14.359518192995559,24.418433934752333,14.340700719630517,1.0753534826341626,38.09371151199629,-3.6800751681911774,38.23410220157166,130.5679526383925,0.00023633393771570394,-105.73834270022972,121.44457347485616,0.0005947968954575297,110.08194770625315,-11.032227308493875,-12.89038954802803,0.001404098820410243,-12.791042723541759,8.539349215083696,0.0004191769368620207,-5.83117613120119,-7.088086576732921,11.836597850226102,-27.400344373651986,-10.93909335588847,8.415988796231076,4.055478751507728,3.274981034218781,9.682064059158897
-0.6511736627080542,0.0,0.0,-1.3201422154875178,0.0,0.0,-5.665552075899771,-5.610230950589536,12.453095234978548,10.773120612275587,5.712658462065039,-15.704717050484687,-19.653517509760004,-3.269058321756114,-0.0005025447790304827,-21.234163249858508,-1.7280153480461105,0.0009941692477116691,26.907932521678646,11.042606162136847,13.110313278720518,4.16069104565419,1.789974342875238,-14.009496132991234,24.408381115433798,14.416674947948799,0.8362748126984165,38.05755916961318,-3.6699486655873974,38.15644568804604,130.56266725109603,8.202916457821768e-06,-105.5783564131443,121.33703094455275,0.0010558891486600916,110.7536503127538,-11.45408184222276,-13.120625139728851,0.0014162825676296658,-12.760395847153703,8.740202134805006,0.00026388561523918273,-5.6252249409483195,-7.160418792468767,11.518107802225465,-27.21668407049286,-10.890112069016915,8.089602780649884,4.058594337794067,3.4217121345980726,9.830911757059685
-0.76352,0.0,0.0,-1.00626,0.0,0.0,-5.1442,-5.22425,12.67302,10.27705,7.24945,-15.95368,-18.93204,-3.25485,-0.00079,-22.19697,-1.83139,-0.00042,26.11253,10.75838,12.98228,4.29346,1.61793,-13.63714,24.29799,14.2455,0.69043,37.83556,-3.66902,38.06212,130.64751,-0.00132,-104.82929,121.21632,0.00023,110.80075,-11.22579,-12.86447,0.00329,-12.65267,8.84686,0.00042,-5.63761,-7.18766,11.20365,-27.2473,-10.80058,7.78403,4.00638,3.50616,9.84848
-0.7020100000000001,0.0,0.0,-0.8156500000000001,0.0,0.0,-4.99469,-5.30716,12.723110000000002,9.800580000000002,7.839860000000001,-15.830370000000002,-18.428060000000002,-3.1893500000000006,-8.000000000000003e-05,-22.807740000000003,-1.8012600000000003,-0.0006600000000000001,25.624470000000002,10.468130000000004,12.927120000000004,4.421160000000001,1.3530600000000002,-13.58849,24.153140000000008,14.04776,0.7209500000000001,37.69499999999999,-3.73533,38.01836000000001,130.75680999999997,-0.0012500000000000002,-104.45596000000002,121.17988000000001,-6.000000000000001e-05,110.34241000000002,-10.77498,-12.533930000000002,0.0021800000000000005,-12.404410000000002,8.634440000000003,-0.00074,-5.645410000000002,-7.172370000000002,11.226100000000002,-27.252890000000004,-10.794560000000002,7.810840000000001,3.993720000000002,3.4762700000000004,9.77197
-0.5708336570460659,0.0,0.0,-0.6812158114733298,0.0,0.0,-4.956068622016054,-5.449478012857786,12.683377067245965,9.403823430307305,7.873854323836205,-15.532901789263299,-18.0791246801975,-3.085432109435943,0.000559728069556082,-23.20630223153327,-1.7722040291395373,-0.0002566393220429882,25.354037755224546,10.251075296926745,12.95691487611148,4.56811756173281,1.1445125636440523,-13.715065071971154,24.07277104593063,13.969734176146632,0.7391213140890356,37.63193216267908,-3.825428576241063,37.95075754106798,130.7915819592072,-0.0013755181036879255,-104.59106477249917,121.15929125985019,-0.00021045096191797127,109.9556146749436,-10.482987548409012,-12.472375107587276,-0.00013608497645903393,-12.18860395673075,8.312781493530293,-0.0013093772116503743,-5.658671339086154,-7.15368190003188,11.281487768028878,-27.262006883798136,-10.7974336470125,7.869860923598586,4.022328353442649,3.4217814157293316,9.721020875796672
-0.3828143698548871,0.0,0.0,-0.5398411899681056,0.0,0.0,-4.942187022783346,-5.5684914912167045,12.55531006461978,8.962651982254743,7.629088947719929,-15.117552409384295,-17.73298886312444,-2.930089350633471,0.0010342177140276016,-23.58340425477863,-1.7575553332934744,0.0002467471171070681,25.150464780892566,10.039421137996122,13.047500411476188,4.764929674052529,0.9589362859639438,-13.956285559538747,24.049163798756926,13.999260429941964,0.7025239871291538,37.586000123690226,-3.9499531738331743,37.81149855531294,130.7392726404009,-0.002427037838381955,-105.11904839338492,121.12339121338408,-0.00013085100662913962,109.56841401282358,-10.213698320291922,-12.645881062214086,-0.0016542070167141025,-12.01716914050225,7.902219019346398,-0.00038047468303762386,-5.704421272611295,-7.108629031529139,11.294367808986395,-27.30393092317975,-10.76024908134151,7.898845599819986,4.0995089283319475,3.347147212678715,9.690200430720722
-0.19395498404534361,0.0,0.0,-0.3919676769661547,0.0,0.0,-4.936519584115906,-5.627830825238362,12.358251878222276,8.504226835708577,7.219347353412407,-14.70860018770031,-17.405048191589657,-2.745754632583837,0.0011884756372738461,-23.938554973003892,-1.7487778757740915,0.0006064384031664099,25.00268477827623,9.847576447048137,13.1672203608916,4.985638948062603,0.8203947273346205,-14.224837240353038,24.070449960189123,14.123206253242037,0.6295518692811904,37.54753065504988,-4.082288167656429,37.62916792467137,130.61468573830257,-0.002943718932061221,-105.80422945654004,121.07456353519372,0.0003310808358949338,109.26803418217747,-9.9919909439996,-12.956142530673839,-0.001756345197180747,-11.953082183110254,7.4869383553618,0.0009771216622246573,-5.752500119721786,-7.034310126051917,11.267995788461734,-27.34819152908783,-10.681509219386664,7.901922577747787,4.207842446421787,3.2611201289587,9.654494886196447
-0.0646946798378791,0.0,0.0,-0.2346009039391429,0.0,0.0,-4.924772452978225,-5.601874672239458,12.127825870791165,8.055462271816767,6.76027388494772,-14.423569877613254,-17.108349378775333,-2.5587960547556285,0.0009200920712914969,-24.274766755798545,-1.7348351967885869,0.0006180928884496401,24.898795770111274,9.684898816047255,13.276192354503634,5.207627924648846,0.7436018687637472,-14.43457024779137,24.11734988891801,14.31821463298948,0.5444724807237802,37.50961575798173,-4.1962732763308095,37.4396596435329,130.44196051588307,-0.001963274955683612,-106.42310736548797,121.01957015206098,0.0011844731773823563,109.12376691687697,-9.853835775956249,-13.292703894761088,-0.0004903313768219496,-12.039032569972393,7.144486372322323,0.0017611591997529128,-5.7687313570987655,-6.9356768673559674,11.215642886560824,-27.3603172504187,-10.570674305005069,7.889689068747716,4.327289472439398,3.1710150228301623,9.58647158989164
-0.07025809441629217,0.0,0.0,-0.05188781165982241,0.0,0.0,-4.900855695420183,-5.504220533108936,11.958418496968457,7.6418872192445715,6.372197780227185,-14.352604114933188,-16.84691082475202,-2.409418041893515,0.00032221851752291036,-24.607561636086423,-1.695850941641073,0.00022857054738941872,24.824225786519808,9.541948435340544,13.304933854797053,5.4210578682877495,0.7086890660695351,-14.50592992668391,24.144272436783883,14.524530444869244,0.49160977798971583,37.47520709902906,-4.268278846599273,37.30392065529322,130.27809553597467,-0.00034203700461102885,-106.8033686224243,120.98110679344319,0.0019207190142909994,109.13683486868455,-9.873470538121834,-13.503722846244086,-0.00025324626324797235,-12.241793999631163,6.927071958985884,0.0012814509910374964,-5.706157558851095,-6.845600673744779,11.185999001212506,-27.29311800437765,-10.476091875147672,7.895562732563421,4.429112495565104,3.0787511711224687,9.450981902752888
-0.2629578114352393,0.0,0.0,0.18066493867965225,0.0,0.0,-4.861512078566572,-5.3566436099120605,11.944762453510645,7.279760308220943,6.137400389536332,-14.529354248133846,-16.614389489061523,-2.331020245621813,-0.00040278607311794207,-24.949990524906553,-1.615367364859574,-0.0004444757672044793,24.770876034098205,9.398585731759008,13.185502349335561,5.629723977322149,0.6799146017355192,-14.404239347366408,24.113700269967246,14.691672885375265,0.4939657402821671,37.44504371855886,-4.29131454078129,37.25814659430024,130.1646048576119,0.000694422291899746,-106.90833777748644,120.98441520827934,0.0020086784702009466,109.24554308708237,-10.09223891367078,-13.483378806070588,-0.002442381884665273,-12.477261862491517,6.860978027033177,0.00014322649853044193,-5.549933116619365,-6.789156198214312,11.214256248304313,-27.131601905094865,-10.433928263834073,7.943208243199744,4.498748732891257,2.9823616732406077,9.231848597101218
-0.6464080477646164,0.0,0.0,0.4849489849165795,0.0,0.0,-4.804640838754179,-5.18415583521662,12.140296128288192,6.971032162526681,6.090399976034141,-14.922078167704123,-16.396809560335907,-2.336669118769555,-0.0009904262312141368,-25.306019094147324,-1.4886888140647456,-0.001106875314041461,24.733164985422697,9.233552716839398,12.883342952953846,5.843210758308744,0.6205798452783944,-14.150493558349229,24.011114990091112,14.795763559211071,0.5399774659669534,37.41459955120967,-4.275196049198424,37.30044484869743,130.11133292370627,0.0003414788804059353,-106.84748079750632,121.0464166462116,0.001149521284467971,109.38544163562534,-10.492231347494421,-13.205934787976815,-0.006207321861255503,-12.645325141387945,6.950750077855514,-0.00026313417105451153,-5.327820907037613,-6.767963213027401,11.304718349223268,-26.90332940243928,-10.447257637285956,8.036069789115345,4.538008292669572,2.878622852035879,8.941559065225153
-1.1375769518792422,0.0,0.0,0.8547676889053797,0.0,0.0,-4.7295724915675095,-5.026158335608815,12.496737271577107,6.696238009975398,6.222201872768094,-15.429139021662577,-16.17967108871792,-2.4001667345284643,-0.0011701841465898669,-25.665259123783596,-1.3350645926317621,-0.0012993093106703451,24.692303710498493,9.041704837261282,12.453911481166582,6.057972668748525,0.5154879021098718,-13.82306785261918,23.858001571943248,14.849903501080572,0.5797375287827543,37.37585793646647,-4.237766784284403,37.392434359376146,130.09089987215933,-0.0009373434324157599,-106.84789249971186,121.15827621303478,-0.00042232940670226804,109.62144908367242,-10.982866484955267,-12.750312989754374,-0.007930145758101158,-12.695389021935837,7.1865854159278895,0.00038973391898270446,-5.104482874498975,-6.747759417839172,11.422351255453968,-26.672403236350547,-10.471416271765344,8.15409531482762,4.554625954079073,2.7681514988698233,8.626863828464472
-1.6003298075941899,0.0,0.0,1.2379318447051193,0.0,0.0,-4.64280809402869,-4.945986972650684,12.900847430039748,6.427466936167449,6.510865126215796,-15.921288276135794,-15.953349461923748,-2.471196065276563,-0.0008276940141688449,-26.016858340333478,-1.1922055220423085,-0.0008439874650617096,24.617321578486585,8.834552117978324,12.02358669500699,6.257438970146768,0.37026752597861495,-13.517836593349978,23.700342679274424,14.88129730271052,0.5573555910170471,37.33361242666348,-4.192410700212529,37.490900353353894,130.0719944111313,-0.002425288901864638,-107.12670452701084,121.28586410096631,-0.0016799308399210976,110.01085190583385,-11.48282612355055,-12.250716504474362,-0.006252132921035896,-12.64133550111046,7.529614736043559,0.0014135651919140364,-4.9309307009668775,-6.692226567907663,11.518680740674435,-26.489933582835622,-10.45492897552345,8.265330736837013,4.54549880579885,2.654859511702692,8.344033066188086
-1.8943472643347148,0.0,0.0,1.5511766242510079,0.0,0.0,-4.557338299430914,-5.012231497581571,13.223795404507085,6.138829099591464,6.924526378970672,-16.27844833504633,-15.714008019861872,-2.4956231045076263,-7.406619723261408e-05,-26.356981042653427,-1.1007936976149184,5.972356542623555e-05,24.477979177859073,8.632968525450694,11.739083742796875,6.4228224856854785,0.20318570769372063,-13.317670389093745,23.591853734803582,14.918291652905964,0.4360785201659212,37.307031590770855,-4.145535179756551,37.55988396819565,130.03558474904176,-0.003409655504115875,-107.78328234807336,121.38052664001928,-0.0015419357775968846,110.53184448700341,-11.951605688204788,-11.839407242891115,-0.0026651284152978075,-12.537899494925687,7.910404065020605,0.0017745735186989497,-4.825837965952168,-6.5809532236871995,11.54949782056041,-26.37565643215405,-10.362679639331681,8.3358410645082,4.499743427059072,2.5431429847149407,8.139913356013357
-1.960878771437535,0.0,0.0,1.7218656687378098,0.0,0.0,-4.487991244907214,-5.251715266102447,13.403645473520026,5.821495189336445,7.409714662811362,-16.44627101411833,-15.463283189902512,-2.4502311526330005,0.0006901018463293578,-26.696942404788597,-1.0746170067729495,0.0008666423318716077,24.27148555895785,8.45265366941639,11.671484969309024,6.55529684296641,0.029806406625878416,-13.247843037668142,23.564542907166324,14.975691054588982,0.2350234321203633,37.32382250076487,-4.097652898621562,37.57953336990318,129.99075963794445,-0.003222919640212554,-108.63630894072777,121.40133207160031,-0.0004958637829103309,111.01303453550297,-12.410136815620804,-11.552306002879115,-0.00011327867487558407,-12.426469339391371,8.234078956314955,0.001374459290395997,-4.762948244951336,-6.42919698041829,11.498654802250172,-26.305418942638877,-10.202973118040308,8.344730619603649,4.414156180230911,2.432489091297724,8.024848271418614
-1.8413725883866272,0.0,0.0,1.7481689383354295,0.0,0.0,-4.439885728514451,-5.607919540960838,13.454062592914736,5.480490557179071,7.884354909676812,-16.442477190506683,-15.206548978153606,-2.3518967863827562,0.0010752990592871878,-27.05076400029428,-1.0930058995717924,0.001172128020784501,24.02398074072514,8.301597136068864,11.783150258893874,6.675061275823341,-0.1400139117510054,-13.2756552155148,23.61178421000187,15.056076805123439,0.01360553828024583,37.392862861568716,-4.051974583570271,37.53899364220163,129.94994191009368,-0.002066483994880731,-109.36908469418822,121.33749616731328,0.00035959316187415656,111.315677160388,-12.854249855879514,-11.328846701098476,0.00038201431311002523,-12.308736243697167,8.430408876065654,0.0005175158145250546,-4.7186262904800955,-6.266023287851675,11.37717187257256,-26.25699621465103,-10.006866588055647,8.291510513951042,4.306809133529523,2.319095851481576,7.981872400895688
-1.6440583950486576,0.0,0.0,1.6925328955288779,0.0,0.0,-4.407933105243119,-5.9577206710058475,13.434937373233225,5.129315732037255,8.258356146807749,-16.3356912377944,-14.951750466264507,-2.245448258125898,0.0008809941594920776,-27.426944744893756,-1.1142825450014353,0.0008686865676216043,23.77632286002273,8.183024715871603,11.960732185945382,6.8083987545030515,-0.29917039038188675,-13.332259430942958,23.697225816940787,15.149880066497074,-0.1582895417271725,37.496837288009935,-4.015917662889326,37.43737102083027,129.9158336626112,-0.0006830717662039625,-109.68845485384405,121.21091797643246,0.0002151572233626018,111.38247223771077,-13.23094074708062,-11.060036997967462,-6.202378115733475e-05,-12.165432612272362,8.467794738873378,-0.00033086433496093816,-4.6869876408607025,-6.118362466594739,11.214517756080872,-26.224620700768227,-9.810156689779364,8.193846003136642,4.209509642081642,2.19975736737437,7.979974931221134
-1.4799489107439554,0.0,0.0,1.6467429962832452,0.0,0.0,-4.380472363945395,-6.1574373898386,13.399625140888066,4.7820642053640166,8.475147590786252,-16.207991882685143,-14.708028855639276,-2.1792319526162602,0.00030275127442608643,-27.818636057638248,-1.1021579260267378,0.0002466127809017784,23.55873726555748,8.100528028665334,12.084159464421246,6.965346228019302,-0.43767003283994577,-13.350584689478959,23.776287474717037,15.233903672203006,-0.24780502533715065,37.5894172599661,-4.000024910312399,37.290012269730425,129.8684549818337,0.0005023779452509848,-109.55481943068507,121.07366610775478,-0.00029243588780010314,111.25608440941666,-13.433010681467488,-10.672862063865484,0.0008159374883343009,-11.999674082569854,8.362225049638823,-0.0007365953320897763,-4.686697438957903,-5.99135141449554,11.044468363829743,-26.225350708458823,-9.629935383584424,8.081568659814273,4.148739930433359,2.0782049774399325,7.992690689178765
-1.4072520183979365,0.0,0.0,1.6502410476817702,0.0,0.0,-4.352950072057386,-6.130480009774514,13.36871218974588,4.445565123413626,8.532602096930507,-16.114345928621397,-14.482075082766018,-2.176291182551664,-0.00030860936101422215,-28.21312822451549,-1.04498168841411,-0.0003022271950558247,23.38111127799123,8.05147008352292,12.093891751791421,7.140795207381551,-0.548921767494584,-13.300915614674993,23.82425816915913,15.281133062329202,-0.2690736544836933,37.6302702000351,-4.0080044231609,37.128393834358285,129.7872012591136,0.0011375967425368803,-109.13818785545887,120.97773256705736,-0.0005592509243826647,111.01974590801109,-13.399891183505206,-10.17037881401754,0.003077884591632175,-11.850288603383756,8.163781423532885,-0.00041871895452227616,-4.7207534068545645,-5.875799252398574,10.890130425483703,-26.260337965971274,-9.466091790083915,7.979794230603366,4.1282222993361914,1.9630143836116303,8.000960320649327
-1.425031553511056,0.0,0.0,1.687328118927039,0.0,0.0,-4.330756720528935,-5.884804132647205,13.33981673843519,4.116236628901685,8.47363751280764,-16.076428323606198,-14.276762132029885,-2.230350958551031,-0.0006325962711699952,-28.600765263119293,-0.9525630309376018,-0.0004962564819503191,23.23697527787828,8.02456646232259,11.993513611795711,7.324222430506956,-0.6347776427217106,-13.189594946841792,23.837557913342835,15.271604022350807,-0.2628094081501871,37.60448813341033,-4.037207271561464,36.98850123100081,129.6626205170521,0.001039781406882049,-108.69380454834126,120.95760284617748,-0.0003894052306234815,110.7647865129506,-13.151123149961789,-9.608102924429417,0.005087157052360408,-11.768669164708731,7.938467074256038,0.0005272289565726768,-4.7707855609889185,-5.758922120675798,10.76307585944055,-26.3098403259785,-9.310973181706862,7.904122234192297,4.12995118526285,1.864241958322314,7.994281156568088
-1.4750156977613156,0.0,0.0,1.707837976555465,0.0,0.0,-4.329944410565002,-5.518750101862902,13.309773867247396,3.777034006847047,8.369876698193146,-16.083690475903705,-14.08987664274195,-2.306582307349282,-0.0005956632934942034,-28.986004875850252,-0.8463079843654074,-0.0004060023306686459,23.111371999802053,7.9982132073426095,11.836981851124012,7.513799316536346,-0.7116350047232562,-13.04757251522352,23.829034428206377,15.207326367541144,-0.2626322662624874,37.54397643486822,-4.082779518648358,36.89154043843854,129.50832218991988,0.00045183330460787534,-108.385552774589,121.01034422167936,-0.00010057124199142643,110.552873530875,-12.809958985715447,-9.047884545362697,0.005348791142484949,-11.776467873652178,7.741375920995956,0.0013176819217082473,-4.8019353501889075,-5.638464598277243,10.665829466523915,-26.33877927155493,-9.163408679567953,7.857738568904794,4.119688807752585,1.789059353202254,7.973251615069721
-1.4756901255843666,0.0,0.0,1.6998288455285424,0.0,0.0,-4.3678907831118865,-5.150853132912289,13.291920803139568,3.408968019263464,8.305845206129113,-16.125267446668868,-13.917593499885367,-2.366946808945992,-0.00030835081962369437,-29.381383710684553,-0.7394719866434478,-0.00026343667647572193,22.99092572768009,7.954598650893577,11.67669026497871,7.714138711825985,-0.7977329665320723,-12.894274767667962,23.819056507195338,15.107720375520733,-0.2747841637813817,37.503749782937014,-4.148926256898788,36.829957609754956,129.34629529637925,-0.00011300128795755516,-108.2280108698946,121.10506672505821,0.00013867080536016424,110.34739427875037,-12.505252582916519,-8.521111032894204,0.00454737986993296,-11.835610899931247,7.568923369774549,0.0012026093011486244,-4.8049361888294,-5.522578431202975,10.600402367409139,-26.338301082546124,-9.031710820111387,7.839474151557293,4.063334263415754,1.7426940135074205,7.95134434334232
-1.3552775479895915,0.0,0.0,1.6899588869007889,0.0,0.0,-4.455720120183708,-4.8791406706799005,13.30080190328381,3.000112065034653,8.357269018219368,-16.192716804665526,-13.75869878897474,-2.382410157198122,2.2876057369524332e-05,-29.797971748725033,-0.6355341773859139,-0.0002508886528855229,22.872407808509028,7.8866045378984415,11.548901071025396,7.932292037419236,-0.9038476369647802,-12.73782419759815,23.833451573423424,14.999818826942944,-0.28412702507150056,37.53524292614147,-4.244314959567392,36.776294194804336,129.20156554984143,-0.0004467730616711964,-108.11585084058986,121.19964663804443,0.00021659790358159926,110.03614120195151,-12.303830833862799,-8.046111168404511,0.004189122340136027,-11.863146801401905,7.374954196887081,-0.00024869801451158225,-4.8014926120824875,-5.4238207551766395,10.567346675691093,-26.33081872557123,-8.927760732434553,7.845169888742035,3.9401758677103444,1.728671865126571,7.945528282043159
-1.0937915426251419,0.0,0.0,1.72469609333781,0.0,0.0,-4.588405940258116,-4.739454694545648,13.324494763949453,2.555848105264275,8.55881201653945,-16.273017930498806,-13.619654138241492,-2.344406569057327,0.00020062644044988262,-30.233546925466747,-0.5308607710276395,-0.0002686240790603314,22.772999884459892,7.804481237874306,11.466857768720875,8.173369720479805,-1.0235698239035482,-12.585876640031847,23.902350642511923,14.906746907381198,-0.2661655894719569,37.65399566459041,-4.371993404392703,36.69871254275581,129.09908834205615,-0.0013523255871636234,-107.86932447822188,121.26126920191963,-0.0001518985808157032,109.48266881742099,-12.135766719614551,-7.66341253375026,0.004089017286058049,-11.761608705886305,7.107028809322449,-0.0028031483446206915,-4.8412226428900205,-5.351410594857625,10.561542120931135,-26.36668962240881,-8.858281628927491,7.8666260037608176,3.759680942080617,1.7479333520894806,7.962341750554815
-0.750556871358401,0.0,0.0,1.806797020733944,0.0,0.0,-4.738570821795436,-4.711497539362516,13.30614220420957,2.0936206850031063,8.86327135504691,-16.32062935866472,-13.510880598849706,-2.259280283317171,0.00016633648257567715,-30.6746866308688,-0.4282885863673034,-0.00014168150551311577,22.72223490356008,7.72567160434293,11.44702941399817,8.442438339768255,-1.1450215390865799,-12.474038055293967,24.04681251252445,14.845731191048495,-0.20515258779898968,37.83547880125687,-4.515972194675795,36.58667171649207,129.06415846259662,-0.0035811422992781425,-107.3214139058777,121.27929965750675,-0.000829152738185668,108.65764662014091,-11.839820002006777,-7.469051245447112,0.0003742190273229224,-11.504870466265801,6.783469212208725,-0.004812417675134785,-4.957399739102277,-5.310218509623314,10.567980699232004,-26.48018756959772,-8.822317753017094,7.887963503729311,3.5634788342019976,1.7923375460317361,7.990008306009095
-0.43468137825306846,0.0,0.0,1.8964418167749495,0.0,0.0,-4.8658198415117475,-4.745774947173342,13.179761973863792,1.6355170852989172,9.166209790409516,-16.273057470842744,-13.435845601947184,-2.144287684073796,-9.501928868865761e-06,-31.10567987813729,-0.33428299789448734,0.00019707730890215872,22.73992281513182,7.665520604259579,11.507655495519538,8.740237720220662,-1.2619406933044173,-12.449965204745322,24.271647967201734,14.829499194532467,-0.10228944696016687,38.034311897976465,-4.648577200526161,36.451879670596526,129.10861675021158,-0.006663679499483019,-106.41205332807968,121.26087118293424,-0.0013728899317818908,107.64969579654046,-11.260216328886932,-7.57685291840315,-0.010114969449867669,-11.15105868778889,6.483033859043171,-0.004749108229776045,-5.1521908171555255,-5.302722660570655,10.565982400883888,-26.67465228758011,-8.81461072873917,7.8888686606582565,3.403659854949534,1.8433110250141256,8.009319889995409
-0.26179763747462886,0.0,0.0,1.925719902578768,0.0,0.0,-4.930816188108707,-4.793032570431167,12.921137063873758,1.2005371763378543,9.344748223599007,-16.07781425772457,-13.377679109573524,-2.024772223518849,-0.00016901698945995632,-31.518717509432626,-0.2519622186438378,0.0005374083729541493,22.809462904070564,7.6275410868989715,11.658543118211405,9.0564466510685,-1.3847061920097705,-12.54587120499773,24.557041322085507,14.867034368124832,0.016542586464505363,38.207440518328085,-4.742765980941888,36.325386637320825,129.21160473001723,-0.007966556231393626,-105.29694537681003,121.22407826411853,-0.001333293060053861,106.65285455719149,-10.364821200475099,-8.055003714372104,-0.023856031967680776,-10.8421970215926,6.314964989137854,-0.00316574080986492,-5.386649119052547,-5.330417016913764,10.53572954873211,-26.912231638270548,-8.829320614572788,7.850225297936447,3.314741239902998,1.871676923699264,8.007926836486373
-0.27400221600353747,0.0,0.0,1.858039652683888,0.0,0.0,-4.9245057206078435,-4.8243604593198155,12.587389866344864,0.8007012451576291,9.337704974143028,-15.733632104228546,-13.302249182162734,-1.9271258878337019,-0.0002709321849287205,-31.914528468094584,-0.17006403439688228,0.0006416196656361536,22.88049405586867,7.602732624180952,11.872973791602943,9.366512836945665,-1.5312839521096338,-12.743537960717433,24.861210846199146,14.958408817543113,0.1127283102008396,38.33243468908261,-4.792857746794724,36.236791694051384,129.3191636681169,-0.006650309601874681,-104.29271176676373,121.1838006281724,-0.0009128829518543411,105.81352508131725,-9.311903970541687,-8.814030683240702,-0.03025803674608327,-10.70023542653165,6.32295877006337,-0.0018584288377721204,-5.615373409522911,-5.3871391436921705,10.470283420940296,-27.147510974178676,-8.858174502384413,7.767813364488693,3.2908781463031676,1.853192852999011,7.985003446336725
-0.4425616966710117,0.0,0.0,1.6991256738719467,0.0,0.0,-4.8672220791241765,-4.8271514350458755,12.278321913940363,0.4426423384490168,9.15423878774298,-15.283661134877656,-13.17631039626932,-1.8686890892528893,-0.0003321020442280773,-32.296757840889015,-0.06931151280046774,0.0004037715066263594,22.899424158928,7.575335655952519,12.098764154230112,9.643196015361363,-1.7150599036168952,-12.986785473652226,25.130473114777942,15.092261157587526,0.15361450773704563,38.40435891069967,-4.811312305854438,36.20543417780641,129.37422790874098,-0.0038072487229732226,-103.69705619490726,121.14821390230571,-0.0005656112845815707,105.19853501707246,-8.371397902524016,-9.636864742525633,-0.022786238753369523,-10.78551551820329,6.474889167270525,-0.0019449081924028148,-5.809653871919462,-5.457587869952708,10.379974660188712,-27.35035745708398,-8.890701814923798,7.656992765563405,3.3012207105812386,1.778966076801633,7.942754571171073
-0.6823954697274495,0.0,0.0,1.500225043722926,0.0,0.0,-4.802993966881553,-4.800000758382953,12.08753656364637,0.13043417984199643,8.87490442299183,-14.80440549212191,-12.987455120131047,-1.8469607506758061,-0.00033960763522964223,-32.666618483617036,0.06861322059169545,-3.112564547188466e-05,22.84293390145173,7.529120303589266,12.275878631907075,9.870845479792521,-1.9330427535648937,-13.198700292632465,25.31140575262517,15.243395467398067,0.13132240338722043,38.43187504072149,-4.821638829500053,36.2327850707417,129.35017564596393,-0.0018009380577680054,-103.59752414353632,121.11684309217966,-0.0004884763862272431,104.78892755367715,-7.825642910488667,-10.23448918996105,-0.00990967247564552,-11.063075940790695,6.668218868389836,-0.002212539534755393,-5.977389820011996,-5.517764130372833,10.296567590100826,-27.52567557009095,-8.916183149142654,7.556463514012449,3.3093829491341977,1.6649589543183716,7.877957149997837
-0.9264029426501939,0.0,0.0,1.3151575970896048,0.0,0.0,-4.764519369304898,-4.751554157307613,12.043279413191168,-0.1242708500110254,8.603309929313038,-14.374469823513245,-12.750758316629195,-1.8420360647916734,-0.00023726603062887224,-33.02519332478916,0.24862449947570212,-0.0005041694392229275,22.7312559872934,7.455526993750036,12.37592679493964,10.059193623058876,-2.169524436518932,-13.313557004064908,25.378461301562677,15.382186861409192,0.0610055206712911,38.43434331171531,-4.834544620109965,36.30330811498219,129.2647989733826,-0.0007097127233512983,-103.83772703822358,121.084989767262,-0.0005217439473078571,104.6000099135084,-7.805414784888853,-10.43771457269664,-0.002683707529983591,-11.43118019899923,6.827374425420541,-0.0019285686702649669,-6.14853066238472,-5.5528744545599755,10.263350070224924,-27.700471664125825,-8.936696701286948,7.512286300683735,3.298346564906341,1.5402570373885278,7.788645239368707
-1.1414797722567602,0.0,0.0,1.1740895329092211,0.0,0.0,-4.764881055674014,-4.696954879271639,12.115679571446721,-0.30447645692966263,8.425701928457286,-14.05139817312889,-12.495781271799832,-1.8310867471328542,-2.5871843638976186e-05,-33.37596134945202,0.46197279926794593,-0.000863156538420005,22.60883789885488,7.354909735952452,12.403286147842248,10.235767252718382,-2.4059455828482053,-13.295186107504895,25.341415310012327,15.48505978971222,-0.036097392026534655,38.43654632526287,-4.8457841646892295,36.39257106908752,129.15398379473396,0.000139048500698989,-104.18960135271215,121.04744292994462,-0.000394272650570329,104.68680756442808,-8.280071063142238,-10.23462221512052,-0.005256475536540567,-11.761662284389791,6.941444248655021,-0.0008602054734848823,-6.353699881494857,-5.562780817522391,10.320811219947444,-27.903398170759196,-8.966922381491933,7.562452502613625,3.2687890535806248,1.432063179158983,7.679417618891294
-1.3348124285964855,0.0,0.0,1.0626873921576165,0.0,0.0,-4.793822274517989,-4.653586429800965,12.229300401923245,-0.3929667775861276,8.375430569872911,-13.84885053962173,-12.253763310178545,-1.8022019752128542,0.00015773245649524007,-33.72589192533672,0.6864959113250872,-0.0009631878047001428,22.524038039673943,7.23731610015718,12.391737228738604,10.435748423681241,-2.629632509112642,-13.15522856621479,25.25000308413631,15.54395930614222,-0.14727441352621334,38.46222592841482,-4.8380092393252765,36.47533463246093,129.04521590195986,0.00048114874468511894,-104.52369662444535,121.00108523601682,2.0631330456761553e-05,105.12030248383977,-9.058772254924808,-9.785203172984595,-0.008944640698166797,-11.939483565461746,7.082127554978987,0.0009709638819656143,-6.605777582288251,-5.564076398184191,10.492613650849226,-28.14702198998087,-9.030917629880765,7.722993177606854,3.2346252299221994,1.3525281723302165,7.564783745290575
-1.5243842716730234,0.0,0.0,0.9340624269165322,0.0,0.0,-4.8346502060384,-4.627546399428335,12.30967826568675,-0.3894245035934107,8.42468646385473,-13.723320366483609,-12.04445744555971,-1.7613520443395732,0.00020538591624350157,-34.076514944429064,0.8929887071919579,-0.0007347848148898233,22.501330371384494,7.117954240810891,12.375724619207558,10.6755024425622,-2.8364768555356,-12.958063601848501,25.166731417380102,15.566114857886939,-0.2675302185382103,38.51613614308497,-4.80144299336375,36.538371227574174,128.9387832499619,-0.00034739715526855723,-104.91346664832305,120.94326967478268,0.0004983683349257557,105.85479869603851,-9.881719187364537,-9.290859145849977,-0.008306288034017182,-11.925033760545501,7.305388495068513,0.0031880048650992214,-6.897493217075225,-5.5704658392171265,10.775566076424678,-28.424664515566274,-9.140226114010497,7.985908859641278,3.2069079444961472,1.296494246426528,7.457566339603067
-1.7236255787701864,0.0,0.0,0.7382804233944255,0.0,0.0,-4.87189147917864,-4.61435703308257,12.307091807879402,-0.30483768753218154,8.518691697718547,-13.604183588719177,-11.875437171196243,-1.7224115458412523,0.00011198179831088053,-34.41970750219926,1.0556974652438822,-0.0002543343961292741,22.537632278286637,7.01058111263579,12.379503482958391,10.945903443534068,-3.028910591306598,-12.789483331681616,25.14072321191879,15.563406724741185,-0.3903784055658856,38.58706106090489,-4.739089212045899,36.57777435344587,128.82364581442886,-0.0023577116858883858,-105.4943262326407,120.86859584022496,0.0006224039136976588,106.72006382985431,-10.493184667823561,-8.912635245837599,-0.003467010644848981,-11.749688680001604,7.5924839302618325,0.004832087232347802,-7.213521869941477,-5.586540724599738,11.137826545569391,-28.722461959122185,-9.287432498441733,8.319737962808944,3.1865414023472,1.2498887589662104,7.365421020235318
-1.928402357947631,0.0,0.0,0.44911068733915244,0.0,0.0,-4.8966027846646165,-4.6017718844304785,12.212539212263163,-0.15332057335148366,8.603518284495662,-13.424201822823994,-11.742137115745297,-1.6975410532994721,3.130724240569449e-06,-34.735236009991546,1.1614755190802621,0.0002224405241296013,22.60225482565267,6.922144334845081,12.411666996117342,11.210377404836684,-3.213778891284754,-12.727324159767278,25.186501176458396,15.543451840181199,-0.5010688965219964,38.653735131599824,-4.668783179372261,36.59538672641907,128.6936245276947,-0.004228142118554311,-106.31860664016604,120.76768881318301,6.350256949022123e-06,107.44256180254663,-10.705770963260155,-8.712738319112106,0.0002939387090654404,-11.503520375580504,7.820155849852076,0.004497460828751138,-7.540843704631077,-5.605650106394263,11.515269423502044,-29.03008292010378,-9.442874975064484,8.666871048982053,3.1599570547427165,1.1974018070540742,7.289734106298224
-2.1005568849414,0.0,0.0,0.08958948789482855,0.0,0.0,-4.909686232175529,-4.5836103956696075,12.044729576992259,0.06853550829860174,8.642191152696315,-13.169459490687519,-11.63352958231706,-1.6860803846449686,-4.816812996707894e-05,-34.999142798546266,1.214308426154815,0.0004813861686870946,22.660449151688645,6.851530035251463,12.476717261453459,11.430849261093156,-3.3957709784540633,-12.804237943697196,25.279511917281596,15.50436142026364,-0.5817658850819355,38.70784826829203,-4.611861127975938,36.59070179490673,128.5648842243413,-0.004588708718206953,-107.18641194897765,120.63701242241694,-0.001120696222022469,107.83401133655269,-10.479181891441247,-8.659676524988017,0.0014274895436675826,-11.263203847044524,7.873172849842149,0.002639336121352197,-7.8767133493731665,-5.623409638658043,11.815657562876956,-29.349878960954324,-9.568877573441547,8.942324343868945,3.1076346548584186,1.1333131814219852,7.233353243422822
-2.1843387054591012,0.0,0.0,-0.2834389610980413,0.0,0.0,-4.920665384473708,-4.557195735861131,11.834971125318562,0.3736327126643562,8.604098294778343,-12.874578058252862,-11.53758432510484,-1.6803263043187582,-2.7450190160801727e-05,-35.192308873705706,1.2264717982748499,0.00045260798522543915,22.69062393163515,6.794868832655439,12.574301333428288,11.5873463427893,-3.5727968455227925,-13.009745136852697,25.377994254005763,15.441082806910586,-0.6201947672020857,38.75467452923883,-4.586181054955432,36.566956868283036,128.46128405438435,-0.003217581432162921,-107.76136191758175,120.48616014082438,-0.0020938153846008388,107.86394340394304,-9.915588418561859,-8.665297670127828,0.0008417094166119881,-11.079508852555977,7.719350543183246,0.00044558630873607543,-8.223931188271038,-5.640904300690028,11.9536000213225,-29.69009168081604,-9.635406712578856,9.065405975057798,3.0159255514390577,1.0625108999058783,7.200167069246196
-2.128965811375357,0.0,0.0,-0.5981064178771727,0.0,0.0,-4.945131814354674,-4.518168550598809,11.620235882533853,0.7746233066780338,8.462246460144012,-12.61456715640149,-11.44503996585882,-1.6721206474833679,2.5945223838034096e-05,-35.3067195807837,1.2128554802512697,0.00025845475477626853,22.694822662747196,6.748777966782158,12.693880159632961,11.689979023885764,-3.734436376351782,-13.291466202271302,25.441810841421187,15.351220440923836,-0.6173729729461905,38.81039984957316,-4.600926740298357,36.537325404460994,128.39960042893634,-0.00148197179932532,-107.7041391248802,120.34070427776456,-0.0021506652018141673,107.69317319443755,-9.249772784693487,-8.614646126579789,-3.540403766933407e-05,-10.97788429049612,7.448477345791723,-0.0011788936775911573,-8.586194201695927,-5.665710810936441,11.884639665743988,-30.05795811097654,-9.633376259323924,8.991412204273301,2.885681677446904,0.9992123570244517,7.192805711628722
-1.9515396210667497,0.0,0.0,-0.8204169463244977,0.0,0.0,-4.991522637532105,-4.446038645694989,11.450406582044549,1.264708971336881,8.222078488414255,-12.469030999968657,-11.351747385322389,-1.6660565349375906,3.046678777017747e-05,-35.34674310495758,1.1909623030929477,7.750095100350076e-05,22.69035007939082,6.7086734123992695,12.796899940073256,11.767352694202396,-3.872981304271506,-13.56585732648417,25.459051536170172,15.241962496749961,-0.5947022465903659,38.88613841553553,-4.652872278988648,36.52905509414064,128.3685446344341,5.0822291260615976e-05,-106.96603454918176,120.22521372795792,-0.0015877878444904732,107.55279361303522,-8.755616408458087,-8.423239743701652,-0.002655468512357663,-10.995843412504898,7.1875621495280555,-0.002264463129550845,-8.960986870523973,-5.707226874689481,11.652197908221032,-30.448704153765917,-9.587303927539423,8.757701642519697,2.733126578071324,0.953814069529172,7.2043863391658265
-1.7258327792207042,0.0,0.0,-0.9633141006071088,0.0,0.0,-5.054680936786473,-4.31953815175019,11.374569769810225,1.823940907949631,7.936705774715319,-12.498604794319222,-11.258706471491843,-1.6756994624306987,-4.753108957793306e-05,-35.32184569151694,1.1800093239789526,4.983867443714571e-05,22.692783807799522,6.667756889285149,12.83677485045623,11.844003804464306,-3.990392651612451,-13.744827296606413,25.443701399818107,15.128645835571467,-0.5836679565429722,38.98392166325411,-4.727851467341204,36.56586300632566,128.34497656718835,0.0011113498666714986,-105.79393904465243,120.15012845778955,-0.0009943686063475737,107.6133188485247,-8.635529516318595,-8.086839794711043,-0.007002458355228304,-11.156869949475382,7.021214190070185,-0.0029149491196647998,-9.342693645089788,-5.7755946334450154,11.354631119361283,-30.85129125515438,-9.542412931613354,8.452941429375663,2.5785583357631436,0.9248940368407821,7.222352715910803
-1.5606347462111896,0.0,0.0,-1.0817743161190223,0.0,0.0,-5.11372202701085,-4.1313049333876135,11.422925523431385,2.425083958854578,7.704719268100885,-12.725402597382308,-11.172624613339794,-1.7174124640533766,-0.00014714866563589113,-35.24074171187428,1.196657368309196,0.00020436833223762393,22.706501135958025,6.617838544893784,12.780798574184145,11.926519120893964,-4.1001924546047634,-13.762272685340424,25.42987347022662,15.033017423513847,-0.614856181503504,39.094554254679906,-4.803100395335792,36.65365061798356,128.30839432391937,0.0013770222997857256,-104.67729510787382,120.10664679357578,-0.0006851595657108523,107.89773856870252,-8.941977284581155,-7.707039548158898,-0.009462406793923852,-11.444629013512765,6.9498841827620375,-0.002873328666709341,-9.725604780912816,-5.8805395420825874,11.111655160658158,-31.253837474730336,-9.55138721399418,8.185873006333816,2.438567581586453,0.8959668501085639,7.232343092695433
-1.51946483999713,0.0,0.0,-1.2142417426706422,0.0,0.0,-5.143930524758011,-3.908860530678442,11.562991691645527,3.0438051708091467,7.598682986482272,-13.108139281658156,-11.106625961720624,-1.7912749845104576,-0.00017912469343132903,-35.10297266413975,1.2362529037139312,0.0003736662157059905,22.7284838369961,6.556916047773274,12.654613537709542,12.002988680769556,-4.214165659931383,-13.627749994320858,25.445899752282234,14.977114406410383,-0.6930509039846392,39.199064767097774,-4.858511722494101,36.76741763819216,128.26181665853818,0.0008260994024180546,-104.01747809875044,120.08345792589357,-0.00045631538845255235,108.25041059884488,-9.538565459406106,-7.442231671601589,-0.007285042350756277,-11.774906745496287,6.924108202581005,-0.0021636666667485625,-10.108481829901757,-6.0272404880732635,10.98809050092395,-31.652336970479684,-9.642730235816012,8.015308779842305,2.3206859784951006,0.8458759999753551,7.22565767924276
-1.6053439928215345,0.0,0.0,-1.3566418420655888,0.0,0.0,-5.129870020092022,-3.6971992504261206,11.718104286878857,3.6593273631088614,7.622065045924913,-13.565336885292327,-11.07308278603693,-1.88006811605863,-0.0001260857675768458,-34.90179034035023,1.276668469131144,0.0003480812827308225,22.758492385491056,6.488430786372557,12.520486759291607,12.05765158278261,-4.334807932694666,-13.413739314761562,25.49662165839014,14.975993539798045,-0.8022829689697039,39.2736152155368,-4.888108602555263,36.87252396870359,128.22128610114788,4.084512104184135e-05,-103.96649176906274,120.07958896292851,-6.558356679389337e-05,108.4842879520996,-10.21898800262695,-7.403788786226426,-0.001704039441677867,-12.06145163372587,6.916809889611502,-0.0013504250743677818,-10.490808424734446,-6.2140558956026135,10.988224192414533,-32.046413601785005,-9.816527196928929,7.945808895588462,2.226939478647452,0.7620479903534896,7.197065365825492
-1.7615476767695717,0.0,0.0,-1.459696242796395,0.0,0.0,-5.07280941917919,-3.545081728313381,11.792381877947985,4.256364661981702,7.698580466994292,-14.00092674590198,-11.076502285254561,-1.9532427186446848,-6.579912830186535e-05,-34.627945906949655,1.2862645034440914,7.611805124800033e-06,22.802338929991308,6.419466429789473,12.452216469799383,12.0793442970172,-4.4530042483185985,-13.233414153468765,25.555494248822118,15.032486333934049,-0.9131346739323335,39.29405723859084,-4.90575385211643,36.940700478542254,128.20747548845907,3.730981472798387e-05,-104.37723986211633,120.1075999781882,0.00045711524295285593,108.48693479154434,-10.789037940798057,-7.599718775590097,0.0020340981897798457,-12.25924191365455,6.958236745586971,-0.0013737126761717096,-10.870039196433988,-6.430809391972901,11.06226773072045,-32.43575922983839,-10.045164672113794,7.934431355480482,2.155884121814629,0.6480227800341851,7.1437743423203335
-1.9159610938732,0.0,0.0,-1.4820943170358638,0.0,0.0,-4.9911642747137694,-3.4847572159552804,11.742200094185508,4.8327849430195755,7.737490008928385,-14.36971492342599,-11.100020277654316,-1.9888387871528657,-2.609083673212417e-05,-34.2798292933161,1.251663120871244,-0.00047449565679221324,22.861881573751226,6.354439943857406,12.473570221402,12.064926871094391,-4.556273074558296,-13.162794477680723,25.575442030382117,15.13283454064184,-1.004695809649293,39.246207779363786,-4.93991579782444,36.96997420118804,128.23349168045397,0.0006969005629435324,-104.98838737174212,120.17680199565682,0.0006448727975845212,108.33553804350369,-11.158231897829284,-7.941615106027083,0.0023082742858220773,-12.391546064994667,7.1146474726500495,-0.002174441775548522,-11.239164683616345,-6.658173669594493,11.153526104676567,-32.81516024730164,-10.289941925068419,7.935165504089252,2.1039113618235668,0.5239233280886184,7.066561875266995
-2.017989283570504,0.0,0.0,-1.4287188057880282,0.0,0.0,-4.908856398172898,-3.534435674029067,11.585190969721058,5.3966803137613475,7.687664768215114,-14.683113515254039,-11.113814564672584,-1.9829173172774017,-1.5083870003092942e-06,-33.863251551301836,1.1790454567405226,-0.0008198684267870321,22.930965710654135,6.298140479326889,12.55798754768165,12.017534617166332,-4.633152342137574,-13.214544992488205,25.520067071908237,15.256631546607531,-1.0672258899169593,39.128778475651295,-5.011397767910479,36.97172164335016,128.29958180925283,0.0013760763496939196,-105.58011523542908,120.28278759924726,0.0003452153567922882,108.14408044173115,-11.307463158636732,-8.318164325583487,0.0002466644133099132,-12.49596331529236,7.40152201408233,-0.0029343883617985486,-11.589000137909144,-6.870555359328393,11.226368978362707,-33.175565879040875,-10.514035963078046,7.924130992184558,2.0669875216354723,0.4142433670046087,6.9735161133144
-2.0566112597564183,0.0,0.0,-1.362030952439182,0.0,0.0,-4.84779658127825,-3.7001008627110363,11.392655268383738,5.961378702026721,7.555700802724928,-15.001633740190721,-11.084935680620355,-1.9509536003781764,2.3350121394891035e-05,-33.3898833570407,1.0902766334597869,-0.0007838086436083349,22.996644727749295,6.257814218842341,12.640183088365026,11.946576070298661,-4.67478837722003,-13.333422870876323,25.3826949619346,15.384604344130407,-1.102692805714224,38.954993391637416,-5.120934534160066,36.96130569288333,128.3885356752843,0.0013928881742374867,-106.03761058912033,120.40553744015017,-4.3477830618800056e-05,107.9619843186044,-11.272348179349358,-8.63153209902704,-0.0015887620067167407,-12.599800553794104,7.74117680201995,-0.002459702937349415,-11.910243801976021,-7.040828493163568,11.276693478769815,-33.505942455036404,-10.69074527304979,7.907643815581953,2.0409614253799,0.33903776898531585,6.8817629100603055
-2.0629987362372635,0.0,0.0,-1.3716345282830213,0.0,0.0,-4.818931422670885,-3.978047164109691,11.238564219890447,6.5300815332909465,7.376044414369042,-15.390708161038596,-11.001381010026595,-1.9144659261437258,2.7572942957347042e-05,-32.87134522730879,1.0047996012996179,-0.0003429575009782907,23.052024926981876,6.244407636885399,12.665624973783,11.869962637656737,-4.674178530756832,-13.431139452191996,25.20174520651238,15.511288280120684,-1.1223752014671153,38.752024778296075,-5.243384968819839,36.945466214132566,128.4592403611728,0.0006910350376525479,-106.32819698917878,120.52230026819856,-0.00013912016195852616,107.67461160497814,-11.134282186680714,-8.81026975779053,-0.002267812987859378,-12.724648778269845,7.969394255858414,-0.00022793216922850862,-12.197612498292777,-7.155061459378657,11.322406302886137,-33.79893626920311,-10.813658951406957,7.90777837051916,2.0197906110322474,0.30109541645636057,6.815610766903633
-2.0711075205857212,0.0,0.0,-1.5215820238769364,0.0,0.0,-4.825027564934832,-4.349132317160916,11.160280918631226,7.092869543971465,7.170085349338526,-15.88971838580491,-10.877367332406148,-1.884967660678862,1.1274284693613225e-06,-32.31910954706014,0.935009593980296,0.0003948998681242408,23.102592737377496,6.26207767304005,12.623705834694498,11.810317224327505,-4.63217406669986,-13.427876413891854,25.037600399424765,15.637677305758059,-1.1408752210508457,38.556272992094975,-5.348497256894213,36.92990745241482,128.4672157292589,-0.000546631880714522,-106.49537759673885,120.61701873747973,-3.022096930095781e-05,107.21133581743504,-10.996898067556389,-8.819506838486728,-0.002106197877799175,-12.90609972756413,7.962053634928463,0.003222095019049817,-12.454545083152041,-7.219911432444373,11.381322836453888,-34.057391195005124,-10.895474254310166,7.938807563808394,1.9946902044692545,0.2857418467745417,6.797619127851335
-2.0932762481773106,0.0,0.0,-1.8179732392396828,0.0,0.0,-4.864215489522247,-4.77448435521878,11.143588976389843,7.6272756136171065,6.93610775812756,-16.49449159159806,-10.748797766917905,-1.8587709596471134,-4.277517139223811e-05,-31.743272047441824,0.8831859265530856,0.0012087082722250897,23.163546890497702,6.303903184402685,12.556680175486013,11.786712190725803,-4.559816888088922,-13.282362301181436,24.94921875090284,15.76384326725889,-1.1699443103947926,38.40490671298945,-5.412262930978772,36.92417698937732,128.38650048943938,-0.0019231482950420782,-106.65522964491899,120.6829515798474,-0.0001789788986994378,106.6359316919106,-10.953716719870624,-8.676040830385855,-0.001999108024251679,-13.188031427489769,7.697839715898183,0.006417062059922621,-12.694342661991026,-7.259615080511036,11.459932444054594,-34.29591513996131,-10.96109962357905,7.99776385252915,1.955449465230809,0.2660762160991825,6.840044936428809
-2.092893170236716,0.0,0.0,-2.1741981879367573,0.0,0.0,-4.938397555661306,-5.191446053989642,11.127720773083027,8.104870940360914,6.671859165224189,-17.1412474810572,-10.649042702709396,-1.822135558668406,-9.783235463575398e-05,-31.14802150774183,0.8369592447539801,0.0016993422072616234,23.241326630598014,6.353173814686252,12.54164685200269,11.7916004340984,-4.476644914560127,-13.0372520172117,24.945847963044496,15.87454240093124,-1.205330788263693,38.31254356602215,-5.426345617247703,36.94651408673364,128.25470870939586,-0.002342943695851347,-106.97983410873975,120.71853678657862,-0.00044140828683190774,106.14493081970731,-11.007898344215596,-8.48109111544107,-0.0018128457884898578,-13.574066822578883,7.28748783802307,0.007978957907355847,-12.936574214153232,-7.2938849797268634,11.545588857024155,-34.53611185377379,-11.024241203702726,8.065383190061974,1.8963010164805958,0.2222383309924857,6.92853881505401
-2.0201,0.0,0.0,-2.47881,0.0,0.0,-5.05059,-5.53106,11.03977,8.49576,6.37528,-17.75033,-10.61045,-1.75876,-0.00016,-30.53593,0.78005,0.00142,23.3398,6.39063,12.66458,11.81011,-4.4044,-12.75789,25.02298,15.9503,-1.23839,38.28754,-5.38666,37.01751,128.1268,-0.00052,-107.65572,120.72351,-0.0005,105.96967,-11.13771,-8.35851,-0.00112,-14.05655,6.87681,0.00657,-13.2024,-7.34092,11.62051,-34.80135,-11.09532,8.11814,1.81273,0.1365,7.04153
-1.7384400000000002,0.0,0.0,-2.58396,0.0,0.0,-5.279100000000001,-5.757270000000001,10.702100000000002,8.909430000000002,5.967180000000002,-18.405220000000003,-10.646770000000002,-1.6404700000000003,-0.00019,-29.57832000000001,0.6040400000000002,-0.0006300000000000001,23.474250000000005,6.42846,13.10632,11.766110000000003,-4.3192900000000005,-12.552290000000001,25.166080000000004,15.960630000000004,-1.2646700000000002,38.30382000000001,-5.242910000000002,37.235490000000006,128.10936,0.006630000000000001,-109.34798000000002,120.68966,-0.00028000000000000003,106.26289000000003,-11.298060000000001,-8.551260000000001,-0.00022000000000000006,-14.81925,6.487930000000002,0.00196,-13.648720000000004,-7.414910000000002,11.66577,-35.250630000000015,-11.180650000000002,8.13292,1.6487700000000003,-0.029000000000000005,7.164650000000002
-1.3345653745104518,0.0,0.0,-1.9647497174676927,0.0,0.0,-5.523154732779552,-5.361421238617901,10.036182072512222,9.450609372859406,5.672240831294593,-18.974901420083388,-10.780618419023456,-1.655273921930525,6.432220239549064e-05,-27.821638756015943,0.019958272640872396,-0.0025391698587456098,23.60462296108307,6.594072734932832,13.66133297727335,11.399403874350389,-4.073841929128367,-12.966056583175442,25.327209622901698,15.744441874986308,-1.3339882038838269,38.21719784574101,-4.970507149133369,37.80221578865904,128.42774208025665,0.007468360399389817,-111.4230593637649,120.67588897939034,-0.0009583310400924855,107.46324184490793,-11.319206529982239,-9.49888315969728,-0.0011430491884440888,-15.859385002598483,6.670795689713197,-0.00228434097783605,-14.425253478094724,-7.544374525773024,11.52636919284592,-36.04396142446147,-11.25010378655454,7.953311405875013,1.3360216338246749,-0.16189884760244888,7.119283922473739
-1.8279828534631883,0.0,0.0,-1.7602230149715725,0.0,0.0,-5.1905131037993355,-4.88608191518261,10.193577401587909,10.30931741362572,6.029049243747259,-19.896123238200175,-10.74979556883162,-2.0355499447808483,-0.0002068290762717364,-26.06265945575206,-0.4766336321377916,0.0006965964513883322,23.711366573488156,6.92065160381624,12.95766909318249,10.990580685203941,-3.6143802927904707,-13.082794356189577,25.460432460635676,15.398412185444736,-1.4658021159938852,37.797953257658875,-5.026221517517957,38.07410435903668,128.39089093751335,0.010533141113048844,-107.60395345882901,120.84614755428548,0.00132066972512178,107.07584991625207,-10.941510620617576,-9.394748680539989,0.0001957053847192546,-16.397505533088715,7.0167465112682965,-4.332163048450701e-05,-15.120738582958618,-7.654742236801645,11.252184100599578,-36.76152201264024,-11.252527470886147,7.654237298913557,1.1579487625608198,0.008322502481474833,7.114763341849337
-2.4172558418204715,0.0,0.0,-2.1675559376889866,0.0,0.0,-4.899948106600636,-5.0238641094136955,10.38887257927839,11.315285982645808,6.730804613299116,-20.575349391539344,-10.505139910054309,-2.1905693496993175,9.227871720004195e-05,-24.520278960018498,-0.7650310310807397,0.0004580103434927788,23.743227403511995,6.972279973611967,12.439072032100423,10.720850242158873,-3.3930994464718354,-12.638400985758373,25.56746203447895,15.010039618689175,-1.6179482244857895,37.32746345103267,-5.249430645853476,37.65431399489437,128.1973297986845,0.002980392549985793,-103.51286144315046,120.93373370310157,-0.0012646414617475553,103.19260182105685,-10.237658761526093,-8.82996225176489,0.0006297199959480336,-16.77776254288253,5.915807722152517,0.001439211756484352,-15.821925231688843,-7.575218400685603,10.920142316241773,-37.47326072716504,-11.05720413337436,7.372343634580949,1.0197740077472726,0.027978713933539442,7.4918949916146
-2.203925176458374,0.0,0.0,-1.9936409546426002,0.0,0.0,-5.1015626601082555,-5.648283831539254,9.810300362762666,11.950119799131608,7.0084087745822305,-19.87934913835149,-10.172936291549291,-2.0326449824439403,0.000229025141915051,-23.176214417923596,-1.0009425295670462,-9.122831922379693e-05,23.6477765488913,6.761628620950151,12.82639257893816,10.404804270275926,-3.5152351683935636,-12.775414108119266,25.45816423404397,14.760887408569506,-1.8255424284585124,37.209463997672636,-5.448228868540352,37.268873725979994,128.37838386161195,0.003297601019783933,-104.67306156328975,120.87768752957473,-0.0009486022387386262,99.81687641528926,-10.642375886267551,-8.890935971526057,0.002639621358924442,-17.433320056730686,4.352450030240338,0.0009457735921532411,-16.25916715186073,-7.4741722797082755,10.77982910663927,-37.90998269221705,-10.9119667930634,7.2786198560599535,0.7404976645097557,-0.18833282477776758,7.756672914132041
-1.823903230429039,0.0,0.0,-1.5566849325013798,0.0,0.0,-5.356438256878032,-6.232403312245228,9.10549768866965,12.306319839436393,6.724267527546519,-18.754032001892092,-9.9598032601824,-1.8423833299997634,-5.960743934104231e-06,-22.04246589982384,-1.1323992846499555,7.873552079788214e-05,23.720578012022397,6.652411030881138,13.100740622345706,10.172592200875263,-3.5510184655303427,-13.18299073773587,25.15656110849564,14.905839838498805,-1.6933781770428007,37.19282558684293,-5.614495789713134,37.32691216751699,128.45443196957916,-0.00022061967530584257,-105.90833496691539,120.93788655028068,0.0008057179329559836,100.00071802193985,-11.416197992533553,-8.507033266730128,0.004358439792622486,-18.11728090344134,4.000862785538697,-0.0027784874291167123,-16.418504191630433,-7.536459854015322,10.936977806007725,-38.06622472721908,-11.027343813623522,7.402712258855901,0.4543830794045047,-0.3484735954446042,7.7890343380953135
-2.073184689738953,0.0,0.0,-2.107354627924475,0.0,0.0,-5.326305769105197,-6.423598419033422,9.029389528872578,12.75067247779136,6.469184560103122,-18.193033662784035,-9.771674270975886,-1.7730947862599586,-0.0002211158978206695,-21.119464281140935,-1.184173941119116,0.00034704710782581415,23.837249120121523,6.66665206034862,12.765243728409642,10.0111054536969,-3.3717796262579034,-13.138570248367055,25.16974375745408,15.208353902751698,-1.4182869343655577,36.75970750788868,-5.575125219850413,37.31244594388507,128.21804933536865,-0.0007784394130245178,-106.19049402435445,121.26531053571217,0.003114884635997315,100.75065454447743,-10.918964913667626,-8.2990654179959,7.825119720461926e-05,-17.800024933658506,4.34713234492104,-0.00046872489675416545,-16.719752754031035,-7.819986190278151,11.035341910440636,-38.38339416918224,-11.32683235317141,7.388412289363572,0.11975148575696397,-0.4289201297430876,7.908373737605669
-2.1759865285587483,0.0,0.0,-3.0620385070926353,0.0,0.0,-5.489299885399953,-6.297765023808402,9.077461327878792,12.776585288741279,6.365014725034007,-17.731302796446293,-9.395114807788328,-1.886790557078987,-0.0003079982938231939,-20.10930466680011,-1.1744287738581087,0.00018827178982682905,23.703902011708,6.756322544473015,12.460738068356322,9.691503757315333,-3.1409690690078143,-12.784885897699436,25.29968016366137,15.239843454404435,-1.4992224782572046,36.20310083318791,-5.393421419714276,37.11231743028939,128.184799814133,0.0022567002462461727,-108.05410236636956,121.56956614288042,0.0020878897147616395,101.45481053042293,-9.64572680638193,-9.149934390744729,-0.006038460512335963,-16.960571058006366,5.063987508945286,0.0015127826797595213,-17.43763961653903,-8.314075822135653,10.740062780299862,-39.15228705236575,-11.677886478954267,6.924849078398368,-0.2690590989804252,-0.4989168427260272,8.157487192815067
