PaulMeinheit/Bachelor_Muay_Thai/processed_Data/E1/roundhouse/scaled/JointAngles/scaled6.csv
L_MTP_ANGLE,L_MTP_ANGLE,L_MTP_ANGLE,R_MTP_ANGLE,R_MTP_ANGLE,R_MTP_ANGLE,L_ANKLE_ANGLE,L_ANKLE_ANGLE,L_ANKLE_ANGLE,R_ANKLE_ANGLE,R_ANKLE_ANGLE,R_ANKLE_ANGLE,L_KNEE_ANGLE,L_KNEE_ANGLE,L_KNEE_ANGLE,R_KNEE_ANGLE,R_KNEE_ANGLE,R_KNEE_ANGLE,L_HIP_ANGLE,L_HIP_ANGLE,L_HIP_ANGLE,R_HIP_ANGLE,R_HIP_ANGLE,R_HIP_ANGLE,L_SHOULDER_ANGLE,L_SHOULDER_ANGLE,L_SHOULDER_ANGLE,R_SHOULDER_ANGLE,R_SHOULDER_ANGLE,R_SHOULDER_ANGLE,L_ELBOW_ANGLE,L_ELBOW_ANGLE,L_ELBOW_ANGLE,R_ELBOW_ANGLE,R_ELBOW_ANGLE,R_ELBOW_ANGLE,L_WRIST_ANGLE,L_WRIST_ANGLE,L_WRIST_ANGLE,R_WRIST_ANGLE,R_WRIST_ANGLE,R_WRIST_ANGLE,NECK_ANGLE,NECK_ANGLE,NECK_ANGLE,NECK_ANGLE_SHADOW,NECK_ANGLE_SHADOW,NECK_ANGLE_SHADOW,Trunk_Joint_Angle,Trunk_Joint_Angle,Trunk_Joint_Angle
X,Y,Z,X,Y,Z,X,Y,Z,X,Y,Z,X,Y,Z,X,Y,Z,X,Y,Z,X,Y,Z,X,Y,Z,X,Y,Z,X,Y,Z,X,Y,Z,X,Y,Z,X,Y,Z,X,Y,Z,X,Y,Z,X,Y,Z
-2.87356,0.0,0.0,-8.109170000000002,0.0,0.0,-22.146310000000007,-8.70956,7.719240000000003,12.454110000000004,4.437940000000001,-13.12445,-18.901020000000006,-3.871370000000001,0.0002700000000000001,-6.9799700000000025,-0.6110700000000001,-2.000000000000001e-05,28.72998000000001,19.07609,10.852560000000002,0.13786000000000004,4.320379999999999,-12.864330000000002,21.922120000000003,19.55152,10.248260000000002,42.24971000000001,-5.0837,39.94231,128.80045,0.004239999999999999,-113.38747000000002,122.08569000000001,0.0026300000000000004,117.86750000000005,-14.707440000000002,-16.59895,-0.0048000000000000004,-16.26382,11.016600000000002,-0.005760000000000001,-3.6505,-12.090990000000003,8.297689999999998,-25.771780000000003,-14.284790000000001,3.1896300000000006,1.5308700000000002,6.293980000000002,10.064160000000001
-5.07714070525125,0.0,0.0,-7.692706529785979,0.0,0.0,-22.941451403613932,-8.627361213060508,7.999596416766984,12.181032915749705,4.352513323894845,-13.175381009020375,-20.40396947885616,-4.716699338530273,0.0003315491186381447,-6.873992472102155,-0.5236160342945748,-0.00016056757944512653,29.584524145926288,19.554446905659596,12.663389344735819,0.16763070454513124,3.9929556126682693,-13.128892573440707,21.435540792282044,19.689267851631186,11.41961054472897,43.251203309924094,-5.976705082477188,40.31919111960271,126.96929217213578,0.0029935037974256223,-110.67183816635811,122.16537396288881,-0.0005139274108189895,116.43482401158765,-15.953088121205111,-15.781870206711249,0.0020325286207874085,-17.091281205889437,10.335134648265093,0.0011648176135704116,-1.3182538709729577,-13.21057494057686,7.5609175784716545,-23.563057221399188,-15.050083707140098,2.064583578134387,1.7753656619117821,6.379801058318677,9.85322499436977
-3.641193660676157,0.0,0.0,-6.877319823145828,0.0,0.0,-24.14215565046332,-8.957948710867539,7.60428547210395,11.859691185764877,4.062200367257278,-13.007861031206717,-21.542891228606763,-5.575474116155942,-0.0008436630671576836,-6.668214272307906,-0.040557518412285345,0.00014025611389233657,30.327150015478097,19.760057806678397,14.461456721316473,0.15577146983955004,3.088784357809387,-13.478179081898366,20.77083947756524,19.589876036929244,13.886075084323172,43.82262074967113,-6.471489772453392,40.8083466839583,125.71682917783208,-0.0006250046785368483,-109.19312649966203,122.11486684171771,0.00017728268939521657,113.56603448228984,-13.480502577666401,-17.16387883416176,0.0023573599673659476,-13.258888445237535,9.837661892228768,-0.0041171025499217384,-0.005451440516480978,-13.524629329739842,8.254284708669262,-22.27208193291805,-15.596230099830183,2.5885928770627435,2.6415065055480165,6.083810209489669,8.848913909555746
-3.919170995089886,0.0,0.0,-7.086836907107786,0.0,0.0,-25.18469262970452,-9.534687469506796,5.6650775160170355,12.140619597182832,4.432914897201655,-13.155751786896559,-23.80768338513086,-6.548250358205923,7.288092409206821e-05,-6.744093696491422,0.17416517000948478,8.712199789448786e-05,31.072685478029225,20.36622427337189,16.191528131646287,0.07629605366051802,2.07591834055185,-13.589298766619091,20.926959446124684,19.69359676692583,14.379539548636231,45.00068825714612,-7.374860565962836,40.39297170667325,124.34975098361413,-0.00027938613304713934,-109.14482558844016,122.42509820902214,-0.0026252015522532234,108.86890620607423,-15.088976624030396,-15.854733219457417,-0.0028475454940229744,-11.97760558841224,9.473165735870746,0.0032702648283631608,1.3316976182650044,-13.376310156401134,9.198038939953117,-20.899844451451884,-15.806501746221228,3.52938736608528,3.0624817436373064,5.491652252812477,8.522931625125473
-1.875268312345563,0.0,0.0,-6.141860966300898,0.0,0.0,-25.959260776531284,-8.782419158743307,4.452926098215389,11.569050537143436,4.715132343039668,-12.440379294421433,-26.528141261048503,-8.50784220336611,0.0008212978630627045,-6.332031474074846,0.32797690530497614,0.00010632749069860303,31.694657946096346,21.99734907802905,18.04755210241126,-0.43640962780381815,1.563995536048297,-14.03869806892475,21.492378090738573,19.86672057318175,14.809051406443285,46.71898766714737,-8.538557756664416,40.11021110664899,123.60225193325101,0.0015258091867483385,-110.00648348459002,123.03590758923599,-5.501938015240661e-05,106.02811508706395,-17.993675267492954,-16.24690998121831,0.00011986854787247006,-12.199033051059569,8.352184652284489,-5.19100206088992e-05,2.8829748658995458,-12.941574524893381,9.465739031300027,-19.2958476863722,-15.50252603043816,3.9506458670044453,3.1729685177347573,5.331897428780272,8.425137108184904
-0.7778956738687693,0.0,0.0,-7.1973057334077595,0.0,0.0,-25.637201647999763,-9.524837888432382,6.5301727640389124,12.176276718706616,4.437333027835863,-13.382495932045094,-29.149186225867968,-9.670095802878764,0.0004691612060395783,-6.234779829602505,0.4609365637723658,0.0001797765368977483,32.81263030791597,23.289999849784845,19.808389294897683,-0.5831815209637072,1.1949228327641213,-14.07525921420598,23.195104688989616,21.258372676862656,14.830347235510658,48.48360496958984,-8.536701116173603,40.386220864643576,122.55635680118107,0.00212890125377306,-111.59743392283696,122.71098937438659,-0.0012134841020805902,110.37069604330883,-15.984570422651586,-15.816493948225558,-0.0016146323084928079,-14.359071979395196,8.262064290886174,0.004042234635556215,3.288994579071391,-12.091261815162897,9.595208223138867,-18.79957595191194,-14.76248327732323,4.403813292734976,3.6195597221221227,4.839126662778332,7.7197742811086645
2.2598800576133793,0.0,0.0,-8.073785190956107,0.0,0.0,-25.001018437726092,-9.571414274344871,9.93749897460905,12.498667015979274,4.926293656496781,-13.797815709771877,-31.190576025855403,-9.858232207212964,-4.227996733606809e-05,-5.893161080723864,0.42815827654707095,-1.0767680332474602e-05,34.02247163426757,24.36362484998662,22.567605942324235,-0.44441445816834646,0.8971768977190646,-13.828787524298043,25.25968007541374,22.494049529113298,13.78463706484511,50.11230862925186,-10.000155607668654,39.429125176622435,120.35317597803065,-0.013018254142971978,-112.48167472705116,124.02935974641248,-0.0018806695487754116,104.88805703548213,-15.344340777612215,-15.3248008765099,-0.0382027494360174,-13.426294266382545,6.765551525246272,-0.013091850039096513,4.398438241702065,-12.938637468398396,11.005501806124977,-17.731994259566257,-16.065735626317277,5.3961169614252,4.365675729238873,4.963040518768408,7.25248827858089
1.8124599999999997,0.0,0.0,-6.43672,0.0,0.0,-24.976899999999993,-9.063819999999998,13.70796,12.57601,4.71234,-14.076720000000002,-32.24186999999999,-10.04193,0.00014999999999999996,-6.04703,0.43184,0.00011,34.93272999999999,24.56794,23.851070000000004,-0.5770600000000001,0.45814999999999995,-14.947039999999998,27.563910000000003,23.10583,10.93343,50.13584,-11.895,38.13438,117.71329,0.004490000000000001,-115.04175999999998,125.18736,0.0038799999999999993,106.31048999999999,-13.595490000000002,-16.83373,-0.009519999999999999,-13.501759999999999,6.185550000000001,-0.00931,4.338599999999999,-12.153040000000003,9.70372,-17.75292,-14.85962,4.481459999999999,5.05023,4.566109999999999,6.676759999999999
0.7785601020014281,0.0,0.0,-6.009582291414692,0.0,0.0,-25.28670593863186,-10.191231428592177,13.139551552649202,13.147094594258714,4.656655965727925,-14.815243664965246,-33.05511731496738,-9.888770329043163,-0.00035411049835008915,-6.835003253178916,0.012650441543373487,-0.0001731462532125123,35.517959889871335,24.599003910555343,24.202182784682556,-0.6652536714404038,0.2853993081147107,-15.438591276896597,29.951759639056565,23.24824690522439,6.601841603845576,48.475643863019116,-14.358611009221324,35.17244617133581,112.29392905118199,0.026738866470826867,-110.83858239261681,125.93820469693755,-0.0013154899476827714,96.14356239574646,-13.752532276368811,-12.884610608194878,-0.02130291777359258,-13.595522786392555,5.2956951178928,0.0024024445462030837,4.563797134598049,-11.774938024651707,10.111604840408773,-17.477412426345435,-14.65912155009997,5.010769383580785,5.631764302707445,3.9969781101159945,7.140151280823795
3.3350851377958746,0.0,0.0,-6.531905831059312,0.0,0.0,-27.743203341629563,-9.972466534192643,11.339078930268132,14.29765748726564,3.9182092060497564,-15.843073627379695,-34.002152814603235,-9.93663695127462,9.724097207820782e-05,-7.92138605255446,-0.16861014174275538,0.0004082923484765163,36.652557835245105,24.195983492606295,22.69416441936595,-0.8362611414035847,0.43681395892414077,-16.281642231532654,30.216059487924802,22.720133655342007,1.6810535312784864,45.84376428212147,-17.815177019985583,31.63483940043743,105.38457885708256,-0.037228860543931236,-105.69677699367278,124.02289965412342,0.007477988784291662,99.3586571504833,-15.538573019557475,-8.469169000067339,0.008645747767226224,-10.976346134502668,6.063404242816812,-0.0025802170510071305,4.917067943729264,-11.593999482392809,8.862189954232258,-17.14376226679707,-14.032059428998856,3.9103631488285844,5.850691153021002,3.8211856118247054,8.50243541409083
2.822475858354533,0.0,0.0,-4.81608402816262,0.0,0.0,-27.967322886223748,-8.322313329703558,11.282578843840852,15.481530627895859,4.328546782884559,-17.902147411265993,-35.28717684677037,-10.076699730499865,-0.0008626260981899521,-10.969249740857604,-0.4463549873830643,0.0002497533906752074,37.38658379215583,23.2176972383785,22.126221351102917,-0.07518105928879566,-0.17897574795079044,-16.352769367917396,25.139984730329132,21.390831232838522,-2.2577660038203193,42.708864029190174,-20.137923436182966,28.59965338977119,98.17139304646295,-0.027872571314255662,-98.98215760998443,118.81154942900358,0.024387804024277975,102.70852185302029,-18.018675953745937,-6.017062329607919,-0.0029786784587593567,-10.881866261680187,8.344754110614533,-0.001680125012173234,5.888053718176135,-10.793956683230867,8.5946332234003,-16.107100775751007,-13.191976751564692,3.9687588637179774,5.938711289833141,3.1888428407136695,10.026989492004521
8.221919326229834,0.0,0.0,-4.2445527827313505,0.0,0.0,-25.476908117168072,-9.422574748167987,12.830516276897404,16.494755785686475,3.963500000345073,-19.281498162454497,-38.006906580383955,-10.174786173695876,0.00030695290579438566,-13.265589186313854,-0.052312642261398076,-0.0001812011673985292,38.48935849683284,22.20793861693478,19.94495186079079,-0.1621160610167588,-0.8515220229324847,-16.720239947466247,17.817656860836426,19.50308183918322,-4.723299982144233,40.18395521427444,-18.448486664028145,27.186618391388045,85.9552514250195,0.002393990845934527,-88.25400814772634,108.55002303618332,-0.043529776935627686,98.52091922126861,-15.378018046427448,0.253870326578669,0.0232940476434762,-12.667739865384188,5.410635927658241,-0.013661553366937917,7.33394883920689,-9.71089412434047,8.566300586913638,-14.57086025313738,-12.176995948699165,4.357222577818135,6.127682238097798,2.268569541423518,11.11515174414636
8.138285195214607,0.0,0.0,-3.654947111675631,0.0,0.0,-21.644527938733173,-7.205283120425671,13.860810690111766,16.96242460597541,3.385265918558817,-18.99350526788997,-41.57218222489641,-9.91909695755548,-0.009725198192134271,-14.42294528419093,0.6753064432601706,0.00021939014490350347,40.33087349529257,21.32906589046905,17.145594264586347,-0.6720460769170977,-1.2167740314154836,-18.3729496266015,8.37927747839829,16.660305455380776,-4.316464642408919,42.94757129245866,-12.951870502057053,32.25075260876718,66.60471894587,0.031720286600988024,-86.35338203272936,94.75629183230983,-0.010448103451506787,94.37627459150536,-12.023291231158108,-2.0074477217168876,-1.603413465468454e-05,-11.859715195277959,4.507353968437033,0.00379722641506311,9.110176710935805,-10.745289591399661,10.426539507878237,-12.822021744121534,-13.820001101917484,5.703958927712681,6.853813622629887,2.215655094898379,12.56085319233506
10.853263317242897,0.0,0.0,-3.7995565242537337,0.0,0.0,-18.123140862093987,-7.068662522776639,13.10759367414525,17.532234148674945,4.299242089978515,-18.85950618117362,-45.53654218295405,-8.427007599233512,0.0014985444253941803,-14.181905840059446,1.2711933067891337,0.00018909177281254539,42.255503255516224,19.317663409512537,14.695383241643944,-2.466135447651148,-1.6854109311948728,-20.323229308412127,-0.36204700230020204,13.522947204761163,0.5054131575485827,45.186423719852215,-8.854977187921142,43.54517898093183,38.87579211245167,-0.11185259406383642,-83.18321192086874,91.39446813873053,0.005528558116639551,90.64166205623799,-14.726213271987293,-4.649198143875612,-0.003003355594491636,-6.011499065409284,0.8575362727054572,-0.0030964890657607914,9.903689566239565,-9.87436116526101,9.675462050504924,-11.979204129350926,-12.736256525717629,5.33341651345561,8.67053015049466,1.3185423840871318,15.695559711643279
9.25704,0.0,0.0,-0.8891899999999999,0.0,0.0,-15.32068,-8.87176,13.447549999999996,16.97523,5.55479,-18.44983,-48.200109999999995,-7.451619999999999,0.0010700000000000002,-14.769739999999999,2.1370100000000005,0.00053,43.19178000000001,15.966830000000002,12.089770000000001,-4.09034,-3.4682499999999994,-22.255949999999995,-8.75147,13.901120000000002,31.88263,49.25423000000001,-2.24931,58.816019999999995,18.90579,0.0017300000000000015,-86.62281,98.49407999999998,-0.04144,100.13784999999999,-24.7667,-6.559870000000001,-0.025979999999999996,-1.8885999999999996,0.68884,0.0009999999999999994,12.467599999999997,-8.567320000000002,5.83359,-9.41231,-10.109849999999998,2.24024,9.77277,-1.6437799999999996,19.90734
12.134737447687955,0.0,0.0,0.8668174239005436,0.0,0.0,-15.27138976920206,-8.041055330510645,14.873471713777432,12.536938366722534,6.542994212988819,-18.260134223679103,-49.30020182807983,-6.6247789096886835,0.00053195127057831,-19.377521211081735,2.8418922566588383,-5.080575136118373e-05,43.20097219345894,13.286950395948152,9.911743887795938,-3.8106464084786977,-4.677051520270865,-22.360902437931365,-18.578623413341617,19.50423973310589,74.23238669086334,49.767290091916685,0.44239733634327105,65.56439050112272,17.890956709029943,0.021417554091141905,-76.82950217312772,103.9037126327767,0.035593226060962234,112.37930489892909,-31.141831140266188,0.35765843927018787,0.059530165648436065,-9.759440708249745,-3.615538704478433,-0.03763986702383979,14.38965614081741,-7.956621239305695,0.7291026233614665,-7.454097464547029,-7.661142860735738,-2.2745848192862956,12.61061935566836,-3.688464046157075,28.101833192728318
13.192106906409883,0.0,0.0,-1.2251447350429086,0.0,0.0,-15.410867023812052,-7.186712880433311,16.214352202007117,-2.8681118719765295,9.504926655793174,-18.31433626050727,-46.501520866057746,-6.908748198369073,0.0012802093596298823,-31.391199451745806,2.813708455920538,0.003029971603795035,40.73651375403703,9.656771938641958,4.442450531818101,0.18128960868544963,-5.974650007404131,-23.27865751242852,-21.837285953170156,31.88351352043682,88.37877826328278,45.81499763432127,-5.073784700395339,56.12449751720006,26.584806899504674,0.002596779730977038,-58.766977504602714,99.97014121965277,-0.07151479924052632,106.13234245113838,-18.58351018160867,1.7503656588457899,-0.009337534238365886,-22.520959824597355,-16.870026899718088,0.008089693641601895,14.136033914362732,-7.9718892073707135,-7.475211457367394,-7.386662336219347,-4.668891816632972,-9.873502113610607,16.191274678492817,-4.202770745517171,37.380473478678724
8.138840570928815,0.0,0.0,-18.35178732117627,0.0,0.0,-14.386524520489138,-5.219569316537331,11.171397326323326,-26.539532767830643,8.708118966982088,-4.817076865570159,-41.412358612421656,-3.7532414306909523,-0.001948021410921287,-46.76975543257697,4.404073283844081,-0.0025122832790171494,35.58580359877594,6.781364617188109,-1.1167114583692455,3.0774465562631157,-3.2517668989647057,-26.286213815896303,-20.115462463457245,42.673907138132385,82.50299064743236,36.15312587945181,-12.472923335842859,31.9408696516873,43.57395888229865,-0.04461863590502102,-75.01769380568146,85.62082065982729,0.06460724875341148,95.98704769318537,-14.618946892833602,0.7715256715079396,0.0026071509193860073,-34.10462289055008,-19.513253695182826,-0.010793337582795434,11.320260907315713,-7.634846630497046,-14.141417982771442,-9.64607705254709,-1.9594941495067497,-15.916667545483115,15.278130407068428,-3.55818616093479,35.53666952972152
13.482833848365969,0.0,0.0,-25.755962286650337,0.0,0.0,-17.980500733142854,-3.5869552906589446,3.3138288325362204,-35.88490037520637,6.903181914789177,6.012006978036947,-34.85106138711391,-2.0961066526654406,-0.0005618155470263958,-70.29631580504,11.306152653227345,0.03874450093276308,30.783406191325348,9.566564023870678,-3.1618777723124207,10.406087154920598,-2.542078607184193,-27.128605290034095,-3.546539777814682,55.795939155769105,61.57232946629164,24.342096141470243,-19.911798733784618,7.014666047787263,57.76962384807626,-0.025494889912960894,-78.23147609805554,61.88840005932239,-0.04829368020878312,77.64716697064856,-11.559181714129219,-0.8497312869100867,-0.006739344853821359,-27.90698584937808,-24.722168916980635,0.027112605890363323,6.827694501136932,-5.4446192362227,-21.955153178440682,-13.198684137878132,2.812291348097262,-22.421096605014583,12.459885522063566,-0.985042398549184,29.019748068514676
10.022227539596729,0.0,0.0,-29.532432396310274,0.0,0.0,-21.773649690834397,-1.6298938004990402,-7.4911601753922445,-35.08427613732331,6.008280150776003,0.9066251006840166,-28.976812558741923,-0.9775951961144728,-0.0005103334017844749,-96.1446063499443,16.382081742616737,-0.09276014032621517,27.011681792831435,14.918565667272166,1.3110041193739006,20.39803138714186,-8.352352797911385,-21.177900860808325,27.365245466062802,63.33458362970347,22.99430048887438,12.459508292757336,-26.1948362637983,-7.978861572796173,69.30650813971344,0.058602577143564254,-81.91224016081152,32.772356583254144,0.025302830952150204,65.27319295596025,-17.091183216358772,-1.3923066853892705,0.007955033861946797,-25.564494241105663,-21.32733142754452,-0.06487547272308353,1.466179432650665,-1.8262156378994294,-27.03000270344939,-17.904082014948667,7.925793778720367,-25.98574397763215,9.408306170654146,2.4281577907004697,21.953710296388707
9.702396689727205,0.0,0.0,-36.53114428930665,0.0,0.0,-26.581934580988356,0.05319335170904544,-13.385360386345775,-34.94601150400177,3.967178010710457,-0.28526755777208407,-23.105489540225815,-3.428517085652231,0.0029742830466556384,-114.02014120964154,10.383964528122725,0.003625535667458577,25.599683243558655,20.506619052826455,2.191414736519313,29.921446243358666,-16.860371494759125,-14.075468406368882,64.93302641945385,59.013017830123715,-24.039031361893226,-0.719283767078801,-29.706594403900446,-30.31992849977182,77.77179232118992,0.000450156341743057,-90.52656689261973,14.00318117980815,0.060330905807082245,61.36995987099497,-18.999655240886653,-0.5593597451955211,0.000813521486681642,-35.30376010393785,-21.01693601922335,0.021078218362208925,-1.9531082231884773,1.2398096394270839,-27.755047161196483,-21.37558659383027,11.058604992096406,-25.646881268747503,6.394947557634742,7.700907252835303,12.432418533113175
18.36248,0.0,0.0,-37.70705,0.0,0.0,-33.21904,0.35710000000000003,-14.908249999999999,-34.67026,-0.5991699999999999,-0.6565000000000001,-17.375050000000005,-3.9212,-0.0004899999999999999,-116.01861,4.270260000000001,-0.00304,23.37459,25.772469999999995,6.0837900000000005,34.16461,-26.411489999999997,0.3815399999999999,86.71542000000002,45.21487,-51.65742999999999,-14.9341,-27.256679999999996,-66.55927,83.53503,-0.006060000000000001,-98.16366,14.687659999999997,0.0046,67.77582999999998,-16.05063,-1.96541,0.00081,-31.993339999999996,-28.3122,0.00968,-4.02043,3.3683899999999993,-26.270829999999997,-23.824849999999998,12.56589,-23.48977,1.05196,15.96537,1.36751
12.79780863544341,0.0,0.0,-38.47890445295811,0.0,0.0,-31.787480711915766,-0.11084221093080152,-15.040444544588608,-28.70745061940807,0.972023382181302,-6.600438915260708,-11.98573637021742,-2.64068900787251,0.004448252824537805,-100.16736245890084,-7.462268804275919,-0.020403417727763152,20.515047460844475,29.698287465829907,12.312816585702231,41.809520347372136,-34.97065086109029,9.679800850697115,99.72330265691215,26.105928446356767,-66.02554631650894,-23.874645030842345,-22.820777674147195,-81.03392285837684,85.76603653258188,-0.017723205842678568,-92.81511648864446,16.225384151222634,0.003569943687147923,70.29268305561719,-13.752009098369843,0.1711945216442298,0.0026138461158658668,-37.86561894853398,-24.304400295930794,-0.03226983475099506,-3.053093200555573,5.662339317107572,-27.332010453911035,-22.887509724978354,15.08260441325581,-23.71378147035112,-4.725587311400752,23.88614369646191,-3.3519308204201557
4.294062612696532,0.0,0.0,63.009629777784866,0.0,0.0,-28.51024047615621,-4.906357564219742,-8.588535253918126,-31.27207580604096,22.038920954718357,-17.611363175330403,-5.43122910595957,-2.9665395544559137,-0.0011813322510081145,-61.01513961689199,-18.17619872128947,-0.061710444075156086,14.0305980643127,31.656877459995428,14.944245812704917,45.23083427097002,-45.98144552086623,5.92012903270485,105.20169644412967,13.991129138832388,-70.54377608587808,-27.258127187420193,-21.89740292243793,-87.46895873853587,89.64930680767586,-0.002462149450340173,-102.59824591281263,16.576797674017463,0.002893919268318347,78.22251635109374,-10.851503459856776,-2.429739727515932,-0.014077121791303781,-37.5405974771839,-23.662625156839685,-0.010971093889786319,-3.154286827565601,6.145959447771521,-22.82504863007872,-23.65983773249608,13.989977073411648,-19.194295193693282,-10.068759926578185,30.552498454747393,-10.099600833414119
4.517566724354036,0.0,0.0,6.994815742783073,0.0,0.0,-27.648236504495724,-5.696774899979797,-5.05708616318111,45.91360618921036,4.513190158636676,-35.09712372149677,-0.18237133880491038,-1.060108349796493,-0.002205198146622718,-23.930125346505758,-9.474819561628422,0.04332116082403695,7.527097207452504,34.467764408971675,18.352059232056988,51.72117947351086,-48.9953876188179,-2.4105297755730297,107.95170976174299,6.51264296240794,-71.74413137774846,-27.83179801583205,-22.951505961602102,-83.72194036203217,92.76029841318578,0.0208300394730785,-100.80412771731568,17.264624235358703,-0.010798414957279935,75.50289087543936,-7.299497273717407,-0.6684449808936699,0.0005786168437660218,-36.09917220201388,-19.47370562057804,-0.045625896953132614,-1.5206166056179913,7.114187804602491,-16.879946822771625,-22.736025184822644,12.789901956990587,-13.167682755798284,-17.1000423502244,35.132473927604075,-11.947326021936997
1.0813412127706028,0.0,0.0,-0.7220401988683846,0.0,0.0,-27.50837190076153,-7.361361758557718,-1.4015528033668014,34.615253772574526,-12.601683906880876,-27.9717211754257,-0.6418734499427792,-0.27215436612562477,0.0006477160362683223,-32.183632642446966,-8.857461702466406,0.0222486836542642,5.605025733175127,39.27179946141324,22.261666784943902,66.78685775082172,-38.896560848293426,7.016597274134741,104.6676485801047,-2.1634899105584635,-71.03095941695548,-25.40329554193304,-22.84572781378819,-77.21115392648484,90.85656087601005,0.006002573794171375,-113.25806326513464,16.42769398589302,0.012611856669228557,60.10825941997643,-5.707885539606505,-2.979088910778239,-0.007230642350574354,-30.606120212445433,-31.80212632580603,0.026398132086469704,-0.4588927359569443,10.261521017725565,-11.880811161914641,-22.284262756170698,13.903945070507065,-7.256359780113581,-23.628377480693956,35.34072348902474,-9.98969665984007
5.169771550006541,0.0,0.0,59.08271557076136,0.0,0.0,-24.462705301284483,-7.623401991027259,3.401081958126982,-10.872410340594325,10.244351889304049,-29.0700663739341,-3.88729454838221,-0.5774056568665861,-0.0009390012665890237,-34.98766299931846,-10.454469061834354,-0.021503360327935667,7.910804686525033,39.56407395223385,21.91501363671592,68.41021869601877,-37.012068340985905,9.083879031143502,97.77216684298865,-2.469967656415178,-69.69440203576997,-24.889020053371983,-22.355002434135955,-69.08063324094226,94.39356495647108,-0.017028004627122097,-114.62198049659531,16.462811062376346,-0.008386815011335518,42.113847412274026,-7.910759326362524,-3.017906897971415,-0.005624117342205238,-23.16709180892727,-34.84166606812516,-0.02050951519163884,-0.8812506862101579,12.0130213717953,-7.262201179713895,-23.01379863825683,13.831120276050958,-2.2528933597980356,-22.62934578400306,32.61158112293752,-13.67511472635351
8.723049874081527,0.0,0.0,-32.8058174546748,0.0,0.0,-19.551036596672358,-7.496640201644411,4.946778225912856,-19.813843169009886,20.075521757482186,-7.575221621463221,-5.51228975406172,-0.6728542520073487,0.0001191643160134491,-41.52104887762428,-25.214422170747294,0.028704360486313137,9.553630008522246,35.78022837821862,18.886064150053905,75.66310722257562,-35.200380057852016,4.954864153830006,87.34969591199891,0.6753578230206211,-63.717827771077665,-25.92444485962283,-19.03471932820751,-65.7738845008801,101.5815558869284,-0.02972931118445085,-114.99719537186036,22.729635707961354,0.005840640323178673,41.643518260937654,-6.202330450280729,-6.323951851160976,1.9958710273491214e-06,-24.012568422048613,-27.471304448527132,0.021778649198394586,-1.8093286224411147,9.92938135270735,-4.115276409193242,-23.796129386634124,10.73978973248085,-0.12332734320382462,-17.99755363699052,27.18266908553398,-17.777495949367196
12.139579999999999,0.0,0.0,-32.39378,0.0,0.0,-17.173260000000003,-5.463770000000001,4.08883,-6.5024,20.169200000000004,-12.348679999999998,-6.805649999999999,-1.95214,0.00052,-48.73878999999999,-21.10715,-0.03945,8.499690000000001,34.42113,17.54171,70.25203999999998,-35.12378,14.893469999999997,72.79465000000002,2.3857200000000005,-53.993849999999995,-28.188140000000004,-18.060000000000002,-61.552519999999994,105.95431,0.015869999999999995,-109.92547999999996,28.562789999999993,-0.01559,41.80165000000001,-4.342740000000001,-9.225540000000002,0.00478,-26.79125,-22.29888,-0.029759999999999995,-4.57512,7.49976,-4.73293,-26.40302,8.71333,-1.6176999999999997,-16.374239999999997,26.2857,-19.44291
8.109281921527682,0.0,0.0,-23.235478455926692,0.0,0.0,-12.352116223018808,-4.277767687548667,7.143039519112042,-16.75446135744769,12.302887517067058,-19.486556679998703,-9.230221849945117,-1.0183509905967691,0.001319599882242015,-52.95102649142914,-14.183569714247689,0.0023266724635600685,12.011627536038482,31.046885146317273,15.350206518988683,65.19791041376358,-34.339837347841474,18.081993565866675,56.52247382717306,5.538804247795176,-43.07413175326283,-29.570178115097736,-18.60697858750284,-57.054853166043976,109.09916515947877,-0.01612232500696155,-115.70390866041036,33.090833126269835,-0.00804657158800222,47.21352482131069,-0.7586373953986685,-5.881150659406961,-0.013237377491320097,-25.110512600131788,-21.664219797873756,-0.07662420170136927,-5.867507082151457,6.260795367813839,-6.554703184564457,-27.59492528624894,8.23386748193754,-3.780529331819858,-12.29413767956126,25.816365848310735,-19.634585765104667
9.73791633548294,0.0,0.0,-29.308583766054205,0.0,0.0,-8.830978513891152,-2.9371389142605624,6.588523894708242,-18.299426145338593,8.329741580148697,-21.91602321325508,-11.720611577698213,-0.71040251769558,-0.0007254046330353477,-57.34391190313117,-12.064061624134633,0.006485800860738365,11.765689933523,27.1329901558071,17.93265416169746,60.12896200858,-31.831021174365503,12.604436145751878,42.593536900096154,10.382108621150733,-34.56548741360334,-28.74274180481895,-20.27833870066481,-53.18535418190371,108.06876247954209,0.005995034428625406,-106.69871144823834,38.153983368435675,0.021046683361104986,43.41254206927279,-1.9663187318442736,-2.637198201378645,0.015533326683073513,-25.930883542804434,-20.114466244976814,-0.010171396184501715,-6.134921955768801,5.225007013082679,-8.196055167987371,-27.757727784867864,7.874543453926377,-5.69965783443074,-11.08253803638887,22.718082623191517,-16.629497130039685
9.849254595797923,0.0,0.0,-24.95235893965756,0.0,0.0,-5.850471857210765,-3.0731125421815393,10.023706288860271,-17.30405874113288,10.919175075897787,-25.725192882766393,-14.00463741628145,-1.60459560092273,0.0014832526915427593,-60.0117304174297,-10.89200959899697,-0.0007943347374820563,11.320446541463843,24.224010206924316,17.223815951834723,55.542314114696545,-26.594198477803733,5.743161533581922,27.85952624153422,15.585642926342917,-24.983274651577805,-25.63210695886508,-23.063430900835836,-47.473615893822874,106.20130799456092,-0.0033427701752397243,-97.10211753269567,47.97889434032696,0.03474515748639251,47.167709048779,-5.1040719224384805,-3.461749382179621,-0.0004685789180898019,-18.530413569243194,-18.25251907875869,-0.03127337074709452,-6.5968815174885975,4.308063344126557,-5.692845550477634,-28.254445320057822,6.1022281374061045,-3.7042523270402903,-9.462089719192374,19.100392296828222,-13.714524093062838
13.218620724646895,0.0,0.0,-21.326920414616758,0.0,0.0,-4.917454005406518,-2.1178653911080647,13.955948999741878,-14.190132220386353,10.502393882012742,-23.817109249571004,-17.562697179944927,-1.6855047317343834,0.0007952451950924181,-61.35126508328628,-5.8625271281121005,0.002364415179663649,12.740560266169005,18.63591821713177,13.215560028397551,48.019755511687926,-26.445404462553498,0.2833095114498212,13.496261263648083,15.143607455710558,-18.04463711649412,-22.044511600842707,-26.586316553852065,-44.6711818278045,103.73017072429651,-0.008149024682196396,-90.58903444160414,55.43001692910257,-0.026721663704951427,56.887473269333924,-2.73160063573096,-2.3782941846274004,-0.0009430874475737324,-14.755752239937975,-14.862853853346682,0.02474878116147903,-7.2497633097580865,3.0152812971639116,-7.665285860500266,-28.79643434885678,5.625013590290862,-6.02247404248202,-7.041504913959225,15.782167389640703,-10.554791179642049
18.73035883140734,0.0,0.0,-22.774079435143438,0.0,0.0,-4.5235451922790695,-2.408873973624308,15.554132793612428,-9.611271358191495,7.778590401297852,-30.090020574007966,-21.53141568573199,-1.6437368564199668,-0.005262318406742697,-60.428064184232234,0.47683449423406077,-0.0025674336566884155,14.912431580889326,15.346823417571498,15.490700157176994,40.139167318107354,-22.951296316795187,-4.14744297701057,1.2280607991729884,15.999006557677928,-11.50773857145788,-17.752741891556777,-28.48690673815699,-38.46734464087123,106.40386772434297,0.019240407045467076,-96.93465775439235,63.83311122766532,0.09154491033814652,56.623945934959494,-3.6258289664384837,-5.434227450970373,-0.002547750133464603,-12.841295078705176,-13.555155194211913,0.011106090376491962,-8.482982489584396,3.613767321683472,-9.155680955526135,-29.989799452356937,6.727719081549272,-7.19378356590379,-4.28641954361234,11.313495860713921,-4.605425104877842
15.614851860473033,0.0,0.0,-14.41782892780662,0.0,0.0,-3.3811131345179146,-2.316799669019809,19.86659954843093,-9.066116865997419,8.69348995954176,-28.00768942379687,-24.42622689944386,-2.0446088767295927,0.0012979269886070402,-60.12360419164971,3.2477277350451,0.00024738454917428354,17.512109039451087,10.810587174122928,14.393628035438386,31.807462073564707,-21.558608216585355,-11.68299277381725,-6.793235935858195,16.114366213042317,-6.669106493635627,-11.584543713554961,-31.070257266754524,-30.09921079621291,108.13143963811909,-2.8222188784286545e-05,-91.29498208925088,73.04427858740543,-0.03767055176975367,59.97974349194347,-2.6405772241025334,-8.299250335027493,0.008016311244759626,-16.036840504586017,-13.754478579336254,-0.006927594559768818,-8.105557937522276,2.9883323839001448,-10.622556540366014,-29.509723149276898,6.681319447423377,-8.796465073498345,-1.9488711289945178,7.559568503475892,-0.5877873893580612
19.83892,0.0,0.0,-17.293999999999997,0.0,0.0,-3.9749100000000004,-1.0597900000000002,21.95068,-6.8130099999999985,6.570739999999999,-25.492709999999995,-26.92504999999999,-1.95058,-0.0017700000000000003,-57.75666,5.37344,-0.00020000000000000004,19.98769,7.407199999999998,14.46479,23.60393,-18.196810000000003,-14.97156,-13.237460000000002,16.34127,-1.7783000000000002,-3.881,-32.7119,-21.40424,110.10519000000001,-0.0089,-90.66493,81.92140000000002,0.03459999999999999,65.29153,-4.83712,-7.77979,0.014069999999999997,-15.782039999999999,-15.06717,0.0016299999999999997,-8.80771,1.8651499999999999,-11.048470000000002,-30.14189,5.7904,-9.6068,0.4127399999999999,4.611700000000001,2.94194
19.58026120442362,0.0,0.0,-12.773623970814027,0.0,0.0,-3.031128360056305,0.35220233770334064,23.763827604544225,-6.051946567159075,6.125123703719226,-24.60460389242517,-26.82576579936023,-3.4514450601676847,-0.0015518869846822105,-54.23659146050556,4.710905764549306,-0.005804245251596745,21.671683168853352,5.273743213914654,12.349694599388515,16.91041517224477,-13.425449100613848,-16.519585480416104,-16.49276266055016,15.48908851846311,-0.33236666162492157,4.986865172797048,-34.45887340415444,-9.181303487377848,113.98351585176779,0.009191827043588556,-95.38649510230992,92.41723312367559,-0.017906311827153378,67.356316992017,-6.711353387713879,-5.979900858665808,0.0005439098153412796,-15.893927693518428,-13.240411440060464,0.0016033154108634228,-9.116415820365347,0.6486457858845177,-10.455841514857305,-30.447392088238647,4.441718213974329,-9.496994010719394,3.0619124360531966,2.805428858287884,6.663405652522805
15.555076663506961,0.0,0.0,-11.661783584286404,0.0,0.0,-2.3302148185385563,1.172735133103803,27.99923871573357,-4.791566024112784,5.242564786851232,-25.713522879704033,-25.79853409368321,-4.592102195515889,9.036558884577053e-05,-48.63065945847688,3.6865021557477164,-0.0015447198372070061,23.263981676033247,2.837266232898091,12.808555125940051,11.529746151161538,-10.626013693334356,-16.509052188068893,-16.180150040528744,14.88179540441763,2.09644570411648,15.778841520360864,-33.6350102185851,3.677044374220653,117.61812812736746,0.011566167237582574,-96.49764803651188,100.74408629155042,0.006666664114111324,69.97320980921239,-8.799557900847647,-7.781072096848078,0.018081340468499563,-15.464310882688553,-13.254943361910582,-0.0029236719948441026,-10.222466095970491,-0.5810487717043237,-8.515250217741722,-31.63578497935958,2.589394218893103,-8.135400846892672,5.9125022019826785,0.3914609528448457,10.47048589215703
19.83562872153038,0.0,0.0,-11.585153807158573,0.0,0.0,-3.1378427248372205,-0.26947134006666973,32.48103807228213,-2.2586101093378845,6.192584640781101,-27.626990461552133,-24.093065428797953,-4.699615963170911,0.0008457670506564994,-39.80020230850371,4.280434296659477,0.0031762601266665806,24.256446870041966,1.0907590431830425,12.571585456089947,5.354579818963742,-8.349198014527289,-15.606038081776928,-12.70387552768517,12.853704248683954,2.181482682492835,27.60299656146472,-29.127370472891073,14.99434279805064,120.93677410667331,-0.019799413573847718,-101.71082198647534,105.77577506448307,-0.008423064786615177,77.8832796192531,-9.263270761478429,-7.065412722369006,0.015565402568816777,-14.157015851203193,-11.743129689771244,0.003483035445381467,-9.974146584656244,-2.2328682916144333,-5.237411208367037,-31.52011211662575,-0.1476256742684336,-5.69039002009285,6.539103049240813,0.08924728018985367,12.107562728330425
16.116947768637534,0.0,0.0,-10.065225279062634,0.0,0.0,-3.267641739313768,0.0903058590307099,35.35650340690917,-2.3028872300716516,7.633026776601229,-25.977346084110035,-22.381086809902786,-4.703723471442993,-0.00022411285109027177,-28.831985488651398,2.687186662080599,-0.002757485571819877,25.357526257724317,-0.10297268629220672,13.961626929064447,-0.22150022465555483,-5.599865693035119,-16.27302993990314,-5.853180341320172,14.16516425941776,1.1278534501961754,35.07489941078668,-23.375400326227982,20.48021338671945,122.91401287504148,-0.004168907097562214,-97.38453447187476,110.63373873969385,0.004302354807798541,86.55860376133579,-10.95943941407198,-3.0681775897491534,0.0008118248566887183,-9.19684128072228,-9.34706237426418,-0.020097482387021533,-9.348419013999216,-3.623074531469057,-2.457608342904702,-30.989258617641536,-2.4619688132104804,-3.620113873982143,6.575850678991746,-0.5812447516453325,12.679191823242721
18.023488171710596,0.0,0.0,-5.793436235569102,0.0,0.0,-4.793909093177033,-2.4430206933470258,35.79190575598379,1.4827936215896769,9.473684906628474,-26.75104469174399,-22.35648058743996,-4.00703537466634,-0.0004574009453136579,-19.56297598669337,-0.6009381513360907,-0.003888009336863976,27.966929683898364,-0.8743657668903836,15.228507307135862,-2.8205986968912167,-3.620423760184651,-16.80138741483693,2.6332911147829354,15.394934106632093,-1.12392691415814,39.7778205331456,-16.757853784801235,23.911719378696198,126.44961261092604,0.006099192417028727,-106.13865881517488,114.53672855211082,0.0040888289011458065,91.37359291129567,-11.80390349394721,-7.88343489815201,-0.003997491420202698,-9.102493993060955,-5.185253191741712,0.0038176530748623614,-9.939089418130717,-5.308801222905491,-1.527630805629393,-31.638092342413643,-4.370903886984827,-3.3804994079509254,6.639995736867786,-1.1898972049926284,14.336780941246863
16.400056844318026,0.0,0.0,-4.126353616063328,0.0,0.0,-5.057706855281155,-2.144488579656346,32.21256396723115,4.708876936702935,7.6047941406849215,-28.92572687838788,-22.605796993406496,-4.760552684230225,0.00012748192798804647,-13.614829386193858,-1.9879276516178799,0.001541932359988864,30.669211260593524,0.5188980005360002,14.698561056061816,-1.941366678477387,-3.631589054066276,-15.78736545139282,9.23812217246339,18.251946140815654,-1.5022108709629198,44.3618809404432,-9.868325862913114,28.90343453810329,129.65555379053916,-0.0032802880355996037,-103.68506025092304,115.49736370742075,0.0003633419907495579,92.69204324187567,-12.289396075628417,-4.973671025758111,0.010004878567056771,-10.809990931782943,-1.775458060271329,0.005978843666984942,-9.401674218110104,-7.531174569422966,1.9197632234833377,-31.23681217697115,-7.705142994410141,-1.0098414579734092,7.438452247668909,-1.5174753964535428,15.152399860356525
7.693129999999999,0.0,0.0,-3.3671399999999996,0.0,0.0,-3.3640099999999995,-3.30723,28.82142,8.663009999999998,6.298699999999999,-26.951910000000005,-23.050329999999995,-4.68319,-0.00056,-10.021720000000002,-1.55157,0.00067,32.00799,2.2396400000000005,15.63579,-0.5641499999999999,-5.06246,-17.965579999999996,16.665180000000003,21.469929999999998,-2.3605399999999994,45.78249999999999,-4.14835,33.38928,129.42555000000002,0.00475,-100.91362999999998,117.04328,-0.004060000000000001,96.82066,-15.378529999999996,1.1093099999999998,-0.009439999999999999,-15.190420000000001,2.1313899999999997,0.0012299999999999995,-7.58394,-9.458969999999999,6.592360000000001,-29.514439999999993,-11.2167,2.60927,6.67413,-2.1075600000000003,14.85054
6.713236042778741,0.0,0.0,-4.666602768829922,0.0,0.0,-5.13061751682152,-3.5700277692525364,29.612980527167522,11.10947850129123,5.467907390988713,-24.351125074139887,-22.678375390385558,-5.018490111388719,-0.0002917315796105256,-8.782339979941876,-0.6677765385123514,-0.0007616057738098737,34.01443232812309,4.3526366462321615,16.07899624912342,1.7178662909787847,-5.4380931173638185,-17.18209855284362,21.522283564583425,24.14180871637948,-0.37211025592405317,45.909548562272505,-0.6547554150321659,37.468853969659676,131.59735112419307,-0.003998495774810617,-101.63900830861989,119.81931167065278,-0.009360629618987568,102.72486781947875,-11.867437846772367,-0.0655590935180843,0.005890125641565741,-17.737902494455422,5.109837812375612,-0.011444814688293956,-5.460561658218115,-9.866611568992782,11.28016976086722,-27.27836696405588,-13.317509748508805,6.842507547359432,5.9280882412443185,-1.7366827134031302,12.398433796751307
4.497823846193893,0.0,0.0,-4.176123586282453,0.0,0.0,-5.682790592180905,-4.445752899495739,31.665911993749145,11.452358849909697,5.755015734278609,-21.105448380408653,-21.821711442946185,-4.332313459425331,0.00010009649855321416,-7.157913799666731,-0.6343712008600942,-0.00038857034734362833,34.61124383251632,6.633939639744066,17.774436947421464,2.1747538097744563,-4.191560040613949,-16.261349340041072,24.892728382970574,24.966595800596256,0.5183777551899181,45.821371422157334,-1.563668661723736,41.40506149726848,132.74129632577288,0.0076424281389118305,-97.39733023188167,121.60977116631518,0.0014416171896123118,108.05674231485773,-12.402326066238537,-1.7014979534830896,-0.0019671317283853997,-19.15057826171543,5.868810952229978,0.001956207923221575,-5.0532320426718105,-11.87393827714976,12.538202570049357,-27.005448141440883,-15.640640600286906,7.253840852961744,4.76008036573011,0.01312871751888414,10.940506445371001
4.4396702389551015,0.0,0.0,-6.085748436788959,0.0,0.0,-7.148201458327891,-5.7231545740695395,33.070690832231,10.884011444087854,5.285732421457927,-19.099896661972025,-19.71738683775466,-3.8403630059499894,-0.00010714742306054562,-6.205260756094102,-0.8760557828574244,-8.011146043589523e-05,33.77998975670897,8.693402225385952,18.56965993368876,2.9468493264202054,-2.658849997270081,-15.980148848360354,28.40847361347315,24.246373217977858,-0.6270254523548667,46.47449439739081,-3.6513819788835837,41.82285032104654,133.33605516973148,0.0026931433491345852,-95.62090446633728,122.52070397124822,-0.0014995592991230624,101.21143882811614,-13.210743481911772,-5.896284084578678,-0.011285169941724658,-20.439418806230687,4.038660356256677,-0.004470635107148216,-4.72699795212541,-11.060883403869356,13.496809410248895,-26.54536125874673,-15.236365050465746,8.472645469267826,3.5592113080398127,1.2941183198848254,11.566048180867686
1.641363786745503,0.0,0.0,-5.6691823354029385,0.0,0.0,-7.823527230225483,-6.586679322627933,30.913215534825795,10.416974655617748,5.637025391672104,-17.068186438068434,-18.34052738305242,-3.336668116509152,-0.0001414431287915382,-5.660076602210236,-1.101044720473109,9.42030846541998e-05,33.193850521712605,10.622252738445033,18.43953146946153,3.8701621977534817,-1.426431864758758,-15.767482168621669,30.43031192985617,23.719454873069754,-0.23053388739879271,46.62658399348187,-3.6188709161544055,41.838889285827214,132.17733945619764,-0.004040983776850786,-93.44515371613375,122.73637742119158,0.003915944028189002,107.32271422824292,-15.987963059552817,-3.42957680562395,0.005689248584695433,-20.148330406964433,4.424351852543089,-0.006454517065151106,-5.667270255372337,-10.927337451462707,12.447785040388332,-27.528090030447856,-14.729320196159993,7.5345614209807374,2.956360471878091,2.0151362768394683,11.156899898663841
-0.4856827242944249,0.0,0.0,-6.389365834690192,0.0,0.0,-10.207500368442563,-6.531382636335765,28.494308517927664,10.181357404109752,4.397254431286048,-16.638425763178766,-16.830301164458795,-3.448282377655599,0.0003643481141026898,-5.345203844438899,-0.23118325305957066,-4.470819076887194e-05,31.97534119102394,12.245203521952764,17.441041067580972,3.814221724879476,-0.8299886826199937,-14.592810515045729,30.978777441689942,21.24365255154154,2.0214793545755856,46.77545750671546,-3.9733899860521356,42.343470329621134,133.49337524488342,-0.003211236283334495,-106.34692860303659,122.18927906004497,-0.002756896338720559,105.66697405714879,-14.061156549599817,-9.622253027174288,-0.00048594366808883796,-21.441133428143853,3.2194859080435827,-0.004598317290728426,-6.223725483005288,-10.960437793730408,13.003903564697907,-28.059051821542546,-14.96323769326325,8.046110787146398,1.8750325081356722,2.8332415218108546,9.762050111960455
-0.6871623044876396,0.0,0.0,-7.435034604155232,0.0,0.0,-12.512057239976437,-6.4353091817509736,24.53489653266069,10.045391068903763,4.874531465499119,-15.515510053542664,-15.483809460245093,-3.0410896897663866,0.0005531271718625401,-4.70550442660169,-0.2962915811919775,0.00015169199847589303,31.328702930554584,13.614859954297684,18.40161739045175,4.120750403304209,0.04673448782212658,-13.87442510939531,31.410695498197448,19.74169261915368,3.638607760690155,46.10551968902749,-3.937294535151938,42.45875290300202,133.74582937860552,0.0004790070325296644,-104.896479284326,122.66077366465741,-0.0006329425549420869,112.40337771911527,-13.306306554614446,-9.99710310327521,-0.0036770771114953025,-23.12664771776622,7.6708440176014605,-0.010405512706828332,-7.130073945867934,-10.731049474242724,11.814657059803782,-29.00248104807995,-14.315543625960471,7.013933027456335,1.6659993988738089,3.1567320555854934,9.390136864414783
-1.6912000000000003,0.0,0.0,-7.50676,0.0,0.0,-14.149489999999998,-7.14309,21.47369,9.851170000000002,4.68114,-15.375699999999998,-15.362599999999999,-3.1777699999999998,-0.00034,-3.9628299999999994,-0.04461000000000001,0.0,31.042169999999995,15.060109999999998,18.84661,3.6675499999999994,0.9019399999999997,-13.510659999999998,32.566649999999996,18.61045,3.79635,45.25945,-4.288329999999999,41.80517,133.27962999999997,8.000000000000002e-05,-106.02166999999997,123.47283999999998,-0.003919999999999999,112.399,-13.141499999999997,-12.736129999999998,0.0030400000000000006,-20.255349999999996,7.413160000000001,0.00794,-7.996640000000001,-10.71999,9.900209999999998,-29.94555,-13.6033,5.21995,1.43238,3.6321800000000004,8.6885
-2.7412805308537354,0.0,0.0,-8.226128385293924,0.0,0.0,-15.467592964829771,-7.089269165607872,19.718251807640446,10.425754817893589,3.751533166180506,-16.000880714541008,-16.105811494397102,-3.312986734532774,-0.00047837413618843,-3.4891261002271867,0.8012858630572368,2.293927224979235e-05,31.089626621590163,15.685510257478345,17.279914807110302,2.9368348225882412,0.9578930601673251,-13.353738788763053,33.58923578237598,17.781946219715717,3.229150774391291,44.43172280633719,-4.340889249486718,42.079188059132555,132.99962842734723,0.0009078031605350718,-105.11634239795164,124.4561098185044,0.005466734839766461,113.43566603786637,-14.249704260973752,-13.226584307411397,-0.00056947142956884,-21.288829652507438,7.571586661058126,0.00330192404645084,-7.963928850480534,-10.153717777604673,9.359792882839477,-29.881188958312258,-12.879504094042295,4.9307703151269795,0.791253869877285,3.6631063286529537,7.732224310243561
-1.9649673493495845,0.0,0.0,-7.097428198124209,0.0,0.0,-16.356958169220533,-7.199694571710217,16.733593570388287,10.127527706083537,4.039340766268152,-15.66557921540903,-17.63024245638093,-3.161169283435043,6.452251833060701e-05,-3.27917286529113,1.112527623341682,-6.539640499395591e-05,31.250947771788777,16.74548793028382,17.474329163112994,2.630468325012707,1.236434164946393,-13.899427571567546,33.20158658162228,18.227291880954805,3.078436001276226,44.00802268384463,-3.287394046957661,41.954286314025836,132.720130030913,-0.0001997637477571799,-105.61228214066362,124.61049636161992,-0.00329492092192399,108.93785128331245,-12.840267628440458,-12.84210211681029,0.005335256472015044,-20.86374382504154,4.459999592377399,0.013379144702195275,-8.019845844176036,-9.5739899074543,8.721125933043066,-29.909148699556102,-12.106907467237335,4.554311293393563,0.812298020725964,3.7734410410172763,7.642255849715028
-2.562966363277117,0.0,0.0,-10.346982739028725,0.0,0.0,-16.336905604856305,-7.065382271544332,15.371417049604904,10.35834438268957,4.3194177331339425,-14.28298451839653,-19.423205772988595,-3.2078534558685523,0.00024042549104818302,-2.987158394430699,1.285596194815533,0.00018430007645343403,31.62390880844103,17.822675038195705,17.38845325792972,2.692461872720414,1.7535664391891779,-14.956837418488528,32.63498839577943,18.962263906414197,3.0173163715233935,44.18365001426139,-2.71020133725599,41.8327915598859,133.0207846971443,0.0003295205966330521,-100.1966830434136,125.19218188470164,0.0023071038171833015,114.760289700923,-13.708254490453394,-11.473768899980305,0.00012542987554932367,-20.41401159361728,9.69714064708216,-0.007485306463167968,-8.231913283973496,-9.951384853248541,9.784093965301384,-30.117476970227706,-12.847610311803333,5.405799412818536,0.8505347551511806,4.099452730080336,7.763824646174109
-3.4271084286903686,0.0,0.0,-8.613137244996384,0.0,0.0,-15.014441230284719,-7.225481497924099,14.442597832242187,9.887616855455715,4.263914386922403,-13.560079388761327,-21.178052668569276,-3.28254249885663,0.00012281036214803194,-2.6001541899232685,1.4006103716526144,0.000280825126716832,31.552832199748618,18.011420588164402,17.235682165705782,2.3478196279381964,1.9965729019888692,-15.23930799925717,32.38871040835947,18.77185919591634,2.639960887732334,44.12049440165876,-2.564559707869211,41.452075568898934,132.7346920115977,-0.003782809058733899,-96.9302083816026,125.49556718893122,-0.0023588539597748986,108.05172213567062,-11.939256705177337,-10.80233271578632,-0.0032888245922579073,-20.28208146928873,6.343102393072925,0.008639302771320407,-8.278363980157629,-9.611340196118025,8.71647728257038,-30.17078061312326,-12.139852202278025,4.53571759914666,0.973955389872817,4.239215575360702,8.226564804287635
-3.7151298589013138,0.0,0.0,-9.689359326406061,0.0,0.0,-14.289463333477457,-7.5208115764077315,14.761880293712382,9.750178013055171,3.9157943763726095,-14.3158295726484,-21.128855664331144,-3.789185557059983,-0.00019831906439889152,-1.9512963759759028,1.4181618189854015,-6.605034991794429e-05,31.111843496007626,18.539236007292963,16.841894830098617,1.972426295774255,2.7705851954935174,-15.152347510756725,31.88456888705718,19.199126897526117,3.0896445156776813,43.519711307661765,-1.452845408685234,41.476090449504326,132.54298088192775,-0.0002979221996891878,-95.48404364177561,125.59868636938816,0.0004859319157987237,116.7292526811672,-12.862888619776683,-10.374529164025287,-0.00044094219547538343,-21.178774310761703,10.327603077228275,-0.003314298847063506,-9.012576427477477,-9.61235222137302,8.569479331399613,-30.909392268887284,-12.086739198138345,4.397787112594078,1.3769863997751808,4.806745965287512,8.224224486505147
-3.1484551695960965,0.0,0.0,-8.316003225310874,0.0,0.0,-14.392230180591163,-8.964401144476614,15.92603403594033,9.400358611334234,4.068812977601038,-14.121372950632459,-19.37097983062621,-3.928667344623433,0.0003519084496857884,-1.5074850985440187,1.1048383075296162,6.76672740106671e-05,30.089289316638606,18.57803313706043,16.15522664327968,1.4183795417396827,3.3617734515638196,-15.164506518974152,31.476205436639532,19.19528165062726,3.3210350784195146,43.811557803363755,-1.4313472607803113,41.84408194504666,132.664985599995,0.0020648068177262203,-98.48852294313728,125.61048629503509,-0.002404022366484845,119.01665248658944,-12.915733724921067,-10.566887646533834,-0.002994511760613806,-22.17688931143651,10.791544830195694,0.013757934308967469,-9.752468203538127,-9.2289685250167,8.710755984872504,-31.61487150697154,-11.782916516988832,4.676012029796072,1.42624762112803,5.283732063458434,8.219537230602318
-3.37107,0.0,0.0,-8.35202,0.0,0.0,-14.36344,-7.088329999999998,15.765940000000002,9.34678,3.1872599999999998,-14.48488,-18.72264,-4.1301000000000005,-9e-05,-1.5138700000000003,1.3636300000000001,-5e-05,29.86472,18.790380000000003,16.26305,1.1809,3.9249500000000004,-15.28853,30.560680000000005,19.0359,3.9800699999999996,43.85204000000001,-1.20771,41.85461000000001,132.86036999999993,0.00114,-98.88464999999998,125.25319999999999,0.0023200000000000004,120.38162,-13.14399,-10.505649999999997,-0.0006000000000000002,-21.581050000000005,11.089199999999998,-0.00033000000000000005,-10.01896,-9.76374,8.638329999999998,-31.92596,-12.25251,4.404439999999999,1.8780699999999997,5.99039,8.016199999999998
-2.6245055760090836,0.0,0.0,-7.896161482848282,0.0,0.0,-14.44402571807956,-7.614361869124247,15.683885025113923,9.878929289383123,3.6250350759344867,-14.557316839740807,-17.595490122118026,-3.634986149119499,2.6064486115984394e-05,-1.911344204561441,1.1412025814932345,-2.3686662923663087e-06,29.30632473381191,18.484279406421606,17.14183122114365,1.2840153806286123,3.9934421072005515,-15.02959621720064,30.272231733692635,19.3737142310312,4.27088711785628,43.4830850148556,-1.4584535223039343,42.098766840286764,132.9409856437182,-0.0033653248689045983,-104.7931068147639,125.32861552821277,-0.002278146753730051,124.31908969290187,-11.470890579921715,-11.805199257150097,0.002083652030772108,-22.21742762303299,12.378209654169515,0.004416683505339224,-8.832066197050214,-9.414538827655502,9.162437706485688,-30.69469863482797,-12.12111157381786,5.028208281576461,2.1879113774635144,6.107818160094104,8.343223741760834
-1.2434932496370976,0.0,0.0,-6.340906603058248,0.0,0.0,-14.54616318421263,-8.109447821496465,15.589092124691355,9.319230602126115,3.4926355227043517,-14.539426336946851,-17.11233218358009,-3.5271621939720323,3.0937001343029826e-05,-2.092912405692432,1.1302749169530817,0.00010765885194585184,28.84273587228567,18.501092318532194,16.924737424482583,0.9808824981859755,4.288329727129961,-15.301880962137622,30.10139352009484,19.351257323413126,4.322272206949107,42.062811180369295,-1.5963460067844377,43.388313954388785,132.5054414277938,0.00038888983204141104,-104.14076954058946,126.13688326487365,-0.002087165920618496,117.99501798166077,-11.580789903819106,-12.065384539990749,0.00047724226407348444,-22.437957927261166,11.440841971884643,0.00019162806761716025,-8.693387909901983,-9.493449983268636,8.523269748019333,-30.582099862156827,-11.959431367853712,4.3998860369006065,2.5394063911375806,6.5420518573076105,8.104303033424614
-1.7129727423586376,0.0,0.0,-6.651525915173748,0.0,0.0,-14.831420567686735,-7.470889174994109,15.651841036791614,9.681538137913725,3.7804030736581007,-15.111035050995643,-16.636539946894008,-3.7073960095140355,-0.0009808700325517454,-2.4620636962406377,0.790852983080956,0.0002204293215507255,28.87348937735259,18.342284817203232,16.630508819830347,1.380886056741398,4.372366511423512,-15.011528677853862,29.62878640455861,19.748441781964377,4.294211573348409,41.541052825667414,-1.768462869304768,43.79271361324541,132.343991906913,-0.00015177589610287868,-102.69589269520712,125.79988622350292,0.005971478057617151,120.30421866739866,-11.998530472563932,-11.650695096402242,-0.0001606459707360355,-25.210450415198277,13.049489432356891,0.02622739708145625,-7.587662392639457,-8.919271699042893,8.79512517249923,-29.423646955642752,-11.526456220869386,4.872641678298609,3.1198150658815194,6.184429140499805,8.370614547746888
-3.284053514966648,0.0,0.0,-8.691772860388541,0.0,0.0,-13.971700290766618,-7.862807034862739,16.95031036102231,10.240801797457054,3.917510729323433,-15.65472452582477,-16.07309503639677,-4.6367115597844,0.00020287267521214,-2.9610781491610196,0.4397962228410203,-6.807118575664964e-05,28.45352831607396,18.867619535599722,15.347882211122592,1.8521550631560026,4.595883204149699,-13.943263210422993,29.311221599092363,19.881387265603138,3.9124528004804433,40.8014994653605,-2.267658181679554,44.77477083296463,131.8984688647729,-0.00011400962530318824,-103.51431189113443,125.38052246364413,0.0017221663422475229,114.99545249202869,-13.527930398139507,-11.210956732407213,-0.0019656169243561696,-26.260700664054063,9.791440530373855,-0.005526117037835931,-7.771696915551739,-8.622410710782953,8.584423180499261,-29.592200828842184,-11.17346457469426,4.788068594087039,3.478199845179633,6.571500814005119,9.208826567584028
-2.5830379180789134,0.0,0.0,-7.365081950689161,0.0,0.0,-14.274279284937641,-7.695506367569537,16.369463662546693,9.929816278308573,3.647559383756232,-15.849721680542437,-16.397832355904793,-4.6433457249569425,-9.366751721594647e-05,-3.2388114204604204,0.30531676998078133,-0.00011290257422261695,28.625111697934162,18.93838110066539,15.415110146815177,1.942080781523017,4.6768460238496585,-14.029600656869903,28.894561921379555,19.572131351247332,4.465215363019658,39.69681883979555,-2.8031648909986537,45.43311996250554,132.1197125140398,0.0005571258168505267,-104.10159787272195,125.48743590797676,0.001719511821383942,111.5923372494813,-12.82477457529669,-12.229103001962104,-0.0027600799356721386,-20.405454064293043,9.106912570813215,0.006615995235272021,-6.992970489091905,-9.034191727484199,9.052205105119887,-28.829363878368525,-11.727583244070612,5.069655302018916,3.673065430209173,6.628336521430588,9.116462005214432
-1.2967891261389788,0.0,0.0,-5.75836404009884,0.0,0.0,-14.907632210441948,-7.988749559518311,15.248227474055156,9.830732501934243,3.683147678079721,-15.721897108513728,-17.04283529528788,-4.4683384315086805,-0.0001481442003293594,-3.429525935318767,0.2809932661636055,-1.2669874263267141e-05,28.5310014476092,18.921548915718965,16.051780580834293,1.4562148613311376,4.644505347311423,-14.406875896512775,28.534809558147046,19.699911388594657,4.903021256249287,39.07292316915022,-2.944828841859558,45.65309110439574,131.9204504661854,0.001238885033408127,-105.28384962415683,124.262144107718,-0.0017103682747055323,111.06235465442074,-11.509168555207868,-11.242284583119309,0.002672342666799776,-16.461394870872347,8.3475110915129,0.0030548457166150148,-6.258164812785367,-8.775382852207704,9.096609380906527,-28.07327929180816,-11.503647444856359,5.2094668310612064,3.239561622947393,6.707430273602775,9.03376335941715
-1.61667,0.0,0.0,-6.1549299999999985,0.0,0.0,-14.813779999999998,-7.91187,14.912239999999999,9.91306,3.63756,-15.869179999999998,-17.707510000000003,-4.607009999999999,-4.9999999999999996e-05,-3.6148499999999997,0.30811,2.9999999999999997e-05,28.927379999999996,19.3554,16.44153,1.50953,4.919320000000001,-14.547329999999997,28.36201,19.807440000000003,5.604879999999999,39.11226,-2.8851700000000005,45.350440000000006,131.82977,-0.0006699999999999999,-110.31275999999998,123.58428,0.00047999999999999996,108.81928,-10.075889999999998,-12.94361,-0.00021000000000000028,-19.523550000000004,8.349809999999998,-0.0007200000000000002,-6.29601,-9.06384,9.13233,-28.13201,-11.78455,5.13341,3.2907100000000007,6.97242,8.91162
-1.9332964986163124,0.0,0.0,-6.973515301369709,0.0,0.0,-14.565321301508018,-7.450486182780087,15.690940246632774,10.091894308659521,2.7684920362589933,-16.00667832983985,-18.27772270575905,-5.1167969877747215,5.80538458116789e-07,-3.5246129956709225,0.2625182883049664,-1.639143692622431e-05,29.331043137359657,19.94332359268054,16.1160098305047,1.6309259941641483,5.328585768277764,-14.30116948623,28.37434008127923,19.632335748663625,5.468096584625544,39.100549833521704,-3.1316973012211373,44.334902214891784,131.40990671260082,-0.0004622279171417593,-110.45573184811114,124.3734923779802,-0.003066278534399757,106.4893299326879,-10.373490851414564,-12.570103691964384,-0.001633254136163575,-18.91952658261049,7.750125246950005,0.00564444836061877,-6.370294958821136,-8.682313942377661,9.518904574499679,-28.16332302624052,-11.572277212032768,5.640282068836627,3.4803069531311683,7.256317272979078,8.822408766671064
-3.24936810910183,0.0,0.0,-7.641995362604703,0.0,0.0,-14.261242237405156,-7.770966870092082,16.166222653777314,10.25436449518826,2.7137307113327678,-16.236059621561154,-18.790316370936257,-5.288294563049167,-0.00034167691031983835,-3.7437202980332507,0.4071089912601255,1.98300481603615e-05,29.505213268221553,20.455706279407217,16.045505192974872,1.643468791028876,5.530038813942642,-13.964143822358489,28.28585220849763,19.972656904817594,6.032152027901678,39.88882622631095,-2.8692609614856215,44.17087035979169,131.40448008553903,0.0006792433596644229,-110.59236594404122,125.00214132581878,0.00032621297357763316,109.60068388083211,-10.463411709328927,-13.159205901569369,-0.0009554112946511837,-19.571532758574243,10.473322739062402,0.0027588783899956952,-6.402507038666466,-8.513682214950059,9.69210589388049,-28.17624801048417,-11.479231189981935,5.866446360485186,3.14328889779606,7.4413669310708075,8.737812701236454
-1.9644965284643392,0.0,0.0,-6.908119640831936,0.0,0.0,-14.795518416504194,-8.443746521865076,16.06731583889848,10.36771657702927,2.7530835383975307,-16.04665560780687,-18.767762403583692,-5.173409025012935,3.056654465109749e-05,-3.9941352136469783,0.5437562994717576,6.667331031175232e-05,28.923024157925465,20.57575070423544,17.269420063500124,1.3405822902386637,5.31102594527807,-13.721063979808397,27.93292493240419,19.733609739331328,6.361764244672556,40.88740523656589,-2.8383157483866395,43.93238162189736,131.77014114242434,0.00031072550331487516,-110.29568777274,125.06090614660029,0.0013371851474836243,112.05823173206014,-11.014440792909904,-11.569067332565888,-0.003043570328836955,-22.078682474784074,10.234900242291655,7.700841486525762e-05,-6.504771162714965,-8.635585920642214,10.639015512620494,-28.248817136862122,-11.93955137022031,6.708388159999453,2.5563602150609026,7.352736709299546,9.05704444653196
-2.127031655479107,0.0,0.0,-7.657555784179399,0.0,0.0,-14.918125680830942,-7.477833442297793,15.573392726494076,10.788835978438703,3.150150134125968,-15.267011237956503,-19.294533080421168,-5.013593328042354,-1.1264677739030471e-05,-4.058037464209226,0.4202620242088496,-5.044583088612811e-05,29.332569592967637,20.985145154973562,17.752173245312505,1.5858678198417682,5.562858517366942,-14.39199188322687,28.046331126498217,19.523028622785368,6.429392009598838,41.39488041334418,-2.8990911972652684,43.276902038681506,131.46915200353223,0.004935956433476994,-107.04761482165121,125.5450539341796,-0.0029873776263749413,113.82380008590128,-10.971752372564271,-11.414198597494194,-0.002968355732221981,-20.510686663729214,10.371744883259971,0.0006669079090791598,-7.512815161827569,-8.89791353824673,10.23229360185987,-29.294786546087373,-12.034146565418075,6.227316340666485,2.528886969745018,7.625117887446438,8.949010707088888
-1.6533175055490772,0.0,0.0,-8.455034983851164,0.0,0.0,-15.269887751335794,-7.40510742179114,16.82130828591268,11.236449683920648,3.495537063119721,-15.20003375390461,-19.051337959628047,-5.672960087795714,-0.00014525292769341965,-4.152930077380066,0.3200560429156408,-8.44788837077896e-06,29.64732781680747,21.740974758504194,16.627597327636522,2.1652929381640105,5.996143265124605,-14.368557769637262,28.1287209007793,19.727543028798113,6.5278725784299585,42.140480498779986,-3.0598138888601234,42.741676781192126,131.84542794016662,-0.0011029285056552121,-111.46760935794508,126.07427318296823,0.0026125553395223316,109.04011524387634,-11.690049467365064,-12.687165339026329,-0.0029935321745790744,-19.611821161233568,9.429184980902972,-0.005173222505234281,-7.075610846860577,-9.553579568000298,9.888645444978966,-28.924022607315894,-12.516807039033267,5.655687373970454,2.511814427473781,8.026008896684814,9.527470945720681
-2.405653497256721,0.0,0.0,-6.672283335578187,0.0,0.0,-15.568415103493665,-7.837922288860894,16.1570073591282,11.243300288272431,3.346072024726773,-15.007318750075267,-19.05851652214807,-5.42166807776021,-3.7248778704420756e-05,-4.02428780856395,0.48713548144615026,-0.00011616686460755131,29.726165723079205,21.838376762698903,17.121684758088843,2.283235553179401,5.847272204665139,-14.731708486561594,28.05799818861308,20.01911241163022,6.924915328837326,42.91106792646176,-2.4477132313648697,43.01006466953442,131.7802900470117,-0.0002992575221876556,-106.55936033419292,125.97166401397209,-0.003320197047740869,114.38311568192745,-11.869523994278095,-11.044313030988397,0.0005140438579110334,-19.966194318836276,11.179438830270184,0.008359499439093867,-7.205826575856976,-9.219892499374007,9.628486762231026,-29.03671914837409,-12.111593564453504,5.538876657407129,2.450427765674144,7.7804244390877395,9.383026860523678
-1.02099,0.0,0.0,-6.331429999999999,0.0,0.0,-16.236969999999996,-8.58951,16.535400000000003,11.804460000000002,1.74667,-18.331639999999997,-18.49728,-5.2154300000000005,-0.00019999999999999998,-4.376709999999999,0.25576,0.00011000000000000002,29.08788,21.820199999999993,17.7363,2.3475599999999996,5.487980000000002,-15.337529999999997,28.087140000000005,19.97264,6.97959,43.044079999999994,-1.7836600000000002,42.63226,131.56181,-0.00063,-104.19266,126.16405,0.0002199999999999999,111.24605999999999,-13.302080000000002,-11.012309999999998,-0.00207,-18.622930000000004,9.289110000000003,0.00503,-7.752669999999998,-9.468950000000001,10.606430000000001,-29.565649999999998,-12.701499999999998,6.361319999999999,2.1887700000000003,7.444789999999999,9.807490000000001
-1.1906011886615893,0.0,0.0,-4.552070712792277,0.0,0.0,-16.4015616334569,-8.833376660307591,16.84250281759135,11.761480459873452,1.255211139595464,-20.616010973048574,-18.078485130700813,-5.070465954499988,0.00013243789030903486,-4.79501458962649,0.35497613249896154,-9.755537014170983e-05,28.778507140302118,21.793457099629723,17.962796087428607,2.694632640888296,5.048344433960903,-16.277054507510023,28.382711121227416,20.19106635637772,7.54258738395153,43.514240753261305,-1.5661782948056788,43.01600554987486,131.35413646034758,-0.00218028598628432,-106.17899917771254,125.96406571382215,0.0007756291479791282,117.31324122381531,-12.906408662666191,-11.90371466619613,0.00054440910434626,-19.057900145111788,10.4812912741449,-0.004807956010146495,-7.307795274515705,-9.474178535205757,10.909184870459537,-29.108247216556666,-12.817293326257037,6.643615404816112,2.0810207716976947,7.180128053969736,10.127682481344952
-2.7281239421118233,0.0,0.0,-6.03036749523275,0.0,0.0,-16.831874239702675,-8.193899266005435,17.327018387884007,12.190156358579038,1.2840013619531307,-20.847019233328368,-17.441121382540857,-5.151784368774841,-0.00026069243695155624,-5.56204886199432,0.19487217410678928,0.0002002700663989739,28.614143880245432,21.829767432246545,17.679014316052275,3.3670022016147345,4.921307789361572,-17.332911212519267,27.39207401384196,20.223874938645363,7.868169578978901,43.91322334092162,-0.9637560324374707,43.752598077376724,131.83242936599783,-0.0002752993520869746,-112.49566446022101,125.52485590793282,-0.0003522312358233817,115.00679294507486,-11.294867421395683,-12.538700727570832,-0.0013201481526251195,-21.948481474480353,9.29993842092192,0.016076735764278073,-7.54665297500592,-9.594330402140432,10.56109540183236,-29.372063993104344,-12.801280734430694,6.270988544433688,2.557773844518378,7.024882362501342,10.144970451384342
-2.8109769268970823,0.0,0.0,-5.893751595757005,0.0,0.0,-17.68937836884006,-8.320361441132668,16.95977500649766,10.75595787901383,1.127603727273073,-21.135809177282297,-16.767717039768367,-4.370145543877648,2.8856106293217564e-05,-5.924356975116785,0.30960943374475036,-7.68933412110104e-05,28.44995498746298,21.311946722199473,18.09442736422439,3.681997427351865,4.6281003407183965,-17.78612119511965,27.257607078875086,20.733794785047845,8.471899977583725,43.880418036976984,-1.2179661123175558,44.23886099730876,131.97906085246967,0.0014374307068566142,-109.17059369469744,125.51106188544708,0.00033259022375663135,117.26002581649533,-13.571439293483063,-12.061292545973183,-0.001269767619511973,-21.89329797699467,10.381520023968617,0.0034575126457629273,-7.335573176273476,-9.820580038382175,10.983947680976595,-29.162466828540218,-13.166273910268838,6.5817316109650665,2.4878901593706457,6.593124138433519,9.951547620783806
-2.7102146734787764,0.0,0.0,-6.673401606540268,0.0,0.0,-17.66152382154973,-10.152276891205897,17.344546647949432,10.848741007239344,0.737655598123254,-21.60987194615432,-15.975169787623846,-3.9082591036750394,0.000509935515492976,-6.114445695234192,0.37474089267652405,1.324728614876695e-05,28.20339314526614,20.87911475540677,17.730376496857406,3.726187077597139,4.576717737339708,-17.707478492786716,27.512234235797614,20.366657396429375,8.310797407691114,43.45192934676157,-1.6583042864231314,44.56338592573691,131.6876817240213,0.0019415042918954771,-109.40427195275397,125.6462860301481,0.0015526051133248476,117.87027869333593,-14.379417771870873,-12.478998531576108,-0.0008733839892167502,-21.20792221341496,10.790484132790178,-0.00012335521533494073,-7.291755768780214,-9.924353914161712,10.808742159267503,-29.13516750573496,-13.1984088321522,6.377531558178301,2.4230564114544766,6.594313857193788,9.878111673123708
-3.883944321240286,0.0,0.0,-9.382649002114743,0.0,0.0,-17.983860228079585,-10.013631544450678,18.415890955068942,12.17812496149104,1.7218003993516493,-22.617896502689916,-15.111516289184344,-4.076011789940255,-0.00021933478741780214,-6.245688189341849,0.17842188008749646,-0.00012568531554200477,28.327378193112686,20.57477717489841,16.069428019014335,3.92339638791343,4.812300090338955,-17.218751013493023,27.89845451508585,20.34693240051156,8.00720251465652,43.50741053249256,-1.7353461880593555,44.70253042140214,131.4198377062255,0.0005035490779340929,-112.42402492154163,125.96452796025014,-0.0016247257296595331,119.60481080544548,-14.85293176596543,-13.536868732965754,-0.002400981287957964,-20.34023046621515,10.93404662523287,-0.01063136881487846,-6.6656964347927445,-10.086484906136338,10.506450180095976,-28.53567914857995,-13.238055621161484,6.031709798647261,2.6806890221355126,6.465777484168698,9.845893645230033
-4.4734350092191475,0.0,0.0,-6.709742961672055,0.0,0.0,-18.467787739050696,-10.087315506538925,17.77247145037414,11.726062102381638,1.9515158616169983,-22.50015430779961,-14.121727236603254,-3.7655079673513803,0.00022313794760053945,-6.673995674753664,-0.18874917858415433,0.00014583746879718386,27.793430719740343,20.363513972180424,16.665021292113444,4.076196927400912,5.054680771094974,-17.7295898756422,27.591613397237598,20.407191810832956,8.156364538562595,43.21380480281051,-1.8998423074792439,44.74653217444304,131.95266215654758,0.00040224704567778317,-111.57844089142722,125.68622945594012,0.0007665490890186725,123.90753826584088,-13.343959183118344,-14.517649001379457,-0.005504636509942796,-21.416371551399973,12.212611093546032,-0.0032643663737961,-6.240063179154757,-10.411350158654535,10.46673954496435,-28.14040558437314,-13.524934392139997,5.869973354876146,2.7203577715668703,6.162424782302585,10.052157770419544
-2.64251,0.0,0.0,-5.869419999999998,0.0,0.0,-19.55243,-9.72119,16.418249999999997,11.613560000000001,1.69447,-22.21021,-13.86545,-3.1074299999999995,-0.0008,-7.006059999999999,-0.29749,-0.00028,27.65126,20.32409,17.530000000000005,3.90008,5.495889999999999,-18.515879999999996,28.219299999999997,20.26691,7.952000000000001,42.60416,-2.3146800000000005,44.95906,131.49596000000003,0.0028900000000000006,-111.3778,126.17389999999997,-0.00116,118.41781,-10.794259999999998,-13.2654,-0.00486,-22.64721,11.27737,0.0035299999999999997,-6.462189999999998,-10.631279999999999,10.55603,-28.378989999999998,-13.761750000000001,5.869329999999999,2.34561,6.332319999999999,10.05414
-5.238237948784199,0.0,0.0,-8.143350380188503,0.0,0.0,-19.889735909564386,-10.759172883989155,17.722120295218783,12.673440547129402,0.9525895012307579,-24.059642550009954,-13.120047713589313,-3.2663841103389526,6.30761005844565e-05,-7.311887995207468,-0.17147324202102074,-0.00021779072964052678,27.868881912832382,19.757507042515186,15.179651365785581,3.8070191120140793,5.754611340540661,-18.345616038575976,29.11071090460743,19.75371021578635,6.490610715775534,41.845968979676194,-2.7183620558319253,44.89847690368815,131.00811810497552,0.0012516486765002922,-110.76826950245972,126.46008031023294,-0.0018787235850431974,121.9377204677421,-12.28763972710818,-13.481138244276686,-0.001105009665531506,-24.344097234206547,11.329968639210321,0.008979001433352795,-6.6215213738753285,-10.399515229780773,10.462268525497548,-28.520981050486018,-13.512315816781644,5.870317695253991,2.1247714049829014,6.00661761021664,9.651749802468382
-6.787374702058822,0.0,0.0,-7.148298875439155,0.0,0.0,-20.483066843786336,-9.946957243730404,17.07322690375845,12.784899228508763,1.1827894407874133,-24.598299955219595,-12.526525972681307,-3.2787362397366584,-0.0005483951560475231,-7.737012838007651,-0.4861652531198485,9.222756398356688e-07,27.617206045815546,19.838629453867753,15.799376474494983,3.9613845134300374,6.13024180267165,-18.381018724702813,29.15157477732237,19.88731979243896,6.203326992700811,41.8093375117871,-2.260542873612258,44.96203369691375,130.551491784937,-0.0028333443439102443,-113.38091107655244,125.88913105854071,-0.00149706458659657,125.91225384670618,-11.797018577972642,-13.726625426915945,-0.0012945490340593377,-23.703292280776264,11.926903109410905,0.008796849437996778,-7.7398094803936255,-10.446700229227565,10.719488951925378,-29.63333621015223,-13.650444491872943,6.093687747259864,2.009293224192115,5.7756045036204,9.710425906519529
-5.16797466417725,0.0,0.0,-5.821304964056145,0.0,0.0,-21.93875488508967,-10.578960899855645,15.92114684370863,12.479309753403516,0.5547203114108328,-25.1520502813465,-12.29591113220599,-2.754053821159585,2.1657081279958204e-05,-7.653898533304427,-0.19166003359850392,4.797440053384274e-06,27.34134556898197,19.36177658988735,16.3176169451366,3.163540449640633,6.258939840177495,-18.98516586074861,29.892938463703008,19.96028170940889,5.883550801012766,40.79493807490131,-2.9306584405407636,44.7420723876174,130.0362352288733,0.0027350548619327134,-110.56314796029169,126.45772082536365,0.0020583657745978944,119.15203985810422,-12.255207738784513,-13.058826785228192,-0.002141121026664198,-22.069994002282574,8.732918598230746,0.0035760360397900947,-7.590453479171071,-11.032227550064407,11.17565082421913,-29.519777817394402,-14.360914597490684,6.2970213789892355,1.1763975341246944,5.647769279905483,9.523476640876023
-7.434793478277009,0.0,0.0,-7.986329383799761,0.0,0.0,-22.035708762361324,-11.297818289407253,16.627329783072042,13.293146990755789,0.7510024118785071,-25.699946459650754,-12.167317649292018,-3.1045769230778557,-8.21801082698277e-05,-7.790946508518433,-0.26463390969881145,-1.0458951152897082e-05,27.614036064365102,19.164150467364507,15.703338575455014,3.369598119522792,6.246009702010265,-18.819917656731054,30.122329446258213,19.47863063565379,5.110106819820205,40.797214842162646,-3.0940429085841497,44.88747764494842,129.5994547576459,0.0009209332817150407,-110.98067410122998,126.17169561822364,-2.3567401510272837e-05,122.24096414116646,-12.764295279021987,-12.93742146834477,-0.0019076656805105396,-21.838796197219427,9.25646774396179,-0.005924567440163822,-8.499121611350967,-11.233702332098156,11.568717637251726,-30.431139899304195,-14.691860620787589,6.588874884990436,1.1170446538934875,5.421947935535619,9.602703077637296
-5.903543782826877,0.0,0.0,-6.54878061498337,0.0,0.0,-22.76409424840999,-11.418919849685789,15.643820995670207,12.794473042171374,0.6232731461825952,-26.311313495008967,-12.942938108786407,-3.4007666579399993,-0.00016636488677655817,-7.535160428664167,-0.38558465668930886,7.562618298918591e-05,28.126099753926884,19.311710964748933,16.621131718872675,3.2776536095956352,6.45912804305841,-18.949734865269505,30.045349223157633,19.094900379135552,4.576559573563002,40.72787936851905,-3.047372829297822,44.40163607565677,129.8007824002243,-0.00037119911673511887,-111.92015226488124,125.49154920581786,-0.0013861282280278424,122.15419178398766,-11.639118739925783,-13.469893386409723,0.00013830141962994344,-18.29758987158999,9.994811810945055,-0.0034157366624839214,-7.433289187395085,-10.412773660672219,11.666844428238484,-29.282698401160534,-13.966048461344098,6.997075487279875,1.067375751775203,5.136866557276064,9.531617657607407
-5.957082672734174,0.0,0.0,-6.994532966689672,0.0,0.0,-22.88709860110349,-10.843743107453328,14.942142945660176,13.380648576859066,0.7593409469110523,-28.085928119158933,-14.089203734315404,-4.114391098772319,0.0009665650217835831,-7.868466410471427,-0.1783080682637524,-0.0001173032147832195,28.485757354140365,19.09172704814238,17.048590034326548,3.380360238107314,6.015919555332672,-17.74559032167301,29.54968933218766,19.1967634680333,4.274641473210106,40.34453808063533,-3.3496530915628506,43.88023035129846,129.73713246156188,-0.001973830206001477,-112.69452277983372,124.43770039854542,0.004238035020026562,116.34188437618197,-12.624473052719189,-13.908758133929991,-0.0007061148245087712,-18.938145093955217,7.665798378971578,-0.0003971424635206769,-7.881785603498534,-10.531603610404165,12.645830938770237,-29.69420073593611,-14.434353084245606,7.873298423683019,1.147774269234381,4.675703673486794,9.87404627632162
-6.115820000000002,0.0,0.0,-6.70031,0.0,0.0,-21.439469999999993,-8.31968,13.88487,13.323899999999998,1.04411,-27.22004,-16.87452,-4.74926,0.00020999999999999998,-8.38106,-0.60322,-9.999999999999989e-06,29.547369999999997,18.74373,19.12663,3.9298400000000004,5.615030000000001,-19.356309999999993,29.282340000000005,18.92617,4.16966,40.38445,-3.85572,42.71355,130.144,-0.00419,-113.62809000000001,123.61992999999998,-0.0013899999999999997,113.28027,-12.074949999999998,-14.84844,-0.00304,-17.520989999999998,5.86074,-0.0036,-8.40425,-11.010870000000002,11.75922,-30.306079999999994,-14.5549,6.854050000000001,1.26795,4.17846,9.69536
-4.840305602210191,0.0,0.0,-7.741606106490521,0.0,0.0,-20.29842987232788,-8.275409682275878,14.079244721530007,13.092826350134164,0.035334444066882145,-28.548716338714648,-19.30532411675218,-5.129587023915964,-0.00021336676786372434,-8.634993830624476,-0.5490083003196862,5.061309012052448e-05,30.235530694073894,18.758071276096288,20.277766396222823,4.080480668640885,5.663461902396834,-18.50358060736107,28.67470128456818,18.93590602791766,3.736411189648454,39.740717888957086,-3.9122799272929454,42.670503040202185,130.2014574243795,0.0008618112600141781,-111.06244585548808,123.95783909089845,-0.00204348634432658,114.53389033873401,-12.664307400100176,-13.17128942763568,-8.307855697045873e-05,-19.339862561380222,6.086262691812929,-0.0035236573981352465,-8.364381882729262,-10.65963366005879,11.385342833366325,-30.249458411553807,-14.092067753396037,6.637570579612296,1.2272502821692233,4.106596635133162,9.574566940695865
-3.086761091841754,0.0,0.0,-5.492630956627808,0.0,0.0,-21.294388860869773,-8.809790564142817,13.973786336469818,13.012222851777425,0.9011559915950589,-28.961196238124934,-19.29267301439053,-4.742853490166682,0.0006250087280562395,-8.797697159238112,-0.7214702643659184,-2.150400244099782e-05,30.429163438808896,17.938264662849406,21.340038261664752,3.8016659228732883,5.3931394186991435,-18.850442227200165,28.76322892422715,18.8549952884454,3.2587320239801665,39.27694829719647,-4.078156013810899,41.56262930206768,130.0336099586818,0.0006139300712710074,-107.90570106909786,123.93944145079311,-0.004220905448074981,111.57250509714024,-12.364807615412365,-12.4933550902123,-0.0012760181163922607,-18.415428962793076,4.4779072705755505,-0.0011762754728490562,-8.006860343592253,-10.794935809928697,10.974595143938199,-29.922061701977384,-14.067081149293488,6.199486146727507,1.1648938331224552,3.7312649316112942,9.02387070481524
-4.054539874956334,0.0,0.0,-6.559523308944056,0.0,0.0,-21.18640998480322,-9.61545345021917,15.028406364191861,12.525064551065235,0.41629869232408745,-28.49479764928027,-18.224161218160674,-5.170479980163533,-0.0006778862149681622,-9.361865935872334,-0.9829806039835746,0.0004813510293528464,30.47983473659393,18.28985963010752,20.053703497991574,4.346462288060454,5.792032561574213,-17.493139197394775,28.009942927997205,18.681112108917226,3.5857818192195046,40.12879307253958,-4.719837202168703,41.452714004275315,130.26140046337918,-0.00023380022690939236,-111.29988892740994,123.72859644427979,0.0005092206545254967,110.14160695666803,-12.72945278494616,-12.930936933457934,-0.0010426471825975925,-17.616244264257144,4.768801531638309,0.0019202830935709928,-7.493904542423804,-10.613228142409351,10.626844451442853,-29.406294618247568,-13.770973392704377,5.942752292909779,1.621199513109705,4.285552297083918,8.805899144442312
-5.086218016720902,0.0,0.0,-5.842023038019656,0.0,0.0,-19.99185603766993,-9.77267127547509,14.775491194476908,12.038877743985864,1.469720313537491,-26.43869318078408,-17.923596880528095,-5.294998839864601,0.00011688699001445592,-10.314209904277043,-1.6532536094102157,0.0005371560539209558,29.976620115278617,18.943721839728003,18.999921244330896,4.441083714742459,6.252862006834649,-16.947695123786044,27.125718387594333,19.090975289282753,3.3409896358007254,39.861334764660555,-4.749415684016738,41.301662266484,130.15169091712582,0.00011494056677226758,-112.39368507823761,123.89062066838657,0.00023490883166226264,108.79963271498418,-13.13891470184152,-11.30183295601246,0.0016122419010664289,-19.61359136112238,4.983286452052017,-0.0008284797128885542,-7.810861602233363,-10.167460934393464,10.283546308532626,-29.696624454041054,-13.231435124930979,5.791540442866027,1.9031968572468743,4.826895153316697,8.464931491095632
-4.02001495022166,0.0,0.0,-6.224432620772577,0.0,0.0,-20.36110191663166,-8.745075155881574,13.532026762883234,11.87832784891209,1.3041865922101863,-24.397014489552532,-17.38495216224909,-5.199913637165686,-0.0008731059079895125,-10.988905536243278,-1.7439555381842533,-0.00011686123502728917,29.43986194746655,18.68584101367807,19.44656935537331,4.211498921934316,5.903275428000625,-16.915994177365853,27.609548292821184,18.56897864688791,2.6025918819305516,39.387728477304684,-5.121782581526833,40.68103344703182,130.07679720688742,0.0014460612271322724,-114.0116675788383,124.0753932680414,-0.002400666305572856,111.03271468324485,-12.602544989326415,-12.073536208750589,-0.0012059597683584606,-17.820706563097072,5.638218536213946,-0.0007064386437596387,-7.291259264564334,-10.233863351154044,10.14689674367889,-29.18801329108297,-13.242904376520837,5.63790217317224,1.6132276190654444,4.9119541985821895,7.960919336256973
-4.517202756881711,0.0,0.0,-6.62484189660187,0.0,0.0,-19.607819695211873,-8.954997145826034,14.335784782555407,12.189936666837998,1.271191915863733,-23.775732744464495,-17.147865609632806,-5.762064239743766,0.00025774018916962464,-11.436491755737901,-1.802408265398857,7.45850949497402e-05,29.114278508185507,19.019789760816074,18.38323178864538,4.420401137231523,5.7889043654501835,-15.944329961131695,26.15810613216012,18.46607954452164,3.41133882109598,39.3083116491698,-4.820842222139484,40.50331724985445,130.6258733657218,0.0010367438588321438,-110.29864657315296,123.74017817056551,0.0025617907955362354,111.76664103973464,-12.872511276774729,-12.429750602014398,0.0003442897904144842,-18.091563979826983,6.134067045132985,0.006200229806453928,-6.582133813788218,-9.907296934373935,10.341586455096392,-28.443071602656513,-13.011289408828652,5.945517045559978,1.8233327088244555,4.944101971030387,7.9590114434604695
-4.32086,0.0,0.0,-7.5598600000000005,0.0,0.0,-19.34655,-9.254749999999998,14.215470000000002,12.64647,0.62355,-24.726670000000006,-18.50603,-5.34231,-7e-05,-10.981009999999996,-1.11278,-0.00015,29.939569999999996,18.776729999999997,18.769,4.075919999999999,5.48743,-15.908070000000002,26.671669999999995,18.70425,2.86949,38.60988,-4.644159999999999,39.69999,130.03305,0.00083,-113.27573,123.99232,-0.0027199999999999998,105.72598,-11.51426,-12.648850000000001,-0.00112,-15.100470000000001,4.566340000000001,-0.0017599999999999996,-5.894230000000001,-10.004060000000004,9.85608,-27.781710000000004,-12.922919999999998,5.453139999999999,1.92352,4.55783,7.729499999999998
-1.9113491206994553,0.0,0.0,-6.086237023864662,0.0,0.0,-19.955210937749403,-8.444091541111753,13.839039839855143,13.12445545452502,0.8755033335256907,-24.542399160224896,-19.569693886270336,-4.853070784276223,7.117498439319681e-06,-10.078212051373292,-1.111050795831991,6.506781293730407e-05,30.242991890366497,18.606692627183413,19.871097988983564,3.304435607179861,5.351405624839991,-16.976177236083693,25.99129153419093,18.534462852909517,3.561480505837129,37.41222619537322,-4.683744625553034,39.64843132909675,130.37774004711574,0.0007562305959383885,-111.79481511987959,124.19511393321115,-0.00015259668326904954,114.44795283296965,-11.149366905998749,-13.522426036197876,0.00016777917064930546,-15.956851947549803,5.4509825034045365,0.0016775138117391154,-5.494896187226855,-9.755816518464323,10.14882250736288,-27.350378384263056,-12.799976806868347,5.822534755386349,1.8120853810821853,4.335381110918694,7.501041792126301
-2.7231807004537236,0.0,0.0,-7.267247531624047,0.0,0.0,-19.213381544141388,-7.831349455597824,14.994498269617212,13.403359717445468,0.33674718849613194,-24.760973058088464,-20.50791276194584,-5.390607528089332,-0.0001786728762615079,-9.480938544840644,-1.025586653621536,2.981799453083592e-05,30.722791745446035,19.081180114851076,18.169829620803572,3.098900878922836,5.5360033368391806,-16.3977346546486,26.135395238021765,18.48223978697628,4.469429888012541,37.85238833462475,-4.226594368495794,40.04601161631576,130.0004053839485,0.00043217284305192534,-112.9652429386138,124.31662187161541,-0.0012617941555570986,119.48920046734608,-10.789964747773894,-12.058819100244015,3.047270270846958e-05,-16.658439460937633,8.347685005893377,-0.0005449464335190548,-4.181898926854952,-10.350104708898543,10.313953302258803,-26.08263031875381,-13.412056404108732,5.750083056783946,1.729308756614538,4.242847308632381,7.7560483930762505
-0.579756947394738,0.0,0.0,-4.151436456781424,0.0,0.0,-19.444269855019968,-7.942775233196419,14.70196644812364,13.0846145046383,1.5489497288327805,-22.54296244375126,-20.880192173602705,-5.148171936565768,-0.0006564296999410211,-9.008495578140561,-1.2515454579126053,0.00011998956587939547,30.46506286766505,19.901830724622084,18.994828555352328,2.84754873424633,5.695294098145865,-17.05123423739983,25.67072066760811,18.25551607863366,5.048080883225408,38.806349391433116,-4.801191894490816,40.504944273450235,129.88652956806325,-0.0006060918593162037,-112.13189125846864,123.67577446515722,0.0001244067367403414,119.40097328078792,-12.111140829453634,-12.036595914701262,-0.0013828147123249195,-16.986847789260544,7.282446315604497,-0.0028661896209127157,-3.9204403044216605,-10.2130432735371,10.918053029573544,-25.78476356278383,-13.50641121370084,6.369753176232131,1.68448926035529,4.537363299287879,8.685449107751818
-1.6857071197119684,0.0,0.0,-4.826307389593842,0.0,0.0,-19.138343951421568,-8.207955586122912,14.879121714881158,13.01348550209323,1.1370526963801617,-21.950739186813784,-22.07509670428349,-5.048953810615801,-0.0002993613987774211,-8.540723830969714,-0.7585067686924388,0.00014384122115600618,30.750233682537793,20.359704539742086,18.92808769421936,2.305874464126442,5.632981185057655,-17.143963376180807,25.234367161863858,18.010601558413722,5.437362289335978,38.99738789726879,-5.565269421056545,39.77514094391227,129.27142491717885,0.0013239046742891869,-110.58140359862786,123.87842568942708,-0.00012053746961526202,114.59372463556522,-13.857868172609594,-10.699314665824417,0.00044991318146477444,-17.100551781365088,4.978068898939992,-0.0028383641266983032,-3.4862156216541034,-10.22378657448237,10.273587656045118,-25.37731496198679,-13.280047161641146,5.7606187080589955,1.2385475865972813,4.578643745124013,9.021109324485572
-1.9839118582060797,0.0,0.0,-6.405835126300117,0.0,0.0,-19.643191022770342,-8.538193289781631,15.702142587957008,13.278840438432445,1.8977633594331702,-21.81428900305489,-21.871678318674586,-5.722047235413666,5.400526220426236e-05,-8.212996756963676,-1.0371544204148007,6.29587602864456e-05,30.84167184686113,21.120985152910524,18.15352346769668,2.8824294136923436,5.775686936953788,-15.686336503093884,24.777051757086035,18.184934549486286,6.417840196303185,39.72422263993731,-5.403356580408029,40.403531466496055,129.3061596995684,-0.0010967132504518865,-110.74220542789853,123.90898729703989,0.0004059761348881398,113.93787079810575,-13.096862237244089,-10.987335931966477,-4.599829631264134e-05,-16.458580294545385,5.7291714615601705,0.0020463764017351984,-3.969803536204205,-9.992724666320877,11.108911858365536,-25.806344182018066,-13.371846991200751,6.633374890354665,1.6254099817529537,4.559874163752192,9.8038550534781
-2.2077312924699983,0.0,0.0,-6.502903617828216,0.0,0.0,-19.73386417803352,-8.281731654739739,15.882777922051742,13.097177561308397,2.4506859132415215,-20.809789379585453,-22.078269153371405,-5.492003785406619,-2.8709089356959666e-05,-7.901853610971147,-1.2624398867458395,1.4960647867599621e-05,30.877261729917798,21.33994574312201,18.580289733151375,2.8989840871008448,5.859696350964484,-16.10994662633652,24.314135405294177,18.045327972945294,6.393189840106116,40.056121384458436,-5.117488778438731,40.66899837518903,129.6154226994303,-8.710934781324008e-06,-108.8149344168327,123.64049901886936,0.0005079298710355996,116.66268260170278,-13.603139443953696,-11.488136430776068,1.8234398940633565e-05,-17.859689355220546,6.5615751613650595,0.002599045325637952,-4.3527081166483415,-10.124157389784184,10.352354258719702,-26.232047825130785,-13.216487557379626,5.872682191439328,1.783090603843208,4.486700250373029,10.234182894815337
-3.0449800000000007,0.0,0.0,-6.486669999999998,0.0,0.0,-20.028760000000002,-9.140499999999998,16.809609999999996,12.940380000000001,2.7388100000000004,-20.2594,-21.917569999999998,-5.6876299999999995,-0.00035999999999999997,-7.67184,-1.2719400000000003,-9.999999999999999e-05,31.16995,21.245459999999994,17.10239,3.0420400000000005,5.864029999999999,-16.53068,23.969,18.12032,7.088139999999999,40.10918,-5.1332,40.65322,129.74156000000002,-0.00123,-111.57061000000002,123.82544999999999,0.00142,113.40730999999998,-12.3506,-12.572959999999998,-0.0007399999999999999,-17.85125,5.90536,-0.00549,-4.73922,-10.43629,10.430820000000002,-26.64319,-13.53491,5.826689999999999,2.14767,4.576700000000001,9.770540000000002
-3.013132814042317,0.0,0.0,-6.818747225025976,0.0,0.0,-19.71293310495654,-9.35403434126742,17.048594123691544,12.957410282378984,2.7350643657700977,-20.498911222427697,-22.1465359863495,-5.216125994065259,-9.260415052567785e-08,-7.032614279840818,-0.9474940485538474,-5.674399799215053e-05,31.121200547044356,21.27379286388118,17.246468261432383,2.424196970220047,5.993023694815263,-16.18592280794223,24.32072975988134,17.909096161515745,7.0287711009164004,40.644389085586766,-5.209249957896126,41.0436679069587,129.78565823422832,0.0005210817235550455,-113.0882031230007,124.05751830842782,0.00019885987626950627,118.01342047894651,-11.006578095369447,-13.80340111107072,0.003432037948930505,-17.968761185423006,9.027159368366373,0.00015636993240622645,-4.947967209048651,-11.048964324130303,10.532934961048099,-26.904407459108963,-14.140715730692392,5.686879228011134,2.02294941915324,4.916914654069429,9.680901414295755
-3.0708453307483663,0.0,0.0,-6.573505219700373,0.0,0.0,-19.99852927312431,-9.234683343884264,17.912421751777455,12.500357146651504,1.9638462561559016,-19.80531227095367,-20.94236736949263,-5.531537654423125,4.1983263400116796e-05,-6.700984539510519,-0.7670892669721491,7.395131601935447e-07,30.32276824347315,21.46172657412315,16.77212375244774,2.423885790486592,6.124470994219356,-15.83884499469214,24.20780128604399,18.48333161400651,7.672293551011112,41.49516379744663,-5.376127541208798,40.91158973733799,129.7672184077533,-0.00019731913546596042,-111.98239606480587,124.02818820804613,-0.0005303152306597211,118.35843834204292,-12.163515995609554,-13.544679111647708,0.003538220532287525,-15.77932663550856,7.967594683980781,0.005493600505774835,-5.322771946177744,-10.68476958515268,10.698180821711162,-27.238907508606495,-13.863513933940261,5.982236471440187,2.194193532305378,4.955598447909275,9.743572702989535
-3.277618891786779,0.0,0.0,-7.485237194191037,0.0,0.0,-19.422262665955916,-10.611299974712464,19.225247095859153,12.720909911456568,2.2238625958731872,-19.96213773416359,-20.353683083500943,-5.223388007891326,-0.00019656183824148143,-6.716979146982172,-0.7225740008963694,-2.8682383036768516e-05,30.090653156730454,21.249029567397383,16.04293787517375,2.392727121935221,6.196130786742259,-15.341981085303882,24.553562855063024,18.352931085910487,7.2939719159668925,41.88195229747296,-5.614682561659944,41.13720274113166,129.96950915000872,-0.0003989198031734293,-116.04848831942839,124.32790717380303,0.0019671485165778714,119.13814590792147,-10.686338324022326,-15.692764220403866,0.0021933220582444762,-18.40518194230914,7.767869591550143,-0.006492851272187473,-4.6382801347222,-10.635454678327573,10.4215964201344,-26.560619100145235,-13.716294209351911,5.741553085342202,2.198605023232478,5.08781663302385,10.070777524096046
-3.5551733574891626,0.0,0.0,-5.531438786372557,0.0,0.0,-19.504128448209507,-10.793827956648808,18.090279433045655,12.249887674460163,2.547554557711268,-19.643596329086265,-19.837244200407813,-4.667155973746312,-4.861348415571493e-05,-6.937876444055662,-0.7766223456464176,6.747120531394176e-05,29.435032769284863,21.394366954145955,17.091093670596994,2.1502221125499834,6.450282432850435,-15.266724178346237,24.56777543333565,18.51772317063685,7.366999023930753,42.28909293924926,-5.296648814325306,41.026490661335146,129.9615532648515,0.0006231066590634951,-112.66628846089506,124.60390556557458,0.0019837041004480576,123.30989908174581,-11.62224835904134,-15.214810798728067,-0.0008419713179442793,-15.95603143946275,9.863555496277264,0.000705959944036189,-4.317518630791092,-10.427959836597022,9.682336923943927,-26.24782816532308,-13.252399861295418,5.127887544070174,1.9635306059242785,5.458503106751067,10.007894439696955
-4.0262714770608055,0.0,0.0,-5.61304671925392,0.0,0.0,-19.665619416801352,-10.061581477951592,18.422780045073292,12.53684651392111,2.290677490234807,-19.077961226579614,-18.94996016006583,-4.879380406777445,0.00013462777699857462,-7.434857573222878,-0.8317613813160147,6.140465740033652e-05,28.96436801105067,21.26941356711143,16.821240294513117,2.5588648507801834,6.309515244615683,-15.65585601979391,23.762765722193727,18.708445907029684,8.239907623114194,42.800950680814914,-4.939380135657375,40.92367550562264,130.66849127676318,0.001941159814593987,-113.56289817239329,124.58037338664234,-0.00039745080421574325,119.68399657259806,-10.482008470011428,-15.21896772058905,-0.0002308674039304124,-15.464489331561062,8.625838809222659,0.00034008432420622414,-3.982811492823805,-10.738652024719554,10.079823558883772,-25.927128031562933,-13.686577554182637,5.381211263589512,2.195786451470812,5.3232282530528545,9.790576910613366
-4.242487106218669,0.0,0.0,-7.06031975018585,0.0,0.0,-19.753016979421364,-11.051663240826462,19.1162212672566,12.891037236740523,1.7007150848047259,-19.69699503153711,-18.00238521651855,-5.047190006807144,5.498783974303589e-05,-7.856620222047864,-0.8346574612041339,0.0001874291134723092,28.565078226104976,21.25821493283104,16.417881550017743,2.7028032598406853,6.555129991691932,-15.298430735588342,23.908525960863486,18.634323207501787,8.279997121779815,43.15478403428958,-4.764090942131402,41.05624652694655,130.83817275600194,0.0007020649005110483,-114.4495744582718,124.4467300008721,0.000632050385366619,119.50872362080408,-11.232567703940498,-15.488428243743542,-0.001160035854707763,-15.886662252024976,10.059092691117304,-0.0005029555644513056,-3.018475300969577,-10.030454521735221,10.993138851205355,-24.863376043761715,-13.364459266921662,6.5101673277377055,2.0778200942285583,5.458530589420442,9.301855620197657
-5.193429999999999,0.0,0.0,-6.13333,0.0,0.0,-19.92198,-10.443200000000001,18.46264,12.771369999999996,1.6772500000000001,-19.626869999999997,-17.621249999999996,-4.756579999999999,0.00014999999999999996,-8.324269999999999,-0.8801199999999999,-7e-05,28.22941,21.35174,17.09691,2.6887499999999998,6.823129999999999,-15.483360000000001,24.005689999999998,18.57526,8.09289,42.65121,-4.83771,40.85748,130.57639,-0.00019999999999999998,-114.27052,124.70064000000002,0.00251,123.18547,-10.74887,-14.318289999999998,-0.0007400000000000002,-18.00358,10.510139999999998,0.0016799999999999992,-2.90934,-10.50709,9.47105,-24.85361,-13.248180000000001,4.899519999999999,1.90341,5.614300000000001,9.538940000000002
-5.48517567457498,0.0,0.0,-5.918054751492521,0.0,0.0,-19.868190785792216,-10.727649220848187,18.79781131326294,13.289187335672477,1.7673704274262991,-20.083207054596834,-17.046170634390364,-4.2111316330714805,-0.0002866508564665043,-8.744511037089168,-0.715412792563787,-3.395025891991291e-05,28.43552305661817,21.03864549158704,17.088980470735386,3.1231730465005167,6.981195959324419,-15.507016150525521,23.892821800672223,19.079033568378716,8.034381760365255,42.29312970564074,-4.79149728156051,41.1295469147013,130.25613689959735,0.0004518165185907443,-113.44259682781458,125.24634486475976,-0.00035158288756291246,125.38371690679996,-12.13379759372965,-14.750826454631735,4.1600177919098604e-05,-16.98164962580876,12.18790717301983,-0.0007027015487554207,-2.0900443041866112,-10.449015723773789,9.666543961554844,-24.022741281459535,-13.266138889297642,5.1050014999363755,2.1481980977521977,5.632733489758474,9.185700837665813
-4.986859647489938,0.0,0.0,-5.751701541828208,0.0,0.0,-20.67917072534423,-10.938205311658358,18.706371672215298,13.258524885291445,1.2497288035320648,-20.66267235039529,-16.11874290696493,-4.187991875913553,-0.00014580294130468795,-8.702699735091972,-0.6965666349650343,2.5381410560307922e-05,27.960824662077822,20.866533975782794,16.954289711796243,2.8941666863408266,7.2142390828277385,-15.650420248798016,23.917647257881786,18.501664955325847,6.989499709859046,41.7843703085271,-5.060662226884458,40.46223420343491,129.88724172019315,0.000552329659490239,-112.40672857367112,124.98721405354156,0.0003827453002914631,123.42964782094323,-13.287515682891426,-14.016090593287961,-0.0008994959583259881,-16.679914413159548,11.322841635430192,0.000843904893037224,-1.6589686395492824,-10.040758461086627,9.509591187656767,-23.561628680184295,-12.829735384539312,5.11434988520683,1.9705687704489885,5.498358497815452,9.690400354512967
-4.081169081440375,0.0,0.0,-5.451259955875647,0.0,0.0,-21.5999398292304,-10.908045900178003,18.853869186157617,13.006960327625492,0.8676339808869928,-20.81208013723258,-14.936689994263357,-3.777064540078263,0.0001704429928354279,-8.460905548845146,-0.7380559070968384,-4.225743397943835e-05,27.237445012091296,20.629202841145116,17.20921740502804,2.5251045509567955,7.4807382827307345,-15.532144022210225,23.430298074585263,18.646432756616484,7.1380284602063435,41.332845099803436,-5.143843341026908,40.35523735030228,130.1542314480793,0.0010922650221651016,-114.31748348530812,124.58302330909024,-0.0032971825630570837,124.69330197308241,-13.025146867799217,-13.638239879380102,-0.0008511951133455259,-16.15411475471601,10.675838032798296,0.010448900684970633,-0.998309945291218,-10.00467890303461,9.55043499070755,-22.89653494539171,-12.81126735004458,5.166423775538384,1.4635441349751108,5.513302139204839,9.6456092102991
-5.5892759517597295,0.0,0.0,-6.096849498442363,0.0,0.0,-21.918049764521516,-10.42533443003652,18.618514822704466,13.041077180370023,1.0522785310466618,-20.61633759482979,-13.843091150289762,-3.761587722461705,0.0004555834546130468,-8.418694300656744,-0.8655993005094739,-0.00012638311796762003,27.063265867113568,20.60329090640236,16.736176123738147,2.8360439240645006,7.781950801132515,-15.850933760220052,22.77035417460775,18.59002506627537,7.694994093714451,41.43633474751084,-5.02569834862531,40.67057452922957,130.28254595933086,-0.00033145622286932217,-112.43933462799602,124.2815849693475,-0.00011803867603613609,122.23452672347923,-13.014625576665148,-12.989364669072234,0.003354031823161419,-15.087958787966178,10.202856592010093,-0.0023607377221741294,-0.6738630406959666,-10.340458025147859,9.017750535918472,-22.617784296916135,-12.927025047947298,4.538898554355112,1.554225929072508,5.695295205483143,9.640834211335903
