PaulMeinheit/Bachelor_Muay_Thai/processed_Data/E1/roundhouse/scaled/JointAngles/scaled4.csv
L_MTP_ANGLE,L_MTP_ANGLE,L_MTP_ANGLE,R_MTP_ANGLE,R_MTP_ANGLE,R_MTP_ANGLE,L_ANKLE_ANGLE,L_ANKLE_ANGLE,L_ANKLE_ANGLE,R_ANKLE_ANGLE,R_ANKLE_ANGLE,R_ANKLE_ANGLE,L_KNEE_ANGLE,L_KNEE_ANGLE,L_KNEE_ANGLE,R_KNEE_ANGLE,R_KNEE_ANGLE,R_KNEE_ANGLE,L_HIP_ANGLE,L_HIP_ANGLE,L_HIP_ANGLE,R_HIP_ANGLE,R_HIP_ANGLE,R_HIP_ANGLE,L_SHOULDER_ANGLE,L_SHOULDER_ANGLE,L_SHOULDER_ANGLE,R_SHOULDER_ANGLE,R_SHOULDER_ANGLE,R_SHOULDER_ANGLE,L_ELBOW_ANGLE,L_ELBOW_ANGLE,L_ELBOW_ANGLE,R_ELBOW_ANGLE,R_ELBOW_ANGLE,R_ELBOW_ANGLE,L_WRIST_ANGLE,L_WRIST_ANGLE,L_WRIST_ANGLE,R_WRIST_ANGLE,R_WRIST_ANGLE,R_WRIST_ANGLE,NECK_ANGLE,NECK_ANGLE,NECK_ANGLE,NECK_ANGLE_SHADOW,NECK_ANGLE_SHADOW,NECK_ANGLE_SHADOW,Trunk_Joint_Angle,Trunk_Joint_Angle,Trunk_Joint_Angle
X,Y,Z,X,Y,Z,X,Y,Z,X,Y,Z,X,Y,Z,X,Y,Z,X,Y,Z,X,Y,Z,X,Y,Z,X,Y,Z,X,Y,Z,X,Y,Z,X,Y,Z,X,Y,Z,X,Y,Z,X,Y,Z,X,Y,Z
-1.82416,0.0,0.0,-8.351100000000002,0.0,0.0,-3.3636400000000006,-6.88074,14.65311,6.01594,7.6513100000000005,-14.6232,-22.893230000000006,-4.634920000000002,-6.000000000000001e-05,-9.138590000000002,-0.5522500000000001,0.00022000000000000003,28.061360000000004,12.620890000000001,16.84554,10.147130000000002,-5.425620000000001,-12.67565,15.726840000000005,18.183260000000004,-3.496410000000001,35.043310000000005,-8.648330000000001,36.82996000000002,124.76974000000001,-0.0019200000000000005,-98.3254,118.35081000000002,0.00013,96.64768000000001,-10.88022,-1.7496600000000004,-0.00029000000000000006,-15.357250000000004,6.1882600000000005,0.0008500000000000001,-15.643330000000002,-11.906950000000002,14.779980000000004,-37.47482,-16.489290000000004,9.359220000000002,-1.7122900000000005,-1.8695900000000003,7.575060000000001
-2.0143049577126866,0.0,0.0,-9.421776933351726,0.0,0.0,-3.2230478816714148,-6.746450526233923,15.1409776151679,6.256727789020429,7.722445162454198,-14.316219665652628,-22.8361396444683,-4.692008031215713,-6.573951958926648e-05,-9.30912961218105,-0.44018553148398315,0.0001639405040811582,28.103321697590456,12.467571150271395,16.61123148801916,10.396164716059594,-5.739929633877303,-12.502128137971397,15.432048716582791,18.18430786473845,-3.3415743542672587,35.552808047081385,-8.24250261150686,37.311746448698734,125.07787777015639,-0.004243585124143797,-95.06454116327907,118.08221302786978,0.002088684639054978,97.48984108722222,-11.420012690142908,-1.1748029163443858,0.0012075311491813638,-15.442851997744384,6.086995553878017,7.817114798701525e-05,-15.348937120500455,-11.676864289707499,15.494565859379225,-37.108599474075476,-16.535371739450344,10.12575765948902,-1.8674867471194712,-2.1349537921388753,7.553453093371466
-1.518218118954464,0.0,0.0,-8.449521220059456,0.0,0.0,-3.14306364142717,-6.574728899747681,14.888886016633476,6.371830002218951,7.988603420941695,-13.43230076513496,-23.077990946314124,-4.3637247635824465,-0.0007820856369961409,-9.650133861720446,-0.3985503416137596,3.8166258579987636e-05,28.413292325344813,12.339535682047327,16.715493838084527,10.664480867267615,-5.923939235261399,-13.083602716780025,15.15821569686692,18.190462998294723,-3.334225961312575,35.766927182164636,-8.118871466570525,37.6387782703007,125.52982721362585,0.00010846224157949944,-93.45866914438584,117.90676219538264,-0.0005681041123078212,98.86032070606461,-11.570159478968886,-0.7647261410672581,0.0067060577993730205,-15.280882533042398,5.4157796900087956,-0.004458695310902974,-15.396696793177808,-11.433372887646113,15.34358688776412,-37.13998464894173,-16.254405635476417,10.07661297267684,-1.9274933489680166,-2.302113775279673,7.5457482516488295
-0.5202307200211813,0.0,0.0,-6.367041112847268,0.0,0.0,-3.222577632389354,-6.581854258451594,14.469748913302274,6.536566863022015,8.273420801156451,-12.749988645085656,-23.287584358508024,-3.957138130909679,-0.00024021128050914209,-9.863916354995727,-0.32108572417318404,2.6996631586267847e-05,28.658866400981065,12.190917773266012,16.879177774111746,10.636534294902832,-6.020022773069452,-13.696913739009139,14.937226391639994,18.136734712029543,-3.353880903815956,35.75692717230846,-8.149888327279076,37.57131844826012,126.10522099708685,0.0006156327319049535,-94.6727967615458,117.84428796322003,-0.0020165076463034923,100.31948319525476,-10.680374025238152,-1.643458052223383,-0.0029002154562771587,-14.942736654937317,4.878070389142612,-0.0031084100955435694,-15.496535427686206,-11.343150036127895,14.923053852619441,-37.25790879583886,-16.017826708836395,9.712806951087757,-2.008950733426747,-2.4152377806169016,7.520449701374596
0.12959438889175406,0.0,0.0,-5.845018414499687,0.0,0.0,-3.266528028156767,-6.649291843032826,14.612464252917736,7.369677583398736,8.68965954225316,-13.10825644062533,-23.279527672329817,-3.91828366850373,-1.1305435551370614e-05,-10.020711410532897,-0.30101627436509576,0.0003169204433610101,28.648916180063043,12.08365440395307,16.620760436394765,10.412814280753194,-6.020448018653651,-13.477353389788172,14.447348481043377,18.20687176559718,-2.9404014139981838,35.91757623886618,-7.967892586525203,37.62550715918917,126.92360800633921,-0.005494793936861413,-96.50946499527912,117.76004442614176,-0.0005170977027862422,102.00394961143914,-8.61315566105868,-3.9460511323936247,-0.021029344940722762,-14.838826338276814,5.434686224298323,-4.515092510156581e-05,-15.213677622141246,-11.464650378031747,15.28763444004643,-36.96408851057695,-16.263146357886676,10.011484410337687,-2.0851663066746777,-2.5332956904326958,7.438579463410729
0.10500415564751678,0.0,0.0,-6.0868435037380815,0.0,0.0,-3.145993094004666,-6.726473077877984,14.868170289363736,8.342550951263961,8.874024289627727,-13.576918613097178,-23.238656143455888,-3.91314162789141,-9.385404852975889e-05,-10.47760108637513,-0.3576462640762501,-7.428879823236374e-05,28.619365860911053,12.030665933487583,16.47764891286864,10.362542438998085,-5.971426791478844,-13.163693053506316,13.54994009019612,18.346493302415432,-2.0276462213780415,36.33991948265901,-7.853524382508914,37.9182216850675,128.11348591395912,0.010100789592477996,-98.52735817817953,117.45621369290538,-0.0008517374446026139,102.57818189744161,-7.051851116265261,-7.703430206748244,-0.0008379595536795649,-14.603545802174814,5.674692369228952,-9.253819529425732e-05,-14.68431850982972,-11.745183005038614,15.835575543702854,-36.428139131554516,-16.72257039729914,10.423002756474554,-2.0606593096884134,-2.5269987361215747,7.486289968398226
-0.3676255219919828,0.0,0.0,-6.177727414146356,0.0,0.0,-3.037209839747937,-6.555186930871826,14.946307631175275,9.102572450555947,8.72314428919655,-13.697580036923485,-23.273442615179864,-3.7024918904505983,-0.00023216422290349575,-11.321039042153245,-0.2894373096541532,-0.0007100133334374942,28.751315049065898,11.844843791716183,16.732213792513463,10.552650871236875,-6.092988880162773,-13.174884529167601,12.871453025238335,18.385949370124273,-1.3159822927118918,36.69376778021338,-7.957553127818051,38.114803596959696,129.01176376386965,0.005962928499415485,-101.90039041469922,117.25123875515992,-0.00025556762218250983,102.00887406518737,-7.201646441759516,-11.195228596523826,0.020253179496686848,-14.2582931103626,5.241051572852568,-0.0004111355459573997,-14.29814406270476,-11.795450327958626,15.728106265017782,-36.055004461111736,-16.73028317403008,10.301522292688778,-1.9443255593154392,-2.5510306059679655,7.65367742369469
-0.8974951453979461,0.0,0.0,-6.298279846000457,0.0,0.0,-2.9040333459624326,-6.141463165991994,15.06733330797415,9.886674492568215,8.658703074811093,-13.704095826159849,-23.416090293083926,-3.603667306591266,0.00010466327766099601,-12.3520324837187,-0.24004988327095375,0.0005344792589245314,28.886377688638536,11.59277884484143,16.925772883776776,10.732012113943526,-6.33456891687193,-13.273849681269011,12.63088688517303,18.406067824083333,-0.8602255197336153,36.922623069875264,-7.9090055180600265,38.43168997795213,129.1200560941162,-0.01068054723156513,-103.30453839274604,117.35392263019412,6.396756589340443e-05,101.18003393156822,-8.613585330244696,-11.985801297196819,0.001149903684092837,-14.507251584300965,5.492507176672049,-0.0019041391720419673,-14.044731408659697,-11.66063608891511,15.558492307353076,-35.79826557191904,-16.543514392051634,10.192693082090846,-1.8549531771544576,-2.7171742493654567,7.670682969159402
-1.3911764045460022,0.0,0.0,-6.4485463686706765,0.0,0.0,-2.6422880339671972,-5.739132156245293,15.42145690851005,10.686717836366148,8.584320948241507,-14.161578369882655,-23.65392462626314,-3.87669274283846,0.0005529932426255862,-13.3175903970282,-0.24677638509779085,0.00025036342554111995,28.90192600011876,11.55630791756094,16.619041862382986,10.663023103439889,-6.393971297068187,-13.14541147413432,12.735056204770064,18.489482108877386,-0.8099368959563362,37.10851619468892,-7.594214688109465,38.83737160360584,128.52711336592122,-0.005408357937686127,-102.6335726343541,117.55410618758232,-0.0011531303670100585,100.53925651091437,-10.340667142337116,-10.615727889208069,-0.01462240975733218,-14.816568242202061,6.637626832395724,0.00032015394780675295,-13.86334047267136,-11.503491781640742,15.727568051877602,-35.5880055011179,-16.45889462700325,10.41385489431497,-1.8264323948000134,-2.8495256204344264,7.603215376294492
-1.3467331251904135,0.0,0.0,-6.2467865945507475,0.0,0.0,-2.549209573604465,-5.719778031484112,15.950803142661165,11.13990202761191,8.4216636076086,-15.128498421245922,-23.82664417548703,-4.155342919378966,3.158190150473912e-05,-14.242764938881251,-0.1455765852631225,-0.00043094986246685897,28.967536527461306,11.558112896407632,16.124212921060455,10.495462201566331,-6.336119431426014,-12.902608046240978,13.517548669160261,18.456800946914473,-1.573612897172952,37.16744876987678,-7.382293627637588,38.96290266103354,127.16801870475837,0.029206892730532348,-100.44373001185505,117.7919485824762,-0.0008968035613616571,100.29850025080695,-11.618592906154612,-7.247100481717039,-0.015098828330609212,-14.921303168033651,7.412317610692282,0.002403690254152316,-13.928671685306153,-11.219894928665504,15.64190722279278,-35.62858399975972,-16.16434675521768,10.441881375395536,-1.7349000260783263,-2.903579847276456,7.677230506622515
-0.7381083737989911,0.0,0.0,-5.4519411369940105,0.0,0.0,-2.7632606515405143,-5.788690579665551,16.179418815152367,11.158324484262696,8.205969484209689,-15.824824513876878,-23.833362024700758,-3.9713384319005005,5.7862725469141015e-05,-15.257353917539954,-0.046576069529113286,2.025802845973378e-06,29.14514183389041,11.36953961085757,16.141556800532523,10.436742476121037,-6.293990738214139,-13.085045082700013,14.39797819429912,18.3399414745818,-2.3378609492194316,37.27523083474354,-7.243688031877474,38.948758639325206,125.95525035056174,0.01600275151043366,-95.87484852457267,117.91845756599686,0.0002460264474015732,99.6785772380662,-11.996800831094607,-3.415694519741942,0.00586304408018006,-15.08003515087153,7.115285509049717,0.002073082909905678,-13.93400893578005,-11.039161390582287,15.43113174690634,-35.62927343871886,-15.919952776677544,10.311458878839503,-1.5991730045300716,-2.939267861725429,7.752629935509063
-0.31253973310466043,0.0,0.0,-4.380269997196072,0.0,0.0,-2.9313357642455538,-5.6840007612330945,15.828773151855009,11.114183484997325,7.793455987201987,-16.10579875733824,-23.743288657819352,-3.592529187345475,9.053812354849281e-05,-16.245355897174363,0.007136612925410195,-8.837298020605112e-05,29.269848711355017,11.160654368180593,16.593228564758803,10.407290625185425,-6.249524236527112,-13.496485098826978,14.49500696890741,18.39601898984393,-2.3212344141873316,37.58450453891529,-6.9442768294258315,39.02616006061197,125.87156120874673,-0.01833022408417448,-91.13747412673746,117.8341013034147,0.0011592985286010412,99.07640179209426,-12.013353480207693,-1.6712935238565487,0.0038104127462077744,-14.769472099323794,6.494088313318797,-0.0011978264495187002,-13.561014199944884,-11.26430691544578,15.645665017275089,-35.26543524495305,-16.206977992509298,10.428344405688014,-1.480223585797069,-2.9946497904388405,7.70831461262963
-0.2940472067341704,0.0,0.0,-3.9965901023815835,0.0,0.0,-2.9218216868578355,-5.471801828349153,15.484205409512366,11.156036448047098,7.472106932213818,-16.317735260348552,-23.660198597100756,-3.598076091925758,-0.00012078084972351783,-17.06351884275539,0.025156350041950788,9.726095244330252e-05,29.316184930894696,11.08120408567637,16.608093342082064,10.327057151362169,-6.183851168632532,-13.726573523820264,14.255224376944248,18.433144844315528,-2.042834108304583,37.78265463191695,-6.708031874768483,39.12150864991338,126.27105598948017,-0.008536666149339078,-87.43018421753267,117.8492377626228,0.0004508430566575946,99.06761132861615,-12.262320327958705,-0.8471273293621112,0.004925828210091277,-14.188932299171151,6.103285075153963,-0.0016820902887521576,-13.055159939580637,-11.6536357749267,16.113311636772014,-34.76914602991197,-16.738210082051324,10.722217519750865,-1.313703066562731,-3.0188809228826834,7.721858362683058
-0.004466274981136727,0.0,0.0,-4.031178259512609,0.0,0.0,-3.060902498149597,-5.03156112401512,15.591435294449935,10.853238725233295,7.511163037560503,-16.352245804493286,-23.671055471423806,-3.8791871532611375,1.6563821822390458e-05,-17.62774059415995,-0.07990776640080718,0.00028879322517155374,29.386643766099784,11.033818074722861,16.107628016402973,10.15977454914252,-6.057759974825159,-14.018483151409544,14.146222057213905,18.26510252401686,-1.9708886471498888,37.56695923622265,-6.632474233764609,39.19532830871252,126.44687375095295,0.0021055080245648925,-85.47632797263743,118.23358267628625,-0.004581718382188199,100.22296837845649,-11.979911942661168,-0.07127861147030755,0.012494976747937831,-14.27890817571302,6.414869961184591,-0.002050235119745317,-12.617004735391872,-11.755475499086259,16.495800975741762,-34.31457523917004,-16.971355249239544,11.046462261904006,-1.1351288293896216,-2.9996734434212593,7.883482631487022
0.561930007681952,0.0,0.0,-3.7476828757140375,0.0,0.0,-3.3629688748594777,-4.446775240730585,15.684602154483768,9.965429437345886,7.437969326234405,-16.05884699442496,-23.77603295380943,-3.9441935369671106,-8.023755297758225e-05,-17.662482772342454,-0.20331992817602207,0.0001750647865261323,29.487562038311495,10.909909230104027,15.86949916518079,9.795638952335851,-5.871307778418328,-14.456393380247306,13.809030361659582,18.087128685894225,-1.624823325848866,37.23993851767796,-6.58825476049438,39.265981862111815,126.89961473704919,0.0025331300520301447,-84.99077605004516,118.62447568605829,-0.0016488263505656025,102.56617531168479,-10.451061956490857,-0.8160065402016311,-0.0172692394901695,-14.913363292438207,6.850463908708145,0.001777249718060708,-12.29967511475722,-11.538864398580225,16.476916646797005,-33.974375557410795,-16.7632387190441,11.112141851516725,-1.0612379077335092,-3.031201572552489,8.10301575473227
0.9224898744356642,0.0,0.0,-3.7602386936081764,0.0,0.0,-3.5171069667545467,-4.579161242208046,15.66281681934166,9.111612178657191,7.194145664369727,-15.957247596388589,-23.839885002089563,-3.8300636037160816,-5.9274988163397166e-05,-17.074848474207638,-0.20695454477998934,0.000600394359253659,29.581574870481408,10.742801693395794,15.9233315518707,9.298169733107756,-5.679857650928416,-14.475926282510258,13.094002339845524,18.016127467424656,-0.5792225963228366,37.098076293690596,-6.587010297091467,39.41892510347448,128.00395712841458,0.005566183789396121,-85.50720081752328,118.642332919433,0.0017706666833774165,103.75099739335253,-7.624576912732101,-3.111969855777021,-0.03431934343756496,-15.102703341809367,6.17968662826888,-0.003130229036402153,-11.913663950446916,-11.351731149404303,16.17271963415753,-33.59007940583664,-16.479216411558177,10.895127002198976,-1.0167704669599211,-3.124513858708576,8.33056061932133
1.1936672466681029,0.0,0.0,-4.1955101294812245,0.0,0.0,-3.509190726062637,-5.566043163936321,15.813376239394458,8.811108285851684,7.080727221524805,-16.376652963103908,-23.837476682755455,-3.94306097682218,2.0428433927966596e-05,-16.16755121995925,-0.24381954052701474,-6.953749166858815e-05,29.691072823570792,10.66594449290654,15.63855239074504,8.865398831134526,-5.455848152184798,-14.190954834089283,12.886179552471145,17.981821089351232,0.16046002588089267,37.11981092783493,-6.580488356309318,39.642646749995464,128.67398757517256,-0.0028583613363966794,-86.82783492074951,118.47076824515341,-0.000990886195857383,102.19268657517617,-5.93790577789893,-4.451038110569503,-0.007847320027602389,-13.976260704372757,4.944564181550251,-0.00740703827759461,-11.266420098953523,-11.378210637269309,16.068061240655425,-32.95329514541234,-16.465920029026865,10.78549671614824,-0.8926351625683295,-3.173611156892365,8.543576365968214
1.5471948011207985,0.0,0.0,-4.260488232647692,0.0,0.0,-3.624776729607904,-6.306151214202112,15.813901071269921,8.74650222976805,6.792449118198247,-17.04942449296051,-23.869790285684765,-4.250040204682741,6.641641926537679e-05,-15.136318107280127,-0.4280362616709428,-0.0006676490779951531,29.739093160712276,10.749302950900661,15.169074088685527,8.370143260250606,-5.106313794464526,-14.294431813596795,13.749843550034875,17.828527116399645,-0.3573748885283483,37.30724130564155,-6.4776374984789244,39.77287954430261,127.90433240101973,-0.005755213694893994,-88.127422155803,118.3472912994327,0.0004020859909260573,99.87969110723496,-7.234851414992538,-3.4450729821884543,-0.026086739581239526,-12.410567552477838,4.854653871539972,0.003223538134461933,-10.726570080858927,-11.551093263175483,16.334478447095144,-32.413140714526676,-16.7230419733537,10.97200246440221,-0.7942556397815617,-3.1346527837134497,8.682583536232945
1.9373052207634243,0.0,0.0,-3.9611700649078045,0.0,0.0,-4.042837102305372,-6.305753761078947,15.287844044678039,8.822797044277888,6.563098986331006,-17.481219780253355,-23.973981094799694,-4.385472843790528,-0.00016450618891406787,-14.128814757064063,-0.6644786109240589,-0.0005919218231547881,29.688348379584006,10.842117561985864,15.155083194088425,7.6930510098419385,-4.778208582621434,-14.913703364825851,14.650895157326044,17.476637730273886,-1.0841985910664178,37.41804823349316,-6.345956309691563,39.928385433401665,126.85892060349883,0.005519825351478612,-88.75213357843789,118.3099803757676,0.0008017394310499324,100.913533591212,-8.700877549981744,-2.3936114901849206,-0.010882102808357476,-12.005102535107987,6.187405023257404,-0.004623774161131071,-10.526395513293568,-11.688228432787687,16.730741096119957,-32.19881965861985,-16.993875704621626,11.295939972224378,-0.7627917312623087,-3.1145830628788227,8.82619399451782
2.1624073607316934,0.0,0.0,-3.852932775067162,0.0,0.0,-4.443214961062638,-6.120108214964779,14.565849410395339,9.122012449946007,6.639259471920374,-17.634015552018557,-24.12685118753012,-4.26570197731348,-0.0002075168084232853,-13.259051384955956,-0.8469899756396113,0.0002619723411597025,29.656865399956867,10.920851737763412,15.574855482521926,7.04981441615898,-4.5206595620845205,-15.483733171633057,14.820405606215388,17.15263832013261,-1.2539534364048088,37.225122968221676,-6.178277654513943,39.96600948797208,126.78766292954225,0.01014012737288357,-90.58928824924567,118.39877900975854,-0.0013344833087030558,104.6877288337121,-9.209052006152456,-2.929520892956018,0.00027858079445188476,-11.712985450042012,7.450542543548726,-0.005321491835011765,-10.23075524324464,-11.615136950453849,16.94927803836297,-31.878254431422757,-17.004944404977696,11.532158124433566,-0.6560573820658616,-3.17148656542692,9.13606186096233
1.997923813272123,0.0,0.0,-4.220535115819074,0.0,0.0,-4.51316037369315,-6.420093748455179,14.347107329484182,9.489581020054205,6.521885309188687,-18.104598747100653,-24.324611567045796,-4.222793019883597,9.555855108354037e-05,-12.445785997053834,-0.8363917707252488,0.001186084426810032,29.773073747727206,11.071821605102157,15.697531203575226,6.564305720051428,-4.228609301901865,-15.512626006353898,14.92636334666494,17.088840890141817,-1.7775798255386404,36.87935464671469,-5.964340930031536,39.63154659456239,126.87319176276611,-0.005966806133942506,-93.86083956781779,118.6112609891716,0.0024070931021325298,105.70402031457834,-11.448657042625268,-3.086643458519006,-0.016191691297920183,-10.804370063524773,7.606065346151178,-0.00447374080337988,-9.550910098902367,-11.488810683441004,17.011082439312432,-31.179425801027026,-16.909838666859475,11.639700764810762,-0.36832847429646726,-3.245455497396739,9.549306475099316
1.5733536941556148,0.0,0.0,-4.402979131573308,0.0,0.0,-4.451775110264396,-6.906942150884732,14.408910595010338,9.732070001446893,6.379077636879087,-18.611528916347826,-24.641466969628716,-4.304177640705548,-6.0369055468640536e-05,-11.68036078035434,-0.8479835510471629,-0.0002326904825439956,30.02630545465753,11.27298584691024,15.43667338072133,6.114862420331078,-3.816400332694787,-15.589805961298516,15.13158842215885,17.162698470770398,-2.4475320733553776,36.64920509143842,-5.853026596670472,39.42830495302344,126.7749120255622,-0.009331718029757373,-95.91209650786764,118.73529058771074,0.0016983746948902082,103.29390831617926,-14.275364296879136,-2.498819148920124,-0.01415296181810195,-10.68020516960639,7.2281413846775635,0.0024811411148329006,-8.998437178382602,-11.697780692513424,17.005292644152608,-30.650967043921685,-17.10199330668637,11.553606391725108,-0.07572398621236101,-3.183937455107281,9.882866841709363
1.2905865878935334,0.0,0.0,-4.563881427710959,0.0,0.0,-4.695311838290845,-6.841314650151008,14.229778217700781,9.910603366470156,6.5226056765116365,-18.899117168110745,-24.99932145827887,-4.396970300727186,-2.418544361172513e-05,-11.012683951504682,-1.0904667462701303,-0.001114118689357283,30.36462871055215,11.518850154805675,15.111005015679105,5.702484455673042,-3.2396193499196797,-15.93685024290049,14.740650945909573,17.101586768358363,-1.973601438007291,36.58044957930582,-5.952899852980497,39.65212726117507,127.59156015105098,0.015174866430082817,-97.4969515923742,118.70581278131738,0.0003379260236738836,101.57275534656915,-14.640020789617031,-3.766307696669194,-0.019259735546289663,-11.477940556870765,6.781612952167006,0.004512334104792203,-8.844720651201952,-12.33471233754666,17.035627066979995,-30.56872029092233,-17.704804837294866,11.33581918636165,0.05543232049791259,-2.880433668902697,10.05068448032248
1.2195503885526022,0.0,0.0,-5.436193814929252,0.0,0.0,-5.149669433431551,-6.470376349085359,14.0448999281749,10.203689787987596,6.494020361139929,-19.32857278554855,-25.330183509811626,-4.595913955236958,0.00044959410886757364,-10.329389773159557,-1.2180704459059692,0.0002883302465278344,30.73649543388729,11.802333724990675,14.678683426344303,5.340516440735078,-2.7065056929757816,-15.874658785471391,14.212381319003507,16.811036507580596,-0.9252407920824989,36.617084288030654,-6.102194576241421,39.98569701606613,129.01010216894826,0.0197862989090017,-100.71812765191996,118.88277153732847,-0.004456491410775448,102.81875286449721,-13.7717814049829,-7.173322967597693,-0.007307081586951091,-12.179293401916942,6.973614728947037,-0.0002441027000120054,-8.495416312735932,-12.895924437433731,17.205942153340526,-30.27400990198312,-18.287645927695223,11.279459852058377,0.03212108840055819,-2.492078211447686,10.19736273543347
1.1169542907710832,0.0,0.0,-5.990754372726605,0.0,0.0,-5.625878567107184,-6.46226498207021,13.946538612255269,10.37479032202478,6.02377664292818,-19.399622108516375,-25.6518569212402,-4.746687668123783,0.0002604715779311912,-9.509907361416515,-1.0611620650803422,0.001147035884956621,31.066656116961546,11.996285241208605,14.288111574544212,4.896631792974503,-2.4474276717868446,-15.815918461625907,14.32566722594391,16.402543467811473,-0.4180184206228502,36.73239360880783,-6.059569982876755,40.30702928663234,129.76516635604676,-0.004875739486682294,-103.82593194669778,119.3373865733842,-0.004259208570674912,105.51785194593563,-13.870998589407803,-9.456410752281581,0.008930222970874695,-12.830172919895377,7.822666534516434,-0.004935384204068424,-7.91742106373531,-12.975568412950148,17.35616118612009,-29.694364044324068,-18.41591908442232,11.391573599660495,-0.028263242648970382,-2.2987842678758197,10.381936416573012
0.9367319565823178,0.0,0.0,-5.108755077314975,0.0,0.0,-6.218726467264942,-7.100182808030253,13.747757847441942,10.176385477174321,5.382747600661114,-18.853441370579468,-26.004139355732676,-4.544224476113264,-0.0009525060308099648,-8.648930058569679,-0.8972938748180151,0.0001065649165781157,31.403344309451995,12.056219169953499,14.331322192297073,4.380248614062084,-2.324172003036964,-16.325674720473216,14.6754036849818,16.106051089253874,-0.2919833973785325,36.71336718544387,-6.051661905051834,40.44894317334351,129.93072864096604,-0.00728502643593797,-104.82816491959801,119.54607579653702,0.003095154233172631,107.78616638706463,-15.2128626730142,-9.01424031065683,-0.012275560341532824,-13.635100986205018,8.131126392421937,-0.0043666234020397115,-7.498491054969482,-12.878597472992725,17.166704162903603,-29.277943885083584,-18.257361835889352,11.248833256126222,0.004547854198619685,-2.319682152535897,10.575533086640446
0.6624960369286816,0.0,0.0,-3.853374920560806,0.0,0.0,-6.621884946723153,-7.883371396915147,13.298659264284227,9.894406825535329,5.044206761372735,-18.06130084853972,-26.453915364173643,-4.110211372216296,-0.001033826810013432,-7.950506948653473,-0.9031082590018141,-0.0005429973939041336,31.76559587776034,12.236968158773314,14.832974295491317,3.9669067256987103,-2.050722768952742,-17.00133044027521,14.991202394346393,16.025051346136383,-0.32704250717045635,36.657041295819006,-6.14186725203036,40.178758476634755,129.98964832595888,-0.0022606412400600173,-103.7948798856144,119.35475081219957,0.0005006588536983881,107.59269511555972,-17.007611003595873,-7.632260224507086,-0.00680096408440422,-13.600960852184173,7.2091012234031835,-0.006198694185006598,-6.98304407063517,-12.939732056340162,16.960581370954145,-28.785458374970908,-18.239552766488167,11.028492836478131,0.048059802753921646,-2.2730048195623382,10.947388756946289
0.2700104427355595,0.0,0.0,-4.141954171968521,0.0,0.0,-6.752532289370525,-8.236372652021853,13.082261141387724,10.056541056388486,5.374004436693951,-17.579653233696448,-26.875457422458208,-4.0860014815245655,0.0004926081981344483,-7.46883545923924,-0.9648210401305575,-0.00029307164677792554,32.09362072811371,12.67522856703562,15.05627176976973,3.7493005441791145,-1.6802294285864436,-17.20586490629237,15.339699987072185,16.133693767175423,-0.18602743999741025,37.04346318479245,-5.9178376503948815,40.0145828240892,129.88077066615756,-0.0022602774182997466,-103.67009461234035,119.27937364388957,0.0008744140134086173,105.09906559790579,-17.379065708718265,-7.157614397971904,0.002174111765285155,-12.77867561460258,6.76089884533671,0.0024072961953832102,-6.219963551506647,-12.935998347897447,17.336285449214763,-27.99353470517633,-18.37198832258669,11.388090737111662,0.1110465007793828,-2.0748273726444983,11.40124170645607
-0.4379275464759556,0.0,0.0,-5.116622155250694,0.0,0.0,-7.050001470308784,-7.735456477423258,13.095907653779172,10.384663685938957,5.910730209265506,-17.425331699887476,-27.117044132666436,-4.60241731439808,0.000502439268104859,-7.020796937125937,-0.9796533945993648,-8.186137919802073e-05,32.30340216397429,13.184246530900815,14.80650566209942,3.5510455108392156,-1.375876678830774,-17.13367305224342,15.477883407678616,16.172407069934458,0.489168065983374,37.588215318650825,-5.488097599056734,40.31959716077382,129.84667430516467,0.0005158154554366907,-106.00254323462937,119.4428788756015,-0.00029720019252892814,104.6915812126201,-16.049305120017383,-7.8522476487643225,-0.007233574645180344,-11.948152170694957,7.222413114832074,0.005317736295804439,-5.388840378465614,-12.739100122881934,17.98832829354447,-27.086611659697986,-18.42452493686997,12.08729336960924,0.21559864441655618,-1.845369859425874,11.617656015239545
-0.9047460829108591,0.0,0.0,-5.507078358073121,0.0,0.0,-7.658030688041691,-6.918212031089087,12.91172025562433,10.467650443131422,5.861020719572319,-17.47359125222114,-27.247035113239257,-5.061891156046509,-2.7778078395718684e-06,-6.456400879362161,-0.8877765409846577,0.0004559483508712758,32.44243149600172,13.56664603759952,14.485293917081167,3.2359224853282917,-1.1126970861746126,-17.106434260503967,15.2785982767934,16.0280714962762,1.4285428769487647,37.87920538025888,-5.165423300987294,40.63245705506842,130.31624742620028,-0.0018930457877866557,-107.64212175008335,119.51089246568378,0.0005606181164794663,106.61836569808546,-14.340636580416518,-8.637145279914446,0.0012906904856017111,-11.045707310816447,7.386622156093647,0.0013815067398843508,-4.69325287315324,-12.597886981209463,18.3135986393623,-26.34679121036861,-18.410514596637448,12.453090270114563,0.2985677471905298,-1.638136654863024,11.635668805787363
-0.637415827664716,0.0,0.0,-5.915359525543415,0.0,0.0,-8.287021376485825,-6.490673073408933,12.646767787772925,10.54126232303255,5.380962472407421,-17.761066827327202,-27.345972694798398,-5.2745109375998185,8.170681890831637e-05,-5.857952521933768,-0.7130289730780928,0.00044269145335500636,32.64425484760181,13.90664059369227,14.157822681795702,2.9368772719925045,-0.7885799551801006,-16.963086368452146,15.049138669805446,15.864388322795259,2.228801784409572,38.20628747582204,-5.084384119019523,40.59388430568111,130.97825651358335,-0.0021664575740377025,-107.56414496706661,119.43297009042047,-0.0004118855285309922,107.15518356066,-12.30312250709245,-8.846597313831104,0.0023900040061520717,-10.613358312625122,7.421054226591472,-0.001779037482913672,-4.528367512052215,-12.477814794157725,18.11660440629375,-26.18363752036369,-18.227955354588065,12.311497994311681,0.4167841453212483,-1.4061052555183862,11.74867321193158
-0.2948665224741172,0.0,0.0,-5.799051378044706,0.0,0.0,-8.855028341803438,-6.514316533087115,12.318308669862404,10.512995029215068,5.076849399777699,-17.730201588890417,-27.37182381427781,-5.3837551297306385,8.683074402772616e-05,-5.362903755856778,-0.6683490915380995,-0.00041258616099598276,32.7604364779104,14.281228963823168,13.967694684437184,2.635265866349083,-0.3792783485410898,-16.93000156522811,15.02385641141907,15.666582254777724,2.8056889328187933,38.68264227105832,-5.144828647227185,40.44490940031133,131.37597674603293,-0.0011738924879155757,-107.22317479185577,119.38938836746027,0.0005801065616198852,105.60914884932812,-10.710187314678047,-9.334775703390623,-0.0009323550209179136,-11.34840184419226,7.671453197235159,-0.003887957101539159,-4.706052616931987,-12.289475060410242,17.684276096772017,-26.373933805079066,-17.897043592647726,11.97183379142487,0.4235026033080399,-1.0825902842014625,11.945658833889118
-0.37268275240882914,0.0,0.0,-4.6730512444301056,0.0,0.0,-9.461016424938025,-6.929753073310599,11.832558954454893,10.251629209633728,5.158375952905644,-17.433232398246947,-27.36744560263573,-5.282135934120268,-0.0001117017375429972,-4.941087152098839,-0.7703342381503526,-0.0003982081266321057,32.76202285114319,14.455871253647725,14.115172765459318,2.241892607131505,-0.0287148675123091,-17.21442970295859,14.959109436827832,15.517166925229759,3.313597800558365,39.06933330238106,-5.053972909169138,40.418820611059466,131.61989873447152,-0.005373260045080577,-104.95632057025665,119.48064968420303,0.002312552500270659,103.67090072302793,-10.385526431157887,-9.709760692028759,0.003512512804176756,-12.082156600430215,7.809081247402132,-0.0012421307403172504,-4.618275976306525,-12.246301313007072,17.45124113769794,-26.29957828533126,-17.772821789150793,11.766287209168096,0.2598783260199425,-0.7745790598285098,11.933340981906577
-0.5416356494577979,0.0,0.0,-4.197552259293053,0.0,0.0,-10.036261909905654,-7.180599630536838,11.213023602587501,10.110072193991684,4.92154769336374,-17.340075502417516,-27.41619732992161,-5.040363035906792,-0.00016654312748330766,-4.4820837610850806,-0.6974460371889638,0.0005803132556904421,32.90143010607407,14.440392027625183,14.49859624037773,1.9194603898676164,0.17600041033908514,-17.600038306132248,14.839027642834836,15.568752782823669,3.6079323837804904,39.230924909993185,-4.809828294789769,40.44955866122537,131.71764516222038,-0.000501332078603557,-101.49516576132504,119.68103051896799,-0.0008111651495308988,103.28557357652096,-10.199863352237646,-8.965799506936428,0.006049316420396352,-11.636463795376752,7.992881200771327,0.0033633159247894117,-4.412785208288033,-12.35314892718566,17.508441626975195,-26.102277040332368,-17.892760439587768,11.779372787126402,0.31505082797941714,-0.6137542282741725,11.724450577257315
-0.315379696852818,0.0,0.0,-5.033289706917881,0.0,0.0,-10.619425007460912,-6.970721242728675,10.754129005098907,10.279054080663736,4.238127606543958,-17.359235456859906,-27.36945274304662,-4.937992024878613,4.6162267445060885e-05,-4.0696196405768,-0.44724879331756784,0.00037720514063320645,33.18553982492057,14.452924875848586,14.673735714424524,1.8148918848851197,0.34759393990857995,-17.93272306456884,15.04282759301007,15.61034729416853,3.3384827757544895,39.028948619314015,-4.79251467911879,40.459606824488446,131.5554396553083,0.0009425960783483361,-99.9662527000125,119.99518072760215,-0.002657714463883969,104.71961752942674,-10.370668435301186,-7.839854737233541,5.4971091865954994e-05,-10.670115302359793,8.39888903725279,0.0020333561301374885,-4.4984452528143475,-12.475717358997858,17.396947262632814,-26.211371246256025,-17.96638173011011,11.625398996671494,0.7692810304874362,-0.4394178034501872,11.613461646361918
0.06559055941480617,0.0,0.0,-5.741869890699146,0.0,0.0,-11.17123629861795,-6.727034497535669,10.693807873692776,10.521137271731927,4.046534736393408,-17.613936859272208,-27.13027580182699,-4.961691900086197,0.00021414319298646218,-3.7886147715492453,-0.3768129787143503,-0.0003191932060680478,33.32026367413415,14.558077438406222,14.51217154483692,1.751085093214537,0.6594780227211565,-17.997198513680456,15.371979670894788,15.550791770826006,2.772232552196541,38.68903093198199,-5.0193715861035475,40.40332288240147,131.33157369290416,-0.00022510492468029756,-100.17909047084832,120.22380866278161,0.00038458757543028115,106.34452503410526,-11.738869382362331,-7.1517978288511355,-0.005611374271336017,-10.676157552518745,8.475334978262737,-0.0007928132773191633,-4.733447970962597,-12.627988296521956,16.85908499203812,-26.50560845444961,-17.913330737344694,11.053533987207889,1.2051393713365328,-0.08625862050571104,11.71665385272652
-0.09974958171960649,0.0,0.0,-6.21131361925989,0.0,0.0,-11.591987704056002,-6.509619023746021,10.947173862966073,10.7690201285566,4.17384280385394,-18.23086682907508,-26.811411845659073,-5.106378862961784,-0.00024510204617161436,-3.6671914225937634,-0.48867761335411364,-0.00016511569944066516,33.26114723480622,14.78761479476228,14.087506480881014,1.6626459710393005,1.1038578793574647,-17.651453800120475,15.292644273544306,15.707730137682265,2.6397970286135837,38.60436300888959,-5.103863828107877,40.27529059425165,131.21921247557339,0.0002419920299570584,-100.99164585624702,120.23797731834279,0.0009574420190032755,107.32331215737398,-13.23913998079717,-6.857605650185359,-0.0017279771878356551,-11.541577237501226,8.064716244734832,0.0016691235071689971,-4.70288263365062,-12.7499333099612,16.573720636822987,-26.510596354576588,-17.923224750025714,10.734281004866839,1.3560193682072408,0.33612101869422445,11.783473011976604
-0.8017235259565998,0.0,0.0,-7.243995600452762,0.0,0.0,-11.795710402599719,-6.196983485024942,11.315770922330184,11.076446781062565,4.078500647359455,-18.826983961346787,-26.558076262334932,-5.457346292007237,-0.00023224483822848743,-3.7197248970166603,-0.5520621645865454,5.4688932496166854e-05,33.176760232324206,15.134706333492518,13.438418966952886,1.6512673020097275,1.5191754500989494,-17.094613141961062,15.085252631001135,15.961220040821733,2.9967044842016106,38.65273974800938,-5.107826894921237,40.07793853463331,131.17231803405264,0.000525676460358324,-101.97938798941891,120.18655683902968,-0.0008310503519383967,107.1052499822971,-13.849929735856591,-7.069371979486615,0.0005904368474194706,-11.928459397548187,6.962391790965915,0.0015877308096396102,-4.494827553789814,-12.716191542835869,16.705441484503506,-26.2889157484874,-17.939611886621094,10.872832958437163,1.4102169335355514,0.7073204693247237,11.729501572123784
-1.3067906059088157,0.0,0.0,-7.492988929461695,0.0,0.0,-11.901598012446783,-6.185263979368761,11.374574477227887,11.076936197762528,3.990514397068594,-18.93918536668061,-26.298791874477057,-5.6075501597063,0.00032481329386062287,-3.772373346706385,-0.5095104492299439,7.732610620120814e-05,32.97649053941989,15.367784473129314,13.244769095232854,1.5648906824484856,1.7745129620695472,-16.921530007590132,15.079612329610507,15.989627764608208,3.258708487671423,38.72059524085297,-5.266579225783136,39.81396803249045,131.1573747664606,-0.0005870640622661251,-101.60411078486689,120.25494008676623,-0.0018416057787283826,106.60334768352287,-14.087740671249128,-7.312632871555306,-0.0010371686252189784,-11.327985111879551,6.022650252789153,0.003779192686597223,-4.358381519520872,-12.525936377389414,16.628747480940127,-26.13535523860376,-17.735165174481626,10.873993332191333,1.443411717139021,0.9965487828638384,11.78859104319354
-1.2265041356896673,0.0,0.0,-6.823881718245176,0.0,0.0,-12.167761965902576,-6.458760987473944,11.205059168225146,10.926738765726439,3.885408107936897,-18.85447382481586,-25.921534974637368,-5.496941047223668,0.00034834499908291384,-3.8325403110719187,-0.41298709005763246,7.092110071281865e-06,32.78499096683066,15.380694406076406,13.304989934462627,1.49943111050562,1.9037450622203773,-17.14914569492545,15.05209700951215,15.937193997000923,3.2981256785215245,38.783745045105476,-5.390916673035003,39.56512486799427,131.36892219734753,-0.0022504556118152414,-99.6852917918834,120.46490767521547,-0.0009434216624119034,106.81833108837877,-13.688663562238617,-7.5035424107172215,-0.0031702965842655404,-10.359648764033516,6.107758470626292,0.003925471953807709,-4.320383570114818,-12.272397148109048,16.206139169219494,-26.098033000292094,-17.346592047672942,10.570659699520549,1.5407310729827643,1.2437397770725576,11.985752504778118
-1.093879022771691,0.0,0.0,-6.457658230928839,0.0,0.0,-12.607666161698587,-6.517252054793142,10.93799837233777,11.066472452553436,3.646227194635247,-19.132725746329292,-25.50820937102198,-5.365554589451423,5.884655131281082e-05,-3.9746708409926557,-0.2881773436562682,-7.025455137164564e-05,32.82371362590289,15.338153733587319,13.156988625554769,1.6449935313530972,2.029058773752532,-17.23911737932796,14.936353737264664,16.02993633300592,3.4205646501728575,38.87916246778155,-5.222948948886637,39.48914673512265,131.6466708535744,0.0005375667013298617,-98.64032379971971,120.6072207649705,0.0008979947084748806,106.6965952865267,-12.828568953394706,-7.556262468550487,-0.002186721254122233,-9.821918492360075,6.489200626298546,-0.0005256392082471255,-4.314232676252974,-12.018260972173564,15.752294329615143,-26.09442483920008,-16.945970306022094,10.238162016995556,1.778840042195796,1.4737592331647855,12.052143981840244
-1.5685970482423846,0.0,0.0,-6.411790367828914,0.0,0.0,-12.988549010111424,-6.53125118513321,10.728745178639997,11.46823412189807,3.474842878775348,-19.758324141708698,-25.093756233373895,-5.303209847661809,-0.00026906069846211226,-4.161219819006723,-0.1801021273988782,-4.395072011252831e-05,32.85208147769131,15.398549146156732,13.067257583198183,1.8801373195981574,2.152578706996291,-16.98672773209367,15.006648130581901,16.203269120190328,3.6863430405884636,39.128640528276094,-4.875779260860503,39.54356022976547,131.5321884711938,-0.002758296722865755,-99.1330820793952,120.75725164500182,-0.0006305896069820041,106.68523530968771,-12.808542884954932,-7.133546666453059,-0.002465551952590554,-9.549005021541173,7.467512895797893,-0.00025529114624642365,-3.9647635849181495,-11.871153021285187,15.803740865896945,-25.72485502149521,-16.828023207858838,10.344022531348351,1.979436772867439,1.6541434530138468,11.94597662284883
-2.2525390207133813,0.0,0.0,-5.684159147167704,0.0,0.0,-13.206646081729751,-6.969990673012452,10.744938406652938,11.751081999894637,3.5049160695381083,-20.041433920253752,-24.640630965803197,-5.291388563846867,-6.674259563636925e-05,-4.441395527774502,-0.15361245871301463,6.755650894162344e-05,32.53678415350234,15.508440748437135,13.189251691346746,1.945021769824995,2.1951919692288424,-16.77429248029171,15.075176211687488,16.337549597714325,4.2216182561672975,39.42976508920558,-4.708153198507642,39.647883219465726,131.3631841855367,-0.0017605886797293449,-100.36017911639503,120.98299498742132,-0.001467023686890237,108.20109671725197,-12.650883005770721,-7.135028687547259,-0.006668590630141076,-9.358879690906205,8.813265057412021,0.00031711733868710625,-3.4049781488020545,-11.718600579484857,16.462876485885193,-25.10080346374657,-16.925176018722887,11.029401416126817,1.9310204601420229,1.8511988166338915,11.876302732100159
-2.254449518463309,0.0,0.0,-4.545182551184092,0.0,0.0,-13.573589738586758,-7.291725956481349,10.64228325478667,11.760802500683381,3.569583263414493,-19.730843165344524,-24.144577211023826,-5.17113835582665,0.0003678889354487164,-4.764255693575378,-0.1919066894361116,5.6602917908371e-05,31.96283777787037,15.510081227637945,13.489080694331847,1.7511441757263129,2.2094244162919514,-16.952588293610045,14.636991356466073,16.4240865253692,4.923248793710456,39.542081260833235,-4.774639666460633,39.80723050121643,131.8228562636423,0.0029587654835274272,-101.50698305178776,121.04949898823398,0.000813492567317968,109.86025911109658,-11.631582939450116,-8.139181125171854,-0.007900502433178436,-9.722489974477355,8.629230961793375,0.00882425681297197,-3.2213296359713457,-11.414025858220114,17.013036258001677,-24.841336329803372,-16.84102453730687,11.670363309622754,1.7476192014119851,2.087579830747199,11.844750258876473
-2.188030137208887,0.0,0.0,-4.139288804198773,0.0,0.0,-13.98454839544439,-7.100240842121873,10.57736898212029,11.75983524759045,3.397328159766473,-19.61104883304131,-23.624041989025663,-5.054456532980188,-0.0003125101918624681,-5.024479677173406,-0.19870157040440142,-9.370649107422386e-05,31.485089872464425,15.406105403763494,13.584858342610579,1.5795669469867857,2.254007665857759,-17.040767534119585,14.086352611704221,16.468497653914067,5.369956018346023,39.45165113185493,-4.9304849889105915,39.91421932398642,132.47568011566972,0.001132440435919173,-102.25225541260822,121.08754529507598,0.0013302206596497116,109.30271050611302,-11.263579152710623,-9.020560348202645,0.0011513540303536801,-10.707932825981807,7.368242860040843,0.008119878710310066,-3.3134596223554356,-11.268054484216474,17.041036685911887,-24.9150581616656,-16.715423137095645,11.753168937838598,1.7038779440642966,2.323254492269475,11.793605174482355
-2.265929896044863,0.0,0.0,-4.1350202753905965,0.0,0.0,-14.310852843773212,-6.9232879834199945,10.558515284248633,11.768404226482307,3.1013610329950394,-19.586370984817584,-23.171502668143116,-4.986528859342598,-0.00027472304567314446,-5.232528984600342,-0.21499501178240887,2.5353659874785845e-05,31.174414917142656,15.32411789752113,13.5036824491904,1.5450341325819845,2.3187594365427966,-17.118545160692676,14.080157969778218,16.46784609556321,5.742309357057867,39.45137716304314,-4.951702429571713,39.96850766464493,132.65734989019356,0.00017847940533292724,-102.21619397495185,121.24976075943094,0.0002974277644080264,108.45220541368096,-11.229416494113403,-9.12197356470051,0.00099345466709181,-11.558096473666694,7.251900026896646,-0.003083232892815401,-3.448086198241453,-11.443436570205929,17.225445247195072,-25.054696228459196,-16.945060038874868,11.861341444161319,1.712567147386545,2.5490177536574716,11.665314860892313
-1.9923577456155648,0.0,0.0,-3.9085601957298786,0.0,0.0,-14.73100340639537,-7.20177091697567,10.287575060182549,11.782762857105746,3.186505722101392,-19.177275228965694,-22.889123619125254,-4.769677226535082,8.082950237816676e-05,-5.426788837182459,-0.2921436070039928,7.19754691808167e-05,30.86287079628943,15.278165451293537,13.68454296441611,1.4502556675325837,2.364253963845472,-17.54263796075283,14.463006547259477,16.502965435933785,6.137446454120757,39.638517560384756,-4.7618583292092715,39.9861458137931,132.55672800867222,0.0005471066426461884,-102.10523386391485,121.267333310584,-0.0010763926341425902,108.46670987072417,-10.499554113796133,-9.102287582047639,-0.001618510354345042,-12.19990316675155,7.969588874860222,-0.0006924581033308132,-3.6264846982668386,-11.647441234935986,17.563184331906722,-25.229147821481035,-17.256567022668662,12.104618671744953,1.590953271036185,2.701962087936621,11.495266521732015
-2.0997141259274033,0.0,0.0,-4.293300048766767,0.0,0.0,-15.187276500677832,-7.7834581486641845,10.200146381562433,12.050454746723858,3.5754435796257,-19.203517282720924,-22.728798260363863,-4.615211227462393,-2.873801647761598e-05,-5.531446780101019,-0.2771867456415294,2.008683103029466e-05,30.653176469231052,15.296782678541161,13.767004853805581,1.3004465497460724,2.4243690656461863,-17.532686151412918,14.785982896106516,16.749504489333635,6.224725223859324,39.927154859022046,-4.707441761600742,40.02811751156497,132.43320720144524,-5.732331129594883e-05,-103.09047610873488,121.10248686045156,-0.0014922026301708094,108.00595678745523,-10.16066951535748,-9.030112585273692,-0.0028140278350543483,-12.971296018231829,7.973256263509405,0.005762787351431584,-3.765045205237166,-11.557135215326776,17.312057310364125,-25.37758765851799,-17.08202297122322,11.900060431743382,1.487372417439222,2.7948903403512215,11.359366098584392
-2.6024351636211454,0.0,0.0,-4.911792516993489,0.0,0.0,-15.647952024900167,-8.400019485897689,10.31055374263466,12.251830665669019,3.5535853614464448,-19.81228378527308,-22.633543949602636,-4.590734704930271,-2.689985749426238e-05,-5.5148360596161545,-0.11638947587285882,-3.459455234380608e-05,30.674597044414686,15.355247109921171,13.71143697159739,1.2297477129048129,2.5065930432133,-17.007694209567273,14.931186695504891,17.06762438363106,6.003772409298829,40.172341581834964,-4.916698563498652,40.16735104426971,132.2371919877594,5.3421707489913526e-05,-103.97777724372689,121.08465976595564,-0.001688688441214313,107.9810714503118,-10.547683380963857,-8.56744932166609,-0.0008919587081235924,-13.36850785119142,7.941249449686586,0.005485888762369064,-3.8594066657829402,-11.393835398314492,16.843749340234574,-25.490274170273942,-16.761099469284307,11.516993521844405,1.5394512399198348,2.9302341165396593,11.243379555038398
-3.06162,0.0,0.0,-5.03679,0.0,0.0,-16.11637,-8.62431,10.11003,12.14328,3.21202,-20.14987,-22.5657,-4.54947,2e-05,-5.54827,-0.0147,-3e-05,30.92544,15.41243,13.78453,1.39788,2.61765,-16.8528,15.15605,17.05908,5.82573,40.21647,-5.00626,40.28212,132.00508,-8e-05,-104.34789,121.18784,0.00017,109.42426,-10.32433,-8.16246,0.00163,-13.45579,8.52696,0.00066,-3.89577,-11.50838,16.53287,-25.56292,-16.75516,11.1771,1.80733,3.08659,11.22733
-3.1217800000000007,0.0,0.0,-4.952240000000001,0.0,0.0,-16.497970000000006,-8.279310000000002,9.666970000000001,12.013430000000003,3.1135300000000004,-19.93894,-22.504090000000005,-4.53454,-4.000000000000001e-05,-5.637770000000001,-0.09359000000000003,0.00017000000000000007,31.119100000000003,15.48818,13.907950000000001,1.60488,2.7276700000000003,-17.1872,15.498810000000004,16.93432,5.900850000000001,40.27197,-4.853640000000002,40.38401000000002,131.91466000000003,-0.0006000000000000001,-104.13264000000001,121.11543,0.0036800000000000005,110.93427000000001,-9.858240000000004,-8.29042,-0.00018000000000000007,-13.930720000000004,9.05751,-0.0044,-3.8492900000000008,-11.598770000000004,16.38106,-25.537740000000003,-16.784210000000005,10.997880000000004,2.0372300000000005,3.1385900000000007,11.26365
-3.0229330326915305,0.0,0.0,-4.940269944947464,0.0,0.0,-16.779187494826626,-7.926353487791767,9.365057642686482,11.971259344071767,3.1271271427428915,-19.71981962935787,-22.442011245926924,-4.559947053443312,-0.0001455669297245558,-5.71342574911971,-0.1884272442811428,0.00024179461661969436,31.206773476526035,15.550018886651745,13.976916158081183,1.7373380129052403,2.790475998194126,-17.452782823655227,15.760095806498864,16.891377618109725,6.045308768038074,40.380036748614856,-4.698489210547068,40.4834022627013,131.91165252296094,-0.0017813000763804941,-103.5560240467849,120.9921351040949,0.004197087550736813,111.82052711504252,-9.62743744568693,-8.523845388603922,-0.0007010329022132703,-14.383233996280303,9.418769257026504,-0.005403962341587403,-3.8214545389578296,-11.600431344196556,16.31269409233571,-25.51510613720854,-16.7610046245719,10.932238022817788,2.168029930940299,3.137007409109673,11.28004454914634
-2.8690833799498794,0.0,0.0,-5.0367977822885965,0.0,0.0,-17.07321124609713,-7.609985592397588,9.165892744225403,11.998093215351513,3.156417105274944,-19.577061781940436,-22.3553601219239,-4.623388399196204,-0.00026954551082589823,-5.796216885942464,-0.2728792869700483,0.00016744632849371177,31.254571471767196,15.605759165234359,14.00447992286329,1.8518889025266527,2.8232506782215556,-17.613774684434958,15.975898213350186,16.914903962427132,6.2477420757701125,40.54121370798198,-4.543397701795754,40.59917265354126,131.95293015014448,-0.002990548483304486,-102.55357137847298,120.84693400152642,0.002450399989528043,112.35489600317476,-9.564009723505107,-8.721236296767037,-0.0017455626081972608,-14.750994878541977,9.75556163937742,-0.0037012137587456094,-3.8516773452108706,-11.545666218393906,16.261127622033744,-25.543006841037887,-16.691444053739737,10.90436124845465,2.2823278949209085,3.1155402558501066,11.269985652868405
-2.772121938611483,0.0,0.0,-5.252407747787357,0.0,0.0,-17.34670877120301,-7.378710655571201,9.07452920646678,12.077861092884612,3.167004541681793,-19.547939938562692,-22.260027208912213,-4.714471609083047,-0.00033886763224785603,-5.870387411298349,-0.319950175679096,4.6995455468539295e-05,31.279827926847876,15.656908377679297,13.981936129036576,1.9423218040194634,2.8341427728433,-17.646569260847823,16.115630405087405,16.991424174320073,6.471708468617895,40.71336787272163,-4.40830189024145,40.704348277765625,132.01742477769585,-0.0034489335638076754,-101.34835750368038,120.71633395311554,0.0004430331411971809,112.43819142114528,-9.658460888932318,-8.7618791043239,-0.0035287084987317753,-14.976651625902996,9.99672113471943,-0.0012373940500814366,-3.9450214366440353,-11.442145436570273,16.18593727259831,-25.630391172338754,-16.568018591060355,10.872839469797194,2.3894084433504235,3.0973154556663665,11.236818110934209
-2.8346916294208215,0.0,0.0,-5.58745380373826,0.0,0.0,-17.568647475740043,-7.26938021675804,9.08811224743982,12.191106425694453,3.1310692491113317,-19.656536368875095,-22.172304326047826,-4.822756630241209,-0.00029070709839929226,-5.92070610615713,-0.30754570178296564,-2.7745352346886696e-05,31.29915905760986,15.70647942946133,13.903056252277477,2.0026615373168517,2.8328680733658187,-17.53976341293393,16.157052450644418,17.106050756814483,6.682472956717762,40.85691181031724,-4.310602713123745,40.77453475686157,132.08511420770117,-0.0025607464604371784,-100.16654922851002,120.63370159519263,-8.343313601862263e-05,112.00033102884859,-9.889490050076514,-8.55060135778707,-0.005981811290636399,-15.021994643370965,10.081862708102225,0.0003038357407278932,-4.1007870359760785,-11.29982356744879,16.050313193690588,-25.780411551701228,-16.38664516250205,10.798829798964086,2.496544387361335,3.1040075859335796,11.18565567677066
-3.098612249283003,0.0,0.0,-5.975434656368741,0.0,0.0,-17.7231337154868,-7.2427429580814,9.152182123466794,12.29636337140035,3.063796037053639,-19.84076079682147,-22.111051522314703,-4.93751536331959,-0.00012942874206097797,-5.935440575888105,-0.24564214611961097,-1.913562410689842e-05,31.324438073956046,15.767283266881494,13.777810475036846,2.028494714484809,2.8393215340139415,-17.36165349207507,16.132512082218724,17.234694398057005,6.856531220497321,40.94901672126011,-4.251119774746598,40.80228138786216,132.14286147614072,-0.0009253705329353529,-99.25389821864614,120.6118253351842,0.0008985696608917787,111.16191736483358,-10.15874264077799,-8.159451643092044,-0.007197591544765734,-14.973806233188956,10.021354581333119,0.000948485868128896,-4.280687569285392,-11.14360520898706,15.841261376183207,-25.958399861348795,-16.165730759738356,10.660448610613969,2.597835483464224,3.147720422379509,11.133141084486562
-3.5398179810616806,0.0,0.0,-6.324879435106449,0.0,0.0,-17.81208945067962,-7.236551493031255,9.2017691587508,12.357162706177688,3.000465375080677,-20.009968466619465,-22.090081463931284,-5.050496636112991,8.655620292103543e-05,-5.911898240966963,-0.1603624500481642,4.519069451772027e-05,31.359898016374572,15.85137868324931,13.623752617653164,2.0183973540869076,2.8703292685878927,-17.204862199808872,16.099252327098064,17.353155098207075,6.983364349434579,40.986848886518814,-4.223156209242655,40.79682996279006,132.18569718357227,0.0005778018088476534,-98.79469682923468,120.64977445076782,0.0022197199422904546,110.17009129034281,-10.349357694948951,-7.7573228140438095,-0.006352994993252516,-14.954614449285181,9.885338379545544,0.0010968236713136147,-4.4405706934959746,-11.006832418759563,15.577168127311614,-26.122334381433156,-15.942890259963825,10.462405899857076,2.679535120653703,3.2280964635520064,11.09674425814244
-4.0539210789695534,0.0,0.0,-6.551346718831334,0.0,0.0,-17.86068549158526,-7.207130972560529,9.192387725714994,12.365129227740901,2.978678676321756,-20.089489625565214,-22.110760593147525,-5.157615573096691,0.0002504656792311523,-5.8624606357968085,-0.08260886221175383,6.355190194303892e-05,31.39861832321058,15.96094308215638,13.461782876491798,1.975981947147534,2.9279155426325203,-17.142800073875296,16.117607681984012,17.4442480980139,7.068681092655732,40.9929548736069,-4.218463273716522,40.78580476828624,132.2184594765851,0.0014712716245677995,-98.83238759275446,120.73575238830291,0.0019091797725104061,109.36166144918337,-10.375522722417656,-7.558356256819707,-0.005900480603128604,-15.05163913901805,9.801959934082847,0.0006120235907461652,-4.556410380043374,-10.926062560062658,15.317197119434777,-26.247599081042125,-15.773524082888779,10.246888326039654,2.7240911856143963,3.3281815499628165,11.086123907640744
-4.513949504673739,0.0,0.0,-6.609947820199072,0.0,0.0,-17.90623373439779,-7.159482694854533,9.09349518537836,12.334230204979702,3.0019725091749216,-20.05634457349314,-22.16355163382364,-5.246658343965067,0.0002864412902455081,-5.806901524809806,-0.027475388700756137,2.5243246994088446e-05,31.430049260036075,16.086491740634735,13.327318440271773,1.911309604784838,2.9995433513970755,-17.19541779997261,16.219230621504387,17.493662393934443,7.120673745484889,40.99356860030394,-4.229685910926981,40.79353518649636,132.24156917503362,0.001562707475790162,-99.29835275618208,120.85177578099933,-0.00021750689539993496,109.01987701621601,-10.236812423731084,-7.654516158483637,-0.006468785633640374,-15.261121309291989,9.885453904160242,-7.184941742968107e-05,-4.634794354651335,-10.922302294082634,15.115824211818593,-26.339191890398137,-15.69692899439215,10.057461432626658,2.7254684278965513,3.4274056627847505,11.103747965815797
-4.804312731585846,0.0,0.0,-6.486455630740256,0.0,0.0,-17.98934776977173,-7.130056808575456,8.884884034020041,12.286512806250661,3.047098996885641,-19.92833073278531,-22.231701193981934,-5.299103654071362,0.00018131125645360277,-5.765383591926724,0.0036975277403342877,-2.287797466759709e-05,31.44230523001068,16.21175477113981,13.266339376413029,1.837410179472542,3.064694202831034,-17.338163680134535,16.40733027956802,17.492633765797187,7.1476137839382075,41.01022613574756,-4.249541327784516,40.83361954964568,132.2499624170986,0.0009303082715034256,-100.04546039173994,120.97628189945706,-0.002890963276734299,109.28258516185768,-9.999590345526494,-8.014137906703128,-0.007038062791705304,-15.510453102674148,10.198358976329446,-9.524983410810658e-05,-4.69970320924788,-10.997402735412797,15.00627798244439,-26.419195313428894,-15.726915405250894,9.92480636313296,2.6884223287431888,3.5075295534658903,11.147152640937508
-4.873491728958858,0.0,0.0,-6.187303564761572,0.0,0.0,-18.141221376143665,-7.160145195997976,8.557386759506796,12.231936316627607,3.0760119996222355,-19.751635196643416,-22.294990966300915,-5.294899897302976,3.931851406019322e-05,-5.74808148716559,0.019787421576583437,-4.990228201821916e-05,31.42455853520505,16.320389146653973,13.327314060592457,1.7651157817403513,3.103777794541572,-17.509921502297242,16.654787365144703,17.445881391311225,7.156774373358651,41.04848385764809,-4.268915111935209,40.89724436254547,132.23281710257405,1.2384826446997606e-05,-100.87435213551402,121.08676750445116,-0.004101956548819942,109.96463638734454,-9.774539027492992,-8.477504118578276,-0.005866572228273435,-15.686855833870602,10.683054258565834,0.0013762490826571205,-4.772717650554781,-11.125385851576118,14.975119518058978,-26.507654597762993,-15.834480849292655,9.84605358799328,2.627648454069011,3.560813183535468,11.210810348472055
-4.770632405854717,0.0,0.0,-5.763300777755784,0.0,0.0,-18.36402066794389,-7.26099105734268,8.147065116010321,12.177261380165259,3.062807285616844,-19.58486218833993,-22.336999308775418,-5.23805446501464,-5.6412368984594074e-05,-5.755530992933039,0.028000033732826918,-5.049275568071553e-05,31.37809593641572,16.403113642848183,13.506875796751192,1.7052504247161429,3.107654715247889,-17.642859014799036,16.93236062058869,17.37726124998909,7.155894065025521,41.10512968306142,-4.277612883108503,40.96464154127468,132.18413353646963,-0.0006409455246604277,-101.60417957119891,121.16897542860815,-0.0033332883056638833,110.67624703845249,-9.653562957398929,-8.913060086497053,-0.0028768676139268633,-15.711314464224852,11.18395914104433,0.0028693941242245915,-4.854076557990641,-11.266235764304234,14.992081061118828,-26.602768282117573,-15.971470639087585,9.80786979817302,2.5624586396041438,3.585203557444694,11.284321493391484
-4.6347286789656765,0.0,0.0,-5.309963485795379,0.0,0.0,-18.62936138054154,-7.409885563694555,7.736505890983224,12.130468158617449,3.0002237111411354,-19.489917405296318,-22.348330878655297,-5.159831077579833,-8.004614668955086e-05,-5.78045493201939,0.03182570540750883,-3.94245396070677e-05,31.318011652733134,16.459118641010427,13.740847972597981,1.6683149027098412,3.0790329794410014,-17.67717396301512,17.21754758868837,17.32682610394425,7.15133860156064,41.172293676556464,-4.266097507023578,41.01168981605857,132.10567781599164,-0.0005832680398075394,-102.10194260554893,121.22010130467959,-0.0016197961315373845,110.94852555664752,-9.692819705699536,-9.260649062362786,0.00045679734629062177,-15.557086349502438,11.492998711351078,0.0014183704622013295,-4.92177672581104,-11.374763659253636,15.023475065547752,-26.679976924115884,-16.083683310151113,9.795764371021836,2.513623522880733,3.581981005774666,11.353120203217443
-4.62630218011478,0.0,0.0,-4.9497752522861695,0.0,0.0,-18.88787413513927,-7.563308563220378,7.432010353090727,12.109510239250113,2.9025669520334216,-19.510462813312625,-22.333159679032633,-5.110097025644707,-8.284750682047627e-05,-5.813805097368558,0.03326142724389075,-2.4728195589454986e-05,31.270697607929844,16.495851228691173,13.914175718102276,1.6610944684626179,3.030338534948307,-17.592596291260755,17.504242518194967,17.33546935233621,7.139755573609805,41.24645264604824,-4.231518524255705,41.024893778825174,132.00951126641402,-8.100374856713998e-05,-102.33694824960854,121.25375160937479,4.898573939687387e-05,110.60552786969735,-9.89980203852975,-9.56488731244091,0.0034808732562740656,-15.26007462025064,11.50123221907583,-0.0024526772640879285,-4.9431774021188275,-11.42232377874118,15.05694451163141,-26.704285611941035,-16.140023155388967,9.809132461846973,2.495803798069881,3.5513031279498017,11.402618243591085
-4.823341403951947,0.0,0.0,-4.75804371024125,0.0,0.0,-19.106272122521766,-7.686056535239839,7.293346003812551,12.126489248325436,2.7992792077792714,-19.648477145804094,-22.303124027308467,-5.122045044792535,-9.14818746171714e-05,-5.8463822253669235,0.03457638826009253,-1.2028216001638221e-05,31.25232682508347,16.52246545018021,13.944504970135302,1.6778391313742895,2.9742528922971343,-17.412525922906454,17.787076250748683,17.424630399483256,7.114368223420856,41.32680481357046,-4.17644875875901,41.00348670010732,131.9111510875004,0.00040597330845636745,-102.34882907326819,121.287428578064,0.0009454859486874147,109.78007691099421,-10.247398837731495,-9.87733460390408,0.005506431414539474,-14.888925871183071,11.236889102761388,-0.006342234037977471,-4.897425446638532,-11.402899991447216,15.089499773307448,-26.654311699192817,-16.1338135947018,9.84748881190698,2.50974086896639,3.4947396465414373,11.42474736905775
-5.16671466140007,0.0,0.0,-4.724197546800407,0.0,0.0,-19.287001911195766,-7.767018098625034,7.294597484163129,12.179188978866486,2.731863718127944,-19.85078577649616,-22.273702460735777,-5.193051308941366,-6.871745072479063e-05,-5.869650319399955,0.03883936740401358,-5.423043330136649e-06,31.257139387604465,16.546605252177027,13.828725058635822,1.695719015430969,2.9188858268868034,-17.206465229742772,18.05291657850515,17.583664035383276,7.070024349220247,41.41382540136367,-4.108131383617392,40.96133951590965,131.8261343471601,0.0005083405910661632,-102.23505292154627,121.33516027944538,0.0007604122736809065,108.90895852932483,-10.678076057537535,-10.207103369222276,0.005530320539986535,-14.532049421011905,10.881800252055838,-0.007161957999373756,-4.788442611291652,-11.337063651639939,15.121321975315526,-26.536184033716303,-16.084224984733392,9.903037209324173,2.5380102657325545,3.417259215086384,11.421540553515042
-5.526651677937499,0.0,0.0,-4.790479806549033,0.0,0.0,-19.460455393163492,-7.821608339450561,7.344767974624246,12.254452733995462,2.7358692166182736,-20.04363559764652,-22.251343628638235,-5.290741723532101,-1.984532645872405e-05,-5.8769722970481135,0.047544096645779264,2.079626821864949e-06,31.261342851648315,16.57213227555526,13.643937564590178,1.6883027197477105,2.8657092109150613,-17.043063536915337,18.275387865158407,17.77270129709672,7.020151565889096,41.50259789170167,-4.031647483307437,40.91949552855624,131.76540121174472,0.000313302342614776,-102.09329565743481,121.39451028417982,-0.00013717753386948605,108.31404056529897,-11.126171882968483,-10.505808805363204,0.003602528998812332,-14.269767126288029,10.607407098572866,-0.005585055188124524,-4.646247686565256,-11.253874840600679,15.145206796940359,-26.383537095580916,-16.01563031761881,9.957736248472122,2.558233758394672,3.330102080367867,11.400335343858714
-5.793936079283056,0.0,0.0,-4.91077306465243,0.0,0.0,-19.655933152550844,-7.872305334293803,7.346340447741861,12.339942752136327,2.8248977793176095,-20.16726936444315,-22.234250700383345,-5.378447092415042,2.3281749718514253e-05,-5.8659309514786075,0.06130464340539004,1.5527739121184015e-05,31.242201631451998,16.602938625003905,13.486663095157231,1.640478487492719,2.8145982939059575,-16.963321456364575,18.429132942230233,17.943309834044726,6.988843227616262,41.58395724291428,-3.949815559100438,40.90017731420109,131.73464565569142,0.00010429282393604631,-102.00024213361911,121.45148307057805,-0.0010195102237992336,108.12041224371731,-11.53370246350378,-10.721427156196418,0.0006730651051195494,-14.161694552403306,10.51665132313056,-0.0037216645583907936,-4.509572781566957,-11.178290697521309,15.152261515583202,-26.238378809134254,-15.947981217824927,9.993540676232318,2.556456087475671,3.2479764448421027,11.369591855749546
-5.974452984287736,0.0,0.0,-5.109696438285716,0.0,0.0,-19.871356811643643,-7.929436352163452,7.254474744756978,12.435777576155015,2.9684560657867314,-20.213215215741737,-22.212495366617777,-5.440535634598191,2.4008440273469844e-05,-5.842009125206283,0.08054458970663891,2.3847226257378166e-05,31.19833559438911,16.64709052916751,13.412870058026995,1.5662063308718113,2.7688429204486913,-16.949027840619017,18.506803591996544,18.058841643921408,7.002629573558213,41.64561046998809,-3.863338084529224,40.92082242762857,131.73221034525395,0.00010191749319757083,-101.98670553499747,121.48428281709671,-0.0011061759345666793,108.16310614603566,-11.86695850561127,-10.856268798843415,-0.001542277112438779,-14.229034777978502,10.579311347973356,-0.0026455609737156193,-4.409128908069797,-11.11851092360897,15.138753115967571,-26.13252860516796,-15.88754386132404,10.003753634790348,2.542214382789662,3.1863932806706456,11.335452211199774
-6.122843480863237,0.0,0.0,-5.416928507251051,0.0,0.0,-20.083839168866596,-7.986840556873991,7.076254601676213,12.540507219251596,3.105113124804324,-20.201724307481697,-22.17970002736388,-5.479849959797592,-1.1305035101945977e-05,-5.8164505430634845,0.10569841933676094,1.963781681884535e-05,31.144841256351402,16.714080989805957,13.428739282911586,1.4950433610324287,2.7339002560172885,-16.956149467326266,18.528137715448317,18.109963291326455,7.067674039810981,41.68156883837551,-3.7759717586101047,40.98646182713819,131.74858231826187,0.0003297550950509786,-102.03592204262297,121.4790331089666,-0.0003367197621204276,108.29850078644773,-12.102462989951539,-10.960268812422733,-0.002527191039303939,-14.46041010094025,10.716265957686957,-0.0019705517578435163,-4.357431551213883,-11.075132700276672,15.109681341770417,-26.078209059734274,-15.836688097727293,9.992890005814413,2.534483376070431,3.154424024652347,11.30511487870895
-6.294890854132781,0.0,0.0,-5.834318831395207,0.0,0.0,-20.264899201891097,-8.028632100426087,6.853211576863203,12.645642824983995,3.1635620639063013,-20.16370650573875,-22.135835424215884,-5.50926383418804,-4.7556694222640376e-05,-5.80292917424599,0.13623317569195464,2.2968533668735167e-06,31.10365457782693,16.81019628930341,13.50707801800778,1.459453965297305,2.714223436477394,-16.938738730144653,18.530053229235612,18.109483290279087,7.169967013531769,41.694886689302066,-3.694915682564251,41.08705832514973,131.76917787287317,0.0006726188975201475,-102.09460652405672,121.43328725080195,0.000782066947825551,108.45037745297068,-12.2208077620366,-11.097652751338202,-0.0027134412253631383,-14.81371028654991,10.835000183571983,-0.000678468104369325,-4.351677558386443,-11.045618112501415,15.075340682956906,-26.071639003094017,-15.796792786840804,9.971695047231076,2.551508166384375,3.1535004723936524,11.286238442773072
-6.461413287101496,0.0,0.0,-6.2759426290584575,0.0,0.0,-20.41069269241518,-8.044004165477588,6.6309077096605185,12.726437133362822,3.1054066006968455,-20.110103387188094,-22.091266353520105,-5.535894109260222,-6.37273587136224e-05,-5.811062379564675,0.16794592375680575,-1.9893188036593153e-05,31.08468969777965,16.927588674344655,13.619219885263256,1.4706619350388355,2.7059334872533434,-16.89215722398339,18.544379565287755,18.08065182812292,7.278791609305087,41.70323522011796,-3.6306967373839365,41.189711744548745,131.77989600274114,0.0010170368862892191,-102.08894461388911,121.36171219285224,0.0016653594298693156,108.6191356149665,-12.199271480931728,-11.274405040087965,-0.002421383305421982,-15.209118904442315,10.878183504079905,0.0009721618533191504,-4.379642956543953,-11.030149245955457,15.043380178481835,-26.100100490922074,-15.770814353018995,9.947358331451088,2.5919432020503703,3.1750689413864768,11.28422280771049
-6.57043367580908,0.0,0.0,-6.6495584041986495,0.0,0.0,-20.53237778389688,-8.031453391305178,6.452510227348292,12.765363159103018,2.9408150775310173,-20.046156261872753,-22.05866247530169,-5.565061327633558,-4.542766805252778e-05,-5.843100132071116,0.19412801226096538,-3.063763901172407e-05,31.088965936950622,17.04974104415842,13.737297284660277,1.5232278329743054,2.700449045721009,-16.83368627364797,18.578137399854405,18.03830803597506,7.372812778043561,41.72846418925282,-3.591545852638807,41.25710857768052,131.7769140768168,0.001123369637947519,-101.94935846504987,121.28211522966913,0.0020430205152615426,108.76880938449717,-12.030338689845136,-11.441190121695756,-0.0014374823065934463,-15.557035885601053,10.828634210249621,0.002235017870511022,-4.424643384598409,-11.023137967752008,15.016696942850377,-26.146133925514732,-15.754613531211094,9.924776480377382,2.6453734236101507,3.2085855948595663,11.298359221772467
-6.57539833352423,0.0,0.0,-6.889968162154843,0.0,0.0,-20.650004927434384,-8.001083195574333,6.35322887730857,12.760482835685814,2.7296886686647173,-19.97719986620863,-22.048753022822336,-5.60172489950906,1.363391628764301e-05,-5.892503418509926,0.20677881667284506,-1.4135756495032737e-05,31.110315265333444,17.156162208036008,13.836586927321436,1.5985072764647996,2.687226219524541,-16.79070095937845,18.609186641466277,17.98465281636309,7.4506481309417625,41.79027382237742,-3.5805139147103597,41.25902919684379,131.76995641114408,0.0006104078589048586,-101.6179155040591,121.2092042661662,0.002061133274264012,108.81447796559189,-11.73258659554736,-11.5075367878689,0.0007421926406159887,-15.781439202122712,10.709581217434508,0.002315636790366886,-4.467447646412265,-11.011487232950175,14.994458514708326,-26.189196741459938,-15.735709920479696,9.908190180230307,2.69768041620323,3.244974693116727,11.320987078871735
-6.484542398553868,0.0,0.0,-7.000806425882236,0.0,0.0,-20.773536858423046,-7.977373602041561,6.341924569506446,12.728925155297965,2.550995662405065,-19.916205250131394,-22.060981835569788,-5.65149629225943,9.362245190293188e-05,-5.943837333582153,0.20151865216728693,2.3946220238495616e-06,31.141017434952133,17.239499423895573,13.904740926355867,1.6788513935858134,2.6629420494545037,-16.766705080050553,18.6009693228555,17.918801068689707,7.5411164751646425,41.88960311153801,-3.5903378653039315,41.20244935034806,131.78082361443842,-0.0008796230791722088,-101.04760750475621,121.1441306286828,0.0021162257511945213,108.74065224776881,-11.371839686099284,-11.421256905844977,0.0029711781273194533,-15.895874217105442,10.568464689324152,0.001423279946522625,-4.489871452851474,-10.980772555551622,14.98140282657114,-26.2092857940107,-15.702429016960979,9.907629237049806,2.743682392698541,3.282165442150397,11.340809697439914
-6.332038066646354,0.0,0.0,-7.004614316571925,0.0,0.0,-20.90405238389484,-7.986030794799046,6.396448909242854,12.6857864371899,2.4615268565856323,-19.865688167088344,-22.0868361098106,-5.71424289119328,0.00015972120505001084,-5.979145896629215,0.17978292947343993,-4.775230507520616e-06,31.17274256514465,17.30289405208989,13.948537652206644,1.750895270060526,2.629849832892183,-16.757582871706113,18.528787933672902,17.84846258792423,7.67697320223239,42.01247303492567,-3.6070508436314226,41.11824744941886,131.8286264779029,-0.003066426379320077,-100.24037493348222,121.08597971290612,0.002403946135237512,108.59537815483498,-11.036300312238343,-11.18875029459911,0.0038661920373659546,-15.973550502353367,10.455215618604674,-0.00010035889015118832,-4.480948298866752,-10.927398939822274,14.986611995273083,-26.194466645490973,-15.654735224782948,9.933075852321153,2.7835881082465836,3.3201738224659705,11.346532518788244
-6.16431495603776,0.0,0.0,-6.9146577580106765,0.0,0.0,-21.032899060299812,-8.042494366422359,6.459738513084835,12.630357513859908,2.463890913542251,-19.804511864723594,-22.111674386178986,-5.77961698444097,0.00017190774095730523,-5.982666849886593,0.15114889478369387,-2.425070410609274e-05,31.197927489903318,17.358480588780683,13.997954720186144,1.8084616845233095,2.595022046903707,-16.762933782743126,18.400131566437796,17.797795784416454,7.874828576180479,42.13179845732908,-3.612246366527921,41.05250485193202,131.91851229572023,-0.004622829814357588,-99.2861945718524,121.03998668342734,0.0025937265995031977,108.49013783783019,-10.817824545890097,-10.89332965308295,0.0028665819923846176,-16.12441207643055,10.40826500792416,-0.0022697059526765933,-4.442587930815856,-10.867814093901199,15.0218298496747,-26.147603564887618,-15.61216967654327,9.989329414513385,2.821307330930705,3.357593923160753,11.329440429729388
-6.049741564410915,0.0,0.0,-6.754761294741447,0.0,0.0,-21.140323331769796,-8.126228381339544,6.496487922119174,12.555499553830542,2.507342392567762,-19.70469440264322,-22.125795032826872,-5.83879566960025,0.00013310195147856044,-5.950376343406838,0.12956861264009592,-2.8493953834384445e-05,31.21976918757909,17.41208063586247,14.06204967156552,1.8540331163123853,2.5640580912843025,-16.795312904067202,18.257034512586504,17.791371171395518,8.107869328825258,42.2284125121259,-3.5949963290521834,41.024998704731665,132.03504647463865,-0.004594050817648801,-98.37405295159488,121.02305802976241,0.002025828574738675,108.5320273216399,-10.750554319426286,-10.632499783019364,0.0010872296142982615,-16.36113638897963,10.44870467028205,-0.00452332865646645,-4.388130957613199,-10.825613725293824,15.08714474100324,-26.084433697739986,-15.596680688129743,10.0674179829617,2.8628629827583434,3.3869565395298364,11.285742356601856
-6.063778176592156,0.0,0.0,-6.569526056605505,0.0,0.0,-21.20304121421898,-8.193904810524309,6.5075595353266324,12.458645449028223,2.524979050736287,-19.549997445288362,-22.12541303896093,-5.889306384557946,6.645859786044059e-05,-5.888025143110019,0.12753379107008897,-2.2104966999588064e-06,31.24849600064705,17.46340419383693,14.124690315971254,1.8943361872729874,2.541069110768831,-16.86764223845847,18.154834740543656,17.84255698231876,8.321910744213437,42.295181366958076,-3.5545197340592622,41.029076922495335,132.15230364209202,-0.0028783795928196457,-97.70313403178928,121.05277867849941,0.00021672468567342554,108.82942128297255,-10.812556995463384,-10.484325305250648,3.521888122284667e-05,-16.603755912261253,10.582835813183081,-0.005796737425296995,-4.336644772351653,-10.819813329680764,15.17004709493301,-26.026773948813446,-15.621389550451708,10.148200455750043,2.914516663427734,3.3990295624180007,11.218269928845421
-6.263799727884266,0.0,0.0,-6.439609323909147,0.0,0.0,-21.205706568125724,-8.197097720367296,6.551652574271022,12.357153286991055,2.4838795150595634,-19.363739384520468,-22.114017983467473,-5.9415182650732845,-1.7112146590904767e-05,-5.809577795611268,0.14753070863387283,1.7834742976995098e-05,31.295744236020774,17.50702415075017,14.139615604517934,1.9345186843978415,2.529116364916682,-16.973705747719546,18.133860987479785,17.935415215791522,8.455860711257438,42.34316366362715,-3.505262748095409,41.03079854423574,132.24670352243692,-0.0009103848518826541,-97.35199797436779,121.13023069678411,-0.0023604458806644178,109.50536885008597,-10.921420770000214,-10.46195175070733,-0.0002335358312868494,-16.683539893633306,10.80222020826508,-0.0047106375967139,-4.306560476031536,-10.848474568943011,15.242745720912506,-25.99474277811503,-15.674409320590337,10.206096590339317,2.9799439175856635,3.389644254146249,11.140656413331511
-6.617070691994911,0.0,0.0,-6.404542064109986,0.0,0.0,-21.163471487618903,-8.123029837609634,6.676728264530756,12.267650555862657,2.401479375448358,-19.18310325039014,-22.09406100336588,-5.9990058632795025,-8.843352639403583e-05,-5.724776668087767,0.1831726364581735,1.067728349733029e-05,31.35627415315223,17.539797781874206,14.092134785685152,1.9677932448183018,2.5297740217196196,-17.09918816331522,18.197172287523273,18.037278775017793,8.4816299482875,42.38440642672359,-3.46442157527931,41.00974963757509,132.30817938770875,0.0003730903292572476,-97.26836270506729,121.23729916646678,-0.004366825129277802,110.57935506937353,-11.003445861353512,-10.539353630115205,-2.9758593072266084e-05,-16.508203088698608,11.098052723102933,-0.0015559246707560713,-4.3112758814946766,-10.900316158257677,15.280675212756194,-26.00226959145143,-15.736344744799968,10.222146861626698,3.053484288672066,3.365191868513969,11.069667629862389
-7.00196656925029,0.0,0.0,-6.445141312769968,0.0,0.0,-21.119725420498497,-7.998422924804486,6.898537034390102,12.19816949694043,2.3310097681334354,-19.04583208700422,-22.064846164137023,-6.053546219843617,-9.851233574976639e-05,-5.636274495243403,0.22325555881424428,-1.4602851831945156e-05,31.40749863898835,17.561207949127233,14.01037648345384,1.9762192034287769,2.5418145749489587,-17.228008595066107,18.313400016166245,18.10909950013228,8.409525204877177,42.425868143953146,-3.4451176186976884,40.968433759690086,132.34031984627532,0.0008274037888047673,-97.3170148893796,121.3428233301811,-0.004302413548648933,111.91594175790762,-11.016666068479875,-10.668344526534247,0.0003134051608458484,-16.097333818330043,11.458433547469374,0.0018001451007221927,-4.356627181328418,-10.962255511381134,15.271095614042297,-26.054737962544706,-15.790418771513256,10.189274649280057,3.1207444976392056,3.340402419919829,11.019634359731091
-7.245099154384141,0.0,0.0,-6.467724844020057,0.0,0.0,-21.128341874540357,-7.881903103510057,7.170785547864616,12.134915056096926,2.309529679765426,-18.964143203971012,-22.02063928501418,-6.080035106933536,8.120133569234729e-06,-5.537312490598999,0.26336007724318766,-1.2927360649407724e-05,31.417133714563075,17.570044368224337,13.968117179946503,1.938290422819387,2.556712304137974,-17.354945713156326,18.434830743284138,18.129844944647804,8.286069526025518,42.46018882802491,-3.4416010282292446,40.939637676549964,132.35587263793124,0.0008499841852625002,-97.42728818651673,121.42219344035064,-0.0026973193867101423,113.11060576486726,-10.986165332368017,-10.812772095046403,0.0008182417751972082,-15.60732465241396,11.849319233213127,0.003280655575916368,-4.434046173810672,-11.03582703698781,15.23102796069945,-26.142571408216085,-15.844234207330478,10.123016614453608,3.1636094219477404,3.328792500154869,10.988992587019045
-7.221311439089139,0.0,0.0,-6.384559302734639,0.0,0.0,-21.22061312444515,-7.82727215583826,7.439028013871268,12.061447054357512,2.342731117757393,-18.938526398383644,-21.95565798440775,-6.059079274993595,0.00022360948635476827,-5.421066164870153,0.30524570355521924,4.3440669305080086e-05,31.360249073674193,17.563509178883468,14.02841553926187,1.841665267767084,2.5616914760883134,-17.468901929892635,18.527696548689924,18.097898194447314,8.155898517764465,42.47712112896454,-3.4346076773415146,40.95282903002348,132.36626499957288,0.0007786600549221341,-97.58422791977245,121.46464969179098,-0.0008056230356142113,113.73306491684173,-10.980730510700146,-10.94334393855678,0.0011930580904357612,-15.19161530855213,12.217531989634294,0.0023084652999361775,-4.522979853744371,-11.127668676059294,15.19368337229521,-26.24368172514027,-15.91600561938868,10.052289720316885,3.1697266342325405,3.3331199006596433,10.969078685394184
-6.906485894401583,0.0,0.0,-6.155812941826959,0.0,0.0,-21.388757823650458,-7.866076021455102,7.668597773591437,11.968482629361667,2.401609985151254,-18.96470280951056,-21.86678110412745,-5.989417336230987,0.00044380802412218436,-5.285301087660585,0.3553928900581436,0.00013913988633555103,31.2284197654422,17.537912170607978,14.21353573714269,1.690013500921712,2.542442615150394,-17.54494846790677,18.585496835931806,18.032024297512205,8.043111769947245,42.47010181195215,-3.3954244428108282,41.01785373190118,132.3761036219755,0.000656503967310958,-97.81828578968441,121.47608752614629,0.0001082969089422277,113.47605291521742,-11.102023041540269,-11.033644027030691,0.0005848782486901762,-14.937116201437476,12.499864094742332,0.00031464031033274847,-4.59293291880618,-11.242684880746282,15.199740156309229,-26.32541849353568,-16.025044288813927,10.013745396653007,3.1377385631129147,3.3416516791249733,10.948820414176662
-6.409124895494712,0.0,0.0,-5.835674376052019,0.0,0.0,-21.586771994606725,-7.9977145832512475,7.883068504351884,11.866254794901478,2.4634602467079834,-19.048852441766616,-21.757360746543682,-5.901308111805373,0.0004978192014137581,-5.136977908264174,0.41321292347319216,0.00020929915196818877,31.036933321245396,17.496421354570373,14.473230690227462,1.505484885401408,2.495437429425988,-17.544484558789396,18.623000068725496,17.959283680498416,7.935437504058993,42.44920154525309,-3.307663701432618,41.11412168773576,132.37684564407584,0.0003574969019904942,-98.12956230767661,121.46745369293814,0.0002472443104919838,112.46326923581216,-11.443033115956279,-11.04605823216357,-0.001910242825174886,-14.835677375099646,12.686892829104725,-0.0016981950775529807,-4.619664612976664,-11.36321092766699,15.26582195916331,-26.360606485297048,-16.160993143651815,10.02994020497022,3.080796333110304,3.3381220430567486,10.926010805080299
-5.907062556500741,0.0,0.0,-5.527363253499215,0.0,0.0,-21.755176450785616,-8.199542854828238,8.133447702793116,11.774384620816324,2.521638017369905,-19.201140253522148,-21.635313936393736,-5.838242052560299,0.00027894070439640853,-4.988236753251049,0.4712920845910405,0.00019565217467590033,30.818693346522988,17.449651213209002,14.717202893285704,1.3214548156636385,2.4297627040608516,-17.434274590177356,18.65569988997388,17.905504441429816,7.812358203362899,42.436490327945975,-3.172479683364681,41.21138257857705,132.35814417883742,-0.0002122272625647988,-98.48741111454048,121.44708677249572,0.0003391404188473192,111.09626576911312,-12.038556308291712,-10.950228750285321,-0.0059059409603347615,-14.840458747558026,12.813678269317734,-0.0031845084480723934,-4.5922277313430575,-11.456809011621175,15.381688500602818,-26.335488869484248,-16.29001332102107,10.103695532831342,3.0209492143630468,3.3135111374910493,10.902838818391803
-5.598661583178315,0.0,0.0,-5.346694301140363,0.0,0.0,-21.842363599551053,-8.430333319923287,8.470167281788141,11.713258937455095,2.594480074783986,-19.427575548658815,-21.511990405109866,-5.8405166938773,-0.00012352682059004537,-4.853563964660914,0.515150883565699,0.00010058879609249682,30.62154277412571,17.416906868545624,14.841414876478588,1.1776537995855187,2.3705392225415074,-17.207196421306776,18.681991103611583,17.886167441962986,7.671852230180589,42.462800799834504,-3.0157947525545166,41.28764623926899,132.3195563767224,-0.000985324707506487,-98.82347719810024,121.414447485746,0.0008047806088236245,109.94635854164156,-12.80336985274805,-10.745649679980366,-0.008437349011383977,-14.906342674914132,12.955693376725183,-0.003951974866511517,-4.521886783707069,-11.483075374867209,15.503625330421945,-26.259717688527733,-16.358676362171618,10.209227339048962,2.985182273494961,3.2778677316021563,10.882220982172317
-5.5862454842541505,0.0,0.0,-5.339097277310415,0.0,0.0,-21.837154418349684,-8.6350355249576,8.878867668984578,11.68812336161811,2.6985189133221916,-19.70270056587378,-21.395843176875537,-5.913014383623168,-0.0005093520936618663,-4.744692144934199,0.5332923938032714,-1.639591247811005e-05,30.483810094019134,17.413310947933603,14.806575217033986,1.1022520996267315,2.342684081404134,-16.899415449841488,18.688965050993364,17.89748147065158,7.556656970181701,42.54635945118324,-2.869595243920307,41.34113367748666,132.2862773538735,-0.0024069752927708887,-99.00658456666422,121.36959216261052,0.0014678873831202306,109.37239339646291,-13.525331714688967,-10.488032000643473,-0.007698407188859081,-14.97361114713236,13.169959447542999,-0.0029495801514193053,-4.434555284761523,-11.426321316588089,15.580778442389217,-26.160953300607332,-16.333949326843566,10.304329203159506,2.9898032574466575,3.2527813394051686,10.86614497396545
-5.865500661325519,0.0,0.0,-5.480766981284852,0.0,0.0,-21.76676435355409,-8.756047909277191,9.286735573649594,11.689916505063616,2.840266485831591,-19.970519565836206,-21.290842306840595,-6.027551167801815,-0.0006732220795954495,-4.669045960017682,0.5198160740723544,-8.118262193819604e-05,30.42520159290644,17.444461501227963,14.642617201958377,1.106173606074613,2.3627692378055203,-16.582165507781554,18.663870356010513,17.92014963752148,7.533078519501643,42.68635966934221,-2.7609501224970683,41.38307434248353,132.2969080399255,-0.004972788199553319,-98.88370457076051,121.3188245192782,0.001778458342385028,109.47070525677734,-13.941951277479001,-10.272611606706706,-0.004268284767173425,-14.96871937203214,13.483350245829367,0.0008944530391091064,-4.363356239831776,-11.298979585279827,15.570170526159114,-26.07673370925392,-16.211799301285456,10.343353095557255,3.0375912575760458,3.261425780636487,10.855379173913029
-6.3040501373758255,0.0,0.0,-5.683577316995232,0.0,0.0,-21.6948717075853,-8.755276303190378,9.576928074649128,11.697211984587986,3.004087933801856,-20.14548274619586,-21.193591408772125,-6.126710313717906,-0.0005904903871549715,-4.626548026898089,0.47874225890708993,-8.445390095478366e-05,30.429337128787406,17.496194901094945,14.456405734165562,1.1711403405982381,2.4243955015659484,-16.350484399009535,18.6157436207161,17.924940577675123,7.646872270225496,42.850084533360544,-2.693425687526426,41.42383265645933,132.37759773668205,-0.008104530489759362,-98.36892810330427,121.28509745795498,0.0012546614503498458,109.99906792851861,-13.884536920650056,-10.204591362873758,-0.0030816301777982025,-14.80893813125032,13.875080883875976,0.0066251915307528,-4.337773192901349,-11.147888756419826,15.46249702281532,-26.042396298292694,-16.03236017095892,10.299391872009329,3.1122863296563956,3.3109102635206624,10.848800740187407
-6.760499274188505,0.0,0.0,-5.8786606849139424,0.0,0.0,-21.66915423647188,-8.64442635055604,9.68240802540793,11.695068881253757,3.164855091707658,-20.16460443206643,-21.096844202571063,-6.162584029902995,-0.0003136319027841721,-4.611220022980216,0.42087820561014844,-5.302301634626793e-05,30.463202479673157,17.544205573273672,14.34348548245231,1.266867372530675,2.5063602652560086,-16.272414251158754,18.5707787246647,17.89355238851652,7.884266730333035,42.99572424752811,-2.6528376602128207,41.46408732475351,132.51605894357274,-0.010144714423234657,-97.578604238389,121.29202236054007,0.0003465586954266889,110.62375113444779,-13.363308512981709,-10.35115308007722,-0.0058957356265820675,-14.480050247697339,14.282443848432697,0.01157156726602959,-4.373592995613184,-11.021768984160682,15.278593179192903,-26.077431723181263,-15.848438830846057,10.173509884137014,3.1949284361064936,3.3915797774821193,10.840697594538767
-7.125578219689579,0.0,0.0,-6.038368682572854,0.0,0.0,-21.703875008856272,-8.490202128547926,9.613099908617114,11.680381347063518,3.294465797536432,-20.0076534635295,-20.99140720338918,-6.109395332844028,6.568471416209788e-05,-4.612262010470908,0.36230334111453416,-2.9628644952399668e-05,30.486896563690106,17.559981965694647,14.358403797781754,1.3590529631440755,2.5784059814256763,-16.36918600468086,18.56634168531734,17.825208151946615,8.170528737613456,43.084947439204164,-2.613174110510745,41.49511992790831,132.6605125672087,-0.009247310922386339,-96.82956304412124,121.35598763973168,0.00023564610221736,111.02982164165246,-12.563784108909784,-10.723930331687514,-0.009955442093444409,-14.054587355089868,14.614076321862752,0.012439985714914451,-4.468637565692547,-10.957699358657681,15.063565222136218,-26.180192405924643,-15.710831240515967,9.994347893142074,3.269578632459238,3.479995302714376,10.82188813931197
-7.366823973014674,0.0,0.0,-6.175192073302893,0.0,0.0,-21.765083466758867,-8.397924517745633,9.463064274874505,11.66314828686473,3.3766512942447564,-19.724000450706473,-20.870788042511084,-5.973802536198898,0.0004671114913559949,-4.617434152456728,0.3207228901758833,-1.5724643999430257e-05,30.475334873512747,17.52662906418938,14.486725296188869,1.425624027345296,2.61820560038028,-16.58870344136398,18.628805575434814,17.740781602117558,8.412982950606676,43.11253688156661,-2.5573072348749095,41.51076359328017,132.74796016737582,-0.007317990185956155,-96.45820621613085,121.47012646755239,0.0009044916222450775,111.12919130104453,-11.719981052138161,-11.259636681161432,-0.011105908937698243,-13.676241162808855,14.80554145886226,0.009840948052179704,-4.596612941943559,-10.958910918507973,14.862804633697046,-26.32152665070819,-15.639020924440262,9.803695877827092,3.3298377369212107,3.554027751862042,10.78816780814761
-7.485036411984263,0.0,0.0,-6.298300389296864,0.0,0.0,-21.809351957218603,-8.453007427478845,9.331294686446927,11.65186573869239,3.408409523722752,-19.392480061879777,-20.732826671362048,-5.777558279693819,0.0007937065141604699,-4.615036689944306,0.3102094923311163,8.382047805764466e-06,30.41756669249892,17.441253419965356,14.688772086221558,1.4542153676263716,2.6158928959314736,-16.84877194610502,18.76627553498271,17.665519830269158,8.544406647831142,43.09674248327957,-2.4834642527323085,41.51169501948594,132.73627032927538,-0.006127211909239545,-96.61478504034957,121.61927929820341,0.0019112192742236774,110.96927373906111,-11.01568785057941,-11.847799150850202,-0.007565519946366179,-13.473301253965431,14.850952265915481,0.005725988562074029,-4.722974472612424,-11.007331329098006,14.709690429277618,-26.462806392108842,-15.628351894687084,9.640083509785443,3.3724204300115534,3.601442836795187,10.743145241710993
-7.499686464321836,0.0,0.0,-6.393978794703269,0.0,0.0,-21.805982334117758,-8.680982828303256,9.276330627259863,11.645977110322697,3.40227256141922,-19.10047140785199,-20.581059170125197,-5.55092453649476,0.0009178818100903717,-4.595537745024841,0.33675781220319406,6.811347511311936e-05,30.31863164001373,17.317997589605007,14.919540762109605,1.44269137294844,2.578237004091419,-17.060548995054656,18.961646114506273,17.61868665236336,8.551676815485585,43.074220825499786,-2.4094458731104935,41.50795173213881,132.62592761891554,-0.005152056839921125,-97.12681481848564,121.78863551016133,0.0028307395458469853,110.68332452805501,-10.525263933088969,-12.344837105747217,-0.0019241582048025161,-13.505315027906036,14.822867204411805,0.001931639153165437,-4.81514554210631,-11.069668426361844,14.61749715363156,-26.567328383905693,-15.652734281965886,9.528814433008142,3.3947049935298135,3.625796432459483,10.699897754275506
-7.484362076108009,0.0,0.0,-6.47339012091645,0.0,0.0,-21.750031006451092,-9.026506258109828,9.309244281298495,11.645213647973407,3.378477355799369,-18.916047976823062,-20.421777986941628,-5.3358043946399425,0.0007365791387810244,-4.555339751790034,0.39227011219957136,0.00014053220475275245,30.19816486237933,17.180946176018164,15.124721385787016,1.4018428896942838,2.5237385147091698,-17.163593593243036,19.176753933772787,17.603360929393375,8.47211381516555,43.07032199058305,-2.355124382238514,41.510398886836,132.45754384756714,-0.003229908620330187,-97.62723873512948,121.97484859860167,0.0035278405476821552,110.32709008414729,-10.249821719595825,-12.635942560587575,0.0034997954442662193,-13.755926351285288,14.799003654699328,-0.0009997567188619312,-4.864209404875747,-11.120041581926474,14.586166515809934,-26.62360535313053,-15.688123913838492,9.479767920265555,3.4006611124316994,3.640701960855093,10.669771751810515
-7.535817607658596,0.0,0.0,-6.572018214645342,0.0,0.0,-21.653466866200805,-9.396996478711841,9.414585771936082,11.653649328349275,3.356601707011428,-18.878222121793716,-20.260699685952485,-5.173026397632645,0.00024355380676712314,-4.497365481925969,0.4595589860475661,0.00018488357306944804,30.082170163543037,17.054168918422846,15.252330935726937,1.351024585181675,2.4744210004748313,-17.13269269603854,19.367797631888976,17.612789053613515,8.363660291822148,43.09528269987819,-2.3315798723021803,41.52742790434949,132.28516321384788,0.00014388742116394355,-97.75928172524765,122.17659536737666,0.003882013797954022,109.93042185315915,-10.152468239161461,-12.66111680535928,0.007396224536831542,-14.154322315217192,14.833134530724177,-0.0030329082487980355,-4.877115802857294,-11.145947425769762,14.603500363014295,-26.638110327466432,-15.718485942416754,9.486208944769166,3.401445260262646,3.660744785544053,10.657220256071861
-7.73928612804589,0.0,0.0,-6.750413117888765,0.0,0.0,-21.537907817294688,-9.706790830335624,9.568702771008546,11.684733743684028,3.346238860716632,-18.98006882135178,-20.099137646412412,-5.086370356678542,-0.00036212539833729135,-4.433209780532275,0.5164366333057241,0.00018054275663214947,29.995138544927794,16.95057979087298,15.267850667289395,1.3150743065035366,2.447560666361895,-16.99215400975851,19.501755834755688,17.63637589123407,8.275434127891,43.138771555271035,-2.3275514037609755,41.561276263504084,132.14835074790903,0.003259980955207956,-97.41065197060995,122.38249747562095,0.0034285805302640754,109.57111952205692,-10.185385424108654,-12.455077681753348,0.010093458554396598,-14.586069016899675,14.921796164546786,-0.003700935737838463,-4.869350969321723,-11.156643494607186,14.642273443540995,-26.629011977713283,-15.742518322583901,9.518796114694352,3.4175015024775677,3.691514931389844,10.652917098536573
-8.1782,0.0,0.0,-7.07294,0.0,0.0,-21.42643,-9.87134,9.74672,11.75335,3.35545,-19.20765,-19.93773,-5.097,-0.00085,-4.37579,0.53996,0.00011,29.96132,16.88138,15.13944,1.31966,2.4597,-16.77384,19.54727,17.66295,8.25517,43.18732,-2.32836,41.61324,132.08443,0.00407,-96.50658,122.57963,0.00165,109.33438,-10.29913,-12.06701,0.01217,-14.93011,15.05277,-0.00247,-4.85769,-11.16471,14.67297,-26.61625,-15.76117,9.54474,3.47069,3.73722,10.64543
-8.954360000000001,0.0,0.0,-7.68201,0.0,0.0,-21.35691,-9.793720000000002,9.919599999999999,11.882240000000001,3.37856,-19.575900000000008,-19.669000000000004,-5.184870000000001,-0.0007700000000000001,-4.309470000000001,0.49582000000000004,2.0000000000000005e-05,29.987490000000005,16.802310000000002,14.83787,1.3904500000000002,2.55123,-16.51381,19.469240000000003,17.71041,8.255150000000002,43.24906,-2.3015800000000004,41.70672,132.0457,0.0020300000000000006,-94.82880000000003,122.81513000000002,-0.00079,109.51323000000001,-10.753800000000002,-11.261600000000003,0.004930000000000001,-15.040950000000002,15.32007,0.00154,-4.843130000000001,-11.208700000000002,14.59778,-26.61105,-15.774680000000002,9.456620000000001,3.6381700000000006,3.8157100000000006,10.585980000000003
-9.01664288049235,0.0,0.0,-7.961206974427896,0.0,0.0,-21.654303325504422,-9.068071259943041,9.684162039616128,11.825479938286911,3.3465663477501018,-19.55540332134168,-19.229068873269956,-5.132408075387229,0.00041877876608063385,-4.185887141622065,0.3208099720293679,-0.00012232989833169076,30.003534570590336,16.65284980219203,14.721438893941325,1.4328109299400758,2.769386059466552,-16.751830399513917,19.22429912065783,17.799451323522945,7.784927594670543,43.298724367308594,-2.2224518557886612,41.72434726151606,131.717651530299,-0.021299982158390976,-94.69863596358296,122.97876038911707,-0.001216924575391602,110.65724615075123,-12.923052280678306,-9.698146048243046,-0.039193577101975165,-14.502139163213931,15.722923574583474,0.003841034887255798,-4.950238565327649,-11.296047771356827,14.133162087951318,-26.755791326908184,-15.686655143673985,8.983348780156774,3.9236161612581753,3.904213603891031,10.382402162962423
-7.676203628506499,0.0,0.0,-7.338787160791506,0.0,0.0,-22.18861936249554,-8.430176810672236,9.364912897088404,11.428975165583484,3.2195444819932235,-19.009320284096063,-18.781137664005136,-4.840004316141044,0.0003819931356561557,-4.007449812976536,0.1746211376965164,1.2684150672609964e-06,29.79224870010362,16.471778521382426,15.038053636190904,1.2666243578998944,2.9452987912313375,-17.29368765239331,19.09122274212262,17.894954486206295,6.839617778790602,43.33122294130642,-2.133983389390094,41.51560115001483,130.96718159665363,-0.033114630519414295,-98.51355104390723,123.09397965404806,-0.0008190762160547637,111.49261066714651,-16.074705034713514,-8.08612463126071,-0.04223887694547535,-14.414578408678969,15.575221171491089,0.0035323084073708667,-5.279290658008111,-11.29897325722447,13.629227837917846,-27.114494590130374,-15.50569081528385,8.505896826469431,3.9693653934271182,3.969964462417771,10.181301182624889
-5.847044714348016,0.0,0.0,-6.297084141279839,0.0,0.0,-22.68372308026827,-8.437213218970646,9.329219743144384,11.00909671826156,2.986999686588635,-18.543861644599925,-18.431395193491277,-4.495669628183269,0.00011800422925549868,-4.019454819103605,0.08031997930760253,0.00020355767948772855,29.46774314243981,16.36348086922395,15.522632939678777,1.1506896634225467,3.0103570470994554,-17.40593501181512,18.9803722886181,17.991101268095274,6.840535143530573,43.332709567013175,-2.0574910186480775,41.36354540692443,130.68495928705153,-0.005425936135526738,-101.68298398007698,123.26635442643466,0.0007201444428132206,110.72176107706028,-16.211307238443563,-7.773089855777887,-0.024847926779577457,-14.860822788850916,14.385818459135349,0.003931120516247463,-5.4688193057047965,-11.298430813115894,13.58831246504363,-27.30628465594014,-15.490265154733189,8.467475373510366,3.7692751536355664,4.059394516728928,10.077721656043932
-4.535321137336324,0.0,0.0,-5.678166494930453,0.0,0.0,-22.924562758028248,-8.70948238429268,9.374971932532128,10.803090344712238,2.486704057124399,-18.295338219576625,-18.17660438389283,-4.079456065011223,0.0003532494962557692,-4.215291823453805,0.006493575945611051,9.68827416402021e-05,29.276446723801648,16.246743897243405,15.927717387385982,1.2486745716794283,3.0420477600966946,-17.259924150922195,18.790232311729593,18.067805779882395,7.56410885191776,43.17492568064195,-2.1445940148461133,41.37022141343889,130.87097330934796,-0.00021517808576215617,-102.25343232233593,123.52923539716531,0.00019555707238781868,109.31528358463186,-14.174630164949452,-8.23869522171103,-0.010937497175202456,-14.946238452839662,13.027811986138936,0.0019941656453039804,-5.4505793446630895,-11.389605320458875,13.7468216632876,-27.28850520635286,-15.63270120859794,8.582007116990921,3.6867463657600865,4.192840834460186,10.00121311010363
-5.006105263573089,0.0,0.0,-6.627619863876,0.0,0.0,-22.635634734053557,-8.842578923573825,9.76567309340377,11.021285822637674,1.9137678135454295,-18.40167710239681,-17.965890541657686,-3.874448970685366,-0.00012439984319039736,-4.359771077719938,-0.012145485102597399,-2.815211652734616e-05,29.326621361396587,16.08519400046987,15.59609461380568,1.4665123238977964,3.0970228350887337,-17.074829922985252,18.704323025176855,18.025107584388227,7.738956595206299,43.025871656404846,-2.4360138972641803,41.332316849301726,130.76818573237617,-0.003077810853080845,-103.20669742148513,123.90344794175377,-0.0008116017161787315,109.01497487625578,-13.335622053557898,-8.288301527864178,0.0019472598115865417,-14.541030970080408,12.55645245845822,0.0024194022691649097,-5.605546166553496,-11.506263311184508,13.540108253384503,-27.46726873725527,-15.6655842330828,8.341636193385952,3.8735319812677234,4.351939150883869,9.9226450317123
-6.915388515238937,0.0,0.0,-8.339839528467351,0.0,0.0,-22.071372110726998,-8.883326387425258,10.4595738874557,11.432110317933903,1.7194511901841478,-18.88716926692473,-17.72778021714794,-4.0926261743417305,-0.000804814873019494,-4.371825338750916,0.019493209179302577,1.582708865614788e-05,29.42904995807744,16.046328596404223,14.603292500192492,1.6602872663874333,3.159761298609081,-16.717905281215394,18.76918746992492,17.890979882242256,7.7720895005346105,43.22055287390385,-2.5454653348143337,41.27793576510983,130.64502442551938,0.0005052342954946947,-104.48933527243551,124.1828633957396,0.00014366521077135508,109.91387767106708,-12.555276478559128,-8.930329963254932,-0.010753212459282955,-14.190792692968136,12.320345521523118,0.0011566574675699818,-5.953385615160844,-11.530466802179673,12.998531375555833,-27.846784380199068,-15.490297893844556,7.821042001602551,4.090608403148538,4.486557603411317,9.821725249309235
-8.00499000716026,0.0,0.0,-8.893055798807195,0.0,0.0,-21.871595328963714,-8.896951331191945,10.82629886086084,11.50979381915919,1.9738024521309112,-19.217756675116508,-17.39308282080357,-4.325646010551082,-0.00010780591826428162,-4.269137310440614,0.0656076571030724,3.827064221759316e-05,29.358606116147623,16.132616419826853,13.928385809994207,1.7316483712140789,3.204210856412039,-16.382382849728693,18.90913292445833,17.772368670878848,8.114260565972286,43.42087209533044,-2.267158787130909,41.25672478599574,130.85911268949738,-0.0013033440442811325,-104.11743366132458,124.22994567359949,0.0023322669803392637,110.75058439660317,-10.869426711703872,-10.342238939471613,-0.014967487459583489,-14.297337726797702,11.534414700647151,0.0014821301024355072,-6.170261185339133,-11.539689693924227,12.447208913510423,-28.092348025218293,-15.297301738487048,7.2976458224492164,4.160156499477699,4.610615768682634,9.76951132682372
