PaulMeinheit/Bachelor_Muay_Thai/processed_Data/E1/roundhouse/scaled/JointAngles/scaled3.csv
L_MTP_ANGLE,L_MTP_ANGLE,L_MTP_ANGLE,R_MTP_ANGLE,R_MTP_ANGLE,R_MTP_ANGLE,L_ANKLE_ANGLE,L_ANKLE_ANGLE,L_ANKLE_ANGLE,R_ANKLE_ANGLE,R_ANKLE_ANGLE,R_ANKLE_ANGLE,L_KNEE_ANGLE,L_KNEE_ANGLE,L_KNEE_ANGLE,R_KNEE_ANGLE,R_KNEE_ANGLE,R_KNEE_ANGLE,L_HIP_ANGLE,L_HIP_ANGLE,L_HIP_ANGLE,R_HIP_ANGLE,R_HIP_ANGLE,R_HIP_ANGLE,L_SHOULDER_ANGLE,L_SHOULDER_ANGLE,L_SHOULDER_ANGLE,R_SHOULDER_ANGLE,R_SHOULDER_ANGLE,R_SHOULDER_ANGLE,L_ELBOW_ANGLE,L_ELBOW_ANGLE,L_ELBOW_ANGLE,R_ELBOW_ANGLE,R_ELBOW_ANGLE,R_ELBOW_ANGLE,L_WRIST_ANGLE,L_WRIST_ANGLE,L_WRIST_ANGLE,R_WRIST_ANGLE,R_WRIST_ANGLE,R_WRIST_ANGLE,NECK_ANGLE,NECK_ANGLE,NECK_ANGLE,NECK_ANGLE_SHADOW,NECK_ANGLE_SHADOW,NECK_ANGLE_SHADOW,Trunk_Joint_Angle,Trunk_Joint_Angle,Trunk_Joint_Angle
X,Y,Z,X,Y,Z,X,Y,Z,X,Y,Z,X,Y,Z,X,Y,Z,X,Y,Z,X,Y,Z,X,Y,Z,X,Y,Z,X,Y,Z,X,Y,Z,X,Y,Z,X,Y,Z,X,Y,Z,X,Y,Z,X,Y,Z
-4.14927,0.0,0.0,-8.857760000000004,0.0,0.0,-21.146500000000003,-8.485330000000003,9.116960000000002,9.601430000000004,4.337540000000001,-16.461310000000005,-22.765420000000006,-6.42555,0.00025000000000000006,-3.6138900000000005,0.9389600000000001,4.000000000000002e-05,30.274500000000003,19.69042,15.992380000000006,1.18457,2.3387400000000014,-15.990210000000003,18.20496,19.17519,11.187380000000001,47.10091,-4.36979,43.08991000000001,127.42828000000004,-0.0003,-100.40043000000003,123.41350000000004,0.0005400000000000001,121.48917,-11.175450000000001,-14.126650000000003,0.0007400000000000001,-15.47809,14.289560000000002,0.00403,-5.068340000000001,-10.801560000000004,11.6705,-26.954090000000008,-14.328200000000002,6.85118,4.279470000000001,6.278530000000001,8.715499999999999
-2.488393498027719,0.0,0.0,-8.839507159804047,0.0,0.0,-23.19172610215899,-8.529419992767593,8.23036563619564,10.162320835159363,4.179748538158822,-16.371003431614344,-24.565721847370874,-7.0300525746790505,-0.00012299777724818664,-4.599926168031318,1.023453149134408,-0.00024130959437485935,31.038499353799082,20.275987481442733,16.056329023105683,1.4726594484770235,1.6988543662524678,-15.782131828906396,18.651013005641587,19.431169180223122,11.048079328914746,47.81405080232526,-4.54033347045785,42.78466917505598,126.6964455321133,0.0009791723220194696,-101.69012909923747,122.95038979546726,-0.0001735945411753766,118.8961660782064,-11.442229553918946,-15.431553208402967,-0.0036480751475386616,-12.3639580344759,13.785604364437853,-0.0021816611655404803,-4.7670579015474175,-10.767269979885604,12.411383020600601,-26.614121247985075,-14.56744965729893,7.5618655015452685,4.188347595229523,6.112562579648935,9.231512411424378
-0.5945966811784076,0.0,0.0,-8.863604910281495,0.0,0.0,-26.97288219651373,-8.939467210830935,6.358087244527278,10.175224622652266,4.4060642199031195,-15.659064461664059,-27.041452007353584,-7.329974255677505,-0.0012262118197713713,-5.0761625128794385,1.0857251506510623,8.650059207377679e-07,32.42204121621542,21.014235844168653,16.85894151675089,1.4334412971118529,1.0899118331270596,-16.332063007240528,19.103351866961233,19.704797992106826,11.23519486818239,48.731088447482165,-4.828325350449069,42.87177140455365,125.71815634663082,0.007461040666637904,-99.8585406966299,122.6677120098766,0.0027751151418516627,115.46808318221976,-12.48816216076715,-14.167670433925705,-0.0016977231721751276,-15.28277342005629,12.44872870751507,-0.004878813832928156,-4.291137591139214,-10.745061950967148,11.867210174571468,-26.16244046695284,-14.347780804368096,7.05799803838872,3.8824123125195165,5.882865296636989,9.130532677928915
-1.634589003248174,0.0,0.0,-7.806602128284197,0.0,0.0,-30.162244740092838,-9.23081758287145,4.348435077241689,10.243892744219535,4.036013151363082,-15.809959510904372,-30.390639498280837,-8.077016241167216,-0.0015523606196911986,-5.464149435014134,1.425962539921863,2.9651415313869065e-05,33.8615696223099,22.11497174291538,17.738301340938634,1.069797936691869,0.1679254692409933,-16.272784820887452,20.31571702406066,19.64295017363459,10.911360829298145,49.75352268067349,-5.241785646413964,43.09357318585532,124.7622167758281,-6.632801741399006e-05,-101.09417125901966,122.5607127368408,0.0003172340335576354,115.28950030336688,-11.065277989321338,-14.86487714917228,0.002200439092016228,-15.333597292125187,12.852582660927705,0.0007239065119758948,-4.3420919474876465,-10.679375828605743,11.440059345749473,-26.226626549094377,-14.130431620945616,6.681424743644337,3.2859113261228052,5.62308349315874,9.156597710156875
-1.0163921373366356,0.0,0.0,-6.402459273835847,0.0,0.0,-32.0127873679116,-9.338366865141627,4.403478360214765,10.273350751683395,4.007224407863853,-15.671814221413088,-33.22025161584245,-9.072065680226277,-0.0018555730244700069,-5.195050245762079,1.412232168809496,7.053033867315687e-05,35.154822338405495,23.13308074197626,19.266191883919582,0.7886071893697159,-0.6177378336639346,-16.743461216220197,21.235956590281674,20.562152077302738,11.179173618208733,50.8541101240026,-5.376493255029125,42.68089332784058,123.79954784572448,0.0007729755136747089,-101.33057493033218,122.05469091148908,-0.00282997629112458,116.44797350414717,-10.845596926460484,-15.030212325469307,-0.0021390843846397795,-15.658303104109773,13.793546346981131,0.00040236247613005825,-3.9058223144036384,-10.243043208439506,11.091481491188595,-25.765459623192136,-13.597812115111072,6.521196132329583,3.617732506590558,4.629469323612985,8.493910086556424
-2.285900655139554,0.0,0.0,-7.977433605125002,0.0,0.0,-30.933968916164943,-9.117185894421011,6.188569026198029,10.763096432997239,5.296484558789401,-16.897635197039417,-35.27580843124741,-9.996459744227908,-0.0005124101742155637,-4.6282873841840875,0.952204219336715,0.00014741272597274956,35.59535138309576,24.295976416452724,21.16249266510393,0.18830821277651927,-0.7041596756634616,-15.78894048508959,22.657405386735928,21.191054135827596,10.179515138672828,51.61738469139718,-6.2241064306557945,41.49327605842636,122.43870428028235,-0.00314429074802068,-107.36203486164251,121.8249605672249,0.0021350010347786575,115.67616703021193,-10.137445184807579,-17.386626466199896,0.0008352095729430843,-13.306916955068921,14.414484182197047,0.008370197902236363,-2.843239173515868,-10.27127397512218,11.856375767095212,-24.670679595938253,-13.904056467355028,7.229627570342727,3.6320999586972045,4.5219915639137644,8.603100670471848
0.40483291245513536,0.0,0.0,-6.9720866736364755,0.0,0.0,-31.2064746995393,-9.145134932721954,8.007413691566185,10.548555620207306,4.92986132597572,-16.491438067747563,-35.54681324506503,-10.484797158863921,-0.00042425213469228203,-4.613884071395006,0.753201177448783,-6.138558001560293e-05,35.22399379681198,25.11829850864603,23.059202919339036,0.0786112252606693,-0.8955455844047739,-15.955859178585852,23.38022189133332,22.559846995134965,9.88779699558636,52.73263907636303,-7.033672746213675,41.023416017434556,119.94196769763757,-0.00532855147119584,-104.3590850740303,120.47304624174632,-0.001898153109999549,112.96496254576408,-12.831594496760822,-16.472757611822576,0.0026278640665008085,-11.286721050398082,11.741345969314482,0.0003302138581040407,-2.358706458185958,-11.585826517114684,13.472773086433982,-24.232481516152827,-15.714850912098726,8.247252830435352,3.9994498019978,4.876840604127276,8.284941838176607
3.581092486212133,0.0,0.0,-8.271328274970218,0.0,0.0,-31.21052295503475,-10.377299432457434,9.90215069936563,12.459390614243112,4.434483542909167,-18.068184454905417,-35.39042077257629,-11.383912167953753,0.0005166627908640876,-6.699267448704663,0.38251853577508604,-0.001650565245990658,35.17849753760135,25.986625754489598,23.413402281120973,1.0081690812821869,-0.4271262493005064,-14.99682340068805,26.86779402232393,24.50372201800457,7.47017777446316,52.745315197876025,-9.23827054213053,37.92606866001236,114.26358443896024,0.030219615217685424,-105.1025533054765,116.43129903520456,-0.015756751427224908,108.18448278750606,-16.845571276778205,-14.943093926347679,-0.02781358557381282,-15.51539081788346,1.5956267381813163,0.022490899197402933,-0.7375669377419732,-11.656563197079985,14.180362569358007,-22.578416183133047,-16.03853117086977,8.888649489446564,4.680273798064535,6.130135433168754,7.318669059168245
4.55154949568582,0.0,0.0,-5.530147358388848,0.0,0.0,-27.593274312244237,-8.336178684417785,10.851311356672303,13.587808241395226,4.327502710412038,-19.13984153926132,-37.60622969958644,-11.486041873658152,0.0012243835951729373,-10.860636966742513,-0.24805264243440053,-0.0010355988899952305,35.55280013712588,25.67490589574309,24.14000289516275,2.5319855952152617,-0.7440244510078927,-15.70544837052391,29.29122490179215,25.77506594662022,4.464856986782765,51.91607246484515,-12.188039593655114,32.11932415484894,108.12328365519376,0.04248926718499792,-110.68679151999503,106.54646431385265,-0.017811952624289955,109.47833145382296,-15.564522030904678,-15.279686116640185,0.026038375014230696,-15.312945009356978,4.216857072598236,0.004933354088005618,0.9430298609300033,-11.246990227836989,16.07650468973637,-20.72896392024269,-16.347042840397528,10.844043562423654,4.8161435628737905,6.857494639583427,6.660850352924293
8.287176155300063,0.0,0.0,-6.8728643593946295,0.0,0.0,-25.835790792445746,-8.28008659583745,11.100950193085865,16.297431575393123,3.1852638144142276,-21.1321011851647,-40.63107468021649,-11.19591632772424,0.001675470682268124,-15.656612227326407,-0.3569288597514516,0.0009796717651350672,36.56547077419806,25.203826356031918,22.684706420219765,3.1243468248885615,-1.0313527407292709,-16.310963523095282,31.23858522899523,25.561576089418434,-2.1977101148554383,51.45284922568352,-13.918747866584786,24.76161224372129,99.18089240643494,-0.013588079648823281,-99.31703168660125,89.67756440013568,0.03765330528033585,100.43845912968628,-20.71854516367434,-7.033214039166606,0.001776325756548555,-14.409466337144533,6.933606479959512,-0.0009910012329067486,2.6768165352818003,-10.742803365614986,15.320860535819342,-18.99510718400899,-15.604553419778354,10.320681008912056,3.4992407048682175,6.939441710863625,6.3724561084867
11.89486475712432,0.0,0.0,-7.185695805875335,0.0,0.0,-25.03839955239003,-10.058221166987352,9.940690104459566,18.090781851010426,1.5659189000014595,-23.88790959172254,-43.93592893504854,-12.09607490892278,-0.003496354638608242,-19.333070955689823,0.6061265810703003,0.001339613683211796,38.52261228109701,24.55043591009673,19.169638016675247,4.342850495596123,-2.483763791794128,-14.917482462206102,28.05088150289771,24.916378288814002,-10.210502550498768,50.83681672027981,-12.53076073918726,22.749202497619535,86.24323159375568,0.0429591633063394,-86.2907126139497,69.66948995594572,-0.020299013831942835,96.48058788329138,-14.045340051735495,-6.0448243295199955,0.014684819817220526,-15.29503775133336,5.370503558000173,-0.02836516422744774,4.698452877797475,-10.118063412957838,13.560480898587251,-17.0237728170976,-14.384010089416364,8.894456046908068,3.49807702549392,6.234720928426258,7.729604907010586
11.291604337863825,0.0,0.0,-5.769254566808333,0.0,0.0,-22.684644019078274,-7.38962417444336,7.747781776555087,18.075202068574836,2.0858917607859793,-22.923091268642967,-48.11486369920214,-11.352896306281162,0.00240871751832424,-20.101957792342546,0.861933424525616,-0.00015147155839955275,40.670613013486076,24.73490652318616,18.37635242585342,3.509548238972351,-2.576043552712415,-17.80574758222727,19.8708040675334,20.418439128748087,-16.126943072253873,50.153522192001155,-9.863347491241088,33.04219428129168,65.48396418391702,-0.015064410757559054,-85.50075707121387,61.26493678270631,0.010858320567263623,90.7573723799647,-13.741105790942806,-3.9931316132187127,-0.008727373645437762,-6.787268835960633,3.1964146178657997,0.0021506542424978214,7.7796080839862265,-10.667728443850814,16.187048541970302,-13.822645227592577,-15.848604883596428,11.171348511610075,4.032109808750809,6.167412515989994,8.888116555919805
14.004478074365874,0.0,0.0,-3.759256216863378,0.0,0.0,-21.325985604331677,-8.04197611865066,8.382418916565165,18.589362899901996,3.3376428072146505,-24.156505511283545,-50.947048167228914,-11.03990037928297,0.002289436223959985,-19.30883818666006,1.6739538211234397,0.0007846285311110142,42.117335252853906,22.74553170229513,17.236257967601933,1.6515544756035356,-3.7921597870058354,-19.09270347758198,6.95740524874935,13.80369877870092,-7.717775891458902,49.326925515966366,-2.193743201552326,50.489820768263826,40.23947351160018,-0.14419763813179062,-75.39741917313691,69.0302860088072,-0.0629706328663746,94.89855951734879,-13.178356730839786,-6.271185094922272,-0.01307106694938101,-3.290645637189941,0.22874217027396757,0.0032722696910155854,10.094281664775872,-10.019077766456203,13.670521920866978,-11.612047489892019,-14.332127620198237,9.036164615732929,5.845767418711381,3.535221050282272,12.231658125618399
15.35191205875925,0.0,0.0,-3.3837770077934386,0.0,0.0,-19.972848566272113,-6.451047965831554,9.62206673120611,18.06088376137017,3.597453064488629,-24.002157924028577,-53.431372645420126,-10.652682252122007,0.00033411476010793254,-20.699205441222013,3.210248790091808,-0.0009543469865633571,43.400812260827756,17.508583627144798,12.837160228848584,-0.8268141437458545,-6.380528349285334,-22.619033128129654,-4.602453276087258,12.822468452896382,25.121527241747785,51.18101801588447,4.269727479824171,64.45135231129777,18.38789183154239,0.05185091984004604,-83.10523949344912,81.70355933548264,-0.027542398397750793,103.06357312524098,-20.81981562493241,-8.359656852720313,-0.06457409997660145,-1.1783305243232354,-0.29784345713524146,-0.007187870853382452,13.698217731042721,-8.64152421792649,9.114965319504067,-8.106194610420049,-11.386111850457613,5.2773915416148816,7.456253228665047,0.18156530764167317,17.918163151912253
17.68529736876624,0.0,0.0,1.2507105264694571,0.0,0.0,-20.05182474749235,-6.4152970165995,9.386126111697282,8.050449448170793,6.72112569325939,-23.790167857342635,-53.80953218249771,-10.11505213216351,-2.2322062593292468e-05,-28.858284543813106,3.383865944872452,0.01425615390903455,42.5239331208703,13.563311101938597,8.456518584734084,-0.10433770835789075,-8.278077801434591,-24.370496251480315,-14.74412835565107,23.21556167526394,67.4416547170841,51.697364088729245,3.747806605612741,63.74320518923463,17.434919359972607,-0.0956739496061674,-64.63678433079481,85.21139870146516,0.001981758988357417,100.16373161484152,-25.80774962320593,-3.23812669132327,0.010319539364615027,-11.328743152478083,-10.919211248311573,0.05747169823673174,13.409783432407798,-7.786408165800471,-3.0879912056194767,-8.327200922938205,-6.09906965821487,-5.7472853930678545,11.03361118953383,-2.0916162635698727,29.526779978962715
20.717253379541468,0.0,0.0,-16.212191367126138,0.0,0.0,-20.994344667877733,-4.2592285570592905,8.158920867761037,-18.26345447819636,7.883485112754193,-14.776334541491972,-50.296527455698275,-7.961373957299601,0.0033137066044972535,-43.81953154611042,5.783584868550178,-0.002744273249306709,38.35525417336817,9.87434683715234,2.736184484927481,1.9947547239990358,-8.570249533237437,-26.512252767488363,-16.338575280208396,38.759950783488456,82.11619590588987,48.66463538789054,-3.5844769176154223,47.8215413733936,30.82881579332896,0.08655357710036422,-60.3339308821643,72.97846429027202,0.05450251673633237,92.20721511094568,-14.740077170606984,-4.655880272193441,0.004735731262985402,-28.256091493241232,-19.349860412888265,-0.009078763811818043,11.005096455905704,-6.565836336459327,-12.013405917759158,-10.148641613255233,-1.7208079563431395,-13.560687424140141,13.576052017849761,-1.0869063716139704,33.66065357363853
22.33767334303974,0.0,0.0,-29.523770614714163,0.0,0.0,-23.327351961918808,-1.8909833165587862,3.053488390185393,-34.69591538377856,6.065223129809448,8.049474548924273,-45.20368215991303,-4.516469442155472,0.000534260611341854,-68.61474241779761,10.184553232823628,0.016423552699808823,32.71111989020685,12.351025859311157,-1.0216675990987512,7.969974788240487,-5.871670575097112,-25.862113883031334,-4.460022029677637,54.14513564337717,67.70077083279098,39.71021457991032,-12.504426811010259,19.139123720058958,49.02254101942804,-0.11804701202610096,-71.12832806409114,53.40352749125516,-0.1191766690397004,85.80106453146595,-14.11793917642995,-4.062008158249204,-0.0034878150846936965,-24.63852835587336,-22.79587185876745,-0.023555285188600193,7.235996672953309,-5.135702423195558,-22.255137532615926,-12.753504301968773,3.2047764379942407,-22.596312139940586,11.669161966128282,3.0658221966542967,29.034959323681026
17.15043845391164,0.0,0.0,-31.17140926386035,0.0,0.0,-24.900554621868253,-1.0445747815134936,-4.5129659480073965,-35.000782652359874,5.802805581318906,-2.375854261174584,-38.86306356904347,-1.7566965339763263,-0.0013935258581427733,-96.92262736298647,13.080434432722404,0.0462058542948136,28.074490185558254,17.428712109766053,1.4707553056555347,20.995872415918697,-10.72084620815152,-19.1487604950625,33.712659576405045,62.98295989411536,22.559284351228335,26.86024995153365,-22.923058427769345,-6.161929599635111,63.215127141615106,0.008377248216086685,-69.48445595599843,31.707809615940867,0.020066715355103095,76.73268415187101,-15.803903122467675,-4.086493165704082,-0.010869005492790587,-35.96138751337944,-21.776751246046057,-0.028542229456376564,3.3897852725508923,-0.6602982743747305,-29.476453365681767,-15.626328759841085,9.831021447846414,-27.935760366035183,9.358319406820465,6.689968991938236,22.99096440536163
15.77425996033339,0.0,0.0,-41.23587677280214,0.0,0.0,-27.514303871944833,1.097145353232304,-12.386780780567076,-33.20413622405481,2.285676761020528,-4.40629452654697,-30.96578310642937,-3.170298680385206,-0.0024165504433695606,-114.44807653269223,10.965769344121082,0.002521164313800325,25.64345445828598,23.472037403215452,1.259259248679182,30.552732022087433,-21.283849149581776,-6.952707565050162,78.9191430241364,55.75332653013234,-32.42512602367913,9.584660880348084,-29.47402822605289,-31.117720911096644,70.70505997223472,0.01548231809114307,-82.87805985972975,18.751035335067478,0.02152397209428145,68.69118672580203,-13.732626901830168,-3.809211805640942,-0.009828683291743839,-29.745541500575712,-25.11047807066679,0.001796456490573473,0.3897222186083521,3.2990435013414148,-31.298919210957795,-18.575943081713596,14.167603128098644,-28.38018558310603,6.064202273855294,10.638444785559185,9.361008444825066
21.60288107493519,0.0,0.0,-47.37003290375807,0.0,0.0,-34.741460687696346,2.9615337195292493,-15.391213403889807,-32.9336657099393,2.02414411795299,-7.4276414618215645,-23.500751769641333,-4.3687534840237126,-0.005218703503792255,-109.39693438235392,-2.7631310591678386,0.0294944357615762,22.888400553020908,30.488561396063503,7.425198335866154,40.45541534489529,-32.6574417920526,5.829552589030023,99.87842248352993,36.3461107734297,-56.082692529286305,-6.649316048360184,-30.256126378828057,-60.69372205326686,70.9017205128351,0.002313785683601133,-90.7284184567794,14.845618454918664,0.005792160145702429,62.7142921639227,-8.63513305588377,-6.013267537260548,-0.00675703244991105,-26.578929680509717,-26.780336862866637,0.0032070821514792198,-2.6039672298230436,7.879936116403657,-30.779248189093895,-22.10125273006588,18.322886024011833,-26.30023318342127,1.322219404685363,17.40218266467596,-1.194003991055065
22.711740959900013,0.0,0.0,-48.5428908340408,0.0,0.0,-33.69393474564171,2.349767741392197,-13.90096473118705,-33.23339929931313,7.145378794752456,-7.817067323140278,-18.46358177390367,-2.813512994175265,-0.001321132887135919,-77.79312764744067,-17.86816628345756,0.13408543858000754,18.456529632626722,33.24128095373575,12.45353598557903,44.00089359720295,-46.64429691002371,5.084600858558305,106.88035624616144,15.665912403701336,-59.57847364693561,-20.082161562172093,-27.46790044032074,-81.12344085099366,68.75229164951955,-0.003774199491671725,-92.90902777069914,14.530105337183867,-0.0058777238441404065,60.20051841787298,-3.3259589310632998,-2.810381163568262,0.003114388176820173,-28.200301152436616,-29.46811608685843,0.0012118475191507188,-2.0995120645329113,7.806541745555514,-32.94757544695695,-21.200492625828396,18.96364600332444,-28.465448383483036,-5.241097545768578,25.926136675686358,-8.308639624031878
16.844163908505553,0.0,0.0,-42.14189666490797,0.0,0.0,-30.411858577825043,-0.8477697537954111,-9.034988875645903,-57.867527199074736,31.441972617622927,-30.905983813555395,-11.46679163161719,-2.2954846481468456,0.003238041119271472,-32.15384130728757,-11.824177779749505,-0.04082199592153644,10.56198095440203,35.95483343700871,12.503857248256029,46.98051139559895,-54.937722194856065,-2.849076729121344,107.87900127397607,5.314338534179424,-55.54047018276714,-25.805259199981624,-26.18327332321409,-90.32097887613122,71.18730712374493,0.013964291234616115,-93.19974430881169,14.938928034320558,0.00317837926586431,67.89660295228697,0.01596240458870474,-4.558419137355749,0.0022946097817241043,-23.08002525213376,-27.269657849395877,-0.04004503283235328,-1.4195580811206832,7.182338505567609,-26.927555685819275,-21.461169248006808,16.374474975147038,-22.782766505650315,-11.187139171199089,32.76163334144471,-14.206687571928207
15.880619178678549,0.0,0.0,-51.591561126424175,0.0,0.0,-29.821289068521445,-3.4070242249596316,-2.624270088164101,-45.295313577943986,-4.493367222346015,-14.306212095601847,-7.731534199824729,1.3658922659561388,-0.0009631448207389967,-35.19574387613809,-13.11188510835551,0.03242596634373736,4.425642313094346,34.13860422416122,18.131813929254754,65.93442779981419,-47.99166939536068,1.8479317191529354,101.62043763715418,-0.6882543258789101,-50.747784477624116,-26.134719159212096,-26.209159041531606,-99.15943691345585,75.91948632131808,-0.013473240842511884,-92.77567393083507,16.498542585474613,0.02830152519376075,78.80953292766486,-0.933945546083503,-7.482848226687998,0.007326604354902941,-26.59370716713778,-23.123172653956537,8.053001908353444e-05,-2.592501472682766,9.284821286195372,-20.636942375429104,-23.65037835344205,16.155418949701005,-15.941499204856138,-15.614416281992835,33.02182171643274,-12.966449613746802
18.896442080095536,0.0,0.0,-62.507114551006936,0.0,0.0,-27.08221566874428,-5.543233710572983,4.781280239573959,-17.03613438659403,9.269207965923101,-26.2085352964686,-9.018167465423886,1.3078970814718982,0.0003623328066644665,-51.73778900877307,-22.634898486944632,0.04983419309485643,5.033162097859826,35.710331603420855,18.48594077691505,72.62279875658461,-38.18992389958778,9.206342756513484,89.91114864138675,-4.389373262733231,-50.03500143611393,-26.0358864278407,-25.759218189640517,-92.69450041692733,83.12643600126486,0.017628913780242592,-92.64179687876067,12.731416552259997,-0.10576734344893887,69.32740202834515,-2.091931744702091,-7.6832943445474084,0.01876107775902887,-26.079703247542852,-28.30250302865275,-0.06602631283804467,-5.257397795774996,9.761533743948803,-15.505903329119397,-26.81823901285366,14.759377719935282,-10.870641896962926,-15.388121962204238,31.566454805096196,-11.3775464342162
19.667345711451652,0.0,0.0,-64.73045779687489,0.0,0.0,-21.9879204410352,-7.320714671353135,6.457980832210494,-19.93966886792488,4.02177611202935,-30.603970928288422,-10.563303024310448,0.5458754872805271,0.0004761512832458124,-67.52978336077543,-25.245321282819795,-0.014402120321227759,4.891050452458872,35.409501210583166,11.861967047554517,68.13116467021597,-36.48418396488126,15.94911477703702,71.98124272139736,-7.0257449775249095,-49.3144822859975,-27.59481940374005,-25.803447323034018,-74.53001962805848,90.3068410540393,0.023841809559636405,-108.4235762144539,13.820215173782309,-0.000103398357867332,44.07256743770529,-1.1444673966839578,-5.021366079178338,-0.006199263480895837,-21.006965186399334,-26.03183879591349,-0.02546983469328514,-6.065560411178645,9.899366983257593,-12.415074146108001,-27.831065001623365,13.762992257757336,-7.897843433634265,-12.677820432288168,31.744306988834573,-18.136329132954366
15.7325174183527,0.0,0.0,-33.03166351307617,0.0,0.0,-17.530369178202466,-3.635342180944653,6.319503300856675,-15.023366419150124,16.06772720527453,-33.48801543788943,-12.349245127490747,-0.045095804962399795,0.0005521837281190136,-80.61434666350522,-21.264737730655714,-0.004433050912379785,7.49081557295367,31.790189730279415,12.494125459471835,66.2717697096826,-34.10439190646325,18.612117343358303,51.50564152027355,-4.174644277245245,-46.01962521405778,-28.116406184647644,-25.15300189572447,-61.92183595954225,98.24775882085144,-0.018725716265636613,-116.13819134987831,17.450459825094878,0.02840200911317638,38.202823476869334,-0.2663597666942071,-6.126903190510759,0.0016514294133136663,-15.928927416151623,-25.25163893045469,-0.008123213584128432,-8.437740049009031,8.623388700690247,-10.9972786168503,-30.164654395089265,12.059399269975785,-7.049391769396459,-8.260046417020765,28.662143849489098,-17.542265728623544
15.20369471360478,0.0,0.0,-32.790795530386745,0.0,0.0,-13.852450623091825,-4.605180955441207,7.61210343840724,-15.865404999008286,4.639084971924895,-31.404007670260782,-12.897913004389322,0.28860127088566345,-0.00036671043441139473,-85.48093786050565,-9.907955816707297,0.011350780238554523,9.731060194082598,26.528006698005743,13.877751298250034,60.023761835904835,-33.40694779527281,18.330295127276997,34.12731231074142,1.5378567743194196,-41.67339363041337,-27.16433136747534,-23.12496077571843,-54.55818977689053,99.38678648948617,-0.008286593900500816,-109.79862317107315,28.489922332790407,0.04776422300772902,44.096665861664356,-2.7991595709592336,-6.472637220549158,0.009891653913882224,-21.92332399515063,-17.45226327428828,0.016372961182021757,-10.203607850567375,7.019198433473291,-10.318966087660366,-31.84446336469289,10.320434209048873,-7.017031344978726,-4.226384551598779,24.358594073934835,-15.616680187588711
14.68039406066789,0.0,0.0,-22.092300996223095,0.0,0.0,-10.168096768911848,-3.841471695367533,9.60096163948505,-14.177119688351688,6.2277121218784295,-33.530531475086406,-14.040143526917749,-1.1614947122523323,-0.0005580280434022497,-84.73790278729416,-9.692538642054894,-0.0018404723826827669,10.066930556996198,22.42979249128447,14.710820844522848,53.481269060475064,-30.090126830652615,5.822643620634166,21.318456936774517,9.26420186960215,-33.58903356573287,-22.832456374244973,-24.573963884092247,-45.6776953335865,94.16183791230064,0.012705939515582219,-92.27949526494412,40.79558758180924,-0.004924562875095642,52.28767951571233,-4.167574885653675,-7.7593999577856305,-0.0018214903271684942,-15.786067413110391,-14.42941243362941,0.009497360893607667,-9.947497262214101,6.584333244240507,-9.087145860613369,-31.61276240864493,9.464929074728534,-6.025901599382626,-3.329987127658216,19.918586289999233,-12.569820541515167
16.696778981057342,0.0,0.0,-31.238569199222407,0.0,0.0,-9.285725389874575,-3.9892139421157995,11.116347268798174,-13.35252742615502,0.8967688313534522,-30.467528134153756,-15.405895082094721,-2.149459774705081,-3.175573617739774e-05,-81.04435611304456,0.11601869653731527,0.006183576280761567,11.935326424993955,17.244369168553124,16.64087789194175,46.501167167045324,-27.67200745357875,1.5705059645621007,6.7554260304321225,13.88712065269885,-18.886928395177303,-18.637039133952914,-25.72093047779553,-37.235416878003655,89.47659584225278,0.008041752653094193,-98.13767777928749,54.66778809263188,-0.035826696631060743,57.49924480859451,-0.14071814009154482,-4.911327312843271,-0.014311212409010699,-12.497678236716627,-15.359762158086987,0.013266242814303596,-9.541459475864135,6.773325602662653,-9.140930643731153,-31.216370864379996,9.660294334388857,-6.005471782383097,-2.0838137667111107,13.49003440723083,-8.85448866735658
17.075471600587424,0.0,0.0,-14.980266918363474,0.0,0.0,-8.183719948759396,-3.5217527075000334,16.860598858466126,-8.14667053630785,5.2559817139350224,-26.8817861215832,-16.89965734793378,-3.2714279310879553,6.159522115927504e-05,-76.38054743477602,3.200166137104906,-0.002212405405623879,13.7898873264519,11.840809544648492,16.34339398170938,37.548282203874194,-25.044752219081367,-9.049563215917184,-1.9270000354763557,16.567396177444156,-8.875363172537348,-12.615093790066421,-28.707359160795423,-26.72859252626002,88.98950263331938,0.005587285412982589,-100.85545715355863,68.87037847911529,0.0018637159066651286,57.790966024138335,-6.1533446553253714,-8.085907625376638,-0.0006980185749396555,-15.663013980360306,-13.526962308094227,-0.005572639959186384,-9.872526901039167,7.222748383664748,-8.741575245057215,-31.59105976511778,9.93133908829182,-5.463118678620197,-0.8860923866570687,6.801542183145533,-4.928930056266105
17.73809525279928,0.0,0.0,-17.302557144263517,0.0,0.0,-7.375127866773562,-3.1498879135488678,22.253055351555158,-12.97546043341177,6.031879967938819,-21.921038596525328,-20.457917447573937,-4.461585811810096,-0.0028536538099183757,-70.93534733609894,9.260786086453418,0.0031456031074890167,18.98607343933302,10.271452136844523,15.375173595768768,29.67401321268577,-19.017462226498782,-14.48638094818351,-9.232723026443532,20.06675397507131,3.2893032737586148,-5.536538448048336,-32.231720961601724,-17.79274696352044,92.25287504941384,0.014224775671014269,-100.50093738651802,82.28198222883532,0.04845907619888938,70.02642500153098,-5.723097030598568,-6.1830276887595685,0.00024041523575394263,-18.4101227249041,-14.339894355792405,-0.014461763742833368,-7.9198259480558635,8.182481365206892,-9.861098115272897,-29.662256827312586,11.233610321845036,-6.150060921386274,0.42503509384436833,2.4506980757593935,-0.8063396952767654
20.87963583755014,0.0,0.0,-15.300261603147737,0.0,0.0,-7.274053894322786,-1.4387501650311743,19.291405492664715,-10.932931971986354,5.041195576679288,-22.01339349854043,-24.102043300925555,-4.644784005840848,0.0021404964721578627,-63.8750423694668,9.903291018427074,-0.001271638070750742,23.344936217492407,9.765832857610254,16.153952388427403,21.565930659591945,-11.442117265651179,-19.383483621709654,-13.508630485126684,24.161772823092452,11.93969300071741,1.9496653491805458,-36.799985575294244,-9.910398273653731,96.27304895672593,-0.003887501439844698,-98.2142013882263,93.21547306996963,0.03778764367303611,77.67424212795177,-5.248843177608814,-5.103356500881058,0.004917521383536513,-15.87395809914878,-15.581135767511114,-0.00035203382897835685,-5.659987063506186,8.913493098357613,-10.738459558082786,-27.42170892629456,12.23410433507603,-6.696413281355697,1.6204575231315612,-2.0825970902314124,4.439122398877072
22.786532670930075,0.0,0.0,-16.08423135022907,0.0,0.0,-7.6879535367326195,-1.4706439502078739,24.43049376674643,-6.680284094410361,5.865395815338658,-24.885430654854115,-26.933001668468894,-7.297007831010558,0.0004069753670314896,-55.02482272001045,8.98631667411561,0.0034809333754388374,28.23554691840579,9.582322853890647,15.414988723071739,15.05740579463216,-5.522054637670253,-21.095974125036722,-15.194630069000477,28.06821637526332,19.469369481296575,12.689752998009583,-40.61540734177838,0.29982911293345343,99.58536160890263,0.013141318989895205,-97.87028662245882,101.26304152860948,-0.014059305622935935,78.67861205241897,-3.2118249456886914,-6.4839735341094435,-0.0004793065061856112,-18.520453218948,-16.266312764102977,-0.01008575003884931,-3.2950539099265868,9.244181002066867,-10.270890957992375,-25.103258548592944,12.369809156288381,-6.131993141040518,4.0713688369515495,-7.278499400563488,8.857514355816072
21.911564976381225,0.0,0.0,-10.58957304532916,0.0,0.0,-8.436497085580237,-2.4684532579892853,29.154111483801387,-4.068590509875263,5.865512584329236,-24.257129920389307,-28.533881800707714,-8.022249477064173,-0.00016129174637757074,-43.42348593496343,6.741177939232807,0.0022183391573664044,31.790680936402783,8.51297269484358,14.823809999034637,8.085896480915915,-1.2838695775152942,-21.850470588453838,-16.38138122373495,30.88178728254783,24.6514589490087,28.388001679698295,-41.327875431505426,14.564655191280165,103.48706397745761,-0.007939113349081258,-99.46579902008962,105.34429418645433,-0.01015778968843719,81.69077273494936,-6.34003708155168,-7.618198086653777,0.0038066104942080037,-19.141621388130382,-15.615072813038875,-0.0013668453629743535,-2.8351447783770087,9.223171292534346,-8.170991535171895,-24.71278163468868,11.579066446560024,-4.173317418386155,5.297182494507017,-11.816383056072391,11.354337674582501
23.33053092579196,0.0,0.0,-4.821922736170183,0.0,0.0,-8.811901166408072,-3.5932896354047705,33.57100133549851,-0.3436106733439699,7.251146507913658,-19.801138583591154,-28.884476429970842,-7.868679249638576,-0.00046298514005700236,-32.45695464035968,3.559703994229659,0.0033281860846058595,36.25701278221915,7.449534417327789,14.247179417357165,4.72298674451047,2.6393993920642513,-20.39324637160864,-13.162388771763347,33.782095088771676,27.192631623639897,39.40430563430459,-40.282203384475714,23.325927383459625,108.19642169331833,0.018674649919279376,-102.70068908040089,110.33716620166432,-0.0014635803069837393,82.26069073055913,-4.01973179412933,-11.100982657334152,0.01367392135584475,-17.600048159338606,-12.957395089537254,-0.0016947943546741348,-2.1274420208999754,8.553142027224121,-4.692407731907096,-24.019194527258886,9.676036050858627,-1.1826581216678151,6.493547287677323,-14.56085565272792,12.420482854931329
22.14442128231659,0.0,0.0,-2.4117653976635065,0.0,0.0,-7.280669737447443,-5.59864182234719,36.37846844913218,3.4590109714854975,7.3605440836487555,-17.086659779742977,-28.239797925087437,-7.033096959824046,0.00023790192024214784,-24.9140655411683,1.4184567856564771,0.005184516243308422,39.43464824786961,6.629192022700378,13.707878788951893,3.488419810288198,5.388734210684767,-19.680377184021697,-7.483524026891558,35.81763626738913,24.719202846708466,47.21121140795461,-37.888885882425924,28.76545389046678,111.0099715146766,-0.007802461802400659,-101.36333045285299,112.54266288917289,-0.001103489318214662,86.83698772823844,-8.74900484710888,-3.21022703322269,0.008826136887230501,-21.017309455257774,-12.529347864862215,-0.011403858575026153,-1.7267573360091981,7.852038431440021,-2.419853563065118,-23.581284937166142,8.187371744117275,0.66593301048965,6.475906668031245,-16.48032405393686,12.730421732289997
24.886740340254487,0.0,0.0,3.815051022246772,0.0,0.0,-8.480273923402201,-4.571765715992434,35.74029639594962,8.409504484673347,6.090985242741496,-20.85256850412525,-27.781227121727465,-7.97156826508112,-5.182814740103903e-06,-19.136086272939835,1.2536199146559812,-0.002139157967024666,41.57490642535653,6.853976935114581,15.721148252876885,3.571951289456789,5.304441755671088,-20.758590133446287,-0.9589995150696851,36.110003874426944,22.24025487057221,52.36023646275304,-34.365979246485544,32.41014260517281,113.28848574661968,-0.0010717937266481107,-98.14339977756718,112.67101916052482,-0.0035161720026360963,85.87891108516489,-6.836568569685468,-6.230115360053215,0.0015471337593606024,-20.566722799113528,-14.97251695348466,-0.012296446017955232,-1.833010402711874,6.391382379075238,1.520930257906418,-23.566310548302006,5.379115239849061,3.7762884588808485,6.492436601294285,-17.600303828327057,12.546496329763299
20.952017044760762,0.0,0.0,-0.7293690733388862,0.0,0.0,-11.390446345199004,-3.144344997982107,33.36882378653337,15.167648027718453,2.4593010756021934,-23.84412051564608,-28.22167562429629,-8.889009084958762,-0.0006043458716765281,-17.005217629878427,0.02996207951209275,-0.00033939511946332615,43.043990304857545,9.334944470002238,18.093745421357852,4.444636437415886,6.470492617341632,-22.161364400131717,8.137412757475856,35.94893484012212,15.590399312832027,54.175642469814065,-30.933711460670835,35.30575507922238,114.42219579704836,0.0003517775371411463,-104.29178051687134,113.30920845660988,-0.0005846721925608224,86.46842195276653,-8.51255330555501,-7.979536357303696,-0.0090958537730376,-19.26496504062031,-13.116649191031424,0.005995394767518331,-1.9896103104070526,4.828022417954206,3.8236534919042877,-23.612573295241233,3.0798320177617975,5.3326930206780965,4.234081546211222,-16.377821112859976,11.533130889711936
14.256326803491143,0.0,0.0,-2.363240698712328,0.0,0.0,-12.481650323360244,-3.8087082368628358,32.12089210304789,19.381389129897457,0.4409121371635283,-21.49992417532378,-29.251767107930853,-9.336323522474284,-0.0008214012677668076,-16.421457721948023,0.6401246148965083,-0.00015039484746829566,44.419837109266304,11.099775880861094,16.99661557936391,4.938051860022558,6.224302682232945,-21.177661287625796,16.122724101375685,34.217691464265975,9.748583488639255,52.33362473663563,-27.899403210457088,36.49239337926116,115.71310407907716,-0.004455816086994105,-102.29205148553359,112.90648212297381,-0.003748739453394298,92.74679479319789,-7.527586026045325,-5.6957683937668016,-0.010202450033043004,-22.566117871283172,-9.686061213155304,-0.014474173556476845,-3.272849361025578,3.0229530741619812,5.796839599638959,-24.798987519878484,0.6774067581466605,6.50026968736555,2.4118184963881655,-13.852966121945826,10.11177829893235
12.546062917744225,0.0,0.0,-4.203528567376488,0.0,0.0,-13.713899594941626,-5.156090395693934,31.983320617989996,21.07318186226035,-1.230168216916671,-20.64634996824834,-29.57412151452362,-9.18754458597161,-0.0003149149863015338,-16.424153731170616,1.3428527493583524,-0.0006050462734819076,45.362265891784254,13.546107845515618,16.23480975913373,5.867231570021962,6.783294129337589,-20.256824898203288,21.96211727446914,31.41294185591084,5.396727747381166,50.19817159809669,-25.480093499072957,35.99620397298293,118.45983961543315,-0.0005259719326012251,-105.34832917484354,112.56361007531845,0.0012917958142761,91.54024630523911,-9.679166317499217,-5.749392925487549,-0.001670131999347667,-19.513655069442084,-9.582846833160897,0.00021185433687977398,-2.5642780558972964,1.9642244982804673,7.20802667108465,-24.027842599668777,-0.8242679766019715,7.424139703044489,0.2931298088312271,-10.71883472060421,9.03683255108255
5.658369118630503,0.0,0.0,-2.8814744992149155,0.0,0.0,-14.837328407747988,-7.025556935261243,29.747910248471975,20.518202539496798,-0.36695268616078025,-18.659391935891616,-29.013769928472634,-7.973656753838032,0.00020323760563396054,-18.184348339441005,0.5924974413131529,-0.0004419646086264997,44.28526431621836,15.973628433175532,18.722037922708044,6.719555477557955,7.681071790301825,-20.174902749941772,27.134659798378244,28.31403511530933,1.688375208554508,44.779053044789585,-23.231522241480363,33.79990947740042,119.65369169628504,0.00228060514196793,-107.85643607349735,113.1595009703862,0.00366518502260193,94.88216005052992,-7.173090884009311,-5.277156202313929,5.209895763540847e-05,-18.800507690594443,-6.236771118329536,-0.0013704675141142217,-3.5514139926337043,0.09483537364463891,8.419713026032943,-24.978346502110327,-3.007137037533239,7.868578026273728,-1.9900141888951732,-7.698266518294355,8.443164676195792
1.5724653814030662,0.0,0.0,-2.554428927285695,0.0,0.0,-17.298094968735622,-4.6422181290808044,25.553623324442587,19.652892731519962,0.5030227579168552,-17.410744168767135,-27.434473468326875,-7.4318767587661805,-0.0011124373472142337,-17.853465437027094,0.46450284229456856,-0.0002578690436350527,42.08436900018733,17.19768238786941,20.13629111578295,6.26203945774227,7.716087431167232,-18.981267943965264,27.342755607214375,25.100716074714743,1.5922552344621255,40.07072379246192,-21.962717119982234,32.206991609735965,123.72700557247245,0.005828084129420105,-109.4257767408917,113.4651531543783,-0.0008792977987963507,93.28217965558032,-6.242438123456578,-6.110730332579475,-0.0021149474199327447,-16.940697026524568,-7.724707323514521,-0.021176712076367055,-4.268712829373221,-1.209794002804165,10.815003571777158,-25.594624723174,-5.095045911345896,9.627867240528094,-3.6519767767038873,-5.835375015702035,7.731426332915812
-0.1248465696344617,0.0,0.0,-2.864049677602292,0.0,0.0,-18.29254555211878,-6.140066007944114,23.807723249153426,18.568060581321955,0.6510751232319729,-16.785067148928313,-25.574837233537746,-6.547170844664146,0.0005896020672236477,-16.852869043411722,-0.24106579265908096,-0.0007470899979226157,40.01789425301772,17.475020398038215,19.774602013129563,5.911415376360817,7.892861464771816,-17.191154393516534,27.869645900394175,22.867984082033146,0.3253368219599015,37.384366435443084,-20.774111612557814,32.63820651051169,124.62262324094542,0.00010631097234162358,-109.67292851203075,113.45232657400801,-0.0006755897246555244,92.21709982715493,-8.138682308183235,-6.067544603141359,-0.0020503949561371747,-19.093983974778595,-6.573705805359523,0.003038407287978657,-5.721695646832942,-3.053683831946621,12.66832857942283,-27.000163926001687,-7.485725319675025,10.689967999067253,-4.136371258082302,-3.934295153651977,6.30227418114955
-4.059295246229529,0.0,0.0,-3.926142339579868,0.0,0.0,-19.159692257787775,-6.876417274015419,21.946165698173534,17.568205551858366,1.065422589846728,-16.968425603427402,-24.46495356609121,-6.4343183297422275,0.00034453656378431193,-16.167207235674773,-0.13323203617410712,-7.928093698475586e-05,38.96324963734723,18.024186540050984,17.678141444854006,6.440999456023137,7.673745459209904,-14.40140653396382,29.179323735542887,21.1046918502937,1.2721830605650186,34.578307136774164,-20.25091128282919,31.604780603645022,125.00144386559565,0.00027838476062337934,-107.55638744351612,113.93029876722228,-0.001341741940386466,96.19932440504081,-4.763158858347027,-8.683427631463246,0.004552613043417788,-16.664018714301495,-4.872547808817489,-0.006824100971935236,-5.752424659979912,-4.0391504351660865,14.091153376842563,-26.97961444581097,-8.918928853654533,11.666266386947408,-4.054258526596207,-2.4072734908264417,6.786659823129701
-5.232353189527508,0.0,0.0,-3.825566485568893,0.0,0.0,-20.749383230187203,-6.775416936402726,18.928080354755096,16.461708705308386,1.6188765421597469,-15.174121560250493,-22.827186739634364,-5.728062230338616,-0.0003475621337027171,-15.378298246489589,-0.6615977358933953,0.00036557974770277756,37.13964435239017,18.486182397015906,16.949166761575416,6.446815391015689,7.250219962462115,-13.883629278396118,28.001090125702763,20.15143843265553,2.013411980805422,32.14890558314251,-19.24884187664069,31.62189989553464,126.08716872678539,0.0023175533768769042,-107.62667168097313,114.93045517518891,-0.00147554614186797,94.65375682804913,-5.575896593151277,-8.591493784308422,-0.0010613937410961654,-17.696582399249003,-3.758591693874191,-0.0009395995462352784,-5.62490251294042,-4.709730042611881,15.223929297760408,-26.8037973940689,-9.952618651093326,12.487868685453707,-3.62667509894183,-1.375960010316843,7.265998805635574
-3.4044277730379076,0.0,0.0,-2.570104604632489,0.0,0.0,-22.285156337313,-7.471333896732083,16.350743485378032,15.448156579990211,1.5087616864950526,-14.06586905993135,-21.813885938473593,-4.964230359172157,-0.00037683106460596906,-14.027711529157656,-0.45341487413276954,1.1111456162717208e-05,35.560462921755835,18.911778993015847,16.839530404822654,5.640801326867598,6.883178029912416,-12.781874808125188,26.88803715342527,18.854866234133254,2.433336718027092,29.24249981960073,-18.206777226122618,28.925820576329606,127.00316662584376,-0.0009895281007871696,-104.9495823139774,116.41548265642446,0.0007709488183654761,97.42348924646853,-6.78783278342062,-10.577929874591593,-0.0024535941487578154,-15.711459644695807,-0.9989124404209169,-0.007742573361710974,-5.1555984979988025,-5.535222140131234,15.902800363416983,-26.333755829652212,-10.966617876177768,12.825752780272566,-3.6656470553483684,-0.25774727088097305,8.180384433261787
-4.248930925311213,0.0,0.0,-1.94038908645378,0.0,0.0,-23.24771941920778,-7.879556440177373,15.281982596658494,14.89057779491007,2.3646919467307383,-12.85285413396738,-20.43348594481572,-4.577850915854415,-6.176832481414233e-05,-13.110406084101314,-0.5255898325584782,0.00021987443760894976,34.84948652049223,18.746917336648487,15.062998858670973,5.563825612571741,6.666247614014228,-13.267615246265317,25.88910003665369,17.504076164319184,2.119412664560563,27.309548604328597,-17.481229930115713,26.75539747479634,127.61493843958378,-0.0012882485878619445,-109.61277193593357,118.07709615355323,0.00046264059747638423,96.9125842295135,-5.723799925922821,-10.785048802737347,0.0004389343481674633,-14.06269179985179,-0.4352816786977412,-0.004468584796420972,-4.170674064609239,-4.937954856492322,14.810362405965781,-25.39694941355778,-10.016353294508454,12.013945109821279,-3.1995301368942015,0.8358436843757538,8.78541976763891
-7.977493966803398,0.0,0.0,-2.8655177139234453,0.0,0.0,-23.648426065085186,-8.171298231015717,14.331323082589561,14.802989145901458,2.0242062720021434,-13.186471473247193,-19.648473522871893,-4.2698109532005475,0.00016737429296443583,-12.404124379654592,-0.49979706273473845,0.00015347834532278444,34.069437199173564,19.10426993592464,14.335964220247993,5.157390892623175,6.7729336243027385,-12.662825689375389,24.649789663134648,17.093397944216157,3.614502147328663,26.846423340872732,-16.049832783521868,26.32215754983327,128.47580042459253,-0.00028996108124572086,-110.02074718084918,118.98925180584756,0.001848712676069046,97.68384032191065,-6.141061173241497,-11.545412664061136,-0.002656229312916053,-13.944307843499347,-1.1685527503334372,-0.005876726056189035,-3.8499795699057624,-5.33553849315963,15.415860301767996,-25.054375580184605,-10.605223401539808,12.439137041165544,-3.2354426733617263,1.7280803688001247,8.883530115123133
-6.337509683709951,0.0,0.0,-2.7657755130155968,0.0,0.0,-24.42105200089641,-9.100949603185535,12.846398672385874,14.359299959410063,1.724449455786535,-12.178207729413835,-18.560901611474847,-3.6923734695533215,5.069225708176625e-05,-11.76014975562862,-0.2068472815047315,5.2030575776114187e-05,32.91261468240616,19.106780058806308,14.408895390483371,4.57999297118028,6.654783052752119,-12.746175297507955,24.140479596856448,16.064452347704496,3.6464447708574697,26.914244973396936,-14.931561089422601,26.470960734492404,128.34444886204088,-0.003387710428052206,-108.72287460460554,120.39755852411247,-0.0030005331406160783,93.76035635448393,-8.069292852009422,-11.530610097377467,0.0020845097925165797,-15.538387212131811,0.49328421191308186,0.008264478110374672,-4.393370119497755,-5.310163441142443,13.41176474399392,-25.745811208612658,-9.857355795483413,10.559028938995471,-3.2235475014274773,2.752787909419254,9.368080251346122
-10.236779938186345,0.0,0.0,-4.647943767335324,0.0,0.0,-23.820055823026824,-9.505971606655278,12.98242952141551,14.525671080491131,1.4932560217313027,-12.236273938915259,-17.48408492352512,-4.122598985321023,0.00011626950156363552,-11.354212605181319,-0.25951389759084853,-1.862173994812875e-05,32.397790463796234,19.45742134750856,13.529322741147656,4.474002399189416,7.071119674226339,-12.565919200418252,23.912070678236436,15.75778227876151,3.6586266098116607,27.20207012637534,-12.693410360763284,27.514062219867142,128.4908783906824,2.4331027622769518e-05,-110.94698313523891,121.50970804750631,0.00028179176973253226,97.44826908182785,-8.117270400532588,-12.699396307636606,0.0010473577366846398,-15.827645240360546,1.3095896612200224,0.004083291255173156,-4.936547871585897,-5.731549458754327,12.569395939173392,-26.371040255145484,-9.943862332980412,9.610512634877317,-2.761127596364873,3.5716077409345806,9.058532791690263
-10.663612316863919,0.0,0.0,-4.8665268798302925,0.0,0.0,-23.583916734640844,-9.061241538326152,13.004002384468881,14.433314145732515,1.961440834995576,-13.122605657452011,-16.35227473191009,-4.116013550309283,-0.00016837068148679147,-11.06871777590268,-0.314203823189984,0.00038843901809737893,31.516714582059805,19.546439669743755,13.560663708545734,4.078206316534374,7.526636346045689,-11.97711215675373,23.85692085176936,15.036847781267374,4.021510171481684,28.126015382279455,-11.163917564403233,28.22427032765122,128.84483386104338,0.002227770127119349,-110.1549725080774,122.18657804456741,-0.00022113370259913348,99.83198325254916,-6.503129083794132,-12.98879333731097,-0.002445293627385886,-14.702488250280592,3.1603506256124025,-0.008481782007462012,-4.961309626208663,-5.7661382648298,12.25467643507307,-26.417366062423692,-9.861572584089066,9.301803340747437,-2.728197244951156,4.650263625041559,9.0896407717762
-7.3825987100597805,0.0,0.0,-5.035179397330468,0.0,0.0,-24.366678617140938,-8.289105761250804,11.588900269048713,14.19721643574358,1.805451673619763,-13.154453312256225,-14.901962191604536,-3.512312371827151,-0.000687636922416308,-10.691374878022515,-0.2218053070437963,-5.2602482428680055e-05,30.601903897289564,19.100794306167963,14.475413729176577,3.724644817006504,7.6315055317985605,-11.914053756368444,23.557340588094824,14.687275817012004,3.7897727539603374,28.835586716928514,-10.206124489239276,28.499991171697168,129.35855387280722,-0.0032941653058373155,-110.90940852740142,122.70220333364644,0.0005048263189609369,98.42522815655477,-5.771234725147709,-13.542625307915747,-0.0022006292263119986,-13.366919454921872,2.864853925276175,-0.0036064224140339024,-5.566554772000373,-5.931841378562135,11.358166615275909,-27.084677690366696,-9.68907342302484,8.398130755237506,-2.3545184812391495,5.274163572783664,9.251976438473422
-7.321964328045365,0.0,0.0,-5.975953116018658,0.0,0.0,-24.075656956894925,-8.475980085955337,11.683199817015668,14.173267970107554,1.4236319032470302,-13.395863817366703,-13.236287847596648,-3.2039962584948842,0.0001665255734694912,-10.304110224701908,-0.2210816820897338,8.157038190638825e-05,29.639893999621524,18.377121948050355,13.847974174256155,3.3885979093219087,7.704993266767863,-11.797707862263962,23.303814896708424,14.769218490168937,3.5022184583062925,29.862674258350324,-9.124856973985866,29.41451479954779,129.2069975641632,-0.0018436751155297723,-107.15782797848526,122.50442501168303,0.0006443323537470566,99.4819864995612,-9.401572007137084,-12.767307568104432,0.001761874369253784,-13.006063081445287,2.8712462302852777,-0.0021190251774313236,-6.123541244595021,-5.966583799100281,11.532562678817166,-27.634237107906994,-9.785004949803653,8.548940126944737,-1.9203110971875308,5.818108473485715,9.077454213852565
-7.197062939558418,0.0,0.0,-6.431358907470541,0.0,0.0,-24.27552896668456,-8.163037881376342,12.752518517739901,14.3153634705916,1.030320006107262,-13.498133213922358,-12.267505064941322,-3.2457305166763644,5.8636375662153016e-05,-10.518718913141221,-0.2689640915468227,0.0001210629393571024,29.61690387964104,17.639158720627655,13.031830427923358,3.796607761214457,7.4813669643235325,-12.120730936435086,22.746233509462574,14.881140225276226,3.2765433437273472,30.99154139978492,-8.479641743556451,30.333595891780135,129.90679137844654,-0.0027026934174306473,-111.15723021394433,122.3939620240482,0.0011218214202573177,103.13557971993073,-7.317494153431207,-14.594438793427782,0.0023649173386024007,-12.857810369203827,4.062659550378266,-0.0007895081162492201,-6.384400132070195,-5.941832468917914,11.724040187753975,-27.882762688099405,-9.83178977177497,8.73796018008447,-0.8445064691333749,6.086222135411765,8.56773068124112
-7.834133350582547,0.0,0.0,-7.056834393022373,0.0,0.0,-24.077397725509286,-9.109518588527598,13.478833755422357,14.32935981478904,2.099386037001324,-14.83534802766654,-11.828606459322321,-3.6737369254860357,-0.00011789600538846295,-10.542425489100879,-0.3983041178773566,-0.00011415083475831477,29.197784391702857,17.386045891011896,12.720200693837722,3.476663559769919,7.544262558753132,-11.916330675826705,22.919230654267793,14.536732849719547,2.3730377110178336,32.00613467582269,-7.793703573445387,31.239909057484915,129.56418367264058,-0.0017638016122805242,-107.95657542687174,122.45498932947247,0.0004488801117925787,103.1721149711462,-10.15341147180486,-12.68872469146281,0.0013002786646143373,-13.478737290844046,4.642060583700267,0.0003286607858101316,-5.951450453494414,-5.81158645979738,10.380630306753009,-27.51284834524856,-9.220189313284667,7.525937342702044,-0.889114550353742,6.21470320842174,8.783311656514305
-6.564849197413372,0.0,0.0,-7.096934455115603,0.0,0.0,-24.70650438811888,-9.368139156856577,12.757498427564473,13.615980912585865,2.4183977368011536,-14.915572545030273,-12.357087915490352,-3.706664046199631,-4.4993864368247395e-05,-10.785137806641208,-0.6371017335463777,-9.082928811057115e-05,29.70941277815344,16.93645388993788,13.033478501011373,3.767553523242216,7.180642876357315,-12.460358752552162,23.33235538208266,14.04639963243515,2.0532914151722825,32.721023809485196,-7.5010038025339085,31.798056549957746,129.55971955493044,-0.00042391231744473253,-109.76305876695832,123.08056480559128,-0.001137404737418183,101.93296373407426,-9.541310803644143,-12.409597939576788,-0.00016418284277696453,-12.806014833848437,5.410060273836194,0.0016959749522450964,-6.201492970612918,-5.840387752678751,10.671153647364015,-27.75015499393014,-9.35316542382487,7.787602660794331,-0.42163321565600087,5.8526328860679495,8.623972998930183
-6.65365695536358,0.0,0.0,-6.782955976422157,0.0,0.0,-25.117202122944214,-9.148679597750455,11.071717064869881,13.351469329022263,2.0741831428891184,-14.676930220906314,-13.780543212339321,-3.728172716311026,-9.616902149212532e-05,-10.725466954147409,-0.5761007914727554,-2.6138503677096253e-05,30.007095562446374,16.34752775155357,14.231401262059109,3.1192964836854546,6.489694090005697,-13.351876849751646,23.943406538626828,13.976756145530945,1.2740109427180486,33.729059630936604,-7.697697077444203,32.13289949044449,129.4439986791321,0.001077628128308309,-109.70391173287454,123.20720555408172,0.0006781053342640089,104.01032105786602,-10.016041714442016,-12.96568202381161,0.001003586862342628,-13.634060406219428,6.678585439061629,0.0008076671529634881,-6.48924896741572,-5.740874741455196,10.004545757000926,-28.064468950632353,-9.016879160455717,7.199839410121926,-0.869492660714228,5.225540023963477,9.06714601234682
-8.576189934421887,0.0,0.0,-7.923026553940208,0.0,0.0,-23.824386375968157,-8.500388708833054,11.115139557188785,13.693753607108274,2.184337948861033,-15.354756021654756,-15.319394894023969,-4.313472601158207,-0.00029653137047516476,-10.927144699807645,-0.7998259050888502,-2.268283928447378e-05,30.773167666081548,16.18571790222954,14.2523551195244,3.3284278651417574,6.075868137004709,-13.285630045441845,24.28250730547809,14.369949105379748,0.917534575806422,33.97527035028297,-6.981171281051804,32.56199419396654,129.3588559263341,-0.0005847309987740882,-108.41591989413874,123.41829461360743,-0.0006500245330893251,102.23806377834185,-11.076473524111274,-13.170478952358676,-0.006828402498243346,-11.950965131808587,6.301836661797568,0.0029128308970428453,-6.552358238998962,-6.06311247849513,9.495993337887564,-28.16934122800738,-9.130313882199566,6.603425143353784,-0.586561233792199,4.386039286120909,9.509369903866762
-5.5311199004074005,0.0,0.0,-6.132174419214016,0.0,0.0,-23.834568642903424,-8.289605448157083,11.618299048310309,13.437770237894394,2.0724846497060434,-15.709620233769625,-17.072495517004377,-4.617475677919325,0.0007199572574690859,-10.81462090164546,-0.584990008937317,-1.650479143321816e-05,31.01340263795599,15.798046647221657,15.12776766347649,2.9033785154928324,5.205847999906028,-13.319909038912307,24.193033103933335,14.268225302032358,1.6079284317742513,34.743401454457356,-6.352120235373608,34.00996909430051,129.8105824036336,-0.0005820150477353467,-112.65755777068628,122.95594589457423,-0.0014123491573800313,105.82776588383139,-9.169012008211725,-13.733014863196475,0.0022251535676250205,-14.726859315038464,8.2296260848636,0.004072058146359468,-6.413608778419951,-6.0698986795403025,9.797893338432592,-28.017754440849128,-9.24718993452515,6.883638995600369,-0.6540357864361198,3.5578820630648833,9.510489624153319
-5.993869683729032,0.0,0.0,-5.613647906171559,0.0,0.0,-21.977333160291433,-7.381246552881827,11.954594685729804,13.660238276631208,1.7953785835597635,-15.236685867740398,-18.7238932400426,-4.862046352801217,0.0003808987594319424,-10.736374310927356,-0.7370173326468312,-6.837618714652879e-06,32.00931748319436,15.144295965898872,14.639412830242408,3.1783054262603874,4.7047485965063185,-14.28415795831168,23.968119727436317,13.702478080069612,1.4044806963094987,35.1216793237184,-6.232609530530817,34.75821974070675,129.68677523809296,0.000616519798695397,-111.2018667193466,122.31965655786779,0.0003647479722221662,103.78073233663338,-10.378108105856136,-13.571720777301868,-0.0007206676186978808,-13.892039661656627,7.248815326150944,-0.0002793296112136201,-6.242692204475498,-7.022429275987037,10.347536201101294,-27.88246528352776,-10.333896519744387,7.042600888317632,0.34877028106770747,3.423711751261453,9.885703954892383
-5.02486531560411,0.0,0.0,-5.4137459055512345,0.0,0.0,-20.67639969900216,-6.533519499823377,13.209627522117675,13.944572040505465,2.339083394733026,-16.47635975927577,-20.233879816893918,-4.703925295356904,-0.0004770290843389229,-10.639127139741099,-0.5905681746862155,0.000159241250988908,32.186377630321836,14.835102638002109,15.451912204881726,2.474687595815051,4.7734105052776155,-13.680528041425042,24.075281714565037,14.129908512480187,1.2412044454359978,36.546108150498945,-5.575791196489532,35.67316678986869,129.80307724773465,0.00024152576941093652,-105.66497399868747,121.54450768686854,0.0003457819946007522,101.10118968054636,-13.10059110907015,-12.761409892238099,-0.00014197336676199435,-16.424221433618584,5.908482646495749,0.0021680626237969543,-6.223358052885626,-6.894481917266137,10.548679479218993,-27.84515657423318,-10.288565018853713,7.279189003641551,0.4118583748893557,3.4334263305812036,9.849277292870381
-4.082611192381224,0.0,0.0,-4.665166188260823,0.0,0.0,-19.06174134165596,-6.708595125962554,13.540477191119166,14.135360069146035,2.0944840905308615,-16.21041659412367,-21.14897228509069,-4.323743177119677,0.00013024908158132417,-10.945965406274013,-0.4680562787622784,8.963858659400488e-05,32.519367346622104,14.122075424071763,15.599012045449397,2.371670913434003,4.451500657535482,-14.579575192408653,24.525296915654998,14.054629076192734,1.2621170250157336,36.98533231306543,-5.321108082484693,36.4880188618193,129.63165048843834,-0.000247972673175224,-105.8424604676332,121.92883261864215,0.0011040333622806481,103.06873592190861,-11.480222323256493,-13.233832445729337,0.0019362924104162219,-17.83728405102392,6.335426781597576,0.0022825927846933493,-5.9271135782536835,-7.3881226147930885,10.111250387435772,-27.602398872249886,-10.587260527462451,6.683799180908296,0.9080882600224065,3.3588025617026416,10.086361538438169
-3.9345861323028464,0.0,0.0,-4.405674747663185,0.0,0.0,-17.128878226730606,-6.154508708153688,13.120813110352922,14.517737548841229,2.6647878664382048,-16.975597809111118,-21.899479132899184,-3.897245211416579,3.1074146871973236e-05,-11.707219141638133,-0.9917081171223252,0.00018978852134573078,32.43971948566113,13.785305356684548,15.003035238907973,2.379938562251996,4.49749882293129,-14.383040017241518,24.187646253560512,13.906822593560616,1.4504311914596921,37.69494666753367,-4.573076295069823,36.78838955058895,129.8671788015736,-0.0022162724536896306,-107.03142223556074,121.93348493600199,0.0002908509092572367,105.88164004120365,-12.045153200080625,-11.535368944972866,0.00238974633403718,-15.25723361478864,6.667283362135063,-0.002614358210899934,-5.487516021031508,-7.049334417755399,10.362930045808916,-27.128391442909642,-10.36454119195462,7.0469518868186976,1.3950860331651482,3.44810534519763,10.235970704652578
-1.961330149219252,0.0,0.0,-4.7029865798149135,0.0,0.0,-15.340213534643805,-5.9561737278942655,12.648302607376614,14.842669699096533,2.9841228863102427,-17.037105591878483,-22.343890535931557,-4.15871390139155,0.00015318207265657178,-12.939395688184408,-0.9622377891044115,-0.0006289095681348681,32.42031170688243,13.448313616346567,13.553041427128623,2.9184647795080725,3.963472237770093,-14.464645318712893,24.224742052809184,13.475593075057256,1.0572415430578366,38.26269864658487,-4.556345602156207,37.54120823246591,130.27381345921674,-0.0004514936067151227,-103.00669640333126,121.92482222691378,-4.291586886792493e-05,106.51308379516128,-14.274400802981965,-10.552642613989455,0.005985543114989621,-13.225615023577827,6.528917430326101,0.010141407735278885,-6.016076555677071,-6.949190206852305,10.59243075329706,-27.639477793549933,-10.355422219573452,7.299737471351956,2.363010833252722,3.3410582385600778,10.347532513973075
-2.0386215201131055,0.0,0.0,-4.549477149412105,0.0,0.0,-12.777101053478303,-5.948882737208931,11.472358077155487,14.481827659912517,3.980609528431414,-16.72739655122764,-23.170091583302383,-4.005725171518952,0.0001760188116830237,-14.030504628993722,-1.7121895608830848,-0.0001679842363849295,31.794769276100507,13.28554952715821,13.012688154514587,2.7492893041190403,3.784101772121497,-14.413614321227385,24.541915402468867,13.763332260882205,1.492566262770847,38.76016398651674,-4.257574048440829,38.11928183780385,130.3664261438103,0.0022561717864377578,-107.13782604126457,121.9888686643454,-0.0003590570751867044,107.39565079573498,-13.242598013006003,-11.813456832096918,-0.001463753913006476,-11.748412058622018,8.768641636339472,0.005022946004010932,-6.032786385377069,-7.368856289985538,10.781114227742467,-27.676084344225277,-10.81455317172001,7.319375019240993,2.4093101860709236,3.4224435700805818,10.483972438648804
-0.4537742839817616,0.0,0.0,-3.2069869824340422,0.0,0.0,-11.343431030450443,-4.626019858711893,10.66871358435824,13.601545453385839,5.00559589714082,-16.458051478864576,-23.11993994436352,-4.23407847641181,9.082931444246479e-05,-15.790151355708202,-1.7262839387261264,-9.831439756897397e-05,31.001546475247814,13.065492219119337,12.951152802131931,2.88629530928808,3.482871844350545,-14.717126362008484,24.93530226487928,13.781293991107292,0.9800569292892192,39.342987583382474,-3.574398338214374,37.78281161586686,130.41921030996465,-0.000338169313823967,-103.85902696177357,121.68052946173363,0.0006818093631350513,107.32896845951855,-13.57634977601702,-11.258985501923599,0.00037512166720607404,-11.341797245608097,8.974348825122268,-0.0005493114998787521,-5.86683325401545,-7.461554415369791,10.592487306899166,-27.525556173720798,-10.831690944042752,7.107560940753796,2.7872528879435663,3.6410699245497518,10.245542515887067
-0.4987885385726344,0.0,0.0,-3.2581728730856745,0.0,0.0,-8.724092254604512,-5.040256697258457,11.486214180040982,12.78502822566246,4.5400207641525565,-16.674980441090366,-22.28080258979392,-4.098129121577804,0.00016750744546246624,-18.201879815671532,-1.4246901311433644,0.0002588055697639201,29.742616496992596,12.415613726418734,12.7824893513745,3.5662361121295,2.833256874143313,-14.290630076265549,24.88677342344754,13.94969776628641,0.9946160825145727,38.72781941625232,-3.6985787345698466,38.181450571804014,130.57518195144118,0.0008700318762784975,-105.46975716469862,121.7156799211269,0.00018579206467528292,109.49750933740339,-13.575532946985874,-13.29485812762871,-0.0013454385006934765,-12.325411967001855,8.36113897868215,-0.0005163011536526643,-5.958043328901385,-7.127468589121303,10.951862711730538,-27.576166465736684,-10.65259537570524,7.570210103622359,3.4950233175500265,3.7120470083235504,9.804947835277837
-0.5697142016589525,0.0,0.0,-1.5499496833430657,0.0,0.0,-6.2144607137461705,-6.005171405891798,12.233153862013896,11.053715811030772,4.912150527165504,-15.628620104881126,-20.150058521079337,-3.3444514787719926,0.00020632039729027822,-20.53122348994373,-1.6013545258595396,0.0006471594885557916,27.43503100129749,11.158998162105588,13.097371642484626,4.004697680537423,1.8215551506298628,-14.267174542697042,24.411775130642365,14.378004856557975,1.0148886319764923,38.10428659793772,-3.680851155408904,38.226069190512284,130.56636533003797,0.0003015274275022211,-105.75067798201822,121.42057262353887,0.0009082849539703478,110.28716896529417,-11.160834698898464,-12.961051610691323,0.0012373648988817977,-12.777722951473464,8.605020627732282,0.00024203239577784305,-5.738065686252242,-7.10757479302494,11.789335915440223,-27.31121166855535,-10.939973663788676,8.364265033427118,4.071741448914985,3.313254745172588,9.726495629900127
-0.35974814590358095,0.0,0.0,-0.5222472916953239,0.0,0.0,-4.941562418986787,-5.580917859401191,12.53593471820858,8.90765373633455,7.587833763663612,-15.06643879357866,-17.69206579454169,-2.909390045497636,0.001076350923604985,-23.627936791664425,-1.7557242560188229,0.00030715791972058925,25.12914057072009,10.014655686187764,13.06029980756334,4.790443534273233,0.9386113263563957,-13.987596975605825,24.048300865197653,14.007809955010245,0.6968980076739485,37.581229449538675,-3.965550461355436,37.792790759093826,130.7293926843894,-0.0024930557177361254,-105.19178147412876,121.11860226338628,-0.00010187919842212575,109.52686728861075,-10.184745107097466,-12.673788620928404,-0.0017982448925652167,-12.00182066957176,7.850834657757332,-0.00027795039584065605,-5.709320904460471,-7.101788565105295,11.295039289793827,-27.308318834780696,-10.754134908781484,7.902039436667479,4.110480003635384,3.3371860694674536,9.685642015433956
-1.7830281442393945,0.0,0.0,1.4185871502817147,0.0,0.0,-4.596133439412619,-4.960602903464588,13.088022028900907,6.276900175425013,6.718840840656056,-16.132880016862778,-15.82737393016718,-2.4919761790219552,-0.0004547935986093797,-26.19901815969752,-1.135785597125317,-0.0003866424236701812,24.551649371045283,8.725333749452629,11.848056011309653,6.350041023613653,0.2828941647366022,-13.395633911533695,23.633987090432683,14.899185074042824,0.504560749345823,37.31575510969589,-4.167531596945518,37.53280351034377,130.05450419556925,-0.0030587586544418475,-107.43763587068102,121.34321532117049,-0.0017685268674266345,110.28154901413089,-11.735794483101158,-12.016826283527246,-0.004398745089510781,-12.589418246293842,7.733719281326786,0.0017066451401353717,-4.867596369379167,-6.639323213808627,11.544688167502397,-26.421612324489235,-10.415215320139367,8.30952378215895,4.5260393213348795,2.595087721059111,8.224293011774153
-1.4727102352613173,0.0,0.0,1.70759174647992,0.0,0.0,-4.329134953971313,-5.540148430608223,13.31133367077376,3.796358103275431,8.37539793486096,-16.082320892939606,-14.099782780140629,-2.302442277773497,-0.0006060934579339914,-28.96460118522167,-0.8522587659484223,-0.000415092540752614,23.118072219094344,7.9999880494467375,11.846156129175817,7.503114156113183,-0.7073113851421368,-13.055804417991448,23.82975930645265,15.212059335689613,-0.2622259344871314,37.547386433602924,-4.079817103176841,36.89575265308553,129.51727959656455,0.0004895897340852885,-108.39800642906698,121.00592280474919,-0.00011546109971671775,110.56353743121066,-12.828978860095118,-9.078075685933067,0.005380796033105368,-11.774028679716878,7.751261323255436,0.001291582113868559,-4.8010271493453915,-5.645126845665724,10.670396110622294,-26.338032743364963,-9.171273735921403,7.859542925753709,4.121161709502406,1.792501022515708,7.974624590040577
-0.32028813281820134,0.0,0.0,1.8095148922653719,0.0,0.0,-4.907746954617988,-4.828830070205308,12.469128786012107,0.6680707946987378,9.28896193705134,-15.58161758735609,-13.264076073181904,-1.9016977963832071,-0.0002976425525438556,-32.052272998759854,-0.1373357556883485,0.0005903144459529795,22.89486594755636,7.59414183716598,11.955395627844497,9.470006639147064,-1.5925106415291674,-12.828937603669845,24.964128777971144,15.00244501856505,0.13434713539580037,38.363862419890005,-4.8018530151922505,36.218759600607825,129.34664013556093,-0.005685654693292358,-104.02622264773575,121.17051934873565,-0.0007668065944661964,105.56912969043546,-8.948346523860803,-9.115197032215937,-0.028862509210547956,-10.705386270240927,6.365596988906774,-0.0017789893309684505,-5.688542559352104,-5.411914504341283,10.439498574140023,-27.22364824174598,-8.869971365268738,7.729753836933965,3.2925953991579484,1.8325349301960288,7.972294522746507
-1.8819518475000645,0.0,0.0,0.5239659035307653,0.0,0.0,-4.892091268955917,-4.605065348070215,12.24202769950138,-0.19428888118558588,8.586881142692976,-13.47289812046143,-11.770343590541593,-1.701887966461397,2.486403512438613e-05,-34.66580205665556,1.142071707133441,0.00012451181645870636,22.586568477937575,6.940895152367525,12.401408135429605,11.15164487319078,-3.1713232056322527,-12.729833851474112,25.170231966787423,15.549568800774516,-0.47740499173517004,38.63932111389185,-4.684693327050495,36.59322957695621,128.72457135482637,-0.00388097063070001,-106.11258511627707,120.7936961544145,0.00021263493561425795,107.29928245006239,-10.69637374585626,-8.743511389243215,-0.00033400075381587825,-11.56253847839191,7.77906134188975,0.004756919038323108,-7.464290125004833,-5.60123650498423,11.430913226256722,-28.957993370071804,-9.408012495241527,8.58932587212289,3.16762866253372,1.210543694907867,7.305690778200868
-1.5269518928676111,0.0,0.0,-1.240487975187343,0.0,0.0,-5.144760994313534,-3.868471434149594,11.592792891244,3.1553804459539436,7.5952578796670345,-13.18795396141984,-11.09793415851924,-1.8070497311920106,-0.0001736047026154785,-35.07173284323777,1.2444512968953592,0.0003886361220178401,22.73312381699602,6.54493476846469,12.628696989798147,12.014816781708694,-4.235609614187974,-13.59173186027971,25.45305231063374,14.972670952987528,-0.7112847099785929,39.21544770983973,-4.865471800932929,36.78794883044186,128.2534481649914,0.0006680339247465909,-103.966236715238,120.08099302436379,-0.00040004048833978126,108.30571092261371,-9.661064798647741,-7.417604323280515,-0.006372153152751133,-11.83148672237732,6.920898181455814,-0.0019937664767525785,-10.17740134625455,-6.058140784469426,10.98024495895094,-31.723596545951835,-9.668604805913906,7.996435363619077,2.3020482864539407,0.833297444811593,7.222232335111632
-2.0842253441289706,0.0,0.0,-1.682648523076504,0.0,0.0,-4.844209008816226,-4.597831378105758,11.14643015405148,7.414599604544246,7.03602338237616,-16.237482082543494,-10.79891813488878,-1.8701844797755003,-2.3132422110938157e-05,-31.98057989662658,0.9023144414157461,0.0008915918412526574,23.13626547993373,6.285136029667537,12.581666558929419,11.791335773564848,-4.591620619288225,-13.359105007272982,24.973582263363344,15.713007997510257,-1.1566885947839818,38.45924059779584,-5.392136967989457,36.92420917508652,128.42963474539624,-0.0013928461267003582,-106.57901797260217,120.65975864051184,-8.967816014193513e-05,106.8695106108783,-10.956835008530396,-8.748390405296151,-0.002045015335115648,-13.058803869841185,7.831190409077155,0.005286546250888678,-12.597140497262714,-7.244528870337522,11.425833472367032,-34.19941944241334,-10.93462038269484,7.971388181365224,1.9737320132620404,0.2766281368291952,6.815445177202535
-1.4273609873198043,0.0,0.0,-1.7629077348269016,0.0,0.0,-5.448443330406732,-5.117935810636905,9.99713285524164,9.743972198786125,5.741198700003768,-19.27164574615813,-10.79693918617866,-1.7898011686817126,-1.599519337068096e-05,-27.104861275877752,-0.21502127560149004,-0.001327949009668697,23.645814818281227,6.724667659930518,13.49871476558899,11.21746022982732,-3.899026228049952,-13.127516668986209,25.378882831695,15.615597247182787,-1.3866180560079344,38.086209218375494,-4.947333930452417,37.98750884076082,128.4800444468863,0.00792389826573871,-110.60415446623414,120.72967641395492,-0.0003213728004221981,107.70433087737347,-11.232591636147202,-9.639623500073679,-0.0009920151810597648,-16.121710568492727,6.899988592477548,-0.0016245668797058123,-14.705764157310657,-7.600958271299364,11.4259554460613,-36.33380578465812,-11.2660237832596,7.837700895502678,1.243833147972198,-0.11216944165986702,7.0757511256276215
-2.026332095353626,0.0,0.0,-1.7936939556317948,0.0,0.0,-5.215948355071785,-5.885199799506986,9.52768269279422,12.075425103666676,6.940492527151057,-19.45702691030865,-10.078607087742157,-1.961675572264381,0.00014607168545367034,-22.75381113187564,-1.0574869277119563,-2.9440001109547126e-05,23.642289173404873,6.704062500594995,12.985843454277118,10.30293667068378,-3.5554866358086374,-12.939739342217907,25.351512338384516,14.763100390862078,-1.830085997915768,37.22700529613483,-5.517532501705164,37.26147800129363,128.45346580054925,0.002493947819383778,-105.33760450443813,120.87301548797247,-0.00012274292502488962,99.54335839384387,-11.003218098722918,-8.837639546478407,0.0030057111814565593,-17.726395626127676,4.085207652166805,-0.0006728474265343932,-16.326679111755414,-7.47577038962449,10.814496916832399,-37.97595912797594,-10.926134895714865,7.310554034993932,0.6362090760353329,-0.2579311909313494,7.775318615865631
-2.186691882555059,0.0,0.0,-3.2791287697083513,0.0,0.0,-5.582540358504279,-6.204651744024922,8.99138937779623,12.654777499517468,6.41321900823974,-17.551550399429722,-9.30037217963643,-1.9304339300724715,-0.00019430479620795803,-19.780577284200646,-1.1817930084137571,-0.00010985273257815113,23.685640373288855,6.788875977438191,12.436659513516314,9.604153432202372,-3.0751971513529233,-12.677900179584833,25.292728169615796,15.209280532982667,-1.5890214560857931,36.083029771875374,-5.362251232909365,37.05933467744137,128.18467275295615,0.0024115555801840494,-108.74149943728612,121.60634978010529,0.0016322206591346516,101.90777766186258,-9.280373767992875,-9.4249663624024,-0.004476275891097375,-16.813709880965508,5.317308838511141,0.0009528700984459018,-17.709132748148875,-8.441693254745614,10.58429334205234,-39.440521887631576,-11.739402101961161,6.730407205562072,-0.33816412301272913,-0.5138037817999355,8.230213165860919
-2.041782393492326,0.0,0.0,-3.349413163609562,0.0,0.0,-6.223854051302251,-6.964844445455219,7.877366362756822,10.275523123498845,6.122626122646439,-16.593031928545827,-8.837687043778597,-2.1598122727286406,9.60269532504265e-05,-17.166754562795134,-1.0861809398836035,0.0003358124188103405,24.07756102066036,6.445654259963156,12.407869573911821,9.282341548419886,-3.3061796137783768,-12.35728799296866,24.634602935879844,14.959197326051997,-1.195988795945457,36.37041511305206,-5.333291043990524,37.541872225146456,128.46787193040848,-0.008686044800236187,-106.09527734979437,122.0899506846283,-0.001074267486406702,100.71966767025805,-9.149565878673787,-9.056884487134388,0.001871802181028682,-17.517255565448316,5.805146083064169,0.0016810158928325333,-18.628291788025052,-8.433470526537407,10.896956251086289,-40.344965065363375,-11.846249278660121,7.0270212024308805,-0.7890403284743893,-1.2784720125804037,8.044873001300399
-1.3358684043537477,0.0,0.0,-5.177754674398285,0.0,0.0,-6.744529276313246,-6.641530590835577,7.2146961470810815,11.782586992948684,6.606765903419082,-17.54064898680798,-9.065897131460018,-2.63048633130303,8.567147223561601e-05,-16.230237395363435,-1.4715875180894762,-0.0005540134006998464,24.798438942939768,7.468131258160346,11.64789426262309,9.01399559436569,-2.065247767411014,-12.583169006328754,23.541118700802087,15.840309130369873,-1.5732432037657018,35.730030599922,-5.673835818997248,37.07485231455623,128.29606771705895,0.0015226546070309678,-102.32304934310746,122.38159217673643,-0.00011883076528667812,101.57013913545187,-12.584782915585876,-6.9513205069588375,-0.011516698604411464,-19.353047176428657,6.639661544897339,-0.00241533825347737,-19.47672521148856,-8.001140278866297,10.33243499957383,-41.18604226833935,-11.23788971249489,6.660469621494915,-1.1243378787497054,-1.0821531362063181,9.316125498261616
-0.37108549230441723,0.0,0.0,-3.876821210908131,0.0,0.0,-7.0300516450259405,-7.2738519810591225,6.5240503632344,12.262108517907189,5.25771910293996,-16.96426861775079,-10.615938333546364,-2.9628284903517312,-0.0005997499177579307,-14.83032162683118,-1.551311908941593,-0.0001603618631611845,25.76266416992256,8.664785863476332,11.762979260997785,8.203165133666262,-0.9768424143868749,-13.957377887885645,23.03401542223524,15.47188617278312,-0.061224006250440784,34.80541998185287,-5.834317433492024,37.21733264103757,128.5644840706555,0.0025831427178463016,-102.47726037270289,122.40762191999421,-0.0009069522524841856,102.28859491122657,-8.212656109938807,-8.08665899967246,0.00273657539871221,-18.87391201100257,6.330836778025187,-0.0015186518825147032,-20.117633822019346,-8.047459589293824,10.207432644599399,-41.835747570605136,-11.235119904435095,6.525751059392257,-1.879816811534621,-0.521987000076247,9.818658290486956
-2.7143952865031653,0.0,0.0,-5.00900573320652,0.0,0.0,-7.106933169231258,-8.570644094442658,5.473036387662629,13.008246895775835,5.326559571975576,-16.38441550327125,-12.986234497824881,-3.3721353416646944,0.0005344669820275226,-13.487629438278429,-1.7497834854645264,-6.658915070066551e-05,27.595196540620755,10.764113283181924,11.768258972460359,8.000971544932357,0.6465001887724764,-14.305080781587519,22.156421169741925,15.903599853280586,-0.22727765130958855,35.456704987907656,-6.296745297664281,37.07046077573768,129.14216294837195,0.001580467708744969,-99.43167499101547,122.79341241013925,0.0018319073090493473,101.70587867606865,-10.298004292211784,-8.726278197050968,-0.0068813678214846,-17.66792375917033,9.25072137665353,-0.000335248791570428,-20.114095576358693,-8.07280100241607,10.065011518830556,-41.840092900995344,-11.20648103555436,6.382639317983721,-2.4549108849342893,0.0644551994191317,10.95020123343925
-3.491591040315818,0.0,0.0,-6.416798518941003,0.0,0.0,-9.42047874314283,-9.907742957193722,3.8165982647065553,13.22464491102401,4.616147430253103,-16.203498036873285,-15.986147142762956,-3.943166476817258,0.0009446693011118934,-12.708547499702327,-1.8337851113682833,-0.0001225399730306749,29.590630502987995,12.833681788382613,11.87104607946204,7.693194025966494,2.1546773276665196,-14.800017838810412,20.82540368454398,15.377596740704183,0.8614906237685374,35.2136758873251,-5.538651589281516,36.15063089060886,129.24611981798066,-0.0006966819638697213,-99.79432562986786,122.6970908920785,-0.00040447232241460805,100.23410913918875,-8.065565584892003,-8.62965336302407,-0.003601028157743545,-15.8852619804807,9.657865118300787,0.00020348353424792464,-20.04171567183129,-8.408754050605214,9.277221703849497,-41.823110873209544,-11.229540083402332,5.5174684797649745,-3.2069320194567914,0.5997521541501136,11.01959232339354
-4.030904495592962,0.0,0.0,-7.935654945120105,0.0,0.0,-12.955466908067535,-9.234705963343178,2.746953940529894,13.121629967394972,4.158383962715129,-16.156656571866776,-18.08810700902154,-4.560739721122646,-0.0011744903700327354,-11.838606320262853,-1.2284027332550846,-0.00045551968352748097,31.12161490097302,13.640341769003195,13.453313091045848,7.261151386998928,2.257726138763591,-15.213466820744399,20.51920499410408,15.102372061426207,0.9379164918590954,34.01175038388572,-6.537758665812554,35.81947949182927,129.79204316218863,-0.000764863235670583,-102.50747526671556,123.29427734987837,-0.00027083898171695526,99.32367427625825,-7.844222103659618,-11.463111126790224,0.0134026520770262,-16.487962443435766,10.982021422778704,0.003038364741612842,-19.591569121753757,-7.500033906324645,8.309376667640052,-41.34284862959589,-10.030172441226867,4.954579511618138,-4.1891858042965096,0.1858597139339613,11.160801975697158
-1.0242483005892131,0.0,0.0,-6.895174090999729,0.0,0.0,-14.033737949187806,-7.144746621080771,4.562564470952159,12.384260089086638,3.740512254666921,-16.604694281475208,-20.512751818456376,-5.639861694574861,0.0008226465176339097,-10.299051882528271,-0.8354922560025976,1.1596330455624025e-05,32.73856662082281,14.093461531096347,14.696094079038476,6.753336988439748,2.5372146512035814,-15.069599438768122,19.391763231986253,14.95416202115391,0.9961133058130822,33.18386388784884,-6.932168389960084,35.12351330005116,130.074824779807,-0.003722788903031195,-106.53374557816917,123.65008978341633,0.0020777391250608114,99.21444528348829,-8.327768207036923,-12.173036468378221,-0.0005192967217702549,-16.333147441656294,10.712241682286907,0.0049146555469235026,-20.674224557446916,-7.2313654013238144,7.832365111988807,-42.4231685389887,-9.60533440031353,4.609689904879364,-4.142298567703928,0.08573091003133752,10.529039008391905
-3.3161176476065135,0.0,0.0,-6.497616146574288,0.0,0.0,-12.326282642000473,-6.050993423968381,10.373591647098763,11.974441845757992,2.7454363639376766,-17.42933857792864,-24.77850371102003,-5.5273339711031495,0.001219330832419834,-8.581413437589289,0.00868549031794088,-0.0002882540535417987,34.309171228391946,12.989921672699381,17.34309402509489,5.472748342757095,1.8664478440901546,-15.567343355349562,20.142988497707787,14.478464838545637,-0.1303245506464144,31.888984610905236,-6.734759369198104,33.663488577064754,129.35318210217235,0.0006004036798560206,-108.51647375971935,123.61685654671949,0.002500025092474301,103.83691129758195,-9.124673322144771,-11.675527798848641,0.002377517694603334,-15.729341056825934,8.98451639924835,-0.0005400219987095237,-20.794737215089874,-6.935666105844771,6.845859147974653,-42.55279378603537,-8.96787078510836,3.7993944063050313,-4.815364833687892,-0.5917670440301291,9.498441963271764
-4.664982258423787,0.0,0.0,-6.863120035682574,0.0,0.0,-11.443324643513687,-4.7772247056040795,12.350664268588174,11.802622536637273,2.4826043259685435,-18.726833457688087,-28.65917821072796,-6.445720305117549,0.0020469718486810094,-7.928220463675604,0.23905929739610116,4.9534438225990445e-05,35.67888565300224,12.96787378826357,17.98398577364085,5.522454759426278,1.7804037449364953,-14.688548174230293,19.771828615713737,14.857531687512234,0.4268356029606968,31.59223742149966,-7.246242380045158,32.85644168147139,129.5632021389634,-0.0003526613504110179,-105.65726533730007,123.97246458508387,-0.0003410240551882347,102.78519681987106,-7.998619550181017,-10.534789413350051,-0.0011822546564924342,-14.287302646983022,8.247934307821009,-0.0002884380830953428,-19.87621333349535,-6.871807860659886,7.063061663254848,-41.62498615879576,-8.988468011983592,4.026114646096625,-4.148434141499447,-0.9226156763810384,9.124583729877838
-2.717337707031135,0.0,0.0,-5.6973086697434,0.0,0.0,-11.097204246015272,-5.543689171526137,10.260508257630049,11.061750844640374,2.530032286716358,-17.55894610477792,-31.953544377935064,-6.578169504873304,0.0003467185261390034,-8.315160549316108,-0.15639459679586448,0.00028686671993640686,36.14320984950017,12.700449731259347,18.41375757734642,5.552077852240814,1.6069467818907346,-15.347403897936132,20.67927083679401,14.914566250288123,1.1393918556382991,31.518137498180682,-7.289352996721172,32.20028818682056,129.4864006178725,0.00015521274226763142,-105.55168990668008,123.43297145184026,0.0009304799104148785,104.33150557424351,-7.605979218092414,-11.798889626482909,0.0002848991764942601,-14.61273863962538,7.526918992238403,0.0015528347062586697,-19.041836573598744,-7.647165477017053,6.855338726127898,-40.84289743410646,-9.632058907222662,3.5407430492187077,-4.639948924402211,-1.0872803778460733,9.317408503927869
-2.547250009781568,0.0,0.0,-4.1757347144901615,0.0,0.0,-10.560909706285338,-6.2961674186656795,9.55547627021353,11.07430099941929,1.9815489475548695,-17.94556104044065,-33.580275897191626,-6.277915722819903,0.00022852299092073847,-8.796401848412536,0.15394433720064687,0.0002546509845702451,36.70398179364385,11.923372172842729,18.014511845739694,5.604309333506817,1.391602774188042,-15.298050371838366,20.92723387793302,14.89990760982097,1.13532835427631,30.735030617789587,-6.977299009183442,31.597738571417043,129.7314649357745,-0.003046918827561327,-104.36194201688436,123.82272182096389,-2.2055778212165016e-05,108.1371378327421,-5.8682637133210775,-11.077938116839837,-0.0004006863213505806,-15.04593022447096,9.097708504428624,-0.0041111814124617065,-18.233811835205156,-7.665476647743921,7.52177612493197,-40.01932026396896,-9.894282487845544,4.156150943608781,-4.682440510176893,-1.2384029426825713,9.173039274198121
-2.4001843787314945,0.0,0.0,-4.1621326727806265,0.0,0.0,-10.487830640376796,-5.081501264293583,9.619709444690525,10.943415660465332,2.0311231869722084,-17.974736186881646,-32.40958773820558,-7.536620544966862,0.00015944053574760405,-8.923077129948249,-0.14842773995495148,-8.601893270126029e-05,36.44202712748453,11.981841488162997,16.902869670241536,6.073848990572296,1.855596521357757,-14.725850067350295,20.815707372245964,14.844950474201598,1.45584792798472,31.24629942369979,-7.356399970287492,31.918147454493226,130.146093983663,-0.0006236813547822552,-102.71296802490956,123.43215803526351,0.001135567445600334,105.36831819592095,-7.244949846152772,-11.824966091863857,-0.0013810949615611179,-16.16657799649187,9.889017346623973,-0.0015787620661156885,-17.177753021094446,-7.868834799459101,6.992485012687139,-38.98978643008303,-9.88835303081975,3.5852089825649296,-4.295956603905798,-0.7088181591189836,9.344418153674287
-1.9318365130044977,0.0,0.0,-6.261597096079405,0.0,0.0,-11.408949580773124,-4.768146630338262,9.557717332073391,11.676291058328086,2.2916837667316505,-16.94798333136723,-31.156240758855436,-6.197883489354037,0.00012847786818935976,-8.32688033303107,-0.06944342718397786,-7.946448174508458e-05,36.418667305871075,10.954034341162583,17.951529298885873,5.671243236914608,1.8486190666688698,-15.816111547089267,21.203653892869834,14.5309962089647,0.6643195970212555,30.63720650133829,-6.739166683308944,31.88429323522152,129.66527557126616,0.00035192141091264445,-102.81602726036535,123.4390913526837,-0.0016709602154748623,107.41663747360093,-8.926412864917449,-11.529693087740911,8.410887555464169e-05,-15.125887555234726,10.367960628793176,-0.0024226466794454874,-17.455327449762937,-8.429483341174373,8.431671631177736,-39.26657504051251,-10.938213236153285,4.718225032111543,-4.0726245704625486,-0.8250868008765933,9.194568763340271
-0.6753709276595282,0.0,0.0,-6.215168525525808,0.0,0.0,-11.843803872070676,-5.021208398034373,9.813514326722505,11.601194451040122,2.642697886071897,-15.90910978144278,-27.268533088486087,-6.855676058176702,-0.0010462092643026024,-8.104384970583478,-0.2516821589945596,-0.0001679079515982238,34.74930805626115,10.938513532993777,16.79454631783739,5.478397269886503,2.3509345751501733,-16.085342791239412,20.477010504426968,14.637590060604303,0.9306209329798685,30.777473073167943,-6.508884806629165,32.524310425383945,129.79554143074458,0.0006687879747119454,-102.35911605273995,123.26530229413851,-0.000611831184363673,107.15592886813118,-8.023219449045913,-11.47777632217573,-0.0027760464911712585,-16.690839342496254,11.438516060151771,0.0010779375101919709,-15.795163977227956,-8.046830472859222,8.737899463029246,-37.56937822577734,-10.695419570664194,5.149350910221501,-3.7773603059424805,-0.4673349081938855,9.183026434393033
-1.1407952471080836,0.0,0.0,-6.449168993963988,0.0,0.0,-11.84741283215814,-7.082764851831451,10.1174825199709,11.633403165516249,3.029467951277768,-15.199748949031036,-24.645573170924273,-6.254012877434681,-0.0011113761114167947,-7.364109663135813,-0.32623164087751433,-1.1264927975344327e-05,33.510929725667516,10.917955694272935,15.964220339968328,4.768935463771397,3.053765770861427,-15.85296309501954,19.55918337871493,14.960547515840677,1.3792195033174302,30.3486428088144,-6.461440172553734,33.064018330388265,130.46233490276126,0.0004526986568644177,-102.60874898062735,123.40704047478589,-0.00013089339075541295,105.72060634871453,-8.801606254419251,-12.211636581867902,-0.0008866031397581687,-16.26224919593487,9.084335166058413,0.005023330001441153,-14.985849097033627,-8.679652405992625,9.170749111767249,-36.79118457887285,-11.441992355828178,5.315181766450434,-3.472395715521106,0.1276517980183573,9.101677774666008
-3.444303264380487,0.0,0.0,-5.773514746806454,0.0,0.0,-11.769588734614635,-6.896124451661533,10.054926804751156,12.008315945345771,2.645716426380429,-14.548393631247137,-22.99844308415368,-5.103286109341705,-0.0005289880083446777,-7.657739059805693,-0.1650904023970041,-8.26488069576431e-07,32.45564134341992,10.32850485428738,15.812126891702558,4.502265712153679,3.0410660400986846,-15.882526902386438,19.34805135405328,14.115754656063583,1.664593528164419,29.857968137480718,-6.404716251254402,33.30587896754883,130.66560456383382,0.0006385020208515243,-104.06250640537527,123.39883663645222,-0.0011653866337829584,109.40395709104791,-6.666374071295928,-12.46324860225394,0.001135760711677172,-15.482573867192839,9.576899759501352,-0.0011725322108539905,-14.828858328718526,-8.602125962685529,8.979676591334547,-36.63496370341217,-11.299840792509501,5.165658941747575,-3.054435746886953,0.3391835526780287,9.373255245259369
-3.24425745668248,0.0,0.0,-5.604593175178625,0.0,0.0,-9.605939674869523,-6.60838428370862,10.886837399172562,12.46185589266298,2.737229169968559,-15.464094695617572,-21.967349101236433,-5.107700551520677,3.94260221721566e-05,-8.202418000939815,-0.20348532214560106,0.0006332639358859268,30.668330226554982,10.46850742542743,14.579864546323765,3.6910364787382304,3.3684268065582406,-14.375278424638582,18.342007366192796,14.933164877825394,1.907473116136549,29.925618539342942,-6.259430143425529,33.82879471484305,130.96172536287614,-0.0009711965910487359,-101.91767786009252,123.12470021625198,-0.0004774538701273214,110.90146027492193,-8.390335311775274,-12.187976112358212,-0.005409249404914323,-16.94577222696773,9.856889413997893,0.0017569905519459576,-12.359912425449867,-8.090625723765656,10.411044243685238,-34.07241044763736,-11.349819870875441,6.700449549510004,-3.011184025978545,0.4736950925094,8.933402980036195
-3.300307311574385,0.0,0.0,-4.894249489377295,0.0,0.0,-8.663958533094071,-6.280072222093283,11.496872141322816,12.740012769521021,3.8146342172318493,-15.817582328490383,-21.42067831634289,-5.161258802580981,2.653481840170457e-05,-9.587203706195849,-1.008160047819643,-0.00013449474368948465,30.533099705360986,10.674953276931529,14.047216378786768,4.843972619885509,3.5833635145245015,-13.51689379772845,17.747461489543863,14.745024982232318,2.4012289656222845,30.841828599727485,-5.56472788963285,34.45725398833727,131.2317311702902,-0.0030300682444212,-101.72960881239126,122.78340535260814,0.000213003126015422,113.1169399247578,-6.9676573548776455,-11.301520143801167,-0.005597122231686918,-14.426591594886563,12.302464699534239,-0.0023207538780451687,-10.636166391534926,-8.325789280516211,11.114347548103302,-32.334294766068155,-11.825752957023921,7.271876558396555,-2.0603548828524167,0.4680218353925538,8.662267974237844
-4.870102669690624,0.0,0.0,-3.8712241684897495,0.0,0.0,-7.0709846724938865,-6.457963646311261,11.93412212350242,12.5224426126426,4.263179663862189,-15.010986880710764,-21.689988687252672,-4.91172186562116,-0.00029964580158147304,-11.396013557033168,-1.68205323343228,0.0002156340408701671,29.855820275533347,10.340054342330827,13.563692146364124,5.2672269867418615,3.239917185120561,-13.456463780066658,18.31621649942825,14.668342872370957,1.5862342150363749,31.196516998139966,-5.992031072894671,34.720735352202325,130.22766327194287,0.0015084011097632054,-100.37205291469886,122.5917267687605,0.00024212053375847586,110.76870001043383,-10.768512954439249,-8.873295271509873,0.0011928019454308827,-15.828489633052877,11.037842195762378,0.0014339307796288538,-8.176539430882151,-7.9505291082254415,11.011123952679755,-29.851040175283448,-11.439287047447024,7.31650072785945,-2.1256058585365403,0.23438545993060833,8.200862450737793
-3.202300130011387,0.0,0.0,-3.0536033752491782,0.0,0.0,-7.1458816822713445,-5.392150828777113,12.143839108028628,12.75371585694366,4.441018942556592,-15.164261833877209,-22.29951913706727,-5.178799228703332,-0.00040884839442975216,-13.783295880308017,-1.904295393502816,6.74798909531178e-05,29.76075734786843,10.024995785033552,13.747937401027123,6.389150703032969,2.2516685335525155,-12.98846476593278,17.71467090265468,14.891540425359539,1.6171234234697451,31.591610331961725,-5.723632021118716,34.87211016907846,130.86994484378454,-0.006914485399346473,-100.82034885448832,122.25672897695335,5.6448214918770124e-05,110.49006818805744,-10.400338946984524,-8.916600108521637,-0.0021315685923645167,-13.160112507244865,9.68311621199073,-0.0005452204290635974,-6.28990168927202,-7.772477353078433,11.829175477491257,-27.909596114842476,-11.572732902151564,8.152187776253035,-1.757759263325294,-0.5134297855702289,7.914596480160057
-3.2472065150294243,0.0,0.0,-3.1607202534532886,0.0,0.0,-7.261971021945815,-5.114855838589349,12.755494102764253,12.259961928032402,5.294497164557468,-15.085912495212035,-22.98102872735127,-4.954248567731865,-2.0294498220457653e-05,-16.206365893026888,-2.1876184664783396,-0.0002411010280628311,30.217178257064482,9.951637337340008,14.506421274613862,7.966314645680459,1.617531456719736,-12.216232662635703,18.584023693820935,15.045121253635662,0.7669090216515154,31.537899798388942,-6.550142542340455,35.049914056653414,129.96156238629177,0.00242577762822599,-102.04770764280987,122.29328252404657,-0.0004201937638397787,109.80125690260101,-9.34580827009397,-8.212862495245826,-0.01246391241051498,-12.81444326636422,9.150652877408332,-0.0018154333094768025,-3.96949437142373,-7.348719563184386,11.716298229474178,-25.563894538196582,-11.137551474688197,8.205238063543439,-1.2123288204674476,-1.0294717027086653,7.928773511883897
-4.459508961410884,0.0,0.0,-3.334967949846809,0.0,0.0,-6.7071773167853825,-5.653128126489502,12.96427662861744,10.572739877087205,6.233743081902732,-13.186021904572799,-23.11388421287374,-4.881199538330914,-1.1152703913510494e-05,-17.869154569574476,-2.2133843148086263,-0.0005116762830219342,30.313064840695986,10.707865666872427,14.835873165950531,9.190343479081328,1.5299136324827296,-12.91048942685661,18.034625019473992,15.022075436797804,-0.5968963555186714,32.01837220126046,-7.228732692807561,34.951520541601255,129.8802745114407,0.004870443193493753,-97.29910709085273,122.1932713383957,-0.00040940248263143195,110.48803203154355,-13.466373218331965,-5.990633869011451,-0.019910678101871856,-13.49968991608657,8.070393490957212,0.00031995428948912793,-2.469963524414706,-6.855140699111299,11.218268111555064,-24.055905693219827,-10.496751550310668,7.922299875790565,-0.7260599435206556,-0.5842136449397666,8.218068233069504
-4.9873480304403905,0.0,0.0,-3.4503635616166735,0.0,0.0,-7.1021938727404175,-5.8025552181677,12.44820281749671,8.802858213578041,6.353664982874861,-11.405411658917508,-21.961080897992602,-4.6725311530759255,0.00011270002708854828,-18.742908236385745,-1.5404831668676395,-0.0001789624517639964,29.75514234348604,11.105759284773887,15.037991856508237,9.730457304899025,1.2465889143114388,-13.494146391855471,17.360995472628986,15.455821101020774,-2.3186098174051213,33.01450644550589,-7.392534873702791,35.58901043483763,130.09697346299157,0.0036895318239862384,-102.55134056090169,121.6128939038057,-0.0005160949543534199,106.21434979276405,-16.920511193637292,-6.372944815141841,0.001419734035067904,-13.01298667175478,8.014666483015237,0.002759754996472432,-0.68596607058375,-7.246899729667204,11.116763429558175,-22.3042177543935,-10.823910662234573,7.680232347555912,-0.6301329112505236,-0.330566035706278,7.883819490685645
-5.224393989671761,0.0,0.0,-4.483224909874259,0.0,0.0,-6.883050418294798,-6.874497210827309,12.949937865788133,8.456992408449036,7.8551475449627,-10.28907142066244,-20.11693514843805,-4.805908525754142,0.00012943993199142657,-18.893732444767842,-0.6212973610771624,-7.766634231358111e-05,28.702337941163528,11.693393101205075,14.984235914695997,9.692058109977674,1.0332645171491925,-13.347644438812138,17.83173698610817,15.992005984312724,-4.016070157380707,33.331228290845154,-7.0505609467367725,35.40272492608049,129.03730138979478,0.02356239601476657,-107.7700594162079,120.9976550756407,0.0016357814235566529,101.12895681110234,-16.30538440884251,-8.589830277166804,0.021795062908464426,-11.35058587608061,5.945894627151093,0.00238142846394521,1.4555950822213095,-6.710315873973246,9.90270419738243,-20.183662181317032,-9.880920955987657,6.7425219916279415,-0.5418240472045658,0.030870811493639523,7.177481967041575
-5.795928531151701,0.0,0.0,-4.598461688288189,0.0,0.0,-6.619335140845033,-6.727963506123068,13.458287748433763,10.15729699250447,6.781714702135626,-14.045657694874603,-18.209845517262266,-4.670789098972814,-0.0002978722987014332,-18.384671682846538,-0.5874547341662963,-0.0004388613753779231,27.57131028797963,12.011687249408544,15.558605218098272,9.352055943069864,1.3576811326907097,-13.417760107993745,16.11344127176513,16.605556183037827,-2.1391478580982173,33.86034690241341,-7.836918744105199,35.25388677528024,132.04744183463387,-0.003053410341165296,-110.73394783931411,121.17500773731275,0.00021846036919679807,104.00661266586332,-10.89372554658474,-15.524354288227839,0.014582990557936337,-9.643231974454476,7.606435340142414,-0.0007969448862829678,2.6553544051584033,-6.863260821229479,8.333440087938365,-19.05467490073884,-9.447492303512991,5.2162914524397275,-0.5090527521118416,0.21134609102924012,7.544544915574538
-7.135305051273523,0.0,0.0,-5.253090541729461,0.0,0.0,-6.198847958173775,-6.916892436761788,14.093812189146076,9.301050439420594,5.418249491061997,-19.3777314569197,-16.560618868386005,-4.496878323841278,-7.047658088406252e-05,-17.30451410608898,-0.766223453020475,-4.426417820988543e-05,26.90656903464046,11.221129777317614,15.52923402745791,8.811440247054637,0.9220909456512772,-14.650776809635586,16.099228428472344,16.98061836665374,-1.0976281538152786,34.179386139049,-6.769359030216259,35.78442003732093,132.43007630220532,0.0006936444266367408,-107.67501322152444,120.99690477532995,-0.0006413648797955034,108.10464302212029,-12.707553873006102,-14.026332207528515,0.009604187513672612,-12.160633144199064,7.704512741989673,-0.0013958092809894939,3.2827518085671565,-6.669212531256873,6.321017008129201,-18.4724157010331,-8.527211021788744,3.4096033668455403,-0.14925335955600516,-0.6705820277278799,7.688869839742203
-6.431851680629857,0.0,0.0,-5.454189189717335,0.0,0.0,-6.2289163247821735,-6.625974303850107,14.830945091132225,9.141900948097788,5.40981331767017,-19.549913858641133,-16.00197047365383,-4.485502379053297,-2.6604350162290593e-05,-15.391344784023715,-0.8300281601960254,0.00020447545211140322,27.370672047526767,10.502685113664732,15.314589214398628,8.500525597261673,0.8229236597741589,-15.687029325343666,17.18782312338431,16.876257131578164,-0.633730129421627,34.250105438264555,-6.980468697833395,35.585603824966114,131.22555985963467,-0.0001486356120945617,-102.15020805674052,120.78692618552527,0.0024839832328253045,108.21259159735416,-15.426464897683488,-9.490610219801601,0.0024418028576411992,-10.495071920515933,6.81158908883746,-0.0008315753171728647,3.01446350149199,-7.005571543026892,4.677095891901776,-18.78667714110659,-8.233950152402802,1.7513737546159394,0.8212430993466799,-1.6547317318195185,7.7964301985314455
-4.5385828944016815,0.0,0.0,-5.666420158919026,0.0,0.0,-6.1001989521491025,-6.3881350152277605,15.105248838011901,11.351346173659088,4.326522359024459,-20.422969993963655,-16.121193754719542,-4.622592534219154,-0.00012941912026213546,-13.142670753773439,-0.4388234097196053,-0.00015191930651495673,27.909802880225723,10.211001162390097,15.495511664210849,7.23132662740836,1.2023149849173873,-15.880989024247272,18.19691841722111,16.061186936413666,0.5011573786213651,34.194671491652045,-6.9271934719762,35.360361624642046,131.5189418044672,0.0029026176715531097,-104.78675147318646,121.29414689885841,-0.0007369015046904495,109.71436932157047,-9.273176056255906,-11.441044608163887,-0.007256775004590676,-12.258411667902541,6.721561044422001,0.00022597521794688057,3.892364351708676,-7.88860981668002,4.2571064953129,-17.962030557104633,-8.898835004155993,1.0283929454731158,0.9214566195492205,-1.9996505555058919,7.886828418777989
-5.9966843035034465,0.0,0.0,-5.143913198046642,0.0,0.0,-5.768665044598645,-6.492913626324801,14.706679566958112,11.651340230359411,4.433048906224972,-19.968801661190565,-16.471859385549358,-5.326896441060837,-0.00016491191516869994,-10.173173463014633,-0.5492448833970502,0.0005705255283308236,28.382058119251077,11.287423677457229,14.71776901303727,5.630971731629065,2.7040374401857727,-16.24162017800247,19.089660930777775,15.983724513670634,0.38696788263916115,34.28617893536796,-6.933392627424505,35.511518372583886,130.72376292808346,-7.395790944065951e-05,-101.76191352601573,121.84763323353884,-0.0011344883232231352,108.75765420542895,-10.439187441308915,-10.676005886630655,-0.006040936872736499,-13.41308770642316,7.9642879046149995,0.0012351187215569478,3.9995344459133753,-8.116913060584917,4.483022955525126,-17.866792670408923,-9.194022092956292,1.1525641985450783,0.8875059296127351,-1.5304417568783075,8.200985200035483
