PaulMeinheit/Bachelor_Muay_Thai/processed_Data/E1/roundhouse/scaled/JointAngles/scaled4.csv
L_MTP_ANGLE,L_MTP_ANGLE,L_MTP_ANGLE,R_MTP_ANGLE,R_MTP_ANGLE,R_MTP_ANGLE,L_ANKLE_ANGLE,L_ANKLE_ANGLE,L_ANKLE_ANGLE,R_ANKLE_ANGLE,R_ANKLE_ANGLE,R_ANKLE_ANGLE,L_KNEE_ANGLE,L_KNEE_ANGLE,L_KNEE_ANGLE,R_KNEE_ANGLE,R_KNEE_ANGLE,R_KNEE_ANGLE,L_HIP_ANGLE,L_HIP_ANGLE,L_HIP_ANGLE,R_HIP_ANGLE,R_HIP_ANGLE,R_HIP_ANGLE,L_SHOULDER_ANGLE,L_SHOULDER_ANGLE,L_SHOULDER_ANGLE,R_SHOULDER_ANGLE,R_SHOULDER_ANGLE,R_SHOULDER_ANGLE,L_ELBOW_ANGLE,L_ELBOW_ANGLE,L_ELBOW_ANGLE,R_ELBOW_ANGLE,R_ELBOW_ANGLE,R_ELBOW_ANGLE,L_WRIST_ANGLE,L_WRIST_ANGLE,L_WRIST_ANGLE,R_WRIST_ANGLE,R_WRIST_ANGLE,R_WRIST_ANGLE,NECK_ANGLE,NECK_ANGLE,NECK_ANGLE,NECK_ANGLE_SHADOW,NECK_ANGLE_SHADOW,NECK_ANGLE_SHADOW,Trunk_Joint_Angle,Trunk_Joint_Angle,Trunk_Joint_Angle
X,Y,Z,X,Y,Z,X,Y,Z,X,Y,Z,X,Y,Z,X,Y,Z,X,Y,Z,X,Y,Z,X,Y,Z,X,Y,Z,X,Y,Z,X,Y,Z,X,Y,Z,X,Y,Z,X,Y,Z,X,Y,Z,X,Y,Z
-3.887070000000001,0.0,0.0,-6.873630000000001,0.0,0.0,-20.93206,-5.498790000000001,17.553510000000006,11.84306,0.5859700000000001,-19.000940000000003,-34.68948,-8.04226,0.0009300000000000002,-7.298920000000002,1.4189800000000001,-7.000000000000001e-05,36.639019999999995,18.003340000000005,23.039920000000006,2.21228,4.47581,-19.42627,24.815980000000003,15.65225,-0.28307,40.60802000000001,-5.807690000000001,36.38016,130.05759000000003,-0.00035000000000000005,-107.70802000000003,119.80199000000003,0.00047000000000000004,99.16730000000001,-15.552830000000004,-16.916630000000005,-0.004140000000000001,-7.77559,7.0181700000000005,-0.0037700000000000008,-1.21282,-11.457219999999998,9.09111,-23.254710000000003,-13.9895,4.177560000000001,2.2361100000000005,1.8079700000000003,7.20214
-5.47074386661519,0.0,0.0,-7.275870901212491,0.0,0.0,-22.600046175805847,-5.637588895442791,17.7564559337414,12.341456878023738,1.1370659048986231,-19.553843100919515,-37.654000241722294,-8.839906324167634,-0.0019877632904597557,-7.61707103442202,1.3220728254702567,-1.4840587040757785e-05,37.57977848601385,19.345986576760957,23.482013921877765,2.0495447613849653,4.215909583871618,-18.82745135227109,25.091008654715367,15.489353880205682,0.12023897802318113,42.089501539370985,-6.412599109354963,36.82161018944862,130.26487798812346,-0.0004280436157889878,-109.1470064484203,119.82345046292728,0.00048534254859342485,100.972918811886,-14.745522430146814,-19.175066328375596,-0.0017928335495169024,-6.730763539198967,7.857644091883537,0.00014635319408320169,-1.9643951806131001,-10.603104777280082,7.652628387248166,-23.9653021000873,-12.668297909483778,3.16153565488979,2.557444598337683,1.7780635131183766,7.330139572735223
-3.3175739043857053,0.0,0.0,-7.126818258802398,0.0,0.0,-24.582373807706784,-6.4801561602267395,17.82036063303602,12.368954478914464,1.2770172198999783,-20.38370824071647,-39.38029877600258,-10.186527323073477,-0.0007353707341813834,-7.589262220555587,1.553218892287662,-9.45057095915727e-05,38.458039392002924,21.083076256126837,22.91455353017577,1.9698058337065558,4.1622305181158055,-18.150363915368008,24.517972768906528,15.908258863114025,0.9469515066098712,44.035049799312624,-6.7232039155108865,37.45563607041465,129.14226068385238,-0.0007137552659254664,-106.48955300538165,120.30522398688444,0.0009510009690258552,99.27749828022331,-14.896467070905349,-15.241445208336902,-0.001223697541717446,-7.321247582215393,9.761928241558083,-0.0007071556160347689,-1.7597636876264324,-10.336477093294198,7.9659065016504815,-23.73142090031103,-12.53639952565721,3.556533395301268,3.387909682125572,1.8406418933789641,7.292778272959287
-4.302951140350147,0.0,0.0,-6.9428040529674195,0.0,0.0,-25.453113261572398,-6.548056628347139,17.874325833362946,12.127992628484359,1.299330304436657,-18.894832424674444,-40.43570012958583,-10.247564301784577,-6.393371851353956e-05,-7.155034880237666,1.8194152631992535,0.00018511607408162067,38.96237560589839,22.048071853282522,23.421008967137272,1.146358372974286,3.7700576254848954,-19.32575434998272,26.26234284706027,15.2241426592518,0.9180616673578336,44.09387711334824,-7.0433443589529245,37.146095658574076,127.86956216264008,-0.0011323317006666945,-109.93115353889162,120.01579398362735,-0.0021297993878303823,99.72232129266945,-16.48173078971114,-16.51624215352819,0.0002483321132310661,-7.593112936381528,8.592880038668273,-0.00031762948696117363,-2.269866175988241,-9.32648189028448,7.631992515981301,-24.169156944635407,-11.476619054105562,3.630248908975377,3.8158596041056363,1.297759841638726,6.930515039225897
-7.371478877354749,0.0,0.0,-7.775743395373411,0.0,0.0,-25.9535964150488,-7.193412645468587,18.64044206277292,12.357549870218241,1.7881266657941552,-18.292735515036966,-40.442046124307694,-10.746892872571747,-0.00025698149215940566,-6.5906539075166455,1.7715943320251903,-8.522733578925324e-05,39.47709696201848,23.410065485836263,23.42846077901382,0.5602054860462129,3.8085169104852685,-19.81452911737096,27.721379607184097,13.45151286055557,2.0793787039458267,45.1857675560819,-7.304515856620893,37.71272597514479,127.91659883950801,-0.0004453870722942595,-108.92097635128914,120.4060231875712,0.0002071766753658587,102.56518849905338,-16.622938113143878,-18.240763808307335,-0.0012200234695153417,-8.78374724753513,9.118983501707955,-0.0017288589019628902,-3.1358727737876273,-9.594984853735925,6.543325643481128,-25.077322592713802,-11.324802012313679,2.511709782283632,4.414350245279877,1.4695797781032856,7.07433449068751
-7.716390518560466,0.0,0.0,-6.371339155985698,0.0,0.0,-28.330722557936234,-7.61614672000648,16.748002041664094,12.81295854174596,1.6461796980902204,-18.804133003965653,-39.90473431389844,-9.960594168007379,-0.00023210365736676792,-5.962247602055836,1.8791169693391994,3.294760949077197e-06,38.895538585278715,23.767448386843334,26.081309330354667,-0.7786477259606456,2.8587380959907676,-19.656818382588995,29.31011310412378,13.352245970634955,3.3037500903947,45.561524108633165,-7.17112013513966,37.65334832532754,126.29717316364264,-0.0018157100980766352,-108.529950439334,120.65673100671489,-0.0010306906689317378,104.42925717887117,-14.966247405421564,-19.405816358515047,-0.005334580607458744,-9.562365161529168,7.94809577155629,-0.004105466191849171,-3.4327935656720063,-10.080927295236826,5.957737589308257,-25.419287062978743,-11.559674083703268,1.7803305510244167,4.845478657134279,0.40420629514618583,6.639424178728813
-6.503509857623657,0.0,0.0,-7.103160303773075,0.0,0.0,-29.48205643263032,-7.782617738076817,15.493213923793192,13.210285547316273,2.138975065592138,-19.19737558374488,-39.22316514984359,-10.009878377522591,0.0007017217578040649,-6.175125949155388,1.7281419692180884,-8.690696763957206e-05,39.032175226463806,24.349394111725406,26.091862016634142,-0.8536785634543729,2.3903708202625458,-19.464808457608253,29.855136045314342,12.665413108336654,4.13919823737816,46.616195743999384,-6.666019015521331,38.698401243051926,126.1047163625001,-0.0008391458712213769,-111.15278546611353,120.20551873714392,0.0009670074036186695,109.52423859512785,-15.271288473670664,-20.91972599941633,0.0007043515384881537,-12.381277086263696,6.870071326550482,0.00615922651080179,-3.4177653109678374,-10.09188409927644,5.416852491871223,-25.410509123502884,-11.37043245394886,1.2722944827983569,5.488884018760083,-0.18048684268914844,6.705082592102188
-0.9006473123724485,0.0,0.0,-7.083254624308038,0.0,0.0,-29.38878025268076,-8.87038370290504,15.482327846586031,13.325763765910272,1.5717839795595905,-19.686696745898182,-37.90365927135727,-10.884527921409314,-0.0028916567917354557,-7.08590411138022,1.2819407085878325,2.5978390501741526e-05,38.82119857487986,25.18622691025904,24.586845056419676,-0.3468675758638906,2.4444417512959205,-18.403594508810183,30.074878897890088,12.329738994494988,5.836886869265956,48.52825826863916,-6.687259128257534,38.859792613881574,125.69370721532364,-0.002814223692991567,-109.665951958386,121.04750465390315,-0.0023409477580397767,110.92556961501855,-13.8216644614467,-21.964588945244753,7.257723890800984e-05,-10.629609707966686,7.427710076657593,-0.0012386332511961622,-3.931121686253865,-9.394291111087066,5.510945129268385,-25.87193694526238,-10.75817250038644,1.6258205605053337,6.403542729247716,0.03980992248412225,6.747947759209559
2.722011089630496,0.0,0.0,-6.096884123200794,0.0,0.0,-29.97872653328497,-9.650178765221282,15.023268966663062,14.028521227733508,1.9488745255186428,-20.477334824266222,-37.109283205942326,-10.5922836640638,-0.00027902704184505964,-8.83728297051284,0.6654874006265956,7.305346289564631e-05,38.632311087401,25.72914141622043,24.324522657076983,-0.026576091758004197,2.7246257731265606,-18.172380739177274,31.35364507609996,11.802080352982715,5.8244778901279215,50.15246865192767,-6.838732255779169,39.12974768368847,124.1508441661188,0.005993229392460529,-113.08333250226573,121.20597730129975,0.0021709176322830394,114.32140657840962,-14.120226788920155,-23.93315405643135,-0.004526659025103829,-9.382328947358694,7.124367695990721,-0.0008945560952494679,-2.9645708237365276,-8.805762217356051,6.1792038362831745,-24.855289077020842,-10.45845630124399,2.4721123523833497,6.6889244828032455,0.5170460679609524,7.180894685464806
1.1068313784240311,0.0,0.0,-6.385910338625932,0.0,0.0,-30.315010107176978,-10.104008732919386,15.238445368542049,15.181819372709901,2.36875050411779,-21.40358250854624,-36.509942568346155,-10.605027584147154,0.00014310497209224577,-10.407984415885213,0.6381077548718765,0.00047470427618915813,38.1789481541609,25.79251405468273,24.689032867640382,-0.06905582155410347,2.278850107594712,-17.933043568856082,32.26898066643974,11.896721069145324,6.014648174951166,51.64854179972257,-6.408791216300982,39.811761405375385,122.35437100588717,-0.00919661994055925,-113.11295985830775,121.3240111693176,-0.001523642542276576,119.73381851712399,-15.512920377890474,-22.411635077490946,-0.0009029000163061155,-10.620183729744387,8.847465750289553,0.0003309033025691019,-2.9917307362803225,-8.97508652691965,5.7978122719390575,-24.899766005577906,-10.475025029886368,2.0523651092115904,6.920492850241824,0.40690384445970207,6.7209265964833484
1.0698386733087564,0.0,0.0,-5.78488591536107,0.0,0.0,-30.53303562039098,-11.551985846877205,15.180132927754816,15.933308083749726,1.8318073337462115,-21.80327863486511,-35.66259478504795,-10.936135282748195,-0.00020974312393274718,-12.474291776792196,0.2759594563021853,-0.00011673179952908402,37.73149539298942,25.711862260247685,23.898473595969342,0.5249543162445802,2.0679815085968603,-17.689378834372373,33.19173261952275,12.404141037752083,5.575842036985859,52.93135080293669,-6.361512420491712,40.45561435372511,120.86319768962099,0.004021000643603551,-112.18669052576482,121.20125218258016,0.000387017437514684,123.60214432229782,-15.33640986666914,-22.003006620510376,-0.0010822700636024295,-11.13653467305319,9.460029054035846,0.0020563422437327324,-2.5454053523470606,-8.297376970873819,4.820158999472911,-24.419986084808993,-9.485802734621178,1.3982615528051308,7.649794195201628,0.23020939706783863,7.510823192871514
2.636671567124011,0.0,0.0,-3.8956915796813507,0.0,0.0,-32.12133098344249,-11.632380800273319,13.804379668212576,17.562317570945638,2.3587522791875553,-22.760928135956284,-36.159505425589956,-10.45776246015102,0.0007023232052131058,-14.86123520661271,-0.14932020470919616,-0.0009368010990777782,37.29230660751687,25.60102351958292,24.33517338685984,0.6707465872141375,1.8311621202265707,-18.053876261897578,33.415989654701455,13.366192026336861,3.902073411497785,54.286556394931935,-6.594924125301196,39.87002696273933,118.66848009707658,-0.00602481746134704,-112.79014957350185,121.00637097483397,-0.0014200344549250995,119.36043725718937,-15.3743733523226,-21.70621419982602,0.005530125400747567,-8.70948360039272,9.158271713865654,-0.007878162661346074,-1.9033136466831695,-8.102872384993914,4.916705679873845,-23.76496191012591,-9.340881555715187,1.5615852060135396,7.784210316582037,0.2269272941636518,8.101429935589026
5.458298343681337,0.0,0.0,-3.222364961338017,0.0,0.0,-30.015334290359952,-11.269696228325435,13.04319250836181,18.690269735559713,1.9591423847932132,-23.691617203087564,-37.86117545572281,-9.879311518847466,-0.0028579568427008597,-17.541971535015318,0.02361721314450914,0.0013736656841758534,38.05717226785786,25.131840648797812,23.44340302440235,1.1542560898573404,1.685516009751451,-18.431402237962796,32.53205409899648,14.612639315723214,-0.07865652266270357,54.85146943446738,-8.369216412541597,39.856370604966564,114.42839996839518,-0.010136737724966358,-104.89092683457768,119.99164689125077,-0.008431393839672447,116.9232130624088,-19.440364203243437,-14.476889989479261,-0.0020395936059646575,-10.306562682935509,9.217328392810506,0.006438058368023552,-1.7521601995518754,-7.061984919061565,2.915219385224758,-23.56676476268965,-7.636675038455756,0.09105964461541174,8.270129875568893,0.4457608824861737,8.963618714972576
14.660121266007433,0.0,0.0,-3.544950647427806,0.0,0.0,-27.764623153798404,-9.398163473410289,14.032464675535964,19.78756422591961,0.8124718510500362,-23.87573118682635,-40.91647512138325,-9.972956179381537,-0.001861276066662852,-20.774823273259667,0.7488411234286908,0.0019153008345493218,39.5881445323193,24.45020944070692,20.66959569219522,1.4821069441251595,1.2258052973738036,-20.089441709028307,27.203239014472093,15.606471550204505,-5.204489128513407,55.57928608300919,-9.57564210162601,41.61522352305626,107.85228379651107,0.05527644367352598,-100.21624236439376,116.27141635723271,0.030051563910819052,114.62192515758382,-22.491868456908463,-3.9723897913252553,-0.02929290851313699,-11.980334194295176,8.476411014159284,-0.005950965610024811,0.4847974626966657,-6.256481582067063,1.8360600508591771,-21.290965887093066,-6.490772227415783,-0.61045779028879,8.024429659541735,1.008487894481629,9.5233178510368
12.619061279475432,0.0,0.0,-2.0969411899413335,0.0,0.0,-23.473630970559704,-9.356871674930325,15.670292241337455,19.796540311904426,2.212522357527969,-23.964565151625553,-43.965769317017475,-10.439327877098894,0.004517027202659385,-24.070732537369494,1.3246243050949669,-0.0018669832682977313,40.24183433209605,24.337478393440986,18.814420261600564,1.9380192838039838,0.003939909453198363,-19.984917967900405,16.88200496518976,15.72861470712849,-7.309359239356101,59.30131139757887,-4.898065995430229,47.84075393668989,97.81197702549903,-0.12866057454300442,-95.0216963103452,106.53130879084502,-0.05358109307184987,114.90487188307443,-24.803148382802952,-0.8364973766223414,-0.021768565665514033,-10.703958538018066,11.631677616807808,0.02628572008286119,1.0692796189688019,-6.8092823802133635,4.152497568593353,-20.726807683145342,-7.858297966581973,1.336639529532661,8.206735591899326,1.7344736234497362,11.140491106054347
16.312883451680793,0.0,0.0,-0.9819724552969231,0.0,0.0,-22.69240642801544,-9.72192807765666,14.954967429722455,19.341624241665663,3.5830256024221985,-22.41353942309051,-47.560763627676046,-9.054391488167086,-0.005545252170387092,-25.300079218359638,2.7961940217689265,0.0014402894730411251,41.52564760732229,23.10684896452804,16.907681097413253,0.33291575174547317,-1.5447932634391164,-22.33022864874054,5.933379701076484,13.177985369710521,-6.298125405078602,65.41871660590806,2.048063438746493,56.75048991755723,79.00305047846108,0.16721783678237656,-95.56544657557212,96.84891272632541,0.058691937490153334,105.47613593765253,-12.014138964436478,-2.708579753502173,0.011130594133198475,0.08329909552147388,10.091849931545333,-0.06850676409315887,3.6363979515412765,-5.867059648112448,3.872239432243433,-18.11703131991975,-6.879973248898078,1.42824504592172,8.058220396126474,1.7410259067176619,13.736094113600657
11.36457385969742,0.0,0.0,-1.35788915405045,0.0,0.0,-19.91519773162389,-8.686143851695505,14.971464918295057,17.80915842338732,4.72056247636717,-18.312833315945877,-50.072023071801695,-8.590973216064423,0.0006828965322060685,-27.18658630368311,4.286322304176891,-0.0009727816358027269,42.266822835046106,20.414691242501792,14.964591593865462,-0.7194179517869876,-4.868367140643626,-25.051920899475473,-1.0865822789724626,10.399860761131736,-0.7296527054037376,68.6072431068017,6.982339590240228,65.0683376322937,49.24080344544934,-0.21507922875381366,-85.22391428866273,98.42655422152976,0.022451476592689607,113.82454063139876,-15.165238366817778,-3.2824100343589713,0.010183589333946636,12.975154140989277,9.21563659435754,-0.007601340533639318,6.598317740778729,-4.8096299087164285,-0.5592683781238554,-15.104495390158778,-4.263783570248125,-2.2966223107973125,9.3874153508603,0.0956925522068963,18.500223764846428
16.071818072489297,0.0,0.0,2.260546797341924,0.0,0.0,-19.856425840981853,-8.439641959601325,15.58468275819922,10.83612854095552,7.059220114165242,-17.03054841082261,-50.72393187790951,-9.039269186213348,-0.00024147957810472122,-31.046587517625504,6.713134417586648,0.0022103038664296874,42.139991166948036,17.3840544877933,11.491583324959562,-1.2378129130614728,-7.878193916285154,-25.563705933770997,-7.6415057760650535,12.249539910330176,29.277968302812734,68.61276370655652,9.127594974536098,69.11087066868785,31.12241486092085,0.06457468656844864,-83.30771678727207,98.09233253584674,-0.0038885122587298,102.42214931018044,-28.35606411361507,-4.63696101335975,-0.03828276600307388,1.9155674175652495,0.47518513779214006,0.015093217616726237,8.413328596749649,-2.2423054248547243,-6.362860958312931,-13.08771080389257,0.2562005373974374,-6.740022049174205,12.537616909586516,-2.429153911755059,25.085927022799787
18.11246626427447,0.0,0.0,2.8800059218350134,0.0,0.0,-17.83193747572535,-6.912015352957103,15.068621107800334,-6.16462571146475,9.253200119558247,-13.626156013646638,-50.37738610520302,-8.748240144903626,-0.0008174774550207112,-37.43354691201905,7.830842666318095,-0.0014832381231472752,40.36352948802854,15.115421007577808,8.227193753758767,-0.8422041620198326,-9.989474136910639,-26.451719385770076,-16.270193220095546,20.459485828915025,64.51496106823873,63.607572601351144,6.62403665475976,64.9009470799914,34.14042996867418,-0.07195828584112236,-61.05245194968898,96.3585392346038,-0.005970837524487186,98.45898599060448,-28.673781868398393,-1.6114245793260857,0.022525497216805343,-22.076132734300625,-11.547679891357939,0.03565209013223824,10.331385960129113,-0.9596622323869405,-13.050055363764573,-10.774180140732001,3.881500978904875,-12.505321497669026,16.959398616420618,-3.2544276559779988,31.159791785571375
18.076887414749322,0.0,0.0,-21.603373895503704,0.0,0.0,-16.181209792497096,-4.768609531530232,14.790126329185327,-26.988508200101585,6.534080043124566,-3.2539558398847594,-46.72828512888319,-8.354331154849675,0.0025991496208917536,-47.913197344098286,7.615570844062079,-0.005115987170880375,35.466024709855965,12.978988897317212,3.7855811872488863,-0.2843955084368518,-9.657816505024899,-26.63598767593781,-21.970642910591675,30.503590706667744,82.26328779472622,54.823279127687016,0.039177935605675514,50.70608168078265,45.29987470329599,0.07293630379179794,-69.10909895867506,88.8582249498912,0.06194735645750091,111.7921709889991,-18.01386195257284,-2.057074315663122,-0.0014320831713688774,-31.778939245809635,-14.314594490651988,-0.05824408856738282,12.176228169203972,-2.1629539076513824,-16.775836541337963,-8.555412617809552,4.087773144146265,-16.423244662710445,18.33943276362289,-2.4047090569996366,31.925777389594852
18.60512598072948,0.0,0.0,-29.33368438751245,0.0,0.0,-18.526205004706927,-4.384090714582519,11.351226046422289,-35.03639163834693,5.899514644054184,4.708902671615514,-42.22724015061453,-4.870143926422558,-0.0015288474550078555,-64.82208827923829,11.177928975631167,-0.014301910237904778,31.113440259928996,13.706380780905144,1.4751885241007596,3.6818351679461974,-6.599682965796902,-23.313961460785627,-18.458083404853795,42.45458086418641,80.19677331931425,41.131667620754016,-8.029533235765257,27.94839551031906,60.39267146672727,-0.024454855279056262,-71.10004474134928,78.86048442868535,-0.1955992473149208,91.43499787070874,-17.515176696319823,-1.4906323969802118,0.009403039595107866,-36.560820320133224,-20.583438291855597,-0.022412693429223075,9.777672085480404,-2.153920946175185,-23.701250587626248,-10.090971816570061,6.499830135057261,-22.93810421166385,17.370023777101494,-0.37611365259831225,30.37410146608392
19.17679255656664,0.0,0.0,-29.00124189407539,0.0,0.0,-22.949274095567915,-1.8592904017082,5.894196700258679,-35.85535506544751,7.129252029123733,0.6681720223239407,-36.33055648430104,-1.3125275358767636,0.006995299111101462,-86.56069146480229,10.427705209904275,-0.011757817132394115,26.57214751832727,15.399689501136978,1.109919347275321,12.525261586419072,-6.547131298204294,-23.347483438891267,-2.08785002802738,54.106722331549875,59.106355664826935,26.06034250802704,-15.129688910130591,2.4352483800503233,72.78908839075193,-0.020485919380528506,-74.2936433602997,63.51334209732109,0.20061938520680123,81.59085095499127,-21.41188815569525,-4.923412523239262,0.014844801954290294,-32.44535388857032,-23.55535665151522,-0.01614253151092136,7.140593498979153,-0.9235052619473573,-29.27989575573753,-11.895299632453185,9.518119038630521,-27.834313856361018,14.543138404489897,1.8693489466953808,25.94584836273984
12.21343739750234,0.0,0.0,-32.79704035710816,0.0,0.0,-22.736457014591714,-2.1772479758306527,1.8261382296749562,-36.96516671708651,5.347069581224276,1.5172288167439085,-30.244701482315403,-0.4900926029044266,-0.003248563546011102,-106.12789554045035,13.453158210332456,0.027896075753876242,23.215441563861773,18.002625083975822,2.440289226350839,23.779746596382232,-13.441942430147888,-14.876636537909445,24.501657142082472,60.449422388615126,24.637506370110394,14.040895757839005,-21.644544780477165,-9.962357306744725,80.18980579424257,0.015351510766888172,-73.1771542549753,41.47243314419197,-0.12444101129686597,73.70309869732891,-17.326285863270748,-4.8279844862007675,-0.0038822221554254085,-26.199920494174602,-22.136105780483096,-0.05233467113635042,3.2497244270941463,1.1117326578785156,-31.125302570745447,-15.582518718739518,12.041985208982137,-28.939027958022933,11.957074733534881,4.090548527837553,17.72832573076367
14.215050037335127,0.0,0.0,-41.1833031332591,0.0,0.0,-24.84339343129569,-0.6218645140454885,-3.3327663185732943,-34.29444042243604,0.6131982517170923,-3.7068801174968087,-24.317389430552954,-2.654234236160121,0.00048748327439869293,-116.5807743583948,9.907475296237223,0.01616509837786317,19.989635533569736,23.110062705748103,4.558875775390092,32.214155045902295,-21.978363092429937,-6.425205990459239,62.87382370141068,56.428155941157286,-23.58022850607806,0.15499160982608712,-25.80221120188813,-21.803122438425895,78.94541072432543,-0.013395637189023557,-84.20223166068045,23.74502497493659,-0.005386502621561427,63.90338284573002,-18.592690940686527,-3.1069138345539216,0.005764405521987983,-34.09999284712033,-14.436795983330823,0.022653960522613613,-0.35337362897888863,3.8947607444162116,-31.34347302164084,-19.360963077492613,14.745378701144892,-28.223444397118094,8.514347269929669,7.6592295712079554,7.597589169485915
14.68700680689649,0.0,0.0,-44.16613428297108,0.0,0.0,-28.15032866452264,0.07156814084079245,-7.31100805098615,-35.80877278666942,2.2974726742414977,-6.775813943424116,-21.63365367407259,-3.4443511641476445,0.00286909520140645,-112.96824535907068,-2.2954380862337205,-0.019071621031456647,20.206910323941965,27.272509460653705,8.291386809208326,40.90206185322862,-33.23926423458281,-0.15345598093494833,84.33778307024001,42.41749329291072,-51.512344715598,-12.952931276137665,-27.74015759166803,-44.74476857009725,76.17686075152704,-0.007079509969410318,-93.32518106845184,12.385013070896498,0.06196751801199991,57.90277028171888,-16.59307783059506,-4.4825934842034725,-0.013250216560014393,-33.86899437052839,-21.72198250003654,-0.036500896065176786,-0.9837149259940967,5.8146870160947195,-29.46741686550234,-20.490586679313786,15.941351569894383,-25.7368896720823,4.811024653578838,12.75776125289652,-3.247209106847713
13.930266526505228,0.0,0.0,-40.01132493173819,0.0,0.0,-29.200073203239118,0.7980390413675579,-10.074733110471236,-34.00507910876813,1.0010870213101049,-7.681337063098574,-18.314249097676765,-4.122353262475469,-0.005584500141435347,-95.97682155214657,-11.10981382703081,-0.06923605139470124,17.652059531658583,32.51565459983166,12.420995602229615,46.65332176476233,-40.98060646948469,6.659629282222481,94.51117702525951,27.915140765292485,-62.05960924245798,-24.72505083495593,-24.924794178146406,-79.94315728166465,75.38394764073901,0.00013947623499185527,-89.76257589587956,12.756917010657697,0.029579555134765068,75.6816972345243,-8.668534042485707,-2.1824135682611225,0.004962212928487274,-33.29259933721218,-23.57684907937948,-0.10083733790206016,-0.4179562820326959,6.458130423653549,-28.667055434747205,-20.118166209699947,16.28051175310133,-24.73188354587834,-0.8024076198126052,19.52358316474347,-10.434319991062369
13.391514754117114,0.0,0.0,7.2070024823054535,0.0,0.0,-26.470431735825255,-4.270091765587359,-8.66075845337364,-36.58350162554669,20.01778606547828,-7.642274370947309,-12.74670842805655,-3.2946644038063884,0.007183809061901153,-62.047826149364774,-17.436338348132686,0.006457861228657143,10.911493715197352,35.11524471555237,16.732731145370888,54.717871771485534,-45.504077019175476,9.298341153006296,99.16612902953942,21.770591391733205,-62.40144134809306,-31.55762104863189,-23.038315341724516,-98.60875851995621,80.43479926887314,-0.00850308802400095,-91.2105448603422,16.694696707587443,-0.04503422125349529,75.38389354916698,-6.4560594271734955,-3.6423175555844773,0.004106958730611246,-28.942658157181427,-25.228706450037585,0.008068430169809656,-1.4524026188165773,5.8187464656075845,-26.372360902142017,-21.445586170023386,14.904434811054745,-22.729229855126476,-5.371646152592593,26.644269222925303,-15.344354105388819
5.068409161776012,0.0,0.0,20.60810612868389,0.0,0.0,-23.304902408534584,-4.787449440150659,-7.040703271898415,26.051141438049978,39.368326911990074,-10.615859015541385,-8.89956385934066,-2.0254704654664213,-0.003057131375927359,-26.33233442917287,-11.844942625754129,-0.010057866787868658,5.172889646931119,37.131220415378216,18.462750092214588,52.35355370099098,-49.55043004691452,-2.281830185830781,101.94885092313011,14.915946506555324,-60.55515225051588,-34.807465524686684,-22.4659403578368,-113.50961098436721,82.78225546733162,0.0036949789017540254,-97.92238327169696,16.014314935023208,-0.038248324517853885,99.88305504849764,-4.168513139927213,-7.109559915414055,0.006421921010311557,-31.613762625113285,-18.436977401525738,0.005352631067714585,-1.7441176454177212,6.3131320045031964,-21.768416794691806,-22.39258018667838,13.777286421971867,-18.120814502346178,-10.974660069922693,31.9951967043827,-19.63310203808168
9.604641611573662,0.0,0.0,-48.708596387838654,0.0,0.0,-22.359378945062737,-4.505204230941123,-3.3297668734901724,-15.31566333023721,20.61023540080343,-16.894380259742487,-8.085153790331391,-0.8681270830215935,-0.00026921931388971604,-30.749705054717218,-9.365732418433803,-0.014417054000433794,4.097683723542237,38.18381903336501,17.593550278997593,61.09416935976314,-45.85878368690314,1.5945319826262192,102.00891245768187,6.82947414593843,-58.36747454952389,-37.64333380527618,-20.624495517276696,-127.58709789173281,83.34777229580484,-0.009635525099143649,-102.35861444369128,14.781930714789043,-0.004615612024589944,108.71185155092131,-3.310248583082817,-9.39120166028796,-0.0050576065742012405,-27.22294640071624,-18.276290441594313,-0.007699217695411394,-1.6671685722592675,7.187575757507873,-18.628527104628535,-22.728747586138933,13.484076258536344,-14.802227487324766,-13.17701902997282,34.20967448072424,-18.46398932637579
10.323490947645741,0.0,0.0,-49.4598957988388,0.0,0.0,-21.047957715544804,-5.41217312177194,-0.2788005991695121,-10.618220464328811,17.76271792933784,-18.795825144171047,-8.585279360781444,-0.10466243154815802,-0.0007184275341116796,-37.315541137940556,-18.827394669184145,0.023460729797376866,5.176683832154662,38.401102521699926,16.916287044523944,66.74418628757991,-40.26047955284444,0.6507742816059926,100.28586551736534,6.530863878966023,-59.63673109536166,-38.57758984343913,-18.426394723033535,-124.30641448174133,88.5565685238285,0.03936344993029745,-94.21647964672225,13.37083414373064,0.04496192237132629,88.80804545043473,-3.5976881344798204,-9.469944899637197,-0.0021724572291766425,-27.238984032470043,-21.18521157780477,-0.015404079953135752,-4.534087249036247,7.852426359265095,-16.574748680167463,-25.837458694106328,13.36818946509975,-12.603369033467093,-12.768266649297399,33.2761860800918,-17.644241904723863
12.225748412519913,0.0,0.0,-31.19158506419473,0.0,0.0,-17.71304925429892,-5.749367472067811,-3.799934175126532,-1.68057519257785,19.52286235930407,-26.264044385687548,-10.790564639184417,-1.4394810990322808,0.003200983708666608,-54.02054729141033,-24.360544692200012,-0.16140593258881267,7.91804940497137,38.47820884032474,11.811649071660561,71.35877961489466,-35.57515126175927,9.271418359347821,94.50756007267452,8.652543459651552,-59.910733337701835,-37.354328429654885,-16.005204414203334,-122.9535969378872,93.79588492686628,-0.00466434199941604,-98.2817825110866,14.39714345113573,0.011584403155442407,88.32545517504465,-2.719877543680166,-9.181569218937263,-0.0018593666580789172,-27.99965458191661,-15.552596510117677,0.005847864557648372,-6.894417218365276,7.41476957543509,-12.429392249519164,-28.45390245490926,11.459038810021319,-8.851098165386457,-9.109355295616291,30.98900542011357,-21.219913707416026
5.463363452816073,0.0,0.0,-7.13716081745035,0.0,0.0,-13.873758640695595,-4.39244332702942,-5.505373183752046,-6.987636818901059,12.980501196228424,-33.26242260104429,-12.443920801542893,-3.1694375781662174,-0.0012296653949126592,-68.91173397796325,-16.94087001698117,0.03579905177480849,8.820718169666051,38.35431955451319,9.45450001830073,72.4743787972354,-32.83169826142955,17.289894368561473,86.48746355581241,12.663031752271266,-59.001859127029995,-35.70986906374575,-14.276884922631803,-119.39893672003026,100.7259030979408,-0.02266229783216512,-103.42965634495627,13.41580143835317,0.00108974685604297,82.37794646993856,-4.5772304366436325,-11.986699737615561,0.0044156399929714445,-27.811482768206957,-17.244016084088393,-0.0024291736661261423,-8.66696838725586,6.032198627344414,-9.92916144560934,-30.262924059579788,9.260192850324255,-7.020663785768598,-6.363284850391677,29.611755748217874,-22.022897616819996
5.255863830418434,0.0,0.0,-13.588065971413691,0.0,0.0,-9.910944788714016,-4.429399823456117,-3.0493397220754224,-6.223626674358603,8.14212929356412,-29.4053044683868,-12.98841923888655,-2.89724009888133,0.00012907772773835245,-79.80959638057338,-14.992678727269077,0.00812879661027958,10.199235176742924,33.13548945371808,8.773546011829302,72.18242428013454,-33.49742327041314,13.14227804688828,77.8900947447039,19.29473268179204,-56.046240142843935,-32.853613006235605,-14.625147680653189,-99.3953406106367,106.75884650550623,0.0331904508777912,-109.25888723797206,12.724532689365764,-0.0016871765525122084,73.33531964333224,-7.363135181946163,-14.102447798789274,-0.0060260958263118475,-27.077692137422893,-16.32608567348083,0.0012952326279746284,-6.49030553931547,3.5787111377904184,-6.535880243234696,-28.096931144933578,5.734300357795597,-4.7605521850669845,-3.7691408768716506,27.604421966055583,-21.763303711279686
5.351551934123112,0.0,0.0,-16.771614696930335,0.0,0.0,-7.6006471461500755,-3.9809982476687216,-1.7766052607289886,-8.654993906150219,4.7952614492327905,-27.69654604055693,-12.62773321549692,-2.393703189810752,3.022093079378608e-05,-88.21656685048804,-13.997619910703637,-0.003957657461283039,8.748352709578,27.980057118548533,12.407026240386244,68.0897564243701,-31.224256466099156,6.205097133320473,65.21959398093325,24.352529177272903,-46.944427120300276,-28.303840179859357,-16.941855616798243,-81.137561744594,111.00292133539511,-0.008504714999953193,-108.82103087082044,12.01630321000535,-0.001997982500354451,53.303769057583835,-4.587950269502149,-11.242810870582755,0.008022677104427512,-21.619927804830887,-18.24942940847153,-0.012605585152633334,-8.190304322840687,0.7588431338751793,-6.333461440134071,-29.724179438920956,3.0374959389563925,-5.611543381799384,-3.327854457625312,25.095183467781972,-18.865288377766483
8.020823139297315,0.0,0.0,-26.07834516665811,0.0,0.0,-5.507252616854491,-4.091973310668405,2.501695709666652,-12.676430596178722,4.386846406830268,-30.740808291417277,-13.116583944661265,-2.791291075326807,-9.659784143376492e-05,-93.42734646915194,-9.616289234853783,-0.0034723853163143447,9.520934328206748,22.193174254034247,14.20995129471329,63.04277994440001,-29.6477510577512,1.1872417040941665,53.362797385883205,26.57655472662817,-38.49334042772217,-22.780039509192434,-18.46633493710694,-59.90257653041123,112.19232159049908,-0.00037822038341933027,-100.71381711141663,13.440112178920169,0.004130118120813995,45.167534194583176,-2.213781911903055,-7.969405208388666,0.00033222019740234007,-21.427247092816295,-18.05379311993392,-0.002755186351257421,-7.05167181208642,-0.7918782559076941,-7.734305455955715,-28.50101778601608,2.107807869936872,-7.485005536462816,-2.343026108048759,21.000144530933017,-14.760355416874333
7.796699215659081,0.0,0.0,-32.36371245592968,0.0,0.0,-3.750830766958964,-3.6507573530289035,5.6346425329200995,-14.042012757588875,3.1091555786562974,-30.922565495312764,-13.55481222619221,-3.251342612370714,-8.861749421603639e-05,-94.32388661122812,-2.6794158423413297,0.0003893360713652294,11.53331297676131,17.84756783174942,14.656998577788096,54.426867858191514,-27.21251285836373,-3.998461837906453,40.7899086834763,27.4778715730391,-28.89428022413783,-16.058183289023578,-19.734434627556396,-43.81065563955518,113.32470073135053,0.002624236106458263,-96.80864363931059,18.40946862290334,0.015520029215273925,45.41844207767807,-1.8828065555018316,-8.665746957407684,-0.004178462384471454,-20.644755443048496,-14.061855622367647,0.0015476915275547856,-5.897154002339047,-1.4428185496020989,-6.147336126333738,-27.410188073964814,0.921040395169007,-6.246483237786995,-0.793402057774203,18.033020912985755,-10.66864976192598
8.609039754168778,0.0,0.0,-26.065785647872076,0.0,0.0,-3.1772304292698794,-2.4106046690824607,10.005949230134275,-18.263490717858932,2.4772823518319282,-29.284626124096185,-12.507442554013224,-3.29997705796917,0.0002501511147387027,-90.70070690494738,4.453555131291988,0.0007418494024508818,12.2584528351463,12.523519519095458,15.978460184228414,43.5126736285145,-25.170913551928006,-7.796844592818607,29.424060886625753,27.569204705832902,-21.536025468341208,-8.973820974483914,-19.83410146703498,-31.487517727693255,114.96914771131124,0.010828426088920394,-95.01910712344696,25.699928425385938,-0.028910656837648985,49.69177519673428,-5.215712997313489,-8.597849255081309,0.0030797545199907034,-14.199431567578907,-12.175518383863134,-0.011595810117965377,-6.1583287064670955,-0.903799985295497,-6.2219998407527655,-27.672492323432536,1.4498899527297857,-6.1182329852554656,-0.22786201467645104,13.37286373882487,-5.996801014885783
8.572344911710418,0.0,0.0,-27.853420429248626,0.0,0.0,-2.0637672142216057,-0.981758081678418,14.458933906666116,-22.47880102022233,5.458329426708759,-29.167367678280105,-12.402516159810869,-3.0427354119136942,-0.0002159716293205413,-83.22402460880254,8.85263515427951,-0.0008815768259526197,14.552716302008305,9.45560285166107,16.28508096630446,33.94615888400916,-20.329043616320376,-10.814559248795415,20.38199360893846,27.473098677585387,-16.826851891334822,-3.264701646834711,-18.806123730995264,-19.199436417510785,117.49712014972627,-0.002730915721420871,-99.88508347211013,36.541122606482006,0.1331745117321044,56.290154876824374,-7.697430804270908,-12.781916131373404,-0.004107040403246478,-10.616504350024343,-14.140549697044792,0.0038592565518357227,-7.407929973997454,-1.0934730370049746,-7.757443788562946,-28.852354954556116,1.8355635288823724,-7.6168828510703115,1.5691305145527459,9.706329254367073,-1.4975369399230807
10.351572744299354,0.0,0.0,-23.559109875777693,0.0,0.0,-2.9693932110909085,0.7353149734460507,18.229905929012357,-17.362959350366992,5.64923164144889,-27.414836337922413,-11.573979785986095,-3.1782257104077893,-0.00017584607453602916,-74.49184795046666,9.527329520916648,-0.008791026134017275,17.26399495547493,5.842053964009693,15.838088650327503,24.855012069873087,-17.213533564697276,-15.036041104319695,12.44822570809436,24.90470128855445,-10.396255200806674,1.6074954835787725,-19.38297981139035,-5.93621688942183,119.64069186628505,-0.005068286014113313,-101.23462453742377,50.15637642084176,-0.0657639765586437,67.90830823648554,-8.837023308744053,-11.444022638028825,0.001928330432193083,-11.550574474165273,-13.83531095674049,-0.0010253846929528774,-6.612688298063116,-1.2943730136694755,-7.1854870409813,-28.082149336635766,1.4394026829645505,-7.157980188988188,3.709906163654982,6.112026814769585,2.361174668050901
10.551851453640467,0.0,0.0,-15.759502197010539,0.0,0.0,-3.244330548697956,1.836531942159061,24.488906527561433,-11.253937580974549,5.276316014180115,-29.17699690927468,-10.20654169410988,-3.146954025863828,0.0006276134168067668,-62.62474257377158,7.705714237039424,-0.006751840548930345,19.110451399146616,3.1348115263989365,15.655192562359971,16.814451930053576,-13.486565182129066,-17.840064117190362,8.80366475628477,22.514169155805074,-7.131075196567696,7.61056712311721,-19.115968261592304,4.247428659348642,121.13029568551539,0.005195165879098591,-105.26369998139435,66.23197278671151,-0.035770259353080584,81.20473660910962,-9.200763983560083,-11.543697150675936,0.0007393173644037159,-13.08954058004889,-12.772314641943344,-0.00989801454216837,-7.305522439909327,-1.7150793080373377,-5.95382075496919,-28.824948525546787,0.5968094822145104,-6.166365363975518,4.969056626413006,2.7922145262236997,6.013138085247966
5.845069007748255,0.0,0.0,-11.554266217789078,0.0,0.0,-3.345110491028538,-0.7970736311720502,29.554662834273998,-7.552163612556367,6.188254765041823,-28.43108472952314,-9.199145942033596,-3.0346890822795,-0.001475217583301032,-47.98359995095744,7.28893546024115,0.015186176505884268,21.274297888609023,2.2520707488301905,15.894517395960396,9.938531643598242,-9.932555048361186,-18.14095632469063,7.4936973642057065,19.53294614107336,-4.977169682914642,14.214744820492882,-18.79232546236323,12.728204023964235,122.86924801595804,0.0009910540654855934,-105.66650917241832,81.52443474363146,0.014348141137493983,88.4263350101063,-11.393477654623085,-10.719823461651858,-0.01386782860776015,-19.101955600004757,-12.586147008497067,0.020856477021004953,-7.997667134008775,-2.165499415300238,-5.276245809528111,-29.542161313251157,-0.07071261155924734,-5.701751804553767,5.9428056968289615,0.8177361077294829,9.05195652863478
4.072054705201144,0.0,0.0,-2.9647608028916377,0.0,0.0,-2.987424458524057,-2.611209564568174,35.1462366244831,-0.41637924843860097,7.837566527908316,-28.18608692254329,-8.826345578511521,-3.006627420393667,-0.0003816237542059182,-34.64136910268582,4.942360752158653,-0.009497218181065093,23.277075859524192,2.061896423655386,17.84466882780202,4.996845184234727,-6.989205583182363,-18.444408840374866,9.316931220292723,17.817197716112886,-3.6286557723082353,22.818577259995823,-15.894926462122722,20.922812176028145,124.11404927960396,-0.0002718409429177687,-108.53689037610798,92.8910041221389,0.022017925865024688,89.67608058065775,-12.583247102697634,-12.527347144917462,0.0037175760094983433,-15.231542401542251,-12.258313174753182,0.0008724266491523084,-8.699984671828242,-2.870138604289483,-1.9211164091638264,-30.341260238321553,-1.9596384997204792,-2.84398636428201,6.517103108353405,-1.1650505954654249,10.611086618830619
4.376917056926351,0.0,0.0,-1.052797525042514,0.0,0.0,-3.8468236721408813,-3.773964173751086,38.90039879698252,6.959694039836576,6.508470723813815,-31.158482105915215,-9.411820032069073,-3.111611636854559,3.4063332038965945e-05,-23.14094235046977,1.081254174385674,0.006247622858706809,26.2841020146293,3.809987241531562,17.672324118666058,2.0636909458310604,-2.77046101441886,-19.038809409976775,11.047179273218834,16.476794320917303,-2.9679846821448943,30.60568657815076,-12.143269341489384,26.537870789874926,126.34599103886589,0.005482992461110359,-107.10623288621025,100.20658495880551,-0.01684392592293569,95.35058280239187,-14.854785103885249,-9.987435626563467,-0.02469803044251705,-16.726708706952007,-8.051070259516418,0.002550673630310965,-7.6257849932745225,-4.478813904777854,1.5670987969479373,-29.336056584903414,-4.74037998429457,-0.1987128125742018,6.4897376482883296,-1.0592564881306314,10.947608290021696
4.220927629697907,0.0,0.0,-2.710427971843244,0.0,0.0,-4.4575681582516635,-4.059481056276716,42.09141755945119,12.113848423695085,5.438331436340703,-31.271878815221545,-10.894574303007534,-3.5666243151595487,3.4210074224774594e-05,-15.938266327840068,-1.0149798610011131,0.0005547246132800362,29.027272622501147,6.1626530715765115,18.712279258073103,1.432901030938265,-0.6871931905102717,-18.75287735324774,14.735400304012176,16.51690074183605,-1.4721248527720903,36.73566653240032,-6.823448849137705,30.34971051197243,127.90494759690324,-0.0038915946671311875,-100.33033131525625,104.9358140576129,0.019828927753883074,99.7979582632362,-12.829667467972085,-4.164305166113429,-0.007846512898001593,-15.831420257369832,-7.48548653847973,-0.004304957609767532,-6.390117823225199,-5.885615956145778,4.882395691689222,-28.131975191295947,-7.269538517251665,2.3618051416162418,6.322946238908269,-0.912221007729067,10.819308508208197
10.174336583038487,0.0,0.0,-4.348458632976653,0.0,0.0,-7.65719206777467,-3.7655486362232238,41.942545709424365,13.929940987202922,4.713896964372406,-28.20586394825895,-12.706436171505059,-4.3259445254410265,-0.0008588863933076085,-12.21893124704252,-0.8236116921659704,-0.00044023998130659445,30.753866099412893,10.783770610234946,19.243442159224028,1.7113230631612288,1.1375091254212697,-18.04314801351207,18.961279284353786,17.55031533027873,-1.045938564506782,41.391933052720915,-3.2238555388469625,32.8594773443624,129.30880897487387,-0.003153933428615793,-102.01607197360713,109.39000615213713,-0.026863867951772785,107.03987191330312,-13.727233399603847,-5.382816613115718,-0.0008642258132244427,-13.385960302909487,-1.6687073911770596,0.009069169193469418,-4.3921052170208625,-6.264631432212866,7.355687235664664,-26.09807976196187,-8.532037869319206,4.526784891443858,5.301253769948183,0.8746793591780578,11.128421824478014
4.108425882530125,0.0,0.0,-4.854252401279319,0.0,0.0,-7.505962076997378,-4.588553750881523,37.87362816389792,14.841713257494577,3.4478650519193788,-22.806364045986346,-15.523085205412665,-4.377347896460211,0.0016381351102220595,-10.829257803967923,0.2600540615256931,0.0005477655607143707,31.99226751651893,14.41677590566473,19.54342662906122,2.305844437676866,1.4542291392094793,-18.607263103308192,23.15454356785632,18.961142625494066,-0.13214992191502292,44.90542278320118,-1.4232740551677148,35.064131443194455,130.093497020402,0.006998169966135681,-104.25449220961528,111.8789647137805,0.012967949228443559,110.27246386368535,-12.62656703159727,-5.9864411495209895,0.0014255243963199919,-15.133519572245087,3.4438894135690625,-0.003778736626654124,-3.7648549840189673,-6.603076197286249,8.664353099903222,-25.447291119995434,-9.327234261571553,5.623278019969163,4.405254212752901,2.0627170211354637,11.05527414251492
2.1930058097532816,0.0,0.0,-5.530776504460771,0.0,0.0,-8.944049722168836,-6.539805576026468,31.9545161246129,14.59727751027536,3.713469187915995,-19.83857537535074,-17.166112707877755,-4.663669672000144,-0.0004915394036300202,-10.60334670548654,0.7348268312108176,-8.232719539962779e-05,32.31420983311669,18.437983354333866,19.300157445485134,3.509940282497293,2.540614672985546,-18.114144243664384,25.573688965731236,19.95036182069305,-1.2144675845803767,46.96286878609482,-1.017122357940666,37.00306404666106,131.03189936814942,-0.016130641761043084,-100.45923163534103,114.07040016652692,-0.0008079825784271288,110.36253421616014,-16.673726292376532,-4.731611887351958,-0.01915629995237517,-15.757089385407884,4.41854903008012,-0.0022586531870911098,-3.027415698660951,-7.5615444284963536,10.846672693451936,-24.681280720699036,-11.01762558799827,7.308518668113835,3.6114812635815556,3.328767061068613,10.747150074149616
-1.7094404758723218,0.0,0.0,-4.675668871304369,0.0,0.0,-10.982827545731215,-7.82838852977104,28.35394637756227,12.859124895867804,4.094884343225053,-18.113749286903097,-16.549790347824427,-4.396535042512793,-0.0006563065866692869,-9.366239345710083,0.8603566486943146,0.000223066948722466,30.79367367331099,20.911827955954823,20.009355499789926,3.2280237334202346,3.442686502880576,-17.141884955412696,25.423881180167772,20.44058993731047,0.7643339473651789,47.838636712225046,-1.070485227801221,38.59501454021257,133.89754955772372,0.03379394153093962,-99.29965149699856,113.89502940568026,0.0013238397580930227,115.48301159672069,-16.603839363020093,-9.561105839109942,-0.008576427803540784,-17.01134725025552,2.69566797247077,0.0014817330096147413,-3.0245825990887103,-6.903388259992207,12.131971002051444,-24.564115434706995,-10.875014303328117,8.762779941819929,2.884254435103104,4.207148891631036,9.734725694068006
-2.582452681509303,0.0,0.0,-5.413679246675014,0.0,0.0,-15.23001211420841,-8.692547221838737,26.294003141775736,11.696795123159468,4.851756668056358,-15.75671593158994,-14.654397701874782,-4.064792469717214,0.0009727033451857564,-8.477210474083828,0.43545251742908697,-0.0003219091209920202,28.881171967223896,21.77666273132101,21.640917340166528,3.9631028728040496,2.946926959026698,-16.025374337813005,23.488545730266416,20.916210707516523,3.150517853470272,47.653583756723634,-0.6527379753354643,40.83799538555532,135.22080336154764,0.00765498996298921,-95.72922553493596,114.05432057663744,0.0015539543763668034,119.85710127822605,-16.693424810446206,-6.231459699425731,-0.0022148821143750533,-20.38362876322632,4.415408168200295,-0.0042416930525540466,-3.7742815975005772,-6.923109952808644,13.033762824434652,-25.26114499515455,-11.221667140396468,9.603996157319646,2.6981055782286116,3.7650403201665434,9.337530013989207
-4.9756709398675945,0.0,0.0,-7.977210460506861,0.0,0.0,-15.757005434846649,-9.465921551841474,27.232865899591452,10.727279674324683,4.260758237387983,-15.894222690715589,-13.885664767604952,-4.267981306663874,-0.00045260389433020954,-5.811683483645838,0.8524450422206538,-0.0002447206613545959,28.21499875121906,20.935971618666,19.55622058858494,3.0444883875724287,2.280867208319122,-14.453964959245372,23.686420072710924,20.273725447648506,3.4160076907469255,46.34519589809243,-1.9546037405753824,41.4505600511475,136.62938965954103,-0.010545201092940572,-95.84285565435266,115.70914264577,-0.00590838735357587,116.3729444353388,-16.634991672512196,-8.714497894085016,-0.0010163557316151355,-19.70761080548477,4.676855415401569,0.012532953552103179,-4.501625269093521,-7.310469136834505,10.776913582829334,-26.141019225995123,-10.758742428643718,7.33736005139019,3.195394278146476,2.9656192609209655,8.683867956136895
-3.5361262871937877,0.0,0.0,-6.036421749892923,0.0,0.0,-16.691054349455072,-8.628470190271138,25.38236159435702,9.2230631847135,4.954008448211613,-13.715000751723037,-13.453915615179199,-4.281450023313292,-6.334743725092441e-05,-4.596858572201477,0.9162677101728438,4.214954964305177e-05,27.280595174658277,20.466929196027436,19.92902407258945,2.995467160116775,1.6269541086699355,-14.364513193285344,24.285875451956926,20.34698018906709,4.780089690102741,45.61938789789648,-2.531175739502491,42.18745388080703,136.89366367705193,0.0012168152733808787,-95.21382135344615,117.43577651343418,0.005730786421020775,115.76197695021135,-15.814240240083276,-10.420033101854766,-0.01671720294203067,-20.11035102384278,5.752754173888866,-0.0031848660611378857,-4.60246164999554,-6.992038599806333,10.494569606710733,-26.233354851292784,-10.359453803712649,7.191886641759787,3.435584847198019,2.381706135304357,8.648637235680438
-3.453578693869403,0.0,0.0,-8.180267707568458,0.0,0.0,-16.970567360162708,-8.626621562749781,26.113933593510872,9.158852663133485,5.108340428301345,-12.870538804449136,-13.647058203527843,-4.870289708009762,-0.00015017295699405945,-4.161007177067593,0.9096855115120083,2.3023947379953498e-05,27.1834098305691,20.54301591152013,18.208030264955458,3.5393178098547033,1.7185417225817408,-13.564288434576454,24.636174348290126,19.8014578289831,5.98322139026575,45.25964726769492,-2.531508746078896,42.79617251857847,136.74444233596276,-0.01557389479298909,-98.44297957352876,118.91506677367985,-0.002614463041564675,113.70430517015241,-13.83297528839608,-12.507294576338985,-0.010678103094407658,-20.911189843635533,5.073553268808145,-0.003675895404676494,-4.150627209734909,-7.72081009772569,11.727951230799881,-25.77181320850495,-11.487740679406407,8.076461648507959,3.8568581956759815,2.737605740753322,8.610499553437943
-3.328099935255923,0.0,0.0,-7.111527003577661,0.0,0.0,-16.201145451281768,-8.966397819949988,25.46716736408705,8.655605488452343,5.050432345463609,-10.503453020821116,-13.77760650502368,-4.206153856649234,-0.00022014075350578459,-4.403307539329531,0.9020419323015947,5.9959040340921345e-05,26.508652169082897,20.883545936771952,18.917998235951195,3.854159663082694,2.0418361301909105,-13.937567559703199,24.625231321923057,19.514173427741273,6.934812454620929,45.86055744423851,-2.551368388804338,44.24921560055765,135.90093384280723,0.004108284570822498,-102.99861329727065,120.1547300704968,0.000895514409815724,114.25785207038119,-17.83716763222676,-10.681881772339503,0.007289947257784928,-23.776256994437613,4.589271877237621,-0.001847882862775976,-3.952863332239959,-7.522081233834917,12.531992454784817,-25.51443587369439,-11.596221630129119,8.90740581991385,3.660972745064841,3.5425163446486247,8.621355867875813
-6.671670921718838,0.0,0.0,-10.366077197743639,0.0,0.0,-16.046881376538504,-10.756443196600957,26.47687822626811,9.701361600436183,4.612298369949676,-11.059607874285636,-12.70742713930326,-3.9067769917098722,0.00040394360776428246,-4.416315028052432,0.8798334968466056,-9.52552901102341e-05,25.51810969469845,20.90543677992466,17.092622365903733,3.441163639805586,2.4540679411006288,-13.111388935620434,24.261366958848996,19.658854464964826,7.810558134172698,45.93975472666966,-1.3688253155226788,44.1440749549572,135.89566782502894,-0.0013082501964804293,-110.54969143883535,121.06499825260673,-0.0008723715804502242,117.54472599564414,-15.887113918355409,-13.089344641372383,-0.003927654873143575,-25.926093454009568,6.93363816738143,0.002043703464627411,-3.980368861238568,-8.568872632623876,13.086686322315133,-25.5924579363473,-12.771661401839308,9.035895682502293,3.375101768612681,3.9906634880151084,8.281774493838054
-6.955972259607284,0.0,0.0,-8.249660177358379,0.0,0.0,-16.695607889114036,-10.43943485898011,25.80868297916401,9.390217927851799,4.6504782671667115,-10.53260874143818,-11.854079948522177,-3.2387363223341588,-0.00022454962214027058,-4.647117934861361,0.5117656396265842,4.580702763880678e-05,24.95941397312232,21.212953479707373,18.064370679258683,3.3182271629002607,3.2077567214821774,-13.221592733955509,24.09503886142693,18.86415223136563,7.954539329432432,45.860402394661065,-1.542735918324884,43.4232800330616,136.06204698698758,0.004917154440300637,-109.69354808822958,122.24632784621924,0.0047957499424291046,119.26064130937885,-15.840138055328241,-12.92349347457346,-0.013539133929327348,-23.318147206219233,9.034275792730067,-0.003623462118837849,-4.534605861777592,-8.56902995208903,11.666365475820303,-26.224767575061648,-12.25359785330295,7.698709994841962,3.331322934786124,4.914968486264167,8.374352186111
-9.005714957138514,0.0,0.0,-8.95317899241947,0.0,0.0,-15.842625469144838,-11.353317509865056,25.265865339016642,10.019456853479891,4.64220339743862,-11.685402828421045,-11.72151992016271,-3.3299221974649513,-1.635049262089307e-05,-4.799882798461786,0.8188380634235303,-4.137449082879491e-05,25.18801973897197,21.38303302997412,17.013680473055103,3.3578656935741984,3.45685124443322,-12.942920266404405,24.227183454413606,17.99996183566257,7.179289786331238,44.59870744499573,-2.0371302646878453,42.04029620467568,136.05380962802508,0.0004542824368382628,-106.26726812724466,123.49202291324717,-0.0036671264977225612,115.97140331135157,-16.603620852046983,-13.076097189555814,-0.0005723178221984808,-21.613319336246064,8.742034982879254,0.0050284724280448495,-5.250166697827528,-8.662226412359756,10.767832879796083,-26.990584929565895,-12.011479503876801,6.8192313724413145,3.717340107272829,5.616153240707707,8.08910681913598
-8.837034875048756,0.0,0.0,-8.005666467956553,0.0,0.0,-15.968161581399402,-10.899104934984411,23.926130030418165,10.130655452496741,4.416578935242793,-11.75210823020323,-11.977894347616296,-3.4519894726352205,-0.0002937714928113338,-5.042499678773113,0.7825869964302018,2.8700631810159197e-05,24.95107361399902,21.55350418163927,17.113876950093616,3.1050007286370995,3.575421131319427,-13.179215147625563,24.236506155014155,17.679898401956237,6.545454740949958,44.40769290065535,-2.1441724259591677,41.123127055363035,135.97363947421093,-0.00010473686334981954,-103.05078992392293,123.71535824537334,0.0012799925241283217,117.77944870279829,-14.432008214270297,-13.374466010192632,0.004277124284990926,-22.981233056636228,8.309002647265793,-0.002033862989933568,-5.460767010283929,-8.931770935617141,9.881655793520629,-27.25935417361746,-11.937004314082087,5.885656721331499,3.8824440001990848,6.077546494535602,8.386508866759971
-8.493192455547852,0.0,0.0,-8.222427636522436,0.0,0.0,-15.7530455221388,-11.306291469158998,23.177884751634974,10.757860626522826,4.177586412716513,-13.240806227421869,-12.457792062702588,-3.33925892611305,-3.2256908706969864e-05,-5.269578751650255,0.5448701876742074,-3.561785924272561e-05,25.23105025032819,21.149118110894964,16.392105700656465,2.788382850608067,3.6656697666577998,-12.773891845975097,24.39916526072591,17.310407173127068,6.0662084886200125,44.008710017706726,-2.3300604201541635,40.36339663853372,135.94995937548913,0.0035497006963173755,-108.34074727605224,124.42701940740092,-0.003987579152636294,112.66093270620806,-13.583537747621378,-15.748685968353925,-0.010981086112639205,-21.794426860272413,8.288697395152576,0.021030929302269664,-5.2300566012126595,-8.872692117621833,10.104760242299108,-27.0152043631087,-11.963969319531685,6.117267353941698,3.812933264306864,6.336807163631142,7.969521102802836
-7.342263291673317,0.0,0.0,-8.400105910217796,0.0,0.0,-17.31797704807027,-10.682701337596276,21.68410592627921,11.049074616315925,3.709356558976933,-13.81222323756512,-12.240627063803583,-3.48685689255694,-7.679758417479723e-05,-5.989225437394099,0.24662019157616352,6.281096641389321e-06,24.91683059732149,21.083989196115756,16.998517603628898,3.1207954740750203,3.5153895832381616,-12.222598273433611,23.711556644677533,17.59906761367941,6.801405048695349,43.57944629716676,-1.2224487971001643,41.13435579111346,135.90053880909755,-0.0011098122564489952,-106.78149041051526,124.36532732600195,0.004167605017749073,113.66314968126227,-13.084077067241457,-14.871470075468029,0.0030098350417263817,-19.86726028362831,9.9254223841966,-0.00620764651843522,-5.655065615202202,-9.014255024048584,10.412958935510938,-27.438837070924244,-12.208411466705172,6.352663619896894,3.9115856351741307,6.464520244244601,7.969971474533628
-7.202684258643606,0.0,0.0,-8.229748041221056,0.0,0.0,-18.067521544837135,-9.930700664245114,19.354244438839476,11.29050433242581,3.371732182310715,-14.09257320214357,-12.406957488824025,-2.9918648574059,-0.000460948082590414,-6.113035453328716,0.07103188527840784,-3.3282841734632215e-05,25.12493671912135,20.63159306461632,16.885438872152587,2.552896456148764,3.644418141975859,-13.303360560132683,24.91733243481752,16.974076600332623,5.834001080511802,43.3630912798611,-1.523960140210243,41.48123838970525,135.14723428776693,0.0011396861146718215,-107.71765678830317,125.09086592080439,-0.0021457631693778617,119.99084842453604,-11.7088921459901,-16.010313509770064,-0.0017507429977903883,-19.617733718275247,14.7903457235869,0.007088361427182418,-5.976777289062463,-9.14267590984166,9.61877075142248,-27.801886766016377,-12.0363424700114,5.559138634221051,3.8512710329269364,6.7772035848410805,7.9313603971941875
-6.569717749232456,0.0,0.0,-8.545004695791317,0.0,0.0,-18.284123119626436,-10.483014300739814,18.659938974606288,11.77465434250799,3.7928630117964577,-15.317005007422528,-12.188227815491496,-3.338305403560314,9.68262761569281e-05,-6.47681808835623,-0.3524232523046714,-2.658792021386302e-05,24.687519548920857,20.958419830890378,16.179245760297015,2.5386797603643605,3.8180144872092514,-12.239451086847037,24.26388182831326,17.60119721937233,6.7439901403096805,42.9907506308658,-0.8570690802418952,42.58948006922072,134.7891440946248,-0.0019518481314408744,-109.1014385411442,125.26257954071785,-0.0001220790966496839,125.05608315568364,-10.376955559088987,-15.9333449426761,-0.0017104559406211535,-22.908367092215585,15.308813042029684,0.003621413625491223,-5.787719062773157,-8.839326049918093,10.760056271671896,-27.542543188582655,-12.173124882959026,6.744824140219396,4.069862599164736,6.955044454883254,7.725281049947848
-6.5597655839498366,0.0,0.0,-7.365389624955038,0.0,0.0,-18.132934095307448,-11.218566722735586,17.290508259621898,11.530156688688107,3.673454432491904,-16.119744344052624,-12.191386495285993,-3.155755159024379,7.122323375512572e-05,-6.5286395045895675,-0.32294811539451734,-7.375796239224691e-05,24.696702171839604,20.762859342312574,16.25332180157635,2.4846611461453847,3.7215168698820387,-12.16291723631052,24.334342175403478,17.308934887927553,5.8610284338700795,42.82232971808266,-0.9071622438602198,42.151009815630395,134.52616486866972,0.00019087574442473626,-107.82873178404327,125.42164741114884,0.0011394773312412981,124.78743377012097,-12.528088731657864,-15.026582361074052,-0.008031378987461344,-21.454201487837057,13.606092093753297,0.0024338359894320867,-6.232174579302059,-8.942769395539692,9.869208232400776,-28.03209725542972,-11.94264606632344,5.869810757919736,4.263874930586836,7.013112002899706,8.053137300431402
-6.629038213765774,0.0,0.0,-7.14605214450898,0.0,0.0,-18.352079706895296,-10.791609581334054,16.60389835584989,11.633756304239522,3.7473119533602,-15.60069139770971,-11.976378675068629,-3.1619351697159868,-7.932945168634763e-05,-6.671590201118833,-0.7923650839900324,-5.166568835209024e-05,24.60769296432983,20.51739259577987,15.789891831295922,2.420377566670596,3.7741241117869198,-13.373234731685578,24.093272647984538,16.910215553245454,5.785198010904653,42.761799345342524,-1.5497381483567625,42.56942986232757,134.5548983432229,0.002463768538957052,-109.1528850490578,125.82414054700496,4.5111357390078105e-05,126.43200078012818,-11.46346549136021,-15.87910662610256,-0.0008218867593717869,-25.043449723969772,15.549485465414545,0.004247116561765163,-6.2088133682564,-9.133738919503976,9.364835905580135,-28.0422965369003,-11.934819556455638,5.324610435654222,4.2584594890036,6.955484936273735,8.02528557474298
-3.545084699413564,0.0,0.0,-5.244891097514287,0.0,0.0,-18.993275206575003,-10.390537865348056,15.773651724284289,11.720450173358172,3.95352555944159,-15.682059610386707,-11.76743615164949,-3.040525206041682,-3.257218279801734e-05,-7.030232010721632,-1.0656174841638322,4.650108468685706e-05,24.18929482123945,20.16211520901024,16.336147991304262,2.269895158128385,3.5884793737381036,-13.580950518072738,24.412355349177066,17.144401461383385,5.565521126238611,42.28739140379783,-1.4525890856232315,42.52089273784385,133.9168564813559,-0.0006056314034620751,-111.65968212068687,125.59043626801804,0.0006834508329280433,126.12018148403676,-11.041889740363965,-15.559360117760972,0.0005010329325869951,-24.38198639480308,14.048974100356824,-0.0021835960018391077,-5.765996585875454,-9.314633423640501,9.920100538650278,-27.593662293806574,-12.30655213138563,5.776188965107247,4.032310403106059,6.74811421016595,8.174248901647422
-5.646898325614925,0.0,0.0,-7.166299564302118,0.0,0.0,-17.784590370801222,-11.375613227653878,16.442331784543182,12.109806282060932,3.7959666714154388,-16.25279995748684,-11.711745874881776,-3.0282469498348674,7.881988465016827e-05,-7.147012645438305,-0.9590470729060856,3.195664437419761e-05,24.384385913036247,19.911637283083316,15.76065588583688,2.5419245148870404,3.3923468169892157,-13.28139983698368,23.840677755543243,17.074592547930074,5.863350163512102,41.85414587371286,-1.7530666121863123,43.088730033266565,134.04392616740998,0.0035702097797285334,-108.34214648067329,125.63764163486431,0.0023619218126550595,123.33703202474757,-11.181406854903972,-14.724072064956447,-0.0036887420177392893,-26.27451916816904,13.216856307242036,-0.012125560048156193,-6.32470828447714,-8.79624927678227,9.867951731517506,-28.11324595221294,-11.806130734845853,5.924217334653146,4.369860011911194,6.746661335818289,8.521599234883803
-6.58834954917727,0.0,0.0,-8.225035650638631,0.0,0.0,-17.32519612289062,-10.704833787947896,16.477557052780597,12.526925390782699,3.7511117715005553,-16.028303261364805,-11.5900748272899,-3.176704511664176,-0.0001918928280781439,-6.992428684241923,-1.2440407825544852,6.089680197522293e-06,24.144313753424406,19.776739174371315,14.856073333365297,2.098052883018603,3.5754307917679573,-13.8679212019905,23.591009341526025,17.42327484222146,5.983571503592586,41.386937296069924,-1.2188078040864263,43.78171205869262,133.8230502311455,-0.0024661085567958024,-105.3663373303906,124.42258176615312,-0.0005714104203350715,120.31093374349754,-10.90222810006776,-14.257828517960947,-0.0021758373071460394,-26.981985881404192,10.689135131284138,-0.0010382936783960243,-6.449804727227219,-9.139658028401517,11.162945422112374,-28.210869105614815,-12.59956653315922,7.009234438612246,4.521647222201279,6.689830250112689,8.046052469590476
-5.029466704289863,0.0,0.0,-8.297305397511181,0.0,0.0,-17.766268775127326,-9.95899147018301,15.803129392908414,12.74281287349593,3.8602165837676807,-15.55191998760698,-11.431813767544432,-2.853693521774717,4.856694042246441e-05,-6.820504883134266,-1.1846412586997315,-6.386472675673556e-06,24.20713706240291,19.494863298990392,15.6713519117586,2.0550161838822265,3.4507949681836423,-14.559248151133856,24.33120061128586,17.494568068303487,5.450989249656778,41.1993026809211,-1.4260075245510275,43.13982077537443,133.2895328570492,-0.00032328322989320213,-101.50016331341276,124.01165230863901,0.0005389306853475984,123.69430652523185,-13.373731250690327,-13.173833571206174,-0.0007976602946061292,-24.76562220321184,12.456518377475371,0.019563791004689385,-5.875552804730382,-8.492214041808307,11.511676725763058,-27.56736592469928,-12.125683816794625,7.582322614746986,4.672584900010605,6.267048607724576,8.185859875456147
-5.764983265807778,0.0,0.0,-6.535396538681142,0.0,0.0,-16.8501648834655,-10.532879797054427,16.037774298461382,11.716421833394843,3.695891034207919,-15.856587284899629,-11.179511728376058,-3.0457510709776963,0.00011317055305546227,-6.5862193801427695,-1.0407567160163789,-1.256930670064837e-05,24.056554126985926,19.849367360005502,14.920909514208105,2.2888363351997096,3.5950666035642667,-13.842642607285317,23.8450145460785,17.710081154557336,5.883371561124629,40.938299783713056,-1.862084273214906,43.69849124192725,133.19902732264978,-0.0024394115736528195,-101.8383371998593,123.26034924488789,-0.00753253849545869,120.91508345662696,-11.911309853112957,-12.670155104574247,-0.0029967343330059215,-22.793395421087315,13.88131935627218,-0.004544261192657354,-6.00653335317569,-8.192896530555544,11.096282823991656,-27.695295487123495,-11.695660419969485,7.305080880227159,4.944121243995755,6.474259644505132,8.77435196452355
-5.942053537110037,0.0,0.0,-7.629515363150406,0.0,0.0,-16.959463543460586,-10.277740978368442,15.207492009985618,12.071870782320294,3.567811946837809,-16.151369859055244,-11.23517288191921,-3.0513756173647977,1.9606322816274622e-05,-6.284589443338729,-1.0488077396647615,4.612117642555719e-05,24.39110917002812,19.7314902653034,14.582428829397761,1.9537457831360987,3.8149692512479403,-14.206589227270904,24.6608570453462,17.018785983413576,5.112075462119114,40.538786636313205,-2.1204737951247035,43.11580345993893,132.86083487336032,-0.00023628443353282134,-99.6918294688801,122.24385472825924,0.004559450029858642,119.8574117612067,-12.894978814767914,-12.304136685803929,-0.0025660041327689753,-21.378561345431947,13.253511798697662,0.004838519977417123,-5.9745105700321455,-8.194900391258635,11.167312259815933,-27.660006547385848,-11.723505967040253,7.371038168709567,5.189106898014107,6.503114408375171,8.475944729751783
-5.409363730781498,0.0,0.0,-7.199343274791259,0.0,0.0,-16.56166592686749,-10.221543171166482,15.574113318592133,11.658996620240709,3.1311603297401924,-16.261173257885766,-11.139111551967714,-2.878375750816197,3.2411838205019206e-05,-6.012247180725008,-0.8924741964185241,-4.2806171373234535e-05,24.581958312670416,19.668038697786745,14.853114277572514,1.9862671738265698,3.9057123741924316,-14.112497248732128,24.283685496971398,17.30885992465086,5.200989468351335,41.10240542685427,-2.154208385710459,43.45203857271071,133.1944532467126,0.0016100740383624976,-100.6571886554515,121.37796233592337,-0.0014634729223267735,118.11274395374974,-14.274602659330581,-11.329549931593501,-0.0006863095139376038,-21.250313331020752,14.17345270470309,-0.001799698059888499,-5.702944656828751,-8.207592431531804,10.668205053615766,-27.412740593187085,-11.552659665963288,6.897612311992979,5.3267300737388315,6.560469284859806,8.385577665892978
-7.427686078382317,0.0,0.0,-7.557249304516246,0.0,0.0,-16.392636763540224,-9.003235984631711,15.583524255045266,11.668840601655106,3.942706965130124,-16.266935662802542,-11.141867986677283,-3.1648807865779793,3.6828666047376886e-05,-5.733132002026434,-1.1610755319920454,4.917756867862609e-05,24.642750392758796,19.64188377125972,14.968590593484816,1.8394728211088405,4.051616070889022,-14.475878696465763,24.56051598431139,17.044377661854803,5.185016419641129,41.007816738949494,-2.067878750413907,42.61286312397108,133.3912013984512,0.004437386980752614,-97.74634423677294,121.28401374358354,-0.0012576895581771369,120.10095210568184,-14.971501982475504,-11.55668996625508,-0.0020971661898538264,-18.681963193738977,13.963532380345756,-0.0013654770071916359,-6.217904349579878,-8.183753277241223,10.095695883368997,-27.950804632639233,-11.320796401996352,6.369533854157156,5.334080465781023,6.304415949537124,8.608077847679702
-6.9904401925681166,0.0,0.0,-7.422462606429961,0.0,0.0,-16.686199893610386,-9.653994654554538,15.872873084736941,11.709965328362735,3.637681375003694,-16.897727710187336,-10.852485418745772,-3.1198598405712223,3.988480432284954e-05,-5.5279503875446805,-0.9473667865704476,-2.139846490278471e-05,24.945127184413348,19.472113935012416,14.659118210893354,1.948443146517238,4.025847173822991,-14.013148245759792,24.605613468398253,16.76480454062627,4.638926039066444,41.16941112044653,-2.085080590657906,42.48222171677437,133.49925128398175,0.0013284443566670262,-99.35621392284305,121.67686038208822,-0.005564770415991607,119.54610216902647,-15.49756012894508,-11.494986032017684,-0.006708251372397338,-21.74727509499933,11.822357634189592,0.010470810344842528,-5.8772059126829355,-8.424138724088628,10.871867627366889,-27.594291632400562,-11.828399252149742,7.006996669441774,5.4430611792134105,6.251658674533288,8.640928487692412
-5.251026034186482,0.0,0.0,-6.400464186740624,0.0,0.0,-17.215029758252093,-9.053746475709115,14.51440426023741,11.68962725187843,3.757854441707586,-16.73348718468098,-10.904107485395961,-2.918082546373229,7.76181268554383e-05,-5.417581876247758,-0.8317648283864456,-6.8475828748504e-05,24.284557179940208,19.531818115792053,16.049667772804156,1.234953662623504,3.977154331676071,-14.122656219709254,24.538994977854546,17.254840972115325,4.847026404557682,41.68641329712118,-1.8684988780273968,42.98359750345819,133.36864090702292,0.0005500066506709267,-98.7292547224198,121.79999074738589,-0.00916223975389798,121.8378835688341,-16.010925466491265,-10.970029891096639,-0.0009663253189039936,-26.904633188042386,11.523604000637894,0.04264093669107588,-5.803367629951847,-8.102448870952239,11.966191195638052,-27.441050380967013,-11.929486739402348,8.156811652612083,4.948548459370121,6.064307924402938,8.825488491915857
-6.6273485317915615,0.0,0.0,-7.766447745978991,0.0,0.0,-16.56461024557949,-9.709978652139304,15.693093001009553,11.860707572744843,3.947666625611581,-17.45871408679363,-10.721018279380377,-3.239923900907372,4.695852867973574e-05,-5.588853553604043,-0.8110784090009847,-2.4098220762354563e-05,24.577543746625317,19.96893077859944,14.46064890906006,1.676729051938595,4.327815092514092,-13.488954385884627,24.644945362854084,17.005558462442664,5.206884942854804,41.93650510942112,-1.5743349254048915,42.43845588124796,133.410554330427,0.0017442234924656367,-102.52147873340228,122.89000408187103,0.009907519604368337,115.87320785367135,-14.695070682459116,-12.442372372779934,-0.004095939376301285,-25.89815308819105,9.431962179775047,-0.014681172026235643,-6.440257443344198,-8.548929401776649,11.79320107071139,-28.12235926326767,-12.281272611312904,7.825573940382938,5.220864658846382,6.228528758203821,8.674563938836718
-4.92645425789876,0.0,0.0,-6.40596645828103,0.0,0.0,-17.510084967127117,-9.229854755145173,15.329182351916405,11.935989568530266,4.436814408572331,-17.613754200470794,-10.656388508150155,-2.991686002377514,-1.7217876293280822e-05,-5.483244373703232,-0.8543851182587917,-1.1787232980656271e-06,24.758054393740778,19.41751439100222,14.775315964982225,1.621675516438242,4.0488341544773165,-14.022118489452213,24.261953218744768,16.85397457024432,5.575081690326006,42.44430234107452,-1.8177881999018881,42.139777661122814,133.7881296169546,-0.006287201019905254,-104.91293665566798,123.46854451883497,-4.3833323198998474e-05,121.77543636713644,-14.759731071129366,-12.722741522575278,-0.0012959217594602365,-25.56650306741211,12.749194150389979,-0.009551168489890488,-6.369666201038328,-8.567061861030792,11.303504678037033,-28.077629030014144,-12.119109421584122,7.358375644667641,5.2967473370126825,5.893853961884869,8.681325219498886
-5.8647913302125065,0.0,0.0,-6.8941492194466045,0.0,0.0,-16.980614972216387,-8.827769562393492,15.443245504616234,11.793384187839028,4.172291796043564,-17.084111010676274,-11.127909143959037,-3.1841307237393677,-1.5218145101144383e-05,-5.382060511867375,-0.7926016179811585,7.460322004693113e-05,24.807150044392326,19.920133135119293,15.32187829056467,1.4787557834454268,4.293771228946498,-13.944071477101144,24.04271692806863,17.3077948929264,5.750840362187995,42.68273149289922,-1.1799839430185424,43.04912667263364,133.45130325487054,0.00036607865319558105,-108.3037479744764,123.5564126506687,0.0014335859488905905,123.64985297904599,-13.593398197076072,-12.935725319056372,-0.0007446716799396404,-26.316745756228833,12.270807259817456,-0.013105400111347304,-6.4129306455242405,-8.617739179015174,10.566594872478456,-28.158745855801328,-11.89644706691665,6.647178353814064,5.083987810282355,6.170436087780181,8.895044601874424
-7.3579927394994495,0.0,0.0,-8.47068671090062,0.0,0.0,-16.15043959415453,-9.832080692820567,16.70641582425566,12.141025157128775,3.919136131369352,-17.823527893907347,-11.214069726615676,-3.4043351845404857,-0.00011286113537041871,-5.300065400947863,-0.5873682611602287,5.971434218047427e-05,24.92867847324939,20.024610731408405,15.277952550848777,1.5506706612456795,4.277171319110511,-13.162824253219329,24.261935801504226,17.365256666492666,5.947868265193288,43.52985029904748,-0.9284550612048935,42.75114093533523,133.6438918722694,-0.002626735180191198,-109.74540040349056,123.80988832855273,0.007942166289667731,117.24775051758486,-13.69342555795194,-13.561677692804139,-0.0020267594430110323,-25.95760649022707,10.457048341474461,0.005840728951012854,-5.8015540249473,-8.485342523982354,10.825847873109819,-27.52551369499291,-11.868404642540863,6.940636276556448,4.990418962285699,6.0594776537019985,9.137803002664958
-4.21129522707935,0.0,0.0,-6.499211765827019,0.0,0.0,-17.096088243503416,-9.476360894601768,15.946235779121507,11.704641047786174,3.712304875981263,-17.15280572457802,-11.744447432266872,-3.3829641131354826,-0.0001367085442928286,-4.954402240910365,-0.4636941847636911,-8.602355612453785e-05,25.19014237932749,19.69185836542406,16.407063819123117,0.9246897799917444,4.131192518475717,-14.691717760235969,24.705605450135423,17.027789452195893,5.15018060553342,43.156978472047875,-0.7760106910048294,41.97015388585648,133.10979690398833,0.0008560213667313514,-109.13723143038919,124.52260070487101,-0.004645269550760725,126.07966890550355,-15.310599385595792,-13.24595923967977,-0.0037570609490311636,-22.716516163951553,12.53273754948151,0.028078809249555112,-6.348606765617507,-8.841312898275095,11.080363106736318,-28.089084007221,-12.292245621692434,7.044881853373635,4.971954001336727,5.793486996479251,8.86975754553039
-7.210030478416433,0.0,0.0,-8.165194384438648,0.0,0.0,-15.578418655971406,-10.192780597782885,16.590372891614347,11.93602537492091,4.019839546109341,-17.382327964804862,-11.944659070794927,-3.7132120598917604,5.766405409261751e-07,-5.0465129144160725,-0.5428589311003953,-8.141023141909403e-05,25.226553324613263,20.14436856077981,15.374088528075106,1.2624735087884804,4.24076819329534,-13.53780472135466,24.332079801539138,17.049275387793962,6.1367175732688635,43.499451706113035,-0.9634192886911075,42.247705204547934,133.78504171418808,-0.0005260961287294964,-110.17341351896795,124.86929361021468,0.0009648332893439673,121.5966575782807,-12.68773779211154,-14.299526136252952,-0.0032913906093332865,-23.337965332987345,12.513991449742786,-0.0019676415407715317,-6.023331943394659,-8.729570511732161,10.242313493411555,-27.79166101315273,-11.881488560654262,6.300550202125158,4.998331335227636,5.997552039792304,9.333827175827567
-6.533534929361671,0.0,0.0,-7.592627343250704,0.0,0.0,-16.0379584092626,-10.336390701682216,15.606446103173742,11.825753567436367,4.044388047847135,-17.06379611361897,-11.970064643392613,-3.6224350896254336,0.00015120135659654334,-5.0407962524985335,-0.5622618156680397,-5.122877096664017e-05,25.020164432450063,20.206768349636334,16.370924481085403,1.2580482557840313,4.095771419590584,-13.682177662095006,23.954887344341238,17.424592311232814,6.671654290559308,43.41868915373906,-0.8088234107539507,42.83464647196256,133.679484356472,-0.002856066326714948,-107.73094534609494,124.99800262677894,0.0009357790555291503,124.59035123730821,-12.983875472256733,-12.548484133145692,0.00045923706098799095,-23.534271876082773,13.909454060972356,-0.0032572032759163546,-5.750085520114124,-8.933406106343426,10.557955442041544,-27.521236177948065,-12.186466598113112,6.519420166181574,4.913176889936829,5.870920460323418,9.444528674219328
-5.95664347822819,0.0,0.0,-6.798461225367643,0.0,0.0,-16.216153386722137,-9.570060453193362,15.324408538666557,11.543121374075646,3.701472248021117,-16.934409863967726,-12.237967991196435,-3.964031604766277,-0.00013081806380962105,-4.932409392316573,-0.6928418817459389,2.0974084191346924e-05,25.58988467966269,20.374688224023924,15.924585794719706,1.3794094194703974,4.3648494323576426,-14.581666988647482,24.300756822125688,17.0797100889025,5.845310922478126,43.336404070894375,-0.9863282060223033,43.272704627090434,133.40728945662707,0.0005449134579144796,-108.32901940390954,124.90494013833921,-0.003369382491026013,121.71014098600874,-13.056296049703676,-13.12297394816362,-0.0010389781755847703,-24.794152716684028,14.191481375029928,0.0026644066897640642,-6.058753651136989,-8.951811708414443,9.897868323832855,-27.858280968618924,-11.961554148577804,5.8932443588431465,5.218580246533034,5.9172090861305655,9.331763114489808
-5.3279804433088565,0.0,0.0,-6.551312431628254,0.0,0.0,-16.698291820399138,-9.020161598608924,15.355666040190668,11.85284558571323,3.9357606266672116,-17.341753189197036,-12.521933095561604,-4.037134601863689,1.965299307446738e-05,-5.089104374440921,-0.6575555870049525,6.10720241575264e-05,25.377425773775084,20.270262503443096,15.82753847216676,0.967561640237154,4.242638979290512,-14.536203741061641,24.612881122373853,17.169874642115968,5.542138226898066,43.31985114568711,-1.2253220031765928,43.87409120667166,133.01224528717606,0.0001062006519832896,-108.82804704550706,123.94319520705211,-0.0025198100080703707,125.13385089206005,-13.099162468694708,-12.598603779364446,-0.0030570883895134605,-28.84432640221575,13.118617502517303,0.006844700252128785,-5.597730317314513,-8.247623346741133,10.899325584962403,-27.2999735107048,-11.674446530354798,7.0994637427638665,4.894321287018148,5.719797802595863,9.345307263374147
-5.666581089249261,0.0,0.0,-7.317179313100935,0.0,0.0,-16.240037413760614,-9.502670932657995,15.766344015507169,12.20534868105169,3.7532733666644287,-17.207547971324153,-12.725912489811813,-4.216424640491595,2.851498985885497e-05,-5.10465111662278,-0.612305236096089,-6.613365815910562e-06,25.373409915550464,19.905058094009025,15.519231171819982,0.8167538352424738,3.89338000133928,-14.930751070006377,25.171984906641484,16.913370719238795,5.026590295681281,42.560724850020684,-1.6327561796211825,43.827089995155944,132.3519265643238,-0.0027268769044063506,-107.4450825558022,124.08477876120958,-0.0070476732213381596,123.43979653750043,-12.778606721481486,-13.186897010433915,-0.003348507975365386,-28.25055333205139,12.285297099839152,0.005923679316080586,-6.128672289703456,-8.761106530351807,10.970943491558245,-27.867736324788126,-12.177689319814514,6.972497933996137,4.926371111569821,5.51010497543161,9.425629272880556
-6.108764373545257,0.0,0.0,-6.524376390244472,0.0,0.0,-15.644679552129132,-10.040644879794838,15.593489541386417,11.789687254410206,4.237975860709393,-17.573958676597375,-12.93276381324398,-4.197176645121335,4.4267019570095085e-06,-5.383128501934412,-0.7604454383508513,-2.2776403966890423e-05,25.582229062937067,20.562981916982082,15.275625695615634,1.3829465918195472,4.247816247077335,-14.012164460873723,24.681216972712168,17.525383780409634,5.716405969016779,42.88552499558019,-1.3206916250032399,44.02156313207082,132.48525345581962,-0.0015985897821810106,-109.88605123352036,123.48598986570225,0.0020750859639444377,121.05896887529019,-13.001217753297928,-13.267718607596304,-0.004577435989292463,-29.300896685525167,13.38741881040472,-0.006519179372714004,-5.682486701296956,-8.14222913191486,10.575648699144802,-27.39151960787221,-11.45804011716729,6.8354281430499455,5.049550749754779,5.789514198903418,9.775265052312276
-7.13920979907819,0.0,0.0,-7.009883097745051,0.0,0.0,-15.30059840936776,-9.741312240591888,15.944408806594602,11.914940187863834,3.7905977926770658,-17.38183354253237,-13.179340828022966,-4.405684450748501,6.461246768864666e-05,-5.4080721369383875,-0.8770810279661333,4.0535113821982246e-05,25.752933565280234,20.72603516220835,14.81136906853121,1.505234045380484,4.408822872907458,-14.163176920191843,24.25682800244768,17.4853574345234,5.964491331745394,42.37752567283926,-1.7671676732108088,44.07569269765265,132.56049500128728,0.0008753898839838347,-108.65898125623865,123.39660391230274,-0.001061558829927514,121.56911197791925,-14.1322438212518,-13.228723100032695,0.0009382624040205379,-28.583145444990667,12.622938853208106,0.005662137130203804,-5.746615407695275,-8.409412444450192,11.186581356201696,-27.44778640398007,-11.929862695507284,7.308131037550362,5.349035886617133,6.092024836115501,9.650231412847424
-6.254997389910815,0.0,0.0,-5.857136862068815,0.0,0.0,-15.436284190558203,-9.453324954031826,14.838121614648173,11.681639364288273,3.821557351091618,-17.269428297503676,-13.477714355617243,-4.297889442704489,9.512153498195762e-05,-5.34420211555184,-0.8659472417022748,8.709131641650184e-07,25.772502511098683,20.508488415649545,15.323100920492575,1.341162179172024,4.171507189601849,-14.318518923816464,24.47498088195265,17.559325560712505,5.619441531890237,41.99071166836312,-2.003735482551781,43.98245696464412,132.4497509930169,0.00045502131909141785,-110.97762033335403,122.99759720028524,0.003237744374969442,116.74373432313119,-13.016918032528789,-14.572501695979428,-0.0037386551378338047,-29.2949631538744,10.402748748581706,0.0024543896586012364,-5.7031549118911,-8.356399553125893,11.277097118011145,-27.39581087969914,-11.91372048234208,7.413195030854025,5.439793001799437,5.907663644072791,9.827184882091528
-6.229293854494805,0.0,0.0,-7.327136233134925,0.0,0.0,-15.128645227939318,-9.285109981340975,15.242261309156863,12.162149009167738,3.9962081192632137,-17.702730745392603,-13.725722763121393,-4.578062261550698,1.4240651453112357e-05,-5.360069812023993,-0.817044920745075,-7.974077822075981e-06,25.94121494337343,20.702460013477697,14.610419697189686,1.145407821662568,4.383254532527372,-14.311969663055745,24.429671180686448,17.522039481566743,5.179322182880757,41.382235658989245,-2.0920303378086897,43.983463630072634,132.02014945103733,-0.001069986127698305,-108.08454376878076,123.05547874203099,-0.0014299148388879324,122.18552973001667,-13.802142625448267,-12.807874145755713,-0.004082265354982149,-27.917336482992237,13.786904668488084,-0.0036955378156259882,-6.0678219035570695,-8.691064939087351,11.138218396395358,-27.793525836522942,-12.173840610847696,7.156142995299004,5.572710430759629,6.100514289158049,9.638423066318378
-7.510851270041969,0.0,0.0,-8.715565612788154,0.0,0.0,-14.689319946798287,-9.12449511570787,15.852755783468243,12.435820173172322,3.721480306907597,-17.949808289443293,-14.090022169804309,-4.846229171496004,-1.4149727681639639e-05,-5.4285008676431366,-0.8959848782036174,-8.861572002080523e-05,26.243394641734028,20.651833084515403,14.026470205585062,1.3372747097138602,4.2216584218374305,-13.988663754604762,24.539915866539754,17.36593405341276,4.99132087244755,41.2994072700803,-2.149372635863473,43.57913160846533,132.18072662726408,-0.0011374601033975183,-107.01738210060516,122.95896141612675,-0.0001631966092928193,119.70719754732681,-13.665701681318655,-12.920723246561233,0.0004534199139373061,-26.522610184419477,12.285248650422815,0.0013505137842593038,-5.97498484174671,-8.285531521384305,10.992559797904962,-27.675761784313142,-11.743789141643834,7.172693471399631,5.676364757454259,6.063422225237348,9.699887618864304
-6.265814621035539,0.0,0.0,-7.550359781186265,0.0,0.0,-14.917920799018724,-9.878012851456207,15.392792380340095,11.896551269712832,3.550001590843803,-17.45436474511427,-14.11121393608676,-4.658137706392568,-9.58820036556618e-05,-5.407158384358163,-0.8780384780097708,-9.483415080888283e-05,25.95650811091369,20.56921577205164,14.418388293136076,1.2296455803647541,4.048881721811549,-13.969964310388674,24.066020053802816,17.403705056189985,5.609090002759865,41.52845350975313,-2.0874298215727665,44.179084221995545,132.26275268629226,0.0004843589747610908,-104.81367691901856,122.73007272623208,0.0007824414647497458,117.69419974212484,-13.421232942690212,-12.570965779941966,0.0016066431351437435,-28.775739545037933,11.251632583182525,0.0021809897228003863,-5.865031621023011,-8.466841439292429,11.144141155804508,-27.572717394679696,-11.967695800897635,7.2465500110221095,5.5299806589753935,6.1306036011501135,9.658345543678937
-5.148831245699947,0.0,0.0,-6.086958070400526,0.0,0.0,-15.363274176580095,-9.292835963899266,14.409162793446434,11.778413517781342,3.7406563795390633,-17.290450620998165,-14.445315773357384,-4.542550279484531,0.0002006711540070343,-5.717592887374945,-0.9216341460735912,4.747723640078777e-05,25.98432975138921,20.69539991569689,15.327002459312059,1.3286952818168043,3.988855125130287,-14.146365487319184,24.106390418021252,17.229925879934317,5.538043696525702,41.73142433215791,-2.3242652658541685,43.771589254860075,132.351471497786,-0.0003056425783860434,-109.94996412098385,122.95329479657669,-0.0024312477894906084,119.80274161451368,-13.937581781868362,-13.280398359577221,0.004972766909338821,-27.718565244178684,11.842002043733153,0.009214343460149476,-5.808851102293514,-8.017413263175092,11.12487897392764,-27.482905136129276,-11.5430455597393,7.3981223872432365,5.511095717801574,6.203624343550507,9.921057001098614
-5.671467750267472,0.0,0.0,-6.443479730289496,0.0,0.0,-15.021091502905096,-9.941411053708944,14.73134805217368,11.88597114151938,3.417105605644572,-17.324971168512445,-14.789290224134689,-4.856033549667747,-0.0002252084206826969,-5.779588829231412,-0.8889133124347265,-2.1062577717929386e-05,26.21395592033699,20.899691767434405,14.80190473569672,1.5482850116081914,3.979034688380189,-14.100411679329536,24.20430995290206,17.281958150682435,5.756486969432692,41.620126372133875,-1.905374192779174,43.94127116491794,132.4654987661338,0.002016784628223377,-108.3310733987667,123.24261200525568,0.0018187932196862748,120.88362746411211,-12.306856465004087,-13.66562558529117,-0.0025754035189338308,-26.338432321027433,11.728964074251534,0.006687854474392476,-5.437560717640811,-8.504735263810907,11.370225219695099,-27.13734437296442,-12.085608227584055,7.444646471235805,5.796034834943531,6.309263287479736,9.728272780758656
-4.749731284208778,0.0,0.0,-6.232274533119856,0.0,0.0,-15.207482039037217,-9.832549036924192,13.907875223984954,11.903542980694626,3.8652812041186695,-17.093627899948316,-14.984589249118313,-4.524439714893304,7.107234101499138e-06,-5.946337381179257,-0.9092395459570044,2.7973525716190512e-05,26.142509964366635,20.848022370371428,15.793129285169664,1.514484827327338,3.8049209526844474,-14.315404566465233,23.980881874541478,17.55288900504436,6.419650765078487,42.085684543103866,-1.4927532242214694,44.338375066745,132.64915976477513,-0.0006592959413141826,-112.26693839296213,124.0200573061173,-0.0008306204201704653,123.73789822739542,-11.134639544105198,-14.125217518730599,-0.0009724296615118144,-28.40007023799455,13.193143793469961,0.006173804066249598,-5.6474898244239595,-8.708179505067683,10.830323136168227,-27.388732521103847,-12.077038368053943,6.860493500831503,5.720095829120632,6.15406653953944,9.533166112095309
-4.524958053834881,0.0,0.0,-5.994368781220881,0.0,0.0,-15.3647349108306,-9.600370835448182,14.267379605605031,12.072609108960895,3.464459178575415,-17.03720728334842,-15.248131172395421,-4.727411740782881,-2.5148072182936007e-05,-5.946659725598902,-0.7657542431794754,-4.2206591144236625e-05,26.33427115117133,20.748089086806054,15.231909319316737,1.4596023796164979,3.6179552082993425,-14.430887769171202,24.057540526909253,17.469718577015847,6.441513727445166,42.52500908991019,-1.35337596678353,44.38895652365847,132.6449356345006,-8.941856618989728e-05,-107.46326233876508,124.176234169969,-0.004000377400207445,124.4429776942331,-13.43701236777142,-12.70117549292552,0.0028007056189214906,-29.170203621897492,11.10168792472533,-0.002825778904790913,-5.679410602997402,-8.289204914059162,10.943809384305458,-27.38276233804315,-11.729359275814602,7.125536202023045,5.701687075463299,6.035645429617157,9.396985368336345
-5.383187898598395,0.0,0.0,-7.709274611362381,0.0,0.0,-14.431906571795457,-10.46227465928036,14.836180345055006,12.5688554705722,3.4169664011704017,-18.180062414541272,-15.790649706272424,-4.9125042133148495,-3.659432944283165e-07,-5.908817460674597,-0.5659043919407016,3.343779281547385e-06,26.591030428203403,21.08732051213716,14.822321657324853,1.296939299247117,3.801332941225836,-13.471251245790318,24.18562972835984,17.46738363609609,6.13259855711244,42.8447543449604,-1.214537437161252,44.69377150265709,132.6571303072836,0.0008908560303964875,-112.46043788475907,124.73963969090893,0.0005851630552250789,127.23128437900048,-11.940781252248506,-14.258441363823234,-0.005385186438572166,-30.292783383529134,14.117411399949926,0.005160818313021414,-5.032349727974934,-8.356645706151731,10.67579786920014,-26.753152737068874,-11.693911290049442,6.848437342086028,5.675409657800297,6.420069497903924,9.48673966402178
-4.326809473802647,0.0,0.0,-6.154551941190413,0.0,0.0,-14.92922011977763,-9.415420692010438,13.91636118338637,12.102885095168093,3.936522895381614,-17.142267169552916,-16.132312535175846,-4.842386654156371,2.760363236367914e-05,-6.000514341770279,-0.6574987559954569,1.1932653373453908e-06,26.527244457372582,21.077835269095836,15.955103275742985,1.2969683249873902,3.5394999023815537,-14.194649726315573,24.02822557662781,17.421364849120135,5.85770541413186,42.391323133997155,-1.3191292480956465,44.233747868414305,132.37793350169213,-0.0010669388467133307,-110.26049668477391,125.3332200454384,-0.0009486739129257744,126.04101268709117,-14.138342638633432,-13.348988368702619,-0.00381139220122338,-27.34252657637465,12.085077172818307,0.008122137976914868,-5.545695917960184,-8.48005051171039,10.885211086804313,-27.266509068403522,-11.88521864247774,6.9983809552118,5.741231895944528,6.307815141468884,9.649899609817043
-4.385791597064344,0.0,0.0,-6.077421875010464,0.0,0.0,-14.653508853118304,-9.74741709711761,13.845010257354375,11.67491388962669,3.0882693491564415,-17.260889462819677,-16.482263437788472,-4.975520766117255,-0.00023539024408358845,-5.88316134664548,-0.5911581237858409,7.8769802145261e-06,26.412821085563863,21.41681453853111,16.08138755497982,1.1065537419938116,3.720353874333413,-13.894226678476882,24.386020507416006,17.508170899412292,6.324030721056867,42.73790752630827,-1.3977759654919597,44.28440090903242,132.61912396372983,-5.3483205635262544e-05,-108.71357721762773,124.68807448226016,0.0001873340927523593,123.01717584316552,-13.30495432513489,-14.101964699266391,0.0027660531376257056,-29.564496253974546,12.307353007421984,-0.002179857038375528,-5.6790204565210525,-8.174059143583206,10.221088171620611,-27.405913071893686,-11.357734666480113,6.490780386264691,5.519101065513731,6.453919339661554,9.849432142460333
-3.3848074355411053,0.0,0.0,-5.88896468207835,0.0,0.0,-14.981440612394183,-9.233982738233395,13.72723652131121,11.924943541110883,4.147244311493303,-17.063307727376994,-16.578596790956947,-4.98720341604325,2.0296628725840247e-05,-5.92095099059626,-0.7631410658996841,2.4084138866730277e-06,26.520550591196663,21.0399434587648,16.028096247303097,0.971942210793556,3.4760248638471976,-14.527273762849996,24.176958722353934,17.62495786211132,5.994259708747249,42.41715435073058,-1.661249490339004,44.25489245473673,132.28527116764002,-0.0006662088430799428,-110.95886393302312,124.6429273410586,-0.002547494080215747,119.0723029974001,-13.56877153009967,-14.094816128391782,0.005458236329357047,-29.947726190428163,9.976820736887696,0.0075811777766256385,-5.9532668298257185,-7.874750773773819,10.470740386537125,-27.647224006257474,-11.17110644499575,6.837856825022449,5.5949171224245395,6.224015119989362,9.747039365532915
-3.250330059646908,0.0,0.0,-5.650462764968671,0.0,0.0,-14.800779406776597,-9.535053989957207,14.138799204910313,11.916397383916625,3.724052312154989,-17.184477340701886,-16.86596167306687,-5.139854403642572,-0.0001002853180792853,-5.953068539685498,-0.7276860062625263,1.2464493806075511e-05,26.497678753724973,21.365430507474443,16.11147072771002,0.9390510004248668,3.6382072970623343,-14.284119844733047,23.979062321743605,17.694307663991186,6.584003237590897,42.201948194514316,-1.8485362918126884,44.323801583813655,132.3396018231924,-0.0031356083561847876,-109.53931247632613,124.57892745558961,0.0003156788564116041,121.40547486164745,-12.758324697892258,-12.35744994557866,-0.0027927984035896075,-27.731558321279696,11.789010305982368,-0.008122473933635032,-5.4603828173045414,-8.159287098429202,10.172283442475011,-27.188252315260904,-11.326130664356727,6.450584482768294,5.494064706359716,6.306078028633161,9.715809974778503
-3.5301652888811104,0.0,0.0,-5.498675403361664,0.0,0.0,-14.720840379962592,-9.381252977439958,14.056828238319675,11.846408457222095,3.510831403568071,-17.471692979891095,-17.31794510751748,-5.172980919249992,-0.00010071137303685719,-5.8243745859317535,-0.7506531314142583,7.316765323276404e-05,26.834157073032998,21.327901395155596,16.156311511528262,0.9131674519478171,3.6614617966995855,-14.369390834369383,23.838128990878115,17.812290407363914,5.796217851989925,41.48313748451608,-2.1427176534855428,44.252345191044036,132.1012508759146,0.0006011987781554801,-109.9916713270348,124.00986126304177,-0.0016783474638502537,119.83327096987237,-15.06976889885105,-12.11018948333502,-0.001402383799564627,-27.246317003866995,10.165033143323283,-0.0045179757442686845,-6.025706794547326,-8.206229028600728,10.635701138147228,-27.736870734825658,-11.53949239923088,6.867627108798612,5.717278940054016,6.284550112061861,9.447493223886157
-2.9736877868749407,0.0,0.0,-6.221364331903922,0.0,0.0,-14.684562297904192,-8.72372693783293,13.998148658946313,12.29190836915669,3.472425762609704,-17.708965004536935,-17.41814461931384,-5.421328441651639,-0.00021920596290284295,-5.807038676291329,-0.7013931845435318,0.00020909078847971142,26.877371770725343,21.269994814294954,15.54009142258673,0.6598750847093773,3.652734333644117,-14.265424813215425,23.898455290747602,17.661976048700428,6.2609324158842075,40.94641602825708,-2.4026275867418514,44.15793422570684,132.0697990909829,0.002729346482554957,-109.61933565331074,123.94112210373959,0.0032662430716727084,127.40209386693435,-14.005468447856241,-12.751213097366401,0.00013724285203911438,-25.915897067011592,14.16697157854893,-0.0039921569607208485,-5.742677252867409,-8.210211250577998,11.009858741255686,-27.43687368520026,-11.68013484658863,7.217386935066683,5.562895692771494,6.349316567144445,9.420255693830992
-3.5601639856526726,0.0,0.0,-5.460894549117089,0.0,0.0,-14.579199139481736,-8.990303008816984,13.65550201426291,12.052698413117746,3.6333624365094916,-16.992227810784446,-17.49278954015311,-5.399769376366498,-6.188893297922586e-05,-5.847086092532413,-0.875433905727256,3.901919746136954e-05,26.90511225636626,21.44418300634051,15.891586890441452,0.83190921183333,3.6886413278991066,-14.594358865944542,23.88609278664481,17.549587599012526,6.50422437492046,40.95927602247375,-2.4908112651228764,44.01724233699946,132.2238960539398,9.554378087421134e-05,-108.57775314034825,123.74853062650485,-0.002292314018977247,122.55309643809993,-12.6756424917323,-12.660575856625698,-0.0006066449013196708,-26.902949917011274,12.033360062095952,0.010800454907674981,-5.708932065363675,-8.460554351159816,10.917600188519776,-27.426745395586813,-11.878966182271718,7.036169106465873,5.538077782140925,6.459384056592641,9.838973678536302
-3.550673062191004,0.0,0.0,-5.089193534704789,0.0,0.0,-14.55307304082768,-9.20961445227202,13.742377269097062,11.884092740944364,3.5599781779019946,-17.459807275842294,-17.766513948943174,-5.300451632956422,-4.711400555862301e-05,-5.901773094801228,-0.8717986235666595,8.165958677638953e-05,27.005834796893883,21.533952878288247,16.331302553855878,0.7820561610715412,3.7980015651902868,-14.356979024507242,23.848653067878573,17.545995481577204,6.134589272720735,40.87405277449493,-2.517288597937585,43.83406755957534,132.02302118737674,0.001085157123720474,-107.93570043534385,124.09526848442238,-0.0009832899282324757,123.30863089421064,-13.629631227096393,-12.22232246710789,-0.0006224089976449137,-24.224178762170467,12.685116184577693,0.00878187723042749,-5.551847943164469,-8.29008507819999,10.85161142318862,-27.259550415110322,-11.696433469848282,7.038627095310624,5.5415449094760145,6.459406847993877,9.754485888919984
-3.002932405978446,0.0,0.0,-4.86251860074773,0.0,0.0,-14.89426679452237,-9.19975384935017,13.674583889242813,11.96989626150644,3.423009899288695,-17.282780726072136,-18.058890055356677,-5.154274380861512,-0.00034748975713749065,-6.1178342809647415,-0.8413231179220739,0.00023809451395738276,27.06312101381815,21.284760066967614,16.827029662644673,0.7964493975845193,3.476832025336077,-14.669549895328718,24.113857975944278,17.392316053464448,6.16761168127199,40.979781730155594,-2.515789085037345,43.94698859508728,131.99755026313815,-0.0009822040746829308,-107.07184667758035,123.7492782422122,0.0003059166599547177,122.8965972001133,-12.827596527908923,-13.113457158895987,-0.0030541962233028848,-25.58490477076247,12.208360949001952,0.0030561789019434805,-5.582265124981186,-8.516787809463484,10.923754998639042,-27.30418379328175,-11.933459785434003,7.020677326172536,5.410729825998327,6.243015415648696,9.738654445559506
-3.060739380131254,0.0,0.0,-6.887312957509602,0.0,0.0,-14.746587704987967,-9.42429932788867,13.4410266024913,12.737293946510738,3.164042919746127,-17.57660017779556,-18.330819521014426,-5.000166237370158,-0.00012346237443809296,-6.029542720339632,-0.639390795179843,0.00012905316930034941,27.458565037284096,21.13531490279926,16.602224757964468,0.6514921609476486,3.5165137651745972,-15.096078411786044,23.880050743641284,17.315507613220905,5.505395782849159,40.18985366872512,-2.4893164289854806,43.40758053841981,132.06398693706706,0.00017610067022246184,-106.44848573536665,124.29136733174008,0.005853030505258546,125.15458409025605,-14.025384080636409,-11.833657229741787,-0.0017082387948859255,-23.653830953213618,11.324282852059065,-0.012441305495338952,-5.4976716580356655,-8.59044871204362,10.716961837924536,-27.234734760389305,-11.926172180904036,6.7986487761578696,5.645543995094375,6.1423587027907,9.381113782837687
-3.794176256838332,0.0,0.0,-6.067350994337717,0.0,0.0,-14.521514326127035,-9.030625710936539,14.168059213845655,12.733193853005128,3.9320974224914886,-17.49710807154668,-18.25655894715574,-5.334389306623326,-2.707867491942214e-06,-6.269940022298183,-0.7288542351895679,6.26334747559878e-06,27.366664945595698,21.16928367999251,16.112485084188187,0.9212080832957132,3.2945172584960187,-14.771670558234495,23.593598073012373,17.540934847862683,6.178130995358337,40.96419959996881,-2.5230825903395795,43.775232554678055,132.2880000024978,0.00022530923467832734,-108.11724720844548,124.34938388153329,0.0002640782289022374,125.24994923148394,-13.266868138045387,-13.136336854698584,-0.00168151345083769,-25.636774089662556,12.55141598775298,0.012981752435825356,-5.414608482535947,-8.49117217185946,11.157677732100916,-27.123566681050903,-11.995268572231433,7.250076748200642,5.50407162368832,6.042895629028488,9.32198307851544
-3.031905364678627,0.0,0.0,-5.4981804851881435,0.0,0.0,-15.017464555072559,-8.343845510076799,12.986990714659044,12.419932030198304,3.7341476738172754,-17.2903912826054,-18.688979532457644,-4.978329129597664,-0.00013889331157021932,-6.33358400899185,-0.6186286965342376,-4.951046237017748e-05,27.566727071042614,21.345214334585673,17.154266447830878,0.7971836327652791,3.460428522361324,-15.019435203560665,23.6765005587044,17.57418544401593,6.508271715009385,40.40842070795895,-2.4152333905284404,43.342724212942215,132.12832840066838,0.00011706434362551681,-105.56552780363181,124.53226492314731,-0.003232310748991763,123.36087071887214,-12.547201040267904,-11.979730796616357,-0.0009426381106022004,-27.42576250937162,10.065191610482842,-0.0026263789763315425,-5.641485651560533,-8.388535447031975,11.090890908240974,-27.34558318810465,-11.87546334847628,7.226131150112631,5.529362612999347,6.262057356018129,9.307609635249662
-3.890827746998979,0.0,0.0,-5.748456961844669,0.0,0.0,-14.381949438781207,-8.737067271924968,13.618419734123263,12.44298020297118,3.5039207641662804,-17.71729210631315,-18.473791141589405,-5.551637451060351,-2.6481551432971584e-05,-6.25002914783066,-0.706537761121002,-9.930864295354089e-05,27.21818693381219,21.799855766974154,16.49015297512725,0.8532406657666173,3.637069274847583,-14.000589032269618,23.59998510869735,17.677067957058416,6.556623512755568,41.12862697671868,-2.4178636414379295,43.644242982730006,132.2302218437179,0.0032540382083270925,-105.50691477343163,124.64449197418845,-0.0011080988686757276,124.47704512100164,-12.51517103749479,-11.744852560852095,-0.0011926305437769348,-24.64990561157515,11.72956840420753,-0.0012984712302451019,-5.419107559140513,-8.160084911221919,11.095970426419303,-27.10537584189234,-11.665063910700258,7.317175421540173,5.265329928122508,6.363765724258917,9.451934352523313
