PaulMeinheit/Bachelor_Muay_Thai/processed_Data/E3/teep/scaled/JointPositions/scaled7.csv
Neck_Joint_Position,Neck_Joint_Position,Neck_Joint_Position,L_ANKLE_POSITION,L_ANKLE_POSITION,L_ANKLE_POSITION,R_ANKLE_POSITION,R_ANKLE_POSITION,R_ANKLE_POSITION,L_KNEE_POSITION,L_KNEE_POSITION,L_KNEE_POSITION,R_KNEE_POSITION,R_KNEE_POSITION,R_KNEE_POSITION,L_HIP_POSITION,L_HIP_POSITION,L_HIP_POSITION,R_HIP_POSITION,R_HIP_POSITION,R_HIP_POSITION,L_SHOULDER_POSITION,L_SHOULDER_POSITION,L_SHOULDER_POSITION,R_SHOULDER_POSITION,R_SHOULDER_POSITION,R_SHOULDER_POSITION,L_ELBOW_POSITION,L_ELBOW_POSITION,L_ELBOW_POSITION,R_ELBOW_POSITION,R_ELBOW_POSITION,R_ELBOW_POSITION,L_WRIST_POSITION,L_WRIST_POSITION,L_WRIST_POSITION,R_WRIST_POSITION,R_WRIST_POSITION,R_WRIST_POSITION
X,Y,Z,X,Y,Z,X,Y,Z,X,Y,Z,X,Y,Z,X,Y,Z,X,Y,Z,X,Y,Z,X,Y,Z,X,Y,Z,X,Y,Z,X,Y,Z,X,Y,Z
0.21043000000000003,0.36949,1.4628800000000002,-0.07325,0.59205,0.15535000000000002,0.24178000000000002,0.12813000000000005,0.08195000000000001,0.03039,0.6627400000000001,0.5527500000000001,0.19238000000000002,0.24199000000000007,0.47813000000000005,-0.018460000000000004,0.41732,0.9087900000000001,0.08619000000000002,0.28296000000000004,0.89607,0.15035,0.5337500000000001,1.45794,0.20423000000000002,0.21975000000000006,1.3926700000000003,0.36058,0.72198,1.3799400000000002,0.2660500000000001,0.22772999999999996,1.12067,0.36138000000000003,0.45686000000000004,1.3692400000000002,0.3672,0.33129000000000003,1.3362000000000003
0.20708272917886028,0.37078260754565884,1.4654313246248707,-0.076637280155148,0.591215698129613,0.1543969287791485,0.24050816478264164,0.12615634539290288,0.08261522090004662,0.028095500947600556,0.6620737219202715,0.5514880026404945,0.19124337790318308,0.2386972300267359,0.4791743481343102,-0.01659619930095755,0.4178370664527312,0.9088822918657673,0.08651823824476877,0.2821857540922309,0.8972361376979197,0.1503696108767193,0.5371008614034157,1.459224656207768,0.20034109526612864,0.219452570934923,1.3949099388262023,0.35575168234839016,0.7311803881172851,1.382663046280154,0.2654328478550866,0.2257144103315658,1.1236320567838207,0.3662606146665955,0.46617337875977993,1.3748431299892592,0.36346510093934226,0.3317545544670913,1.3394018603290212
0.20183747142814246,0.37244914611759417,1.468757519660182,-0.08137378353421623,0.5901239860768994,0.15311075945072866,0.2393792766858509,0.1238006172368969,0.0831356743322631,0.024747205331706726,0.6596144308087064,0.5500746315940306,0.1910553555534087,0.23497371320127192,0.4801971791842794,-0.01522060909261887,0.4178976895756932,0.9097324361107694,0.08668138013760092,0.28134179948741467,0.8980404877482647,0.14907000238225118,0.5410624184862831,1.458919209516669,0.1985017652569132,0.21847586495151786,1.3974279658372755,0.3440809667367302,0.7468907714603584,1.3860225663871495,0.2652468428406451,0.22343899282267213,1.1265133776093068,0.382980278390358,0.48443665929447344,1.3887107015479432,0.36145122738359514,0.3323220719952698,1.3416919020225673
0.19686296195178513,0.37260412410028865,1.4738493439770144,-0.08436400789224643,0.5891987112059028,0.1522856282550126,0.2409584762989461,0.12217838900885149,0.08370922627398628,0.022500837478780202,0.656913528851957,0.54935349528463,0.19184493552524362,0.23096553985718496,0.481346406158117,-0.012273609123882532,0.41672670892500224,0.9105811476136414,0.0891289419261944,0.27976600798775714,0.8993195918979269,0.1411651740603776,0.5410848568003934,1.4612684329169543,0.19650239680086554,0.21876230063868754,1.4014939488064007,0.3371011991452729,0.7469230572172072,1.3909042140557881,0.2660278186675046,0.22306542933686693,1.1312740598359425,0.3739061227733806,0.4841655561695557,1.3920219108470175,0.361315650815894,0.33409053746493,1.3457519189186524
0.19216288239590823,0.3724653248265273,1.4795714991027662,-0.08742399088761373,0.5875318915337266,0.15114700657088417,0.24141579212348266,0.12080798289581801,0.0842428370774954,0.020450733562141957,0.6527333225066688,0.5483646981010151,0.19328949356340952,0.22716923268759237,0.48264630919362295,-0.009223645593484636,0.4160939695039713,0.9123713129240785,0.0927306943011519,0.27957712832866655,0.9007089044507,0.13182636234082015,0.5373623576659223,1.4661802731992521,0.1967653888851922,0.21916744814449102,1.4059065213403712,0.33214050965898656,0.7390542729334786,1.396148161404058,0.26958496862383075,0.22009119022703305,1.1365202218135093,0.3503801778662399,0.4743973232693274,1.3911134838079837,0.3604198366168955,0.33495549560493404,1.3509053327461815
0.18572364927918977,0.37264180657989227,1.4849573019375855,-0.08853152078854346,0.586620648537081,0.14982639471800147,0.2417891110538485,0.11961182724195449,0.08488644345104743,0.02073848510700056,0.6481229146987104,0.5472458043156208,0.19582214479341808,0.22531308425694901,0.48372101074907903,-0.0060958654402821135,0.4139576196339206,0.9130717447942056,0.09731235084035833,0.278476154826927,0.9021790216994663,0.12805233454049594,0.5377299831230637,1.469328166850577,0.19601048377672783,0.21781984086513848,1.4092606313643765,0.3238724234531409,0.7452845449253618,1.403875507438848,0.2736124403221228,0.2192736934643623,1.1412177816869153,0.34882793623693004,0.48120342330483,1.3975325211040939,0.35905396475251183,0.33621914403805814,1.356697644555826
0.18147818969622512,0.3725795947447459,1.4890852411362203,-0.08931438128696693,0.5865684545788397,0.14986194714619938,0.2425394101463425,0.1209275201237793,0.0850117229501585,0.020667907730944835,0.6428450081901399,0.5478600867747426,0.19739145564969268,0.22491124151194983,0.4843998512079795,-0.0028884441910594673,0.4111996215296039,0.9155103652453849,0.10305823808366671,0.2777540041276072,0.9038523486430226,0.12487563861574882,0.543155387061299,1.4717344388733773,0.1983331998048174,0.2166104757305969,1.4134356420216876,0.3088174683786555,0.7628295138214427,1.4116134774659792,0.27965668103516855,0.22043920197558187,1.146523322894921,0.361122964091781,0.5027141307414768,1.413971969164622,0.36149316951883226,0.33624133722841837,1.364012888920253
0.17966635796430042,0.37167657425743394,1.4918186840544923,-0.088004677956142,0.5847113245875395,0.14955879534853248,0.242496598139968,0.12265262015980113,0.08417677718563032,0.02167641902972373,0.6395765828621267,0.5478284893239769,0.20180084737039522,0.2248950501987824,0.4844886441612551,0.00123471695918931,0.4077199841578252,0.9155368273834149,0.1078625334364423,0.27477861908070983,0.9043967188526635,0.11644478338802662,0.542378176219103,1.4753369922276989,0.19978263337949925,0.21729845644637577,1.41551706592424,0.29330483181596584,0.7680424665238671,1.4161312707557525,0.2870658314699865,0.22151634057925096,1.15049564961099,0.3591186400716043,0.5110566973053356,1.421386246024891,0.3629274420736008,0.3386996682708251,1.3694035128601578
0.17646759805393958,0.3696088824911273,1.4950525394112504,-0.0868280459191905,0.5831329380112166,0.14813476599539635,0.24394298804176437,0.1246168226202304,0.08268633898201486,0.022752807147113623,0.634941816183291,0.5468500775085549,0.20512576515138256,0.22547731397795698,0.48353800384922235,0.005244913062506558,0.40325731099686624,0.9148173016305664,0.11362280391881822,0.2716799962704141,0.9043999118063468,0.10825664113394996,0.5369496425406372,1.4773291307580934,0.20442808903207582,0.21521256970877095,1.418385209507098,0.2743934623243018,0.7707217233234911,1.4184945095280648,0.2933520134728988,0.22246554901328644,1.1539738789170324,0.34787283651185147,0.5158595899116539,1.4253561529657228,0.36342380273931085,0.34059223305855113,1.3743097464812866
0.1752176971537037,0.3673931273999629,1.4976609915600525,-0.0838243363713536,0.5804146600903636,0.14697497419302877,0.24584167919177413,0.12461231955280036,0.0819173998125062,0.02506678030165026,0.6286977218014015,0.5463168829608863,0.20888594945616007,0.22590505663756452,0.4828292775050912,0.00867743678897735,0.39928687713968763,0.9157580124091725,0.12063854255130649,0.27080380846540764,0.9045343953609001,0.1007482166434029,0.5315368807924862,1.479472082292675,0.2105470758038917,0.2131984545349117,1.4215366000827303,0.2509543875089165,0.7752699714715774,1.4183116283227244,0.2986624726333778,0.22197757962566017,1.1569065770075866,0.3358451305091944,0.5239646531310813,1.4245683220031942,0.363335245983334,0.3411977160795167,1.3782914863211784
0.17327003428997423,0.36488918872795756,1.5001957788761677,-0.08243006078921067,0.5779280679371605,0.14550235417393179,0.24719582398246165,0.12367532235553848,0.08158399924352658,0.026868079260212216,0.6231623817059698,0.545089425478176,0.21364704087173222,0.22596313102787235,0.48254769102519857,0.01310018403650772,0.39559864310114395,0.9157776721391174,0.1273129760247464,0.2690944864101421,0.9048280566579823,0.09208125643592008,0.5264282563509091,1.4777894405397916,0.2176083119111291,0.20846823309691612,1.4233863443026378,0.22744249657458032,0.7788585940922833,1.4172315523978822,0.3051502403775509,0.22274269757151596,1.1588050206636784,0.33222405989502024,0.5353658297639291,1.428765067083365,0.3651508376205114,0.3446812873837525,1.380029724941272
0.1725208025821364,0.3614219926986951,1.502740830087306,-0.08131874665106616,0.5750430135874559,0.14448180938429142,0.24871889926531898,0.12332142640523289,0.08179337480247413,0.028874798330290823,0.6171032149710278,0.5441687338868024,0.2174149268881969,0.22593989749597082,0.48285248630478583,0.01799423062067054,0.3921217344184662,0.9165203349640796,0.13397417168796813,0.2672044826854184,0.9058988334630783,0.08117750853249096,0.5181530234758175,1.4769651507871284,0.22350498733154134,0.20561978048219737,1.424391685828401,0.2017407547493672,0.7770800132929058,1.412706913379499,0.31243197741306666,0.22212719773293427,1.1604040994554108,0.3228022842066668,0.5414078535510287,1.4268438136944057,0.364827923299513,0.3483097242293445,1.3811818427194409
0.1722682036858728,0.35719497335383793,1.5060390474116876,-0.0788654678536927,0.5711680441129136,0.14419454824912778,0.2488395258900115,0.12302889399331887,0.0814619569921733,0.030890320782541555,0.6118206568859129,0.5441537519304883,0.2212726360458646,0.2248450020614645,0.4829920702314356,0.022615216365650722,0.38785847846608595,0.9171896509221603,0.1409943662339917,0.2652001655658065,0.9067419863696834,0.07312244561283741,0.5093372674057162,1.4793150382984888,0.22974832800044534,0.20247375055547598,1.426045573265635,0.17264650762205355,0.7734421377741357,1.401514629712567,0.32118063009252906,0.2232478324351487,1.1632148574995054,0.310855694531751,0.5477232964990842,1.4201695472467966,0.36608100816972106,0.35243235500454045,1.3839048177823892
0.1732626242270414,0.35266184685285396,1.5079955654091097,-0.07550472114782487,0.569162563205913,0.1438071442997867,0.2484591773435024,0.12336240808501517,0.08097317886163438,0.03316818678198632,0.6051474659184668,0.5445076852246951,0.22474661048041988,0.22275564960298538,0.48335944758953253,0.027861361093403182,0.38313629895343465,0.9187687644234608,0.14851737688051608,0.262754309772343,0.9078892277958525,0.07018072673207862,0.4978883764510258,1.4816166030197973,0.2370564032824072,0.19924525878285576,1.4285526157236499,0.1404477386427914,0.7660916121596738,1.3875895885686238,0.32999606675332444,0.22706064120629918,1.166897674303752,0.2966008700702036,0.5533772600510283,1.4153228671975973,0.369292052320847,0.3560943884306066,1.3887482957121433
0.17335462595576176,0.34887729341576035,1.5103964557329785,-0.07267431047528417,0.5664475316275841,0.1429336959827114,0.2503560533139294,0.1219896382261763,0.08154161197332933,0.03594934552198219,0.598502068662127,0.5439899572512805,0.2286915530004505,0.22260275533485388,0.48374621621259895,0.03377305611806062,0.3784181947298967,0.9194008489053157,0.15649735715119453,0.2600779821810104,0.9092103868462285,0.0659299694365432,0.48896583382211156,1.480252035593099,0.2431714012632038,0.19766864931046474,1.4296988137844029,0.10188391339713744,0.7580542884276011,1.3706831721663524,0.33871621915390565,0.22857650518208297,1.1693390079953805,0.2738010826979914,0.5593248350073927,1.407462203807037,0.36702336996229756,0.36178598167099935,1.3903898687330696
0.1759477419027873,0.34419193387027924,1.5113174723331597,-0.07067855755967316,0.5636524341769332,0.1424609388471076,0.2514714164703142,0.12226616320290777,0.08183164767561182,0.0394832992214827,0.5913166713140879,0.5434131104528487,0.23252573286342576,0.22113635727053702,0.4846037471047846,0.039819438011316086,0.37376906607961724,0.9203143354281107,0.16447597340885053,0.25740502847410524,0.910857141247242,0.06057095899788097,0.478169842103135,1.4763814263678705,0.25094019138212725,0.19652414392193773,1.4309210871396796,0.06212149914563317,0.7424097881774693,1.3503394276071774,0.34560363225658175,0.22753879502415642,1.1702512966723284,0.2585567665075818,0.5710947842798313,1.3999971746902236,0.3675275030483965,0.36372158573923863,1.3902196748744438
0.17910437796724843,0.3375139394565947,1.5134179411015842,-0.06764891040560227,0.5603035280044871,0.1414850468422773,0.25237452366981017,0.12130657426290031,0.08202089405479053,0.04213606731446181,0.5845342300120663,0.5427711426015476,0.23641598176600617,0.21882182613186973,0.48524653781600724,0.046093053945844405,0.3690247858407072,0.9208150575920098,0.17272288621943274,0.25474766965153217,0.9121973728469006,0.056033704542248666,0.4698773611094284,1.472275289087575,0.2577926931961655,0.19400955062789008,1.4312568999736839,0.029517612236810122,0.721831459470338,1.325563095202826,0.3516126218874022,0.226825058731422,1.1705088455034647,0.2482672279193218,0.5865725436324266,1.390790104177099,0.3704917877862819,0.3635906648524646,1.3903851364932176
0.18012085998811217,0.33440303397360555,1.5141739568282004,-0.06332233878028655,0.5554642304064447,0.14025129299708253,0.2533288779570753,0.12024775139214254,0.08185583777650736,0.04504485737661189,0.5784011993241812,0.541994528505299,0.24093498395653218,0.21759037179194066,0.4852489298256081,0.05259096407662209,0.3635955185792033,0.9203952540561973,0.1811576634313932,0.25141987480579225,0.9129371242224,0.05108520185221683,0.46149967214959037,1.4698219526636302,0.2638638645483638,0.19170202551295504,1.4304185517734493,0.002954486007739816,0.692649544884245,1.2967090598697932,0.36027889116098505,0.230932529545583,1.1714993797739692,0.2337978086467761,0.5984095129173725,1.3874494905269168,0.37274306420299186,0.37081301652265697,1.3898699571457866
0.18381212208546438,0.32996692043413345,1.515281425402765,-0.060341470239884835,0.552392642339128,0.13991095423414665,0.25419882914255065,0.119511069386965,0.08147897140531057,0.04837378122671613,0.5726415892427167,0.5417043302471265,0.24626744904720613,0.21582906762596973,0.4852343523391689,0.05815071770756995,0.35770114135397635,0.9199715955669944,0.1899735754765865,0.24931954760367128,0.9134206891328976,0.046577267337978755,0.44772862347543335,1.4661569546300501,0.2723786880985971,0.1930977311740046,1.4326993896563613,-0.012787972484017515,0.6595806768209116,1.2730221165148972,0.36721632350656963,0.2299020458591344,1.172855014812398,0.2169359481793783,0.6029374621190696,1.3930938393091514,0.3761867018203108,0.37430681927927334,1.3884308082479466
0.18600260788028386,0.3263740887766487,1.516358145160315,-0.05655745502806225,0.5490570987326977,0.1374791321351331,0.25434660749441473,0.11967801369160284,0.08192321302476319,0.05025153111984789,0.5649387083494503,0.5399760761697197,0.25030284049487445,0.21439483375726673,0.48611691164264953,0.0640914226122992,0.3516082493478125,0.9190278430423053,0.19864448803832616,0.24650108499905626,0.9149976660737874,0.04262274557986572,0.4348258875031014,1.4599006107838879,0.2796222953480766,0.1945331798299103,1.433468628799757,-0.028077046675959914,0.6252871949614102,1.2491061976150828,0.374819288433731,0.23191755638729594,1.1738328114396666,0.19417254997350916,0.6098587084641842,1.393209465365775,0.3806390744408724,0.37571660225149217,1.3899251507228592
0.18805166397624856,0.32325554981422516,1.5167614077091793,-0.051123953333218244,0.545336902553246,0.13662900849713328,0.2550016667241908,0.11929280767424241,0.08190219849230433,0.05308897814171207,0.5598920618157954,0.5398680532753323,0.2545456860858734,0.21382106083337657,0.4861526213471777,0.06950510719818133,0.3443497658881889,0.9175626536114148,0.20666828584219604,0.24261063392696092,0.9157011855028518,0.03952015864647143,0.4234227598295626,1.4544466091249888,0.2870353250793149,0.19348473467170757,1.4324796613552282,-0.03604092192266455,0.5893924586359299,1.2254203024416785,0.3840943714724325,0.2358966863218315,1.1743063364723283,0.16868312491915974,0.6122106994755481,1.392655337298368,0.38632250642791854,0.37685737870060243,1.392335804089969
0.19104164354143144,0.320406993967097,1.516535791495999,-0.04497211280784593,0.5434290220906226,0.1376014042548782,0.2550250146216792,0.118436077603943,0.081520485380406,0.05697033119229092,0.555671099448883,0.5414841258977935,0.2593357945816243,0.21311624550550928,0.4857139818336812,0.07433479180310074,0.3377726734065377,0.9177807707351803,0.214096409332735,0.23962929115206227,0.9156945036505474,0.036860692521527794,0.4122143644830324,1.4488446287990813,0.2967696021559671,0.1939621536200423,1.4339948446658803,-0.03657256878645183,0.5590966403333724,1.20647946746741,0.3918388843043296,0.2413998766458081,1.1759533948781207,0.14796428116773563,0.6034513521703191,1.3918909734738976,0.39084582156535413,0.38363217331698857,1.3931710471085053
0.19159880355193354,0.31702903501820795,1.5168674142612768,-0.037289089490312274,0.542094063158256,0.13958279180777977,0.255734899100334,0.1191022721695831,0.08148636891995337,0.061256179417312547,0.552771192288384,0.5443527690192848,0.2636685185908029,0.2115806022969419,0.48613359713155835,0.07977009992670922,0.32869159459643554,0.9169507599623735,0.22321056418104626,0.23600371157513006,0.9167199312019809,0.03307674927341771,0.39912998705181024,1.444492988004591,0.3054264214057785,0.19876670758639756,1.4358345270011486,-0.0339326986005236,0.530163507144576,1.1914153871745818,0.39936119358134575,0.24711519651544303,1.1775503482876022,0.12723662830915924,0.5938556931715351,1.3923281802203427,0.393559361618246,0.38836620682980644,1.3953280860569395
0.19295592437107487,0.3131962627070415,1.517320722452206,-0.027544937316998485,0.5399298090427576,0.1417321162628756,0.25608766163219804,0.11949597281365293,0.08138841483626101,0.06482848048420653,0.5509002703439684,0.5479461873205174,0.26743078362486306,0.21080211438396307,0.4862163126677662,0.08459475916466642,0.31973114095924027,0.916126656175034,0.23221021169251344,0.2338572544481863,0.9173410516644834,0.030558663508137424,0.37963124180151786,1.437765344701835,0.31425358310489393,0.2054455616050268,1.4357368804965873,-0.029871724397275038,0.504691248217176,1.1800510380947056,0.4101754765013518,0.2552411704257061,1.1784541764293097,0.10688331329358514,0.5819805678483078,1.3938844255750222,0.3945021701219188,0.3932348283761167,1.3978204396433371
0.19549417868063618,0.3108693963045328,1.5168106617822161,-0.016344566466892183,0.5370926461803837,0.1430771795883611,0.2578020384737002,0.11967438693829947,0.0815663629322852,0.06845163711326344,0.5473409916628944,0.5509598830965671,0.27009090501341715,0.21086887757004544,0.4864034618830154,0.08805065853545636,0.31188737392594595,0.9164248464553321,0.23866918888540964,0.23138094149391158,0.917940425514771,0.031096261137843393,0.3633975705408293,1.433895935604005,0.32241892392792204,0.2078223137060246,1.4366403672350345,-0.023813774799536076,0.48460003826843934,1.1731154087813371,0.41878941070226783,0.2647467721324642,1.1810230390843504,0.08927441605132633,0.572278309994193,1.3965525793196212,0.39516440199174624,0.39766013403945094,1.4027985663572917
0.1963912797830504,0.30838587057150874,1.5167849964417,-0.006065686908096326,0.5339220979069107,0.1426951366776091,0.25731994765696875,0.1197006227878354,0.08115301183274054,0.07105347467329108,0.5442297807877741,0.5520934918333185,0.27359789824051545,0.2101775173816513,0.4860033559335744,0.09220371155211003,0.3063210684966653,0.9158755730768341,0.244882702216139,0.22981024882817405,0.9177703306152288,0.030860786034870538,0.35199629164665014,1.4333168015165305,0.32898803717101105,0.20995021135374667,1.4378118883592585,-0.017830567336111713,0.46497052447265097,1.167656048231233,0.4275173120149184,0.27619896159855084,1.18527050266499,0.07450335040558578,0.5590524315743642,1.3979282341985182,0.3908290251803733,0.4051666129929439,1.4076020662684796
0.1953188706561667,0.30690015238252644,1.5173020898617184,0.0013481589515731427,0.5301893668764682,0.1408240641263137,0.25778466475103873,0.12018199234331962,0.0807592655872339,0.071481712917854,0.5385476507379185,0.551527950176259,0.2775184081095201,0.2114394583607523,0.4852808374839982,0.09584779564226922,0.3015709554728213,0.9157183859863609,0.2507542956638121,0.22967729146882154,0.9172387014081986,0.03113285815996668,0.34569299523972774,1.4335525650161367,0.33524550170451944,0.21342561659402084,1.439121783909259,-0.014333903615737525,0.4517333833789207,1.1644807449286123,0.43221430566701224,0.28347356464891493,1.1870008234324891,0.06160499190912021,0.5475491004286082,1.399965478184396,0.38654773821641786,0.4095776930552763,1.409317428740798
0.19551404512333154,0.30664131488031043,1.5165623560521673,0.007490708679209654,0.5245312922112715,0.13944648895703704,0.25844667833295903,0.11991554055298272,0.07994968897289303,0.07207085489822196,0.5329353257457203,0.5510612283230419,0.2798758248685827,0.21255761710204807,0.4840764528093596,0.09906344575359437,0.29598383629872915,0.9150701934514294,0.2564283762789468,0.2296375432251822,0.9162712053083009,0.03208651802272138,0.3371948293968124,1.43335513809733,0.3397064601448266,0.21666453416713588,1.4395286741827928,-0.011168315980256176,0.44200594719262953,1.1634339665126252,0.4360981043232468,0.2888855974474954,1.1878040880811938,0.04934225679211962,0.533192125114447,1.4051518861287968,0.3829209456200344,0.41278366461227434,1.4096873073869005
0.19433138987586718,0.3060352397012508,1.5166222247198544,0.010045052913329607,0.5196142232355874,0.13740380490067136,0.25980660805759126,0.11904827139924454,0.08024536842875916,0.07196571584573781,0.5269872566251648,0.5494387463289483,0.28163547761014396,0.21336404337995188,0.48396181103016617,0.10258937472194256,0.2922031567816615,0.9145752698214537,0.2615377464248656,0.22976928873571517,0.9163544788044808,0.03148523548028251,0.3305506348306198,1.4343369006594107,0.34366011580701183,0.22017066554413897,1.4393623478839623,-0.011592638847048859,0.43418557306887023,1.1639378524173702,0.4390683472308125,0.2978601229676403,1.188895670569149,0.04043810560538119,0.5248746141281608,1.4078059176866107,0.38173983608575396,0.41618849850588313,1.4127684553183386
0.1933058796389191,0.30725465758439713,1.516412908209207,0.009500954270129649,0.5116359319081121,0.133254923898894,0.26056125575740313,0.1190633910189705,0.08085988954823582,0.07024357128682629,0.5182105441828145,0.5454888592411361,0.2832143675967193,0.21403095129424868,0.4843759039898532,0.10462979242786787,0.2911925805028504,0.9151636392999816,0.26488240295287735,0.2321841976425697,0.9167745388133015,0.03263695730318362,0.3276989989552887,1.4341673156024308,0.3453395913095139,0.2249573012456941,1.4386855332099144,-0.015633133070913498,0.42691736969856453,1.1629965945396608,0.43995367114595946,0.3047420848602015,1.1885745005018848,0.03343823318424419,0.5192533296413773,1.4068585741546946,0.38013237975435576,0.42144724137447487,1.4126586175780143
0.19172531403472204,0.30758652979998796,1.516168000224072,0.008729842748601143,0.50336344742543,0.12761372477732802,0.26078067464269805,0.11836658865727442,0.08094392901286497,0.06788613733824246,0.5102041034339254,0.5400688582318572,0.28448614916366916,0.2136338412993094,0.4843348984587998,0.10804530264492457,0.292076375822609,0.9144869429738999,0.2684532727349025,0.2335007784436047,0.9167521113407293,0.03428361268775272,0.32452426492355757,1.4354109498009284,0.347204680624936,0.2281119419792273,1.4384470300898995,-0.02094508673844983,0.4196258423315151,1.1640833536076558,0.4406484079927183,0.3120692703204551,1.1892629153569896,0.03008846911191128,0.5185822746720734,1.4049252349453183,0.3744993644129037,0.43077761754366456,1.4104940031174724
0.19116184714835635,0.30913658835259056,1.515788498058355,0.009049437941730739,0.49348991635366124,0.12309092384865739,0.2614422924785733,0.11904595446285542,0.08129700669542533,0.06597860609580114,0.5039153266001724,0.5357870103491307,0.28466156392698794,0.2138900419973279,0.48480948870137225,0.10977258953457655,0.2931786971012897,0.9140104340737994,0.270852264006404,0.2365210023811803,0.917170069128083,0.03121539981753419,0.31944513363332255,1.4335057225673122,0.3476538553235269,0.23362010921263088,1.4386522660341121,-0.02726090213264446,0.4148445068035462,1.1629659881531451,0.4405433221697344,0.3160866987913388,1.1887574250588364,0.025543638325867153,0.5193781216437106,1.4010539403929794,0.3702406782365442,0.438000064983531,1.4069477600535811
0.19097420921297983,0.3112940812788959,1.5155625094968153,0.007305602823169389,0.48329326806967793,0.11901768773511182,0.26228889927388666,0.11956625380078088,0.08185204424219668,0.06380383755652452,0.49768492611479187,0.5316523437631517,0.2849831341109374,0.2138165065076309,0.48553541780642906,0.11099531091367407,0.2945942360828093,0.9136335923299256,0.27271910758281775,0.23986402109405938,0.9177506504594517,0.03174265486838973,0.3215756303511669,1.433940826080209,0.3468054855907748,0.23796056870391252,1.4382717858537049,-0.036769665232571594,0.40721215575739517,1.162488631221449,0.4377604900096565,0.3206228144617229,1.1877413622294843,0.02119436425839895,0.5224147154004586,1.394372203661523,0.36540950167235947,0.4440273343433559,1.4044125992340961
0.18884072139234445,0.3136387502438984,1.5157041942076224,0.004176170795868256,0.47380174470069203,0.1143828298749535,0.26206782334103434,0.11928473543085326,0.08266561062738165,0.06084196491235969,0.4904917925559121,0.5269092693916158,0.28575195037142154,0.21524244140936136,0.48588850977449594,0.1108108960519647,0.2966538781983539,0.913311610104941,0.27322645204532786,0.24402406797336484,0.9179167682812136,0.029704488301343965,0.31900206238587003,1.4324198126988754,0.34659056753980433,0.2441988239637901,1.4388404177827334,-0.04478486640027682,0.3974488877485388,1.160381824709217,0.43422986043614265,0.3259173270068837,1.186825785141321,0.01893805259408599,0.5266936490498115,1.3831709531312262,0.3585011734678874,0.4507332665454185,1.4015216584387862
0.18556082544422203,0.31640621072886793,1.5155266330516093,0.0006948652454791542,0.46699555745285437,0.10958305048356393,0.2614954723950782,0.1192205858948096,0.0827493123655267,0.060675487839329086,0.48426798204581833,0.5216159514590758,0.2858886796191342,0.21687174833130907,0.4855244932179251,0.10913944149077402,0.2997718352109507,0.9127702882217624,0.2725505185377929,0.2503076906832815,0.9171854922501881,0.025388463614610432,0.31672012253652154,1.4306474516242862,0.3455962285854822,0.25300185235706296,1.4390107090696798,-0.05020592513266459,0.3913197846182316,1.1578381342758217,0.42977927632263563,0.3320436235704859,1.184968051208807,0.015806982320803933,0.531638668502118,1.3731322554080196,0.35225125511099525,0.4554261777930215,1.3998583827684832
0.18259978760948875,0.32101400071499037,1.5156851690039121,-0.0019273586682058035,0.4641809515071348,0.10288067229929468,0.2618856690170521,0.11968799293529242,0.08249012911416308,0.060341865096071444,0.47729478013128696,0.5147261224169598,0.2848971302485446,0.21961078465041786,0.4847934034212675,0.10684964174122745,0.3038703152200286,0.911137444083191,0.2709310633706065,0.2567290531269458,0.9161427645823941,0.021344682693487847,0.3198312066665468,1.4291643430453425,0.3425752932054746,0.2609779193741342,1.4390048949341718,-0.055648339803411,0.3893068694690411,1.155383842578836,0.4234857530760764,0.34079167478548716,1.1841417246920665,0.011927653261857487,0.5357289225271266,1.3660862515707564,0.34701073347763534,0.4613269737944532,1.401013718350948
0.17558260632862888,0.32570921256736907,1.51603362112076,-0.0029285999461829233,0.46404862479291287,0.09760554460927376,0.26256156194103336,0.11990415548091861,0.08319811481298613,0.05902683294238809,0.4710067206302596,0.5096471383375155,0.28358503039612565,0.2234423964076437,0.4846907797204109,0.10359726172723725,0.30813842161404076,0.9107360009691773,0.26799554958169225,0.2621617830598469,0.915846668539963,0.014904165970059164,0.32265767827478586,1.427971821572695,0.3381973553855726,0.26944440019221294,1.439133362804966,-0.06054829223192396,0.38822853109093464,1.152815315169899,0.41845696859797227,0.3511250207436568,1.184657651336637,0.004059786605003699,0.5367276168909212,1.362986866890406,0.33997200584939374,0.4675892201009112,1.4030307776665563
0.17023423943164925,0.33017101465183385,1.5170483082318933,-0.002452151797568101,0.46145432624520355,0.09350277429154025,0.2618960338577655,0.1197093152984957,0.08312855659389287,0.05811118500533645,0.4667247610378688,0.5057725458416069,0.28095361037146294,0.22796177705674947,0.4834747330229597,0.09982493020862225,0.31208653747219073,0.9104083664668986,0.2647042766498402,0.2677547707096478,0.9145099482289641,0.008596052704766308,0.32464172371626926,1.4254520471432675,0.3332227957589524,0.27804072847868333,1.4392745087856613,-0.06443011129675504,0.39081454280080563,1.14977465556143,0.4137526431703628,0.35970544107566876,1.184872597417294,-0.006355838539510298,0.5346883777277448,1.3650136064352456,0.3325792392383745,0.472300024757186,1.4042891681101966
0.16392462091830895,0.33645097965007836,1.5165734088678666,0.0008708462466515819,0.459648841785897,0.08962132021211416,0.2613121553765578,0.12121924882891479,0.08317573206063976,0.05658260552839821,0.4628080913082026,0.5025982924684695,0.27791065579648666,0.2336581693591464,0.4824775185716309,0.09566480946511412,0.31539640817877734,0.9101789388936143,0.2612494820881922,0.27369460758018843,0.9134690549853478,0.0038440572415777093,0.32702543859755234,1.4230791877682047,0.32737152089805993,0.28749110176554893,1.4406885088065642,-0.06778508223227599,0.398599523794771,1.1483949877940773,0.40985003001055265,0.3691524195074889,1.1869095113575716,-0.015316594703548134,0.5326572382032119,1.3712671856754062,0.32430812337307047,0.4797221130119683,1.4057022072055871
0.1548323833617153,0.3437366563219622,1.5155449177453206,0.004724182641148143,0.45777394197082494,0.08529372417360566,0.2606284097661959,0.12242430416071227,0.08346035693978816,0.05353234134628434,0.45961589384424234,0.499161313549203,0.2744630526137761,0.24048017331804009,0.48124150166973617,0.0904991289132602,0.31868932839553415,0.9092264215900416,0.2564870608805011,0.27861061326863934,0.9123537665284934,-0.004228725640742113,0.3327513920456551,1.4216161863540207,0.32196011054600626,0.2965704301123166,1.440340937038811,-0.07164240005758366,0.40857145939467815,1.1470011788723127,0.40565457994857435,0.385312648507865,1.189364867038601,-0.0257910903411196,0.5311943156581592,1.3777837838411384,0.31677569667258626,0.49353389487039245,1.4079937024164728
0.146431022882979,0.3498851678865658,1.5142834017507023,0.007120479253835536,0.45620113968759174,0.0816279131279157,0.26101639145347544,0.12329923637760241,0.08468163734443714,0.0525234457509834,0.4551300842260034,0.49587657376610805,0.27256170698954485,0.24862365312561696,0.4802987275329932,0.08510096336870947,0.32342431333273214,0.9093697525566988,0.25101975837007445,0.2829798882438174,0.9115674486909784,-0.011060545539343325,0.337204271832672,1.420443095760452,0.3145296217512357,0.30325675535475544,1.4404625385658805,-0.07604246354373297,0.4175236231259248,1.1465167265326164,0.40005745005543847,0.39635190661688136,1.1916864057694758,-0.03449046588665146,0.5303043085092163,1.3830636272914496,0.307794006764209,0.507367894787373,1.407496419788723
0.13724386205848177,0.3552316545288178,1.5153057937894074,0.007796476247875234,0.4567956891542922,0.0801453030543879,0.26260160398906096,0.12380716954546069,0.0873380013571418,0.051141498246732885,0.4534876582450384,0.49460822886662315,0.2701866922663557,0.2598212907204013,0.4795142986971741,0.07886952386162469,0.32672459423928246,0.9099882518882899,0.24514804582604188,0.28772768827186823,0.9110494943512653,-0.018735355240128763,0.3426890412288805,1.4210179605000222,0.30639700699169187,0.3133036577335037,1.4402584138914665,-0.08196289455110377,0.42687682244008446,1.1478442574903063,0.3923725636100741,0.4057648179708989,1.1913908183440944,-0.04219424842618602,0.5353846506975988,1.3866929961364332,0.30084808230538423,0.5179069577890973,1.4069360178541817
0.1286221999373035,0.3599996039158739,1.5169565026001681,0.008382228505433876,0.45731028299900345,0.0808789798527561,0.2636295105371203,0.12658359758574933,0.09137195651744877,0.047197421255826766,0.45246275984824447,0.495769707663735,0.26780170967484873,0.27177125890857984,0.4802886107197355,0.07139845760374436,0.3297498883171277,0.9125878207881116,0.2381249239099228,0.29272838303723303,0.9119373899270622,-0.02727224208498269,0.3494351177055646,1.421946375460466,0.30061066359597055,0.3205478147616395,1.4412266396605444,-0.08750751757109608,0.43501131181379804,1.1485190630739124,0.3847147191821845,0.4136268675209981,1.1919509272562814,-0.048574966360239766,0.5400588788064596,1.389039632430633,0.28992928329008844,0.5278882593577996,1.4049629247731485
0.1211816159095323,0.3675707808568406,1.5168291747260096,0.006815233742867246,0.4576708459545876,0.08053559171140771,0.2636530189711367,0.12987735460771957,0.09530167481065607,0.04188788373394197,0.45195499669031963,0.495752914786975,0.2660188324723707,0.2827802171721723,0.4812711164238776,0.0659375345309337,0.33370238028520194,0.9138663611986171,0.23308299264388194,0.29860726470013577,0.9128894905298283,-0.035245439594045,0.35377100821663976,1.4226278821394616,0.2938127755964727,0.3278880701076143,1.443660442318472,-0.09315199980297148,0.4426477445757774,1.1497616986733947,0.3762396341795146,0.4205300920321772,1.193678170584373,-0.053756786256729305,0.5486813118223269,1.3897801767969131,0.27938925044178164,0.5385884841714124,1.403651507290556
0.11310904472452861,0.3736644939609789,1.5177224614290026,0.004616728986426818,0.45712313039265884,0.0801641514962021,0.2636119927420735,0.1330987758090121,0.10022706082243732,0.036063496862723934,0.44938037386903945,0.4956308610395255,0.2657685747624974,0.29483240084054624,0.48258559956259417,0.059230834315726705,0.33580077012131526,0.9150950863116233,0.2269453059942842,0.30358733299523033,0.9139178183970263,-0.04360754491478303,0.35745576840788473,1.4222562580155187,0.2860138974065903,0.334171461819833,1.4457379891424973,-0.09899145220228316,0.44848672939046785,1.1495688112757034,0.36813543873385207,0.42576729818975667,1.195261257803461,-0.06047084954540597,0.5598577381443366,1.3873029315812138,0.2685150730638834,0.5465351604300884,1.4023836767986877
0.10448425934259496,0.3802793461162485,1.5189476394471062,0.0021103051436690747,0.45645319234588067,0.07988029149108226,0.2640771008530884,0.1366791209838273,0.10550073383231814,0.03138788993265688,0.44663210359262456,0.49546418387520536,0.2657950855635522,0.30854397120007127,0.48341271531734353,0.05283418980336759,0.33878406955810786,0.9165226400178543,0.22095209010708292,0.30879490382230956,0.914247655597111,-0.05005482388571318,0.3638765853181864,1.4217371545358448,0.27841052621636037,0.33903176840105376,1.4472013312312866,-0.10638258209929788,0.4532511117660114,1.14869742384468,0.36017549020362616,0.4291691037361367,1.1960800652166854,-0.06788858608046842,0.5690229697837984,1.3843154170212726,0.2607753251944139,0.5504176144768848,1.4030281488167575
0.09598786911717155,0.3867127876503728,1.5195161562717727,0.0013891027256120497,0.4561075378558517,0.07960507062465953,0.2653459153725069,0.14054362373757562,0.11182622021246383,0.02731019803289638,0.4435855622901869,0.49534350132491883,0.2659862535142177,0.32206394271010796,0.48519467449893644,0.047479427917382744,0.34058468264818964,0.9176786391202729,0.21591836134438253,0.31245033011123846,0.9153556849774496,-0.056547794078410804,0.3689013665956509,1.421900484843849,0.26985524401528316,0.34359305888036074,1.450016351753326,-0.11383353429610435,0.4589119480921713,1.1492724510249521,0.3518215172464626,0.4303664106598612,1.1977763054173733,-0.0737655054983235,0.5791330773817813,1.3823867257696612,0.25470898369663575,0.5534090282992588,1.4047581773100373
0.08904350301132029,0.3918455120034773,1.5206017662792328,0.002230184897135423,0.4543458651587309,0.07803606183933151,0.2675803588826284,0.14561054851848557,0.11859451312874737,0.024752175039245337,0.4404920916036796,0.49392849083520063,0.26733712876232,0.3355968488104131,0.4877341248493227,0.04242062223348783,0.34267783600421925,0.9176033600179292,0.21098044330530033,0.3152199641471233,0.9167357652776016,-0.062338064618332745,0.37550863116221833,1.420681292514873,0.2608676805886161,0.34817264263976166,1.451925614091475,-0.12129087293674579,0.4616098779929371,1.1471471230198345,0.3451878174286893,0.42858004623626816,1.1983559996096216,-0.08043702826928627,0.583520778438201,1.3792459759877325,0.24922618995045298,0.5517360937220152,1.405799771077053
0.08327768381128493,0.39762218577090913,1.5212702285166282,0.0026189898336022887,0.45497214949095316,0.07760794223338065,0.26857591441699147,0.15132046762165335,0.12435883610636442,0.021156390919104578,0.43807102586792096,0.4935770620843288,0.26761199466709995,0.34810375023817997,0.4899190859637527,0.03794101526271238,0.34335839192400036,0.9179962833625989,0.20670884784591118,0.3171304194262137,0.9176610411035312,-0.06848062127279322,0.3805339011734077,1.4198309181114106,0.25587561565029526,0.3517534301142966,1.452641202730712,-0.12703313062696284,0.4684547652570384,1.1467890070375124,0.3411559365174064,0.43201536465795737,1.1993505847311243,-0.08486675282087576,0.5899012244542841,1.37890700155579,0.24363317093921236,0.5526381901499853,1.4075537132524134
0.07558167906997991,0.403789490588578,1.5205699885338357,0.0016043551003383947,0.4557263527848904,0.07802236431918187,0.2695855348680987,0.15723027812073503,0.12944825467532936,0.018473105615465227,0.4372985431093707,0.4940135417798621,0.2693647284228602,0.3591500546581137,0.4921981155936684,0.03365541253152986,0.34322554203223143,0.9186271022037272,0.20264533688882044,0.318488284746092,0.918258746514458,-0.07519999300355179,0.3847736171558661,1.4207484436157278,0.24999238327819062,0.35553786341805094,1.4545680366999028,-0.13254483950194357,0.47642488250618376,1.148679780242348,0.33642815753196564,0.4337823145825583,1.2010374559922241,-0.08904914721569919,0.5948145072738984,1.3821165406680205,0.23846636871040103,0.5555253021674672,1.408378913020752
0.07055521805945728,0.408056133476749,1.5207362511183062,0.0017448316320987478,0.455851865264676,0.07831354809999319,0.26958584426966237,0.16260990767362496,0.1354509591001983,0.016736166270066744,0.4367534263631801,0.4943320783522797,0.27057191746766834,0.37045373659833025,0.4948245495437201,0.030181757604743602,0.34292887736315397,0.9190619767044809,0.1993408622423482,0.31940366657944563,0.9190346579520291,-0.08024008273295938,0.3884555585541487,1.4215079069144596,0.2443826080569137,0.3599751718824765,1.4559328564075387,-0.13661401548812152,0.4830041233246951,1.1502319022119627,0.33328966838271434,0.43866675753464734,1.2033900317117694,-0.09209297421100215,0.5988322921560338,1.3847540761660266,0.23293723065599986,0.5603267524400771,1.4096403069253036
0.06650436958992227,0.41074922126428587,1.5209955594966185,0.0016104829559423946,0.4559903151445682,0.0789059596197873,0.27033364186275366,0.16592021327012832,0.14048699409725443,0.013889007871819917,0.43589218404475905,0.4949696930203735,0.27079006339660106,0.3783361478990769,0.49718261432901933,0.027886365070176885,0.342438154304069,0.919763326297999,0.1972187716398327,0.32025095044409074,0.9200869301528578,-0.08524925519384673,0.39337987541522945,1.4227371763948702,0.2398764397505493,0.36305659554914294,1.4561570181667032,-0.13916451107773423,0.4882680583050045,1.151081948682979,0.3300883383862987,0.4429608280952754,1.204461236856106,-0.09394473720626773,0.6009689367455167,1.3869897311776658,0.22806853794322332,0.5640997056785411,1.4102026591645143
0.06237557686943609,0.412325058858451,1.521624435156242,0.001604679019222855,0.456160217605861,0.07972879231867391,0.2720937177643717,0.16771348529358943,0.14417523428714019,0.010853256748156655,0.43507479839814295,0.49583033077735245,0.26970159418561485,0.3829809996722046,0.49915142968819487,0.026120984381085698,0.3425469279879979,0.9207781641321144,0.1956166198891299,0.3216454994694087,0.9215126174026103,-0.08874520404321755,0.3958073145920806,1.4232114847513309,0.2367754291911706,0.36417761762223455,1.4583555069181737,-0.14215448142605513,0.4927609952859447,1.1521840512866006,0.32745800546174025,0.44355158370345915,1.206666752294077,-0.09695282279934314,0.6032233504803067,1.3891551241921292,0.22245517163516262,0.5661704863741721,1.4100120216510021
0.05894439137307281,0.4129649138369182,1.5215689206756107,6.014989767659645e-05,0.4550599350933563,0.08020600987497846,0.2737132668984142,0.16582295346840914,0.1469359407823527,0.01050720159679793,0.4357017098277902,0.4963575168213908,0.2674158326150649,0.3842777847568382,0.49991543216423656,0.0246643997078756,0.3431852591388843,0.9213554467845858,0.19435497573502977,0.32389269694302925,0.9225917413773146,-0.09158781717339726,0.3946739825376821,1.4223708006823799,0.23355272153942896,0.36490482486492937,1.4591905046747404,-0.14357773340857594,0.4988087062668346,1.1537347303391332,0.32458093889234346,0.44480888371545413,1.2077899884793277,-0.09838357254293803,0.605687692819924,1.392349453389607,0.21903631526333142,0.5662611597865989,1.4115581500960939
0.056060569478087456,0.4127803035179492,1.521931180599443,-0.0008870067777076364,0.4547793144995001,0.08011503911687352,0.27494045077376766,0.16230899740644095,0.14760203587262483,0.009239224119905973,0.43541010056455415,0.4962698646388685,0.2655824780460683,0.38253771887084126,0.4994091662530441,0.023513199978640563,0.3430027901450433,0.9212894770516201,0.193313757771874,0.3246937551904636,0.9225648625268128,-0.09364133308258747,0.39567355261815773,1.4232595882513022,0.23219308052228643,0.3656594006687351,1.4598791066165988,-0.14396899717150302,0.5012850483091537,1.1548892481822381,0.32297923494907976,0.44560461183127403,1.2084072823836134,-0.09914254766080233,0.6058743690362053,1.3945789003524993,0.21552312929611644,0.5650454356203648,1.4123625108102589
0.05443991187278573,0.413587033245628,1.5211493244607417,-0.0009267271230737453,0.4542982160670135,0.08022517930369862,0.2752118329031474,0.15819048168282696,0.14674946025334568,0.008312059506170089,0.436040002586523,0.49645847764920353,0.2637988340462268,0.37844669135132125,0.49848009019020295,0.022516936635921286,0.34403981087553026,0.9215713638949959,0.192328778121675,0.3259251367097139,0.9224657094283291,-0.0957530164031171,0.39517149068802104,1.4235076203081918,0.23171936087574516,0.36739360975691715,1.4601989449005028,-0.14336243789845537,0.5046641238652545,1.1561901760614082,0.32174907088253185,0.4465555587412714,1.2082062558857676,-0.09813812678919684,0.606960985027235,1.3968008275889983,0.21291102376336432,0.5630930784165286,1.4131057532663835
0.05413227802801584,0.4126437277605129,1.5214373938306216,-0.0023784836969993543,0.45351277008122753,0.08018275244413095,0.2751972201457599,0.15368669174339242,0.1443930180376928,0.00768037901941951,0.43686086667023355,0.49646644422075525,0.2616520087713032,0.3728256862989114,0.4967462183757059,0.022216256638663508,0.34494867730904843,0.9215755610309222,0.1922562267051356,0.3290389256581101,0.9220716065650039,-0.09586829125491513,0.3938787124350051,1.42300650870621,0.23208588581944245,0.36728747260376343,1.4598222009214918,-0.14268086017521533,0.5047702971118952,1.1561326818731965,0.3200565406591691,0.44808447565950876,1.2076215542355684,-0.09714397912379556,0.6054737662484339,1.3973500424257514,0.21180406223538975,0.5614126180617899,1.4146195740105911
0.05406775089360496,0.41148874650739065,1.5212576182875384,-0.0018556281238980225,0.4530941120045784,0.08014177743624679,0.2750283165552327,0.15007234485882187,0.13985842086456396,0.007103753026448548,0.43652195018459927,0.4964509415791447,0.25792150835239036,0.3639334556509681,0.49528329525271175,0.02259471729536128,0.34557859132631624,0.9217340261651255,0.19269329691413972,0.33037396486740184,0.9221933994004163,-0.09542864562210135,0.39145797219476414,1.4228193970225573,0.23162264571928434,0.36651568928535916,1.4598665593426747,-0.14230934863904296,0.5035928731041187,1.1564886909713894,0.3199660157214248,0.4475261143367271,1.207865674694617,-0.096320327383845,0.6040249764107439,1.3977287688099458,0.21197027929872767,0.5589475412241333,1.4160345926174367
0.05344207249715219,0.40985469749580905,1.5213968596192715,-0.0021416801699480517,0.4528640870954388,0.08038976733397608,0.27421882848126305,0.14670314865716982,0.13401740644521587,0.007224983841326522,0.43627215690210197,0.4966807912917043,0.25437862895416974,0.35339393106770794,0.49351907032761144,0.023228611643965353,0.34602917185076293,0.9221001809978978,0.19324632883553228,0.3299157690083058,0.9217049096603888,-0.09465440956898852,0.38765654842955105,1.4234142879131504,0.23251190405244668,0.36495493879490737,1.4597989853768847,-0.14012565862184342,0.5020261175000286,1.157780304849713,0.31968165250072456,0.4482849601421534,1.2081515939295449,-0.09224864630856666,0.6061319288226769,1.3970963675424453,0.2121709122676964,0.5589317488015616,1.4169682998158688
0.05528169075255885,0.4075558763613983,1.52041234906816,-0.002407888753857486,0.45230605792633555,0.08012867850405943,0.2730495031692875,0.14261391809304963,0.1288377151552941,0.007715758508289763,0.4366087489344833,0.4964485671236394,0.2519443680863923,0.34410880647814707,0.49121290779720056,0.02424158772034036,0.3465221087226739,0.9218792049751199,0.19423148789414696,0.33008275242109075,0.9202896720971699,-0.09256018607076194,0.38424533854386567,1.4231961001547153,0.23397837038068847,0.3622115076260018,1.4592214626788123,-0.13806570805334079,0.49827774033840655,1.1574197609131456,0.32127698970779933,0.44835264723142826,1.208564684244922,-0.0925373440664678,0.6010253352807127,1.3977788919770713,0.2144671329726733,0.5589882137714536,1.417756878398388
0.058608603619281954,0.40271934463682924,1.520080123988523,-0.0034773064075083937,0.45226566766200627,0.08051478924311528,0.27048782610941946,0.1374282829977863,0.12356957799103098,0.008342484272154943,0.4370365169644518,0.496794764798424,0.24978411514864277,0.3324547227145461,0.48948461012612265,0.02603062444725255,0.34643121214411915,0.9220782855795576,0.19600029150897252,0.33005852547805126,0.9192886343137574,-0.08914191456970157,0.378083223942415,1.422906865764022,0.23712194427573163,0.35993461672918076,1.4596398486473676,-0.1365999298855176,0.4941817790641042,1.158379928753519,0.32294251524398443,0.44689274635814324,1.2087589820476485,-0.08922271560042094,0.6007785426418304,1.3966818750869892,0.21669276080621414,0.5576649117733102,1.4181625530375548
0.06110391466008129,0.39919962350441723,1.5195315192065812,-0.002808276162766983,0.4529755284485978,0.08082149392749444,0.2684338592859866,0.13292612448253788,0.11793968520091976,0.01000289740309716,0.4390549183716119,0.4971218053486841,0.24660766727083577,0.32075069762281383,0.4875366686656277,0.02840787012708693,0.34649980115886314,0.9219420405357924,0.19838129119881148,0.3303509963428984,0.9178991120299786,-0.08691591299707611,0.37420400953932226,1.4217569211677514,0.24214413060492052,0.35913529714238424,1.4576644936787693,-0.13482973212447796,0.4892460955869061,1.156841629096279,0.3264891611421084,0.4494912549481235,1.2074867658521755,-0.08937275517268184,0.5928495114370853,1.3968431189704977,0.21791712665730298,0.5578789372780876,1.4169375286943644
0.06529188049197059,0.3967542310167562,1.5180080225783936,-0.003665572906317375,0.454019324194579,0.08050446094241995,0.2661129228039882,0.12783175908049121,0.11359987193759145,0.012003831818108027,0.44179175276937327,0.49676595352582076,0.24594350166056758,0.31035337408566827,0.48594245892514143,0.030500664680798845,0.3467887658503132,0.9210467038304486,0.20017451066933595,0.327930655836559,0.9163279969750953,-0.08199094548970845,0.37064030276699456,1.4211648328979931,0.24504729018566024,0.3548877048091365,1.4568065042686613,-0.13099900665407657,0.48481882018704114,1.1560809348728258,0.33028939049308226,0.44856235572933617,1.2081435788700527,-0.08582873008812647,0.588307042436269,1.3961897610186715,0.2215535975896398,0.5568764807649669,1.4175593711871624
0.06915590490987437,0.3924348460828274,1.517405134138869,-0.0024891635681536066,0.45411012927535327,0.08008943763637764,0.2644772232647939,0.12453016535798073,0.10829896760134262,0.013788565661665229,0.4432363234379251,0.496360314861926,0.24451917869484613,0.2993881975395753,0.48431156503999484,0.03324486759962041,0.3459037052415469,0.9200692551873596,0.20278618928144138,0.32607123728180526,0.9146314985298504,-0.0782770512472497,0.3664392825367447,1.4205804940760176,0.2505316540454747,0.352522475122467,1.4546624296583819,-0.126606460275786,0.48052419612817954,1.1553312437096142,0.3341057154495659,0.4488701072869056,1.206460318167646,-0.08108396654731145,0.5842764421145422,1.395263253536869,0.22374058819717604,0.5517115853476128,1.4177764642529762
0.07520553626821214,0.38831871568713083,1.5163462435955737,-0.0019438718627173008,0.4545341214403348,0.08037284279962773,0.2620084833803446,0.12151126978319536,0.10373211921187861,0.016192834646952897,0.44367569589064043,0.4965700100020714,0.24293970890812247,0.2892533619950027,0.4830196069540608,0.03633936618604005,0.34459067210916633,0.9198375025271527,0.20578248820000003,0.32429537810258763,0.913160982634938,-0.07350277153891191,0.3610028429021096,1.4205104735814977,0.25561456181984465,0.34939068720506666,1.4542636654174996,-0.12145875711931915,0.47833626326590384,1.1566127888132207,0.33840233433422506,0.4467922797734264,1.2062145477553032,-0.07250270725292901,0.583323999136883,1.395320240208108,0.2270503694674831,0.5481267094505091,1.4177268989392355
0.08185711866749949,0.3838194588825538,1.5149954856190566,-0.002210071224432373,0.4544768830000418,0.08057320758108998,0.259248878960535,0.11940462223147047,0.09963845354464076,0.018974213070118085,0.44499844773786495,0.4966577298564091,0.24319311329673304,0.2791974002321167,0.4824820974540582,0.04023858460130704,0.34338919916350713,0.9192807379900492,0.2092738674747439,0.3200047912572702,0.9123879316351526,-0.06801090711463162,0.3566659366316428,1.4209148755110144,0.26108419993009446,0.34268032026993456,1.4524404950297367,-0.11650848279610745,0.4743074135766726,1.1572488078515484,0.3428223729057685,0.44419230077954314,1.2056881336223924,-0.06340530509214976,0.5822269897736716,1.3937576014150714,0.23130259755085147,0.5422062072186198,1.4186798159033562
0.08826374374561753,0.37950699128762355,1.5134693688255794,-0.0020145229329040053,0.4552683735618675,0.08055716380160416,0.2575696503487689,0.1173488800460436,0.09598922328728896,0.022441376126716383,0.4459725689463825,0.496464762334472,0.24435435489000024,0.26907433647004253,0.48220483457979074,0.04470420865316127,0.34218259958562514,0.918503803096137,0.21335141118087042,0.3161685650303885,0.9116892613244036,-0.06135504997701153,0.35360880318918475,1.4207364790592447,0.2666121472964643,0.3362783133643094,1.4503438808838185,-0.1101710121977994,0.46944993714327393,1.15633480645218,0.3491028396192932,0.4418894627213184,1.205566107888721,-0.05599077771820975,0.5778430988896328,1.3923776342033456,0.23727088238363395,0.5370428002211446,1.419681031646367
0.09575951989009615,0.37431924447657805,1.5129200094721011,-0.0002490891585500188,0.4554273818260332,0.08045131344439985,0.25557147164669,0.11610348711464376,0.09217392513000054,0.026928604402239254,0.44648858791893337,0.49620248022671953,0.24582936094547175,0.2602500623235515,0.4813878098233786,0.04891183462795813,0.3396916820866733,0.917496480496581,0.2172928928092418,0.3120011694597154,0.9105083752863982,-0.0550837124545208,0.3494866881977857,1.4212770222120956,0.2739930459049887,0.3292432242850155,1.4486291824923647,-0.10304875126705138,0.46209847729294695,1.1553301643344986,0.3537148691326152,0.4372996704099495,1.204012779654278,-0.05423839322802103,0.5654799122727812,1.394764593760605,0.24466543558214207,0.5315548520042028,1.4199638625765894
0.10316087157224113,0.3702551178163739,1.5118292969802238,0.0002448277736238238,0.4549947313696125,0.08007178654618922,0.25504269174833955,0.115414723166303,0.08972377159889572,0.030657315851921493,0.4469945315568719,0.49561962865265763,0.24783677842541002,0.2536341666278567,0.481135527083874,0.054020733119148956,0.3366725137037697,0.9159353295224433,0.22218337936036353,0.30740588227794424,0.9101850969687386,-0.04810113736887933,0.3441476415979197,1.4221899017166575,0.2800829077015922,0.32279385662470256,1.447036701523621,-0.09676207954839956,0.45746286206517967,1.1566716626442424,0.36034527511371417,0.43137572611278874,1.2028217280852906,-0.04264068240619075,0.5638042619853681,1.3936605063095693,0.2526998114004933,0.5252251313426457,1.4196535761140188
0.11168783995436414,0.3657528686259914,1.5105570371431276,0.0005530745998077073,0.4557648958447096,0.08031058516829247,0.25662152118504566,0.11334437128985031,0.0875386995612818,0.034608141573258866,0.446663969064947,0.49554554208293994,0.25060102808303675,0.24648834350333712,0.4807201490425207,0.059519076215510204,0.333118973829016,0.9149183649979521,0.22742480612107197,0.3023355829472382,0.9096471664235073,-0.04224276495160244,0.339985291253459,1.4233716650787358,0.2853427903644143,0.3169551031051497,1.4448079085023804,-0.09017953261769868,0.4526866379753277,1.1574606908803828,0.3671013788562258,0.4250376156702923,1.2008734403480232,-0.03539269133455961,0.5570988571482944,1.3951571094075779,0.2603850568917071,0.5194114958283528,1.4179306317034799
0.11820818329302706,0.3587880221958906,1.5097339961784901,0.0009319361915117035,0.45619652727493337,0.08048771990250035,0.25750484527142126,0.11180428715363232,0.08560922818500105,0.03799874283414619,0.44818775584878634,0.4954933345128663,0.2536994458163276,0.23991133104439466,0.4804906198477915,0.06444254053155586,0.328355450900062,0.9130094996492294,0.23227211280479995,0.29690014986903746,0.9093620626254402,-0.035438532642266915,0.3345748932217342,1.42398247497118,0.2919787209291203,0.310188175438396,1.4443503427491597,-0.08332336291136597,0.4484725214582577,1.1585686874170948,0.3731606608115565,0.41843130603344986,1.2002947955217507,-0.026185835798428123,0.5546859550027163,1.3949076135216023,0.26814020404621597,0.5135519162390866,1.4178583262295148
0.12526420649070705,0.3526460429476765,1.5088401037381713,0.0023466619111844815,0.45739691028762275,0.08143793020482532,0.25800890276486543,0.11017450308148799,0.08305504372533504,0.04171449682638275,0.4523906671960379,0.4962700258066358,0.2570855285417295,0.2339002208887725,0.47935342040541185,0.06975178231038894,0.3241481649156225,0.9111804964755587,0.237335974726929,0.2913774644740797,0.9082338578084962,-0.028219671933089736,0.33060424579793346,1.4224783632657896,0.29833293396277877,0.30296740615334283,1.442044305617611,-0.07840213310039013,0.4424033521406395,1.156596915384515,0.37981097541616016,0.41260419801414816,1.198706136597958,-0.020676004099957068,0.5444250798473371,1.3946289573750554,0.2760495976300308,0.5077081266815706,1.4168783536089702
0.13241725099192644,0.34625701994614577,1.5077454106381285,0.0036842403612148194,0.45909975211463344,0.08234852486045369,0.2576390000118844,0.10755289542460658,0.08045684059128445,0.04572735788120676,0.45436567920575205,0.4969318998343965,0.2611997376873447,0.2274417339224922,0.47791403204013005,0.07525330440829633,0.3189295755616874,0.9094416186984234,0.24246577267403327,0.28426524996767355,0.9069244888679863,-0.02155362927209343,0.32518566244379116,1.4219029557415928,0.30573022562076807,0.2963853731856604,1.439807236581058,-0.07258500505192746,0.4380525941726204,1.1566418815255428,0.3868418093747651,0.40642876708344255,1.1965322791590927,-0.01809438821870335,0.5329692555605061,1.3983501172489876,0.283427305372998,0.500991669193938,1.4151073772321672
0.1398720751844542,0.34047108068806126,1.5075336205440362,0.005571293995879132,0.4611303387736537,0.08364024579368595,0.25782534719544775,0.10645574455996307,0.07983868544766022,0.0500387373631763,0.45753954612371883,0.4979796722529412,0.26463864919801783,0.2229992188601877,0.47825154903853656,0.08076273627055236,0.3138877103960245,0.9076206676483077,0.2479831509178911,0.27915464902159215,0.9074427567636466,-0.015857251924576283,0.3213005141189477,1.4222451952575845,0.31253755917732434,0.2902697192988789,1.4380359555780382,-0.0668845079137629,0.4355852788463237,1.1575814155465278,0.39331079727486074,0.4006513546919952,1.1947980273602459,-0.012166799892013143,0.5256547694185315,1.401088156067709,0.28903595561672535,0.4944428564822691,1.4132995066150524
0.14726515910382715,0.3341347578722129,1.5077720250219544,0.007632058236270943,0.4625946271045616,0.08680032176271471,0.2587029216647196,0.10556468360283026,0.07938005692425644,0.05328168217992783,0.46202468506496425,0.5010228257895949,0.26750110083998724,0.21843443844024865,0.4788020563517169,0.08576520487750013,0.30874199995894425,0.9070245498316837,0.25283292687896364,0.2732882940091259,0.9082357039475937,-0.009498896600520392,0.3178913800828816,1.423682576779162,0.3181762404148535,0.2835827213193239,1.4375910799578195,-0.061257086999271626,0.4328795371192473,1.1594705001869874,0.3986024227354137,0.3950950570229612,1.1947535118710852,-0.004289259346023128,0.5221194042382832,1.4027687029172793,0.2941266219105112,0.4892486252270838,1.4129989614079916
0.15339160998389748,0.3282080709230123,1.5099178647604083,0.008489501868577316,0.46613861554956115,0.09275527552530476,0.25941357142359817,0.10504821743676747,0.07992021643542634,0.055357605179070866,0.46755528302226607,0.506848378341905,0.269555656593252,0.21712055675706676,0.479539046367028,0.08961095772678661,0.3035961175954448,0.9084932428984807,0.25671415760528676,0.26834763768162545,0.9094761779948692,-0.0038021591749359644,0.31248856619421983,1.4255189734498097,0.32569902985804344,0.27718923280626123,1.4386145111927007,-0.05501050662362655,0.4292373943888982,1.161972376500027,0.40330581079317984,0.3885913257162843,1.1948150032875686,0.0036321778733440567,0.5170516282588568,1.40539236485483,0.29910444176757206,0.4831196082884444,1.4130240373070535
0.15973822050192357,0.3229020024846425,1.511515606714412,0.0073848052087320875,0.4695986967560927,0.09972635034820265,0.2598080613689862,0.10481096678116482,0.0813439524574064,0.05655344634196798,0.47144819126423476,0.5135495123678431,0.2714151708572268,0.21384752067311386,0.4817590356679592,0.09409323103927834,0.29862070165221444,0.911167533902369,0.2609934765560956,0.2623846579967048,0.9120770600061041,0.0005456476735565121,0.30713704004250775,1.4285866662139137,0.33137507614123013,0.2713384205125355,1.4398014609442027,-0.048703710413628455,0.4248447523419819,1.1650986436876978,0.40763021349925543,0.381662579474523,1.195092914112472,0.013753138472902823,0.5136877621740247,1.4071776791101667,0.3031515754445478,0.4786395871766348,1.41209110405436
0.16472755086804772,0.3185587536152643,1.512619892464234,0.005128407251346716,0.47369034897207024,0.1059803341099421,0.2599257838900198,0.10444146353807869,0.08204904884407387,0.05681306329793984,0.47634066438886014,0.5194910332898134,0.2733877365775333,0.21041011379759794,0.48323573157430144,0.09779431831890473,0.292860031657238,0.9119657399088009,0.26455922355100303,0.25608106727972885,0.913898820570687,0.005276063615535687,0.30249480302118686,1.4304813492953605,0.33550157270663616,0.2664750120360134,1.4406139509941858,-0.04432383402759961,0.4187307616960797,1.166404786110733,0.41178999814767026,0.37549414801220643,1.1953202463496941,0.01812432009733203,0.5088160874039233,1.4080367449108107,0.30739204799947506,0.4748468464676558,1.411289748009369
0.16947337177615382,0.314340211826897,1.5138071201465162,0.0032642636455397574,0.4786804820776916,0.11231675668200163,0.25999184389276053,0.10471820728120582,0.0817910542015144,0.05708138474075889,0.4800871767433514,0.5255584710511046,0.2755926970158049,0.20679434886622095,0.4839076904110712,0.10052502372680337,0.28744731915868965,0.9133499424454867,0.2672869658876399,0.25061707343607154,0.9147701096823717,0.008255202824613435,0.297602459066508,1.4317115525910435,0.3406596932588285,0.26448429474489565,1.44118616272308,-0.04163480565626527,0.41331490417407946,1.16746370814925,0.41533209757055484,0.3719721813661936,1.1947266233002574,0.02245499807624358,0.5057110711240372,1.40778629743472,0.3119083478524618,0.4714579316846723,1.4110993376011944
0.17334783949667218,0.3103496112282993,1.514713173465022,0.0009452800997500992,0.4801606882543715,0.1171600648919091,0.26033421368840215,0.1037036688300838,0.0817801927514153,0.058597880042342676,0.48401612609531314,0.529866766740051,0.27788897339377977,0.20343230530326833,0.48439270549754426,0.10339371341714099,0.28439567126197884,0.9139655921574387,0.2701018552056277,0.24729724472166764,0.9152723000629316,0.013722020371696893,0.29342792593887296,1.433507317125786,0.34661024551068054,0.2606923246739833,1.4407794739704027,-0.03967199617340391,0.4079449520669108,1.1694221897398376,0.41806081086599356,0.370418498453101,1.194353948214323,0.026633434895337288,0.5044921207368694,1.4075036364989018,0.3152978174756671,0.46741799376112386,1.4121518949935232
0.1779585426733316,0.30650470077209047,1.5153621076747827,-0.0012428053193838749,0.4797369871285313,0.12005446385455844,0.2607520841703244,0.10274470083728747,0.08162075028624571,0.0590218091592826,0.4857234786648602,0.5323571108167268,0.2787485285199839,0.20062843399847263,0.4846756303469735,0.10502703816400315,0.2832966230944226,0.9148363386060177,0.2716628901102778,0.24588849966547338,0.9154176648975743,0.01818333168266859,0.2904179988900055,1.4343312120717226,0.34915409477028875,0.25643430818322416,1.4411257170271814,-0.03811382218088535,0.4022910143172931,1.1697176324114347,0.42090196389297463,0.3677268529665098,1.1954833574937518,0.02876558276368852,0.5003632208646204,1.4070050058703294,0.31892980156305356,0.4645993252438147,1.413721212485205
0.18073797698214983,0.30291098138213807,1.5157238339509125,-0.0028661887071387187,0.47906835525141755,0.12131900369438749,0.26067724012344756,0.10273256481897766,0.08158399990709203,0.05951871748115752,0.4852938621469786,0.5333130619511672,0.28021340867369476,0.1984054546176864,0.4850971949296879,0.10617271982364575,0.28124791443476355,0.9148497576307963,0.27313004983276284,0.24528371698566448,0.9156602955670694,0.022205199876557464,0.28660381673692775,1.4349999118368921,0.35224323263100726,0.255204592146247,1.4408113826348439,-0.03622403083787733,0.3986156513791236,1.1708982362997196,0.4226346461394746,0.36733299450691453,1.1951506389022228,0.03118323724657583,0.49846710591415117,1.4073041764214402,0.32165009999441707,0.46187802575662795,1.4148671540963795
0.18287954938334083,0.30035922526357245,1.5153252287228145,-0.005372141342504306,0.47766122772438285,0.12060991931625173,0.26060225920895724,0.10250783143915604,0.08151123791931877,0.06016949130817426,0.48352158290906344,0.5321164763870694,0.28059920271046984,0.19813110218048213,0.485011246650063,0.10735217468526975,0.281591542315412,0.9147069373876515,0.27415827075211324,0.24493178303983149,0.9156020692373266,0.023511791474567993,0.28440608597793215,1.4368498387494306,0.3553088746151256,0.25266398265108075,1.4398959474816628,-0.03428724885540973,0.3957451745218525,1.1723218104804451,0.4242341493091471,0.3677104584139972,1.1951812483963382,0.03425775372267009,0.4989249486347098,1.4069532708207209,0.32332003514879215,0.4605014156994486,1.4156697791990431
0.1839535938558436,0.2982017941812283,1.5159911988780532,-0.007107670460589568,0.4758550916401912,0.11826262054879601,0.2606760753170937,0.1025235226705118,0.08147594805622785,0.059977589316413435,0.4809982073796224,0.5295188596672666,0.28105697163071586,0.1969874313667893,0.4852319900731148,0.10900430251255594,0.28306490600145695,0.9139665806420869,0.27557158898439243,0.2453834446741454,0.9156570064625928,0.02385805895717747,0.28374817231934285,1.4382882086565407,0.3561855203119102,0.2512853596223765,1.440128776064614,-0.032968837336439696,0.39499468831965534,1.1735211218282653,0.4252361202752396,0.3671412267389415,1.195840848998442,0.037859153884261226,0.5010473288070593,1.4061901718670922,0.32544805368406843,0.4600885442566989,1.4167689178907166
0.18478229317667633,0.29620838234306635,1.5164363543821866,-0.008031256442394778,0.47363831816292284,0.1151770156970348,0.2606077974563299,0.10266953571648475,0.08127709402925547,0.06014013226462841,0.4768463397732592,0.5262885091773438,0.2810967427540153,0.19612581896225442,0.48526552155832153,0.10986747147495758,0.28383009539814,0.9131315472639328,0.27641046041637574,0.24608857907488257,0.9155179434275938,0.023816878313343334,0.2835471980273193,1.4380880294974712,0.35705568592721915,0.2507391364015901,1.4394434552774549,-0.032233725713713406,0.3958031622939777,1.17357892217533,0.42532351523830136,0.36876948123637915,1.1959683559801715,0.03911515347677941,0.4984946707522982,1.4075913341130906,0.32502076226173865,0.4589802246926743,1.417805005876031
0.18543015256327003,0.2971168341462724,1.5153384724909587,-0.008127050812849522,0.471380359279829,0.11074215599740121,0.26152233320811435,0.10209032278343881,0.08104054732209252,0.06002784205376905,0.47194149516619793,0.5218696882258093,0.28141516392967486,0.1972585841909179,0.4846536886299563,0.10995222615884923,0.28639810902280743,0.9123283331664962,0.2762557823500848,0.2476068753528948,0.9148537489315298,0.02409939977115843,0.2848774639757624,1.4376249694102505,0.35702126753986063,0.2511193234627882,1.4387854946008032,-0.031595694142636584,0.3983980210803153,1.1735753693340032,0.42612930434425206,0.36827694046342124,1.1951281034714374,0.03844144237581069,0.49661224342903576,1.4098998122368918,0.32540173614274415,0.458213202571793,1.4168757678476012
0.184666179737454,0.29786659008786753,1.5146277318179966,-0.0066778926115054595,0.4664853333428228,0.10579547726376805,0.261760921595629,0.10175258122934772,0.0807707063314395,0.06000895602495286,0.4684787415192587,0.5171526862693945,0.28203280765309374,0.19899516749644658,0.48386886798833306,0.10939492875005967,0.28947327619563057,0.910732287093746,0.2755772268159716,0.2502128409667499,0.9139572323723333,0.02229261981885935,0.28571153830742335,1.4363530877386483,0.3554034729646752,0.2504845266959728,1.4376686553684928,-0.032549510602792875,0.40228810904316814,1.173466498536218,0.4253020176497032,0.3693516512258718,1.1950666038758004,0.03934475493442624,0.4976063565326186,1.410409983299148,0.32556615690140844,0.45925040852117066,1.4172811955146274
0.18354365169038162,0.2987938286725833,1.5144480018380808,-0.004956314103707761,0.4643532891957678,0.10162133815456899,0.2616232646645932,0.1019846537092133,0.08097849849948816,0.059615412818674766,0.4632617255390572,0.513321437360215,0.28155481141883404,0.2003232781468199,0.48382738691816835,0.10856100212245529,0.2919525304877159,0.9103539094826406,0.27488658738003097,0.25332259929564277,0.9136862712309683,0.02027992290881135,0.2874110490053995,1.4353962490695593,0.3538951913164176,0.2527212900194095,1.4366919126738575,-0.033517562667262656,0.4055332921111917,1.172974453879291,0.42415465576270456,0.37203483412998734,1.194417143847025,0.039046820740417425,0.5011229993334969,1.409616952774382,0.32488134835877597,0.4611649290774379,1.4171535906701154
0.18118915708833247,0.30070973009133684,1.5141951525789696,-0.0044830253426323095,0.4633436195224594,0.09829510537768973,0.26084022826448905,0.10172964529221158,0.08028040221026898,0.0594394448237618,0.4608859882495031,0.5100860232492541,0.2803051109374338,0.2014484298287867,0.48281833013010994,0.10734928814938072,0.29592192653365634,0.9099312503742316,0.2735957675965032,0.2568713893747,0.9123724217241065,0.01807890526719326,0.2922134056566826,1.4352420060413735,0.3523623740585,0.25402055839677684,1.4353500896608014,-0.03377084134499007,0.41186919056996274,1.1731320206540012,0.4219328005591537,0.37597724376296665,1.1941909697818966,0.039169947854205876,0.5070559308672743,1.4098144704492082,0.3225324873129439,0.4645932323292593,1.4170773321239851
0.17850724613813984,0.30371474540087495,1.5136898719402645,-0.003185103107754057,0.4630861814954535,0.09498642258748144,0.2604880541230729,0.10255761635400464,0.08030694081531871,0.05847444448080523,0.45876867828870427,0.5071145174014351,0.27982315229044363,0.20252414326531243,0.48278932728137053,0.10544086302162052,0.30104825835786714,0.9099750023501225,0.27160581500000436,0.261612971646012,0.9118292045773437,0.01523772584696254,0.2972018539789028,1.435578734557565,0.3498133984310738,0.25728809922475016,1.4355158652772524,-0.03516280774834846,0.4171505056047255,1.1733187792588164,0.41971326507472956,0.3808230362555893,1.1952585641225781,0.03893642161669162,0.5135868345884723,1.40912963742745,0.31849096093128504,0.46865482614875936,1.4176367848272513
0.17519022628782466,0.3069303961895366,1.5131841847686742,-0.002346229365996626,0.4621723234407207,0.09251066588040824,0.26048612599827603,0.10335255474967664,0.08066154103892266,0.056043808412557565,0.45791579103006624,0.5051114737483785,0.2779587026192556,0.20650899058706165,0.4824190880074956,0.10336098735877006,0.3061138413967619,0.9101973518888729,0.2695562697094232,0.26677327900818565,0.9112922607554566,0.011751336005351533,0.3015996601287416,1.4345044598520544,0.34798957039660044,0.26154726961524566,1.4362772841401112,-0.037754511928682,0.42345587482212244,1.1729515993034518,0.41864080420065514,0.3829246209377461,1.1951424122749523,0.04002750265483666,0.521783608269738,1.406795284786914,0.317347989044034,0.4710787182453784,1.4173569322475221
0.17141958265427718,0.3112059321416663,1.5127861442821506,-0.0016361794949287523,0.4604397492559069,0.09015076707095292,0.25999223885994716,0.10424235533598701,0.0806656369150764,0.054736635394835136,0.45805899579661585,0.5030521703391706,0.27602789971536434,0.21185950551661373,0.481314151143272,0.1006264238487026,0.3113558286679185,0.9101791479350939,0.2669061604312867,0.2723650499645113,0.9101372001345567,0.008167242820059813,0.3051499843306696,1.4332499399476644,0.3443771114801449,0.26837484337069883,1.436011974453734,-0.041076914266206375,0.4287722571573681,1.17247607582731,0.41581674958030745,0.3885239686942465,1.1944785453614046,0.037080972172342554,0.5297529448259027,1.405061102602267,0.3146491777156383,0.4750107108398654,1.4174077995471337
0.16593962952810706,0.3168280987107018,1.5122038299369966,-0.002488558232123611,0.45941683731790134,0.08773934664826907,0.26027559324656613,0.10475237495449602,0.08100557974005429,0.05269913750613252,0.45900515424226324,0.5008068847869979,0.2742195227695181,0.21723052661250994,0.48039541421633186,0.09745749001739272,0.31681695327942844,0.9096599378633999,0.26376547058500277,0.27796165146966134,0.9091629198003585,0.0048758047906815125,0.30974735492596017,1.4334858019329464,0.3396109659716939,0.27295198067728743,1.4361292425761465,-0.043396750884373156,0.43415619111312065,1.1729009657912537,0.4127663803999633,0.39315184563588806,1.1951465133887715,0.03329298984903218,0.5371894274398513,1.405071598579763,0.3132231110123654,0.48144925101029895,1.4180872791115524
0.1610484090979424,0.32215419427170866,1.5115542263401747,-0.002704771908172107,0.45918834484360427,0.0856410274463255,0.2595673622035754,0.10645508446669223,0.08080036605408734,0.05241725715407384,0.45946952174541594,0.4987108353097468,0.2728886294381833,0.2227170347370859,0.47912615957096044,0.09418156362366387,0.3222417505389566,0.909577309437743,0.2606258071098445,0.2840311223777943,0.9077563117611345,-0.0011433556105942978,0.31392887995249297,1.4329621455960893,0.3350014990856391,0.27889225499748804,1.4359415919594793,-0.04651190880888311,0.4389978945547236,1.1721654985683665,0.40883413452898076,0.4011402339012623,1.1962028830296347,0.029474426499326627,0.5431644368564623,1.4040681396618615,0.3088382653672048,0.4893168322840747,1.4189846040987733
0.1559554059512899,0.327275079533653,1.5117441799724178,-0.002481823210382614,0.4584278973970346,0.08442094793004329,0.2593230558619502,0.10752931612608874,0.08158257355714656,0.052070974763275865,0.46165977793743246,0.4975561633022345,0.27045262050891833,0.22698305776170535,0.47903139782929705,0.09014869253532899,0.32707395960254565,0.9096435222174704,0.25669500405513784,0.28934257125073026,0.9074715410628456,-0.0059068978843172205,0.3180934582454369,1.4315814115644725,0.33077379718805366,0.2862490024696498,1.437430221147074,-0.049077385407839055,0.4443198414565095,1.1709794748836206,0.4046412931632327,0.4104308369553721,1.1986948691955435,0.02473819978676617,0.5485538046054516,1.4035570447981076,0.3028004334803209,0.49724129475356915,1.4211866632721095
0.15083265602777687,0.33237337652233534,1.5123887454703102,-0.0012538585838794093,0.4595132105104689,0.08325501901118051,0.2595451187694439,0.10888635785724336,0.08299714854587344,0.05045227587127457,0.4645705666615391,0.4967352164105114,0.2688650286247157,0.23303772545626072,0.4790400793451908,0.08683727326421949,0.3326306311305038,0.9098334287954193,0.2534268168268995,0.29507293786450417,0.9074696667046701,-0.011473728627998114,0.3244244552318809,1.4305044099599658,0.32614225372518474,0.29272906423069756,1.4393416708952043,-0.05435372261662301,0.45088975645634005,1.1699775037368931,0.4010871526153212,0.41782189170314477,1.2014221680992445,0.022114400656021646,0.5540349487783716,1.4021711548000584,0.29634992373261526,0.5057042280028982,1.4221474871631372
0.1450199856380434,0.3386008321873229,1.5125639254846195,0.000550503666318239,0.45940590410597143,0.08239402437333064,0.2600669028347103,0.10996134422715943,0.08497716918078002,0.05024064298925935,0.4667322224298801,0.496095482740074,0.2673872560225749,0.23891640263414182,0.47953303804296743,0.0826697699423644,0.3368281914714511,0.9101658198373704,0.24936123871560212,0.2997303191369373,0.9080323927016734,-0.01722486944578038,0.3293837689023641,1.4303538019804234,0.3208954819793934,0.30051570892522816,1.438552856213532,-0.057688411675234294,0.45511199146289816,1.169081614990458,0.396124738839337,0.42444859953815783,1.200109208435455,0.01882123990117012,0.5570626089280105,1.4017879313882586,0.2936293318154449,0.5071967283347237,1.4238444579191127
0.1394099372252167,0.346125285114404,1.5132733720127094,0.0009001875365227872,0.4587330624659862,0.0816563128920592,0.260141477487049,0.11158542176459925,0.0873468857838208,0.0494186723979883,0.46897436228165673,0.49542924390386683,0.2662764615882383,0.24702500144993186,0.4797431301209887,0.07816679984301851,0.34100248564627017,0.9103763782580531,0.2451095439123633,0.30499103579319625,0.9084913885858062,-0.023225054573120484,0.3338372123063485,1.4300032933802003,0.3150643030212179,0.30787040094138546,1.4390843839811918,-0.06013010341480585,0.4606324750213887,1.168709325977881,0.3926752404460412,0.433423469788503,1.202258620872234,0.017144146040767413,0.5597795570915657,1.4023723523919889,0.2865956082539677,0.5139895896256588,1.4251243470901502
0.13175820467205776,0.35354909527123024,1.5130633332844599,-0.0009168460207925783,0.4585055613768321,0.08120921617603404,0.26075306934907705,0.11469421722484367,0.09009326774293012,0.04681965984941413,0.4711034015459953,0.4950103297713679,0.2642685041133571,0.25562701448619624,0.48058590953256164,0.07405745832995667,0.34640801476313027,0.91105118789134,0.24094987439717705,0.31016044405010407,0.9096762285126136,-0.028628879700618334,0.34019938559137824,1.430658861152047,0.3084326454918328,0.31646443952885406,1.44014498284303,-0.06466596570970118,0.4660675322183896,1.168794270280976,0.3876138122908724,0.4411931240934955,1.2034086282636167,0.014494021573048558,0.5646156233823539,1.4020826882920658,0.2812229005213801,0.522804559290339,1.4257441309174377
0.12328287636847597,0.361291772917554,1.5136325285445815,-0.002814247265128148,0.45897100567503935,0.0814316043194739,0.2610305982379812,0.1170051355681558,0.09399068959681682,0.04353922699070635,0.47094677432349175,0.4954023869227104,0.262666607590481,0.2667220064938246,0.4812202936124076,0.06953623946116633,0.3494682520400335,0.9124759809128831,0.23691788860998286,0.31556652699773785,0.9108515634981407,-0.03441003049881491,0.3454630181691097,1.4313443954733993,0.30126735801143395,0.3248743779061734,1.4417061184887268,-0.0676909044586434,0.47312609681987366,1.169994696654417,0.3810928672746922,0.44940057818109197,1.2050760328821168,0.016015066554189956,0.5715024523456906,1.4017663247076197,0.2735846403643532,0.5310931297853166,1.426841024916867
0.11421268170269795,0.3689864992177605,1.5142802972582676,-0.0038528041837380157,0.4586295537436907,0.08155105279793144,0.2614086946450037,0.11956363986532159,0.0978690530806241,0.03972646758766,0.46941786485030423,0.4958570346875671,0.26131547926345633,0.27804105909998167,0.48159388104122125,0.06476472688511584,0.3533269106278014,0.9145234375697954,0.23254941495043774,0.321586818683646,0.9116064713895613,-0.042514900494568436,0.35089317834298284,1.4330655526343663,0.29383711914316146,0.3332480629215356,1.4434461194456178,-0.07291688707170868,0.4771808617903504,1.1706974623145605,0.3751258261890922,0.45652514791237947,1.206662640634716,0.010602686204258771,0.5773325437005022,1.4017784334076269,0.2652949336986613,0.5394748511780635,1.4268096304375089
0.10727436908239683,0.37749836838985373,1.5148494272055426,-0.004110901292892286,0.45735364301344056,0.08050496486818012,0.2610977242900701,0.12298330734529146,0.10239053513282216,0.036886119921305305,0.4666890651729945,0.49511501797279445,0.25998263026439944,0.2913455483119741,0.48187772349681407,0.060629912691275746,0.3556998076960544,0.9152360731581052,0.2288665483337089,0.32641368255427605,0.9125002702733671,-0.049520060349942226,0.3561916540931308,1.4334606146689146,0.28851131984573686,0.34266122337169125,1.4459970002929214,-0.07830311347805738,0.4797830626764241,1.1696262150967431,0.36833898957975725,0.4648367519949888,1.2081457453214617,0.002484629015447064,0.5825030004740291,1.4005460860592074,0.257082092590772,0.549126306998975,1.4270630927042702
0.1000211543386836,0.38557711163934816,1.5144577270817114,-0.004411511245103348,0.45758453168939134,0.0800336833876916,0.26080255022850946,0.12750796715261203,0.10800719295583605,0.03380300901549349,0.46465113211635223,0.4949471782200705,0.2614733232166677,0.3058095984403484,0.48292545236912926,0.05630975047517734,0.3567888400247627,0.9159451233211271,0.22494558477073978,0.32986492491986236,0.9138828242598814,-0.055865914462305405,0.36146536907361065,1.434490728946109,0.2819111291710289,0.3520317480261172,1.447385322105594,-0.08369402945830132,0.4832850468271046,1.1697388542460108,0.3615532885101948,0.4751403619826692,1.209954413494332,-0.005685536023252741,0.5870870510336297,1.4011312861334084,0.2499634021988017,0.5592404685178575,1.428788054853527
0.09261923173999509,0.39285902921427424,1.514906729269403,-0.004049185477101386,0.4580818016380658,0.08000476314066293,0.26233907414576507,0.1336304975062517,0.11516934477149705,0.030527607373774412,0.4634446924583462,0.4952738137798093,0.2632579055536271,0.3220327642462018,0.48510934764387414,0.052615103319625295,0.3578155966649829,0.9168609922398334,0.221852163867549,0.33487994144786987,0.9161034804110092,-0.06203634152158649,0.36493878534471713,1.4344761941276296,0.27604961294199876,0.36062876295842,1.4494750436622277,-0.08890388886763058,0.4873190427571127,1.169880323260813,0.35469472927703144,0.4854618471869965,1.2126188281276906,-0.0126075145537967,0.5915137018038584,1.4016648089966974,0.2426852292651584,0.5707994662942687,1.4307579943984345
0.08491138369744511,0.39937440432524157,1.5152148833468655,-0.0036692329764428993,0.45850235067041395,0.08015032094278428,0.2646978195363638,0.13987338771179264,0.1222150280377464,0.027843680979562826,0.4601427992600143,0.4956931458362157,0.2665104565882067,0.33864193344830973,0.4866939075321882,0.0494590757464586,0.3572025123108002,0.9179699448851815,0.21927917353552728,0.33904416982599167,0.917279658255737,-0.06766140286956099,0.3689390434357447,1.43508631719044,0.2697494017940988,0.36985980828298154,1.4509449605472236,-0.09631238640134877,0.48829208598938295,1.1693021108761346,0.34925426722609343,0.49434709993654014,1.2141891699835579,-0.01576958958682085,0.5946376443920222,1.3986613788815843,0.23647471839422243,0.580079870511445,1.4317673894837968
0.0798818586812127,0.40396726489903845,1.5155055063593053,-0.0036165488439825902,0.4583552190161832,0.07992525696408283,0.2678154747127572,0.14668835322013812,0.12972419104635347,0.026137118433283268,0.4572294299503761,0.49559208025160695,0.2710594097678898,0.35459896811734404,0.4890593866427053,0.046609006479846914,0.3560096307804136,0.9183428532518124,0.2166103939969583,0.339602880890702,0.9185324101516146,-0.07254581305111388,0.37153595548456364,1.4348642859085337,0.2658820074649511,0.3774020680109073,1.4530282385425797,-0.10180306391976347,0.48850063194960247,1.1680808041241029,0.3452643654036745,0.5003917122772221,1.2154459847428951,-0.025260751882686252,0.5935879649344092,1.399382241281499,0.23181795470507444,0.5878104786735564,1.4319996670422337
0.07439629725431307,0.4096857717731586,1.5149931154352045,-0.0043897154333908135,0.45685501049651694,0.0798667065080318,0.27209084202445866,0.15250720465527343,0.13652106890207186,0.02379556075488668,0.45625027632421267,0.49564446690778174,0.27533505531290153,0.36751804421417683,0.49164713522914216,0.0441039477877315,0.35543476452309714,0.9184970888306697,0.2142369050855691,0.3405566113257624,0.9196439525202694,-0.07561204757266149,0.3749665080201349,1.433253893631673,0.26237949478478645,0.38522135753655173,1.4543076529893029,-0.10655472413214787,0.4901258989310159,1.1658749936900294,0.3406579586028431,0.5095639309439431,1.217061913517419,-0.033823594108050054,0.5934280127443243,1.3992006799646732,0.22696290470564842,0.5960257021144665,1.4338720879530658
0.06960456039234644,0.41415647619391555,1.5150082304830064,-0.003920707857301663,0.4557582576272566,0.07944147145163254,0.2750356848244189,0.15746305198299884,0.1405018497481668,0.02204779477539672,0.45553698204416526,0.495364517526032,0.27866258260883775,0.3763148147491861,0.4932803246413925,0.0422681247797306,0.35560298985250105,0.9184336025217814,0.21254160027553032,0.34257998589937194,0.9200426345428392,-0.07885654943720152,0.37665497920934676,1.4330126223396986,0.25962426276684947,0.3917260066448409,1.4542496127767537,-0.11101506128917102,0.48715410375463225,1.1638167367509826,0.33435402483864773,0.5216728922923224,1.2188790462733168,-0.03971241847694302,0.5933341825006992,1.396284321208034,0.22041319765177103,0.6035760847730524,1.4373240231809938
0.0660974416601097,0.4169890166861812,1.5146646239142998,-0.003361340727759191,0.4568527963279556,0.07920186327606415,0.2760082002360748,0.1606043439201591,0.14382966235736752,0.02012166767028936,0.4544172307800459,0.495266527496046,0.28185395852938516,0.383791075678309,0.49385072392915175,0.04128077470102059,0.35547021467018924,0.9185243150349975,0.21167299664429712,0.3439801682268319,0.9194378616332214,-0.08009529041176397,0.37672917813987833,1.4328099955601359,0.25679251392651203,0.39826977859059504,1.4542624208156791,-0.11534053766222507,0.4846385476020276,1.162954226231464,0.33249403873472955,0.531497285757761,1.2210478329431442,-0.04108380837753081,0.5939671515936614,1.3930277641672308,0.21492380625724494,0.608427272182717,1.4393852052592728
0.06363543776537163,0.41878378586900794,1.5138755078091948,-0.0032359696388016045,0.4572164497379621,0.07904735105275937,0.2770658742591553,0.16236345642070205,0.14420107393408302,0.01900258844514522,0.4531589981401164,0.49516867753057814,0.2830216035091301,0.3855661034099513,0.49420712517541154,0.04083310458263953,0.3559897788789095,0.918796242704404,0.21126222970385758,0.3449857802348602,0.9194649582821162,-0.08155542681247226,0.3774738128387578,1.4321488774327527,0.25424252039760675,0.4035114397098111,1.453926007336556,-0.11750369453339894,0.48396009490894637,1.1618175344082409,0.3305244345010862,0.5397104344946883,1.2226281914499244,-0.04551948239153098,0.5912384330135351,1.3935660735823265,0.21104172488066628,0.6126622210021208,1.441284492963221
0.06284114745594534,0.419802149541519,1.5137283591758623,-0.0034316854210345916,0.45702186925818056,0.07921169523982538,0.2763469002277187,0.16377443565124875,0.14131312028464266,0.019191152561355635,0.4514544277528497,0.49529746680368436,0.28277285506465566,0.38337369273923133,0.49357605354839157,0.04036580514387693,0.35686226653740116,0.9195391314221084,0.21083540329076017,0.3465082568975175,0.919138910090244,-0.0814303080971512,0.3758835719980939,1.4305842222152003,0.2561108267140311,0.4071436072085699,1.4541799545526333,-0.11934279250160273,0.4799948918332786,1.1595967593357563,0.32677263331196993,0.5469941708959499,1.2232666354392205,-0.050582393370750156,0.5886103781540993,1.3917094427960963,0.2067667120641754,0.6154539820082242,1.4430880805961723
0.06206737244024037,0.41921149325870105,1.5142802937575115,-0.0037028438317712785,0.4559808775705353,0.07911008521226907,0.27463005230623877,0.1633174418042938,0.13717578063424046,0.018970603026140575,0.4495851956938893,0.49517727302697895,0.28116240771510814,0.37899011851746145,0.49185271656319274,0.04008753963759138,0.35826299873882295,0.920148512735172,0.21056267127170558,0.3482090784200419,0.9181190879400813,-0.0807074647478539,0.372957126015633,1.4290603356516318,0.25875751831833405,0.411199460128284,1.4553977696941551,-0.12083943588756473,0.47421088780688514,1.157317254993063,0.32319644946219417,0.5530371759097007,1.2238780092705832,-0.059040490692894604,0.5798425334972723,1.3927378725378263,0.20309830334945073,0.6170274832024789,1.4449888402987123
0.06198213191650694,0.41804835970503496,1.5136424018385142,-0.003835882719912916,0.45642054187683134,0.07902121465825525,0.2707894745241773,0.1626888716561782,0.13103946065176042,0.01852700582464706,0.44791274866002934,0.4950641988253623,0.27898164478547616,0.37137468049347133,0.48984309396307696,0.040467117320767236,0.35872894078630263,0.9204445095409522,0.21094769566236504,0.349066542762019,0.9170553859833377,-0.07833532652628229,0.36771656491608806,1.4280135411567576,0.2591502706724464,0.4133888898936461,1.4557242896361815,-0.12111254641037184,0.4707325034282741,1.157330086597497,0.32053949010082616,0.5584978623594568,1.2254027387128896,-0.056808928864771874,0.5786198695761116,1.3910581018687274,0.201045603408261,0.6186468645731128,1.4479224130926382
0.06525302784806183,0.41585906670952694,1.5133701662634713,-0.003715444470967553,0.4565736060588182,0.07879129377303111,0.2640028405757159,0.16149367193028646,0.12426835410370837,0.018658917331932298,0.44703778722446147,0.49481338983649137,0.27506809942274446,0.3622204017247287,0.48751163530653474,0.04074160767960444,0.360187863600296,0.9206648108056651,0.2111797508301516,0.35040286557917943,0.9157742958981997,-0.07501493583824019,0.36350579495403357,1.4285680238065466,0.26102242437630485,0.4141690600176003,1.4552811601487214,-0.12043142590981396,0.46663359403943816,1.1583613101140053,0.32240209191660274,0.5618987777831506,1.2266403609523278,-0.05669417938760281,0.5758905281569482,1.3915978276565732,0.19855905419102893,0.6192475474638418,1.4475046031111438
0.06921307977692033,0.41189000516872887,1.5134820205755135,-0.004701090383451547,0.45545691959127793,0.07847885775813508,0.25789338935975903,0.15904887052788708,0.11796030240395004,0.018619580421462077,0.44880766624553764,0.4945050243377393,0.27164985565175787,0.3539311649465409,0.48427659680573215,0.04200503421084411,0.36230756773173584,0.9203547890071246,0.21233923912189945,0.35207148001122385,0.9133642190787165,-0.07042643002744384,0.3584473820247265,1.428135310334651,0.2657369873790889,0.4148996080199323,1.4554016266608014,-0.11984722284455969,0.462379944452625,1.158947070333472,0.32407787638601904,0.5626511458068127,1.2259688345223805,-0.05394418000226723,0.5740873965282807,1.3904158538357234,0.1987290306447307,0.6182755138960958,1.4464292575227877
0.07488075150506364,0.40732221927226964,1.5126021405335737,-0.005475979535938614,0.4557058679243453,0.07896875139314143,0.25058699852183824,0.1563170266828024,0.11217919830381322,0.01916458487786114,0.45219629414716195,0.4949634240719043,0.2677709122684535,0.3462395365851264,0.4809476712214182,0.04350038599844554,0.36400976576201416,0.9204215593531435,0.21362835895633517,0.3526406964814004,0.9106731130745757,-0.06479303600669135,0.3518669669281699,1.4269895999510587,0.27024295327391684,0.4132504985522927,1.4526725756454826,-0.1189746238990677,0.45707086277648695,1.1592119564255141,0.32415009196546934,0.5661509092620003,1.2255456992845457,-0.05258846372146114,0.5677118320540044,1.391056355990304,0.2003549563720661,0.6156815391790905,1.448327611127413
0.08056523038913019,0.40174479548978054,1.5113252100373007,-0.00481442542032058,0.4570211663981035,0.08019034329241966,0.24424038324307018,0.15415600730901136,0.10605453278879455,0.02043798743195112,0.4576613865491366,0.49615964514504973,0.2632729909155712,0.3370814680748889,0.4782601427092214,0.045011516775839124,0.3655862756889044,0.9207753019721379,0.21486553864950647,0.3527231324267811,0.9084260296431083,-0.057695518531060856,0.34571983271201245,1.4257190120601093,0.27474789277997386,0.41093255903564746,1.450343328053797,-0.11878240717529455,0.45078302518487345,1.1593791910050155,0.3266495618015141,0.5663747403717356,1.224478411589626,-0.049482237919272996,0.5586869212254867,1.3916572292597003,0.20398511430554667,0.6109087100568891,1.4489331844514026
0.08842661605581972,0.39702296375504126,1.5093100996655007,-0.004986919080931381,0.45667662759033706,0.0807089608030337,0.24061785347963918,0.15283154774471008,0.09947830170181753,0.024097953883007256,0.4678413671577167,0.49627373661734825,0.2606714566158352,0.32816248935674114,0.47526769209579656,0.04639240999491341,0.3673805651689282,0.9191099448741709,0.2159536833794816,0.3521866150644056,0.9054502917351658,-0.04907150219078812,0.34042498706812757,1.4239407676612665,0.2818436746008969,0.40585087409017323,1.4487917904350942,-0.11798360185038549,0.44700610781599576,1.1601185579739084,0.3327586787655582,0.5625999199384746,1.2236037328941345,-0.04477081791884803,0.555604957457787,1.3908675946103066,0.21000458756748933,0.605643012817957,1.4482971626973067
0.09946179073201723,0.39007851307516833,1.5079376395699386,-0.003885439325650827,0.4583054304878067,0.08134423312811521,0.24051721198161335,0.1498628170375256,0.09405135649096032,0.026740821123822173,0.4786055841510239,0.49645356953613634,0.2588198316130841,0.3182738203304907,0.4730788825032115,0.04839758999824078,0.36877410035322006,0.9169901314044873,0.21763848349293816,0.3505896598351283,0.9030670155509151,-0.041469103620559854,0.33308696996613174,1.4225830339492762,0.290724045317501,0.39870018442985455,1.4477734826785702,-0.11745910563944355,0.4413371607662845,1.161403442662212,0.34063362167733885,0.5560645505630081,1.222794376405777,-0.03899874069713757,0.5471769937365697,1.3917108152452426,0.2177200055652311,0.598755917542996,1.4474647963111043
0.11001,0.38305,1.50619,-0.00273,0.46048,0.08341,0.24325,0.14475,0.08961,0.03072,0.48967,0.49777,0.25752,0.30871,0.47075,0.05065,0.37007,0.91572,0.21925,0.34753,0.90047,-0.03065,0.32743,1.42278,0.29865,0.38965,1.44528,-0.12104,0.43597,1.16635,0.34792,0.54919,1.2217,-0.03029,0.53872,1.39352,0.22647,0.59144,1.44725
,,,,,,,,,,,,,,,,,,,,,,,,,,,,,,,,,,,,,,
,,,,,,,,,,,,,,,,,,,,,,,,,,,,,,,,,,,,,,
,,,,,,,,,,,,,,,,,,,,,,,,,,,,,,,,,,,,,,
,,,,,,,,,,,,,,,,,,,,,,,,,,,,,,,,,,,,,,
,,,,,,,,,,,,,,,,,,,,,,,,,,,,,,,,,,,,,,
,,,,,,,,,,,,,,,,,,,,,,,,,,,,,,,,,,,,,,
,,,,,,,,,,,,,,,,,,,,,,,,,,,,,,,,,,,,,,
,,,,,,,,,,,,,,,,,,,,,,,,,,,,,,,,,,,,,,
,,,,,,,,,,,,,,,,,,,,,,,,,,,,,,,,,,,,,,
,,,,,,,,,,,,,,,,,,,,,,,,,,,,,,,,,,,,,,
,,,,,,,,,,,,,,,,,,,,,,,,,,,,,,,,,,,,,,
,,,,,,,,,,,,,,,,,,,,,,,,,,,,,,,,,,,,,,
,,,,,,,,,,,,,,,,,,,,,,,,,,,,,,,,,,,,,,
,,,,,,,,,,,,,,,,,,,,,,,,,,,,,,,,,,,,,,
,,,,,,,,,,,,,,,,,,,,,,,,,,,,,,,,,,,,,,
,,,,,,,,,,,,,,,,,,,,,,,,,,,,,,,,,,,,,,
,,,,,,,,,,,,,,,,,,,,,,,,,,,,,,,,,,,,,,
,,,,,,,,,,,,,,,,,,,,,,,,,,,,,,,,,,,,,,
,,,,,,,,,,,,,,,,,,,,,,,,,,,,,,,,,,,,,,
,,,,,,,,,,,,,,,,,,,,,,,,,,,,,,,,,,,,,,
,,,,,,,,,,,,,,,,,,,,,,,,,,,,,,,,,,,,,,
,,,,,,,,,,,,,,,,,,,,,,,,,,,,,,,,,,,,,,
,,,,,,,,,,,,,,,,,,,,,,,,,,,,,,,,,,,,,,
,,,,,,,,,,,,,,,,,,,,,,,,,,,,,,,,,,,,,,
,,,,,,,,,,,,,,,,,,,,,,,,,,,,,,,,,,,,,,
,,,,,,,,,,,,,,,,,,,,,,,,,,,,,,,,,,,,,,
,,,,,,,,,,,,,,,,,,,,,,,,,,,,,,,,,,,,,,
,,,,,,,,,,,,,,,,,,,,,,,,,,,,,,,,,,,,,,
,,,,,,,,,,,,,,,,,,,,,,,,,,,,,,,,,,,,,,
,,,,,,,,,,,,,,,,,,,,,,,,,,,,,,,,,,,,,,
,,,,,,,,,,,,,,,,,,,,,,,,,,,,,,,,,,,,,,
,,,,,,,,,,,,,,,,,,,,,,,,,,,,,,,,,,,,,,
,,,,,,,,,,,,,,,,,,,,,,,,,,,,,,,,,,,,,,
,,,,,,,,,,,,,,,,,,,,,,,,,,,,,,,,,,,,,,
,,,,,,,,,,,,,,,,,,,,,,,,,,,,,,,,,,,,,,
,,,,,,,,,,,,,,,,,,,,,,,,,,,,,,,,,,,,,,
,,,,,,,,,,,,,,,,,,,,,,,,,,,,,,,,,,,,,,
,,,,,,,,,,,,,,,,,,,,,,,,,,,,,,,,,,,,,,
,,,,,,,,,,,,,,,,,,,,,,,,,,,,,,,,,,,,,,
,,,,,,,,,,,,,,,,,,,,,,,,,,,,,,,,,,,,,,
,,,,,,,,,,,,,,,,,,,,,,,,,,,,,,,,,,,,,,
,,,,,,,,,,,,,,,,,,,,,,,,,,,,,,,,,,,,,,
,,,,,,,,,,,,,,,,,,,,,,,,,,,,,,,,,,,,,,
,,,,,,,,,,,,,,,,,,,,,,,,,,,,,,,,,,,,,,
,,,,,,,,,,,,,,,,,,,,,,,,,,,,,,,,,,,,,,
,,,,,,,,,,,,,,,,,,,,,,,,,,,,,,,,,,,,,,
,,,,,,,,,,,,,,,,,,,,,,,,,,,,,,,,,,,,,,
,,,,,,,,,,,,,,,,,,,,,,,,,,,,,,,,,,,,,,
,,,,,,,,,,,,,,,,,,,,,,,,,,,,,,,,,,,,,,
,,,,,,,,,,,,,,,,,,,,,,,,,,,,,,,,,,,,,,
,,,,,,,,,,,,,,,,,,,,,,,,,,,,,,,,,,,,,,
,,,,,,,,,,,,,,,,,,,,,,,,,,,,,,,,,,,,,,
,,,,,,,,,,,,,,,,,,,,,,,,,,,,,,,,,,,,,,
,,,,,,,,,,,,,,,,,,,,,,,,,,,,,,,,,,,,,,
,,,,,,,,,,,,,,,,,,,,,,,,,,,,,,,,,,,,,,
,,,,,,,,,,,,,,,,,,,,,,,,,,,,,,,,,,,,,,
,,,,,,,,,,,,,,,,,,,,,,,,,,,,,,,,,,,,,,
,,,,,,,,,,,,,,,,,,,,,,,,,,,,,,,,,,,,,,
,,,,,,,,,,,,,,,,,,,,,,,,,,,,,,,,,,,,,,
,,,,,,,,,,,,,,,,,,,,,,,,,,,,,,,,,,,,,,
,,,,,,,,,,,,,,,,,,,,,,,,,,,,,,,,,,,,,,
,,,,,,,,,,,,,,,,,,,,,,,,,,,,,,,,,,,,,,
,,,,,,,,,,,,,,,,,,,,,,,,,,,,,,,,,,,,,,
,,,,,,,,,,,,,,,,,,,,,,,,,,,,,,,,,,,,,,
,,,,,,,,,,,,,,,,,,,,,,,,,,,,,,,,,,,,,,
,,,,,,,,,,,,,,,,,,,,,,,,,,,,,,,,,,,,,,
,,,,,,,,,,,,,,,,,,,,,,,,,,,,,,,,,,,,,,
,,,,,,,,,,,,,,,,,,,,,,,,,,,,,,,,,,,,,,
,,,,,,,,,,,,,,,,,,,,,,,,,,,,,,,,,,,,,,
,,,,,,,,,,,,,,,,,,,,,,,,,,,,,,,,,,,,,,
,,,,,,,,,,,,,,,,,,,,,,,,,,,,,,,,,,,,,,
,,,,,,,,,,,,,,,,,,,,,,,,,,,,,,,,,,,,,,
,,,,,,,,,,,,,,,,,,,,,,,,,,,,,,,,,,,,,,
,,,,,,,,,,,,,,,,,,,,,,,,,,,,,,,,,,,,,,
,,,,,,,,,,,,,,,,,,,,,,,,,,,,,,,,,,,,,,
,,,,,,,,,,,,,,,,,,,,,,,,,,,,,,,,,,,,,,
,,,,,,,,,,,,,,,,,,,,,,,,,,,,,,,,,,,,,,
,,,,,,,,,,,,,,,,,,,,,,,,,,,,,,,,,,,,,,
,,,,,,,,,,,,,,,,,,,,,,,,,,,,,,,,,,,,,,
,,,,,,,,,,,,,,,,,,,,,,,,,,,,,,,,,,,,,,
,,,,,,,,,,,,,,,,,,,,,,,,,,,,,,,,,,,,,,
,,,,,,,,,,,,,,,,,,,,,,,,,,,,,,,,,,,,,,
,,,,,,,,,,,,,,,,,,,,,,,,,,,,,,,,,,,,,,
,,,,,,,,,,,,,,,,,,,,,,,,,,,,,,,,,,,,,,
,,,,,,,,,,,,,,,,,,,,,,,,,,,,,,,,,,,,,,
,,,,,,,,,,,,,,,,,,,,,,,,,,,,,,,,,,,,,,
,,,,,,,,,,,,,,,,,,,,,,,,,,,,,,,,,,,,,,
,,,,,,,,,,,,,,,,,,,,,,,,,,,,,,,,,,,,,,
,,,,,,,,,,,,,,,,,,,,,,,,,,,,,,,,,,,,,,
,,,,,,,,,,,,,,,,,,,,,,,,,,,,,,,,,,,,,,
,,,,,,,,,,,,,,,,,,,,,,,,,,,,,,,,,,,,,,
,,,,,,,,,,,,,,,,,,,,,,,,,,,,,,,,,,,,,,
,,,,,,,,,,,,,,,,,,,,,,,,,,,,,,,,,,,,,,
,,,,,,,,,,,,,,,,,,,,,,,,,,,,,,,,,,,,,,
,,,,,,,,,,,,,,,,,,,,,,,,,,,,,,,,,,,,,,
,,,,,,,,,,,,,,,,,,,,,,,,,,,,,,,,,,,,,,
,,,,,,,,,,,,,,,,,,,,,,,,,,,,,,,,,,,,,,
,,,,,,,,,,,,,,,,,,,,,,,,,,,,,,,,,,,,,,
,,,,,,,,,,,,,,,,,,,,,,,,,,,,,,,,,,,,,,
,,,,,,,,,,,,,,,,,,,,,,,,,,,,,,,,,,,,,,
,,,,,,,,,,,,,,,,,,,,,,,,,,,,,,,,,,,,,,
,,,,,,,,,,,,,,,,,,,,,,,,,,,,,,,,,,,,,,
,,,,,,,,,,,,,,,,,,,,,,,,,,,,,,,,,,,,,,
,,,,,,,,,,,,,,,,,,,,,,,,,,,,,,,,,,,,,,
,,,,,,,,,,,,,,,,,,,,,,,,,,,,,,,,,,,,,,
,,,,,,,,,,,,,,,,,,,,,,,,,,,,,,,,,,,,,,
,,,,,,,,,,,,,,,,,,,,,,,,,,,,,,,,,,,,,,
,,,,,,,,,,,,,,,,,,,,,,,,,,,,,,,,,,,,,,
,,,,,,,,,,,,,,,,,,,,,,,,,,,,,,,,,,,,,,
,,,,,,,,,,,,,,,,,,,,,,,,,,,,,,,,,,,,,,
,,,,,,,,,,,,,,,,,,,,,,,,,,,,,,,,,,,,,,
,,,,,,,,,,,,,,,,,,,,,,,,,,,,,,,,,,,,,,
,,,,,,,,,,,,,,,,,,,,,,,,,,,,,,,,,,,,,,
,,,,,,,,,,,,,,,,,,,,,,,,,,,,,,,,,,,,,,
,,,,,,,,,,,,,,,,,,,,,,,,,,,,,,,,,,,,,,
,,,,,,,,,,,,,,,,,,,,,,,,,,,,,,,,,,,,,,
,,,,,,,,,,,,,,,,,,,,,,,,,,,,,,,,,,,,,,
,,,,,,,,,,,,,,,,,,,,,,,,,,,,,,,,,,,,,,
,,,,,,,,,,,,,,,,,,,,,,,,,,,,,,,,,,,,,,
,,,,,,,,,,,,,,,,,,,,,,,,,,,,,,,,,,,,,,
,,,,,,,,,,,,,,,,,,,,,,,,,,,,,,,,,,,,,,
,,,,,,,,,,,,,,,,,,,,,,,,,,,,,,,,,,,,,,
,,,,,,,,,,,,,,,,,,,,,,,,,,,,,,,,,,,,,,
,,,,,,,,,,,,,,,,,,,,,,,,,,,,,,,,,,,,,,
,,,,,,,,,,,,,,,,,,,,,,,,,,,,,,,,,,,,,,
,,,,,,,,,,,,,,,,,,,,,,,,,,,,,,,,,,,,,,
,,,,,,,,,,,,,,,,,,,,,,,,,,,,,,,,,,,,,,
,,,,,,,,,,,,,,,,,,,,,,,,,,,,,,,,,,,,,,
,,,,,,,,,,,,,,,,,,,,,,,,,,,,,,,,,,,,,,
,,,,,,,,,,,,,,,,,,,,,,,,,,,,,,,,,,,,,,
,,,,,,,,,,,,,,,,,,,,,,,,,,,,,,,,,,,,,,
,,,,,,,,,,,,,,,,,,,,,,,,,,,,,,,,,,,,,,
,,,,,,,,,,,,,,,,,,,,,,,,,,,,,,,,,,,,,,
,,,,,,,,,,,,,,,,,,,,,,,,,,,,,,,,,,,,,,
,,,,,,,,,,,,,,,,,,,,,,,,,,,,,,,,,,,,,,
,,,,,,,,,,,,,,,,,,,,,,,,,,,,,,,,,,,,,,
,,,,,,,,,,,,,,,,,,,,,,,,,,,,,,,,,,,,,,
,,,,,,,,,,,,,,,,,,,,,,,,,,,,,,,,,,,,,,
,,,,,,,,,,,,,,,,,,,,,,,,,,,,,,,,,,,,,,
,,,,,,,,,,,,,,,,,,,,,,,,,,,,,,,,,,,,,,
,,,,,,,,,,,,,,,,,,,,,,,,,,,,,,,,,,,,,,
,,,,,,,,,,,,,,,,,,,,,,,,,,,,,,,,,,,,,,
,,,,,,,,,,,,,,,,,,,,,,,,,,,,,,,,,,,,,,
,,,,,,,,,,,,,,,,,,,,,,,,,,,,,,,,,,,,,,
,,,,,,,,,,,,,,,,,,,,,,,,,,,,,,,,,,,,,,
,,,,,,,,,,,,,,,,,,,,,,,,,,,,,,,,,,,,,,
,,,,,,,,,,,,,,,,,,,,,,,,,,,,,,,,,,,,,,
,,,,,,,,,,,,,,,,,,,,,,,,,,,,,,,,,,,,,,
,,,,,,,,,,,,,,,,,,,,,,,,,,,,,,,,,,,,,,
,,,,,,,,,,,,,,,,,,,,,,,,,,,,,,,,,,,,,,
,,,,,,,,,,,,,,,,,,,,,,,,,,,,,,,,,,,,,,
,,,,,,,,,,,,,,,,,,,,,,,,,,,,,,,,,,,,,,
,,,,,,,,,,,,,,,,,,,,,,,,,,,,,,,,,,,,,,
,,,,,,,,,,,,,,,,,,,,,,,,,,,,,,,,,,,,,,
,,,,,,,,,,,,,,,,,,,,,,,,,,,,,,,,,,,,,,
,,,,,,,,,,,,,,,,,,,,,,,,,,,,,,,,,,,,,,
,,,,,,,,,,,,,,,,,,,,,,,,,,,,,,,,,,,,,,
,,,,,,,,,,,,,,,,,,,,,,,,,,,,,,,,,,,,,,
,,,,,,,,,,,,,,,,,,,,,,,,,,,,,,,,,,,,,,
,,,,,,,,,,,,,,,,,,,,,,,,,,,,,,,,,,,,,,
,,,,,,,,,,,,,,,,,,,,,,,,,,,,,,,,,,,,,,
,,,,,,,,,,,,,,,,,,,,,,,,,,,,,,,,,,,,,,
,,,,,,,,,,,,,,,,,,,,,,,,,,,,,,,,,,,,,,
,,,,,,,,,,,,,,,,,,,,,,,,,,,,,,,,,,,,,,
,,,,,,,,,,,,,,,,,,,,,,,,,,,,,,,,,,,,,,
,,,,,,,,,,,,,,,,,,,,,,,,,,,,,,,,,,,,,,
,,,,,,,,,,,,,,,,,,,,,,,,,,,,,,,,,,,,,,
,,,,,,,,,,,,,,,,,,,,,,,,,,,,,,,,,,,,,,
,,,,,,,,,,,,,,,,,,,,,,,,,,,,,,,,,,,,,,
,,,,,,,,,,,,,,,,,,,,,,,,,,,,,,,,,,,,,,
,,,,,,,,,,,,,,,,,,,,,,,,,,,,,,,,,,,,,,
,,,,,,,,,,,,,,,,,,,,,,,,,,,,,,,,,,,,,,
,,,,,,,,,,,,,,,,,,,,,,,,,,,,,,,,,,,,,,
,,,,,,,,,,,,,,,,,,,,,,,,,,,,,,,,,,,,,,
,,,,,,,,,,,,,,,,,,,,,,,,,,,,,,,,,,,,,,
,,,,,,,,,,,,,,,,,,,,,,,,,,,,,,,,,,,,,,
,,,,,,,,,,,,,,,,,,,,,,,,,,,,,,,,,,,,,,
,,,,,,,,,,,,,,,,,,,,,,,,,,,,,,,,,,,,,,
,,,,,,,,,,,,,,,,,,,,,,,,,,,,,,,,,,,,,,
,,,,,,,,,,,,,,,,,,,,,,,,,,,,,,,,,,,,,,
,,,,,,,,,,,,,,,,,,,,,,,,,,,,,,,,,,,,,,
,,,,,,,,,,,,,,,,,,,,,,,,,,,,,,,,,,,,,,
,,,,,,,,,,,,,,,,,,,,,,,,,,,,,,,,,,,,,,
,,,,,,,,,,,,,,,,,,,,,,,,,,,,,,,,,,,,,,
,,,,,,,,,,,,,,,,,,,,,,,,,,,,,,,,,,,,,,
,,,,,,,,,,,,,,,,,,,,,,,,,,,,,,,,,,,,,,
,,,,,,,,,,,,,,,,,,,,,,,,,,,,,,,,,,,,,,
,,,,,,,,,,,,,,,,,,,,,,,,,,,,,,,,,,,,,,
,,,,,,,,,,,,,,,,,,,,,,,,,,,,,,,,,,,,,,
,,,,,,,,,,,,,,,,,,,,,,,,,,,,,,,,,,,,,,
,,,,,,,,,,,,,,,,,,,,,,,,,,,,,,,,,,,,,,
,,,,,,,,,,,,,,,,,,,,,,,,,,,,,,,,,,,,,,
,,,,,,,,,,,,,,,,,,,,,,,,,,,,,,,,,,,,,,
,,,,,,,,,,,,,,,,,,,,,,,,,,,,,,,,,,,,,,
,,,,,,,,,,,,,,,,,,,,,,,,,,,,,,,,,,,,,,
,,,,,,,,,,,,,,,,,,,,,,,,,,,,,,,,,,,,,,
,,,,,,,,,,,,,,,,,,,,,,,,,,,,,,,,,,,,,,
,,,,,,,,,,,,,,,,,,,,,,,,,,,,,,,,,,,,,,
,,,,,,,,,,,,,,,,,,,,,,,,,,,,,,,,,,,,,,
,,,,,,,,,,,,,,,,,,,,,,,,,,,,,,,,,,,,,,
,,,,,,,,,,,,,,,,,,,,,,,,,,,,,,,,,,,,,,
,,,,,,,,,,,,,,,,,,,,,,,,,,,,,,,,,,,,,,
,,,,,,,,,,,,,,,,,,,,,,,,,,,,,,,,,,,,,,
,,,,,,,,,,,,,,,,,,,,,,,,,,,,,,,,,,,,,,
,,,,,,,,,,,,,,,,,,,,,,,,,,,,,,,,,,,,,,
,,,,,,,,,,,,,,,,,,,,,,,,,,,,,,,,,,,,,,
,,,,,,,,,,,,,,,,,,,,,,,,,,,,,,,,,,,,,,
,,,,,,,,,,,,,,,,,,,,,,,,,,,,,,,,,,,,,,
,,,,,,,,,,,,,,,,,,,,,,,,,,,,,,,,,,,,,,
,,,,,,,,,,,,,,,,,,,,,,,,,,,,,,,,,,,,,,
,,,,,,,,,,,,,,,,,,,,,,,,,,,,,,,,,,,,,,
,,,,,,,,,,,,,,,,,,,,,,,,,,,,,,,,,,,,,,
,,,,,,,,,,,,,,,,,,,,,,,,,,,,,,,,,,,,,,
,,,,,,,,,,,,,,,,,,,,,,,,,,,,,,,,,,,,,,
,,,,,,,,,,,,,,,,,,,,,,,,,,,,,,,,,,,,,,
,,,,,,,,,,,,,,,,,,,,,,,,,,,,,,,,,,,,,,
,,,,,,,,,,,,,,,,,,,,,,,,,,,,,,,,,,,,,,
,,,,,,,,,,,,,,,,,,,,,,,,,,,,,,,,,,,,,,
,,,,,,,,,,,,,,,,,,,,,,,,,,,,,,,,,,,,,,
,,,,,,,,,,,,,,,,,,,,,,,,,,,,,,,,,,,,,,
,,,,,,,,,,,,,,,,,,,,,,,,,,,,,,,,,,,,,,
