PaulMeinheit/Bachelor_Muay_Thai/processed_Data/E3/teep/scaled/JointPositions/scaled4.csv
Neck_Joint_Position,Neck_Joint_Position,Neck_Joint_Position,L_ANKLE_POSITION,L_ANKLE_POSITION,L_ANKLE_POSITION,R_ANKLE_POSITION,R_ANKLE_POSITION,R_ANKLE_POSITION,L_KNEE_POSITION,L_KNEE_POSITION,L_KNEE_POSITION,R_KNEE_POSITION,R_KNEE_POSITION,R_KNEE_POSITION,L_HIP_POSITION,L_HIP_POSITION,L_HIP_POSITION,R_HIP_POSITION,R_HIP_POSITION,R_HIP_POSITION,L_SHOULDER_POSITION,L_SHOULDER_POSITION,L_SHOULDER_POSITION,R_SHOULDER_POSITION,R_SHOULDER_POSITION,R_SHOULDER_POSITION,L_ELBOW_POSITION,L_ELBOW_POSITION,L_ELBOW_POSITION,R_ELBOW_POSITION,R_ELBOW_POSITION,R_ELBOW_POSITION,L_WRIST_POSITION,L_WRIST_POSITION,L_WRIST_POSITION,R_WRIST_POSITION,R_WRIST_POSITION,R_WRIST_POSITION
X,Y,Z,X,Y,Z,X,Y,Z,X,Y,Z,X,Y,Z,X,Y,Z,X,Y,Z,X,Y,Z,X,Y,Z,X,Y,Z,X,Y,Z,X,Y,Z,X,Y,Z
0.10451000000000002,0.40702000000000005,1.5175800000000002,0.01722,0.48048000000000013,0.07843000000000001,0.26285,0.15825000000000003,0.11617000000000001,0.04537,0.48112000000000005,0.49421000000000004,0.2793,0.34907,0.48452000000000006,0.060380000000000024,0.37626000000000004,0.9163000000000002,0.22835000000000005,0.34545000000000003,0.9146600000000001,-0.04865,0.38684000000000013,1.4251000000000005,0.2801700000000001,0.36477000000000004,1.4505400000000002,-0.09584000000000002,0.50845,1.16301,0.36402000000000007,0.4581000000000001,1.2012800000000001,-0.04016,0.6010100000000002,1.4053500000000003,0.2482800000000001,0.5757200000000001,1.40173
0.098197556099645,0.4135976575715976,1.5177142213222,0.016896401251866314,0.4799860149718813,0.07820326190126065,0.26555659641397095,0.16093078735214278,0.12177367843536603,0.0420480206723983,0.47953088417549916,0.49417970051534993,0.2824185689942685,0.35797962460131577,0.48680609829096316,0.05649420811857498,0.3783175224845794,0.9171724225738798,0.2248149782290158,0.3494475608649248,0.9160417213499663,-0.05501066989773921,0.3910223769764184,1.425556173538929,0.2736949273439283,0.37180779257050584,1.4519996352949271,-0.10401226662725262,0.5142796480399159,1.1645623735916553,0.357520921715485,0.4656117976921603,1.202906336308272,-0.04793812048839836,0.6078319694060679,1.406439092425,0.24090478167423138,0.5840517215127204,1.4023684982971187
0.09249828590122325,0.41804828314244435,1.5187397468338608,0.0169927613858944,0.4798361740566397,0.07853227269159571,0.26839403421079694,0.1637399756666165,0.1262171476036185,0.040650875652425054,0.47949202055119333,0.49458847784744003,0.2843956689346178,0.36503448053808624,0.488963495850164,0.05241930321016425,0.38059212051910846,0.918222326836321,0.2210387884016251,0.3534481362497251,0.9173117423265222,-0.059840128655229155,0.3952739251954887,1.4257237565071383,0.2661383909831001,0.3757591379142485,1.4523497321941121,-0.11182741623304054,0.5165190115348454,1.1643703754669628,0.34904853708680667,0.4718129642363804,1.20381805025091,-0.05727751408612436,0.6157873881418024,1.4043159951355622,0.23539246221093507,0.5912105946917661,1.404403917003852
0.08662885564578522,0.42431977615901867,1.5190799719957615,0.015397479960123021,0.47939177909959835,0.0784542082530791,0.27254647813819927,0.1671068929455587,0.13093350564976214,0.038448100565671994,0.4798140143457061,0.4945469449368437,0.28558460558400406,0.3734100365724757,0.4909641822264528,0.050078343887671274,0.38124473495609296,0.9182589706181654,0.2190420081533005,0.35634293788940946,0.9186549877862922,-0.06567553663720085,0.39903495760298235,1.426315866716763,0.26187788712521226,0.38121109244001616,1.4530675213593665,-0.11939742758428243,0.5173380427345912,1.1639668182231475,0.3432105350691374,0.4765459121894841,1.2037308287269286,-0.06040810339250011,0.6278604784279824,1.3978612439636087,0.229465399914447,0.593637149071777,1.4056289415679928
0.08031815179720017,0.43092607703336683,1.5181382927595393,0.014271338040212873,0.4800039303681592,0.07848612357827105,0.2760596729125363,0.16893103419735644,0.1347725150186002,0.03556854370431687,0.47876747960166,0.49467487152506306,0.2864920695557694,0.3799794097959817,0.4921321882235981,0.04667221187926287,0.38201595679036826,0.9188174977671524,0.21587519542651407,0.3588688088843015,0.9189908712985998,-0.07182474756872556,0.4023348980039445,1.4265155515880017,0.25878129074306344,0.3864887707431855,1.454626080917403,-0.1254657400905134,0.5157142332800321,1.1619778251921757,0.3375661073796301,0.48176988216918437,1.204451413310995,-0.06275324708641963,0.6401840066039027,1.387763848738755,0.22271749711164782,0.5983063959098198,1.4060486115017776
0.07559594999342902,0.4339118624585354,1.5184599427048546,0.014211282983567258,0.48036098112114944,0.07853789630579788,0.2804946038452701,0.1690782130773764,0.1391933686369306,0.0328715581888026,0.4776162816303557,0.4948454896014137,0.28608806193688363,0.3850297367980781,0.4937254753525674,0.044103273584156014,0.382783771862092,0.9194191746417172,0.2134345640599657,0.36057641445516314,0.9200553195274944,-0.07601870878162854,0.4055588504304221,1.4257007761960014,0.25505086762506496,0.38944000430131775,1.4559011132144553,-0.12949999050960836,0.5151867021934927,1.1595574442683119,0.33103712279214786,0.4859262082125038,1.205327719067346,-0.06706568611234187,0.6470214626135131,1.3811936081764928,0.21641143761013165,0.6020035615884609,1.4073110938678124
0.07151179431460786,0.43698208366869895,1.5177418822222768,0.014849521361358647,0.48058756566840616,0.07853178288690578,0.28372712739084355,0.16803075427756684,0.14272525957409943,0.031810476699603275,0.4777413740418157,0.4949140199917323,0.28450073499312656,0.3885191048840164,0.4944997278871037,0.041712888368566646,0.3841064520094706,0.9197782369069587,0.2111858785984713,0.3630117932779246,0.9206591064087138,-0.07994789774962159,0.4086730449660966,1.4241457341331967,0.25218632159823545,0.3926699885888968,1.4561460411222378,-0.13250414608372743,0.5129738984611651,1.1556941786681845,0.3276868702111247,0.48920943928939775,1.2054447633523429,-0.07206084382003124,0.6506527351167666,1.3743010796207333,0.2115647254162698,0.6025149300424716,1.4081431428669513
0.06851332085411528,0.4398097056576988,1.5163596523846568,0.015201865711115469,0.48030746919464745,0.07840240718963018,0.28601552592358387,0.16480700219710032,0.1457397557025288,0.03124131137473327,0.47731040827815835,0.4948202863353782,0.2829130520132384,0.3899472602171551,0.49453425679101565,0.04006802358203452,0.3860954088129934,0.9202360525665656,0.20956614828310238,0.36518612467059647,0.9207333435164978,-0.0813062067240215,0.4103454034064327,1.4230766370351238,0.24984853031480284,0.39432706985573096,1.4561461590601004,-0.13453452005246838,0.5122413584289836,1.1538342484025672,0.3259881876148677,0.49291917392517137,1.2064390136228682,-0.07187854568926409,0.655282357946878,1.3683486501545772,0.2073945163192822,0.6036475408908097,1.40913321282908
0.06396744570557544,0.44085099347292545,1.5156238060461855,0.015610539782845137,0.47979122828128706,0.07813045702576857,0.2884157823262112,0.16005061405647011,0.14799053767208417,0.029816489852482555,0.4772742596671068,0.49461174873692915,0.28011176687863143,0.3880083953422594,0.4948718672923539,0.038738869204995904,0.38543157089744545,0.9198950953134352,0.20850911079357612,0.36689933312822043,0.9215582423394663,-0.08312432192262936,0.4103976668669843,1.4228006102763908,0.24716916598779717,0.3961150832056733,1.4574767623416105,-0.13436449357073127,0.5136366501077946,1.1536808559347311,0.3245330962475261,0.49511724038079913,1.2083113756075847,-0.06837790363734876,0.6584806223639977,1.3659662402231194,0.20464156510803472,0.6046964178555517,1.4108611564489066
0.061430903528353877,0.44183727364332903,1.5149873269552723,0.014687894950335866,0.47992405289928547,0.07843916822440222,0.28974917466273137,0.15556822002656964,0.14865885285064664,0.029051151668288512,0.4779084770128193,0.49491837685913526,0.2765991872548731,0.3848548488521104,0.49449863567753244,0.03719619762435496,0.38488946932033674,0.9199628240195522,0.20714470938853533,0.3680999705897692,0.9217348737718015,-0.08456504565870543,0.408406299054458,1.4217424704289086,0.24387462027600637,0.39653108329660147,1.4586230244480325,-0.13328885820519412,0.5145762128146967,1.1532955784826355,0.3242024650044549,0.49480370138733637,1.2100999298224175,-0.07208990498471575,0.6533529649577401,1.3710042053239788,0.2033682990373444,0.6047639502617137,1.411887116047785
0.06185998227630379,0.44266468668118414,1.514944350732488,0.013909156650235741,0.47977402707219663,0.07920487702476822,0.28991103039892935,0.1513333638121882,0.14774449740665938,0.027923760956729368,0.47777776946508366,0.4956939324713049,0.27220702886145237,0.3813210188273857,0.4929288097718038,0.037242568179458174,0.3835462502900986,0.9204454583357187,0.20733619925288208,0.3680991879340348,0.9210016522698767,-0.0859228258424337,0.40802210604004424,1.4216473996995431,0.24309878312936853,0.39679060890297374,1.4597119705673443,-0.13084031261307105,0.5151680439828079,1.1529258695687845,0.3233700034455976,0.4970597787704874,1.2119677513910057,-0.07412017584631295,0.6480056981173083,1.375494945759081,0.1992205994110216,0.6032947427297777,1.4137366267688576
0.06257027615028649,0.44052928230195115,1.5153052170374353,0.013120401884937648,0.480797006168468,0.0788695650998645,0.28719163399678194,0.14794871389164335,0.1447178615217225,0.02777025013574057,0.4763249799241086,0.49531951212084435,0.2688470849991047,0.37469247647983617,0.49200249531372886,0.03696067944712985,0.3824050830851004,0.920139491665464,0.20719034825611457,0.3685891883998769,0.9207195255465608,-0.08539269172034135,0.40709052537415813,1.4218075712500824,0.24402704734802014,0.3971115903321,1.460280519986562,-0.1286781677278847,0.5156442114180334,1.153387635724889,0.3231751039799965,0.5011958213600548,1.2137591174974782,-0.07537542424528326,0.6416931283693778,1.380696765489289,0.1984206009738491,0.6036625235078135,1.417093930136663
0.06442839757244684,0.4375801745716097,1.51583844443977,0.013456926176739235,0.4804672665536379,0.07913844323410617,0.2856263552905258,0.14499453383712033,0.14137954438085362,0.027474918434695496,0.4745370139081583,0.49559981431921635,0.2649540350687833,0.3667156541222452,0.4917700991273516,0.03745468873904542,0.38153196860858507,0.9206069665015215,0.2077152121917698,0.3681122938564638,0.921134993755441,-0.08299259767303459,0.4050249775892532,1.422499488065054,0.24499156091956448,0.39689622362955707,1.4598806754962095,-0.125314657622187,0.5182200073030826,1.1558465081783726,0.32464270100639114,0.5041599457644248,1.2148830925427516,-0.07029545231971633,0.6415121138860412,1.3842589175290567,0.19863625030735418,0.6025644621008259,1.4194521469119719
0.06475263982382011,0.4350891766500297,1.5157822324364039,0.013030122736173188,0.48081315135042324,0.0789981871439315,0.2826963712816383,0.14240494358680827,0.13639130561524843,0.02768598605487418,0.4728423359113298,0.4953995807438356,0.26066711590731784,0.3580218425138558,0.49048466660257267,0.03859405014471096,0.3806435191241643,0.9205661587424719,0.20881282687147612,0.3667485263752974,0.9204417544640188,-0.08168957819396268,0.4024105998602593,1.4236023570744207,0.24719069150290712,0.39510143538511083,1.4586742973933418,-0.12303927974679377,0.5191056950482665,1.1583073401394477,0.3258413406736051,0.5061754966729051,1.215060016662365,-0.06906321423039471,0.6365636295946109,1.3900137530499352,0.19920003055577182,0.599414185379031,1.4216504119276419
0.06823087127948067,0.43095102557529696,1.5162583097696452,0.013352479278024026,0.4807111384590511,0.07930301590278972,0.2795436761276639,0.1401543654978635,0.13051334607645604,0.027638737314283245,0.47270843214656233,0.4957136077252514,0.25747733423397967,0.3484770356164036,0.4889319685854225,0.03952059496890065,0.37876237624774395,0.9204658061905324,0.20970454211051545,0.36447112409977517,0.9191614331482105,-0.07903430963490604,0.3993150820746275,1.4249168453158092,0.25054171058089886,0.3916450031316089,1.4582895240166285,-0.12128272941951494,0.5199231036628198,1.161524160578885,0.3275896035737191,0.5070203100629231,1.2161640425980655,-0.06485802779567283,0.6342907520350175,1.3941998544630998,0.20064824493738959,0.598252788942892,1.4234615139622908
0.07166012375827366,0.4261264152252048,1.5161815103102592,0.01367122758360002,0.4808692372745727,0.07916001231983291,0.27467101795505583,0.1371517878716077,0.12438974579044382,0.027859373400767662,0.47257067899180405,0.495570710271949,0.2564694076190344,0.3376419491592051,0.48747457137781075,0.04113088651722862,0.3772697810500907,0.9199791615086925,0.2111722085233657,0.3615254482205187,0.9176087216119024,-0.075055581981887,0.39499763937069376,1.4248640789771323,0.2542876721316359,0.3879223693224976,1.4575255003063163,-0.12006954097558786,0.51773019573821,1.1629116010929104,0.3310375543205838,0.5053027318386576,1.2162808747881173,-0.06253109317729043,0.6281905488766131,1.3972002014214022,0.20351731785153757,0.5971382937734787,1.4229501339736053
0.07528333631999276,0.4209732388276138,1.5148676483987675,0.01434633038997642,0.4814172503350408,0.0793081618731481,0.26838667541732686,0.13347195758278707,0.11819839314301639,0.02918825850789702,0.4720640476899501,0.49567026551438936,0.25371919114475117,0.32599341706585927,0.48572807662690176,0.04282239857264264,0.37557757345146126,0.9198061527231518,0.21258608124326014,0.3573124252177498,0.9158018905097955,-0.07199427642239255,0.39077079332590564,1.424610280959142,0.25893639839281424,0.3821277504357205,1.4557701055868022,-0.1194734755068444,0.5147247436221296,1.1636696488752576,0.3357083423075827,0.5022942511536885,1.2158987890322996,-0.05639272173380513,0.6254805153906569,1.3963776747841044,0.20838852886649048,0.5932746739500078,1.4230756480154918
0.08068561489344192,0.4153296153702604,1.513754244550181,0.013494461800387466,0.48124867478569566,0.0790957135496139,0.2618981339189349,0.12902567774790147,0.11317897335701015,0.03223248615339519,0.47155425977500054,0.4952948288859171,0.2525039872467712,0.3153840453750989,0.484041816883071,0.044558055559906815,0.3738993545023916,0.9191992781780345,0.213892214198769,0.352306680678788,0.9139053040698324,-0.06730583015390801,0.3843729104241968,1.4241816996431482,0.2642875167011396,0.37613906083921406,1.4535028048762584,-0.1175468836145568,0.5097379434316983,1.16443737722198,0.33895286866981295,0.49821569296530127,1.2139287826170935,-0.051778652693609546,0.6226595648328082,1.3953577718506802,0.21249042217459915,0.5888710913572996,1.4217755358365018
0.08598706181166181,0.40965543140624966,1.512637335215997,0.01425013930616096,0.4801563306578323,0.07849268762181129,0.25650524326830987,0.12596363557031226,0.10704212801167892,0.034020833787734524,0.4707097985699726,0.49464983924910577,0.2502489030975661,0.3036407450304884,0.4822152741864679,0.04708644264698825,0.3721008571544536,0.9183090609433407,0.2160349672565194,0.3479578592742165,0.9117503618347949,-0.06210519568616677,0.37996461945484344,1.423494617177826,0.26955605327860155,0.3697442699500684,1.451002544780503,-0.11414618789492557,0.5027622343097531,1.1628798131997138,0.34289587442581215,0.49395741887627564,1.2121245427127858,-0.04670802964584648,0.6182489637633022,1.3920484790827838,0.21684291472314676,0.5832995197391743,1.4207780491533633
0.0918945942069026,0.4029329244354722,1.5120763001178572,0.01514928579257476,0.4811162324484648,0.07836478087581962,0.2513288748596107,0.12408833790835595,0.1011392477619771,0.03620462101221747,0.47201965959169695,0.4944663174713842,0.24919937914419205,0.29102913233600514,0.48124935372829447,0.05037084800016166,0.3700855784175233,0.9173055524681704,0.218864088079002,0.34308639351949866,0.9102034120475003,-0.05803279570054564,0.37320669584787897,1.4233832008047478,0.27331473408071777,0.3642980415902581,1.4495358005285681,-0.10948132737546525,0.4936186996565036,1.1615368451991968,0.34942528068068585,0.4861079186896774,1.210275477635391,-0.04159289901669616,0.6136862454161023,1.3881981790433644,0.22344135550738928,0.5753268001708093,1.4190296845907855
0.09880242490058813,0.39593898084820717,1.5121869806219654,0.015063577498483678,0.4813811556932985,0.07767051863331025,0.2485024067425559,0.1222570553221205,0.09685907806237613,0.039009818722760825,0.47352164041310046,0.4936332209602261,0.24886141350503546,0.2809200473544964,0.4804966832658584,0.05357345717980669,0.36755783208318976,0.9154730183325732,0.22161600960954123,0.3378074479062369,0.9090574337967802,-0.051817120119787646,0.3699841478147631,1.423215102857686,0.2799682686513363,0.3572340358925858,1.448630044727633,-0.10313071161463469,0.48509252098144306,1.1589607909688269,0.35376967170062873,0.4767414562297513,1.2074989404387135,-0.035205120239665426,0.6099095449267524,1.3830278194338854,0.228852657104692,0.5674377355860516,1.4162522921807268
0.1072266213346261,0.3896844442332684,1.5106305404433926,0.015594087836808585,0.4810480398154704,0.07769459031473705,0.2472806883714403,0.120008128791625,0.0931502507726919,0.042473151674604415,0.475215718652932,0.49352205123565573,0.24853704833130075,0.2714326510141965,0.479703211177937,0.05727719387727748,0.3641280153484666,0.9140230016462442,0.22503151436378113,0.33269719405001924,0.9078742668022789,-0.045711910834707534,0.36370613493785836,1.4222551690122869,0.28563372346059623,0.35106659082888964,1.448127197854383,-0.09746509370127701,0.47619575576739415,1.1569655043177445,0.3584977694953775,0.46673778558023166,1.2048613464149756,-0.027394886233943372,0.6047970945722048,1.3782233196224354,0.2381579459163315,0.5565801972275098,1.41664853877782
0.11498887998955819,0.3838596222631476,1.5095112319952355,0.015894309635612763,0.48118540321057157,0.07824758551393113,0.24821637427996882,0.1175476878151151,0.09026389742227584,0.04507689846771934,0.47592381544145046,0.4939201883834052,0.2501106610448537,0.26201279848248,0.47947238324639785,0.060723647582805976,0.3608303904829136,0.9133106821025582,0.2280989542535483,0.32746905915671043,0.9071090442394365,-0.03966087823364891,0.35872377235203434,1.4226296424981115,0.2924248545497805,0.3414199012820373,1.4463994303924996,-0.08971052013601799,0.46724045446236184,1.1553717775832708,0.3636996850251142,0.4581415199303964,1.2031624250281976,-0.019362939367899727,0.5981250968189942,1.3751917738446882,0.24506420302605839,0.5492251427820929,1.4153762386384119
0.12183010131691072,0.37611454379081344,1.5082508443656677,0.015720807642873102,0.48201171169745305,0.0781726194422247,0.2505018415863399,0.11502087564641672,0.08724375032298606,0.04895166161766633,0.47624332948882453,0.4935440541879774,0.2538387387915176,0.2526788675412287,0.47890436067135156,0.0653017792914248,0.35569855928837707,0.9113695875405361,0.2323093715844975,0.3203556066657346,0.9062121068852896,-0.03420864081226306,0.3538465803279369,1.422254452565106,0.2979417356060418,0.33264159676117633,1.4438404032458323,-0.08100063287601102,0.45973603295103804,1.153355040377108,0.3702587415103575,0.4500907614952188,1.2012506908271978,-0.010421644105907077,0.590969184593571,1.3728896130860209,0.2537868159262066,0.5401082791439351,1.4151203752130177
0.1299551357875007,0.36863701325975573,1.5074308795055176,0.01594738494658901,0.48138674009444776,0.07867700898501362,0.2512957204500248,0.11247769092814182,0.08436229370178282,0.051616791864482925,0.4790311620302025,0.4938758028272005,0.2561631541156955,0.24547296899842655,0.4776149787333518,0.07044478035792252,0.3493755453485912,0.9088653153233923,0.23721413853362158,0.31277282869685136,0.9051062976254494,-0.0273207432485935,0.34788624836908566,1.4218214886603808,0.3043591326331878,0.32438457854226443,1.4416007343816717,-0.07281097519629712,0.4519468466501934,1.1519919915760337,0.37707143242842855,0.44178314136055546,1.1991120919343765,-0.0025136924274439666,0.582481466686261,1.372043127177372,0.2601091472373278,0.5322882316309925,1.4125053733512776
0.13704989046305013,0.3613145394320311,1.5061038798520563,0.017594410432007223,0.48240723383754763,0.080024319461252,0.25161903041116435,0.110681453651307,0.08213602976939742,0.05444240228681441,0.4811757036239156,0.49512574943180476,0.25964867066993513,0.23667890328605365,0.47762561623878724,0.0752536727774013,0.34194847450157156,0.906903615655281,0.2418385766326472,0.30432649457679223,0.9051178263947066,-0.020784288638438654,0.3423139218566354,1.4214845922729502,0.31001825803006655,0.31653787931528193,1.4398300023331831,-0.0662714602497422,0.4446616510051372,1.1509978649451433,0.38392922546260555,0.4344864053257181,1.1979700628903678,0.005554740030193594,0.5737753348187109,1.3713895561580323,0.2648597745819169,0.5266010304986306,1.409506566959057
0.1435636156825016,0.35295727795567267,1.5066829583323533,0.018954273372686,0.48339490978132327,0.08207329786442143,0.2517865758205182,0.10885703129187646,0.08082484261955052,0.05820469929058882,0.483728092605708,0.49694749688563444,0.26250049620664834,0.22858810638367913,0.4781929461106184,0.08029101248865174,0.33620471686542047,0.9057652871128081,0.24650498858178405,0.29695199163635655,0.9056380620166729,-0.015458805905567342,0.33734617684936113,1.4226822765668827,0.31484671093564975,0.3064824342683965,1.4389483049075305,-0.05971938162818506,0.4381294185417744,1.1514032399476968,0.3890992467664674,0.423258827594629,1.1966203919671763,0.012387046802341796,0.5665351405618827,1.3721172410848121,0.2711833195512032,0.5200870356005026,1.4066937186241781
0.14872159843632224,0.3457879809806222,1.5074465291512342,0.019000138509868727,0.4847581069595206,0.08491674660803805,0.2528490705232994,0.10753882556700234,0.0802042615651792,0.06085277119351375,0.485103406079393,0.4995447124137963,0.2647415419362222,0.22217337092459252,0.4790451567358925,0.08417162131360073,0.32894845416647994,0.9050726892786837,0.25040669362570844,0.2898375460407245,0.9066535813068581,-0.010977926085925564,0.3315709243589455,1.4248783962862204,0.32003659344064966,0.29762105573653863,1.4381226710580792,-0.05354166644640826,0.43185929829796393,1.1531407764976076,0.3949768583410284,0.4127642912897377,1.1952287680302258,0.020537612579308622,0.5603600496105076,1.3731467057735725,0.27865067315537845,0.5110988756578195,1.4054851051140849
0.15487333094642675,0.34072826118416544,1.508395827373297,0.01943760881930131,0.48726584268915735,0.08929124387006485,0.2541231503526265,0.10688378093311963,0.07963436392267148,0.06157406041895841,0.48704685630825195,0.5038979399758072,0.26674813346367665,0.21634303213573544,0.4799103987321447,0.08770567191490689,0.32159711453683726,0.9055420598409053,0.2536320751236563,0.28122344710656255,0.9079919909579784,-0.005876560827132699,0.3254198636342863,1.4266595876244332,0.3250129840931893,0.29047123053601376,1.4380803226187264,-0.04780232938458724,0.4275950073389446,1.1555302051852447,0.39890561529222673,0.4030527467015884,1.1936742176857837,0.0282049977573949,0.5554863463292663,1.375231359633801,0.28665205455977616,0.4998678694331886,1.406830993878252
0.16071149369428112,0.3345537807457213,1.509962801419609,0.019586452837521837,0.4906296093313814,0.0952196854883104,0.25508139995788903,0.10668222948326642,0.07966029998793757,0.06286522443300048,0.49128280115250855,0.5096991152389703,0.26840207570217667,0.2116703526667199,0.4811020082151185,0.09120753722150791,0.31381845856429313,0.9060338817815085,0.2572678765203984,0.2740613812926879,0.9096166330296571,-0.003131139315901805,0.3213983405570149,1.4289691443258847,0.33137272420416997,0.28395825961759885,1.4391970355710373,-0.04140547673603791,0.42440298378638874,1.1576123996285692,0.4021304433668212,0.39564301587743206,1.1934511612738594,0.03464966533152133,0.5494876017564676,1.3789088970649996,0.291972295166654,0.49259086366942445,1.407636616174274
0.1661669493340827,0.32874442899479406,1.511394049240685,0.0184693618437844,0.49330170459901346,0.10124014231261246,0.25454073475276706,0.10538315565001742,0.08068843934974178,0.06242609705586581,0.4929417527694312,0.5156470630677691,0.2697458343920023,0.20617677583003954,0.4831444689541338,0.09409232695315518,0.3063672481143736,0.9075265905461762,0.26007859554554685,0.2664241571757748,0.9119933809341318,0.001657813688299456,0.3143021353532167,1.4307282464552065,0.33541925252712484,0.2766481548223943,1.4404452091513327,-0.03829814472857366,0.4187665009417695,1.1601719997051965,0.4059232921467795,0.38620355600525713,1.1936691796478653,0.039398478261189855,0.5414798010751837,1.3822112352229514,0.2988837298738015,0.4837620934589421,1.409155295580347
0.17090595212233448,0.3232436680744488,1.5125139740706843,0.01865161550742446,0.49584749337151984,0.1067027930011173,0.25428845663015276,0.10408326670733856,0.08108522163708844,0.06256642214035879,0.49504529097198646,0.5211162019087225,0.27173820019963557,0.2018889202353868,0.48417943543089664,0.09733882253508598,0.301348340966926,0.9092601941538215,0.26305980251536276,0.26022152775802193,0.9133213554567268,0.0058772540491386,0.31158818405556854,1.4336746333633084,0.34112123980915365,0.27039072589672986,1.440626816117979,-0.036457911407998034,0.4153718188264971,1.1632190005243537,0.4100418238019608,0.3792460260711262,1.193094420967234,0.04343662560933446,0.5341525164855914,1.3866192061199156,0.3045457336841635,0.4742917349104458,1.410465902334094
0.17534235730407718,0.3187869406841667,1.5130904128321965,0.017772776871327424,0.49984977222347265,0.1122278425283466,0.255023226658462,0.10360671694806087,0.08123959828222199,0.06387892179096791,0.49750024314121427,0.52639380663955,0.2729536823334108,0.19877969593953254,0.48494491814603136,0.09948473508735203,0.29656440583356974,0.9107619035278577,0.2648527846434251,0.2540462754653267,0.9145016538310139,0.00934780356863159,0.30657095529535666,1.4366919711080601,0.3445255506720385,0.26492180901891405,1.4394300277383891,-0.03352011369985552,0.4113099223015078,1.1666878728208923,0.4145403799364934,0.37551852583795603,1.1929835054923708,0.04490613039838606,0.5270683780702858,1.3921896131166491,0.31100303696769094,0.4688767810626927,1.4120069768850922
0.18021736012609882,0.31334629230199706,1.5132096630549552,0.014659850154451131,0.5020158598959401,0.11699613151248339,0.254879421722732,0.10372129365108229,0.08119123789445952,0.06425070532172257,0.49873711833460843,0.5307557671454287,0.2750295189052204,0.19691297868918992,0.4852539993432652,0.1009534041330354,0.2919223261860095,0.9118924576099449,0.2664513031651386,0.2498750005435907,0.9150813233509624,0.013856164517841007,0.3018937782588136,1.4386698380396528,0.34859986980826035,0.2596508459825826,1.4383594373668562,-0.03162538374196276,0.4093854512898367,1.1701722353085064,0.4178968627628465,0.37283738105962183,1.192883797170803,0.048308008401516146,0.5214758432378117,1.3969932932886198,0.3168350451228329,0.46373169910177686,1.41409424792611
0.18331031980853085,0.3092481460415233,1.5139274486795882,0.011208812444516174,0.5017146626307879,0.12042144379544091,0.25423206603177145,0.10381386802440778,0.08110186379676528,0.064536892229678,0.4999216069283758,0.5337245196293604,0.27580767967738035,0.19498142031525162,0.4855546073200058,0.10211619598496682,0.2892412892482203,0.9126415478964206,0.267418521892399,0.2463909810808856,0.9155801691962587,0.01748677568904207,0.2994211729260004,1.439632497583252,0.35115908866881657,0.25518527607702296,1.437410271179996,-0.030451170829155272,0.40953924532960434,1.17263844099727,0.4209628050976559,0.3719962989349889,1.1937859175486647,0.050523025904256585,0.5167598188740287,1.4014337102071983,0.32003294717044634,0.46204690019149947,1.4153974868616677
0.1859996187472726,0.3055524625581793,1.5146169588193648,0.008344620724251753,0.4998297980526578,0.12185501719582405,0.25390051607813807,0.10362761099277867,0.08133306157931304,0.06377425716795139,0.5003374499005501,0.5348806204665736,0.27677810589167795,0.19306494367761512,0.4860981850117783,0.10321772793369026,0.2884017221295781,0.9129149563180246,0.2683987189580513,0.24512639724503107,0.9160441366963621,0.020016063383557086,0.29663652569882437,1.4401808983917264,0.35385078370768464,0.25009020324128634,1.4376196576007794,-0.028906215850528955,0.4101196026937419,1.174775297186042,0.42327410951242495,0.36829218054066626,1.1945515351322111,0.05155732946153709,0.5115484922404253,1.4063723746338215,0.32233609987646406,0.4597178092684679,1.4155974815230272
0.18799442455176038,0.30139736993654975,1.5148139818281148,0.0038742712559320116,0.4984580495954065,0.12194308665694992,0.2538883531886009,0.1034348259585625,0.08115427214899928,0.06361486889818303,0.49907682696278133,0.5343687898069478,0.2761854121384268,0.19284060440870984,0.4859697275028084,0.10414046359528914,0.28897785901040385,0.9133113937366447,0.26917091024964007,0.24510539861414685,0.9159099264405308,0.022708621213014122,0.2948830478173062,1.4406916107689351,0.3556953132958865,0.24800790954805102,1.4374902711610946,-0.02834238934951471,0.40978789829007206,1.1763087279798137,0.42457029584043693,0.36695216690762605,1.1946325015090395,0.05336208222018113,0.5085511954283259,1.4086177007239236,0.32436319815160897,0.45515038192151236,1.4173185988306471
0.18902442416949544,0.3008984540419128,1.515174049101491,-0.00024700475286006617,0.4942006317408272,0.12045648919771142,0.25471963038702744,0.10242350032062313,0.08110091759394042,0.06298657371228662,0.4958596279379217,0.5323580942562416,0.2758438252796502,0.19229020583185022,0.485868501197138,0.10455688342855123,0.29014545999364705,0.9135895209706452,0.26953875525041343,0.24604419585822224,0.9156452802625832,0.023764984123508984,0.2931926536306932,1.441523683240218,0.35600860505823767,0.24702327242233427,1.437253253450992,-0.02769868291180675,0.4095042155807827,1.177839029549953,0.4242102236612417,0.36718554238260903,1.1947953153622772,0.05537058490411445,0.5099583905207211,1.408937223732011,0.32505517897307046,0.4529961933526222,1.4188864656937346
0.1894395890150651,0.2996886401558045,1.515080946835525,-0.0025485233109099857,0.490253740175398,0.11619148871754294,0.2548034394826425,0.10237280118264286,0.08087478960142393,0.0614217293897251,0.48970572699215126,0.527987658536031,0.27576949875267365,0.19151991034530821,0.48581459929589477,0.10529395869555269,0.2912195011697678,0.9127761808564685,0.2703172245725877,0.2472885671454291,0.915341839436529,0.024434259209358492,0.2933283656364521,1.4417187384215118,0.35618171889673483,0.24484092671413443,1.4377944709463986,-0.02846607537979172,0.4095648749517391,1.1782805827187952,0.42408370080337565,0.3646810592804642,1.1951087711684907,0.056400159948467025,0.5117063110149079,1.4079888192024907,0.32588563680390525,0.45171002475541444,1.419147617307888
0.1900578095150994,0.3005824826104825,1.5147065349685473,-0.0023707782730542147,0.4873845934081804,0.1118902819919654,0.2548287271793087,0.10347332089817746,0.08006404593574355,0.060577927673116636,0.4852982834624764,0.5238375006622886,0.27609874075593693,0.1930704109079353,0.4848794126331675,0.10560691222837533,0.29350247625851555,0.9118763233169174,0.2705314038026012,0.24921945050303576,0.9143593541925431,0.02440472617894742,0.29489944861642925,1.4417114264709776,0.35596888868320353,0.24558056003833081,1.4371584911482194,-0.029000738172841715,0.4128441135549673,1.1791288638825261,0.42388798698706476,0.36744143835107435,1.1954812130281645,0.05721249332681367,0.515577182557875,1.40807648272642,0.3252704070628095,0.4533815947005546,1.419748823597421
0.18918788659518507,0.29983396947507757,1.514828583598577,-0.0032219923278577613,0.4848988570487149,0.10714063344248102,0.2551434719006892,0.10282052585769445,0.08001290971334002,0.05991851149287526,0.4807986635162182,0.5190455991993096,0.27647472665997747,0.19659415070258587,0.48388849849897514,0.1049922486214928,0.29625866174730675,0.9105745046422906,0.2698707895819754,0.2518295122511826,0.9134663247459713,0.02313934987399455,0.2970371919853207,1.4404869859196334,0.3555336827147057,0.2466705505161696,1.4372423714974472,-0.029878276855285636,0.4164636011812281,1.1785059886169453,0.4230814533464059,0.3668226454242679,1.1945953183592024,0.0563108146321278,0.5185921529981424,1.4077293209014208,0.32486070944276874,0.4540396938986172,1.4185486698058845
0.1873914697745171,0.3014902802274925,1.5140806752894223,-0.002104246847023627,0.48391102724517854,0.1035327850569742,0.2550958611679498,0.1032303335754604,0.08011657977407842,0.058505067729953474,0.47764508406084927,0.5157858248082817,0.27642178288097546,0.19994996799955594,0.48328730439046874,0.10448277838235859,0.29880502061288416,0.9098480907084121,0.2696920532918304,0.25560842712031334,0.9128154937640266,0.021209212248578167,0.2995651720392667,1.4390332642555488,0.353537796674111,0.24796225785263043,1.436668182689911,-0.030849788486588956,0.4188313562446562,1.1767860958376386,0.42194776756149527,0.368779289780032,1.1945960359720849,0.054186196219552035,0.5219152218902772,1.406013648125568,0.3236721010472676,0.4569255050928253,1.4181697666308606
0.18608888895765505,0.30440523233667305,1.5131940553587637,-0.0005924094178005231,0.48167258496675763,0.09942037851508674,0.2551372116147883,0.10407094152107937,0.07999480112724847,0.05749439601343825,0.47477612253247936,0.5120318633902077,0.2755842526465203,0.20263324128642726,0.4827689795106833,0.10391365276990756,0.30379616404520604,0.9095159461833296,0.26890464397027286,0.25976300957669657,0.9120992980313538,0.019882820292421218,0.3037405795442187,1.4382962173017868,0.3509213811135765,0.25051682108086903,1.4370594290130068,-0.03213155441305603,0.4217864978521369,1.1754902188807885,0.42006499759618093,0.37305282140065626,1.1960683915440162,0.05473154307254558,0.527683897899688,1.4027359232781813,0.3202955559354761,0.46180679817373266,1.418737362156919
0.18192346929231937,0.3069280531538449,1.5131403704911712,0.0007733871038973278,0.4791022517032206,0.09466217388372714,0.25495970035591564,0.1046061793285911,0.08012083670161722,0.05647145062916751,0.471030694882133,0.5075749954902602,0.2749051934095728,0.20699977838817982,0.4819525595937344,0.10262934346555366,0.30946686566688236,0.909006013360778,0.2677311715497139,0.26584304567858646,0.9110505717406214,0.018120762289134444,0.30762140566869167,1.436684965027619,0.34784288398812413,0.2547402571047746,1.4358833323970002,-0.03286271360282214,0.4259883484642037,1.1738237467510444,0.4180852344848161,0.37974362388370597,1.1964861896590284,0.05155100348128832,0.5318710695667487,1.4019936081645645,0.3164257021813359,0.47074683745471746,1.4173777543060735
0.17933139776984747,0.310552418759969,1.512962516943953,0.0016356877935856922,0.4778680411389441,0.09145649553252584,0.25436460104209985,0.10568951089640213,0.08036290077984608,0.0551103109239206,0.4691383233061889,0.5046510847325881,0.2739367826252296,0.2115771174362502,0.48131176435970535,0.10104916069217201,0.315027455646632,0.9090259901137775,0.26618827546790547,0.2714747459745582,0.9102566141916474,0.015354177423711434,0.3105536863664412,1.4356238873028013,0.34448892095306766,0.25976316915777237,1.4357019204816313,-0.03339053481318168,0.4313243702119687,1.173425194203442,0.4138897824616502,0.38719528474144,1.197339704070763,0.04946950431713163,0.5371132236165478,1.4022170744114486,0.31113307195044754,0.479616314994745,1.4171301656985296
0.17493093138035104,0.3160161234244543,1.512602903441267,0.0018172519140114303,0.47755820502276075,0.0900422167268917,0.2541663846476779,0.10691070322089372,0.08108745495879183,0.05312609555434876,0.4692960943923816,0.5035151214563239,0.272462897710351,0.21609124895607007,0.4812159778141814,0.0988159779095341,0.3207065673722935,0.9099824496882042,0.2640957445002964,0.27768548316194347,0.9098989215161697,0.01155672653766336,0.3153214104436941,1.434283221683461,0.34297811473485057,0.2658110991700653,1.4362741011564193,-0.03493242885581762,0.4361823064125127,1.1717142577037662,0.40937099959112083,0.39400791627453147,1.1974716617951024,0.04743517699618121,0.5433924384140509,1.40001779083053,0.30629716692889086,0.486757793530111,1.4169807375837344
0.17050614291910463,0.32082113597523954,1.5126554693286096,0.0023851537420359666,0.4769814865476696,0.08862295469864948,0.2531715473695999,0.10834723884498061,0.08148921893754935,0.0518525305226094,0.46939411838291534,0.5023368170733775,0.27005024213678364,0.2220049479003325,0.4804323506456277,0.09594340742567754,0.3243602972679416,0.9102627586832979,0.26167156291972304,0.28310966794220177,0.9091878433622201,0.007743242329552187,0.3198849811184354,1.4344696326228825,0.3398758822076084,0.27211055765186104,1.4362044513292884,-0.03752372301544812,0.4400968007437609,1.1713964910519403,0.4068760010500103,0.39934130801889917,1.197050940252933,0.04121814204085908,0.5482290039539063,1.4005472705192978,0.3042358868517914,0.4903981136300166,1.4174747205980134
0.16612047391509227,0.3272592505343507,1.5124044250376685,0.0031371342053139674,0.47634454694751105,0.08659331016372922,0.2532210164157794,0.11005598470319701,0.08116482689618508,0.0508185991218768,0.4694396535504112,0.5005278906487862,0.26929897375360407,0.22758457800936144,0.47902053844223913,0.09302894885836885,0.3284333902198866,0.9100612769244536,0.25928451530747715,0.2894373622886788,0.9076328027256775,0.004030376435215532,0.32319333867694505,1.4329109584877684,0.3363592095032384,0.2796918677355502,1.4360208624475368,-0.04088206922928478,0.4434571786904809,1.1697915042895743,0.4025775951238717,0.40810715849221885,1.1972779056483336,0.03533321242101584,0.5522570932997087,1.39948386088727,0.3012368913947478,0.4952344457879495,1.4198704337297288
0.1610345540305118,0.3344721767215468,1.5113745236720797,0.004260105657923809,0.47496744222351217,0.08328463173333,0.2536503942002025,0.11028771080575836,0.08221378318181832,0.05001590058554731,0.46889761599040714,0.497452955188446,0.26808991955492745,0.23388160283841317,0.47829258100649147,0.0900105555439415,0.3337267155209187,0.909171016505158,0.25645064362217945,0.29555584598384843,0.9068869587501752,-0.0010435083005464146,0.32743780117913607,1.4318021030572474,0.3321853159723477,0.28723217190401207,1.4360598283209203,-0.04384844052872141,0.4486609204208838,1.1687703713537958,0.3994258768271324,0.4145472059353913,1.1970126808284312,0.030121709894320337,0.5572719846729746,1.3992774382238298,0.297763759103686,0.5012054288033528,1.4196464144162029
0.1552630266771832,0.3386608387166743,1.5113273077713705,0.00444477081368121,0.47394239242579594,0.08104824776667922,0.2539706416831001,0.11178196583122584,0.08338293610429327,0.048708498437471305,0.4689756494901123,0.4953961295428386,0.26712688392023726,0.23936846399281209,0.4782269119381034,0.08673570067030001,0.3390815102694148,0.9089923803852448,0.25336220841445833,0.3016872079087022,0.9066741391947665,-0.00605999759145325,0.3302624696219779,1.4296523339608596,0.32735854619142307,0.29470920284747204,1.4357614216715593,-0.04819384541501856,0.4549920391066298,1.1681637838251642,0.3967539783897724,0.4228243952656065,1.1977648922097255,0.023197120701319702,0.5614140109638798,1.4004933343463033,0.29201914349833724,0.5097533361818198,1.4188659565547168
0.1500763039706324,0.34352854680381145,1.5124004938408802,0.005620058603281883,0.4737931152376031,0.08042785491483487,0.2548304261607221,0.11147978665677283,0.08527994672860235,0.04831385987084251,0.47022358435379014,0.49494881079504915,0.2656866530325829,0.24728375891881324,0.47744509033837984,0.0837530907272435,0.3431378800406202,0.9096475541614318,0.2507528168050213,0.30752838554294515,0.9061464723250156,-0.009434880810540556,0.33395648236494435,1.428715759889015,0.3226436355236651,0.30308481509119267,1.434821620842582,-0.05210140117565827,0.46066989641847844,1.1682664859477776,0.39235033694319876,0.43387054981140144,1.1983673906923216,0.018066155313747317,0.5651238636711161,1.401860964270548,0.2879051744758104,0.5133530808387308,1.4223859544199697
0.14303084876290553,0.350074673240161,1.513158497446769,0.006138528787984485,0.4752313954281959,0.08010888482974975,0.2554187986755321,0.11395497266788739,0.08800387912625518,0.04778666889401098,0.4705534876604187,0.4947316045142059,0.26493531198405396,0.25536273331258547,0.47822052029342405,0.07993389122225449,0.3464807480713916,0.9106027351265642,0.24747786914605452,0.3135639182647978,0.9071057321165699,-0.015033604168508444,0.3374818087442496,1.4298065772617097,0.3172733439481201,0.31037284561733697,1.4366097477944069,-0.05828237733082854,0.4634226303098789,1.169080606356925,0.38684108828064123,0.4419669835287616,1.2005664655817205,0.013077535745052224,0.5689814467973099,1.4018078185382976,0.2819139321207154,0.519965790599981,1.4248775986753066
0.13815509136378748,0.3581744143257925,1.514069379811921,0.005787623096604169,0.4743007270417701,0.0802125812008987,0.25592834992383956,0.11650388324522697,0.09189623389839777,0.04528059571375559,0.4690179641635565,0.49503887298599925,0.2634915563991268,0.26519589759314105,0.47943599606658066,0.07622383582511247,0.3496676186083583,0.9123805861339792,0.24409716156499095,0.31844604343656097,0.9088800198252613,-0.019852008507736194,0.34216533639681934,1.4305154666450164,0.3121058825827772,0.31844628328660995,1.439544222186587,-0.06509157529561284,0.46580937100616676,1.1690309837619466,0.38198227531834694,0.4504349709940473,1.2038152945082352,0.0075084980483754865,0.571547175337464,1.4013025172338482,0.2741292288527827,0.5295018269013595,1.426348688349201
0.13129414506908768,0.3658987754001047,1.5153195419963934,0.004620961907382458,0.4745718384382713,0.08006608169685037,0.25728515435638777,0.11957721473879057,0.09655959512941881,0.04239789894552838,0.46712585430185005,0.4950181038441249,0.2618336138972798,0.2774520853154893,0.4805018821958796,0.0725508378203612,0.3532529750820716,0.9139492232069744,0.24077051141134095,0.3239149294775893,0.9106487240928425,-0.025872320761963722,0.3486236382673624,1.4322878864331448,0.3070533790632994,0.32669754992133787,1.4416326181265946,-0.07087556441648811,0.4699858335473393,1.1696911244724157,0.37567103095694143,0.4597942954423066,1.2061588541967572,0.005695518023082235,0.5777930553704875,1.3997235506115806,0.2651156939610585,0.5395532771929606,1.427121814700212
0.12448929722476128,0.3725990721844927,1.516423194968508,0.003727601643600326,0.4742886197376895,0.0803712207015427,0.25893286055835724,0.1229997682575885,0.10185546034429077,0.03977193529868666,0.4641515799490873,0.4954115267602163,0.2621510217677071,0.28865651943790044,0.4825138130155342,0.06862741263193485,0.3562462193098665,0.9160155925755082,0.23717861231375983,0.3288531251750314,0.9130952210513107,-0.03173553109280289,0.35123888300523987,1.43357426421091,0.30132823098255423,0.33529521134261375,1.4442875975890992,-0.0768086363530494,0.47228668388160194,1.1708538522791165,0.37140772261518595,0.4674347388086473,1.2087002069553607,0.000973100179768359,0.5817413462611546,1.3997010361184874,0.2592788375373942,0.5454317730212132,1.4294967505929514
0.1178304308924871,0.3788799757686103,1.5173311305291497,0.0022960140081356973,0.47382112434675405,0.08050417267017046,0.25975747584071884,0.12635131136323494,0.10767468285502285,0.03720055590599519,0.4617434525341194,0.49559325271319693,0.263132181080692,0.30272549935626525,0.48348717423492565,0.06422197101084673,0.35911347127441573,0.9176330614868633,0.2331190560658747,0.33397894793970206,0.9144919042725388,-0.03684081625101876,0.3551026891290645,1.434970641989278,0.29485321395553166,0.343188109154165,1.445680129623454,-0.08298552942466135,0.4740901666605859,1.1714894707402352,0.3676743411737669,0.47561388701576374,1.2110890625342734,-0.004703967776910492,0.5849769069117696,1.3994798433681528,0.2537442765225699,0.5521673237988806,1.431473496555367
0.11277431446097308,0.3844793206263214,1.518135012814957,0.001247999872959227,0.4739463578761302,0.07989773244236305,0.2618374702744451,0.13069133249263146,0.11327863671293283,0.034026003473185074,0.46010216842038965,0.4951183950950864,0.265288298723892,0.31720241144670164,0.48416441925931875,0.05990391195499392,0.3607750052367728,0.9180184046364671,0.22937209588361,0.3397976209065134,0.9152483993569911,-0.04303800256837156,0.3585690526018455,1.4358129237768131,0.29078999473789224,0.3513135553455311,1.4481420790247663,-0.08999340381050948,0.474955257214712,1.1713169983048382,0.36181336982374346,0.48522080279283336,1.2138447570495232,-0.013413227928556964,0.5856183245128097,1.3999881502154148,0.24673506642530083,0.562818883122151,1.4332569293661046
0.10739102365751561,0.39135998487622964,1.5183889463144586,0.001171374704154015,0.47501238162583964,0.07954700756445111,0.26434891915857817,0.13642341894024593,0.11926728794646375,0.030388968991150053,0.4577724585802932,0.4949029521645638,0.26697091253793864,0.33193110168237544,0.4855068978616335,0.05638772038363113,0.36222336007461153,0.9186640034975522,0.22616932462691805,0.34387169588294797,0.9165762765349106,-0.047441458715404686,0.3621770751874734,1.436043124194487,0.2870081019010371,0.35765651965192735,1.4505793376663,-0.09645046011121627,0.477315625705456,1.1713760409641973,0.3562334324790939,0.4938382533315101,1.2170506105025711,-0.020103040186962986,0.5876934046601671,1.4002613605173828,0.23893081581310824,0.5742020729433046,1.4342874278207713
0.10322959604321913,0.39709086873700944,1.519139690231023,0.0016495817802402767,0.47503257290793427,0.07970492059354528,0.26539406518990677,0.14258275648378885,0.12494389990109782,0.028068014244583814,0.45765611939965256,0.49523400454407823,0.26897296941182613,0.34642382269396316,0.486599385970391,0.05289712161208113,0.3635655814237903,0.919397661568544,0.22288502170126157,0.34714895985306254,0.9173114956100286,-0.05237444595814363,0.36519287557492,1.4374994131630525,0.2823649451901419,0.36411655738505344,1.4520374209442888,-0.10189757435417075,0.4782683260676246,1.1720365468023248,0.34967189580157515,0.5017808917122883,1.2188193627433694,-0.02542929001659394,0.5916104890338355,1.3994280509476273,0.23265537396311986,0.580863991766915,1.436669662368876
0.09813931355670708,0.40071237333600485,1.5190503312461576,0.0018795081057658527,0.4734976026135011,0.07975544768260869,0.2673329805688869,0.148369226277779,0.13067633731954875,0.026794866596309783,0.4576409323627133,0.495436211681084,0.27286389931206817,0.36019968760167026,0.4876814035183276,0.050201904544767854,0.3647420606274026,0.9199475936087506,0.22027083802001654,0.34925999536897906,0.9175055715670922,-0.056790891767087404,0.3673805989781718,1.436930164260936,0.2779812224733774,0.370336387969242,1.4526164907588965,-0.10637996693006696,0.4796593115849498,1.1711452973771195,0.34525182578941166,0.5083073561444205,1.2195682866154365,-0.02796485300111273,0.5950447798623141,1.3968417730911176,0.22800370369125986,0.58632888143788,1.4376860734020342
0.09329369420333614,0.4042140347593729,1.5187842383316539,0.0013747903144129198,0.47229169227733125,0.07894517734645007,0.26787609290076797,0.15350551072449511,0.13611945365382247,0.024734778212682038,0.45857808454516064,0.49479965488013816,0.2760544983154714,0.3732066532685757,0.4882819009824121,0.048152389222523635,0.36619154976046614,0.9194107139139145,0.21838190249556988,0.35255459638835074,0.9170953641084564,-0.061721656000438496,0.369845470538543,1.4365541582382089,0.2749218500889825,0.3769644584240367,1.4540724980954864,-0.11082676240713754,0.48010404178050287,1.1698322482695338,0.33942242035540393,0.5162428854456614,1.2210231463988928,-0.03279780876982207,0.5948449693547935,1.3959800953666477,0.22213650030786544,0.5920851146112474,1.439882856872902
0.09028728023869033,0.4070777729977089,1.518400352628532,0.001276159548717703,0.47199419486206734,0.0786490428043281,0.2681402081142179,0.15849536291048386,0.13977434041782819,0.022988875473453376,0.457921244884438,0.4945745146488864,0.27664931578846125,0.3828013378748219,0.48901458395463837,0.04620861940825479,0.3669252707570448,0.9195087097458724,0.21653004566543774,0.3545737737871228,0.9170610292562629,-0.06347527275798592,0.3719494670140817,1.4361439111792818,0.2730368890158368,0.38176502636575244,1.4539147321471781,-0.11377395613551085,0.4799616334619525,1.1687292158431368,0.3374312690210369,0.5213607338415883,1.2210345872398685,-0.04026129529926815,0.5921154511608442,1.3976727142639778,0.21885888083481714,0.595713564878921,1.4397117660509045
0.0874103986467329,0.40962818744412727,1.518410808271061,0.001357816689316032,0.4725929300249534,0.07867204119188617,0.26690543292275853,0.16189871003438708,0.14121307735426292,0.020969746318267903,0.459195250794572,0.494729537367692,0.2775031184969643,0.38713258083934926,0.4898028834748838,0.04466254702411302,0.36868254594231287,0.9197365011724798,0.21499895074383774,0.3565504862514364,0.9173462946016727,-0.0639394913750088,0.3747455772772208,1.4349275849075225,0.27120248470462677,0.38634760706464993,1.4535890680606132,-0.11658283130460445,0.4773272046939019,1.165827619343051,0.3346932499785684,0.5260123932971762,1.2204928401904191,-0.043849956604309064,0.588224984223867,1.395633319088995,0.21601732384738484,0.600005206063014,1.439236841246833
0.08608339542965929,0.4103849088519566,1.5182241319818812,0.0010497929788916643,0.47251425959070875,0.07821826332372686,0.26628185165022744,0.16468055027290557,0.13929011812676415,0.020476166611673747,0.46072238591256026,0.4943388944524988,0.2761973820019396,0.3885448876222478,0.48878023378957336,0.04373042045274621,0.36982256073674896,0.9192839058705256,0.21411664245233086,0.3583946538250394,0.9164108134551467,-0.06481924760321905,0.3737957875213521,1.4331941103764596,0.270713535716566,0.3897980194467673,1.4537902805514094,-0.11689013463637822,0.4764508938390344,1.1640094071282059,0.33187570016311396,0.5315461641915001,1.2213283876607768,-0.0444302751532539,0.588487337973719,1.393346358866302,0.21151125776812107,0.6021743659014687,1.4402631222924216
0.08622863341320765,0.41079115354438317,1.518362077819197,0.0011246022384425788,0.47226135355140564,0.07762676383204935,0.26456544404856713,0.1687855369721989,0.13425700499702348,0.02098246655783697,0.46314784850063817,0.4937792515688197,0.27483855901030485,0.38664442656375625,0.48752291355939154,0.04303712399322572,0.3717831512078384,0.9186940884830077,0.21334488656850908,0.3594286747045231,0.9154355075392561,-0.06429848405308085,0.3755787412342553,1.431324690090726,0.27165002874613736,0.3917720604267201,1.4527007507077967,-0.1170797168419729,0.4721883810257429,1.160048036639141,0.33158089535058566,0.5343326840425612,1.2204205261539336,-0.050001727097613406,0.5839825743821753,1.3911391874707864,0.21243736672777885,0.6025285631902452,1.4407892670241083
0.08638894394281853,0.41180079088995114,1.5170422094242046,0.001009608865254808,0.4722473908125068,0.07786831553917799,0.26033358772455806,0.17236814676094273,0.12826053835747445,0.021339592436728238,0.4665247120132076,0.49406828417497695,0.2718112979985901,0.3814871190602825,0.48672371810327947,0.042428977909274634,0.37467173079551663,0.9189176442432451,0.21260950829537711,0.3608568969047584,0.9153311146030079,-0.06337465755280423,0.3751496118137758,1.4298986757932304,0.27211478836200176,0.3944732070531702,1.4530256120463283,-0.11605985364146365,0.4705185298243948,1.1581674183830322,0.33256207081049055,0.5371112612322415,1.2209162832890406,-0.05239079542401263,0.583182390925638,1.3898006464871937,0.21203734088826848,0.6043090820069892,1.440839817522542
0.08812174629904342,0.41091246718545027,1.5167781849870199,0.0014150788666978178,0.4731349488880176,0.07823164834260043,0.25531463524539133,0.1763908315846764,0.11970026639896755,0.02134556425816752,0.4663326343357092,0.49443248236545934,0.26776162972682926,0.37439168614221396,0.48439162488228577,0.04279378041944789,0.3767574307698144,0.9197558971870323,0.21279047344074978,0.3614896739124243,0.9138676921458387,-0.06109546191611663,0.37116874266127103,1.4269225279023794,0.27558471133687656,0.39542430146060237,1.4530349005631293,-0.11551276023096478,0.46664764596109665,1.1555738985219128,0.3316503099574826,0.5413305012902995,1.2218659738288211,-0.0531750883962434,0.5806704404676917,1.3868995495232501,0.21058319851835194,0.6064090760112391,1.4421224100077925
0.09205091657483477,0.40849638946841266,1.5159164579341498,0.0021390082798808763,0.4737511549375684,0.0782302140401735,0.2468279573988502,0.17809348762942695,0.1121515972387506,0.022149242097711828,0.4659233707972555,0.4944125446518494,0.26507281616811507,0.3672857172650579,0.481239498986419,0.043083814477875876,0.37773184517203606,0.9200489131789964,0.2129081527956988,0.36200658703637917,0.911229853779912,-0.05612013320178713,0.3673797501052919,1.425217586889326,0.27994557654175395,0.39512925044061564,1.4515264828498056,-0.11509256745775126,0.4633367995061168,1.1549896921834697,0.33416355518943713,0.5448060739004243,1.2223288781908868,-0.051706281347295324,0.5776180076766464,1.385910202645037,0.21292408367999832,0.6056239999479213,1.4437198592305494
0.09549311945822245,0.4077290024513546,1.5141086177928873,0.0010832363612482876,0.4736813816999227,0.07845558944914664,0.2367610525149319,0.17680726385997503,0.10799533637445452,0.02289528819532843,0.4667901785375751,0.49455849671772834,0.26073497538593116,0.3614271651944124,0.4790708217805067,0.0439822617812219,0.3800208168594057,0.9204825315062423,0.21352507105608312,0.3625209175576346,0.9096613673272205,-0.050417262162764764,0.3623059114416178,1.4229353833980174,0.28451786967740084,0.39507873769794466,1.4505671707105174,-0.11583696194403645,0.4580842631477636,1.154134134760879,0.3386337342349305,0.5463165531967636,1.2223709100037456,-0.05090883058078577,0.5723731415274274,1.3846165282943377,0.21729046217679662,0.6040023891011075,1.4445346962559806
0.10000509148645663,0.40662979930520476,1.5130822771084926,-0.0001075486994225543,0.4733055926180313,0.07870736043743684,0.22699338791222975,0.17759049056064727,0.10143303313708119,0.023987985971507482,0.4684827681878365,0.4947148258392164,0.25534116646945004,0.353680933027143,0.4763299754772527,0.04523878995375251,0.3820091695354706,0.920689643487364,0.21439295913423814,0.3625351000275391,0.9074646555554458,-0.04399881896050166,0.35826190976148997,1.421710005723619,0.28894469788698757,0.39521750735433164,1.4501159002160875,-0.1179942661459024,0.4526235841721512,1.1546351327109339,0.3444558318830279,0.5465644913361808,1.2223335415436316,-0.05186551285091405,0.5649804598507252,1.3857317636550837,0.22241071713216298,0.6020884246849568,1.4446636958374564
0.10667305603441912,0.4034867008770601,1.5122505419224221,0.00029777185984026323,0.47335256152447047,0.07885017665184672,0.22195254044739343,0.1787465328140812,0.09499285864458261,0.024919750646095425,0.4722626883759196,0.49486269969179325,0.25119648097456937,0.3449876036703984,0.4742923007490786,0.0470695152131754,0.38446166289848444,0.9205129225901739,0.21570869770430987,0.3618427433778514,0.9056763167104952,-0.034900808026096485,0.35412510197066943,1.4216045170251332,0.2951168880298476,0.3942404403836506,1.4500396128759054,-0.12178841677498024,0.44496629416757155,1.1572002821499867,0.3506775223926174,0.5451180535096958,1.2219584892245958,-0.048869231943936456,0.5583676201012262,1.3857178690010106,0.22870626547880932,0.5987921715038051,1.4447882578220055
0.11321329049734445,0.40057606359365283,1.5105812782302728,0.0007576311750572151,0.4730245001004278,0.07905395242668029,0.21904721801871033,0.17725802232131196,0.0898362112428045,0.026752152232048618,0.478034363576385,0.49494511633007526,0.2487703473893534,0.33579273053963593,0.4723840280944194,0.04939880314601566,0.38602829526266297,0.9196854889939545,0.21752362022533228,0.3606037707676239,0.9037089753942537,-0.02743318402181298,0.35137535531247077,1.4223136410513724,0.302528722460414,0.3907730038885276,1.4485233490018452,-0.12633975009451584,0.4358987563106429,1.1600474811067838,0.35965406249243004,0.5422319428617658,1.2212202275271515,-0.04602792365013042,0.552102809687761,1.384645660805579,0.23738377764372373,0.5951836261005342,1.4440519693191756
0.1233763054212661,0.3973484598808221,1.5090183663147576,0.0009408937642441195,0.47414116852761634,0.07913472814145087,0.21872317582415515,0.1731782030560933,0.085576078823333,0.030655624474045694,0.4879849506235068,0.4945764041855051,0.24841658721240928,0.32557349171917305,0.47061298516870914,0.05120876893620275,0.3874121099903707,0.9174770944677338,0.2187253899696464,0.3582484449784914,0.9015229691339129,-0.018380762818979036,0.3484084378925757,1.4229094849500916,0.31099520804892095,0.3888055510371377,1.4457377997786567,-0.1331013530114197,0.42869912669314825,1.1657984502499938,0.3666001962445595,0.5407534513571131,1.218376282431641,-0.04133953544155439,0.5505920917104419,1.382879098866381,0.24745110006556809,0.5919825377856329,1.4432920706825514
0.1355395318158668,0.3942108921213475,1.5070651981238592,0.0021339831607903245,0.47649983339936897,0.08074650052435227,0.2209143074354801,0.1693165598313403,0.0832749594647127,0.03499120485729232,0.5040136908403309,0.4952674198974032,0.2513220935255707,0.3187374932376082,0.4694169889026896,0.05280931229306825,0.38992356051605287,0.9148548106219838,0.21968113787067747,0.35683414105020794,0.8997496381449831,-0.009066025594040421,0.34410320045424925,1.4232508441909062,0.3198196568804427,0.3845711797012277,1.4423075983388045,-0.14075081589336086,0.4207526727099906,1.173255535901927,0.3726260819635764,0.5376393315895359,1.2150345013126227,-0.038273844932713866,0.542415770790966,1.3856231307854678,0.25467689921099346,0.5903669920521929,1.4402416855050122
0.14538313979633158,0.3910047668415983,1.5072826844552383,0.003773854455937934,0.4808354444161871,0.0863527437859667,0.2227453369424657,0.16883299736277627,0.0819346893231267,0.04136841331788844,0.5248028307387088,0.49905436962660765,0.25567022777314896,0.315989989023787,0.4687370267745671,0.05287545975237105,0.39131298592285463,0.9130891249417484,0.21859535016406206,0.3525966233306954,0.8987632077840947,-0.0021563366423957694,0.34202212769195534,1.4260549822630422,0.32761733809959626,0.37927476872386884,1.4391994764578522,-0.15231412048306595,0.41590604502752165,1.1858345172829903,0.3806664938973535,0.5289350299224299,1.2097317040346756,-0.0337486551846226,0.5371958362643585,1.389868800023858,0.2672986138089657,0.5852762031811141,1.4364090424052183
0.15919065882361713,0.38759031305436514,1.5083484790696626,0.0021656965836089046,0.4878413428275947,0.09860387531372423,0.22313486161803875,0.16863720622530765,0.08126302880273256,0.05003028594722573,0.5530154954812856,0.507424306413499,0.25801626931043514,0.3119873207996812,0.4693246541774055,0.05196352639976408,0.3939877192975546,0.9124986356397997,0.21548658880265828,0.3466092419689133,0.8990148923576506,0.004835799580219064,0.3435743073091532,1.433709045251261,0.3371443221490547,0.37195708681683776,1.4341847060127026,-0.16586329543369185,0.4132369490066797,1.2062936322962936,0.3827008780192805,0.5233205540916925,1.2042154436771155,-0.02864287968189881,0.532697847686747,1.3994232437018557,0.27580483518544957,0.5802531629362797,1.4338797104608465
0.17276518998735846,0.3832036497248993,1.5097751647049062,-0.0010097256431466064,0.4979597500034173,0.11498086283552714,0.22267847075202807,0.1670280095815407,0.08146355531330254,0.05881121875065848,0.5820947430952786,0.5187203773048336,0.2562147607087822,0.3048082317444712,0.4716526071466438,0.051206307255478596,0.39742163356392707,0.9127093029532162,0.21187662889332526,0.3407011082648427,0.9010442986891168,0.011251255606731457,0.34864034204123023,1.442411379199822,0.34549653675916336,0.36219573405824246,1.4310447001088997,-0.18358630848897836,0.4170971600677872,1.2349011007659263,0.38884351362283104,0.50931591369465,1.197908421126848,-0.023328519094640114,0.5336348065042494,1.4113542417604807,0.28877538023573884,0.5738453534940284,1.4286342005319854
0.18763142307186492,0.3802875277895984,1.5109633283865647,-0.006468932210981216,0.5119171268431404,0.1306437951200174,0.2230393972951368,0.1664681755513224,0.08272117856161722,0.0643921757428575,0.6070090427766954,0.5301518762485276,0.25177010123374716,0.29829251746969143,0.4753532121985869,0.04955988613111311,0.403899311880081,0.9147417460399061,0.2056723592894741,0.3353996704059642,0.9044538497985073,0.019393977495719396,0.35848302913447655,1.45487588778121,0.35111398979435066,0.3513562347269302,1.4264591152670105,-0.20121301266770852,0.4329663776510252,1.277406928712462,0.39569856898641964,0.49329457384206,1.1903649275321788,-0.011706000695755819,0.5383037072537873,1.430352989092812,0.3066207834587818,0.5616432485468154,1.4244658281105955
0.2021446900377108,0.38026151393744245,1.5119242738209353,-0.014628838123977835,0.5272087566288255,0.1435201744541393,0.22381510754712464,0.16530121891242655,0.08345621835605561,0.06977811254019368,0.6251401759101243,0.539686788501858,0.24666816181682755,0.2886853184711331,0.4791983376840302,0.04748383703738736,0.41170604966072555,0.9182778496872265,0.19764021344742616,0.3310576202365332,0.9074836867703758,0.02855074648818777,0.371430417956221,1.4673811409522242,0.35348490612237266,0.3404058562139585,1.4221893624032176,-0.2158200926605341,0.46367976320894694,1.3351518208652855,0.39791203767588595,0.4765067920369781,1.1826566098984823,0.006050886967113884,0.5491000564714295,1.4529697741255934,0.3231161259375947,0.5464854682751257,1.4212336679264248
0.2123645269600553,0.3811179311344091,1.5131646243803425,-0.02318796596544277,0.5432866617126276,0.15275174194603397,0.22338457408247156,0.16491977185365997,0.08353656086734425,0.07293716561073382,0.6359838627705278,0.5475083453096062,0.2389280720751519,0.2799913088975333,0.48212267711585755,0.0443870453629391,0.41688058549392987,0.922410225057625,0.18910436716480894,0.32705986726762853,0.9098291444097226,0.03387116406970799,0.3883348148559227,1.481594978317773,0.3500833890029786,0.32380043791857216,1.4183786029546868,-0.21979470421603697,0.5136896687779358,1.4064344144789969,0.3995650094797592,0.45663424975790745,1.1780104705357066,0.03297175412554979,0.5566268521348563,1.4747332938338262,0.33595398885502825,0.5346993229838356,1.417320102880892
0.21932530270316822,0.3801969325363772,1.5131898848176506,-0.03422201806239226,0.562358486361986,0.1564299207824687,0.22225791450058116,0.16398226104502384,0.08374914490492529,0.07272388516857978,0.6416162155053541,0.5513258856423263,0.23033114827280737,0.2711034122833759,0.48476772268030693,0.04060025020157045,0.4204963217977615,0.9247648078822553,0.17951041344620794,0.32198229232277803,0.9119301268186011,0.04261120746431853,0.4038920687008594,1.500302659577157,0.3436403106410152,0.30626828349699853,1.4126346053920866,-0.191557996911815,0.5792112466623449,1.4886423569287577,0.3984577106369975,0.4367334021611688,1.1721193354537192,0.07365961076841565,0.572918851593117,1.4931125659407383,0.34666626857304245,0.5230832032504131,1.4114349953431315
0.22304005114381883,0.38497404693085147,1.510861016921675,-0.04058903431872326,0.5832283895775968,0.15413336459887306,0.2217673964731934,0.1640839092871252,0.08333593883804072,0.07173475630381278,0.6427938606214053,0.5510001987604611,0.22087320318603126,0.2639191807130935,0.486305460306974,0.03613229153960815,0.4243405907818877,0.9256905555641058,0.16821334745718067,0.316830045435683,0.9129945455342993,0.05591079207837881,0.431491673935728,1.51962460578765,0.3307648176271937,0.293372201231946,1.40729535625469,-0.1302784897519399,0.6532610693471745,1.5627491159540083,0.3940873269613508,0.41108192755438855,1.1623364583537394,0.12119058119048197,0.596124821871769,1.5003509113890543,0.3641519376456314,0.5003190498403571,1.4043066626493648
0.22208954759513524,0.39096518266925034,1.5069233529407573,-0.04328295121558167,0.6044036783567022,0.14891883104333048,0.2187280936567127,0.16544834927384947,0.083664872567579,0.06883396599288522,0.6412521017085459,0.5485963621001476,0.21254202285754276,0.2590183806402694,0.48809655482804853,0.03199897263202306,0.42746328386988947,0.925846681153701,0.1566006595830758,0.31122110380959234,0.9144528403657622,0.07033718644956766,0.46592076438548136,1.5338209722381018,0.3087862419618626,0.28315385929699927,1.403353678388564,-0.046702606960021105,0.7209251576084561,1.617387406901571,0.3836901559848773,0.3870805248146562,1.1554406481539858,0.1701397608970709,0.6174607419314031,1.5047925313587054,0.37880998339869765,0.47990670243201583,1.3978669748720054
0.21803285427945396,0.39607132735621253,1.4995856168714108,-0.04719857324497152,0.613926829851554,0.14604743906005985,0.21752603403115542,0.1652317349826658,0.08281150205468085,0.06770451016260608,0.6399798087307895,0.5457796837789203,0.20635699334410698,0.25499161857174746,0.48799874215476535,0.025307060570946657,0.4286427345774931,0.9238271665741855,0.14331572151004268,0.3056220585194168,0.9135557777089053,0.085459733650377,0.4974001385974025,1.5329969831775256,0.2806326405108813,0.2746651404444353,1.3983507808409146,0.053861619235098586,0.7674510752745545,1.641546503517453,0.3711205130682008,0.370997411627859,1.1525854804059263,0.2213843849648242,0.637515558626989,1.4820002219637438,0.3832593365251115,0.4699619082885295,1.3923071889459264
0.21023694547698976,0.4049030439531099,1.4892278618047239,-0.05134747031838663,0.6141007018494467,0.14505362894242743,0.21706483252114486,0.16304046652982787,0.08317939188534146,0.06930091055751467,0.6390592424254609,0.5431546819262034,0.20248765482343814,0.25343101994825984,0.4881150509521643,0.014246817883207804,0.4297488574774012,0.9206944800375843,0.12822844815656342,0.30286102015579786,0.9119985934461825,0.10259270968712818,0.5262084293457833,1.5237725365456287,0.2570592917926583,0.2695907589336766,1.394318440151202,0.15549404345841483,0.7943053307135294,1.628816957901503,0.35620111720598663,0.3524491383389071,1.1469806628605304,0.26664360836410095,0.6305025769211217,1.4521358109148168,0.38601614241479254,0.45633472506701284,1.3830519407997237
0.20678075809775645,0.4113892545016959,1.482606368986697,-0.05287673143848465,0.6125254758683729,0.14255263524258827,0.2142278689299056,0.1636645789161096,0.08317248003471625,0.069231329758607,0.6406061828790055,0.5399970747801398,0.1987836384200521,0.25580259169705066,0.48767910114257274,0.004924156094032338,0.4350049172623074,0.918119736059767,0.11472412382422109,0.3044604523751509,0.9098255654218537,0.11699604568427795,0.5459194681691052,1.513057411010636,0.23972269302918628,0.27146954434039494,1.3907230505612047,0.23511810223910534,0.8037701262272351,1.5856436093478612,0.33501639423714225,0.3352051897334322,1.136298738908375,0.3139954245906254,0.6067800151835216,1.4263638412608677,0.3845525852744362,0.4349405598009019,1.3708380238227758
0.21267165959575768,0.4158003937877041,1.4724872970680962,-0.05265781769507939,0.60968900446329,0.1397749917781746,0.21213721005995878,0.16345872414856613,0.08251101306220818,0.0683960274017733,0.6449333993213797,0.5369829890340733,0.1922053008711331,0.2586771581232816,0.4861062186415955,-0.003383545037744762,0.4425461761633594,0.9154893944676995,0.1028341375271051,0.3090741047669902,0.9069535684347247,0.12444851393043839,0.5617088819319627,1.4961652559931895,0.23269960000372789,0.27346350347407195,1.3874914361154107,0.28575112859258794,0.8049439804398171,1.5191794397792764,0.3133615515243584,0.323311358496155,1.1250455932345296,0.34760425535651646,0.575422133251158,1.4012896204697218,0.37952355831429835,0.4171791857910382,1.3579041310622122
0.22046294471911737,0.4140558479101345,1.4618090443198692,-0.05496183933192725,0.6102780861266608,0.13814882071665605,0.2122658116484007,0.16399202708485125,0.08201256090753226,0.068267405227787,0.6520098866380731,0.5340516257931816,0.186444853820553,0.2616996398497093,0.4846888241112965,-0.012598037929202832,0.4507034769212623,0.9113122926027586,0.09073332980473833,0.31493261934360367,0.9037796316221978,0.1353206616140913,0.5749489104788017,1.476039886516199,0.23031830679044968,0.2729925396630283,1.3817945062810233,0.31521171432187617,0.8049811922885944,1.455263931819316,0.2976269161450691,0.3131607022972864,1.1139762166541074,0.37289068835657324,0.5569167194710491,1.3808478445801888,0.3701831989993364,0.40458622599192934,1.3458969528042146
0.22320863150829173,0.4145578450673234,1.453435493183836,-0.0555512842207507,0.6103531477804912,0.1377084652251729,0.21278791111077358,0.1629281181114036,0.08130745634221352,0.06895951786344473,0.6590879067981332,0.5324075067194838,0.18498011517298973,0.2657899668322095,0.48256126792281584,-0.019651867279377608,0.45678706411450454,0.9073873701514933,0.07861003783222176,0.31733871455892765,0.8992923822942028,0.1488489227104907,0.584885593294031,1.4587024486254427,0.2233246103417343,0.2726339785933044,1.37761919017184,0.32927663321270956,0.8081738049194408,1.401265239848729,0.287397842853722,0.3019067137363483,1.1076025476166784,0.3844677648599215,0.551340719707344,1.3640044761785015,0.36704311853431904,0.3996954116978089,1.3345463153740948
0.22547717586090024,0.4193401648866425,1.4442266890017867,-0.055570916648434575,0.6123373775473733,0.137959173061869,0.21359565234529285,0.16367384605755636,0.08173262071667052,0.06863968070190962,0.6665295116447154,0.5320463123254512,0.18511707328861438,0.2732156417263085,0.4811674762694646,-0.026762477422279607,0.46146809444461223,0.90384409077835,0.0671531315912028,0.31906492601432374,0.8954289855048221,0.1572091881218138,0.593282816242963,1.4465880487270284,0.2166555936619615,0.2752050640403282,1.3726466776539943,0.3354437129612871,0.8094928768072857,1.3617623258689988,0.28164938807165696,0.2917723822139624,1.101775644572335,0.3901357930551372,0.5502878134171787,1.3468088800852127,0.3645555672236521,0.39838071102033107,1.3235177912862084
0.2250812080895113,0.4236182767498262,1.4373651705323405,-0.05645380607991606,0.615139451626964,0.13959935059941156,0.2122879100425271,0.16528362136549749,0.08126334931875748,0.06946874698688389,0.6739234986156045,0.5324768799292973,0.1836883174324289,0.27837666079307655,0.4796887960956759,-0.033577152971950526,0.4651287031632287,0.9001285560901848,0.05833868075080817,0.3214056533410622,0.8920921451632138,0.16313568706699358,0.5971884138187142,1.4381373877846546,0.2119823890348883,0.2765838441538953,1.3701290455882216,0.3410651084209552,0.8070436389526252,1.338081704267551,0.27590860527485883,0.2834284472385425,1.0985774854784105,0.39515726747272545,0.5472982164919162,1.3355547705659332,0.3635770822136634,0.39660071054377444,1.3151802600152491
0.22419504446839242,0.4283210479272657,1.432442004456261,-0.05706927073034064,0.6166568157525008,0.14080994578960113,0.21132830183103452,0.1656377806924239,0.08054603634272917,0.06810549054186821,0.6798295171661954,0.5332473441132083,0.1817195731590851,0.2810633803776394,0.478238485341583,-0.038007173958116175,0.4673362749358241,0.8978991833537577,0.05314058927038791,0.32314203599521485,0.8897432647209549,0.16669698940216712,0.6011236289003675,1.4298041011053193,0.20805018729784097,0.27887235059735654,1.3676703620517858,0.3462138017896903,0.8069558872912282,1.3243645824574344,0.2715586357086182,0.2802804042365763,1.0959407533840122,0.3878800951528819,0.5449167577592351,1.3241792144707654,0.3621877840348516,0.39198434497382534,1.3120905486747605
0.22409702714148216,0.4320318442662259,1.4289216206663764,-0.05799020542352368,0.6177942279791023,0.14128591312427757,0.21175459099039132,0.16597098192361837,0.08047871648344052,0.0653529864321834,0.6832352074755329,0.533935985909956,0.17898945630238608,0.28155687727416234,0.47787897699287046,-0.040914698385629,0.4694632050078259,0.8977892076541709,0.04995261637239247,0.3251221155822142,0.8890748043100353,0.16893898005237915,0.6071648089223615,1.4257775229100076,0.2045883827546386,0.28416686199340535,1.3665017194166054,0.3499017353773802,0.8116233054472886,1.3201495314350635,0.26754006057364815,0.28242205429474915,1.0946439677088282,0.3867936336411562,0.548896552334376,1.3159282726333648,0.3600741826210908,0.3930352928513196,1.310546650684126
0.22318822354075415,0.4359686078146037,1.4281129276686992,-0.05942922399589864,0.6180438732709599,0.14077857248669517,0.21190314979770017,0.16643390575220052,0.08073908521247308,0.06142264005863457,0.685052925289659,0.5339323940254214,0.1766859647569238,0.28167769679699045,0.47801784693291266,-0.042699566899853755,0.4714899170024296,0.8985191253753629,0.04834053637663384,0.3272900778791961,0.8892120103632447,0.16941726476345484,0.6106410920064604,1.424303968216383,0.2037374244938759,0.2866331441766639,1.3669706322509583,0.3532769083425665,0.8144536407573216,1.3224886398852198,0.26435785277772095,0.2864418552028006,1.09457855566101,0.39163704360123763,0.5519772423128376,1.3164936629315884,0.3587140166441994,0.3956277233390544,1.310411671103683
0.22025425835675067,0.43947288182100563,1.4316091071857362,-0.06032614076028766,0.6172969492717032,0.1408100383633095,0.21035698557352572,0.16668199791145008,0.08091406211068063,0.058123460283892585,0.6859613871356579,0.5344105291878667,0.17412755317294265,0.2821618918241892,0.47803782503148756,-0.043494811506442604,0.4719219735899975,0.8994393776498133,0.04747014005229793,0.3277063887146476,0.8897629157334855,0.16909495257526191,0.6125751794328506,1.4260806884416066,0.2035424490401043,0.28891015658075897,1.3692887655277122,0.35531955064474485,0.8160642166781361,1.3280074376345192,0.26022241902609594,0.291156846723935,1.0960655378273583,0.40692772179605863,0.5558069015326373,1.3262129930429563,0.356548103016886,0.3991826550683427,1.3116069232140375
0.21638562046771936,0.44321870002582775,1.435448298148738,-0.0618737570146973,0.618197318200193,0.1416197849407048,0.20907799336277053,0.16768757905660148,0.08104755191296523,0.05550541564759768,0.6867296637487824,0.5355611320403627,0.1710843910424409,0.28195373220308034,0.4783600472084673,-0.04372672328610934,0.4719658963197814,0.9008228904963759,0.04800729843956167,0.32823869009128626,0.8910853927775069,0.16813574338410778,0.6155220195512859,1.4296804352538937,0.20333571241075804,0.2909685609412976,1.3711479146816699,0.35410120699768066,0.8196795498347157,1.332490624767115,0.25553780655628355,0.29652240351076076,1.0970748380087942,0.4059978379227957,0.559477205464174,1.3339326813890573,0.35444932792877365,0.40298275791554106,1.3122292781991882
0.2135947395972738,0.4457778796117022,1.439831991880457,-0.06389956474788079,0.61954568035927,0.14186051303013245,0.2078830706649569,0.16835224714665373,0.08099115111017206,0.052972085866744734,0.6867796214342575,0.5361867558366548,0.16974017840713498,0.281618539734646,0.47857705378585286,-0.04236907916556178,0.47230086172832997,0.9026424157565826,0.04961651406094601,0.3287884673827742,0.8920711613160532,0.16318721525160973,0.6160080305646332,1.4339427408966887,0.20632072785168087,0.2911386011842499,1.3739039133367557,0.3489026487024984,0.8206217894939241,1.3372231662929044,0.25331655341602904,0.30295794834747614,1.0990830711244852,0.38817182491605307,0.5582961312679061,1.3304508696747912,0.35449388711504626,0.40742925293303883,1.3141654978663997
0.21192279540142167,0.44604489789797724,1.4452190209616265,-0.06506206415810563,0.621651039731845,0.14318047116178004,0.20818309392537965,0.16816298076822456,0.08217514795528436,0.04977371535285889,0.6876081665890227,0.5383113682751903,0.1701901097233706,0.28110728921636347,0.47986803734381633,-0.03933212055550382,0.4719003795456743,0.9056123652195378,0.05356391815189529,0.32904159866861826,0.8942733026085165,0.15743163174008679,0.6154341139402205,1.4370780999819446,0.20999450257469882,0.29126549794563644,1.378480090669551,0.33836779393039923,0.8247095636847966,1.341286835208107,0.25373224244534726,0.30572929762897944,1.1032524073564298,0.39428076136913404,0.5653458890132188,1.3398926433681284,0.3566494434753632,0.4115267113011069,1.3168503112686496
0.20982161685412343,0.4463670591451107,1.4498728028685404,-0.06557986491812193,0.6221198882398425,0.14307284464207526,0.2088399102236098,0.16716472610920718,0.08306956347942855,0.046874338449432555,0.6864800554942626,0.5391540858735332,0.1718805910665505,0.28001704416547946,0.4808782047265445,-0.03701261143807529,0.47023233301341183,0.90735929589842,0.057140574622320764,0.3282150024485315,0.8957827605177388,0.1504497656274494,0.6156860306758039,1.4394072674811882,0.21154869324834785,0.291196986681683,1.3811133963119033,0.32499197318720224,0.8307493472443014,1.344586240524647,0.2595225281146385,0.3098554878265161,1.1068466017297633,0.3975132376886981,0.5755924456799448,1.3503517357229546,0.36037665306825806,0.41485291079384246,1.3218286233225378
0.2081525004755126,0.44316569921675075,1.4562295774374843,-0.06489641986551588,0.6218371648399593,0.14262535741839705,0.20920124864979547,0.1668909069968016,0.0832024575453022,0.04535755491980526,0.6853542879328864,0.539450463321646,0.1736243446911776,0.2788605014653694,0.4813910156099975,-0.034155385820003395,0.468450197099702,0.9082534939661486,0.06179328573818555,0.3276146539151338,0.8970241405172279,0.143678196889856,0.6125848116877761,1.4426950917866972,0.21495486180956427,0.29058050375686095,1.3849429502734636,0.3078789875349145,0.8334867933025024,1.3429336520817685,0.2664912613493404,0.3119969055796647,1.111522958887172,0.3897527321168581,0.581494790256812,1.3570448053596844,0.36382091412324025,0.417337615049704,1.3279567868362623
0.20707684879311594,0.43903246067220303,1.4614678238855612,-0.06484590738199518,0.6212407730800824,0.1426798001489413,0.20896507695764502,0.16687629547005906,0.08240169576292304,0.04491554214960337,0.6834141312519826,0.5398656298225887,0.17636807726545187,0.27646718015215915,0.4814968219540916,-0.030057701433510983,0.466001092056686,0.9093127973336991,0.06761780275902005,0.3263826089845927,0.8978141715866222,0.1345218387650318,0.6087017152204279,1.444968168297213,0.2202446783787152,0.2874799384191659,1.3900441033133064,0.28674607944311187,0.8360624670602502,1.3408267712736146,0.27223958683980987,0.30974104411663306,1.1167837448971412,0.37352693821902044,0.586331617671068,1.363201170766442,0.36403824520473876,0.41819403419886586,1.334085338986002
0.20047983629499583,0.43665528607634224,1.4694233039045839,-0.06537999908355054,0.6196349778756364,0.1423480566518103,0.20899561637557884,0.16686579397532342,0.08208904087735899,0.04590722868660638,0.6795777179150808,0.5394453785471215,0.18020259235979075,0.27618056457652973,0.4815617207328339,-0.02477174472176316,0.4636358217697321,0.9106079870317446,0.07381022490060228,0.3246971588781252,0.8986527420672596,0.12799324403856027,0.606798656352907,1.4493246561669044,0.22167850229105782,0.28601387470421274,1.3924392021412693,0.2588369474056444,0.8430461737598445,1.3362841351268127,0.277894049932813,0.3067891275418358,1.119900771778623,0.3462632821879924,0.5935225269383121,1.358640241874863,0.3625356125897882,0.41863939999987415,1.3383774748148456
0.19967907207390806,0.4342444698598541,1.4735692271008916,-0.06536203800322181,0.6189745700344608,0.14150437661233126,0.2095164571711213,0.16815154091058332,0.0816380969116147,0.04756145746050207,0.6762907037660884,0.5385366454904655,0.185284946582653,0.2775557345289044,0.4813887066698805,-0.01744590934406132,0.4604417396583026,0.9107725037615627,0.08255362523554255,0.3224332594739933,0.8997990469672803,0.12396380133961259,0.6010042700471105,1.4504431519819738,0.2239934757336667,0.2821468475909844,1.3952819659445155,0.2276101370965312,0.845903118925405,1.3280056992944496,0.28359796627452516,0.30106646556715444,1.1233259005678866,0.32951603546119435,0.6031644446704542,1.361045245339492,0.36023852564704134,0.41712530310962415,1.3425691643781508
0.1968657523177408,0.4300713659275043,1.4792456540021106,-0.06496063721415198,0.6167112111946413,0.1392000352097448,0.2100603094352741,0.16702114895330805,0.08131825633935753,0.04962880739069997,0.6700767094451091,0.5363002393686565,0.19060281122695377,0.2784588433525124,0.4807756567116472,-0.010355566817381777,0.45674006353955,0.9108267153425563,0.09040811603607961,0.3192502061667119,0.9002182605646083,0.11590617959355715,0.593778128910858,1.4507305134108437,0.22719769698766104,0.2774401128913271,1.3981625595156053,0.18986372278530061,0.8435708039246239,1.3171451539637156,0.2911266548322088,0.2966528292549373,1.1272142401522094,0.3218230759833252,0.6181169536133655,1.3635916631662213,0.3607915965937538,0.4148262473424867,1.3476525368708365
0.19708694389839554,0.4238410637600445,1.4850030345922225,-0.0648405855888992,0.6147728780860762,0.1382946655677101,0.21113677926717928,0.16607521130090352,0.08154618897422039,0.052006741203413705,0.6636574968147775,0.535318815296704,0.19533933835814077,0.2779222089102099,0.4810443047845239,-0.0032728699198118997,0.4535184603116798,0.9123719113222118,0.09869542770178849,0.3169448381225791,0.9014866602326572,0.10961028905301949,0.5883794867656694,1.4525743890471898,0.23060048607886352,0.2711311708967504,1.401431701654445,0.15177475506319846,0.8357355572799627,1.3017557164537192,0.2989350530153175,0.2962412586911884,1.132038347947326,0.30946826681056716,0.6315835814746614,1.3638385738619299,0.36275738027340737,0.42040276912726543,1.350949641749901
0.1984750125158257,0.4194301461437739,1.4889592206433455,-0.06397957799712968,0.6123940450330738,0.13675362818311732,0.21097082657023902,0.16703075022873679,0.0810816561512985,0.05508614501415233,0.6565550608526708,0.5336695478954029,0.20011726074649172,0.277281573918302,0.4811860438078717,0.0038637758919505896,0.4506572628140397,0.9136226191768428,0.10650791627099883,0.3146127460046214,0.9024716900638504,0.10486588646493321,0.581352384162518,1.4546985707983675,0.2333569087264345,0.2687193098406329,1.4058516433435706,0.1113554779891959,0.8184405379954262,1.283061133369803,0.30752643104262745,0.2949590834655915,1.1381207522040602,0.2924224702650126,0.6426732072795931,1.3650738310417874,0.36171867550723596,0.4226281406000828,1.3576009767355823
0.20013660817538925,0.4162744890493705,1.4914604609968136,-0.06261205226633416,0.6109897032498961,0.13678151363371102,0.21082764337948062,0.16702150891976678,0.08092491355127437,0.05843916738557894,0.6501309183485666,0.5336210927739783,0.20410190842446999,0.27614606228199146,0.4814296014354167,0.010445247072554668,0.4457640654428409,0.9148210718606413,0.11503184136231923,0.31118330997249644,0.9038930116284839,0.09640713712709585,0.5695843449755298,1.4519498356425093,0.24030747967604205,0.26644993743727297,1.4096124036855542,0.07523258582523473,0.7883198757344771,1.2585212426093793,0.3151888015222387,0.2921470465318711,1.1420229993950242,0.279193250062401,0.6509810492124332,1.3581968228305177,0.36060118960013693,0.4216674580272623,1.3624129894647532
0.2009487076168316,0.41200199989237657,1.494849140922628,-0.06176456197491546,0.6090922450015931,0.1368194069991797,0.21145470442898037,0.1661104017955242,0.08126846768809694,0.06163724372830972,0.6429621689163587,0.5334240083517258,0.2085143005880341,0.27436903058303036,0.4820582507917157,0.017140744361029088,0.4411115378213504,0.9163836481078089,0.12428013080941931,0.30855924585521827,0.9055769567950868,0.08806957061563508,0.5600433779779591,1.4528176508195858,0.2477269536975961,0.26212941019583136,1.4129970187633987,0.050306917207398334,0.7523773231333775,1.2353536757826902,0.32221870087311666,0.291615562602755,1.1456895536560097,0.26980619962675456,0.667282227038352,1.357743659362088,0.36518805683058586,0.414972081878906,1.3700775260840738
0.20127959316602648,0.4088452173584501,1.4987503922508632,-0.0605826275087136,0.6053505269456186,0.1352503433818737,0.21267714647937913,0.16634779361885457,0.08145945785982076,0.0627442788582185,0.6358031244840026,0.5321534348590238,0.21320744108613485,0.27449879214608774,0.4822791213533124,0.024649956324184933,0.4360770573339875,0.9169141669571775,0.13492355483428314,0.30602676692255737,0.9071467716217674,0.08133414122462475,0.5507428552670212,1.4511534848960452,0.25551587655790686,0.2613280881819793,1.4148973899738546,0.03107941525699622,0.7167214490733662,1.2152863163226886,0.3340239149514716,0.2925358551449776,1.1489376519385188,0.24960635361862615,0.6771781100404324,1.3604958196669619,0.3729043996039648,0.416103077804193,1.3739357770484226
0.20338133100013042,0.4030741551991923,1.502368837785955,-0.05953213137419493,0.6018469496164484,0.13301744587454417,0.2133450387363383,0.16533009177847915,0.08126135332532705,0.06274792394151398,0.6262052094685168,0.5306617419337448,0.2193117878868936,0.27323381587996093,0.48210978171182,0.03125649620731247,0.4296362511755589,0.9176257189458302,0.14611288369162606,0.30360449540723095,0.9079630305570197,0.07126498271594268,0.539972147422451,1.4466859156383987,0.26803019202535827,0.2609436524265269,1.4172955420517743,0.01789154915474874,0.6777569127077242,1.1939494499370231,0.34669551882154254,0.2954917768462627,1.1517951801082833,0.22179766297516793,0.6757926450465301,1.3637050453598096,0.37745729396279054,0.42360442094936185,1.3755246272489343
0.20458109096780575,0.39883115631567156,1.504548648747149,-0.0562739733216374,0.5973971750210021,0.1310283882781844,0.21469087463058031,0.16563535746639066,0.0814495813042313,0.0636656201137958,0.6183067739946666,0.5295808250711742,0.22482401366318666,0.2725678496585076,0.48246999419539216,0.037763965051819774,0.42149885155149164,0.9168450677906709,0.15712856619006468,0.2995647651563197,0.909469519937524,0.06271610947510599,0.5276115884999024,1.4447905558401644,0.27616943979246783,0.2604039159991218,1.4218395719569346,0.012757285827558888,0.6387378522741948,1.1785839644031741,0.356424504629217,0.2958777588836736,1.1569376469724595,0.19825740507721082,0.6757074384663416,1.3646640688719898,0.3807137836859206,0.42747379258331725,1.3794304039012404
0.20359722658560905,0.39545226861034627,1.5058688273709067,-0.05233290800623947,0.5934615991176186,0.12924998668420254,0.21622732387296498,0.1659219084602193,0.08031216739292138,0.06409246548617734,0.6110467609281709,0.5289974464261289,0.22954925743244275,0.27185632484719296,0.48150959792081766,0.04295197574499391,0.4134185590058461,0.9161415837380045,0.16690743992282536,0.2961312208456768,0.9094314163529253,0.05645974130054732,0.5147900536230497,1.4410138054235642,0.2799662708114355,0.259128354489195,1.424476646343993,0.014855093514423785,0.6055225421305462,1.165790977160144,0.3666225697742801,0.2974680993223881,1.162007624530921,0.1782062929479728,0.6699229548104847,1.3647110178815036,0.3825458082908491,0.4335232420404759,1.3825612292845744
0.20291699972528637,0.3920281310489715,1.506933345437437,-0.04580135753923309,0.589313346969359,0.12779986621223946,0.21735212033143134,0.1644402083556985,0.08081016821168673,0.06449512147183852,0.6045242976682781,0.5293840227618923,0.23395263862357066,0.272127605453194,0.4814126754116098,0.049086129976199246,0.4048733349226174,0.9157617343041873,0.17710476523574112,0.2919607519551045,0.9103779687587719,0.051978797470544055,0.5011945425581853,1.438785052437171,0.2859986354300445,0.2580850540545673,1.4246734638664909,0.01832654417507795,0.5804916436586965,1.1589827341934884,0.37740852802801705,0.30318724744701414,1.1648993890229205,0.15793716863496293,0.6634767953052446,1.368798481316269,0.385363403458447,0.43752065021117365,1.386933202849408
0.20247271737760145,0.3894209313692165,1.5071434052494217,-0.037914837572312024,0.5851149482756761,0.12793320297457283,0.2181262036979662,0.16358416352644173,0.08119406700738306,0.06495477237634589,0.599785009369433,0.5315039927964704,0.23955415917916442,0.2707435737968856,0.4817101309931406,0.05394642218348258,0.39468467940553725,0.9151591240972081,0.18598402300728092,0.28642482370306277,0.9112665260752147,0.049980848459515274,0.4881063772871453,1.4379147280579354,0.2950958363836549,0.258645980092262,1.4256629824831857,0.02210196776143686,0.5604470413135508,1.1556086557159475,0.38796798292087403,0.3055533541390782,1.1667352547075363,0.14575344073532648,0.6558462943281793,1.3701035572673692,0.3877809165650892,0.4396450169492241,1.3890591897168294
0.20135003028532794,0.38517955325046355,1.509888944985226,-0.028435487293354777,0.5795240546338758,0.12750958550820363,0.21849125962243468,0.16327093287360003,0.08147471299944363,0.06469696409733108,0.5948500136946737,0.5334199144987427,0.24398525212574101,0.27044378003622926,0.4817480109191804,0.05860378965384812,0.38585651842194624,0.9150741646212093,0.19432559844390074,0.28223588241769454,0.9118983566481713,0.048652171462129634,0.47809024964679975,1.437017714886831,0.3030015516992996,0.2603455473483735,1.4278643118620222,0.021471002444252183,0.5468452777732883,1.1537408810281196,0.3971801737956681,0.30838824272542176,1.1696144748647517,0.13499163030033057,0.6506286773676155,1.3699387761344919,0.39113417828118097,0.4401615233407608,1.3932388780626759
0.20299870809503823,0.3800721909290002,1.511971460759396,-0.01950938950575295,0.5767361409656162,0.12845013900914887,0.21919466412014765,0.1634381389586293,0.0816353929935885,0.06531605273853142,0.5898080933565559,0.5362466906933369,0.24774042221580447,0.2679574823227145,0.4824060286929971,0.06395168834801393,0.37696196617905986,0.9158204049185372,0.20360245632310103,0.2786803709140488,0.9131920185211493,0.04442752898741939,0.4631689882041973,1.4361483104910717,0.3108285545643243,0.2604203828723642,1.4298488919302514,0.017118097010650053,0.5373112589813515,1.154248344650977,0.4058445062561141,0.31201122277871085,1.172586392315244,0.1261262867141172,0.6479365589217778,1.3693742791027201,0.3925679578072052,0.4409336297452327,1.397556471232176
0.20434798646782307,0.37671203566749434,1.5133840634615972,-0.011819031777637361,0.5734084558054691,0.12892217467801884,0.21935095642639757,0.16357205455093754,0.0820869849647755,0.0649226502162396,0.5849086807093044,0.5383672308762132,0.2506871215605384,0.26625794363349287,0.48312476241794083,0.06911388008120928,0.3692862993141346,0.9163446913650337,0.21283417044130584,0.27704545135443115,0.9144987976445504,0.04165954291768581,0.45128590777622635,1.4363352993177942,0.31893760473561406,0.2617510608521987,1.4326103074535876,0.011936973661995528,0.5259593098563546,1.1548267795123794,0.41513460858522644,0.3175260176262453,1.1766678971445803,0.12109132030874788,0.648746121283036,1.3631685941521268,0.39115520214081145,0.4485561555846732,1.399526516621676
0.20391900756624837,0.37245498279566347,1.5152756393492324,-0.007806151826759379,0.5699904992096964,0.1289894861029424,0.21998774764806653,0.1628466932216242,0.082781631432336,0.06415029649338776,0.579058703241571,0.5393700783735695,0.2536893763020993,0.26475705020831114,0.483821914142374,0.07372412711496884,0.3629853258636,0.9169949443672496,0.21980320668578185,0.27452942970388083,0.9155557896033004,0.039431594911831146,0.4387632447026773,1.436579990291895,0.32639325355136617,0.26262500472001843,1.4347582875563087,0.0012129415070140676,0.5096317055543396,1.1551132988006443,0.42308635787244253,0.32265507322583925,1.1799686313275888,0.11154447907219524,0.6461553677343084,1.3540883621122681,0.38857435529947043,0.45839443969318605,1.3985848475805174
0.2032494705136247,0.36760874646401337,1.517634896097498,-0.005042019690209148,0.5647056864647789,0.12914430473635247,0.22147963859080583,0.16216440561004203,0.0829527007045883,0.06392442532554021,0.5747755922944535,0.5400080144117564,0.25609668308874634,0.26276117786435366,0.48425211316624683,0.07741326726336295,0.3587151408942266,0.9175204697054596,0.2260172514081043,0.27454326536159757,0.9162114261004238,0.03760125096065667,0.4270612636222506,1.4365222018174777,0.3317424762918718,0.262547418391521,1.4377671321556527,-0.009164525649649898,0.4953884518380584,1.1557148559374493,0.4287727041508794,0.3239823381575903,1.1834464126872903,0.10341404893664129,0.6416592665041344,1.3463261575656371,0.38593197847226224,0.4662674860366725,1.3963478604546313
0.20307,0.36612,1.51796,-0.00348,0.55579,0.12801,0.22233,0.16139,0.08296,0.06337,0.5684,0.53915,0.25715,0.26185,0.48428,0.08074,0.35518,0.91812,0.2311,0.2742,0.91649,0.03536,0.41709,1.43692,0.3352,0.26586,1.43935,-0.01579,0.48335,1.15638,0.43076,0.32723,1.18445,0.09227,0.63312,1.34688,0.38743,0.46847,1.39796
,,,,,,,,,,,,,,,,,,,,,,,,,,,,,,,,,,,,,,
,,,,,,,,,,,,,,,,,,,,,,,,,,,,,,,,,,,,,,
,,,,,,,,,,,,,,,,,,,,,,,,,,,,,,,,,,,,,,
,,,,,,,,,,,,,,,,,,,,,,,,,,,,,,,,,,,,,,
,,,,,,,,,,,,,,,,,,,,,,,,,,,,,,,,,,,,,,
,,,,,,,,,,,,,,,,,,,,,,,,,,,,,,,,,,,,,,
,,,,,,,,,,,,,,,,,,,,,,,,,,,,,,,,,,,,,,
,,,,,,,,,,,,,,,,,,,,,,,,,,,,,,,,,,,,,,
,,,,,,,,,,,,,,,,,,,,,,,,,,,,,,,,,,,,,,
,,,,,,,,,,,,,,,,,,,,,,,,,,,,,,,,,,,,,,
,,,,,,,,,,,,,,,,,,,,,,,,,,,,,,,,,,,,,,
,,,,,,,,,,,,,,,,,,,,,,,,,,,,,,,,,,,,,,
,,,,,,,,,,,,,,,,,,,,,,,,,,,,,,,,,,,,,,
,,,,,,,,,,,,,,,,,,,,,,,,,,,,,,,,,,,,,,
,,,,,,,,,,,,,,,,,,,,,,,,,,,,,,,,,,,,,,
,,,,,,,,,,,,,,,,,,,,,,,,,,,,,,,,,,,,,,
,,,,,,,,,,,,,,,,,,,,,,,,,,,,,,,,,,,,,,
,,,,,,,,,,,,,,,,,,,,,,,,,,,,,,,,,,,,,,
,,,,,,,,,,,,,,,,,,,,,,,,,,,,,,,,,,,,,,
,,,,,,,,,,,,,,,,,,,,,,,,,,,,,,,,,,,,,,
,,,,,,,,,,,,,,,,,,,,,,,,,,,,,,,,,,,,,,
,,,,,,,,,,,,,,,,,,,,,,,,,,,,,,,,,,,,,,
,,,,,,,,,,,,,,,,,,,,,,,,,,,,,,,,,,,,,,
,,,,,,,,,,,,,,,,,,,,,,,,,,,,,,,,,,,,,,
,,,,,,,,,,,,,,,,,,,,,,,,,,,,,,,,,,,,,,
,,,,,,,,,,,,,,,,,,,,,,,,,,,,,,,,,,,,,,
,,,,,,,,,,,,,,,,,,,,,,,,,,,,,,,,,,,,,,
,,,,,,,,,,,,,,,,,,,,,,,,,,,,,,,,,,,,,,
,,,,,,,,,,,,,,,,,,,,,,,,,,,,,,,,,,,,,,
,,,,,,,,,,,,,,,,,,,,,,,,,,,,,,,,,,,,,,
,,,,,,,,,,,,,,,,,,,,,,,,,,,,,,,,,,,,,,
,,,,,,,,,,,,,,,,,,,,,,,,,,,,,,,,,,,,,,
,,,,,,,,,,,,,,,,,,,,,,,,,,,,,,,,,,,,,,
,,,,,,,,,,,,,,,,,,,,,,,,,,,,,,,,,,,,,,
,,,,,,,,,,,,,,,,,,,,,,,,,,,,,,,,,,,,,,
,,,,,,,,,,,,,,,,,,,,,,,,,,,,,,,,,,,,,,
,,,,,,,,,,,,,,,,,,,,,,,,,,,,,,,,,,,,,,
,,,,,,,,,,,,,,,,,,,,,,,,,,,,,,,,,,,,,,
,,,,,,,,,,,,,,,,,,,,,,,,,,,,,,,,,,,,,,
,,,,,,,,,,,,,,,,,,,,,,,,,,,,,,,,,,,,,,
,,,,,,,,,,,,,,,,,,,,,,,,,,,,,,,,,,,,,,
,,,,,,,,,,,,,,,,,,,,,,,,,,,,,,,,,,,,,,
,,,,,,,,,,,,,,,,,,,,,,,,,,,,,,,,,,,,,,
,,,,,,,,,,,,,,,,,,,,,,,,,,,,,,,,,,,,,,
,,,,,,,,,,,,,,,,,,,,,,,,,,,,,,,,,,,,,,
,,,,,,,,,,,,,,,,,,,,,,,,,,,,,,,,,,,,,,
,,,,,,,,,,,,,,,,,,,,,,,,,,,,,,,,,,,,,,
,,,,,,,,,,,,,,,,,,,,,,,,,,,,,,,,,,,,,,
,,,,,,,,,,,,,,,,,,,,,,,,,,,,,,,,,,,,,,
,,,,,,,,,,,,,,,,,,,,,,,,,,,,,,,,,,,,,,
,,,,,,,,,,,,,,,,,,,,,,,,,,,,,,,,,,,,,,
,,,,,,,,,,,,,,,,,,,,,,,,,,,,,,,,,,,,,,
,,,,,,,,,,,,,,,,,,,,,,,,,,,,,,,,,,,,,,
,,,,,,,,,,,,,,,,,,,,,,,,,,,,,,,,,,,,,,
,,,,,,,,,,,,,,,,,,,,,,,,,,,,,,,,,,,,,,
,,,,,,,,,,,,,,,,,,,,,,,,,,,,,,,,,,,,,,
,,,,,,,,,,,,,,,,,,,,,,,,,,,,,,,,,,,,,,
,,,,,,,,,,,,,,,,,,,,,,,,,,,,,,,,,,,,,,
,,,,,,,,,,,,,,,,,,,,,,,,,,,,,,,,,,,,,,
,,,,,,,,,,,,,,,,,,,,,,,,,,,,,,,,,,,,,,
,,,,,,,,,,,,,,,,,,,,,,,,,,,,,,,,,,,,,,
,,,,,,,,,,,,,,,,,,,,,,,,,,,,,,,,,,,,,,
,,,,,,,,,,,,,,,,,,,,,,,,,,,,,,,,,,,,,,
,,,,,,,,,,,,,,,,,,,,,,,,,,,,,,,,,,,,,,
,,,,,,,,,,,,,,,,,,,,,,,,,,,,,,,,,,,,,,
,,,,,,,,,,,,,,,,,,,,,,,,,,,,,,,,,,,,,,
,,,,,,,,,,,,,,,,,,,,,,,,,,,,,,,,,,,,,,
,,,,,,,,,,,,,,,,,,,,,,,,,,,,,,,,,,,,,,
,,,,,,,,,,,,,,,,,,,,,,,,,,,,,,,,,,,,,,
,,,,,,,,,,,,,,,,,,,,,,,,,,,,,,,,,,,,,,
,,,,,,,,,,,,,,,,,,,,,,,,,,,,,,,,,,,,,,
,,,,,,,,,,,,,,,,,,,,,,,,,,,,,,,,,,,,,,
,,,,,,,,,,,,,,,,,,,,,,,,,,,,,,,,,,,,,,
,,,,,,,,,,,,,,,,,,,,,,,,,,,,,,,,,,,,,,
,,,,,,,,,,,,,,,,,,,,,,,,,,,,,,,,,,,,,,
,,,,,,,,,,,,,,,,,,,,,,,,,,,,,,,,,,,,,,
,,,,,,,,,,,,,,,,,,,,,,,,,,,,,,,,,,,,,,
,,,,,,,,,,,,,,,,,,,,,,,,,,,,,,,,,,,,,,
,,,,,,,,,,,,,,,,,,,,,,,,,,,,,,,,,,,,,,
,,,,,,,,,,,,,,,,,,,,,,,,,,,,,,,,,,,,,,
,,,,,,,,,,,,,,,,,,,,,,,,,,,,,,,,,,,,,,
,,,,,,,,,,,,,,,,,,,,,,,,,,,,,,,,,,,,,,
,,,,,,,,,,,,,,,,,,,,,,,,,,,,,,,,,,,,,,
,,,,,,,,,,,,,,,,,,,,,,,,,,,,,,,,,,,,,,
,,,,,,,,,,,,,,,,,,,,,,,,,,,,,,,,,,,,,,
,,,,,,,,,,,,,,,,,,,,,,,,,,,,,,,,,,,,,,
,,,,,,,,,,,,,,,,,,,,,,,,,,,,,,,,,,,,,,
,,,,,,,,,,,,,,,,,,,,,,,,,,,,,,,,,,,,,,
,,,,,,,,,,,,,,,,,,,,,,,,,,,,,,,,,,,,,,
,,,,,,,,,,,,,,,,,,,,,,,,,,,,,,,,,,,,,,
,,,,,,,,,,,,,,,,,,,,,,,,,,,,,,,,,,,,,,
,,,,,,,,,,,,,,,,,,,,,,,,,,,,,,,,,,,,,,
,,,,,,,,,,,,,,,,,,,,,,,,,,,,,,,,,,,,,,
,,,,,,,,,,,,,,,,,,,,,,,,,,,,,,,,,,,,,,
,,,,,,,,,,,,,,,,,,,,,,,,,,,,,,,,,,,,,,
,,,,,,,,,,,,,,,,,,,,,,,,,,,,,,,,,,,,,,
,,,,,,,,,,,,,,,,,,,,,,,,,,,,,,,,,,,,,,
,,,,,,,,,,,,,,,,,,,,,,,,,,,,,,,,,,,,,,
,,,,,,,,,,,,,,,,,,,,,,,,,,,,,,,,,,,,,,
,,,,,,,,,,,,,,,,,,,,,,,,,,,,,,,,,,,,,,
,,,,,,,,,,,,,,,,,,,,,,,,,,,,,,,,,,,,,,
,,,,,,,,,,,,,,,,,,,,,,,,,,,,,,,,,,,,,,
,,,,,,,,,,,,,,,,,,,,,,,,,,,,,,,,,,,,,,
,,,,,,,,,,,,,,,,,,,,,,,,,,,,,,,,,,,,,,
,,,,,,,,,,,,,,,,,,,,,,,,,,,,,,,,,,,,,,
,,,,,,,,,,,,,,,,,,,,,,,,,,,,,,,,,,,,,,
,,,,,,,,,,,,,,,,,,,,,,,,,,,,,,,,,,,,,,
,,,,,,,,,,,,,,,,,,,,,,,,,,,,,,,,,,,,,,
,,,,,,,,,,,,,,,,,,,,,,,,,,,,,,,,,,,,,,
,,,,,,,,,,,,,,,,,,,,,,,,,,,,,,,,,,,,,,
,,,,,,,,,,,,,,,,,,,,,,,,,,,,,,,,,,,,,,
,,,,,,,,,,,,,,,,,,,,,,,,,,,,,,,,,,,,,,
,,,,,,,,,,,,,,,,,,,,,,,,,,,,,,,,,,,,,,
,,,,,,,,,,,,,,,,,,,,,,,,,,,,,,,,,,,,,,
,,,,,,,,,,,,,,,,,,,,,,,,,,,,,,,,,,,,,,
,,,,,,,,,,,,,,,,,,,,,,,,,,,,,,,,,,,,,,
,,,,,,,,,,,,,,,,,,,,,,,,,,,,,,,,,,,,,,
,,,,,,,,,,,,,,,,,,,,,,,,,,,,,,,,,,,,,,
,,,,,,,,,,,,,,,,,,,,,,,,,,,,,,,,,,,,,,
,,,,,,,,,,,,,,,,,,,,,,,,,,,,,,,,,,,,,,
,,,,,,,,,,,,,,,,,,,,,,,,,,,,,,,,,,,,,,
,,,,,,,,,,,,,,,,,,,,,,,,,,,,,,,,,,,,,,
,,,,,,,,,,,,,,,,,,,,,,,,,,,,,,,,,,,,,,
,,,,,,,,,,,,,,,,,,,,,,,,,,,,,,,,,,,,,,
,,,,,,,,,,,,,,,,,,,,,,,,,,,,,,,,,,,,,,
,,,,,,,,,,,,,,,,,,,,,,,,,,,,,,,,,,,,,,
,,,,,,,,,,,,,,,,,,,,,,,,,,,,,,,,,,,,,,
,,,,,,,,,,,,,,,,,,,,,,,,,,,,,,,,,,,,,,
,,,,,,,,,,,,,,,,,,,,,,,,,,,,,,,,,,,,,,
,,,,,,,,,,,,,,,,,,,,,,,,,,,,,,,,,,,,,,
,,,,,,,,,,,,,,,,,,,,,,,,,,,,,,,,,,,,,,
,,,,,,,,,,,,,,,,,,,,,,,,,,,,,,,,,,,,,,
,,,,,,,,,,,,,,,,,,,,,,,,,,,,,,,,,,,,,,
,,,,,,,,,,,,,,,,,,,,,,,,,,,,,,,,,,,,,,
,,,,,,,,,,,,,,,,,,,,,,,,,,,,,,,,,,,,,,
,,,,,,,,,,,,,,,,,,,,,,,,,,,,,,,,,,,,,,
,,,,,,,,,,,,,,,,,,,,,,,,,,,,,,,,,,,,,,
,,,,,,,,,,,,,,,,,,,,,,,,,,,,,,,,,,,,,,
,,,,,,,,,,,,,,,,,,,,,,,,,,,,,,,,,,,,,,
,,,,,,,,,,,,,,,,,,,,,,,,,,,,,,,,,,,,,,
,,,,,,,,,,,,,,,,,,,,,,,,,,,,,,,,,,,,,,
,,,,,,,,,,,,,,,,,,,,,,,,,,,,,,,,,,,,,,
,,,,,,,,,,,,,,,,,,,,,,,,,,,,,,,,,,,,,,
,,,,,,,,,,,,,,,,,,,,,,,,,,,,,,,,,,,,,,
,,,,,,,,,,,,,,,,,,,,,,,,,,,,,,,,,,,,,,
,,,,,,,,,,,,,,,,,,,,,,,,,,,,,,,,,,,,,,
,,,,,,,,,,,,,,,,,,,,,,,,,,,,,,,,,,,,,,
,,,,,,,,,,,,,,,,,,,,,,,,,,,,,,,,,,,,,,
,,,,,,,,,,,,,,,,,,,,,,,,,,,,,,,,,,,,,,
,,,,,,,,,,,,,,,,,,,,,,,,,,,,,,,,,,,,,,
,,,,,,,,,,,,,,,,,,,,,,,,,,,,,,,,,,,,,,
,,,,,,,,,,,,,,,,,,,,,,,,,,,,,,,,,,,,,,
,,,,,,,,,,,,,,,,,,,,,,,,,,,,,,,,,,,,,,
,,,,,,,,,,,,,,,,,,,,,,,,,,,,,,,,,,,,,,
,,,,,,,,,,,,,,,,,,,,,,,,,,,,,,,,,,,,,,
,,,,,,,,,,,,,,,,,,,,,,,,,,,,,,,,,,,,,,
,,,,,,,,,,,,,,,,,,,,,,,,,,,,,,,,,,,,,,
,,,,,,,,,,,,,,,,,,,,,,,,,,,,,,,,,,,,,,
,,,,,,,,,,,,,,,,,,,,,,,,,,,,,,,,,,,,,,
,,,,,,,,,,,,,,,,,,,,,,,,,,,,,,,,,,,,,,
,,,,,,,,,,,,,,,,,,,,,,,,,,,,,,,,,,,,,,
,,,,,,,,,,,,,,,,,,,,,,,,,,,,,,,,,,,,,,
,,,,,,,,,,,,,,,,,,,,,,,,,,,,,,,,,,,,,,
,,,,,,,,,,,,,,,,,,,,,,,,,,,,,,,,,,,,,,
,,,,,,,,,,,,,,,,,,,,,,,,,,,,,,,,,,,,,,
,,,,,,,,,,,,,,,,,,,,,,,,,,,,,,,,,,,,,,
,,,,,,,,,,,,,,,,,,,,,,,,,,,,,,,,,,,,,,
,,,,,,,,,,,,,,,,,,,,,,,,,,,,,,,,,,,,,,
,,,,,,,,,,,,,,,,,,,,,,,,,,,,,,,,,,,,,,
,,,,,,,,,,,,,,,,,,,,,,,,,,,,,,,,,,,,,,
,,,,,,,,,,,,,,,,,,,,,,,,,,,,,,,,,,,,,,
,,,,,,,,,,,,,,,,,,,,,,,,,,,,,,,,,,,,,,
,,,,,,,,,,,,,,,,,,,,,,,,,,,,,,,,,,,,,,
,,,,,,,,,,,,,,,,,,,,,,,,,,,,,,,,,,,,,,
,,,,,,,,,,,,,,,,,,,,,,,,,,,,,,,,,,,,,,
,,,,,,,,,,,,,,,,,,,,,,,,,,,,,,,,,,,,,,
,,,,,,,,,,,,,,,,,,,,,,,,,,,,,,,,,,,,,,
,,,,,,,,,,,,,,,,,,,,,,,,,,,,,,,,,,,,,,
,,,,,,,,,,,,,,,,,,,,,,,,,,,,,,,,,,,,,,
,,,,,,,,,,,,,,,,,,,,,,,,,,,,,,,,,,,,,,
,,,,,,,,,,,,,,,,,,,,,,,,,,,,,,,,,,,,,,
,,,,,,,,,,,,,,,,,,,,,,,,,,,,,,,,,,,,,,
,,,,,,,,,,,,,,,,,,,,,,,,,,,,,,,,,,,,,,
,,,,,,,,,,,,,,,,,,,,,,,,,,,,,,,,,,,,,,
,,,,,,,,,,,,,,,,,,,,,,,,,,,,,,,,,,,,,,
,,,,,,,,,,,,,,,,,,,,,,,,,,,,,,,,,,,,,,
,,,,,,,,,,,,,,,,,,,,,,,,,,,,,,,,,,,,,,
,,,,,,,,,,,,,,,,,,,,,,,,,,,,,,,,,,,,,,
,,,,,,,,,,,,,,,,,,,,,,,,,,,,,,,,,,,,,,
,,,,,,,,,,,,,,,,,,,,,,,,,,,,,,,,,,,,,,
,,,,,,,,,,,,,,,,,,,,,,,,,,,,,,,,,,,,,,
,,,,,,,,,,,,,,,,,,,,,,,,,,,,,,,,,,,,,,
,,,,,,,,,,,,,,,,,,,,,,,,,,,,,,,,,,,,,,
,,,,,,,,,,,,,,,,,,,,,,,,,,,,,,,,,,,,,,
,,,,,,,,,,,,,,,,,,,,,,,,,,,,,,,,,,,,,,
,,,,,,,,,,,,,,,,,,,,,,,,,,,,,,,,,,,,,,
,,,,,,,,,,,,,,,,,,,,,,,,,,,,,,,,,,,,,,
,,,,,,,,,,,,,,,,,,,,,,,,,,,,,,,,,,,,,,
,,,,,,,,,,,,,,,,,,,,,,,,,,,,,,,,,,,,,,
,,,,,,,,,,,,,,,,,,,,,,,,,,,,,,,,,,,,,,
,,,,,,,,,,,,,,,,,,,,,,,,,,,,,,,,,,,,,,
,,,,,,,,,,,,,,,,,,,,,,,,,,,,,,,,,,,,,,
,,,,,,,,,,,,,,,,,,,,,,,,,,,,,,,,,,,,,,
,,,,,,,,,,,,,,,,,,,,,,,,,,,,,,,,,,,,,,
,,,,,,,,,,,,,,,,,,,,,,,,,,,,,,,,,,,,,,
,,,,,,,,,,,,,,,,,,,,,,,,,,,,,,,,,,,,,,
,,,,,,,,,,,,,,,,,,,,,,,,,,,,,,,,,,,,,,
,,,,,,,,,,,,,,,,,,,,,,,,,,,,,,,,,,,,,,
,,,,,,,,,,,,,,,,,,,,,,,,,,,,,,,,,,,,,,
,,,,,,,,,,,,,,,,,,,,,,,,,,,,,,,,,,,,,,
,,,,,,,,,,,,,,,,,,,,,,,,,,,,,,,,,,,,,,
,,,,,,,,,,,,,,,,,,,,,,,,,,,,,,,,,,,,,,
,,,,,,,,,,,,,,,,,,,,,,,,,,,,,,,,,,,,,,
,,,,,,,,,,,,,,,,,,,,,,,,,,,,,,,,,,,,,,
,,,,,,,,,,,,,,,,,,,,,,,,,,,,,,,,,,,,,,
,,,,,,,,,,,,,,,,,,,,,,,,,,,,,,,,,,,,,,
,,,,,,,,,,,,,,,,,,,,,,,,,,,,,,,,,,,,,,
,,,,,,,,,,,,,,,,,,,,,,,,,,,,,,,,,,,,,,
,,,,,,,,,,,,,,,,,,,,,,,,,,,,,,,,,,,,,,
,,,,,,,,,,,,,,,,,,,,,,,,,,,,,,,,,,,,,,
,,,,,,,,,,,,,,,,,,,,,,,,,,,,,,,,,,,,,,
,,,,,,,,,,,,,,,,,,,,,,,,,,,,,,,,,,,,,,
,,,,,,,,,,,,,,,,,,,,,,,,,,,,,,,,,,,,,,
,,,,,,,,,,,,,,,,,,,,,,,,,,,,,,,,,,,,,,
,,,,,,,,,,,,,,,,,,,,,,,,,,,,,,,,,,,,,,
,,,,,,,,,,,,,,,,,,,,,,,,,,,,,,,,,,,,,,
,,,,,,,,,,,,,,,,,,,,,,,,,,,,,,,,,,,,,,
