PaulMeinheit/Bachelor_Muay_Thai/processed_Data/N3/teep/scaled/JointPositions/scaled6.csv
Neck_Joint_Position,Neck_Joint_Position,Neck_Joint_Position,L_ANKLE_POSITION,L_ANKLE_POSITION,L_ANKLE_POSITION,R_ANKLE_POSITION,R_ANKLE_POSITION,R_ANKLE_POSITION,L_KNEE_POSITION,L_KNEE_POSITION,L_KNEE_POSITION,R_KNEE_POSITION,R_KNEE_POSITION,R_KNEE_POSITION,L_HIP_POSITION,L_HIP_POSITION,L_HIP_POSITION,R_HIP_POSITION,R_HIP_POSITION,R_HIP_POSITION,L_SHOULDER_POSITION,L_SHOULDER_POSITION,L_SHOULDER_POSITION,R_SHOULDER_POSITION,R_SHOULDER_POSITION,R_SHOULDER_POSITION,L_ELBOW_POSITION,L_ELBOW_POSITION,L_ELBOW_POSITION,R_ELBOW_POSITION,R_ELBOW_POSITION,R_ELBOW_POSITION,L_WRIST_POSITION,L_WRIST_POSITION,L_WRIST_POSITION,R_WRIST_POSITION,R_WRIST_POSITION,R_WRIST_POSITION
X,Y,Z,X,Y,Z,X,Y,Z,X,Y,Z,X,Y,Z,X,Y,Z,X,Y,Z,X,Y,Z,X,Y,Z,X,Y,Z,X,Y,Z,X,Y,Z,X,Y,Z
0.17835,0.44601000000000013,1.4487000000000005,0.19722000000000003,0.55907,0.07638000000000002,0.10038000000000002,0.060690000000000015,0.0781,0.14222000000000004,0.5209000000000001,0.4729500000000001,0.19643000000000002,0.19267000000000004,0.43984,0.07535000000000001,0.3393300000000001,0.8311000000000001,0.24616,0.27060000000000006,0.8333600000000001,0.0003400000000000001,0.43981000000000003,1.3530800000000003,0.33537,0.3670200000000001,1.3565200000000002,-0.10422000000000001,0.4186200000000001,1.0694400000000002,0.46165,0.32173000000000007,1.0841900000000002,-0.18006000000000003,0.48565000000000014,0.8178500000000002,0.58013,0.37444000000000005,0.8458500000000002
0.17876132374879725,0.4472022203747127,1.4481753289064305,0.19609672170582043,0.5590660246319665,0.07699169316794541,0.1005514495161125,0.06083483974508731,0.07798264017328978,0.14293948548511934,0.520427277607265,0.4737535361203971,0.1963352500306173,0.1926205521833663,0.43986441107780805,0.07515249409617346,0.3385215391336539,0.8315716200401793,0.24585312730763947,0.2695030160272942,0.8336154596687566,-0.00023890414086793073,0.4416902073512397,1.3535210915562421,0.33622701078860995,0.3681331112981019,1.3557538857932987,-0.10567193085147507,0.425258977581677,1.0698829316905085,0.4637929904788435,0.3291431302457469,1.0830549658574786,-0.18369486705964846,0.4942322270451565,0.8194922780032501,0.5828130058195917,0.3812851354815614,0.8448520779920705
0.17871486938747025,0.44899629630643056,1.447494459056973,0.19435988220927367,0.5589756771012522,0.07733090928325806,0.10106035838345488,0.06013799092423845,0.07822825024635435,0.14277189296929746,0.5203687775267818,0.47430934507277667,0.1969874129062786,0.1926624616788232,0.4397987019480439,0.07518318317778647,0.3371653899860697,0.8314885463483784,0.2460510073970114,0.26859643628997526,0.8337965547386399,-0.0008223457102963538,0.4428640399943468,1.3527545192834538,0.33667415393251454,0.3698327017748954,1.3552215236607839,-0.10651114878164371,0.43256737999874256,1.0689162304236914,0.4660158944770245,0.3380079257612007,1.0824267637741651,-0.18377934969601004,0.5098679769558188,0.8207326401509731,0.587690283509016,0.3889876815105704,0.8453207962771325
0.17931355322859494,0.45020536602313055,1.4464740258818918,0.19338683598728698,0.5588350531953515,0.07699894605911811,0.10044797754337532,0.0608013015213266,0.07806950141823231,0.1409807753071299,0.519459624797997,0.47379760711717744,0.19676710511775677,0.19261827237679702,0.43979091973641393,0.0751563003161304,0.3365194120964166,0.8314535479374922,0.24619865113881137,0.26839459793805576,0.8337693897843982,-0.0008382964991547244,0.44284783437734504,1.3511855531381016,0.3371279673893699,0.372505199614343,1.3544561803625828,-0.10889571359607893,0.4408916148628246,1.0680617715379137,0.468890895882393,0.34820914852388607,1.0820375128009752,-0.1861530342420404,0.5252382503510883,0.8221832130351565,0.5920219150721091,0.39840142814198376,0.8455185123857861
0.17990682007626344,0.4507884971052092,1.4459061711137298,0.1930788280022552,0.5580225351544807,0.07679853641371329,0.10111019329911627,0.060589280192563294,0.07800790258239122,0.14029080713999667,0.5175248154796259,0.47343365841942475,0.1964831123668858,0.19241741541120141,0.4399758514026966,0.07446750675173572,0.33611680786531917,0.8318611303193918,0.2458317424597313,0.2687818275428771,0.8338597909271425,-0.0006740532524533009,0.44297157330299747,1.351247190916989,0.3389711279817381,0.37485858888221046,1.35405701416706,-0.10998140099663785,0.4515093284242796,1.0687283188162109,0.47217164530418887,0.35883865500124534,1.0817270951127,-0.18851420993397358,0.5408779842896487,0.8250341198596337,0.5958658024129263,0.41095724420617075,0.8459160214712346
0.1801401120795088,0.4512116582528637,1.4457973686006795,0.19429962078276555,0.5581681595172554,0.07609701924831073,0.10132510380741765,0.06023921343431536,0.07796759339269663,0.1413616513807182,0.5168295079065618,0.4726215288900494,0.19642596450299477,0.19267347892825734,0.4397794806673245,0.0743507072952803,0.3363329495024633,0.8312907407587775,0.24555400286027676,0.26861001419383945,0.8337741792682616,-0.0004135474242724816,0.44498668312251244,1.351137381692082,0.33974097323986924,0.3773052943887222,1.3538679678861358,-0.11081737757059248,0.4598479500088547,1.069302306091642,0.4751291276642158,0.36853713578731506,1.0822866716216566,-0.18846034465542708,0.5548804142690644,0.8274827985970955,0.599077569827827,0.42354746839568924,0.8472719552571372
0.17948749820849738,0.4513416323357357,1.4463394902220146,0.19554024414098492,0.558331098130691,0.07552332764974194,0.10112511957941489,0.059975573374640254,0.07817243419185056,0.14283952585573642,0.5172967558994906,0.47211641961524475,0.19644937660556863,0.19285934846257194,0.43977374193253016,0.0749576410089146,0.33771206787845365,0.8310766519420271,0.2455629636065076,0.26850141755812484,0.8338225816484246,-0.0021295029766206035,0.44566749100348124,1.3500425544392414,0.3397769863277573,0.37984434323875804,1.354127404049918,-0.11308271551183081,0.46943290363935164,1.06904415158252,0.47723509177257284,0.37897437270604034,1.0834463770369243,-0.18816407539884591,0.568412638860828,0.8279882142937552,0.6019268696065478,0.4382814975886949,0.8498701462747462
0.1792062263844208,0.4532659300756056,1.4466029007531422,0.19493283947882087,0.5584221460476133,0.07470402285318448,0.10080267644587237,0.06042488845804012,0.07822058263491667,0.14369027554355898,0.5177274438728082,0.4715153828355743,0.19627244206803,0.1931960074488184,0.43982114666928823,0.07525557270431632,0.3379996949261387,0.8303063802669085,0.24587381988379753,0.2688415431760817,0.8338090614295355,-0.0017254825553599641,0.4482862656565223,1.3498809705732933,0.34019631609036505,0.3830567065560254,1.3532122046445036,-0.11205940392221238,0.4835297555397982,1.0698391782089764,0.4787369403184487,0.39009542384300344,1.083183977008154,-0.18590511036723145,0.591277806753882,0.8321829807921272,0.605534905670737,0.4547675509782557,0.8521778574723162
0.18050891536604402,0.45447171982520224,1.4457877509344055,0.1950615739999977,0.5583228786293765,0.07450297659268078,0.10136333879088033,0.060136905610725024,0.07817371264436607,0.14314496354859166,0.517108829299671,0.47118288589839763,0.1962389710985611,0.19342024506214078,0.43974052687140447,0.07501735479161169,0.3379758298973318,0.8303222641068303,0.24564018400210264,0.2688458583868938,0.8337919567766674,-0.0026310031177085593,0.4491265474217898,1.3512429700279769,0.3424336862666559,0.38541353790371286,1.3523139226287535,-0.10984631285418155,0.49690293270155156,1.0718496114054823,0.48132575508988973,0.40242764566581185,1.08290852933726,-0.18052679703787522,0.616471901016976,0.8389401796047926,0.6085112526600526,0.4750847375981344,0.854507521370145
0.1801763792769964,0.4560672181858541,1.445288389904412,0.19544724559064064,0.558356044515796,0.07503539914230185,0.10138637341024266,0.059446410986844236,0.07865914853461096,0.14243368467677026,0.5181830429572384,0.4716671801176812,0.19725770608168453,0.1929965894842126,0.43986185183525256,0.07442097750419058,0.3382831605789418,0.8304485558159137,0.24515215278642427,0.2693867907956456,0.8339190020548397,-0.002594107245359644,0.4509062836572222,1.3524020587877135,0.3437936752588333,0.3878755673031858,1.3519225707930744,-0.10726949807823666,0.5106165698005118,1.0743445322121261,0.4836198639077977,0.41568318444413455,1.0839016460038384,-0.17517029893638306,0.6425417157995537,0.8473441892764986,0.6121553751719835,0.4989369300615499,0.8599123990816858
0.18125461750667424,0.45780715381443327,1.4450855270019205,0.19616956181450473,0.5578858923134065,0.07409543700980971,0.10015914658329335,0.0606870774068631,0.07872205298519432,0.1423823157870678,0.5203178933055514,0.47088809964428313,0.19717028673162007,0.19298191029690692,0.44009060277528983,0.07416119027899712,0.3400202469013301,0.8294286344936947,0.2449309348828077,0.271286671188226,0.8337850244918158,-0.0027048671872021875,0.4542682946152244,1.353149752283626,0.34502936179800203,0.3907850694394299,1.3514885877539133,-0.1052106038215889,0.5216619005901152,1.0760385396075378,0.4851492071245024,0.4282021499410974,1.084785219495938,-0.1696687520405214,0.6701618568366858,0.8584776919318396,0.6125390103867903,0.5250681853109115,0.8656710158104928
0.1834138760726825,0.4604523989049493,1.44431198833627,0.19713951218633632,0.5576665380972459,0.07373175243615128,0.10090559404533403,0.0616518209596882,0.07862321137307983,0.14381233568381088,0.5226233438272284,0.47081966174200246,0.19565022913465574,0.193325220246688,0.4408089756928101,0.07426871392588014,0.3420060189870693,0.8289443159393877,0.24513385160965434,0.2735565032884536,0.8339011448306395,-0.002748047212337661,0.45762635386799005,1.3516080973197035,0.3459104401349177,0.39447802387629566,1.3516817540419104,-0.10832835097916178,0.5234541975238592,1.0752799620045428,0.4868384542838879,0.44148008613678774,1.086933414868069,-0.1572310031337203,0.6965101276275703,0.8723005194181038,0.6118087365531532,0.5535812051545081,0.8737740230748395
0.18428064144135606,0.46433347871371283,1.4437418240692779,0.19659783933438674,0.5581936127205054,0.07425277360456142,0.10080840721224395,0.06134417893818042,0.07914583673812688,0.14442859356937887,0.5251643041038639,0.47166044138093555,0.1954887606363355,0.19326744829730003,0.4412631275084376,0.07475700028525337,0.34532109335038547,0.8301514132304009,0.2447921345620648,0.274789839666943,0.8341193727653804,-0.0023628694082496876,0.46450740925271355,1.3519262018820888,0.34717598549475415,0.3989721253116245,1.3527741057264744,-0.10659677562326575,0.5361744802592622,1.0765426788200039,0.48833208523208427,0.4555119847132545,1.09002419603407,-0.1436216057910556,0.7238811676326306,0.8843534425315429,0.6078501396207435,0.5838404323844167,0.8829693924281102
0.18524017546812002,0.4695170789318166,1.4428602688499907,0.19620830812334944,0.5590125018779853,0.07459977593779019,0.1003993429945419,0.0619704777533766,0.0792276784949852,0.1449647389005533,0.5279987926269439,0.4722946886792287,0.19491234240050045,0.1930803399043175,0.4416841359495076,0.07378579103568081,0.34859781144942237,0.8307100611445959,0.24322771402743332,0.2766092003128967,0.8342323084635608,-8.292574302813584e-05,0.4685305519564296,1.3535893745369714,0.3475836449727267,0.4048562265821766,1.355009049798778,-0.09832790936608204,0.5557968620716854,1.0805161103078367,0.48940681654717133,0.4717684324854756,1.095061968870077,-0.12971026736158794,0.7518540906993721,0.8958081012138397,0.6025110876162358,0.6153632174582632,0.8945396254861722
0.1850179122971551,0.4742775899364144,1.4417452300856304,0.19608477061517218,0.5585907962971399,0.07509746561091432,0.10030387092860546,0.06233558396181903,0.07910110663404336,0.1446906230765125,0.5324247817989074,0.47311003406980495,0.19299904461245704,0.1930871028215852,0.4421551155968988,0.07293010713308165,0.35161500016752845,0.830714365231525,0.2424219172433072,0.27972528463735863,0.8338979657077126,0.0005278642645686294,0.47432007458786685,1.3546136288554993,0.3481361603113323,0.40966022948488134,1.3561253701062768,-0.09456629618629947,0.5713853909436142,1.0837414698647194,0.4899142151227708,0.48953334587171754,1.0998407387121363,-0.11419122281221411,0.7799176233990831,0.9114934861749833,0.595328668882433,0.6475533109790924,0.9060801495442335
0.1865519115801112,0.47952844034014597,1.4405087399635164,0.19543572412388074,0.558735273612018,0.07468672373530254,0.09927511645650659,0.062489911505752685,0.07953864544861075,0.144984772365136,0.5372593500341974,0.4731073445959362,0.19088420228764363,0.1934751770771883,0.44278338807177353,0.07220575319034253,0.3548765174438458,0.8297025159379235,0.24172470283543507,0.2830966672202677,0.8336664425985626,0.002196781023790271,0.4809484735951253,1.3546537080921832,0.3503166732002195,0.4154153543323653,1.3575947925397045,-0.09248098032667453,0.5855663611204046,1.086452556169837,0.4892973308311499,0.5048118721965524,1.1029319303450948,-0.09586574780754685,0.8073307549461025,0.9304082253515407,0.5840636979544387,0.6821781178588996,0.9207612776420414
0.18878103256535694,0.48695299681992826,1.4391428999484346,0.194789210593773,0.5593713974327521,0.07442724489463567,0.0990241972710433,0.06261154376008149,0.07977092486560936,0.14488636206945846,0.543404058701455,0.4731664900018081,0.18890068203019605,0.19450880445573857,0.4431160641224604,0.07165591277010462,0.3596766299876191,0.8289790586822464,0.24078074945995212,0.2870040096215807,0.8331913498652789,0.0022621922849248004,0.48683331704363897,1.3549891100369826,0.35201557762124136,0.421683882283575,1.3600818261805794,-0.09158723546353023,0.5965561010607824,1.088544749510008,0.4888548063136797,0.5205337468164375,1.107751459646624,-0.07573072501197349,0.8305477156768586,0.9523925113526739,0.5698871023681709,0.7163078111903657,0.938254271203667
0.18916504686437094,0.4941289682701062,1.4378266572410585,0.19554175213619598,0.5596682354571223,0.07473912472984148,0.09845853052949857,0.06250266052581109,0.079834352861012,0.1439829435196082,0.5503723336081905,0.47348056583093556,0.1871981864857658,0.19580115493920772,0.4429456958369171,0.07167050655113695,0.36578915140729223,0.8290312066390224,0.24022234664959763,0.29172121184294514,0.8320411580595292,0.0039841103815767024,0.49431432097654737,1.3546182139980971,0.3514837266914615,0.4288161199220918,1.361427081986514,-0.09117685916118252,0.6066604100365072,1.0897421317387879,0.48891387239773293,0.5368159957568371,1.1132138513911893,-0.053625824070759845,0.8498241449231968,0.9756980804385983,0.5514263456988204,0.7500733142075372,0.957524618754971
0.19059922386472117,0.5029239603370239,1.4360767264744703,0.19572977673232608,0.5588731776208077,0.07489404880651498,0.0979911688407233,0.06333128343499314,0.08099414015189657,0.14365716751749918,0.5572021970325945,0.4736773293502227,0.18691280991543166,0.19694693388840256,0.4439456451230953,0.0709030133692972,0.3727779676194009,0.8292205265479601,0.23865991264719078,0.29692407421265116,0.8321937965426525,0.005871305723204146,0.5031117101842113,1.3558459490282715,0.35156726216505735,0.43880464624144416,1.3635367161491936,-0.08866108225307909,0.6180281091118316,1.0918372877838738,0.4894044478105476,0.5538539898684973,1.118738280587597,-0.03265615256489847,0.8666815561067123,0.9992412010012509,0.5308004887744522,0.7821082229164579,0.9779920904728739
0.19129827894499402,0.51354612900126,1.4342427938112574,0.19600434323118684,0.5581710770490966,0.07562297813607428,0.09731401164222257,0.0648995747349226,0.08223414261721229,0.14345246461770705,0.5649721233215619,0.4742911363857713,0.18698706395892353,0.2009357224751935,0.44409904736379546,0.0692766095954762,0.3813152864465314,0.8299346137962708,0.23632083218635952,0.30387619040162606,0.8318905956667673,0.007873754859689854,0.5130004258975863,1.356247622624369,0.3528405450117264,0.4512262659034489,1.3640962639548762,-0.08771124361567764,0.6308886783207298,1.0939354225910976,0.49182427334853784,0.5715801691829712,1.1225194974222377,-0.011167287219088018,0.8815830941212703,1.024428527376773,0.504814925979833,0.8139462563310844,1.0012162427360245
0.19016817568521557,0.5246991748153763,1.4328999302902272,0.19593785308520112,0.5584071509974697,0.07561052712803289,0.09752351237860953,0.06624435051053036,0.08378854443001409,0.14268212019397275,0.5743086873261827,0.47392267040500147,0.1875846700111844,0.20713277536112543,0.4436977302493352,0.06886083977528311,0.39119637658906203,0.8299124982583053,0.23549555638028263,0.31285697178746225,0.8309137548935156,0.0081052318489407,0.5236698236662287,1.3556990825202286,0.35311341815647435,0.4648078880296258,1.364836658890952,-0.08514260302320287,0.6475995883357409,1.0953425810501065,0.4957128530585187,0.5872155330427146,1.1264181510207332,0.01679531084355753,0.8948063326409342,1.050202786099008,0.4794321656484003,0.8396132716820328,1.028156249055474
0.18899612134450383,0.53609749462861,1.4318418194579048,0.19552295382450036,0.5582928358603805,0.0762002131059737,0.09749632637476321,0.06836500838375388,0.08650076196069256,0.1423939704201027,0.584302652060445,0.4740054696432363,0.1897653240687964,0.21649901819845843,0.4429239805959612,0.06900140230304558,0.4004788720343898,0.8297122914361471,0.23607883559527015,0.3230972123528546,0.8301059388104316,0.007359774886944905,0.5343132681724184,1.3557917767544927,0.35237543887666223,0.4799538405694507,1.366833986808869,-0.08310024056574768,0.665432908513886,1.0979864496790437,0.4979721778134484,0.6066596787980781,1.1325102311837676,0.03888899196260953,0.9067265840512672,1.077028810252074,0.45197328705965956,0.8631218038333078,1.0567730860143696
0.18696734179908128,0.5476409898498585,1.4316318301759945,0.1946661303258021,0.5581395835795194,0.07632723455416063,0.09754004286593798,0.07198671001717533,0.0905810121270018,0.142822987749482,0.5941110528703376,0.47352208481214897,0.19356725735227415,0.23085070673434327,0.44134309148999773,0.06928036816872458,0.4119764595152588,0.8300709687137036,0.23655140772441807,0.3350044585902589,0.829569785503487,0.007488730946181023,0.5470400517774368,1.355034471226857,0.35169191189077276,0.4956770109137483,1.3698894230687968,-0.08350826267375108,0.6848394303018802,1.100927781785653,0.49943624790312624,0.6277883371208359,1.1399328091455385,0.0575631695300416,0.9164336551442993,1.1027666264203368,0.42424935969778216,0.8820728880678578,1.082402307877756
0.18504534559959337,0.5599161663162118,1.4329864970085575,0.1963363894501396,0.5598671465541027,0.07522714369068528,0.09976433452749664,0.07830886995142163,0.09770978080438958,0.14454829916685852,0.6025782687115019,0.4717583841664919,0.20166711479330024,0.25251678534869904,0.4394155251912692,0.07024355933101113,0.4266487082468682,0.8312562256233601,0.23756746975857587,0.34980729422590046,0.8301252397082137,0.006403860450123556,0.56145042111097,1.3554000885715278,0.34957701082335046,0.5100418183194411,1.375308010200225,-0.086221096699167,0.7032416241298783,1.1040888216485512,0.5010004410851776,0.6459714696013972,1.150023514099013,0.07046906022946056,0.923541584559113,1.1254494054776827,0.4057224986589792,0.8964784263319522,1.107713926059697
0.18298406106757042,0.5732102324005061,1.4368006287494997,0.19786720399814942,0.5602328435485237,0.07471700901663582,0.10687506142578196,0.08873710789161433,0.1108848378094861,0.14715222519327098,0.6079853868565283,0.4708124601656839,0.2159383118236095,0.2860443466332233,0.43749292226134023,0.07048475691985896,0.4413893804577227,0.834244122493063,0.23898667408522034,0.3671545336163786,0.8328406969530514,0.00523648526992254,0.5750778810418935,1.358347217328976,0.3470027450158301,0.5254309966295891,1.3823275886122752,-0.08992595449647019,0.7166747194673612,1.1078846787961627,0.5021447398322427,0.6644795277991349,1.1615072539860027,0.07522086094485834,0.9283396666547329,1.1461266631329534,0.3868786575649328,0.9085547618728622,1.133948548803246
0.18148508363107255,0.5872897956299703,1.4411983146924647,0.19853704964093047,0.5606241094478224,0.07500096155592954,0.12116755887611919,0.10707077197977952,0.13343070788334374,0.14883682791965874,0.614515414742798,0.4704367141571605,0.23887623610994083,0.3337184762110952,0.437194256134709,0.07196672050033996,0.45520461424832165,0.837072203318402,0.2424919908044887,0.3857393853073195,0.8380533702943451,0.004276395993129083,0.5885373709709018,1.364422292578052,0.34377352256407007,0.542925122538075,1.3916633758105128,-0.09461894919346532,0.7276879160902152,1.114032847040772,0.5058547580408782,0.6812865798776071,1.1754514711721493,0.077236398419028,0.930378073628315,1.1681214954672687,0.37565077773019634,0.91856634178933,1.1562648644845712
0.18030734122840197,0.5997272315177751,1.4461489584057718,0.1973613176948592,0.560686396144013,0.07626347127347814,0.14266675655540548,0.13832303800712367,0.16544516092433317,0.14779627908493495,0.622412280899769,0.47057974588661355,0.266716916318324,0.39704907150585994,0.4396232990317873,0.0739654366604045,0.4684493383747524,0.8401125872464387,0.24735031028078894,0.4065482766008035,0.843287986177627,0.0029463581033952226,0.6006413048848469,1.3703841663140772,0.34267866072929787,0.5584645699173431,1.399298136807151,-0.10160040231939199,0.7404665869852828,1.1226840180484805,0.5121780414625428,0.6959902996028609,1.1882970070979766,0.07561280438918433,0.9353199105722361,1.187252416735819,0.36861330923954505,0.926052380004432,1.1790397579709941
0.17981096736329905,0.6101601473335452,1.4502888064261246,0.19644424391298781,0.5612917433692663,0.07769421335210523,0.16490621495456897,0.18495368679007532,0.21010836508564013,0.1428869271833684,0.6288096314881374,0.47053517043991633,0.2932651556355188,0.4735105369575982,0.4504353802742433,0.07597441371796779,0.48043175356614604,0.8436490351636705,0.25174550618064534,0.42590358154982594,0.8497064319072521,0.0024728324548210245,0.6157315585589735,1.3757146914860505,0.34246077802366054,0.571333306751385,1.4060976327319956,-0.10960370620924167,0.7575829318743394,1.1324981575444601,0.5179557767985978,0.7111850935507681,1.2016370291380774,0.0733272622076027,0.9433756111965322,1.207023285062251,0.36415014798120754,0.9346588865803692,1.1961160478614252
0.17796812646514965,0.6196113938940964,1.4540911651463357,0.19620629894840247,0.562650380670864,0.07858090331045435,0.18717899278142017,0.2456550805945405,0.26223424369458065,0.1380085415587041,0.6377034313984249,0.46938744603157634,0.3168374264146291,0.5558998449455158,0.4730208200570929,0.07848344341715424,0.49295674766499564,0.8451711544897849,0.2564024484656905,0.44722648373031104,0.8576562126502426,0.0016266254490972455,0.6293534997754393,1.3826758084579842,0.3415640967835454,0.5834811851362163,1.4106521840567676,-0.11576962405872956,0.7709765046469153,1.1418481474687148,0.5261927160968672,0.724794652941956,1.2154382724814805,0.07103815309364067,0.9490572048098547,1.2250696403926222,0.36551704988887146,0.9433183760180314,1.208095376447158
0.1773989866987885,0.6278347411603262,1.457339016719952,0.1970730135137773,0.5636783737656955,0.07897823464215933,0.20846534334907965,0.3186769841111058,0.31221097171159956,0.13403946213577347,0.6434244495112086,0.4680952504960299,0.33667662171151713,0.6406854770604624,0.5055055760022938,0.07894228069486618,0.5017817829329079,0.8457374861831061,0.25900162956064726,0.4669333192027787,0.8621348161378354,-0.0008078389526255116,0.6387424869238685,1.3898600675569581,0.3418558696536502,0.5955308233998144,1.412889448626967,-0.12544952194477396,0.7834701522380193,1.1545739142204308,0.5377564369965558,0.7352323286032593,1.2277765323932939,0.06614897741290893,0.954580465649974,1.2414650217483978,0.37460406154641773,0.9518510822927062,1.218720436893062
0.17706360915392863,0.6360234927252659,1.4596971745638279,0.19770887055793274,0.5651372221283512,0.08185830687308868,0.23041027830201097,0.39775768499496267,0.3600077126434661,0.13200847400561946,0.6540712493475128,0.4685363285851383,0.3511366867317888,0.7237384284878634,0.5514616588514567,0.08065179897496401,0.5129422580619644,0.8469050186873285,0.2618070421536231,0.4860886658503868,0.8660232918394725,-0.002653119521791303,0.6493461341836808,1.3953318446424807,0.3427918400737157,0.6050896504238891,1.4161135615194687,-0.1385620098979998,0.7939241555472125,1.1662875810133388,0.5494255332036472,0.7426467090713554,1.2413428492998826,0.05775991905511941,0.9593076366150871,1.2537295652880087,0.3895180080439376,0.9612712964037384,1.2253582206715512
0.1765584168328809,0.6444658867464328,1.4617537801033733,0.19632408577134933,0.5666575175553741,0.08312742122997117,0.2509663372598568,0.4839628914678992,0.4050664243076911,0.1289247569610357,0.6666909363026432,0.466788850636224,0.3571124329432726,0.8050182654010087,0.6127920970157338,0.0855423343607753,0.5280762578913918,0.8470807467363257,0.2669430271550616,0.5069076275749307,0.8704939503431693,-0.0010986718925790836,0.6626954130782254,1.3987051557255992,0.3410821429506972,0.6134422330398863,1.4214944220491867,-0.14824233350123675,0.8045052311113738,1.1749234676962508,0.5566981099639239,0.747721557089274,1.2552428002644291,0.04886934609445693,0.9669991997131058,1.2659342307143782,0.4058723480871979,0.9716854145526984,1.2284886360213176
0.1742893362785537,0.6530494761238658,1.4624843229573523,0.19517147186391248,0.5674789910291543,0.08204154877117839,0.26659440046975574,0.5763961504543001,0.44553287584093576,0.12424069195854476,0.6760334549856573,0.4627415084309541,0.357297241192205,0.876699095004467,0.6886150882712966,0.0901439409622552,0.5447408296743808,0.8465440493567806,0.27127318440601417,0.5287362740621185,0.8755195620091417,0.0019967210230982663,0.6769519256007703,1.401847204830761,0.33700394434247993,0.6214849110789804,1.4250454592973212,-0.15687907211122873,0.814644194962174,1.1835919707711513,0.563037179930796,0.7514881013016214,1.2695771294113025,0.038502771194893426,0.9788108493243677,1.2753242075670261,0.4249106813224871,0.981470162895925,1.2288646884041645
0.17085911518070535,0.663188337497755,1.4606926833186362,0.19503144644937753,0.5674095503064055,0.0810948649780856,0.2787690950116367,0.6713167679560497,0.4855593669818208,0.11736905349656691,0.6862508535427687,0.45738753099864543,0.35130742121023034,0.9355794919670608,0.7726133313797239,0.09408828099941893,0.563514597118592,0.8448260901926646,0.27420181922693626,0.5541112407660543,0.8819175749429549,-1.54984333241015e-05,0.6901227208975036,1.4038979673046514,0.33543245533009297,0.6314491290850678,1.4258277443876106,-0.16950542589911669,0.8264760759955423,1.1928937579576715,0.5717663465296519,0.7590994638337623,1.2843714897856573,0.027950765062838268,0.9897136290806405,1.2818250733974954,0.44385159103452826,0.9918933081018646,1.228968735936096
0.16890843462371566,0.672807545648178,1.4581502661243069,0.19276029557703678,0.5677518943025323,0.08108048487477873,0.2895853535073508,0.7674088094605311,0.5280423741186602,0.11109172764957351,0.6989853385700661,0.4523659692133949,0.3418605628635401,0.980899220468031,0.8584772542618233,0.09734879397889476,0.5848221201121353,0.8428711969770114,0.27603195820925946,0.5830969866007742,0.8872895017845166,-0.0021761791327181944,0.6988126189682753,1.4019384512911084,0.3327933716024475,0.6414705487730793,1.425297956577101,-0.1826388640629975,0.8362006894032242,1.2009540111179335,0.579794286050839,0.7648535308768852,1.2990943112453883,0.015463019732724077,1.0016237857931358,1.2841900256735712,0.469111379998686,1.0004024114687828,1.2223770623728094
0.16679989930355502,0.6826412571513765,1.4525798684538405,0.19254982688682598,0.569839534573785,0.08348693047458844,0.2918543914859142,0.8686894060165037,0.5752353121617882,0.10575981491259512,0.715744397983313,0.44807403420666436,0.32665221992611276,1.0131017616321425,0.9432454318000281,0.09989909029019246,0.6082212884295239,0.8406537738920329,0.2769400834719541,0.6153796093138655,0.8907613651885659,-0.0036490996150355184,0.707244839715416,1.3961916381757873,0.32935943008157165,0.6520366924663101,1.4244987139972238,-0.19386457621923073,0.8443732983395631,1.2042185116392976,0.5844771281801531,0.7714477012437158,1.311284067161203,0.001864695369832881,1.0144134689615625,1.283683025097938,0.4877847799452834,1.0064067020073937,1.2160574972969287
0.16406026449136749,0.6923937578175947,1.4477846327951294,0.193079605626827,0.5730854860231014,0.08577481759097623,0.2941137838420969,0.9688873327945147,0.6257824331215439,0.10164431365142106,0.7352878743185607,0.4422509486952043,0.310077125359914,1.0285885208136327,1.0177990012077271,0.10497714303493268,0.6346862766703951,0.8366905921118044,0.28032969097538735,0.645642330465281,0.891784351892165,-0.005589991674700706,0.7171564883478914,1.3900220874304359,0.3279664056643978,0.6638550578736848,1.4233379541913884,-0.20195452969286232,0.8520945917618142,1.2027468973259459,0.5904450520957345,0.77712983470416,1.3211830187448483,-0.010430429528667035,1.0283237237134375,1.2789120979321662,0.5072985051497535,1.0109864666243265,1.2115411826125353
0.16000032737265463,0.7027394287657358,1.4435826680304102,0.19668805560282188,0.5789349826728436,0.0893073756696693,0.2911909807861654,1.076278546565184,0.6853884187576625,0.09913226769302694,0.7572502285409807,0.4363395555282841,0.294560887377911,1.034811962376185,1.0800615565874168,0.1116417824272463,0.6606920265521776,0.8315970007168615,0.2840049236851655,0.675788377276224,0.8945695686880135,-0.008963556557019584,0.726912337947089,1.3820761539589133,0.32707394802981016,0.672671393222959,1.420831032942022,-0.20863437774135013,0.8585276887120231,1.1959309707852037,0.5954678501418516,0.7815394025580341,1.3298683958798456,-0.025592991881987565,1.0451103921149785,1.2682238725383925,0.533608132096741,1.0151652861160134,1.2065114509125667
0.15631684876897983,0.7132780807909849,1.438228700439814,0.20037231490634907,0.5862956466590692,0.09607354342677271,0.28644552883757407,1.1803790571594401,0.749548686719607,0.09712177192250933,0.7843416272936714,0.4305297659876403,0.28162958447321773,1.0389686489887215,1.1203281324775216,0.11796670250731252,0.6897447111291659,0.8259213802506015,0.2887030018388356,0.7046207602743739,0.8932467123836764,-0.011928726060888671,0.7376713575122187,1.3743531701998208,0.3244390517084872,0.6822718007007826,1.4169836066607608,-0.2163928228006942,0.8565756113874371,1.184894117294336,0.59813675092059,0.7853692838064436,1.3355884551050368,-0.04427354641584393,1.0553138276758949,1.251360854045096,0.55785125991938,1.018417080618521,1.2025813424502574
0.1530687568429796,0.7215752672503636,1.4314538306418187,0.19991620280219888,0.5944716142114327,0.10490013104610732,0.2760689368909927,1.277957562041346,0.8128694724174007,0.09808387872291112,0.8149170690644283,0.4254962491505386,0.27476766462228047,1.051831549542188,1.139009893237953,0.12362942171128814,0.7219750049771488,0.8209997485489602,0.29426353157991625,0.7347767609234667,0.8889969584005707,-0.016945977213499643,0.7440829676271283,1.365443321461501,0.32177659967739425,0.6911065330158935,1.4101452875647449,-0.2230632599351427,0.8519291129877622,1.1712269688550436,0.6017643989657122,0.7833027158261464,1.3375530387072179,-0.05981765961208224,1.059589347145706,1.2326223831813565,0.5819028628596916,1.015967424661152,1.1993631153375675
0.1507762458673296,0.7276452172413262,1.4236876280393884,0.19509304070680755,0.6015445640092976,0.1099184122347462,0.2622014491560142,1.3811250153814392,0.8746720620365349,0.10368119903456158,0.8418140927259454,0.41921045492320635,0.26868223736077257,1.0829462033989679,1.136480694453489,0.1257597907389316,0.7534895511820897,0.815971756025456,0.29626833973227834,0.7685955560707208,0.883824475984352,-0.019823990198067413,0.7486371160725802,1.356077458240427,0.31975691180911514,0.7019965101146194,1.401827338199371,-0.2257540450851966,0.8460254635448918,1.1561995923482822,0.6070607075509303,0.7758026962361623,1.33724069756873,-0.07017838314476847,1.0600649294012132,1.215562607306809,0.6083790808521176,1.0083319517710694,1.1974137325381762
0.14939830354887934,0.7313010216888407,1.4138164485305624,0.1910154447763934,0.6043477651766103,0.11188515440120786,0.2528574156139361,1.485814146463784,0.9245405253234568,0.1126280539494432,0.8607661689317712,0.411637975348627,0.265745345424363,1.1361031832732926,1.1116946069327727,0.12478173653371272,0.7837855042299309,0.8111908830546406,0.2934640519238367,0.804613018248783,0.8820067297827532,-0.020609870188664513,0.7483969985771699,1.34833198998169,0.3168007011162188,0.7077374046094119,1.3931389658239235,-0.22576826700766056,0.831714208587269,1.141430375135763,0.6092802541414586,0.7630403074678938,1.3334666425771882,-0.08572598981178088,1.0573722085009543,1.1962508937620233,0.6294642302309206,0.9942714142944367,1.1929425407615644
0.14660069225441794,0.7305259902863663,1.4036394464140587,0.19265086115993252,0.6047955840445766,0.1133734416158315,0.2596467559633458,1.5616885450711337,0.9291565638172113,0.1189957052506946,0.8736699628977052,0.40324943040291356,0.26688763175526725,1.193054507219932,1.075961563365236,0.12063788091963698,0.8139611808427537,0.8059255713299045,0.2879117206600747,0.8413185298448751,0.8778471224345273,-0.024962406779780767,0.745590821793923,1.3406915877132495,0.31309856991901763,0.7073017106971144,1.381720000342104,-0.22675701201414494,0.8194110395443852,1.1269908723440585,0.6098823861734306,0.7399484161945518,1.3268085331480406,-0.10107263635728266,1.0543099146129806,1.1776908962337687,0.6488298068610974,0.9679843865133396,1.1850135805291957
0.14600597056389092,0.7257021867754596,1.393203729526331,0.19651758900877986,0.6072556840104384,0.11469210732726651,0.2680223081913028,1.6032512967731054,0.9096884732331866,0.11487678225384193,0.8845963525458362,0.3942708514176854,0.269493539818097,1.2303487671607392,1.0454596863484575,0.1172729780153284,0.8366065859334572,0.7985009561897779,0.2853895331198113,0.8681304477802523,0.8666897010083575,-0.02938764791797808,0.7376371347401166,1.3300446958032341,0.3133710931971347,0.7074201160404261,1.369703374855884,-0.23090894826171265,0.8029021582554527,1.1133303171465596,0.6120988278271159,0.7086971863302459,1.3156101878560096,-0.1189521414407883,1.0447635312792607,1.1634395486984952,0.675052932104454,0.932636146163541,1.17593382732412
0.1453769630000297,0.7202072828247262,1.3805541706331654,0.19475781231068412,0.6099962635937293,0.11566287290102083,0.2821274418581453,1.6301777195848284,0.8929537695076086,0.10414602232252977,0.892559724812903,0.3871342400558019,0.27673806917645993,1.2525098729319752,1.0147503616093283,0.11314818745458448,0.8490370086341009,0.7917752950132877,0.2832663935076853,0.8815470396220326,0.8542806047678433,-0.03151435049247144,0.729878888806008,1.3192614907423923,0.31494994517884256,0.7015309566215192,1.3560849360819318,-0.23385712425660002,0.7846807139003995,1.1004185230056553,0.6121881197049169,0.6725952635272638,1.3015097437020866,-0.13156178392319365,1.0301368996923124,1.1535816367135496,0.6925768793592878,0.8888709417912094,1.1587169453431503
0.14484705681881638,0.7183411474597309,1.3656944430254399,0.18589604975589266,0.6093669581818665,0.11415600529555886,0.3013005700924777,1.6568262684750041,0.8795538847847677,0.0920896723570794,0.892675164422302,0.3837523381974777,0.28661279519893323,1.2707601704941327,0.9702871596796706,0.10680914898447869,0.8491856570998039,0.7882346350252601,0.27807926864358584,0.8866866651710339,0.8444987478148586,-0.030511866001118666,0.721787538793614,1.308737812810027,0.3146532142556462,0.6889321003178634,1.3416744122321123,-0.2321859098296932,0.777268422981434,1.0894376246423607,0.6081253788379203,0.6328973725252979,1.2878577083729037,-0.12587218443427606,1.01986211920313,1.1476472769782324,0.7090763758162479,0.8354655385815244,1.1381965706453214
0.1433747523674209,0.7130630790052853,1.3550885495991203,0.1817609194243693,0.6060601547810702,0.11224767591052827,0.3318149794706797,1.6710301705606703,0.8726248975353373,0.07976127792985088,0.8850533859127926,0.3833579092849706,0.3011315658610926,1.2775695092142754,0.9143354026956815,0.09974611484479243,0.8400196979210047,0.7874409596135271,0.2722791780349535,0.8820150440026111,0.8361435168323179,-0.030996628265494184,0.7182295099551735,1.2982195110411574,0.3124973154119745,0.6747112788427266,1.3318359996661042,-0.23034650020243702,0.7728734043228457,1.0766010999714772,0.59978701729489,0.5939708102138948,1.27609087019974,-0.12742929078388165,1.0174831193011056,1.1324198218178294,0.727941860804852,0.7758253465277736,1.1207520080898228
0.14061455717780902,0.7034477156020922,1.3483041800529771,0.18372391801642765,0.6032279577955875,0.11055787094457135,0.36683865020106177,1.6627016891489965,0.8648190952809599,0.0674872365502859,0.873374467417452,0.38488440723895273,0.31915539244642416,1.268717328742588,0.8644489853235025,0.09487809898247772,0.8267992696824609,0.7883665746833135,0.26923524905894153,0.8690714704445596,0.8297912590171356,-0.032673712929301074,0.714526655891498,1.289526602953744,0.3082693991064003,0.6567411454934667,1.323903625601072,-0.2259154432879819,0.772610603845989,1.0634287455862235,0.588139182795048,0.5542082659307048,1.266280739069926,-0.12199604303127962,1.0178245937623838,1.114544879843745,0.7442212207477965,0.7109946601122228,1.1091841241621299
0.13832690845317944,0.6958760990349723,1.344618077838033,0.18513639472551116,0.6018379942738015,0.10951773556737124,0.39358648330230034,1.6472913716847846,0.8185636196177046,0.05789310869878344,0.8639277129809091,0.38676105361117014,0.333747575822819,1.2552532931511733,0.83350974495423,0.09368157773750758,0.81194965251672,0.7889147503050471,0.26848885126157085,0.8563909074494221,0.8259682961675453,-0.03264455039234938,0.7081082567428897,1.2825450451812104,0.3045790539086968,0.640496185461381,1.320846874013022,-0.21783595376327078,0.7739770294067779,1.0518846918928597,0.5745361638797416,0.5171802309131482,1.2569919516744412,-0.10739979788792445,1.0171045072922733,1.0991431260892424,0.7610982627599462,0.6445398877172077,1.106661265803132
0.13618950964021145,0.6910529971119943,1.3449366561762919,0.18014524708019639,0.6009305038980143,0.1093270115117341,0.41021933661641574,1.6160809311287123,0.7282623816287983,0.05290857128507216,0.8606099570183376,0.38882384792694485,0.33914696067420314,1.236428817294982,0.8194295927430292,0.09484260175542909,0.7964288684673148,0.7886171114571519,0.27087123369289373,0.8380147819050529,0.8230769446422074,-0.03300643141018987,0.7059116425212671,1.2776792778052064,0.30024305234682364,0.625650721412385,1.3230808985489535,-0.20652302195285357,0.776891085765938,1.039579056454389,0.5611547349869144,0.4893032707973648,1.2489399556045915,-0.09012839981741566,1.017579789420828,1.0849780405467002,0.7778948585928057,0.5823934194133745,1.1148433351017797
0.1344433264089282,0.6889921290648459,1.348281032125035,0.17535654999608483,0.5982229315701796,0.10861533121317188,0.4145383406311442,1.5551455558270526,0.6256406800132438,0.05515815290603477,0.8583585181178917,0.39079896195453634,0.34329759661331133,1.2115973823222497,0.8110941842639903,0.09750371203089483,0.7780723866154787,0.787625815936145,0.2755135293240657,0.8131581917764718,0.8190080709740662,-0.03432237883025349,0.7068975360535975,1.2737580934037962,0.29733732487825015,0.6144555605018783,1.3258143743521835,-0.19686845620421559,0.7809284079179692,1.0289323570751088,0.5516348311792864,0.46816965511934383,1.2477393385148945,-0.07390115870695624,1.0183496230838023,1.0742346152427589,0.7907007496355222,0.5259675294320575,1.133156801619033
0.13274843146386717,0.6863042011760319,1.3538602835444606,0.17856547263708245,0.5956348046653855,0.10505519795563466,0.41046836342048604,1.4659209356397858,0.5286740188481218,0.06632273683009891,0.8531437932630489,0.39287335915088684,0.34736367543677793,1.182903246782728,0.7996229388678182,0.10308435285481832,0.757562505505058,0.7868633043309088,0.2826069392125598,0.7842950139359108,0.8178897407388858,-0.03428538993737655,0.7075814515450936,1.2731892470767012,0.29396361572390617,0.6090782545800708,1.3300203770834995,-0.18529733992399236,0.7831361089953112,1.021547368984518,0.5420996261869712,0.45092095957440664,1.2553397366625143,-0.061406282432734466,1.0201326196716851,1.06653352169395,0.7952129744163952,0.4755520180043905,1.1607401192850155
0.13191290450854512,0.6845201046948023,1.3615414739197618,0.18506224631446672,0.5934526698155463,0.09971622483089868,0.3970280040088783,1.355167646150855,0.44466536352005237,0.08409262836790152,0.8468218390193651,0.3952679219882726,0.3521198500103366,1.1536823019328546,0.7836136596076502,0.10981625637898698,0.737551160199181,0.7865596121074921,0.290291904529058,0.7557005977270943,0.8182260061179767,-0.034146287861762874,0.7052512695573704,1.2742417653755227,0.2915945271832838,0.6057258661180588,1.33881116349654,-0.17333652596918406,0.7850871866155369,1.0171581189550893,0.5331417171011775,0.4357647315062528,1.2685888945730737,-0.04850144050192938,1.0217217966576821,1.0614181039826682,0.7934421183508245,0.43046002942819395,1.1921798654343858
0.13108470159138041,0.6826394641703464,1.3729950456544433,0.1879341564694141,0.5898927774399202,0.09328574102438168,0.3816985107818694,1.2300408109904313,0.37513006013358385,0.10809272827155385,0.8387030074177195,0.3990025124198922,0.352707800725161,1.123229481553057,0.7562406973654918,0.11385769657277084,0.7174703661040965,0.787574946077148,0.295233808143021,0.7278268137110744,0.8175538117440968,-0.033544980624045234,0.7018163793102885,1.277450533881553,0.28976602059637363,0.6037450467408965,1.3510957554999776,-0.1605032512353109,0.7858154632361275,1.0154135773888897,0.5257170134485334,0.4246794444023906,1.284564821902279,-0.03142384750436505,1.0202633359535798,1.0591501185195449,0.7878897741702982,0.39365926455298755,1.2219173331283686
0.13107085640371846,0.6824762187850714,1.3852285867321577,0.18959433278327573,0.5834709208795555,0.08748892542931087,0.3700163585994663,1.099417662646183,0.3241761160277106,0.13250019260513007,0.8240071610523512,0.40470946644174244,0.3525513954356813,1.0898558953099104,0.720533818954163,0.11668589610100875,0.6972556525029352,0.7912268332732938,0.2987191181653909,0.7014149198533217,0.8186337874297431,-0.03212586344726458,0.7014672632192235,1.2835433068591906,0.2898063915815318,0.6035860881764054,1.3637523832950422,-0.1497686957676243,0.7804297912738527,1.0156505202275947,0.5197406254755195,0.415271827237547,1.3018718885424705,-0.021476429117159274,1.0155385112712492,1.0581269926605648,0.7797976991447029,0.3633511435122663,1.2444246832032013
0.13277551806768778,0.6863018535296017,1.395136542091529,0.19362277466256012,0.5774685691179285,0.080401548888351,0.3564094663879633,0.9718726470625791,0.286572462977453,0.15402260631717396,0.8037271699462034,0.41052625156667355,0.3560430953446635,1.0501950635465633,0.6756273189090644,0.12016536351683049,0.6788026705168139,0.7964862228781924,0.30243315844496277,0.6774608122737137,0.8226040549970793,-0.030398149874876053,0.7031198578061199,1.291838397475094,0.29170843494283805,0.6086115373436265,1.3751858499896519,-0.14167653580534587,0.7733163849514489,1.0188376997597806,0.5118680325949867,0.4076211790615939,1.317768827480192,-0.013800875340397683,1.009030227970186,1.059145408763489,0.7683643276598593,0.34149279325585247,1.2589735771621475
0.13464715867763968,0.6898151535442258,1.404516603467462,0.1989413353515852,0.5736992740395139,0.07775341374354407,0.34112917225400596,0.8483343520456629,0.2595206117438216,0.17220930006540702,0.7831313735398726,0.4200554826787681,0.35886855575398585,1.0002361724834523,0.6257318229508813,0.12195598020452376,0.6618469216810695,0.8053868426601742,0.3045090401791508,0.6546790792578056,0.828335900647421,-0.028379154641050237,0.7047564491086417,1.3011253786398704,0.29376972771448684,0.6121711079472535,1.386702382335922,-0.13604990867420172,0.7656189279772351,1.0244660378739225,0.5046223212174121,0.40102808209918206,1.3308528884133295,-0.008901844136771479,1.0020759529411507,1.0626932617831892,0.7564270847604033,0.32503243136014204,1.2642106143130427
0.13768422291468063,0.6930733946018006,1.416026318548284,0.20018478275447094,0.5734093174396087,0.08160702106484656,0.33083292701222217,0.7338603009140154,0.2477875172944596,0.18026093847633307,0.7716478710835065,0.430965226813532,0.3624846317487099,0.9420419199650872,0.5841698001918421,0.12611074537028993,0.6447862614212423,0.8139625623564374,0.308265979040443,0.6317091563453896,0.837470695120955,-0.026692641611715244,0.7061468047681926,1.3103246298513127,0.29499081297887025,0.6141986180641563,1.3974743098118014,-0.13322504116838815,0.7569148111597161,1.031196647045859,0.49767170000797334,0.3958814142569614,1.3389880802201028,-0.005680673385651785,0.9939153340816402,1.0643983102928174,0.7431415942915237,0.3125175178640884,1.2588683347466356
0.14203462567564096,0.6956917293980099,1.4268300045534634,0.19796660232137814,0.5736830186391595,0.08181501001172974,0.32214211544907323,0.6263115389816196,0.24587979439131624,0.1827433931680092,0.7617687593784194,0.4369756089939489,0.36525472751109556,0.8785812542813776,0.5491937992781283,0.129504958633368,0.6314740594748038,0.8189441917067662,0.3103392617293008,0.6089466322419225,0.845322177624419,-0.023111917241401027,0.7077636085710668,1.3185251238268556,0.29697535954278137,0.6133611301075513,1.4063387999194827,-0.13251872526823014,0.7468203668131288,1.0386264206375704,0.4900130467192125,0.38767999867146546,1.343370836196796,-0.005743734535143282,0.9851252397656208,1.064698403309464,0.7275526781341168,0.3029068030139931,1.2433037669782578
0.14627392590729701,0.6977482624452,1.4351217282671223,0.1960328628912726,0.5714029533025947,0.08127281529367282,0.317815369787692,0.5304635190807983,0.24652764214958983,0.18309400246598823,0.7491091350799107,0.44182562296504585,0.3675348643104316,0.8144179640152904,0.5192804625559551,0.13066641376518642,0.6209815860294315,0.8246419054581423,0.31027586593753503,0.5895784861956901,0.850304012588592,-0.019098593952345026,0.7103541829839266,1.3252931142984283,0.3031759547114401,0.6136192176137046,1.410897002173138,-0.13416080864049457,0.7343958199052283,1.0459623046752373,0.4839223727510348,0.3791566256361354,1.3436706630756774,-0.007585517753049201,0.9735061607593333,1.0645866620474502,0.709952598943526,0.294660755023679,1.2195923012660306
0.1524079919831691,0.6990420866224387,1.4404552961265535,0.19541257832513587,0.5705014969288837,0.08189157652957822,0.31641587317370695,0.4433842778878281,0.24851196852064258,0.18363489963103374,0.7359296876134389,0.44827676885089446,0.36859379269629033,0.748368039857185,0.4970215765918627,0.13074790180013932,0.6084488097039579,0.8312451241072413,0.30942074151284826,0.5711269763049828,0.8554807596809735,-0.013821902479442828,0.7128116577398822,1.3316289421984249,0.3106318300987748,0.6123957528068444,1.414023527195182,-0.13547815696683257,0.7251624848666715,1.0543472279328632,0.480006261711537,0.37223618045152035,1.3378869356577334,-0.008737627038448995,0.9647035238262837,1.0644009914167873,0.6933656778117724,0.2913073270992968,1.191087922669373
0.1618192193776417,0.6994096745138977,1.4451044561192117,0.19646380742196484,0.5697840006840491,0.08149943530130369,0.31275202146637915,0.365704725022256,0.25106665684026863,0.18457980967959947,0.7215481392497785,0.4537439016658798,0.3640179675345716,0.6842782487530157,0.48211117770172635,0.129010991141757,0.5966226702911537,0.8371741436262365,0.3061960417226348,0.5518203193242053,0.8596288087984202,-0.00660676774276361,0.7115146221440317,1.3385392428694411,0.3177507470394467,0.6092286712749141,1.4153902458920669,-0.13633774769968798,0.7175065237316859,1.064733542073992,0.4758143509780059,0.36584146003918644,1.3262751295754263,-0.00912544524358854,0.9570053539134676,1.0652175074663137,0.6747668846856074,0.29013020868288875,1.1580206604808376
0.1714522760862942,0.6986280606754933,1.4489591591788276,0.19630737655327798,0.568476349314323,0.08146852003285854,0.30593585272673424,0.29963517976175513,0.2510395310798964,0.1854160613125188,0.7102298236755329,0.4576731073034614,0.35360854317253887,0.6258673385996919,0.47194288625401476,0.12557829723994807,0.5837623000111265,0.8399533229966084,0.3010612697083232,0.5324066462046059,0.8616983266657957,0.0012385009722231098,0.7110684066282666,1.3437895139282572,0.3246969234248649,0.6058197331056713,1.4143216421462628,-0.13890582155450318,0.7104452391183199,1.0750905306233771,0.47017990054234704,0.36037154447473957,1.310620009885593,-0.010693782411195448,0.9490785056162576,1.062539385481454,0.6552113367280583,0.2932440334503312,1.12385121709499
0.18072846704323753,0.6967461214300766,1.4509990684865979,0.19593644294559753,0.5681786294070718,0.08116002300510557,0.2991049141609395,0.24601135301408433,0.24572860288174364,0.18800932176222024,0.7005217947152771,0.4608563980016042,0.3407513040928557,0.5727186205425914,0.4671372069788562,0.12387700756327322,0.5724860523711618,0.841915388065549,0.296481061061125,0.5124469413138435,0.8644000190242012,0.008870000457575225,0.7105315655730675,1.347605209822538,0.33178655503053556,0.5996433358313645,1.4125772468795534,-0.13966133655846114,0.7042993617500715,1.0835299713951962,0.46516678617860113,0.35464759963834,1.2927891998279402,-0.010497367676243288,0.9415667430474269,1.0598137525273432,0.6366601910988673,0.298289340862516,1.090216426315134
0.19042060103642558,0.6942420864981608,1.4506521845217624,0.1965073369652835,0.5671963804831375,0.08059726348125942,0.2905608471098061,0.20565423355330695,0.23539113281509746,0.18764311963977393,0.6875025473326155,0.4642525971289997,0.3291333625830487,0.5266338000122771,0.4655491575926578,0.12136615437983353,0.5607053902309748,0.8453590045550449,0.2913282747257122,0.4931415933401949,0.8666224475459705,0.015825640165673536,0.708850440967599,1.3509849742701505,0.33601519209462394,0.5910417538594268,1.4092401488567705,-0.13964213964387753,0.6982961276660898,1.0910669758351323,0.4601208067712056,0.3500689217368697,1.2725105775906063,-0.008368945222904343,0.9334250473917137,1.0591067256223292,0.6162198045800635,0.30567067797724434,1.0550644938510734
0.20195793590357408,0.688884243584329,1.448122881312432,0.1959344162182728,0.5654747473676139,0.08053060660162302,0.2801010103646083,0.17378762782186746,0.21980510835277103,0.18783742386567462,0.6762130223977818,0.467079857624088,0.32090986692400275,0.484805645952291,0.462904264944856,0.11855940857640292,0.5469337560765083,0.846818789962224,0.28649584457224797,0.47379173410058084,0.8655237313241408,0.024195720178072245,0.7074243047046768,1.3523847702603984,0.3424907701719272,0.5814942737898208,1.404637733800684,-0.13859666084123679,0.6930813178414541,1.097167758734395,0.45498973349542415,0.34460237193218346,1.2517082969827102,-0.006432709594678597,0.9267751404047262,1.0589264025619212,0.5975987218984159,0.3157333832110275,1.0226822466063719
0.21340698413595952,0.6838952031792198,1.4440674979821169,0.19473975478452607,0.564478785833573,0.0807605035241246,0.27125694469909356,0.15128929369411093,0.19679544301516794,0.185675756734652,0.6681965834331184,0.46922502258629795,0.31271571316527713,0.44505015239029616,0.4603880412179319,0.11591843945842067,0.5322137632285376,0.846531580823305,0.28191529530678666,0.4543148516521894,0.8633402243065406,0.03345532110027971,0.7050180705053377,1.353509892180231,0.35073833121619075,0.5707245170754105,1.3982559892213924,-0.13439895139533234,0.6901052744350984,1.1016287372175795,0.4499705456892281,0.33800458962394514,1.2304577227397036,-0.0009888803968206893,0.9216456246690719,1.0554620723983408,0.5818889955061607,0.32672834951229907,0.9936154767235968
0.22453306427845868,0.6763329067183569,1.4396509764544032,0.1933935141951976,0.5642969810396409,0.08066783804096543,0.26562206534476296,0.1383095517757477,0.16707188352108093,0.18068124946497513,0.6606676467002256,0.4709226580075301,0.3039940760809507,0.4067293608358075,0.45686492981658045,0.1108648368723011,0.5185174923837638,0.8459327919159917,0.275648173142229,0.43739212041457437,0.8589405733986519,0.042058673186513094,0.7000101803089831,1.352882309445389,0.35865693459304593,0.558795625324855,1.390097626791995,-0.1301423568392582,0.6865628337559474,1.1038725274154433,0.444580768945331,0.3321470114525841,1.2073025886629491,0.006419905981854368,0.9152256387034842,1.0528680335964082,0.5662420034185673,0.33616039934422,0.9648065004347357
0.23513817833582035,0.6659561854367307,1.4347107881289962,0.19261828019272367,0.5625067109884085,0.07961104756157521,0.2601120799973021,0.1318181370611339,0.13777743743615392,0.17487304948049734,0.6530759216143214,0.47105545972988894,0.2963779030000812,0.3710816828431424,0.45230957039183445,0.10563532735886112,0.5060691289466113,0.8442960245850455,0.2694539385012303,0.42238208161883145,0.8523766970998181,0.052824738819069746,0.6921535564177316,1.3499002024689233,0.36689351651522584,0.5448430714709372,1.380655129766126,-0.12518760123914494,0.6842771156697848,1.1047779458576685,0.4418608591177566,0.3260383354195769,1.184022716915801,0.01360676669978788,0.9109569351721599,1.051013875404276,0.5516714846386837,0.3475881428141287,0.9368397560444166
0.2467610505194613,0.653981626379097,1.4281965719196588,0.1918162816539151,0.5624699312165222,0.07835937185982957,0.2508820196217342,0.11774906564330892,0.1215822421486069,0.1692934637170729,0.6473970135451362,0.4708184827499878,0.28772261290374873,0.34149874134896885,0.44727214661706044,0.09997859516952468,0.4935890844191724,0.8412974562266617,0.2627136472828173,0.40754773084748586,0.8452907503519685,0.0629140182613329,0.6817401976667622,1.347524402530681,0.37476692987299864,0.5301517340813848,1.368774118175817,-0.11844816796859955,0.6802565294880973,1.1047431745687448,0.4392079751294368,0.3182344894730727,1.1611758119793483,0.022878031231699486,0.904478214408623,1.0473830458083069,0.5380776406703531,0.35867744989454775,0.9117443173055869
0.25705519194513754,0.6406759538602139,1.4193988171358165,0.19069895823851413,0.5620730278015073,0.07737697398653812,0.24091598183340118,0.10335373673011454,0.1091453383015574,0.16438292033235802,0.643684890048738,0.4703020300040165,0.27820948688455266,0.3161511570906955,0.4420460016137858,0.09442678783673226,0.4811834897461924,0.8369310982063898,0.2559766899473231,0.39285601617862725,0.8383199928500542,0.07221351509079392,0.6693312873503233,1.343108968358615,0.382917614560394,0.5165633918476369,1.3570986581147608,-0.11175220545060913,0.6749802604300437,1.1023502114316988,0.43730993194213186,0.31309906408682237,1.1384512653277201,0.03262496721985597,0.8972753980512606,1.0450550220919597,0.5251834295516302,0.36778937197218803,0.8876297738285867
0.2659112962684912,0.6267349619427303,1.4104607533667801,0.19039387780245332,0.5616393813247728,0.07691704380497519,0.2328399045595243,0.09643946955768579,0.095254702100553,0.16020459027931633,0.6410864965162376,0.4700118109341117,0.2706685367928712,0.2951029790156027,0.4367205014076878,0.09024041163269644,0.46825777450066025,0.8318844850778826,0.25120940879891035,0.37885660906631635,0.8317112757209215,0.08168288607003651,0.6559118338437167,1.3373283415982655,0.3899234976981641,0.5032214742562705,1.3457383560695124,-0.10493203978375962,0.6683249443942109,1.0988842852858285,0.4366811989177614,0.3075808632710033,1.118363597413101,0.043339923847313944,0.8891217512081374,1.045927002071619,0.5117722498578183,0.3789004534495076,0.8675638866019617
0.2734302144568347,0.6125499564994807,1.4031140414512817,0.19067207237382475,0.5617336862223551,0.07633667539669643,0.22758382581779352,0.09182486334150972,0.08494036189332564,0.156561831624923,0.6388998749495378,0.4695623854347318,0.26599311201787146,0.2813471917472437,0.4314997991716377,0.08810942124537896,0.4566281830231876,0.8270563344255442,0.24894771906970853,0.36700294932982125,0.8261915173311816,0.08878130095445201,0.6411660909108403,1.3327998146306494,0.39717886074504455,0.4885933879803214,1.3352557965346696,-0.09700402404156783,0.6590278234188397,1.094043934967177,0.4365965290773608,0.30280451480913884,1.0984166602318246,0.05338974659125008,0.8791177167453242,1.044200959946519,0.5007580841958833,0.39098781159104223,0.8499583134765013
0.28054692711869567,0.5980618753540232,1.3977938774132503,0.1891870966123003,0.5609452747711582,0.07619988767839235,0.2268649728822303,0.08667424608625678,0.07970272850956243,0.15310185475586582,0.6350815570869695,0.46982531308139885,0.26477310406649507,0.27408541266398706,0.4274665727723529,0.08562133762320008,0.44517563899356005,0.8235165064529463,0.24720988735147537,0.356897958861256,0.822740936206672,0.094647551650881,0.6266617274119454,1.3297571046264576,0.40286096287234574,0.4751732781581914,1.3269734168900846,-0.08823349945634955,0.6489032156122934,1.0891349689203063,0.438022996967925,0.2987574517058497,1.0824304850026696,0.06530141388118682,0.8671826280222314,1.0409778962630978,0.49209088755071373,0.395345670364196,0.8347001734441547
0.2860357385792785,0.5842244630963417,1.3956048526209284,0.18983076034446245,0.5604889232335578,0.07598847838204457,0.2281661935369419,0.08553529097132724,0.07852252025483822,0.1495042995944802,0.6286081151460458,0.4702963829536777,0.2678662731991178,0.2762676289808951,0.42427645030126726,0.0842270044000661,0.4343675734374278,0.8220452195569503,0.2468713469890847,0.34806539492908845,0.8215349061744969,0.09817640988631185,0.6138600576958224,1.3302312733123125,0.4068998248916766,0.4622057248338173,1.3198278509627759,-0.0788580718307795,0.6363874550044282,1.0852996632514769,0.43993667487402977,0.29536835091137903,1.068362893508133,0.07709292307199227,0.8534718119582193,1.0395249214729723,0.4850946729205413,0.39836038724007916,0.8214207988969875
0.289650206235153,0.5722057478089755,1.3960222708692296,0.18931220672980692,0.5595671932800229,0.07531066077691106,0.22842211102380516,0.08749619165796084,0.07914534557821473,0.14659224654588512,0.6196608127852161,0.47066518344889363,0.27212414457764017,0.28270627670486037,0.421899367532135,0.08377741666008992,0.42524285618626867,0.8227570995629961,0.2477196762080147,0.34143139942333617,0.8211021845911172,0.10146225662936116,0.6005593145505892,1.3331788056817933,0.41027394800204164,0.45040456205603513,1.3166225918717183,-0.06960026112411696,0.6220957765610269,1.083952561435294,0.44143969911767983,0.29462647530886676,1.0579225486779615,0.08604840776431429,0.8395582842143946,1.0389588734203241,0.48063248616008436,0.4018403727106003,0.8117755315143326
0.2912554116246186,0.5608697997434915,1.399502721546692,0.18848354095008302,0.5586442601362461,0.0750405242723558,0.22767514214048626,0.08912126298524603,0.07973807039642998,0.14360348027446307,0.6118018006667475,0.47115256919719334,0.2734585850129668,0.28554245302693304,0.4215239312558519,0.08396219586184145,0.41865685571881867,0.8244991767141082,0.24947163799188415,0.338010931068246,0.821628509886007,0.10225573024546032,0.5884109313291712,1.3377915409536165,0.4098809995901272,0.4386163930896115,1.317014939984482,-0.061466440330469996,0.6070520796746111,1.0834562718272671,0.44291104658564084,0.29294875435735046,1.052722226907765,0.0936053101437138,0.8248916145725398,1.0382798869803138,0.47779266106365237,0.4057052106912402,0.8083943375091817
0.29106862401342737,0.5497462295185805,1.404351111404494,0.18702259414556616,0.558288427341728,0.0746602264145263,0.22724433322838178,0.08796611711077693,0.07904844656268392,0.1403073586633397,0.6047395467826479,0.47140593298191547,0.27263989936698035,0.28168230515317816,0.4224272330577932,0.0844753144705856,0.4127283661481911,0.8259871709902136,0.25120213872916813,0.33464991231108954,0.8226101978888598,0.10207098814570194,0.5756766135764327,1.3426437484622442,0.41140910366778555,0.4279437550708472,1.320246754551613,-0.0547215667790532,0.5912941536213369,1.0837777500729904,0.4442121085611844,0.29199306774961603,1.050791402883443,0.0996186772493015,0.8096095449484682,1.0384256275151833,0.4765089966384958,0.40883890561883707,0.8080399117656788
0.28988202211294023,0.539987178207272,1.4106466406726164,0.18652393121306385,0.558774753708809,0.07444619896698516,0.22747341916060604,0.08709054319911068,0.07886938385340252,0.13639316657252673,0.5984430549747582,0.4715052554876336,0.2716128537687723,0.27702040299651914,0.42452195379424573,0.08579012850520737,0.40836824833970686,0.8279106198889588,0.2533946227610822,0.33221312840832135,0.8245587248330325,0.10126777914829893,0.5635259955003341,1.3476690643342695,0.41324596548583753,0.42165593271476903,1.3235404822945829,-0.049659766655080775,0.5760168350285998,1.0851790049332297,0.44655184418274796,0.2902378586542788,1.0519141651986086,0.10562245768967476,0.7937745932560397,1.0403188865993442,0.4769218323403453,0.4104308849107211,0.8105531214505428
0.28807546806737117,0.531443527855486,1.4167680729717849,0.18719327634235353,0.5581795548417324,0.07485927562822114,0.22809119675895279,0.08686025980175056,0.07949718274713331,0.13527691579019446,0.5918003867705227,0.47225004165528806,0.27156141956940966,0.27303625517786767,0.4272716558802044,0.08793002533753212,0.4048505733698334,0.8307469475454217,0.2564991933818193,0.3308503423248879,0.827071841144826,0.10001975411966556,0.550886870874797,1.3529196934155934,0.4145706957876157,0.4167503869469462,1.3283349925531347,-0.04554950677256933,0.5612856145576597,1.0873297016846377,0.4494107626212971,0.2904667534562662,1.0544698162286121,0.10965503129408333,0.7791526282709097,1.0427497729811508,0.4773071480522688,0.41428382286199,0.8146521767469426
0.28620360880616574,0.5229408518420828,1.422200890545021,0.18735788915201085,0.55724932126253,0.07514862748080392,0.22861275466224046,0.08706238657108188,0.07973021637215787,0.13583513771198125,0.5846960922198284,0.4730708388876632,0.2718176796465539,0.26903932759168214,0.4297486663377285,0.08997654626205308,0.4006922856973069,0.8332833047465252,0.2593100734731041,0.3284614956810639,0.8294024284424392,0.09663166262488454,0.5399154692230899,1.356329525870429,0.4164513528971335,0.4110637726522081,1.3326356120842313,-0.04359392890242546,0.5472808825772654,1.0877782390799895,0.45235857719186956,0.28988626624976505,1.0566058002352572,0.11323010789808505,0.764354538614757,1.045056779565132,0.4780532207523927,0.42061651088867363,0.8202371968503076
0.28408771314776077,0.5161598935206844,1.4253724600617887,0.18655852673115425,0.5572586734308228,0.07570777606522451,0.22945751009677284,0.08673600699280677,0.08003951211463664,0.13693907851864576,0.5781641868850022,0.47426608647276663,0.27374561141164055,0.26403297773506657,0.43232326000776505,0.09220842740199912,0.3958142698418288,0.8354598840441336,0.2620820630152707,0.3248685653169914,0.831783007245727,0.0928387182555236,0.5288443676859182,1.3601835171163763,0.4165824181726175,0.4075592237716204,1.3355297616741635,-0.04147420255638733,0.5335837198784108,1.088565030007647,0.456374673465569,0.28879450482642455,1.058988986533162,0.11596014156905707,0.7505780332785369,1.0477334909853164,0.480215523108381,0.42786141271190875,0.8272237653354099
0.2818179435955347,0.5093439683857707,1.4289581037894414,0.18726131477727856,0.556761477891488,0.07597729876665586,0.23010204742021828,0.08686122575110072,0.08023348068331186,0.13818534497192958,0.5722096541639855,0.47485374038091305,0.27509980231359765,0.2586688437444727,0.43512652917969336,0.09445750165485256,0.39170108730240727,0.8370926691353405,0.2653439506573888,0.3231839038515702,0.8340705877034308,0.09171528035730894,0.5196232244866801,1.3636923128907752,0.4168986300105765,0.4032786509358074,1.3394353066105675,-0.03957673152768586,0.520258435270561,1.0905701959462415,0.460674228866742,0.2894912781137092,1.0614160025105077,0.11588227060311586,0.7387978652915547,1.0504306655976277,0.4806591177965679,0.43565241963748313,0.8336807366427426
0.2792463843971041,0.5029086012438169,1.4338521730545983,0.1872065979758149,0.5556233100875315,0.07613981981644,0.23090669035979575,0.08636572244286361,0.08004683962502769,0.13939690744507513,0.5672814521086981,0.47529523760912584,0.2756638643621212,0.25393074642597907,0.4369958245843264,0.09740054125505128,0.3876907323639292,0.8381993918820734,0.2691513786197025,0.32136908256555463,0.8355179635389504,0.08924119823174312,0.510329913799419,1.366674204681016,0.4165418200199453,0.4004205216144679,1.3436281755583352,-0.037678466066278775,0.5067800297535173,1.091499162906731,0.46391543599601637,0.2916966030141933,1.0641779473321813,0.11433216250187032,0.727765541279019,1.0515145775083943,0.4809589076076004,0.4442539892049233,0.8404354346049521
0.275224114397143,0.4959353783790955,1.4380267375747873,0.18686472397120932,0.5552511313391386,0.07575886458770362,0.230908710493044,0.08526336314037687,0.08008405052314804,0.13979524760995438,0.5616693183158576,0.47511791755438215,0.2754314035491932,0.2493244016592676,0.43868959400494645,0.1006895594294893,0.38331114169670183,0.8389533224830721,0.2730257437135766,0.3185059837582497,0.8369537359948027,0.08581108294742695,0.5019454709711877,1.3686336646836077,0.4161891660017063,0.39716237979735736,1.3476620971077256,-0.03733766429185891,0.496251277154884,1.091793767873035,0.46739620383135355,0.29364855193463846,1.066904569750025,0.1147356984993633,0.7173459206624384,1.052690831306975,0.48097681415737276,0.45363283593430914,0.8481700789270847
0.2722577694409729,0.49010155114964815,1.440726341557849,0.18654438198748752,0.5553035607207175,0.07586338506010627,0.23041884319713557,0.08497169841552352,0.0798341384937492,0.14019689522718898,0.557260910949788,0.47534936064210087,0.2769999779986929,0.24473456025786391,0.4401139956827549,0.10352596691866432,0.3791492446661947,0.8395612032223841,0.2761736998922857,0.31515513490627683,0.8381703337925321,0.0833476323433977,0.4948068976669165,1.36967122399179,0.415329747008341,0.39345008955839833,1.3506052312172017,-0.03668117427788022,0.48687228023692863,1.0915175133605914,0.4719920250065596,0.29563776822508897,1.068847735770048,0.11646219393605806,0.7074483966154336,1.05362584577753,0.48059543343234873,0.4655215119531854,0.8574537238080027
0.2705966092523954,0.48403893183708674,1.4432804685755367,0.18683862795219533,0.5557962428124366,0.07594657928638754,0.22999206823875445,0.08539656449112382,0.07926778166053275,0.1407189909870697,0.5528715155954941,0.47545480494948056,0.2772380148885609,0.2398917990194771,0.4417499780317508,0.10611924222601422,0.3748816372043616,0.8399266124173311,0.27920536784730227,0.3120704677000026,0.8394864219329234,0.08093298791936415,0.48516533779982784,1.370284553211166,0.4144684901820365,0.38960766911426603,1.3535437177535716,-0.03660636000968513,0.4785078312559161,1.0910462814781192,0.4758902846148962,0.2968876023444115,1.0710609618945266,0.11803975387896579,0.6983434454566757,1.0550369823633436,0.47827810654833314,0.47636876503856984,0.867582667871714
0.26720754075027464,0.4777725012821401,1.4460275014162978,0.18730256475091325,0.5554455967751913,0.07574279150165218,0.23067959114665718,0.08437578279977245,0.07905509540903974,0.1425533065618712,0.5479838874069984,0.47535417239592587,0.2772910300045166,0.2368796994101425,0.4424611491592379,0.1094274625785856,0.3711260840115478,0.8405129325607708,0.2832149451024095,0.3103008072002099,0.8399338572519051,0.07845127082416355,0.4770256979283761,1.370692576781283,0.4142666854853016,0.3867647544755571,1.3570347750412792,-0.0371806867039603,0.47190488341346915,1.0906152698884797,0.4785363275079326,0.300508564394185,1.0731510739795649,0.11883046231567194,0.6909883191383072,1.0559217313334475,0.4740282827697011,0.48963421572127275,0.8786340657107194
0.2644775548580302,0.471711410283446,1.4483493829774996,0.18716292454717515,0.5562478995661609,0.07514860156988339,0.23169239865745844,0.0832454015569622,0.07894357733315123,0.1436174293001851,0.5439312549169797,0.4747732251526221,0.27935873541455736,0.23418577012294212,0.4428639757632186,0.11201258652720734,0.3674270861621655,0.8402349459946195,0.28628857865017227,0.3080081003299665,0.8402481581974831,0.07694487156043556,0.47154385758983464,1.3708452275135585,0.413409140320648,0.3825168201056962,1.3604629185222497,-0.03658880033347235,0.464243780382513,1.0899691003798464,0.4799369344881005,0.304732970650307,1.0746517887592364,0.11834623354305658,0.6843958100804342,1.0572544436912543,0.46755997468144594,0.5028494555690238,0.8896722580352969
0.26157907663030633,0.4660940460223133,1.4507817185899237,0.1876742791354784,0.5560548559604246,0.07518979053715857,0.23271865087624483,0.08291916066117186,0.0786215642852222,0.1439994029231111,0.5400464683951144,0.4746598237264635,0.28074477979363055,0.23136373179786499,0.44351865064887386,0.11455113063702885,0.36398639078668904,0.8405203980550496,0.28918816687738674,0.3055979005589175,0.8408025228664366,0.0750275230640544,0.46389205130594763,1.3701855330981652,0.41193222838535204,0.3781603806990073,1.3621786307401251,-0.03648130199940732,0.4585461382408327,1.088460513119343,0.48480798963898747,0.30853197993663684,1.075824647223152,0.11961639854065159,0.6783412957805337,1.0590201234476164,0.46484290258979677,0.5151623617817728,0.9010962339249212
0.25902430433126317,0.4607174248893035,1.4528027804083197,0.18765738376981994,0.5561831446975807,0.0753875434137397,0.2325277316453984,0.08278363296109922,0.07841207042906562,0.14474202862050886,0.5364459537610035,0.4747813438552914,0.2810737863714527,0.2291700952654783,0.44407328095989984,0.1165791358941375,0.36092872747373955,0.84099491227761,0.29124920815711186,0.30265080558219676,0.841449999566635,0.07314517064995091,0.4569775103411581,1.3704148514297827,0.4105731715556819,0.3734114448110269,1.3643325051560906,-0.03512684265132414,0.4535114229307566,1.087382298421779,0.4879536470238415,0.3151979259262975,1.0766077976790225,0.12158029167082757,0.6733132455640112,1.0614570838915318,0.4622858529796959,0.5286712213796491,0.911094947011732
0.2571969000572299,0.4550884711566343,1.4538853780531116,0.18766516827261595,0.5561003934064296,0.07511615686039264,0.23228123760691777,0.08274638251196066,0.07838983911708942,0.14555255772426212,0.5334593550810122,0.4744344365017022,0.281838083278428,0.22728913425396036,0.4446526058951953,0.11882080929203184,0.3573056008523508,0.8404500317012246,0.29374541507178353,0.29982480486968655,0.8421489787784848,0.0710451625523637,0.450452188689157,1.3705999415147798,0.4107983729447014,0.370055320228034,1.366667136195227,-0.033663183585839605,0.45006617404262017,1.0862188520083924,0.4887052298377883,0.3212043957400195,1.0773384363751146,0.12394032055154061,0.6695918043115835,1.0636252186946904,0.45327081488991294,0.5428515744524779,0.9249046254241045
0.25334713317368956,0.4493554113932155,1.4553362719831069,0.18810201901905352,0.5564110542970875,0.07515482969210527,0.2325850833604578,0.08241247113404113,0.07814700775454123,0.14642068469900035,0.5310010837008401,0.4743543987002723,0.2827242994825606,0.22656335536027178,0.4444886683478806,0.12100620869632174,0.35401579987569126,0.8400647947455333,0.29631738617520614,0.2977532895849539,0.8421687847545671,0.06907595593108978,0.44411970739175644,1.370524948221909,0.4103316857082171,0.36826050234852437,1.3666647119865498,-0.032453480513834454,0.4459666710069795,1.0849997438135597,0.4896516798822756,0.32611546260452234,1.0766768944755722,0.1250240067180486,0.6660258957580539,1.0672268752373697,0.4455066205100182,0.556073091475299,0.9395856769049976
0.2516103313299947,0.44389086930258753,1.4571577204190103,0.18812224732390553,0.556796121663243,0.0751416113856863,0.23316026912643464,0.08218309686988914,0.0774992732915127,0.1474971120634672,0.528645964039456,0.4742730430902269,0.28388335141253007,0.22572991845093437,0.4439933595814736,0.12258683918199535,0.35107922282800175,0.8397349801406813,0.2982487154529431,0.2959375219010713,0.841831579786524,0.06703519356533412,0.4375833691740437,1.370545599528851,0.41034428106367227,0.36561826274922127,1.3680390361964396,-0.030276111072311835,0.44286616454508293,1.083597676186499,0.48975300427083185,0.3350782244193353,1.0766247056610465,0.12535105401322905,0.664684675996289,1.0726874576319454,0.43808843457843083,0.571065593127653,0.9530705455031344
0.2501894707951798,0.43856435147615813,1.4585810638551266,0.18746925848385232,0.5574240698178645,0.07527523722415211,0.23320866404463977,0.08195461330095169,0.07734877891919616,0.14867322915446865,0.5254084746616542,0.47429725587240845,0.2853177628045335,0.22474380131775692,0.44393608960330444,0.12389183224279159,0.3474876093712368,0.8395908005929011,0.2998288764091577,0.2932215886392901,0.8420716269856752,0.06551572400582277,0.4308778933416115,1.3697391285991796,0.4087808826941327,0.36332752722928124,1.3690116811848099,-0.028692663843256923,0.4429191176941412,1.0819567192634825,0.4898595662302877,0.3436253556801811,1.077130902757235,0.1270748458629322,0.6648662313044483,1.0778673758382176,0.4308674279333935,0.5858140116089778,0.9699449294801956
0.24892277475857405,0.4333854652150808,1.4596577989600406,0.18744752434149908,0.5568677152366972,0.07557505783967633,0.23364638500086402,0.08171884031256514,0.0774552060330528,0.1499651222247277,0.5234227456300207,0.47459835202445516,0.2860611594135423,0.22445071401508243,0.4440266374445741,0.12594517461748242,0.34487235555211626,0.8396380671284474,0.3020685947995132,0.2912184706371712,0.8423907538545202,0.06442212701543056,0.42576602374200956,1.3697299452499732,0.4078957688098886,0.36082551929054013,1.3700501260115496,-0.027401974320305215,0.44329521023738394,1.081469346200804,0.49206295952033563,0.35157785418655385,1.07852268335825,0.13009180293355693,0.6640504505647208,1.082179764693377,0.42336747532088526,0.5970593845619796,0.9855610648428024
0.24778941120915593,0.42856858812279436,1.460655864461555,0.18818500759813658,0.5570423350879438,0.07536611240169705,0.23462591735303015,0.08119156849157338,0.07770600585038763,0.15096986387149022,0.5210264279067177,0.4741980771037751,0.2867072738100633,0.2240618413702636,0.4442742489231159,0.12812998227694186,0.34312514667640315,0.8396347117036445,0.30444576089944553,0.2901510416957381,0.8426795013974587,0.06333259108019691,0.4208260654398715,1.3701203690506587,0.4065231464988366,0.3590899485277543,1.371850470042928,-0.026214603699943374,0.44214848109932275,1.0813953674918177,0.493599724970984,0.35846763974266976,1.0810214352104859,0.13256846411416992,0.6618763775592257,1.0881851421516333,0.4180820288970751,0.6063579570708247,1.0005915619740002
0.24575444331319424,0.42436859944097516,1.4617461474191507,0.188893184133082,0.5568248921452214,0.07513137043616802,0.23492730220914335,0.08162877177684999,0.07755152627084472,0.15192942114327745,0.5186379548892237,0.4737783361494446,0.2871512270626369,0.22366661583009187,0.4444270896331932,0.12950288250164296,0.34157543743763363,0.8396423938609563,0.30600651653977345,0.2892183702351382,0.8428622319679577,0.06279856839102643,0.41621754250336296,1.3698462195242171,0.4050661864476738,0.35692529117021116,1.3734755126335614,-0.02446599355125741,0.44268399473137826,1.0808369184966888,0.4927444432016231,0.3647967060044218,1.0829329241809704,0.13598274302317487,0.6608054978512986,1.0956359373704563,0.4117183207224778,0.6151651905850141,1.0168112655879553
0.24556266692783585,0.420687740233197,1.4624747953045665,0.18923367270928065,0.5562968093562871,0.07539805357356293,0.23456126148355033,0.08223336585014507,0.077700726992356,0.15277995853632767,0.517137874701345,0.47400064476798426,0.28832677268330703,0.22429345669854062,0.44433625219838085,0.13047508123466098,0.3396480176466359,0.8396700958118706,0.30725760859437945,0.28825452950018715,0.8430351914791628,0.061508001331160314,0.41162058249018274,1.3695060642768717,0.40404101281141586,0.3552171304435964,1.3755831414153283,-0.021208927265927584,0.4433245421804222,1.0796915695824163,0.49140186548459786,0.3717419491268461,1.085304941208803,0.1380249236960317,0.6616134744150743,1.1028538840830169,0.40372960469939817,0.6231040228735256,1.0328655868153374
0.24436916170098597,0.4173627663275379,1.4634283528253191,0.18847068090879043,0.5564877702827631,0.07561372524219775,0.2342981886477223,0.08243816303928395,0.07826427752555126,0.1533416227320945,0.5152875038697382,0.4741263292247104,0.29002059519927675,0.22554814700783343,0.4442010228849235,0.13119362199309795,0.3384383684832293,0.8401235123722121,0.308010551104731,0.287164209562066,0.8433076271734451,0.06145395458541734,0.40800428048616316,1.3700751562942202,0.40318774818111625,0.3538690444369204,1.3763831856859596,-0.018938034753278245,0.4432823687501316,1.080021214527705,0.49090442335104156,0.3780883338071297,1.0867618737712166,0.13918589399679304,0.6612795916851294,1.1118568353671316,0.3968184274919223,0.6296575624176554,1.048265769990788
0.244078047182831,0.41411227572660286,1.4640554581801188,0.18810875560741247,0.5562983674296851,0.07538939593520556,0.23460476656524698,0.08197484284400726,0.07846517644895322,0.1538411886406351,0.5137550336010054,0.4738377677056677,0.2913074550359395,0.22501781124703174,0.4442693116349034,0.13180265121999238,0.3374535315819343,0.8401014680130278,0.30859353671815837,0.28607782752696065,0.8434955022565973,0.06147241796426408,0.40622005929146016,1.3711112425630043,0.40256128119729645,0.35344940018475235,1.37755611629002,-0.017240921728945834,0.4431065595956145,1.0807948819191786,0.4904313937089356,0.3822961412907594,1.0884036690783432,0.1399368114301273,0.6606250503408837,1.1197972602565174,0.39113365156378954,0.6337093401436015,1.0648911355178587
0.24348466089376275,0.4111562488118885,1.4647475565971684,0.18875663032263326,0.5561249708861531,0.07594268376239546,0.2362186116627416,0.0817322802121196,0.07905894791377666,0.15451440941791558,0.5126506686013665,0.4742995814072269,0.29306732873287616,0.22521145254497962,0.44467784905110225,0.13281405846186142,0.3359470686520175,0.8403810676578876,0.3099394140191831,0.28576822316143446,0.8440041475070637,0.06136727787102061,0.4036540085587216,1.371598220866372,0.40269600872312106,0.352625890099624,1.3786851459377534,-0.014391925194788616,0.4452712751483182,1.081139745370148,0.489879647078302,0.38772877200512507,1.0900175528667089,0.1436457009592448,0.6603734354814313,1.129055807976504,0.3845460747538123,0.637591826531526,1.08010373341362
0.24347157498529254,0.40846950563841306,1.464724406599531,0.18890857086092325,0.5564041873768113,0.07623712220406223,0.23767801719420165,0.08176425144932879,0.07867791367254087,0.15468758328689383,0.5112498515313024,0.47440073774674424,0.2937742274457727,0.2251874516356481,0.44443095735538213,0.13361334877706402,0.33472555215205985,0.8406112868908443,0.3109304885856757,0.2852108534557693,0.8438235907634861,0.06138876413589716,0.40151111962959635,1.3716356033120127,0.40175943580100193,0.35066143925436644,1.3792770963809096,-0.012364810956954636,0.4485684600186913,1.0814906440094252,0.48815751585231737,0.3930608569465003,1.0913485162947871,0.14882356270198288,0.6590172716808356,1.1386795155267841,0.3739115606795063,0.639146142484903,1.094834849934477
0.2426120474611648,0.40684811427461987,1.4651335188388566,0.1894123847917513,0.5561391595746396,0.0763303340962057,0.2381386200949449,0.08180776123201844,0.07842385635382328,0.1551833743033868,0.510201222566165,0.47440583976416495,0.29309576498630946,0.2249992047412626,0.44444338953207396,0.1345789054007035,0.3332861305380791,0.8404536944334666,0.3120889933034773,0.2844583753530481,0.8438338886582278,0.061223264242970414,0.3988429095264748,1.3735741319230739,0.4016732414369441,0.3498080842991955,1.3799023363141916,-0.011585024037433935,0.4459761985975243,1.0832007436894244,0.48690890261607145,0.3968480525663746,1.092351567322651,0.1490943940604166,0.6553122331797159,1.1456570449060954,0.3639377033646554,0.6380356102945606,1.1104798709176786
0.24161665432134857,0.4057457621486138,1.4647843005180778,0.1892563633788059,0.5559431325981495,0.07652482216335701,0.23822285398966891,0.08279177026185654,0.07877467070459043,0.15560430863142832,0.5089619295285941,0.47452454751250944,0.2935897989506414,0.22553060442151612,0.44491247094500586,0.13580225813956956,0.3320803341817681,0.8406333696877152,0.313595301128734,0.28432486119771205,0.8443517710799073,0.062164648822022606,0.39689092387348185,1.3750258542985347,0.40280387186654215,0.34908868514159114,1.379002242292028,-0.011492771279853879,0.44442165408537715,1.0849266560809228,0.4842015037491273,0.40409104961738507,1.091764334835318,0.14863935995704608,0.6525772773421545,1.1525308095588978,0.35555514352543954,0.6408130715706908,1.1239438687178633
0.242331816843786,0.40463989451397503,1.464951603998844,0.18913258130997443,0.555900811466239,0.07666259614427667,0.23784358674110814,0.08308839559112564,0.07866156837185243,0.15647171502568166,0.5082469811674893,0.4746636693590952,0.29393278626378355,0.22575033653764218,0.44471674363263763,0.13681419464540337,0.3319210935215064,0.8410526044749446,0.314781093254488,0.2847842658242138,0.8440834971416897,0.062188445414992015,0.39578176477258936,1.3732750159361227,0.4044571835779573,0.34831178683385533,1.3794426220516556,-0.011196574771080697,0.4489441660885083,1.0840935960259466,0.4812152259538965,0.41081491639783035,1.0924453327247874,0.15138035720223184,0.6533245130461371,1.15715321920288,0.34850368989665526,0.6435248683681704,1.1355165772454503
0.24267742852681837,0.4029889616049444,1.4657870325758264,0.18902144209022703,0.5558112450910877,0.07705424186028637,0.23734426242932874,0.08311081052242072,0.07886647485092117,0.15675947527811004,0.5077925580104502,0.4750454246087699,0.2946730695951379,0.225242265432605,0.44493493473781853,0.13755393629046542,0.33222281862305436,0.8418169176245468,0.3154833630417043,0.28489043863666735,0.8442088952453622,0.06116223605914745,0.3952680388979303,1.3707910095430684,0.4053484669299242,0.34833161016538755,1.3802705649354121,-0.008757133871342472,0.45453533230652643,1.0819434739842608,0.4804741741291857,0.4133762150020432,1.093410326572475,0.1549531728415226,0.6547511141649687,1.163494421387936,0.3449034773844907,0.642383698877039,1.1463471753294636
0.24267888073128335,0.4021813459165191,1.4661351972390044,0.18943431965542185,0.5554680824885562,0.07685458570917833,0.2372078387250669,0.0829352319962806,0.07942941939023893,0.15706168550512398,0.5080687876380723,0.4749123970684893,0.2956922846327645,0.22585130583605395,0.4450131567848057,0.13843640667549728,0.332000984150408,0.8414678370429349,0.31666650517198985,0.2858518996894819,0.8442237876565637,0.06011603635580509,0.39563075484452875,1.370972974938913,0.4068252309242945,0.3484261467252593,1.3798722159184245,-0.008615185677815825,0.45383424002789163,1.0816127711231422,0.47963092587043316,0.4161579558768231,1.093042399939641,0.15318146592221582,0.6540019235234773,1.1670118846685371,0.3401401877086563,0.6406015162263266,1.1546465026897919
0.24174348152800718,0.40165273914355903,1.4664428306357455,0.18897755684570366,0.55544178063463,0.07630441306793234,0.2371315157494355,0.08213299025472413,0.07955928444453883,0.15742703209849818,0.5081880772744684,0.4744481931287183,0.2959109880910936,0.226349472357797,0.44458258324047334,0.1390341409900351,0.3319477942932767,0.8409360316189042,0.317318936230023,0.2860179720405226,0.8438202067316158,0.0597345835893562,0.39483039118602775,1.369356889816433,0.4067873079111404,0.34854195223120865,1.3808601579035842,-0.0077001541555545335,0.4558158764093192,1.0802705960684862,0.4775488083458804,0.41796579830478053,1.0939220671438419,0.15474236795823712,0.6537349173017588,1.1696063219302706,0.33545833549654736,0.6393328459765256,1.1604846991176394
0.24158774939067637,0.40131777738996244,1.4661696446411072,0.18881357394717466,0.5561156231587214,0.07613278675186622,0.23651580985809192,0.08225761291458114,0.07975446685273631,0.15756071794970805,0.5080678739744539,0.47420361114127896,0.29668497035837293,0.22600225340944552,0.4447350556417978,0.1399395516787006,0.33256465262968254,0.8410819115037694,0.3181186873082325,0.28620182839637315,0.8438984764207421,0.05993896183642972,0.3927475481723802,1.3689215978477198,0.4058290531319018,0.3488072862456857,1.3817678998343257,-0.007095989150042474,0.4557449926075432,1.0801701222388287,0.47624041358394437,0.4189772624572258,1.0949242947656166,0.15604199492662696,0.6521008934469913,1.1716624660558084,0.3330682095362433,0.6385133956246706,1.165154383970284
0.24201619066157326,0.4010772492692777,1.4663714649543507,0.18936825174508579,0.5561488964842786,0.07659860635946691,0.23549562920334385,0.08225811645517289,0.08003339760483816,0.157682053673291,0.5083117025015457,0.47466636136924123,0.29815299930599587,0.22610893469461002,0.4445569473771188,0.1406636258192467,0.3324485144840651,0.8413991977713673,0.3189933940430945,0.2866274633631274,0.8436971829283566,0.05985887147716823,0.3924942681704403,1.3689636592233019,0.4058466546336629,0.34941891734463243,1.3818283453329574,-0.00604703371138316,0.4549567792299654,1.079828656931454,0.47558830983665207,0.42015938218780247,1.094951404708966,0.15722355971377422,0.6502829115230658,1.1732692448467368,0.33156596208461564,0.6380666125601598,1.1684133152406544
0.24155813304098625,0.4011558805434398,1.4666047155677373,0.18971146239964273,0.5559014475885201,0.07635657459507308,0.23567548604305288,0.08242451785534857,0.07964678700571376,0.1581271084162279,0.5084424125454146,0.4744785783496948,0.2982870523774678,0.22607395450361126,0.44426233667875875,0.14145750326019155,0.3328493451993736,0.8413601700261303,0.31969538903555894,0.28667843386996006,0.8433544364170453,0.05983143743690601,0.3930578515819258,1.3695756497006601,0.405713142579606,0.34955038533940014,1.3818802079822627,-0.005542823685413819,0.4532262674824271,1.0798501550813044,0.47580013627974926,0.4207242202831942,1.0952055849718718,0.15775096157891152,0.647592967879674,1.175241044942007,0.32968501589522425,0.6367251359627799,1.1701706627093609
0.24179611805881626,0.4009316401471781,1.4668042369267165,0.18971411698494342,0.5555164185273228,0.07613689016901148,0.2350928170110272,0.08257410595526843,0.0794256620380518,0.15814520086619538,0.5083827442876683,0.47429323459949696,0.2985810334683793,0.22537486857996503,0.44421610947432144,0.141585661599634,0.3330640636822435,0.8413163518367417,0.31996275192720364,0.28744428641035424,0.8430947015526284,0.05933826307904105,0.392218654369242,1.3692008274043441,0.40574661663596995,0.3498913815542778,1.3817682345284907,-0.005731413481897161,0.4541016646535576,1.079755094403429,0.4757415147488141,0.4213835816847011,1.0951432899071611,0.15758313474877145,0.6475924827436742,1.1768679728205544,0.3277872400496318,0.6358523311341912,1.1708783344410405
0.24119368415755105,0.4018574199360955,1.4663457373042816,0.19011770514059637,0.5556152986468381,0.07625031557398596,0.23498492077805636,0.08223337526921434,0.07961895795243025,0.1586318994145816,0.5092070762686923,0.47449911719759696,0.2957949050688418,0.2248533017933107,0.4449425054691106,0.14192320981334675,0.3334183662837258,0.8412897493798717,0.32052381075281056,0.2886603871936353,0.8433377935710507,0.05886991000083423,0.3926324534741184,1.3689194233886808,0.4061726399048315,0.3501286490457817,1.382284468209684,-0.0053586377144240055,0.4548689950792325,1.0793704680796792,0.47535069806613306,0.42141920000800587,1.0954142102940325,0.1579160281949999,0.6488048365081178,1.1756581558102477,0.32739796338426314,0.6359645322809198,1.1709234096813967
0.24041771047887658,0.40225764776538714,1.4665395441458489,0.19016391081038694,0.5558508908286213,0.076042656588872,0.23469167903824903,0.08240673997965396,0.07965968282897806,0.158764390879913,0.5096432529070607,0.47431947801052976,0.29441248023694006,0.22498859636669374,0.44517770118636363,0.14235996035720924,0.33451744207977857,0.8414386656975105,0.3207815668835197,0.289062492497474,0.8434255027500279,0.0583308145448638,0.39311451352496596,1.3684471977650001,0.4057527531413333,0.35057564707188094,1.3823596022210685,-0.0049111435366321066,0.45598293374152954,1.0788133465018706,0.4759432898981308,0.42113038624370525,1.0955595831216707,0.15891756265159743,0.6492571300189562,1.1754933840905617,0.32839545915641755,0.6361240064467069,1.170604578692704
0.2411669004687321,0.40290137721966784,1.4664319292281676,0.1900564186268076,0.5556158210206759,0.07633230288808933,0.23439833113389683,0.08264353058333333,0.08001967607504207,0.15873142156277076,0.5098761360932083,0.47466877746844155,0.29489783636573635,0.22462094089687046,0.44563956196964094,0.14265649030016533,0.3350864389957333,0.8419584617874096,0.3211149042652497,0.28977665818926074,0.843725256154543,0.058753993057589556,0.3945036366728707,1.3691926718741911,0.4057046015522577,0.3511873037060712,1.3822720150340377,-0.005596287161236227,0.45307926998489534,1.0789135834048362,0.47635394334152464,0.42120709921249033,1.0954510440505114,0.15777453605948338,0.6474257062794467,1.1741837663916443,0.3277793046339038,0.6357358575667718,1.1697963894456822
0.24115395074490856,0.4045906851371673,1.4654741154135915,0.18952181754257524,0.5556402778294649,0.07617392978378927,0.23423917711385456,0.0824620308190056,0.0796828697213345,0.1590385687599166,0.5105497442619037,0.4746537940597173,0.2945405546292738,0.22431132083001018,0.4453828472563498,0.14284582290135336,0.335060224686196,0.8416038212010787,0.3213256838255676,0.2897997459877101,0.8433835867271866,0.05947833451406487,0.3945965923734518,1.3696720240983442,0.40578495602033865,0.3517823150113568,1.3822783959680383,-0.00605373148323787,0.45052431005830207,1.0791301890831073,0.4772938336201277,0.42192876709661653,1.0956972852740632,0.1562756575575015,0.6469258012593759,1.1719384204833634,0.32791951942618086,0.6364314280618479,1.1685097370181083
0.2407127555904189,0.40590824110862134,1.465047970340415,0.1892789509648119,0.5559202998409517,0.07580577341068523,0.23427355317402465,0.08231671684879592,0.07937738347134626,0.1592194101084738,0.5106717308291755,0.474296843886617,0.29484679693457294,0.22405435804286672,0.44508193404181257,0.14370813197332055,0.3351096169514602,0.8412413459885913,0.3221671120151986,0.28978724932551525,0.8430007235484387,0.05956737741279828,0.39610659842686413,1.3672185894277002,0.4050286682966562,0.35275068397125636,1.3825794611123425,-0.005141662514501589,0.4549726583059137,1.0770730030346283,0.47810996335391376,0.42194921550893866,1.0961703259366284,0.15839446362920273,0.6496360161936284,1.1714253952268365,0.32925654898659745,0.6373626021917654,1.1673429738809296
0.24097899987454696,0.4074729056498378,1.4650516657201091,0.1898512513807715,0.5564597243456969,0.07580075919420401,0.23516110997057446,0.0824271078061326,0.0797343075626985,0.15956668249827693,0.5114634090935796,0.47430354844832334,0.29554377392790737,0.22500264455546728,0.4451374805236878,0.1439891297477891,0.33520979285946445,0.8409152687141465,0.3224064717079345,0.2897498140147021,0.8432482901546973,0.06007802558903523,0.3982730458684115,1.3666121278726633,0.4055145578204999,0.35363370855058146,1.3826816233224337,-0.004547505197026633,0.4561439794854463,1.0762442161733727,0.4780976868571872,0.42246518387570875,1.0960558722437415,0.16008084277018375,0.6505222561626112,1.1692786245083675,0.32909436187964264,0.6379404481279326,1.1667084086007742
0.24136,0.40906,1.46489,0.19037,0.5563,0.07595,0.23623,0.08239,0.07963,0.15984,0.51177,0.47448,0.29586,0.22497,0.44516,0.14387,0.33551,0.84107,0.32216,0.28956,0.84334,0.06073,0.39878,1.36639,0.40552,0.35498,1.38242,-0.0041,0.45667,1.07607,0.47899,0.42285,1.09578,0.16009,0.65195,1.16797,0.33062,0.63872,1.16656
,,,,,,,,,,,,,,,,,,,,,,,,,,,,,,,,,,,,,,
,,,,,,,,,,,,,,,,,,,,,,,,,,,,,,,,,,,,,,
,,,,,,,,,,,,,,,,,,,,,,,,,,,,,,,,,,,,,,
,,,,,,,,,,,,,,,,,,,,,,,,,,,,,,,,,,,,,,
,,,,,,,,,,,,,,,,,,,,,,,,,,,,,,,,,,,,,,
,,,,,,,,,,,,,,,,,,,,,,,,,,,,,,,,,,,,,,
,,,,,,,,,,,,,,,,,,,,,,,,,,,,,,,,,,,,,,
,,,,,,,,,,,,,,,,,,,,,,,,,,,,,,,,,,,,,,
,,,,,,,,,,,,,,,,,,,,,,,,,,,,,,,,,,,,,,
,,,,,,,,,,,,,,,,,,,,,,,,,,,,,,,,,,,,,,
,,,,,,,,,,,,,,,,,,,,,,,,,,,,,,,,,,,,,,
,,,,,,,,,,,,,,,,,,,,,,,,,,,,,,,,,,,,,,
,,,,,,,,,,,,,,,,,,,,,,,,,,,,,,,,,,,,,,
,,,,,,,,,,,,,,,,,,,,,,,,,,,,,,,,,,,,,,
,,,,,,,,,,,,,,,,,,,,,,,,,,,,,,,,,,,,,,
,,,,,,,,,,,,,,,,,,,,,,,,,,,,,,,,,,,,,,
,,,,,,,,,,,,,,,,,,,,,,,,,,,,,,,,,,,,,,
,,,,,,,,,,,,,,,,,,,,,,,,,,,,,,,,,,,,,,
,,,,,,,,,,,,,,,,,,,,,,,,,,,,,,,,,,,,,,
,,,,,,,,,,,,,,,,,,,,,,,,,,,,,,,,,,,,,,
,,,,,,,,,,,,,,,,,,,,,,,,,,,,,,,,,,,,,,
,,,,,,,,,,,,,,,,,,,,,,,,,,,,,,,,,,,,,,
,,,,,,,,,,,,,,,,,,,,,,,,,,,,,,,,,,,,,,
,,,,,,,,,,,,,,,,,,,,,,,,,,,,,,,,,,,,,,
,,,,,,,,,,,,,,,,,,,,,,,,,,,,,,,,,,,,,,
,,,,,,,,,,,,,,,,,,,,,,,,,,,,,,,,,,,,,,
,,,,,,,,,,,,,,,,,,,,,,,,,,,,,,,,,,,,,,
,,,,,,,,,,,,,,,,,,,,,,,,,,,,,,,,,,,,,,
,,,,,,,,,,,,,,,,,,,,,,,,,,,,,,,,,,,,,,
,,,,,,,,,,,,,,,,,,,,,,,,,,,,,,,,,,,,,,
,,,,,,,,,,,,,,,,,,,,,,,,,,,,,,,,,,,,,,
,,,,,,,,,,,,,,,,,,,,,,,,,,,,,,,,,,,,,,
,,,,,,,,,,,,,,,,,,,,,,,,,,,,,,,,,,,,,,
,,,,,,,,,,,,,,,,,,,,,,,,,,,,,,,,,,,,,,
,,,,,,,,,,,,,,,,,,,,,,,,,,,,,,,,,,,,,,
,,,,,,,,,,,,,,,,,,,,,,,,,,,,,,,,,,,,,,
,,,,,,,,,,,,,,,,,,,,,,,,,,,,,,,,,,,,,,
,,,,,,,,,,,,,,,,,,,,,,,,,,,,,,,,,,,,,,
,,,,,,,,,,,,,,,,,,,,,,,,,,,,,,,,,,,,,,
,,,,,,,,,,,,,,,,,,,,,,,,,,,,,,,,,,,,,,
,,,,,,,,,,,,,,,,,,,,,,,,,,,,,,,,,,,,,,
,,,,,,,,,,,,,,,,,,,,,,,,,,,,,,,,,,,,,,
,,,,,,,,,,,,,,,,,,,,,,,,,,,,,,,,,,,,,,
,,,,,,,,,,,,,,,,,,,,,,,,,,,,,,,,,,,,,,
,,,,,,,,,,,,,,,,,,,,,,,,,,,,,,,,,,,,,,
,,,,,,,,,,,,,,,,,,,,,,,,,,,,,,,,,,,,,,
,,,,,,,,,,,,,,,,,,,,,,,,,,,,,,,,,,,,,,
,,,,,,,,,,,,,,,,,,,,,,,,,,,,,,,,,,,,,,
,,,,,,,,,,,,,,,,,,,,,,,,,,,,,,,,,,,,,,
,,,,,,,,,,,,,,,,,,,,,,,,,,,,,,,,,,,,,,
,,,,,,,,,,,,,,,,,,,,,,,,,,,,,,,,,,,,,,
,,,,,,,,,,,,,,,,,,,,,,,,,,,,,,,,,,,,,,
,,,,,,,,,,,,,,,,,,,,,,,,,,,,,,,,,,,,,,
,,,,,,,,,,,,,,,,,,,,,,,,,,,,,,,,,,,,,,
,,,,,,,,,,,,,,,,,,,,,,,,,,,,,,,,,,,,,,
,,,,,,,,,,,,,,,,,,,,,,,,,,,,,,,,,,,,,,
,,,,,,,,,,,,,,,,,,,,,,,,,,,,,,,,,,,,,,
,,,,,,,,,,,,,,,,,,,,,,,,,,,,,,,,,,,,,,
,,,,,,,,,,,,,,,,,,,,,,,,,,,,,,,,,,,,,,
,,,,,,,,,,,,,,,,,,,,,,,,,,,,,,,,,,,,,,
,,,,,,,,,,,,,,,,,,,,,,,,,,,,,,,,,,,,,,
,,,,,,,,,,,,,,,,,,,,,,,,,,,,,,,,,,,,,,
,,,,,,,,,,,,,,,,,,,,,,,,,,,,,,,,,,,,,,
,,,,,,,,,,,,,,,,,,,,,,,,,,,,,,,,,,,,,,
,,,,,,,,,,,,,,,,,,,,,,,,,,,,,,,,,,,,,,
,,,,,,,,,,,,,,,,,,,,,,,,,,,,,,,,,,,,,,
,,,,,,,,,,,,,,,,,,,,,,,,,,,,,,,,,,,,,,
,,,,,,,,,,,,,,,,,,,,,,,,,,,,,,,,,,,,,,
,,,,,,,,,,,,,,,,,,,,,,,,,,,,,,,,,,,,,,
,,,,,,,,,,,,,,,,,,,,,,,,,,,,,,,,,,,,,,
,,,,,,,,,,,,,,,,,,,,,,,,,,,,,,,,,,,,,,
,,,,,,,,,,,,,,,,,,,,,,,,,,,,,,,,,,,,,,
,,,,,,,,,,,,,,,,,,,,,,,,,,,,,,,,,,,,,,
,,,,,,,,,,,,,,,,,,,,,,,,,,,,,,,,,,,,,,
,,,,,,,,,,,,,,,,,,,,,,,,,,,,,,,,,,,,,,
,,,,,,,,,,,,,,,,,,,,,,,,,,,,,,,,,,,,,,
,,,,,,,,,,,,,,,,,,,,,,,,,,,,,,,,,,,,,,
,,,,,,,,,,,,,,,,,,,,,,,,,,,,,,,,,,,,,,
,,,,,,,,,,,,,,,,,,,,,,,,,,,,,,,,,,,,,,
,,,,,,,,,,,,,,,,,,,,,,,,,,,,,,,,,,,,,,
,,,,,,,,,,,,,,,,,,,,,,,,,,,,,,,,,,,,,,
,,,,,,,,,,,,,,,,,,,,,,,,,,,,,,,,,,,,,,
,,,,,,,,,,,,,,,,,,,,,,,,,,,,,,,,,,,,,,
,,,,,,,,,,,,,,,,,,,,,,,,,,,,,,,,,,,,,,
,,,,,,,,,,,,,,,,,,,,,,,,,,,,,,,,,,,,,,
,,,,,,,,,,,,,,,,,,,,,,,,,,,,,,,,,,,,,,
,,,,,,,,,,,,,,,,,,,,,,,,,,,,,,,,,,,,,,
,,,,,,,,,,,,,,,,,,,,,,,,,,,,,,,,,,,,,,
,,,,,,,,,,,,,,,,,,,,,,,,,,,,,,,,,,,,,,
,,,,,,,,,,,,,,,,,,,,,,,,,,,,,,,,,,,,,,
,,,,,,,,,,,,,,,,,,,,,,,,,,,,,,,,,,,,,,
,,,,,,,,,,,,,,,,,,,,,,,,,,,,,,,,,,,,,,
,,,,,,,,,,,,,,,,,,,,,,,,,,,,,,,,,,,,,,
,,,,,,,,,,,,,,,,,,,,,,,,,,,,,,,,,,,,,,
,,,,,,,,,,,,,,,,,,,,,,,,,,,,,,,,,,,,,,
,,,,,,,,,,,,,,,,,,,,,,,,,,,,,,,,,,,,,,
,,,,,,,,,,,,,,,,,,,,,,,,,,,,,,,,,,,,,,
,,,,,,,,,,,,,,,,,,,,,,,,,,,,,,,,,,,,,,
,,,,,,,,,,,,,,,,,,,,,,,,,,,,,,,,,,,,,,
,,,,,,,,,,,,,,,,,,,,,,,,,,,,,,,,,,,,,,
,,,,,,,,,,,,,,,,,,,,,,,,,,,,,,,,,,,,,,
,,,,,,,,,,,,,,,,,,,,,,,,,,,,,,,,,,,,,,
,,,,,,,,,,,,,,,,,,,,,,,,,,,,,,,,,,,,,,
,,,,,,,,,,,,,,,,,,,,,,,,,,,,,,,,,,,,,,
,,,,,,,,,,,,,,,,,,,,,,,,,,,,,,,,,,,,,,
,,,,,,,,,,,,,,,,,,,,,,,,,,,,,,,,,,,,,,
,,,,,,,,,,,,,,,,,,,,,,,,,,,,,,,,,,,,,,
,,,,,,,,,,,,,,,,,,,,,,,,,,,,,,,,,,,,,,
,,,,,,,,,,,,,,,,,,,,,,,,,,,,,,,,,,,,,,
,,,,,,,,,,,,,,,,,,,,,,,,,,,,,,,,,,,,,,
,,,,,,,,,,,,,,,,,,,,,,,,,,,,,,,,,,,,,,
,,,,,,,,,,,,,,,,,,,,,,,,,,,,,,,,,,,,,,
,,,,,,,,,,,,,,,,,,,,,,,,,,,,,,,,,,,,,,
,,,,,,,,,,,,,,,,,,,,,,,,,,,,,,,,,,,,,,
,,,,,,,,,,,,,,,,,,,,,,,,,,,,,,,,,,,,,,
,,,,,,,,,,,,,,,,,,,,,,,,,,,,,,,,,,,,,,
,,,,,,,,,,,,,,,,,,,,,,,,,,,,,,,,,,,,,,
,,,,,,,,,,,,,,,,,,,,,,,,,,,,,,,,,,,,,,
,,,,,,,,,,,,,,,,,,,,,,,,,,,,,,,,,,,,,,
,,,,,,,,,,,,,,,,,,,,,,,,,,,,,,,,,,,,,,
,,,,,,,,,,,,,,,,,,,,,,,,,,,,,,,,,,,,,,
,,,,,,,,,,,,,,,,,,,,,,,,,,,,,,,,,,,,,,
,,,,,,,,,,,,,,,,,,,,,,,,,,,,,,,,,,,,,,
,,,,,,,,,,,,,,,,,,,,,,,,,,,,,,,,,,,,,,
,,,,,,,,,,,,,,,,,,,,,,,,,,,,,,,,,,,,,,
,,,,,,,,,,,,,,,,,,,,,,,,,,,,,,,,,,,,,,
,,,,,,,,,,,,,,,,,,,,,,,,,,,,,,,,,,,,,,
,,,,,,,,,,,,,,,,,,,,,,,,,,,,,,,,,,,,,,
,,,,,,,,,,,,,,,,,,,,,,,,,,,,,,,,,,,,,,
,,,,,,,,,,,,,,,,,,,,,,,,,,,,,,,,,,,,,,
,,,,,,,,,,,,,,,,,,,,,,,,,,,,,,,,,,,,,,
,,,,,,,,,,,,,,,,,,,,,,,,,,,,,,,,,,,,,,
,,,,,,,,,,,,,,,,,,,,,,,,,,,,,,,,,,,,,,
,,,,,,,,,,,,,,,,,,,,,,,,,,,,,,,,,,,,,,
,,,,,,,,,,,,,,,,,,,,,,,,,,,,,,,,,,,,,,
,,,,,,,,,,,,,,,,,,,,,,,,,,,,,,,,,,,,,,
,,,,,,,,,,,,,,,,,,,,,,,,,,,,,,,,,,,,,,
,,,,,,,,,,,,,,,,,,,,,,,,,,,,,,,,,,,,,,
,,,,,,,,,,,,,,,,,,,,,,,,,,,,,,,,,,,,,,
,,,,,,,,,,,,,,,,,,,,,,,,,,,,,,,,,,,,,,
,,,,,,,,,,,,,,,,,,,,,,,,,,,,,,,,,,,,,,
,,,,,,,,,,,,,,,,,,,,,,,,,,,,,,,,,,,,,,
,,,,,,,,,,,,,,,,,,,,,,,,,,,,,,,,,,,,,,
,,,,,,,,,,,,,,,,,,,,,,,,,,,,,,,,,,,,,,
,,,,,,,,,,,,,,,,,,,,,,,,,,,,,,,,,,,,,,
,,,,,,,,,,,,,,,,,,,,,,,,,,,,,,,,,,,,,,
,,,,,,,,,,,,,,,,,,,,,,,,,,,,,,,,,,,,,,
,,,,,,,,,,,,,,,,,,,,,,,,,,,,,,,,,,,,,,
,,,,,,,,,,,,,,,,,,,,,,,,,,,,,,,,,,,,,,
,,,,,,,,,,,,,,,,,,,,,,,,,,,,,,,,,,,,,,
,,,,,,,,,,,,,,,,,,,,,,,,,,,,,,,,,,,,,,
,,,,,,,,,,,,,,,,,,,,,,,,,,,,,,,,,,,,,,
,,,,,,,,,,,,,,,,,,,,,,,,,,,,,,,,,,,,,,
,,,,,,,,,,,,,,,,,,,,,,,,,,,,,,,,,,,,,,
,,,,,,,,,,,,,,,,,,,,,,,,,,,,,,,,,,,,,,
,,,,,,,,,,,,,,,,,,,,,,,,,,,,,,,,,,,,,,
,,,,,,,,,,,,,,,,,,,,,,,,,,,,,,,,,,,,,,
,,,,,,,,,,,,,,,,,,,,,,,,,,,,,,,,,,,,,,
,,,,,,,,,,,,,,,,,,,,,,,,,,,,,,,,,,,,,,
,,,,,,,,,,,,,,,,,,,,,,,,,,,,,,,,,,,,,,
,,,,,,,,,,,,,,,,,,,,,,,,,,,,,,,,,,,,,,
,,,,,,,,,,,,,,,,,,,,,,,,,,,,,,,,,,,,,,
,,,,,,,,,,,,,,,,,,,,,,,,,,,,,,,,,,,,,,
,,,,,,,,,,,,,,,,,,,,,,,,,,,,,,,,,,,,,,
,,,,,,,,,,,,,,,,,,,,,,,,,,,,,,,,,,,,,,
,,,,,,,,,,,,,,,,,,,,,,,,,,,,,,,,,,,,,,
,,,,,,,,,,,,,,,,,,,,,,,,,,,,,,,,,,,,,,
,,,,,,,,,,,,,,,,,,,,,,,,,,,,,,,,,,,,,,
,,,,,,,,,,,,,,,,,,,,,,,,,,,,,,,,,,,,,,
,,,,,,,,,,,,,,,,,,,,,,,,,,,,,,,,,,,,,,
,,,,,,,,,,,,,,,,,,,,,,,,,,,,,,,,,,,,,,
,,,,,,,,,,,,,,,,,,,,,,,,,,,,,,,,,,,,,,
,,,,,,,,,,,,,,,,,,,,,,,,,,,,,,,,,,,,,,
,,,,,,,,,,,,,,,,,,,,,,,,,,,,,,,,,,,,,,
,,,,,,,,,,,,,,,,,,,,,,,,,,,,,,,,,,,,,,
,,,,,,,,,,,,,,,,,,,,,,,,,,,,,,,,,,,,,,
,,,,,,,,,,,,,,,,,,,,,,,,,,,,,,,,,,,,,,
,,,,,,,,,,,,,,,,,,,,,,,,,,,,,,,,,,,,,,
,,,,,,,,,,,,,,,,,,,,,,,,,,,,,,,,,,,,,,
,,,,,,,,,,,,,,,,,,,,,,,,,,,,,,,,,,,,,,
,,,,,,,,,,,,,,,,,,,,,,,,,,,,,,,,,,,,,,
,,,,,,,,,,,,,,,,,,,,,,,,,,,,,,,,,,,,,,
,,,,,,,,,,,,,,,,,,,,,,,,,,,,,,,,,,,,,,
,,,,,,,,,,,,,,,,,,,,,,,,,,,,,,,,,,,,,,
,,,,,,,,,,,,,,,,,,,,,,,,,,,,,,,,,,,,,,
,,,,,,,,,,,,,,,,,,,,,,,,,,,,,,,,,,,,,,
,,,,,,,,,,,,,,,,,,,,,,,,,,,,,,,,,,,,,,
,,,,,,,,,,,,,,,,,,,,,,,,,,,,,,,,,,,,,,
,,,,,,,,,,,,,,,,,,,,,,,,,,,,,,,,,,,,,,
,,,,,,,,,,,,,,,,,,,,,,,,,,,,,,,,,,,,,,
,,,,,,,,,,,,,,,,,,,,,,,,,,,,,,,,,,,,,,
,,,,,,,,,,,,,,,,,,,,,,,,,,,,,,,,,,,,,,
,,,,,,,,,,,,,,,,,,,,,,,,,,,,,,,,,,,,,,
,,,,,,,,,,,,,,,,,,,,,,,,,,,,,,,,,,,,,,
,,,,,,,,,,,,,,,,,,,,,,,,,,,,,,,,,,,,,,
,,,,,,,,,,,,,,,,,,,,,,,,,,,,,,,,,,,,,,
,,,,,,,,,,,,,,,,,,,,,,,,,,,,,,,,,,,,,,
,,,,,,,,,,,,,,,,,,,,,,,,,,,,,,,,,,,,,,
,,,,,,,,,,,,,,,,,,,,,,,,,,,,,,,,,,,,,,
,,,,,,,,,,,,,,,,,,,,,,,,,,,,,,,,,,,,,,
,,,,,,,,,,,,,,,,,,,,,,,,,,,,,,,,,,,,,,
,,,,,,,,,,,,,,,,,,,,,,,,,,,,,,,,,,,,,,
,,,,,,,,,,,,,,,,,,,,,,,,,,,,,,,,,,,,,,
,,,,,,,,,,,,,,,,,,,,,,,,,,,,,,,,,,,,,,
,,,,,,,,,,,,,,,,,,,,,,,,,,,,,,,,,,,,,,
,,,,,,,,,,,,,,,,,,,,,,,,,,,,,,,,,,,,,,
,,,,,,,,,,,,,,,,,,,,,,,,,,,,,,,,,,,,,,
,,,,,,,,,,,,,,,,,,,,,,,,,,,,,,,,,,,,,,
,,,,,,,,,,,,,,,,,,,,,,,,,,,,,,,,,,,,,,
,,,,,,,,,,,,,,,,,,,,,,,,,,,,,,,,,,,,,,
,,,,,,,,,,,,,,,,,,,,,,,,,,,,,,,,,,,,,,
,,,,,,,,,,,,,,,,,,,,,,,,,,,,,,,,,,,,,,
,,,,,,,,,,,,,,,,,,,,,,,,,,,,,,,,,,,,,,
,,,,,,,,,,,,,,,,,,,,,,,,,,,,,,,,,,,,,,
,,,,,,,,,,,,,,,,,,,,,,,,,,,,,,,,,,,,,,
,,,,,,,,,,,,,,,,,,,,,,,,,,,,,,,,,,,,,,
,,,,,,,,,,,,,,,,,,,,,,,,,,,,,,,,,,,,,,
,,,,,,,,,,,,,,,,,,,,,,,,,,,,,,,,,,,,,,
,,,,,,,,,,,,,,,,,,,,,,,,,,,,,,,,,,,,,,
,,,,,,,,,,,,,,,,,,,,,,,,,,,,,,,,,,,,,,
,,,,,,,,,,,,,,,,,,,,,,,,,,,,,,,,,,,,,,
,,,,,,,,,,,,,,,,,,,,,,,,,,,,,,,,,,,,,,
,,,,,,,,,,,,,,,,,,,,,,,,,,,,,,,,,,,,,,
,,,,,,,,,,,,,,,,,,,,,,,,,,,,,,,,,,,,,,
,,,,,,,,,,,,,,,,,,,,,,,,,,,,,,,,,,,,,,
,,,,,,,,,,,,,,,,,,,,,,,,,,,,,,,,,,,,,,
,,,,,,,,,,,,,,,,,,,,,,,,,,,,,,,,,,,,,,
,,,,,,,,,,,,,,,,,,,,,,,,,,,,,,,,,,,,,,
,,,,,,,,,,,,,,,,,,,,,,,,,,,,,,,,,,,,,,
,,,,,,,,,,,,,,,,,,,,,,,,,,,,,,,,,,,,,,
,,,,,,,,,,,,,,,,,,,,,,,,,,,,,,,,,,,,,,
,,,,,,,,,,,,,,,,,,,,,,,,,,,,,,,,,,,,,,
,,,,,,,,,,,,,,,,,,,,,,,,,,,,,,,,,,,,,,
,,,,,,,,,,,,,,,,,,,,,,,,,,,,,,,,,,,,,,
,,,,,,,,,,,,,,,,,,,,,,,,,,,,,,,,,,,,,,
,,,,,,,,,,,,,,,,,,,,,,,,,,,,,,,,,,,,,,
,,,,,,,,,,,,,,,,,,,,,,,,,,,,,,,,,,,,,,
,,,,,,,,,,,,,,,,,,,,,,,,,,,,,,,,,,,,,,
,,,,,,,,,,,,,,,,,,,,,,,,,,,,,,,,,,,,,,
,,,,,,,,,,,,,,,,,,,,,,,,,,,,,,,,,,,,,,
