PaulMeinheit/Bachelor_Muay_Thai/processed_Data/N3/teep/scaled/JointPositions/scaled0.csv
Neck_Joint_Position,Neck_Joint_Position,Neck_Joint_Position,L_ANKLE_POSITION,L_ANKLE_POSITION,L_ANKLE_POSITION,R_ANKLE_POSITION,R_ANKLE_POSITION,R_ANKLE_POSITION,L_KNEE_POSITION,L_KNEE_POSITION,L_KNEE_POSITION,R_KNEE_POSITION,R_KNEE_POSITION,R_KNEE_POSITION,L_HIP_POSITION,L_HIP_POSITION,L_HIP_POSITION,R_HIP_POSITION,R_HIP_POSITION,R_HIP_POSITION,L_SHOULDER_POSITION,L_SHOULDER_POSITION,L_SHOULDER_POSITION,R_SHOULDER_POSITION,R_SHOULDER_POSITION,R_SHOULDER_POSITION,L_ELBOW_POSITION,L_ELBOW_POSITION,L_ELBOW_POSITION,R_ELBOW_POSITION,R_ELBOW_POSITION,R_ELBOW_POSITION,L_WRIST_POSITION,L_WRIST_POSITION,L_WRIST_POSITION,R_WRIST_POSITION,R_WRIST_POSITION,R_WRIST_POSITION
X,Y,Z,X,Y,Z,X,Y,Z,X,Y,Z,X,Y,Z,X,Y,Z,X,Y,Z,X,Y,Z,X,Y,Z,X,Y,Z,X,Y,Z,X,Y,Z,X,Y,Z
0.17544000000000007,0.32675000000000004,1.4777200000000001,0.10028,0.52747,0.07712000000000001,0.18273000000000006,0.054360000000000006,0.07790000000000001,0.08916000000000002,0.4538500000000001,0.4723500000000001,0.23452000000000006,0.1729,0.45308000000000004,0.07632,0.29253,0.84588,0.2514600000000001,0.23603999999999997,0.852,-0.005620000000000001,0.33057000000000003,1.3843400000000001,0.33762000000000003,0.25905000000000006,1.38291,-0.09025000000000001,0.31757,1.09364,0.41226000000000007,0.20712000000000005,1.0932600000000001,-0.09451000000000002,0.40717,0.8377200000000001,0.4491700000000001,0.29531000000000013,0.8393300000000002
0.17602292996936864,0.3285311678441013,1.477172369914687,0.09973995661229175,0.5273275809418587,0.07692512182111765,0.18256385823211257,0.054634226460414784,0.07768400868546836,0.08880320571246912,0.45450450713587753,0.47230440462603596,0.23442340842380183,0.17263786108584642,0.45302349595196656,0.07628109085938051,0.2929782343632954,0.8457540807372361,0.2514140579021495,0.23644926504074676,0.8518387141642826,-0.005059999823672727,0.33346029702944757,1.3838049927003562,0.33823762824326203,0.26050159324039146,1.3826748730746758,-0.09032242428971687,0.31841748132780046,1.0933812941006074,0.41182043844249866,0.20736151131389344,1.092977592644238,-0.09587090368670265,0.40579275551200983,0.8367256313287823,0.4486598626359074,0.2943405836864994,0.8386092066660971
0.1764793236160247,0.3292837229175967,1.4774097050720332,0.09908725261512022,0.527273480402579,0.07697333018048677,0.18276835165831834,0.05481986742805763,0.07769170823969014,0.08849669037008265,0.45500270081989924,0.4724583392310576,0.2340812569608629,0.17223757065483788,0.4532996157273057,0.07618880996897515,0.29322472918261233,0.8458102398693083,0.2512885749930707,0.23661111753707428,0.8520072884568723,-0.004150859233637426,0.33522980521433726,1.3830447674373345,0.3388128101261613,0.2624701859108979,1.382222386123775,-0.09064873040966509,0.31913400163253425,1.0930475707690004,0.4111188043158388,0.20789940100386592,1.0924771843203118,-0.09735770955881651,0.4049707171338366,0.8358963232138819,0.44819496714407875,0.2929265052183228,0.8374868947945553
0.17664838938128508,0.330088347243983,1.477900864066448,0.09911069725136545,0.5278177421671517,0.07709723092635501,0.18302272919303014,0.05486155221362413,0.07781746274249925,0.0882725567556104,0.4548276743229236,0.4724472300484731,0.23377936156674178,0.17209192932241585,0.45355089901310885,0.07594504308607336,0.2930001027729231,0.8457728678534975,0.2511130057091079,0.23661539346588834,0.8522361897949235,-0.004926814387330742,0.3359833597857335,1.382471875942711,0.3394796468540894,0.26470557183903104,1.3817447356287411,-0.09082862432567604,0.3196179434609738,1.0923111356664075,0.41111173525378325,0.20857524401625832,1.0921221467698499,-0.099255811945308,0.4044997211358096,0.8348936556460743,0.4485808921499261,0.2914396893118982,0.8364823944587731
0.17672328762294442,0.33198875706816017,1.4776646839148941,0.09948093383889786,0.527970331515937,0.0772368109360746,0.182850978450841,0.054886729556313095,0.07784179181251547,0.08819397387607,0.4547772853920146,0.4725341882380733,0.23369067367708274,0.17216339727880114,0.45355381001578005,0.07519898256754197,0.2925935282626841,0.84568433519059,0.25052182104864407,0.23670259060632523,0.8522486240472722,-0.0059929822894601815,0.3369496815637933,1.3820509698298653,0.3399282310136428,0.26715011853167614,1.381281198163116,-0.09092499001248583,0.3206625045934151,1.0916040101952165,0.4110259588350322,0.2095550455294471,1.091821133720502,-0.10206935436087614,0.4024647578608159,0.8332933508519824,0.44933514565243476,0.290160034377218,0.8355799574131222
0.1769095535985208,0.33487670442200457,1.4764854085668468,0.09914249190388041,0.527750213024507,0.07739929380655773,0.1822721298249923,0.054889645325132394,0.07772054472294174,0.08790178223245873,0.4552476926606138,0.4728287672038552,0.2334816942458737,0.1722598729764974,0.45335061115099595,0.07441247223151194,0.29246015133485215,0.8456999133617362,0.24974279092875282,0.23658119688998575,0.8521003715409408,-0.0062590255918770965,0.33751874372097174,1.3817711060407492,0.3398319465086675,0.26931145461131223,1.380344942181825,-0.09103993827230542,0.32260994296231504,1.0912018637501006,0.4107303716401286,0.21103154856559186,1.0909745107516666,-0.10451196338053378,0.4008031762756258,0.8318854051558753,0.44999656280421974,0.2892039219106022,0.8341177112822149
0.1770786598923606,0.3370855211085969,1.4758571232001565,0.09890464143774455,0.527940177897995,0.07749221922368596,0.18222844518638234,0.05496265193694651,0.07761272166654172,0.08761212318494957,0.45555640071265213,0.47293816218579865,0.2330975860518352,0.17221853245453783,0.45332087698342804,0.0741310419764423,0.2923056741231375,0.845609787775171,0.24940273011598685,0.23623661109636837,0.852126489404813,-0.006474351836760026,0.33788858094632584,1.381380733386677,0.33938844522270717,0.2709043871907772,1.379458168922161,-0.09099299254373033,0.32468453456700685,1.0906585368501263,0.4110205570044453,0.21331788556693573,1.0901232745928782,-0.10556983911387052,0.4010302804437678,0.830849708487898,0.4510198512756296,0.28856015621195996,0.8325184549907017
0.17748670321517943,0.3385410029314511,1.4758117486876523,0.0992269943015648,0.5281606328768985,0.0773365069766392,0.18259879564783163,0.05479381924239902,0.07750925497355853,0.08753254006702395,0.4556606324531827,0.47275904660302775,0.23310346338551896,0.17212741452169286,0.4532507943323888,0.07399031292539615,0.29192978520496293,0.8452083915025932,0.24932280671381912,0.23612065750531155,0.8520548294323232,-0.0066654091560151355,0.3395756821249225,1.3804668799465614,0.3393221451110655,0.27255850578623697,1.378887555078233,-0.09134439435071656,0.32689703426214267,1.089765738349507,0.41182732452403964,0.2167438637147208,1.0894227763226056,-0.1063260070582131,0.40235821868082156,0.8297263827958297,0.45244118138447587,0.2888069250682317,0.8309995825667438
0.17756900453255398,0.3411647125119986,1.4751985645176064,0.09913967927254774,0.5278153178110575,0.07712401934123968,0.18262244490153615,0.05458469828081929,0.07759485931268863,0.08711593989619296,0.45572810817049236,0.4725990547095424,0.23349608946176945,0.17176791985780904,0.4533291104819962,0.07359555108720028,0.2913764125947845,0.8447799240520905,0.2490868269160936,0.2361189574252128,0.8521123223383414,-0.007440170571821459,0.3425869333373204,1.3795799890446454,0.3393029179389622,0.2750799768539255,1.3784298288411632,-0.09221563030933909,0.32957938843694856,1.0889212299414524,0.41249321867929234,0.2207826360358033,1.0888546327606121,-0.10806387311531526,0.40411761184668477,0.82866509429873,0.4538204682523289,0.28987133995220943,0.8297350763772091
0.1772684211784152,0.34485547089483354,1.474630978569083,0.09896032153246956,0.5274672081439173,0.07734856355809369,0.1822530868276692,0.05459389562955922,0.07779705800083829,0.08657726767762287,0.4557977256577474,0.47289686564707634,0.23341274656219435,0.17135700343224472,0.4536229147812231,0.07325907039720232,0.29079113453740807,0.8448022466304443,0.24882392028618613,0.23580929127969147,0.8523862961113601,-0.0076298537483812075,0.34528468927174005,1.3787649624009433,0.33948743975295753,0.2789012884342265,1.3782016003116504,-0.09284932610188219,0.331966428182304,1.0882587617957806,0.4129199888083517,0.22494701407144213,1.0886134525887878,-0.11002822601121709,0.406574886895224,0.8280999283783018,0.4562068469248857,0.2911105153315184,0.8290510264926653
0.17709790935864433,0.34797521050812896,1.4746194149937883,0.09905931263245214,0.5273500899055212,0.0776189152047906,0.18222768347264556,0.05465869882636512,0.0776428052064945,0.08624326776426376,0.45635410213694605,0.47326784536803,0.23281455445846222,0.1715580171982079,0.45350199272811365,0.0728352011378818,0.29050112788961696,0.8447910335272932,0.24845478998771492,0.23566986801044032,0.8523117873925479,-0.006884724302547073,0.347046673830902,1.3778676089416064,0.3391770571165452,0.28257145632997854,1.377953262258119,-0.0926837855255907,0.3350255152049058,1.0874682610506767,0.4132867568513612,0.22960401880200473,1.0883638542342327,-0.11143989912600438,0.409794944263398,0.8274670877040049,0.4589978729005908,0.29341039099005334,0.8286245437819679
0.17764103593059574,0.3506570997224289,1.4744894843518082,0.09905086246744751,0.5274257544766453,0.07768342849026966,0.1825041694809455,0.054841438916242075,0.07738432087999353,0.0859265742843037,0.45674481806597794,0.47338305091354405,0.232454612510303,0.1713680379157988,0.4534427872386633,0.07225247136756408,0.29045460614920693,0.8447020383609121,0.24790870126337805,0.23574826715386946,0.852223969763398,-0.007040688779199163,0.3485697458992879,1.3771678777410263,0.3385235904525003,0.28525252900438103,1.3775499122673482,-0.09232094450626138,0.33891301011326674,1.0865231763259846,0.4135937267896632,0.23453865391255369,1.087792053609337,-0.11195551051753454,0.41424063778662434,0.8267583712845356,0.460847082081971,0.29710087326031415,0.828030930435493
0.17798377566567944,0.35419106834743364,1.4738600729856914,0.09919029241826748,0.5272372335685926,0.07773642583102014,0.18274642193389223,0.055027367949711005,0.0772899507379923,0.08606018521768793,0.45683776739996085,0.4734876210077839,0.23212081997766915,0.17119468042306016,0.45353536386295756,0.07179889630466454,0.29053347464681994,0.8447747603829713,0.24747016547056472,0.23588331127545112,0.8522724860121585,-0.00807486887659286,0.3513859772642225,1.37669785777971,0.33894714090118566,0.2877587213413333,1.3770913224458683,-0.0922281425442005,0.34322297865393236,1.0856821937847911,0.4140498800824334,0.2388189393340567,1.0870489659719,-0.11142496420651088,0.4199905955272172,0.8263047926354334,0.46251799768187984,0.3008099824096175,0.8273773761985663
0.17750366747487448,0.35809204839591074,1.472958648455784,0.09943962148240432,0.5269637268027055,0.07767165238714534,0.18320675815152693,0.05535601356482385,0.0769447572523442,0.08633688047620473,0.4570999588804504,0.4735193953362862,0.23221267158113743,0.1715874103344931,0.45322584962170126,0.07125760415749693,0.2912804638675723,0.8449889705701217,0.24678036174529852,0.23607826346888122,0.85202123793282,-0.008827749806666925,0.3555208559618134,1.376039625001682,0.33958719818979716,0.2900951914716005,1.3764065146689477,-0.09267426439577219,0.3481878372043096,1.0849171543687177,0.4149922897016837,0.24277741878720355,1.0861683900912333,-0.11086755283362743,0.42621957411424605,0.8258325777552776,0.4650347025207326,0.30513565404706033,0.8268776855423942
0.17710669272185808,0.3613733457218219,1.472157230067185,0.0994050307675982,0.5267311230321713,0.07755709534104849,0.1829859799935073,0.055109622823747435,0.07657440202580272,0.08555152587546028,0.4574613843021617,0.4734772718297316,0.2320713088666039,0.17125926099486316,0.45286867876492853,0.07053772097660417,0.2920553147374699,0.845135884010791,0.24584262229934792,0.23611515535313923,0.8516282707758019,-0.008909218407342157,0.3586113355676626,1.3750699825333172,0.33980094728888577,0.292992764306717,1.3757268119779733,-0.09296662312618388,0.3532919826915999,1.0839578236354266,0.4162141904186034,0.24848773799750865,1.0853164856440003,-0.10962311723757145,0.43361306762018914,0.8254872644770883,0.46815542582472314,0.3114356351543714,0.8265335197198954
0.17703200559527452,0.36469869941972144,1.471343293158478,0.09952663215145803,0.5263328629117764,0.07759014751103215,0.18242267141179266,0.05471278681808635,0.07641113812440549,0.08410758832025099,0.4582430765772224,0.473657548807812,0.2312826923336319,0.17063368397763273,0.4528097015792913,0.06991672390733232,0.292629265951456,0.8452597713543045,0.245147595120384,0.23643205261341416,0.8514117338152938,-0.008959046736923642,0.36137408777419033,1.3743581594608516,0.33992711915061663,0.297204779779556,1.3750012064845114,-0.09185453893728662,0.35987113953986727,1.082875794956726,0.41757897608061456,0.2560508270230897,1.0844224998291456,-0.10704169493474842,0.44414438424589814,0.8255583387162829,0.4708974703177037,0.31981125633448737,0.8261253593434235
0.1767605688677148,0.36867592784753844,1.4702869707784636,0.09949039416238148,0.5262988133532653,0.0773988825910071,0.18249064434442636,0.05456380621656013,0.076397531867268,0.08336307871119306,0.4597613336039115,0.4737021957961774,0.2305169116018818,0.17070870896318985,0.4528301975502549,0.06942540346826466,0.29357093082866587,0.8450503872666051,0.24454643765287648,0.2370313961011685,0.8513483671241281,-0.009172404239126077,0.36511389085258705,1.3737312943658753,0.3401456905892435,0.30176106460040014,1.374213395989551,-0.090021777615644,0.3682650565426308,1.0816791525634004,0.4193081784168658,0.263565517155497,1.0836358857891433,-0.10400921780765032,0.4561486054630391,0.8255102677137809,0.4729899893976103,0.3291450553632939,0.8258794527164786
0.17640739474391978,0.37321849849337035,1.468986769936188,0.09868183830202566,0.5262560895606727,0.07707929825587756,0.1824050529214931,0.054356235406509155,0.0763614359318064,0.08332674341207594,0.461287355166711,0.473677847620075,0.23009879604901834,0.17059932573209316,0.45280889572192995,0.06850136787249468,0.29462596508686695,0.8447804718365332,0.24345793384264658,0.23760830821686388,0.8512271197164617,-0.009903509532588272,0.3693564056852595,1.3730245645144004,0.3399403180299398,0.3056604398328603,1.3732277136853643,-0.08869872260493607,0.37639533040792583,1.0804814172846717,0.4213396398551225,0.27094029296968963,1.0828300744905315,-0.10082533345467593,0.46784222728182817,0.8254726987232466,0.47516034149056463,0.33867397759594386,0.8256531697039607
0.17662747304005358,0.37794037967300365,1.4676950687638823,0.09840133661063112,0.526235819409161,0.07718066919326583,0.18243061503047237,0.054138106856722046,0.07636553369831088,0.08304251289564721,0.46289433827215637,0.4740365386846436,0.22964537334928112,0.1700794974211362,0.452954016962079,0.06770557230598188,0.2958471489716999,0.8449528007726838,0.24257606240766724,0.23851923445816245,0.8511516495903007,-0.010452699288873468,0.37531589091483314,1.3725469073090977,0.33992213169420055,0.30984544858173135,1.3719623629460833,-0.08826795234406058,0.38284964140022404,1.079762144296308,0.42310325331668824,0.27934926796185694,1.0816007583181129,-0.09765836088423568,0.48004306990944134,0.8267661741080373,0.4772545439450093,0.3507273177684616,0.8254785409462359
0.17693417497217132,0.38215912414169295,1.4669662013971034,0.09930554001208461,0.5262747261967132,0.07714064712489328,0.18282389416696354,0.05394037351007805,0.0766241193288867,0.08262953756180422,0.46534645964994237,0.47432530370942705,0.2292613528015031,0.16985320852592375,0.45331531812259396,0.06820743116932391,0.29681351981614496,0.8445964987647832,0.24314362861927186,0.23973984851604965,0.8512284674985914,-0.01037693203635048,0.3815353711029173,1.372269043478438,0.34034373703715515,0.314840927220408,1.3710914988424014,-0.08701283194833194,0.39110128666805816,1.0792337614175267,0.42423106543465366,0.2893291540471926,1.0804561651650002,-0.0947227272705383,0.4932285795999546,0.8281314615873011,0.4787253781542351,0.36476012800380203,0.8255737706630775
0.17645148607528638,0.38654851742484664,1.4661037458021438,0.0998106134965033,0.526368197591521,0.0767728142418999,0.18293270228573702,0.05392036635936012,0.07673980400347677,0.08180443554725564,0.46780497744036126,0.47425922910600954,0.22860747543054258,0.1694614290844421,0.4536445381634228,0.0687155478862487,0.29665499551516744,0.8433817881162585,0.24383263509902112,0.24031213377577595,0.8513368621955147,-0.010540911572163495,0.3853464362659002,1.3721002358853471,0.34026469459661396,0.31949374328253505,1.3705024744149024,-0.08461320761058345,0.40130831803337613,1.078685578243647,0.42459707950645953,0.3003194082015971,1.079497987175486,-0.09186534732954507,0.506663085281736,0.8289061008889966,0.47966583884147745,0.3792161956348108,0.8257930890060724
0.1760826381181389,0.3917764817882147,1.4646376946430975,0.09961702814794604,0.5263370874417673,0.07704060360138978,0.18282535615250484,0.05381357281479284,0.07680148102666966,0.08041152805528738,0.46906430536877697,0.4746545625310261,0.22749407049832443,0.16885144313323516,0.45398091227689463,0.06766846037069046,0.29568633102888403,0.8427405114726026,0.24293568804048477,0.23993950544389933,0.8516232315721783,-0.011108124485724204,0.389523305682484,1.370890307297355,0.34010902381396224,0.3244498140435119,1.369873487628297,-0.08380505413371812,0.40806234349978243,1.0772756277855158,0.42489730249340385,0.31192106729924296,1.0786416340356868,-0.08723795945210049,0.5213202965911982,0.8308924291833225,0.47991748550346663,0.3955521088796733,0.8264434177247316
0.17591269264398993,0.39713833054103437,1.4633898493088944,0.09939227391214381,0.5261058821674239,0.07759569507754155,0.18333797341020164,0.05364120047375246,0.07712158573253941,0.08003830464034499,0.47017299780004485,0.4754013266671562,0.2266312710181475,0.1685080224154039,0.45451867428140064,0.06616340276924099,0.29578003076871534,0.8429694473172252,0.24144708368356757,0.24012032228711055,0.8520910612119594,-0.011505774520847,0.39487555827126486,1.3692382702339172,0.34014893304348903,0.3299049672172388,1.3697883936412645,-0.08336797779835073,0.41524475218225115,1.0755396012343694,0.4255724490190177,0.3246044001885872,1.0785189892900158,-0.08116738116627373,0.5378754667006133,0.833673546189188,0.4787974564675636,0.4138918563837586,0.8278849023709188
0.17519414643014872,0.402639033276509,1.4622524883499024,0.09916083353622576,0.5263155195110911,0.07779116108925394,0.1838586914467541,0.053751255738830946,0.07720321180126986,0.08012448035458952,0.47226795080783923,0.47586159814586776,0.2259777713743907,0.16825532670449952,0.45483874494522886,0.06461312010889536,0.29721915330999354,0.8430567208668478,0.23962369677390488,0.24072445714442786,0.8523002195780371,-0.012069481418349553,0.39955838717786063,1.3678185010638977,0.3399733310307095,0.3353149385150871,1.3702455237235824,-0.08227370482876595,0.42639394900696315,1.0742399153388231,0.42590473217326313,0.33777848278475325,1.0790938439258537,-0.07318561905144257,0.556733444140026,0.8366067297037031,0.47687149988208133,0.4335460110005828,0.830388048620869
0.17459351749832688,0.4082426711077765,1.4607345410595387,0.0990101135738465,0.5268811789675008,0.07773816419542111,0.18358441019696642,0.05439028524671416,0.07696651946132767,0.07926000560354093,0.47449974218359975,0.4760029355415545,0.22473435108183895,0.16813934171578407,0.4549433965874546,0.0629296206354934,0.2989057873264098,0.8428940918117614,0.23753805180094115,0.24119929963006465,0.8523151154101994,-0.012678635859659905,0.4046954998384676,1.3657817824586558,0.33966519114475147,0.3404477431133233,1.3702038161849035,-0.08124796849169963,0.4388409103661045,1.072575231184255,0.4255696381306781,0.3506203384664926,1.0792098043425504,-0.06316910260023363,0.5778575218175087,0.8404418859426019,0.47410853844254075,0.455923404155963,0.8338964081673186
0.17499246145264935,0.4135812127302799,1.4590883781275414,0.09929018011878525,0.5271457284157632,0.07757343133117767,0.18344706361026297,0.05465496599408711,0.07701550925641795,0.07790829189838634,0.4768196389102301,0.4760078785555547,0.2232480616521021,0.16853851096939565,0.4550873239305396,0.06127521935483791,0.3006348584377841,0.8426203243677013,0.2357066812428507,0.2424683984871364,0.8523126120652277,-0.013103498174385208,0.4111677426501565,1.363739101568025,0.33954581463761396,0.3459838835112623,1.369746792833432,-0.0809458592195531,0.4496264960936692,1.070899818297537,0.4252437919149912,0.3635562070233088,1.0790464791406564,-0.05360343262771052,0.5984025706624517,0.8458188545916601,0.4690014982313714,0.4820040454346507,0.8388795485585585
0.17545673325846567,0.41968432366776565,1.4573460337528097,0.10042890745176844,0.5274429244245442,0.07750715811905604,0.18349124427315938,0.054278205803277704,0.07724688183060684,0.0772326565104921,0.48053536227542815,0.4762594475139989,0.22249180147398245,0.1687480276169487,0.4552273692347537,0.060056777906459316,0.3028334575563051,0.8420996101887537,0.23433667510689374,0.24428124820832664,0.8521686786127324,-0.0132661802538376,0.41836073835625964,1.3625710010758292,0.3391798244466187,0.35275647748753136,1.3696207460189778,-0.08113634541538875,0.46020570909770414,1.0702012041773896,0.42521981710461354,0.3767598265586496,1.0794820481869076,-0.04408516646401241,0.6189267319328756,0.8534631407721068,0.4612924602456607,0.5096662057694641,0.8456848790803476
0.17452515286818313,0.4270834424253236,1.455340369153179,0.10079542811822928,0.5280627455037191,0.07752676795145373,0.18267755693729976,0.054463876182907656,0.0772416848430866,0.07736148128338363,0.4842225793169772,0.47662406966555076,0.22178944906566164,0.16858975509972549,0.45532050064255136,0.059216083260570304,0.3052550159749661,0.8417996051326518,0.23308747426858017,0.24550277879571858,0.8520117915132892,-0.013321892984930432,0.42541482115404555,1.3619925813151916,0.3390080325134564,0.3594698647988528,1.3694904147758546,-0.08046434209621171,0.4732519744993705,1.0703680076815207,0.4252171974609496,0.39071285116460924,1.0800827836398517,-0.03249644606477742,0.6414697308851676,0.8631466693762789,0.4505238685698148,0.5384063971745037,0.8538803462126004
0.17347071182301846,0.4349343888157059,1.453107633567423,0.10045928672307194,0.5286146492332853,0.07753625751594531,0.18185685935804308,0.05494394199460446,0.07695076327790198,0.07682212403289468,0.48792889238364257,0.4769441019071975,0.22030424027124965,0.16881579792992785,0.4551736553579651,0.058110929507871764,0.30774742885049333,0.8415012224069518,0.23155443197086115,0.24677281888238103,0.8516635584961799,-0.012957632008319266,0.4322186119890658,1.3614011424673151,0.33840770383299795,0.3661191768334791,1.3695266747143313,-0.07959368200039714,0.48641773076271755,1.0707824379006312,0.4248193306966326,0.4053644979709297,1.081163454240324,-0.019560022860765653,0.664054200494588,0.8748642368195686,0.43777253594335724,0.5676483474755637,0.8640926369647968
0.17327507937797998,0.4425116909670254,1.4508745137009262,0.10058028226258954,0.5286324360477067,0.07771250770873618,0.18182989343968065,0.055158820259599596,0.0768829133215017,0.0756068427580786,0.49272177352423324,0.47749547251816765,0.21898086997869007,0.16945446254612645,0.4551021235608678,0.055841453446926044,0.31104787299426023,0.8412533947166083,0.2290074135192771,0.24926503681571918,0.8512528046141528,-0.012542069498745582,0.4402503794761169,1.361325835688734,0.3373105335970213,0.37379671921664204,1.3699042204570187,-0.07952767585190282,0.49811944931575614,1.071495075038345,0.42401057505142126,0.42070570911672456,1.0827816439034983,-0.007363330493900728,0.6857313733522745,0.8894629815598317,0.42486570831198844,0.5970801173868578,0.876584422409783
0.17264260395885717,0.4501469578446912,1.4488125710155786,0.1006907356147385,0.5283761060140866,0.07794650143250735,0.18170084821637783,0.05508711615647788,0.07723675266370995,0.07463872744253865,0.4978969014135777,0.47811609048851816,0.21805623214491263,0.17077160931976376,0.45511206166470786,0.0535618426468424,0.3152074241125984,0.8412889293317015,0.2263530416780024,0.2523199453985311,0.8509601551721819,-0.01260038198963121,0.4485728993741973,1.361929086327726,0.3356549991835637,0.3824369853124233,1.3703935529541456,-0.07967035915831763,0.5100168502019081,1.0728466633003433,0.42256698467703985,0.43731979919320596,1.0847441132782014,0.004322136498523489,0.7071274254379634,0.9066149735981521,0.41024388703023185,0.6271273296240898,0.8912321982498025
0.17176862991850245,0.45863463397174664,1.4471146399334205,0.10057944422693126,0.5282529700492521,0.07798811180756415,0.1812371893433495,0.054752364583588745,0.0776844160369637,0.07413200005986129,0.5030672856482565,0.478502540686763,0.21707409468459848,0.17279892876466058,0.4548803595755143,0.05182498746976433,0.3195979050115024,0.8412089435339394,0.22435384441143258,0.25592887458408053,0.8504094870914691,-0.013296734870848946,0.4564115126953935,1.3626364008170873,0.33289336023029664,0.39165832000780654,1.3710583861215007,-0.08023344467224557,0.5216663684626709,1.074363293835318,0.4209475820947973,0.4544919374527057,1.0874006664123894,0.01499282582720245,0.7272567739877354,0.9253457790220528,0.39371413879678363,0.6557534487564473,0.907471688588082
0.1704574783074804,0.46748681977123807,1.445683346519831,0.10008187222924321,0.5283123765960197,0.07801878743863042,0.1807975367874435,0.054672883802989757,0.0780548103914445,0.07378208721084863,0.5090333086645562,0.478868216567257,0.21644988509872193,0.17582970753504357,0.45427846019006857,0.04988021923989467,0.32432824109530317,0.8408429215933988,0.222428576804555,0.26062511640879854,0.8494808340817824,-0.014621619344776963,0.46304135828212883,1.3631991607348324,0.32984241174105194,0.4017323629966469,1.3721418420942317,-0.08053059437753651,0.5341414068645678,1.0760805260451418,0.41928741462408053,0.471695459225712,1.09059040710696,0.024940472241921995,0.7472921859756028,0.9457712404134441,0.3765417891999181,0.6828955228485344,0.9256858003065943
0.16848387155491357,0.4756103656676664,1.4445926855347841,0.0995374685081558,0.5285475931849446,0.07813064923295844,0.1805775816240616,0.055409493642899106,0.07844117068888677,0.07380611622853979,0.5157319065629699,0.47927954012035745,0.21631348927741376,0.181009239485375,0.4532019190422425,0.04750635920105648,0.33039417305947627,0.8407683332380044,0.21994626134946865,0.26626565748777137,0.8483326608999836,-0.016306306978239458,0.46858407911663236,1.3641428056476903,0.3261725568462982,0.4133601090747027,1.3741466059535852,-0.08155760230908335,0.5480004710689161,1.0790535727681843,0.41737791375055294,0.48996372794561205,1.09490094867677,0.034315359899890256,0.7660962331773509,0.9670404714163018,0.35892541495406455,0.7096541383594097,0.9467795602730856
0.16541174570933434,0.48391359830908987,1.4438373236177646,0.09965877653528836,0.5289822865504766,0.07831021756934875,0.18068546652051365,0.05690295434810071,0.07923828721395404,0.07386776945095269,0.5224997657713385,0.47959775432022134,0.21626666886259754,0.18861373134887255,0.45190807560097407,0.044545807990658104,0.3375405007839821,0.8410501711989479,0.21698841389194104,0.2732661367111783,0.8471837312000687,-0.018611640965519077,0.47459388388238993,1.3653664754396755,0.323055443761059,0.42477252079034417,1.3763277793187942,-0.08559149004112461,0.5606314787399751,1.082617678453017,0.41619240111114364,0.5091120623336169,1.0999685230903393,0.041926714402858105,0.7810575939610366,0.9893797766054309,0.3416791200045883,0.7339575957329741,0.967614367916713
0.1607766739594816,0.4925004402727048,1.4433288487780376,0.09998541813014249,0.5295904344039642,0.07838653880069842,0.18085591525138991,0.05911458182321167,0.08091308414597488,0.07417386627266843,0.5298742030469769,0.47973626552839244,0.21674747971050895,0.19850849151396044,0.45075362980336836,0.042511402280834006,0.345368784989591,0.8412229495767729,0.2151955423340235,0.28165519526693394,0.8463458515593854,-0.021855253052186368,0.4800266595019036,1.3668452216279332,0.32038565152823484,0.4361279250242493,1.3786606263150525,-0.0914593784529948,0.5709744320141292,1.0862675007258384,0.4167846338115226,0.5277243541593027,1.1057489030622425,0.04625543277660855,0.7929839352355744,1.0135700575635622,0.3267279162925469,0.7550047080958608,0.9880258357493941
0.15506994768106552,0.5000275030721085,1.4434469840486368,0.09976470766878583,0.5300198821271522,0.07861767188193503,0.18090733123280617,0.06202870227484906,0.084105692869618,0.0746842169052108,0.5379124427340574,0.4799315021097706,0.21845617180824262,0.21186963925117064,0.44965730722625785,0.04154254325365698,0.3541547812344115,0.8416621221294902,0.2142299672845726,0.2904126085356506,0.8461769876796522,-0.02537246240633349,0.48448523774346297,1.3694650430018567,0.3163549099189521,0.4492466339771599,1.3818491668214592,-0.09816942393404433,0.5788617156066724,1.0908422685153452,0.41964703166436823,0.5454623884721469,1.1130769900525666,0.046920166474609094,0.8019218054432881,1.0385695904360566,0.31408099258001654,0.7732423133167475,1.0101242003990394
0.1494589787560074,0.5064987227283984,1.444693736494582,0.09894773828543173,0.5301281536963823,0.07898773178282177,0.18131926090863826,0.06602699695664453,0.08955447354921872,0.07496195685818857,0.5458014007999586,0.48014485540109375,0.22215858318307405,0.2309330690223819,0.44821050389432426,0.040245136739007176,0.36377567183570736,0.8425981210309169,0.2128969282572495,0.2999026208431659,0.8464170203582732,-0.028981559040538403,0.48927700463222124,1.3725696710843827,0.31160211431340556,0.46158624833006573,1.3854638468206821,-0.10736740225557251,0.5859096204402718,1.0962462251031697,0.4249285834885795,0.5618348608115421,1.1222722283422066,0.0448703702591385,0.807968473720516,1.0637334623106043,0.30471377679088985,0.7876278455574266,1.0317784702819779
0.1434530895326797,0.5132804432330881,1.4467531692564184,0.09845495682965165,0.530279553783895,0.07935954870775405,0.18334552210944632,0.07288240896026146,0.098831226843101,0.07412608685550554,0.552518115480832,0.48018310949029586,0.22846354194992113,0.25820989584241855,0.44684904347334103,0.03796734279719914,0.37332138084340755,0.843916820574037,0.21130325664010058,0.3112828118187654,0.8472200762010577,-0.03334338045439471,0.4939040806563809,1.3757376821773146,0.30718095884177343,0.4720439779039331,1.3891197658148389,-0.11790346280682848,0.5941392490831379,1.102531497296083,0.43186950251307754,0.576672408131432,1.1328610228903264,0.040534714704005916,0.8137736351162831,1.0884243377605147,0.3013976451932407,0.7999036256698961,1.0505760758649865
0.13708258338227347,0.5203492086432153,1.4489233568659747,0.09836328441699527,0.5304701613213371,0.0794746733301908,0.18684191548729678,0.08466351638997355,0.11316767982707106,0.07196016616189901,0.5582992048824187,0.4798249666686425,0.23772674337623986,0.29389505411068384,0.4465220513570532,0.03521258706883047,0.3825535118885138,0.8451653475328104,0.2097453589673982,0.32397074435120865,0.8486729629164584,-0.038378425302874095,0.49868790921865724,1.3792691078311474,0.30328341999864056,0.48251204481538834,1.3935918761888468,-0.12828990698915713,0.6031145979924109,1.1093676906373766,0.43998975388690664,0.5903838255717928,1.1449216683025196,0.03470088463284462,0.8198302421120458,1.112651325757055,0.3042009077826286,0.8118259269307045,1.0665043215717933
0.13148311998495593,0.5267033204145941,1.4511838097068122,0.09786521942845695,0.5303652394087673,0.07899509747321547,0.1911853366482149,0.10378956656945404,0.1334012383031815,0.06947077593568968,0.56323059708828,0.47882488363171954,0.24894912815993278,0.33783436621160085,0.44865230036123516,0.03306875827889044,0.39141370330009484,0.8460722882863535,0.20890330782379687,0.3369994025668888,0.8509095517904715,-0.04242935705089067,0.5054231165705901,1.3830698293798815,0.2993442000837774,0.4918344696630635,1.3987267732598871,-0.1396558399017226,0.6106717229899514,1.1160308267507255,0.4491757975800111,0.602500733431689,1.1590040690329761,0.026281610217795282,0.8243083306798051,1.1352010030584025,0.3116517176769678,0.822091323917357,1.0784424161616928
0.12656281892103796,0.5327565795766466,1.4532690369379795,0.09704388115346951,0.5298846073642361,0.07927530994196803,0.1950924857036072,0.13091484037711895,0.16154080955290706,0.06627814045147808,0.5681524433567059,0.47844003412211267,0.25922132122515906,0.3905811060011247,0.4547207230913603,0.03210134628333305,0.39944277012181834,0.8473345854105158,0.2096024251968439,0.3509242010766177,0.8539297629125384,-0.04607514908161362,0.5126561636772202,1.3868783492711036,0.29458839348642424,0.4992339446137722,1.4029413632857417,-0.15174067280866133,0.6174368489091332,1.122875550562055,0.45877777527606034,0.6121080498725702,1.1738969554008192,0.0152235102728602,0.8284140163825895,1.1567972526767576,0.32288301533216984,0.8301185981349002,1.086572519035607
0.12160468992859808,0.5384836306806438,1.4544409095161455,0.09532604247423745,0.529536571889943,0.08080188129088564,0.1969609052657895,0.1631757067001559,0.1968208057895877,0.06133017820623557,0.5744251317877912,0.479014520391694,0.26669801153655126,0.44726696188039405,0.4650031215576726,0.03200672688029108,0.40682809797338426,0.8488312194292184,0.21133360086463635,0.3658597528754161,0.8570743083864719,-0.050864828081346035,0.5174060263293471,1.3893695002003787,0.2897709553490555,0.5059100662424204,1.4060969396718836,-0.1643952337329277,0.6257730408806341,1.1301330741854851,0.46860294854144396,0.6184124577955041,1.188097695549297,0.0020835559916390217,0.8343329838436027,1.1784029999134087,0.33788443546807256,0.8362277715858426,1.0927269645718827
0.11593172386259917,0.5427352193247786,1.4552315505318711,0.09230186254356312,0.5289061236750611,0.08230217898383028,0.19757656749228908,0.19943985025178665,0.2362332660134558,0.0542109913519857,0.5807306575841813,0.4793078577183778,0.27206755083949924,0.5042710723272621,0.4791852327446372,0.03126156680770368,0.41386870119051045,0.8499014870430305,0.212211532385564,0.3812041807541463,0.859559197604115,-0.05728333476447207,0.5211308612748733,1.3911181214059551,0.2851686583390454,0.5124779840064739,1.4095971524694813,-0.17715839257051896,0.6347025776952734,1.137019794464756,0.4777353367348258,0.6223430879580804,1.2022046475803014,-0.012896621096133858,0.841856406396656,1.1974269913773257,0.3587342606961259,0.8415425283001887,1.0953639291782995
0.11080714706237214,0.5461042853833067,1.4568449171624243,0.08990093163203193,0.5287670736865994,0.08317849198585933,0.19843301252382398,0.24192272428698872,0.2773888028924213,0.04734573465009658,0.5865489100425417,0.47890065118366687,0.2762615597938004,0.5616176194921364,0.4992704410615253,0.02974763145479074,0.42133613726284874,0.8505350343356486,0.21169739933951984,0.3955947792553668,0.8621417756900921,-0.06403202695701309,0.5266119985978761,1.3928655891867099,0.28096348322062814,0.5177429220724994,1.4134275164094567,-0.18984050694070617,0.643586910638909,1.1432031049551157,0.4861447007389084,0.6248101417661892,1.2169565771418458,-0.028472447699667,0.8503627320646281,1.2120955711039607,0.38481990349936107,0.8459526592859862,1.0967359520604218
0.10632851372484843,0.5493493110271378,1.4590619956693178,0.08907885928228249,0.5288723661444535,0.08337324540064898,0.19925481832557673,0.29036377289814136,0.3167028089270612,0.04263380277688067,0.5919430894461761,0.47785598946057006,0.2795626377785344,0.6182093075678364,0.5254219347502624,0.028800948906427738,0.42926282223945167,0.8507569614006412,0.21131162226112893,0.4092525948113126,0.8646661551984912,-0.0686950819055659,0.5329197859117724,1.3942344378774179,0.2771850519104081,0.5221564671466775,1.4167842851901526,-0.20359162787599294,0.6515071016591176,1.1501452880258407,0.49480700171296493,0.6247916567316059,1.231665742572441,-0.042931650447018334,0.8571998759252316,1.2237536797887925,0.41001014996048313,0.847420654860483,1.1017846882271098
0.10203117530643704,0.5524995410530905,1.4607070163466478,0.08866175503986813,0.5294383606728654,0.08317108798751861,0.19926039091713774,0.3426685890096213,0.35193119550030766,0.039983831264375505,0.5984711482872651,0.47636895727086653,0.2801572337479493,0.6731962243732353,0.556146321251209,0.029198110405757916,0.43762649277887156,0.8501663129614203,0.21204681056739433,0.42364470837658813,0.8667849593538827,-0.07260405860117163,0.5375598410708831,1.3950956419655673,0.27360873265738955,0.5275240770955545,1.4201285894220192,-0.21712530184818293,0.6584652267395691,1.1577501803676549,0.5030085235338506,0.6231077661814377,1.24577120120771,-0.05603478089390446,0.8631143159177052,1.2333257782007316,0.43364324023260203,0.8465017679497313,1.108264185897148
0.09840079757719539,0.5559389857381098,1.4614551176769437,0.08846951982429942,0.5305885763600275,0.08277352370742416,0.19991372897797954,0.39949273016528203,0.38395551859165766,0.03915952174436164,0.6059568783699321,0.4747355338165238,0.277392287179148,0.7274053713822747,0.5936407879130665,0.02994386243053225,0.44692041281693223,0.8493481411966529,0.21287187382544634,0.43795357264002244,0.8683512706916903,-0.07601049209753993,0.5415781068671413,1.3957282854771875,0.2705596768982911,0.532885823820441,1.4231507768151315,-0.22964669141650962,0.6654150423972691,1.1657304313232217,0.5100323697071629,0.6219992063927908,1.2592193291970442,-0.07042462649180817,0.8716278488468528,1.240978007031122,0.4621181153490769,0.8458708378416899,1.1135828076051666
0.09474984026952007,0.5597468704021881,1.4617936396963813,0.08838059529123732,0.5313445785453021,0.08230255811461423,0.20048642009396864,0.4604885179393301,0.4140823799239008,0.03818961207257042,0.6115145490346553,0.4732066411010955,0.27365630205898184,0.7790161166974986,0.6392087558180183,0.030353421946301907,0.4562275444034259,0.8494233880903442,0.21335150995362406,0.452263134742927,0.8694436607680742,-0.07824906697796244,0.5457882743908538,1.3960495891558564,0.26854196543841047,0.5370400035812719,1.4249073782505333,-0.24301202983490316,0.6708723823686433,1.1745932740590628,0.5162328033805375,0.6228285591225139,1.2717663854259338,-0.08840565617007892,0.8814329693190613,1.2473760676152497,0.49215837939835594,0.8454574644952477,1.1185323276284236
0.09058710056419984,0.5638772051718396,1.4618354071273463,0.0884649035344301,0.531319566701029,0.08198457389147915,0.199124506191448,0.5235066768025582,0.4414243390320221,0.036359932835066444,0.6165670612976264,0.4715553750787725,0.26813454588771757,0.8241771990787332,0.6910918747479803,0.03209717346003283,0.46581252262081185,0.8496689335511223,0.21480380927264997,0.46686671201182556,0.8724719287187778,-0.08049959998659839,0.5510887646091357,1.3958182856551926,0.26677997320138647,0.5408628248511889,1.426166950562043,-0.25776099876445985,0.6741704603620078,1.1830594088321917,0.521912713676602,0.6232759283221699,1.2837696833330106,-0.10873570573303637,0.8897995865248818,1.2526192251070363,0.5207282324769987,0.843886582717721,1.1258019960314518
0.086753671732054,0.5681776253107222,1.461089328068977,0.0894196276630051,0.5312199603391999,0.08176241649634074,0.1974673311078017,0.5875816490268224,0.4663536671452201,0.03447973006047022,0.6239993656604801,0.46920900833434115,0.2585937521041387,0.8629808333850897,0.7454888719178909,0.034897995522854816,0.476860511437169,0.8487717370616025,0.21697249801136334,0.48254585721716614,0.8756380612908379,-0.0826674009203331,0.5568811620082553,1.3952604618262416,0.264924858031396,0.5451450225947388,1.427209235966838,-0.2708662830858596,0.6779426556678263,1.1908976786850283,0.5277225470436047,0.6215625355356529,1.2958407798462936,-0.12750980607104248,0.8987123016469067,1.2561003643266877,0.5484780001814308,0.8396718091616288,1.1357655708792893
0.08343108801574871,0.573274317934501,1.4595059010319893,0.09031010898144592,0.531329082399288,0.08144541080535536,0.19584321209426478,0.6525995205829431,0.49125521225461755,0.03303283130611409,0.6336337840279115,0.4661576964569316,0.24727721933681088,0.895546311321221,0.8008235288471965,0.03705575635810308,0.4896738497026119,0.846907528055667,0.21828337352169985,0.49977042646086367,0.8778555196008014,-0.08439087746361405,0.5622520299395031,1.3950592627126004,0.26390843437272116,0.54922024533585,1.42783363813004,-0.2811671128771919,0.6813727667346067,1.1977556349349383,0.5336866746174738,0.6195844357005906,1.307713304144957,-0.14541381539398396,0.9083373298886606,1.257722281896107,0.5753477689085696,0.8333472987370205,1.1458678416895585
0.08051695323200726,0.5780489394868449,1.457521749738839,0.09074003197245659,0.5315472906953487,0.08118575787592087,0.1928040094409195,0.7188671991774833,0.5179639520829318,0.032283568066424476,0.6448696046582846,0.4626163150137704,0.23677237499365422,0.9200643962262322,0.8572043996453417,0.03911540009367798,0.5041245262808012,0.8445296236925467,0.21921199756408188,0.5168902743577046,0.8806279903633143,-0.08681133761685858,0.5681791087802907,1.3948509852807263,0.2624864547182878,0.5527550809935445,1.427849783993105,-0.290877778083009,0.6829287150382957,1.202427212490904,0.5379652381894402,0.6182689483505278,1.3183937969742536,-0.16289822883768343,0.9152902429976733,1.258733110110179,0.6000110139459863,0.8265960950407854,1.1559963050881985
0.07731052976976592,0.5819731433058142,1.4554863459281109,0.09051553577591417,0.5325298222419584,0.08162727382377816,0.19089909973084065,0.7874520280444142,0.5488221975594124,0.031287835290031936,0.6578031929125961,0.4591805300819297,0.22621134338410576,0.9386349326027873,0.9140453165717469,0.04113417363685111,0.5197874528439786,0.8420276627759112,0.21995622588040753,0.5356420784759707,0.8829599067968852,-0.08982023129797384,0.574183024083782,1.39387848203059,0.2602293713807974,0.5571597423538169,1.4274530664624796,-0.30101765913433925,0.6815601303951078,1.2049230756652682,0.5405024520709445,0.6174116962564253,1.3275552568862872,-0.1799371233725274,0.9181345399913237,1.2588512894642945,0.622795892062551,0.8205827023924737,1.1676409588082646
0.07373490809447737,0.5852545374299607,1.453548730307841,0.0904064123138784,0.5353823614618465,0.08274898515118358,0.18938371394475811,0.8579547274228133,0.5833668692873746,0.02903064211852519,0.6715701496148945,0.45614744726239986,0.21485473278978978,0.9508745257752782,0.9683414340882149,0.04171811709186617,0.5362784502209965,0.8398754132312296,0.2194926656651823,0.5556014378520878,0.8838063769432438,-0.0927328460276339,0.5792379638724564,1.391580956123178,0.25767283132205515,0.5609283940280511,1.4269107789622053,-0.3106561537324829,0.6779681154374657,1.2055592392735652,0.5418397618025503,0.6163377671412599,1.3355819937458986,-0.1960389845725047,0.9182420601468105,1.2572679637854212,0.6440410880936088,0.8139279441382176,1.1802181958926987
0.07106613739815705,0.5887814624262128,1.451294007601508,0.09089977922192098,0.5382978365899881,0.0837338340053843,0.18319975795701787,0.9289669088525923,0.6197104686154526,0.026721273800842143,0.6857465216895076,0.4523621419464483,0.20340196320674558,0.9564056796865994,1.0151038225433928,0.04217666686808216,0.5534484955294069,0.8370370737982904,0.21899495532546392,0.5743430654392125,0.8839787145911079,-0.09488990804806939,0.5837357953874753,1.3881021780213654,0.2554347856834967,0.5627181872846155,1.426269756884368,-0.31897629963723895,0.6737378919510517,1.205007054380833,0.5429259002701426,0.614124117950886,1.3434167294706394,-0.2103701500404797,0.9173444353901732,1.254008924191706,0.6628054259629186,0.8054438529802943,1.1929068158710303
0.06835039209337955,0.5926843757392092,1.4482346431016486,0.09236329201108136,0.540596536670182,0.08479909507827177,0.17613970453380914,1.0006050812950924,0.6599075070450494,0.026192876735052925,0.7015370910193529,0.44737490434558214,0.1928468713479553,0.9587523367714516,1.0541984615480675,0.04367678231870959,0.5718374255375045,0.8328458689400269,0.21909834523848054,0.5926596552631668,0.8847967604435468,-0.0959447484885993,0.5874126409233964,1.383632194932533,0.25435050309846535,0.5656270255439614,1.425511001589875,-0.3264797710433329,0.6660679649116421,1.2033427326773174,0.5447083204996903,0.6120731260839868,1.3500086916866032,-0.22677072493119768,0.9142997175553272,1.2478365620098724,0.6790870480535544,0.7972098384836928,1.2041003729308908
0.06584543661269995,0.5965058259311382,1.4441380090577676,0.09511553839165715,0.5436414243913771,0.08650799837743706,0.17038372955170195,1.0704858733203806,0.7045090143382379,0.02748569148880156,0.7190014578244125,0.4420651070971336,0.18408089492427612,0.9593374238405278,1.085229984558285,0.045798291274515554,0.5908888547940357,0.8280203284548844,0.21978110272426238,0.6098532707004183,0.8852527428894927,-0.09624286347732723,0.590309552114904,1.378125012643479,0.2533459060093623,0.5711520936700868,1.4233222983183642,-0.33219239129571204,0.658665081283878,1.2006718660277844,0.5464026684945291,0.6113084470980349,1.3550228754215095,-0.24462027520539628,0.9125206939459126,1.2384805408848778,0.6945488567156332,0.789867648146181,1.2143307341042717
0.06439277529156905,0.6002104952009216,1.4387815398839232,0.09830707784569821,0.5477897613833862,0.08874202934477823,0.16416513003999753,1.1337260654080086,0.7507325879582988,0.02945869076713667,0.7377100732230957,0.4364980979247388,0.17747701458308066,0.9612620198071443,1.1079022358687651,0.04901578927337869,0.6097685088080548,0.8224618238723451,0.22165292621651972,0.6276502004696555,0.8839332064525537,-0.09632722129280823,0.5922199420747365,1.3724507605071312,0.25177764377690065,0.5779402023672925,1.4193257713996072,-0.3350002973975035,0.6553612155929456,1.1966991681200356,0.5478986486192449,0.6099618720375615,1.3605687086805365,-0.2583860810741517,0.9135524504041246,1.2284482000205603,0.7083776255929489,0.7806812643402762,1.223734501519647
0.06318774515034474,0.6027535758057148,1.432166162171264,0.10182270380613465,0.5529961045763712,0.09214426616901127,0.15575996866542363,1.1919395991538617,0.7955533147742775,0.031653219172352275,0.7575448414693932,0.4312284536442567,0.17156384050466092,0.9682018774099219,1.1229442024542073,0.0524372178288517,0.6294853631788517,0.8170837495898042,0.22384340893174348,0.6480728410333297,0.881711967641414,-0.09667488823203031,0.5927206174500697,1.366101638455398,0.2504885790548033,0.5843024144186574,1.4145768755746826,-0.3367186873539303,0.6517573910866439,1.1908059790321437,0.5494060656830757,0.6072455299711965,1.366834947663097,-0.26779465633003835,0.9126778367442324,1.2174374310490224,0.7193155882288067,0.7699873492262664,1.2316608847362058
0.06293436349112519,0.6044509754559709,1.424818017602019,0.10460265787414273,0.558090453331826,0.09655137771441934,0.1451510055967519,1.2479211540504918,0.836917907762226,0.03417776182641121,0.7770929134460142,0.4264452189262878,0.16631776277348095,0.9811657627573901,1.1299876028472302,0.05417839917965282,0.6507123833674308,0.8128981169603944,0.2250323243721576,0.6699149655765425,0.8788190900048769,-0.09735914185948773,0.5938192262252462,1.359003231618308,0.24894349845874852,0.5885173772960214,1.409632731527285,-0.3391326907880241,0.6432649393048109,1.183110756538347,0.5497936111092465,0.6036823790049253,1.3719388406904292,-0.2767205318330926,0.9063400194732438,1.2039268682938746,0.7277973471320679,0.7597008267745223,1.2392857549218805
0.06375030131450785,0.6049002791055968,1.417035060983958,0.10504292014365814,0.5619034388489555,0.09961666436153438,0.13244892584303986,1.3019444863274077,0.8722390185485407,0.03658255496384863,0.7938714373439754,0.4209416223442983,0.16360991721907592,1.0011522429039945,1.129241950879513,0.054394810011437006,0.6727610845872495,0.8091832702863297,0.2250450192895485,0.6925476678010051,0.8754681736548106,-0.09712235473293229,0.5940249610668811,1.350963111312359,0.24700125449609886,0.5904830931925713,1.4042457411526617,-0.3401007455057599,0.6333336316404198,1.1741682973847714,0.5489750482495143,0.6018683702920514,1.3751638623589086,-0.28470862141529024,0.8983920948662603,1.188766923180285,0.7356168600205046,0.7506100959134581,1.2460825835735794
0.06422897792005124,0.6038519582929018,1.4090119966150467,0.10355760068194572,0.5644137707683845,0.10083605714119814,0.12332125310091467,1.3578106508975203,0.9009024258684994,0.03870486704302743,0.8067147159069487,0.4152035069794965,0.1612789976941072,1.028881281129266,1.1196681399279538,0.05410368687147889,0.6941814974334567,0.8061104494891278,0.22431519930152266,0.7146690725520238,0.8732791335437342,-0.09688042011092182,0.5916944223245825,1.342807034780579,0.24513843545478411,0.5905364796627148,1.3973780476872515,-0.3393088494017241,0.6243416382487987,1.1639204958316458,0.5479313539386138,0.5989128379479275,1.3772034200991394,-0.2909182686207545,0.8910447806940003,1.172222270376533,0.7415748798034484,0.7417504723372569,1.2518092512500278
0.06366253985501202,0.6021627375635864,1.4006476784825115,0.10179509018171475,0.5649435069551426,0.10151688730535335,0.12282522877593995,1.4182116676322403,0.9234607937769721,0.039356121272153176,0.8161334705719208,0.4093374420386421,0.16026419150961277,1.0644765799181453,1.0994178440189677,0.05331564110613942,0.7146116595674102,0.8033100821445645,0.22300473708633714,0.7367194580615494,0.8712880996866794,-0.0979006013206948,0.5895329290110655,1.3352444285801937,0.24341810282864787,0.5897011468366163,1.3888076918128136,-0.33848484381615934,0.6132857425836568,1.1525080316550773,0.5468345131402862,0.5903174164131677,1.3788337803726618,-0.2958625007395777,0.8810837992384066,1.1547237830629218,0.7434126387345543,0.7316743078818129,1.2563658433453533
0.06321823139801346,0.6003904343851961,1.3916971861578165,0.10209534651435098,0.5651518857533906,0.10142415293170706,0.12867428798055358,1.4772339626748896,0.9338951864616449,0.03653158680375593,0.8225726900331826,0.4033810062093735,0.16222460387563573,1.1062467591415155,1.0707940154486941,0.052173841368407727,0.7339975148706663,0.8004075738309077,0.22112014765797275,0.761364500875962,0.8683164511496405,-0.09840802656906608,0.5862024829703091,1.3270838920153787,0.2424429762673469,0.5881044722914545,1.3799701092243983,-0.33656816292899067,0.5995266687144247,1.1401514688165517,0.5458435565671579,0.5776461823842812,1.3791149509084435,-0.30167764421759186,0.8684475609214231,1.1379471396024032,0.7433730490740871,0.7188619670311839,1.258025397777866
0.06295583166412204,0.5975688382061615,1.3825181541337332,0.10578249205654151,0.5664878386046989,0.10089682048203749,0.1330532014772123,1.5271734745950654,0.9298330808675037,0.03052392863926071,0.8260906598758427,0.3986979454519008,0.16229051624390578,1.1466194857079295,1.038532788809881,0.049975648717403884,0.750762978283712,0.7982823949348188,0.2182802103811683,0.7863455000006319,0.8639472075920753,-0.09814943448675181,0.5806527011113266,1.3179621921503069,0.24147896930288187,0.5852293502628989,1.3726604667242488,-0.33309471120238077,0.5863352471516565,1.1266427172248576,0.5441375706061045,0.562211269884025,1.3781366237790114,-0.30772743390421264,0.8562906428052764,1.1217059850783664,0.7430280457985032,0.7022338970079449,1.2578873927396061
0.06222014324446146,0.5923915348378312,1.373701266297503,0.10958059757870899,0.5678393009903646,0.10097392681279,0.13039211386628768,1.5634713755072613,0.9205337761325949,0.02301935394321762,0.8271378482988849,0.395959737960393,0.1595541056844459,1.1772917488970986,1.0072021618099651,0.04681383458828787,0.7637192975906731,0.797366368188664,0.21536534240723695,0.8055287781378856,0.8585850762883744,-0.09841013355513477,0.5762551650557562,1.3083249913383042,0.24010161242960226,0.5812925981604639,1.3653606714134086,-0.32875117777191787,0.5745283018125972,1.1114075231216176,0.5412578798253259,0.5447279025476478,1.3766573976536731,-0.3092380837514245,0.8449194172653378,1.1046288137450517,0.7417025781494407,0.6838055892448816,1.2578966225718198
0.060683245029262055,0.5865487827831375,1.365018264401106,0.10974308521349196,0.5690792071922827,0.10137769120275064,0.13018627563721902,1.5852771810312145,0.9104938628280353,0.01472705590449632,0.827341680847847,0.3946686327159474,0.1591391809072682,1.1956681603688568,0.9802131667283521,0.04384230500329176,0.770899771689963,0.7967669389384776,0.21345275875394434,0.8160188307158845,0.8524565353719407,-0.09920339258253187,0.5721523198716681,1.2978505771685511,0.2388373939038628,0.5766989702552036,1.3577722114702027,-0.3241581616000789,0.5620391428486683,1.095045696940261,0.5377336614032231,0.5261056642116033,1.3739870051761593,-0.306288953324883,0.8325437775093514,1.0883891816311204,0.7395529119114155,0.6649227258784354,1.2572634896313881
0.05918540580321413,0.582649335861021,1.3559182345825564,0.1067644474709393,0.5698550815232698,0.10141837536825407,0.13282770895779739,1.597837327552027,0.8980499318258423,0.007230570954674251,0.8264861805554538,0.3946427065711894,0.1613804455908293,1.2059649994428647,0.95387782585548,0.04172155166348079,0.7710798527330649,0.7964515906927201,0.21213500368670368,0.8195313746759625,0.8466223934238754,-0.0989767378954999,0.5667710887890949,1.2875596275549341,0.23782476268402122,0.5721817928879144,1.3514235557017187,-0.31880162730259304,0.5516260142190257,1.0795037789335002,0.5337531907045385,0.5070346216599269,1.369915435159542,-0.30389266395687475,0.8223094890396347,1.0724001044905198,0.7371795378603011,0.6447494279520382,1.2546810596326923
0.058953052407539196,0.581096884836055,1.3475219476908482,0.10428651321105586,0.5689325491968515,0.10056299516288675,0.13273966557625225,1.6057690202491077,0.8846059892052043,0.0019669145163183554,0.8229477064317259,0.39509431373916426,0.16526266958106045,1.2122512112358323,0.9243811325790269,0.040121710055569824,0.7658851647455647,0.7963489029943405,0.2101490575648198,0.8188068929396062,0.8431910896267375,-0.09749293756887194,0.5611624655326051,1.2794073380442543,0.236838458863071,0.5671463946764933,1.3466858934699448,-0.31121774599882257,0.5469691453234056,1.065023105876407,0.5295146008434991,0.4887505461639488,1.3655818710471261,-0.3005151779907737,0.8177371013178969,1.0545248612653955,0.7352247227334645,0.6222495100631257,1.2494602313212295
0.05920244808948222,0.5792939094496337,1.3420531532859596,0.10489486278682127,0.566874658283474,0.0984479830752728,0.13023456762568064,1.607230136804906,0.8727836815511595,-0.0018112557455655168,0.8165995899501082,0.3950987985603807,0.17225666656751942,1.2132171596477204,0.8948373070959259,0.0382815362187958,0.7574085399638741,0.7958516175103219,0.2075387511397141,0.8141346565088753,0.8410017317569584,-0.09725194876954685,0.556294364567577,1.2734802160708951,0.23579317063456917,0.5612766862695301,1.3429939596269884,-0.30194612512018426,0.5453863574880566,1.0502757053267062,0.5258704959505449,0.4736895766939837,1.361601330334685,-0.29248210245681117,0.8160365687439153,1.0361911026277324,0.7355905686952333,0.597056799978681,1.2415193585814068
0.058761359900618156,0.5749719037503811,1.3396511395894768,0.10805332361174438,0.5642656118536938,0.0953046174352389,0.13020896697214313,1.6020785309348837,0.861959365775843,-0.004742165826740654,0.8079699489878354,0.39468792838264993,0.17919634342298013,1.2083784294091369,0.8717324203898998,0.036687806807100355,0.7458107416994322,0.7948534196592019,0.20491576494683106,0.8062903640949712,0.8389846964485934,-0.09797132881682258,0.5520214427722219,1.2687578889541435,0.23525846252576135,0.5563400558999013,1.340740978067245,-0.2921926025405794,0.5445441848718646,1.0362440517105131,0.5235104032259221,0.46233362034137626,1.356148814200404,-0.2827451397456738,0.8149890364646275,1.0186212093654679,0.7383025357050572,0.5725050660187817,1.232255329539519
0.057348133475836637,0.5689833585839149,1.3396952679893894,0.11164328856296457,0.5613169807236118,0.09131894807199362,0.135398920382352,1.5921797928930008,0.850760236147958,-0.006479368022570186,0.7975771663345507,0.3945986303617857,0.18419741299945036,1.1984098463282786,0.8582566147831625,0.03576661835173441,0.7311793810458925,0.7939946610720195,0.2030489194609622,0.7951814086088423,0.8367288894975506,-0.09841108606270106,0.5480598117377972,1.265118120132469,0.23511515190503035,0.5521189366691085,1.3404445219739276,-0.28280812116491716,0.5453352459667571,1.024634946879921,0.5217764177736736,0.452577175331735,1.3493098975990614,-0.27303160902036844,0.8154044153257605,1.0021883141295544,0.7411941873984084,0.5517192895699264,1.224201920139061
0.055739994248249165,0.5635994123577317,1.341318644659164,0.11396611853894072,0.5581994050960402,0.08742727742427166,0.14069932511842145,1.5782394987659412,0.8315824435037293,-0.0062094468008149235,0.7872189937787865,0.3954148585497602,0.1863903682418672,1.1846904947774877,0.8545306969126389,0.03560655960209155,0.7149141148430965,0.7938405909778178,0.20252162563194953,0.7812765655686452,0.8343375469486269,-0.09845558428965069,0.544377937887157,1.2628146988700935,0.23538315285182548,0.5473146726015328,1.3413845174937087,-0.27341439419734326,0.5473465282597112,1.015393317012139,0.5210270570236349,0.44451275587516126,1.3427704671721743,-0.2643601536657759,0.8170113023452934,0.9881288606291707,0.7447750431012754,0.5343952581272472,1.2183429742136722
0.05550577494896594,0.5585222878227342,1.344356587503754,0.11620784789933711,0.5560306296859179,0.08457380265463689,0.14505730419089297,1.5583112061400033,0.7976235619862889,-0.003164632979508859,0.7790387740169513,0.39725189431874114,0.18318931670753696,1.1679548898808172,0.8581634183574108,0.036401861206116735,0.6978573811248983,0.7941848539155981,0.2034388597749524,0.7650285294545629,0.8327687889437239,-0.09791642627437358,0.5411438525311892,1.2620286232896927,0.23617452761352264,0.5422878908591341,1.3433357238705501,-0.2634009371529739,0.551149371552816,1.0083529880537845,0.5215937311006553,0.43905007398260415,1.3372061142917429,-0.254273762545815,0.8203919380383421,0.9772634832804176,0.7491749517284988,0.5194419255518472,1.213236878217692
0.05591905831406509,0.5534938734559325,1.3494034578300682,0.11806609415975759,0.5548930973037904,0.08278026185921027,0.15209311346564958,1.5276026809873129,0.7533168162615681,0.0010440390836592463,0.7724245173496629,0.4001673541005082,0.17795284513962165,1.1480472765272538,0.8663030098823775,0.03687310851019152,0.6796063416906559,0.7949047230617908,0.20452459348390414,0.7461564640792766,0.8318573052660576,-0.09723000742893391,0.5381817181002433,1.2629481363560693,0.236889261180808,0.536427052037914,1.3466277333901093,-0.2533616363487735,0.5557425966211015,1.0038134801769651,0.5230409342006634,0.43601442302617693,1.3327058073098916,-0.2396891691688404,0.8244628385454194,0.9700212646091868,0.7535167315856521,0.5076056974750123,1.2086803855002874
0.055794459986094905,0.5493804189997388,1.3562488246042252,0.11896612816468975,0.5534365784025674,0.08142326791846549,0.15955754175649364,1.485270764599278,0.7049209056902793,0.006301040142401133,0.765764036767803,0.40386079582337064,0.17659360689965178,1.1273721352216897,0.8755415063556863,0.03882745476916545,0.6615626137021972,0.7960331865946316,0.20709825795500525,0.7265294738823721,0.8330267396115664,-0.096853802680432,0.5346980566730665,1.2654499315011414,0.23791103480405607,0.5312984135369886,1.3520882084901393,-0.24396615753737444,0.5597921927388961,1.00170305171679,0.5250271457100619,0.4352507680281769,1.3297280298596788,-0.22256864593655695,0.8275977040726161,0.9647754250656553,0.7577047240307487,0.49962833208152935,1.2058741833877522
0.055769819727350595,0.545634405664747,1.3646475286117663,0.12033656244142708,0.5511530230674655,0.0796717098461471,0.1640648844149865,1.4320757060835152,0.6551394949178102,0.01361566279580797,0.7572459330892174,0.40812129139750175,0.17786441068755232,1.1070834307109236,0.8824811224154332,0.043229456288169,0.6453597192503094,0.7984038840548141,0.2123621329815271,0.7068622888561515,0.8373226166069111,-0.09600983138115905,0.5307886954836005,1.26899211321002,0.23932122446078163,0.5282251976144258,1.3592143586645526,-0.2351153606949077,0.5626598548552796,1.001654057141068,0.5268588382426632,0.43572620534811685,1.3287616865652134,-0.20558723293811804,0.8294161869457468,0.9628101675694108,0.7611803099716875,0.4941364785014879,1.2050437379459578
0.056269711981031444,0.5406134939589134,1.37480203497362,0.1227532398606398,0.5483455233874377,0.07707554702551817,0.16816869730293285,1.3693296631436025,0.6059914909974802,0.022863810882493674,0.7468632716620447,0.4122732197603309,0.18090285866302144,1.087071410667567,0.884671698597744,0.04719539072638033,0.6304239239006534,0.801585123327223,0.21789140496835663,0.6868637267073542,0.8413178861608682,-0.09478016702683129,0.5261634295828455,1.2738576142603073,0.24023067849234098,0.5239770153662247,1.3668748790817316,-0.22664781494627642,0.5634359231432934,1.0035614037727705,0.528125397187162,0.43517774047842467,1.329515558839782,-0.18968241031757474,0.829251692563614,0.964672688493473,0.7632198304479803,0.4914859495079689,1.2063053789802776
0.056748813566559426,0.5350242676144776,1.3859230105763554,0.1249409598038526,0.5462882248793083,0.0750011045825533,0.17317300787872406,1.2979562898864754,0.5581849576575817,0.03363222610882978,0.7357023771198263,0.41782760506874406,0.18385921370775454,1.0679421022017535,0.8814124382706132,0.050352049588464794,0.6150119297133012,0.8062403274359734,0.22263703221918352,0.6672171812518776,0.8449417094352497,-0.0938298191451238,0.5214362562931727,1.2807312828057107,0.24108898041215254,0.5188940832481965,1.3760768275014639,-0.21819850390308695,0.5628895462930088,1.0075062390268317,0.5290441603437366,0.43340355731795677,1.3320603131424205,-0.1766890761459635,0.8279370113711756,0.9679180209437873,0.7634283251118894,0.4939694924337825,1.209500288543908
0.057285092281777146,0.5301971614622104,1.396792088681168,0.12626269289080563,0.5454553018851985,0.07452469101396253,0.17792743668666086,1.2183112243000362,0.5134653691467251,0.04408365324956634,0.7247719921710823,0.4250155909766543,0.1859038114200232,1.0496074217608644,0.8725950689352425,0.053628365853099554,0.6001132426530655,0.8124183686666817,0.22742008279585463,0.6481551992712031,0.8497078539980354,-0.09274666235322132,0.5179390353680697,1.2899725362089378,0.24207372105966599,0.5137272297375071,1.3867114692491875,-0.2094484649913441,0.5608471097634045,1.0136082162341895,0.5299822416952324,0.43155748105862246,1.3365226130538483,-0.16701007263564974,0.8255065024757852,0.9724777826534653,0.7622633665565176,0.4997143404697273,1.2139437442714207
0.05756635164779862,0.5255542106551482,1.4076883794677524,0.12759539979155257,0.5450258596253206,0.0750270099129236,0.1833549856846569,1.1322071296942124,0.4734437156551489,0.052272743537342264,0.7132543958643398,0.4324733851925434,0.1901176739217008,1.031872496777279,0.8573491628502685,0.055405320779038855,0.5855735477675308,0.819007987209805,0.2306970504845285,0.629683876430673,0.8540814296947942,-0.0916335349180853,0.514228489422779,1.3001962367525217,0.24206972750367142,0.5073081724831134,1.3976305009347227,-0.2014426710422785,0.5574245872879993,1.021061710947878,0.5307257807419504,0.43101283253109807,1.3427043719474545,-0.1571862817412215,0.8216909212326068,0.9792785682808655,0.7602972281675726,0.5056210865758661,1.2187930959197328
0.057886375245060885,0.5209629595659164,1.4185983318113977,0.12822495229099337,0.5443537386366247,0.07568680514521854,0.19077466119495654,1.0408169870095012,0.43872938431874353,0.05741486293965524,0.6993300440585208,0.439988158362545,0.1952084508572728,1.014318273722484,0.8346750401780554,0.055567340633703784,0.5701587324637393,0.8260259263335421,0.23186675530853584,0.6124334948670789,0.8582339073014661,-0.09181645366612491,0.5104889529939708,1.3100122398859344,0.24163409445103082,0.5001097592194748,1.4078958223540994,-0.19528806894005127,0.5528575896497944,1.0283398905262213,0.5314813071283851,0.43108341829967783,1.3497178545815123,-0.14548954060540273,0.8163177054775177,0.9877238324641852,0.7580513606911182,0.5123685352260143,1.2244751032719667
0.058594197352520916,0.5155685175020391,1.4293251907279374,0.12748013921318238,0.5429736321430184,0.07647786417844464,0.19985665520580526,0.944614338708659,0.41111570026824357,0.059490518171886775,0.6841244845353566,0.44688733493932786,0.2005042544875023,0.9956036033637202,0.8046809888764973,0.056766016555654275,0.5555527595986652,0.8331180922991269,0.23386284574562688,0.5968512008287975,0.8620373971615534,-0.09151326481882792,0.5073386657670202,1.319578135307271,0.2426455530778684,0.4930884078290267,1.4170066188468722,-0.19017243242036366,0.5450728083399886,1.0355296304161639,0.5332790189840313,0.42965439112050585,1.3564328401117878,-0.13669802702621828,0.8077852735581534,0.9947435453586786,0.7559905300985282,0.5203740600206616,1.230768389739202
0.058353679487524554,0.5096441707750491,1.4394654076484654,0.12573905963997448,0.5411174124666419,0.07826857701705485,0.21012927276214624,0.8478924934523905,0.3923770893945457,0.05916908385726126,0.66956412641309,0.45352368440214313,0.2104175820043591,0.9741172794552895,0.7686180920097461,0.059441821890751256,0.5424995915614991,0.8402619927686952,0.23725087720037694,0.5827361488993501,0.8661488242551857,-0.09078065584492455,0.5031553386215032,1.3292109627534356,0.24439133307115826,0.48622640825441255,1.4256840662974997,-0.18551306597516853,0.5359824636602095,1.043225405780253,0.5355071376763025,0.42638154840575226,1.363796273870757,-0.12907013873400824,0.7977584309310712,1.000486134382797,0.7524043966408204,0.5293568933706512,1.2373995717235637
0.05851268295531477,0.5043746113110891,1.4484282136106887,0.12491400095036631,0.5401391050502076,0.08008344283817304,0.22014090892807975,0.7549162261524927,0.3809435758251342,0.05825485887201541,0.655597190924241,0.4595245339736842,0.22278006819545348,0.9472781490871001,0.7280503977116529,0.061824305177348715,0.5304125287823701,0.846866493235327,0.24017618076884073,0.5694561627569577,0.8707210654875382,-0.09013958494627874,0.49653221333513897,1.338107100926654,0.245614501739754,0.47961455683910104,1.4341511703385517,-0.1812888347623745,0.5277000129834765,1.0507813846157954,0.5372428137599179,0.42305554755980496,1.3715725609157678,-0.12156762246868787,0.788569735902247,1.0069162128429432,0.7469040876070059,0.5390407752965477,1.2442404000699148
0.0600555158000714,0.49983722316229023,1.4559681764823031,0.12439310363949088,0.5400540116057444,0.08106941988119515,0.2274899985772687,0.666414228958025,0.3741376123622308,0.058151518572531063,0.6435594494750443,0.46400949901943495,0.23255935532599178,0.9137671763571726,0.6844372330736409,0.06324624204552715,0.5201764153553874,0.851905499902552,0.24233889686101706,0.5568457800138441,0.8739732465942908,-0.0891434718922349,0.48991297247698556,1.3455730664318841,0.24659282729175733,0.4738151158935601,1.4415887770663995,-0.17816880461437667,0.5205496066825086,1.057518479242364,0.538742133464219,0.4205984072206101,1.37853368183992,-0.11541440479998227,0.7806208127371208,1.0131560789602918,0.7411284513058274,0.5490565626318575,1.2513972366107378
0.061192523281669825,0.49543865569939227,1.4621280840199788,0.12366465762255306,0.5401652651530574,0.08157335837725958,0.23338494473934013,0.5818898482679357,0.3691972581743194,0.0587853907710626,0.6338303298955611,0.46726746285561715,0.24153862958348504,0.8732018801512158,0.6385818973224764,0.06416703605098877,0.5120758922373926,0.8556719523252712,0.2441362834980018,0.5456088339042876,0.8754094532380998,-0.08890163031826122,0.48490112360440596,1.3520623052133849,0.24803650938603014,0.4688469816420974,1.4473507570580255,-0.17603441492621758,0.5135844147605928,1.0632301160213886,0.540910571320404,0.41898850212696503,1.3848620715689366,-0.10936994377404202,0.772578805734233,1.0183179186275764,0.735848336925534,0.5588197010381007,1.258098147695731
0.062232723759892784,0.49070281259820814,1.4670630460741443,0.12411685438246699,0.5394476710853665,0.08211297733964949,0.23866536892513043,0.501915643422416,0.36361844406253063,0.05989719681505212,0.6247184815951928,0.46986432545320805,0.2517589740474701,0.8243872202990099,0.5945589215008354,0.06521533902241929,0.5045527533906153,0.8587690367480054,0.24603172778078702,0.5345942717932264,0.8763304548704649,-0.08881975593842532,0.4792747841298403,1.357554430925064,0.24993813039302396,0.4641581837189339,1.451404970633514,-0.1739885434225379,0.5055672739974015,1.067911825168275,0.5438378744208696,0.41868144423945597,1.390434239123856,-0.10486379895976644,0.7639288600773846,1.0230442790001044,0.730912900355418,0.5689099354930154,1.263704890355486
0.06466063912210959,0.48565171564013054,1.4710814255386249,0.12498706028927556,0.5383114555255996,0.08295205305855773,0.24215201200460515,0.4267328049710216,0.3570118705319307,0.06146629566136388,0.6172232819110932,0.472169197735095,0.25986119371961697,0.7693298031035772,0.5565566284873474,0.06610652800358215,0.49728107833712515,0.8611524254348115,0.2477608401147662,0.5229465412779737,0.8768022398144627,-0.08664263585896079,0.47337760559120334,1.3618997009470821,0.2521315514042101,0.4595055103838085,1.4545292152443936,-0.17186328572448809,0.4967223548081083,1.0720184529264485,0.5469302269086036,0.41863321284233984,1.3946178939986098,-0.10219284845231899,0.7550417040145216,1.0277612838843682,0.7250102607265504,0.5791471345485542,1.267557312948425
0.06738746149496738,0.4802580874708408,1.4741708142505616,0.1252019718032953,0.5379987911407245,0.0835021025817299,0.24409565486477264,0.3572558329957086,0.34824170047907516,0.06283664078475451,0.6119911794787444,0.4738640783212483,0.264636157711522,0.7118948548185327,0.5251802846769146,0.06639409148575971,0.49030488730230076,0.8623156899094414,0.2489303125521033,0.5106114968678883,0.8753954573891162,-0.08334632640736976,0.4676405940020939,1.36519273504794,0.25518682844696444,0.4554671790225672,1.4569107621448314,-0.16932987649622808,0.48741755753887184,1.075273793020293,0.550463892383249,0.4176784608186358,1.3973828313527785,-0.09893883698662276,0.7455802100588643,1.031276414837985,0.7187284956360809,0.587756054338349,1.269379247626887
0.06987520399450965,0.4752220101526302,1.4757698071099754,0.12482804359321509,0.5369541529856096,0.08332670115942101,0.24403190830801222,0.2935678638661465,0.33287275662832627,0.06372271228873354,0.6076174090441169,0.47450667622190856,0.26685997080134927,0.652763959362274,0.5000691616490028,0.06648749423615358,0.4836039851395377,0.8622282810214482,0.24983079225703977,0.4969778102838063,0.8726936795821062,-0.08045868231547132,0.46222372631305025,1.3665032163252604,0.2584835939108991,0.4524023555443577,1.4579728140408235,-0.1674082593054874,0.4787214811925009,1.0766635107246476,0.5540948286502534,0.41800840249350424,1.3980659509918256,-0.0955315629061657,0.7366309915301725,1.033567451531443,0.7134073999979677,0.5965111460083674,1.2700719596361125
0.07335920982536724,0.47109240103942907,1.4759352862594064,0.12390413496673928,0.5356688825432684,0.082522696337137,0.24014596229026264,0.23408106792574757,0.3096749528696809,0.06431597298754639,0.6022513584374224,0.4746494305233359,0.268588301883146,0.590597592518151,0.48167867256339625,0.06701964151414186,0.4766379037924899,0.8618523052961192,0.25084527892546526,0.4823889556947877,0.8707668205573881,-0.0777620281310341,0.4568987856295172,1.366466452645715,0.261980540911438,0.4498379670944204,1.4575059556498662,-0.165589375226,0.4703340136978106,1.076727156243373,0.557766488992718,0.4202667528770955,1.395846980892532,-0.09242598465821013,0.7282288401823399,1.0357596740621815,0.7086474920645132,0.607214838561066,1.2697270734921786
0.07703221821660436,0.46763267618606785,1.4758276921591975,0.12315122773904247,0.535089092924901,0.08167673120052564,0.23500392969548597,0.1808178447782607,0.28077714800451536,0.06395379919762635,0.5961875891522034,0.4747494659021356,0.2702425165826424,0.5276336111434057,0.47044670740033745,0.06851059496312244,0.46959670549872484,0.8616184925101918,0.2524547623096728,0.46745206509257287,0.8697811117420089,-0.07378843042010771,0.4520051371318873,1.3664207855738566,0.26650560715526256,0.4471537653408085,1.4559934897061617,-0.16228614887400752,0.4615941517023694,1.0767464989837356,0.5621123667477159,0.4222237859700095,1.3915279936440068,-0.0895673905317005,0.7197680939638553,1.036773515708035,0.7037519806035322,0.6180145557769455,1.2681213966322926
0.08095298053002764,0.4643842422517319,1.4755418545729762,0.12316339656552766,0.5344066521781629,0.08108825654384554,0.22957683857290617,0.13768709887372443,0.2493176223738342,0.06436806130603775,0.592661777852492,0.47464700749242816,0.269775040178183,0.4692245977824827,0.4637152983340177,0.07052130018647558,0.4633484738699929,0.8605992483946489,0.2541806495137125,0.4521384831133742,0.8672873051172237,-0.06886242765375057,0.44754635723055763,1.3655149124635642,0.27103255246786906,0.44427549812314326,1.453583220516649,-0.1584481690365251,0.4537315733406073,1.0760816670244076,0.5661807566210816,0.4236674064200702,1.3856142871592434,-0.08686628146885639,0.7122665929751044,1.0364183530170914,0.6995378985117328,0.6272757521317986,1.2656820019085113
0.08559665668814188,0.4621403502683187,1.4741800908641978,0.12328330071389405,0.5341238086419713,0.08039706845911915,0.22260005788322718,0.10460943420521186,0.21965728881460142,0.06709470021716647,0.5916688783950712,0.4744505945992331,0.26779809832040913,0.41839111378186644,0.458390063369561,0.07176992531160965,0.455625931710718,0.8580958318565508,0.2548736383457445,0.4365825361368195,0.8620209899658307,-0.06491995053090227,0.4427352101261767,1.3634527267848815,0.27469090375729116,0.4408110083396122,1.450241091105011,-0.15533430822390187,0.4466588269573439,1.0742340013372222,0.5692228588356725,0.4268413460779776,1.377975225752287,-0.08307120292415557,0.7051830590321737,1.0356959323874242,0.6961307535389706,0.6364257939900153,1.261382156798455
0.08987630573899343,0.4600407703748979,1.4722980376994705,0.12371979108508954,0.5341134877162205,0.07929005445528832,0.21445797987417614,0.08053775195866021,0.19055496843690892,0.06987344408428792,0.5892350294562831,0.47401625418958515,0.2646911532234769,0.37227185617275393,0.4548623421632127,0.07245921642826907,0.44519394457966205,0.8547500655459661,0.2549828345594622,0.42095647095963634,0.8560401043460589,-0.06157575009598059,0.4368988538456609,1.360149112541871,0.2793248135769938,0.43757486657842365,1.4461370045912012,-0.15210918399209183,0.4390085080873446,1.0709515866414765,0.5724958226198678,0.431108370956934,1.367590456770271,-0.07851119915222783,0.6973880653521067,1.0340285535707354,0.6906453583407797,0.6471958916580309,1.2537104334533975
0.09457588383812482,0.45770693252691574,1.4703479710529346,0.12446383486354075,0.5340054981943938,0.0786289809604841,0.2059686461590187,0.06621318487212054,0.16262705483714326,0.07218251449767353,0.5866827692949499,0.47389942453656897,0.26057835351308617,0.33133043098047094,0.45284949718215745,0.07359940835535199,0.4335054990144175,0.8510596475383162,0.2554934340600106,0.4048848603420387,0.8503060228466838,-0.057864589900978446,0.43190306623233704,1.3565181022744481,0.2843752018285716,0.4348386750460734,1.4418164632389896,-0.14889930046276723,0.4315184023000814,1.067466614062462,0.5751588017157124,0.4348589052593942,1.3545747212387607,-0.07343644626008282,0.6895204683711548,1.0316700113112023,0.6825223333573317,0.6582971305612982,1.2442427708728447
0.10037808465064207,0.45548930283451033,1.4677171990413607,0.12464674850351105,0.5343534784480088,0.07857538887819662,0.1963076589964251,0.05735359814887724,0.14100056552864795,0.07569292492431447,0.5850493496747172,0.47452833768286984,0.2566908827749847,0.2985024897235648,0.45034941654980826,0.07549573256282036,0.4213822821217026,0.847255555106087,0.2565600299935917,0.3880373368203369,0.8445534259204514,-0.05374194614596882,0.42881677801741935,1.3534631942283157,0.2885159419827746,0.4316045964484101,1.4368240571902322,-0.145984289433437,0.42472436275106334,1.0648198355105085,0.5763006330583819,0.4377607285262902,1.3403743448060563,-0.06864522640155428,0.6822016693816444,1.0292398600186163,0.6746847958176106,0.6671009983199969,1.2338444306268717
0.10630378085365655,0.4533933995783932,1.4637122026020855,0.12441611732801856,0.5350998163674692,0.07869270629164446,0.18568270507477125,0.047607933045629595,0.12839923588408483,0.0801532552013909,0.5825748901536316,0.47559010886890685,0.25287509441128364,0.2726174509123054,0.4483248123737814,0.07716707636700565,0.4090548415347619,0.8438295583418665,0.2572781574151981,0.3709258418560287,0.840401735635143,-0.048413828557855546,0.42665007820406103,1.3503702028462068,0.29288394895949876,0.4264566757937677,1.4309472298858315,-0.14215007583939315,0.41788344302701713,1.0623112311701761,0.5769412544879744,0.4399505451566513,1.3246964206045355,-0.06398790518956735,0.675026696823881,1.0262187539728858,0.6682983089286657,0.6737825795502997,1.2217335705337882
0.11314040625747959,0.45130553795607936,1.4587136458948962,0.1243794921695669,0.5353142743081374,0.07869215196294306,0.1770663429433919,0.037628073767833094,0.12036205688217468,0.08443929607142522,0.5792078687684702,0.4764644839026005,0.2486575952562801,0.2507184331869983,0.4474158825535617,0.07862477504789583,0.3974937696078723,0.8406911921036122,0.2576867668651029,0.35467113292031344,0.8379569386400384,-0.043044000890843474,0.42440024335904625,1.3472052046113603,0.2986206055618163,0.42005525413502665,1.4250229502446665,-0.13785552393377243,0.41149530873999485,1.0596544471295346,0.5773831873820559,0.4421358856797716,1.3068697674928553,-0.05885589446976217,0.6681306170413375,1.021728223657485,0.6606935614029356,0.6806019842845684,1.2077782312240644
0.12138059680120804,0.44864666771379236,1.4542481102010403,0.12508991517447499,0.5350334599331339,0.0782877045323177,0.17088404814944097,0.03206190770081843,0.11221525238400006,0.08860724537505467,0.5741900844236912,0.4768871124422605,0.24534522982048698,0.23307006165820446,0.4462061514876654,0.08008195092196664,0.38629503908035556,0.8379119033997597,0.2580812864959135,0.33920926925954087,0.8360552488792576,-0.03810592429815011,0.42241600619565406,1.3443484314846508,0.30459764477521806,0.4140086405885651,1.4191719439875974,-0.13387445570393372,0.40646577208631857,1.0572750447445545,0.5768474659485805,0.4436021773998552,1.2881588395046362,-0.052442112708484825,0.6621056804246858,1.0177923518032144,0.6507884910233763,0.6867940603267175,1.1932089982372793
0.12882197231762685,0.44596781987285383,1.4507987385536871,0.1272807051640183,0.5340648449310313,0.07796543388450625,0.1669098738866073,0.028618611575492798,0.10501019158601568,0.09271772543684913,0.5674823625098244,0.47725529643733267,0.2446444017572742,0.21969881156078436,0.4440374076439107,0.08089946812258045,0.3747577868993181,0.8356293403223176,0.2580102809117908,0.32440375758285617,0.8342544647133532,-0.03296067215292419,0.42102745038485667,1.3422968966784041,0.3093496335602184,0.40788048203194366,1.4133211146849798,-0.12984049333490472,0.403511495305746,1.0556886482548156,0.5742936288085948,0.4438086814891882,1.2695336244511195,-0.04298987887752769,0.6573087792706284,1.015883942984222,0.6390396774702997,0.6908384967540594,1.177843971261283
0.13498726410622897,0.44302791411806064,1.4477865029556485,0.1297891945199883,0.5328393979447889,0.07814104492736691,0.1656129376615347,0.024696522494569342,0.09954990265495482,0.09674659347922154,0.5604936322532783,0.47800230962182694,0.2449591464535457,0.20873183450702448,0.44208499522955746,0.0815000201539047,0.3631833422701542,0.8337410756729798,0.25781486532468617,0.3101152473209635,0.8331990221928006,-0.027469049953519217,0.41932389925126484,1.341349024567843,0.3135843006154105,0.40033057878385636,1.4082799838978493,-0.12591406694060064,0.40058940620877304,1.0553502882506864,0.5695906726231191,0.4415730687389579,1.2504196515894932,-0.0326925539252429,0.6519477066713509,1.0145246988263745,0.6262232903033726,0.6918113376883989,1.1621321711622075
0.14230378837759847,0.43932435259821156,1.4454221696884473,0.13182867219598823,0.5320666986261056,0.07840173093739113,0.1657031869030105,0.020768650599234325,0.09554115883937835,0.10088960508827145,0.5528563522748575,0.4788396085329483,0.24533986035700445,0.19946408518767142,0.44082326992197546,0.08242575328547519,0.3520712239140776,0.8324772945252145,0.25794370544856793,0.2964342519996509,0.8330606070379727,-0.021382773620701474,0.4169528587058531,1.341255617031331,0.31893357739853256,0.3925848350373844,1.403571925398126,-0.12225854274328901,0.39655902656388314,1.056219983255564,0.564809341429998,0.436550020245649,1.231032603512163,-0.023414348230174485,0.6453945305486187,1.0132292247169907,0.6112558857712895,0.690464004511886,1.147389701114033
0.1503984052989317,0.435434048003662,1.4436827927760638,0.13379857179250654,0.5322166485392148,0.07838693714194472,0.16580927586912378,0.017723257475323946,0.0923866778232682,0.10486956337342772,0.5446991807004282,0.4793300447817312,0.2463577825706088,0.19202244678760802,0.4396933373161224,0.08376205715376839,0.3422090477529723,0.8318435999766813,0.2584309166695182,0.2839754972949879,0.8331522415778239,-0.015376953929382714,0.4139230546887301,1.3423347504528724,0.32512675791510626,0.3852465875511155,1.3989969888175475,-0.1184693265547007,0.3918630929514171,1.05821552225073,0.5605036424623362,0.430407028437571,1.21267347228548,-0.014274263008347209,0.6382338612921589,1.0136342836844516,0.5931040101172271,0.6878960767317555,1.1335469217454754
0.15766127744520306,0.4321463196224207,1.4422580448022297,0.13494226489858,0.532185392487145,0.07839411805042809,0.16549123520421846,0.016372961952888232,0.09002961682446824,0.10743126212522469,0.5370036242012693,0.47959878449107596,0.2477555241839392,0.18582796896952963,0.4393324925776217,0.08517158677238995,0.3336374066315038,0.8315429195543105,0.2590735614147033,0.2731701077455434,0.8338610608078896,-0.01051585014270938,0.4101656068363113,1.3443706061020437,0.3312829215460279,0.37862293387049606,1.3959674284692172,-0.11463498392122415,0.38668972065574886,1.0607358204301314,0.5549281549879059,0.4225011685235866,1.1954151143609184,-0.0042151896138291935,0.6302753059499477,1.0158492682980516,0.574290995276011,0.6825547511714619,1.1204458035032245
0.16430610505508855,0.42913281518872576,1.4414893312208947,0.13530744195321456,0.531609722876878,0.0787560014084213,0.1647523419262934,0.016302714183917155,0.08886533698517708,0.10866333850072697,0.5292809285715891,0.48003984341837613,0.24930957491641567,0.18114907984862322,0.4398311394634798,0.08601674383257495,0.32564533251076366,0.8317962362433945,0.25923319805392947,0.2633026321928581,0.8355086384035747,-0.006122649802633075,0.40717552637959264,1.3460536276059496,0.3371707607101009,0.3726935930517423,1.3940448794898883,-0.11085306249660101,0.3828894431756581,1.0627119939635192,0.5469566186176444,0.41274335266356876,1.1782938124740807,0.007524013997976667,0.6227913601429138,1.0183217177484092,0.5546063550516694,0.6743975538495446,1.1068768760199441
0.17021602189940205,0.4258129094704896,1.4417419385304462,0.13529233657765882,0.5306435993511378,0.07955452237915304,0.16403336643626695,0.01669701362019559,0.08851150175333708,0.10961478224512,0.5212579019104645,0.48079619106439886,0.25027575132497176,0.17753892148145692,0.44091576659473486,0.08676913626949151,0.3180418036490428,0.8327849517864465,0.2593667811958481,0.25410008035757614,0.8377348895704344,-0.0010812394770532534,0.40627795631400004,1.347483716366142,0.3425353341793954,0.36588024035686567,1.3925444318968647,-0.10710281564859532,0.3808037014942765,1.064725199684671,0.5369144855878846,0.4019773137465145,1.1621666350157775,0.020236312398904614,0.6163200299011403,1.0216794186111933,0.5324130165870566,0.6644949294635965,1.0937248186010013
0.1760658485236013,0.4226106354229497,1.4427915391905854,0.13507754387024232,0.5293565136629311,0.08051819418546965,0.16348543850679068,0.017143609055538748,0.08819570006653185,0.11030317493903131,0.5134994977227795,0.4816162293685788,0.25027583400680187,0.17391408584781795,0.44229311050063996,0.08771757823094253,0.3113436055468455,0.834234420638716,0.2597221570031569,0.24587982373423356,0.8399591337349492,0.0044613938665284845,0.40515995756116996,1.3501630122553516,0.34777845691632847,0.358562137086137,1.3912168873717006,-0.103629634967316,0.37862320797542803,1.0682915866000955,0.5267981615453955,0.3907239141640552,1.1481483283516074,0.03188977780128806,0.6097733855872888,1.0265158164518577,0.5096628554719334,0.6533611738726431,1.0821799041584612
0.1820476294347579,0.41916307147578274,1.4440385002101765,0.1347866081466669,0.5277796500369455,0.08121476401382753,0.1630243993221264,0.017353993267956003,0.08769302545093796,0.11016003167849513,0.5060872276930953,0.48204894489903133,0.24950346821772507,0.1700227008880749,0.44365746856483385,0.08814701504602838,0.30608776307017604,0.835930718795321,0.25956645499035,0.23911704204212242,0.8418195785098612,0.009443378377898897,0.40185021374771585,1.3541729922341743,0.35249329593314255,0.35126482623677024,1.3896930225204063,-0.10058059788687708,0.3750851665363533,1.0730713618403902,0.5165573153951009,0.3793353908752394,1.1358094274732116,0.04195910552505495,0.6019559943560121,1.0311485529120135,0.48579874475599477,0.6413835663769994,1.0725059637881456
0.1880879817350599,0.4146976051807648,1.4454321526678382,0.1345175372641547,0.5261931587406061,0.08161120560639684,0.16271418317240047,0.017114460108557304,0.08737716905893864,0.10920462461615271,0.49906771682080087,0.48207855001826183,0.24846569123325773,0.16655152017360328,0.4448764076497629,0.08806689690088378,0.30209961777307526,0.8377020215605099,0.25905786455158347,0.23402840927255658,0.8433122680412378,0.013584282672699515,0.39722113617797256,1.3580736034091399,0.35619130226891677,0.34421992361745385,1.3885202334524442,-0.09754145949969338,0.37200452280955515,1.0772630613919814,0.5041457515893746,0.3674062216554891,1.124451842282894,0.05265196723422534,0.5940967076746176,1.0365718951020089,0.4628707528926441,0.6287516847274047,1.0643093807150361
0.19428491964856243,0.41026172538530536,1.4472087745524873,0.13396318584652608,0.5250061354826265,0.0815853033659769,0.16273470222305972,0.016852543776914537,0.08714305802909199,0.10831158731543088,0.4924801843277839,0.48162012560283624,0.24734196355224944,0.16324119260593026,0.44618209517829116,0.08812559024053555,0.2986658061629864,0.8390362626768249,0.25900786689031796,0.23030867312903644,0.8446459333902144,0.018165511786626853,0.3936568783560417,1.361727379370859,0.35983715011900685,0.3382312937750189,1.3879981507654147,-0.09428819601489331,0.3701367805555121,1.0812998578120232,0.4902677652300457,0.3545826521705364,1.1143543667089135,0.06361266899105346,0.5874259196907333,1.0439574217010281,0.44223776446188173,0.6153528260197398,1.0567872056083312
0.19990054898306586,0.4065902971358594,1.4490984718805964,0.13396369604885064,0.5246144681914007,0.081550554345747,0.16228807795155828,0.017105483039959665,0.08680690334315937,0.10788290261361391,0.4857728356933257,0.4810003997396273,0.2458818846413392,0.16016541505399434,0.44741487062505725,0.08810266956127298,0.29542263222762677,0.8402820110550651,0.2590686412628951,0.22727624070724398,0.8458303693810685,0.023379090693465967,0.3908246306467303,1.365588270383498,0.36361425865602576,0.3321465694613758,1.3876960550824138,-0.09152073225530372,0.3679304628706445,1.086101412099471,0.476831160692167,0.3414492051802104,1.1061764009501427,0.07251146112984264,0.5811735733620784,1.0520842313816035,0.4230952492697025,0.6016885104879589,1.0512572987453144
0.20572862191849586,0.4035766225860062,1.4503846679055281,0.13406783600360833,0.524669759967761,0.08169042121151429,0.16117499097066168,0.01773316242108882,0.08653943867255451,0.10741772098804434,0.47984521628647253,0.48046766860829604,0.24448536528780793,0.15776888466300298,0.44840494455618346,0.08791927593573945,0.2928606911989375,0.8415357028488435,0.25881764982456174,0.22452649685781176,0.8468352185498575,0.028150039997256328,0.3868589386638548,1.3691250251027098,0.3674074302230402,0.3265354637079206,1.3874578566192726,-0.08837250852126304,0.3668295844364263,1.0900945345615192,0.46503053680028683,0.32848011823192835,1.1000048357967795,0.08118276683917061,0.5763323883292809,1.0600974770140534,0.4056845266704076,0.5881371756074348,1.048250240152816
0.21174810804423191,0.4006107016747109,1.4514091116154622,0.13309337703616797,0.52438416502134,0.08171876076323144,0.1605038600229919,0.018330094138364075,0.08654181669075463,0.10691874056740806,0.4748636277881677,0.479973414790355,0.2438876820098758,0.15532761458770447,0.4495567041142097,0.08780474377252717,0.2914337530434918,0.8428804693739648,0.2581037729670937,0.2216122536381149,0.8480656852914723,0.03200043667750378,0.3826143361979925,1.372087104937943,0.3709216369610958,0.32109256504576966,1.3865438493875095,-0.08452360574057839,0.36700301411246306,1.092777699932525,0.4555546396347713,0.31589272349695496,1.0950362032302523,0.0902649071126679,0.572874291463352,1.068163502833552,0.39093101666955615,0.5749694656357567,1.0468263118726937
0.21734113600375415,0.3972675319969078,1.4527994542309464,0.1323419402438226,0.5241546829180197,0.0817626858421678,0.16071460294448903,0.01867325088697265,0.08662766752405064,0.10634807581580491,0.46996956686801605,0.4794268292177237,0.2434966055741401,0.15343578562963295,0.4506062691020936,0.08749325588490148,0.2905695299942215,0.8443545039096058,0.2571944957309065,0.21927795130592068,0.8492097683912434,0.0355300313967567,0.3808990291965376,1.3749592171894485,0.37401254879071827,0.31509807654356703,1.3848818987831646,-0.0820907247571568,0.36666264438073715,1.0960299652478207,0.4471989109506165,0.3039664417503895,1.0904668374893336,0.09795796701175404,0.5684265671659423,1.0756615058396968,0.3773639978253701,0.5624212243405277,1.0463344100931995
0.22195713289779676,0.39383608033787887,1.454238498936316,0.13221700795126096,0.5243033627866406,0.08186903190419163,0.16103760384684604,0.018724432550375095,0.0868120730734949,0.10588102887339869,0.4655903701437713,0.4788727459486996,0.2430511415730478,0.15240081355297538,0.451368705914985,0.08672982672643653,0.2898461871685552,0.8455569092298848,0.25612788319355956,0.2178036747798032,0.8500674758470085,0.038846933974326425,0.38106534498892675,1.3777990190792053,0.3766547541437847,0.3085790618605078,1.3833818552154808,-0.08137106354752364,0.36583332519751965,1.1000297554928096,0.4391550052761243,0.2937718222075945,1.0866751046921406,0.10371711671034047,0.5631895450125912,1.0817305032219626,0.3632072974435483,0.551108734558757,1.046288847051954
0.22575856309897274,0.3907959034398208,1.455296203674937,0.1318225578246978,0.5241078530770116,0.08179605411439583,0.16105737145653085,0.01871214339518123,0.08714566398005713,0.1056356889393554,0.462140150742635,0.47830807319639435,0.24265010042885754,0.15200431448024643,0.45193039361917536,0.08579881799965089,0.2896086894743763,0.8464769665439592,0.25486545748592715,0.21676621708634342,0.8507684230087837,0.041768168771434744,0.3800964863575129,1.3801512082931093,0.378918056314406,0.3022450946960696,1.3821003243278873,-0.0805150314319399,0.36481739211906494,1.1032949323067043,0.4317043490655579,0.28526490622793316,1.0836248243146183,0.10787220317482321,0.5592030374157283,1.0869953403747055,0.35052059777907535,0.5414689969521832,1.046308019895443
0.23011,0.38787,1.45597,0.13146,0.52429,0.08155,0.16108,0.0193,0.08738,0.10556,0.45921,0.47758,0.24179,0.15219,0.45252,0.08501,0.28974,0.84713,0.25372,0.2161,0.85149,0.04512,0.37803,1.38198,0.38153,0.29787,1.38066,-0.07877,0.365,1.10572,0.42432,0.27659,1.08086,0.11162,0.55764,1.09228,0.34109,0.53258,1.0467
0.23271000000000006,0.38616000000000006,1.4562800000000002,0.13148,0.52473,0.08144000000000001,0.16114000000000003,0.01972000000000001,0.08741000000000002,0.10550000000000004,0.45763,0.47712000000000004,0.24115000000000003,0.15220000000000006,0.45284,0.08469,0.28991,0.8474600000000001,0.2532800000000001,0.216,0.8518300000000001,0.04684,0.3767900000000001,1.3829900000000004,0.3831800000000001,0.29592000000000007,1.3801600000000003,-0.07768,0.36570000000000014,1.1069299999999997,0.4207000000000001,0.2718900000000001,1.07986,0.11371000000000003,0.55746,1.0951100000000005,0.33682000000000006,0.5278500000000003,1.04712
0.23372196587411875,0.38545892987019276,1.4563877545352344,0.13154110650996387,0.5249489708246049,0.08139385728605869,0.1611653255362522,0.01983403935125566,0.08740080441426006,0.10547310519254371,0.4570012005071344,0.4769320955934072,0.24089832503235534,0.152150944901444,0.4529535246225716,0.08456823974085095,0.289999613240747,0.8475892908108402,0.25312421200028773,0.2160046316418581,0.8519300032312025,0.04745761505427333,0.37633185046534423,1.3833984738097047,0.3838337523087844,0.2951290818067655,1.3800591601407015,-0.07724853316668615,0.36600065214890587,1.1073986471259325,0.4194912505568086,0.2701034232554013,1.0796200322773917,0.11449855694919811,0.5574404081747826,1.0961927263690638,0.33521244643185166,0.52598414624248,1.0472806309230436
0.2346624496873892,0.3847734462337426,1.4564755577258364,0.13162477171715464,0.5251896615232888,0.08135592526492878,0.16120196357398783,0.01990144029201331,0.087381878777722,0.10546587758153725,0.4563766600838853,0.4767414546416356,0.2406437352893057,0.1520738827799628,0.4530495951150424,0.08445353629250743,0.2901101920193728,0.8477239756558423,0.25296690337974903,0.21601447090734466,0.8520087884328901,0.048039996188229336,0.37595262084095166,1.3838078726974266,0.3844542937842303,0.29432781421429344,1.380021635693743,-0.07684941821383294,0.3662489045998909,1.1078673422109764,0.418506725870689,0.2683978406067874,1.0794745959255678,0.11520754111035078,0.5574092902950673,1.09720656966923,0.3336328522891907,0.5241170888297577,1.0474080223200535
0.2355390793309907,0.3841018113125658,1.4565414985581056,0.13172124440229557,0.5254428879684804,0.08132395288427222,0.16123786644011112,0.01993173409144109,0.08735540136812829,0.10548042028086071,0.45576009903639775,0.47655102714958986,0.24038380153846867,0.15197894839137643,0.4531301119369618,0.08434221879949032,0.2902396618592287,0.8478626077564081,0.25280470237896246,0.2160259971494996,0.8520697007264746,0.048598864108897584,0.3756561540232883,1.3842032719578101,0.3850420778968628,0.2935154943761876,1.380026620797162,-0.07648388231764466,0.36644718411507843,1.1083294531549168,0.4176971323693574,0.2667756926842208,1.0793949806903185,0.11584015064630815,0.557365639053512,1.098158500672889,0.3320953138109757,0.5222760402091752,1.0475114466289712
0.2363594826961024,0.3834422873285784,1.4565836660183415,0.13182077334610987,0.5256994660326086,0.08129568909175093,0.16126098646152634,0.01993445201870714,0.08732355046322143,0.10551883640439408,0.4551552376708167,0.4763637631221745,0.24011609454746163,0.15187627649150492,0.4531969755478789,0.0842306164063205,0.29038594828366626,0.8480037403339391,0.2526342372385064,0.2160356897213628,0.8521160852333673,0.04914593952330766,0.37544629290881987,1.3845697468854994,0.38559755811720686,0.2926914194460516,1.3800533095889953,-0.07615315265432555,0.3665979174565914,1.1087783478575395,0.4170131764805298,0.26523942011776414,1.0793524763174336,0.11639958371992029,0.5573084471427746,1.0990554901524316,0.330613927236165,0.5204882128280738,1.0476001762877376
0.23713128764432342,0.38279313643951046,1.4566001492785567,0.1319136073226051,0.5259502115403648,0.0812688828079703,0.16125927607706958,0.019919125365605972,0.08728850432559151,0.10558322886640921,0.4545657963090074,0.4761826124933167,0.23983818516468142,0.15177600181513978,0.4532520863648143,0.08411505833316797,0.29054697682368036,0.8481459265720744,0.25245213630044594,0.21604002813570414,0.8521512870228939,0.04969294290778952,0.3753268799736051,1.384892373000243,0.3861211879779311,0.2918548864859118,1.380080896240662,-0.07585845635878179,0.36670353154331914,1.1092073942236496,0.41640556454227773,0.26379146345587623,1.0793183726356674,0.11688903854752826,0.5572367074233261,1.0999045089931505,0.3292027887809626,0.5187808191591797,1.0476834839180638
0.23786165996505582,0.38215161815774384,1.4565919385195292,0.13198989020080573,0.5261851946027516,0.08124086030363872,0.16122243621360013,0.019895638870628694,0.08725220452251226,0.10567258250087491,0.4539957408384335,0.47600941645663275,0.23954890609028048,0.1516879306090909,0.45329668046174404,0.0839930555155305,0.2907207924112473,0.8482871297620859,0.25225661322609944,0.2160379870460477,0.8521778375257204,0.0502479909798425,0.3752951905144307,1.3851597421715416,0.3866143917536962,0.2910037620284972,1.3800890963908796,-0.07560037544733582,0.36676890213313934,1.1096100385749783,0.41582360255110873,0.26243298851598057,1.0792652554570743,0.11731254892846234,0.557152034163939,1.1007142917064157,0.32787563921128027,0.5171814682006772,1.0477735128050198
0.23855613395214942,0.3815114518315092,1.4565702668731029,0.13203939544871562,0.5263918523470679,0.08120745554711091,0.16114634140126266,0.019875125230306954,0.08721575689177959,0.10577487274933298,0.4534499041954406,0.47584210143896244,0.23925154540073765,0.15162070928695542,0.45332964823435196,0.08386629131761719,0.29090586156218134,0.8484232303891851,0.2520514791598807,0.2160373510085048,0.8521953953576988,0.05080647621918974,0.3753253122746149,1.385372861880616,0.38708202123818186,0.29013086165951807,1.380059466887557,-0.07537721413620277,0.3668075514031381,1.1099800041096113,0.41521165214408295,0.261160660264707,1.0791702864825103,0.11767709895843396,0.5570652973644473,1.1014997998566938,0.32664496426064654,0.5157191690123138,1.0478925420404532
0.2392195911005413,0.38086585713900906,1.4565484345731028,0.13205234812526104,0.5265575108861326,0.08116408918070044,0.16102852809222393,0.019868536154751846,0.08718011523229661,0.10587539162570568,0.4529332726757868,0.47567761119460933,0.23895039663878534,0.15158235135011489,0.4533494307713949,0.08373720903590243,0.2911007853695684,0.8485496707151374,0.25184171566913405,0.2160476776554834,0.8522030308000644,0.05136103537491876,0.3753862672695555,1.3855357159307922,0.3875291895415701,0.28922820399145593,1.3799750438339142,-0.07518636298847976,0.36683476771374923,1.1103113761056735,0.4145148009055342,0.2599694354728834,1.0790128059805988,0.1179906147407295,0.556989158898445,1.1022769583718688,0.325522612736492,0.51442135445614,1.0480646796965993
0.23985180669913875,0.3802129574066009,1.4565363866567849,0.13202827056078306,0.5266776867953464,0.08110471517993899,0.1608717635946471,0.019878868782303237,0.08714679679457689,0.10595498919719146,0.4524501716978718,0.47551081334882755,0.23865014779383265,0.1515742968866852,0.45335565710440046,0.08360545405334543,0.2913048897640458,0.848662263223817,0.25163118226375614,0.21607555469892853,0.8522006055836188,0.05190519764498381,0.3754479381220451,1.3856564282539707,0.3879523840031653,0.28829333837061083,1.3798375710335717,-0.07501804430101996,0.36686337805518515,1.1106034873522732,0.4137098070327849,0.258841800333818,1.0787925364349182,0.11826609870046073,0.5569319238736283,1.1030545391797186,0.3245141561704938,0.5132825944937603,1.0483069394148412
0.24044821984314102,0.37955504176289967,1.4565412177622161,0.1319745832630206,0.5267548539612035,0.08102204380665602,0.16068325919453824,0.019902363330312436,0.08711779750448621,0.10599074518207911,0.4520043649398562,0.4753348138037933,0.23835582133680985,0.15159240267534752,0.4533489662743024,0.08346829631297055,0.2915181165095255,0.8487571360302989,0.2514227850256476,0.21612504624501577,0.852188654280698,0.05243325031211096,0.3754809407945506,1.3857466402064889,0.3883407662500273,0.28732851424111816,1.3796646824029042,-0.07485639278000249,0.36690411703800546,1.1108601288463709,0.4128003341145943,0.2577496497777679,1.0785265141635982,0.11852086466344229,0.5568981952589341,1.1038352364404609,0.3236198325972551,0.5122695442712003,1.0486303058271826
0.24100634194557627,0.37889596372332096,1.4565688317142356,0.13190135472891867,0.526792470550992,0.0809132857388993,0.16047233860602161,0.01993433672289573,0.08709530534943645,0.10596539147932234,0.451598737951668,0.4751464714934845,0.23807122072038117,0.15163264429323592,0.4533321634284221,0.08332534778495083,0.2917407726853789,0.8488329826530927,0.2512186221763666,0.21619802860467655,0.8521690174946577,0.05293959341231937,0.37546104920837575,1.3858198751565851,0.38868545996022985,0.28634118131120034,1.3794741401014234,-0.07468780758026285,0.3669639323065664,1.111087387134514,0.41180062440048804,0.2566672206040699,1.078235002394072,0.11877144847459419,0.5568891464878769,1.1046171145740113,0.3228362211363724,0.5113454905123866,1.0490389633938664
