PaulMeinheit/Bachelor_Muay_Thai/processed_Data/N3/teep/sliced/JointMoments/sliced2.csv
Unnamed: 0_level_0,R_KNEE_MOMENT,R_KNEE_MOMENT,R_KNEE_MOMENT,L_KNEE_MOMENT,L_KNEE_MOMENT,L_KNEE_MOMENT,R_HIP_MOMENT,R_HIP_MOMENT,R_HIP_MOMENT,L_HIP_MOMENT,L_HIP_MOMENT,L_HIP_MOMENT,R_ANKLE_MOMENT,R_ANKLE_MOMENT,R_ANKLE_MOMENT,L_ANKLE_MOMENT,L_ANKLE_MOMENT,L_ANKLE_MOMENT,WAIST_JOINT_MOMENT,WAIST_JOINT_MOMENT,WAIST_JOINT_MOMENT,NECK_MOMENT,NECK_MOMENT,NECK_MOMENT,L_SHOULDER_MOMENT,L_SHOULDER_MOMENT,L_SHOULDER_MOMENT,R_SHOULDER_MOMENT,R_SHOULDER_MOMENT,R_SHOULDER_MOMENT,L_ELBOW_MOMENT,L_ELBOW_MOMENT,L_ELBOW_MOMENT,R_ELBOW_MOMENT,R_ELBOW_MOMENT,R_ELBOW_MOMENT,L_WRIST_MOMENT,L_WRIST_MOMENT,L_WRIST_MOMENT,R_WRIST_MOMENT,R_WRIST_MOMENT,R_WRIST_MOMENT
ITEM,X,Y,Z,X,Y,Z,X,Y,Z,X,Y,Z,X,Y,Z,X,Y,Z,X,Y,Z,X,Y,Z,X,Y,Z,X,Y,Z,X,Y,Z,X,Y,Z,X,Y,Z,X,Y,Z
697,6.99385,-15.72829,3.2112,0.37437,16.70288,2.84816,2.1428,-23.77031,3.62208,-23.03797,22.29597,4.47777,-15.51975,3.61417,-0.58362,-1.59562,2.89139,0.63321,-22.30143,3.49631,-1.03709,35.04622,3.16906,0.23949,4.61953,-0.04136,0.20105,4.88273,-1.6907,0.76137,1.93397,-1.97956,0.32385,2.19982,1.20396,0.60865,0.31371,-0.28499,0.05741,0.19233,-0.01803,0.24686
698,7.11656,-15.20546,3.05049,0.66299,16.48807,2.86315,6.49334,-19.9975,3.13806,-20.43489,23.27811,4.67426,-15.56154,3.7428,-0.58824,-1.62784,2.81676,0.70445,-13.44313,11.66014,-0.78119,35.16052,2.47684,4.22046,1.31164,2.76511,1.0891,2.84036,-3.15799,-1.1484,2.71392,-2.30942,-0.42609,1.47053,0.8647,-0.47172,0.33339,-0.23093,-0.0501,0.07362,-0.0755,0.06082
699,6.73847,-15.26701,3.19286,0.76703,16.60199,2.8817,5.85408,-17.5511,3.76583,-20.72679,25.3162,5.19844,-15.65259,3.93294,-0.65149,-1.6306,2.5406,0.70581,-15.42522,16.26935,0.16848,31.41522,5.34013,0.97657,2.02933,2.1064,0.22514,2.45464,-3.40703,-2.25918,2.65489,-1.97004,-0.88347,1.46259,1.05716,-1.3265,0.2467,-0.07647,-0.14859,0.10293,0.03393,-0.20235
700,5.67253,-15.8202,3.54385,0.65811,17.18908,3.03467,1.1787,-18.93787,4.88291,-22.43728,26.31847,5.89076,-15.92872,4.15455,-0.72175,-1.61281,2.34059,0.71133,-23.84503,13.1874,1.47918,33.91815,8.92388,-3.8958,4.32809,-0.28312,-0.86022,3.01122,-2.75609,-2.08177,2.23698,-1.55148,-0.72844,2.1278,1.53882,-1.1783,0.20052,0.00362,-0.15108,0.23281,0.17366,-0.28039
701,4.67134,-16.03582,3.66999,0.18946,17.60766,3.10625,-1.9877,-22.34455,5.31111,-24.96528,25.70423,5.98509,-16.38515,4.36267,-0.78353,-1.59372,2.35276,0.70678,-30.59547,7.6353,2.17258,37.89732,4.27555,-3.57818,4.78811,-1.69842,-0.72869,3.27712,-1.98599,-1.15702,2.01599,-1.65641,-0.16543,2.5824,1.66432,-0.36628,0.21539,-0.09341,-0.03219,0.29506,0.17638,-0.14313
702,4.75765,-15.43536,3.37684,-0.43145,17.48843,2.90154,-1.06026,-24.00794,4.86899,-27.48092,26.72792,5.99091,-16.93177,4.58232,-0.83872,-1.59939,2.46046,0.63136,-32.08043,9.98196,2.40259,33.38516,-7.7777,-0.3518,3.92409,-1.8588,0.00078,2.82213,-1.42444,-0.52674,1.93757,-2.02243,0.3348,2.21436,1.26929,0.05277,0.20787,-0.24617,0.11417,0.18663,0.06076,-0.02687
703,6.01,-14.77045,3.01422,-0.2269,16.96212,2.6284,1.61725,-23.20709,4.31688,-26.76947,29.5409,6.48358,-17.48431,4.8904,-0.88445,-1.65616,2.51399,0.53295,-27.92512,18.68315,2.29679,27.31455,-16.84754,-0.10063,3.39021,-1.30088,0.20383,2.36775,-1.27774,-0.71587,1.70543,-1.97287,0.37689,1.71232,1.01227,-0.24407,0.14279,-0.26071,0.14371,0.07599,0.00735,-0.05668
704,7.36701,-14.96811,2.97868,0.81101,16.04598,2.52032,3.20475,-22.37828,4.11212,-22.98579,28.0712,5.97632,-18.01979,5.32875,-0.92568,-1.77649,2.47162,0.50026,-22.27526,18.5855,0.50046,30.38776,-18.805,-3.18894,3.63477,-0.36418,-0.12674,2.867,-1.4059,-0.91916,1.22011,-1.46372,0.14393,1.99749,1.35005,-0.39801,0.04915,-0.13654,0.05035,0.16632,0.08478,-0.06711
705,7.35475,-15.75772,3.25249,1.39022,15.10497,2.55981,2.98629,-23.71544,4.24023,-21.06509,20.54175,3.70091,-18.59937,5.86147,-0.98336,-1.91837,2.39534,0.52952,-21.41967,3.62059,-2.29222,36.53862,-13.6563,-6.18214,4.4263,0.04069,-0.44554,4.24361,-0.9824,0.26708,0.80887,-1.11433,0.09524,2.80557,1.73208,0.54158,-0.00671,-0.04576,-0.03124,0.37803,0.14062,0.14541
706,5.35227,-15.91021,3.49808,0.87241,14.90533,2.63706,0.35596,-25.5185,4.57498,-22.75193,14.64469,1.99891,-19.24117,6.3643,-1.06828,-2.00253,2.38881,0.55851,-26.423,-10.58296,-3.28071,36.26699,-0.1735,-6.8664,4.63813,-0.42992,-0.42992,5.5187,-0.19229,1.88989,1.11631,-1.36391,0.12647,3.14133,1.72599,1.56841,0.07291,-0.09388,-0.02915,0.46751,0.12013,0.36428
707,2.65945,-14.63834,3.3806,-0.18122,15.64868,2.70647,-4.37727,-23.42269,4.61653,-24.50389,17.33726,3.29466,-19.86905,6.74405,-1.1515,-2.02321,2.47763,0.56993,-32.23865,-4.99233,-1.63918,32.18541,9.35115,-2.65109,3.48401,-0.64026,0.01166,6.10767,0.13595,1.83152,2.10577,-1.97485,-0.03036,2.72524,1.64583,1.01972,0.27635,-0.2186,0.00757,0.37809,0.14959,0.2134
708,1.5785,-13.07474,2.98655,-0.67236,16.4713,2.75052,-7.56149,-18.64115,4.06075,-23.00883,25.23754,6.54824,-20.49411,7.06493,-1.22999,-2.03208,2.52931,0.5626,-32.61892,15.10543,1.00364,28.83324,0.72754,6.22509,2.00729,0.40118,0.64174,5.93664,0.0289,0.48965,2.71668,-2.28262,-0.20205,2.03159,1.56943,-0.48253,0.40819,-0.26942,0.00324,0.21787,0.2041,-0.15879
709,2.77557,-12.93082,2.72798,-0.17331,16.18355,2.6578,-5.67346,-17.43426,3.48872,-19.99976,29.25081,8.30058,-21.196,7.43856,-1.33828,-2.05648,2.40126,0.4969,-27.09111,25.65263,2.45634,29.23972,-12.02863,10.7874,1.65152,2.29755,1.06953,4.91474,-0.69477,-0.72289,2.28107,-2.01643,-0.134,1.73119,1.48617,-1.21647,0.30722,-0.17345,-0.04905,0.10549,0.17533,-0.30841
710,4.15352,-13.73681,2.73625,0.21437,15.05326,2.40291,-0.72782,-20.95281,3.59102,-20.92871,26.76253,6.97087,-21.93518,7.86535,-1.46352,-2.11388,2.20384,0.40514,-23.61761,17.4493,2.00542,34.8969,-7.63853,3.27845,3.8194,2.75623,0.77051,3.4675,-2.24022,-1.53843,1.44058,-1.69507,0.25207,1.92691,1.58086,-0.94854,0.0939,-0.06845,-0.05019,0.06991,0.09475,-0.15068
711,3.5256,-13.80398,2.80456,-0.52859,14.53596,2.15447,2.44255,-24.34392,4.29003,-27.40989,23.31366,4.35395,-22.6134,8.29241,-1.56096,-2.20219,2.15472,0.38061,-28.11233,5.15736,1.22038,37.34752,6.8057,-10.64126,8.9181,-0.68299,-0.9106,2.8402,-3.31517,-1.66121,1.15727,-1.7142,0.63696,2.11176,1.65475,-0.43751,0.04043,-0.10915,0.03301,0.10161,0.02807,0.08638
712,1.4103,-13.11808,2.85515,-1.43727,14.76683,2.00785,2.02994,-24.61813,5.12261,-33.25357,22.87962,2.81524,-23.21247,8.7027,-1.65138,-2.27296,2.19281,0.39022,-35.21127,3.45341,1.56075,31.78101,10.61907,-16.59601,11.99097,-5.29642,-2.88594,3.57924,-2.7881,-0.93837,1.64016,-1.79948,0.32632,2.35479,1.56295,-0.06637,0.18886,-0.1992,0.05779,0.26905,0.01768,0.19789
713,-0.30224,-12.94664,2.98524,-0.81705,14.74191,1.9917,-1.23553,-23.26788,5.76811,-30.57196,23.7799,3.13804,-23.76716,9.09881,-1.79081,-2.29926,2.13181,0.3507,-35.72282,10.48376,2.07841,28.50244,1.09644,-7.90571,6.86003,-4.81124,-2.53738,4.31321,-1.90274,-0.44177,2.32497,-1.65718,-0.74854,2.75326,1.51321,0.00182,0.30443,-0.15002,-0.06664,0.44573,0.07543,0.09893
714,-0.74032,-13.3721,3.08269,1.14968,14.47257,2.18596,-4.89899,-21.99083,5.7525,-19.59007,23.8222,4.74354,-24.30673,9.49046,-1.94989,-2.35171,2.02571,0.31062,-26.91251,16.72656,1.21963,32.14091,-7.47357,4.17183,-1.7263,0.45381,0.05422,4.00232,-2.14294,-0.80104,2.14684,-1.27887,-1.28076,2.82804,1.56736,-0.21778,0.17043,0.01499,-0.17379,0.3907,0.14075,-0.10724
715,-0.2593,-13.28195,2.89287,2.37212,14.33361,2.40435,-5.07788,-20.62832,4.74089,-10.56091,23.32885,6.25253,-24.80701,9.85087,-2.03021,-2.49927,1.96057,0.30141,-15.04086,18.32578,-0.15349,34.22072,-7.70298,5.87024,-2.79279,3.62553,1.85431,4.00143,-2.22398,-0.92099,0.95519,-1.01939,-0.22825,2.406,1.63878,-0.50185,-0.08179,0.07876,-0.08086,0.18014,0.18871,-0.25409
716,0.20152,-12.54262,2.53086,1.11673,14.01924,2.27636,-1.81026,-20.04625,3.47038,-13.33504,23.1649,6.32595,-25.19134,10.07449,-2.01225,-2.73356,1.87633,0.26388,-12.2565,15.87871,-0.19977,34.4542,-7.36166,3.40632,2.69066,2.77797,1.93201,5.68204,-0.14826,0.46616,0.44281,-1.47249,1.25319,1.79439,1.59773,-0.5169,-0.08225,-0.08302,0.11856,0.05744,0.22733,-0.24131
717,0.05923,-12.02627,2.32313,-1.64107,13.36691,1.85551,0.43681,-20.65837,2.86872,-24.98458,22.18484,4.56102,-25.39698,10.09356,-1.98347,-2.95697,1.81732,0.22164,-23.18118,10.62828,0.09187,43.03012,-11.55736,9.91347,3.67522,2.4716,2.2522,7.34578,2.48574,2.40335,1.98992,-2.72476,1.22993,1.42839,1.41004,-0.04567,0.26549,-0.35664,0.19786,0.1046,0.2243,-0.05706
718,-0.22737,-12.02762,2.30084,-2.90638,12.96632,1.63773,0.3006,-20.27101,2.76658,-32.03724,19.62943,2.46935,-25.43769,10.01451,-2.00639,-3.05826,1.89474,0.24522,-34.19961,7.43857,-0.84088,55.17473,-13.39102,17.13235,-1.00844,3.64824,2.7862,5.73237,1.84347,2.21847,4.21524,-3.74156,-0.27558,1.6277,1.26655,0.58361,0.60713,-0.49839,0.10056,0.23038,0.16471,0.15777
719,-0.29084,-12.40594,2.38656,-1.60679,13.32181,1.88204,-0.4695,-19.07091,2.75315,-27.45146,17.39497,2.28299,-25.41373,10.0133,-2.06546,-3.08896,2.02052,0.29924,-31.62115,8.85971,-1.72086,49.54753,-7.35149,7.7165,-1.23871,2.08733,1.17899,1.15084,-2.22021,-0.54497,4.29402,-3.19877,-1.35217,2.30489,1.27852,0.86014,0.53132,-0.35023,-0.0297,0.32844,0.06759,0.24996
720,-0.57943,-12.96537,2.55681,0.2341,13.8435,2.2553,-2.00709,-19.6818,2.82435,-18.44993,17.01189,3.88118,-25.34533,10.09232,-2.11667,-3.14914,2.0231,0.31002,-21.78567,10.89535,-1.24327,24.02737,2.42317,-12.85341,6.04336,-2.79492,-2.17365,-1.51411,-5.6252,-3.18908,1.85249,-1.38412,-0.80772,2.90647,1.40745,0.41882,0.09475,-0.02831,-0.07083,0.36796,-0.00646,0.18104
721,-1.28159,-13.56529,2.77179,0.87653,13.37955,2.26746,-5.07671,-22.63734,3.23394,-14.01923,17.33145,4.87764,-25.1002,10.03195,-2.15345,-3.18643,1.84023,0.25827,-18.17245,9.47192,-0.61541,5.15909,10.44086,-24.65549,12.63732,-6.51836,-4.19796,0.75963,-5.68683,-3.80254,-0.44396,-0.02008,0.40843,2.7349,1.59371,-0.99086,-0.212,0.17745,-0.06957,0.30163,0.02747,-0.07857
722,-1.94695,-14.0709,2.98245,0.74882,11.59269,1.81413,-9.26173,-25.12581,4.31416,-14.27743,16.49322,3.76514,-24.63586,9.67005,-2.19987,-3.12345,1.47512,0.1394,-23.08093,6.05825,-1.79509,8.86876,14.53178,-21.80672,12.68796,-6.39332,-3.58691,5.25518,-3.55579,-2.72242,-0.52039,-0.20341,0.90136,1.97116,1.68539,-2.44593,-0.11141,0.10587,-0.0707,0.13284,0.13155,-0.40531
723,-1.82327,-13.95948,3.02159,0.4736,9.74973,1.29089,-12.21807,-23.18516,5.53998,-15.95935,15.34543,1.85941,-24.09854,9.13617,-2.22144,-3.04928,1.08253,0.02931,-29.42877,6.83293,-3.99677,21.7046,10.08793,-10.81069,8.29963,-3.44136,-1.45859,8.22335,-1.02295,-0.15263,1.0184,-1.46374,0.6154,1.91391,1.5615,-1.83787,0.16498,-0.12957,-0.02339,0.07408,0.16038,-0.42507
724,-0.5415,-13.33608,2.82964,-0.18248,9.44968,1.2004,-11.13026,-18.65205,5.84532,-17.58207,15.66352,1.43045,-23.6372,8.69041,-2.15306,-3.09155,0.95966,0.07858,-30.63767,11.02819,-4.40665,29.25047,-4.28655,3.04893,2.91933,0.56957,0.68046,8.85246,1.12676,2.98316,2.57883,-2.48864,-0.02389,2.72646,1.29727,0.60828,0.33442,-0.26733,0.02825,0.21219,0.09584,-0.08675
725,0.97635,-13.39243,2.71311,-1.07665,10.6745,1.58237,-6.96388,-18.48055,5.2136,-17.5056,17.10822,2.99974,-23.26737,8.43084,-2.01611,-3.17977,1.14196,0.26699,-25.98807,11.4392,-2.45451,33.69184,-17.29336,13.10373,-1.73993,4.17168,1.85875,6.98701,1.29301,3.19348,3.11783,-2.30395,-0.79453,2.7084,1.08032,1.4249,0.32788,-0.15415,-0.01205,0.27166,0.05162,0.11392
726,1.57496,-14.44592,2.84335,-1.58864,12.02339,2.00392,-2.05187,-23.25507,4.31341,-15.77851,19.25526,5.55963,-22.89001,8.24333,-1.89519,-3.13738,1.31112,0.39603,-18.41119,11.11843,0.80424,39.92109,-18.26608,12.2615,-3.21954,5.50709,1.77431,3.01871,-1.34158,-0.49424,2.32758,-1.21046,-1.04346,1.5728,1.0626,-0.38229,0.17665,0.0671,-0.07394,0.14514,0.05748,-0.00427
727,1.26235,-15.5344,3.01246,-1.55152,12.50363,2.12455,2.20405,-27.13462,3.66493,-14.56042,22.49757,7.90658,-22.39886,7.91681,-1.85352,-2.96432,1.23541,0.38192,-11.38979,17.48642,4.61643,41.96724,-13.71354,6.08965,0.42882,3.46923,0.90256,1.08955,-3.27193,-2.39081,1.0533,-0.67157,-0.19599,1.25987,1.13099,-1.07542,0.03132,0.07974,-0.01467,0.105,0.01715,0.03945
728,0.98017,-15.84852,3.00125,-1.13813,11.71834,1.92894,4.14311,-26.93955,3.60252,-13.5408,23.19653,8.14314,-21.7603,7.33997,-1.87526,-2.79069,0.95754,0.30497,-6.38156,23.51485,5.9207,31.02346,-13.53496,6.90577,6.10999,-0.11569,0.09296,4.33616,-1.14237,1.17152,0.76381,-1.5053,0.94617,2.25612,1.10666,0.98636,0.08237,-0.18446,0.10748,0.24139,-0.04554,0.36087
729,1.67955,-15.83696,2.90115,-0.68972,10.01849,1.62838,4.4709,-24.79798,4.12868,-11.8234,17.81989,5.4336,-21.05597,6.63502,-1.90086,-2.6491,0.66118,0.27529,-2.34359,18.3464,3.01645,13.69569,-12.26603,11.92255,8.29795,-1.97976,-0.08051,8.13085,1.62158,4.49199,1.54835,-2.70606,1.19341,2.87574,1.15651,2.24891,0.26083,-0.42666,0.12518,0.34479,0.03851,0.38615
730,2.85102,-16.41159,3.00488,-0.70895,8.54692,1.39156,3.01524,-23.38304,4.9494,-11.06966,11.26846,2.1601,-20.43105,6.03383,-1.90399,-2.48703,0.49622,0.31897,-2.83203,8.88881,-1.04902,7.76705,-1.09782,7.94683,6.53514,-1.37977,0.18249,6.86929,0.24137,2.06823,2.04552,-2.88644,0.71861,2.20986,1.36946,0.40212,0.31522,-0.38524,0.02813,0.26374,0.21688,-0.06848
731,3.38811,-17.84423,3.41592,-1.03993,7.79084,1.18813,-2.30469,-23.74583,5.70808,-11.17256,9.78722,0.82153,-19.95738,5.62308,-1.91203,-2.26557,0.49365,0.37323,-10.85715,8.20917,-3.94164,16.74966,12.67425,-4.47736,4.94827,-0.45007,0.0479,3.83931,-2.80369,-1.63522,1.61845,-1.9905,0.31353,1.58793,1.50815,-1.53062,0.18066,-0.12449,-0.07378,0.16113,0.26479,-0.37407
732,3.63051,-19.96662,3.92171,-0.97114,7.22633,1.03175,-8.22484,-27.49872,6.10535,-8.78394,10.9391,0.99743,-19.64122,5.3211,-1.97497,-2.01682,0.60246,0.40881,-16.81726,12.15134,-5.90612,26.29679,13.18226,-12.00559,5.71632,-0.7697,-0.68673,5.02972,-2.79324,-0.65515,1.01396,-1.12498,0.23027,2.26451,1.541,-0.71393,0.01824,0.07863,-0.07817,0.26306,0.15892,-0.10909
733,3.90122,-21.63792,4.1746,-0.38418,6.57625,1.03435,-11.20161,-32.8959,6.10806,-3.02577,9.73331,1.31712,-19.42588,5.04402,-2.07684,-1.84182,0.69113,0.44604,-13.28732,10.45245,-6.83126,25.10462,-3.34611,-7.70421,7.40483,-1.6791,-1.19447,9.51259,-0.64296,3.05321,1.01247,-1.23645,0.38357,3.30215,1.58873,1.12932,-0.00947,0.01233,0.02798,0.44732,0.04422,0.34052
734,3.32624,-21.59806,4.06311,0.16331,6.34435,1.21896,-14.29156,-33.51213,5.8779,1.70762,7.74161,1.84985,-19.17152,4.74589,-2.15423,-1.78373,0.69415,0.52434,-9.88797,7.77521,-6.27995,15.39611,-23.3858,3.50047,8.3831,-2.12319,-1.00111,13.08923,0.61067,4.8804,1.54718,-2.1867,0.59255,3.48671,1.73454,1.35061,0.12753,-0.26357,0.11691,0.47429,0.04338,0.42722
735,2.32143,-20.74838,3.81747,-0.21013,6.42932,1.3682,-17.07234,-27.69098,5.27072,0.3788,8.07956,2.85168,-18.83179,4.40606,-2.2181,-1.79583,0.6887,0.63517,-13.9336,13.50763,-4.82279,4.37587,-30.09812,12.59645,8.10554,-1.69378,-0.3078,13.06321,0.2961,3.84271,1.91502,-3.0115,0.78264,2.55119,1.69112,0.02104,0.28635,-0.48788,0.09835,0.26107,0.11106,0.11428
736,2.29506,-21.24307,3.72807,-1.88984,5.59404,1.14334,-14.92668,-22.74393,4.2877,-6.35355,8.3052,3.06719,-18.5509,4.02963,-2.36762,-1.81699,0.63713,0.63549,-19.22594,22.09329,-4.38404,-0.06831,-20.72218,14.70198,6.13254,0.15651,0.98975,9.18452,-1.05256,1.37665,1.61471,-3.05047,1.13805,0.97153,1.15836,-1.3373,0.27116,-0.48949,0.07699,-0.04967,0.12028,-0.23908
737,3.2234,-23.3184,3.77976,-3.42621,3.83597,0.64031,-9.58712,-24.48248,3.30903,-11.36734,5.92481,1.70219,-18.45072,3.66238,-2.6396,-1.76811,0.43947,0.47269,-18.82492,22.83683,-6.4815,8.67012,-7.07563,10.41418,3.38868,2.93774,2.47692,5.02496,-2.40711,-0.81364,1.05116,-2.52253,1.49672,0.20069,0.7586,-1.90527,0.09154,-0.3145,0.12971,-0.13869,0.09989,-0.36084
738,3.88309,-25.15052,3.74106,-3.13642,2.42366,0.29836,-7.28071,-29.28493,2.67007,-9.17268,2.67987,-0.19671,-18.47903,3.36428,-2.96128,-1.63722,0.18923,0.31466,-13.20834,17.96843,-9.81451,26.43838,-0.54473,1.76401,2.85677,4.06764,2.66502,3.76182,-2.79169,-1.67786,0.85704,-1.97848,1.45249,1.2515,1.19054,-1.52533,-0.0583,-0.10964,0.16485,0.08911,0.11367,-0.22431
739,3.59852,-25.59513,3.59508,-1.53921,1.39245,0.26872,-9.17865,-31.66056,2.97021,-1.84682,-0.68135,-1.58992,-18.55419,3.17774,-3.26359,-1.52534,0.05015,0.28302,-5.30118,14.48806,-11.10654,38.34534,-1.34374,-7.15085,6.06756,2.1118,1.2914,3.76203,-2.83163,-1.6381,1.11875,-1.91952,1.30484,2.9048,1.88032,-0.49987,-0.02664,-0.04751,0.1485,0.30131,0.08102,0.02658
740,3.11892,-25.74681,3.61917,-0.29064,0.14559,0.43767,-9.21451,-34.52832,4.94079,4.96607,-5.12397,-1.95934,-18.74343,3.14478,-3.56112,-1.44633,0.05366,0.32687,5.86806,8.65494,-7.32168,32.32383,0.37608,-9.31941,10.21417,-0.58549,0.35201,3.64977,-3.64021,-1.71672,1.60744,-2.56497,1.75321,3.36246,2.08471,0.00589,0.1654,-0.20977,0.19522,0.26538,0.01776,0.15065
741,3.35406,-27.01865,3.88985,-0.01885,-0.79091,0.65779,-4.2023,-42.06449,7.88,8.16834,-8.70065,-1.06986,-19.11383,3.20534,-3.93385,-1.29281,0.0838,0.35386,18.72612,-4.17099,0.26089,11.82859,12.22229,-2.17501,10.71383,-0.9961,1.33897,5.18785,-4.4936,-1.6445,2.01559,-3.39297,2.58896,2.52478,1.86309,-0.72183,0.32185,-0.42639,0.33818,0.1549,0.04222,0.03268
742,3.21886,-28.4003,3.94039,-0.10623,-0.91782,0.68068,-4.40043,-45.27385,8.89735,9.1162,-8.7362,-0.26047,-19.55686,3.19454,-4.44938,-1.07079,-0.02187,0.30392,19.67747,-11.0031,1.84426,-5.16559,22.43503,9.28509,6.66518,1.10527,3.30377,8.87115,-3.56699,-0.09854,1.91652,-3.52025,2.90466,1.44627,1.35569,-1.65277,0.25168,-0.43632,0.41364,0.12338,0.09406,-0.17507
743,0.52408,-27.98671,3.36524,-0.48698,-1.01091,0.31514,-21.57561,-32.637,5.55706,8.85984,-6.47521,-1.2434,-20.03837,3.16409,-5.10226,-0.97125,-0.28423,0.17607,-5.04593,4.65757,-11.26749,-4.34797,7.51242,19.50478,2.40478,3.94176,4.52216,13.06654,-0.49849,3.20256,1.08157,-2.81462,2.62542,1.07005,0.82246,-1.43281,-0.01883,-0.22486,0.31064,0.12123,0.05075,-0.216
744,-3.85482,-25.9865,2.34138,-0.93525,-1.54865,-0.1316,-44.72577,-12.40462,-0.4122,8.86493,-3.93393,-2.62837,-20.7239,3.41734,-5.77491,-1.02234,-0.51464,0.07756,-38.26777,36.033,-30.63406,10.38688,-32.33455,26.12157,1.64877,6.30647,4.7297,15.90809,2.24229,5.89352,0.14502,-2.1718,2.38294,1.79931,1.05992,-0.42737,-0.25881,-0.03041,0.14296,0.15231,0.01479,-0.04947
745,-6.50541,-24.10507,1.34339,-0.59831,-2.27334,-0.25395,-50.47916,-4.79932,-3.92894,10.99261,-1.35902,-1.94506,-21.68857,4.03535,-6.34183,-1.06929,-0.61359,0.06459,-46.74554,58.80141,-37.77357,25.55529,-67.55962,28.98976,3.09992,8.04682,4.88829,14.8836,1.55009,5.09705,0.34826,-2.58629,2.28573,2.5806,1.87614,0.03034,-0.2338,-0.07714,0.07384,0.14983,0.07115,0.10295
746,-7.44985,-23.26461,0.79126,0.03239,-3.44611,-0.18738,-38.72673,-15.16066,-2.05086,12.76024,-0.74768,-0.36317,-22.90221,4.79708,-6.87201,-1.12474,-0.73847,0.02599,-30.24763,56.55725,-28.06373,30.62383,-70.04288,27.05528,5.16204,7.99388,4.86938,10.23846,-1.96636,1.61787,1.67453,-3.81425,2.21428,2.3091,2.15432,-0.29822,0.02275,-0.35319,0.14979,0.05278,0.12003,0.09772
747,-9.54002,-22.57483,0.54994,0.1353,-5.28584,-0.16641,-27.75938,-28.85153,2.34736,12.50864,-5.81525,-1.10533,-24.44831,5.70623,-7.52006,-1.24646,-0.97431,-0.1041,-9.88629,32.85291,-14.81226,19.92846,-30.96813,16.89215,8.78749,4.45417,2.99507,6.73442,-4.34547,-0.59307,2.56703,-4.37113,2.12115,1.64625,1.75091,-0.56317,0.25822,-0.60201,0.26718,0.01468,0.11134,0.03256
748,-13.66759,-21.06442,0.14146,-0.34702,-6.75924,-0.14571,-26.80421,-33.07327,4.34494,11.21176,-14.6863,-4.2369,-26.50137,7.09427,-8.31978,-1.30711,-1.1427,-0.20683,0.58947,6.28948,-10.21196,3.16061,25.68804,1.92749,12.33268,-0.13336,-0.23892,7.27535,-3.97334,0.07108,2.2664,-3.52428,1.79033,1.53707,1.37326,-0.45594,0.31379,-0.58796,0.29145,0.12098,0.10226,-0.00348
749,-19.41718,-19.70547,-0.2937,-1.19935,-6.84098,-0.13831,-37.41963,-30.65672,3.07219,9.04504,-18.79225,-6.15438,-29.15054,9.0756,-9.24537,-1.13107,-1.13133,-0.20106,-10.57817,-3.22754,-14.37347,6.55128,46.65213,-3.42338,11.03363,0.27474,-0.83762,9.65741,-3.25065,1.01586,1.71087,-2.35678,1.3677,1.79884,1.42311,-0.7239,0.21894,-0.34406,0.23323,0.2397,0.13671,-0.08639
750,-25.57349,-18.21074,-0.77749,-1.85589,-6.44518,-0.21691,-53.18116,-25.10216,0.32253,6.18539,-15.82134,-5.29589,-32.37503,11.42308,-10.17739,-0.75885,-1.09346,-0.16459,-37.37382,10.24244,-21.88299,38.30005,10.93495,7.52197,3.93647,6.35311,3.05492,10.13103,-3.72403,0.14156,1.78291,-2.04923,1.28461,1.87164,1.63795,-1.45562,0.11352,-0.12256,0.20395,0.25892,0.17718,-0.21244
751,-30.15421,-14.80722,-1.80591,-2.04716,-6.65392,-0.21016,-59.45293,-16.96947,-2.26756,2.67901,-13.28885,-4.10424,-36.18042,13.87142,-10.94728,-0.44842,-1.09705,-0.11004,-52.56868,28.4447,-27.43023,70.10812,-37.33227,22.57197,-3.83327,11.10346,7.79341,7.54772,-4.09186,-1.51901,2.25044,-2.51701,1.4803,1.69892,1.67891,-1.6901,0.13313,-0.14478,0.23412,0.19991,0.17384,-0.22995
752,-32.82574,-9.7017,-3.32772,-2.13873,-6.96387,-0.00362,-51.68096,-10.48093,-3.70754,-1.06872,-15.19245,-4.17653,-40.53396,16.3071,-11.5227,-0.3306,-1.01492,-0.01262,-44.15723,32.76376,-27.78003,73.89043,-52.90516,30.97194,-7.15792,10.34542,9.53787,4.87276,-3.35529,-1.78893,2.6486,-3.23557,1.6068,1.29617,1.46862,-1.13943,0.23931,-0.36718,0.26586,0.04632,0.08574,-0.07679
753,-35.58034,-4.36265,-4.75301,-1.91128,-6.56071,0.16477,-40.51748,-6.73256,-4.0605,-2.4219,-16.68081,-4.31925,-45.17901,18.80542,-11.98938,-0.19173,-0.81407,0.01715,-25.85924,31.68618,-23.46019,54.32904,-42.9677,38.74278,-7.01511,8.22693,9.42773,6.00754,-2.16659,0.22434,2.9544,-3.96371,1.62011,0.73025,1.13685,-0.61232,0.22525,-0.55004,0.30507,-0.19219,-0.07357,0.10567
754,-40.20555,0.2989,-5.60626,-0.88506,-5.46764,0.05736,-37.56702,-1.83402,-3.86446,-1.14725,-14.22549,-4.17066,-49.74922,21.45918,-12.43232,0.28322,-0.58371,-0.09837,-17.61747,38.80443,-18.48982,31.64427,-38.94522,51.46774,-7.48828,9.10994,10.35451,9.78599,-1.96337,1.94936,3.16113,-4.43347,1.77221,0.42273,1.04785,-1.13838,0.03866,-0.59508,0.43932,-0.35698,-0.14629,0.03704
755,-45.33595,3.95435,-5.91054,-0.13238,-3.66471,-0.26787,-43.10832,5.19494,-3.72377,-3.60894,-9.37509,-4.44176,-54.07629,24.24378,-12.8361,1.19636,-0.32301,-0.21579,-28.6637,49.36631,-16.39126,17.70006,-49.9358,56.1576,-7.59048,10.92425,11.06976,10.24604,-4.51113,-1.14401,3.1241,-4.2864,2.02392,0.1758,1.22824,-3.24284,-0.03847,-0.58712,0.57167,-0.4386,-0.03927,-0.40898
756,-48.32354,6.87203,-6.119,-0.83584,-1.01377,-0.59491,-49.34287,11.0178,-4.43983,-14.66537,-3.72991,-4.37698,-58.14818,27.037,-13.10864,2.44433,0.05218,-0.1833,-51.67266,54.05885,-16.64363,18.71063,-58.74026,38.54349,-2.67808,10.24372,8.51657,4.35511,-10.01167,-9.00955,3.16142,-3.86384,2.15073,-0.53024,1.03393,-5.48353,0.25544,-0.59581,0.46662,-0.5091,0.06448,-0.83852
757,-49.19988,9.63933,-6.55437,-0.63317,2.28778,-0.69772,-51.04873,13.98181,-6.14545,-27.08011,3.495,-2.33574,-61.77265,29.56385,-13.22599,3.85507,0.56828,-0.07597,-68.25111,55.71963,-16.3055,41.76812,-49.29552,7.51648,5.50465,8.27658,4.11217,-4.37312,-15.90797,-16.43081,4.09057,-3.97975,1.95136,-1.08247,0.30017,-5.4015,0.78288,-0.55647,0.06913,-0.4149,0.02629,-0.75818
758,-48.95829,12.7197,-7.2187,2.9422,5.03364,-0.5961,-45.4721,16.70677,-8.17283,-32.71999,9.4329,-0.01766,-64.48601,31.47358,-13.15998,5.22333,1.11957,-0.10371,-66.32188,58.11813,-14.92386,81.54475,-25.88951,-15.67873,9.16307,7.53624,2.22174,-9.72347,-19.25258,-20.09844,5.62424,-4.42134,1.39471,-0.36528,0.12528,-3.42433,1.04247,-0.3653,-0.32319,-0.05578,0.03216,-0.37558
759,-46.7931,15.45377,-7.72204,7.57989,6.59391,-0.557,-31.04891,18.07022,-9.00898,-36.93815,10.21148,-0.49712,-65.8664,32.59616,-12.77704,6.48423,1.65866,-0.29618,-53.80083,52.85853,-11.94306,112.29094,-5.85196,-21.33555,5.62251,7.00391,3.64676,-8.44046,-18.20376,-19.11171,6.04443,-4.04095,0.88386,1.50397,1.12884,-1.5837,0.70916,-0.11557,-0.2752,0.34376,0.1953,-0.16469
760,-42.39328,17.30652,-7.66694,10.15558,8.41979,-0.78421,-14.22279,14.489,-7.24659,-48.72911,10.47913,-2.31991,-65.76662,33.01555,-11.95058,7.76764,2.28085,-0.50606,-51.60405,36.31652,-4.33655,109.56957,0.31124,-13.31607,-0.88658,4.57491,5.49433,-3.11309,-12.38618,-12.55146,4.35001,-2.40093,0.70982,2.96199,2.25305,0.11202,0.05923,0.02269,0.24046,0.46227,0.31052,-0.07758
761,-37.49192,18.74861,-7.13022,11.99215,11.63126,-1.22975,-4.28225,8.25211,-3.36655,-65.45969,17.24465,-2.01653,-64.17649,32.78386,-10.76654,9.19499,3.01641,-0.69386,-67.01372,20.88941,8.24691,80.33738,-5.77581,0.4155,-5.75744,0.97989,5.86761,1.03772,-4.88939,-3.74834,2.19535,-0.78978,0.30193,2.81106,2.45771,1.74713,-0.23045,-0.05091,0.68945,0.26348,0.25079,0.06575
762,-33.55457,18.49428,-5.92607,16.96065,16.0135,-1.59957,0.11014,-0.3773,1.26757,-75.67779,29.46889,0.50769,-61.03674,31.62592,-9.55294,10.89754,3.88417,-0.83637,-80.70631,11.51377,22.54904,56.54216,-17.81166,10.43437,-6.82622,-1.60708,4.34088,1.40779,-1.18503,0.10351,2.11942,-0.47452,-1.51102,1.4198,1.71613,1.69864,0.21554,-0.29623,0.44549,-0.03634,0.11431,0.09729
763,-28.84444,15.46528,-4.1255,25.13755,20.938,-1.74705,10.53287,-12.80512,4.75751,-76.40761,39.80733,1.95046,-56.22055,29.29209,-8.44375,12.83817,4.89949,-0.81397,-72.30827,-0.57843,33.26606,56.83894,-27.08513,7.02926,-4.82789,-2.47018,1.20304,-0.98765,-3.55501,-4.15986,3.21426,-0.72719,-4.09972,0.24258,0.65036,-0.56166,0.81502,-0.42676,-0.32062,-0.18501,0.03022,-0.16755
764,-19.65352,11.62384,-2.9198,31.48605,26.08455,-1.97504,33.84977,-21.70741,5.18556,-77.8123,45.18499,0.17323,-49.70361,25.97011,-7.21514,14.58216,5.90785,-0.5615,-47.64249,-12.2596,36.13052,68.7145,-28.89973,-9.78668,-1.78436,-2.22383,-1.51464,-4.51218,-8.60038,-12.53784,3.13316,-0.74012,-4.77636,0.06817,-0.19564,-2.9061,0.88221,-0.34632,-0.72096,-0.10357,-0.00252,-0.56318
765,-7.22461,9.07188,-3.06616,33.12298,31.34925,-2.47905,58.50164,-17.34134,3.07808,-85.37361,48.95718,-2.80663,-41.78975,21.99227,-5.75372,15.81878,6.73614,-0.13738,-30.19226,-10.07281,31.90319,71.10898,-24.23275,-26.36368,0.81199,-2.11704,-2.58049,-6.76202,-11.1062,-17.81053,1.75187,-0.47513,-3.09498,0.65911,-0.5132,-3.36536,0.44806,-0.18004,-0.4719,0.10322,-0.04447,-0.78952
766,2.19815,8.16456,-3.99733,34.07843,36.44551,-2.81407,69.07089,-1.05453,0.93909,-89.26237,54.04015,-3.17445,-33.10488,17.65993,-4.1982,16.87996,7.42837,0.33348,-25.3308,6.13968,26.59522,63.24942,-10.79295,-27.59887,1.91753,-3.07519,-2.36549,-3.75821,-9.64403,-15.33952,0.20633,-0.03677,-1.16932,2.25895,0.26482,-2.25276,-0.10775,-0.01778,-0.04518,0.39467,-0.00736,-0.72098
767,5.89125,9.19209,-5.63248,38.81742,41.04089,-2.64149,67.08629,20.00031,-0.57162,-81.15814,61.43596,0.36787,-24.40643,13.50887,-2.7133,18.25623,8.11465,0.71246,-19.79562,32.60633,24.70266,59.09986,4.42401,-12.66159,1.64812,-4.40717,-1.3455,4.54841,-7.12475,-6.86413,-0.68663,0.25523,-0.12512,5.00234,2.28308,-0.61671,-0.45531,0.05956,0.20936,0.75079,0.24928,-0.36271
768,5.20668,12.25917,-8.65514,45.64,45.45733,-2.42148,60.35537,42.69333,-2.7765,-69.68998,72.59196,5.59236,-16.5238,10.05393,-1.51017,19.90005,8.86377,0.97645,-18.06091,72.27012,23.86089,57.29339,-0.17373,3.77672,1.89903,-5.00142,-1.54385,11.40763,-5.0539,2.07301,-0.85233,0.30517,-0.26378,6.86021,4.18944,1.20496,-0.47263,0.0628,0.16131,0.90552,0.57444,0.16214
769,1.50516,15.27246,-11.91034,51.55133,49.64508,-2.46942,52.9416,54.42015,-5.17355,-64.82544,81.44366,7.81229,-10.23993,7.39565,-0.75592,21.25378,9.67542,1.18867,-26.60884,94.11162,19.93511,43.00611,-9.33539,3.27069,4.47381,-5.59688,-5.82277,11.81544,-1.82098,7.34142,-0.53879,0.51925,-2.77062,6.11566,4.55764,2.47553,-0.25952,0.1557,-0.3532,0.74046,0.70366,0.48526
770,-3.20722,14.39048,-11.71831,57.15361,51.4302,-2.22668,48.1745,32.84958,-6.18262,-64.56948,73.10724,2.87542,-5.92706,5.27336,-0.40545,21.70556,10.36311,1.28221,-31.70344,39.19818,12.37418,21.32763,27.21099,-19.71718,9.12788,-7.86985,-13.65613,8.90037,2.29158,8.2835,0.07767,1.17761,-7.77965,4.53936,3.59815,2.1431,0.00043,0.39725,-1.21309,0.63943,0.62529,0.3468
771,-6.79916,8.89227,-6.58353,62.57573,50.3596,-1.4821,45.20508,-10.13087,-5.73187,-66.08548,50.8436,-6.14661,-3.31039,3.25219,-0.25306,21.27087,10.68903,1.26343,-31.5447,-64.8494,4.50672,10.74191,90.5788,-45.60308,13.32242,-10.61361,-19.56489,7.34836,4.88179,7.32202,1.00246,1.79811,-11.86302,4.12218,2.35673,0.78234,0.23992,0.56969,-1.7528,0.7645,0.4623,0.02077
772,-7.57257,0.60201,0.82519,65.0979,50.43721,-1.18286,49.51435,-34.82878,-0.81855,-70.39756,41.39315,-10.53907,1.88033,-0.98186,0.28587,20.78718,10.6637,1.44836,-30.90476,-112.89039,5.76674,7.24316,95.51006,-49.32421,13.69577,-10.70015,-18.63635,7.81431,4.88172,7.16503,1.90775,1.80112,-11.65926,4.56222,1.77128,0.12879,0.41132,0.51207,-1.52852,0.84169,0.36471,-0.06935
773,-5.99493,-1.74605,3.05241,64.48283,53.61082,-1.79389,52.72545,-19.25546,5.87554,-72.46451,54.44886,-7.73783,1.98229,-1.58497,0.32627,21.00308,10.42721,1.95779,-34.84068,-62.18655,12.73785,-0.83676,33.00199,-32.1699,9.99863,-7.52612,-12.61542,8.74435,2.52547,7.37836,2.64347,1.3319,-8.57627,5.02569,2.01322,0.4881,0.50553,0.34601,-0.98931,0.76953,0.39569,0.03247
774,-3.40982,-0.82442,1.08174,64.94189,55.46524,-2.13566,60.97576,-0.3562,10.06639,-61.87174,65.83075,-3.90462,2.48755,-1.55905,0.42476,21.71614,9.97468,2.34756,-16.07172,-12.31431,17.06442,-1.48073,-13.71802,-13.44144,5.42705,-3.41687,-7.02159,9.50352,-0.79258,6.6309,3.29875,0.93829,-6.1696,5.63026,2.59889,0.92987,0.5615,0.26187,-0.75973,0.77949,0.49849,0.03781
775,-0.63899,1.3454,-2.61842,68.87546,52.23094,-1.1877,63.65786,6.15418,8.54672,-37.05537,55.32016,-3.91295,2.78361,-0.96928,0.47921,22.09981,9.24574,2.28358,18.73824,-16.99574,9.63905,14.35285,-0.70478,-2.50491,2.44114,-1.2367,-4.77371,10.12966,-1.85947,6.73849,3.07661,0.82855,-5.55596,6.2774,3.11327,1.3916,0.46035,0.27849,-0.83719,0.94852,0.60261,-0.01021
776,2.44824,3.26467,-6.2876,73.2278,46.501,0.21384,63.28142,11.11366,7.58028,-14.30034,36.16888,-5.81781,2.88978,-0.31317,0.51351,21.86403,8.36507,2.02898,47.74769,-35.27038,1.76042,27.16316,35.84129,2.00043,1.24389,-2.43907,-4.95554,9.63242,0.93569,9.2969,1.42698,0.75751,-5.67233,5.7672,3.24573,2.21741,0.1404,0.26419,-0.86777,0.96626,0.61704,0.08907
777,4.50843,4.30808,-8.44496,73.77851,42.33952,0.64475,73.43935,17.75825,12.35485,-15.2869,31.7226,-6.00522,3.05194,0.1056,0.53781,21.56829,7.56718,1.94866,54.54764,-27.83162,8.37324,22.90665,54.37473,2.01905,1.03668,-5.37909,-4.95219,7.60973,4.51271,12.00242,-0.25337,0.50418,-5.28863,3.95143,3.03702,3.14853,-0.14025,0.14927,-0.67496,0.68629,0.50883,0.2841
778,3.13747,4.33549,-7.8027,71.55216,40.54119,0.12329,96.41391,16.20974,18.20727,-36.71089,43.14688,-4.06464,3.12327,0.24683,0.48266,21.55801,6.95037,2.07498,48.16223,-13.75831,23.69122,17.15537,50.41493,-0.40146,1.37578,-5.59291,-3.47783,5.48461,5.10312,12.19066,-0.09177,0.18342,-3.78472,2.36938,2.86496,3.85569,-0.12171,0.02311,-0.35308,0.3489,0.36097,0.40676
779,-1.51442,3.80283,-5.38279,70.7131,38.96682,-0.17094,116.31982,5.94933,18.23195,-52.22553,51.49167,-2.48054,2.98562,0.13239,0.32524,21.39207,6.28491,2.16664,50.12527,-24.1738,29.11458,21.03126,37.56285,-3.75547,2.70016,-0.80768,-2.29746,4.38208,3.37788,10.55341,1.60396,0.02274,-1.65472,1.88729,2.87971,4.32324,0.09532,0.00411,-0.12131,0.15333,0.29184,0.47555
780,-5.43118,3.86898,-4.54614,73.15353,36.41069,0.32221,109.78972,1.23345,13.44547,-45.79623,46.90774,-2.5271,2.82261,0.01295,0.1749,20.69933,5.34319,2.06385,54.96534,-45.52911,18.8906,23.21364,28.71021,-8.18665,4.94647,5.43304,-3.09153,4.27163,1.91866,9.12386,3.0124,0.0169,-0.08548,2.14075,2.83077,4.42573,0.28018,0.06657,-0.07939,0.12799,0.33864,0.58085
781,-4.46015,5.90418,-7.67018,77.42136,33.16212,1.33787,65.39715,12.25054,10.94893,-24.73031,35.8541,-2.93792,2.68119,0.34045,0.14517,19.60085,4.31949,1.84541,34.72843,-42.94581,2.93451,16.14194,32.82735,-13.31643,6.53337,8.39329,-4.37695,4.79102,0.78341,8.42737,3.31288,-0.00727,0.48965,2.5363,2.41772,3.90031,0.37196,0.09087,-0.10024,0.19698,0.40154,0.64898
782,-0.24146,8.30434,-10.63702,80.16702,28.89627,2.65024,1.69699,25.04113,10.16824,-4.48604,23.27012,-2.60459,2.38358,0.92049,0.24082,18.19624,3.61428,1.66926,-13.68445,-26.9987,-15.55337,5.11668,50.53209,-17.15533,6.06993,7.5443,-4.031,5.06471,-0.65113,8.11628,3.03505,-0.10784,0.49985,2.32134,1.74041,2.94808,0.41318,0.0464,-0.06891,0.13578,0.35775,0.56869
783,2.49004,7.00181,-7.91711,79.69022,23.62118,4.08199,-38.53097,20.11624,2.87976,8.4229,9.77105,-1.4087,2.10067,0.97591,0.34015,16.44613,3.21888,1.58147,-48.39021,-32.10293,-39.45164,-4.56239,67.04729,-16.0102,4.29439,5.22428,-2.2721,4.61279,-1.4231,8.25063,2.72023,-0.24775,0.49097,1.4657,1.27202,2.34243,0.38494,-0.02109,0.00748,-0.11667,0.22335,0.40644
784,2.29278,3.10331,-3.16193,76.90394,18.88515,5.05527,-27.76061,4.14258,-5.84597,15.43906,2.50037,0.82992,2.29235,0.43222,0.29356,14.38594,2.64429,1.53512,-31.2053,-46.07019,-52.46565,-5.43931,58.68688,-6.091,3.34983,3.46069,-0.85024,4.20686,-1.08015,8.51933,2.6202,-0.41046,0.7265,1.13999,1.33202,2.63065,0.28893,-0.08701,0.11914,-0.23387,0.14108,0.34039
785,0.41005,3.21992,-3.77967,73.75832,17.4004,4.86541,14.37471,-1.65355,1.94905,19.54387,11.88009,4.05804,2.83608,0.04274,0.16244,12.0863,1.71702,1.63695,21.45848,-27.74091,-31.27503,7.86097,21.46464,10.38894,3.72266,3.68072,-0.47859,4.25736,-0.68859,7.76365,2.97966,-0.59223,1.16465,1.80927,1.65439,3.26502,0.22759,-0.14138,0.2303,0.02108,0.1891,0.40169
786,-1.36589,8.23015,-7.84211,72.07204,18.6381,4.01635,46.18407,5.22438,26.35671,25.79136,29.15231,6.43521,3.18589,0.05312,0.12185,9.63501,0.72014,1.90977,67.92654,12.13912,11.89565,20.00605,-7.00161,20.56201,3.36357,6.28006,0.05653,4.2992,-1.38088,5.70495,3.64597,-0.80823,1.7945,2.48204,1.60556,3.09537,0.2532,-0.17711,0.26453,0.41216,0.26102,0.42655
787,-4.60933,11.05974,-8.05768,71.00244,18.13017,3.87206,47.35622,11.05183,39.24876,32.84148,31.81019,5.89992,3.03958,0.10431,0.10812,6.98058,-0.23004,2.05619,80.55756,21.50317,29.88287,11.02116,13.87968,11.15935,1.37036,9.42837,1.60965,4.70494,-4.46184,2.98733,4.02852,-1.03483,2.61602,2.64543,0.61053,1.43592,0.29076,-0.20339,0.23182,0.608,0.16419,0.22638
788,-11.13151,9.3922,-4.83011,69.54669,14.37606,4.85907,31.09011,12.11531,22.55331,33.97043,16.60954,3.35565,2.65514,0.28661,0.16288,3.84589,-1.15969,1.96365,60.58004,-6.95111,1.64721,-5.47187,58.95335,-9.16323,-0.19834,10.5599,2.7996,6.0384,-9.69053,-0.03117,3.91724,-1.10045,3.04388,2.88611,-1.01574,-0.97414,0.29926,-0.21026,0.21249,0.59547,-0.09305,-0.15174
789,-14.16975,8.91404,-3.06719,68.29274,11.91461,5.8326,22.15432,13.1891,-3.15316,29.39692,3.78547,2.05384,2.80651,0.70435,0.60437,0.19732,-1.83253,2.01005,37.90837,-29.61713,-33.96411,0.94098,61.72396,-15.08101,0.41862,9.17056,2.13523,6.79865,-13.18168,-2.91686,3.78405,-0.88009,2.4549,3.16842,-1.90266,-2.29116,0.32261,-0.17057,0.2447,0.50233,-0.22613,-0.37595
790,-11.16645,13.07956,-3.08697,66.85076,11.63595,6.30273,14.30064,12.59008,-7.53923,28.19919,-1.24557,2.57878,3.27152,0.96342,1.33451,-3.51316,-2.30447,2.26355,25.42854,-28.70531,-36.36139,26.11624,13.12758,-0.51488,1.75596,7.27805,0.93868,4.95725,-11.81041,-5.13474,3.92561,-0.56412,1.52391,2.53496,-1.37276,-1.84773,0.32612,-0.09899,0.29539,0.32491,-0.08605,-0.25697
791,-10.6754,17.37919,-2.03865,65.03648,8.87672,7.28856,-10.34066,6.57746,7.29807,36.30978,-10.99946,2.48881,3.04556,0.81307,1.87863,-6.99296,-3.11454,2.27122,11.48793,-27.56215,-19.33648,45.53449,-30.69995,14.26837,1.21178,6.9181,1.70115,1.75833,-8.20617,-6.53326,4.25096,-0.47684,1.43218,1.15895,-0.37164,-0.83566,0.30966,-0.05819,0.29075,0.08459,0.12802,-0.01318
792,-19.02795,17.32319,0.35958,62.46301,4.62706,8.37189,-43.77382,1.17335,18.50487,43.3336,-20.30915,1.29268,1.89691,0.5508,2.09185,-10.53898,-4.25023,2.06041,-14.27532,-28.99395,-11.03989,62.65116,-32.78551,13.48164,-0.71994,7.67895,3.9316,0.2322,-7.16918,-7.58018,4.5517,-0.66008,2.13089,0.39067,-0.02925,-0.43782,0.3609,-0.09403,0.25081,-0.07659,0.18472,0.07413
793,-32.47337,14.65702,2.41363,57.48364,2.98202,8.25781,-64.63,2.56296,18.45521,35.87918,-18.09109,0.77079,0.51015,0.47614,2.03996,-14.44023,-5.22636,2.04132,-44.82247,-21.57626,-6.46263,90.76368,-8.55836,2.67823,-1.2123,7.70732,4.6594,0.47741,-8.83248,-8.8783,4.62219,-0.85761,2.49497,0.50696,-0.36323,-0.65872,0.49038,-0.17833,0.26405,-0.09113,0.09486,0.01024
794,-38.88895,10.66382,3.1101,51.03054,3.55981,7.33878,-63.01835,5.97171,13.02635,20.27946,-8.02368,2.49728,-0.12277,0.44375,1.53092,-18.52407,-5.95496,2.21791,-57.8287,-9.99383,6.67878,107.71256,11.95811,-4.49084,-0.20996,6.78607,3.40112,0.34898,-9.51494,-9.98449,4.27184,-0.9057,2.16372,0.57927,-0.68742,-0.84847,0.56923,-0.25675,0.354,-0.0112,0.00624,-0.0166
795,-35.15081,4.75935,1.61213,47.44647,2.96711,7.31835,-57.90487,4.92631,5.59797,12.3364,-1.21703,6.179,-0.14748,0.37617,0.42498,-22.42211,-6.75933,2.21473,-57.73064,-1.971,20.58764,84.29935,17.98747,-2.63498,-1.10764,6.06591,3.06416,-0.81579,-7.807,-9.89866,3.47926,-0.83744,1.69528,0.01629,-0.65632,-0.75609,0.49768,-0.28543,0.41945,0.03494,-0.00579,0.05717
796,-28.41723,-0.7689,-1.23994,48.01895,-0.31333,8.93569,-69.98857,1.01789,-3.13577,14.00233,-4.55935,9.49186,-0.38759,0.40395,-0.67128,-25.88463,-7.77969,1.84946,-67.45405,-1.28074,25.72982,42.56859,15.62127,2.52718,-4.72723,5.6061,4.76422,-1.89258,-6.17136,-9.28867,2.87969,-0.70144,1.02636,-0.83415,-0.63958,-0.95025,0.42799,-0.24339,0.29487,-0.04864,0.00289,0.07669
797,-22.70326,-2.17954,-2.31422,49.79823,-2.80253,10.43574,-96.6741,-1.87245,-9.42361,20.10287,-10.25138,11.26169,-0.97857,0.42706,-0.93311,-28.75394,-8.62673,1.42767,-86.85506,-0.95822,27.38938,30.35485,8.35858,2.63052,-7.01776,4.7399,5.69664,-2.07092,-6.83873,-10.25075,3.06091,-0.51919,-0.21542,-1.20476,-1.09682,-1.95677,0.51441,-0.15353,-0.01096,-0.15768,-0.06818,-0.11815
798,-18.50025,-0.99544,-1.24905,51.51245,-2.67948,10.84861,-120.05826,-4.0403,-12.51217,30.62314,-11.11208,12.70472,-1.53212,0.2103,-0.59466,-30.9831,-9.09265,1.1317,-95.50674,2.12666,28.80173,55.4162,-6.55924,-1.62349,-5.35014,3.62642,4.31814,-1.72347,-8.71598,-12.75622,3.59115,-0.39372,-1.19566,-0.87259,-1.76161,-3.12378,0.61206,-0.08134,-0.23553,-0.12017,-0.20781,-0.41529
799,-16.62854,-3.01379,-2.88965,54.70465,-2.97011,11.7283,-128.27086,-6.23898,-19.44065,44.98981,-11.58526,14.46748,-1.9548,-0.13199,-0.583,-32.58355,-9.49612,0.75693,-86.6981,-0.29753,22.36069,89.86414,-22.05774,-0.91283,-2.52177,3.03367,3.1338,-1.71618,-9.31456,-14.0386,3.6512,-0.41286,-0.64973,-0.58961,-1.99268,-3.26226,0.5186,-0.07551,-0.17245,-0.03699,-0.29694,-0.505
800,-16.20169,-10.43538,-11.5118,59.10439,-3.53057,12.80318,-131.93225,-6.42145,-39.7105,55.00367,-9.7263,14.91586,-2.5809,-0.25283,-1.22609,-33.58626,-9.8846,0.3412,-84.57644,-2.10904,2.67191,109.69723,-20.89121,8.19561,-1.52919,3.10578,3.66026,-1.6889,-8.44959,-12.07507,3.24705,-0.47357,0.76678,-0.68662,-1.81478,-2.3117,0.32026,-0.09585,0.01336,-0.10394,-0.28996,-0.30052
801,-15.66258,-18.16666,-23.6351,63.7429,0.07051,11.44701,-154.0507,-6.45647,-69.80453,57.09423,4.35583,12.89256,-3.56169,-0.11646,-2.07601,-33.96294,-9.874,0.19583,-112.25308,12.63532,-18.60034,106.95181,-0.94081,17.14872,-1.49076,2.94349,3.90274,-0.44504,-7.49426,-7.74735,2.90703,-0.4237,1.14344,-0.36949,-1.62315,-1.24747,0.2487,-0.07615,0.03586,-0.21963,-0.23137,-0.06083
802,-16.77155,-19.66473,-29.66574,69.65442,7.5748,8.05734,-193.96724,-13.34161,-87.29151,61.38784,25.77432,10.33865,-4.22532,0.01656,-2.58618,-33.64696,-9.42644,0.29754,-148.63319,34.86255,-19.65698,95.30939,16.47288,15.47938,-1.3417,1.75423,3.11995,1.75791,-7.57254,-4.81514,2.80734,-0.30478,0.24358,0.84725,-1.58059,-0.95462,0.39164,-0.05262,-0.06808,-0.13153,-0.16753,-0.04865
803,-22.65747,-15.28895,-25.78854,77.63875,14.73065,5.57436,-213.61723,-22.8129,-78.22741,73.71013,40.72387,9.9394,-3.71949,0.15725,-2.52369,-32.85337,-8.76473,0.44549,-148.25157,46.67756,-2.69881,96.93577,9.724,2.94411,-2.24389,0.27734,3.39634,3.28548,-9.09208,-6.16966,2.74108,-0.26021,-0.38853,2.28434,-1.39796,-1.01074,0.63497,-0.09284,-0.05196,0.19121,-0.05495,-0.08599
804,-38.60255,-11.20263,-18.87814,87.30892,18.2452,6.36144,-185.80324,-20.52539,-56.81743,85.42769,38.15099,11.35425,-2.76761,0.39523,-1.79241,-31.96078,-7.98731,0.62454,-107.38488,41.51595,-2.54315,108.62697,-18.37111,-12.08877,-3.9725,0.16641,4.77583,2.47508,-10.18264,-10.26859,2.56455,-0.2712,-0.08339,2.48971,-0.59461,-0.34998,0.74322,-0.1478,0.11428,0.43081,0.13993,0.10974
805,-64.13466,-9.26375,-12.39934,98.0731,18.83424,10.03865,-125.40872,-9.23958,-31.81709,87.90056,20.16452,12.38542,-2.85129,0.31554,-0.39989,-31.26819,-7.0305,1.0199,-61.88027,19.93694,-26.23159,107.6711,-42.55825,-22.94152,-3.71617,1.3383,3.87145,0.38175,-9.27999,-13.00869,2.25558,-0.07419,-0.22202,1.60079,0.29894,0.71305,0.55739,-0.09407,0.15196,0.42704,0.21831,0.30377
806,-79.92533,-6.17778,-1.92892,109.99618,21.30895,13.0292,-49.93476,-2.15955,4.37307,87.06803,9.29934,12.46197,-3.27953,-0.3407,1.19184,-30.914,-5.78238,1.79158,-10.88409,-1.59731,-37.00339,89.74526,-39.13525,-28.59406,-0.59159,1.88615,-0.32405,-0.88243,-7.32998,-12.83112,1.90016,0.43065,-1.73259,0.83578,0.42285,1.01226,0.18805,0.09237,-0.09977,0.3119,0.05273,0.18843
807,-66.67274,-0.56538,13.65275,122.10173,27.55032,13.34161,38.78152,-0.48162,49.48536,92.78203,19.14229,12.56106,-1.92633,-1.14413,2.36302,-30.87219,-4.4258,2.80861,75.98589,-7.65389,-12.16393,75.34769,-7.74037,-28.53655,2.33372,1.40138,-3.59899,-0.65471,-6.96071,-11.54371,1.83873,0.81134,-3.02401,0.72261,-0.30672,0.14122,-0.06101,0.25326,-0.38714,0.25357,-0.1664,-0.08601
808,-30.35583,5.07742,26.23172,131.85968,34.88183,12.39835,125.07804,2.77281,81.75641,101.94348,37.22295,13.04149,1.14539,-1.13528,2.58092,-31.20736,-3.30586,3.82607,181.79759,-3.13026,24.62775,79.51787,27.29183,-19.11244,1.90195,1.50305,-2.15926,0.85175,-9.15459,-9.58427,2.21247,0.62494,-2.34027,1.21841,-1.07906,-0.73017,-0.01745,0.23962,-0.43199,0.28341,-0.17415,-0.1149
809,5.42028,7.50463,26.37342,139.57964,41.38348,12.11309,175.63643,9.57755,80.00791,110.71891,47.13386,13.59995,3.58973,-0.21818,1.75412,-32.18571,-2.56587,4.75822,252.98335,0.61956,35.0315,90.73905,37.48017,-3.93619,-1.06199,2.8337,2.13439,2.23435,-11.02907,-6.70125,2.55744,0.02583,-0.36346,1.69632,-0.87004,-0.23639,0.19772,0.10851,-0.30561,0.25631,0.07577,0.209
810,23.67084,6.02954,15.71537,149.02255,48.24924,12.86769,170.32063,11.06168,54.98284,126.74382,47.45709,13.78707,3.98487,0.48631,0.58236,-34.12752,-2.06292,5.69185,266.41754,-1.47676,22.09172,88.47876,18.62875,0.37582,-1.87136,4.4519,3.42313,2.01297,-10.12003,-5.34144,2.52351,-0.42574,0.77028,1.59262,0.15444,1.02704,0.36155,-0.0055,-0.20126,0.1316,0.33831,0.50641
811,24.75519,3.09128,5.81796,161.12349,57.28279,13.72719,123.74266,0.95396,36.83182,151.80441,45.87854,12.93323,3.00485,0.3437,0.02757,-37.19063,-1.51693,6.75918,240.70171,-7.51651,18.3059,68.46513,-1.74024,-14.87478,3.16256,5.70116,-1.95178,1.38211,-8.51032,-6.19743,2.44592,-0.3079,-0.12154,1.5825,0.58269,1.31507,0.37037,-0.06996,-0.12328,0.137,0.31531,0.382
812,17.9498,1.12152,3.64361,172.28935,68.08369,13.77973,71.85783,-10.22214,30.91883,173.98679,47.95911,11.07822,2.08146,-0.28789,0.3928,-41.11312,-0.92395,7.97542,203.77431,-9.11299,21.88737,42.06534,2.44689,-32.98549,10.50152,6.50351,-9.88042,2.53105,-9.43358,-5.63534,2.31369,0.20429,-1.84027,2.56604,-0.31434,0.30086,0.18922,-0.1152,0.02355,0.40318,0.01254,-0.06019
813,9.78616,0.47608,5.59217,180.36955,78.58502,13.17288,33.28714,-10.0441,21.81861,185.63358,55.049,9.13233,1.67081,-0.68697,1.01685,-45.27292,-0.76599,9.19162,167.89484,-0.16834,8.02126,21.38006,20.97707,-31.62136,11.536,6.42913,-11.66989,4.38636,-12.03659,-2.35115,1.45369,0.50524,-2.18204,3.61455,-1.46696,-0.67689,-0.14644,-0.08994,0.12212,0.6079,-0.25415,-0.3652
814,3.67576,0.61517,5.58861,186.24448,86.88615,13.04115,4.28286,-1.45345,6.56273,186.96738,62.56729,8.21103,1.15492,-0.44866,1.04393,-49.40881,-1.5502,10.23203,135.37601,10.33381,-15.22892,12.04976,29.15503,-9.37223,4.36473,5.57589,-5.379,4.738,-12.59418,1.63342,0.091,0.39625,-0.9005,3.4832,-1.48729,-0.24642,-0.42927,0.06516,-0.0098,0.46874,-0.2365,-0.23159
815,3.12759,1.03872,0.56478,191.08084,92.39095,14.43556,-8.86938,8.34252,-11.12729,179.435,62.94689,9.49768,0.38535,0.2611,0.2856,-53.84422,-3.32863,11.04723,123.34171,9.29496,-27.33559,15.20647,31.49489,17.99862,-3.30908,4.6903,1.47066,4.0006,-9.44286,5.90623,-0.8023,0.29919,0.1541,2.54794,-0.53884,1.21099,-0.50687,0.25615,-0.23354,0.16766,-0.04498,0.13441
816,3.70215,1.15033,-6.96949,195.74809,97.91092,15.79109,0.67517,15.7417,-26.43781,170.76797,64.01762,12.14454,-0.06579,0.81495,-0.58108,-58.82042,-5.7201,11.80255,144.99702,6.77497,-28.02849,29.58055,41.38942,32.27747,-4.49936,4.13622,1.87702,3.74168,-5.5051,9.87343,-0.64435,0.65575,-0.58518,1.90581,-0.03777,1.66536,-0.40804,0.32608,-0.26472,-0.00469,0.03539,0.21664
817,-1.47651,0.3387,-9.52038,199.4726,105.78795,14.95501,22.71408,16.85337,-26.22985,168.74352,78.56467,13.76344,0.04323,0.52267,-0.67336,-64.33469,-8.48571,12.65574,185.87218,16.88659,-20.00553,47.71849,40.51501,20.53161,1.21349,5.22576,-3.75152,3.80465,-4.84853,10.34708,0.93894,1.34363,-2.59466,1.80465,-0.50493,0.40128,-0.20416,0.21304,-0.01495,-0.03225,-0.03156,-0.07283
818,-8.15032,-1.36644,-6.60647,200.28308,113.43501,13.2489,48.78453,13.2185,-13.48819,167.76431,98.4338,14.06548,0.32947,-0.37281,-0.11854,-70.31152,-11.67828,13.57383,222.72237,29.38638,-11.95163,59.4463,13.08556,-6.59365,8.27457,8.4844,-8.68086,3.20964,-7.91779,6.24314,3.72057,1.65811,-3.75639,1.77872,-1.18614,-1.08617,0.12239,0.03514,0.22351,-0.04734,-0.07365,-0.28516
819,-12.46243,-2.83269,-6.8767,197.74701,117.77094,13.09363,68.27069,10.65744,-13.78115,154.58189,106.56863,14.76801,0.27633,-0.80834,0.09852,-76.4295,-15.22536,14.47619,225.51155,28.58987,-25.42011,58.48187,-8.36772,-12.5683,8.83919,10.86544,-6.12374,2.90904,-11.61031,2.9977,6.03278,1.13723,-2.82451,2.05203,-1.56166,-1.32571,0.51831,0.00821,0.06726,0.00532,-0.05579,-0.15967
820,-20.39357,-3.88051,-11.09159,193.86406,119.81282,14.56438,59.36622,8.45611,-31.15754,132.06528,101.01099,16.41099,-0.65305,-0.50513,-0.28579,-82.16324,-18.90682,15.35388,176.78224,14.72219,-57.05522,42.47441,12.1524,16.3234,2.66251,10.27038,1.84624,4.58235,-13.1424,6.18581,6.00962,0.21047,-0.58852,3.2766,-1.68025,-0.22384,0.56545,0.11488,-0.25263,0.26024,-0.07316,0.07986
821,-35.02848,-5.85148,-9.56496,191.41266,123.11656,16.01783,21.54584,2.4623,-33.57757,122.63594,97.11528,17.72856,-2.68278,-0.31815,-0.51989,-87.25952,-22.55123,16.25186,117.11108,3.50072,-64.23814,23.539,52.89632,47.24541,-1.73577,9.15154,7.30423,7.1906,-12.45315,12.42864,5.15883,-0.37502,1.34178,4.89044,-1.58011,1.19877,0.37756,0.1243,-0.25615,0.57069,-0.13558,0.12268
822,-48.98419,-8.16517,-0.63927,190.44363,128.23438,16.88167,-13.7383,-4.73796,-3.27948,137.92403,104.52721,17.59957,-5.00586,-0.59386,-0.37039,-91.70014,-26.115,17.13734,107.12112,5.82352,-25.29635,15.52918,63.32006,48.9708,-0.57324,9.82142,7.80722,8.36757,-11.26238,14.72485,5.47503,-0.52922,2.29189,5.62328,-1.41199,1.79209,0.43189,-0.01874,0.09592,0.66967,-0.19047,-0.05943
823,-53.0338,-8.37371,5.20807,187.04742,131.61894,17.72452,-24.14729,-7.1173,31.67445,159.19179,113.36926,15.91997,-5.98754,-0.58299,-0.35708,-95.17515,-29.49343,17.8868,140.97919,14.57757,20.25676,8.87185,34.44053,31.29465,1.23196,11.12086,7.50996,7.84351,-10.90321,13.16231,6.35028,-0.73665,2.67108,5.1922,-1.39587,1.48592,0.69205,-0.22284,0.43882,0.51105,-0.21069,-0.227
824,-45.3579,-6.47947,2.3766,179.07625,130.99475,18.63852,-14.87933,-3.96973,35.05323,161.24579,111.01875,13.72139,-4.64568,-0.02172,-0.51693,-96.9884,-32.38791,18.39067,165.36369,17.27462,23.85185,-3.11838,3.28066,18.88361,0.37331,10.67399,8.00335,7.07971,-10.87653,12.46397,6.74631,-0.98231,2.04619,4.41185,-1.25769,1.4293,0.8814,-0.31086,0.37309,0.3033,-0.16979,-0.16775
825,-32.06864,-5.09372,-5.97731,170.23248,128.65181,19.01675,0.34221,0.86135,1.00509,141.15005,99.8579,12.44626,-1.91434,0.52764,-0.65013,-96.60023,-34.44279,18.58995,156.58989,9.88164,-19.51618,-7.56725,0.23672,16.10663,-0.19117,8.76903,6.67556,7.13078,-10.47,13.35226,6.17559,-1.03606,0.65482,4.23872,-0.88371,2.01945,0.75448,-0.25895,0.02507,0.32654,-0.10488,0.00946
826,-22.3838,-6.18438,-14.61244,165.10271,127.91435,18.34388,7.19527,2.33227,-41.36389,113.2526,91.57249,12.41007,0.15561,0.70891,-0.9592,-94.1195,-35.33931,18.48664,123.38107,-2.83214,-70.92619,-2.92395,21.94377,17.30648,1.57364,7.96355,4.39762,8.10373,-10.45891,13.20517,5.40611,-1.02255,0.30027,5.02266,-0.85058,2.32332,0.50042,-0.20016,-0.1408,0.64629,-0.09663,0.10184
827,-21.99606,-8.58884,-16.90332,163.49889,128.0845,17.08385,-4.67854,-1.88321,-54.41788,89.95467,92.05389,12.97797,0.51239,0.46579,-1.26829,-90.12187,-34.91017,18.10465,76.4667,-9.83843,-84.11318,2.67797,42.07805,22.35052,2.63764,8.98407,5.00596,9.05129,-10.83018,10.93962,5.18635,-1.01191,1.68002,5.98646,-1.2148,2.08185,0.46429,-0.17691,0.04012,0.97636,-0.10101,0.18287
828,-25.99505,-8.8822,-11.5013,161.42035,125.02629,16.3977,-24.32555,-6.85662,-36.3091,71.3474,94.76736,13.62498,0.14477,0.05855,-1.02909,-85.15211,-33.28545,17.40549,30.32188,-4.88639,-55.99338,14.19799,37.49786,28.38451,1.34603,10.34019,8.0331,8.49148,-10.04987,7.42171,5.4081,-0.85124,3.26417,5.8623,-1.17046,2.10163,0.65549,-0.15275,0.35825,0.96576,-0.00709,0.38111
829,-24.31993,-6.32888,-4.88741,157.12625,116.64245,17.21844,-27.90656,-6.38163,-16.91422,55.4352,88.55415,13.8676,0.59988,-0.05268,-0.34129,-79.4202,-30.81438,16.3159,8.18322,0.75945,-23.61741,28.75693,15.58774,24.98006,0.48533,10.74072,8.4936,6.46804,-8.51356,3.76608,5.6632,-0.36227,2.93577,4.61176,-0.7101,2.34194,0.83125,-0.08117,0.47304,0.67235,0.09077,0.52993
830,-16.00381,-3.59146,-1.80574,152.25125,106.02115,18.7405,-12.08595,-1.48349,-13.72197,45.78555,75.25446,13.71499,1.86887,0.14018,0.241,-72.96579,-27.85827,14.92237,16.56487,-2.83532,-13.11659,26.04575,0.95886,11.01245,1.64554,9.67202,4.42321,5.08769,-8.63044,1.61256,5.47927,0.38884,0.42662,3.61554,-0.72516,2.06449,0.79844,0.0586,0.2458,0.47138,0.01773,0.43326
831,-8.93549,-2.23992,-1.07108,147.78926,98.75732,18.38516,3.89505,2.24156,-17.1725,43.60946,73.57744,14.74693,2.73445,0.30553,0.46807,-65.78523,-24.52529,13.56166,34.53511,1.63868,-14.56471,4.16434,-6.72071,4.50323,2.47841,7.38503,0.33066,5.54217,-9.47411,3.58569,4.60543,0.82967,-1.84447,3.45429,-0.84076,2.01603,0.5231,0.15664,-0.05648,0.45559,-0.08398,0.30361
832,-7.14429,-0.97213,-0.07351,143.16074,95.01086,16.05419,10.33549,3.21405,-10.17096,44.01038,87.03998,17.78031,2.69641,0.32972,0.42973,-57.92524,-20.89805,12.35645,46.69043,24.73797,-3.95194,-12.68,-17.22148,17.35969,1.27246,5.36828,0.75033,5.90616,-7.03893,9.11529,3.5552,0.42159,-1.54496,2.88482,0.20245,3.34688,0.17998,0.04971,-0.10499,0.32103,0.04583,0.43795
833,-8.51727,0.02744,0.47362,138.11316,88.59061,15.05674,11.41566,3.26189,5.48004,41.9744,89.86938,20.09,2.19343,0.23018,0.12226,-49.72597,-17.43106,10.97687,53.00634,36.30134,17.04153,-10.60278,-8.72475,35.64992,-0.7637,5.54952,5.10775,4.69031,-2.64486,12.47042,3.23187,-0.51915,1.01028,1.5371,1.71339,4.81505,0.0689,-0.20306,0.08966,-0.00106,0.28052,0.64873
834,-10.20837,-1.71155,-0.86398,132.88786,78.29294,16.05902,8.56649,1.90776,11.74219,35.88177,72.07661,19.57458,1.7214,-0.00771,-0.34015,-41.61247,-14.38438,9.33607,49.94014,17.81674,25.61675,0.19501,34.5079,41.12708,-2.64271,8.14636,10.32446,3.39902,-1.83153,9.86423,3.6997,-1.11223,3.85837,0.78392,1.90626,4.43241,0.27186,-0.31153,0.25217,-0.18639,0.32772,0.58557
835,-9.733,-5.26124,-2.34857,126.77701,69.72507,16.0786,5.50164,-1.23182,2.12697,24.8455,56.22411,17.9312,1.6908,-0.19927,-0.49527,-33.93201,-11.45648,7.80265,36.14398,-3.18936,16.2157,8.10785,72.67773,33.80658,-4.28381,11.10851,13.44216,3.48339,-4.71642,4.83149,4.00076,-0.98014,5.28011,1.1729,0.81624,2.59988,0.52478,-0.17834,0.20145,-0.08119,0.18509,0.29895
836,-7.72682,-7.7567,-2.518,119.10295,64.67688,14.11486,7.207,-5.11064,-13.98725,11.19053,55.93425,16.61839,2.0827,-0.17921,-0.35205,-26.97158,-8.54456,6.52085,20.13865,-5.75588,-0.36149,9.06408,62.65057,19.92612,-3.64196,11.64512,10.57717,4.47409,-6.48407,3.09344,3.67588,-0.29961,3.68396,1.93627,-0.11692,1.40599,0.58285,0.02877,-0.04916,0.14916,0.04512,0.13381
837,-7.41282,-8.92783,-2.12596,110.69057,60.31439,11.77846,11.47239,-8.58565,-25.54368,3.15559,63.86055,16.10222,2.40781,-0.15121,-0.39081,-20.59198,-5.9641,5.3186,13.23634,1.70396,-15.1133,-0.31097,19.64426,0.39347,1.57792,9.00795,0.50277,4.98263,-5.03535,4.73528,3.44209,0.68666,-1.03926,2.29153,-0.15791,1.7077,0.4825,0.1778,-0.32574,0.30187,0.02606,0.25477
838,-9.15895,-8.83328,-1.61705,102.20792,56.74767,9.51888,13.62234,-9.21188,-25.17788,5.55456,76.28236,18.04445,2.45633,-0.25832,-0.52769,-14.36233,-3.70961,4.27585,19.23361,16.84615,-19.09542,-10.83261,-18.28244,-14.99844,6.97001,5.90212,-8.3368,4.28194,-3.15656,5.00321,3.47271,1.43239,-4.86447,2.1261,0.12915,2.26553,0.31444,0.2239,-0.35186,0.31557,0.07132,0.44218
839,-10.79527,-6.51035,-0.95829,94.43008,55.41749,7.38929,11.3223,-5.37106,-13.31387,13.55451,89.63048,21.68935,2.39961,-0.26223,-0.3121,-8.40013,-1.48542,3.60438,28.79558,39.63052,-9.52046,2.32793,-36.50676,-10.46343,4.5356,4.47013,-5.79351,2.98794,-3.60939,1.75016,2.79184,1.36745,-3.7767,1.8189,0.04407,1.91862,0.13469,0.18982,-0.12873,0.25267,0.06198,0.41445
840,-11.23736,-2.52231,-0.72387,87.71419,54.58799,6.26208,10.96037,1.64748,0.99775,17.72679,91.06015,22.05365,2.41973,-0.01004,0.15831,-3.47545,0.76573,3.29857,34.84382,52.67356,2.94635,40.1154,-36.67288,4.06043,-2.25996,3.56249,2.30673,2.28986,-5.08705,-1.42832,1.64975,0.84884,-0.62533,1.74111,-0.17816,1.41177,0.04021,0.11766,0.08566,0.20558,0.00641,0.24398
841,-10.43185,1.68277,-1.41124,80.1049,52.14038,6.05458,19.30031,9.71904,10.07019,12.78476,75.93079,16.25189,2.50895,0.33588,0.45829,-0.07231,2.8775,3.25912,38.82094,45.5468,8.00179,62.17312,-24.81312,0.05912,-1.46155,1.59048,0.87143,2.78426,-5.02068,-0.78734,1.62192,0.73835,-1.41148,1.99383,-0.05331,1.77434,0.03477,0.04406,0.15533,0.23461,-0.01081,0.18025
842,-7.80111,5.52895,-2.84049,70.99814,47.47239,6.18253,29.40427,17.08786,12.96927,3.34656,51.55589,6.90836,2.55084,0.62823,0.48327,2.28468,4.55405,3.26939,41.06033,24.84479,5.32229,41.41778,-8.31089,-22.1562,7.26992,-0.21033,-9.53894,3.78732,-3.7689,1.81652,3.07451,1.08956,-5.51659,2.2645,0.18788,2.26704,0.17076,0.00609,0.09246,0.30928,0.00982,0.21535
843,-4.33949,7.68993,-4.17307,62.83926,42.90487,6.20661,31.63071,21.09684,11.28873,-4.68923,28.72997,-1.29179,2.60245,0.7707,0.36422,4.22635,5.6264,3.20241,37.91861,-1.52572,-1.80069,3.94457,9.07794,-29.50841,10.489,0.56083,-12.04415,3.69877,-2.95586,2.1302,3.93129,1.04695,-5.92763,1.96279,0.18578,1.79628,0.36623,0.00604,-0.04489,0.2897,0.02339,0.18362
844,-3.70048,6.81283,-4.58726,57.02084,42.39572,5.46621,27.14991,20.6705,8.51492,-10.9921,18.33304,-5.55948,2.81327,0.646,0.22193,5.79678,6.25426,3.14024,27.73952,-23.09879,-9.31452,-11.97157,26.04132,-11.19211,3.46301,3.51359,-1.91671,2.02162,-2.82119,-0.40224,2.80424,0.37481,-0.93814,1.10349,0.11593,0.8786,0.35452,0.0076,-0.17851,0.12978,0.04481,0.1184
845,-6.12471,3.38612,-3.62606,52.12584,44.61448,3.94497,25.13454,16.8396,7.07067,-15.67379,20.79156,-6.66206,3.15856,0.24709,0.15911,7.06521,6.62123,2.97994,18.64781,-31.51201,-14.18877,-8.13629,32.61969,7.13888,-3.53353,5.96223,7.35119,0.36566,-2.88912,-2.75181,1.19031,-0.22078,3.61726,0.55435,0.32277,0.75565,0.15481,-0.03099,-0.23473,0.00615,0.1287,0.22102
846,-6.50603,-0.35792,-1.31046,46.57027,45.38173,2.27216,34.61351,10.98543,5.18867,-18.60486,28.38017,-6.28755,3.49,-0.17126,0.25639,8.21667,6.87626,2.62853,24.48426,-27.70777,-15.50912,-9.45779,12.00994,9.33606,-3.81075,6.54903,7.59968,0.26821,-2.89505,-2.73804,0.78721,-0.28527,4.15568,0.80678,0.7991,1.54577,0.11103,-0.05606,-0.15621,0.05209,0.26623,0.49176
847,-2.50696,-0.02826,-0.73851,41.41918,44.61179,1.14931,54.1138,12.22954,4.20006,-19.81849,36.64439,-4.57429,3.59845,0.00849,0.47458,9.14403,7.22006,2.34877,47.75867,-8.96875,-9.64866,-16.69037,-31.77189,3.95337,-0.17207,6.093,2.82856,2.19355,-3.26565,-0.86238,1.06186,-0.06375,2.73311,1.72193,0.97879,2.09181,0.20065,-0.06908,0.11547,0.22556,0.32299,0.60279
848,2.63616,6.45542,-5.86205,37.71165,45.21086,0.70968,68.58604,30.30527,7.03237,-22.24097,45.21297,-1.94741,3.33089,1.10093,0.62416,9.39912,7.71842,2.47443,65.66079,28.2557,3.45333,-7.05068,-62.41156,3.14504,2.12059,4.51609,-0.61701,5.54064,-4.52003,0.94246,0.82873,0.05777,1.62247,2.87659,0.35765,1.31028,0.12596,-0.0926,0.34849,0.40049,0.18479,0.28629
849,6.47768,14.26202,-13.92995,33.78844,47.85984,0.44995,65.4823,54.43957,9.93867,-31.34509,50.58471,-1.10183,2.85268,2.40916,0.61526,8.61686,8.21481,2.96057,51.89231,61.75523,12.56267,20.58517,-49.49167,6.97165,1.12871,1.57065,-0.66188,7.54884,-5.74489,0.89655,0.46243,0.04386,0.35813,3.23606,-0.63534,-0.45305,-0.03074,-0.07,0.21144,0.41136,-0.04502,-0.22871
850,9.5737,16.12963,-16.42099,27.57975,48.4169,0.05688,52.15275,59.67804,7.69763,-47.14454,42.72594,-4.92244,2.56261,2.84298,0.60231,7.38297,8.49879,3.2914,14.45783,50.48502,7.46063,36.51765,-4.40132,5.17786,-0.42545,-1.07656,0.22503,6.12435,-5.74707,-0.983,0.86862,0.03158,-1.43217,2.40272,-1.19452,-1.67772,-0.00088,-4e-05,-0.15121,0.28612,-0.18119,-0.44869
851,12.74199,11.43463,-10.80534,20.4239,44.47688,-0.33524,46.31581,41.10503,2.6856,-60.63832,21.18313,-11.4152,2.70348,2.2263,0.73013,6.88527,8.55783,3.11855,-10.19883,-5.98475,-5.51126,22.33356,36.50229,-8.958,1.28393,-2.12076,-1.6194,2.7217,-4.39676,-2.53338,1.90441,0.14647,-3.01682,1.23615,-1.04675,-1.35983,0.18628,0.07096,-0.3522,0.21427,-0.1821,-0.25051
852,17.30751,7.26572,-5.34077,15.91765,40.79974,-0.63349,57.56551,23.76433,-0.50976,-66.98655,4.50401,-14.95794,3.30605,1.5225,0.86644,7.282,8.45541,2.72828,-1.53674,-50.38403,-10.71292,-5.88679,46.75441,-27.05108,5.81792,-2.28842,-6.38065,0.469,-2.55892,-1.87765,2.32069,0.34663,-3.87334,0.63891,-0.56,-0.01766,0.21005,0.13358,-0.35762,0.22896,-0.14167,0.04855
853,23.65195,8.71131,-7.52653,13.82032,41.57152,-1.23358,80.73273,28.06211,-2.93433,-75.88756,7.73646,-13.72758,4.19588,1.49665,0.76357,7.64464,8.08827,2.4847,19.18784,-38.09371,-2.77322,-21.90113,28.05683,-32.95465,8.4662,-1.97136,-9.83313,0.81746,-1.38952,0.43888,1.54767,0.48102,-3.89668,0.72546,-0.18464,1.21867,0.00667,0.19797,-0.3787,0.19088,-0.12858,0.19544
854,27.81109,12.34287,-13.58584,10.64199,44.93261,-2.46395,100.25806,42.58332,-6.49233,-92.98997,26.1558,-10.23041,4.85825,1.70571,0.44839,7.44418,7.54367,2.43342,20.27441,10.92993,9.95712,-17.50275,2.94231,-21.5745,6.21265,-0.4459,-8.10247,2.70617,-1.24262,2.5387,0.46223,0.48633,-2.68039,1.13338,0.0209,1.86184,-0.12997,0.21179,-0.324,0.05763,-0.1164,0.23084
855,25.54434,11.40757,-13.8774,6.15139,48.54657,-3.82342,102.42025,40.27043,-7.9934,-105.36559,48.73729,-5.90714,4.72383,1.30639,0.224,6.88557,7.24298,2.4885,0.07897,45.76083,18.10148,0.44079,-13.161,-4.4613,1.2727,1.49336,-2.44301,4.15402,-1.9317,2.60173,-0.11514,0.37137,-0.44242,1.50202,0.10753,1.68677,-0.07029,0.12889,-0.0353,-0.01987,-0.06683,0.23224
856,19.10393,5.74523,-7.16954,2.24236,51.47039,-4.73642,85.31268,18.93604,-4.3734,-103.39085,66.1892,-1.91057,3.80844,0.52631,0.22742,6.1814,7.28487,2.48094,-25.80774,47.73168,18.87714,20.51651,-23.21724,4.64037,-1.92078,2.09019,2.20163,4.29909,-3.4527,-0.09973,0.0786,0.20851,1.09101,1.69981,0.01093,0.45906,0.09097,0.02516,0.16365,0.07945,0.02142,0.18307
857,15.27513,1.64906,-1.63733,-0.50441,52.52036,-5.17982,64.77544,5.87374,0.38003,-95.73579,72.0128,-0.11646,2.86621,0.26948,0.37139,5.45307,7.37395,2.24039,-42.56218,42.29607,15.95562,30.13952,-29.53617,2.93033,-1.53866,1.10235,2.25004,3.92813,-5.18344,-3.87911,0.68166,0.0204,0.40233,1.85809,-0.21439,-1.33629,0.17896,-0.01186,-0.11438,0.26307,0.10211,0.02181
858,17.78897,1.94442,-1.64201,-2.52039,51.42413,-5.27619,65.67722,14.72597,0.91789,-94.35696,66.86378,-0.63391,2.67995,0.52962,0.62394,4.7316,7.41962,1.81171,-34.26624,47.20574,16.5964,27.16686,-23.29662,-4.20322,1.21043,-0.19444,-1.91811,4.107,-5.75292,-5.68743,1.12842,-0.1754,-1.98541,2.10019,-0.38794,-2.53773,0.1113,0.01168,-0.63817,0.36864,0.09959,-0.2683
859,23.35227,3.22944,-3.64547,-4.04454,49.64962,-5.10114,92.66473,27.95734,-1.65024,-99.25088,57.78881,-1.84685,3.28317,0.48724,0.8976,3.94757,7.62434,1.38938,0.15879,47.22784,24.08352,20.69597,-3.79234,-9.56549,3.89047,-0.43784,-6.33028,4.68231,-4.55626,-4.026,1.33208,-0.20785,-3.78149,2.16983,-0.32055,-2.1552,0.01922,0.05136,-0.77126,0.29517,0.02164,-0.45319
860,28.43558,3.30819,-4.00538,-5.23038,47.94628,-4.87881,124.16999,27.06002,-3.3329,-101.95007,48.71148,-3.44052,1.25116,1.30356,0.68451,3.17772,7.97916,1.00289,39.61695,26.89462,31.35343,15.84806,10.77525,-9.88518,4.37035,0.35116,-7.02958,4.76216,-2.88221,-0.95785,1.13071,-0.02031,-3.22421,1.97248,0.03073,-0.48426,-0.01191,0.07711,-0.31999,0.129,-0.02922,-0.29377
861,24.99499,0.49167,-2.08106,-6.5433,45.71896,-4.84438,129.75191,10.76253,-1.94609,-95.84381,38.25439,-6.4014,-0.92759,1.20213,0.16857,2.63686,8.24113,0.60485,56.83903,-11.18038,29.0002,13.02059,9.68408,-10.11535,3.11186,1.28312,-4.41995,3.41858,-2.39386,-0.27983,0.88407,0.25036,-1.23196,1.62725,0.34882,0.72583,0.096,0.09954,0.17338,0.085,-0.0044,-0.03206
862,16.49536,-1.31807,-0.49135,-8.36495,42.5333,-4.98115,113.76319,-4.13612,0.13592,-84.66134,25.89794,-10.84277,-4.87016,1.9761,-0.65688,2.35602,8.29324,0.28376,54.4411,-40.9073,16.96086,12.94541,2.65824,-15.93242,2.87584,1.96624,-2.54923,1.19491,-3.06328,-2.43333,1.52308,0.46676,-0.11775,1.16259,0.29019,0.35032,0.37943,0.11789,0.19201,0.18274,0.03643,-0.02978
863,8.99367,0.12471,-0.93342,-10.5074,39.411,-5.19856,94.29342,-6.83595,-0.38007,-80.97501,15.33479,-15.52317,-10.2887,4.36547,-1.49717,2.16069,8.16258,0.1528,37.97677,-46.63343,4.253,14.15256,-2.61053,-23.7847,4.3446,1.94626,-3.38175,0.19477,-3.77533,-4.53636,2.57644,0.4783,-0.66427,0.88416,-0.02692,-0.82885,0.56989,0.10957,-0.11154,0.27024,0.03781,-0.2033
864,7.07254,2.34703,-1.77083,-12.33859,39.0286,-5.53125,79.42354,-1.00758,-2.7159,-91.80972,13.30986,-18.2946,-16.42418,8.12977,-2.15837,1.9507,7.87011,0.22118,5.00647,-30.10005,-0.81738,16.99266,-6.27107,-24.99898,4.55322,1.24844,-4.0684,0.74904,-3.76497,-4.88488,2.82391,0.27724,-1.72436,0.95201,-0.20689,-1.43544,0.4623,0.07556,-0.30959,0.24536,0.02547,-0.23227
865,10.98817,1.92082,-1.11036,-13.78833,42.15851,-6.00808,66.67216,5.29875,-2.97558,-111.28066,22.33045,-17.45791,-22.69571,12.50348,-2.70739,1.5661,7.34385,0.36325,-42.72409,-1.62416,3.02795,24.02571,-6.98353,-16.64332,1.54732,0.86709,-1.96079,2.50619,-3.14939,-3.68103,2.12867,0.03601,-2.0955,1.47798,-0.06185,-1.18723,0.18724,0.031,-0.29922,0.20025,0.03761,-0.07695
866,18.16463,-1.02208,0.67742,-15.28337,45.08892,-6.38941,63.30667,3.96383,1.45351,-125.83382,35.60226,-13.11981,-29.02396,17.12089,-3.31267,0.89545,6.51443,0.39021,-75.97987,20.66459,14.40648,30.00151,-6.72477,-4.55639,-1.64208,1.07037,0.61206,5.27812,-2.3121,-1.53419,1.24084,-0.12096,-1.69046,2.29057,0.24178,-0.67869,-0.03863,-0.01617,-0.21399,0.22584,0.05179,0.03143
867,23.91,-4.40569,2.42624,-16.41586,44.74047,-6.27283,74.55262,-9.86107,8.81642,-125.023,46.33123,-6.30304,-35.42212,21.84487,-4.10428,0.22644,5.54595,0.28103,-66.76996,24.50453,30.19923,29.41445,-12.11102,2.0631,-0.97439,1.17859,-0.1974,6.70338,-1.7026,0.14079,0.70218,-0.20864,-1.06418,2.59699,0.39021,-0.19504,-0.11733,-0.05557,-0.11702,0.23637,0.02245,0.01419
868,22.41567,-4.39418,2.48563,-16.49308,43.09762,-5.59634,79.30618,-21.65197,11.9477,-112.11425,55.69935,1.77199,-41.60808,26.46673,-5.10599,-0.2339,4.76993,0.24195,-41.70728,28.88014,39.86491,29.99811,-24.09803,0.67186,2.21806,1.72501,-3.18914,5.09397,-1.83294,0.00252,0.84363,-0.15348,-0.47485,2.15969,0.30912,0.28948,0.00603,-0.05726,-0.00828,0.17377,-0.04143,-0.00551
869,14.68349,0.37982,0.28983,-15.23953,41.62728,-4.59629,62.47339,-15.92015,7.0399,-96.52439,62.0848,7.86813,-47.03454,30.5675,-6.14362,-0.52208,4.32863,0.32898,-36.26909,50.70272,34.58035,39.31157,-34.06002,-3.20158,3.30291,3.5145,-4.0309,2.66389,-2.40054,-1.17017,1.77144,0.11339,-0.1111,1.7014,0.27148,0.6699,0.27253,-0.0066,0.04112,0.13054,-0.06523,0.02958
870,8.53535,5.60701,-2.34394,-13.58405,37.96059,-3.65555,41.87391,-3.7341,-0.06985,-82.83081,56.77968,7.73633,-51.42513,33.73586,-6.91389,-0.65114,4.0779,0.34459,-39.64278,67.21845,19.32747,51.80272,-30.26105,-7.36453,1.47615,5.0588,-2.48499,1.40345,-2.80456,-2.16798,2.86793,0.29043,-0.68421,1.46168,0.38665,0.72082,0.45166,0.05659,-0.10483,0.14584,-0.01357,0.06726
871,9.3358,5.73104,-2.95185,-13.66726,31.71668,-3.1804,38.51619,-6.59733,-1.55378,-74.45325,39.43021,1.56457,-54.9224,35.89363,-7.25809,-0.81428,3.81344,0.23807,-31.98676,50.80299,7.36673,55.97236,-13.11289,-13.88659,0.29275,4.38372,-2.22706,0.75477,-3.04548,-2.82945,3.36534,0.02722,-2.42085,1.11138,0.48851,0.53548,0.41642,0.08076,-0.43567,0.1508,0.06051,0.0875
872,15.48071,-0.07504,-1.04811,-15.55859,26.32019,-3.09772,47.35058,-25.56454,2.88293,-72.5962,23.25568,-4.5149,-57.7084,37.26451,-7.26763,-1.13713,3.48399,0.15481,-20.7931,15.69392,4.87939,47.66134,-2.61638,-18.72436,1.77632,2.51742,-4.28439,1.62963,-3.39134,-3.00871,3.29302,-0.3935,-3.83274,1.20797,0.6224,0.35967,0.27055,0.06359,-0.65686,0.1747,0.10807,0.06872
873,22.37294,-8.24637,1.84247,-16.7091,24.08002,-2.92123,51.39965,-44.28697,8.1731,-73.43298,20.62254,-4.3067,-59.83405,38.02352,-7.13343,-1.45926,3.12796,0.1586,-20.8647,-0.79713,8.93071,39.57287,-15.02855,-15.80624,3.93672,2.395,-5.67364,5.12367,-4.04012,-3.12519,3.25932,-0.36169,-3.20615,2.36411,0.88291,-0.02545,0.15086,0.03781,-0.49802,0.29935,0.12956,-0.05565
874,27.15296,-15.31391,4.20858,-15.64582,23.41728,-2.4269,44.54082,-51.20461,11.16122,-71.63178,28.4765,1.21791,-61.26124,38.0713,-6.93954,-1.6757,2.70733,0.1714,-31.15955,12.12111,13.75799,44.11047,-37.5018,-8.47329,4.17182,4.29598,-4.39867,7.53751,-4.91276,-4.45142,3.36826,0.07851,-1.065,3.50746,0.96906,-0.87991,0.08868,0.01595,-0.09143,0.43253,0.12427,-0.24957
875,29.19703,-20.70046,5.89702,-13.3275,21.06214,-1.84755,29.79693,-47.62615,12.21827,-62.82555,31.09273,4.37894,-61.87139,37.18338,-6.64326,-1.73163,2.18555,0.10683,-40.77085,30.85788,11.9447,50.55532,-41.43778,-5.9716,2.69429,5.36514,-2.08663,4.63917,-5.76045,-6.98724,3.35869,0.24869,0.28372,3.13341,0.62035,-1.71393,0.15747,-0.01052,0.15876,0.39089,0.0919,-0.33204
876,29.64186,-25.58977,7.43703,-11.76064,16.50249,-1.52512,11.65039,-41.38404,12.44038,-49.86438,21.39337,0.98261,-61.6027,35.4327,-6.16644,-1.62645,1.69059,0.018,-48.21853,35.65968,1.02036,45.00837,-18.20395,-11.93391,1.80298,3.91542,-1.51728,-0.47477,-6.59291,-8.84179,3.42906,-0.21684,-0.5571,1.68423,0.1903,-1.86436,0.39724,-0.04825,0.01387,0.18131,0.06757,-0.22269
877,30.56628,-30.36397,8.72352,-11.79704,12.58242,-1.49308,-2.23232,-37.36369,11.67519,-40.93097,11.03109,-3.66668,-60.59222,33.18752,-5.50113,-1.52426,1.35941,0.02442,-56.08897,36.01228,-10.40141,36.40779,10.11154,-19.76107,2.62276,1.73587,-3.05237,-0.54722,-6.88747,-7.93718,3.86796,-0.88915,-2.49986,1.1659,0.31375,-1.22636,0.59847,-0.08227,-0.34044,0.0505,0.08629,-0.04221
878,32.68095,-34.09905,9.13072,-12.14605,10.89529,-1.43379,-4.10198,-33.10498,9.2326,-35.67503,10.22692,-3.62481,-59.09624,30.7683,-4.77026,-1.49797,1.13047,0.11453,-53.48164,47.69606,-13.99816,36.85019,17.94964,-18.44313,3.84692,1.80624,-4.23,5.66676,-5.35625,-3.903,4.68135,-1.06123,-3.24079,2.48764,1.0814,-0.01874,0.59101,-0.07089,-0.48773,0.19651,0.13724,0.10381
879,34.57362,-37.13873,9.17785,-11.70106,10.41978,-1.12274,3.62655,-28.18116,6.91635,-28.11292,14.07329,-0.54622,-57.26984,28.34592,-4.17739,-1.50476,0.89549,0.22392,-33.19159,62.75698,-10.84886,42.24615,3.1747,-4.63037,3.42864,4.85178,-2.85989,11.49051,-1.95648,1.00765,5.7735,-0.60758,-2.00405,4.26405,1.8468,1.30248,0.55038,-0.017,-0.29869,0.52184,0.17838,0.21105
880,34.29454,-41.15737,10.3521,-10.49667,9.94344,-0.67191,9.36252,-30.08554,8.37432,-18.06157,14.89551,1.08286,-55.09398,26.05449,-3.84852,-1.53587,0.64744,0.29999,-9.70512,61.40254,-5.23519,46.24796,-18.47501,12.88218,0.54632,9.11303,0.77061,12.0487,1.01357,3.45634,6.62216,0.0449,0.20694,5.09282,2.09732,1.93392,0.68769,0.02511,0.01683,0.81313,0.2041,0.25833
881,31.51209,-45.62773,12.64274,-8.59187,9.1123,-0.3232,6.09951,-42.21429,13.59465,-9.84976,12.94803,0.54831,-52.50694,24.06858,-3.68457,-1.51363,0.45137,0.26332,-1.01429,41.73032,0.40175,47.60744,-28.75386,19.94932,-2.92109,11.79517,3.8908,8.9971,1.04998,2.14615,6.52667,0.44802,1.78593,4.80337,1.90119,1.46306,0.90478,0.02742,0.18454,0.86858,0.21736,0.20926
882,27.83407,-48.14497,14.41165,-6.95714,8.09333,-0.27166,-3.25347,-56.82297,18.29528,-7.99239,11.32334,-0.39548,-49.5813,22.46997,-3.48012,-1.3705,0.34644,0.09018,-12.03235,19.02423,3.69292,47.44064,-16.40066,8.55312,-3.59427,10.77678,3.73982,5.80638,-1.97452,-1.49835,5.50971,0.39533,1.63727,3.72195,1.44737,0.17735,0.95427,0.01137,0.10604,0.58668,0.17489,0.02903
883,24.65813,-47.92365,14.73672,-7.07741,7.40591,-0.4665,-12.06058,-64.92731,19.53204,-13.10493,10.80102,-0.62236,-46.57544,21.11834,-3.17229,-1.22048,0.30639,-0.11334,-33.7462,6.46372,3.6992,51.15781,8.99166,-11.84456,-1.01282,7.06539,1.03159,4.63416,-5.37186,-4.73341,4.25392,0.03032,0.41548,2.59826,0.94538,-1.32154,0.72415,-0.00091,-0.02215,0.15956,0.07482,-0.25425
884,22.1075,-46.34466,14.19059,-8.34625,6.9342,-0.62523,-15.20516,-66.61713,18.4456,-18.0044,9.95334,-0.25652,-43.76253,19.81773,-2.84873,-1.19302,0.2934,-0.23996,-46.27279,3.04705,2.62258,58.2873,19.05047,-19.17392,1.31445,4.15396,-0.91245,6.11086,-5.90237,-4.91082,3.4163,-0.39903,-0.29335,2.22605,0.82647,-1.92828,0.36035,-0.03813,0.02242,-0.08136,0.01481,-0.37626
885,19.82347,-44.65786,13.5214,-8.66245,5.8732,-0.58435,-12.84205,-66.56236,17.0555,-13.85256,7.65757,0.51749,-41.25454,18.55291,-2.59414,-1.24252,0.30904,-0.30437,-35.74261,1.10965,2.44642,56.78386,0.74966,-6.53424,1.31992,4.27947,-0.73725,10.03651,-4.14842,-2.78371,3.4853,-0.76857,0.09211,3.05526,1.34018,-1.49826,0.19446,-0.13598,0.20637,0.04603,0.07977,-0.20224
886,17.75345,-42.50863,12.64272,-7.54325,4.69801,-0.36807,-9.7078,-63.81284,15.27797,-2.40395,6.23934,2.30997,-39.00354,17.46221,-2.40714,-1.24744,0.4108,-0.34068,-12.08599,3.10134,3.34019,39.1757,-23.4925,7.99042,0.68105,6.92433,0.13051,13.6115,-3.48866,-1.71226,4.36656,-0.85863,1.09159,4.28702,1.87763,-1.2663,0.34897,-0.21893,0.37671,0.35658,0.18834,-0.00783
887,15.57613,-39.54368,11.49706,-6.55616,4.43095,-0.21878,-11.51656,-57.39026,13.38637,4.5316,8.2652,4.50453,-36.96283,16.60322,-2.30089,-1.16526,0.56333,-0.39184,-2.08774,11.95388,4.6994,15.86866,-26.20875,9.36755,0.514,10.53604,0.97277,12.88258,-4.3245,-2.38162,5.07071,-0.34212,2.53973,4.29983,1.65955,-1.61761,0.56467,-0.16489,0.55872,0.47603,0.18852,-0.04114
888,12.40938,-36.83308,10.7163,-6.62798,4.27777,-0.5043,-20.52138,-54.04337,13.28,1.50591,11.05493,4.78163,-35.21598,15.94843,-2.36637,-1.01663,0.59985,-0.5703,-17.18253,15.32044,5.14099,7.46115,-7.71528,3.05449,-0.08025,12.75717,1.85478,9.68354,-4.28102,-2.79788,4.65703,0.47154,3.75565,3.36349,1.09081,-1.92431,0.55652,-0.00946,0.68606,0.38791,0.11194,-0.23706
889,8.39324,-35.48885,10.61435,-6.89085,3.40001,-1.04875,-30.44365,-58.43571,14.9496,-4.1203,10.1611,2.64528,-33.92592,15.54228,-2.6387,-0.84106,0.53426,-0.8298,-37.09715,3.20689,4.40184,19.77023,12.91392,-1.93366,0.14829,10.45954,1.40644,9.15115,-2.76113,-2.05013,3.77419,0.54887,2.99372,3.11202,1.07236,-1.9241,0.43904,0.06261,0.44026,0.36057,0.09955,-0.42271
890,5.09523,-34.57401,10.39777,-6.68741,2.736,-1.24874,-32.32686,-62.22807,15.79675,-5.5014,6.2203,0.38187,-33.17598,15.43,-3.00394,-0.67711,0.55813,-0.95205,-40.02145,-10.49209,4.1596,31.25925,20.52357,-6.33224,4.61543,3.43048,-1.43297,11.24187,-1.14345,-0.81815,3.95928,-0.50434,0.27502,3.64941,1.6209,-1.62753,0.54612,-0.04154,-0.1599,0.44146,0.1806,-0.45038
891,4.00579,-32.68755,9.28455,-6.30535,3.63131,-0.8522,-24.66202,-56.29222,14.33681,-3.65454,5.01043,0.48897,-32.83633,15.53996,-3.32912,-0.48852,0.74907,-0.85862,-27.79887,-6.44667,5.49022,23.27348,12.99136,-13.46456,12.54454,-3.72702,-5.20862,12.49837,-0.83707,-0.39712,5.35576,-1.84783,-2.14565,4.00252,2.13769,-1.40505,0.85643,-0.20446,-0.67144,0.49062,0.28876,-0.30809
892,4.35842,-30.38191,7.70048,-5.62278,5.45258,-0.23456,-14.9744,-45.34451,11.44286,0.37054,7.39641,2.03793,-32.70448,15.83549,-3.62405,-0.19609,1.04124,-0.70409,-12.2659,8.39852,4.94518,10.18679,-0.66579,-18.35589,16.53658,-4.90037,-6.43272,11.94273,-2.25027,-1.38763,6.3913,-2.32576,-2.14932,3.8634,2.19797,-1.77819,0.94142,-0.26007,-0.65521,0.44185,0.33556,-0.15221
893,3.61677,-29.03132,6.63802,-4.50403,6.32329,0.05675,-12.32124,-40.12129,8.75827,6.74684,7.57326,1.79377,-32.76162,16.38818,-3.99037,0.1665,1.35852,-0.63535,-1.79312,12.18236,-0.88143,13.69446,-8.6271,-11.50995,10.51873,0.89093,-3.13095,11.17074,-3.83818,-2.46291,5.64934,-1.68422,0.01726,3.74136,1.94763,-2.28179,0.55496,-0.1863,-0.1483,0.39019,0.2888,-0.06489
894,1.11946,-28.45242,6.20331,-4.22291,5.43913,-0.22936,-16.61992,-42.01963,7.11058,9.91486,3.21217,-0.75513,-33.12905,17.21724,-4.45323,0.43816,1.58722,-0.67235,-1.63129,2.02689,-7.62708,26.30217,-6.79391,5.37084,-0.64654,7.0585,1.66239,11.09548,-3.58093,-1.89357,3.62128,-0.74318,1.83941,3.83602,1.7068,-1.93032,0.07834,-0.08219,0.32095,0.41254,0.18071,0.01991
895,-1.14551,-27.67947,5.7699,-5.31416,4.21084,-0.66547,-19.55164,-44.11304,6.41128,5.68724,0.31957,-2.01496,-33.84275,18.20805,-4.96698,0.64109,1.67371,-0.72206,-8.29863,-3.51819,-7.58446,26.88128,0.16316,16.4514,-5.9092,7.47086,3.08412,10.56496,-2.0451,-0.3171,1.76301,-0.20698,1.71066,3.62839,1.42024,-0.95134,-0.03357,-0.01931,0.41629,0.4262,0.05816,0.07244
896,-1.79931,-26.82728,5.22558,-5.64264,4.46633,-0.59226,-18.33282,-43.30614,7.10452,0.87846,4.21761,0.14658,-34.77092,19.24,-5.49549,1.07586,1.72227,-0.67151,-12.67415,5.65724,-1.32601,17.05977,7.35356,10.43664,-2.31641,4.18843,0.78635,9.1054,-1.66993,0.03802,0.83285,-0.02918,0.68543,3.09655,1.11301,-0.67289,0.12258,0.00096,0.2772,0.38456,-0.00012,-0.0176
897,-1.94683,-26.8036,5.11083,-3.49633,5.69668,-0.12509,-19.82186,-44.59983,9.71758,3.76937,10.42889,2.68107,-35.71177,20.29384,-6.00138,1.84288,1.8365,-0.56084,-13.62585,14.47324,2.87257,16.57434,12.16783,-3.76526,2.87197,2.9846,-1.12208,8.33247,-2.92837,-1.2788,1.34919,-0.14961,0.54756,2.874,1.07533,-1.60123,0.28859,-0.01356,0.19019,0.34283,0.0459,-0.2006
898,-2.97167,-27.35447,5.39599,-1.02164,6.71529,0.27342,-27.62232,-49.90018,12.21649,10.18048,12.69417,2.96975,-36.5184,21.39212,-6.3946,2.54979,2.07814,-0.44974,-17.97111,10.62363,1.20566,29.69752,9.4455,-9.11593,3.94196,4.86479,-0.15598,8.33202,-3.02903,-1.99228,2.98674,-0.59635,1.59645,2.94859,1.36542,-2.22094,0.37407,-0.06363,0.26996,0.29162,0.1186,-0.24331
899,-4.25341,-27.13582,5.27316,-1.21781,7.26793,0.43754,-34.92168,-52.1661,11.63931,9.6649,11.24213,2.15265,-37.1873,22.4622,-6.61696,2.87345,2.41875,-0.3345,-28.31694,4.1789,-2.3334,42.80407,-0.10487,-4.57715,2.51354,5.82493,1.42123,7.57912,-0.24903,-0.77065,3.90793,-0.99208,2.20592,2.96326,1.88197,-1.31731,0.31961,-0.0886,0.28341,0.23026,0.17068,-0.07919
900,-4.53305,-25.47075,4.27596,-3.42825,7.23,0.3931,-33.46774,-45.76726,7.92475,1.41714,8.92468,1.81562,-37.85212,23.41598,-6.73239,2.98344,2.69101,-0.24703,-36.22377,7.07112,-3.5898,47.48277,-4.36504,-2.39511,1.58232,3.91515,0.90765,6.79999,2.29063,0.21805,3.0788,-0.93376,1.10812,3.15782,2.44435,-0.52012,0.15339,-0.02874,0.00487,0.2623,0.25066,-0.03118
901,-4.04856,-23.47645,2.99815,-4.85264,7.04749,0.39437,-24.48657,-36.54165,3.90809,-6.06272,7.81058,2.20197,-38.59758,24.26166,-6.8644,3.1564,2.78749,-0.17899,-33.16062,14.96845,-2.95923,44.06163,0.17222,-4.4272,0.48626,2.0854,-0.48539,7.22957,1.32405,-0.83314,1.53935,-0.57862,-0.48872,3.59621,2.6386,-1.41345,0.02583,0.03967,-0.30565,0.40099,0.33241,-0.29827
902,-3.74018,-22.97256,2.4279,-4.46297,6.93648,0.41886,-16.59308,-34.7447,2.76631,-8.07305,7.89256,1.91898,-39.29195,24.98507,-7.07153,3.44587,2.71568,-0.12737,-24.45789,15.80474,-3.29779,33.15685,2.09642,-2.51,-1.57396,2.7232,-0.39301,7.65111,-1.51776,-2.40297,0.87789,-0.45143,-0.76935,3.63542,2.2064,-2.72772,0.02038,0.01612,-0.27888,0.4783,0.30606,-0.57659
903,-4.19572,-23.81255,2.7166,-3.23575,5.82294,-0.0254,-15.27792,-40.31785,5.05197,-5.73953,6.5741,-0.59474,-39.79527,25.56686,-7.31747,3.77205,2.51674,-0.17318,-18.72611,7.44857,-5.83547,18.19421,-2.63154,1.73684,-1.83399,4.09825,0.65767,6.82842,-3.19289,-2.63551,1.58349,-0.76424,0.21309,3.12047,1.59384,-2.76375,0.10731,-0.06906,0.01504,0.41367,0.19725,-0.52682
904,-5.24887,-24.6295,3.22753,-2.40122,4.42971,-0.58814,-18.32896,-46.17286,8.06,-1.08558,5.3654,-2.64764,-40.15826,26.10332,-7.53943,4.03305,2.37427,-0.2433,-15.34029,0.99698,-6.95325,7.63371,-5.08062,-0.40481,1.59573,3.49939,0.63607,5.44815,-3.60902,-1.93955,2.74258,-1.17229,0.96406,2.54698,1.33219,-1.89308,0.24128,-0.11982,0.20299,0.29577,0.13036,-0.25813
905,-5.98126,-24.78269,3.36292,-2.62654,5.01735,-0.33406,-21.4803,-48.58814,8.96317,2.36019,8.26892,-0.50139,-40.46691,26.70835,-7.68356,4.16648,2.44386,-0.16756,-14.11469,4.58597,-3.66466,7.98371,-1.89985,-5.78608,5.3962,1.29694,-0.50245,5.23976,-3.28307,-1.31662,3.31691,-1.30953,0.64055,2.22805,1.34827,-1.42321,0.41808,-0.12053,0.11069,0.2128,0.1271,-0.11761
906,-5.56091,-24.18662,2.89183,-2.73155,6.97953,0.57178,-22.35019,-47.03452,7.40378,3.79582,12.43743,3.86383,-40.74184,27.35989,-7.74543,4.24582,2.55685,-0.02579,-14.23484,12.67737,-0.19032,17.31344,0.83709,-2.73017,5.23454,0.59701,-0.72557,6.93311,-0.98791,-0.43264,3.27254,-1.22977,0.21278,2.16215,1.35911,-1.40934,0.58787,-0.13787,0.00097,0.19095,0.11948,-0.16878
907,-4.46113,-23.43632,2.11266,-1.63801,7.96009,1.22603,-20.30804,-43.59458,4.87056,4.38268,12.65338,6.02329,-41.03891,27.95987,-7.8363,4.28758,2.49454,0.01912,-12.4267,15.85246,-0.98833,29.61031,1.83371,7.2872,1.51311,2.41331,0.78154,8.55006,2.7685,0.94649,3.13575,-1.2233,0.64048,2.23114,1.35488,-0.96913,0.63944,-0.19496,0.11427,0.20871,0.08406,-0.17602
908,-4.07261,-23.45493,1.63232,-0.85724,7.65671,1.29674,-16.90203,-42.72776,3.05276,1.863,9.89041,5.11419,-41.40505,28.48674,-8.0647,4.20057,2.33381,0.00745,-11.33117,11.94006,-3.61946,39.09341,5.9247,10.17425,-1.94327,3.84868,2.13782,7.76285,4.28371,1.3849,3.09555,-1.3841,0.96065,2.50048,1.59543,-0.33547,0.52111,-0.22169,0.22239,0.25081,0.09269,-0.08132
909,-5.21887,-24.00519,1.72053,-1.3178,7.41248,1.08878,-15.77583,-45.26018,3.03881,-3.28367,8.54048,3.04791,-41.7869,28.95622,-8.38162,4.09605,2.26171,0.02729,-14.40099,5.67617,-3.72145,38.95205,10.89831,3.32087,-3.40246,3.17648,1.87156,4.78583,1.53738,-0.06489,2.68721,-1.38593,0.2486,2.81827,1.98653,-0.44091,0.2452,-0.14025,0.10781,0.28529,0.16817,-0.05822
910,-6.84779,-23.98472,1.98521,-1.78749,7.79423,0.90009,-18.52411,-46.8379,4.47341,-6.82755,10.20764,1.33857,-42.11677,29.35009,-8.63329,4.1817,2.31379,0.06908,-20.34204,3.18703,-1.16554,29.95572,8.06665,-1.16483,-3.47478,2.33664,1.0139,1.72257,-2.92979,-1.99587,1.70142,-1.03703,-0.37535,2.76996,2.10565,-1.06556,-0.05516,-0.02861,0.02043,0.28619,0.243,-0.14438
911,-6.80368,-23.58651,1.90894,-1.49211,8.37647,0.84071,-21.87197,-46.02685,5.53395,-7.84763,13.72758,0.99451,-42.43397,29.67151,-8.7557,4.41953,2.41956,0.10223,-26.57901,6.18652,1.25225,25.72735,-3.05359,2.42632,-1.46596,2.92104,0.7071,1.02686,-5.27963,-2.5277,1.04873,-0.79078,0.30958,2.37175,1.85707,-1.4386,-0.13187,-0.04965,0.18342,0.28126,0.26818,-0.22219
912,-4.95077,-23.85454,1.50776,-0.91621,9.04655,1.05001,-22.91894,-45.49047,4.90686,-7.64694,17.66355,2.95205,-42.8403,29.98378,-8.83248,4.63049,2.52738,0.12164,-30.84244,11.74055,1.82087,32.60529,-13.01928,7.55143,3.20055,3.8019,0.41073,3.66599,-4.17809,-1.23855,1.63312,-1.10882,1.46505,1.98052,1.42465,-1.31079,0.07858,-0.17935,0.33767,0.27246,0.21489,-0.19272
913,-3.19282,-24.69791,1.14379,-0.4514,9.65283,1.43426,-22.64223,-44.90514,3.36153,-5.36729,19.29101,5.95513,-43.34133,30.32577,-8.94601,4.79466,2.60272,0.08784,-29.95005,16.16271,0.3399,38.05677,-14.7838,8.60653,7.26663,3.38393,-0.41579,7.38198,-1.23263,0.84486,2.95907,-1.73499,1.43859,1.91315,1.11565,-0.69402,0.34779,-0.23395,0.1701,0.25202,0.10528,-0.04569
914,-2.4088,-25.26101,0.95759,-0.31156,9.35051,1.44156,-21.58385,-42.50588,2.5603,-1.46511,15.78143,6.58649,-43.82958,30.63649,-9.0861,4.98671,2.60621,-0.08303,-22.85987,15.99258,-2.49025,31.16496,-8.57548,7.26032,6.43629,1.95827,-1.03046,8.97379,1.31972,2.29852,3.81841,-2.03192,0.05255,2.18817,1.21489,0.15691,0.44128,-0.12938,-0.18312,0.24319,0.04295,0.11202
915,-1.85955,-24.96361,0.69575,-0.52609,8.24314,0.88413,-18.05005,-39.13738,2.66668,1.01267,9.98153,4.14709,-44.22155,30.86279,-9.19041,5.17877,2.58408,-0.37015,-12.44814,13.18133,-4.70519,17.72241,0.96719,6.56191,2.24322,1.00363,-0.76547,8.56818,2.77356,2.63905,3.90315,-1.9001,-1.20912,2.3367,1.52251,0.58841,0.37521,0.01232,-0.3593,0.21764,0.07145,0.1413
916,-1.4048,-24.06882,0.32657,-0.49249,7.39461,0.19063,-14.65472,-36.85545,3.04215,0.61314,7.24233,1.21672,-44.51969,31.0465,-9.24724,5.30937,2.60793,-0.66635,-6.79939,12.84191,-5.34394,9.22946,7.69356,4.99538,1.23198,0.90493,-0.29058,8.28534,3.30298,2.26048,3.59543,-1.76121,-0.98722,2.16037,1.69933,0.23972,0.27367,0.03751,-0.24878,0.1599,0.13562,0.04412
917,-1.9665,-23.53815,0.27869,-0.06462,6.6765,-0.44982,-17.15067,-37.07459,3.89955,-2.28646,6.30429,-1.36079,-44.75684,31.2331,-9.33777,5.40193,2.63659,-0.92951,-13.93826,11.53068,-6.13099,11.17709,9.03676,-0.61253,5.65865,0.47449,-0.64869,7.90377,2.43974,1.23695,3.17499,-1.81419,0.18432,2.12308,1.81076,-0.5512,0.22707,-0.05946,-0.05009,0.14323,0.19037,-0.04935
918,-2.85897,-23.87601,0.47403,0.2191,5.76159,-0.9376,-22.22125,-39.46896,4.52881,-5.53842,3.77678,-3.69609,-44.96215,31.44027,-9.49483,5.5169,2.66211,-1.09108,-25.81707,4.44903,-8.17068,23.51245,6.44628,-7.61158,9.97973,-0.99406,-1.75916,5.9973,0.13488,-0.24272,2.82881,-1.83494,0.52061,2.42395,1.9459,-1.1008,0.29162,-0.15727,0.00586,0.19814,0.21541,-0.03767
919,-2.1199,-24.89302,0.35126,0.19423,5.93626,-0.79066,-20.76631,-43.23914,3.23668,-6.29111,3.07844,-3.44287,-45.18909,31.69546,-9.62791,5.61033,2.77474,-1.02887,-26.01624,-2.09833,-9.33046,37.04055,0.79021,-8.97223,8.54699,-2.10369,-2.32415,3.37103,-2.49358,-1.46297,2.69553,-1.65313,-0.42563,2.55263,1.83301,-1.26,0.41723,-0.17233,-0.06761,0.24487,0.18789,0.00065
920,0.12607,-26.02947,-0.09016,0.22786,7.56049,-0.05743,-12.42523,-47.69751,0.67084,-4.40879,6.91167,-0.08008,-45.48567,32.01029,-9.65847,5.59593,2.92102,-0.83074,-13.28139,-1.43752,-7.95826,36.66962,-4.71818,-2.64305,2.19192,-1.29541,-1.37298,1.7896,-3.89539,-1.72072,2.72797,-1.42513,-1.42584,2.09323,1.27546,-1.16184,0.47602,-0.13099,-0.09191,0.22359,0.1081,-0.04009
921,1.17931,-26.11397,-0.35627,0.4932,8.95872,0.47056,-6.94494,-49.78715,-0.35718,-2.66899,11.03546,2.64079,-45.84168,32.33561,-9.6285,5.46215,2.91994,-0.74406,-3.17654,3.55413,-5.59396,24.5803,-3.09957,6.02278,-4.23689,0.62049,0.48273,1.78445,-3.08061,-0.81273,2.76538,-1.39056,-1.62872,1.60246,0.75536,-0.61089,0.40679,-0.08971,-0.03163,0.21409,0.04213,-0.10098
922,-0.45834,-24.55826,-0.2889,0.79741,9.55374,0.50505,-10.58327,-46.33401,1.09683,-3.10148,13.40343,2.84229,-46.17172,32.54816,-9.62791,5.23177,2.73096,-0.83111,-6.64386,9.67922,-3.37963,21.41459,4.73708,11.38905,-6.71277,2.18985,1.95507,3.12817,-0.87045,0.5203,2.60152,-1.53845,-0.98884,2.01345,1.042,0.1921,0.26715,-0.08229,0.02061,0.30969,0.09001,-0.10698
923,-2.43531,-22.54462,-0.2847,0.94471,10.20639,0.47175,-16.46813,-39.50777,2.80496,-4.31156,16.49487,2.76929,-46.39188,32.59218,-9.65866,4.92314,2.47862,-0.94702,-14.35998,17.87697,-0.88601,29.89525,6.35109,12.21425,-3.80562,3.37757,2.29416,4.98529,1.10907,1.30501,1.9807,-1.55995,0.3181,3.08282,2.0637,0.64331,0.14327,-0.11047,0.02708,0.44384,0.25771,-0.06181
924,-2.29982,-21.53713,-0.57759,0.78809,10.64699,0.56841,-16.70526,-35.89217,2.89607,-4.41069,18.54196,3.32882,-46.55179,32.62014,-9.65966,4.52232,2.29339,-0.96316,-14.90443,22.69394,0.12605,29.34167,-3.51626,8.52236,1.9099,4.03363,1.54098,5.22507,1.83502,1.0315,0.99278,-1.24864,1.52397,3.41354,2.70321,0.48225,0.06051,-0.13986,0.01455,0.46167,0.39754,-0.00469
925,-0.63801,-21.82008,-0.85876,-0.09365,10.00635,0.59507,-12.64681,-39.35366,2.1016,-5.9933,15.46651,2.64854,-46.76073,32.81853,-9.61415,3.96069,2.21615,-0.85258,-13.41165,15.1052,-1.91894,17.22766,-13.90683,0.95645,4.66692,3.34192,0.72635,2.52195,0.40087,-0.51179,0.29315,-0.89283,1.76586,2.55768,2.19575,-0.2564,-0.00481,-0.14974,0.05875,0.33748,0.35484,-0.00297
926,0.60057,-22.64043,-0.8469,-1.71303,8.96989,0.5616,-8.99184,-45.88985,1.68172,-11.81106,10.2973,0.79231,-47.09018,33.19444,-9.5794,3.26806,2.19408,-0.64681,-18.22731,1.11654,-3.94923,14.15785,-14.63356,-5.13286,2.26285,1.48155,0.66422,-0.16468,-2.23955,-2.01432,0.55525,-0.99044,1.02332,1.89288,1.26014,-0.89424,-0.01525,-0.16108,0.15925,0.21799,0.15018,-0.01359
927,0.3763,-22.96984,-0.71278,-2.62325,8.88149,0.78879,-8.27572,-47.92374,1.43714,-16.83934,9.86729,0.77449,-47.59183,33.66771,-9.62269,2.68325,2.14441,-0.409,-24.84404,-1.84395,-2.47322,26.01679,-7.27667,-2.71479,-0.97133,-0.23524,0.69562,1.5295,-2.58443,-0.99067,1.70276,-1.59667,-0.13293,2.25459,0.92086,-0.36028,0.09216,-0.17904,0.16819,0.15695,-0.07034,0.0958
928,-0.62986,-22.48831,-0.74236,-1.58354,9.19026,1.20523,-10.4377,-43.74306,0.73825,-14.05159,13.44323,3.432,-48.2247,34.21443,-9.72294,2.34943,2.00312,-0.26902,-23.95268,9.13762,0.69986,37.0258,0.06391,7.35113,-0.87377,-0.43603,0.28029,6.85907,0.43803,2.14503,2.75007,-2.15847,-0.81272,2.81723,1.24008,0.89513,0.22595,-0.16695,0.05757,0.13097,-0.11758,0.19983
929,-1.11113,-21.87749,-0.89262,0.10625,8.42554,1.29864,-13.38271,-38.94656,0.03301,-5.19831,14.71025,5.94925,-48.81517,34.76636,-9.80611,2.00865,1.76902,-0.34049,-15.19081,19.41756,1.75206,35.53786,0.02662,14.12999,2.37002,1.18785,0.0284,10.11111,2.7536,3.62049,2.79856,-2.17187,-0.25399,3.02823,1.82275,1.16097,0.24858,-0.12275,-0.00869,0.25221,0.11099,0.10041
930,-0.70482,-21.39337,-1.09137,0.28692,6.72648,0.89993,-13.6819,-36.48767,-0.07887,2.5373,11.80645,5.96702,-49.24327,35.20738,-9.8491,1.31333,1.52644,-0.55216,-3.15784,20.46003,-0.28459,25.73247,-5.00682,8.40359,5.66173,3.26122,0.28508,6.78084,0.31196,1.32995,2.03573,-1.70807,0.9928,2.85616,2.08963,0.05123,0.19455,-0.08957,0.02373,0.44589,0.37679,-0.06162
931,-0.05823,-20.65041,-1.35716,-1.07549,5.43402,0.37936,-10.7123,-33.48446,0.38119,4.50842,8.31174,3.67388,-49.56232,35.53949,-9.88539,0.36879,1.37698,-0.68362,5.46105,17.36834,-4.01099,16.36514,-5.03,-3.51834,5.06215,3.96743,0.71598,0.00248,-4.50352,-2.19586,1.30613,-1.15554,1.38359,2.284,1.70677,-1.11879,0.16622,-0.07619,0.04518,0.43592,0.37416,-0.10825
932,0.09892,-20.26205,-1.39259,-2.38697,5.47784,0.20817,-8.66523,-30.31355,1.29158,0.19893,7.74347,0.90861,-49.87474,35.84179,-9.96369,-0.45553,1.34965,-0.59155,1.79788,14.61705,-7.07043,10.39819,0.07558,-7.59114,1.85045,2.2785,0.73704,-1.94708,-5.00492,-2.5852,1.15661,-0.91995,0.65487,1.74742,1.06573,-0.99434,0.18117,-0.08152,0.03748,0.2094,0.13861,-0.06734
933,-0.21447,-20.6716,-1.13806,-3.06842,6.58012,0.5254,-9.84131,-29.93454,1.7044,-7.30977,9.34382,-0.47845,-50.20845,36.17582,-10.06277,-1.1723,1.39287,-0.34259,-12.31169,12.01547,-8.01414,9.14547,-0.08771,-3.54389,3.20164,-1.23996,-0.2334,2.84815,-0.50271,0.40016,1.56847,-1.26054,0.21304,1.70558,0.70761,0.10251,0.22207,-0.13335,0.08713,-0.00527,-0.09273,-0.05218
934,-0.37006,-20.75426,-1.09731,-3.69136,7.27401,0.9533,-11.95358,-30.78501,0.51852,-13.34226,9.33843,-0.30964,-50.54084,36.59333,-10.0736,-2.03295,1.39512,-0.13393,-24.02048,10.51934,-8.04159,15.15813,-7.55425,-0.48419,8.44633,-3.47399,-1.48325,7.59771,2.3599,2.53492,2.20507,-1.95535,0.41213,2.34062,0.94789,0.69441,0.28929,-0.21562,0.13219,0.0104,-0.12099,-0.05649
935,-0.05867,-20.19416,-1.27257,-4.23445,7.17052,1.23854,-12.97351,-31.52923,-1.14228,-14.98621,8.80923,1.35788,-50.88081,37.10247,-9.95787,-3.0132,1.29388,-0.05815,-25.71465,12.44713,-7.15898,24.40617,-13.95015,3.23817,6.54349,-1.54847,-1.12275,7.49324,0.70141,1.76079,2.69878,-2.44469,-0.11332,3.17455,1.5405,0.3852,0.37845,-0.26773,0.00726,0.21182,0.02128,0.00632
936,0.45852,-19.48022,-1.30504,-4.17786,6.94246,1.39328,-12.30123,-31.96938,-1.49605,-12.27971,11.10155,4.21528,-51.2233,37.6719,-9.78018,-3.88055,1.1171,-0.08402,-18.57442,18.41667,-4.25281,26.56136,-14.98963,12.81292,-3.53351,2.54385,1.01614,5.36454,-0.939,0.56468,2.76664,-2.527,-1.22366,3.26333,1.80844,0.07953,0.40958,-0.27834,-0.17272,0.33883,0.1494,0.08321
937,0.76774,-18.73703,-1.13938,-3.31269,6.94576,1.48851,-10.37067,-31.80316,-0.45091,-7.32424,15.4286,6.96604,-51.48814,38.19971,-9.61777,-4.45889,0.96712,-0.12895,-8.22436,24.0469,-0.30156,21.03498,-11.85333,20.55707,-8.33867,4.25957,2.99217,4.83839,0.28273,0.84492,2.47744,-2.61981,-0.75848,2.67499,1.65683,0.25753,0.29606,-0.29647,-0.07781,0.32327,0.20296,0.09887
938,0.73242,-18.31548,-0.80258,-2.32753,7.42781,1.67387,-9.60739,-32.64662,0.97545,-4.46145,19.04048,8.50072,-51.63077,38.57536,-9.49545,-4.81309,0.9368,-0.09623,-4.52234,22.7762,2.23878,19.99669,-4.5734,16.19323,-2.25814,3.04589,3.64968,4.49024,0.93124,1.08436,2.2127,-2.95322,1.61615,2.20715,1.45079,0.39066,0.11161,-0.33463,0.30725,0.28404,0.20411,0.10549
939,0.73146,-18.42834,-0.41048,-2.38598,8.11314,1.8843,-11.56305,-34.7227,1.69758,-8.26868,19.42403,7.92908,-51.72249,38.81133,-9.3744,-5.14734,0.97859,0.00653,-14.6006,14.27796,1.3063,30.71545,4.9102,3.08082,4.82242,2.02174,3.38172,2.31979,-1.46289,-0.15084,1.97298,-2.89424,3.42109,2.01888,1.27382,-0.03823,0.00869,-0.31088,0.58236,0.25549,0.16045,0.09916
940,1.10884,-18.58261,-0.20453,-3.28605,7.87707,1.80395,-13.79211,-35.90156,1.50066,-16.50797,14.53349,4.62437,-51.83575,38.93867,-9.22597,-5.45088,0.97124,0.07057,-30.50506,3.23493,-3.06379,44.30995,11.10244,-7.103,5.38895,2.07611,2.4437,0.46627,-3.62773,-1.30748,1.57114,-2.11185,2.88364,1.74833,1.01322,-0.54277,0.03957,-0.19655,0.4308,0.18057,0.09195,0.01713
941,1.34378,-18.33437,-0.12838,-3.47105,6.75382,1.5275,-13.8993,-36.38996,1.36297,-20.14691,7.53082,0.91654,-51.934,38.92294,-9.06505,-5.55486,0.92059,0.0622,-35.67971,-5.12786,-6.73791,42.65304,10.70917,-9.70535,4.85253,0.73512,0.18033,1.55642,-2.64739,-0.56035,1.43129,-1.54213,0.80015,1.53658,0.81105,-0.34298,0.15937,-0.10859,-0.04053,0.0997,0.04258,-0.05624
942,0.81069,-17.44159,-0.06027,-2.35316,6.6904,1.6058,-13.47868,-35.7651,1.65,-15.89726,6.65587,1.18762,-51.9081,38.79355,-8.88513,-5.4608,0.94192,0.04944,-27.83437,-1.97089,-4.98808,19.64243,3.93993,-6.71605,8.8083,-2.54823,-2.94483,4.39886,-0.12565,1.46083,2.03201,-2.02223,-1.03939,1.82082,0.84548,0.60557,0.31783,-0.15893,-0.4499,0.12032,0.02071,0.03373
943,0.38841,-15.74549,-0.32991,-0.93166,8.2094,2.08044,-12.80472,-30.13736,1.23927,-10.28925,12.70834,5.05535,-51.6897,38.6181,-8.66495,-5.30094,1.04652,0.0618,-17.77914,15.10931,-0.22117,-5.37524,-6.49543,1.02944,11.78402,-4.18454,-4.16846,6.01839,1.4487,2.93498,2.83512,-2.89902,-1.49985,2.21128,0.8731,1.55314,0.42186,-0.3001,-0.45114,0.17156,-0.02846,0.22397
944,1.15649,-14.10754,-0.93773,-0.20766,8.86166,2.25758,-9.44504,-21.40232,0.09305,-8.50082,15.3038,6.45776,-51.37743,38.38379,-8.44645,-5.11583,1.10524,0.07038,-10.29199,28.34614,-0.02482,-9.2534,-13.36147,8.05007,7.57201,-2.15308,-2.09343,5.19707,0.8645,2.23913,2.78456,-2.89025,-0.72948,2.13926,0.87525,1.19497,0.34709,-0.34071,-0.07965,0.14904,-0.02886,0.19033
945,2.1568,-13.78066,-1.12631,-0.31661,7.21722,1.7863,-5.8523,-18.5606,0.01969,-10.96378,9.15068,2.39854,-51.16471,38.08228,-8.29073,-4.80096,1.05468,0.08681,-9.40015,20.03386,-5.9885,9.7388,-11.78918,5.82072,0.08893,1.02228,1.12724,2.71171,-1.69733,-0.88293,1.98067,-2.03306,0.32532,1.97064,1.31841,-0.87007,0.16882,-0.2375,0.28973,0.13799,0.17878,-0.2028
946,1.86912,-14.41235,-0.6429,-0.63712,5.71053,1.33699,-7.01359,-23.7742,1.2224,-16.22377,3.29593,-2.18039,-51.06248,37.75872,-8.18397,-4.25637,1.01878,0.17956,-20.50422,1.38924,-11.07363,38.21298,-8.2506,-0.59366,-4.07731,3.01902,3.15811,1.10748,-3.62334,-3.63631,1.31568,-1.3627,1.07577,2.32635,2.08599,-2.71869,0.08493,-0.15372,0.38361,0.23146,0.45884,-0.56167
947,0.63956,-14.72432,-0.17204,-0.3504,7.03318,1.6685,-10.34589,-29.56716,1.58978,-19.29047,7.18914,-1.11759,-50.87312,37.39136,-8.07647,-3.58564,1.09973,0.33535,-31.89973,-3.40878,-9.04957,56.55914,-8.66049,0.91563,-3.08936,3.44602,3.29237,3.03337,-2.50721,-2.62934,1.20684,-1.40302,1.33721,2.84104,2.22506,-2.22787,0.1338,-0.17494,0.23394,0.31857,0.44838,-0.43799
948,-0.15077,-14.49657,-0.12302,0.75267,9.97541,2.50866,-9.48614,-30.96978,0.52285,-16.07336,16.98111,4.74302,-50.48616,36.91948,-7.95079,-2.96156,1.18498,0.41541,-26.19741,7.46243,-1.63024,49.27081,-7.91558,7.83357,2.09767,1.90206,1.57898,6.95862,0.07263,1.10976,1.68321,-2.1237,1.05065,2.79975,1.45324,-0.08203,0.20991,-0.26044,0.05772,0.27426,0.12073,0.03245
949,-0.11944,-14.17042,-0.21617,1.92272,11.82668,3.11978,-5.43195,-29.56415,-0.19192,-10.18464,23.00624,9.61062,-50.00705,36.36584,-7.80677,-2.39773,1.20669,0.40871,-10.11822,17.92618,4.74924,26.31294,-3.35348,8.35491,8.17924,-0.66105,-0.75902,7.29796,0.61974,2.82638,2.43731,-3.07187,0.50895,2.15003,0.63931,1.1548,0.22744,-0.33851,0.02151,0.12897,-0.14166,0.28688
950,0.46126,-13.40548,-0.43552,2.19781,11.73855,3.14558,-3.68859,-25.86225,0.0335,-8.69099,21.68877,9.58293,-49.54033,35.75441,-7.62388,-1.74555,1.25958,0.43525,-4.97864,21.1725,4.82307,13.66802,-0.6844,1.29231,10.19161,-1.81929,-1.97453,2.51307,-1.12575,0.79418,2.67458,-3.24494,0.01249,1.64062,0.65435,0.64917,0.17169,-0.29812,0.05788,0.0483,-0.06633,0.13611
951,1.45593,-12.29911,-0.90311,2.08776,10.81328,2.77365,-4.85185,-20.43065,0.00683,-11.60725,17.69006,6.29983,-49.04798,34.98816,-7.41705,-0.79451,1.37298,0.49216,-13.09149,22.24219,-0.34211,17.28019,-3.40257,-3.54359,7.00431,-0.92469,-1.50344,-1.66099,-2.16369,-1.29896,2.1322,-2.38158,-0.26005,1.8993,1.34884,0.13918,0.11302,-0.15319,0.04239,0.14226,0.19435,-0.00113
952,2.25851,-11.66941,-1.32056,3.02463,10.22057,2.40385,-5.57261,-16.88323,-0.74209,-12.44874,16.06667,3.7288,-48.44664,34.03837,-7.23841,0.49731,1.48,0.47961,-17.63248,23.34788,-5.11758,21.93815,-10.13917,0.83163,1.77132,0.7975,0.31999,-0.57559,-1.14148,-0.39458,1.58043,-1.61256,-0.01836,2.49613,1.80977,0.80666,0.1525,-0.11051,0.01616,0.29625,0.31909,0.14517
953,1.94317,-12.01627,-1.17664,4.49903,9.59346,2.07055,-6.10145,-18.39048,-1.00697,-10.42284,15.30149,2.53291,-47.68766,33.02273,-7.11506,1.89357,1.56513,0.38779,-14.96243,18.73391,-7.0431,22.89336,-16.80625,11.98836,-3.77706,2.78288,3.0413,3.64809,0.10866,1.71232,1.584,-1.74863,0.63831,2.8347,1.66736,1.48061,0.27704,-0.25021,0.06583,0.35816,0.24333,0.26302
954,0.75164,-12.98394,-0.48171,4.55117,8.97066,1.79065,-8.69037,-22.93957,0.11951,-11.63877,14.29674,2.06508,-46.75793,32.01936,-7.00732,3.127,1.72939,0.35695,-17.88991,10.26684,-6.49328,27.99777,-15.03659,19.62614,-7.70456,3.97851,4.88206,6.31712,-0.26895,1.8715,1.93973,-2.31235,0.92681,2.66741,1.25526,0.68964,0.36271,-0.39573,0.14121,0.27524,0.11911,0.03642
955,0.06831,-13.67756,0.13163,3.12474,9.53278,1.85235,-11.07806,-25.45724,1.76062,-17.59882,15.59227,2.96359,-45.67987,30.98541,-6.83549,4.14736,2.0285,0.47758,-28.51676,7.96377,-3.70215,34.4237,-1.76421,13.65658,-4.7769,2.4995,3.52048,5.92676,-1.84911,0.17659,2.1439,-2.4824,0.62433,2.21609,1.00766,-0.85711,0.34123,-0.37355,0.12221,0.14908,0.06293,-0.26238
956,0.69453,-13.84497,0.26532,2.3897,11.19875,2.265,-8.79989,-25.08156,2.54475,-21.93145,18.45244,4.68703,-44.49569,29.84318,-6.56958,5.10988,2.36687,0.64941,-33.06232,10.86228,-0.60899,31.53807,8.55975,-2.66127,5.00776,-0.55836,-0.15009,4.26493,-2.99601,-1.01956,1.7675,-1.94864,0.47386,2.13062,1.2161,-1.31443,0.23169,-0.2006,0.02366,0.15395,0.10383,-0.18352
957,2.16526,-13.52696,-0.0636,3.99456,12.49822,2.70197,-2.21334,-23.46495,1.67303,-18.60901,19.27746,5.67965,-43.22498,28.60109,-6.22465,6.17886,2.68044,0.76069,-22.34429,11.9319,-0.03881,20.49249,0.5081,-14.24175,12.12082,-2.23807,-2.73486,2.97217,-2.94392,-0.80384,1.01935,-1.13921,0.53224,2.3701,1.63459,-0.48495,0.07096,-0.00788,-0.04232,0.24292,0.17268,0.17972
958,3.25492,-12.70926,-0.56067,7.23494,13.06414,3.03704,1.68414,-20.9747,-0.29103,-8.70293,18.45863,6.08923,-41.90057,27.29944,-5.83853,7.34296,2.99816,0.83665,-5.31666,13.08168,-2.1868,13.7635,-16.06734,-12.64775,9.94942,-2.26729,-2.88984,2.284,-1.77692,-0.13909,0.76765,-0.89616,-0.05809,2.57475,1.79838,0.38923,-0.06841,0.08774,-0.05345,0.30074,0.21082,0.34572
959,3.18053,-11.85581,-0.73515,9.31134,13.83795,3.25641,-1.97574,-18.85245,-1.11042,-2.18706,19.18686,6.32031,-40.57604,25.90071,-5.47662,8.40696,3.24573,0.91364,-0.86787,17.01161,-4.46654,17.18214,-19.02966,-2.06971,2.95216,-1.83218,-1.89858,2.54485,0.41068,0.5106,1.41325,-1.56923,-1.29722,2.52075,1.51871,0.64358,-0.07318,0.01981,-0.08028,0.25485,0.18565,0.126
960,2.63095,-11.67807,-0.38813,8.13645,14.86613,3.13327,-7.52927,-19.55966,0.60348,-8.96983,20.58295,4.8786,-39.21918,24.37339,-5.17904,9.1797,3.29127,0.93115,-15.20674,16.85955,-4.59916,24.12115,-7.7217,9.30824,-0.91812,-0.91127,-0.90397,4.56387,3.10043,1.7583,2.3021,-2.59057,-1.89713,2.30687,1.1531,0.74031,0.0581,-0.16684,-0.12076,0.10633,0.11879,-0.19014
961,2.89767,-12.15898,0.08991,5.66233,15.31591,2.69499,-6.56982,-23.18666,3.02119,-22.54344,19.96228,1.81402,-37.71134,22.84972,-4.89141,9.72444,3.25253,0.85947,-30.64021,8.6841,-2.97986,28.02735,1.18158,13.46366,1.32354,0.31005,-0.15205,7.65239,4.61238,3.18314,2.53927,-3.09939,-0.90609,2.49948,1.3581,0.95215,0.14205,-0.3054,-0.03715,0.05472,0.1634,-0.30108
962,3.83637,-13.17145,0.46346,5.59029,15.34554,2.50038,-0.63097,-28.11116,3.72482,-26.76962,19.81042,0.96663,-36.026,21.44041,-4.57168,10.30056,3.45504,0.80664,-29.57395,0.96453,-0.2802,27.92394,2.51016,5.49601,7.26529,0.12998,-0.19521,8.85559,3.06511,3.02186,2.02138,-2.74548,0.84215,2.70522,1.86004,0.62859,0.0825,-0.27615,0.17937,0.14296,0.30044,-0.21359
963,5.06852,-14.42522,0.64997,7.3963,15.37057,2.69094,5.27185,-30.64671,2.38188,-21.52061,22.55939,3.80287,-34.21907,20.05254,-4.22769,10.91277,3.92414,0.8502,-17.7752,2.822,2.87246,25.63218,2.20728,-10.42798,12.30726,-2.10148,-1.37468,5.98886,-0.97929,0.75301,1.43684,-1.90844,1.64914,2.32868,1.83536,-0.28309,0.07411,-0.17324,0.27331,0.21562,0.30313,-0.06785
964,6.40361,-15.04029,0.55684,7.92294,15.38745,2.84862,8.78914,-27.7621,0.46344,-18.59691,25.55288,6.70514,-32.35404,18.57567,-3.87134,11.30247,4.3278,0.93254,-11.29943,11.61121,3.6553,27.03525,-0.3005,-21.48745,11.62108,-3.55191,-2.13608,0.21983,-5.05064,-2.32091,1.29981,-1.23772,1.04663,1.84736,1.20548,-0.99586,0.26382,-0.15523,0.09135,0.23499,0.10909,0.05909
965,6.78483,-14.99265,0.59611,7.26792,15.84961,2.86295,6.3155,-23.00939,0.13995,-18.97866,27.11318,7.18602,-30.51641,17.07048,-3.53404,11.4072,4.46686,0.9591,-14.73217,18.0062,0.72492,34.13457,-8.61131,-17.12565,3.08793,-0.98432,-0.54031,-5.19063,-7.87952,-4.86258,1.40195,-0.99438,-0.19095,1.57959,0.5106,-1.39884,0.41771,-0.15876,-0.18831,0.25182,-0.1046,0.12688
