PaulMeinheit/Bachelor_Muay_Thai/processed_Data/N3/teep/sliced/JointMoments/sliced3.csv
Unnamed: 0_level_0,R_KNEE_MOMENT,R_KNEE_MOMENT,R_KNEE_MOMENT,L_KNEE_MOMENT,L_KNEE_MOMENT,L_KNEE_MOMENT,R_HIP_MOMENT,R_HIP_MOMENT,R_HIP_MOMENT,L_HIP_MOMENT,L_HIP_MOMENT,L_HIP_MOMENT,R_ANKLE_MOMENT,R_ANKLE_MOMENT,R_ANKLE_MOMENT,L_ANKLE_MOMENT,L_ANKLE_MOMENT,L_ANKLE_MOMENT,WAIST_JOINT_MOMENT,WAIST_JOINT_MOMENT,WAIST_JOINT_MOMENT,NECK_MOMENT,NECK_MOMENT,NECK_MOMENT,L_SHOULDER_MOMENT,L_SHOULDER_MOMENT,L_SHOULDER_MOMENT,R_SHOULDER_MOMENT,R_SHOULDER_MOMENT,R_SHOULDER_MOMENT,L_ELBOW_MOMENT,L_ELBOW_MOMENT,L_ELBOW_MOMENT,R_ELBOW_MOMENT,R_ELBOW_MOMENT,R_ELBOW_MOMENT,L_WRIST_MOMENT,L_WRIST_MOMENT,L_WRIST_MOMENT,R_WRIST_MOMENT,R_WRIST_MOMENT,R_WRIST_MOMENT
ITEM,X,Y,Z,X,Y,Z,X,Y,Z,X,Y,Z,X,Y,Z,X,Y,Z,X,Y,Z,X,Y,Z,X,Y,Z,X,Y,Z,X,Y,Z,X,Y,Z,X,Y,Z,X,Y,Z
966,6.18025,-15.39695,1.23527,7.65558,16.89129,2.88341,-1.94979,-21.9128,2.27699,-16.40889,28.4069,6.57648,-28.73013,15.66745,-3.22056,11.41073,4.42476,0.85757,-20.84035,18.68702,-2.06476,38.04533,-16.14127,1.82754,-9.45048,4.42807,3.08581,-6.63207,-8.78797,-5.60005,1.39797,-1.16666,-1.10218,1.3376,0.25262,-1.65407,0.26196,-0.09126,-0.24826,0.25308,-0.15075,0.112
967,6.16908,-16.64202,2.14169,9.09623,17.52164,2.88909,-8.37632,-23.6853,5.05569,-12.55291,28.25754,6.064,-26.96279,14.38684,-2.90855,11.43638,4.36182,0.65704,-23.55243,16.68993,-1.4504,34.51354,-12.38352,25.25541,-18.39433,8.24306,6.59386,-1.31509,-5.81082,-2.78456,1.50245,-1.89577,-0.96626,1.65988,0.71595,-0.93942,-0.02848,-0.10285,0.02397,0.26192,-0.02031,0.11438
968,7.47773,-17.3518,2.40391,9.26595,16.81541,2.72092,-6.63341,-23.30693,5.49892,-14.23901,23.6269,4.57809,-25.2415,13.17751,-2.58858,11.33386,4.36167,0.50855,-23.77821,13.22295,-0.72212,29.36063,-0.34201,35.21856,-16.34942,7.10736,6.87655,7.79903,0.15321,2.09159,1.85765,-2.69,-0.08476,2.69991,1.64555,0.47266,-0.06355,-0.24514,0.27593,0.27406,0.18121,0.08837
969,9.03437,-16.79892,1.86978,7.39071,15.6471,2.47925,0.72246,-20.95256,3.20882,-19.8095,17.79708,2.49812,-23.65767,11.96712,-2.27981,10.87764,4.40774,0.52302,-22.18471,8.65121,-2.98231,23.80243,4.08271,15.22406,0.62293,0.3927,1.45491,11.44636,3.71763,3.9447,2.09556,-2.6712,0.44292,3.30006,2.24375,0.85798,0.2239,-0.33401,0.10632,0.22714,0.33501,-0.10607
970,9.90515,-16.50462,1.46122,5.46512,15.55938,2.45148,6.60712,-21.69,1.11421,-21.17076,18.06296,2.48753,-22.26111,10.67759,-2.01067,10.0986,4.40225,0.62463,-16.85652,6.40109,-4.93612,14.69797,-5.6948,-22.53638,24.5297,-7.66851,-6.59143,5.96399,2.30168,1.55028,1.96069,-2.10107,0.59604,2.79049,1.97744,0.30684,0.46873,-0.29636,-0.21231,0.15483,0.32669,-0.24695
971,10.69077,-17.9062,1.8403,5.01319,16.31165,2.62715,8.54169,-26.93987,1.6693,-17.90529,23.91427,4.85902,-20.99822,9.35761,-1.78536,9.26711,4.27173,0.66736,-9.86667,7.45264,-2.43872,6.71374,-13.77737,-39.9416,34.0535,-9.93156,-9.51275,-0.56581,-0.8019,-0.89807,1.61819,-1.78397,0.92417,1.87946,1.19867,0.11313,0.31997,-0.18145,-0.12066,0.11887,0.16554,-0.12561
972,11.70706,-20.4125,2.76385,5.80512,16.65396,2.80768,7.57158,-32.73988,4.10009,-15.50604,28.08471,6.96677,-19.82111,8.21312,-1.60098,8.63103,4.07759,0.63287,-6.9677,8.42362,2.69779,9.57792,-4.85628,-19.43532,16.87602,-4.53024,-4.27597,-0.23986,-2.05756,-0.51031,1.4339,-1.828,0.63721,1.4479,0.60241,0.34733,-0.0456,-0.07058,0.22416,0.10119,-0.02567,0.07816
973,11.96409,-22.01184,3.52712,6.95359,16.59043,2.99708,3.22387,-33.80764,5.78481,-15.20643,27.47298,7.12892,-18.76533,7.40486,-1.42768,8.18418,3.908,0.61694,-11.0983,8.62753,4.35266,25.92825,10.06968,15.30818,-12.02122,3.56534,3.82706,4.69554,-1.60462,1.24827,1.55576,-1.88435,-0.8682,1.76737,0.59916,0.4481,-0.17412,-0.06276,0.26875,0.11014,-0.10843,0.1551
974,11.28289,-21.52368,3.642,7.08598,17.07958,3.24483,-2.60462,-28.90319,5.49903,-15.93136,25.56458,5.99837,-17.84469,6.82564,-1.21631,7.69336,3.69819,0.66284,-18.99232,10.53816,0.80695,45.14066,11.18817,30.67208,-25.96099,7.19128,7.24993,7.53631,-0.89112,1.74226,2.07139,-2.02916,-2.40924,2.41886,1.19278,0.15952,0.07901,-0.14314,-0.06364,0.16716,0.01322,0.07844
975,11.07339,-20.34936,3.34892,4.98705,17.79367,3.30064,-3.10983,-23.72083,4.37237,-19.08461,25.33213,4.80928,-17.00469,6.19527,-0.98608,6.91626,3.31289,0.67491,-23.70749,12.68807,-2.34599,47.00829,-3.71334,17.3181,-13.78802,3.4908,3.69764,5.92407,-0.06298,0.48134,2.6739,-2.41314,-2.14367,2.77473,2.00623,-0.38266,0.41036,-0.22175,-0.33484,0.23732,0.29486,-0.07715
976,12.37298,-20.44663,3.15798,1.96765,17.55405,3.1033,4.68706,-23.89223,3.59497,-22.89247,25.33782,4.46564,-16.24333,5.46025,-0.79032,5.83983,2.86069,0.61054,-19.43553,11.79784,-1.08662,23.73931,-21.18245,-8.60539,12.51769,-3.04314,-2.53097,2.34935,0.87131,-0.8533,2.37888,-2.39524,0.28907,2.62143,2.34169,-0.528,0.39054,-0.19754,-0.17285,0.27091,0.48289,-0.15241
977,14.02838,-21.59008,3.26096,0.57661,16.2711,2.9599,12.68084,-27.47863,3.53003,-22.74619,23.36946,5.09335,-15.63802,4.8262,-0.64712,4.68274,2.55667,0.53751,-10.72538,8.92704,1.85898,0.70704,-25.21018,-25.32835,30.36625,-6.99471,-6.38366,0.16686,0.99928,-0.8065,1.56555,-2.04619,2.27606,2.32583,1.8587,0.12671,0.17806,-0.1419,0.10483,0.26399,0.37187,-0.05809
978,14.34448,-22.36823,3.5866,0.83286,14.53849,2.84323,12.57394,-29.34159,4.46577,-20.10662,19.8817,5.37066,-15.18879,4.41702,-0.55161,3.63696,2.31539,0.45056,-8.85892,6.62745,3.05216,5.74458,-12.38754,-20.3551,24.558,-6.17345,-5.75137,0.67747,-0.00817,0.16254,1.64832,-2.10674,1.11952,2.23171,1.12736,0.86524,0.23963,-0.22026,-0.02682,0.22204,0.1007,0.0701
979,13.19579,-22.79682,4.14687,1.41541,13.59901,2.70491,5.88994,-29.34215,6.42344,-18.27643,18.96,4.74414,-14.8166,4.15542,-0.52174,2.75502,2.00813,0.36958,-14.79784,6.47963,2.72642,27.69619,4.00016,2.57738,-0.34622,-0.54935,-0.91433,2.72241,-1.51512,0.3615,2.21737,-2.15364,-1.79746,2.22908,1.0504,0.46182,0.39273,-0.29806,-0.2925,0.14865,0.01897,0.02322
980,11.72991,-23.46334,4.84814,1.82673,13.97969,2.62851,-1.6108,-30.01973,8.58366,-16.61497,22.23116,3.80194,-14.46437,3.95681,-0.51367,1.99292,1.68762,0.3336,-20.5919,8.41522,0.95269,37.53484,12.50683,21.82001,-21.24287,5.13594,4.50129,4.27535,-2.91001,-0.72343,2.175,-1.90416,-2.83452,2.2393,1.72442,-0.92455,0.2347,-0.25125,-0.10833,0.10572,0.21804,-0.16359
981,11.28412,-23.8001,5.20673,1.34681,14.54453,2.52613,-5.03347,-30.96126,9.34343,-15.95022,25.89492,3.30662,-14.10922,3.80827,-0.39878,1.20191,1.42412,0.28657,-22.36717,10.86993,-1.96338,29.45479,12.84591,16.03987,-17.04287,4.58605,5.15149,4.22351,-3.84725,-1.68058,1.36841,-1.65367,-0.72973,2.26067,2.15309,-1.69277,-0.14178,-0.12017,0.35729,0.13212,0.36444,-0.23674
982,12.27145,-23.46498,4.91245,-0.65721,14.86287,2.54613,-1.50057,-30.79677,7.56799,-18.92398,27.52229,4.72722,-13.77429,3.63674,-0.17398,0.25017,1.29372,0.2303,-20.76403,12.99784,-2.36795,16.80495,4.19518,-6.19687,7.61767,0.24107,1.57301,3.20039,-3.76643,-1.1152,0.27891,-1.52253,3.04727,2.26066,1.56375,-0.87028,-0.33342,-0.0577,0.5954,0.2068,0.19135,-0.07461
983,13.31287,-23.23482,4.42755,-2.73273,15.1793,2.87421,4.66476,-30.23476,4.64253,-24.00776,26.34485,7.37656,-13.52196,3.34788,-0.00929,-0.72184,1.29238,0.21819,-19.36121,11.69159,0.92898,10.83445,-10.46276,-16.52019,25.82992,-1.37064,-1.16044,2.74789,-2.34685,0.68021,-0.10597,-1.62133,5.23532,2.30836,0.49674,0.80727,-0.12385,-0.15946,0.39654,0.27636,-0.14756,0.19077
984,12.70033,-23.64838,4.4692,-2.75234,14.69357,3.1308,4.61544,-30.80592,3.67996,-26.4034,20.7745,7.46869,-13.39978,3.00855,-0.00384,-1.456,1.2353,0.19826,-22.58107,2.30495,2.91443,16.35388,-17.86048,-7.25052,20.92481,-0.43851,-1.35611,3.35737,-0.57978,1.91035,1.04586,-2.14672,3.3025,2.40363,0.13336,1.65606,0.30198,-0.30105,-0.04664,0.26146,-0.30382,0.3215
985,11.09742,-24.54468,5.07429,-0.86662,13.40676,3.01647,-2.49994,-32.5218,5.44042,-23.23112,15.1034,4.9001,-13.3904,2.76973,-0.06807,-1.91076,1.02696,0.12735,-27.42216,-8.10399,0.43438,29.32622,-12.60612,3.51231,4.57528,-0.19902,-0.79006,3.68636,0.19089,1.36229,2.6882,-2.62534,-0.71895,2.36987,0.82236,1.03018,0.54409,-0.31599,-0.31763,0.17217,-0.12109,0.22736
986,10.7189,-25.06328,5.45519,0.41056,12.60561,2.77877,-6.90154,-32.14179,6.87265,-17.42201,15.90528,4.09696,-13.42874,2.70803,-0.04691,-2.29494,0.77659,0.05871,-25.01272,-4.83072,-3.18342,36.71949,-3.45899,2.47543,-4.18768,-0.95968,-0.64347,2.83885,-0.58895,-0.54496,2.9977,-2.36964,-2.62083,2.29283,1.93458,-0.38069,0.4101,-0.19369,-0.21342,0.1603,0.27234,-0.01002
987,11.861,-24.75345,5.24367,-0.51107,13.34992,2.88812,-1.38791,-28.62042,6.05639,-14.22911,22.72334,7.26241,-13.49025,2.77805,0.08484,-2.78657,0.61288,0.09225,-12.33863,12.42341,-1.96322,31.26204,1.77539,-3.30862,-3.35375,-0.85654,-0.34458,1.94097,-2.67362,-2.84196,2.2243,-1.87995,-1.83634,2.33684,2.7422,-2.08616,0.20825,-0.14101,-0.00802,0.24537,0.62667,-0.36528
988,12.75737,-24.3924,5.09689,-2.0984,14.81863,3.26724,7.45633,-26.34661,5.52474,-15.65483,27.85655,10.18786,-13.56642,2.84373,0.22407,-3.19951,0.53209,0.22716,-2.01369,25.12417,3.92198,23.80445,3.72723,-2.52044,-2.05607,0.60733,0.38839,2.48535,-4.66805,-4.25098,1.90236,-1.95306,-1.06522,2.1544,2.74115,-3.62021,0.30266,-0.25926,-0.10512,0.19663,0.68483,-0.74714
989,12.21061,-24.7432,5.54015,-2.33372,14.66312,3.2167,8.4753,-29.33293,7.48688,-19.46337,24.03801,7.45325,-13.6497,2.83144,0.29896,-3.28303,0.46357,0.29842,-7.62816,16.45831,6.44562,28.68207,4.46103,5.49779,-3.54987,1.39312,0.72801,4.51553,-4.12179,-2.43851,2.39335,-2.41487,-1.56211,1.87139,1.83608,-2.8313,0.53135,-0.34679,-0.40646,0.03815,0.32918,-0.60795
990,10.58432,-25.71101,6.20599,-1.82705,12.94491,2.69148,1.32184,-35.59499,9.54454,-21.18633,15.41813,1.89325,-13.7981,2.81415,0.29829,-3.22874,0.47585,0.24248,-21.5752,-3.91246,1.9592,41.16884,2.37276,12.61942,-3.90847,-0.09137,0.25995,6.59623,-0.59571,2.60226,2.81348,-2.67009,-2.00575,2.33002,0.76559,1.15261,0.46717,-0.24148,-0.41765,0.11339,-0.17902,0.28647
991,8.96095,-26.26336,6.40791,-2.00153,11.82061,2.31951,-6.1746,-37.75072,8.63608,-19.11314,12.44444,0.62586,-14.0463,2.90493,0.25259,-3.31079,0.60957,0.14953,-28.57519,-9.80264,-4.00423,42.87479,-3.12624,8.25365,1.08875,-2.65281,-0.55081,6.2279,2.23984,5.86708,2.10776,-2.2051,-0.75882,3.01087,0.37682,4.48613,-0.0275,0.01955,0.05433,0.35595,-0.38574,1.04371
992,8.29366,-26.35446,6.27744,-2.39777,12.27234,2.42188,-7.82056,-34.64457,6.64489,-15.72563,17.44217,4.25206,-14.35453,3.07942,0.17578,-3.43363,0.69868,0.11499,-24.98895,2.53985,-4.30262,27.85063,-7.6865,-8.77411,11.33768,-3.77503,-1.12968,2.71099,1.28231,3.58237,0.44498,-1.27479,2.09481,2.61441,0.71955,3.47901,-0.53871,0.19537,0.62736,0.37455,-0.14863,0.81762
993,8.40424,-27.02931,6.51227,-2.29474,13.36419,2.70443,-3.44732,-33.52737,7.43646,-13.98218,23.25076,7.16844,-14.73964,3.26642,0.05235,-3.43666,0.60184,0.17364,-15.94905,12.325,1.38556,10.08372,-6.63332,-22.92696,18.84967,-2.45411,-1.47763,-0.1722,-1.32642,-1.16099,-0.48917,-0.78369,3.76299,1.74878,1.38313,-0.17694,-0.49388,0.09975,0.65113,0.22278,0.25022,-0.02594
994,8.7156,-27.73439,6.95589,-2.41018,13.25536,2.59434,2.11332,-36.13984,10.19522,-13.92788,23.1324,5.84228,-15.23063,3.56216,-0.04067,-3.36651,0.41271,0.25033,-7.08467,10.74385,5.60226,6.19752,-1.90872,-18.79594,14.69192,-0.02092,-1.72835,0.72937,-2.49161,-3.66368,0.559,-1.2156,1.70598,1.5076,1.81418,-2.94345,0.09578,-0.12091,-0.00878,0.12139,0.46887,-0.73366
995,8.58147,-27.72217,7.15631,-2.96686,11.71281,2.10345,2.02827,-39.73696,11.76759,-13.47046,18.76301,2.86419,-15.81673,4.04762,-0.05398,-3.29101,0.36804,0.27288,-4.63673,5.47276,4.15564,18.3281,0.82532,-1.83063,2.4666,1.88439,-1.21253,3.71871,-2.99696,-3.7297,2.4963,-2.19532,-1.8535,1.83181,1.88947,-4.01373,0.62296,-0.28658,-0.60614,0.05994,0.4484,-1.07794
996,7.77064,-27.30232,7.11419,-2.91478,10.37952,1.82839,-4.67233,-42.60194,11.39758,-11.51021,15.49863,2.08374,-16.49871,4.64755,-0.04038,-3.18595,0.56132,0.27223,-10.30133,1.72419,0.76532,34.09007,1.47882,8.42005,-4.61578,2.19258,0.34398,5.40158,-4.11911,-3.24636,3.23804,-2.92792,-2.5178,2.36331,1.99879,-3.929,0.63807,-0.37321,-0.46726,0.05301,0.3779,-1.05852
997,6.35282,-26.65231,6.97723,-1.93596,9.84473,1.89779,-13.35138,-41.46801,10.04756,-8.6905,13.80257,3.04365,-17.3281,5.2542,-0.0721,-3.01984,0.78842,0.26628,-19.07741,0.73081,-2.04153,40.08893,0.42593,5.03933,-1.23628,0.98816,1.8373,4.63424,-4.26272,-2.1007,2.51345,-3.09165,0.08619,2.77608,2.08528,-2.31538,0.30924,-0.39731,0.14206,0.16113,0.31119,-0.56484
998,4.71846,-26.55159,7.00806,-1.17764,9.34719,1.85719,-18.21582,-36.9467,8.93605,-7.69053,12.45697,3.35296,-18.31342,5.77741,-0.23335,-2.81472,0.77296,0.19808,-25.06047,2.71325,-3.75227,31.57195,-4.52834,-0.22123,4.713,-0.07164,2.15953,3.35338,-2.21435,0.41092,1.59478,-2.83656,2.32153,2.7442,1.7455,0.54618,0.04588,-0.33634,0.48002,0.27547,0.13176,0.26641
999,3.85465,-27.38677,7.18763,-1.52483,8.79996,1.54614,-15.15438,-33.99559,8.6128,-10.94104,12.62321,2.81374,-19.35992,6.26911,-0.52629,-2.62819,0.52547,0.07245,-25.67391,6.17546,-2.71207,16.91741,-6.50705,-0.05175,5.93777,-0.40885,1.17285,4.0032,0.22977,2.81152,1.34079,-2.42001,1.85147,2.42666,1.21064,2.38462,-0.00233,-0.19779,0.29518,0.30502,-0.05686,0.81407
1000,3.89786,-27.95345,7.12325,-2.30552,8.73863,1.35374,-7.48956,-34.38403,8.59189,-15.00591,13.70679,2.7872,-20.41421,6.92127,-0.85387,-2.55274,0.30956,-0.00758,-21.54638,7.61026,-0.04744,12.53029,2.39547,-0.9979,4.84108,-1.12616,-0.46097,5.87253,0.87617,3.21872,1.54182,-2.06619,0.14486,2.18797,0.91668,1.87448,0.08178,-0.09184,-0.0353,0.31367,-0.08585,0.69193
1001,3.51093,-27.37405,6.74765,-2.64641,8.95469,1.50133,-4.0961,-35.65646,8.34261,-13.87622,12.91955,3.67843,-21.49314,7.79407,-1.17172,-2.66088,0.26787,0.01216,-15.3214,6.05849,0.21507,22.89622,12.13772,-5.80978,5.68347,-1.83042,-1.36082,6.37973,-0.45433,2.02475,1.57289,-1.83851,-0.29876,2.19168,0.95611,0.52191,0.16146,-0.09959,-0.11079,0.33099,-0.0148,0.32428
1002,1.88013,-26.71736,6.51923,-2.50126,8.34278,1.58565,-7.58131,-37.06512,8.36015,-8.05582,9.72565,4.1328,-22.55772,8.70048,-1.54564,-2.74468,0.30205,0.05736,-10.04363,4.0706,-2.11636,32.56949,7.31348,-6.47419,6.98011,-0.78594,-0.59488,4.94202,-2.79447,0.82682,1.34426,-1.83467,0.70117,2.45853,1.33172,0.14287,0.15164,-0.17774,0.08735,0.35028,0.0614,0.27548
1003,0.26012,-27.1902,6.61605,-2.34182,6.34142,1.18583,-9.82367,-40.53539,9.09357,-3.77624,5.82933,2.88613,-23.56602,9.47335,-2.01021,-2.52835,0.30109,0.0285,-5.1217,2.29923,-2.31239,26.27032,-8.0544,0.53145,6.50959,1.41018,0.93628,3.50783,-4.56117,0.5557,1.26108,-2.18036,1.6156,2.70548,1.80078,0.66612,0.0958,-0.25336,0.28082,0.3687,0.1366,0.48781
1004,-0.21615,-28.18538,6.68604,-2.47402,4.61143,0.66074,-6.29046,-45.40714,9.95684,-3.09536,4.49507,1.62124,-24.55886,10.15563,-2.495,-2.16571,0.29289,-0.03561,0.91552,1.99612,1.76948,10.16296,-15.41115,7.65653,5.5067,2.51455,1.70722,4.37692,-3.64419,1.22891,1.21495,-2.38056,1.7806,2.93733,2.07587,1.01111,0.05653,-0.24801,0.25018,0.43431,0.22975,0.50543
1005,-0.72497,-28.2217,6.49924,-2.84074,4.48873,0.44624,-5.22284,-47.03589,10.45261,-3.35209,6.53585,1.93037,-25.54585,10.85112,-2.94225,-2.02624,0.24581,-0.08381,1.53791,4.55045,4.66048,0.77447,-6.18899,10.52044,4.59282,2.352,1.76995,8.18824,0.05532,2.29459,1.10113,-2.16095,1.58365,3.11692,1.99656,0.30148,0.08795,-0.18713,0.06559,0.43388,0.28051,0.05542
1006,-2.66185,-27.11971,6.21894,-2.6698,4.85275,0.38683,-12.80101,-43.00496,10.83594,-2.00584,9.14101,2.63269,-26.45304,11.56786,-3.4145,-2.12887,0.05494,-0.16283,-7.09637,8.33176,1.71308,0.23587,6.73073,14.05465,3.51594,2.39486,2.23709,12.84543,3.42545,3.29112,1.45027,-2.36783,1.5432,2.69874,1.36192,-1.11629,0.24281,-0.24779,-0.01701,0.13654,0.1248,-0.58127
1007,-5.23306,-26.18095,6.05813,-1.79457,4.13564,0.14131,-22.7475,-37.36216,11.3185,0.30079,9.63067,1.97893,-27.22652,12.30523,-3.98706,-2.2187,-0.20899,-0.29058,-17.79731,10.99472,-3.96928,2.64917,6.65313,17.01736,4.68891,2.77005,2.86635,14.58498,2.84624,3.33032,2.12705,-3.24957,2.07045,2.14827,0.68374,-2.05332,0.38232,-0.41503,0.11247,-0.18396,-0.13583,-0.83296
1008,-7.19948,-26.49167,6.05773,-1.49658,2.43074,-0.28083,-27.78057,-36.29748,11.62761,0.96579,7.05795,-0.12684,-27.95467,13.11587,-4.64603,-2.17477,-0.32897,-0.38035,-23.90236,10.72204,-7.40425,11.0112,-3.86556,9.60544,9.69564,2.23159,2.36082,11.1861,-2.2083,0.98019,2.28156,-3.81059,3.00836,2.30736,0.8545,-2.44277,0.30687,-0.47043,0.33281,-0.08081,-0.12489,-0.59351
1009,-8.5429,-27.3834,5.90056,-2.96702,0.78409,-0.6154,-27.08706,-39.31138,10.79885,-1.96878,2.68557,-1.8768,-28.83248,13.97852,-5.34514,-2.14396,-0.26947,-0.379,-25.06974,9.56122,-7.24859,26.36389,-11.49896,-4.55383,14.20182,1.13944,1.307,4.71016,-7.44824,-2.35251,1.8119,-3.61659,3.7591,2.41156,1.44553,-2.3386,0.0765,-0.38387,0.52981,0.20203,0.09404,-0.15983
1010,-9.63772,-27.43778,5.23221,-5.35833,-0.58253,-0.75748,-23.84209,-40.51952,8.42908,-6.5868,-1.37525,-1.85879,-29.94871,14.75388,-6.06133,-2.27662,-0.2334,-0.35704,-22.93449,11.38898,-5.81572,39.73836,-11.05344,-9.19042,12.9602,1.8292,2.02767,0.43234,-8.44449,-3.33986,1.50097,-3.48045,4.10061,1.9705,1.69477,-1.42696,-0.03108,-0.37236,0.60874,0.25542,0.21075,0.21521
1011,-10.90491,-26.3868,4.24163,-6.01679,-1.68239,-0.69537,-23.08224,-38.04946,5.82584,-6.62735,-4.22075,-0.97925,-31.20561,15.41087,-6.77086,-2.45232,-0.32134,-0.35449,-19.29141,13.81638,-6.87855,43.77713,-3.69682,-2.39259,8.50156,4.07037,4.44968,1.23661,-5.95007,-1.73159,2.00694,-4.24724,4.18263,2.13555,1.93487,-0.2939,0.17883,-0.5965,0.47355,0.24358,0.23839,0.35629
1012,-12.59997,-24.80417,3.34407,-4.16372,-1.99761,-0.46314,-25.69203,-34.63002,4.18914,-0.69519,-6.37835,-1.15973,-32.4438,16.14655,-7.42593,-2.51365,-0.44239,-0.33857,-15.73838,11.06598,-11.50463,37.63953,7.41341,2.1083,7.45971,3.95427,5.21178,4.98415,-3.46862,-0.0862,3.05424,-5.40296,3.88954,3.21391,2.40275,-0.07559,0.53185,-0.8696,0.2295,0.37262,0.29844,0.16934
1013,-14.94964,-23.48745,2.87993,-2.22136,-0.88889,-0.18446,-28.90175,-33.47626,4.04389,5.79453,-5.83784,-1.50069,-33.58569,17.11491,-8.03472,-2.54333,-0.51983,-0.28788,-13.11365,6.53008,-14.69102,28.09818,13.39774,0.46937,9.66734,1.00227,2.8699,8.77417,-2.54676,0.3143,3.58412,-5.32366,2.93328,4.05517,2.69166,-1.09674,0.57926,-0.77931,0.15978,0.48906,0.36405,-0.24057
1014,-17.97053,-22.77776,2.90007,-2.61678,0.78239,-0.12069,-32.7524,-34.66796,5.4655,8.76253,-0.88719,0.07623,-34.71294,18.27558,-8.66411,-2.69032,-0.60898,-0.25802,-13.52687,9.66475,-12.53314,27.37786,5.80234,2.14576,9.87405,0.1277,0.03,11.17198,-2.72154,0.49962,3.17824,-3.60119,1.3113,4.11754,2.66542,-1.96564,0.24035,-0.23416,0.26591,0.47786,0.36337,-0.45512
1015,-20.95741,-21.93932,2.89644,-4.89901,1.18446,-0.38099,-38.427,-34.40424,6.98639,7.93628,4.73883,2.69313,-36.11312,19.60199,-9.3503,-2.90438,-0.73068,-0.30075,-19.62715,21.39567,-9.20135,37.3944,-10.74466,11.67671,6.85569,4.11614,0.15412,11.31745,-4.01319,0.8709,3.22934,-2.71492,-0.15452,4.04157,2.701,-1.49365,0.09504,0.08471,0.28234,0.442,0.32255,-0.2156
1016,-23.18739,-20.15756,2.31545,-7.06405,-0.4385,-0.76387,-43.41232,-30.88013,6.87078,3.77925,4.68793,3.18527,-38.09174,21.16487,-10.09216,-3.03594,-0.81341,-0.38702,-29.45441,31.34869,-10.05716,43.31603,-21.64717,22.20827,3.15257,9.67909,3.79024,9.95601,-6.49449,0.48713,4.28931,-4.11672,-0.25471,4.24623,2.90194,-0.67457,0.3728,-0.28895,0.19139,0.43106,0.28154,0.09878
1017,-24.86978,-17.75891,1.27339,-8.62063,-3.06663,-1.0523,-43.8544,-27.87353,5.51697,-4.04266,-2.87,-0.16895,-40.62015,22.97598,-10.87801,-3.10483,-0.85642,-0.44686,-37.91596,29.17065,-13.81677,37.05028,-22.65509,24.16063,1.63121,11.48299,7.48429,9.24809,-8.32638,-0.40505,4.27864,-5.39055,1.52458,4.55549,3.06264,-0.68953,0.47363,-0.72406,0.23897,0.41263,0.25435,0.05295
1018,-26.96181,-15.37361,0.26182,-9.93234,-4.74544,-1.18007,-40.31684,-27.09203,4.13333,-13.14093,-12.29322,-5.35781,-43.36847,24.95938,-11.67774,-3.26139,-0.94047,-0.45612,-41.98625,18.13091,-17.15505,31.56792,-25.78416,17.75433,4.65,8.01269,7.68646,9.33289,-6.99882,-0.10716,2.61417,-5.06557,4.33101,4.39388,2.86464,-0.78326,0.1501,-0.76422,0.49024,0.35674,0.21655,-0.17336
1019,-30.2898,-12.792,-0.49597,-10.13405,-4.46277,-1.16802,-37.67702,-24.27594,2.85676,-16.93672,-15.34804,-8.04364,-46.11663,27.06156,-12.43503,-3.51441,-1.07846,-0.46294,-41.09563,14.04753,-19.1299,35.89596,-36.10051,13.79885,9.50215,3.27341,4.31789,9.66887,-3.00245,1.52357,1.60717,-4.29695,5.14725,3.63851,2.33373,-0.62857,-0.03305,-0.6244,0.53905,0.32142,0.19051,-0.27807
1020,-34.86796,-9.47075,-1.1075,-8.56904,-2.96853,-1.03803,-39.00491,-18.53726,1.65629,-11.99065,-10.27588,-6.13264,-49.00077,29.34472,-13.08846,-3.66013,-1.13911,-0.48805,-35.47551,23.37451,-18.68799,40.0912,-40.31227,20.8376,9.8368,2.82341,1.76302,11.60578,-0.58165,2.26756,2.31666,-3.92254,3.04067,2.81435,1.95097,-1.97559,0.18537,-0.5299,0.26962,0.32703,0.22778,-0.40143
1021,-39.56608,-5.35898,-1.79291,-6.69537,-2.14811,-0.92226,-42.57689,-14.81335,0.89206,-4.22704,-5.07921,-2.88648,-52.23405,31.90357,-13.58914,-3.58196,-1.06453,-0.55746,-28.23155,32.76159,-16.29732,39.52151,-29.3479,31.27339,5.41803,6.88584,3.26552,15.04895,-3.09979,0.54983,3.50272,-3.9497,0.88593,2.68014,2.27628,-5.01705,0.45119,-0.52964,0.08283,0.33103,0.32734,-0.63828
1022,-42.65673,-0.67497,-2.72906,-6.38239,-2.7728,-1.02245,-45.38103,-13.13288,0.36151,-2.46931,-6.22413,-2.62422,-55.70979,34.6697,-13.90626,-3.46995,-0.995,-0.74151,-26.03284,33.31205,-16.26671,44.68562,-15.05507,30.49111,2.31318,10.60065,5.80663,16.20989,-7.83729,-1.75896,4.25286,-4.169,0.23072,3.436,3.16659,-6.07333,0.5424,-0.54161,0.08428,0.34936,0.39836,-0.56685
1023,-43.67257,3.88903,-3.73101,-7.86253,-3.32503,-1.39037,-46.65686,-9.21034,-0.16352,-9.90639,-9.6028,-5.2571,-59.10464,37.40266,-14.10052,-3.5397,-1.01626,-1.01509,-35.35547,31.33916,-20.52502,57.44124,-11.14341,17.87185,2.88446,11.18828,5.85235,12.22215,-9.05668,-1.54363,4.54038,-4.09106,0.10617,4.43048,3.7279,-2.31259,0.51826,-0.43353,0.06315,0.47511,0.34347,0.1371
1024,-44.58709,7.3335,-4.29588,-9.90576,-2.51276,-1.863,-48.26991,-3.1596,-0.33144,-23.98945,-8.46598,-7.61873,-62.18102,39.80537,-14.30659,-3.70543,-1.03241,-1.25974,-57.80433,31.64835,-24.36288,66.05534,-14.86995,5.7739,2.83105,10.13999,5.2009,5.19861,-6.4795,-0.10772,4.30119,-3.43829,-0.10405,4.965,3.58977,3.11998,0.46894,-0.2411,-0.03307,0.69711,0.2516,0.9261
1025,-46.68821,10.25164,-4.58347,-10.44384,-0.68458,-2.12446,-48.6041,4.51589,-1.18921,-38.16404,-2.04053,-7.21269,-64.77256,41.6613,-14.48009,-3.68005,-0.88651,-1.39667,-80.228,37.28363,-22.89422,66.91889,-18.59642,2.09557,-0.6989,8.70183,6.21997,-1.15677,-4.95674,-1.84105,3.60404,-2.53485,-0.40559,4.46531,3.01166,4.83223,0.44455,-0.12958,-0.12911,0.71484,0.2388,0.93398
1026,-47.7764,14.5235,-5.5085,-8.39166,1.61989,-2.03005,-41.25506,15.87933,-4.47243,-46.70055,5.88441,-4.35386,-66.69001,42.9794,-14.35451,-3.32516,-0.51684,-1.42547,-83.23058,52.474,-17.64351,70.21996,-20.8404,2.48741,-3.90248,5.83917,6.2974,-4.49468,-6.79625,-6.91612,2.79859,-1.72306,-1.08636,3.04449,2.29976,1.99822,0.41341,-0.11081,-0.21276,0.35246,0.23948,0.11747
1027,-45.59912,19.64762,-6.99352,-5.50718,4.29605,-1.89716,-26.51038,25.23731,-7.73496,-51.53234,12.07085,-2.0455,-67.78427,43.88832,-13.80753,-2.79657,-0.03467,-1.40478,-69.54716,67.14398,-12.56029,81.81239,-20.00252,0.4649,-2.29108,1.92586,2.77188,-3.70052,-9.36744,-10.56739,2.28647,-1.27663,-1.84385,1.66248,1.68444,-2.00473,0.34799,-0.11787,-0.26674,-0.08714,0.1946,-0.7962
1028,-41.06696,22.24494,-7.57343,-4.04418,6.14023,-2.08777,-11.33996,20.1334,-6.01807,-59.11938,13.31663,-3.93838,-67.96156,44.32268,-13.04331,-2.25016,0.38029,-1.44666,-58.44011,57.28174,-8.33915,91.14274,-14.17475,-1.69244,1.80452,0.00255,-0.97316,-0.21196,-9.62843,-9.53212,2.28355,-1.40475,-1.81821,0.89547,1.17392,-4.14608,0.27842,-0.14005,-0.2331,-0.26567,0.13625,-1.17855
1029,-36.0759,20.55945,-6.55372,-3.55483,6.06295,-2.44705,3.30533,0.13528,-0.13428,-72.17448,9.1173,-9.63068,-67.07925,43.93444,-12.30605,-1.57451,0.70865,-1.61251,-56.1604,20.14779,-2.89478,83.85742,-11.30672,2.22008,2.81894,1.22385,-0.63958,2.89998,-7.32388,-5.26825,2.47508,-1.6657,-1.20317,0.90686,0.93621,-3.50229,0.18451,-0.12541,-0.12473,-0.1674,0.08729,-0.90186
1030,-30.67552,17.33834,-5.26823,-2.01108,5.84508,-2.62791,20.5299,-18.09126,3.46586,-86.30737,6.75158,-13.25061,-64.78493,42.41113,-11.51881,-0.67862,1.07651,-1.82839,-54.6879,-12.47038,5.17087,63.38145,-22.71582,12.44586,0.11447,3.04589,2.18073,4.36639,-3.75772,-0.85528,2.34563,-1.38918,-1.12722,1.93073,1.45224,-0.75367,0.05471,-0.04367,-0.02762,0.08238,0.0761,-0.22308
1031,-24.0041,16.21501,-5.19005,1.44507,7.7478,-2.66803,36.37963,-21.15194,2.35273,-94.3616,12.29125,-11.2988,-60.65332,39.82983,-10.38611,0.19717,1.46269,-2.02294,-51.08252,-17.5354,13.76975,49.27689,-34.84185,19.17845,-2.52809,2.93079,2.91617,4.67713,-0.65279,1.42638,2.08876,-0.6581,-2.40228,3.53883,2.62976,2.07669,0.0117,0.04086,-0.08313,0.39436,0.16686,0.39247
1032,-16.60651,16.23122,-5.57401,6.66535,11.78162,-2.83083,44.43576,-14.09846,0.74258,-94.21037,23.46034,-6.81467,-54.71194,36.41946,-8.88963,0.85372,1.70994,-2.201,-48.97638,-7.63016,20.04557,54.70991,-19.03576,10.29888,-2.51264,1.16312,0.24537,3.51257,-0.00546,0.12487,2.33332,-0.05471,-4.68436,4.39914,3.37165,3.06453,0.14462,0.0836,-0.35353,0.62584,0.31865,0.57099
1033,-8.88602,13.9831,-4.92864,12.94861,16.32734,-3.18357,49.09606,-7.60277,1.03939,-92.09463,35.55323,-3.63461,-47.50477,32.17299,-7.27805,1.4754,1.83455,-2.37608,-47.17228,-0.9162,23.83651,74.23443,17.60454,-11.3514,-1.00947,-0.85861,-2.96012,0.55735,-2.28882,-4.10188,2.69465,0.29355,-6.25067,3.7215,2.88746,2.26414,0.29771,0.10943,-0.59579,0.61431,0.36753,0.35437
1034,-0.66966,10.58914,-4.30501,18.8754,19.14309,-3.47876,57.25255,-2.5317,0.16713,-94.81323,44.63945,-2.66471,-39.57116,27.22333,-5.65285,2.313,2.0946,-2.54521,-45.46363,0.64951,24.62975,90.55909,36.45439,-27.96521,-0.78795,-2.80549,-3.40675,-2.5295,-5.37784,-7.96951,2.1803,0.62139,-5.67457,2.17538,1.72618,1.17447,0.30759,0.1065,-0.5065,0.38933,0.26612,0.09437
1035,5.87891,9.90042,-5.70508,23.39898,19.8806,-3.49326,65.23985,2.24769,-3.55315,-100.82404,49.58585,-2.83332,-31.20578,22.08242,-4.05914,3.32229,2.70986,-2.6198,-48.78038,-0.60246,22.1165,88.56274,24.63374,-27.6686,-2.16375,-4.35063,-1.11055,-3.49218,-6.46661,-8.3568,1.07637,0.81677,-3.71141,1.03966,0.94301,0.82404,0.26525,0.03495,-0.21788,0.18739,0.16251,0.01864
1036,7.51996,12.34826,-8.55854,27.0429,20.74006,-3.34259,67.91457,4.0154,-7.01314,-102.70408,52.15328,-3.0353,-22.79212,17.25287,-2.67238,4.25789,3.52298,-2.49797,-52.23421,-3.68496,18.95375,68.74207,3.51462,-15.55091,-2.79975,-4.68885,0.47891,-2.60714,-4.70814,-5.41892,0.37567,0.73599,-2.36208,0.5593,0.60939,1.10922,0.25083,-0.01058,-0.15178,0.11003,0.10936,0.07549
1037,4.58431,15.35214,-10.99448,31.01312,23.40423,-3.24976,68.1293,5.93892,-7.47586,-95.57234,52.95855,-2.97934,-15.09987,12.99055,-1.64601,4.96415,4.14976,-2.22615,-42.0213,-2.07733,17.2464,46.6298,-10.23375,-4.26455,-1.43343,-3.87748,-1.44798,-1.96936,-1.91265,-2.2686,-0.12476,0.78182,-2.41171,0.05302,0.13119,1.30776,0.10838,0.12631,-0.40307,0.03285,0.01442,0.1416
1038,1.16961,16.89241,-12.71179,35.38501,26.7981,-3.20502,72.83627,17.06964,-5.48082,-82.95411,50.61746,-2.9285,-8.90375,9.30655,-0.97863,5.56575,4.46679,-1.99002,-16.33191,9.8967,16.63278,35.73577,-12.64921,-1.93228,0.86377,-2.44196,-5.00794,-2.23465,-0.51795,-1.74337,-0.57366,0.90589,-2.83632,-0.5896,-0.42958,0.63321,-0.11767,0.29042,-0.61004,-0.09318,-0.09066,0.11756
1039,0.73359,15.89537,-13.92174,39.83886,28.81285,-3.09197,83.22485,35.52666,-1.70463,-74.35414,47.07631,-2.9046,-4.4724,6.07839,-0.58263,6.27653,4.69027,-1.95183,6.41204,26.03716,17.94001,35.64694,2.80909,-8.79215,2.16703,-1.13009,-6.05528,-2.78528,-0.86864,-3.77866,-0.15847,0.58568,-2.85392,-0.99694,-0.68548,-0.84488,-0.10546,0.19772,-0.5175,-0.18818,-0.10038,-0.06409
1040,1.83867,12.0743,-13.21329,43.72834,30.25994,-3.17124,86.37719,46.37918,3.25365,-79.49828,50.76382,-2.39374,-1.77863,3.28233,-0.37651,6.96771,5.07879,-2.00945,-3.88236,40.10281,22.29174,41.92897,31.17068,-16.75664,1.42806,-1.08179,-3.8304,-2.82138,-0.95778,-5.03485,0.85051,0.11238,-2.75881,-0.94898,-0.58747,-1.70073,0.11352,-0.04709,-0.26017,-0.17771,-0.04014,-0.30761
1041,2.07207,4.22764,-7.81056,45.74772,32.61082,-3.66801,79.70667,30.90291,8.40751,-99.24409,59.68557,-3.52766,2.7864,-1.70963,0.30255,7.54676,5.66695,-1.93708,-45.25818,31.17673,28.12839,50.98075,48.87796,-16.38459,-0.16301,-1.99907,-1.69807,-1.38272,0.80107,-2.05014,1.28036,0.21665,-3.11926,-0.38286,-0.21453,-0.79518,0.21974,-0.10051,-0.14612,-0.07146,-0.00619,-0.4094
1042,3.19971,0.64823,-4.09076,46.12383,33.78074,-4.00132,65.17304,8.89764,6.77526,-114.74642,55.28451,-9.88717,2.37138,-1.59861,0.19892,8.22606,6.1833,-1.7753,-83.9953,-0.9791,19.72376,50.99775,45.55761,-10.43706,0.08374,-2.11858,-2.76013,1.20518,3.32748,3.90968,1.11868,0.70664,-3.7553,0.43906,0.29569,1.1345,0.14624,0.07525,-0.25935,0.04081,-0.02104,-0.25556
1043,3.5179,-0.16123,-2.43547,46.72778,32.84014,-3.74673,62.46654,-10.30798,3.65225,-102.88084,35.50695,-18.18398,2.45174,-1.12512,0.27459,8.64431,6.3508,-1.66759,-67.49359,-55.3152,3.18026,31.9874,36.11237,-9.45153,3.07663,-1.20837,-6.24872,3.08501,4.50693,8.12164,1.25511,0.72596,-3.77421,0.8972,0.61676,2.3694,0.1008,0.18736,-0.38054,0.08359,-0.03425,0.08611
1044,1.98316,0.3357,-1.58663,49.86424,32.83201,-3.25998,64.04459,-16.39961,3.70641,-63.15548,24.987,-19.21378,2.63202,-0.77105,0.47485,8.2864,6.2897,-1.56351,-8.97107,-80.81574,-8.29378,8.1921,33.89122,-13.94385,6.15189,-0.4839,-8.40659,3.11177,4.22162,8.60883,1.89746,0.12795,-2.93217,0.5044,0.47757,2.07276,0.21483,0.09879,-0.37548,0.03487,-0.01536,0.35173
1045,-0.02919,0.68522,-0.73462,55.15224,35.35881,-2.93706,58.51098,-13.41198,5.11728,-23.46064,37.55349,-11.01978,2.75574,-0.68018,0.59343,7.58079,6.39286,-1.34517,35.18299,-58.68638,-9.51496,8.76895,33.10923,-14.36281,6.29842,0.49092,-6.66209,1.66955,3.77829,6.92132,2.52708,-0.50308,-1.82583,-0.43284,0.12622,1.22941,0.39611,-0.03153,-0.32523,-0.04011,0.03265,0.36661
1046,-0.34132,1.53105,-2.10061,58.38222,36.97717,-2.76043,52.57431,-6.18199,4.76165,-14.83052,53.8594,-3.44704,2.92337,-0.55032,0.47578,7.15127,6.69085,-1.12122,30.85202,-28.41021,-6.84215,34.03677,25.23084,-5.58233,4.07567,2.82643,-2.43519,-0.05336,3.54083,5.32825,2.86101,-0.8819,-0.74339,-1.23955,-0.05464,1.22009,0.52802,-0.10853,-0.24234,-0.09718,0.05314,0.25828
1047,1.46048,3.43508,-6.55005,57.06057,34.97829,-2.5938,61.79532,3.6372,5.8952,-39.13224,52.86118,-4.58054,3.12457,-0.2401,0.25402,6.94568,6.852,-1.06842,0.5115,-25.71776,-1.7696,45.50095,21.37894,5.7739,2.31153,5.15233,0.65039,-0.52464,3.11073,5.56878,2.90649,-1.11196,0.29958,-1.56354,-0.11767,1.72041,0.55782,-0.19606,-0.03792,-0.18022,-0.02,0.18329
1048,4.33824,5.88896,-12.04032,54.00229,32.34026,-2.5934,82.83157,13.79143,10.99399,-69.12659,42.73663,-10.20617,3.32612,0.15041,0.13212,6.61322,6.80457,-1.08739,-17.31366,-35.52773,7.71229,22.58369,34.26569,8.45082,1.91172,5.37052,1.0928,0.51299,2.65265,6.77601,2.53457,-1.15805,0.87128,-1.24073,-0.19556,1.6977,0.40105,-0.27042,0.2096,-0.24067,-0.13394,0.16163
1049,6.57642,7.20461,-14.24135,52.86169,31.51474,-2.70251,96.63047,16.54181,14.51431,-78.41428,39.91338,-11.91488,3.5276,0.36185,0.15895,5.89919,6.67254,-1.0429,-10.29149,-36.87278,14.24939,-3.93387,47.26787,0.21423,1.37598,4.13385,0.55818,1.40249,2.15808,5.41854,1.50281,-0.9218,0.85969,-0.32247,-0.18223,0.99781,-0.01729,-0.20588,0.31675,-0.1707,-0.16657,0.12737
1050,7.16094,5.84165,-10.76902,54.16302,30.5124,-2.3486,91.34146,9.79817,12.28882,-63.0085,42.93371,-8.60702,3.65562,0.17287,0.26636,4.7853,6.47767,-0.95883,9.45562,-31.59816,9.7447,-0.35537,37.40079,-9.60866,-0.1755,3.44128,0.44769,0.96649,0.94836,0.48941,-0.29141,-0.42137,0.85448,0.57211,-0.11456,-0.26204,-0.6404,0.02892,0.26751,-0.02077,-0.09736,-0.04775
1051,6.61704,3.38519,-5.92521,57.1409,28.11745,-1.27385,63.37076,7.09392,12.58784,-35.26171,42.83611,-4.61809,3.543,-0.15029,0.36386,3.40645,6.25715,-0.80282,18.0504,-16.3273,1.34268,24.44244,12.43621,-10.37692,-1.52355,3.9891,0.38735,-0.37472,-0.50781,-4.07975,-1.80123,0.02815,0.98293,0.58493,-0.23059,-1.49971,-1.07802,0.2669,0.13067,0.06746,-0.02097,-0.31073
1052,4.91915,2.67271,-4.12221,60.56887,25.92112,0.04627,20.7639,12.8586,21.49559,-8.27788,38.44121,-1.87375,3.06678,-0.21151,0.4278,1.79448,6.02772,-0.50935,4.9767,6.91402,-0.65127,40.22796,-4.49859,0.0841,-1.06513,5.56234,0.1687,-1.3385,-1.18494,-4.54104,-1.17443,-0.14941,0.88457,-0.0959,-0.38839,-1.60386,-0.81166,0.26507,-0.0503,0.08484,0.00562,-0.38217
1053,1.67975,3.6901,-4.37222,62.36516,23.88734,1.22847,-9.07671,13.37235,27.38375,10.14729,30.69984,-0.01841,2.48474,-0.06605,0.45507,0.05108,5.6072,-0.23484,-8.83225,13.472,-1.78799,35.43378,-4.07954,12.62484,1.35825,7.45135,-0.24833,-0.85222,-1.0341,-1.22299,1.62497,-0.96909,0.59107,-0.43666,-0.19396,-0.39146,0.0473,-0.00253,-0.16653,0.08043,0.02577,-0.13905
1054,-2.19445,5.71596,-5.35674,61.94678,19.23482,2.63193,-7.21318,6.4302,22.24055,17.28596,16.61349,-0.14653,2.26237,0.1116,0.42876,-1.7339,4.74863,-0.26505,-2.75316,-7.65423,-9.55721,20.14844,5.17243,15.64654,4.04065,7.95985,-1.47683,0.67683,0.11473,3.55218,3.81475,-1.44167,0.39912,-0.26362,0.36355,1.32113,0.67781,-0.23764,-0.09461,0.02835,0.07011,0.23235
1055,-5.52059,8.88003,-6.64255,61.62682,14.89758,3.73682,14.41438,3.90337,17.92685,19.11499,7.79162,-1.06535,2.56617,0.26336,0.41189,-3.85646,3.75971,-0.37001,21.56788,-24.35664,-13.50464,8.0301,8.54974,7.52891,4.95051,6.42966,-2.88351,1.67994,1.49719,6.27719,3.54114,-1.00506,0.35569,-0.19279,0.71573,2.00973,0.61864,-0.20084,0.08554,-0.09036,0.08098,0.35363
1056,-9.83079,12.18545,-6.87476,63.60989,15.47219,3.69958,30.19954,8.90635,21.79343,25.40232,17.10897,0.53883,2.95542,0.3598,0.45865,-6.47949,3.14707,-0.13889,49.58787,-10.87848,-5.9732,9.9999,5.86881,-3.34405,3.63107,4.96128,-1.97839,1.22002,0.53042,3.56503,2.50258,-0.56121,0.47875,-0.38924,0.21477,0.29073,0.29783,-0.06759,0.16853,-0.20073,-0.00094,0.02405
1057,-15.41355,13.62793,-5.66488,66.80839,17.68602,3.49788,28.29213,13.71666,19.91194,34.33512,30.79183,3.86233,2.92834,0.41875,0.50594,-9.29524,2.88559,0.30855,62.05517,9.71621,-3.62857,26.4832,9.45601,-5.88854,0.64909,5.50252,2.61089,-0.02815,-3.3051,-2.61257,2.52041,-0.87293,0.86059,-0.65194,-1.05833,-2.89428,0.19463,-0.08763,0.13577,-0.21698,-0.15311,-0.44751
1058,-16.42081,14.06081,-4.66309,69.46046,16.55583,4.53778,13.85411,14.54854,6.12313,37.91165,28.92098,4.98994,2.69313,0.52195,0.56553,-12.02153,2.68237,0.6704,49.32998,10.49842,-16.18886,39.67231,13.0237,5.55142,-2.66331,6.90082,8.44548,-0.27687,-6.97029,-6.15219,3.15019,-1.50815,1.29925,-0.38946,-1.96124,-4.59493,0.28604,-0.24642,0.13302,-0.05907,-0.24673,-0.61335
1059,-13.83493,15.45178,-3.97413,70.66001,11.86187,6.69132,-7.65876,11.93977,-3.5895,34.67901,11.97153,2.5782,2.42264,0.61576,0.73412,-14.66161,2.30118,0.84233,14.79578,-5.76935,-29.08592,35.98096,-0.44243,20.08846,-3.73949,6.72212,10.38898,1.15174,-8.00774,-5.32326,3.34938,-1.81024,1.38683,1.06306,-1.36123,-3.35269,0.37271,-0.40218,0.20564,0.26857,-0.1431,-0.45747
1060,-14.48323,14.66699,-2.22145,70.87527,8.97597,7.94791,-24.61271,5.87097,-0.4599,31.02653,3.50912,0.50461,2.19807,0.4635,0.99361,-17.35543,1.83556,1.03327,-16.56198,-15.22956,-29.30903,24.84211,-18.23324,18.53309,-1.24407,4.92235,5.71127,1.91136,-5.94159,-3.54564,2.87304,-1.5445,0.81391,2.53515,0.39125,-0.3997,0.35375,-0.40254,0.20681,0.50953,0.10482,-0.22153
1061,-19.23536,10.57382,-0.10249,72.10343,12.01649,6.94967,-30.9972,2.99843,3.84346,35.97505,19.32457,3.44394,1.95944,0.2075,1.39281,-20.27183,1.53268,1.45543,-20.77621,3.2788,-20.15296,20.92793,-13.29863,3.55843,2.25807,3.90946,-1.14254,1.19678,-2.74858,-2.64766,2.32804,-0.96711,-0.11085,2.57906,1.59393,1.35905,0.27447,-0.22752,0.0532,0.43888,0.24959,-0.14903
1062,-25.56977,9.12303,1.40822,73.65329,14.72129,6.27234,-41.2699,10.42058,1.05149,48.98227,34.7118,9.77192,1.22127,0.21519,1.95733,-23.36021,1.16582,1.80705,-11.13199,31.66032,-8.09581,25.20113,7.38587,-2.67842,3.22247,4.95182,-3.20281,1.86439,-2.23508,-1.3761,2.40645,-0.65975,-0.52444,2.14942,1.29347,0.61472,0.25186,-0.06955,-0.09385,0.21053,0.19454,-0.20986
1063,-28.97096,9.61663,2.324,72.7967,10.78226,8.48278,-63.86216,20.37022,-8.11827,56.81849,23.29344,13.42032,0.07045,0.28931,2.06479,-26.36078,0.50986,1.83865,-18.99025,35.51082,-1.37691,31.49242,9.61954,3.89447,1.62252,6.35244,0.00303,3.08736,-4.72853,-0.35856,2.82741,-0.85428,-0.01103,1.98008,0.52205,-0.18617,0.27319,-0.08925,-0.04905,0.07371,0.11604,-0.01409
1064,-29.38841,5.33797,0.53901,71.46919,6.36043,11.02571,-89.86992,21.34185,-22.3915,56.68823,4.81673,12.85001,-0.95224,0.19231,1.03131,-29.10876,-0.06665,1.94074,-47.77305,25.31199,-8.69725,38.9299,-21.90587,6.59,-0.00552,5.80968,3.71755,1.47111,-7.40639,-2.124,2.90624,-1.20381,0.91572,1.69612,0.50545,0.86665,0.26924,-0.23254,0.14993,0.08608,0.14222,0.46325
1065,-29.79462,-0.42941,-3.41209,72.9522,6.73332,11.46231,-103.45877,13.20692,-29.25953,58.41489,2.90453,11.64296,-1.37288,0.2467,-0.40462,-31.56857,-0.51136,2.2483,-67.73745,24.45843,-15.19904,47.84135,-63.2525,0.44445,-0.30513,3.67819,5.45528,-1.31389,-8.23611,-5.01642,2.89158,-1.40404,1.51057,1.59237,1.05585,2.39554,0.3244,-0.35979,0.29461,0.17706,0.21113,0.76331
1066,-28.25744,-1.0602,-4.74358,76.00194,8.17381,11.22776,-95.75362,3.22133,-19.66261,64.17503,9.49399,11.73803,-1.04777,0.63128,-1.03173,-33.67877,-1.20692,2.38216,-57.36272,26.14966,-3.16811,53.92452,-74.77093,-4.10146,0.17161,2.11015,5.85804,-0.49327,-7.50938,-4.61673,3.27405,-1.45675,1.45518,2.50145,1.36463,2.67007,0.48017,-0.39387,0.24586,0.34886,0.23355,0.66598
1067,-21.26726,0.22422,-3.56358,79.14489,8.2791,11.57173,-78.81347,-1.21089,-11.02355,71.81376,11.90304,11.87129,-0.62124,0.98046,-0.97421,-35.34098,-2.02977,2.28315,-27.29962,20.7394,11.11998,54.40869,-45.27106,-1.64073,0.52919,1.79495,5.44858,3.73985,-6.57329,-1.14689,3.64201,-1.34917,0.82637,4.1723,1.14594,1.96656,0.56448,-0.33069,0.07526,0.60839,0.19464,0.41166
1068,-13.4308,-1.82844,-4.54644,82.5505,8.52648,12.15127,-81.7571,0.33774,-20.47342,81.54458,9.94894,12.00628,-1.16929,0.83197,-0.94299,-36.60544,-2.59637,2.21131,-11.70892,13.39591,8.32058,53.00991,-9.5089,5.12866,0.36009,1.95498,4.55664,6.08563,-5.94868,0.73956,3.4149,-0.99477,0.00798,4.93573,0.63121,1.30332,0.46458,-0.19748,-0.06934,0.73384,0.10957,0.24551
1069,-14.56235,-4.95632,-7.48539,85.49019,9.57858,12.64224,-116.80887,-1.12202,-32.47665,92.42844,10.20408,14.33153,-2.72296,0.16714,-1.02943,-37.6823,-2.94871,2.25914,-30.44727,11.57717,6.66344,54.85282,-6.64787,12.21674,-0.33783,2.25809,4.27376,3.7084,-5.45085,-1.29224,2.83428,-0.52458,-0.38933,3.90313,0.20878,0.97284,0.34607,-0.05513,-0.13501,0.52638,0.01634,0.14913
1070,-26.09257,-5.68466,-9.07046,87.42818,10.80931,13.03252,-159.24048,-12.24311,-24.59799,104.0972,17.36843,18.76605,-4.01362,-0.39917,-1.29184,-38.74002,-3.37431,2.33558,-60.07341,15.22151,27.87842,60.64019,-33.54871,14.80605,-1.25365,2.91191,5.09362,-0.8473,-5.08343,-4.8566,2.50797,-0.29161,-0.13999,2.2252,0.2904,1.00772,0.38216,0.00738,-0.14676,0.20295,0.00288,0.08705
1071,-40.14342,-4.86081,-9.51904,89.69284,11.96971,13.37783,-177.54338,-25.59975,-4.51952,117.1701,28.83502,21.98166,-4.13671,-0.26632,-1.76423,-39.70315,-3.93928,2.38219,-66.15505,21.50046,54.46346,67.56654,-58.78108,9.84858,-1.73172,3.5461,5.52059,-3.16768,-5.58997,-6.21221,2.50296,-0.38242,0.09312,1.69664,0.90373,1.54832,0.46573,-0.04495,-0.12643,0.16038,0.11758,0.13996
1072,-51.85423,-5.4391,-12.70215,94.33978,13.33982,13.98637,-169.01147,-25.03197,-5.59391,128.07628,37.45695,22.03782,-3.47084,0.33392,-1.95586,-40.23423,-4.52019,2.40133,-51.83465,32.88037,44.15135,72.48257,-61.73904,-1.27395,-1.03618,3.51025,3.62449,-1.56281,-8.16665,-4.88007,2.49053,-0.45952,-0.38661,2.85834,1.25072,1.99641,0.42207,-0.14616,-0.0706,0.44688,0.2355,0.2363
1073,-62.42212,-8.36727,-21.58824,101.40411,14.72485,15.47783,-152.20471,-4.94575,-47.46646,131.35654,36.6025,20.64278,-3.01723,0.81147,-1.73675,-40.19156,-5.17213,2.37198,-44.54778,47.16455,-22.84841,69.70632,-45.12469,-15.37397,0.62914,3.01492,0.20707,0.31749,-11.88485,-4.75967,2.48673,-0.28947,-1.24843,4.21835,0.61823,1.44628,0.316,-0.20213,-0.00355,0.73237,0.16777,0.16706
1074,-70.08659,-10.11029,-30.12681,108.64515,17.06583,17.1168,-133.28609,17.21047,-95.13147,128.66638,30.45449,19.58969,-2.96028,1.00572,-1.56012,-39.95849,-6.00564,2.35257,-44.07311,53.83345,-102.35587,56.41629,-25.1129,-27.77063,1.73433,2.6908,-1.51437,-1.75843,-13.2912,-8.17478,2.63253,0.03199,-1.70672,4.07289,-0.35741,0.41504,0.30186,-0.15962,0.00128,0.75503,-0.02005,0.01021
1075,-68.19309,-7.21919,-26.29536,115.29749,22.32227,17.23013,-101.24066,19.09481,-87.03132,129.81808,31.58509,18.46894,-2.48497,0.90156,-1.42817,-39.97973,-6.97096,2.44469,-20.92257,47.79855,-117.42551,43.22998,-15.54512,-31.84781,1.46515,3.04531,-0.36963,-5.78421,-10.55183,-11.26756,2.85521,0.29308,-1.37043,2.8346,-0.44256,0.37974,0.38468,-0.04864,-0.03529,0.59621,-0.06801,0.05072
1076,-50.95455,-1.83051,-10.61076,122.05803,29.72689,16.20827,-46.85368,3.61675,-22.92778,138.25378,40.40705,16.87634,-1.24724,0.52569,-0.99391,-40.41013,-8.11106,2.58568,40.87902,32.20105,-58.28486,46.47967,-17.70278,-24.85531,0.73526,4.45122,1.22194,-6.75397,-6.07071,-9.62253,3.08366,0.4585,-0.74811,2.06573,0.49145,1.61422,0.44496,0.08351,-0.08632,0.46147,0.08937,0.32885
1077,-21.12229,1.16913,1.40514,128.90433,36.89745,15.64798,24.31343,-6.70946,28.18653,147.37277,46.63329,15.48327,0.19593,0.21347,-0.37825,-41.3017,-9.60062,2.65509,127.96085,14.41219,-1.14963,68.77847,-23.80506,-12.36656,0.01632,5.98593,1.44642,-4.0627,-4.04584,-4.75147,2.88492,0.56932,-0.62154,2.28197,1.39657,2.8787,0.33897,0.20285,-0.19872,0.4067,0.27396,0.61943
1078,6.65267,0.20393,0.3657,135.07335,42.8815,15.9987,83.7283,-1.62552,19.96408,152.5412,46.34663,15.19766,1.21648,0.23956,0.02335,-42.69477,-11.51534,2.66481,202.85973,1.37769,-5.80568,90.04089,-22.25314,-3.59108,-0.94353,6.43463,1.04917,-0.59441,-6.05938,-0.7092,1.98216,0.39477,-0.67002,3.04537,1.44124,3.09724,0.07348,0.19742,-0.26921,0.36554,0.33395,0.72431
1079,18.56236,-2.23139,-7.93514,140.38774,47.80437,17.05743,103.57407,9.81923,-27.49533,155.28687,43.13332,16.37781,1.82835,0.44383,0.01601,-44.60076,-13.71409,2.76736,230.99345,-6.45631,-57.52797,84.60558,-4.91828,-4.79674,-1.39968,6.70789,0.34975,2.05443,-9.93345,1.16111,1.29979,-0.04487,-0.43882,3.9327,0.62187,2.13734,-0.09308,0.03486,-0.18469,0.3095,0.2452,0.55425
1080,16.17471,-3.52385,-14.89426,145.43536,52.40606,18.4321,87.73298,16.98242,-73.3148,156.43481,42.04288,17.78436,2.31299,0.59704,-0.34257,-47.2439,-15.93315,3.18733,210.39076,-11.16921,-111.38317,51.53576,16.76225,-16.02292,-0.79422,7.93839,-1.08522,3.27847,-11.99317,1.20559,1.58174,-0.18839,-0.45804,4.26489,-0.53722,0.47226,-0.00839,-0.10754,-0.06923,0.2384,0.04986,0.12784
1081,10.49515,-3.3384,-17.56572,149.76401,57.54015,19.31993,61.98245,17.63021,-96.16535,153.6532,46.91121,17.61806,2.54637,0.62593,-0.68633,-51.11166,-18.1186,4.06187,169.84474,-10.16683,-136.50508,17.88469,19.27703,-29.94577,-0.04636,9.4343,-2.51751,2.37738,-10.90498,-0.37265,2.12986,0.09195,-0.80754,3.51078,-1.37844,-1.10106,0.1312,-0.11698,-0.03346,0.15533,-0.15365,-0.33997
1082,7.96557,-2.64511,-17.32551,152.03816,62.45124,19.79126,48.60047,14.01969,-93.37681,150.07599,56.83101,16.83341,2.25956,0.45303,-0.71118,-56.31307,-20.53716,5.24609,150.88213,-1.74434,-123.96655,6.41328,-1.13666,-36.32442,0.09197,10.66865,-3.78586,0.51397,-8.64485,-2.21564,1.90236,0.39747,-0.91976,2.60281,-1.50237,-1.69942,0.05905,-0.04488,-0.02306,0.18354,-0.23136,-0.5178
1083,8.91303,-2.11841,-17.7186,151.34448,65.62669,20.596,55.56944,7.67799,-72.46572,151.99765,67.52254,17.87209,1.59711,0.25246,-0.72842,-62.25769,-23.37807,6.42392,174.49637,8.6371,-86.0109,10.79392,-24.6239,-30.57586,-0.03906,12.19925,-5.64038,-0.00085,-7.38791,-2.27865,0.98913,0.59173,-0.75729,2.70104,-1.02747,-1.0993,-0.19504,0.05211,-0.00346,0.39828,-0.14057,-0.30568
1084,10.27311,-1.41978,-17.59393,149.1225,68.31409,21.32796,72.07581,-0.6823,-40.19226,163.25633,79.06911,20.53057,0.90127,0.26775,-0.9819,-68.22119,-26.49219,7.43817,222.11151,15.71542,-41.55164,10.71124,-33.54119,-16.71255,-0.07841,13.64787,-6.74782,1.27772,-8.26903,-0.54681,0.61923,0.79409,-0.61788,3.7118,-0.61239,-0.2227,-0.31825,0.15324,-0.0147,0.67011,-0.02626,-0.00486
1085,8.64275,-0.58125,-8.99599,148.6655,73.92833,20.87073,84.71399,-9.05946,2.52721,186.67329,96.53809,22.56583,0.15162,0.25798,-0.83947,-73.8191,-29.61933,8.37175,274.22501,20.91379,1.13877,5.1974,-25.68362,-4.55458,-0.06997,13.69778,-5.36807,2.58586,-10.42803,1.14418,1.43409,0.99433,-0.59851,4.678,-0.63883,0.15776,-0.18101,0.22117,-0.06664,0.78649,-0.02954,0.08601
1086,0.9104,-0.35106,7.23469,150.85266,83.25253,19.20673,86.93665,-14.33733,43.31483,216.15547,119.81309,22.5664,-1.10471,0.07191,0.04315,-78.93164,-32.58277,9.34135,322.05338,28.29308,34.94066,7.84454,-8.46085,-2.66278,0.13034,12.74089,-3.42539,2.81615,-10.87448,2.13847,2.62585,1.14922,-0.90713,4.53172,-0.72152,0.30429,0.00859,0.24549,-0.16585,0.59986,-0.0822,0.04662
1087,-17.27039,0.27284,15.75146,153.88667,93.36551,17.74182,67.0937,-13.88347,54.712,236.66405,137.82205,20.69339,-3.16023,0.1545,0.69015,-83.86385,-35.31954,10.34549,339.20535,36.76361,41.21763,11.72216,9.01035,-9.01607,0.9488,12.77171,-4.31929,3.56559,-8.7089,3.81557,3.21504,1.24823,-1.59997,3.36147,-0.6549,0.40478,0.08425,0.25606,-0.3158,0.24371,-0.07278,0.08401
1088,-42.23368,2.55185,10.19745,155.36391,101.73739,17.1077,24.27751,-8.98773,35.4091,235.11365,139.79185,17.56588,-5.37586,0.50859,0.43641,-88.71479,-37.5311,11.28992,301.95135,38.82062,21.62766,-2.41798,18.11566,-12.74271,2.30062,13.90407,-7.44906,6.39521,-6.62752,6.80331,3.17907,1.13772,-1.99865,2.60679,-0.79966,0.19297,0.11014,0.24385,-0.42924,0.06605,-0.04325,0.18488
1089,-62.03344,5.13232,0.92812,152.29193,106.82578,16.66296,-24.49519,-2.43971,17.54085,205.64314,122.31985,14.65939,-6.74348,0.65249,-0.21632,-91.83397,-38.28159,11.97288,212.59666,26.53939,9.22706,-26.23159,14.6554,-8.03522,3.24865,14.01696,-8.44652,9.40277,-6.90165,8.92845,3.1938,0.66915,-1.32225,3.13412,-1.30252,-0.32927,0.20115,0.15288,-0.37034,0.1903,-0.09258,0.17262
1090,-67.05918,6.47222,-3.18755,146.14894,108.21394,16.55,-57.43423,4.83832,15.27278,163.0117,91.63477,14.16481,-6.64796,0.41591,-0.67041,-91.74722,-37.13577,12.14688,114.17107,0.84143,15.16712,-36.72749,5.35659,-0.47684,3.23666,12.43403,-5.84874,9.61133,-8.42888,8.0678,3.64374,0.20841,-0.13849,4.27092,-1.67322,-0.54788,0.35784,0.01047,-0.14662,0.39668,-0.19502,0.01402
1091,-57.04644,6.72693,4.85423,144.02188,109.19462,16.99497,-62.9778,10.88547,28.61821,136.12364,66.40309,15.1121,-5.15468,-0.17691,0.16457,-90.04328,-35.18003,11.75225,64.39009,-21.11678,32.4509,-35.59614,0.0261,2.11248,2.73722,11.14268,-2.9147,7.14103,-8.88116,5.29445,4.18717,0.19613,0.40663,5.26559,-1.31249,0.30132,0.47291,-0.09639,0.10498,0.53035,-0.22369,-0.04301
1092,-39.62628,8.07091,21.6047,146.81738,112.18605,16.51315,-44.89504,13.89923,51.40308,128.44804,61.0507,13.73127,-3.07865,-0.53484,2.2673,-88.91822,-33.55607,10.98406,69.96078,-22.83859,53.31371,-36.39298,-1.16523,-1.0302,2.08161,11.48281,-1.83622,4.52249,-8.19816,2.9464,4.24111,0.34915,0.44978,6.05556,-0.43041,1.82231,0.44098,-0.1528,0.28282,0.67468,-0.13384,0.16099
1093,-23.45288,10.0144,28.43876,149.09264,114.54794,14.51522,-16.25269,12.62928,62.04727,122.58212,68.33327,9.72514,-1.2391,-0.17895,3.2924,-88.55408,-32.50028,9.95375,93.36163,-14.36736,60.27503,-39.75531,-2.38016,-4.74009,1.37794,12.13497,-1.61058,3.89741,-8.22273,2.11749,3.82341,0.27414,0.58931,6.5661,-0.03543,2.31959,0.33507,-0.15926,0.30939,0.85884,-0.02923,0.36695
1094,-14.30333,8.62346,17.56835,147.5108,112.15575,12.7584,5.99248,6.99486,47.992,113.20721,70.42019,6.37184,0.0753,0.38422,1.95646,-88.48013,-32.00357,8.61598,105.05057,-18.0342,41.39913,-44.40492,-1.76174,-5.63193,1.34094,11.56986,-1.46789,5.22535,-9.21522,2.39588,3.59386,0.12205,0.70201,6.48656,-0.54763,1.03595,0.331,-0.09341,0.16328,0.95925,-0.01766,0.2566
1095,-11.43841,2.96896,-0.0993,143.42709,104.55591,12.57825,13.39504,0.05174,14.88546,110.30449,64.48644,5.86191,1.11271,0.53738,-0.38283,-88.60838,-31.9295,6.98253,106.79773,-30.56937,-0.63334,-54.06523,1.26189,-6.88787,2.33321,10.11563,-1.82753,5.3552,-9.23543,1.66495,3.86302,0.14787,0.5238,5.45703,-1.13537,-0.7087,0.43224,0.01107,-0.03332,0.86292,-0.07076,-0.09966
1096,-10.99068,-2.34974,-10.38853,139.56671,94.17721,13.40168,10.42569,-3.11768,-14.63497,117.44278,62.18594,7.97819,1.93237,0.38737,-1.78864,-88.71036,-31.96047,5.09472,109.91657,-26.07429,-37.99132,-60.02826,-1.32263,-12.62024,3.22814,9.10773,-2.16159,1.49066,-7.39678,-1.75041,4.23341,0.27248,0.27185,3.62906,-0.98657,-1.37844,0.46628,0.04648,-0.09296,0.59231,-0.08778,-0.38248
1097,-9.59731,-1.44956,-7.62472,136.94446,83.41352,13.78906,10.83166,0.51716,-13.38842,125.36761,70.60155,11.07066,2.27432,0.38725,-1.52203,-88.3579,-31.97101,2.96288,121.8931,4.85791,-31.92376,-47.36071,-9.92732,-19.52778,3.03619,9.44462,-1.77015,-3.5555,-5.30977,-5.44467,4.37776,0.30325,0.22026,2.16055,-0.38775,-0.87239,0.34495,-0.05018,0.03966,0.32976,-0.04338,-0.39322
1098,-5.3588,4.49538,1.23372,135.40866,73.37334,13.31787,21.69407,6.9471,13.41719,128.14484,82.35931,13.55584,2.20089,0.52022,-0.35138,-87.40771,-32.09138,0.69016,144.17944,35.87378,10.7063,-26.8399,-10.08167,-18.86495,2.53086,10.6055,-1.61178,-3.86555,-4.70177,-4.93644,4.39015,0.21839,0.24699,2.22671,-0.12025,0.03397,0.18977,-0.2018,0.21769,0.25465,-0.0131,-0.18751
1099,-0.64649,6.14957,4.43829,133.82822,64.30316,12.36469,30.67792,6.70275,27.90553,125.96037,86.57167,14.61266,2.03873,0.25188,0.37938,-86.06999,-32.29824,-1.43011,157.73375,37.83349,34.93539,-24.03671,4.33824,-7.64615,2.67497,10.92416,-2.42449,1.04598,-4.98895,-0.0584,4.29502,0.15996,0.13252,3.31151,-0.30076,0.8738,0.1553,-0.26218,0.26875,0.31924,-0.05254,0.05119
1100,0.98923,-0.52603,0.59547,130.60843,56.30747,10.95487,26.66631,-2.01283,15.02481,114.42791,83.29527,14.04369,2.01896,-0.55853,0.31953,-84.46185,-32.31238,-3.16166,138.96196,19.04772,19.31897,-36.9565,18.22593,5.55572,2.91021,9.5273,-3.03061,4.91361,-4.59782,4.18474,3.88151,0.28737,-0.10406,3.61701,-0.32911,1.58781,0.22351,-0.16061,0.18079,0.30319,-0.09289,0.19855
1101,0.83052,-7.15571,-2.34355,125.28473,48.26405,9.60606,18.96199,-9.03658,-3.71198,89.93048,77.93406,12.76906,2.20737,-1.22603,0.27448,-82.45786,-32.00038,-4.62737,97.18674,6.74835,-1.87993,-41.59768,14.26379,10.45823,2.24744,7.42817,-2.30014,3.70288,-3.85496,4.29356,3.07854,0.55232,-0.29349,2.72719,0.04379,2.00679,0.25237,0.0249,0.05632,0.16622,-0.04649,0.26654
1102,2.60187,-7.65792,-1.38188,118.46026,38.73012,9.33604,22.05008,-10.07197,-15.49017,60.79628,71.6105,12.72124,2.49715,-1.1987,0.70328,-80.05128,-31.46686,-6.03312,67.29723,4.01114,-7.03614,-33.12195,-2.99404,7.29909,0.90371,6.36842,-0.9797,0.51492,-4.05106,2.13295,2.21198,0.706,-0.33053,1.94955,0.34237,1.87836,0.16004,0.15582,-0.04697,0.08678,0.03795,0.28641
1103,2.93793,-6.59349,-0.15171,111.42188,29.27889,9.85317,26.99542,-12.45713,-26.1427,40.53401,65.90332,14.8163,2.36872,-0.76234,1.14588,-77.57619,-30.72068,-7.25772,55.97448,-0.46018,-8.88235,-26.23506,-10.95142,3.76711,0.04024,6.91005,-0.08656,-0.50642,-4.81414,0.87728,1.95238,0.62064,-0.07216,1.89501,0.20563,1.31414,0.08537,0.17244,-0.09991,0.11978,0.05453,0.23454
1104,-3.17894,-7.20434,-0.37237,106.42152,23.99339,9.62511,18.21678,-17.19174,-31.138,37.48783,67.30401,17.82912,1.59845,-0.39094,1.16999,-75.47754,-29.50573,-7.97035,48.25529,0.52288,-11.80365,-24.33046,-0.37673,3.72469,0.09341,7.96093,0.64115,0.15204,-4.93143,0.68594,2.51509,0.45463,0.48848,1.87848,-0.16488,0.66457,0.198,0.13379,-0.07795,0.1565,-0.00697,0.12108
1105,-9.85429,-7.03776,-0.692,103.94531,23.96973,8.25101,5.58665,-16.50869,-22.58609,47.67475,75.72346,19.01638,1.00679,-0.2239,0.84701,-73.94659,-27.54442,-8.02842,46.42688,16.16398,-7.81521,-19.02132,11.91036,5.80342,0.58219,8.40865,0.9918,0.50818,-4.15613,0.64009,3.17961,0.38187,0.93037,1.4343,-0.37569,0.25116,0.39729,0.1041,-0.01677,0.12894,-0.06096,0.04426
1106,-7.62227,-5.14051,-0.34478,100.72517,24.76662,7.4203,7.02369,-9.8347,-9.53611,53.85732,75.41543,16.1104,1.33927,-0.22801,0.3946,-72.78976,-25.01308,-7.70338,53.34556,24.9617,-2.11525,-9.97573,11.08962,8.53837,1.43737,8.39295,-0.59142,1.19733,-2.5151,1.78159,3.2517,0.40342,0.80675,0.84808,-0.11025,0.66522,0.46424,0.06823,0.04412,0.04023,-0.0254,0.14841
1107,0.65893,-4.30643,0.18245,94.43515,23.22783,8.05214,19.67368,-6.13643,-4.73446,44.7663,57.24094,10.72959,2.03401,-0.44897,-0.15342,-71.71891,-22.45992,-7.37457,57.29918,2.91948,-5.52977,-3.03588,3.59535,10.41394,2.5382,8.15902,-3.91592,3.06366,-0.32033,4.63951,2.76549,0.46127,0.14562,0.46162,0.55994,2.07967,0.34164,0.0097,0.08886,-0.07467,0.0729,0.41168
1108,3.95003,-6.8221,0.82576,86.96338,23.15133,8.1418,31.7244,-11.39491,-7.58893,27.80659,40.24808,7.14986,2.20218,-0.96208,-0.73116,-70.81343,-20.1052,-7.00677,53.78435,-31.06066,-14.36558,-1.42445,-1.88591,9.27412,2.78976,7.41533,-5.65912,4.21464,0.91058,6.37534,2.18403,0.49285,-0.54247,0.45127,0.96599,3.18272,0.15124,-0.03589,0.07936,-0.11034,0.10317,0.54206
1109,-0.03845,-10.7852,2.00584,79.21182,26.70733,6.51078,46.15681,-21.28451,-10.04793,14.59084,39.43107,6.06357,2.15038,-1.5675,-1.09611,-70.41638,-17.92017,-6.42269,57.40614,-50.23479,-17.78724,-4.57024,-6.66151,4.4534,1.71894,6.37203,-4.08879,2.60023,-0.26111,4.30783,1.82004,0.47571,-0.79813,0.86562,0.56504,2.52593,0.01685,-0.02977,-0.00713,0.01356,0.00842,0.34687
1110,-3.49499,-12.43486,3.30253,69.98481,29.47312,4.9858,67.59352,-27.20344,-8.83263,8.52884,41.46887,4.69334,2.59818,-1.9338,-1.09925,-70.53119,-16.1704,-5.8077,77.67864,-62.1045,-15.64101,-4.04375,-7.91682,-1.95583,0.66996,5.60304,-1.93757,-0.54198,-3.61945,0.09978,1.66946,0.50273,-0.76739,1.48971,-0.37317,0.4346,-0.03997,0.02871,-0.12469,0.20765,-0.11585,0.00024
1111,-1.80851,-9.8966,3.44033,61.83086,31.58125,4.01792,79.70046,-23.2314,-4.77198,6.25923,40.28976,2.50912,3.19545,-1.84946,-0.74674,-70.83279,-14.96171,-5.31119,92.22863,-68.84958,-12.77947,5.75166,-0.00032,-4.96158,0.73991,5.02727,-1.72479,-2.34206,-7.00971,-2.54356,1.68302,0.66419,-0.96896,1.84984,-1.10558,-1.47238,-0.02173,0.11561,-0.22494,0.28459,-0.15586,-0.23462
1112,1.11733,-5.0216,2.09963,57.25069,39.07832,1.51251,64.80744,-10.93924,0.63637,-1.01437,49.29002,0.24608,3.12287,-1.33722,-0.22056,-71.18549,-13.88009,-4.67951,68.67168,-51.00048,-9.96213,17.19218,6.15216,-1.3558,1.18736,4.32661,-2.41337,-1.73087,-7.54722,-2.2165,1.72401,0.8411,-1.44295,1.7691,-1.13857,-1.8259,0.05556,0.18666,-0.28466,0.19942,-0.10837,-0.26989
1113,2.74083,-1.3141,0.70654,54.00603,52.13056,-3.00296,39.19166,2.06917,6.75005,-17.83467,70.78296,-2.83782,2.68489,-0.7066,0.21145,-71.4707,-12.61329,-3.80211,19.21666,-6.96929,-4.14912,23.00282,-3.06558,3.33396,1.30709,4.02485,-2.68928,-0.01232,-5.03111,-0.33416,1.74829,0.87658,-1.65886,1.46986,-0.62719,-0.75074,0.16422,0.201,-0.26282,0.05954,-0.04282,-0.17483
1114,6.95161,-0.76608,0.86374,48.81273,63.65564,-7.36899,36.73847,8.9625,12.97789,-36.53599,88.46042,-7.29398,2.89641,-0.41076,0.46986,-71.31586,-11.23651,-2.994,-6.94756,34.10485,5.50003,21.77122,-14.35403,0.38504,1.45725,4.60992,-3.11636,0.81775,-3.00791,1.04487,1.8161,0.78947,-1.41094,1.10737,-0.1556,0.26978,0.26215,0.15618,-0.1472,-0.06292,0.01148,-0.05884
1115,14.64594,-1.71041,1.82884,41.24024,67.9652,-9.42289,63.47882,10.68972,18.59609,-46.35334,88.16277,-12.02308,3.72417,-0.49846,0.66459,-70.4556,-9.90596,-2.59494,13.24897,45.26241,15.49794,12.89342,-6.39652,-8.39506,1.6036,5.4233,-3.61934,0.12804,-3.8125,1.27242,1.86573,0.68577,-1.09884,0.82218,-0.02931,0.43046,0.28925,0.0856,-0.01224,-0.13934,0.06693,0.0613
1116,18.26775,-0.78684,1.06207,33.32358,66.03468,-9.21514,89.07243,12.16488,20.9509,-47.64813,72.78349,-15.64868,3.94293,-0.46368,0.77109,-69.19731,-8.73443,-2.62319,45.6188,27.33399,18.64333,4.44077,11.95945,-13.30472,1.22142,5.56711,-3.064,-1.05097,-5.51235,0.84971,1.81631,0.6473,-1.10014,0.84226,-0.14308,0.23145,0.2326,0.04134,0.03744,-0.09962,0.08397,0.18781
1117,12.55636,1.98219,-1.48443,28.44788,63.87524,-8.58008,84.27547,10.98226,15.50416,-48.12156,60.10003,-17.20914,2.94084,-0.01435,0.69863,-68.02841,-7.7714,-2.86922,42.04707,0.58343,8.50182,12.08199,13.09081,-11.12014,0.30934,5.1305,-1.44929,-1.75049,-6.17624,-0.17621,1.63976,0.67397,-1.34206,1.24441,-0.53678,-0.25648,0.12538,0.05765,-0.04915,0.08391,-0.0097,0.16567
1118,3.36724,3.32293,-2.78681,27.04869,64.43344,-8.71229,55.66838,1.40929,3.31173,-54.62288,60.87864,-16.94682,1.661,0.46571,0.53462,-67.05439,-7.01347,-3.21348,-1.84942,-19.88645,-10.4097,38.59624,-10.57917,-5.19809,-0.79427,4.74199,0.71248,-1.90334,-6.26385,-1.59094,1.34132,0.65605,-1.25644,1.76363,-1.1349,-1.1789,0.00839,0.11025,-0.21333,0.26334,-0.15886,-0.07179
1119,-1.0002,2.39912,-1.99207,25.13734,65.04705,-9.46269,33.35265,-10.41081,-6.58818,-69.91438,67.99349,-16.43252,1.24917,0.54442,0.41413,-65.93743,-6.35893,-3.6553,-49.19934,-28.21367,-23.10754,63.10265,-39.6745,3.3237,-1.65928,4.35241,3.04348,-0.86709,-5.57622,-1.50198,1.03485,0.56897,-0.55655,2.27857,-1.24484,-1.17993,-0.04037,0.16647,-0.34198,0.31202,-0.20905,-0.18358
1120,-0.17391,2.02851,-2.11455,20.84576,64.60293,-10.60485,34.81385,-9.75871,-6.90729,-88.88137,74.94445,-16.3991,1.71059,0.33946,0.32922,-64.24069,-5.63135,-4.12696,-68.21371,-15.7092,-18.35985,61.1295,-54.12751,12.83551,-1.5854,3.4506,3.60716,1.84249,-3.38623,1.05094,0.87762,0.60669,-0.24825,2.8928,-0.53284,0.69085,0.04776,0.25794,-0.43349,0.30864,-0.13729,0.10509
1121,1.50007,3.80887,-4.7735,17.0396,65.11134,-12.03411,52.38522,5.82401,0.0739,-101.72759,84.68367,-16.18062,2.30211,0.22345,0.24217,-62.10896,-4.9622,-4.56223,-59.62973,18.21822,-0.14333,36.5986,-52.8222,15.63635,-0.41085,2.29619,0.65539,3.56405,-1.49053,3.12863,0.8508,0.80027,-1.32167,3.1642,0.11837,2.4046,0.19937,0.37021,-0.54855,0.31938,-0.07552,0.45014
1122,2.70459,6.22862,-7.8036,16.22317,66.7683,-13.20901,68.58531,22.02054,6.39457,-102.48395,97.89218,-14.97034,2.49991,0.37298,0.23191,-60.20195,-4.78805,-5.05123,-41.77557,54.29008,16.41827,20.28952,-44.06361,5.27897,0.9386,2.04021,-3.79611,1.31444,-2.44455,1.50511,0.90218,0.86316,-2.90117,2.67469,-0.2343,1.48032,0.24615,0.37283,-0.61183,0.31721,-0.11521,0.34233
1123,3.69282,7.13575,-8.53596,17.55097,68.43786,-13.87835,70.9242,23.82307,6.6606,-94.1404,110.85834,-12.68245,2.20024,0.67558,0.33314,-58.70737,-5.12958,-5.66908,-31.51033,70.79216,19.32246,31.49638,-31.09255,-13.09151,1.58747,3.38409,-5.88379,-2.93102,-5.03076,-2.36623,1.24525,0.68719,-3.45188,2.03633,-1.15072,-1.17272,0.14569,0.20727,-0.49539,0.32715,-0.20047,-0.14463
1124,3.03484,6.22251,-6.99321,18.46806,69.10551,-14.28971,59.82944,12.40346,2.47126,-85.45084,118.59209,-10.75595,1.64316,0.88546,0.43038,-56.97205,-5.44907,-6.37783,-34.48825,64.22016,9.63944,56.93242,-17.15758,-27.221,1.54757,4.90326,-4.64556,-4.89648,-5.98829,-4.51626,1.8283,0.48251,-3.00857,1.98664,-1.52811,-2.68349,0.00535,-0.00228,-0.27009,0.366,-0.22799,-0.50977
1125,1.33004,5.19903,-5.67191,17.47884,67.06387,-14.36963,48.25665,4.80339,-1.21908,-82.75735,115.83469,-10.85424,1.33123,0.90046,0.44036,-54.36967,-5.32397,-7.16693,-42.09517,50.58586,-2.1597,70.35369,-11.85239,-29.06722,1.34108,4.18888,-2.73387,-3.562,-5.16801,-3.45447,2.07944,0.42346,-2.92455,2.28055,-1.15332,-2.07772,-0.06994,-0.073,-0.18376,0.33788,-0.17585,-0.477
1126,1.72418,5.2426,-6.06151,15.13655,62.08122,-13.90673,46.52004,12.33776,-2.21332,-87.58447,103.90813,-12.4784,1.50179,0.76991,0.41284,-51.1109,-4.72215,-7.97279,-47.91505,47.7125,-6.71916,65.19485,-21.52829,-17.4467,1.29973,2.20333,-1.89641,-0.6085,-4.84457,-0.69513,1.99908,0.52347,-3.30983,2.66038,-0.64595,-0.56939,0.00117,0.01883,-0.28673,0.25122,-0.10122,-0.16054
1127,4.48533,4.99071,-6.28521,12.69141,56.85329,-13.29012,52.40546,25.73196,-0.56472,-96.94194,92.32092,-14.13769,1.84392,0.42472,0.40145,-47.93792,-3.85049,-8.61979,-54.60022,55.39392,-1.90156,58.34032,-38.09927,2.88158,0.98217,2.39945,0.1648,1.94706,-5.7514,1.45232,2.17932,0.68493,-2.51463,3.31429,-0.46763,0.47504,0.2384,0.11228,-0.30683,0.26783,-0.06924,0.15953
1128,6.79703,2.75121,-3.97298,11.45857,53.67647,-12.9847,59.4571,27.02176,3.21353,-100.79808,87.2441,-15.34615,1.96358,-0.14225,0.38621,-45.23214,-3.06587,-9.07843,-55.29245,56.39812,7.28423,60.38541,-44.68537,20.05351,-0.22729,4.57555,5.22984,2.3165,-6.40467,1.59267,2.44486,0.68951,-0.06226,3.80125,-0.56556,0.58619,0.48687,0.08915,-0.05862,0.39298,-0.09655,0.26221
1129,6.99456,-0.68019,-0.0011,12.35454,51.95259,-12.71776,64.18587,8.21684,6.59142,-89.8719,84.83859,-15.58989,1.81302,-0.62197,0.34675,-42.60508,-2.54627,-9.47821,-37.42496,36.56198,13.76716,61.71235,-35.43789,20.92304,-1.3855,5.38133,8.93496,0.38943,-5.79204,0.02538,2.25911,0.45749,1.84167,3.52323,-0.74631,-0.0149,0.56495,-0.00184,0.23864,0.4761,-0.14627,0.13
1130,4.58164,-3.37232,3.08379,13.62331,51.44313,-12.52749,62.05315,-21.40622,7.10079,-72.57158,83.61172,-14.33603,1.53114,-0.83978,0.283,-39.61819,-2.01149,-9.72968,-15.26501,5.50734,14.69516,54.57775,-23.77878,5.33772,-0.41605,4.19209,4.96706,-1.31691,-4.42572,-1.4976,1.91195,0.22317,0.87298,2.89926,-0.86958,-0.67135,0.47219,-0.05927,0.25913,0.44844,-0.17103,-0.06041
1131,0.9775,-3.2673,2.91767,12.42614,52.32071,-12.88602,53.02446,-36.52491,4.66569,-67.69434,86.93668,-12.97235,1.32983,-0.76104,0.20973,-36.50834,-1.26605,-9.69797,-15.94998,-6.63103,11.10302,47.35039,-25.77275,-9.33631,2.34576,2.94464,-4.63907,-0.40832,-3.0034,-1.36536,1.82103,0.14721,-2.23561,2.79751,-0.75985,-0.60775,0.30718,-0.04972,0.00872,0.35732,-0.15483,-0.11601
1132,-0.59539,0.30405,-0.74223,9.08441,52.31896,-13.40718,45.8089,-22.25686,0.60423,-78.50531,90.99115,-13.34928,1.32824,-0.30302,0.17228,-33.8427,-0.60187,-9.5835,-37.44452,10.87337,5.21077,52.10025,-38.9093,-6.32672,3.18795,2.66215,-7.93464,1.35157,-2.36364,-0.26547,1.86902,0.14946,-3.91105,3.1172,-0.50526,-0.02155,0.18012,-0.01063,-0.23713,0.26754,-0.12859,-0.0591
1133,0.84099,4.2133,-4.4177,6.72544,50.80123,-13.4248,46.7861,2.30408,-1.9973,-89.55247,90.82139,-14.66186,1.35561,0.23136,0.18397,-31.81819,-0.25915,-9.5485,-52.89902,32.83991,1.80214,68.30929,-46.92953,8.05325,-0.02374,3.06373,1.50827,0.036,-3.46361,-0.4542,1.74169,0.16404,-2.00124,2.99862,-0.54575,-0.09639,0.16881,0.0127,-0.2414,0.24094,-0.14373,-0.09317
1134,3.36404,5.33493,-5.36506,6.836,49.60989,-12.97658,50.6368,12.95579,-1.50472,-89.13928,87.03709,-15.42292,1.26628,0.38285,0.20529,-30.00471,-0.17301,-9.49707,-51.08482,35.9723,1.75195,81.20248,-41.69037,10.08801,-3.35568,3.53108,11.68338,-3.41014,-5.27652,-1.85805,1.49059,0.23763,0.88601,2.44159,-0.83342,-0.85408,0.24465,0.01943,-0.01356,0.30709,-0.18362,-0.21752
1135,5.38305,4.36073,-4.69519,6.79223,49.59743,-12.71778,49.66536,11.78557,-0.78663,-83.34128,83.03022,-15.75353,1.16839,0.14789,0.225,-27.85801,-0.16053,-9.28544,-45.95515,30.933,-0.08597,78.11855,-30.59038,-6.00561,-2.46362,3.40583,9.45129,-3.55037,-5.60467,-1.77503,1.30861,0.29199,1.26057,2.3929,-0.73565,-0.89094,0.29144,0.02482,0.17327,0.39295,-0.16231,-0.19102
1136,6.86078,2.68239,-3.67823,4.26482,50.26746,-12.9883,45.83071,10.04795,-1.74512,-81.95551,81.71189,-15.68091,1.18306,-0.2046,0.26316,-25.49354,-0.1054,-8.92421,-46.81389,35.57399,-3.9509,63.54065,-23.8541,-16.31601,0.36806,3.32579,1.73184,0.59785,-4.60575,0.41426,1.44112,0.17695,-0.15507,2.98924,-0.19465,0.04942,0.30782,0.01438,0.08556,0.38284,-0.07029,0.01203
1137,8.08608,0.41801,-2.01937,0.66592,51.00192,-13.40198,45.32465,7.79922,-2.03139,-85.29694,83.37772,-14.82471,1.22755,-0.44448,0.31183,-23.67717,-0.08644,-8.57625,-49.10961,45.72881,-3.63445,51.40602,-22.42143,-5.75217,0.54153,3.91834,1.52531,3.56862,-4.36151,1.97599,1.83306,-0.05997,-0.81591,3.33162,0.09164,0.6298,0.34122,-0.00846,-0.20466,0.29368,-0.00784,0.14983
1138,8.50494,-1.87789,0.03048,-2.01286,51.10855,-13.49792,46.53506,1.2049,0.14503,-89.295,84.76477,-14.07819,1.11843,-0.46056,0.33336,-22.87582,-0.2194,-8.33952,-52.28388,47.6865,1.81957,49.91722,-23.79511,7.61021,-1.32243,4.18816,6.47611,1.35181,-5.80903,0.65537,2.0347,-0.21435,-0.49743,3.03158,-0.40245,-0.12451,0.34359,-0.0119,-0.43306,0.28347,-0.07111,0.04383
1139,7.31132,-3.61005,1.87806,-3.44141,50.32861,-13.17746,41.13969,-9.14306,3.84618,-90.46956,82.39579,-14.62318,0.86901,-0.40667,0.30526,-22.68205,-0.41952,-8.10818,-61.70392,35.62883,5.89764,57.25409,-28.38522,4.92108,-1.9047,3.66254,7.9124,-3.96234,-7.84482,-2.65075,1.93231,-0.17756,-0.17059,2.50429,-1.42035,-1.74117,0.31296,0.01284,-0.45834,0.39108,-0.23779,-0.24229
1140,4.94692,-4.00494,2.69411,-4.03083,48.64958,-12.52517,26.69348,-15.32799,6.24815,-85.90871,75.39597,-16.05104,0.66359,-0.3717,0.26487,-22.43692,-0.59635,-7.81096,-74.58242,18.96841,2.79226,64.48016,-34.21025,-5.4784,-0.82375,3.38684,5.45964,-7.28474,-8.72419,-4.92316,1.83926,0.00018,-0.04044,2.034,-2.11793,-2.87534,0.32375,0.04384,-0.27934,0.43894,-0.34846,-0.4555
1141,3.59723,-2.93193,2.13155,-4.35308,46.085,-11.76508,13.72146,-12.40747,5.6785,-76.79504,66.22237,-16.82538,0.60072,-0.21682,0.27669,-21.90999,-0.83134,-7.59435,-78.16565,10.47807,-4.8696,63.87191,-35.67262,-7.65589,0.51452,3.8516,2.77775,-5.8582,-7.84573,-4.20051,1.96797,0.16018,-0.0104,1.65909,-1.93193,-2.665,0.36532,0.04769,0.01468,0.30828,-0.27592,-0.38806
1142,5.05931,-2.11439,1.23793,-4.89129,44.2798,-11.26731,14.54169,-7.69562,3.77989,-69.17114,61.82016,-15.64113,0.65217,0.03611,0.34843,-21.24269,-1.11344,-7.50846,-65.0179,12.2484,-8.5176,58.78309,-31.771,-0.18663,1.29724,4.50652,1.69776,-1.33294,-5.85488,-1.32863,2.12183,0.13464,0.24817,1.67157,-1.04606,-1.30345,0.32053,0.00253,0.26706,0.15058,-0.08988,-0.07143
1143,8.2387,-2.75576,0.91219,-5.63463,44.884,-11.15794,26.36827,-8.66419,2.61063,-67.61008,66.81589,-12.7474,0.7943,0.12645,0.41347,-20.75887,-1.32624,-7.41602,-46.43278,19.22127,-5.32424,60.16014,-27.14334,8.76242,1.24879,4.68702,2.51937,3.0036,-3.4844,1.53849,2.03838,-0.07805,0.98475,2.35271,0.00371,0.41344,0.16542,-0.07665,0.3775,0.18106,0.04005,0.25852
1144,9.64869,-3.70225,0.85063,-6.21683,46.6363,-11.16695,33.64925,-11.75949,1.97547,-70.19065,75.88837,-9.8615,1.01089,-0.14626,0.38414,-20.59134,-1.46243,-7.27994,-41.5103,26.36209,-1.24916,68.46725,-22.87007,9.74662,0.75796,3.2851,2.72975,5.17819,-1.23667,2.74976,1.48652,-0.27341,1.15846,3.2985,0.70349,1.46927,-0.02814,-0.12035,0.32589,0.38591,0.03506,0.33572
1145,6.44246,-3.73098,0.88222,-6.19184,46.98442,-10.97936,27.65543,-11.85162,1.48503,-70.26412,79.70933,-8.17792,1.16795,-0.75531,0.19984,-20.32458,-1.58469,-7.20852,-50.70581,28.52798,-0.42463,70.67315,-14.54195,-1.85654,0.91737,0.56484,-0.31772,4.43042,0.45931,1.74631,0.84775,-0.30855,-0.34146,3.70619,0.77658,1.29826,-0.11332,-0.07797,0.11996,0.58229,-0.0566,0.12188
1146,5.96251,-4.96894,1.49908,-5.56757,45.37509,-10.59444,27.4942,-14.18605,2.41349,-65.37154,76.64553,-7.43868,-2.07488,0.73718,-0.31363,-19.65919,-1.70884,-7.25133,-44.92212,22.89113,1.48437,59.53799,-5.84566,-16.46454,1.92212,-0.18126,-3.69733,0.97939,0.99862,-0.59091,1.03,-0.30468,-2.08706,3.10184,0.33106,0.35545,0.0038,-0.02069,-0.09424,0.59698,-0.14126,-0.14199
1147,-1.93483,-3.92972,2.10003,-4.80453,43.20204,-10.19679,12.43396,-12.97345,3.39583,-61.07016,72.75838,-6.93785,-4.58059,1.75114,-0.85759,-18.97932,-1.79483,-7.33476,-55.27546,20.29458,2.5876,47.41495,-9.4417,-17.99938,2.56551,3.09636,-2.2382,-2.83635,-0.44626,-2.35436,2.31638,-0.46125,-1.76687,1.86085,-0.28455,-0.55606,0.26636,-0.04377,-0.12892,0.38658,-0.15453,-0.23945
1148,-7.30742,-2.95322,2.62988,-4.20444,41.30363,-9.8696,-2.63389,-13.12374,4.99185,-62.53308,71.69199,-6.54419,-7.60943,3.57422,-1.33837,-18.52609,-1.80586,-7.38771,-74.91814,19.91011,3.41008,51.16405,-23.91408,-5.98528,2.19237,7.69406,3.05092,-3.52443,-3.44525,-2.15145,3.77429,-0.72413,0.2069,1.10749,-0.65221,-1.01636,0.51817,-0.10746,-0.04315,0.12249,-0.08732,-0.16906
1149,-5.07271,-2.55875,2.33192,-3.75861,39.52262,-9.60045,-6.78071,-12.95941,5.81175,-68.39742,71.04334,-6.85497,-10.51309,5.94472,-1.62154,-17.96593,-1.73768,-7.37962,-89.96249,20.77766,1.98546,67.214,-30.44657,4.65978,1.52505,9.96547,6.25274,-0.76242,-6.07947,-0.49056,4.24824,-0.81969,1.34382,1.34168,-0.61355,-1.03206,0.60744,-0.10549,-0.0519,0.00624,0.0029,-0.05238
1150,4.63573,-3.02657,1.09537,-2.89603,37.83567,-9.25299,6.88442,-10.8771,4.63559,-72.84142,67.08962,-8.33496,-13.25007,8.60153,-1.77553,-17.25428,-1.65457,-7.30833,-82.97607,22.67734,-1.39555,76.9179,-21.53685,5.66142,0.8089,9.03722,5.47338,1.88825,-7.24832,0.80942,3.52623,-0.65748,0.66282,1.95727,-0.50752,-0.89448,0.49867,-0.04041,-0.14646,0.0701,0.01371,-0.00385
1151,14.5048,-4.47651,0.03195,-0.8164,36.56126,-8.6945,28.07191,-9.30615,2.6286,-71.34275,60.51324,-10.09642,-16.39049,11.43333,-2.10337,-16.89525,-1.7364,-7.25695,-57.58257,24.74096,-4.25949,74.67855,-11.81151,2.02095,-0.66238,6.00841,4.35123,1.78178,-7.29395,0.64505,2.22859,-0.42906,-0.34716,2.22528,-0.72262,-0.8929,0.29726,-0.01389,-0.11204,0.18515,-0.10155,-0.06595
1152,17.25453,-5.97336,0.0099,1.89343,36.15383,-8.18214,39.55529,-11.18046,2.00855,-65.85683,57.80412,-10.16936,-20.15898,14.4084,-2.80652,-17.00576,-2.09741,-7.30284,-34.30479,28.20016,-4.07275,71.40053,-15.59139,0.61639,-2.0598,3.32312,5.05441,-0.1211,-6.08143,-0.26937,1.35908,-0.38249,-0.10319,1.94011,-0.97459,-0.74728,0.18006,-0.07923,0.09716,0.19867,-0.22732,-0.11129
1153,12.32834,-6.15055,0.7103,3.68263,36.57859,-8.0465,34.59979,-15.93692,3.67483,-60.1247,62.99121,-7.57678,-24.2409,17.4812,-3.77183,-17.15012,-2.57439,-7.36804,-26.87087,35.53666,-0.64187,69.33523,-31.35873,4.51976,-1.31692,3.21827,5.34186,-1.62446,-3.32508,-0.6946,1.54461,-0.57408,0.96281,1.36295,-0.66956,-0.07745,0.22795,-0.17218,0.27165,0.1043,-0.19833,0.00619
1154,4.80388,-4.06088,0.94385,4.25969,36.34945,-8.04779,20.1282,-18.28607,5.8809,-55.25743,69.00874,-4.51664,-28.35235,20.66369,-4.72269,-17.13309,-2.93084,-7.36402,-33.55906,44.25864,1.71665,56.4688,-46.55027,13.12327,1.21856,4.56083,2.95249,-1.20122,-0.63536,-0.53369,2.24704,-0.75828,0.96548,1.1154,-0.03497,0.40737,0.31826,-0.17322,0.1958,0.06808,-0.05925,0.10699
1155,-0.67724,-0.0766,-0.0214,4.31855,33.83082,-7.76765,6.71003,-14.12501,5.78401,-54.49752,65.17625,-4.76425,-32.43485,23.9274,-5.51221,-16.99425,-3.11862,-7.35584,-49.75742,45.67186,-1.99384,33.04229,-46.35218,19.18508,3.10138,4.49231,-0.93918,1.42174,0.45716,-0.18078,2.5931,-0.7233,-0.79651,1.82709,0.35481,0.1407,0.28966,-0.05466,-0.09214,0.23747,0.01822,0.00399
1156,-3.11116,3.23367,-1.47631,4.33763,29.96185,-7.17204,2.45995,-8.64003,2.85032,-60.02628,52.56338,-7.86204,-36.45564,27.08657,-6.24182,-16.81398,-3.25143,-7.39696,-65.01846,36.02066,-8.67432,21.16016,-28.33046,13.71313,3.20923,3.13247,-3.08851,3.74448,0.15903,0.11502,2.55344,-0.64132,-2.55724,2.95673,0.44991,-0.19666,0.15524,0.05497,-0.28666,0.44418,0.01265,-0.11516
1157,-2.81106,2.59575,-2.00405,4.62682,27.54248,-6.50821,11.27937,-12.62158,0.26984,-65.70838,43.86948,-8.45952,-40.32278,29.9393,-7.06288,-16.87219,-3.48412,-7.40718,-60.75861,23.31037,-8.27476,38.28008,-11.02762,-0.72833,2.24875,3.06413,-1.53312,2.67519,-1.54311,-0.1891,2.62578,-0.81083,-2.28135,3.25988,0.26938,-0.24805,0.07161,0.00683,-0.14096,0.41832,-0.01544,-0.09185
1158,0.13356,-2.15405,-1.15874,4.54302,27.02108,-6.18303,27.30983,-27.91293,1.63562,-65.13794,45.10026,-5.28679,-43.90058,32.40219,-7.90729,-17.37763,-3.93699,-7.3542,-36.7689,15.63708,0.70528,74.68995,-12.22839,-11.09077,1.67574,5.1264,1.95486,-0.42751,-4.17624,-1.06578,3.16851,-1.26803,-0.35504,2.98923,-0.11033,-0.34956,0.16874,-0.18017,0.21411,0.3143,-0.06771,-0.0519
1159,3.39743,-7.90471,0.50505,3.41984,26.22608,-6.35015,35.24111,-43.72536,6.88623,-60.39373,48.72828,-3.8234,-47.02833,34.40483,-8.58792,-18.32838,-4.62476,-7.3285,-19.15631,13.49468,7.1754,99.87899,-27.09011,-8.57362,2.58766,7.62376,3.77556,-1.79866,-5.67896,-1.59967,4.03032,-1.76424,1.26883,2.98905,-0.34184,-0.55631,0.39426,-0.33963,0.42372,0.35744,-0.13159,-0.12192
1160,3.4693,-12.01569,2.36395,2.02179,24.09173,-6.58969,26.51718,-49.25855,12.22176,-58.05113,46.75401,-7.23107,-49.57407,35.81851,-9.01315,-19.4409,-5.34928,-7.35443,-26.79095,14.58654,3.89376,90.81523,-39.70254,5.28235,4.33022,9.0752,3.12511,-0.33385,-4.7088,-0.96274,4.48416,-1.96985,1.86613,3.0749,-0.1494,-0.42203,0.52289,-0.34736,0.34381,0.40385,-0.134,-0.18325
1161,0.79889,-13.60119,3.54023,0.4777,21.0362,-6.49601,10.61517,-41.45052,12.86243,-61.42148,38.1663,-12.27982,-51.47547,36.57379,-9.13414,-20.05096,-5.81814,-7.32697,-48.65871,18.182,-5.39828,57.07707,-41.74131,20.25281,5.32392,9.20113,1.85404,2.2997,-2.35199,0.6429,4.04458,-1.73066,2.03033,2.79761,0.34041,0.22736,0.43213,-0.22474,0.14005,0.25951,-0.05043,-0.09313
1162,-0.79745,-13.58806,3.49506,-1.48289,18.68827,-6.11917,0.84653,-24.97282,7.98137,-65.62269,30.68907,-12.82024,-52.66533,36.62567,-8.9764,-19.98172,-6.002,-7.15263,-61.85794,30.92498,-12.66654,31.07899,-37.77496,24.4969,4.87234,8.15241,0.94878,4.22034,-0.80821,1.9286,3.16332,-1.17438,1.66547,2.66503,0.71423,0.86103,0.28166,-0.06237,-0.02584,0.09185,0.0393,0.07814
1163,-0.2745,-13.59663,2.86189,-2.56358,18.49745,-5.61805,-3.87839,-7.65858,1.7481,-60.64971,32.47258,-6.30062,-53.08431,35.96079,-8.71494,-19.91864,-6.18251,-6.90625,-58.26722,59.2068,-14.88339,32.2191,-40.19349,16.18696,2.95618,6.75609,0.23104,3.29768,-1.12358,1.34472,2.46268,-0.53747,0.10828,3.01462,0.65573,0.92564,0.21462,0.10487,-0.18385,0.1214,0.03715,0.14772
1164,0.25958,-14.44221,2.74903,-2.6204,18.8264,-5.18941,-11.92822,3.02006,-1.25303,-46.97913,38.15573,1.21668,-52.83229,34.87032,-8.49298,-20.32232,-6.5313,-6.74892,-51.01665,86.72993,-16.60972,49.87424,-50.74424,4.61078,0.74767,6.22963,-0.49465,-1.09111,-2.73647,-1.12878,2.13887,-0.13812,-1.9728,3.13371,0.19897,0.41893,0.15423,0.24773,-0.3748,0.23627,-0.06185,0.03055
1165,-0.14362,-16.58846,3.76795,-3.0738,17.38829,-4.96082,-23.20097,1.55079,0.37186,-36.18298,37.10912,2.41441,-52.14673,33.85242,-8.3005,-21.02745,-6.87686,-6.6959,-53.85744,87.32376,-20.52143,62.15101,-53.87443,0.09559,0.68775,7.03128,-0.64629,-5.0525,-4.67897,-3.2637,2.3279,-0.41789,-2.19923,2.9416,-0.29833,-0.27341,0.07108,0.20753,-0.36642,0.31513,-0.1701,-0.17566
1166,-0.20639,-19.58434,5.35959,-4.74095,14.37541,-4.86414,-29.24037,-8.78437,4.08017,-33.90174,28.72902,-1.97009,-51.19386,33.1486,-8.0732,-21.98973,-7.05093,-6.64026,-60.7824,62.37209,-23.36312,64.43057,-41.86494,6.23093,3.31372,8.75681,0.99172,-4.10592,-5.95901,-2.84312,3.13393,-1.47074,0.82894,3.35569,-0.39673,-0.51861,0.09759,-0.14653,0.12374,0.4711,-0.20378,-0.25343
1167,1.24324,-22.13507,6.45357,-7.14612,12.69016,-4.80678,-26.38506,-19.35701,6.64653,-35.28207,23.6218,-4.90738,-50.04486,32.59498,-7.78762,-23.2693,-7.04434,-6.46561,-60.10286,38.92319,-20.70171,68.03501,-28.07027,16.22264,5.73431,9.93765,3.41264,0.48185,-5.64372,-0.30585,4.13452,-2.49534,4.28932,4.20214,0.00947,0.07926,0.2707,-0.55425,0.76194,0.6736,-0.13831,-0.07475
1168,3.43029,-23.43112,6.73496,-9.8842,14.20868,-4.8202,-20.70678,-27.2784,7.62156,-36.88151,27.53107,-3.18198,-48.78978,31.95029,-7.44512,-24.38386,-6.82787,-6.11332,-56.16405,30.48096,-12.92663,73.1682,-22.80376,17.12038,5.36492,8.95724,3.45969,3.19417,-4.02134,1.75059,4.31605,-2.41401,4.04154,4.13061,0.55383,1.02161,0.35246,-0.54743,0.82373,0.67304,-0.01062,0.23433
1169,4.70926,-23.63144,6.70142,-12.71517,16.99231,-4.86008,-16.81076,-34.96112,8.60068,-39.32946,32.57416,-0.65021,-47.5013,31.15576,-7.04937,-24.69848,-6.3811,-5.63887,-55.09904,25.6027,-4.96801,68.84006,-20.79214,5.56074,4.07438,6.53649,0.39393,1.71709,-2.62523,1.69731,4.06245,-1.52043,0.37487,3.01721,0.79163,1.43048,0.30948,-0.12198,0.17362,0.4504,0.08906,0.40072
1170,4.83871,-23.06511,6.62808,-14.34055,17.77016,-4.7168,-11.22319,-41.03627,10.14505,-40.83179,30.97534,-1.08002,-46.14677,30.23117,-6.62055,-24.47799,-5.90379,-5.22788,-49.29601,16.56745,-1.21294,54.84658,-19.68481,-5.39547,5.20571,4.93183,-2.80146,-0.51746,-2.81884,0.42633,4.86276,-1.18162,-2.57364,2.28106,0.51511,0.88007,0.44549,0.2053,-0.52261,0.24842,0.07708,0.25731
1171,4.90448,-21.5951,6.18957,-13.88787,15.13761,-4.30147,-1.14503,-41.14368,10.91353,-39.30622,24.56647,-3.83226,-44.6242,29.20006,-6.16774,-24.50346,-5.58888,-4.99216,-34.40148,9.23322,-2.7669,43.2798,-23.26912,-4.0019,7.53114,4.88592,-3.0938,-0.1236,-4.50166,-0.34032,6.05908,-1.67586,-2.19366,2.56528,-0.10368,-0.26266,0.71804,0.12543,-0.62255,0.18553,-0.01776,-0.07046
1172,5.32107,-19.75245,5.4579,-12.41261,10.91463,-3.70403,9.28838,-37.91198,10.27254,-36.77275,19.12291,-5.84354,-42.89037,28.1296,-5.69602,-24.78619,-5.19684,-4.76153,-19.9065,5.37232,-5.34465,40.19546,-25.58033,5.04184,7.45311,5.78859,-0.48151,2.00192,-5.81094,0.0523,6.0738,-2.15925,0.31987,2.9793,-0.56474,-0.97578,0.85057,-0.17068,-0.20116,0.19182,-0.09765,-0.26865
1173,5.4264,-18.60481,4.99112,-11.73131,8.51987,-3.07565,13.86697,-37.00309,9.1145,-35.38387,18.06317,-4.78146,-41.05132,27.06565,-5.24237,-24.80371,-4.43788,-4.3146,-14.32359,3.37059,-4.2376,37.53651,-19.52252,11.13315,4.7469,7.00978,2.47647,3.5989,-4.72919,1.12785,4.78002,-2.01794,2.5106,2.83417,-0.44964,-0.51181,0.76068,-0.36257,0.27077,0.23002,-0.11821,-0.17722
1174,5.02547,-17.88039,4.71144,-12.49768,9.1606,-2.59084,11.22206,-36.51067,7.6231,-35.03592,21.11222,-1.05839,-39.28516,25.96569,-4.83664,-24.50772,-3.51835,-3.7388,-16.93,7.93144,-1.71458,28.49477,-10.76617,10.88833,2.15402,7.44659,3.22585,3.73286,-2.29024,1.84994,3.02088,-1.3758,2.95895,2.41056,0.02038,0.49627,0.49785,-0.32847,0.47462,0.29658,-0.09085,0.04581
1175,4.78376,-16.66483,4.12782,-13.61327,10.94508,-2.27268,6.22468,-32.14839,5.30181,-36.05421,25.48524,2.89618,-37.66375,24.7687,-4.47153,-24.13052,-2.74679,-3.26829,-23.47492,20.55436,-0.95019,22.59592,-7.67119,8.05856,1.55762,6.55156,1.8004,2.3084,-1.58768,1.56993,2.03314,-0.88626,1.8984,2.00566,0.27188,0.83634,0.25501,-0.18493,0.38282,0.3007,-0.0252,0.18625
1176,5.04338,-15.00161,3.30602,-13.80777,10.81187,-1.95601,3.78122,-25.15481,2.90009,-37.9467,24.90755,3.73723,-36.15836,23.53808,-4.13036,-23.70575,-2.13308,-2.96152,-29.72779,28.31578,-2.03118,31.0872,-10.62855,6.2567,2.74292,5.19307,0.03142,0.5135,-3.36692,0.59193,2.472,-0.977,0.5616,1.84183,-0.00111,0.14545,0.22703,-0.0949,0.14434,0.22619,0.01549,0.13146
1177,5.42288,-13.79277,2.8207,-12.72547,8.33257,-1.524,3.48728,-20.61021,2.3737,-37.2652,17.47197,0.96753,-34.80902,22.41106,-3.84641,-23.28769,-1.60759,-2.72036,-31.38893,19.78731,-4.1759,46.55672,-14.14496,3.86075,5.13796,3.93488,-1.05517,0.31059,-5.16623,-0.29288,3.67981,-1.44549,0.0313,2.20416,-0.59795,-0.90406,0.3608,-0.10419,-0.02174,0.20165,-0.05617,-0.10894
1178,5.65711,-13.65244,2.91551,-11.0501,6.54563,-1.05819,2.91707,-21.62382,4.31401,-33.51693,11.49926,-1.39054,-33.68545,21.43666,-3.67503,-22.97209,-1.16553,-2.43992,-28.79023,4.0983,-4.6579,50.35297,-15.69618,0.05336,7.6501,2.52914,-1.44115,1.6971,-4.73399,-0.48983,4.27482,-1.75524,0.50704,2.71746,-0.91309,-1.29,0.42756,-0.1591,0.01485,0.24874,-0.16631,-0.30581
1179,5.2585,-14.01416,3.24246,-10.15379,7.31614,-0.71911,0.58394,-25.04503,6.78146,-31.56316,13.16192,-0.60376,-32.74189,20.5435,-3.61857,-22.63798,-0.7962,-2.10455,-29.15136,-0.79449,-1.4592,35.29387,-19.98067,0.38463,7.72332,1.68973,-0.99308,2.84524,-2.84465,-0.0152,3.51039,-1.56468,1.2638,2.87605,-0.64893,-0.70871,0.32778,-0.19175,0.1522,0.30509,-0.17225,-0.22335
1180,3.682,-13.45882,3.24256,-10.72527,9.10278,-0.57396,-3.34215,-24.07015,7.35649,-33.58854,17.74309,1.25099,-31.84214,19.66954,-3.58758,-22.12271,-0.51108,-1.79304,-35.52282,9.17316,2.25604,14.87095,-26.76295,6.90498,4.53263,2.46187,0.12667,3.16613,-1.34272,0.8096,2.17407,-1.0966,1.48776,2.83424,-0.10889,0.30811,0.18536,-0.17808,0.21371,0.34654,-0.07943,0.07805
1181,2.0341,-11.72009,2.7279,-11.8032,10.50344,-0.52121,-5.71684,-17.77973,5.75314,-36.44809,19.55387,1.59277,-30.89179,18.87195,-3.46612,-21.47227,-0.32708,-1.55221,-41.27689,21.58965,2.56,7.66578,-24.63168,11.27573,1.97329,3.83245,0.67508,3.78777,-0.26934,1.94223,1.80852,-0.90392,1.13127,2.8306,0.43913,1.35248,0.15225,-0.13975,0.18101,0.32021,0.02727,0.38683
1182,1.87393,-10.47181,2.20475,-12.02976,11.72013,-0.40562,-4.18325,-13.03979,4.06397,-38.20297,19.50066,0.61831,-29.97064,18.22296,-3.27066,-20.88738,-0.2444,-1.36005,-42.42027,23.82068,0.40113,16.44245,-8.53817,6.20523,3.75396,3.64404,-0.30182,4.91176,0.20124,3.01431,2.86401,-1.18685,0.57475,2.88165,0.74937,1.98955,0.25604,-0.10311,0.11181,0.24197,0.08065,0.53365
1183,2.8841,-10.71283,2.09389,-11.25298,12.47874,-0.22068,-0.53057,-13.84428,3.78219,-39.19093,19.94224,-0.31321,-29.24966,17.68747,-3.11002,-20.47489,-0.27058,-1.21797,-41.52879,16.9237,-1.61927,31.27337,8.81562,-3.92672,6.78885,1.93822,-1.56069,4.90397,-1.74195,2.79925,3.99814,-1.5235,0.07438,2.91349,0.26996,1.21123,0.39121,-0.08127,0.02839,0.23747,0.01521,0.34492
1184,3.46737,-11.38978,2.13466,-10.09642,12.2004,-0.02938,1.46487,-17.09606,3.79513,-37.57,20.41769,-0.28344,-28.77944,17.22127,-3.0243,-20.06845,-0.35742,-1.13012,-39.09971,10.68247,-3.35849,44.16846,10.4026,-8.16543,5.42833,1.24501,-1.16351,2.95385,-5.35232,0.99019,3.73952,-1.42353,-0.15928,2.79381,-0.81575,-0.82984,0.41485,-0.07609,-0.03393,0.3412,-0.13332,-0.11996
1185,2.98213,-11.4913,1.98889,-8.96828,11.24916,0.17403,1.64272,-19.46446,2.6118,-31.67777,19.6635,0.8459,-28.48867,16.90349,-2.99274,-19.46508,-0.45863,-1.06728,-30.96575,10.52632,-4.58017,50.17192,-7.31688,-1.29417,0.8354,2.76905,0.4421,0.66652,-6.44573,-0.64798,2.52247,-0.99327,0.00233,2.53776,-1.25843,-1.94007,0.30766,-0.06855,-0.04557,0.42291,-0.2067,-0.41437
1186,2.37898,-11.50245,1.86371,-7.78052,10.54328,0.41472,3.65468,-21.42554,1.37358,-23.89394,18.65391,2.5141,-28.26159,16.78663,-2.99884,-18.77759,-0.63818,-1.00229,-15.37814,13.92329,-3.03064,46.69895,-28.05506,9.17777,-0.43765,4.44923,1.23167,-0.02304,-3.61477,-0.53171,2.01817,-0.76807,0.59892,2.26848,-0.54986,-0.8708,0.21396,-0.05298,0.01653,0.34122,-0.13303,-0.25961
1187,2.36374,-11.55892,1.98309,-6.17708,10.70348,0.71179,6.18297,-21.87201,2.01608,-17.71171,19.85504,4.14812,-27.93198,16.74531,-2.9763,-18.31117,-0.93887,-0.91717,-2.13619,18.50529,0.68043,40.03188,-31.36705,11.43329,3.47309,4.22063,0.62986,1.37469,-0.1972,0.88965,2.65295,-0.95597,1.41348,2.25599,0.42161,0.93226,0.23612,-0.06089,0.14025,0.17278,-0.00529,0.09519
1188,2.8887,-11.56445,2.27783,-4.59778,11.65661,1.04344,5.58174,-19.77623,4.07089,-15.03992,23.31424,5.58422,-27.42063,16.59971,-2.85599,-18.03197,-1.2616,-0.79738,-1.41478,23.49824,3.06012,36.89616,-17.42456,4.43918,7.36188,2.84007,-0.35133,3.54279,0.83687,2.10205,3.29375,-1.27467,1.70077,2.49451,0.80822,1.61971,0.30291,-0.10479,0.19281,0.10712,0.07374,0.26474
1189,3.64801,-12.0464,2.6217,-4.15002,12.56542,1.27815,3.6929,-18.53155,5.50498,-17.08708,25.54636,6.26834,-26.89015,16.33926,-2.6869,-17.5253,-1.51747,-0.67387,-9.88986,25.01363,2.72985,31.63183,-2.78742,-3.70723,7.2601,1.98083,-0.97114,4.48302,-0.5743,2.37632,3.15827,-1.41199,1.0351,2.57546,0.55737,1.07611,0.30751,-0.13883,0.07785,0.16942,0.07697,0.2106
1190,4.32966,-12.75048,2.80434,-4.56873,12.71685,1.30508,3.19354,-20.11672,5.52841,-23.0531,25.00175,5.45883,-26.48311,16.05849,-2.54055,-16.69873,-1.74523,-0.61717,-19.44225,21.0406,0.52894,19.64305,3.37071,-9.0233,5.25584,1.8849,-1.11766,3.17558,-3.1655,1.78473,2.75427,-1.34916,0.23802,2.2928,-0.09124,0.14961,0.29266,-0.13628,-0.05798,0.23918,0.00355,0.09893
1191,4.9447,-13.32932,2.86159,-4.40483,12.64132,1.21438,2.91462,-23.37476,5.2948,-29.59678,25.46879,3.91171,-26.12615,15.71621,-2.411,-15.91255,-1.9324,-0.61922,-27.44299,15.28579,-1.50846,12.95385,2.62794,-12.02299,4.44815,1.72377,-0.94711,0.67161,-5.2687,0.56527,2.70844,-1.24302,0.08291,2.05424,-0.79416,-0.62471,0.35306,-0.12694,-0.05784,0.2704,-0.11745,-0.02879
1192,5.66499,-14.04558,2.99935,-2.77896,12.62137,1.24557,1.55615,-25.62547,5.33713,-32.58736,28.06731,3.09365,-25.7501,15.24271,-2.25272,-15.2494,-1.94669,-0.60291,-32.08723,12.59182,-2.50999,21.36819,-1.91152,-10.39154,4.46362,0.91987,-0.95301,0.02318,-5.53407,-0.18036,2.61463,-1.11283,0.03154,2.59293,-0.98299,-0.82953,0.38125,-0.1106,-0.01527,0.33987,-0.16773,-0.09594
1193,6.71226,-15.14308,3.23924,-0.28274,11.673,1.47393,0.64271,-25.31858,5.07898,-30.28059,27.71346,3.02221,-25.36597,14.66901,-2.05902,-14.47055,-1.77974,-0.55737,-30.17802,11.30855,-3.57835,32.94123,-8.02395,-2.05511,3.98268,0.24954,-1.22746,2.30903,-4.0819,0.59123,2.1415,-0.96248,-0.32126,3.51711,-0.43108,-0.23144,0.2591,-0.07221,-0.03725,0.41085,-0.06537,0.01966
1194,7.73947,-15.85549,3.31068,1.69433,10.08915,1.7546,0.49285,-22.19256,4.22041,-25.6458,23.108,3.08502,-24.92796,14.05139,-1.86605,-13.50018,-1.59252,-0.51217,-25.38941,8.74825,-5.0768,35.93173,-14.10464,7.77752,3.08532,0.99941,-1.07126,4.15439,-2.54411,1.67359,1.95036,-0.96504,-0.38122,3.40314,0.12331,0.41838,0.13015,-0.04819,-0.05422,0.34811,0.04562,0.15918
1195,8.09713,-15.25741,3.00194,2.39688,10.35493,2.00585,-1.3565,-16.27221,2.85823,-24.6771,21.28913,3.85676,-24.35476,13.44003,-1.68445,-12.35519,-1.41818,-0.41705,-28.32997,11.16317,-5.33216,38.83913,-19.33311,11.42586,2.03858,2.87786,-0.0846,2.5951,-2.22944,1.07711,2.37455,-1.13807,0.18696,2.14173,-0.1252,0.16376,0.14094,-0.06711,0.00711,0.21949,-0.03391,0.05345
1196,8.19421,-13.90655,2.50841,2.16973,13.01328,2.16225,-4.47101,-9.564,1.5036,-30.38068,25.59279,5.01208,-23.63416,12.85915,-1.484,-10.98942,-1.1549,-0.2653,-41.17201,22.8127,-3.93675,46.99372,-21.88836,9.28023,1.08779,4.22164,1.10686,-0.02886,-2.50125,-0.48688,2.68422,-1.20509,0.97761,1.3635,-0.72068,-0.51203,0.18718,-0.0939,0.12115,0.22671,-0.2185,-0.18365
1197,9.27251,-13.62897,2.33098,2.41078,15.04997,2.10562,-3.4685,-7.99977,1.57111,-36.97005,29.02686,4.36998,-22.79871,12.21934,-1.27695,-9.41429,-0.81507,-0.20598,-48.38862,30.11432,-2.60609,47.18927,-18.47805,7.56318,1.49387,4.10694,1.40569,0.73585,-2.04908,-0.27036,2.3582,-1.00811,1.48784,2.217,-0.52579,-0.22553,0.14508,-0.08448,0.1958,0.39515,-0.22722,-0.17168
1198,11.52797,-15.48423,2.80775,4.10306,14.34196,1.89616,3.51133,-16.36329,4.12715,-36.19406,26.16715,1.74129,-21.86542,11.4225,-1.11929,-7.75662,-0.4966,-0.30448,-37.56295,17.62699,-1.20756,35.52541,-7.34553,7.11957,3.83978,3.19911,0.53894,4.53124,-1.20044,2.13247,1.91754,-0.77941,1.5247,3.67496,0.49595,1.0412,0.10222,-0.05685,0.16911,0.4856,-0.00884,0.12699
1199,13.50534,-18.50995,3.72363,6.2301,12.78132,1.77721,8.97771,-29.84376,7.738,-28.70633,22.04208,0.16392,-20.87092,10.54669,-1.03216,-6.16024,-0.20229,-0.37435,-21.11716,-6.06505,1.02579,29.62697,6.12818,4.26173,5.46096,2.46658,-0.32613,6.83507,-0.9785,3.96542,1.95036,-0.8115,1.167,4.15296,1.23738,1.90368,0.17463,-0.06796,0.09835,0.36283,0.18656,0.35294
1200,13.77148,-20.51437,4.33216,7.46213,13.06081,1.93488,6.01402,-36.35121,8.92143,-20.83384,21.8781,1.10679,-19.90009,9.77709,-0.98909,-4.6713,0.13675,-0.22428,-16.17163,-18.71787,0.12373,36.37762,11.63819,-0.76851,4.07282,1.69706,-0.15036,5.64239,-0.63707,3.48892,2.2669,-1.0645,0.67893,3.54758,1.21024,1.89726,0.2953,-0.12396,0.06459,0.19016,0.19451,0.34646
1201,12.68643,-20.13984,4.03932,7.95858,14.85248,2.28094,-0.38743,-29.99812,6.07212,-17.24288,23.52269,2.46321,-18.99459,9.19256,-0.94513,-3.2499,0.5482,0.09255,-20.23896,-10.47172,-6.25551,39.4296,4.66428,-3.77613,2.41947,0.1436,0.26223,3.50908,0.57837,2.10569,2.41764,-1.26882,0.30828,2.84126,0.88665,1.73939,0.33279,-0.16513,0.04927,0.14398,0.09034,0.28641
1202,11.77315,-18.39518,3.23883,8.09511,16.06869,2.4409,-1.27397,-17.7254,2.06587,-21.05417,25.12694,2.43914,-18.08045,8.69053,-0.87062,-1.87389,0.96578,0.36233,-25.52601,11.41493,-11.40954,30.67809,-8.52979,-1.15633,3.13531,-1.38131,-0.21,3.44536,1.00031,1.76916,2.35177,-1.26766,-0.03026,2.85889,0.56777,1.6893,0.26848,-0.13732,0.0028,0.24959,-0.01137,0.2931
1203,11.70389,-17.45209,2.88327,7.70116,16.14699,2.20919,3.10435,-11.01526,0.88231,-30.15297,28.62978,2.05696,-17.10548,8.15582,-0.78038,-0.581,1.2792,0.45157,-31.48566,31.15013,-8.90846,23.07921,-16.67074,6.30181,3.68598,-0.96817,-0.84174,5.16359,-1.14746,2.41771,2.27174,-1.10845,-0.39915,3.5042,0.16187,1.30342,0.16732,-0.04771,-0.0395,0.4248,-0.06459,0.30205
1204,12.26743,-18.37809,3.30379,6.96672,15.88496,1.80988,7.76699,-15.94625,3.16925,-35.28566,32.96511,2.72377,-16.16199,7.59309,-0.70829,0.54098,1.42047,0.3791,-32.97556,33.03589,-1.59459,27.3215,-14.58035,12.42381,2.26294,1.53966,-0.29689,6.50844,-4.17048,2.83643,2.39728,-0.97205,-0.20293,4.13574,-0.13498,0.6136,0.11565,0.02099,0.0255,0.55763,-0.04474,0.25915
1205,12.7986,-19.95506,3.92009,6.40384,15.58339,1.53983,9.5691,-27.59143,6.46479,-32.13015,33.8558,3.73337,-15.40092,7.05935,-0.66155,1.4123,1.42323,0.24895,-27.22118,16.56555,3.52785,39.74209,-8.14495,12.27861,1.48319,4.09451,1.17585,6.88252,-4.51712,2.63966,2.90221,-1.08657,0.93974,4.33374,0.02172,0.26869,0.19085,-0.02322,0.20934,0.56225,0.02562,0.17474
1206,12.58029,-20.25245,4.02579,6.35915,15.54638,1.55368,7.43384,-33.68362,7.8563,-27.87009,31.50822,3.85208,-14.88085,6.59023,-0.64086,2.10723,1.45563,0.22746,-24.40698,1.24692,3.31184,49.40659,-5.77656,8.29316,2.97636,5.088,2.08743,6.86379,-1.75978,2.31956,3.49752,-1.40669,2.11409,4.01864,0.43924,0.5511,0.33557,-0.14361,0.34487,0.42253,0.05427,0.08402
1207,11.77323,-19.36219,3.60539,6.45371,16.23601,1.75206,3.79753,-28.96525,6.39721,-30.21531,29.76663,2.8012,-14.54,6.20395,-0.67657,2.75705,1.62562,0.3851,-31.49977,2.525,-0.75548,47.44842,-10.02543,6.14382,5.04138,4.87315,1.60471,5.83592,0.53293,2.02193,3.65076,-1.57523,2.20064,3.31698,0.5663,0.99754,0.39708,-0.19926,0.27808,0.22389,-0.00184,0.04952
1208,11.16464,-19.12404,3.27269,6.36623,16.99512,1.84487,2.43494,-21.46301,4.01034,-35.3574,28.75571,0.9342,-14.28671,5.90462,-0.79221,3.36765,1.80501,0.55305,-38.80653,12.17186,-5.5813,36.39236,-18.11864,7.3117,5.84697,3.82153,0.04603,3.69942,-0.99004,1.44024,3.41549,-1.44568,0.95471,2.84498,0.11914,0.83895,0.3732,-0.12914,0.01639,0.17576,-0.09514,0.06293
1209,11.19296,-20.25667,3.32939,6.6152,16.73148,1.7803,5.6534,-20.07052,2.67319,-33.94036,25.75678,-0.46821,-14.11344,5.72237,-0.95967,3.90431,1.87369,0.54992,-31.22121,14.88528,-7.98601,28.44283,-22.20264,7.0832,5.66724,0.68484,-2.00018,2.54211,-4.78885,0.84803,3.28849,-1.30523,-1.16846,3.09107,-0.46156,0.10137,0.4218,-0.02828,-0.30527,0.37152,-0.13615,0.07711
1210,11.6481,-21.13686,3.29823,6.99338,16.03879,1.75064,12.46871,-23.11977,1.9783,-27.32745,22.96475,0.52445,-14.08262,5.72778,-1.10128,4.32064,1.92192,0.41471,-12.30163,11.9909,-5.68737,31.6834,-14.738,0.77794,6.11852,-4.42504,-3.6974,3.71858,-5.6465,1.00661,3.43567,-1.44214,-2.86118,3.75837,-0.31282,-0.10128,0.57883,-0.02712,-0.44074,0.61556,-0.05679,0.11609
1211,11.55401,-20.24714,2.93264,6.09741,16.03164,1.65558,14.74725,-24.71077,1.81791,-26.62507,25.27849,3.50379,-14.19946,5.90659,-1.15962,4.51611,2.01877,0.24132,-8.17483,13.09691,-0.08006,42.13298,-1.50859,-6.85975,7.25508,-7.36679,-3.78488,6.72609,-1.87933,2.04699,3.72716,-1.8168,-2.70555,4.63542,0.64451,0.70093,0.68705,-0.13516,-0.24573,0.72868,0.07772,0.14979
1212,10.15246,-18.69665,2.8638,4.18208,16.17222,1.27973,4.93125,-24.68774,3.85023,-33.48096,31.12868,5.31143,-14.37069,6.10601,-1.17238,4.51486,2.12072,0.06129,-30.64459,16.67762,3.73255,49.47884,3.23303,-6.03222,6.86594,-4.29382,-1.5404,10.07084,2.06894,3.13763,3.91999,-2.06722,-0.64327,5.51183,1.43273,1.45322,0.61229,-0.23972,0.1373,0.7051,0.13813,0.10898
1213,8.45955,-18.27902,3.34342,3.98948,15.41835,0.89853,-8.9356,-25.18247,7.33169,-36.13925,33.35973,4.20869,-14.52108,6.23582,-1.21654,4.56332,2.2597,-0.05676,-52.92999,14.75898,2.31744,50.85711,-3.12921,1.57015,4.11465,1.8793,1.55608,10.99596,1.74782,3.1131,3.58499,-1.84649,1.59581,5.64923,1.29556,1.19166,0.38155,-0.24162,0.37551,0.59788,0.10811,0.04302
1214,7.81063,-18.67905,3.63061,6.40255,14.15969,0.90833,-11.81413,-24.59883,8.35731,-29.28154,29.15756,1.83254,-14.72235,6.42016,-1.31909,4.82789,2.49837,-0.06078,-48.51975,8.51169,-2.27712,51.3194,-9.87251,4.66421,1.9921,4.36111,2.52829,8.09351,-1.75379,1.78327,2.99896,-1.44396,1.92886,4.86693,0.58907,0.40225,0.19098,-0.15946,0.20967,0.48793,0.04675,0.03998
1215,8.1856,-19.06846,3.3601,7.93052,13.62048,1.08353,-2.60793,-21.74895,5.70408,-24.60381,23.70137,0.2083,-15.07658,6.80794,-1.45285,5.11447,2.74301,-0.02853,-31.20205,5.63407,-5.38558,49.53495,-9.45682,0.77403,3.54606,1.9564,0.63993,3.91278,-4.58038,0.2245,3.02577,-1.37682,0.40869,4.02047,0.00038,-0.06714,0.19199,-0.06187,-0.22915,0.42244,-0.02959,0.05902
1216,8.59193,-19.32611,3.02179,5.92922,13.75423,0.93219,6.58945,-18.89143,2.5194,-31.94162,21.91865,-0.60601,-15.54342,7.37752,-1.55843,5.133,2.83015,-0.0752,-28.56216,7.69281,-5.39726,41.2966,-5.24703,-2.54933,7.52233,-0.12414,-1.42134,2.1,-5.04953,-0.60556,3.7596,-1.5673,-0.75653,3.80283,-0.26218,-0.27073,0.31773,0.00569,-0.49093,0.399,-0.10728,0.00289
1217,8.00187,-19.34807,3.02961,3.14196,14.28443,0.68878,7.1718,-19.52856,1.62019,-41.49677,24.4677,-0.10368,-16.02184,7.95397,-1.6136,4.88979,2.79155,-0.14119,-38.65194,10.54695,-3.41843,31.12265,-3.94545,-1.99391,9.30969,0.97888,-1.25749,3.03335,-3.99199,-0.6518,4.11627,-1.55003,-0.26905,3.88996,-0.22197,-0.48372,0.3786,0.01524,-0.33169,0.41372,-0.12399,-0.09961
1218,6.86655,-18.92148,3.16418,2.84433,15.57991,0.86978,1.78086,-24.37885,2.76897,-41.14193,28.88066,1.92745,-16.43501,8.36947,-1.62114,4.56085,2.75954,-0.10276,-44.12731,9.9742,-1.00664,25.46432,-5.3927,-1.82168,6.49197,2.4758,0.36012,3.5757,-2.90786,-0.46964,3.37887,-1.26212,0.80394,3.44705,-0.02122,-0.51859,0.32162,-0.04171,0.0422,0.42324,-0.0733,-0.13117
1219,6.43501,-18.1413,3.16811,4.03025,17.26062,1.2938,-3.29351,-29.77626,4.7926,-35.91673,31.64209,3.13718,-16.72904,8.59971,-1.56904,4.28211,2.74718,0.01743,-45.06062,5.33527,0.68292,26.29781,-6.86699,-3.14935,2.13078,1.82636,1.29899,1.85309,-2.65528,-0.55301,2.28094,-1.01503,1.07308,2.59215,0.07951,-0.22782,0.27103,-0.12024,0.291,0.41221,-0.03717,-0.05998
1220,7.31056,-17.54588,3.10606,4.80694,17.98044,1.43549,-3.22396,-30.30675,6.71882,-33.27217,31.31383,1.98857,-16.89749,8.72538,-1.4807,4.16946,2.67568,0.07692,-43.00849,2.86077,0.64156,32.6278,-10.67196,-0.52426,0.58593,0.09784,0.8253,0.6715,-2.95768,-0.54748,1.74315,-0.89601,0.52316,2.46039,0.11645,0.16697,0.27729,-0.13888,0.28429,0.42749,-0.02537,0.06768
1221,8.75294,-17.35394,3.00054,5.41623,17.27313,1.26167,3.37629,-25.14847,7.22023,-29.90563,29.97226,0.8602,-17.00639,8.8369,-1.4277,4.1954,2.50094,-0.01913,-29.17245,8.21342,-0.73912,40.59179,-15.26987,7.13572,2.15893,-0.96216,-0.17897,3.41625,-2.87767,0.23435,1.93354,-0.88837,-0.1108,3.23445,0.32836,0.32543,0.29852,-0.09333,0.12298,0.42135,0.02862,0.17008
1222,9.06028,-17.54431,2.94708,5.96485,16.51208,1.19296,10.05936,-21.1624,5.95951,-25.98394,30.58687,2.3439,-17.10677,8.97521,-1.44062,4.12404,2.32013,-0.1697,-13.31808,15.23922,-0.48503,47.49332,-12.56502,12.28537,3.6671,-0.85776,-0.47592,8.51985,-1.95047,1.38437,2.57574,-1.09187,-0.31653,3.96821,0.61951,0.08382,0.32531,-0.07009,-0.00907,0.3655,0.08853,0.11507
1223,7.53363,-17.96997,3.1078,5.52254,16.74708,1.38518,7.75955,-22.62461,4.17634,-29.27474,31.817,4.41202,-17.1687,9.11274,-1.46228,3.76201,2.27829,-0.21432,-20.35706,14.03732,0.88408,53.4375,-3.0056,9.97957,3.30861,0.28496,0.29692,11.2146,-0.78692,1.75305,3.28322,-1.44734,-0.01109,4.2376,0.68967,-0.32795,0.36417,-0.10943,0.00337,0.40583,0.05969,-0.11276
1224,5.56938,-17.68252,3.17891,4.03958,17.25934,1.54738,-0.96876,-24.3083,2.74388,-39.11025,30.14222,3.65379,-17.16394,9.21084,-1.41317,3.19106,2.38015,-0.15393,-45.86237,6.8597,-1.00334,54.49849,2.57145,4.59656,3.28075,1.66883,1.25494,9.55683,-0.57931,0.87872,3.73759,-1.71924,0.59791,4.16128,0.45906,-0.68205,0.38071,-0.16396,0.12674,0.55663,-0.04004,-0.35325
1225,5.13688,-16.91478,3.00749,2.98642,17.82273,1.61242,-3.22306,-24.41975,2.29151,-43.82074,28.55351,1.86122,-17.12223,9.18607,-1.31696,2.68171,2.51904,-0.05055,-55.4861,2.91327,-3.16177,46.79786,-0.925,1.74556,5.82859,1.67495,1.17081,6.22867,-1.90127,-0.51833,3.71767,-1.77397,1.01595,3.9649,0.26284,-0.88443,0.31879,-0.18191,0.22551,0.63424,-0.07113,-0.39289
1226,6.77694,-16.87488,2.88303,3.47287,18.29399,1.63915,5.02173,-26.42927,3.59831,-37.67932,30.45594,1.80838,-17.0643,8.97442,-1.23461,2.313,2.48661,-0.01372,-36.70513,3.17438,-0.83056,35.97926,-4.09038,0.63496,8.58953,-0.56041,-0.28692,4.5795,-3.26604,-0.99869,3.29675,-1.68133,0.53941,3.70879,0.4977,-0.56885,0.22909,-0.16112,0.15496,0.51828,0.041,-0.14309
1227,9.13603,-17.82982,3.05215,4.67383,18.19674,1.55881,13.54425,-29.73446,6.18217,-28.41536,33.496,2.61205,-16.98882,8.64985,-1.1707,1.91829,2.21906,-0.11773,-14.36792,3.85684,2.9715,29.86657,2.73533,-1.01397,7.93123,-2.91698,-1.80044,5.68601,-2.49516,0.07838,2.94757,-1.53988,-0.64037,3.24569,0.87773,0.13143,0.24829,-0.12605,-0.07704,0.27025,0.15514,0.15643
1228,10.10862,-18.69875,3.36866,4.96466,18.3653,1.55065,12.99966,-28.79194,7.5033,-26.02392,36.16076,3.77856,-16.92326,8.43301,-1.08421,1.44165,2.02679,-0.21958,-13.08882,9.86206,4.20288,27.80555,10.99384,-0.10338,4.87621,-1.93248,-1.37051,7.87313,0.53455,1.79979,3.13319,-1.37628,-1.03985,2.74258,0.88118,0.6055,0.40317,-0.09347,-0.23951,0.11962,0.12526,0.2268
1229,8.96022,-18.16375,3.44586,4.39446,19.59273,1.88452,4.19316,-20.53777,5.8131,-30.84118,39.38718,6.43865,-16.89865,8.49159,-0.93962,1.00969,2.14809,-0.18726,-31.51708,25.87859,3.16529,29.29726,6.26352,4.56682,2.95315,1.83199,0.83329,7.20952,2.31233,1.84175,3.60385,-1.18503,-0.08189,2.25717,0.42375,0.25311,0.54117,-0.06185,-0.16422,0.16304,0.00126,0.03219
1230,7.08272,-17.09591,3.40595,3.91547,20.52658,2.32246,-5.33689,-12.83895,3.38042,-36.86242,40.73487,9.02869,-16.92398,8.68468,-0.79929,0.64776,2.38454,-0.1103,-52.20304,37.35717,2.09814,41.4659,-7.5875,5.85513,3.27031,3.54966,1.9308,2.67332,-0.73113,-1.14964,3.67474,-1.02887,0.69126,1.90826,-0.11997,-1.03054,0.53377,-0.03618,0.01391,0.27309,-0.07339,-0.26951
1231,6.40711,-17.90026,3.8036,2.82582,19.82368,2.35402,-7.47004,-17.83772,3.62806,-41.55044,36.61283,7.89754,-16.97912,8.72562,-0.74935,0.1714,2.49647,-0.05903,-60.16172,25.63823,2.6364,60.48585,-16.26416,0.10703,4.71981,1.05672,0.33613,-0.81078,-5.82268,-4.32933,3.31028,-1.04672,0.05559,2.15551,-0.2148,-1.93761,0.4598,-0.04416,0.07085,0.3116,-0.05107,-0.39596
1232,7.7297,-19.91604,4.30355,0.87919,18.06486,1.9425,0.04736,-31.49983,5.6276,-43.44559,27.92759,2.5605,-16.99696,8.6035,-0.71458,-0.52893,2.49647,-0.00544,-50.00344,-1.11806,2.38606,65.84997,-16.62462,-7.07644,5.93174,-2.14355,-1.65232,1.39897,-7.3924,-4.24247,2.9707,-1.21323,-0.8722,3.28146,0.21351,-1.47592,0.42005,-0.09536,0.00348,0.31466,7e-05,-0.25578
1233,9.71576,-20.24858,4.14474,0.42228,17.19704,1.69823,9.30453,-37.75257,6.14177,-37.93225,21.7543,-1.94149,-16.96119,8.51766,-0.60127,-1.32379,2.47445,0.03823,-28.81288,-15.83591,-1.25287,50.49126,-13.48539,-12.09097,6.4381,-2.61561,-1.32719,6.24092,-4.67909,-1.63082,2.73908,-1.29937,-0.43255,4.51665,0.76004,-0.27549,0.34571,-0.14453,-0.00406,0.38046,0.03428,-0.03477
1234,10.28871,-18.82559,3.64564,2.26625,18.19203,1.94007,10.61378,-32.46848,5.10727,-27.02149,23.83371,-1.29359,-16.94818,8.54118,-0.47779,-2.06152,2.3887,-0.0198,-14.20824,-8.19914,-5.65755,32.10539,-8.19939,-15.15052,6.62693,-1.06099,0.62898,7.71195,-1.0696,0.77805,2.64223,-1.26883,0.95152,4.49661,0.95737,0.70668,0.21714,-0.15518,0.10867,0.41304,0.02947,0.07409
1235,9.33818,-18.09799,3.68242,3.60262,19.52636,2.14991,5.24353,-25.95862,4.91694,-22.15977,30.48277,1.95241,-16.98566,8.58239,-0.43265,-2.70768,2.13493,-0.22644,-17.32072,6.11514,-6.58031,25.56854,-4.37586,-9.67529,6.13084,1.34942,2.37325,6.62768,1.37299,2.46852,2.99001,-1.32641,1.72762,3.21096,0.70264,1.36089,0.19276,-0.15025,0.2094,0.26386,-0.04091,0.11345
