PaulMeinheit/Bachelor_Muay_Thai/processed_Data/N3/teep/sliced/JointMoments/sliced1.csv
Unnamed: 0_level_0,R_KNEE_MOMENT,R_KNEE_MOMENT,R_KNEE_MOMENT,L_KNEE_MOMENT,L_KNEE_MOMENT,L_KNEE_MOMENT,R_HIP_MOMENT,R_HIP_MOMENT,R_HIP_MOMENT,L_HIP_MOMENT,L_HIP_MOMENT,L_HIP_MOMENT,R_ANKLE_MOMENT,R_ANKLE_MOMENT,R_ANKLE_MOMENT,L_ANKLE_MOMENT,L_ANKLE_MOMENT,L_ANKLE_MOMENT,WAIST_JOINT_MOMENT,WAIST_JOINT_MOMENT,WAIST_JOINT_MOMENT,NECK_MOMENT,NECK_MOMENT,NECK_MOMENT,L_SHOULDER_MOMENT,L_SHOULDER_MOMENT,L_SHOULDER_MOMENT,R_SHOULDER_MOMENT,R_SHOULDER_MOMENT,R_SHOULDER_MOMENT,L_ELBOW_MOMENT,L_ELBOW_MOMENT,L_ELBOW_MOMENT,R_ELBOW_MOMENT,R_ELBOW_MOMENT,R_ELBOW_MOMENT,L_WRIST_MOMENT,L_WRIST_MOMENT,L_WRIST_MOMENT,R_WRIST_MOMENT,R_WRIST_MOMENT,R_WRIST_MOMENT
ITEM,X,Y,Z,X,Y,Z,X,Y,Z,X,Y,Z,X,Y,Z,X,Y,Z,X,Y,Z,X,Y,Z,X,Y,Z,X,Y,Z,X,Y,Z,X,Y,Z,X,Y,Z,X,Y,Z
415,-6.87172,-2.74175,1.85159,-4.81242,14.88072,2.58609,-8.68912,-21.67679,6.83716,-25.04419,23.20575,4.52402,-37.77763,27.13639,-3.6866,-4.42348,2.29582,0.57463,-36.82019,5.79651,1.34306,35.49725,5.00381,-4.86745,2.13971,-1.88469,-1.48826,1.06671,-4.87549,-0.97656,2.63057,-2.81766,-1.65622,1.98966,0.76553,-1.12844,0.3897,-0.29224,-0.29337,-0.05337,-0.0017,-0.10599
416,-7.01642,-2.61453,1.84564,-3.71015,14.21161,2.59789,-7.01104,-19.97307,6.65606,-18.24624,20.9317,4.1445,-37.65543,26.97156,-3.64478,-4.34239,2.28749,0.62081,-25.34861,7.30067,-0.13092,26.76789,-0.6754,-6.77898,5.29414,-1.03787,-0.65916,0.83346,-4.35995,-1.49857,1.93808,-2.33397,0.47387,1.3711,0.6789,-1.72367,0.14355,-0.19421,0.11633,-0.19699,0.0289,-0.34977
417,-6.86668,-2.93972,1.80102,-3.09724,14.19826,2.76643,-1.34311,-17.93828,4.53469,-14.11684,21.26199,5.61512,-37.48868,27.10728,-3.59632,-4.40511,2.48468,0.65594,-11.55214,12.79221,0.92185,28.12278,-10.67938,-8.27274,9.05599,-0.45289,-0.81021,1.96906,-0.96013,-0.59638,1.41926,-1.89371,1.79272,1.93582,0.96091,-0.73773,0.06518,-0.16115,0.27971,0.08884,0.11875,-0.19619
418,-6.89428,-3.43397,1.93986,-3.52626,14.81781,2.8666,1.00583,-16.06454,3.35924,-16.75518,25.05108,7.24304,-37.26277,27.18623,-3.52994,-4.39709,2.58792,0.67247,-11.21987,20.17648,3.48334,30.35158,-19.70201,-7.02369,9.92366,-0.92359,-1.87061,3.3324,2.38272,1.10461,1.50852,-1.78857,1.0356,3.45745,1.41286,1.22686,0.2104,-0.20627,0.0739,0.61785,0.19073,0.25242
419,-7.1227,-3.55203,2.14314,-5.07351,14.67481,2.5572,-1.95893,-13.23932,4.16678,-26.19093,27.66979,6.49039,-37.08599,26.86815,-3.45371,-4.21957,2.43503,0.64698,-28.1165,26.81176,4.38108,26.24071,-20.20003,-3.34773,6.63577,-1.22709,-2.09771,2.94114,1.84129,1.28479,1.98364,-1.99532,-0.48061,3.9957,1.39314,1.60327,0.39018,-0.2619,-0.18675,0.7304,0.14731,0.33604
420,-6.67761,-2.92629,1.87872,-6.27918,13.76815,2.15749,-3.69723,-10.01489,4.32731,-33.79794,26.28818,4.36974,-37.05704,26.29171,-3.36799,-3.97454,2.30732,0.63247,-42.26132,29.90768,2.10676,25.63125,-8.08072,0.59228,0.47124,0.5606,-0.20112,1.17613,-1.81538,-0.36926,2.17909,-2.14312,-0.88748,2.75347,0.77503,-0.13885,0.36826,-0.23949,-0.15591,0.26178,0.00685,-0.07664
421,-5.82858,-1.98536,1.20305,-5.59295,13.28024,2.20614,-1.45708,-9.83365,2.58903,-30.33337,22.50656,3.68604,-37.08285,25.84367,-3.27882,-3.81781,2.44277,0.67526,-35.6515,25.3297,-1.58823,34.40781,9.87775,2.76263,-4.94985,3.68447,2.51719,0.16789,-3.8337,-1.37903,1.75337,-1.88829,-0.08082,1.50629,0.32419,-1.31979,0.12951,-0.12314,0.10832,-0.12451,-0.07501,-0.34274
422,-6.14167,-2.16381,1.08858,-3.68346,13.04164,2.50969,-0.70592,-15.47662,1.80497,-19.28176,18.01884,4.24716,-36.99715,25.67404,-3.2284,-3.80534,2.62456,0.70695,-18.46032,10.64367,-3.69437,41.18952,18.22061,2.13845,-5.1499,4.50034,3.35295,0.75548,-2.35796,-0.38707,1.22422,-1.51535,0.78562,1.8046,0.5561,-0.3172,-0.06118,-0.02474,0.27375,0.06017,-0.01472,-0.07665
423,-7.44803,-3.80456,1.86077,-2.34973,12.86664,2.69171,-2.79532,-23.21656,3.63891,-12.12489,15.58632,4.58196,-36.78379,25.701,-3.22985,-3.86573,2.629,0.71794,-9.93242,-4.22843,-2.18282,37.26519,6.7668,0.87285,-0.2902,1.87665,1.79401,2.15367,-0.26371,1.09172,1.29391,-1.60833,0.96022,2.7728,0.98313,1.15654,0.00591,-0.06054,0.19747,0.44175,0.07573,0.30871
424,-8.0686,-4.88875,2.46944,-2.45374,13.72303,2.83749,-2.7823,-24.26373,5.24622,-14.70976,18.21873,4.8794,-36.58177,25.78475,-3.24634,-3.92393,2.536,0.78801,-14.18723,-2.37368,1.49455,28.98691,-13.98282,0.80795,3.81898,-0.88831,-0.06218,3.71426,0.15593,1.28216,1.83433,-2.07743,0.47067,3.35176,1.21503,1.09766,0.20666,-0.17886,0.03812,0.57994,0.12491,0.292
425,-7.87713,-4.22932,2.2771,-3.4585,15.16098,2.9351,-0.60763,-17.03254,4.69733,-23.32402,23.23747,5.08783,-36.53203,25.77194,-3.27742,-3.91507,2.39032,0.86185,-25.18363,15.11505,3.22386,23.56206,-22.49339,-0.52076,3.89065,-1.50982,-0.90102,4.77194,0.08369,0.63099,2.20058,-2.30766,-0.35591,3.40017,1.36275,0.18349,0.31596,-0.23648,-0.05834,0.46981,0.16188,0.03312
426,-7.63171,-3.5351,2.01163,-4.21774,14.84293,2.61383,0.08219,-11.24526,4.38069,-29.84265,24.20768,4.00737,-36.58338,25.60878,-3.32052,-3.76264,2.0724,0.76023,-34.38187,26.2134,1.70688,22.98742,-14.3288,-5.05065,2.85368,-1.1002,-1.25946,3.9684,0.16465,-0.07389,2.20189,-2.15045,-1.00547,2.89326,1.41528,-0.40419,0.30853,-0.19912,-0.11143,0.25892,0.19016,-0.12392
427,-7.04376,-4.38196,2.28759,-3.90715,12.6111,2.01597,0.59907,-14.89939,6.07148,-28.03373,21.15181,2.64788,-36.58052,25.46966,-3.31583,-3.52636,1.69952,0.52146,-31.06839,19.54329,0.86673,27.08385,-5.69268,-7.0079,3.18878,-0.58374,-1.33236,1.65996,-0.44348,-0.50746,2.14287,-2.04319,-0.98096,2.0703,1.15711,-0.44302,0.27843,-0.15112,-0.14426,0.07359,0.14475,-0.10234
428,-6.16682,-5.60457,2.62951,-2.64917,11.19022,1.85587,2.89315,-22.92418,7.50817,-19.39859,19.96344,3.59606,-36.55203,25.54544,-3.26453,-3.43744,1.61293,0.4153,-15.20617,9.2594,3.20381,31.31574,-9.7938,-0.07714,2.89848,0.36841,-0.61065,0.51265,-0.89737,-0.07117,2.07193,-2.08199,-0.46465,1.71873,0.73134,0.18048,0.24656,-0.13749,-0.13504,0.04969,0.02707,0.0457
429,-6.43722,-5.44731,2.46108,-1.4832,11.81557,2.28225,2.53916,-25.28213,6.38273,-13.50114,21.64041,6.04096,-36.67727,25.73861,-3.28526,-3.62682,1.84334,0.5345,-6.43703,9.14433,5.08026,32.97512,-20.37837,9.92961,0.15301,1.70105,0.77641,1.28566,-0.36117,0.60337,1.66679,-1.82158,0.02673,2.07242,0.54797,0.75189,0.16332,-0.11744,-0.06605,0.17291,-0.04025,0.11782
430,-7.94158,-4.33523,1.95463,-1.07289,13.20318,2.80922,-2.32742,-21.1079,3.51648,-15.5887,22.15286,7.09599,-37.01355,25.88986,-3.41299,-3.98484,2.12191,0.7261,-15.27028,14.71143,3.03049,33.48809,-20.69868,10.59008,-1.459,2.47896,1.58255,1.95059,-0.19958,0.22231,1.09806,-1.35803,0.48404,2.5511,0.72835,0.32731,0.06023,-0.09046,0.04843,0.28484,0.0142,-0.00757
431,-8.54559,-3.89865,1.6349,-0.99217,13.88728,3.04018,-5.24425,-16.77773,1.29974,-19.36275,19.85911,6.26211,-37.39695,26.02539,-3.51722,-4.28886,2.21919,0.80133,-24.90366,16.70103,-1.01956,30.02875,-7.80027,-0.03719,3.08954,1.41948,0.44875,1.71828,-1.64869,-0.96547,1.13141,-1.47465,0.93797,2.71768,1.0282,-0.81292,0.05989,-0.11816,0.11248,0.28009,0.11103,-0.18658
432,-7.52023,-4.31708,1.73166,-1.016,13.24175,2.80327,-3.56114,-14.69354,1.47774,-19.1869,17.00817,4.78699,-37.58718,26.14791,-3.5113,-4.35002,2.05017,0.67581,-23.6734,15.68317,-3.44387,22.17641,1.82766,-10.46186,10.18859,-1.26576,-1.72299,1.551,-3.59112,-1.7812,1.8249,-2.17548,0.97629,2.53425,1.11094,-1.71571,0.14751,-0.17759,0.08046,0.16774,0.13415,-0.29019
433,-6.67352,-4.72599,2.12442,-1.59231,11.73056,2.19012,-2.61559,-13.91241,4.0086,-17.88912,16.86354,3.70052,-37.55431,26.18012,-3.48751,-4.18928,1.73909,0.44694,-21.52568,16.91001,-2.73683,21.09038,-0.67359,-11.91411,10.08227,-3.07701,-2.23591,1.57867,-3.98649,-1.83835,2.30028,-2.52757,0.3384,2.36762,0.99888,-1.83598,0.1664,-0.16643,0.0466,0.1089,0.10337,-0.33028
434,-7.23662,-4.90236,2.53638,-2.15842,10.46642,1.6344,-4.76258,-14.85143,6.87205,-17.57865,19.68572,3.54825,-37.53416,26.18002,-3.56265,-4.01165,1.54335,0.28958,-23.94818,20.67723,0.02198,29.93399,-4.38544,-7.8447,2.55382,-2.10422,-0.75745,1.32674,-2.31305,-1.22309,2.35074,-2.38112,-0.66642,2.60294,1.06542,-1.01467,0.14933,-0.12267,0.0232,0.25163,0.13171,-0.23837
435,-8.18044,-4.97901,2.6653,-1.68402,10.246,1.58508,-6.16429,-17.11252,7.74349,-16.26568,21.55515,4.07039,-37.69139,26.30591,-3.6883,-4.02207,1.61997,0.30483,-23.3963,22.40023,2.06081,30.48339,-3.0683,-4.25081,-1.65003,0.37269,0.12122,1.47578,0.29194,0.29876,2.44214,-2.34094,-1.27131,2.98743,1.34014,0.67033,0.27357,-0.1793,-0.09943,0.46102,0.19848,0.09811
436,-8.10174,-4.96087,2.44288,-0.75171,11.01784,2.0077,-4.33819,-19.30086,6.38692,-14.8196,19.68416,4.45549,-37.91674,26.56098,-3.74376,-4.28336,1.84495,0.43641,-18.08681,18.1216,2.00345,14.70997,-3.47069,-2.48901,2.35573,1.71958,-0.67331,2.79959,1.9633,2.11433,2.33542,-2.27804,-0.81447,3.07197,1.43031,2.18355,0.46501,-0.29884,-0.26373,0.48938,0.18124,0.45413
437,-7.41483,-4.81452,2.12567,-0.45379,11.92798,2.39531,-1.73435,-20.76753,4.60423,-16.28095,16.75091,4.39418,-38.02952,26.80124,-3.72933,-4.62605,1.93316,0.50946,-16.06173,11.02616,1.38311,6.28153,-6.6865,-2.24934,6.77814,1.1622,-1.22443,3.81894,1.24366,2.47781,1.7096,-1.81965,0.24083,2.76822,1.14994,2.11885,0.45983,-0.31735,-0.24851,0.30499,0.07028,0.44465
438,-7.4035,-4.83184,2.07144,-0.80777,12.22695,2.38926,-1.62203,-21.97713,4.18429,-20.12144,16.59858,4.17537,-37.9893,26.93498,-3.75205,-4.83294,1.82478,0.45439,-21.81218,7.5166,1.77004,23.11489,-6.44398,-3.06851,4.48082,0.03388,-0.28373,2.56035,-1.76392,0.51039,1.25153,-1.47677,0.61997,2.16839,0.7202,0.21873,0.26153,-0.22334,-0.0479,0.06414,-0.02217,0.03978
439,-8.23718,-5.16512,2.30424,-1.11141,11.95169,2.17061,-4.00919,-23.13424,5.14084,-21.73894,18.54427,4.16949,-37.89074,26.98479,-3.85892,-4.86256,1.73563,0.3856,-28.2612,8.28228,2.14922,47.6289,-4.47329,-3.49904,-0.47866,-0.37662,0.813,0.40715,-4.98367,-2.36546,1.68194,-1.87305,0.02182,1.98917,0.6182,-2.19667,0.17561,-0.18608,0.09044,0.01261,0.0083,-0.43352
440,-9.20722,-5.44315,2.51478,-0.86592,11.43768,2.06078,-6.30298,-23.60847,6.11598,-18.21998,19.30817,4.49207,-37.85791,26.98127,-3.99294,-4.77899,1.7809,0.39213,-25.70446,9.77411,1.21928,53.73484,-8.25886,-1.20998,-0.8366,-0.16794,0.73575,0.40773,-5.35294,-3.28771,2.53753,-2.6199,-0.44358,2.6263,0.91974,-2.93843,0.31455,-0.27286,0.0814,0.1892,0.10344,-0.59606
441,-9.64124,-5.20296,2.43685,-0.12849,10.81379,2.05611,-5.85102,-22.71747,6.04621,-12.59725,17.81302,4.65287,-37.93866,26.93433,-4.06877,-4.62432,1.82488,0.40843,-14.78874,10.62601,-0.26632,37.49164,-13.71794,4.01921,3.41266,0.13531,0.13069,3.03191,-1.98195,-1.12958,2.63957,-2.68899,0.23432,3.29741,1.15466,-1.22606,0.39101,-0.31172,0.10912,0.38812,0.12926,-0.34864
442,-9.23513,-4.41466,2.07182,0.60512,10.27471,1.98665,-2.20899,-20.21135,4.97334,-9.4244,15.97849,4.21127,-38.06538,26.8761,-4.05679,-4.45366,1.73413,0.352,-4.04203,12.66369,-1.1568,15.08356,-11.23155,9.06989,6.65064,0.4451,0.08188,6.03799,2.17403,2.08799,1.74544,-1.8853,1.45208,3.40491,1.13876,1.29962,0.18401,-0.1646,0.23599,0.51287,0.09648,0.10286
443,-8.46107,-3.56343,1.67002,0.39737,10.12461,1.82369,1.22792,-16.93468,3.81985,-10.15081,15.41416,3.42588,-38.1328,26.83321,-4.02606,-4.34506,1.56849,0.2656,-1.73166,16.69555,-1.5465,4.79896,-5.7445,11.20395,5.14986,0.36,0.36187,7.40577,3.21716,3.57394,1.16561,-1.41562,1.43735,3.28074,1.20102,2.39063,-0.06136,0.00464,0.23929,0.57642,0.10625,0.45008
444,-8.24063,-3.32591,1.54719,-1.16148,10.34103,1.67388,0.01287,-16.00792,3.84316,-14.12019,15.02327,2.50186,-38.11427,26.81476,-4.07483,-4.26675,1.48294,0.26035,-11.72827,18.60531,-1.56666,12.20656,-6.387,8.3207,1.44236,-0.85247,-0.15022,7.01584,0.43876,2.53321,1.79199,-2.06687,-0.37443,3.22685,1.45255,1.33169,-0.00635,-0.01832,-0.03604,0.51681,0.16134,0.45433
445,-8.93403,-3.95344,1.79871,-2.82931,10.37057,1.57289,-5.45195,-19.52166,5.4397,-18.32694,12.93494,1.14199,-38.07351,26.83512,-4.23526,-4.09564,1.50132,0.34117,-26.52125,14.1017,-1.40611,27.52265,-9.1026,-1.8842,1.9358,-3.16852,-1.92533,5.79288,-2.99885,0.56286,2.67937,-2.89308,-2.12008,3.12011,1.52965,-0.43953,0.26974,-0.17714,-0.38624,0.33403,0.16612,0.19461
446,-10.0375,-4.6357,2.06575,-2.92482,9.62257,1.43101,-10.00076,-22.6768,6.92588,-18.17978,9.81953,-0.38837,-38.07814,26.91509,-4.47036,-3.80165,1.47826,0.37897,-31.16105,8.09697,-2.62352,34.57516,-7.98386,-15.41154,8.13518,-4.89351,-3.49275,4.04471,-4.00208,-0.60937,2.58606,-2.75943,-1.61454,2.71098,1.11666,-1.19379,0.41007,-0.2692,-0.42037,0.14324,0.05988,-0.03013
447,-10.72985,-4.45994,1.91461,-1.69406,8.32279,1.24902,-10.02169,-19.82778,6.2966,-13.37879,8.25574,-0.83713,-38.14663,27.07899,-4.72082,-3.50005,1.35789,0.32431,-21.86669,8.9782,-5.5889,27.11776,-7.08817,-19.42683,11.86683,-2.7496,-2.3248,1.66807,-3.00924,-1.00923,1.4318,-1.66295,0.90491,2.13186,0.51046,-0.95016,0.18943,-0.15102,-0.01402,0.071,-0.06449,-0.12169
448,-10.73828,-4.20556,1.57558,-0.97283,7.47971,1.19805,-6.98148,-16.269,4.60171,-8.31343,9.52764,0.68933,-38.26992,27.30274,-4.94895,-3.29217,1.25775,0.29408,-8.83748,13.84607,-6.72055,15.48,-10.06777,-6.08622,6.15782,4.10461,1.82009,-0.00014,-2.54264,-1.22603,0.22535,-0.55212,3.18676,1.90341,0.37508,-0.72188,-0.1995,0.07836,0.49332,0.14657,-0.05295,-0.15402
449,-10.48703,-5.13748,1.59835,-1.43882,7.51268,1.34167,-4.54983,-21.05128,4.60083,-4.93513,12.68044,3.77797,-38.44812,27.50331,-5.14146,-3.16803,1.19062,0.33987,0.18484,13.86367,-2.5184,12.54233,-10.00205,13.37522,-2.93653,9.86512,5.32242,1.3947,-3.34515,-0.93571,0.2869,-0.67784,3.41314,2.34722,0.89849,-0.81115,-0.25245,0.08543,0.64185,0.29503,0.09315,-0.12446
450,-10.19525,-6.60215,1.84779,-1.90059,7.71182,1.52983,-3.72043,-30.66015,6.0561,-1.91878,15.79288,7.07277,-38.70578,27.67493,-5.30416,-3.09882,1.05288,0.38273,5.88068,10.90298,4.41378,18.81353,-2.72235,20.4124,-5.05817,7.79314,4.36424,5.62624,-3.37145,0.18577,1.85842,-2.27084,1.36797,3.11353,1.47753,-0.77258,0.22029,-0.24674,0.24545,0.42499,0.20664,-0.01965
451,-9.92234,-6.92813,1.69043,-1.56975,7.12021,1.54793,-4.44682,-32.15685,5.79069,-0.67384,15.86172,8.19034,-39.00296,27.89192,-5.49906,-3.04482,0.88646,0.39163,5.07794,13.96406,5.76514,26.63803,-1.32362,13.22503,0.03784,0.20813,0.09716,8.80076,-0.93034,1.52123,3.55583,-3.99113,-1.38234,3.40734,1.46075,-0.18372,0.76576,-0.60924,-0.39765,0.44744,0.16033,0.11762
452,-10.50449,-5.91428,1.07554,-1.21554,5.72219,1.3031,-9.1382,-21.37479,2.88178,-3.87736,11.56757,5.59436,-39.17097,28.13591,-5.82667,-2.93547,0.83078,0.41617,-9.05683,24.52073,-2.45423,31.49463,-14.24994,4.33639,5.0096,-4.38056,-2.38193,8.06129,1.8079,1.81926,3.78929,-4.29852,-2.08949,3.02976,1.02517,0.38494,0.80991,-0.64529,-0.59318,0.33136,0.03432,0.14823
453,-12.72601,-5.13476,0.72886,-1.34256,4.4791,0.9407,-17.7375,-9.42603,0.78439,-7.96567,6.50562,1.32764,-39.09419,28.27664,-6.3199,-2.76314,0.85517,0.46816,-27.91048,34.53487,-12.43908,31.43957,-24.82346,-0.29389,6.95252,-2.77983,-0.76217,5.46002,0.92363,0.45173,2.31439,-2.85533,0.49749,2.66104,0.82153,-0.32313,0.29958,-0.31863,-0.01148,0.1678,-0.00253,-0.08737
454,-15.622,-5.65591,1.01338,-1.30698,3.55889,0.61745,-24.70479,-8.06635,2.45453,-8.12599,3.46329,-1.62245,-38.90204,28.24438,-6.87836,-2.54929,0.74133,0.45297,-35.5155,34.22282,-14.80381,23.55816,-17.40838,-3.33759,9.13108,0.74084,1.63881,4.83412,-2.95696,-1.15625,0.41355,-0.84257,3.96662,2.78999,0.98757,-1.87323,-0.28894,0.09947,0.74158,0.097,0.06407,-0.43126
455,-17.09653,-6.53647,1.26331,-1.07232,2.64231,0.43573,-25.23487,-15.9627,5.68254,-6.71145,1.89976,-2.05496,-38.87244,28.18769,-7.33608,-2.35194,0.4352,0.33183,-31.70045,23.66694,-10.22339,11.87297,-2.52239,-3.59822,12.84431,1.58793,1.44053,7.2499,-4.8795,-0.74769,0.30282,-0.6705,4.89356,3.27732,1.22159,-2.19562,-0.33594,0.14489,0.89178,0.17963,0.11839,-0.49497
456,-16.63319,-6.96571,0.95451,-1.37548,1.59441,0.39476,-20.48808,-24.7227,6.55931,-5.64403,0.5298,-0.48285,-39.15368,28.29157,-7.65381,-2.26952,0.11555,0.18293,-22.87716,12.24678,-5.82644,7.36021,3.61963,2.3893,14.3949,-0.72155,-0.52065,11.88694,-2.28217,2.39485,2.47427,-2.98742,2.78521,4.03472,1.50495,-0.30754,0.22791,-0.30097,0.41347,0.38714,0.1213,-0.09081
457,-15.96553,-7.34801,0.44912,-2.22324,-0.24499,0.24396,-16.29854,-28.34565,4.8166,-1.60511,-2.88017,0.44698,-39.6456,28.53235,-7.97036,-2.25286,-0.11284,0.05994,-10.94886,7.14897,-7.30358,11.95162,1.05752,11.46001,11.54105,-3.18631,-1.38587,17.6654,2.04476,6.59028,4.53844,-5.27976,0.39499,4.96629,1.95369,2.33324,0.78156,-0.75074,-0.07641,0.62859,0.12813,0.55072
458,-16.59659,-7.81289,0.18603,-3.07912,-2.9087,-0.19265,-16.92034,-26.77553,3.35982,4.83668,-8.94815,-1.81549,-40.20406,28.81288,-8.43388,-2.12269,-0.27355,-0.0157,-1.16964,7.99208,-13.98279,16.97882,-6.63283,16.50695,7.53367,-2.59846,0.19267,20.50189,4.1207,8.38951,4.61773,-5.56497,0.44547,5.50151,2.32208,3.38228,0.83253,-0.82101,-0.10965,0.78156,0.16559,0.91061
459,-18.52765,-7.58597,0.01422,-3.39907,-4.7592,-0.61792,-21.84842,-23.96166,3.89129,8.06132,-13.68761,-5.69088,-40.81548,29.17682,-9.0534,-1.82965,-0.37363,-0.00731,-1.04499,11.79058,-19.51605,18.23509,-22.22179,15.49442,5.60385,0.72165,2.83393,15.80704,3.00828,5.54709,3.39021,-4.45088,2.36892,5.08796,2.23972,2.02064,0.50415,-0.59454,0.15391,0.73118,0.19582,0.64186
460,-20.94064,-6.1797,-0.43975,-3.04399,-4.33082,-0.61246,-27.99474,-21.56576,4.79186,6.04656,-12.25634,-6.62519,-41.47046,29.73676,-9.71243,-1.6095,-0.41039,0.07557,-10.03343,19.12093,-19.07547,19.79296,-37.74113,13.25465,4.80271,3.73929,4.13479,7.34993,0.1243,0.34889,2.4153,-3.30407,3.3789,3.90865,1.73832,-0.55584,0.20948,-0.3231,0.30296,0.45306,0.17407,-0.01874
461,-23.40759,-4.42588,-1.11353,-2.60033,-2.98294,-0.28008,-32.95172,-18.02889,3.94912,3.44457,-7.1689,-3.49146,-42.13945,30.46816,-10.34152,-1.71431,-0.47829,0.12353,-18.71339,29.22319,-15.08407,23.29703,-32.52085,12.32374,4.28234,4.47636,2.89539,4.41651,-3.1154,-2.64937,2.14313,-2.47393,2.22227,3.01677,1.37406,-2.60565,0.11686,-0.10773,0.19116,0.19551,0.14401,-0.50373
462,-26.00298,-3.43036,-1.67163,-2.7458,-3.35044,-0.05782,-35.9302,-13.26722,1.80403,2.99578,-6.22484,-0.34187,-42.91612,31.23342,-11.00166,-2.0169,-0.67253,0.06013,-22.3744,35.34902,-13.18545,26.12055,-8.46753,10.47862,6.08613,3.44918,0.1145,8.35863,-5.68283,-2.14678,2.15631,-1.95402,0.46148,3.12524,1.52448,-3.15304,0.08922,0.04828,0.01248,0.23229,0.17975,-0.52939
463,-28.63329,-3.19645,-2.02104,-3.44311,-5.15921,-0.09349,-37.18023,-10.36849,0.41215,-0.13486,-9.62798,-0.14774,-43.94055,32.0412,-11.7577,-2.18517,-0.90512,-0.03668,-27.93965,33.78729,-13.64814,27.86507,3.35511,8.16527,9.83295,2.20143,-2.0452,11.26377,-6.20537,-0.42153,2.5477,-2.28636,-0.37312,3.62196,1.8079,-2.13346,0.11346,0.01731,-0.03563,0.41591,0.21655,-0.23627
464,-30.94665,-2.83942,-2.3414,-4.21031,-6.23558,-0.27753,-37.06023,-11.34365,0.44232,-6.95746,-10.69635,-1.55629,-45.19317,33.11176,-12.54153,-2.14172,-1.02655,-0.07621,-35.47285,30.18597,-13.36063,28.00668,-9.04179,7.51828,11.78428,1.70868,-2.24363,8.86302,-4.00724,0.57745,3.51289,-3.50273,-0.39042,3.73294,1.79441,-0.43353,0.32725,-0.2827,0.012,0.45127,0.16426,0.05772
465,-32.52805,-1.90621,-2.77801,-4.55438,-5.9802,-0.46481,-36.25199,-14.37734,0.70231,-8.0456,-7.70308,-2.29639,-46.57431,34.52376,-13.22519,-2.03624,-1.01746,-0.04891,-32.08844,30.49857,-12.89194,23.67865,-24.55848,10.37572,12.22217,2.14438,-0.32007,6.50682,-0.2297,1.6773,4.32116,-4.70098,0.88285,3.4006,1.52956,0.87766,0.63143,-0.67019,0.17187,0.32424,0.0556,0.2145
466,-33.25659,0.00322,-3.52522,-4.19197,-5.47008,-0.49043,-36.95828,-14.28975,-0.12353,1.02613,-5.9288,-2.33749,-48.12612,36.06764,-13.76835,-1.95826,-0.97693,0.02514,-18.20019,34.23725,-15.84899,19.55506,-30.72585,20.16789,13.56084,3.21278,3.31565,9.51686,2.50234,3.90676,4.52121,-5.64733,4.02427,2.97574,1.26284,1.28882,0.79522,-0.96778,0.5667,0.19339,-0.03314,0.27754
467,-34.09146,3.48686,-4.72618,-3.52555,-5.30905,-0.27093,-40.94977,-7.9813,-1.9514,11.55087,-8.47095,-2.31636,-49.96282,37.59655,-14.27539,-1.88094,-0.97844,0.12199,-10.34524,39.92451,-21.98346,23.38485,-36.69619,35.32722,11.90884,5.18018,7.54534,14.16503,1.87393,5.14929,4.67842,-6.6073,6.54895,3.03534,1.29849,0.81353,0.78368,-1.11674,0.95491,0.19753,-0.04032,0.23593
468,-36.61084,7.64593,-5.98609,-3.75369,-5.39097,-0.01159,-46.3381,-0.37441,-3.52385,13.96843,-12.76764,-2.14052,-52.04553,39.26591,-14.91303,-1.76808,-1.03077,0.17358,-15.09421,44.86726,-26.48278,34.14687,-44.51814,42.94396,3.71749,8.48713,10.50337,13.60772,-1.8637,2.79271,5.00636,-6.85199,5.43135,3.91259,1.79849,-0.06329,0.71445,-1.03029,0.88033,0.37031,0.05146,0.08434
469,-41.21043,10.27113,-6.57515,-5.80441,-5.63052,-0.04226,-50.40227,0.2264,-3.71034,6.03168,-15.31492,-2.23755,-54.14575,41.23363,-15.71209,-1.65231,-1.10635,0.1325,-28.32372,41.83247,-26.0112,48.77464,-40.17765,30.34079,-4.44343,11.0569,10.27472,8.56273,-5.73308,-1.45641,4.73499,-5.51089,1.90248,5.2232,2.59016,-0.45469,0.62092,-0.67772,0.36456,0.61399,0.19668,-0.05644
470,-45.95493,11.12163,-6.45238,-7.91995,-5.86067,-0.29124,-52.28148,-6.20394,-2.34967,-6.77407,-14.83192,-3.21174,-56.03712,43.33795,-16.4569,-1.49242,-1.14957,0.07335,-44.76602,29.51559,-21.45767,64.11246,-19.22299,6.54383,-4.28204,10.2561,7.11845,5.60432,-6.07639,-2.56792,3.50662,-3.50944,-0.08489,6.00225,3.19801,0.43936,0.41833,-0.27926,-0.05345,0.76808,0.32035,-0.04076
471,-48.17012,13.20598,-6.66448,-6.73129,-5.5256,-0.30027,-51.72922,-7.11657,-1.40005,-14.83392,-11.55525,-4.22969,-57.69114,45.22568,-16.868,-1.09169,-1.08065,0.13861,-55.98882,24.82583,-17.75119,66.8119,-4.82954,-1.98687,2.28061,7.47471,3.8841,6.92944,-2.76113,0.77283,2.18733,-2.49354,0.64798,5.31708,3.08873,1.94247,0.14473,-0.06626,-0.14115,0.70406,0.35295,0.11448
472,-47.78569,18.32356,-8.03514,-2.82569,-4.00532,0.07172,-49.68718,8.10215,-4.10576,-14.70494,-7.14108,-4.19514,-59.27941,46.62002,-16.97233,-0.37794,-0.81401,0.39715,-56.67553,45.83847,-21.19486,46.95576,-24.70686,14.59296,7.79981,6.39605,2.75324,7.40136,-0.98879,2.78503,1.67255,-2.64005,2.03628,3.0275,2.05245,1.8251,-0.04103,0.02166,-0.17459,0.36498,0.24041,0.18259
473,-47.39231,24.76321,-10.09667,-0.60543,-2.24525,0.41507,-47.16962,32.27131,-10.46105,-12.5926,-6.15215,-4.25973,-60.92136,47.59706,-16.9831,0.46119,-0.40919,0.6831,-49.92417,79.94977,-31.55607,23.18646,-67.3437,33.52653,9.56401,7.56043,2.87327,3.3722,-5.32277,-1.97757,2.28544,-3.19535,2.13216,0.59564,0.75981,-0.77738,0.01413,0.0342,-0.24325,-0.07416,0.03987,0.01159
474,-48.0324,29.03211,-11.26223,-1.30987,-1.80159,0.40546,-41.47138,41.56917,-13.38329,-16.02712,-10.52611,-6.06524,-62.41203,48.48822,-16.90067,1.25116,-0.06318,0.70156,-41.09621,83.67241,-35.20137,25.29405,-79.13509,25.41489,8.47446,7.60004,1.58405,-1.43549,-12.77969,-10.3047,3.65146,-3.20842,0.14723,0.15168,0.47749,-3.49208,0.29885,-0.07968,-0.19044,-0.2186,-0.06179,-0.20567
475,-47.09634,28.24,-10.29328,-1.52672,-2.35791,0.17758,-28.63009,20.37114,-6.44169,-25.09022,-15.4131,-8.79414,-63.32874,49.31156,-16.604,2.13492,0.15062,0.35808,-31.86191,33.18153,-20.51158,51.31103,-27.81784,-9.55659,4.5467,4.52579,-1.40071,-3.11361,-16.25908,-14.65316,4.29465,-1.94332,-2.97332,1.45124,1.24732,-3.83871,0.49879,-0.19272,-0.04577,-0.02755,0.00366,-0.28494
476,-43.3584,23.73021,-8.07274,1.34752,-1.75822,0.00084,-14.21205,-11.52895,3.89442,-32.93705,-12.66295,-8.89436,-63.35023,49.54412,-16.12757,3.50761,0.40778,-0.07997,-25.91244,-24.29166,0.75994,75.1431,38.31922,-35.0424,-1.06946,1.65065,-1.62191,-2.07214,-13.18549,-12.276,4.03716,-1.01735,-4.42558,2.37179,1.82437,-2.3198,0.58714,-0.33488,0.00633,0.16161,0.1304,-0.32358
477,-39.72853,20.4613,-6.70707,5.68071,1.90867,-0.11949,-10.40373,-18.96419,5.31895,-37.68902,2.33864,-3.84502,-62.33873,48.60689,-15.5207,5.49077,0.90002,-0.2238,-34.67374,-18.58048,8.66249,82.04466,38.32388,-19.02635,-4.68577,3.01055,3.96338,1.07475,-6.41217,-5.39894,3.39339,-2.02389,-1.9106,2.29357,1.75668,-0.59431,0.5595,-0.52862,0.06138,0.21187,0.2102,-0.37246
478,-36.62256,21.5699,-7.20252,9.34835,7.46461,-0.28106,-12.76231,1.18631,-2.40352,-44.21423,22.08643,2.63636,-60.2644,46.5816,-14.51764,7.72436,1.57471,-0.01929,-53.7659,39.32112,3.96651,74.26733,-26.42883,20.08985,-4.03063,6.07909,9.38407,5.41821,-0.80295,1.217,2.19545,-3.16874,2.08893,2.21311,1.78749,0.32366,0.25492,-0.50168,0.24625,0.24007,0.26361,-0.35845
479,-32.19355,24.58935,-8.27214,12.09132,11.12794,-0.40914,-8.57814,17.53624,-7.3916,-56.68296,31.73025,3.59988,-57.30593,43.96935,-12.94363,9.68443,2.28362,0.24516,-68.91098,68.26513,2.25029,60.85097,-71.1693,36.11439,-1.78213,5.47947,7.56347,7.45559,-0.85444,1.46153,1.04361,-2.26419,2.52412,2.41186,2.16287,-0.43676,-0.07678,-0.18697,0.26008,0.27932,0.32124,-0.33567
480,-26.27567,24.67554,-8.09805,14.7629,11.79773,-0.31401,5.08378,12.08913,-4.41015,-72.07629,29.28108,-0.71932,-53.59638,40.72979,-11.14127,11.21489,3.0508,0.38831,-72.59128,38.68336,9.2869,51.85288,-49.55568,17.74158,-1.31535,1.88806,1.65043,5.43783,-6.14274,-5.19451,0.4364,-0.16851,-0.32544,2.19952,2.11125,-2.58507,-0.17689,0.13245,0.03782,0.23186,0.29717,-0.38198
481,-19.34846,21.00582,-6.93695,18.18698,12.98068,-0.02658,25.81034,-0.48565,-0.2914,-82.87887,27.78007,-3.22437,-48.84843,36.38157,-9.48477,12.6547,3.98921,0.53021,-60.09115,-0.67907,19.04,52.82218,-2.23929,-6.6119,-1.29244,0.19171,-1.39308,2.45815,-10.55249,-10.90768,0.5873,0.58913,-2.31592,1.57484,1.45077,-3.86394,-0.06251,0.17296,-0.19568,0.08972,0.15267,-0.36341
482,-10.56552,16.698,-6.42206,22.41203,17.27105,0.20502,52.64068,-6.14631,0.58703,-86.34685,34.32958,-1.3181,-42.64705,31.05544,-7.85172,14.28603,5.03191,0.80283,-31.08423,-15.86164,28.30696,54.88472,20.17131,-16.38568,0.93574,1.14834,-1.86038,0.95883,-10.10306,-10.23908,1.35373,-0.13842,-2.42998,1.04606,0.88952,-2.76605,0.11027,0.07216,-0.35154,-0.07562,-0.02252,-0.17227
483,-0.621,12.68556,-6.3402,27.29871,22.94345,0.25534,80.7851,-10.47028,1.8701,-86.42611,44.20732,1.62526,-35.14843,25.34235,-6.07204,15.94362,5.94396,1.11033,1.56107,-20.43835,39.98404,46.72762,14.58806,-15.4757,3.69995,0.71493,-3.7689,-0.15967,-6.94308,-6.79814,1.97378,-0.30236,-2.74953,0.72913,0.82626,-0.57768,0.21018,0.10873,-0.45704,-0.1741,-0.07542,-0.01384
484,6.09148,8.23157,-5.18777,32.12746,28.00233,0.11243,96.06651,-15.01882,4.59377,-88.35486,54.91303,4.2493,-27.15214,19.55969,-4.2842,17.41853,6.63591,1.3388,12.36471,-16.93462,51.56286,35.26109,-1.97789,-10.56772,2.9929,-2.90876,-6.213,-1.557,-4.51756,-5.78746,1.59898,0.77438,-3.58466,0.66513,1.0633,0.42685,0.19353,0.24238,-0.45424,-0.10552,0.06813,-0.14275
485,8.58744,6.35008,-4.83605,35.95644,32.31774,-0.21444,92.23599,-5.22473,3.47456,-90.53019,66.10231,6.80516,-19.29969,14.26573,-2.60545,18.71334,7.22701,1.51083,-4.79514,12.59134,51.1417,37.6393,-18.96935,-5.238,-1.1932,-6.80862,-5.8705,-1.82474,-3.93694,-7.35067,0.32019,1.84714,-3.51653,1.06552,1.38869,-0.28942,0.09753,0.26657,-0.30826,0.11818,0.29612,-0.44336
486,8.47755,9.05824,-7.59675,39.25941,36.03765,-0.55623,77.29983,18.49658,-1.53713,-84.48731,71.59513,6.81645,-12.16437,10.0999,-1.27986,19.73147,7.83183,1.70255,-25.08586,48.59376,34.19552,53.33411,-19.67101,-9.48533,-3.83456,-7.74928,-4.01437,-0.73762,-4.5701,-8.9812,-0.66989,1.98224,-2.61223,1.71106,1.70131,-1.30713,0.0285,0.16842,-0.15989,0.3275,0.43475,-0.53811
487,5.43667,12.23996,-10.67294,42.81778,39.49912,-0.71704,62.7521,32.27438,-3.92801,-73.10752,67.30001,2.64133,-6.67564,6.90728,-0.56227,20.43304,8.44531,1.96922,-30.83435,47.09315,13.78364,65.83611,7.62365,-28.88164,-1.71109,-5.79985,-4.34089,0.24745,-5.28791,-9.65576,-0.54974,1.5446,-2.24824,2.0172,1.80392,-1.71866,0.03532,0.10251,-0.15788,0.3462,0.41297,-0.39031
488,2.25755,12.98499,-12.19862,46.0925,43.36129,-0.79767,57.79537,31.37989,-3.31063,-74.79173,60.42249,-2.28187,-3.1331,4.4683,-0.32306,21.09963,8.9805,2.28805,-35.21204,20.81601,3.9688,72.20672,40.79255,-49.92904,1.94367,-3.48328,-6.35058,-0.12892,-4.98989,-9.36351,0.10488,1.29934,-2.75129,1.51944,1.30712,-1.70938,0.0369,0.15645,-0.26393,0.13876,0.2327,-0.28862
489,2.21737,11.88344,-13.18805,48.56544,48.09843,-1.05651,60.69226,32.18145,-2.30759,-94.91608,60.93101,-3.61224,-1.0213,2.77647,-0.25373,21.79483,9.43561,2.62173,-55.06878,18.34784,7.16327,76.7403,43.4688,-53.79059,2.74518,-2.61105,-7.01917,-1.88724,-2.92539,-7.4762,0.30567,1.53298,-3.19637,0.29015,0.30229,-1.08232,-0.03019,0.31215,-0.34813,-0.14242,-0.01237,-0.24339
490,3.55605,7.36907,-11.28945,50.74767,52.24089,-1.30814,67.66081,30.39333,2.25781,-111.91922,63.44363,-3.31654,2.59848,-0.47094,0.1886,22.14374,9.88172,2.93739,-69.90405,26.32043,17.70506,67.50993,9.48713,-37.29414,1.40397,-2.91535,-6.21727,-3.31735,0.28206,-3.80447,0.13257,1.94389,-3.16247,-0.73163,-0.31772,0.3366,-0.05765,0.47146,-0.39042,-0.249,-0.14193,-0.08327
491,2.57036,4.78017,-8.2161,53.07565,53.49787,-1.13246,64.68572,25.54075,6.64933,-105.07885,56.60787,-5.92194,2.13541,-0.55703,0.31735,21.82441,10.19684,3.13607,-65.10052,17.03781,19.08484,39.20909,-25.48844,-12.8023,0.91992,-3.22689,-5.53871,-2.17774,2.35012,0.609,0.08354,1.96748,-2.78835,-0.35198,0.16128,2.08619,0.00481,0.4833,-0.38615,-0.0173,-0.05451,0.15975
492,0.24033,2.86703,-4.53,54.8292,51.8929,-0.6734,60.02208,10.09222,8.18184,-81.76264,43.23873,-10.69724,2.14798,-0.73632,0.53585,20.97223,10.1043,3.12868,-38.09786,-24.17244,10.96206,11.34969,-15.91002,2.96661,1.7713,-2.96561,-5.24307,1.67931,1.37643,3.82302,0.1618,1.42727,-2.16725,1.40812,1.20459,2.82888,0.04074,0.3031,-0.27343,0.41303,0.13551,0.23368
493,0.94073,1.494,-2.46575,55.80075,49.56721,-0.25531,57.1086,-5.02993,5.42255,-60.55312,33.50306,-13.61419,2.6037,-0.75169,0.64567,20.29072,9.66179,3.06406,-10.83478,-65.92189,-1.3552,2.42369,35.67105,0.69432,2.52267,-2.2581,-4.80265,5.14692,-1.52675,3.97358,0.18025,0.83307,-1.54848,2.9793,1.66282,1.75492,0.01351,0.07629,-0.08132,0.69586,0.25003,0.08026
494,4.00146,1.25139,-3.16184,57.18695,48.63067,0.07383,55.20972,-9.5829,1.74427,-45.86844,34.4367,-11.91009,2.99007,-0.45461,0.5677,20.37355,9.22544,3.21166,6.72944,-76.99166,-10.53391,13.54417,68.86258,-11.80446,2.11128,-1.36733,-3.89858,5.2308,-3.29238,1.32716,-0.15871,0.66862,-1.00444,3.00753,1.31156,0.13022,-0.04547,-0.04882,0.09744,0.64619,0.26403,-0.03938
495,5.39547,3.86336,-7.93584,59.30571,49.50699,0.13885,54.81093,1.10763,1.91577,-37.24656,48.01653,-5.94172,2.92272,0.23868,0.31375,20.86437,8.87375,3.55807,15.64663,-42.55473,-8.1974,33.71392,45.21393,-16.65174,0.74329,-0.56087,-2.34641,2.96362,-2.71719,-1.17636,-0.64703,0.62303,-0.44914,1.93231,0.86243,-0.39499,-0.09961,-0.0911,0.18919,0.37903,0.22563,0.00953
496,3.61058,8.57841,-14.95511,60.47163,49.90527,-0.13568,59.745,17.76121,7.1983,-42.24073,63.35303,-0.24145,2.58805,1.04624,0.05419,20.92987,8.3841,3.79612,12.48332,7.21964,7.26675,47.085,1.49152,-6.47127,-0.3961,0.2043,-0.43073,1.34152,-0.62857,-0.19305,-0.63042,0.19062,-0.00581,1.00514,0.87328,0.58257,-0.11816,-0.11331,0.16074,0.11148,0.15235,0.17392
497,-0.13774,11.56874,-18.07391,59.9021,47.18069,-0.20689,68.09474,23.58404,12.58524,-59.64024,63.93609,0.89223,2.30713,1.33322,0.01561,20.38197,7.68808,3.75498,-4.30289,18.52962,21.13988,45.91632,-11.24345,7.88239,-0.15746,1.05517,0.73357,1.57308,1.83933,4.49602,-0.02939,-0.45494,0.11349,0.76894,1.23268,2.08214,-0.10748,-0.10275,0.05053,-0.06667,0.06144,0.33199
498,-3.96906,10.46988,-14.21825,59.10276,41.2657,0.46565,71.90732,16.175,13.14916,-70.63278,48.01209,-1.76906,2.16009,0.83228,0.17188,19.44758,6.80754,3.52973,-18.8431,-15.4472,18.23186,30.87949,11.38448,9.30518,1.31659,0.97195,0.06127,2.77904,3.25249,8.86734,0.65064,-0.74325,-0.19278,1.05657,1.4736,2.60371,-0.06162,-0.04832,-0.07287,-0.14943,0.00074,0.31563
499,-5.39742,6.90688,-7.50778,60.10328,34.77951,1.68831,66.47449,8.00394,10.19861,-60.09692,29.49282,-4.23858,2.22503,0.04329,0.28506,18.03936,5.71153,3.30676,-11.69809,-51.65726,2.96609,6.06205,47.79983,-5.45415,2.6855,-0.72582,-1.69382,3.4693,2.45524,8.77947,1.18341,-0.65709,-0.71306,1.32799,1.13141,1.44886,0.0656,-0.01527,-0.17305,-0.13995,-0.02762,0.05036
500,-2.61932,4.18601,-3.82998,62.7958,30.62783,2.78797,55.40519,7.58421,8.97823,-34.83193,21.5684,-3.33534,2.62166,-0.32451,0.24577,16.26936,4.57236,3.2368,13.38282,-56.44522,-6.73862,-10.30144,69.73272,-16.55464,2.9746,-1.71533,-1.86002,3.24609,0.13421,5.22488,1.88884,-0.82998,-0.92307,1.2994,0.35627,-0.29594,0.29276,-0.08334,-0.22486,-0.03862,-0.0564,-0.25032
501,1.28299,4.39546,-4.65315,65.58656,28.76818,3.47936,44.07045,12.66984,13.70447,-11.72927,24.62677,0.86874,3.02947,-0.10534,0.15189,14.74007,3.68493,3.31272,33.73691,-32.48193,-0.28245,2.96404,47.03898,-1.1415,2.06899,1.07256,1.60524,3.12835,-1.80792,2.94778,3.07675,-1.66914,-0.41161,1.42101,0.12986,-0.47634,0.53625,-0.239,-0.1753,0.16908,-0.01089,-0.19811
502,0.02463,6.81283,-6.76261,67.81956,27.10319,4.02143,30.42075,16.76288,22.48148,-0.0096,29.84117,4.92026,2.79175,0.26988,0.10613,13.51323,3.11895,3.43938,30.00441,-1.18509,13.73289,36.15367,-12.41541,34.75245,0.24752,6.79081,7.24018,4.26936,-2.51297,4.59406,4.27589,-2.66638,0.57405,2.32888,1.19329,1.68217,0.59249,-0.33173,-0.01807,0.46083,0.23606,0.29402
503,-5.52095,8.51332,-7.02361,70.03613,24.54104,4.70085,11.37044,15.76252,26.2624,3.09684,28.8707,5.18021,1.96005,0.39613,0.13197,11.86914,2.68332,3.54652,5.17177,16.61625,15.48539,55.37,-52.01715,55.46173,-0.98794,10.66328,10.03666,5.62904,-2.1057,7.6464,4.38719,-2.82466,1.14441,3.33703,2.76413,4.35025,0.34832,-0.23473,0.1353,0.6465,0.56792,0.81023
504,-8.48132,8.58395,-5.9756,71.74526,21.01658,5.46992,-2.73257,10.81311,18.22996,5.79841,19.77326,1.53847,1.43739,0.36358,0.25801,9.29407,2.08378,3.48464,-12.03732,10.4216,-2.97278,44.54383,-33.6394,36.53152,0.26352,9.22354,6.74844,5.3471,-1.45634,7.47911,2.85124,-1.92965,0.98079,3.23715,3.10609,4.53818,-0.02954,-0.07031,0.20336,0.54749,0.65711,0.82508
505,-9.60992,8.51776,-4.79638,72.0604,16.85535,6.09425,4.45496,5.50934,3.70846,15.58859,9.77241,-1.75375,1.6875,0.37116,0.46767,6.17404,1.12588,3.10457,9.49654,-12.51091,-26.46079,19.55702,17.51819,-3.57758,3.0428,4.50185,0.71714,4.2141,-2.23799,3.69917,0.44565,-0.86909,0.87213,2.43917,1.60058,1.50251,-0.29754,-0.04406,0.23212,0.29828,0.39915,0.32564
506,-15.40141,7.67027,-2.85179,72.44012,14.25914,6.32067,28.46263,1.44274,-6.02689,34.56536,10.29139,0.06706,2.12686,0.28319,0.52214,3.32018,0.04597,2.63662,63.58551,-29.25411,-36.57707,-0.40607,56.73408,-28.92291,4.45304,1.15039,-2.54432,4.00669,-4.4981,0.49234,-1.32759,-0.40005,1.27872,2.07274,-0.38561,-1.88517,-0.39463,-0.12771,0.27901,0.15473,0.03334,-0.2044
507,-24.74207,4.84415,-0.61897,73.85462,13.80829,6.42893,38.6848,-0.913,-7.56967,48.79197,17.07297,5.16912,1.99701,0.01737,0.14584,0.81303,-0.75362,2.45155,89.92649,-28.5296,-35.31934,-10.12908,66.33746,-27.96258,3.68648,0.90726,-1.94796,4.6774,-6.44169,-0.01765,-1.36762,-0.42181,1.44415,2.40798,-1.08415,-2.54982,-0.32905,-0.15214,0.27382,0.20488,-0.17377,-0.44627
508,-28.18536,3.42716,-0.24117,74.97838,12.45154,7.24582,17.87556,-0.11225,-4.38819,42.39907,12.40325,7.02057,1.47664,-0.078,-0.3201,-1.92853,-1.24315,2.54769,47.64447,-25.48883,-33.26078,-6.82415,52.19174,-13.0705,2.11744,2.42027,0.5001,4.78545,-6.94147,0.09051,0.37036,-0.80503,0.87222,2.69465,-0.25464,-0.49702,-0.08628,-0.1309,0.16117,0.30667,-0.13619,-0.36216
509,-20.92433,5.87701,-1.02462,75.61912,11.14018,8.18791,-10.81572,2.71875,-1.63636,28.51083,0.77027,5.2422,1.30926,0.11518,-0.18608,-5.1513,-1.49893,2.81529,-9.93062,-29.91965,-33.19755,4.25031,30.58177,2.38871,0.95032,4.14398,3.02316,4.09535,-6.6465,-0.40243,2.3983,-1.4943,0.3527,2.38265,0.76434,1.51662,0.17235,-0.17711,0.05884,0.2975,0.03662,-0.0732
510,-11.04962,7.12503,-0.3985,75.77806,11.03428,8.34248,-20.09014,4.26355,-4.3431,30.68935,-1.8358,4.5417,1.57016,0.16495,0.44887,-8.73179,-1.81635,3.00584,-14.34038,-34.90414,-36.25854,5.48635,17.35892,12.97236,1.147,5.35469,3.82279,4.30663,-6.35779,0.87384,3.03199,-1.95704,0.45463,2.21779,0.8552,1.37582,0.24478,-0.2248,0.02519,0.24355,0.15884,0.10769
511,-9.38249,4.05641,0.95129,74.75483,10.54817,7.91473,-18.60523,4.44314,-8.93981,46.29466,8.41302,7.00596,1.67172,-0.07613,0.89466,-12.59241,-2.51936,2.91576,14.14716,-22.64515,-35.38815,-1.79768,17.4605,16.84715,3.13181,5.78214,1.97347,5.53462,-5.69828,4.50297,2.47907,-1.7989,0.60373,2.6104,0.35704,0.05193,0.20651,-0.16824,-0.03468,0.25434,0.17075,0.06729
512,-16.01994,2.79839,1.58105,73.9575,10.88815,6.99922,-29.55178,4.73343,-3.66674,59.08677,27.84375,11.04405,1.36728,-0.12965,1.03977,-16.53274,-3.32373,2.79219,19.78313,16.95165,-14.14075,6.5222,23.50788,13.98796,5.63675,5.75139,-0.7363,5.43644,-4.66604,6.155,2.27366,-1.42574,0.28221,2.53107,0.14398,-0.27207,0.26873,-0.08707,-0.1382,0.22446,0.14497,0.06497
513,-22.97374,4.21277,1.92464,73.6808,11.22459,6.5397,-52.64663,4.16828,5.33746,59.68479,38.54677,12.909,0.88678,0.15343,0.95425,-20.41447,-3.92908,2.78598,-7.78885,49.95567,12.82655,32.17654,20.13068,9.7445,6.29717,5.69772,-1.37835,3.79087,-4.67561,3.52688,2.6383,-1.35783,0.09879,1.81651,0.3867,0.90102,0.37986,-0.10216,-0.14399,0.15593,0.13399,0.24062
514,-25.16834,0.96334,0.35674,73.34248,9.99846,7.44338,-69.56968,3.78886,-3.10311,52.16212,29.03355,11.33392,0.3615,0.39198,0.20457,-24.31806,-4.31935,2.85209,-38.44626,44.10094,7.99872,45.08768,4.48128,8.48014,4.50036,5.32491,0.64335,3.3019,-6.78365,-0.49659,2.47952,-1.6172,0.92465,1.85033,0.51965,1.91686,0.29169,-0.20642,0.05864,0.26687,0.10181,0.34515
515,-22.54843,-4.81697,-3.34024,74.05737,8.69011,9.06062,-71.45249,5.8313,-23.5098,48.58458,12.02428,9.59125,-0.09859,0.45636,-0.95498,-28.11683,-4.63913,2.97131,-45.25386,16.76917,-19.50516,31.07583,-6.8889,8.37939,2.27648,4.37046,3.21067,4.54344,-8.97047,-2.47159,1.94273,-1.9772,2.20839,2.7946,0.26076,1.44743,0.0277,-0.32075,0.35626,0.50302,0.04966,0.19503
516,-18.17733,-3.78829,-3.89863,75.60944,8.57202,10.36203,-65.91418,7.39125,-27.37731,51.67432,2.92291,10.572,-0.28542,0.46922,-1.31292,-31.44775,-5.12075,3.09467,-32.96074,-1.71577,-23.12613,14.01119,-9.19082,11.23217,0.09518,3.13461,4.89483,5.48914,-8.57515,-1.10881,1.95878,-1.97007,2.29617,3.29277,-0.06405,0.16828,-0.10766,-0.34357,0.46724,0.52438,0.02211,-0.05141
517,-15.59992,2.6411,0.54195,77.1042,9.94864,10.78388,-66.0144,4.59724,-9.96531,56.98827,3.97152,12.75634,-0.33929,0.3802,-0.57571,-34.1581,-5.73436,3.22935,-21.75433,-3.71815,5.60478,17.94333,-14.44545,20.10723,-3.7852,1.81057,6.35476,5.28707,-6.79284,2.0138,2.04715,-1.24692,0.84699,2.78483,-0.13543,-0.40959,-0.00744,-0.22497,0.27565,0.23586,0.01432,-0.15779
518,-14.5275,4.16287,2.94141,78.71403,10.98796,11.19204,-78.46553,0.33335,1.45913,60.76524,3.76625,12.4459,-0.72213,0.14079,0.08709,-36.45995,-6.44753,3.28823,-25.22151,-3.05367,28.64959,37.79902,-23.14087,24.49023,-6.76401,1.04989,6.8833,4.60274,-6.30473,2.92359,1.64997,-0.45912,-0.5363,2.08469,0.31293,0.60614,0.11787,-0.08477,0.00823,-0.00634,0.07382,0.01508
519,-11.86207,-1.04265,-1.26267,81.90189,11.94307,11.73569,-94.62941,-0.1644,-8.78959,63.60182,-0.04431,9.28199,-1.39237,-0.06923,-0.01715,-38.59276,-7.23311,3.27979,-36.56101,-4.82573,24.85935,55.8045,-24.67206,11.98776,-3.2631,2.05338,4.07157,4.14388,-7.55324,-0.82208,1.92766,-0.60573,-0.69875,2.05234,0.95057,1.9482,0.18798,-0.10258,-0.07819,0.08801,0.20081,0.27055
520,-6.69584,-5.22136,-6.40188,87.47436,15.92241,10.9309,-100.56896,2.48418,-25.42763,68.35303,3.08085,6.70943,-1.78001,-0.1369,-0.29824,-40.6029,-7.91202,3.39327,-38.71456,-1.37721,12.20347,63.85453,-16.54318,-7.23784,4.81785,4.24159,-0.73413,4.03728,-9.26637,-6.17342,3.69473,-1.51012,-0.27904,2.41902,0.92663,1.60322,0.37819,-0.2765,-0.02622,0.26631,0.25561,0.28092
521,-3.44618,-4.73714,-7.03295,93.37709,20.31078,9.96678,-101.38271,3.24194,-32.13393,71.90771,8.22769,7.35167,-1.78003,-0.08283,-0.32778,-42.37448,-8.62973,3.53229,-39.30807,-0.0939,9.06704,68.11676,-6.6089,-13.76576,8.4837,4.95079,-2.65812,3.94412,-10.44742,-8.83466,5.42737,-1.91852,-0.50766,2.41751,0.15077,-0.05537,0.68894,-0.37645,-0.06377,0.18894,0.17978,0.11192
522,-10.94853,-3.1811,-5.83277,97.72511,21.64647,10.43995,-113.90295,0.00782,-31.61524,69.29214,10.29367,10.44787,-1.84418,0.05346,-0.33789,-43.87184,-9.45988,3.59292,-61.99763,-0.46084,10.55001,79.22392,-2.86954,-8.21465,4.25076,3.04728,-0.50751,2.7798,-9.5942,-8.64775,5.25269,-1.11815,-1.65829,1.48194,-0.18048,-0.26394,0.8435,-0.2328,-0.24772,-0.08349,0.13669,0.18989
523,-35.47898,-4.51595,-8.50119,101.04738,21.75658,11.24309,-136.95514,-2.5004,-36.47906,61.94604,17.86645,13.47214,-2.40499,0.12064,-0.51103,-45.39632,-10.12334,3.7361,-106.09741,15.3974,-3.5549,92.41823,-3.59799,-6.25865,-1.62478,0.63505,1.54462,0.94563,-6.69493,-7.71489,3.47917,0.24673,-2.9394,0.33261,0.48312,1.67729,0.68776,0.04271,-0.40969,-0.21437,0.20454,0.53877
524,-67.86659,-7.89168,-15.11066,106.27083,23.16025,11.61491,-146.62598,-0.06675,-48.32753,62.18842,32.09882,15.06491,-3.43127,0.04733,-0.7136,-47.1378,-10.50266,4.07759,-130.43962,43.0767,-39.27775,87.70052,-1.33846,-14.58303,-2.6984,0.04419,0.37119,-0.34068,-3.89469,-7.78543,1.8506,1.06922,-3.47096,-0.24222,1.07678,3.02401,0.38118,0.23353,-0.44332,-0.1209,0.21627,0.63086
525,-84.371,-9.00974,-18.37533,114.64879,25.97632,12.19915,-118.44759,3.40284,-49.36787,78.55872,43.3302,15.65028,-4.06341,0.00395,-0.74123,-48.87181,-10.7446,4.57343,-91.89106,54.4788,-67.27467,63.90071,3.21809,-24.57569,0.61596,1.00562,-2.17667,-0.27993,-3.4877,-9.30233,1.51349,0.79207,-2.82474,-0.00363,0.68244,1.94471,0.18822,0.22081,-0.38769,0.08041,0.05004,0.24246
526,-70.29632,-5.55746,-11.58123,124.16333,29.31815,13.50748,-50.42073,1.82929,-21.72192,101.64605,45.15873,16.35223,-3.25541,0.12727,-0.50306,-50.34127,-10.9802,5.13801,5.61044,36.27136,-50.56043,49.15171,7.40865,-27.36331,4.31463,1.59925,-3.44362,1.39471,-6.27108,-11.76078,1.98972,-0.17988,-1.39438,1.16511,-0.45968,-0.62222,0.15269,0.04104,-0.27649,0.35718,-0.19453,-0.30169
527,-35.54819,0.21428,2.60853,132.79424,33.50873,14.8506,32.99605,-3.78795,25.57547,116.21837,40.96318,17.47106,-1.00457,0.38524,-0.05155,-51.60463,-11.19447,5.74279,115.27123,3.99974,5.3847,61.73032,15.22942,-25.39568,6.28386,0.99731,-4.05792,3.33726,-10.37215,-14.83283,2.13264,-0.79518,-0.47016,2.43568,-1.34727,-2.60724,0.12316,-0.14433,-0.11451,0.59154,-0.30972,-0.5806
528,-2.57758,3.64067,10.84404,140.26744,39.65384,15.05515,100.14469,-6.24868,53.97428,118.84695,37.50416,17.70852,1.59958,0.76223,0.23846,-52.89669,-11.33648,6.41294,190.97751,-19.34668,43.99398,84.60178,22.93954,-25.7262,6.93977,0.357,-5.44697,4.06699,-13.03756,-17.70463,1.75694,-0.45459,-0.85315,2.87652,-1.29102,-2.74938,0.05096,-0.16818,0.02428,0.62679,-0.20007,-0.45648
529,14.43623,1.91243,0.40193,147.55318,48.10611,13.80157,131.08466,-0.70417,29.34604,116.70467,38.32574,15.58726,3.19516,1.44382,-0.30346,-54.29919,-11.31872,7.19879,212.68079,-21.31435,13.59994,90.73644,19.15436,-28.37852,7.1376,1.06282,-6.6704,3.77841,-12.93727,-17.93489,1.53975,0.26214,-1.5817,2.71301,-0.61376,-1.49475,0.0278,-0.0422,0.05973,0.5183,0.01525,-0.11361
530,16.67781,-2.95439,-23.50527,155.23062,57.79562,11.97506,121.26063,10.06198,-36.81451,115.4379,42.31795,11.99198,3.06867,2.35642,-1.57893,-55.7331,-11.0276,8.09913,184.66568,-5.381,-68.76171,73.08021,12.7911,-28.71906,7.91625,2.78385,-6.95047,3.08842,-10.50592,-13.98133,2.10445,0.48775,-1.65539,2.30553,-0.07545,-0.25934,0.17005,0.06864,-0.02337,0.37466,0.16061,0.18585
531,12.41724,-5.61383,-36.98023,162.7999,65.94114,11.61051,80.31628,17.4841,-85.60963,117.53935,42.51486,10.13465,1.85441,2.59318,-2.22619,-57.13987,-10.53709,8.97935,132.74142,6.74957,-123.54708,40.69707,26.13387,-27.90094,9.86703,4.01322,-8.04518,1.63054,-7.09663,-8.21583,2.81744,0.36598,-1.72339,1.14865,0.10893,0.13814,0.343,0.11711,-0.1929,0.12714,0.20807,0.31529
532,7.95014,-3.57348,-25.43457,169.82339,71.70839,13.17314,31.60928,18.04215,-77.25507,126.08598,37.82278,10.95267,0.98104,1.59402,-1.48411,-58.55665,-9.89646,9.78693,95.9121,1.44144,-104.4341,11.34772,50.25066,-30.50684,11.22873,4.19997,-10.42954,-0.50103,-4.41732,-4.87614,2.50279,0.53791,-2.65167,-0.69355,0.04992,-0.34951,0.28345,0.17543,-0.3876,-0.20913,0.18886,0.24475
533,5.92686,-0.29022,-5.11065,176.88853,78.03034,14.24482,1.57118,18.3729,-46.02909,138.92451,39.20696,11.65058,1.17466,0.37855,-0.38172,-60.11224,-9.07913,10.63405,95.24979,-6.12005,-60.83326,9.0512,50.51673,-34.09061,9.25799,4.12116,-10.87808,-2.17451,-3.34816,-5.8263,1.39015,0.95446,-3.78315,-2.12755,-0.31138,-1.59184,0.02499,0.23979,-0.49698,-0.43493,0.09482,-0.01145
534,5.05454,0.69258,3.90941,183.42143,85.29239,13.97869,-0.80904,19.94364,-32.88856,143.22614,47.86427,11.16068,1.74013,-0.33873,0.18822,-62.03,-8.54365,11.44463,108.00569,-6.51921,-44.02509,39.06303,24.29338,-29.10988,3.98253,4.32933,-7.06416,-2.75577,-3.24795,-8.82001,0.70609,1.09854,-3.87885,-2.57951,-0.74171,-2.80316,-0.19537,0.25795,-0.45426,-0.48057,-0.02181,-0.3139
535,3.24655,-0.17912,3.85353,188.66472,91.88712,13.50999,16.54198,17.16833,-27.55086,135.68654,56.55817,11.11891,1.53292,-1.13599,0.64969,-64.36283,-8.74382,12.07687,113.43768,-5.23796,-38.84219,68.93742,12.25231,-11.6364,-0.84239,4.76424,-1.46394,-2.22804,-3.54578,-9.81596,1.33917,0.82542,-2.96099,-2.08208,-0.85963,-2.98093,-0.22031,0.22562,-0.3156,-0.3833,-0.11846,-0.5394
536,-0.24362,-1.00638,1.12227,192.04207,97.62801,13.25035,36.5039,10.69431,-16.28434,128.02715,63.18943,12.07131,0.30774,-1.7365,1.00932,-66.98574,-9.66262,12.55168,118.57058,-3.96109,-25.26273,64.73691,39.69866,7.27212,-1.43226,5.42466,1.39894,-0.77499,-4.43426,-7.00493,3.09165,0.5118,-2.1925,-0.78647,-0.83482,-2.22388,-0.04237,0.21898,-0.21708,-0.17993,-0.24143,-0.71609
537,-8.39794,-0.43335,-4.86409,191.90797,102.59834,12.68965,37.56957,4.57787,-6.17923,126.83486,68.04861,12.25806,-1.22893,-1.0844,0.57429,-69.76987,-11.17826,12.92604,121.76525,-2.52791,-12.09175,41.23212,76.56239,11.26424,1.92484,6.23646,-0.20855,0.79283,-5.78698,-2.39783,4.56616,0.62623,-2.4435,0.59225,-1.013,-1.35049,0.22016,0.34594,-0.30275,-0.04618,-0.36148,-0.75924
538,-20.96578,0.91135,-8.74057,188.24458,107.48119,11.08846,21.85677,-1.38024,3.26224,128.83435,72.72189,10.02606,-2.44436,0.39107,-0.3544,-72.58212,-13.06446,13.28399,121.04591,-4.88491,-5.60233,35.02552,77.05737,-1.72585,6.02193,6.9776,-4.04396,2.00134,-7.39946,0.92873,4.82858,1.09539,-3.3804,1.65072,-1.3383,-0.81062,0.43234,0.55347,-0.54248,-0.04113,-0.34244,-0.46412
539,-31.68874,1.0722,-2.69505,184.01056,112.40387,9.17701,11.42768,-9.09423,24.31093,131.48253,76.73438,6.48604,-3.22223,1.24266,-0.74898,-75.40768,-15.07308,13.64587,128.12009,-16.9994,7.62254,43.65615,40.59037,-15.03025,8.64625,7.67152,-6.43838,3.31523,-9.5054,2.59693,4.58711,1.19322,-3.72503,2.88445,-1.56681,-0.46217,0.51863,0.60314,-0.6542,0.02962,-0.17853,0.03663
540,-39.57905,0.5099,5.09045,181.66554,116.18554,8.3973,6.62939,-13.58107,40.82556,137.70419,79.82192,4.24056,-3.70813,1.2245,-0.71082,-78.30157,-17.03761,13.91792,140.52238,-30.37607,16.85491,40.91811,7.76233,-11.35408,9.46656,8.38474,-5.34363,4.21301,-10.76548,4.29268,4.90428,0.37653,-2.57877,3.79833,-1.24791,0.40961,0.51758,0.35596,-0.42106,0.16935,-0.01274,0.3786
541,-45.75396,1.06583,3.5132,180.27753,117.27785,9.00981,-0.84669,-10.53006,28.52057,146.16812,82.89787,4.58716,-3.99996,0.86514,-0.7833,-81.01276,-18.8243,13.97163,147.61298,-33.03996,0.57303,23.67618,7.61708,9.36377,8.2916,8.999,-1.0879,3.80282,-9.34689,6.8803,5.75274,-1.06179,-0.31296,3.42795,-0.24825,1.82976,0.58735,-0.05886,0.01716,0.2152,0.0717,0.40306
542,-48.80322,2.10045,-2.38044,177.52734,115.50533,9.80066,-10.80436,-4.26279,1.62431,147.21564,85.91864,6.34315,-4.23039,0.42136,-0.65207,-82.99373,-20.33937,13.71805,138.17891,-24.12944,-24.44672,4.64497,29.21298,29.30632,5.33608,9.45695,4.15749,2.72249,-6.92262,8.70654,6.28185,-2.32585,1.89251,2.31469,0.55237,2.25961,0.79775,-0.38937,0.32754,0.15914,0.08398,0.18056
543,-49.18192,2.63552,-3.07573,172.97701,112.14829,9.62408,-25.39764,0.75226,-12.45723,137.58231,88.52525,7.29508,-4.37057,0.02324,-0.03299,-83.87019,-21.47368,13.14073,105.79936,-6.62997,-32.89511,-9.64434,40.82446,30.36459,2.96572,9.50161,7.08878,2.42241,-6.94585,7.8534,5.82491,-2.85924,3.06803,1.98494,0.41128,1.19427,0.92545,-0.49758,0.35013,0.19282,0.07675,-0.02836
544,-47.02591,3.24919,3.00007,168.78307,108.17461,8.88596,-40.86517,4.02548,-7.68157,127.25425,89.54832,6.50748,-3.95483,-0.41125,0.94609,-83.57892,-21.98396,12.29401,71.5667,11.5133,-26.12761,-15.80977,29.48882,15.11181,3.14151,8.5523,6.1675,3.68203,-9.7663,5.80974,4.4938,-2.67022,3.07361,3.31786,-0.32453,0.38392,0.6798,-0.43074,0.228,0.48273,0.07218,0.02903
545,-39.88823,4.55149,11.60919,166.95135,103.9291,8.34841,-42.10904,5.71866,6.592,119.69052,87.61557,4.68475,-2.67824,-0.91161,2.07825,-82.18403,-21.64747,11.27342,60.10592,17.95581,-15.91425,-10.3971,14.68773,2.51566,4.39547,6.90987,3.5376,5.87594,-12.98436,5.0341,3.3236,-2.12565,2.27844,5.61554,-1.11492,0.77248,0.16652,-0.29525,0.16317,0.92677,0.0161,0.2526
546,-27.47078,5.94006,15.62165,165.92447,98.95123,7.87711,-21.71873,5.55346,19.50487,102.63498,81.85267,3.33361,-0.82458,-0.98457,2.55984,-79.62538,-20.54506,10.09733,60.01133,8.75146,-6.43867,1.60393,19.56653,3.66909,4.77435,5.85752,2.06288,7.24693,-14.42883,5.45727,3.47118,-1.68748,1.14203,6.99735,-1.71876,1.34126,-0.10382,-0.17106,0.16457,1.1668,-0.10327,0.34337
547,-15.11868,6.43684,13.05167,162.43658,92.25101,7.27389,6.15351,4.00594,29.23025,73.53827,73.05235,3.53362,0.97145,-0.39435,1.8016,-75.8504,-18.90982,8.71849,49.01611,-5.60029,6.5944,11.61198,37.30743,13.11196,4.22945,5.95064,2.77152,6.45694,-13.23815,5.70249,4.76247,-1.76357,0.56326,6.19278,-1.64425,1.67657,0.1498,-0.18408,0.21159,0.97819,-0.17293,0.28431
548,-8.45958,6.31065,8.29118,156.76054,84.06427,6.91347,20.63376,3.15666,35.17488,50.91675,63.48056,4.23783,2.25474,0.34976,0.4582,-71.39901,-16.85939,7.20114,32.80533,-13.3829,18.68666,17.49879,40.77773,19.46258,3.26613,6.48266,4.76135,4.18106,-10.71892,4.8583,5.85582,-2.24123,0.97391,4.14385,-0.77105,2.30581,0.59895,-0.343,0.31043,0.56265,-0.11559,0.27893
549,-8.10723,4.88777,2.97357,151.8681,75.16424,7.2455,15.44029,3.25863,27.20081,47.51024,52.53477,2.90534,2.84799,0.67284,-0.60934,-67.04418,-14.55626,5.62183,26.86208,-19.33147,11.83805,15.88453,23.33206,15.99548,2.70752,6.22591,5.45063,2.32992,-8.93129,3.40224,5.64965,-2.39706,1.4159,2.72252,0.11915,2.98456,0.75105,-0.41989,0.34007,0.27709,4e-05,0.35995
550,-9.64886,2.42782,-0.77299,149.5349,65.06351,8.48042,3.89133,3.02505,9.28536,57.90895,38.33097,-0.12699,2.77758,0.47148,-0.87591,-62.79508,-12.43679,3.79801,37.38632,-33.76236,-8.69155,0.67359,8.70613,7.07567,3.43424,4.89226,3.58264,2.09617,-8.18011,3.13335,4.57147,-1.98745,1.04682,2.55352,0.26523,2.92432,0.56211,-0.30386,0.20493,0.24239,0.05081,0.37632
551,-8.99278,2.32102,0.17262,148.36217,55.16526,8.91125,2.7099,3.20652,-0.05178,69.74744,31.21306,-0.65413,2.38375,0.12969,-0.20096,-58.17111,-10.79147,1.59925,60.19907,-42.40413,-15.23861,-13.5548,14.47038,3.64088,4.39182,4.22293,1.99123,2.68579,-8.0431,3.41502,4.38861,-1.70996,0.32992,2.82378,-0.29477,1.93219,0.42016,-0.16145,0.027,0.29697,-0.00475,0.23665
552,-7.86781,4.02011,2.42921,145.21596,48.53777,6.3344,8.04706,3.12914,0.13359,74.44853,44.33738,3.57291,1.99162,-0.03471,0.65575,-52.87429,-9.36714,-0.71377,75.49616,-21.75793,-3.8574,-2.2818,27.09126,6.40203,4.45133,5.38172,2.71679,2.16603,-8.55907,1.22005,5.66947,-1.93582,-0.09397,2.54991,-0.88372,0.61376,0.56307,-0.13476,-0.03997,0.236,-0.07977,0.01651
553,-9.27991,2.27359,1.22491,139.11723,43.61495,2.32455,6.13432,-0.54357,-4.09586,70.91685,65.84052,9.17954,1.67666,-0.13875,0.76591,-46.84826,-7.82291,-2.89258,67.62827,13.28235,2.63796,23.38603,26.98786,5.59954,5.33972,6.30566,2.44135,0.7608,-9.26624,-1.92367,6.42879,-1.97785,-0.40637,1.9999,-0.96653,0.03142,0.74995,-0.14111,-0.04898,0.11082,-0.07733,-0.08057
554,-11.8996,-3.79126,-1.90242,132.92955,35.55873,0.63174,-0.76852,-8.09377,-16.73912,64.20561,69.44976,11.14539,1.51834,-0.38465,0.23389,-40.49357,-6.21364,-4.99919,49.04575,20.11402,-10.27189,31.81806,23.39646,1.35321,7.60124,4.81803,-0.9832,0.87198,-9.19625,-1.10343,5.20096,-1.3374,-0.93555,2.18022,-0.73099,0.59666,0.71659,-0.06809,-0.12643,0.15524,-0.0296,0.04805
555,-13.96241,-8.77546,-3.0749,129.20584,24.3177,1.64642,-5.6417,-14.6055,-28.5236,58.00571,51.4017,7.62832,1.58926,-0.66244,-0.15746,-34.50694,-4.57643,-6.96145,34.51591,-9.65805,-33.4364,21.02926,37.14092,3.65579,7.43036,2.22041,-3.51993,2.78522,-8.28956,3.11293,3.41253,-0.54736,-1.57833,2.96897,-0.64411,1.33477,0.55837,0.04836,-0.26453,0.38178,-0.02427,0.2205
556,-15.06811,-7.02302,-1.57147,126.18416,13.76293,2.947,-12.60531,-12.90952,-27.47622,49.17916,30.75528,1.14894,1.75753,-0.60548,0.01544,-29.04383,-2.73562,-8.4828,16.6507,-36.65194,-44.59518,10.04035,53.35209,10.35412,2.89109,1.81151,-1.38737,3.82214,-6.92291,5.3034,2.83916,-0.34414,-1.80286,3.16169,-0.5874,1.40922,0.45355,0.08656,-0.32111,0.52658,-0.0491,0.23887
557,-13.76974,2.48363,0.16915,120.15953,5.61419,3.20334,-23.56893,1.23007,-8.74916,35.31268,22.95356,-2.59797,1.83913,-0.04262,0.4925,-23.7157,-0.94117,-9.51837,-9.07644,-20.9309,-28.00549,5.20264,35.84856,7.47111,-1.26011,5.08248,3.20786,2.24466,-4.8251,3.25688,3.2189,-0.84787,-0.93181,2.21796,-0.0689,1.37888,0.43664,-0.03222,-0.19239,0.41073,-0.01754,0.18155
558,-9.77721,13.64386,-0.3931,109.06767,0.949,1.87659,-23.69697,20.75852,17.25608,20.89572,31.37795,0.40812,1.96939,0.59539,0.73081,-18.49145,0.23192,-10.24015,-21.42222,31.88071,6.81941,1.99121,-7.55514,-6.3677,-0.19191,9.19059,5.31636,-0.77309,-1.75884,-0.10664,3.4077,-1.49142,0.64814,0.56077,0.94793,1.78988,0.44171,-0.22338,0.031,0.06721,0.11696,0.20537
559,-6.10136,16.2268,-2.30968,96.30948,1.65871,-1.28,3.61661,26.15648,28.51696,16.44399,48.73778,7.2924,2.48754,0.57326,0.47572,-13.912,0.68502,-10.76416,8.17913,65.45747,26.88513,-1.48229,-27.82331,-14.8541,3.87558,9.58371,3.37453,-2.7774,1.11065,-1.43156,2.97911,-1.57086,1.45228,-1.02082,1.77979,1.98308,0.34766,-0.29405,0.18651,-0.34037,0.29061,0.25636
560,-5.96828,6.49761,-1.75222,90.12269,5.20289,-4.47346,45.61418,4.83771,14.31011,31.91847,58.20296,11.52706,3.175,-0.33582,-0.05211,-10.39593,0.7419,-11.28632,75.20869,29.37832,9.84324,-2.26699,-7.72548,-6.69372,5.99131,5.92025,0.05641,-2.49881,2.02422,-0.37975,2.3876,-1.05752,0.79995,-1.67022,1.73867,1.41098,0.10326,-0.17342,0.21185,-0.56091,0.3584,0.20458
561,-8.14874,-6.25745,1.98376,91.06073,5.29983,-5.39996,67.22637,-25.49707,-6.39063,52.84484,48.64137,9.46139,3.35289,-1.4769,-0.42877,-8.04474,0.67327,-11.97518,124.37693,-50.30198,-22.59224,0.39558,19.91075,9.9811,5.45649,2.59189,-1.51248,-0.58341,0.70538,1.57566,2.28635,-0.65397,-0.25525,-0.995,0.95151,0.7512,-0.13098,-0.00556,0.13429,-0.42444,0.23873,0.1008
562,-6.88934,-10.2978,4.31679,90.24645,0.93236,-4.42956,59.85805,-32.6083,-7.3004,50.10971,27.5357,1.60927,3.10955,-2.00613,-0.49504,-6.6093,0.87201,-12.54033,114.94621,-96.94769,-30.07052,2.09766,28.92909,19.2988,4.17564,2.71605,-0.34239,1.48727,-1.51872,3.03273,2.67463,-0.81642,-0.30601,0.48306,0.02909,0.63175,-0.14174,0.04447,0.01954,-0.04053,0.00368,0.04208
563,0.6342,-5.74976,2.30005,83.14084,-2.61315,-3.68963,51.46705,-13.33705,9.33111,21.46047,11.64077,-7.7864,3.22016,-1.85407,-0.4344,-5.55079,1.70809,-12.56612,75.5119,-82.62614,-7.77329,1.31649,29.68799,14.76926,3.29747,4.59721,1.76165,2.40131,-2.86085,3.38865,3.01686,-1.14992,0.47333,1.59298,-0.42711,0.99806,0.06912,0.01306,-0.08523,0.26231,-0.16515,0.07085
564,9.18257,-1.28325,-0.78942,72.23535,-1.34361,-4.55775,60.3098,4.93555,21.83611,-11.17514,12.37713,-13.47636,3.71988,-1.56272,-0.36614,-4.75209,2.95613,-12.12118,48.1255,-44.69782,15.75181,0.38256,36.7024,4.01357,3.04233,5.24,2.51048,2.16547,-3.16101,3.44952,2.85956,-1.13896,1.05277,1.82064,-0.21894,1.64589,0.27795,-0.01429,-0.10372,0.30609,-0.14444,0.22439
565,12.44288,-1.58427,-0.6925,61.63623,3.1146,-6.5935,71.96152,4.24982,20.43046,-31.02248,25.50087,-14.6801,3.92181,-1.46219,-0.17464,-4.44504,4.01209,-11.67957,33.72735,-22.41305,18.2382,0.89134,43.94056,-1.01726,2.3608,4.54319,2.2462,1.85792,-3.77808,3.95678,2.07535,-0.82345,1.19479,1.63039,0.1791,2.03078,0.28612,-0.05158,0.01875,0.2051,0.00151,0.40842
566,11.62248,-4.0139,1.90298,54.59245,6.71961,-8.32008,68.60052,-6.52121,11.49642,-35.30125,35.14059,-14.59781,3.76756,-1.39151,0.24221,-4.57629,4.6066,-11.58779,17.3976,-23.07728,1.09287,2.8569,41.17463,0.58543,0.51395,3.70837,2.22009,1.32283,-4.1507,3.48956,1.13825,-0.52219,0.95886,1.04236,0.28405,1.44785,0.14418,-0.09347,0.15728,0.04665,0.11728,0.38363
567,11.42068,-3.60689,2.53611,50.74319,7.86766,-8.9248,55.53847,-7.88636,4.65046,-29.7924,31.16013,-14.89306,3.80186,-0.99582,0.79577,-4.88742,4.91588,-11.77487,4.30204,-30.35864,-17.22273,2.44344,29.1551,0.21548,-1.05145,2.35791,1.93353,-0.45474,-2.18786,0.80251,0.63193,-0.37901,0.34504,-0.27463,0.25916,0.24188,0.02448,-0.11181,0.18713,-0.18533,0.13951,0.11826
568,11.77626,1.76702,-1.65552,47.14067,9.17922,-9.17958,51.40835,7.58241,3.71155,-23.47345,22.03324,-14.72473,4.02427,-0.07695,1.22088,-5.27678,5.24676,-11.86741,9.6883,-23.81388,-19.51373,-3.45209,15.39988,-4.66395,-0.44499,0.02366,0.28059,-2.61761,1.06354,-2.06043,0.64462,-0.31495,-0.43669,-1.51943,0.41196,-0.31461,0.0098,-0.10146,0.13431,-0.36834,0.10783,-0.09023
569,10.02335,8.65869,-7.90761,41.66873,13.25136,-10.16954,63.38956,23.48831,4.68979,-26.69278,21.95221,-14.69154,3.90705,1.04954,1.26542,-6.08439,5.72288,-11.62813,25.60725,-8.48259,-7.53171,-9.11823,8.68426,-9.21337,2.79724,-1.93674,-3.14697,-2.73259,1.49788,-2.15859,1.1257,-0.20357,-1.53045,-1.18308,0.4379,0.14616,0.08645,-0.01723,-0.03062,-0.28164,0.04113,-0.05513
570,8.06204,11.66002,-11.0062,34.39635,16.18588,-11.11338,79.72227,21.30891,3.20428,-42.84727,24.00713,-17.3255,3.37552,1.71182,0.96218,-7.74036,6.04767,-11.35654,27.59934,-14.20598,2.09395,-8.37967,14.09844,-11.00745,7.19547,-2.07399,-7.31268,0.17611,-1.67111,0.61868,1.86369,-0.04469,-2.90269,0.85572,-0.01863,0.82536,0.16503,0.15623,-0.32235,0.07424,-0.06222,0.08667
571,9.9118,10.79169,-10.76713,27.74538,14.74416,-11.05374,86.18645,11.49051,0.31878,-61.79315,18.60826,-21.53344,2.88594,1.75469,0.59615,-9.96677,6.01889,-11.36198,11.83526,-34.39137,0.30374,-6.52195,23.79658,-8.8965,8.95257,-0.34771,-8.42568,4.29805,-4.28739,3.8965,2.20445,-0.06153,-3.10959,2.93911,-0.54044,1.14922,0.17849,0.24774,-0.47774,0.42049,-0.13681,0.17055
572,14.48362,10.63515,-11.3304,23.16667,12.66639,-10.80964,80.57486,15.32584,-2.27903,-73.04053,15.98653,-23.25437,2.6423,1.73205,0.39478,-12.10178,5.81275,-11.46517,-7.12198,-28.36045,-7.46709,-10.16276,21.22957,-1.76171,5.84399,2.50934,-4.0006,6.93117,-4.06189,5.57257,1.66215,-0.35155,-1.04319,3.79131,-0.57512,1.22813,0.13153,0.11565,-0.2687,0.54016,-0.0991,0.21388
573,18.36236,11.46118,-12.36194,19.39251,14.45911,-11.51879,73.17648,22.72733,-4.21595,-76.00429,28.42236,-20.54622,2.55725,1.89067,0.40441,-13.83308,5.61906,-11.34641,-15.86617,2.9256,-9.95121,-12.5633,1.6051,4.6157,1.70325,4.72296,1.57212,6.85712,-3.90778,5.18072,0.70769,-0.60605,1.65599,3.7891,-0.41157,1.15127,0.06019,-0.08725,0.08348,0.51152,-0.00256,0.26571
574,27.01244,10.17683,-10.12185,15.27472,19.59371,-12.86953,76.60503,14.53545,-3.75001,-74.01656,50.88314,-14.42685,1.08967,2.64906,0.71651,-15.00658,5.51876,-10.9524,-6.96763,27.64888,-0.87664,-4.71613,-18.40269,1.02069,1.98764,4.00945,1.79662,4.30829,-5.90629,2.88144,0.3793,-0.62997,2.49562,3.48061,-0.69595,0.59521,0.05183,-0.16407,0.24063,0.48617,-0.02192,0.21116
575,35.96703,4.727,-4.65796,11.78741,23.69441,-13.5769,94.07956,-6.17539,0.54171,-69.88939,65.8962,-8.56923,-0.24507,2.56813,0.73703,-15.56356,5.47549,-10.49952,18.9847,22.28842,16.14912,6.63238,-18.58095,-9.92489,5.58081,0.66196,-2.75815,0.38345,-7.39492,-0.53428,0.7989,-0.49719,1.18576,2.60682,-1.21072,-0.34641,0.11986,-0.1056,0.15785,0.42676,-0.17785,-0.02845
576,43.13062,-2.81084,1.67081,9.33845,24.59848,-13.37094,112.7396,-20.87823,7.13611,-68.20048,65.77496,-6.74828,-2.69027,2.15696,0.43555,-15.94673,5.36195,-10.17353,43.37235,1.52411,29.47388,11.8751,-2.37732,-12.36691,6.42294,-1.6017,-5.37071,-2.37101,-6.09727,-2.59786,1.13754,-0.29345,-0.5608,1.53345,-1.09567,-0.66612,0.14587,0.00678,-0.02527,0.28978,-0.24511,-0.20331
577,43.38147,-8.34793,5.69272,5.87652,23.73104,-13.04292,118.77675,-21.97108,11.78031,-73.1536,57.81447,-8.9498,-7.3207,2.55696,-0.32775,-16.728,5.12075,-9.98219,46.86272,-9.92525,31.7694,16.04141,2.60606,0.77206,2.58167,-0.00134,-2.3615,-1.7869,-3.98166,-1.65984,0.96813,-0.2414,-0.90338,1.45588,-0.37346,0.04464,0.0814,0.05281,-0.12951,0.21082,-0.11946,-0.08756
578,36.27754,-8.38872,5.63748,1.65353,22.94549,-12.91011,107.89156,-12.17133,10.60723,-81.08932,50.5192,-11.7456,-14.84443,5.01222,-1.48775,-17.64878,4.92771,-9.80071,26.11287,0.06917,23.24703,24.6964,-15.32879,13.91617,-1.44445,3.02486,2.48749,0.66707,-3.93244,0.24872,0.59616,-0.50837,0.23927,2.38354,-0.1577,0.6057,0.0007,-0.04413,-0.05611,0.26287,-0.02309,0.08777
579,26.57254,-4.69248,3.55567,-0.57647,21.96064,-12.53389,88.78223,-2.04072,6.39842,-86.69846,44.03898,-13.60079,-24.65948,9.24248,-2.84945,-17.78508,4.91239,-9.55537,-4.53834,17.36134,12.64712,32.29283,-26.79492,7.38704,-1.02112,2.51695,2.73338,1.70265,-6.10054,0.45951,0.65695,-0.90917,0.74167,3.05203,-0.94194,0.09306,-0.01133,-0.17045,0.0366,0.32826,-0.12655,0.03439
580,20.10111,0.06126,1.10787,-1.13666,19.71271,-11.73288,79.67044,2.84156,4.28002,-91.62012,34.64636,-16.36143,-35.20765,14.11875,-4.26325,-16.90722,4.93461,-9.24884,-21.69685,25.93186,9.01101,31.81212,-10.78358,-15.77151,3.47044,-1.56759,-2.69107,1.0623,-8.59588,-0.50182,1.30826,-1.1054,-0.59887,3.05859,-1.9198,-0.80543,0.05005,-0.15801,-0.03626,0.33083,-0.28482,-0.12291
581,18.77951,6.87944,-2.82976,-2.62213,17.3729,-10.94473,88.5752,10.81049,2.49392,-97.42828,23.97319,-20.3007,-45.22993,19.19413,-5.60407,-15.81197,4.87902,-8.82543,-13.45491,33.80723,9.72592,22.93995,1.19676,-31.21018,7.35549,-3.68509,-7.69241,0.81786,-9.90923,-0.7929,1.79342,-0.9277,-1.84649,3.14333,-2.23614,-1.10103,0.09251,-0.02217,-0.15911,0.34228,-0.30567,-0.1342
582,16.94783,12.99938,-6.15038,-6.00523,17.16614,-10.64389,97.05481,20.15315,-0.54005,-101.89643,18.63667,-22.53599,-54.23282,24.12816,-6.97165,-15.19085,4.76794,-8.26554,-0.25768,45.08221,9.05155,15.62779,-21.29829,-22.27725,6.65292,-0.67171,-6.25738,1.35106,-9.32357,-0.19662,1.55324,-0.57869,-0.89475,3.45711,-1.74224,-0.661,0.07115,0.05723,-0.07405,0.38948,-0.19534,-0.00551
583,8.62397,14.45315,-6.21789,-9.27637,18.00279,-10.56565,80.88873,20.24836,-2.39824,-100.39728,18.68002,-21.63624,-61.85666,28.55569,-8.5813,-14.90687,4.47964,-7.7883,-10.8581,46.39762,4.82826,25.37765,-51.12892,-1.05625,2.42965,3.66175,-0.15505,1.53396,-6.7675,0.27946,0.97125,-0.3234,1.14278,3.56011,-0.78003,0.08921,0.05574,0.00415,0.20743,0.44743,-0.07736,0.10108
584,-2.47467,13.81048,-4.90406,-9.94628,17.05162,-10.09697,45.48119,13.68987,-2.68107,-89.87589,18.00538,-19.10509,-67.71961,32.5833,-10.19897,-14.51067,3.90639,-7.57898,-40.06115,34.61748,-2.88937,54.20791,-47.87546,6.45958,-0.29889,3.98527,3.1337,0.69126,-3.38117,-0.14965,0.87345,-0.29506,1.58314,3.33492,0.10723,0.65296,0.15048,-0.08399,0.3662,0.48978,-0.03257,0.08891
585,-8.67224,13.84521,-4.21275,-8.86823,14.87482,-9.33692,18.41142,6.03714,-1.42023,-76.16074,18.15488,-15.52384,-71.93304,36.24876,-11.51184,-13.84078,3.26781,-7.42588,-60.00852,23.93154,-6.97478,79.0176,-23.15222,-4.80976,1.1892,0.52506,0.18667,-0.68496,-1.63226,-1.12496,1.5664,-0.63285,-0.21775,3.21527,0.42277,0.81836,0.34697,-0.13172,0.15564,0.48739,-0.06074,0.01351
586,-8.50888,14.05441,-4.00543,-8.76319,13.84915,-8.79648,12.29025,-1.2501,1.76566,-69.2345,25.56713,-10.17909,-74.92153,39.31712,-12.53575,-12.95984,2.81809,-7.05396,-59.91276,29.7682,-0.88994,73.64711,-19.93512,-12.27357,3.88319,-1.91865,-4.47316,-1.10808,-3.07296,-1.44724,2.35933,-1.20329,-2.56282,3.8123,0.11932,0.74724,0.46903,-0.12602,-0.32759,0.48334,-0.10167,0.00806
587,-6.97168,14.97563,-4.34012,-9.45293,14.12122,-8.49371,11.87495,-2.48586,4.08565,-68.28416,37.53216,-3.98391,-76.87638,41.67096,-13.32563,-11.99229,2.54655,-6.55278,-53.19648,53.51401,8.05672,43.14356,-49.25166,-0.39334,3.96957,-0.30393,-5.29535,0.0235,-6.13068,-0.85617,2.39794,-1.52956,-3.49714,4.92362,-0.3983,0.52429,0.35993,-0.06886,-0.69436,0.54558,-0.11327,0.06208
588,-7.99712,17.81062,-5.69988,-9.08404,14.46295,-8.11794,2.01051,6.53656,2.08467,-63.34646,45.39376,1.12558,-77.77388,43.32222,-13.80999,-11.11533,2.34545,-6.12067,-49.59264,83.00072,8.59291,20.55753,-83.99713,18.16884,2.30465,3.88387,-2.58342,1.91036,-8.32073,-0.06136,2.09017,-1.54281,-2.75095,5.72849,-0.81644,0.12204,0.15591,-0.01926,-0.6668,0.64699,-0.13076,0.04667
589,-9.63039,20.96477,-7.51122,-8.30287,13.96614,-7.56414,-10.60022,18.85824,-3.34694,-52.5248,45.59946,4.05996,-77.70811,44.13276,-13.94475,-10.34913,2.10434,-5.76595,-44.45812,103.10825,1.26929,26.52806,-102.86249,25.51963,1.53472,7.01969,-0.29448,3.68305,-9.07995,0.63824,2.08178,-1.40325,-1.65708,6.01244,-1.03763,-0.16471,0.05437,0.00975,-0.35846,0.71416,-0.1775,-0.01885
590,-8.078,21.39773,-8.50925,-8.49312,11.88383,-6.87011,-14.33446,24.28853,-8.51208,-42.98073,37.78403,3.60933,-76.923,43.94918,-13.81878,-9.44574,1.72045,-5.43784,-35.90413,102.70326,-7.95662,49.29852,-103.80744,19.84078,2.19942,7.09416,-0.21569,4.43654,-8.8303,1.1212,2.24613,-1.20318,-1.05384,6.04593,-0.94055,-0.00087,0.06592,0.03797,-0.04704,0.72469,-0.19848,-0.00846
591,-3.1539,18.2231,-8.03307,-8.88089,8.95858,-6.11272,-12.0192,19.41881,-10.59358,-38.4866,24.09058,-0.63005,-75.56003,42.99014,-13.57766,-8.43931,1.32368,-5.0877,-32.80908,81.13522,-16.5742,66.54578,-85.59443,9.21896,3.41406,4.99271,-0.81237,4.29575,-7.56135,1.34976,2.72657,-1.42789,-0.77939,6.09149,-0.46716,0.56683,0.22847,-0.04372,0.06746,0.74752,-0.14337,0.11684
592,1.64499,13.49696,-6.50616,-8.38965,7.18358,-5.42822,-14.65801,9.29691,-9.14101,-36.98084,12.13951,-5.80795,-73.65283,41.70846,-13.30534,-7.79618,1.13824,-4.66545,-44.00852,54.09193,-22.79764,68.06821,-51.83724,2.37479,3.75935,2.8871,-0.24891,4.82818,-5.26004,1.74834,3.46666,-2.19859,-0.78362,6.29879,0.22255,1.28323,0.48328,-0.25092,-0.0454,0.83825,-0.03702,0.29601
593,3.41134,9.37981,-4.73766,-7.66959,7.07579,-4.90831,-24.42102,0.675,-5.70617,-34.8923,8.23679,-7.85618,-71.35539,40.28625,-12.98819,-7.61714,1.10106,-4.19615,-61.58566,39.44776,-23.81349,59.03617,-21.76378,4.3965,2.90419,2.44562,1.25839,6.46037,-2.88883,2.38001,3.94006,-2.87796,-1.03629,6.57772,0.74185,1.78573,0.62074,-0.3967,-0.20352,0.94319,0.03619,0.40958
594,3.19876,6.24759,-3.31316,-7.58842,7.52605,-4.45238,-30.94003,-2.99952,-2.9668,-30.30973,10.1138,-5.87832,-68.91779,38.62532,-12.51294,-7.39284,1.0413,-3.71747,-63.93785,40.71815,-19.49379,49.11173,-14.963,10.98968,2.91665,3.48756,1.75074,6.92597,-1.9737,2.30787,4.19705,-3.16842,-1.09147,6.44497,0.72162,1.61528,0.62874,-0.41577,-0.22002,0.94152,0.00554,0.32421
595,3.52347,3.29752,-2.38249,-7.77874,8.42255,-3.91845,-27.07928,0.56097,-2.87559,-26.2662,13.71439,-1.93723,-66.47105,36.58625,-11.84379,-6.77306,1.04754,-3.18175,-47.02869,54.88503,-12.92255,40.67389,-32.77747,13.87817,4.86889,4.28125,0.20041,4.86526,-2.84347,1.18646,4.28934,-3.12064,-0.726,5.72346,0.31446,0.79277,0.60997,-0.37694,-0.13321,0.8122,-0.08159,0.06699
596,4.59296,0.06292,-1.74552,-7.55833,10.52087,-3.35882,-21.20068,11.18779,-4.63778,-27.19628,18.53237,1.05411,-63.97009,34.01391,-11.14104,-6.0616,1.26263,-2.54888,-35.36699,76.34648,-8.66118,36.47039,-57.24677,13.34558,6.11674,4.26214,-1.02951,2.93262,-4.38363,0.35695,3.95042,-2.75342,-0.21964,5.21584,0.07674,0.07295,0.59174,-0.34107,-0.05317,0.7058,-0.10113,-0.11923
597,4.53341,-1.82322,-1.63285,-6.78368,12.71629,-2.9485,-25.69258,24.3967,-6.07802,-30.98626,21.77679,-0.10141,-61.43011,30.89388,-10.5186,-5.76633,1.48331,-1.93684,-47.20148,90.92741,-11.87386,44.0171,-66.45216,13.24098,4.28523,4.07135,0.27783,3.44539,-5.69279,0.74217,3.29089,-2.33154,-0.14425,5.39999,0.10606,-0.01898,0.54816,-0.33051,-0.02791,0.68304,-0.03951,-0.05877
598,3.68454,-1.69743,-2.13633,-5.48222,12.44188,-2.72035,-35.55222,32.45218,-6.22552,-30.06938,18.2815,-5.49286,-58.98128,27.52978,-9.90876,-5.83989,1.35844,-1.59839,-63.2884,85.74093,-21.98055,55.55836,-58.96624,13.56303,1.56133,3.09865,1.66491,4.86726,-6.53496,1.54191,2.84274,-2.32797,-0.9952,5.5876,0.05422,0.23492,0.4775,-0.34363,-0.09521,0.62798,0.00895,0.15653
599,4.15057,-0.95477,-2.94998,-4.34953,9.44248,-2.51515,-37.16378,34.55864,-7.04055,-22.18807,8.49609,-10.07785,-56.6189,24.53066,-9.20088,-5.76866,0.98358,-1.61791,-58.05559,71.07614,-32.31246,49.35551,-52.92307,16.12108,1.35498,0.78807,0.04421,6.00045,-6.96759,1.85713,2.81093,-2.75208,-2.32564,5.33269,-0.22351,0.15919,0.4002,-0.35481,-0.22192,0.53871,-0.0056,0.26978
600,6.00694,-1.81016,-3.20663,-3.69301,8.11512,-2.11595,-28.98593,32.19083,-9.47212,-13.08572,3.0703,-8.34744,-54.18435,22.30383,-8.48608,-5.27566,0.93237,-1.65242,-35.70435,66.53072,-34.6999,26.34705,-55.82186,22.70625,2.99601,-0.67835,-2.23612,7.86959,-7.13178,1.59451,2.82321,-3.02012,-2.63549,5.15402,-0.60761,-0.65859,0.32001,-0.34282,-0.23435,0.60689,-0.07593,0.10485
601,9.14696,-5.88667,-1.94114,-3.12367,10.57935,-1.53111,-16.51838,19.69699,-9.95125,-8.91161,7.09399,-2.50849,-51.61766,20.76076,-7.93156,-4.6322,1.35164,-1.42107,-13.33649,64.81585,-26.50328,14.4208,-57.50538,28.21312,3.0346,1.02317,-0.71205,9.92978,-6.51857,1.05583,2.50117,-2.70748,-1.19916,5.52504,-0.73174,-1.57747,0.24635,-0.32366,-0.03373,0.90991,-0.14604,-0.19588
602,11.43211,-11.65959,0.65233,-2.72161,13.49073,-1.10696,-10.44203,-3.8545,-5.69997,-8.96575,13.57948,0.77224,-49.12134,19.59323,-7.5394,-4.32612,1.73434,-1.07749,-4.93469,47.46386,-14.52786,27.10702,-51.74651,26.14797,0.39758,4.42707,4.07475,9.27461,-5.30729,0.40506,1.88758,-2.02218,0.75183,5.73898,-0.49169,-1.76113,0.18827,-0.31021,0.23385,1.10267,-0.15561,-0.35253
603,11.24171,-15.80987,3.13942,-2.65186,13.79147,-1.08688,-14.97707,-25.20712,0.72662,-10.41432,16.01975,-0.48022,-46.83072,18.59099,-7.13793,-4.39716,1.68908,-0.92873,-12.92881,21.22026,-6.5945,46.68824,-42.81356,17.60185,-2.27971,5.96233,7.42682,5.50476,-4.99782,-0.21527,1.34164,-1.53022,1.75544,5.11488,-0.23454,-1.35921,0.11588,-0.2915,0.39408,0.86084,-0.11053,-0.26586
604,9.95588,-16.92888,4.30964,-2.9132,12.31655,-1.28168,-21.93275,-31.79941,4.50956,-13.73804,15.15844,-2.66987,-44.65158,17.71784,-6.60078,-4.39664,1.43549,-1.02003,-27.82285,8.24775,-4.5074,51.96193,-37.3342,9.8,-1.92542,4.56715,6.63733,2.59772,-5.88943,-0.39355,1.21252,-1.62522,1.83415,4.51197,-0.0839,-0.9692,0.01484,-0.26495,0.43826,0.45325,-0.0474,-0.06402
605,8.8049,-16.37133,4.284,-2.84505,12.06351,-1.27206,-24.52288,-26.27555,3.9854,-16.80977,16.24758,-1.65349,-42.50268,16.93526,-6.03071,-4.02047,1.40602,-1.12399,-36.30758,17.29757,-5.23763,41.57117,-38.96766,7.62416,1.8483,2.38219,2.90361,3.28069,-6.1971,-0.00487,1.65717,-2.22778,1.5028,4.58185,0.1344,-0.8117,-0.00811,-0.24057,0.34337,0.28805,0.0036,0.0482
606,8.37718,-15.77314,3.81822,-1.84161,13.64256,-1.03205,-23.70487,-17.36803,1.56545,-16.56839,20.81459,1.90594,-40.4255,16.13288,-5.58698,-3.49787,1.54529,-1.17695,-34.68202,37.61372,-5.88679,29.14822,-43.16079,9.15293,6.35813,1.33816,-1.15236,5.82919,-4.67505,0.59686,2.5358,-2.8936,0.54284,4.53479,0.4113,-0.73004,0.18861,-0.22542,0.00278,0.32845,0.03563,0.01004
607,8.69363,-15.66997,3.48978,-0.89853,14.67375,-0.94448,-23.77775,-10.27842,0.20221,-15.76216,23.54746,3.33372,-38.53218,15.25175,-5.28445,-3.23281,1.54908,-1.28753,-33.90332,50.74916,-6.72808,26.25259,-41.04493,10.23918,8.27119,1.50774,-3.2288,7.65897,-2.55285,0.94005,3.39587,-3.27009,-0.92401,3.91931,0.50305,-0.73327,0.54237,-0.25576,-0.44327,0.32415,0.03447,-0.10854
608,9.90288,-15.82432,3.34776,-0.77354,13.47269,-1.12683,-22.27164,-6.16508,0.39306,-16.61715,20.09077,0.67439,-36.87032,14.33602,-4.9956,-3.20928,1.42767,-1.44999,-34.74409,49.36195,-8.61124,31.25797,-33.36433,12.33993,6.56039,2.86168,-1.90037,8.7631,-1.23945,1.11037,3.54028,-3.21911,-1.4115,3.76165,0.53024,-0.68095,0.71852,-0.33889,-0.53722,0.28687,0.00959,-0.17105
609,11.3383,-15.30329,2.97412,-0.73314,11.25696,-1.30418,-16.36223,-2.29731,0.43964,-16.23506,13.82362,-2.71934,-35.36638,13.45787,-4.6226,-3.12177,1.38028,-1.57764,-27.96762,43.48608,-11.35798,34.90957,-28.895,17.64839,3.05132,5.38636,2.24585,9.16447,-1.01457,1.31986,2.56905,-2.74108,0.31702,4.62287,0.7916,-0.30868,0.44817,-0.39718,-0.0182,0.39994,0.01432,-0.08083
610,11.11,-14.24954,2.50986,-0.2748,10.42626,-1.22508,-13.18524,0.55182,-0.45764,-12.67114,11.64493,-2.67562,-33.91563,12.63874,-4.24746,-2.84929,1.46831,-1.62457,-18.48263,41.42846,-13.27658,34.79838,-29.33722,19.3503,0.64141,7.40931,5.89289,6.79908,-2.2526,0.91285,1.18627,-2.14398,2.86983,5.1373,0.98965,-0.09516,-0.06574,-0.36067,0.7003,0.58877,0.04713,0.02281
611,9.14279,-14.46748,2.73071,0.2225,11.31451,-0.99033,-18.08199,-4.5859,-0.61095,-8.59691,15.27392,0.66595,-32.50397,11.85562,-4.01944,-2.50244,1.54237,-1.64211,-17.67102,36.98973,-11.63023,34.2842,-28.77806,10.32933,1.14341,6.86928,5.31634,2.07293,-4.5714,-0.56101,0.75083,-1.86782,3.17886,4.15399,0.66201,-0.74765,-0.31778,-0.22219,0.85442,0.58693,0.04309,-0.06995
612,7.99287,-15.84702,3.38571,0.44164,12.13931,-0.92452,-23.4356,-15.20714,0.7821,-8.05966,19.67761,3.13227,-31.18757,11.11289,-3.92269,-2.19812,1.46316,-1.71772,-23.36284,27.8047,-7.65009,30.7061,-25.51905,-3.89172,4.21331,3.72798,0.38489,-0.64709,-6.22792,-1.97238,1.74635,-2.09004,0.37829,2.60176,0.08398,-1.86631,-0.06124,-0.05778,0.21093,0.38952,-0.00366,-0.27564
613,9.32838,-15.92627,3.26282,0.95807,12.08745,-1.05299,-19.48065,-17.81836,1.61038,-11.19064,20.99097,2.54991,-29.94028,10.41893,-3.79632,-1.90589,1.32919,-1.84153,-24.44369,25.68284,-5.69442,20.33182,-23.63935,-10.29758,7.42891,0.17156,-4.63975,1.76741,-6.26373,-1.66952,3.18022,-2.64383,-2.84034,2.0291,-0.08165,-2.30547,0.45085,-0.03541,-0.63523,0.24058,-0.02044,-0.28857
614,11.27137,-14.12591,2.25797,2.03941,12.12797,-1.09773,-9.53462,-9.84886,0.52141,-14.00241,21.3218,1.59092,-28.67627,9.73043,-3.57559,-1.56183,1.30384,-1.9366,-18.74529,35.85855,-5.91204,13.21767,-24.33807,-2.69329,8.05784,-0.65877,-4.89132,6.89955,-5.09798,0.31393,3.68183,-3.24621,-3.12186,2.4493,0.28408,-1.5719,0.75256,-0.26215,-0.88098,0.23766,0.01774,-0.02656
615,11.03208,-12.8802,1.69135,2.67375,12.6444,-0.98211,-5.15282,-5.03592,-0.3974,-13.73926,22.78053,2.63185,-27.34495,9.0012,-3.3548,-1.1971,1.38211,-1.96653,-14.77065,43.55251,-4.5307,23.50444,-24.40246,11.35033,6.0185,2.01603,-0.23846,8.68374,-3.38535,1.82977,3.00457,-3.78571,-0.18762,2.7175,0.70165,-0.38248,0.61782,-0.60956,-0.33677,0.29251,0.06774,0.20446
616,8.63568,-13.91428,2.34514,2.55049,12.84865,-0.86644,-10.43478,-11.64498,1.02155,-11.73093,23.89842,4.24234,-25.89279,8.24066,-3.20566,-0.86987,1.48592,-1.94899,-18.658,36.06604,-0.99457,43.38787,-22.85665,18.31446,3.68395,4.66004,4.06342,5.02845,-1.82907,1.11237,1.99817,-3.95287,2.66299,2.51575,0.81909,0.05827,0.207,-0.7555,0.39597,0.37131,0.10434,0.09375
617,6.56559,-15.42626,3.24739,3.13167,12.3672,-0.79167,-17.50047,-19.24573,3.19166,-9.48935,23.4969,4.54045,-24.30593,7.53276,-3.05228,-0.59411,1.59822,-1.91887,-23.74922,24.70259,0.69085,48.82125,-21.99121,13.84403,2.98926,3.99752,3.93741,0.35844,-1.07894,-0.9275,1.67037,-3.47599,2.66611,2.2698,0.7149,-0.51939,-0.10796,-0.5241,0.66638,0.41295,0.12227,-0.2628
618,6.59716,-15.04116,3.18262,4.89524,11.61573,-0.70928,-17.02511,-16.92521,3.43196,-7.75426,22.35368,3.77018,-22.73591,6.93948,-2.82101,-0.37155,1.68322,-1.90383,-20.29906,25.34975,-0.88739,34.3868,-22.6585,5.20085,3.90205,1.90831,1.46215,-1.62075,-1.46277,-2.22705,2.06815,-2.68322,1.14395,1.85596,0.56026,-1.23027,-0.12209,-0.1148,0.48341,0.24863,0.09939,-0.48388
619,8.44538,-13.53643,2.3952,5.88515,11.16324,-0.68026,-9.67737,-9.17546,1.93168,-9.30223,21.27882,2.70565,-21.34253,6.39091,-2.57657,-0.21696,1.65314,-1.9039,-14.00585,34.85691,-2.64386,19.51565,-22.81062,1.21188,4.78911,2.05294,1.0141,-1.13787,-2.42863,-2.04178,2.10266,-2.08885,1.08192,1.23356,0.45437,-1.30464,-0.0058,0.07687,0.31201,-0.08544,0.03184,-0.37202
620,10.58793,-13.04525,1.861,4.99782,11.40846,-0.67388,-3.87629,-4.813,0.37242,-14.21402,19.9631,1.64367,-20.07499,5.79995,-2.4011,-0.07008,1.56686,-1.86489,-16.59072,40.04786,-3.70596,17.5032,-22.06666,5.85136,3.89061,3.94948,2.78175,1.98457,-2.11162,-0.45079,1.19659,-1.74723,2.34833,1.37268,0.58856,-0.60226,0.01269,-0.04903,0.328,-0.22483,-0.02207,-0.09106
621,11.18592,-13.90276,1.98602,4.0155,12.56139,-0.474,-5.52965,-5.8786,-0.30094,-16.57146,19.16647,1.40254,-18.81706,5.18747,-2.28143,0.16654,1.6137,-1.74053,-25.32671,35.54156,-5.53597,22.54744,-23.51274,15.73334,1.35639,4.12643,3.15984,8.20551,0.16942,2.0864,0.52825,-1.49587,1.99949,3.16236,1.19133,0.48705,0.03491,-0.21071,0.22217,0.0944,0.02295,0.09299
622,9.71168,-14.96055,2.51479,4.66837,14.26937,-0.07769,-12.58664,-9.99107,0.31028,-13.5315,21.42562,2.76273,-17.58214,4.58366,-2.15937,0.44015,1.78163,-1.60016,-30.1631,28.10661,-6.57682,29.32056,-25.12002,18.96395,-0.61913,1.48756,0.59988,13.16122,2.18631,3.78373,1.10951,-1.28744,-0.68699,5.29749,1.96325,1.20391,0.16768,-0.19551,-0.09253,0.58636,0.15717,0.12131
623,8.25222,-15.46132,2.93276,6.44257,15.46893,0.25335,-16.4221,-13.82537,1.67963,-9.79576,25.86676,4.63491,-16.43402,3.95973,-2.01266,0.62865,1.90898,-1.52347,-27.00903,25.60711,-4.94003,38.46849,-17.8437,6.21468,-0.04483,-1.16371,-2.08849,10.36487,1.58129,2.5389,2.0081,-1.28413,-2.66916,5.25556,2.07225,0.90491,0.23542,-0.08963,-0.25937,0.74689,0.23481,0.09215
624,9.02944,-15.61357,2.95291,8.12744,15.15213,0.35924,-10.85783,-16.20804,2.60374,-8.96001,26.29037,4.38617,-15.35029,3.2987,-1.85646,0.75731,1.9686,-1.49214,-17.05091,22.81631,-3.2327,41.25097,-1.6178,-13.82056,3.08182,-0.98301,-2.13893,0.73183,-1.50158,-1.53699,2.07663,-1.72536,-1.77658,2.52831,1.15597,-0.66958,0.16195,-0.06432,-0.15752,0.43152,0.16498,-0.05692
625,11.20143,-16.02595,2.86012,8.94189,13.74568,0.26121,-0.79241,-19.38586,2.94235,-9.74018,20.86686,1.4774,-14.26588,2.63534,-1.69462,0.87943,2.01377,-1.48072,-6.79659,11.53308,-4.08051,28.32536,7.54175,-21.96162,7.50595,1.22583,-0.53772,-7.16241,-4.61834,-5.24102,1.59584,-2.48005,0.58629,-0.39146,0.00337,-2.44456,0.11644,-0.13324,-0.0386,-0.00023,0.03552,-0.3297
626,12.36697,-16.64609,2.95812,8.76173,13.15372,0.17652,3.88323,-22.9623,2.96471,-10.44984,17.02066,-0.66563,-13.24284,2.08238,-1.50159,0.98213,2.12341,-1.45379,-4.46776,1.41667,-5.79545,10.99775,-1.48072,-12.87042,11.04878,2.5769,0.56111,-7.55308,-5.67775,-5.68148,1.20174,-2.97973,2.27586,-1.07482,-0.36132,-2.85525,0.16035,-0.2122,0.01097,-0.1822,-0.03096,-0.49618
627,11.95191,-16.96233,3.14233,7.998,14.42926,0.35543,1.30169,-23.31953,2.51173,-11.63492,20.22959,0.69527,-12.39968,1.69221,-1.28518,1.07857,2.37889,-1.33211,-10.56926,6.57488,-5.58887,7.55481,-18.55899,0.79401,11.08067,2.21501,1.06286,-2.81478,-4.71297,-3.49996,0.89738,-2.84271,2.82911,0.29842,0.18449,-1.8531,0.17872,-0.27396,0.12291,-0.10946,0.00306,-0.42427
628,11.37518,-16.83865,3.25824,7.27874,16.10644,0.67597,-1.97086,-20.54039,2.27176,-13.46052,25.25729,3.24939,-11.65261,1.31848,-1.07072,1.20947,2.6718,-1.14779,-17.01111,19.65755,-3.35717,17.50478,-27.75062,7.64108,7.62199,1.62608,1.61339,1.66742,-3.07634,-1.06486,0.64098,-2.36628,2.60609,1.74746,0.87674,-0.54114,0.10719,-0.30488,0.27894,0.01281,0.06182,-0.17982
629,11.75193,-16.58134,3.33502,7.24897,16.74995,0.90225,-1.59039,-18.16867,3.02481,-13.93551,26.10178,4.0675,-10.82537,0.80927,-0.85244,1.3873,2.82748,-1.01905,-17.59919,25.08426,-0.91137,28.31005,-27.71544,8.29513,3.72424,1.8465,1.99415,3.69483,-1.99329,0.43408,0.55111,-2.08205,1.91103,1.96457,1.04909,0.27888,-0.03195,-0.27554,0.33703,0.06819,0.06261,0.09242
630,12.70919,-16.4485,3.37052,7.77606,17.02722,1.07784,0.04549,-16.84512,3.76515,-13.02066,25.12848,4.1278,-9.95722,0.24664,-0.64518,1.5708,2.85069,-0.97367,-16.0687,23.98931,0.12754,33.31527,-24.96251,5.97761,1.84151,2.20731,1.68809,3.86851,-1.61676,1.08958,0.45161,-1.90544,1.07605,1.37359,0.73589,0.61354,-0.18835,-0.16359,0.23629,0.0993,0.01909,0.25152
631,13.06188,-16.66518,3.44056,8.19926,17.81341,1.24075,-0.88561,-15.72543,3.69441,-13.30384,26.64437,4.85293,-9.18871,-0.19134,-0.5072,1.69929,2.77743,-0.98457,-18.76675,24.13671,-0.43023,30.23674,-17.83045,-0.20113,2.46324,1.88619,0.78807,2.54739,-1.29768,1.07075,0.17871,-1.52101,0.51181,0.65999,0.24993,0.67427,-0.25335,0.00183,0.01163,0.08257,-0.03105,0.24418
632,12.6787,-17.35723,3.73922,8.37601,18.63074,1.19801,-2.65899,-16.53599,4.05839,-15.31902,29.46892,4.65511,-8.46411,-0.46812,-0.42935,1.74237,2.55245,-1.06749,-22.33325,21.65549,-1.56461,21.5412,-3.67009,-8.21804,4.79811,1.58209,0.43305,-0.26435,-0.76349,0.36703,0.09399,-1.44917,0.70126,0.14864,-0.13374,0.60203,-0.13241,0.0624,-0.16424,-0.03077,-0.07871,0.14663
633,12.41894,-18.07178,4.14322,8.61646,19.12641,0.98054,-0.87575,-19.80511,5.22585,-16.60432,30.62039,2.69224,-7.72678,-0.62862,-0.32412,1.72751,2.28371,-1.19077,-18.92286,12.94722,-2.00742,17.18056,8.38357,-10.33991,6.21154,2.50729,1.63182,-3.41719,-0.79862,-1.04462,0.61628,-2.29367,1.54169,0.33092,-0.06314,0.37318,0.10871,-0.1158,-0.08931,-0.10603,-0.07086,0.01824
634,12.66064,-18.43233,4.33229,8.80267,20.2525,1.03942,2.62873,-22.39596,5.27048,-15.71444,31.83208,2.27477,-7.13194,-0.67699,-0.16242,1.6837,2.26371,-1.22211,-11.55129,9.32796,-0.5307,21.99439,6.57802,-2.81991,4.4312,3.83295,3.21762,-4.57433,-1.84589,-2.52813,1.46362,-3.24952,1.93143,1.00059,0.45135,-0.16353,0.28361,-0.36784,0.13861,-0.05016,0.02898,-0.13894
635,13.46704,-18.49313,4.23713,8.6428,21.97779,1.48933,1.72904,-21.48036,3.45112,-14.39951,34.51673,5.20426,-6.72848,-0.66069,0.00833,1.60975,2.49158,-1.1442,-11.92926,18.45036,1.52157,29.49939,-8.95765,7.60686,1.67148,3.2802,2.99558,-2.44565,-2.73295,-2.58179,2.0392,-3.23623,1.18066,1.118,0.73108,-0.65574,0.32506,-0.44291,0.22804,0.01401,0.10321,-0.21754
636,14.79043,-18.52143,4.10172,8.65009,22.49111,1.83041,-2.8536,-19.21103,2.13916,-14.49738,35.13689,7.80751,-6.32449,-0.76108,0.11344,1.53295,2.61745,-1.11405,-21.02999,27.01618,1.45544,30.00296,-25.36374,10.87488,2.08131,0.83975,1.0784,1.20218,-2.55543,-0.94734,2.09984,-2.56908,0.22095,0.62305,0.41836,-0.52692,0.30153,-0.35825,0.15051,0.02287,0.04127,-0.1146
637,15.95488,-19.12732,4.25458,8.96911,21.2076,1.69209,-4.11651,-20.21987,3.4149,-15.88103,32.37289,7.02547,-5.82298,-1.11635,0.09322,1.45692,2.48054,-1.20726,-26.99313,22.86511,-0.00669,20.27471,-28.23634,5.15185,5.44627,-1.00018,-0.30961,3.36909,-2.02197,0.61746,1.74694,-2.14265,0.23013,0.54626,0.05459,0.08671,0.24786,-0.27844,0.10931,0.06122,-0.06671,0.06331
638,16.37433,-20.12577,4.58873,8.62208,19.57481,1.26831,-0.19632,-23.94934,5.70426,-17.70795,29.19721,4.53341,-5.34901,-1.57057,0.02633,1.31985,2.2791,-1.33793,-24.04684,13.15341,-0.93821,9.47269,-15.78154,-2.22135,7.60884,-0.74099,0.09539,3.19364,-1.73493,0.86353,1.19466,-2.12871,1.0558,1.07557,0.13272,0.5385,0.1476,-0.25712,0.18612,0.10831,-0.08353,0.13445
639,16.14667,-20.51482,4.67513,7.38168,19.26307,1.05429,4.70073,-26.5763,6.11685,-18.97572,28.11784,3.50469,-5.04178,-1.85941,0.05752,1.04349,2.22636,-1.40291,-17.11207,8.06837,-0.70068,10.08808,0.04306,-5.27452,6.19725,0.67207,1.40039,1.80737,-1.41742,0.22431,0.78747,-2.20747,1.65242,1.39429,0.43662,0.47993,0.03463,-0.24866,0.27051,0.0575,-0.01119,0.04785
640,15.98642,-19.99697,4.38038,6.32564,20.47741,1.2461,9.4348,-27.09549,4.39486,-19.85211,29.48532,4.69664,-4.88222,-1.96568,0.20631,0.61382,2.26049,-1.40963,-10.56759,8.40325,1.26026,20.91725,5.84164,-4.77587,2.9483,1.3553,1.9255,0.60193,-1.25644,-0.46607,0.91819,-2.21374,1.28198,1.32311,0.56292,0.16096,0.01038,-0.2274,0.23403,-0.0267,0.03963,-0.07949
641,16.13037,-19.44297,4.04899,6.06707,21.74575,1.51615,13.16046,-26.75066,2.7308,-20.88494,31.87145,6.35976,-4.76388,-2.10373,0.33127,0.12742,2.16502,-1.43965,-7.67461,11.32571,3.58494,29.97211,-1.64486,-2.70668,0.8306,0.96743,1.25825,0.78843,-1.84367,-0.80119,1.3721,-2.0365,0.28943,1.43226,0.54401,-0.04471,0.08522,-0.17796,0.08119,-0.00564,0.00654,-0.09646
642,16.31,-19.8155,4.09495,5.99094,21.60712,1.4669,11.98297,-26.6883,2.97943,-21.17114,32.55531,6.34347,-4.60148,-2.39715,0.31432,-0.30691,1.86423,-1.52294,-11.50172,12.59542,2.82071,32.4872,-12.93924,0.62995,0.68153,1.18674,0.74804,2.3687,-2.71467,-0.86347,1.35817,-1.60561,-0.18473,1.84711,0.71763,-0.20159,0.1344,-0.09814,-0.05074,0.1007,-0.02156,-0.03244
643,16.53533,-21.18953,4.57071,5.65664,20.48848,1.1535,6.4207,-27.67003,4.99794,-19.51908,31.03968,4.47874,-4.37408,-2.75361,0.2003,-0.69968,1.48464,-1.60663,-18.32558,9.24084,-1.01287,35.10365,-17.65104,4.07165,1.30116,2.64662,1.31319,3.63118,-2.66389,-0.68245,0.82854,-1.25736,0.25737,2.18023,1.02718,-0.24527,0.11632,-0.04935,-0.07334,0.19753,0.02851,0.00994
644,16.74668,-21.91452,4.89089,5.2981,20.25735,1.00715,3.42181,-27.11945,6.54895,-17.5548,31.22106,3.22634,-4.1311,-2.99885,0.14889,-1.14656,1.22744,-1.60821,-20.01484,8.99334,-2.87842,40.87511,-15.42336,5.788,1.95634,3.46353,1.82722,3.69143,-1.56643,0.07564,0.69996,-1.3625,0.63931,2.26587,1.07106,0.23925,0.1336,-0.06688,-0.06403,0.27036,0.08281,0.07155
645,16.10063,-19.90875,4.39086,5.11368,21.41234,1.18677,5.03236,-21.5062,5.75634,-18.00683,35.14915,4.30079,-3.93938,-3.07558,0.26644,-1.64316,1.14783,-1.5526,-17.01914,19.2721,-0.39808,39.76065,-9.26808,5.43456,3.12883,2.2377,1.07369,3.80409,-0.49932,1.28699,1.34763,-1.75919,0.2472,2.05299,0.83207,0.96145,0.21017,-0.10615,-0.08117,0.29347,0.07874,0.18312
646,14.21432,-16.16719,3.40899,4.93457,21.76904,1.26418,5.22309,-14.87168,3.88467,-20.90577,36.89001,5.45349,-3.81896,-3.13338,0.47518,-2.0733,1.05906,-1.61812,-18.61834,26.75095,2.05841,26.30332,-1.09573,2.92272,5.01618,-0.26258,-0.41373,4.50319,-0.02114,1.97617,2.06279,-2.04483,-0.32438,1.70405,0.70337,1.11041,0.22004,-0.1317,-0.03008,0.24093,0.06577,0.22469
647,12.3581,-14.42458,3.00453,4.40538,20.11972,1.01955,1.40733,-15.37488,3.45237,-24.44843,31.87793,4.58565,-3.79862,-3.27774,0.59398,-2.39272,0.89268,-1.81993,-27.7467,16.53212,1.59311,14.43353,3.69443,-2.36959,6.83524,-2.567,-1.57595,4.07505,-0.00585,1.26393,2.19498,-2.04342,-0.45353,1.69742,0.85052,0.62642,0.11233,-0.13739,0.10235,0.16354,0.07462,0.12472
648,11.61787,-16.41381,3.64249,3.32757,18.50059,0.82983,-3.26956,-22.88762,4.89646,-27.42845,25.89415,3.56838,-3.94686,-3.32983,0.53264,-2.65974,0.8324,-1.93376,-38.60861,-0.89349,0.89866,18.7565,0.55342,-7.45524,7.10134,-3.21564,-1.8157,1.94511,-0.56207,-0.39026,1.84493,-1.86396,-0.33469,2.14917,1.03947,0.147,0.03782,-0.14201,0.13639,0.13689,0.07234,-0.02344
649,11.72664,-19.76584,4.70193,2.18675,18.55957,0.89644,-6.66061,-29.1086,6.87,-27.49492,25.0566,3.96932,-4.25594,-3.05136,0.37288,-2.86683,0.91598,-1.88689,-43.45353,-7.37114,0.70031,33.26703,-6.73869,-7.14171,4.79826,-1.68455,-0.96165,0.59484,-1.54587,-1.54241,1.21239,-1.5231,-0.20047,2.62636,1.09538,-0.07179,0.07669,-0.14585,0.00181,0.19302,0.06801,-0.13424
650,12.2949,-21.30458,5.20559,1.65852,19.40443,0.98674,-6.49371,-29.44538,7.90244,-23.50022,27.10208,4.29074,-4.62341,-2.52669,0.24011,-2.93511,0.98872,-1.8088,-36.99216,-2.41478,-1.17888,40.67996,-10.80669,-2.07981,1.38218,0.24929,0.22377,1.73789,-2.09157,-1.35632,0.47555,-1.02031,-0.02043,2.72415,1.07405,-0.16732,0.10501,-0.12312,-0.12467,0.2714,0.08273,-0.17304
651,13.68662,-20.57715,4.78839,1.83012,19.60814,0.92002,1.98236,-27.03813,7.08464,-19.90093,27.7857,3.39921,-4.93547,-2.07411,0.18429,-2.81988,0.98719,-1.78209,-20.53494,4.69077,-3.04962,34.66442,-8.78494,1.59488,0.04903,0.60685,0.74421,3.94999,-1.73011,-0.34893,0.22037,-0.85712,0.19958,2.42985,1.1027,-0.16903,0.07147,-0.11229,-0.0925,0.2822,0.09509,-0.0987
652,15.40803,-19.67687,4.05737,2.49133,19.22168,0.82621,16.2926,-26.53352,4.91335,-20.27269,28.25613,2.925,-5.19975,-1.82767,0.14737,-2.49648,1.00621,-1.77482,-3.26696,11.15355,-1.10378,24.97576,-3.03061,0.6245,1.93993,0.05482,0.71245,5.26923,-1.11913,0.47185,0.78851,-1.44724,0.41886,1.86558,1.13839,-0.14476,0.0462,-0.12584,0.02785,0.19591,0.07821,0.04485
653,15.41504,-19.39129,3.66076,3.08064,19.15587,0.86375,23.15365,-26.63292,2.99022,-22.4515,30.78785,4.18278,-5.55626,-1.58693,0.07903,-1.95357,1.14462,-1.73584,1.56287,18.62193,2.68355,24.55111,1.00343,-2.1196,4.58365,0.28616,0.78088,5.19863,-0.95384,0.87399,1.75892,-2.36326,0.50179,1.42065,0.97191,0.06138,0.04869,-0.08771,0.08003,0.09283,0.00898,0.17104
654,12.89056,-18.61856,3.6176,2.72334,19.3728,0.88756,14.90072,-24.26018,2.81639,-24.66105,32.77605,5.39061,-6.09068,-1.19585,-0.00667,-1.18887,1.35873,-1.6878,-12.29847,22.32335,3.12891,33.43102,-0.18007,-3.00523,4.96249,1.00809,0.6972,4.1404,-1.1564,1.0505,2.32399,-2.54836,0.14015,1.4581,0.65996,0.5774,0.04032,0.06334,0.00193,0.04985,-0.07662,0.22651
655,10.05048,-17.56759,3.71976,1.75406,19.21876,0.7583,1.02952,-21.53392,4.26493,-27.1304,31.34295,4.91148,-6.74416,-0.79371,-0.10823,-0.14792,1.57626,-1.66784,-33.26241,17.13356,0.39705,38.87201,-4.97954,-1.41102,3.04665,0.87334,0.02111,3.03302,-1.36402,0.72849,1.95773,-1.57919,-0.51162,1.72711,0.60991,0.74718,0.03846,0.2019,-0.12237,0.05697,-0.06081,0.13973
656,9.28823,-17.07805,3.68524,1.58066,18.82641,0.6577,-5.09067,-20.33728,4.99547,-28.38128,28.76273,4.17435,-7.44642,-0.47476,-0.20707,1.19094,1.84618,-1.63395,-42.56006,10.94005,-1.79132,32.48974,-11.04331,2.22582,1.56177,-0.279,-0.58892,2.90439,-1.35882,0.05267,1.20042,-0.72728,-0.67946,1.84012,0.87664,0.21242,0.13185,0.0727,-0.14874,0.106,0.06114,-0.04743
657,10.49529,-17.09807,3.41874,2.44967,18.68721,0.71303,-0.91983,-20.05977,3.82866,-28.06133,28.30651,4.53355,-8.11765,-0.1609,-0.26843,2.68873,2.21603,-1.52538,-36.10478,11.83033,-1.41582,21.43778,-16.69152,5.93002,2.62893,-1.84174,-0.49725,3.94362,-1.17722,-0.06929,1.26203,-1.49039,-0.15323,1.80931,1.0681,-0.28728,0.31873,-0.32095,-0.04797,0.17026,0.14074,-0.14577
658,12.242,-17.35088,3.20978,3.47734,18.60956,0.7562,8.06236,-20.92404,2.73657,-28.55049,28.78042,4.62047,-8.63809,0.18555,-0.29799,4.16005,2.6331,-1.35253,-24.81339,13.29429,1.13924,19.63167,-16.92101,4.59196,5.22998,-3.04683,-0.09444,5.24553,-1.03554,0.33644,2.03728,-3.09006,0.48983,2.0278,1.20987,-0.25568,0.38573,-0.60192,0.08558,0.23939,0.14751,-0.09278
659,12.91242,-17.68525,3.31395,4.79918,18.56515,0.78842,13.60307,-23.19321,3.51564,-27.79426,28.03712,3.59954,-9.08792,0.55171,-0.35395,5.56973,3.07075,-1.15463,-17.6576,8.41949,2.9997,30.20089,-7.07906,-4.11633,6.63772,-3.03645,-0.00468,5.20818,-1.11589,0.06434,2.12751,-3.37966,0.75848,2.53853,1.57448,-0.14596,0.19151,-0.47515,0.15639,0.33696,0.17645,-0.00486
660,11.72727,-17.70679,3.5505,6.78988,19.08693,0.99962,10.36009,-25.41226,5.25764,-22.46279,27.20058,2.96633,-9.67515,0.94103,-0.47103,6.97698,3.54578,-0.95705,-16.20161,2.40045,1.4893,43.32092,7.30119,-13.6107,5.86322,-2.08167,-0.42461,3.03909,-1.52382,-1.21876,1.4104,-2.10013,0.47121,2.64462,1.8085,-0.32966,-0.03502,-0.14355,0.13966,0.39183,0.20155,0.04073
661,9.62506,-16.61798,3.45012,8.64082,20.21423,1.33702,2.08573,-24.44749,5.94346,-17.24215,28.2623,3.73232,-10.39068,1.35417,-0.59081,8.42823,4.04237,-0.77572,-20.24647,3.63035,-1.69368,49.37874,13.67854,-14.25733,4.57371,-1.4373,-0.93101,0.55897,-1.96228,-2.19077,1.23387,-1.13982,-0.09215,2.01558,1.45926,-0.55648,-0.00591,-0.02532,0.09865,0.30234,0.14213,0.02667
662,8.40091,-14.77289,2.93583,9.63043,21.23923,1.57403,-2.08929,-20.55598,5.04216,-18.2236,30.75019,5.05618,-11.06464,1.74532,-0.66474,9.91065,4.52376,-0.61105,-26.21644,10.53601,-2.49893,45.01174,7.00953,-3.98033,3.77852,-1.20372,-0.8859,0.8852,-1.50446,-1.36813,1.98814,-1.49115,-0.49864,1.37089,0.8934,-0.44151,0.23027,-0.1744,0.05182,0.12046,0.06339,-0.05796
663,8.21393,-13.8142,2.51604,10.03546,21.75613,1.67549,-1.1367,-18.35621,3.85498,-22.42197,32.65279,5.74969,-11.6615,2.06519,-0.7459,11.31225,4.96021,-0.41891,-29.73379,15.23888,-1.02021,32.77871,-4.91618,8.83657,2.18886,-0.22263,-0.16461,4.14514,-0.29556,0.50056,2.53101,-2.06266,-0.70597,1.47346,0.90381,-0.17476,0.39038,-0.27491,-0.06412,0.0117,0.0965,-0.16873
664,7.9161,-14.70572,2.66326,10.1462,22.14453,1.76475,-1.18628,-21.45309,3.98077,-24.01621,33.16422,5.45136,-12.23567,2.31103,-0.88157,12.50386,5.31869,-0.1578,-31.60341,13.53726,0.05943,22.28318,-12.09124,13.44386,-0.21333,1.84883,1.01225,6.75758,-0.17229,0.94357,1.94808,-1.87968,-0.50665,2.16104,1.56462,-0.30635,0.26636,-0.16333,-0.15403,0.08207,0.21508,-0.19786
665,7.65991,-16.52954,3.14984,10.15798,22.34755,1.81455,-0.89171,-28.42162,5.12418,-23.43998,31.25101,4.16532,-12.75907,2.55239,-1.00201,13.4752,5.57986,0.06342,-31.2967,4.40634,0.64759,22.10062,-12.67859,8.02844,-0.59424,3.33011,2.07331,6.82637,-1.44341,-0.15104,0.88325,-1.54506,0.36664,2.64846,2.01787,-0.70126,-0.03192,-0.04328,-0.02751,0.24496,0.24153,-0.09946
666,8.46379,-17.43406,3.27045,10.58099,21.90611,1.73034,6.30108,-32.8605,5.01481,-23.89946,26.84136,2.72876,-13.18342,2.88455,-1.0168,14.28468,5.80226,0.06566,-24.18125,-6.36532,1.72801,29.60537,-9.28948,-1.94962,2.70953,1.95544,1.67643,5.71257,-2.22932,-0.54936,0.58901,-1.6679,1.12328,2.80896,1.74352,-0.46685,-0.179,-0.0792,0.20188,0.35812,0.12643,0.04991
667,9.75173,-16.46471,2.77124,11.38728,21.02954,1.51445,16.55807,-28.09199,2.82172,-26.08749,23.82029,2.53125,-13.52902,3.25837,-0.9586,14.93572,6.03517,-0.12953,-14.50181,-3.24162,2.11872,36.58149,-4.66065,-10.97464,7.50116,-1.88812,-0.63337,4.34271,-1.90011,0.29671,1.3517,-1.9253,0.69983,2.93129,1.13015,0.5725,0.00767,-0.19581,0.20926,0.34272,-0.0071,0.13087
668,9.60843,-14.38906,2.18779,12.07312,20.73844,1.32848,17.94449,-16.08719,1.0929,-28.58474,25.94319,3.30182,-13.82423,3.45349,-0.9374,15.36475,6.22001,-0.24376,-15.37285,17.07393,0.68788,38.61155,-4.85634,-11.34639,9.68933,-4.43065,-2.72286,4.5468,-0.72481,1.91193,2.40644,-2.05032,-0.48196,3.21396,0.78166,1.67343,0.36253,-0.27366,-0.0418,0.28473,-0.05467,0.12725
669,7.7259,-12.70383,2.03456,12.80908,21.70264,1.42717,8.78156,-7.59651,1.98489,-28.8887,30.91292,3.34778,-14.06748,3.40353,-0.97763,15.50071,6.2889,-0.07391,-26.62073,32.66711,-1.34742,35.05516,-11.21696,0.28985,7.22308,-3.03166,-2.3088,7.31176,0.94759,3.82659,2.91483,-2.12624,-1.11666,3.58792,0.82982,2.24356,0.54711,-0.27092,-0.24105,0.3434,-0.03186,0.16335
670,5.91159,-12.4731,2.24098,13.66969,23.21159,1.83941,-0.26169,-10.41545,3.95592,-25.48664,34.11551,2.90901,-14.28162,3.3415,-1.03245,15.34242,6.29106,0.24261,-32.425,26.21574,-1.7857,30.27856,-12.03701,10.39937,2.86564,-0.21153,-0.54188,8.11711,0.88303,3.27999,2.85204,-2.12764,-1.03845,3.39815,1.20364,1.55379,0.46864,-0.21605,-0.21886,0.4422,0.047,0.20931
671,5.37319,-13.71988,2.52128,13.69528,23.95332,2.23585,-2.86562,-21.14172,4.68276,-21.03668,34.19466,3.54444,-14.47155,3.43496,-1.10213,14.96432,6.30659,0.42052,-27.78855,6.85891,-0.31754,29.36853,-0.37663,5.80098,0.86875,0.18246,-0.13226,4.30531,-1.67269,-0.70308,2.63537,-1.88149,-1.04002,2.29359,1.74451,-0.45016,0.29774,-0.13299,-0.11981,0.3615,0.19035,0.08043
672,6.0999,-14.97312,2.62177,12.62745,23.05438,2.23449,-0.56166,-28.89783,4.17637,-20.04672,30.59109,4.19659,-14.53446,3.59234,-1.15633,14.50597,6.28523,0.3258,-22.53152,-8.17773,1.11045,30.40248,11.35548,-3.81479,1.47802,-1.24646,-0.904,1.3073,-2.93634,-3.37434,2.4843,-1.61925,-1.18206,1.33457,2.01496,-1.90731,0.19101,-0.07752,-0.06445,0.17039,0.3066,-0.16262
673,7.47327,-15.25823,2.5776,11.43117,21.36115,1.94389,4.25255,-28.67362,3.69757,-23.16042,25.39621,3.61686,-14.41909,3.69258,-1.11629,14.08093,6.17901,0.11642,-22.46598,-11.26449,2.05334,31.5695,10.18839,-3.63479,2.42573,-1.38346,-0.71603,3.23879,-0.9334,-1.56797,2.21302,-1.69393,-0.73836,1.50962,1.70928,-1.41249,0.14933,-0.10398,-0.00747,0.08465,0.25663,-0.26705
674,8.54868,-15.09756,2.5852,10.03819,20.87931,1.78414,9.46743,-24.29746,3.36946,-28.45918,24.05699,3.07491,-14.2454,3.75699,-0.98052,13.56171,6.02712,0.04336,-25.74253,-4.15425,2.84271,34.06569,1.58444,1.46003,3.07091,0.30998,0.6844,5.80027,0.23278,0.79907,1.47023,-1.84148,0.40505,2.20446,1.20784,-0.21969,0.07757,-0.14766,0.07352,0.12453,0.07486,-0.15289
675,8.21527,-14.99614,2.68843,8.41062,22.18052,1.93857,11.13479,-20.44215,2.86622,-31.81809,28.08565,3.6533,-14.13193,3.79229,-0.86328,12.71609,5.83424,0.13298,-28.10183,4.99074,2.26691,34.20928,-3.55229,-0.69146,3.91121,1.67611,1.50558,4.46767,-2.07564,-0.31138,0.56972,-1.65776,1.24463,2.51765,1.23384,-0.08988,-0.01089,-0.12904,0.08678,0.21825,-0.00342,0.00153
676,6.4734,-14.90039,2.86466,8.05374,23.55766,2.24256,6.76451,-19.04401,2.99333,-27.89492,32.75481,4.6903,-14.05198,3.71149,-0.84113,11.62675,5.59267,0.21673,-25.77451,9.95098,0.37217,29.93699,-5.93102,-6.70125,4.87962,1.16172,0.7359,2.0634,-3.69813,-2.16472,0.49347,-1.42227,0.9331,2.17944,1.58609,-0.62945,0.03827,-0.1118,-0.00583,0.23289,0.09181,0.02471
677,5.06488,-15.02537,3.12093,9.02219,23.21237,2.33671,-0.56499,-20.92921,4.46259,-19.15034,34.1161,5.29343,-13.94324,3.47613,-0.86784,10.62274,5.35911,0.17275,-22.15543,12.64441,-0.35154,28.48256,-9.17907,-5.78839,5.26585,-0.39537,-0.5559,3.19659,-1.45231,-0.88131,1.36564,-1.51884,-0.00306,1.82243,1.65945,-0.48722,0.23183,-0.17458,-0.08441,0.18335,0.20279,-0.02588
678,5.731,-15.57901,3.29305,8.78306,20.98731,1.93085,-3.64957,-25.26031,6.08974,-16.04986,31.96433,4.83467,-13.83638,3.17595,-0.87999,9.77247,5.14663,-0.01848,-23.52313,14.10929,0.91529,32.24501,-8.4432,-0.06201,4.78155,-1.43351,-1.01616,6.03352,0.7366,1.43445,1.9828,-1.63492,-0.41303,2.01228,1.44498,0.17758,0.31773,-0.22582,-0.03528,0.1767,0.18602,-0.03194
679,8.34375,-15.71547,3.02807,6.12121,18.01002,1.16661,2.31547,-27.22785,5.81409,-22.22179,27.04634,3.19897,-13.81392,2.97522,-0.85135,8.81801,4.85036,-0.32036,-25.446,12.14939,1.9264,35.29652,-0.86704,0.14033,4.28331,-1.78581,-0.86587,5.67446,-1.01253,0.83714,1.72974,-1.43103,-0.17528,2.43678,1.22717,0.25612,0.17957,-0.15761,0.0692,0.20165,0.0577,-0.02683
680,10.28756,-15.06393,2.50051,2.94698,16.00253,0.63876,10.82702,-23.85315,3.82807,-29.39363,21.71854,1.78344,-13.95108,2.95596,-0.81678,7.58171,4.42559,-0.59744,-22.46375,9.41287,1.24176,35.90225,4.8604,-6.03879,4.20797,-1.51776,-0.71945,1.80305,-4.48495,-2.42838,1.43759,-1.27945,-0.03934,2.53254,1.22137,-0.60496,0.03565,-0.0524,0.07775,0.19978,-0.00698,-0.14851
681,9.36325,-14.93988,2.43359,1.82854,16.24912,0.85092,10.60716,-19.60318,2.47598,-29.03651,19.79545,2.17583,-14.20184,3.03028,-0.83911,6.20728,4.03239,-0.66486,-19.62497,9.58529,-0.41568,34.64776,-0.70361,-9.24814,3.80642,0.12682,-0.13127,-1.38285,-5.67269,-4.91986,1.67791,-1.59155,-0.13176,2.14234,1.43126,-1.65996,0.0631,-0.0357,-0.01946,0.14852,0.09021,-0.36972
682,7.1817,-15.94259,2.92414,3.07795,18.03115,1.58824,2.10613,-18.99591,2.67144,-21.94503,21.90251,3.85324,-14.36708,3.06452,-0.88056,4.9571,3.81359,-0.52462,-21.36224,10.37691,-2.61883,29.56267,-12.5126,-2.98772,2.94211,2.50278,1.0637,0.90042,-3.16611,-3.23185,1.95202,-2.0884,0.03146,1.93858,1.6289,-1.50015,0.16285,-0.09094,-0.09765,0.17605,0.2152,-0.37008
683,6.68689,-16.77762,3.31855,4.59424,19.5243,2.20087,-3.81036,-20.44117,3.47399,-15.9921,25.75094,5.34326,-14.32875,3.02048,-0.83792,3.86271,3.69582,-0.35323,-24.0891,9.1762,-3.73777,22.70705,-13.91486,7.30685,2.62466,2.91417,1.58721,8.30777,1.15765,2.40536,1.98667,-2.29335,0.30542,2.38645,1.51957,0.37128,0.22716,-0.15786,-0.0801,0.38189,0.18342,0.0776
684,7.8043,-16.42173,3.31326,4.45767,19.57785,2.30036,-1.12887,-20.74421,4.4424,-16.85284,28.23099,5.48143,-14.15189,2.94011,-0.71873,2.78615,3.5027,-0.26547,-23.27449,7.36715,-1.48834,20.19627,-0.14846,9.22721,3.71478,0.13197,0.38467,13.04852,3.25803,6.63896,2.05124,-2.12333,0.12961,2.7906,1.17635,2.35497,0.25834,-0.21403,-0.00726,0.57118,0.02087,0.66903
685,8.31411,-15.67329,3.26349,2.82628,18.29355,2.0057,4.50665,-20.68716,5.67182,-22.16814,27.02303,3.8957,-13.98236,2.88815,-0.6386,1.74085,3.18217,-0.22627,-20.83917,6.06404,1.9175,25.12628,10.81015,0.40677,5.36715,-3.16042,-1.46171,9.45421,1.47756,5.14676,1.96481,-1.70194,-0.31973,2.60255,1.08848,2.59019,0.20916,-0.21417,0.05162,0.5412,-0.04604,0.83039
