PaulMeinheit/Bachelor_Muay_Thai/processed_Data/E3/teep/sliced/JointMoments/sliced4.csv
Unnamed: 0_level_0,R_KNEE_MOMENT,R_KNEE_MOMENT,R_KNEE_MOMENT,L_KNEE_MOMENT,L_KNEE_MOMENT,L_KNEE_MOMENT,R_HIP_MOMENT,R_HIP_MOMENT,R_HIP_MOMENT,L_HIP_MOMENT,L_HIP_MOMENT,L_HIP_MOMENT,R_ANKLE_MOMENT,R_ANKLE_MOMENT,R_ANKLE_MOMENT,L_ANKLE_MOMENT,L_ANKLE_MOMENT,L_ANKLE_MOMENT,WAIST_JOINT_MOMENT,WAIST_JOINT_MOMENT,WAIST_JOINT_MOMENT,NECK_MOMENT,NECK_MOMENT,NECK_MOMENT,L_SHOULDER_MOMENT,L_SHOULDER_MOMENT,L_SHOULDER_MOMENT,R_SHOULDER_MOMENT,R_SHOULDER_MOMENT,R_SHOULDER_MOMENT,L_ELBOW_MOMENT,L_ELBOW_MOMENT,L_ELBOW_MOMENT,R_ELBOW_MOMENT,R_ELBOW_MOMENT,R_ELBOW_MOMENT,L_WRIST_MOMENT,L_WRIST_MOMENT,L_WRIST_MOMENT,R_WRIST_MOMENT,R_WRIST_MOMENT,R_WRIST_MOMENT
ITEM,X,Y,Z,X,Y,Z,X,Y,Z,X,Y,Z,X,Y,Z,X,Y,Z,X,Y,Z,X,Y,Z,X,Y,Z,X,Y,Z,X,Y,Z,X,Y,Z,X,Y,Z,X,Y,Z
1502,-6.45585,0.59502,-0.36867,0.29027,1.5427,-0.13901,-16.47267,-5.75239,-2.7355,4.81307,4.49343,-1.42946,0.26051,-0.19762,-0.09245,0.89744,0.27873,0.05375,-16.21596,-1.04741,-7.61756,36.58989,17.52486,-8.43049,5.3164,0.52313,-1.77721,3.32173,1.01908,0.20624,-0.07187,1.1989,-0.28361,0.57755,1.39522,-0.43515,-0.02462,0.14495,0.00535,0.26983,0.24895,0.00194
1503,-6.09251,1.83495,-0.97068,2.19975,-0.4723,-0.31907,-17.81971,7.68171,-3.13038,11.23992,-4.4307,-3.00564,0.19373,-0.23213,-0.07818,1.0547,0.01257,-0.06161,-11.03336,7.76286,-10.74329,45.04338,9.20299,0.7146,5.76574,-0.43073,-2.04265,7.42897,3.39691,2.69752,0.34226,0.67967,-0.38266,-1.12864,0.62582,-1.06729,0.09314,0.01779,-0.03512,0.10054,0.21745,-0.10176
1504,-6.65058,2.12802,-0.95498,2.26288,-1.8862,-0.32355,-19.46836,12.09136,-1.77322,15.83845,-9.43318,-3.30364,-0.01289,-0.29571,-0.0629,0.9104,-0.19799,-0.13994,-4.18609,9.03186,-10.48937,49.24788,4.10063,6.99808,2.53237,-0.60814,-0.00287,7.81035,2.85908,2.77362,0.99489,-1.18276,-0.02869,-0.3483,0.62281,-0.64416,0.1927,-0.2606,-0.02182,0.09683,0.10448,-0.03985
1505,-6.07912,0.66022,-0.06084,1.73898,-2.44239,-0.26607,-15.01043,1.44242,0.68812,20.70719,-11.36625,-3.15806,-0.09677,-0.28454,-0.05652,0.62801,-0.21353,-0.16867,11.1196,-8.21311,-8.12115,43.26381,6.41925,-0.39511,-0.99554,0.129,2.00879,2.96241,0.08498,0.06419,0.91411,-2.12514,0.39889,2.88321,1.52819,0.78444,0.05574,-0.29713,0.02698,0.38117,0.03291,0.1838
1506,-3.71612,-1.85179,1.19869,1.21208,-1.17331,-0.15401,-2.42496,-14.37731,3.0251,20.81704,-7.08679,-2.30425,0.10003,-0.31016,-0.04238,0.41374,-0.0636,-0.08464,26.26297,-27.10675,-2.30356,31.86052,11.50072,-14.40741,-1.50815,1.32776,1.54004,-2.4474,-2.67819,-2.85547,-0.50071,-0.36055,0.44696,5.57825,2.37547,1.9272,-0.36541,0.14417,0.07029,0.65104,0.08514,0.32684
1507,-1.79078,-2.85247,1.54933,0.71747,2.02394,0.03126,8.54433,-19.08586,3.25402,13.1171,3.77678,-0.48119,0.38012,-0.39249,-0.00092,0.42755,0.11353,0.10492,25.53176,-25.00503,4.19778,20.28079,20.90057,-21.8956,1.3755,1.95989,-1.77056,-2.41689,-3.9091,-3.10764,-2.7319,3.47036,-0.07179,5.24055,2.18585,1.77072,-0.83178,0.83061,0.07207,0.58319,0.14832,0.24676
1508,-2.71812,-0.91254,0.39072,0.27022,4.6231,0.20975,6.80619,-8.03009,0.52079,3.63309,12.58586,1.4714,0.4368,-0.41354,0.04578,0.61819,0.18352,0.22945,8.35754,-3.27705,5.84373,13.12515,31.81819,-15.31727,3.69942,1.13125,-4.2482,3.06216,-3.49745,-0.68385,-3.74744,5.17044,-0.4437,2.20823,0.97621,0.49272,-0.87237,0.93357,0.08783,0.20176,0.09882,-0.00622
1509,-5.36062,1.83892,-1.09004,-0.20879,4.2337,0.26874,-4.33299,5.99953,-2.65281,-0.65786,12.70269,2.60101,0.24491,-0.35817,0.07838,0.75387,0.13792,0.15472,-8.63316,18.80139,3.32555,13.45836,34.30376,0.1867,2.16505,-0.69768,-3.13794,8.14551,-2.30141,1.53909,-2.00059,2.66656,-0.29639,-0.57964,0.08264,-0.80252,-0.26599,0.22063,0.09361,-0.11094,0.05284,-0.23496
1510,-6.6499,2.14551,-1.18055,0.15132,1.60507,0.11266,-13.20098,7.46592,-3.07451,2.3284,7.39881,2.38019,0.0757,-0.34523,0.10697,0.75207,0.06647,-0.04564,-11.72762,23.84923,0.48276,23.29812,26.1413,9.52213,-0.8443,-1.55544,-0.73454,8.11345,-1.48606,1.09386,1.02669,-0.53683,-0.42536,-0.41148,0.84892,-1.04669,0.45002,-0.38864,-0.05672,-0.00566,0.19623,-0.22522
1511,-6.71469,-0.54899,0.39156,2.01867,-0.69193,-0.18392,-17.01542,-4.57759,-0.90543,10.48328,2.70554,1.00632,0.08159,-0.45817,0.09465,0.70176,0.01347,-0.18367,-5.37536,8.5648,-2.60887,45.01845,16.71738,5.80044,-0.08763,-0.5895,0.18624,4.08421,-1.37446,-0.96717,2.67601,-1.68726,-0.91405,1.64079,2.33984,-0.32756,0.55052,-0.36615,-0.27864,0.30254,0.37824,-0.01901
1512,-7.75136,-3.10093,1.87763,2.99626,-1.10943,-0.28518,-19.63452,-15.09196,1.03222,15.53832,0.59049,-0.30414,0.10555,-0.57689,0.00829,0.64831,-0.03418,-0.14167,-4.24366,-10.38301,-5.59971,68.64876,16.26825,-1.45657,5.10422,0.59814,-0.22818,1.31794,-0.92877,-1.6032,3.0108,-1.58748,-1.01466,2.28881,2.51446,0.17567,0.16465,-0.06915,-0.32498,0.31135,0.33645,0.08621
1513,-9.16044,-2.34985,1.46783,1.14938,-0.3907,-0.06303,-19.67905,-12.02414,0.77044,11.29329,-0.98891,-0.9112,0.03015,-0.52099,-0.07432,0.63099,-0.0595,0.01987,-10.4602,-15.93009,-5.90707,72.22638,23.32116,-1.93647,8.66682,0.28688,-0.71165,2.47267,0.17403,-0.05327,3.25459,-1.20254,-0.5723,1.06461,1.21917,0.02763,-0.03459,0.11143,-0.15017,0.00438,0.09324,-0.00921
1514,-8.54271,0.63106,-0.29631,-0.76762,-0.12289,0.12983,-14.24924,-1.2415,-0.96873,4.55023,-3.38998,-1.44138,0.00115,-0.34177,-0.05521,0.74426,-0.03311,0.13189,-11.22915,-11.13859,-3.95648,51.3469,26.31328,1.19867,6.16316,-1.1381,-0.48793,4.25299,0.25386,1.0936,2.93475,-0.78798,0.11474,0.62933,0.35105,0.01981,0.12267,0.00535,0.12176,-0.13444,-0.07899,-0.0735
1515,-6.42045,2.34339,-1.392,-0.01687,-0.86917,0.0297,-8.82703,4.91307,-2.21535,5.49436,-6.10035,-2.12258,0.08307,-0.23536,0.01451,0.94267,-0.0109,0.08311,-2.64428,-7.32126,-3.64328,26.96956,21.94695,-0.21623,1.67667,-1.66595,0.17747,3.55936,-1.58087,-0.07377,2.33554,-0.54978,0.47936,2.05097,1.09662,0.45369,0.36357,-0.19731,0.27303,0.11597,0.01315,0.03059
1516,-5.51124,1.62998,-1.05075,1.73423,-1.66794,-0.10806,-9.354,3.69715,-1.97555,13.37297,-8.30633,-2.07305,0.11702,-0.25971,0.01805,0.96956,-0.0272,-0.03801,6.76953,-6.36624,-5.75912,16.68881,19.95515,-4.97659,0.85402,-0.3269,0.68369,2.36474,-3.51253,-1.75338,2.93901,-0.68021,0.12694,3.18625,2.24446,0.6781,0.5227,-0.1738,0.14626,0.38549,0.21112,0.14796
1517,-6.64187,0.63828,-0.4692,2.42236,-1.14644,-0.03906,-12.95872,0.39319,-1.17358,20.48044,-7.98791,-1.1238,0.03246,-0.26256,-0.03932,0.73354,-0.01285,-0.05778,12.30972,-4.003,-7.66467,23.00591,24.99563,-7.19112,3.1242,1.17497,0.58236,2.73906,-3.64525,-2.09289,3.65148,-0.95081,-0.4615,2.58784,2.57422,0.22139,0.41991,0.00187,-0.09853,0.34285,0.32878,0.08233
1518,-7.86534,1.11092,-0.69077,2.00449,0.35683,0.02109,-14.15623,-1.76305,-1.20128,20.9052,-4.7216,-0.84385,-0.00479,-0.14458,-0.04975,0.45499,0.03862,0.00353,13.14931,-2.65778,-8.62877,41.72867,27.61696,-5.38044,5.38907,0.99474,-0.62649,3.19732,-2.61325,-1.87203,2.99591,-0.63652,-0.91465,1.23322,2.30521,-0.60397,0.17804,0.1146,-0.25129,0.09531,0.3498,-0.13811
1519,-7.43871,1.92073,-1.08757,0.19354,1.01145,-0.09784,-13.39533,-3.42652,-1.90562,11.34728,-1.61479,-1.75699,0.13753,-0.03656,0.04449,0.35678,0.04702,-0.00756,2.21656,-6.36956,-8.38394,58.73408,21.56107,-2.31363,6.73986,-0.3501,-2.78744,3.42749,-2.07731,-1.96673,2.161,0.57185,-1.51774,0.40869,2.12291,-1.26968,0.22123,0.18835,-0.33434,-0.07634,0.31432,-0.31575
1520,-6.5499,1.60346,-0.79649,-2.18625,0.20653,-0.19961,-15.94689,-4.04235,-2.38137,-3.23901,0.16567,-1.82657,0.29238,-0.03031,0.17574,0.53786,-0.02178,-0.11415,-22.56597,-7.86839,-5.53118,59.9449,17.3256,-1.42067,7.604,-1.55579,-4.68828,5.35122,-2.14724,-1.52799,2.04328,1.84689,-2.04934,0.63101,2.14442,-1.27165,0.52258,0.18173,-0.33451,0.00638,0.24073,-0.27244
1521,-7.17523,0.62632,-0.16679,-2.21869,-1.0054,-0.17408,-22.04103,-2.89741,-2.59209,-7.88093,0.92314,-0.36146,0.22601,-0.04854,0.22729,0.84453,-0.12662,-0.20939,-40.5105,-3.57087,-2.28278,51.41681,25.9272,-3.54596,8.38292,-2.28844,-5.06057,7.64822,-1.88559,-0.08443,1.84148,1.97789,-1.73395,1.74618,1.95662,-0.33632,0.65253,-0.04301,-0.12569,0.28605,0.13069,-0.00413
1522,-8.43288,0.49466,-0.19803,0.63133,-0.82784,-0.09115,-24.38651,-1.1628,-3.02168,3.08799,1.86504,0.83879,0.02183,-0.00777,0.16688,0.90723,-0.13298,-0.15453,-31.10963,0.33213,-2.38819,45.93389,35.1246,-5.06807,9.02542,-2.07149,-3.29851,6.25347,-1.23568,0.88057,2.13135,0.47966,-0.66121,2.66248,1.4545,0.88711,0.52917,-0.30619,0.13015,0.45742,0.03346,0.26954
1523,-8.2242,1.61474,-1.07174,3.09402,1.60177,0.06945,-19.99238,0.23964,-3.53331,16.27453,5.96633,1.21319,-0.07669,0.08976,0.05265,0.6829,0.04923,0.08306,-6.44315,4.15027,-4.68385,42.57541,24.47799,-1.4324,8.64877,-0.13468,0.53311,1.48711,-0.85454,0.20432,4.53766,-2.32084,0.38195,2.20823,1.11655,1.27487,0.45394,-0.35215,0.14294,0.28019,0.01945,0.32989
1524,-6.79032,2.63885,-1.8678,2.66355,3.64394,0.28812,-14.50467,1.65242,-3.73957,18.72849,8.74602,1.50337,-0.07382,0.17264,-0.07006,0.42875,0.24163,0.28802,7.04243,8.8504,-6.21118,37.65945,4.42055,4.4627,6.54101,2.34476,4.5791,-1.33738,-1.11229,-1.14159,7.56394,-4.93722,1.04522,0.91651,1.36789,0.64991,0.53573,-0.29367,0.02997,-0.05741,0.08998,0.19656
1525,-5.41523,2.54706,-1.93172,0.59559,2.68335,0.40854,-10.38921,3.5635,-3.4145,13.18742,4.1839,1.63285,-0.11063,0.19452,-0.17049,0.25801,0.21621,0.26535,6.04079,11.3376,-5.68949,36.9175,6.21523,4.01923,4.19796,2.63143,5.07101,0.49361,-1.8571,-1.71074,7.97983,-4.88994,0.91024,0.70007,1.96128,-0.0256,0.71017,-0.29241,0.00052,-0.10352,0.17767,0.0494
1526,-4.26884,1.63684,-1.37165,-0.71909,0.72782,0.34164,-4.93486,3.72755,-2.01259,8.55258,-1.29792,1.07622,-0.14593,0.13256,-0.20412,0.2421,0.05193,0.14091,4.51028,11.44574,-2.66692,39.20744,32.71203,-3.77656,5.06263,0.13134,0.75027,4.04059,-2.11799,-1.04766,4.91129,-1.79909,-0.07758,1.96484,2.06826,-0.03429,0.7455,-0.25985,0.02253,0.23083,0.21771,-0.01393
1527,-3.75981,0.49245,-0.56462,-0.54206,0.68144,0.16563,-1.04896,-0.24146,0.01192,8.21222,0.45108,0.05937,-0.05462,-0.05212,-0.15665,0.50795,-0.00529,0.10738,6.45042,8.50438,0.4114,36.42118,52.19422,-6.60174,7.85358,-2.15605,-3.72867,6.10248,-1.10004,0.46283,1.6465,1.13636,-1.03107,3.03367,1.35821,0.32119,0.59901,-0.11833,-0.02396,0.56187,0.20988,-0.03737
1528,-4.10205,-0.20919,-0.10447,0.30961,1.17836,-0.01731,-3.09347,-4.40831,0.62586,7.64535,3.37196,-0.75,0.20424,-0.30388,-0.03731,0.9129,0.0415,0.07591,3.64326,-0.18439,0.19463,31.86253,43.18649,3.31729,6.79102,-1.59931,-3.19207,6.75986,0.00802,1.71562,1.43678,0.98675,-1.02883,2.96522,0.60775,0.50308,0.43118,0.01639,-0.11506,0.61213,0.17241,-0.04859
1529,-4.20713,0.26687,-0.49184,1.14736,0.17103,-0.14113,-8.30396,-3.31694,-1.09663,2.98022,-0.1312,-0.83905,0.53395,-0.43644,0.11867,1.07463,0.01837,-0.07639,-6.9197,-9.70667,-2.28385,33.61409,21.04788,13.95848,2.70803,0.9015,0.95595,7.0281,-0.43133,1.35639,3.27225,-1.39594,-0.22735,2.40787,0.96348,0.23331,0.29412,-0.01067,-0.13062,0.46638,0.16682,-0.04812
1530,-3.4473,1.67485,-1.40874,1.78297,-1.25589,-0.19209,-11.54947,0.72332,-3.42217,-1.03756,-5.52943,-0.30015,0.7227,-0.31674,0.22402,0.84944,-0.10026,-0.25285,-15.46092,-11.64287,-3.90644,41.82417,11.31581,11.21858,1.44418,2.47284,2.98727,6.96179,-1.76657,-0.54175,4.6978,-2.77023,0.03054,1.74968,2.4733,-0.53512,0.28642,-0.11167,-0.14238,0.27255,0.27264,-0.07576
1531,-3.15315,2.26162,-1.71327,2.19463,-1.58075,-0.23061,-11.7446,-0.36465,-4.08342,3.77669,-6.09451,-0.06351,0.591,-0.04393,0.19296,0.57157,-0.19046,-0.31088,-9.66577,-9.40674,-5.05912,50.72731,17.82614,-2.49481,4.14909,1.38795,0.41395,6.36237,-2.22816,-1.97065,3.75903,-1.44101,-0.72623,0.71398,3.56862,-1.28588,0.34597,-0.11966,-0.22057,0.06023,0.38659,-0.11031
1532,-4.66579,0.89991,-0.87743,2.15473,-1.1207,-0.26288,-11.25263,-7.87806,-2.90726,14.5356,-3.35142,-0.8756,0.20362,0.14135,0.04027,0.57665,-0.15204,-0.21442,5.26467,-11.91943,-7.22193,50.63025,31.49212,-16.44144,8.01253,-1.48281,-3.91831,5.20569,-1.82,-1.57574,-0.13657,1.23738,-1.20459,-0.39074,2.9157,-1.25262,0.20443,-0.08713,-0.16816,-0.1398,0.30295,-0.06704
1533,-6.66827,-1.07757,0.19141,0.35009,-0.65253,-0.15731,-11.77393,-12.46638,-1.45505,15.19997,-2.02375,-2.07302,-0.07319,0.0739,-0.11664,0.6642,0.00979,-0.00016,6.1979,-16.39896,-7.93614,36.9807,45.94434,-23.18604,9.79344,-3.35947,-5.63944,3.56885,-1.92518,-0.57652,-4.10657,2.79914,-0.45961,-0.37224,1.44291,-0.36734,-0.1943,-0.08299,0.15108,-0.18272,0.08491,0.04924
1534,-6.70911,-1.85063,0.52298,-2.53527,0.17476,0.10561,-11.81686,-8.79606,-0.71623,2.44838,-0.73173,-2.04634,0.06405,-0.19082,-0.17604,0.617,0.18926,0.22055,-10.33268,-12.46591,-4.67606,25.54955,49.46896,-18.76275,7.76627,-1.87336,-2.79257,1.81956,-2.4016,-0.71598,-2.91229,1.67872,0.62252,1.13376,1.07358,0.50038,-0.31508,-0.02296,0.37262,-0.0082,0.03697,0.09022
1535,-4.60011,-1.13251,0.08013,-2.78155,1.73792,0.29648,-9.05488,-2.60363,-0.76075,-5.38129,3.74951,-0.29317,0.44199,-0.39244,-0.13755,0.60438,0.24122,0.29006,-18.09647,0.24955,-0.50034,32.89737,31.33513,-6.25877,4.35205,1.63839,1.65042,1.09425,-1.69514,-1.49345,2.745,-0.89664,0.74216,2.48148,1.89704,0.44793,0.07447,0.12205,0.20738,0.16858,0.23525,-0.05561
1536,-2.7482,-0.00264,-0.56749,0.66839,2.62893,0.21492,-5.21854,-0.02013,-1.43461,3.02748,6.54615,1.2264,0.5999,-0.39043,-0.08462,0.71506,0.12054,0.15023,-3.89889,8.20887,-0.51066,49.02816,6.7675,3.95191,2.6089,3.34497,2.70829,2.17352,-0.10898,-1.30189,5.73573,-1.68855,-0.17728,2.18415,2.35864,-0.24761,0.35095,0.2641,-0.11163,0.15754,0.40617,-0.23799
1537,-2.92266,0.14563,-0.721,3.91809,0.97769,-0.09945,-4.3767,-1.64758,-1.89954,16.61899,0.67263,0.2008,0.41553,-0.3337,-0.09673,0.83015,-0.06816,-0.09431,14.23212,-0.12088,-4.60101,56.01479,4.63826,5.96552,2.98459,2.42784,0.85164,3.56885,0.11578,-0.56214,4.03138,-0.88575,-0.85041,1.24536,2.06777,-0.4657,0.34283,0.16962,-0.26283,0.09536,0.37865,-0.19663
1538,-4.23041,-0.82188,-0.2616,3.63891,-1.95697,-0.37326,-6.89294,-5.20999,-1.46428,21.19246,-8.68546,-2.28147,0.23509,-0.35835,-0.15651,0.82616,-0.1484,-0.24053,17.65747,-15.98396,-7.45179,48.63553,24.54091,2.51869,4.48301,0.99724,-0.09815,3.76324,-1.449,-0.55579,1.07342,-0.92717,-0.31001,1.14922,1.8535,0.07269,0.24425,-0.20833,-0.12949,0.14779,0.23515,0.0532
1539,-4.91533,-1.70515,0.23803,1.46206,-2.53881,-0.34073,-9.10976,-7.75212,-0.60324,17.25749,-8.4359,-2.79776,0.28473,-0.39101,-0.1816,0.70249,-0.05664,-0.16561,10.04738,-17.67683,-5.57124,33.79123,39.36797,-1.50319,5.7638,0.33946,-0.03352,3.92063,-2.48292,-0.6803,-0.66047,-1.15958,0.4813,1.41497,1.80816,0.47477,0.07278,-0.41331,0.08081,0.22396,0.10158,0.22054
1540,-4.61515,-1.59875,0.33597,0.4949,0.13216,-0.0977,-9.32003,-9.27646,0.05703,12.5576,3.54713,-0.70242,0.35628,-0.28219,-0.1412,0.67148,0.05649,0.02506,2.69814,-2.4262,-1.80881,24.74897,40.04066,-4.71426,5.70577,0.20465,-0.884,4.48872,-1.75654,-0.23592,-0.30671,0.15338,0.1593,0.93053,1.47933,0.1241,-0.04832,-0.06923,0.09437,0.15761,0.04687,0.13689
1541,-4.19187,-0.69383,0.04099,0.44733,2.77691,0.05191,-8.49677,-12.4092,0.2208,8.74182,13.38345,1.03914,0.26745,-0.04281,-0.07573,0.7227,0.04696,0.12376,-1.64331,5.22927,-0.45586,27.13601,37.06131,-6.0607,3.73933,0.30626,-1.70681,3.60864,-0.82854,0.02023,1.65844,1.5478,-0.81876,-0.04543,0.7948,-0.41768,-0.01911,0.43621,-0.05716,-0.03353,0.01651,-0.0384
1542,-5.09554,0.04808,-0.43914,0.11878,2.22309,-3e-05,-9.94371,-15.57727,-0.6892,6.27879,8.54691,0.16214,0.12708,0.07651,-0.05804,0.60211,-0.02563,0.06756,-4.53933,-9.83993,-2.93932,33.76428,29.60046,-3.6153,0.70916,0.71052,-0.55857,1.52128,-1.20775,-0.63368,2.97827,0.68293,-1.06548,-0.17735,0.48756,-0.41315,0.01881,0.43123,-0.17418,-0.10577,-0.00486,-0.08612
1543,-7.71862,0.19758,-0.91763,0.74756,-0.90994,-0.18246,-17.1496,-12.60974,-2.62021,9.162,-5.93752,-2.29103,0.04257,-0.05604,-0.11977,0.45075,-0.06128,-0.06215,-6.90943,-27.91076,-8.31413,39.16746,12.9659,-1.09515,-0.96609,1.01711,1.37251,0.71843,-2.474,-2.00363,2.22155,-1.49755,-0.44941,0.97076,1.31642,-0.10645,0.01967,-0.08201,-0.17856,0.06006,0.08313,-0.0438
1544,-9.43736,0.70295,-1.40059,2.36741,-3.15837,-0.32412,-24.2389,-0.97183,-4.26822,14.38975,-13.98899,-3.47218,0.01457,-0.19845,-0.17328,0.5181,-0.04817,-0.15019,-8.58811,-21.23753,-12.23497,42.7511,-0.49154,-4.70569,0.35991,0.75293,1.8177,1.93217,-3.16794,-3.17411,0.5664,-2.51691,0.26701,2.17729,2.79514,-0.15401,0.05601,-0.54407,-0.06375,0.24669,0.28423,-0.07198
1545,-7.82939,1.83459,-1.77654,2.1468,-1.97528,-0.18357,-21.36429,11.27299,-4.69705,12.79763,-7.992,-1.78367,0.04051,-0.15566,-0.14012,0.59699,0.02065,-0.09696,-9.36652,6.3098,-10.34778,42.26303,2.13695,-11.60015,2.95546,0.36964,0.8706,3.60477,-2.42345,-2.92368,-0.63334,-1.62731,0.7379,2.34031,3.4821,-0.37058,-0.00231,-0.57094,0.15408,0.25162,0.41951,-0.13122
1546,-4.87674,2.27843,-1.71999,-0.57581,1.28175,0.20381,-10.72652,12.15362,-4.03987,4.49735,2.38164,1.04472,0.12735,-0.04993,-0.06721,0.41111,0.11577,0.05626,-9.01645,22.33877,-4.43693,41.08772,14.35984,-12.86923,4.34318,0.68366,-0.53134,3.97859,-1.03655,-1.21167,-0.90277,0.64767,0.64283,1.93454,2.67199,-0.01078,-0.13939,-0.08598,0.29548,0.17791,0.34034,-0.05629
1547,-4.34144,0.98666,-0.98487,-2.38395,2.73667,0.364,-3.75067,-0.37517,-2.12006,0.01619,3.37139,1.54882,0.27627,-0.07189,-0.03086,0.17093,0.10449,0.09062,-5.83707,6.02198,-0.02664,43.03143,24.67747,-6.95904,4.48442,1.31881,-1.90223,2.91046,-0.36857,0.45956,-0.1629,2.89844,-0.13266,1.74383,1.16253,0.80612,-0.12009,0.61021,0.18753,0.18177,0.11945,0.12861
1548,-5.8858,-1.1554,0.15357,-0.73774,0.67813,-0.04695,-4.89465,-14.36758,1.07007,5.03191,-4.7729,-1.1184,0.46869,-0.22535,-0.03536,0.38871,-0.09973,-0.13468,0.92784,-24.45875,0.14571,40.48376,31.71714,-0.00925,3.83935,1.13726,-1.99031,2.12666,-0.23009,0.98655,0.90958,2.80523,-0.7063,1.57647,0.34877,1.03722,-0.02567,0.88405,-0.0347,0.22643,-0.00129,0.1989
1549,-6.08987,-1.74485,0.67226,2.26137,-2.2797,-0.61613,-8.02676,-15.02544,3.17238,12.64594,-9.85597,-3.70199,0.58562,-0.30572,-0.03715,1.03304,-0.32009,-0.38874,8.09072,-32.55919,-1.83637,29.20241,35.14559,3.51416,2.1405,-0.15732,-0.27062,2.82619,0.43934,0.83923,1.23856,0.00414,-0.30397,1.16362,0.59096,0.36072,-0.11853,0.39655,-0.10848,0.21486,0.07384,0.05603
1550,-4.46768,-0.49655,0.16646,2.41624,-2.40091,-0.56639,-8.34595,-3.92697,1.63465,12.08271,-4.62732,-2.81931,0.46031,-0.2128,-0.02953,1.3277,-0.23821,-0.29303,8.19859,-11.45368,-1.99517,19.47674,31.89152,3.71145,0.696,-1.57679,1.40487,4.16822,1.1902,0.81434,0.82387,-2.73525,0.525,0.94682,1.04797,-0.26535,-0.24836,-0.40741,0.01165,0.16772,0.16824,-0.10714
1551,-2.92807,0.04827,-0.28822,-0.72607,0.30431,0.12052,-7.01181,2.91553,-1.76947,3.21182,5.03518,0.56127,0.19107,-0.1161,-0.00873,0.8887,0.12407,0.10089,-0.75896,10.18209,0.51325,18.79169,25.65426,2.06096,1.25838,-1.82304,1.16606,5.03072,0.30754,0.4788,0.36045,-2.86057,0.76013,1.28674,1.37775,-0.14726,-0.19714,-0.75518,0.14652,0.16235,0.16514,-0.09005
1552,-2.32071,-1.43914,0.23553,-2.33807,2.58239,0.61808,-6.55223,-2.84618,-2.58562,-0.61786,9.51907,2.68599,0.09153,-0.21319,0.02823,0.32751,0.36578,0.36653,-7.24105,9.13188,2.75717,25.05493,21.62677,0.65385,2.8931,-0.65042,-0.17917,5.05996,-2.38377,-0.91464,0.79222,-1.0788,0.17355,1.82258,1.94909,0.2837,0.01194,-0.46826,0.13189,0.19029,0.14833,0.04889
1553,-2.13637,-2.89606,1.02018,1.11146,2.3209,0.37934,-7.44145,-12.33868,0.02561,11.05528,6.01609,1.58643,0.31492,-0.43621,0.07214,0.29602,0.26608,0.27852,2.71951,-8.1207,1.55633,33.92928,17.83438,-0.44096,3.49278,0.79986,-0.66296,4.02527,-4.43087,-2.59573,2.05998,0.19084,-0.49529,2.08225,2.64851,0.46996,0.21838,-0.01379,0.018,0.19412,0.19147,0.13957
1554,-2.29992,-2.56429,1.11995,6.18625,0.2439,-0.27486,-9.19162,-14.7733,2.79484,29.80736,-1.45567,-1.60991,0.6909,-0.58721,0.10711,0.70255,0.00583,0.00093,23.79453,-22.06181,-3.43642,38.13453,12.55532,-4.5075,2.87968,1.08258,-0.22445,2.28777,-3.58915,-2.81652,2.33948,0.13343,-0.5228,2.06723,2.80556,0.50083,0.21067,0.17848,-0.04599,0.17109,0.2408,0.13779
1555,-3.85614,-1.57765,0.7542,6.62453,-1.11673,-0.59301,-11.39658,-11.39762,3.32558,34.9151,-5.54816,-3.75498,0.82291,-0.58416,0.09071,0.96879,-0.13056,-0.14513,30.6961,-22.68106,-7.17399,31.90925,9.72164,-10.34128,2.60105,0.12006,-0.15636,1.15265,-0.83334,-1.12185,1.17462,-0.34106,-0.17539,1.93321,1.94564,0.62636,0.05145,0.11622,-0.06065,0.16266,0.19388,0.09917
1556,-5.4199,-1.49346,0.57788,2.13049,0.2097,-0.20168,-8.56504,-9.02669,2.26321,19.77821,-1.2834,-2.24843,0.58905,-0.4591,0.03992,0.78429,-0.03188,0.00376,17.14289,-13.39448,-2.86562,22.1516,12.89888,-11.01631,3.6618,-1.00214,-0.93551,1.33269,0.99098,0.8891,0.41159,-0.42811,-0.14797,1.58867,0.51142,0.67781,0.02441,0.02862,-0.09517,0.16979,0.06893,0.04308
1557,-4.2315,-2.55152,0.8674,-1.27621,2.69861,0.43269,1.52924,-10.55438,1.39477,2.76547,6.20899,1.4571,0.33378,-0.34118,0.03479,0.53222,0.14999,0.25017,7.06957,-6.25461,6.70066,23.31744,20.89325,-4.85081,5.54804,-1.52739,-1.99124,2.3692,0.79951,1.39136,0.95818,-0.08013,-0.47867,1.0273,-0.07341,0.37429,0.18114,0.00806,-0.11468,0.15093,0.04139,-0.02419
1558,-1.78965,-3.68069,1.28233,-0.5675,2.57308,0.58929,7.49448,-13.78863,1.38168,0.01388,5.2306,3.09484,0.31813,-0.34322,0.08492,0.62391,0.15694,0.24002,9.47379,-12.17429,10.86966,35.74757,27.69368,1.85814,6.47655,-1.13033,-2.32555,4.0144,-0.25423,0.2474,1.58746,0.34439,-0.63414,0.65207,1.14405,-0.18878,0.26624,0.01214,-0.0534,0.10315,0.20435,-0.06117
1559,-2.05964,-3.68798,1.27848,1.05365,-0.65424,0.23072,0.43124,-14.2363,1.60915,6.25862,-5.73074,1.33797,0.36965,-0.45591,0.06897,0.84415,-0.04691,-0.0636,8.8816,-25.46032,6.56586,41.64967,24.90725,3.90664,5.25254,0.31652,-1.35425,5.78642,-1.02052,-1.10768,1.46016,0.44784,-0.41356,0.87943,2.96647,-0.5275,0.15005,0.04739,0.03158,0.04399,0.35081,-0.05585
1560,-4.82567,-2.54288,0.80281,0.85272,-3.03433,-0.11603,-10.82964,-9.37326,1.5713,11.52109,-12.69552,-0.80765,0.301,-0.55999,-0.05922,0.82178,-0.23148,-0.32013,2.91241,-25.44274,1.0016,29.89655,12.52265,1.27323,3.37867,1.9113,0.0396,5.96091,-1.31722,-1.62722,1.37019,0.16176,-0.23558,1.84354,3.57111,-0.22674,0.01968,0.15086,0.01152,0.02299,0.27949,-0.03662
1561,-6.57956,-1.51393,0.44108,-0.40664,-1.19453,-0.07627,-14.847,-3.95979,1.82113,12.57964,-3.38206,-0.35953,0.20945,-0.55757,-0.17118,0.55278,-0.16786,-0.20475,0.37291,-5.21208,1.18007,11.89544,4.71416,-3.32179,3.02321,2.06099,0.12255,4.01693,-1.29484,-1.53046,1.97178,-0.02117,-0.58532,2.70726,2.80732,0.28254,0.0582,0.27801,-0.13707,0.07829,0.12362,-0.0424
1562,-5.91182,-1.87566,0.69318,-1.33119,2.8758,0.2246,-12.50066,-5.9752,2.89734,9.2236,13.62572,1.76959,0.21324,-0.46181,-0.15496,0.27149,0.08588,0.18302,-0.34842,13.1424,6.10457,5.64308,11.1233,-5.98015,4.41098,0.4746,-1.06028,2.64436,-0.99806,-1.12728,3.11672,-0.22501,-1.17968,1.98615,1.67832,0.01041,0.32015,0.20592,-0.26973,0.15092,0.13612,-0.11445
1563,-4.2042,-3.30792,1.27745,-1.02745,4.03746,0.33497,-9.7342,-15.25064,3.94855,5.26586,17.26369,2.15068,0.27441,-0.35986,-0.04997,0.22498,0.21966,0.37334,-1.83595,4.89608,8.38639,13.41131,18.98269,-4.09315,6.7246,-1.42959,-1.49119,4.60357,-0.69327,-0.13561,4.21129,-1.40661,-1.0321,-0.04533,0.85722,-0.90976,0.706,-0.25839,-0.20348,0.21027,0.27636,-0.18134
1564,-3.03792,-4.31076,1.56377,0.86435,0.93405,0.02692,-9.23204,-23.52729,4.0077,5.55636,2.10509,-0.37652,0.33253,-0.32485,0.03951,0.46489,0.07736,0.11015,-2.14526,-26.00868,4.31518,24.11463,12.05074,0.79442,8.32885,-2.07899,-0.43794,8.18834,-0.97697,1.03783,4.05172,-2.95156,0.05167,-1.15009,0.59382,-1.16932,0.82975,-0.78307,0.04804,0.25178,0.28617,-0.08396
1565,-3.05747,-4.14173,1.43425,3.04251,-2.18965,-0.39829,-12.0943,-24.70234,3.62326,8.76513,-13.40604,-3.03309,0.38218,-0.36763,0.06146,0.77028,-0.12681,-0.29017,-5.07525,-49.43124,-0.97841,32.0547,-2.69906,3.89683,7.34583,-1.00733,0.48488,8.65532,-1.72429,1.15071,2.46947,-2.69936,0.78242,-0.1368,0.98279,-0.2244,0.48462,-0.72091,0.21364,0.18987,0.11534,0.14242
1566,-3.42642,-3.08765,1.11828,3.09831,-1.40322,-0.46006,-14.63445,-18.49447,3.41381,9.8362,-11.27866,-2.82833,0.45744,-0.44021,0.04674,0.90037,-0.12904,-0.3602,-10.70896,-41.47773,-1.0605,37.39044,-6.38991,1.07925,5.06108,0.58483,0.04274,4.68757,-1.79984,-0.06796,1.12829,-0.6628,0.31262,1.86418,1.79626,0.9534,0.03074,-0.08911,0.12029,0.06637,0.0041,0.26242
1567,-2.634,-1.25553,0.53853,0.79011,2.02393,-0.06034,-8.05664,-7.30571,2.47489,8.92613,4.14431,-0.12958,0.54063,-0.45259,0.04136,0.80102,0.0432,-0.05619,-4.00988,-8.75018,3.79047,34.46841,5.07697,-5.34123,4.35061,0.85833,-1.07653,0.5602,-1.03595,-1.5842,0.84314,0.80224,-0.47953,3.2366,2.57119,1.16637,-0.18456,0.39776,-0.05785,0.09679,0.10852,0.15867
1568,-1.26346,1.16437,-0.38583,-1.07364,3.82879,0.33935,4.59612,4.9215,0.11354,12.0719,14.4926,1.88691,0.53361,-0.37268,0.02007,0.64189,0.14505,0.24995,19.81234,21.54453,6.27355,19.77125,18.78236,-4.76175,4.99926,0.0575,-1.38316,0.6382,-0.59801,-1.89633,1.18406,0.51596,-0.59498,2.53169,2.29214,0.12758,-0.13452,0.35596,-0.10508,0.19341,0.27011,-0.11596
1569,-1.65717,3.06577,-1.20019,-0.24273,1.79859,0.21794,6.05446,12.4163,-2.61222,20.33755,9.47347,0.67286,0.40735,-0.24654,-0.03315,0.65725,0.02535,0.21782,35.98434,27.85964,0.10483,6.3187,21.18755,8.00054,4.96473,0.41837,-0.07463,4.57629,-0.86716,-0.24612,1.98893,-0.73344,-0.09507,-0.11842,0.55829,-1.18529,0.08872,0.06484,-0.01917,0.12865,0.25142,-0.34607
1570,-3.81972,2.94311,-1.27065,1.95473,-1.39519,-0.20782,-7.96805,9.57506,-4.07796,23.93204,-2.09142,-1.83303,0.26793,-0.12667,-0.04503,0.77352,-0.12764,-0.04277,22.41514,11.64849,-8.4219,11.91325,14.11556,19.10426,4.19644,2.32438,1.81343,8.27978,-1.12993,1.84199,2.72716,-1.75345,0.4095,-1.57762,-0.73842,-1.26899,0.2841,-0.11398,0.06034,0.08024,0.09211,-0.24562
1571,-4.74481,0.97741,-0.62732,2.78841,-1.88824,-0.30029,-20.36766,-1.69947,-3.50592,16.54855,-5.62005,-1.54602,0.28517,-0.08911,0.03744,0.7335,-0.0849,-0.1709,-6.10233,-7.91459,-7.53324,31.34533,9.34655,11.98918,4.14657,3.25763,2.05438,8.16652,-1.11101,2.10481,2.50226,-1.76259,0.38271,-0.14905,-0.03524,-0.06893,0.28024,-0.12395,0.03599,0.17194,0.01617,0.08788
1572,-3.32546,-0.81507,0.08469,2.15998,0.06585,-0.01687,-19.89262,-10.73482,-1.10014,8.92554,0.03484,1.15831,0.4896,-0.20116,0.11382,0.61045,0.04901,-0.06337,-17.05402,-14.50178,0.5784,41.20449,5.0027,-7.38808,5.26727,1.69853,0.25692,5.32204,-0.8086,0.77705,1.57064,-1.02862,-0.09249,1.73923,1.53896,0.86983,0.16537,-0.11848,-0.04039,0.2493,0.11879,0.27006
1573,-1.81797,-0.99602,0.37336,1.65991,1.4865,0.17349,-12.87802,-9.39577,1.75556,12.27259,4.65325,1.96704,0.69813,-0.37624,0.06705,0.67851,0.08534,0.09632,-1.45351,-7.60115,3.89996,29.93108,-10.1998,-19.48332,6.80557,-0.44737,-1.22734,3.29553,0.13076,-0.08897,1.06954,-0.83943,-0.31233,1.87516,2.20127,0.63514,0.13687,-0.21214,-0.07097,0.2632,0.27867,0.18725
1574,-2.11302,-0.08731,0.24634,1.86803,1.16432,0.04751,-7.85995,-1.14016,2.96011,21.25919,1.98459,-0.83657,0.74917,-0.4795,-0.05276,0.92531,0.04686,0.15062,21.22067,0.56869,-0.58605,10.13334,-27.08953,-17.00237,7.42817,-0.48673,-0.56167,2.36918,1.01703,-0.17408,1.08163,-1.61038,0.10262,1.17109,1.77954,-0.02058,0.12532,-0.2962,-0.04383,0.2024,0.29205,0.0006
1575,-2.98785,0.46939,0.03166,1.94795,0.70787,-0.12599,-4.0666,4.7384,1.97948,24.23035,-2.60721,-3.81158,0.69037,-0.51188,-0.10029,1.05843,0.04177,0.12744,32.56179,2.34466,-4.3695,3.32545,-23.23075,-6.19622,6.36882,1.53185,1.07295,1.21792,0.46534,-0.63253,1.06506,-1.97969,0.56476,1.54868,1.33756,0.01608,-0.0145,-0.14134,-0.0149,0.11681,0.12197,-0.08409
1576,-2.74383,0.39251,-0.05191,1.0274,1.251,-0.08875,0.91277,4.6788,0.36361,18.0773,-1.17815,-3.0358,0.60615,-0.45967,-0.00536,0.91922,0.04597,0.06846,29.62996,3.04941,-0.65503,11.19308,-0.1237,6.04916,4.77654,2.96074,1.34388,1.14562,-1.08745,-1.15576,1.14065,-0.93326,0.41819,2.47701,1.3814,0.52995,-0.13446,0.21026,0.00345,0.08439,-0.02019,-0.02848
1577,-1.67819,0.28232,-0.00712,-0.01637,2.07013,0.02696,3.83337,1.79982,-0.39994,9.56976,6.51983,1.20728,0.50194,-0.27343,0.14667,0.66279,0.01317,-0.04946,18.75811,9.33883,7.77266,13.73873,15.09316,13.99001,4.39003,2.08319,0.15928,3.53225,-2.08981,-0.81179,1.20072,0.3709,0.08681,1.98572,1.55797,0.48514,-0.08186,0.3405,0.07761,0.02361,0.01324,0.03286
1578,-0.77684,0.2352,0.07832,0.08782,3.04063,0.08082,0.45619,-0.15237,-0.3187,5.71542,15.90396,5.9135,0.39533,-0.05694,0.20124,0.52289,0.03659,-0.13209,5.48561,21.3019,13.57536,5.8719,6.24902,12.96534,5.38649,0.19447,-0.75076,6.69337,-1.86638,0.11438,1.08324,0.34459,0.14083,0.47279,1.6074,-0.13869,0.09679,0.05965,0.16948,-0.08958,0.09905,0.02077
1579,-0.77802,-0.20913,0.15218,0.44583,4.59019,0.21329,-7.64717,-1.01629,-0.07264,7.39386,22.54911,8.53502,0.31529,-0.02239,0.08583,0.50806,0.16897,-0.02752,-5.39862,31.82195,12.77598,9.09709,-11.4672,4.76804,6.66285,-0.57549,-0.63166,7.86104,-0.57672,0.81477,1.3891,-0.81018,0.2311,0.3703,1.75113,-0.3216,0.3141,-0.25731,0.11932,-0.04758,0.14952,0.00218
1580,-1.85457,-0.96781,0.15735,0.20307,4.82324,0.35177,-12.50903,-1.96659,-0.10173,14.38965,20.7963,7.27747,0.2915,-0.23828,-0.10846,0.47372,0.23069,0.12556,-1.3291,29.04169,6.22885,29.63555,-13.26147,-3.63751,6.94196,0.13589,0.02686,6.57431,0.80602,0.81413,1.69465,-1.74369,0.13454,2.50416,2.29624,0.38844,0.31935,-0.25976,-0.04498,0.31068,0.26851,0.0628
1581,-2.87897,-1.06628,0.00663,1.39089,1.31808,0.03691,-8.24912,-1.68293,-0.33579,27.99276,7.2101,1.61905,0.38252,-0.54047,-0.21169,0.50435,0.04173,0.01019,26.43599,9.09928,-2.65716,37.55991,1.74643,-6.14579,6.26809,1.22873,0.5731,5.17291,1.10858,0.54019,1.37528,-1.77287,0.11676,4.41974,2.64978,1.093,0.07534,-0.07052,-0.12412,0.71696,0.43666,0.14189
1582,-2.24605,-0.22981,-0.17642,4.69689,-3.10904,-0.65329,1.29833,0.3853,-0.09288,41.84562,-8.10426,-4.66542,0.57927,-0.68319,-0.15198,0.79097,-0.23498,-0.29435,59.1288,-11.36418,-7.76614,11.62711,11.88573,-1.80955,6.22848,1.39672,0.20936,6.00045,0.45061,0.96023,0.98924,-1.03766,0.06143,3.3245,1.93339,0.71332,-0.09729,0.09251,-0.08826,0.7024,0.46112,0.0927
1583,-0.38875,0.32383,-0.07015,6.02608,-2.74646,-0.84706,6.38042,0.80468,1.04728,41.79211,-8.7363,-5.42935,0.70465,-0.53258,-0.00324,1.09846,-0.27047,-0.35892,62.9515,-12.17552,-3.72987,-19.62643,5.9443,4.52841,6.97317,0.43698,-0.91305,7.8259,-0.33361,1.68153,0.92382,-0.2277,-0.19107,0.05888,0.68286,-0.42919,-0.09762,0.17439,-0.06098,0.21051,0.26792,-0.06445
1584,-0.42766,0.42227,0.21749,2.56594,2.56231,-0.15341,-0.04554,-0.64106,1.99394,24.9497,5.61034,0.19985,0.55983,-0.15057,0.12762,0.96185,-0.00172,-0.0442,30.32225,5.41012,5.74821,-14.23147,-5.78835,8.81309,5.90973,-0.10193,-1.15566,7.73012,-1.1026,1.3394,1.30216,-0.15573,-0.44863,-2.11217,0.18602,-1.12926,-0.04157,0.17132,-0.09343,-0.33396,-0.0185,-0.14153
1585,-3.8702,1.54642,0.108,-2.04703,6.91828,0.64474,-15.46901,2.02649,1.06905,6.49946,19.17222,6.31647,0.24871,0.15426,0.16717,0.46268,0.29486,0.2931,-11.27915,24.70585,10.2075,21.60876,-14.72538,11.73812,2.2251,0.8535,0.25073,5.59225,-1.7355,0.15402,2.04508,-0.90753,-0.44863,-1.79787,0.44306,-0.93454,0.01585,0.0733,-0.11519,-0.51666,-0.23001,-0.08699
1586,-7.13987,3.17562,-0.44657,-3.3326,6.11499,0.67688,-26.57452,8.61708,-1.33091,-0.2716,21.02631,7.3089,0.13788,0.03044,0.08508,0.1877,0.34064,0.28881,-31.28614,32.67644,6.10906,46.5551,-20.90389,11.94602,-0.39047,2.37743,2.1457,2.93971,-1.61435,-0.76432,2.51187,-1.93157,-0.01255,0.44196,0.82591,-0.1957,0.09245,-0.1217,-0.04303,-0.22173,-0.2259,-0.02496
1587,-6.02836,2.9973,-0.78592,-1.97545,2.30537,0.10745,-20.66036,9.7736,-2.74935,3.29707,14.54583,3.4342,0.3568,-0.4017,-0.03729,0.42175,0.16767,0.0442,-19.28472,27.18532,0.53303,37.49352,-17.52191,5.29051,1.31933,3.26935,3.11192,0.94437,-0.90443,-1.31728,1.99813,-2.51214,0.75829,3.09094,1.36072,0.42593,0.13888,-0.32491,0.11865,0.24965,0.02569,-0.06533
1588,-2.01055,0.68684,-0.48145,-0.74711,-0.3322,-0.31565,-2.89062,1.12244,-1.77649,10.62621,6.75384,-1.22335,0.61278,-0.64086,-0.07148,0.79782,-0.01484,-0.13033,12.55996,11.17418,-0.93979,5.82486,1.56919,-5.63608,5.97963,2.96501,2.41025,1.41073,-0.68618,-1.30041,1.03624,-2.12748,1.23252,4.01688,1.79097,0.50746,0.15186,-0.37594,0.25399,0.48836,0.29278,-0.12247
1589,0.14582,-1.73456,0.13775,0.1142,-1.07554,-0.30014,7.22262,-9.27411,0.17181,18.94435,-1.4573,-4.03729,0.61282,-0.48538,-0.0323,0.79361,-0.09871,-0.1494,38.55318,-11.054,-2.17155,-15.52524,19.58986,-10.46553,9.79131,1.42562,1.00063,5.13006,-1.06032,-0.23693,1.3224,-1.73888,1.13935,2.41729,1.73728,0.08784,0.31011,-0.35575,0.27828,0.41825,0.37274,-0.07067
1590,-0.49849,-2.55076,0.48332,2.30183,-1.21073,-0.17549,2.78005,-11.04135,0.99517,28.48043,-9.3998,-5.09336,0.47383,-0.24044,-0.02932,0.4821,-0.09252,-0.09816,46.21934,-27.52764,-6.88688,-3.09959,11.082,-3.35767,9.94263,-0.01009,1.05338,9.41999,-1.06575,1.21131,3.07388,-2.7313,1.007,-0.17402,1.39456,-0.52783,0.57716,-0.43318,0.22926,0.1867,0.28726,0.02155
1591,-0.90486,-1.5713,0.34237,4.29491,-0.64776,-0.14559,-3.04806,-2.98956,0.32335,33.15706,-9.97664,-4.0915,0.48427,-0.19056,-0.03441,0.31388,-0.03059,-0.03329,41.10199,-20.30592,-9.03028,23.62613,-17.75229,7.34154,6.49488,0.06825,2.10787,10.48198,-0.56446,1.69054,4.02871,-3.6665,0.80756,-1.47253,1.17819,-0.86513,0.58296,-0.3934,0.105,-0.02575,0.15745,0.04077
1592,0.19381,0.08862,-0.02737,2.93579,1.32487,-0.08296,-0.60781,6.02719,-0.73879,25.67695,1.1041,-0.56593,0.60983,-0.2594,0.02248,0.42112,0.06138,0.0356,29.72314,9.3362,-2.536,24.19787,-31.13014,8.40682,2.82498,0.60623,1.24335,7.39,-0.44557,0.51428,2.5964,-2.1184,0.00138,-1.05825,1.44097,-0.8564,0.26123,-0.0525,-0.10565,-0.14877,0.11462,-0.02727
1593,0.85836,0.9368,-0.23284,0.22531,3.41429,-0.06537,4.50896,6.36532,-0.8515,13.48288,13.95656,2.47186,0.63439,-0.29891,0.06846,0.65848,0.12006,0.06647,19.38048,29.55334,6.63661,-2.15418,-14.71496,0.60815,2.43174,-0.04276,-1.6863,3.57369,-0.79437,-1.07252,0.33368,0.84968,-1.00815,-0.19191,1.91028,-0.76085,0.01078,0.28242,-0.25548,-0.20244,0.17265,-0.12024
1594,-0.00513,0.57189,-0.14136,-0.79233,3.96222,-0.11172,5.15899,-1.10092,0.31685,7.03109,17.16642,2.65694,0.55884,-0.31539,0.02841,0.82546,0.09595,0.04171,14.5077,20.44223,10.80228,-16.02479,3.3127,-3.22659,4.82705,-0.84749,-3.0657,3.45965,-0.77088,-0.78066,-0.65778,1.78418,-1.01926,0.524,1.75263,-0.41737,-0.05605,0.25921,-0.18667,-0.10598,0.18656,-0.10509
1595,-1.16709,0.0199,0.02372,-1.00886,3.85906,0.06417,2.55795,-6.35583,1.38544,7.05554,14.18774,2.76828,0.45976,-0.30206,-0.03105,0.77591,0.08905,0.03807,15.10534,4.84296,11.35913,1.90913,-3.96639,0.18214,6.56101,0.16595,-1.17162,5.96553,-0.23242,1.2848,-0.22686,0.06947,-0.0381,1.29972,0.78736,0.37069,-0.14213,0.05684,-0.01287,0.17556,0.06635,0.08137
1596,-1.55952,0.39751,-0.04726,-1.86702,4.14022,0.43282,0.14054,-2.96986,0.67823,9.86461,12.16115,4.02932,0.34718,-0.21111,-0.02213,0.54496,0.18547,0.08592,18.61797,6.91638,9.70898,25.27858,-24.99573,1.75372,5.87408,2.23001,1.12466,6.432,0.15042,2.54095,0.276,-1.34075,0.58401,1.63234,-0.14314,0.9657,-0.2841,0.05273,0.04019,0.37827,-0.06754,0.25248
1597,-1.50941,1.62379,-0.35534,-2.50732,3.88581,0.52548,-2.8082,6.02741,-1.46271,12.32372,10.2049,3.02435,0.34912,-0.13727,0.04003,0.3852,0.28278,0.11786,18.0793,18.11157,2.83458,21.68732,-32.99474,-0.15552,4.55624,2.7464,1.39077,5.22295,0.04898,2.03059,-0.03172,-1.20249,0.53213,0.72346,-0.22375,0.5788,-0.33017,0.0821,0.01859,0.24227,-0.05665,0.18776
1598,-1.79586,2.35409,-0.50541,-2.06281,2.64549,0.27508,-7.53428,12.18213,-2.66704,12.35213,6.98511,-0.30781,0.5221,-0.21477,0.07988,0.43149,0.28352,0.12042,9.60232,20.75463,-5.55233,-4.72509,-24.26904,2.7403,5.14722,1.03958,0.66249,6.12305,-0.29352,1.32873,0.01601,-1.41601,0.56,-0.60994,0.37459,-0.31342,-0.06471,-0.21627,0.0618,-0.01997,0.06505,0.00116
1599,-2.446,1.31741,-0.19483,-1.87126,1.35315,0.20307,-10.44697,8.31623,-1.3385,9.91544,4.91285,-1.03113,0.62868,-0.37889,0.04643,0.41498,0.19962,0.10968,1.61689,11.25349,-5.22192,-23.81331,-15.73495,9.84513,7.11103,-0.79334,0.29517,7.67587,-0.68866,1.113,1.33117,-2.44145,0.63887,-0.64325,0.91926,-0.58008,0.41618,-0.57348,0.09656,-0.02972,0.16388,-0.05797
1600,-2.802,-0.62589,0.26719,-2.92735,0.61659,0.49084,-8.31833,-2.41728,0.96638,7.21689,5.00358,2.26965,0.5217,-0.43684,-0.02853,0.15112,0.06465,0.04574,3.25078,-1.60587,3.95373,-16.81053,-17.87574,9.90119,7.58942,-0.70625,0.07887,5.21479,-0.91657,0.33624,2.73059,-2.35536,0.22627,0.69548,1.07892,-0.11197,0.6695,-0.43823,0.01582,0.15061,0.19847,-0.01759
1601,-2.6264,-1.14174,0.33293,-3.24543,0.83567,0.65904,-4.34972,-7.7392,1.46614,6.78556,6.65355,5.39675,0.38312,-0.32182,-0.05605,-0.01442,-0.021,-0.02344,10.57785,-5.31311,10.63298,10.52838,-26.04176,0.88212,5.23146,0.85424,-0.10329,0.30104,-0.58156,-0.82697,2.7755,-0.77684,-0.38186,1.9327,0.97728,0.33174,0.43884,0.08641,-0.07829,0.19808,0.17139,-0.03836
1602,-1.95609,0.35814,-0.04392,-1.26108,1.93158,0.42033,-1.20962,-1.5938,-0.11173,8.9172,7.54143,4.56413,0.39913,-0.18564,-0.00484,0.19914,0.01711,0.02209,16.56954,2.09443,8.33269,36.77398,-27.80716,-5.15821,1.72921,2.00759,0.2483,-0.63712,0.09529,-0.75976,1.45475,0.37019,-0.41184,2.1899,0.74232,0.38526,-0.0615,0.38476,-0.04562,0.07928,0.06037,-0.09511
1603,-0.75729,1.93781,-0.38763,1.02296,2.91094,0.13612,2.7545,8.07727,-1.54127,11.38781,5.64239,1.0579,0.49921,-0.18306,0.07287,0.48111,0.10551,0.17309,21.14596,10.29233,2.31558,37.52987,-14.99404,-0.2865,0.16986,1.84193,1.09033,3.66666,0.29871,0.66154,-0.33078,-0.16881,0.32854,1.80928,0.50981,0.2872,-0.44002,0.15118,0.10766,0.01519,-0.07315,-0.07071
1604,0.19672,1.52348,-0.25666,1.09548,2.85828,0.17101,6.03112,9.88418,-1.10409,12.90365,3.75501,-0.47543,0.51638,-0.26606,0.10596,0.45605,0.12133,0.27141,25.14116,13.36069,0.83768,8.03379,2.59713,8.89758,2.39306,0.88056,1.34383,8.25247,-0.26564,1.94911,-1.7331,-1.32404,1.22095,1.19875,0.38237,0.25866,-0.48334,-0.29816,0.26072,0.07503,-0.12932,0.04512
1605,-0.54309,-0.24512,0.20075,-0.86775,1.92924,0.45167,2.61039,3.8727,0.45955,12.33391,5.20965,1.78538,0.43317,-0.28962,0.06116,0.30266,0.04412,0.22756,21.46324,14.79608,5.06291,-24.90856,5.6574,12.2287,6.48851,0.07112,0.28872,9.67399,-0.86372,2.29795,-2.29119,-1.37169,1.45243,0.29609,0.33851,0.17661,-0.28936,-0.43787,0.27026,0.09401,-0.1163,0.15
1606,-2.66716,-1.09807,0.44978,-3.00553,1.22936,0.72399,-7.17836,-2.16267,1.4813,7.99778,7.4841,4.16161,0.40063,-0.26247,-0.02975,0.40795,-0.02261,0.14644,5.3789,11.7398,8.55821,-31.34155,-9.7708,8.55616,7.53992,0.15895,-0.95164,8.26383,-0.4385,2.1367,-1.50972,-0.2889,0.70544,-0.59841,0.25733,-0.04812,-0.06941,-0.10387,0.07836,-0.02224,-0.08343,0.13438
1607,-3.84676,-0.63166,0.33083,-4.07181,1.40069,0.815,-13.80789,-4.8643,1.5907,0.18411,6.89903,3.22391,0.51243,-0.30992,-0.09432,0.63594,0.02693,0.14863,-13.53015,-1.60768,7.27212,-14.05624,-28.80901,2.89461,3.91527,1.13436,-0.61785,5.04948,0.954,1.88087,0.18371,0.26929,-0.26203,-0.53836,0.05092,-0.10391,0.04579,0.25924,-0.13503,-0.10595,-0.03127,0.01965
1608,-3.1033,-0.1288,0.15006,-3.9945,1.8431,0.68476,-12.08867,-4.70316,1.39654,-7.60916,5.60763,1.28151,0.63129,-0.42043,-0.09686,0.50921,0.14879,0.18604,-23.13098,-13.40775,5.48113,3.83599,-35.31553,-1.77867,0.2725,1.9249,1.06273,1.34747,1.57208,0.90325,1.20982,-0.67746,-0.31538,0.88539,0.2903,0.17175,0.06199,0.12476,-0.12033,0.06489,0.11371,-0.05995
1609,-1.65816,0.13437,0.07411,-2.94746,1.06414,0.3429,-7.39589,-1.89282,1.20377,-9.59988,4.93467,0.97089,0.59631,-0.44068,-0.04865,0.02073,0.13415,0.0992,-21.12606,-10.09205,6.11856,11.93194,-26.35286,-4.53949,1.18674,1.71427,2.0546,-0.22235,0.084,-1.11753,0.80667,-2.04856,0.46643,2.49261,1.53109,0.35359,0.00146,-0.32396,0.07753,0.39385,0.35724,-0.04142
1610,-0.44838,0.658,-0.02189,-1.52285,-1.1943,-0.08861,-3.9007,0.98257,0.83864,-2.4387,2.40831,0.72843,0.44414,-0.30493,0.02005,-0.33514,-0.09521,-0.15226,-8.14219,0.19537,5.62041,10.79936,-11.31945,-3.655,5.63646,1.14808,1.22573,2.7335,-2.14358,-2.2836,0.00703,-2.2583,0.8611,2.33656,2.74209,0.00458,-0.08369,-0.44338,0.1528,0.48349,0.46757,0.01012
1611,0.75583,1.00999,-0.20608,0.33364,-3.2709,-0.50901,1.91723,0.76082,-0.12271,14.44392,-1.97769,-1.50541,0.32504,-0.13489,0.06938,-0.15012,-0.36477,-0.41545,21.12803,2.91372,0.48675,-2.84517,-2.13364,1.20708,9.17564,1.00471,-0.36154,8.87646,-2.53291,-0.61961,0.0425,-1.39365,0.36564,0.277,2.36896,-0.59916,-0.05521,-0.1176,-0.01208,0.21651,0.27137,0.03608
1612,1.70531,0.54566,-0.38523,3.11901,-3.99463,-0.86492,9.75701,-1.04298,-1.86111,34.2467,-6.56109,-4.94492,0.34296,-0.11418,0.07039,0.48233,-0.50358,-0.5204,56.88634,-4.30302,-7.74391,-25.31049,-3.49027,5.40839,9.0693,0.85887,-1.06405,12.44304,-0.92373,2.42597,0.60889,-0.77059,-0.14651,-1.19059,0.58633,-0.63248,0.09691,0.1002,-0.15012,0.00645,-0.05481,0.06564
1613,1.03554,-0.58547,-0.37006,4.7751,-3.38141,-0.8566,11.55982,-2.4697,-3.12627,40.1786,-9.38424,-6.47116,0.45888,-0.28376,0.00938,1.03877,-0.47266,-0.41924,66.97594,-14.45521,-11.75493,-32.63108,-9.9428,3.63312,7.02259,0.26082,-0.69638,9.14309,0.38607,3.31231,0.98508,-0.97063,-0.01192,-0.36893,-0.77025,0.00792,0.26028,-0.0895,-0.06769,0.10259,-0.1866,0.0825
1614,-1.63713,-1.50905,-0.06247,2.85042,-1.24453,-0.31346,4.31195,-3.99803,-2.1472,26.12913,-5.66922,-3.80091,0.55132,-0.46041,-0.07958,1.11369,-0.29232,-0.1813,40.75652,-15.43276,-5.83704,-5.49195,-17.12508,-2.19847,5.89509,-0.01226,-0.10236,1.93885,0.16389,1.18173,1.24533,-1.34727,0.31224,1.35203,-0.56832,0.52145,0.32199,-0.28828,0.06864,0.20272,-0.06668,0.02051
1615,-4.12802,-0.95238,0.24024,0.26238,1.91323,0.15798,-5.06573,-2.80607,0.39511,11.47902,5.21242,0.77473,0.57302,-0.45022,-0.10697,0.87064,-0.05491,0.04455,10.85648,0.09073,3.66758,31.51122,-25.95915,-3.8109,5.20717,0.84902,0.49141,-1.9533,-0.61583,-1.31958,1.67009,-1.31204,0.24049,1.77602,0.6575,0.30052,0.2448,-0.12797,0.06052,0.03806,0.10857,-0.10359
1616,-3.89673,0.87058,0.19368,1.73306,3.9624,-0.10789,-7.60469,2.45022,2.05642,15.68845,14.71473,2.71535,0.54547,-0.31435,-0.05251,0.7525,0.09618,0.12072,11.34483,20.15717,7.04111,32.26312,-32.7674,3.09246,3.16788,1.92055,1.11462,0.81872,-0.82272,-1.79574,1.40333,-0.94769,0.07812,0.49309,1.78679,-0.50367,0.00344,0.14633,-0.00316,-0.22302,0.20488,-0.19184
1617,-1.72035,2.17644,-0.08051,5.21989,3.2414,-0.7118,-2.97736,6.47233,1.87594,30.73092,14.91503,1.04416,0.47177,-0.21481,0.01283,0.82355,0.09051,0.035,34.3028,25.67916,4.5131,-0.73759,-32.26381,12.50265,0.9165,1.7114,1.3475,6.27145,-0.50408,-0.43974,0.37285,-0.77567,0.23456,-0.78481,1.98594,-1.0116,-0.19713,0.10926,0.02414,-0.2392,0.20238,-0.15193
1618,-0.37105,1.83596,-0.18164,5.26752,0.70481,-0.79948,-0.09158,4.61214,0.88997,36.66644,7.31191,-1.72417,0.41993,-0.18347,0.05241,0.82328,-0.02035,-0.09132,45.96252,13.01919,0.56675,-21.39243,-24.06737,14.27888,1.38755,0.65247,1.14192,8.4,-0.29947,1.10771,0.09579,-1.25918,0.50792,-0.51498,1.1648,-0.55987,-0.11328,-0.19122,0.10062,-0.01264,0.10258,-0.00757
1619,-0.67466,0.22063,0.04035,1.87059,-1.04513,-0.27449,-4.47143,-1.20851,0.21867,29.32309,-0.3436,-3.04962,0.46731,-0.20333,0.06928,0.68765,-0.09739,-0.10438,32.75826,-4.62384,-3.13696,-11.64373,-9.04517,6.25084,4.43447,0.19879,0.85206,6.59459,-0.47145,1.82346,0.91085,-2.01811,0.55404,0.43809,-0.02807,0.27738,0.09966,-0.39766,0.11746,0.07955,-0.07853,0.09131
1620,-1.50576,-1.01803,0.2449,-0.89627,-0.71448,0.29387,-11.17121,-3.9096,-0.25561,19.35564,-2.44148,-2.21558,0.52421,-0.26636,0.05237,0.53512,-0.04766,0.01358,12.78703,-10.16938,-5.95584,5.65827,4.88485,-3.46238,6.8789,0.31501,0.38141,5.14932,-0.78141,1.89035,1.50184,-2.19543,0.33655,0.41625,-0.78596,0.43982,0.19341,-0.4074,0.06702,-0.11836,-0.25403,0.03458
1621,-1.91726,-0.48555,0.04812,-1.17644,0.9766,0.44163,-12.39674,0.96494,-1.06256,15.26036,1.43171,-0.44094,0.51631,-0.34811,-0.01215,0.4401,0.0622,0.10647,7.47153,1.85395,-6.88677,7.93029,2.21937,-6.32885,6.69454,0.22156,-0.53672,6.46051,-0.84686,1.67532,0.88632,-1.31111,0.03362,-0.62514,-0.57517,-0.28027,0.15351,-0.30855,0.00154,-0.34345,-0.25624,-0.12547
1622,-1.74342,1.28589,-0.40912,-0.53817,2.52096,0.22127,-6.03368,8.63716,-1.81247,14.6835,7.73096,0.80094,0.54993,-0.38397,-0.07385,0.42954,0.09755,0.0561,16.85535,19.09701,-4.15323,-4.99336,-17.74424,-1.24519,4.53718,0.16544,-1.37584,8.12938,-0.5352,1.14061,-0.46784,0.20166,-0.17377,-1.50598,0.50033,-1.08322,0.01586,-0.08365,-0.04803,-0.33694,-0.02196,-0.21912
1623,-1.26077,2.00733,-0.55629,-0.59508,2.44263,0.01113,2.82559,8.72886,-1.49248,11.38321,10.26103,1.13351,0.66657,-0.34358,-0.06753,0.48643,0.01347,-0.06483,24.65469,21.50196,2.4275,-16.79846,-35.11565,7.00846,2.94488,0.5479,-1.19798,7.31482,-0.2796,0.53599,-0.876,0.84137,-0.22019,-1.09098,1.42005,-0.96063,-0.15502,0.19895,-0.07834,-0.04569,0.22919,-0.09361
1624,-1.01718,0.58317,-0.18319,-0.6252,0.80422,0.00767,5.88105,-0.48074,-0.20699,7.26739,5.92385,0.74274,0.69773,-0.29045,-0.01808,0.56711,-0.09714,-0.10352,21.02421,4.69598,7.60495,-15.56826,-33.60135,12.58995,4.38589,0.91176,0.02902,5.24358,-0.42228,0.37178,0.8033,-0.54589,-0.1092,0.45208,1.46317,-0.02573,-0.14898,0.2871,-0.08852,0.36841,0.30482,0.1575
1625,-1.29033,-0.93768,0.21148,0.70371,-0.07847,0.07114,1.41256,-7.52033,0.64437,10.75353,1.1151,0.10792,0.54517,-0.26922,0.02097,0.67129,-0.08372,0.0002,16.437,-9.6925,6.34639,-6.89013,-16.03613,12.18882,7.83116,0.92756,1.30554,5.23865,-0.30808,0.76677,3.27479,-2.85004,0.13649,1.6479,1.31095,0.51341,0.12791,0.05917,-0.05486,0.60939,0.34398,0.23898
1626,-1.82153,-0.46961,0.18285,2.8406,1.32686,0.01245,-4.89653,-3.96534,0.40918,22.75261,4.01694,-0.06176,0.37426,-0.27304,0.04953,0.81472,0.05035,0.1371,22.1853,-1.64265,0.76872,1.17801,2.19128,6.41448,9.28212,0.81292,1.38981,7.25381,0.6,1.33134,3.77556,-3.39903,0.3348,1.80473,1.64703,0.21701,0.37501,-0.23407,0.02281,0.54536,0.46396,0.07749
1627,-2.20411,1.11964,-0.0841,4.03423,3.32809,-0.13341,-8.77259,4.47172,-0.0958,33.11789,11.38933,0.42895,0.33344,-0.28862,0.0721,0.87743,0.13579,0.14766,30.14719,18.73933,-3.38265,8.69404,7.30395,-1.12291,7.20435,0.5585,0.0267,7.81967,1.36944,1.12656,1.57657,-1.40659,0.32122,1.70571,2.21335,-0.2441,0.28139,-0.27176,0.09909,0.31795,0.53699,-0.12513
1628,-2.29322,1.67058,-0.14344,3.9719,3.96249,-0.20465,-9.23722,7.50701,0.1512,36.20511,15.0401,1.12324,0.33679,-0.27029,0.06424,0.72922,0.12963,0.06596,33.78916,29.23818,-3.04517,10.36786,-3.41536,-4.57778,4.20445,0.15883,-1.25433,5.62623,0.8641,0.32514,-0.68304,0.65921,0.23866,1.66361,1.92729,-0.24687,0.07592,-0.16663,0.14226,0.08053,0.32245,-0.17584
1629,-2.2807,0.55545,0.11929,3.47192,3.68935,-0.16017,-7.63137,3.02228,1.09618,35.43769,14.95407,1.42833,0.35062,-0.23663,0.01094,0.53661,0.12378,0.04375,36.88935,25.40172,0.03671,-1.43755,-21.54934,0.07997,3.03616,0.10347,-0.72535,3.49584,-0.45356,0.47191,-0.59589,0.3328,0.36081,1.07301,0.3008,0.17346,0.09981,-0.22469,0.15835,-0.12024,-0.16328,-0.05461
1630,-2.45325,-0.64767,0.30685,2.5633,3.06292,-0.10406,-7.32581,-1.87728,1.2797,30.79306,13.3322,0.9297,0.45896,-0.2737,-0.05007,0.55263,0.08971,0.04981,33.08285,15.79183,1.515,-14.70365,-31.04553,8.50855,3.55872,0.9557,1.347,3.52766,-1.5117,1.21617,1.23451,-1.78302,0.57019,0.40546,-0.91998,0.56562,0.25032,-0.35641,0.12244,-0.14218,-0.43557,0.11488
1631,-2.80869,-0.12525,0.01811,1.09745,1.47667,-0.07634,-8.2242,0.06548,-0.35597,20.23546,7.77758,-0.09196,0.54764,-0.32784,-0.05877,0.68677,-0.02585,-0.03531,17.0821,7.40052,-0.09283,-8.74869,-20.79695,10.02275,4.37843,2.26624,2.99576,3.98359,-2.18605,0.32867,2.41934,-3.33368,0.5766,1.2988,0.15283,0.73768,0.18698,-0.2946,0.02103,0.18428,-0.1466,0.20897
1632,-2.53431,1.71659,-0.52977,0.50624,-0.60236,-0.12257,-5.51186,7.47882,-2.36805,11.11378,-0.45058,-1.06802,0.49366,-0.28907,-0.01066,0.7746,-0.13271,-0.1678,5.55917,5.13824,-1.95129,15.13246,-2.59595,1.2215,5.24148,2.65973,2.59487,3.14422,-2.55176,-2.22093,1.97239,-3.05788,0.27767,3.39819,2.61774,0.64776,-0.05322,-0.08264,-0.09752,0.56511,0.35979,0.15911
1633,-0.91107,2.55336,-0.70732,1.36771,-1.08261,-0.25026,0.85789,10.9884,-2.34194,9.75216,-2.89227,-1.35161,0.48151,-0.23024,0.04343,0.83481,-0.12761,-0.21384,9.28833,9.74241,-0.43016,36.52992,3.46539,-7.03099,6.04674,1.73692,0.65906,2.71793,-2.04905,-3.47486,1.33606,-1.64518,-0.2276,3.83098,3.81745,0.14733,-0.07612,0.06628,-0.1694,0.45271,0.50397,-0.01453
1634,0.72116,1.09637,-0.29918,1.37153,0.61252,-0.22141,2.96293,3.63609,-0.52825,10.8492,2.92046,-0.44093,0.58903,-0.23714,0.06425,0.74306,-0.02901,-0.14648,13.76543,11.22545,3.40463,37.59935,-2.88873,-3.78526,5.42911,0.57812,-0.66776,4.91249,-0.54965,-1.42464,1.51303,-0.51827,-0.51547,1.33826,2.52061,-0.5771,0.1221,0.06609,-0.13149,-0.09854,0.20875,-0.17637
1635,0.23963,-1.65543,0.30245,-0.47775,1.88512,0.07033,-2.47729,-10.50573,0.64047,10.23127,6.84103,0.76194,0.54294,-0.26493,0.02279,0.33401,0.05357,-0.06837,10.42317,-2.1243,4.03241,14.8616,-13.03728,6.27419,2.8922,0.23934,-0.24686,8.1841,0.75062,1.88301,1.72719,-0.34667,-0.28512,-1.53768,0.31707,-0.98706,0.20218,-0.03185,-0.00017,-0.47849,-0.10503,-0.22037
1636,-2.27036,-3.38581,0.62331,-1.38808,0.92672,0.23892,-8.75775,-18.17892,0.55822,10.96824,3.04834,0.60356,0.32199,-0.31955,-0.07772,-0.01088,0.04587,-0.0534,8.26353,-19.97785,0.47351,-14.26159,-23.24064,10.98561,1.21497,0.82937,1.07261,9.06104,0.69035,3.03799,1.39136,-0.99934,0.22896,-1.51791,-0.48004,-0.59343,0.1296,-0.16902,0.09843,-0.3354,-0.14958,-0.12288
1637,-4.93442,-2.44961,0.57764,0.32327,-0.65713,-0.06353,-11.56765,-11.59457,1.10112,12.52775,-1.25337,-1.42969,0.30144,-0.4311,-0.13354,0.30836,-0.03328,-0.06823,7.40427,-20.81627,-2.36545,-24.50537,-26.04029,6.84648,3.2524,1.31125,1.46766,6.75401,-0.43358,1.30787,0.86,-1.64586,0.555,0.76533,0.61224,0.15895,0.07951,-0.27264,0.10063,0.03474,0.02613,0.02183
1638,-5.87136,0.34536,0.34351,2.00041,-0.78162,-0.47639,-12.4271,1.63693,2.49322,10.55268,-0.23233,-3.7796,0.53873,-0.44797,-0.0249,1.03367,-0.08385,-0.04171,0.9252,-5.00807,-2.47202,-10.4637,-18.16186,-1.27725,7.2707,0.62895,0.02142,3.32943,-1.44493,-1.10786,0.52996,-1.24543,0.38784,2.03987,1.91197,0.35343,0.0616,-0.21326,0.05517,0.24634,0.23729,0.07344
1639,-4.59676,1.9069,0.11064,1.36032,0.813,-0.34925,-11.8345,7.79452,2.2404,8.30562,4.05591,-3.50858,0.62817,-0.30382,0.1314,1.26632,0.01975,0.07553,-2.89419,9.63796,-2.07989,11.31825,-7.05709,-7.68475,8.79054,-0.33741,-1.66951,1.14894,-1.51933,-1.88137,0.72043,-0.15414,-0.13614,1.55948,1.91035,0.04267,0.04642,0.01305,-0.0105,0.35607,0.36721,0.03469
1640,-1.73747,1.19911,-0.13148,-0.37288,3.19709,0.32455,-7.63866,4.29518,-0.57372,10.47434,9.19361,0.55155,0.48707,-0.15038,0.17317,0.75313,0.25549,0.23818,6.32868,15.27402,-1.01947,25.76072,-3.15677,-7.35685,6.8303,0.20637,-1.12916,2.04257,-0.79405,-0.54271,1.5716,-0.09509,-0.382,0.83345,0.92017,-0.12096,0.10986,0.14087,-0.06233,0.50075,0.38949,0.01927
1641,0.29174,0.28814,-0.36615,-0.85434,4.34595,0.74473,-4.03979,-0.939,-2.99748,14.45549,12.42838,4.6265,0.4301,-0.1156,0.12292,0.16871,0.36239,0.24698,16.55703,13.96346,1.18022,31.8347,-10.88397,0.2428,4.88373,1.85655,1.41085,5.87562,-0.2289,1.2784,2.31973,-1.66297,0.13383,0.58056,0.33318,-0.09464,0.23167,-0.08132,-0.01201,0.52879,0.29615,0.04427
1642,-1.59125,-0.3402,-0.20347,0.55069,4.02405,0.46474,-9.0147,-4.46832,-1.91757,18.04168,13.54365,4.78682,0.46273,-0.26167,-0.01288,0.18451,0.26114,0.09793,12.61509,10.44746,2.67415,32.31909,-15.27475,7.7006,5.5283,2.28341,2.93931,9.28035,-0.71337,1.41386,2.03418,-3.16247,0.89891,0.89806,0.91433,-0.12706,0.25828,-0.46621,0.11675,0.28666,0.10843,0.02522
1643,-5.63981,-0.46802,0.15332,2.35358,2.6021,-0.10265,-16.14943,-3.94174,0.98651,22.21394,10.65688,1.2828,0.35597,-0.4344,-0.15414,0.66266,0.07377,-0.04258,6.6067,9.32067,1.32663,24.13156,1.52241,8.74477,7.03567,0.57809,1.47432,9.31446,-1.69514,0.22657,1.20315,-2.73235,0.83459,1.60887,1.66734,-0.0312,0.16322,-0.56577,0.14863,-0.06676,-0.12211,-0.02008
1644,-7.30422,-0.01016,0.26937,2.88163,-0.12013,-0.40127,-13.30908,0.1635,2.55533,24.50396,0.75765,-2.94,0.17179,-0.46703,-0.18609,0.97432,-0.11277,-0.10228,13.97476,4.70002,-1.24673,7.63176,23.48785,5.93804,6.38192,-1.39378,-1.35645,7.09046,-1.35739,0.26118,0.99887,-0.82297,-0.19217,1.95715,1.26982,0.37685,0.0536,-0.27169,0.00634,-0.19296,-0.26772,0.0066
1645,-4.2448,-0.35414,0.33433,2.43913,-2.65072,-0.35696,0.53434,0.57501,2.36501,21.18904,-9.75338,-4.61256,0.26449,-0.40319,-0.08377,0.90366,-0.22736,-0.12176,29.2947,-8.74226,-0.36359,-6.14772,17.97201,2.92453,3.88454,-1.22907,-2.35746,5.381,0.57311,1.94511,1.38096,0.50958,-1.05878,1.7637,0.30345,0.81984,-0.01086,0.08616,-0.15725,0.02607,-0.16491,0.11206
1646,0.92731,-1.25162,0.29931,2.68622,-2.66239,-0.23643,12.83009,-3.78534,0.23997,16.50951,-10.01994,-2.32678,0.58384,-0.2774,0.088,0.6798,-0.19158,-0.16139,38.45556,-17.16449,2.81395,-5.49951,-12.75957,-0.88465,2.59313,1.09047,-0.77493,4.74054,1.89068,2.88977,1.48489,0.3336,-0.86701,1.42158,0.14696,0.91202,-0.0041,0.20258,-0.16173,0.27721,0.10686,0.18527
1647,2.61153,-0.53284,-0.23548,3.42136,0.37371,-0.17067,8.83839,-4.99403,-3.2318,15.5022,1.83044,1.85976,0.71428,-0.12604,0.20519,0.52625,0.00262,-0.18141,30.00449,-5.06797,2.89688,10.06534,-32.94736,-3.59734,3.30499,3.17481,1.38297,4.26878,0.94058,1.51765,1.10523,-0.57875,0.0619,0.99233,0.95318,0.47962,0.06528,0.05102,0.00295,0.27834,0.31149,0.1247
1648,-0.95914,1.25466,-0.72629,2.07267,4.28629,-0.08221,-9.84877,-1.79092,-3.74569,11.73819,16.8391,3.99813,0.63542,-0.15158,0.16211,0.56685,0.20973,-0.09323,1.02569,15.95797,1.43173,27.03901,-23.27112,-0.19894,3.59352,3.33697,2.33976,3.9826,-1.21567,-0.90081,1.13077,-1.26718,0.63858,0.56078,1.84867,-0.2649,0.1764,-0.15345,0.13829,0.17072,0.36439,-0.02776
1649,-4.9037,1.51164,-0.30511,-1.71591,5.76088,0.08005,-22.05257,0.47689,1.0223,0.63921,23.42705,2.5952,0.58428,-0.38393,-0.00687,0.73605,0.25695,0.0818,-26.91415,24.49142,3.80688,27.29867,-1.62831,7.3929,2.40773,2.21892,1.80319,4.08209,-2.47974,-2.05277,2.16971,-1.27128,0.17784,0.26322,1.93078,-0.77749,0.32508,-0.14314,0.04407,0.10063,0.28453,-0.14812
1650,-4.78702,0.23355,0.58131,-4.05886,4.36442,0.27551,-12.99609,1.31635,6.46043,-6.27436,19.31147,0.43573,0.53846,-0.53644,-0.14102,0.9067,0.20205,0.25503,-22.47867,22.08157,9.33583,7.69484,8.18801,10.94492,2.33555,0.90665,0.59372,4.83529,-2.12295,-0.91981,2.94526,-0.99731,-0.50206,0.05087,1.07586,-0.63936,0.38424,-0.02983,-0.11644,0.03886,0.11317,-0.12724
1651,-1.78251,-1.07191,1.00726,-2.38136,2.65505,0.39822,7.99362,1.38413,7.36538,-0.22511,12.26834,0.56905,0.45673,-0.48364,-0.1328,1.0298,0.18905,0.32192,12.26248,19.24464,13.83429,-13.60207,5.79654,7.93453,5.67395,-0.27937,-0.34625,6.82457,-0.71156,1.82814,2.17375,-1.12299,-0.19884,-0.03435,-0.01064,0.04792,0.30776,-0.13725,-0.04639,0.0655,-0.02161,0.06258
1652,0.29413,-1.18408,0.6175,1.36541,2.02277,0.26358,20.10382,0.8122,3.1957,11.44687,8.25639,2.12913,0.42893,-0.32645,0.00734,0.97718,0.17113,0.17614,41.95778,15.89592,12.73954,-17.3561,0.2352,2.61002,9.86899,-1.03032,-1.22921,8.37426,0.88358,3.978,0.4096,-0.94241,0.56847,0.0148,-0.49403,0.58476,0.19951,-0.31276,0.15257,0.18393,-0.00487,0.23308
1653,-1.07534,-0.05775,-0.27605,3.4933,2.18232,-0.07083,11.01455,0.14341,-2.73817,17.642,7.57365,2.59567,0.39501,-0.17172,0.13265,0.62482,0.09264,-0.09023,38.20682,9.57374,4.15361,1.51196,-9.53282,-1.11512,9.80029,-0.78042,-2.0759,6.2738,1.46269,3.02602,-0.3432,0.13243,0.35931,0.28927,0.07004,0.41594,0.19379,-0.18482,0.12279,0.18518,0.11902,0.14877
1654,-3.99025,0.48071,-0.67963,2.25196,1.67813,-0.32094,-8.89275,-3.93593,-5.14551,14.40228,5.52194,0.79972,0.34911,-0.10518,0.12917,0.23252,-0.03754,-0.27152,9.55311,-3.83503,-5.27434,30.63449,-16.67964,-2.23553,4.9253,0.33819,-1.76945,1.86591,0.01362,-0.90788,0.71791,0.84154,-0.62586,1.24104,1.66245,-0.09274,0.23512,0.12547,-0.1048,0.08824,0.25179,-0.08836
1655,-5.34074,-0.93966,0.04398,-0.43627,-0.05893,-0.31505,-20.69717,-12.95555,-1.96369,6.66765,0.16812,-1.76837,0.38301,-0.18131,0.03826,0.26483,-0.16167,-0.25903,-14.85813,-21.77571,-6.69288,45.8828,-4.28111,-1.53846,0.88842,1.09036,-0.22419,0.65871,-2.42397,-4.39486,2.10344,0.00937,-0.95794,2.82963,3.51014,-0.26089,0.15595,0.20986,-0.19447,0.15907,0.3772,-0.19595
1656,-5.08605,-2.68935,0.94145,-1.62109,-0.81603,-0.01897,-18.79963,-17.62008,1.92927,1.77961,-1.38177,-1.66456,0.39948,-0.36749,-0.05858,0.63336,-0.12858,-0.05544,-19.69365,-23.81201,-0.29177,37.74781,17.21166,-0.50603,1.85839,0.87371,1.05677,4.07491,-3.22356,-4.26334,2.46762,-1.59275,-0.38338,3.7568,4.09866,-0.09418,0.02512,0.02523,-0.11343,0.38058,0.43436,-0.13578
1657,-4.17638,-2.20383,0.69127,-0.98599,0.71645,0.37264,-8.35253,-10.03349,1.66758,2.2393,4.05704,1.18895,0.3199,-0.51001,-0.10403,0.76692,0.08515,0.18714,-7.89104,-2.43487,6.08433,22.89872,17.33465,-0.57397,4.96492,0.72324,1.45826,7.83545,-1.61681,-0.81377,1.58308,-2.48867,0.33779,2.58669,2.42001,-0.01996,-0.09654,-0.17583,-0.01828,0.41231,0.26128,-0.04163
1658,-3.09927,0.01103,-0.27539,0.26195,2.57019,0.43869,2.69354,0.5991,-0.22133,7.33948,8.90159,2.43574,0.28029,-0.46092,-0.08261,0.60756,0.24828,0.2543,11.71773,16.30207,6.76148,18.54064,-0.58837,-2.96764,5.65562,1.18005,1.35134,7.83099,0.04717,2.27815,0.44261,-2.09246,0.61921,0.03294,-0.10609,-0.09552,-0.19909,-0.20533,0.04018,0.09849,-0.08299,0.02769
1659,-2.83817,1.15739,-0.56797,1.35872,2.72471,0.14175,7.19138,1.47234,0.5981,13.6785,7.55988,0.69456,0.33339,-0.2893,-0.05322,0.60356,0.19211,0.12667,27.67557,11.89063,4.04154,23.02181,-3.77926,-7.59664,3.89606,0.92213,0.60158,4.01251,-0.47672,1.22662,-0.09888,-0.85431,0.46052,-1.07507,-0.2125,-0.10488,-0.28246,-0.06906,0.09147,-0.25465,-0.16429,0.05481
1660,-3.43936,-0.05972,0.13506,1.94551,1.46539,-0.05406,4.80876,-6.36205,2.98435,17.09734,3.2415,-0.2484,0.41031,-0.22037,-0.05675,0.76995,0.02332,-0.03662,32.64133,-4.62387,3.69003,25.20207,14.51328,-8.77373,2.60397,-0.27024,-0.52338,0.85519,-2.05529,-2.29196,0.10601,0.18793,0.11613,0.19574,2.17119,-0.01947,-0.32461,0.11953,0.10836,-0.28408,0.14456,0.02662
1661,-3.25686,-1.93256,0.94573,2.00317,0.09474,0.04791,1.63275,-13.7108,3.62847,16.97585,0.73902,1.48823,0.50077,-0.25354,-0.0205,0.74286,-0.0902,-0.13265,28.84499,-15.62451,6.60587,17.9846,24.0451,1.10354,2.96153,0.00511,-0.0802,2.92636,-1.87548,-2.33286,1.10738,-0.40617,-0.02762,1.0204,2.97052,-0.13903,-0.22067,0.13521,0.04892,-0.08817,0.32016,-0.027
1662,-1.39545,-1.68186,0.84004,2.23254,-0.46322,0.09268,1.03086,-12.3221,1.92017,14.17737,1.59604,3.01706,0.60299,-0.15741,0.11263,0.60307,-0.10349,-0.16434,19.21388,-13.46773,7.93397,7.65939,4.36906,17.30599,3.54845,2.28941,2.18361,7.96423,0.49251,2.14616,2.2287,-2.39071,0.17151,-0.65244,0.486,-0.64134,0.02847,-0.11955,-0.04278,-0.02035,0.09114,-0.08627
1663,-0.46317,-0.14616,0.13473,2.86547,0.47978,-0.0912,-1.78264,-4.90223,-0.35281,8.56091,6.16749,2.28026,0.57842,-0.02918,0.16967,0.68775,-0.0109,-0.11006,2.34497,-2.06972,4.98607,9.28278,-20.32783,22.04263,3.67545,3.05083,2.60829,9.47263,2.03858,4.92089,2.14847,-2.8699,0.17223,-2.46556,-1.70764,-1.09937,0.21946,-0.31894,-0.09481,-0.0938,-0.13459,-0.13754
1664,-2.46615,-0.19706,-0.08682,2.79894,1.42224,-0.2503,-7.24955,-1.93825,-1.61318,3.69688,7.93794,0.02277,0.3771,-0.15841,0.02174,0.90292,0.10239,-0.00109,-10.58342,2.41987,-0.34776,23.30558,-12.71857,7.23118,4.71609,0.4845,-0.29819,5.74524,0.23071,1.79955,0.97677,-0.94368,-0.21257,-1.43243,-0.45874,-0.92835,0.21583,-0.21267,-0.07713,-0.07374,-0.01647,-0.14494
1665,-4.8604,-1.52371,0.21785,1.77727,0.913,-0.15499,-7.33826,-5.53728,-1.62312,7.66738,2.79609,-1.83452,0.20816,-0.44024,-0.1404,0.87556,0.12456,0.10246,0.31285,-4.73832,-4.8839,29.59734,21.44647,-11.89292,6.82174,-2.01134,-2.64984,1.68583,-2.69007,-2.74025,0.6259,0.50192,-0.39237,1.49951,2.13862,-0.04184,0.17075,0.00117,-0.02031,0.08146,0.20974,-0.05339
1666,-4.97114,-0.92243,-0.03377,0.75827,0.18027,0.1082,-2.00159,-5.88684,-1.30256,18.8665,-1.92966,-1.85543,0.20146,-0.44387,-0.08452,0.48629,0.05849,0.17185,25.91446,-7.13876,-6.91224,16.20559,41.82938,-17.11367,7.74918,-1.47489,-1.93297,2.06274,-2.31216,-2.36933,1.42002,0.00212,-0.17856,3.03647,2.69921,0.89524,0.19477,0.09257,0.00727,0.16936,0.22201,0.09525
1667,-4.1014,1.85581,-0.94947,0.54263,-0.18571,0.16697,-1.72275,0.77242,-0.91124,24.54053,-2.39241,-1.17362,0.19916,-0.10852,0.09705,0.17801,-0.04961,0.12501,32.57086,0.53709,-6.875,3.48104,33.64426,-9.78561,5.79469,0.36181,-0.63708,5.1739,0.96097,1.509,1.28222,-0.25235,-0.08568,2.34627,1.63502,1.18156,0.12433,0.13278,-0.01699,0.11132,0.12645,0.18343
1668,-4.42061,2.79334,-1.03325,0.41,-1.01089,-0.09551,-8.86613,3.72682,0.54373,16.2935,-3.79599,-1.80101,0.13129,0.06831,0.14015,0.36911,-0.1308,-0.03617,9.22914,1.46341,-4.61532,18.74252,20.17761,-2.35057,2.42321,0.95624,-0.69524,5.42018,2.07041,2.32604,0.33336,0.68353,-0.32781,1.73246,1.321,0.9104,0.01167,0.21526,-0.05339,0.11711,0.16739,0.15225
1669,-5.68753,0.23056,0.21344,-0.76877,-1.31061,-0.26721,-14.85596,-4.09238,2.22147,1.53725,-6.53251,-3.16829,0.16351,-0.16673,0.01407,0.71119,-0.07742,-0.10905,-19.02283,-11.9452,-1.51516,48.19244,17.68089,-1.73208,1.1036,0.26321,-1.28444,1.85441,-0.81428,-1.54199,0.66933,1.1841,-0.68227,2.20864,2.18474,0.37593,0.10109,0.25055,-0.09213,0.24291,0.31034,0.00989
1670,-6.11716,-2.71613,1.3423,-2.0184,-0.17539,-0.14159,-13.76977,-15.80834,1.56013,-3.69976,-5.67789,-3.43671,0.34005,-0.43506,-0.09171,0.70161,0.06189,-0.0307,-22.93887,-26.68699,-2.01086,54.42575,16.21482,-6.71189,2.94267,-0.90122,-2.12049,-0.20192,-3.63793,-4.70636,1.86437,0.8429,-1.08437,2.18122,2.70933,-0.26736,0.32486,0.15708,-0.17158,0.25619,0.33308,-0.1369
1671,-5.05116,-3.10089,1.19448,-1.31257,1.41458,0.05499,-7.77644,-21.50647,-1.2664,5.37421,0.05715,-2.07189,0.48541,-0.39601,-0.07833,0.52768,0.14944,0.06909,-1.591,-28.27385,-5.91515,36.77504,5.68858,-9.06508,5.0749,-1.5702,-2.40492,3.01392,-2.76302,-2.75826,2.26039,-0.03536,-1.14104,1.08854,1.97578,-0.50936,0.45879,-0.12368,-0.20998,0.12856,0.17214,-0.12096
1672,-3.69078,-0.81994,-0.03654,1.01717,2.29213,0.15963,-1.9504,-15.58531,-3.27409,17.19009,6.77052,0.23295,0.52326,-0.17529,0.01523,0.54745,0.12684,0.09628,21.83966,-13.27839,-6.80897,22.46247,-5.79413,-1.18038,4.90455,-0.65744,-0.20904,8.3805,0.327,1.85946,2.24477,-2.05061,-0.24137,0.29847,0.853,-0.14975,0.44592,-0.56862,-0.06396,0.08522,0.02272,0.03395
1673,-3.84525,1.59221,-1.10633,2.65839,2.21,0.22054,-1.05065,-2.44304,-2.7907,19.9986,9.58031,2.36828,0.50969,-0.11014,0.1029,0.62741,0.03507,0.06216,26.88396,6.21378,-2.11526,22.4787,-1.52244,9.99319,3.60426,1.16453,2.73756,10.04335,1.82162,3.92405,2.7132,-3.75919,0.79338,0.81782,0.4635,0.4217,0.3197,-0.74,0.13987,0.23638,0.03683,0.15439
1674,-6.00474,2.18875,-1.24302,2.53559,1.5727,0.25143,-7.02825,7.58656,-1.51241,13.1608,6.93696,2.9438,0.38886,-0.24178,0.10919,0.62138,-0.00029,0.03358,10.5684,14.94996,2.34361,31.77626,23.00802,9.25553,3.66232,1.72285,2.18451,6.69138,0.23897,1.73758,3.24632,-2.32854,0.43473,2.05423,1.01261,0.76876,0.17583,-0.17378,0.12567,0.42089,0.14776,0.16673
1675,-7.69975,1.66912,-0.96769,1.47517,0.84865,0.14755,-14.10068,10.36582,-1.5666,3.52197,1.9963,1.3631,0.16159,-0.31526,0.02938,0.68367,0.08173,0.02574,-12.18433,13.01405,1.41425,42.73331,48.39059,-3.22404,5.11663,0.52648,-0.95499,2.40963,-2.71536,-1.92507,3.07779,0.75718,-0.6971,2.73671,1.83056,0.78236,0.08432,0.65161,-0.04854,0.43994,0.18819,0.14072
1676,-6.35582,1.06662,-0.77589,0.79683,0.2118,-0.1015,-16.27557,8.43356,-2.55301,-0.51744,-0.81496,-0.90879,0.05322,-0.24052,-0.06573,0.8078,0.14273,-0.02193,-22.98286,10.52888,-3.45078,46.59216,50.60688,-11.85616,5.78242,-0.64673,-1.81681,0.65575,-4.24563,-3.73133,2.17145,1.15904,-0.70347,2.16763,2.16474,0.49021,-0.00889,0.72225,-0.08387,0.25106,0.13866,0.10464
1677,-4.17671,0.58314,-0.56803,1.21422,-0.05347,-0.31669,-18.95146,4.34242,-3.1499,4.85639,0.32168,-1.87333,0.15206,-0.17466,-0.11188,0.78413,0.04515,-0.10491,-21.50135,10.69026,-9.24038,38.7207,27.82479,-9.05026,4.38613,-0.716,0.51216,0.81385,-3.20852,-3.13097,1.26568,-1.5458,0.49482,0.96695,1.98265,0.06105,-0.05935,-0.12355,0.11522,0.01544,0.134,0.03403
1678,-4.92077,0.30736,-0.28008,2.40218,0.11167,-0.39704,-26.46696,-1.30869,-2.87864,15.36491,3.30829,-1.7552,0.29483,-0.23997,-0.0895,0.62598,-0.12492,-0.13862,-16.50311,7.36726,-13.91914,22.2687,0.6399,-2.54762,1.84119,-0.6233,2.51627,1.51532,-1.07662,-1.68839,0.85449,-3.69428,1.43434,0.32059,1.81834,-0.19816,0.01341,-1.01565,0.37012,-0.0498,0.22566,-0.02314
1679,-7.37176,0.43659,-0.12024,3.48531,-0.1626,-0.47172,-30.29476,-6.38686,-1.96468,24.13429,3.66836,-2.23695,0.38417,-0.33247,0.00328,0.58529,-0.20778,-0.13896,-6.6127,-2.18575,-15.55293,9.83997,-5.45412,-0.01479,0.09501,-0.93221,2.08117,3.28278,0.2788,-0.55117,0.91054,-3.05867,1.28071,0.48837,1.95597,-0.23986,0.10409,-1.12129,0.44823,0.06465,0.32575,-0.02665
1680,-7.75527,0.90942,-0.26795,3.33299,-0.77448,-0.48489,-24.52381,-6.32604,-1.44855,25.81725,0.56646,-2.96733,0.47531,-0.2968,0.11529,0.63888,-0.12603,-0.13494,5.55767,-8.93305,-13.38706,18.80043,17.00218,0.20027,0.8545,-0.66901,-0.09849,6.33811,0.69448,0.54601,1.91565,-0.60997,-0.06819,1.00282,1.9259,-0.1843,0.22344,-0.37989,0.15829,0.19934,0.32834,-0.03203
1681,-5.48031,1.30161,-0.65087,1.31818,-0.37173,-0.19717,-15.6546,0.42104,-2.34568,17.06569,-2.25671,-2.11768,0.5774,-0.16789,0.13887,0.54476,0.07196,-0.06404,4.96152,-3.24986,-8.4699,45.36256,45.4866,0.3278,3.81051,0.03477,-2.93199,8.76082,0.6467,1.59898,2.1061,2.1263,-1.69822,1.50897,1.37768,-0.06308,0.2152,0.58442,-0.31787,0.24779,0.22464,-0.08144
1682,-2.67449,1.18077,-0.87586,-0.5794,0.89647,0.19039,-10.45876,7.79718,-3.45722,4.1715,-2.68299,-0.36223,0.56198,-0.06399,0.02576,0.52162,0.1972,0.05876,-8.33412,8.69823,-4.05457,63.34902,52.31079,-1.59956,6.86625,-0.45729,-5.23283,8.38623,-0.07687,1.37934,-0.05421,3.84934,-2.17468,1.80357,0.98279,0.05798,0.03904,0.99899,-0.55012,0.22079,0.13101,-0.12108
1683,-1.10071,0.44165,-0.54495,0.05825,1.39369,0.2693,-8.73299,7.20992,-2.72412,0.15093,-2.67342,-0.09428,0.3624,-0.04589,-0.12974,0.83238,0.14239,0.13831,-14.45125,9.62622,-3.80125,58.70837,37.76204,-4.94508,7.17195,-1.79888,-4.86578,5.20634,-1.44871,-0.56108,-1.42317,3.02439,-1.28543,1.77064,1.39569,0.12726,0.05128,0.58277,-0.36169,0.15664,0.12678,-0.0811
1684,-0.92847,-0.57437,0.13266,1.68612,0.57887,0.13973,-7.88245,-1.73406,-1.00777,6.34915,-4.13015,-1.05295,0.19365,-0.16917,-0.17743,0.99734,0.04771,0.15287,-5.76613,-5.2265,-6.57149,39.91755,20.60373,-4.5129,2.6318,-1.21243,-0.0192,1.43986,-2.5046,-2.73861,0.73,-1.28699,0.26206,1.4283,2.18914,0.15852,0.2213,-0.36457,0.04331,0.05974,0.15189,0.0135
1685,-2.49457,-1.0069,0.36314,1.73571,-0.60333,0.06044,-9.95921,-9.36977,-1.0045,13.95451,-5.0295,-1.19585,0.17648,-0.38937,-0.13349,0.67013,0.01772,0.08486,4.06588,-17.78457,-8.81695,20.12438,14.10393,-1.71481,-2.36687,1.17077,5.38674,0.04784,-2.55997,-3.66293,4.22692,-5.90626,1.12616,1.06877,2.80667,0.0711,0.2976,-1.06282,0.22073,-0.01381,0.17874,0.06359
1686,-5.56399,0.12848,-0.4668,0.71222,-1.10574,-0.04076,-16.4453,-6.12102,-3.05366,18.27249,-2.19998,-0.45358,0.1599,-0.46443,-0.14038,0.37369,-0.02954,-0.09087,4.98538,-8.32184,-10.21377,8.62411,18.23046,-5.58307,0.00737,1.64528,4.44552,1.96722,-2.18242,-3.25452,4.16981,-5.46192,0.61525,1.0886,3.0498,-0.0747,0.08528,-0.78232,0.06142,0.0214,0.21308,0.04102
1687,-8.14478,2.21286,-1.83376,0.489,-0.39513,-0.18793,-21.60035,4.84613,-5.15803,19.6995,3.17576,-0.07734,0.11709,-0.34624,-0.23393,0.49536,-0.08045,-0.22352,2.07706,14.38686,-11.69773,16.44655,22.29492,-13.6111,8.10932,-0.07631,-1.60852,4.86101,-2.07459,-2.00238,0.73576,-0.51796,-0.48525,1.21519,2.50577,-0.05555,-0.15862,0.16579,-0.18633,0.10792,0.18388,0.01939
1688,-8.56678,3.21711,-2.45363,1.72824,0.75546,-0.25232,-20.2753,10.69147,-5.67168,18.47755,5.33074,-0.58216,0.14974,-0.26077,-0.30876,0.79761,-0.03903,-0.16859,0.9605,21.89869,-12.19448,41.31019,20.12604,-11.9558,11.26338,-1.00768,-5.08707,6.5002,-1.64605,-0.14989,-1.00253,3.03957,-1.13034,0.78516,1.18034,0.0107,0.01901,0.62155,-0.26709,0.14823,0.10986,0.02539
1689,-6.37016,2.57962,-1.94641,3.15935,1.31114,-0.18414,-13.22939,7.23391,-4.33058,13.80673,3.26405,-1.1624,0.21985,-0.23932,-0.25613,0.98966,0.08069,0.00058,0.95471,11.50875,-9.1849,55.79012,19.56699,1.27273,5.76585,-0.14492,-2.97409,7.19767,-0.11221,1.66583,0.43888,2.16481,-0.85463,0.06441,0.21559,-0.1931,0.40797,0.18617,-0.12028,0.16596,0.13572,-0.0102
1690,-3.1761,1.52437,-1.09869,2.22967,1.38364,-0.00603,-5.96671,2.3997,-2.40375,3.99992,2.37488,-0.5402,0.19266,-0.15393,-0.11645,0.85714,0.18507,0.11526,-3.94023,5.96372,-2.56511,45.91589,27.18017,12.66475,-0.44312,0.89868,0.82706,7.34257,1.50818,2.24286,2.49997,-0.78037,-0.11942,0.28777,0.55229,-0.35703,0.56656,-0.43546,0.06331,0.23577,0.25151,-0.07015
1691,-2.29789,1.08662,-0.63991,-1.13614,1.45212,0.18637,-6.39296,1.40706,-1.71659,-8.81456,4.5551,1.05366,0.04284,-0.00253,-0.01808,0.42896,0.20937,0.10797,-20.19308,11.42864,2.80568,35.58574,32.07068,13.82156,-0.62382,0.72736,2.44446,6.67684,1.33471,1.1614,3.07508,-2.72869,0.5125,1.39416,1.58779,-0.09855,0.37778,-0.65415,0.1709,0.28923,0.27788,-0.05851
1692,-4.60976,1.65928,-0.75133,-2.96344,1.0574,0.22742,-15.17027,1.83673,-2.40589,-14.12234,4.36887,1.63994,-0.1171,0.15151,0.0189,0.18446,0.15043,0.0434,-37.98189,12.83101,2.05613,43.4223,28.21109,7.61285,3.18625,-0.17532,1.30867,5.68921,-0.7262,-0.6584,2.30126,-2.40528,0.56586,1.75568,2.19125,0.18637,0.11129,-0.43492,0.15978,0.17776,0.17069,0.00562
1693,-7.41193,3.39369,-1.39963,-0.98432,-0.34596,0.08569,-20.37077,1.68126,-2.61926,-5.3725,-1.64634,0.31658,-0.16713,0.26269,0.07152,0.46493,0.033,-0.00934,-34.41932,3.14723,-1.84635,54.24517,32.48819,-1.58724,6.42977,-0.18522,-0.84333,4.72977,-2.77232,-2.13704,1.93222,-0.57412,-0.15615,1.20758,2.31217,0.22892,0.16924,-0.04301,-0.00441,0.00242,0.07909,0.06377
1694,-8.89007,5.6766,-2.30229,2.05987,-1.4283,-0.0713,-13.50352,2.19132,-1.52154,9.66826,-6.43321,-1.15052,-0.1033,0.30735,0.14607,0.94448,-0.07669,-0.03542,-5.17165,-5.10921,-2.7411,48.08456,49.92039,-11.34649,7.44298,0.90457,-2.26594,3.41717,-3.20077,-2.85637,2.71076,1.16023,-1.1539,1.07145,2.54515,0.29253,0.47913,0.2928,-0.21727,-0.0196,0.12898,0.10012
1695,-10.32897,6.60125,-2.68743,2.97485,-0.56169,-0.13462,-4.04294,3.65611,-0.55112,19.33808,-2.21819,-1.17873,-0.0704,0.22682,0.12536,1.07997,-0.10069,-0.04908,24.03625,-0.17192,-1.50325,27.86987,56.4416,-17.73535,5.72075,1.52243,-2.46552,2.21149,-2.21404,-2.83118,2.68564,2.10272,-1.52551,1.52937,2.91037,0.38486,0.40855,0.52937,-0.26044,0.09466,0.29119,0.08911
1696,-12.1827,5.26454,-2.15795,1.91557,1.20659,-0.20109,-5.1883,5.75392,-0.66106,19.72011,5.58454,-1.03945,-0.1284,-0.02859,-0.0368,0.86466,-0.06297,-0.06618,26.57141,10.85523,-3.07384,13.69362,40.91315,-16.00481,1.88794,1.47156,-1.26342,2.57934,-1.1332,-2.30064,0.64681,1.99533,-0.78611,1.60884,2.94098,0.16918,-0.23292,0.61127,-0.06016,0.17269,0.41335,0.00739
1697,-11.95443,3.26771,-1.31285,0.50598,2.19183,-0.24525,-14.28762,8.32815,-1.16664,14.1341,7.93709,-1.79239,-0.1209,-0.31223,-0.17369,0.66981,-0.01695,-0.03761,5.54562,16.27003,-6.84473,18.50519,22.95309,-7.25915,-0.84882,2.02584,1.0278,4.34282,-0.9428,-1.84278,-0.83713,0.60039,0.45097,1.08836,2.52404,-0.33935,-0.66163,0.40313,0.19353,0.15676,0.37859,-0.10762
1698,-8.17359,1.84699,-0.71724,-0.40458,2.46352,-0.02923,-17.97639,8.40831,-1.47719,8.50026,5.70511,-1.456,0.01141,-0.39788,-0.13973,0.54578,0.04865,0.08473,-11.55474,15.66672,-7.11968,29.02416,19.34184,-0.33019,0.79822,2.80222,3.08257,5.45739,-1.41284,-1.81562,0.79412,-1.97197,1.28354,0.72166,2.09177,-0.64003,-0.2338,-0.18643,0.30979,0.12189,0.2571,-0.16744
1699,-2.86293,0.91625,-0.41088,-0.78317,1.8784,0.35757,-10.57057,4.75994,-1.45638,5.93539,2.49621,0.86314,0.16603,-0.30937,0.0212,0.33817,0.09015,0.17885,-7.60178,11.95854,-2.3351,25.83523,26.57762,-0.2993,5.90279,2.52648,3.7427,5.12074,-1.44077,-1.55172,4.08016,-4.70139,1.49244,0.82996,1.8945,-0.36323,0.61548,-0.91936,0.27856,0.11181,0.19451,-0.10204
1700,0.48142,-0.66442,0.20811,-0.31677,0.71885,0.50925,-1.1823,-2.39854,-0.50132,7.65917,0.58471,2.55052,0.32002,-0.38739,0.1677,0.25864,0.11096,0.15873,8.02785,3.24486,1.81565,17.76261,33.54529,-1.30533,8.92853,1.81166,2.79363,4.14305,-0.71346,-0.63108,5.42371,-5.26416,1.02646,0.95538,1.75933,0.25737,0.9733,-1.14047,0.14676,0.09926,0.21097,0.05761
1701,0.34336,-3.69324,1.59007,1.27055,-0.14366,0.25287,0.02205,-13.05963,1.37405,14.06082,0.29007,1.35227,0.47398,-0.72453,0.19962,0.53015,0.15941,0.08931,19.18063,-11.90497,0.23964,24.10275,33.72699,0.96226,6.50237,1.85985,0.54097,3.11308,-0.23499,-0.19299,3.31601,-2.35786,-0.17349,0.83049,1.75889,0.58266,0.51174,-0.5121,-0.07211,0.06314,0.26007,0.15328
1702,-1.97101,-6.69591,3.00081,2.92086,-0.72285,-0.18425,-5.24398,-23.80924,3.00778,20.62694,-0.43072,-1.41619,0.52023,-0.96286,0.10068,0.87288,0.13763,-0.0077,20.30514,-27.97052,-4.02104,37.86817,29.10265,1.14578,2.26802,2.23738,-2.21604,3.00974,-0.33975,-0.66959,-0.16428,1.9755,-1.52837,0.86757,2.04404,0.38121,-0.26649,0.46855,-0.3049,0.06075,0.31223,0.08429
1703,-4.65365,-7.21624,3.2593,3.47269,-0.9117,-0.46469,-9.87179,-28.48906,3.41399,22.70562,-1.35274,-3.01455,0.38942,-0.88258,-0.07376,0.92544,-0.03145,-0.12271,16.02972,-35.44903,-5.32696,40.40721,27.17789,-4.19016,0.62465,2.16853,-3.83783,4.48588,-0.41459,-0.94069,-2.07463,4.45251,-2.04887,1.39109,2.27008,0.07191,-0.76254,1.0848,-0.37668,0.15955,0.31466,-0.04482
1704,-7.09411,-4.86154,2.2406,2.59261,-0.87209,-0.49732,-12.53089,-24.48359,2.37582,19.71411,-2.03625,-3.03732,0.16223,-0.67729,-0.20802,0.69436,-0.23368,-0.20508,9.32224,-32.60703,-4.1331,32.02953,33.05397,-10.11827,0.52763,2.03535,-2.8333,5.3505,-1.19235,-1.5724,-1.57653,3.79845,-1.42066,1.92452,2.34625,-0.06059,-0.80097,1.04268,-0.21059,0.27954,0.25414,-0.09945
1705,-8.66032,-2.07152,1.10436,0.70316,-0.84587,-0.36037,-15.77009,-16.62316,0.75792,13.55961,-2.59808,-2.57705,0.01554,-0.58201,-0.17739,0.46399,-0.24938,-0.19732,-1.04548,-24.85558,-3.71065,24.62259,39.95775,-10.8654,0.4098,2.32825,0.18452,3.61321,-3.09224,-3.34891,0.21966,0.79944,-0.22732,1.67458,2.37188,-0.17725,-0.40067,0.4016,0.02994,0.24752,0.16202,-0.08564
1706,-8.10667,-1.27734,0.88218,-0.73252,-0.42498,-0.09719,-17.71203,-12.28039,0.08733,9.03833,-3.0773,-1.77262,0.07126,-0.59488,0.03687,0.41547,-0.01507,-0.08828,-8.51427,-18.31904,-3.78704,20.26696,35.93769,-5.97289,3.04261,2.82108,2.04687,1.93019,-3.2533,-3.46944,2.26507,-2.59454,0.5133,0.63988,1.89846,-0.30444,0.41956,-0.48237,0.07327,0.08306,0.06237,-0.04188
1707,-6.37858,-2.37952,1.40933,0.53512,0.09315,0.08071,-17.00044,-13.34347,0.90324,13.61882,-4.64884,-0.90112,0.18574,-0.65657,0.22483,0.52588,0.19613,0.00024,-2.92624,-18.07079,-4.03084,12.66213,24.21174,-0.94505,8.76474,3.29423,0.96619,3.35181,-0.17307,-0.32647,3.352,-4.31946,0.46892,-0.21345,1.13792,-0.23348,1.16287,-1.04876,-0.09796,-0.01559,0.03432,0.0311
1708,-6.83649,-3.78481,2.0127,4.4423,-0.01287,-0.10092,-19.95065,-16.66083,2.52178,27.62243,-6.24753,-1.2914,0.09766,-0.77278,0.14372,0.74703,0.11708,-0.03363,8.93174,-23.65979,-6.69517,5.59829,19.72859,-0.95602,10.9132,3.47438,-0.67913,5.67814,2.33193,2.10941,2.00414,-3.65763,0.47002,-0.09515,1.1973,0.02567,0.95891,-0.94824,-0.11739,0.01144,0.14762,0.08375
1709,-9.60938,-4.46801,2.32668,7.15187,-0.41309,-0.44086,-25.62896,-20.25292,3.9667,39.0153,-5.53382,-2.90567,-0.15894,-0.84451,-0.11471,0.98816,-0.09864,-0.08506,15.66922,-30.62892,-9.98124,11.14382,25.95231,-3.38238,6.32608,3.18877,-0.65781,5.74914,1.28355,0.89479,-0.1431,-1.166,0.56284,0.51842,1.99145,0.11772,0.02007,-0.23134,0.07367,0.04994,0.31171,0.04114
1710,-10.09337,-4.50928,2.19059,6.56873,-0.27249,-0.49219,-18.69523,-23.81836,4.27326,40.97318,-2.81201,-3.58172,-0.27709,-0.75814,-0.25472,1.1057,-0.12649,-0.03488,30.03087,-34.1805,-8.38312,26.74129,28.6099,-1.60111,1.53213,3.0354,0.64428,4.60037,-0.54692,-0.69018,0.96641,0.82009,0.09,0.47657,1.90758,-0.14368,-0.29176,0.47416,0.16796,0.03025,0.34348,-0.06487
1711,-5.46929,-4.23464,1.58304,4.94234,0.51754,-0.29312,4.51403,-25.41825,3.00913,41.02012,1.13033,-2.24317,-0.03511,-0.60691,-0.15476,1.02476,0.04941,0.03292,63.34391,-28.78699,-3.11954,36.22197,16.39279,3.56615,2.11389,3.55678,1.95983,4.18985,0.25642,0.76814,4.78477,0.12547,-0.49119,-0.14101,0.47592,-0.30521,0.31331,0.48786,0.13495,0.03419,0.22527,-0.08462
1712,0.9152,-3.22889,0.68771,4.02248,0.54167,-0.21768,23.94945,-22.67901,0.8742,42.86951,2.08473,-1.14253,0.44784,-0.51037,0.06508,0.76879,0.16037,-0.02976,89.28842,-19.2258,-1.7255,33.22129,2.7174,2.30022,5.28393,4.77526,1.66575,3.13925,1.80206,2.53514,5.97811,-1.45075,-0.75478,0.01305,-0.44751,0.16541,0.65357,0.1172,0.00361,0.13618,0.09649,0.06946
1713,3.84516,-1.67689,-0.01708,3.01343,-1.0722,-0.30841,24.26365,-16.78374,-0.34341,39.20181,-3.96675,-2.58631,0.80551,-0.52087,0.18241,0.48905,0.05344,-0.17853,78.4269,-17.07898,-5.04712,25.45818,6.81477,-10.77557,6.47419,6.38459,-0.14728,-0.27349,0.04043,0.05332,2.40769,-1.67766,-0.61857,1.4904,0.71431,1.01097,0.15355,-0.02883,-0.20098,0.24999,0.0469,0.25518
1714,3.15124,-0.21317,-0.37027,1.81808,-1.99819,-0.36636,16.16752,-8.59463,-0.27301,29.96539,-9.23666,-4.86616,0.87122,-0.58482,0.15997,0.48449,-0.08548,-0.20196,50.62989,-12.83694,-6.84875,16.21938,18.36696,-26.50336,6.576,7.46976,-2.07888,-2.64918,-3.52828,-4.73053,-1.55641,-1.06348,-0.2185,3.18267,3.06751,1.32252,-0.37712,0.03041,-0.33936,0.30424,0.13023,0.25097
1715,2.10152,1.30461,-0.82262,2.62412,0.86803,-0.4313,14.66232,1.89273,-1.37143,31.9336,-2.77584,-4.42201,0.75654,-0.50391,0.15987,0.79696,0.05472,0.01919,52.32356,10.54791,-7.32604,-0.43362,12.64983,-29.20397,8.45855,7.3987,-3.37601,0.99481,-2.84062,-4.82015,-1.11859,-0.79465,-0.24593,3.36579,4.09099,0.62594,-0.20832,0.01936,-0.30694,0.29917,0.30182,0.03171
1716,0.78637,2.83619,-1.35702,5.55061,4.96127,-0.63388,11.6661,10.24469,-3.92095,52.00519,7.78766,-1.72523,0.55892,-0.28506,0.21365,1.04131,0.29133,0.23226,79.83979,35.32515,-12.45134,-16.43675,-0.74142,-16.28294,10.44477,7.14735,-2.8228,8.01901,2.62834,1.05892,2.07592,-1.56831,-0.37324,1.52792,2.39936,-0.4756,0.1518,-0.11191,-0.07329,0.1925,0.38709,-0.22342
1717,-3.67658,3.26686,-1.03992,6.68504,5.18802,-0.76456,-9.67151,11.59002,-3.32718,69.25488,7.20318,-0.97274,0.26181,-0.28748,0.11731,1.05215,0.18719,0.1725,77.84754,33.98711,-20.09397,-10.10129,8.57357,-3.59394,9.45379,7.72544,-0.46437,10.64209,6.17751,5.72633,3.29691,-2.61587,0.18375,-0.50121,0.00214,-0.97343,0.12558,-0.17386,0.18894,0.03393,0.35911,-0.3201
1718,-9.22891,3.19913,-0.10194,3.19258,2.54144,-0.53481,-37.38836,11.95709,1.2621,61.52035,-1.90465,-3.32209,-0.02299,-0.50106,-0.11178,0.95158,-0.08498,0.01303,31.35118,21.02968,-21.00797,10.77271,32.84898,-4.04322,7.54423,8.59377,1.1205,6.43948,4.17362,4.39131,1.30747,-3.07045,1.58801,-0.86262,-0.59457,-0.57868,-0.09619,-0.2033,0.34443,-0.08482,0.29096,-0.2241
1719,-11.45749,4.22602,-0.0241,-0.97074,2.36121,-0.32534,-46.70922,16.97531,3.02364,38.16253,-3.3451,-4.70179,-0.13761,-0.50755,-0.2363,0.82727,0.0113,0.01168,-11.3062,23.78002,-14.88867,15.68389,40.31745,-13.64461,8.6685,9.15821,-0.02836,-0.14775,-0.30124,-0.63539,-0.74472,-3.15156,2.82936,-0.00542,0.77927,-0.02102,-0.12444,-0.27532,0.37745,-0.17476,0.23991,-0.09464
1720,-9.61287,4.57569,-0.79209,-0.13552,5.39692,-0.79194,-33.62922,19.25783,-1.53594,24.48443,7.77303,-2.05615,-0.0491,-0.35221,-0.21129,0.77246,0.4543,0.08388,-9.44155,36.18531,-9.11384,3.73417,25.99985,-23.38119,11.4565,9.52993,-2.53971,-3.67636,-3.71813,-5.72322,-0.20343,-3.07705,2.42851,1.02317,3.27188,-0.04434,0.12081,-0.28202,0.21222,-0.17786,0.31534,-0.07536
1721,-4.76903,2.63731,-1.24943,3.3793,7.18077,-1.53699,-9.19658,14.90023,-6.85452,23.59712,19.22226,2.05863,0.22133,-0.35835,-0.07411,0.79017,0.70543,0.03468,24.47714,41.74696,-5.30281,-2.51987,9.21001,-30.44456,12.43773,10.0451,-4.70814,-2.04492,-4.61304,-7.86607,2.02219,-2.23261,-0.00811,2.38893,5.21945,-0.24905,0.46153,-0.05853,-0.26213,0.11922,0.4839,-0.08013
1722,-1.31885,0.94357,-1.12214,3.50279,6.75816,-1.75364,6.18046,10.68085,-7.60336,20.88868,24.21556,4.18319,0.41149,-0.46692,0.07125,0.78558,0.57992,-0.06091,41.75808,44.64114,-1.46585,-1.77018,5.04975,-36.58422,12.67754,10.61185,-7.36185,2.23814,-2.90146,-5.46177,3.12295,-0.72257,-2.48114,3.79412,4.76567,0.09839,0.56807,0.29412,-0.7549,0.57831,0.49466,0.01689
1723,-1.13232,1.05928,-0.74585,1.03371,6.59102,-1.62891,3.95748,8.84663,-4.81082,13.73009,25.68271,4.45804,0.42997,-0.44853,0.17523,0.81942,0.34062,-0.06871,26.50918,48.80153,1.98919,-9.70884,13.3697,-41.58479,15.07005,11.00198,-10.52975,4.7772,-0.05102,-0.98797,2.0664,-0.68289,-1.92744,3.9409,2.58968,0.74924,0.29222,0.32285,-0.62824,0.62965,0.26319,0.12576
1724,-2.02184,1.22015,-0.31591,0.46561,6.90776,-1.58396,-5.03398,4.79412,-2.15411,9.37723,23.31464,4.36535,0.43408,-0.3531,0.21058,1.01407,0.20128,-0.01993,5.80678,42.43838,3.91616,-26.45082,22.71014,-41.03456,17.9932,11.39304,-11.91606,4.52583,2.7676,2.06789,0.28087,-2.67602,1.51754,2.73802,1.15993,0.92524,-0.08621,-0.05311,0.11909,0.16923,0.11656,0.07697
1725,-3.63076,-0.1638,0.23134,1.49697,5.78172,-1.28704,-14.48822,-2.74164,-0.80998,5.25642,14.43367,3.39607,0.43591,-0.47408,0.07147,1.29634,0.10552,0.01769,-10.60952,18.73818,3.71961,-37.69165,22.24611,-32.40105,17.76398,11.65383,-10.80547,4.1428,4.756,3.25371,-0.59704,-4.13864,4.0224,1.59314,0.93042,0.61844,-0.19595,-0.35894,0.63752,-0.16116,0.21865,-0.04402
1726,-5.6898,-1.75958,0.76112,1.59083,2.70817,-0.46902,-24.44556,-6.45823,0.53252,-2.67425,2.33029,0.61089,0.41994,-0.82246,-0.14162,1.54775,-0.06382,0.06497,-29.74995,-4.16658,1.57255,-39.0434,9.94381,-21.93066,14.70826,11.11277,-9.71504,4.81938,4.23789,2.95346,-0.34344,-3.45124,3.11111,1.25555,0.83001,0.3388,-0.04635,-0.32685,0.39497,0.016,0.32841,-0.0534
1727,-5.52174,-1.00896,0.70128,0.96933,0.4325,0.25676,-24.63858,0.46412,2.04635,-7.85704,-3.4296,-1.26078,0.41115,-0.93975,-0.16782,1.75151,-0.15916,0.17746,-35.7352,-0.91786,2.3249,-38.96472,-7.70783,-19.0321,11.97591,9.84485,-11.23944,4.84748,1.07825,1.08679,0.10676,-1.51186,0.292,1.24555,0.73902,0.24774,0.05346,-0.07899,-0.21117,0.32664,0.26766,0.04785
1728,-2.0161,1.74992,-0.11171,0.61869,2.18779,0.17679,-6.65498,11.38811,2.08097,-7.53015,3.60781,1.69218,0.36106,-0.57888,0.00811,1.80471,0.12876,0.35618,-16.65418,24.44746,11.54028,-38.82535,-23.01912,-22.8967,11.59982,8.95909,-15.2017,3.80929,-1.36082,-0.27693,0.47689,-0.41029,-2.08066,1.11057,0.54853,0.36794,0.05868,0.07771,-0.66764,0.38749,0.07521,0.1649
1729,0.639,3.53693,-0.9508,0.82225,6.13873,-0.50751,11.42256,14.76814,0.00769,-7.37982,16.6675,7.3458,0.21406,-0.18796,0.09337,1.54485,0.62641,0.48266,0.22393,42.40305,22.29942,-27.21697,-36.08739,-24.31837,12.7604,9.31063,-19.303,3.67523,0.04037,1.39217,1.02925,-0.81933,-3.62525,1.0605,-0.36602,0.74313,0.12295,0.06243,-0.99279,0.30035,-0.09044,0.22912
1730,-1.3846,3.44642,-1.19528,1.85806,8.22394,-1.30661,6.45982,10.62886,-2.35274,-7.20597,26.23548,10.7055,0.09311,-0.20189,-0.02532,1.0319,0.80572,0.46513,-8.96704,42.61032,22.99534,-0.95209,-46.10729,-20.3906,13.77552,10.1638,-21.46965,4.40676,3.23713,4.43989,1.80925,-1.9401,-4.75749,0.99122,-1.74565,1.05587,0.34559,-0.06044,-1.32617,0.20302,-0.18283,0.19772
1731,-4.70649,2.82461,-0.88017,2.56086,7.72067,-1.78789,-11.91604,5.92877,-2.68024,-5.38239,28.98042,10.25898,0.18386,-0.39255,-0.07851,0.48732,0.5723,0.35291,-28.34518,36.47333,15.46599,19.37903,-35.90646,-18.37702,14.25826,9.07754,-23.24339,4.04123,3.73439,4.60876,2.39333,-3.08027,-4.58286,0.02974,-2.00293,0.61873,0.69495,-0.38811,-1.51353,-0.03586,-0.17511,0.03903
1732,-4.714,1.68949,-0.22442,1.60095,5.01044,-1.39133,-19.32273,2.04786,-0.97267,-5.65555,21.48957,6.57282,0.38185,-0.39657,0.05646,0.09362,0.18862,0.17884,-35.26581,24.29787,8.38256,7.35934,6.6263,-23.91166,12.86544,4.92498,-27.32097,2.59027,0.94241,1.09106,1.77283,-2.888,-0.60642,-1.30736,-0.33357,-0.44962,0.79024,-0.68965,-1.0541,-0.37566,-0.01779,-0.16197
1733,-1.3199,-0.72146,0.49767,-0.58732,0.45008,-0.14076,-8.68511,-2.67601,0.97206,-9.34706,5.46797,1.35655,0.49866,-0.3252,0.18976,-0.1401,-0.13208,-0.03823,-25.22228,3.39156,4.76702,-37.1104,52.92965,-32.08677,7.57414,0.89955,-30.10323,1.41774,-1.29534,-2.32058,0.24029,0.16113,6.88339,-0.58969,1.72535,-0.98629,0.32226,-0.22663,0.31008,-0.39545,0.18106,-0.23649
1734,2.04188,-2.57744,0.71553,-2.09707,-4.40875,1.04003,7.38408,-4.43014,1.5888,-11.54594,-9.20179,-2.99765,0.49558,-0.40265,0.15859,-0.26805,-0.31741,-0.21119,-6.76836,-13.30251,2.08316,-83.41672,58.33513,-38.25014,0.36788,-0.42418,-26.15701,0.39926,-0.02162,-3.12076,-0.50775,3.99598,12.21788,3.75417,2.78629,-0.46803,-0.27595,0.71637,1.88897,0.30159,0.3265,-0.17403
1735,1.57173,-0.86154,0.01852,-1.19694,-7.37235,1.15039,12.17953,0.52363,0.49826,-8.41745,-14.65696,-5.10843,0.36044,-0.45236,0.00597,-0.24992,-0.41211,-0.29284,4.46114,-14.59379,-1.17542,-101.14506,17.91648,-44.95598,-5.80465,-0.96571,-19.01211,-0.86455,3.17018,-2.69153,-0.25335,6.34803,9.69813,9.43007,3.04952,0.31028,-0.45087,1.1898,2.2955,1.37964,0.38151,-0.1006
1736,-1.79504,3.06531,-1.00244,1.12512,-7.51858,0.33649,3.91256,6.63614,-1.21823,-1.60218,-12.41849,-4.59196,0.19855,-0.32467,-0.09499,-0.08127,-0.55463,-0.37644,1.91178,-8.43327,-3.24763,-85.41692,-33.64579,-46.23116,-9.12184,-1.77661,-15.06866,-0.46103,4.85195,-0.93634,-0.20411,6.42324,1.98506,10.28396,1.58641,0.76806,-0.26381,1.13585,1.19942,1.58914,0.09714,0.00594
1737,-3.05204,4.3415,-1.25321,1.2404,-6.0118,-0.07163,-2.83552,4.55083,-1.63095,3.73091,-9.25345,-1.71703,0.20791,-0.29368,-0.05373,0.01584,-0.82224,-0.54813,-2.62646,-9.62334,-1.16666,-48.77903,-66.01379,-29.17764,-7.99109,-2.40395,-13.35939,3.71382,3.97414,3.39384,-0.80702,3.238,-2.90614,2.85168,-1.64327,0.93129,-0.08607,0.80024,-0.17161,0.22417,-0.40341,0.15585
1738,-0.61199,1.16438,-0.43226,-3.40953,-3.972,0.90511,2.33552,-7.55108,0.51121,1.44762,-7.99034,1.97515,0.33884,-0.51287,0.04369,-0.24527,-1.01373,-0.67043,0.91082,-20.74848,6.83897,-5.0506,-78.80363,0.48132,-5.54764,-2.76532,-10.47141,9.86183,1.85104,7.89806,-0.96181,0.40435,-2.97411,-6.96584,-3.72362,0.85421,0.00285,0.51169,-0.9652,-1.44956,-0.51674,0.14975
1739,1.46866,-3.03114,0.61366,-12.23153,-0.92546,3.01846,10.084,-19.3504,3.48707,-10.51957,-5.71839,4.37939,0.35374,-0.67933,0.07021,-0.94738,-0.821,-0.52978,0.89487,-27.2538,16.02431,31.17425,-83.13838,18.23241,-7.28384,-2.83588,-6.95944,13.59563,0.10174,9.36397,0.1877,1.51644,-1.71272,-9.91585,-3.64121,0.78457,0.01851,0.32478,-1.05149,-1.6477,-0.24849,0.01854
1740,-0.54798,-4.54898,0.92196,-20.46524,2.84308,4.98171,3.97238,-19.90645,3.67114,-23.36123,-2.35533,3.88595,0.19796,-0.58084,-0.02676,-1.68665,-0.27094,-0.15137,-17.71235,-19.15928,16.12866,42.33784,-75.21854,9.02265,-14.87751,-2.25097,-5.46642,13.59253,-0.41861,7.62868,2.43723,5.08088,-0.20077,-4.68358,-2.81566,0.75412,0.06648,0.11675,-0.25574,-0.34301,-0.03382,-0.04354
1741,-5.35499,-3.98745,0.55484,-22.82153,5.76855,5.62889,-14.5439,-13.88785,0.81293,-26.91096,-0.8636,1.33583,0.01727,-0.41516,-0.19928,-1.81138,0.30281,0.25801,-45.75665,-8.23298,7.27318,29.56274,-49.85925,-14.06687,-24.14733,-1.00014,-6.68405,11.42053,-0.09453,4.93767,4.06944,7.12374,0.31171,2.07993,-2.28455,0.74191,0.24422,-0.24917,0.74893,0.99941,-0.05061,-0.00234
1742,-8.30133,-3.3412,0.2083,-19.30665,6.48675,5.06448,-25.04174,-12.06939,-1.08416,-21.59595,-2.09525,-0.49379,-0.02513,-0.38069,-0.2706,-1.14698,0.5496,0.4985,-54.75325,-8.01164,2.01874,20.0537,-21.35675,-25.43035,-27.56083,-0.91191,-9.2245,7.57945,-0.27877,2.64671,1.1275,4.40074,-3.05314,4.54155,-1.82844,0.76774,-0.04187,-0.90663,0.6016,1.24589,-0.14837,0.08832
1743,-6.36724,-2.79689,0.24673,-13.05377,5.1993,3.84904,-12.62651,-15.41136,1.19918,-10.20696,-3.79224,-0.04589,0.13108,-0.48289,-0.1348,-0.12201,0.39281,0.49082,-24.26455,-14.92896,8.02328,31.89446,-17.65797,-15.05585,-21.27818,-4.26615,-10.02922,2.2868,-1.4733,0.06635,-7.90839,-1.71067,-9.52112,3.44784,-0.79157,0.56521,-1.18277,-1.68817,-0.97152,0.69215,-0.09908,0.13107
1744,-0.68286,-1.83744,0.49887,-5.84251,3.15043,2.10897,15.9355,-18.16877,6.49431,8.63992,-3.97027,1.77392,0.38305,-0.63034,0.07642,0.71491,0.01982,0.30271,38.70725,-20.25524,19.11954,44.74074,-46.52154,9.30623,-10.04882,-8.8396,-3.56248,-2.33579,-1.67832,-2.1568,-14.51617,-3.85633,-12.70698,2.92898,-0.25901,0.23197,-1.70237,-1.68423,-2.04707,0.32997,-0.05276,0.09084
1745,4.55214,-0.54984,0.56543,0.63724,0.70951,0.23791,37.96719,-15.80144,10.14968,29.28045,-4.41371,2.78234,0.53103,-0.69458,0.15657,1.05732,-0.39991,0.06175,95.14514,-22.29954,22.5988,36.28181,-65.39599,27.30696,-3.4958,-9.67354,6.44643,-3.17008,0.68326,-1.69034,-11.53441,-1.18416,-9.12706,3.99413,-1.62966,0.24751,-0.89778,-0.7251,-1.21347,0.4251,-0.26055,0.02565
1746,5.05148,0.7867,0.16519,2.92135,-1.4509,-0.58913,33.78726,-7.03873,7.97259,36.32552,-6.46214,2.08439,0.46085,-0.60606,0.05803,0.80051,-0.63936,-0.08745,98.61745,-18.91598,12.84896,17.3665,-37.11652,23.00812,-7.43614,-5.03863,8.10941,0.72131,3.13986,1.5872,-5.57476,0.63282,-4.03117,4.20926,-3.84031,0.70774,-0.25913,-0.03755,-0.23569,0.46453,-0.57796,0.01632
1747,0.83054,2.14877,-0.51437,-0.13789,-1.76997,0.16668,8.96089,4.02714,1.2821,26.55281,-8.19703,0.91636,0.29419,-0.38108,-0.0391,0.11439,-0.4977,-0.06594,53.14533,-8.69119,-1.72083,-0.42639,-1.53604,18.2831,-16.07578,0.9085,4.66891,6.39744,2.30935,5.01066,-3.83868,1.03971,-2.62932,2.15737,-4.65645,1.26881,-0.54283,-0.17905,-0.50647,0.16945,-0.67907,0.10432
1748,-3.21178,2.86397,-0.8689,-4.27624,-0.0989,1.30885,-8.99254,9.28495,-3.50226,16.73881,-7.77391,0.97398,0.24369,-0.14666,0.03666,-0.43357,-0.1362,0.03751,17.89154,0.81539,-7.39096,-18.981,-23.01103,46.67133,-18.53208,2.70156,9.92653,9.39436,-1.439,6.2436,-4.30366,3.23328,-5.28503,-0.75627,-3.52596,1.63938,-0.94748,-0.51376,-1.0122,-0.1693,-0.51857,0.24831
1749,-2.83399,1.94531,-0.55839,-4.32617,1.93334,1.2653,-4.6693,6.24233,-2.87565,20.24943,-5.81136,2.08118,0.35121,-0.1065,0.21684,-0.34524,0.07964,0.0642,28.72803,2.16809,-2.34786,-19.72599,-84.1662,85.03363,-12.28175,0.43026,20.79953,7.52151,-5.04739,5.02504,-3.72044,5.83195,-9.24684,-2.2133,-2.11926,1.80617,-0.85747,-0.68079,-0.91756,-0.26638,-0.36242,0.36727
1750,0.59508,-0.67274,0.18347,0.3438,3.23997,-0.20611,8.26701,-1.36268,0.37525,32.04771,-2.8301,2.95216,0.46136,-0.34335,0.29139,0.24399,0.01314,-0.02096,57.20053,-3.00566,3.85759,21.09373,-113.17999,78.20998,-3.92374,-2.42694,20.75256,3.34887,-6.54199,2.53907,-3.81794,5.44862,-11.96254,-1.37164,-1.62278,1.51721,-0.376,-0.77322,-1.08199,-0.13712,-0.27129,0.32165
1751,1.79589,-4.28006,0.95487,5.41965,4.23276,-1.86472,9.47999,-12.5718,3.00243,40.4129,1.69246,3.57611,0.42262,-0.74541,0.14318,0.72708,-0.17024,-0.11237,63.22155,-11.20277,7.25728,66.75403,-94.4441,35.7342,2.31177,-4.88435,12.9772,1.92284,-6.7809,0.64246,-3.84456,2.69794,-10.3342,0.12844,-1.42341,0.67546,-0.0946,-0.86441,-1.29432,0.02391,-0.11628,0.0828
1752,-1.12107,-6.59787,1.32061,6.45479,5.07726,-2.32511,-2.34556,-23.70778,4.30707,41.06894,3.4885,3.38938,0.28725,-1.01567,-0.07166,0.74617,-0.23641,-0.11576,46.05935,-21.26208,8.6294,63.84482,-75.46992,13.25633,8.0479,-7.52044,13.9214,3.88621,-7.1502,0.73024,-2.05854,0.60358,-4.59141,-0.02515,-1.2621,0.22777,-0.54633,-0.77258,-0.47441,-0.00822,-0.04333,-0.07519
1753,-4.52568,-5.40929,1.00933,3.59573,4.89609,-1.45775,-14.44444,-26.61339,3.94924,35.53598,-3.29093,0.45325,0.18265,-0.8715,-0.12477,0.52786,-0.09581,-0.05208,24.97439,-32.19074,4.41905,24.66101,-82.43705,21.308,13.0179,-10.13277,23.24943,5.02733,-7.52171,1.96723,-0.81224,-0.16054,1.07275,-1.77518,-1.28273,0.77313,-1.4334,-0.42277,1.15316,-0.25256,-0.17438,0.06407
1754,-5.24375,-2.90742,0.4955,-0.17997,3.51433,-0.12443,-18.54326,-24.11988,2.59718,25.12451,-13.84288,-4.18071,0.16402,-0.52787,-0.05941,0.38901,0.10085,0.01805,7.17204,-43.32688,-4.02584,1.37673,-97.89491,27.03352,14.3913,-11.00016,26.42451,3.63104,-7.65891,2.18472,-1.75683,-0.13366,2.9544,-3.10288,-0.53783,1.32578,-1.6545,0.18248,2.13238,-0.52038,-0.24844,0.3333
1755,-3.44655,-2.457,0.42459,-2.63597,1.89654,0.82993,-13.11648,-25.53947,2.45846,13.71076,-17.72064,-6.39581,0.24495,-0.39741,-0.01637,0.37403,0.08441,0.05958,-3.22998,-51.38563,-6.50061,6.66433,-107.29173,19.51772,12.60313,-8.48927,18.89001,2.4563,-7.75144,0.90737,-2.14609,0.82412,-0.44941,-2.71702,1.22002,0.95245,-0.6102,0.60545,1.30448,-0.56489,-0.0859,0.43577
1756,-1.02517,-3.50693,0.6653,-2.32886,1.53876,0.78534,-1.22027,-29.84027,3.84914,10.07359,-11.73556,-3.89318,0.32044,-0.41198,-0.00757,0.4693,-0.0918,0.058,3.54333,-48.7139,1.61594,15.68079,-107.71962,13.23322,10.94701,-3.79849,7.52333,3.12788,-7.78665,-0.41431,0.62048,2.06326,-5.79982,-0.89189,2.06352,0.14526,1.33192,0.63882,-0.6926,-0.25891,0.03694,0.31469
1757,0.495,-3.41773,0.65227,0.31907,3.04599,-0.21162,9.44716,-28.04811,4.49649,17.63743,-1.72981,1.16135,0.29983,-0.30552,0.02588,0.58041,-0.0824,0.02379,26.09677,-32.17591,11.87446,12.63578,-104.66291,19.77108,10.81579,-3.04019,-0.93968,4.19785,-7.5139,-0.39141,2.11323,1.57414,-10.21572,0.88603,0.56469,-0.06126,2.32916,-0.18228,-2.22273,0.16886,-0.13922,0.14342
1758,1.22185,-1.43621,0.25228,2.46278,4.9096,-1.18404,13.99447,-18.1564,3.71113,28.69128,2.87527,4.10826,0.3,-0.1982,0.09417,0.48948,0.11463,-0.01812,49.13567,-14.15185,14.64093,-2.71384,-101.89827,41.78025,12.16186,-9.33492,-0.10205,4.50029,-6.45248,0.87214,-1.88889,-1.07866,-9.57962,1.00174,-1.62218,0.43179,0.69814,-1.36026,-1.61634,0.30332,-0.35955,0.04557
1759,1.50819,0.47382,-0.15491,2.17996,5.15124,-1.28218,12.12563,-8.14628,2.75011,33.55476,-2.41585,2.46596,0.42406,-0.39192,0.10948,0.22742,0.15517,-0.05053,56.52982,-10.76264,9.31308,-6.65414,-96.29378,55.47853,14.44013,-17.95315,5.85481,3.99912,-4.44879,1.73558,-7.1537,-2.72794,0.22831,-0.00931,-2.12431,0.68083,-1.31446,-0.75787,0.7792,0.11784,-0.28132,-0.03076
1760,0.23412,0.93433,-0.38839,0.07406,3.69649,-0.54624,1.31911,-2.98866,0.73758,27.58411,-11.29482,-1.46828,0.52988,-0.74705,0.03378,0.0989,-0.0659,-0.0742,35.83139,-16.99357,-0.07451,22.84988,-101.27898,37.66669,14.34338,-22.82429,6.07307,2.88009,-3.18565,0.80426,-10.05919,-2.43675,8.00135,0.05589,-1.10583,0.06137,-1.77891,0.36548,2.00738,-0.0334,-0.04222,-0.11497
1761,-3.37059,1.02097,-0.67776,-2.29755,2.37886,0.40386,-18.55456,-1.55748,-3.7422,14.90259,-13.94657,-3.38527,0.40986,-0.77445,-0.03699,0.21037,-0.29751,-0.07421,-6.96399,-17.95479,-9.0032,69.94238,-114.52333,-0.3462,9.93467,-19.29535,-2.26189,2.41086,-4.64618,-0.88535,-8.55598,-1.60443,3.95979,1.55154,-0.35113,-0.78092,-0.73061,0.27488,0.7411,-0.0332,0.00666,-0.10836
1762,-6.70469,1.18464,-0.88463,-3.41291,2.52644,0.87954,-33.81364,-5.16668,-7.34343,6.94616,-9.36733,-2.08101,0.16188,-0.44682,-0.02915,0.37144,-0.30702,-0.01261,-37.15182,-17.17476,-11.18135,90.01505,-121.01797,-22.11627,5.32449,-10.71857,-10.54993,3.59186,-6.98683,-1.28943,-3.593,-1.59743,-6.42368,2.73935,-0.66398,-0.93054,1.02573,-0.68272,-1.11145,-0.02334,-0.1255,-0.00548
1763,-6.71598,0.21411,-0.59232,-3.02867,3.27985,0.7267,-30.00396,-13.7318,-5.77502,8.26595,-3.74193,-0.00574,0.04588,-0.24614,-0.01468,0.37919,-0.17627,0.07345,-30.20504,-23.32595,-4.14426,57.86349,-124.24767,-4.79314,5.70082,-6.95946,-7.76742,5.08345,-6.69299,-0.40589,-1.89084,-2.95948,-12.17247,2.78173,-1.44599,-0.5024,1.17759,-1.66296,-1.53955,0.02316,-0.18388,0.02058
1764,-4.67746,-1.74065,-0.04003,-2.82962,3.64541,0.47536,-15.31558,-19.32097,-1.49988,10.92436,-0.10779,0.84387,0.0843,-0.38097,-0.08998,0.21375,-0.09404,0.08853,-7.75988,-26.6465,4.2303,1.9494,-124.44059,32.61631,9.94349,-8.47107,4.53341,5.76646,-4.4536,0.54705,-4.43961,-3.02651,-8.3571,2.18453,-1.816,-0.13683,-0.79684,-1.58989,-0.68636,0.17845,-0.12396,-0.08542
1765,-3.86667,-3.09495,0.25795,-3.66599,4.16241,0.48634,-10.08672,-17.24676,-0.0911,9.00792,2.07195,0.91284,0.16792,-0.64132,-0.18162,0.06906,-0.02941,0.02828,-3.32544,-18.54987,5.096,-30.43538,-119.22032,56.28498,12.75288,-11.0944,14.15661,6.66633,-3.41508,1.60481,-8.59226,-0.88424,-1.20375,1.24286,-1.75673,0.28758,-2.95902,-0.73374,-0.22654,0.29782,-0.12085,-0.1145
1766,-4.50246,-3.27673,0.34984,-3.52316,4.90773,0.3987,-16.882,-14.83225,-1.52251,7.07936,1.25518,0.95129,0.25056,-0.7688,-0.12594,0.2013,0.09435,-0.0194,-14.33981,-13.54292,0.97768,-22.08122,-108.26205,49.77311,12.34887,-12.79473,13.21377,7.88338,-3.85649,3.19791,-9.31146,1.57579,4.82002,-0.11383,-1.8133,1.2295,-2.70451,0.56815,0.00778,0.16151,-0.2419,0.10502
1767,-4.49016,-2.89277,0.46683,-1.39728,4.812,0.01882,-21.08034,-18.65999,-1.93069,9.42896,-3.4472,0.70796,0.33155,-0.70259,0.06215,0.53135,0.17207,-0.00788,-16.9343,-24.52368,-0.53042,0.33244,-101.23275,27.13742,9.22591,-13.45146,6.67264,7.35018,-4.11247,4.10783,-7.17828,1.62703,7.66683,-1.29304,-1.75039,2.0265,-0.92354,1.47872,0.6793,-0.1713,-0.29016,0.37854
1768,-3.04343,-2.50004,0.52354,-0.17724,4.03589,-0.11617,-14.67222,-23.33181,-0.4276,11.6414,-6.33516,0.79431,0.42269,-0.5949,0.1869,0.60523,0.1141,0.03269,-5.96901,-36.26857,2.51767,13.83494,-103.45898,5.81508,6.25341,-12.053,-0.79547,4.55858,-4.03762,3.09203,-3.6307,-0.37628,4.17516,-1.05425,-1.48753,1.72083,1.04895,0.94449,0.81406,-0.29893,-0.2376,0.39271
1769,-1.70394,-1.96754,0.28291,-1.78527,3.86808,0.25462,-5.31292,-21.05092,0.54671,9.56265,-2.24925,2.18975,0.448,-0.53321,0.11939,0.29783,0.01043,0.06764,3.64495,-28.93951,6.46256,15.87155,-104.95926,-1.72436,5.25434,-11.4672,-2.6151,1.95958,-4.36113,1.05992,-3.72048,-1.03268,1.56066,0.61968,-1.47632,0.62199,1.05198,0.45438,0.50664,-0.03021,-0.24799,0.1585
1770,-2.34088,-0.73357,-0.31351,-3.97786,3.99899,0.68236,-3.62146,-13.44751,-0.29315,6.74602,2.16026,2.62194,0.31072,-0.45345,-0.06377,0.03698,-0.05713,0.08477,2.14344,-11.81439,5.87225,22.78941,-98.77394,-3.13151,5.42206,-12.40228,-1.95835,1.59482,-5.23175,-0.13682,-6.14793,0.9088,3.46142,2.06371,-1.53145,-0.21422,0.09748,1.16487,0.05703,0.31989,-0.28483,-0.05723
1771,-3.99223,0.84727,-0.83831,-4.54084,2.93623,0.87272,-8.39966,-7.84397,-1.08785,6.81749,-3.18008,-1.19053,0.15189,-0.38958,-0.1611,0.09521,-0.14943,0.06218,-4.7523,-9.07555,-1.04378,39.25048,-88.51205,-9.65369,5.45126,-12.66614,-2.90523,2.57827,-5.98944,-0.21908,-5.92469,3.64412,8.52887,2.22961,-1.10515,-0.47343,0.40016,2.69093,-0.05484,0.40889,-0.17834,-0.12865
1772,-3.74112,1.37902,-0.70503,-3.8206,1.27608,0.84179,-10.37258,-7.15967,-0.21241,9.00829,-13.87991,-6.44673,0.23581,-0.44706,-0.04764,0.28129,-0.265,-0.01182,-6.28075,-21.53484,-7.9985,45.60609,-88.30212,-13.82755,5.29921,-10.30945,-3.12454,2.83526,-4.89684,-0.33613,-2.77101,3.23455,8.25637,1.82306,-0.33415,-0.64653,1.3972,2.45907,-0.24789,0.2875,0.11828,-0.18426
1773,-1.69191,0.57664,-0.10424,-2.60559,1.28757,0.48387,-7.52394,-8.11097,0.86361,13.6951,-16.79646,-6.55763,0.47355,-0.51609,0.1569,0.36364,-0.26446,-0.09205,1.66601,-28.17301,-7.54991,36.53719,-111.89498,-12.22867,4.65032,-7.87472,-5.80448,1.80766,-1.22651,-0.59489,-0.80959,-2.62285,-6.77306,1.48003,-0.27988,-0.67417,2.23001,-1.76447,-1.48369,0.14452,0.32917,-0.25539
1774,-0.73314,-0.10904,0.1556,-1.20247,3.02516,-0.10994,-5.3616,-7.36242,0.3931,21.04807,-11.05487,-1.55877,0.50211,-0.39385,0.22307,0.32317,-0.1176,-0.10213,14.4794,-20.90041,-1.90255,20.27184,-126.13234,-8.63333,4.33689,-8.20411,-6.09113,0.58377,1.94059,-0.28869,-1.72935,-7.25376,-16.74435,1.1216,-1.38832,-0.18795,1.63482,-4.77667,-1.95885,0.06679,0.12757,-0.21012
1775,-1.62602,-0.24661,-0.06984,-0.11987,4.45006,-0.54031,-6.18541,-8.25485,-0.6773,25.85367,-6.71171,1.65745,0.27631,-0.19921,0.094,0.2555,0.0486,-0.0184,22.35887,-15.29944,0.97117,6.2799,-95.72755,-0.51412,4.68265,-6.82231,5.31483,0.56911,0.30303,0.24221,-2.794,-3.73831,-2.13435,0.88315,-2.26102,0.28429,-0.65949,-1.4757,0.87912,0.06006,-0.31359,-0.05261
1776,-2.6912,-1.08966,-0.18144,0.23195,4.52455,-0.6348,-8.29526,-15.5624,-0.88182,23.11599,-6.95571,-0.16814,0.13484,-0.26243,-0.07679,0.26137,0.12152,0.0835,18.02814,-23.25349,-0.81626,11.0319,-72.73589,10.98436,1.6987,-4.73743,15.54011,2.13946,-5.30069,0.35106,-8.85088,0.97778,9.80275,0.84123,-1.59311,0.1278,-3.55662,2.43941,3.4839,0.04754,-0.50415,0.07836
