PaulMeinheit/Bachelor_Muay_Thai/processed_Data/E3/teep/sliced/JointMoments/sliced2.csv
Unnamed: 0_level_0,R_KNEE_MOMENT,R_KNEE_MOMENT,R_KNEE_MOMENT,L_KNEE_MOMENT,L_KNEE_MOMENT,L_KNEE_MOMENT,R_HIP_MOMENT,R_HIP_MOMENT,R_HIP_MOMENT,L_HIP_MOMENT,L_HIP_MOMENT,L_HIP_MOMENT,R_ANKLE_MOMENT,R_ANKLE_MOMENT,R_ANKLE_MOMENT,L_ANKLE_MOMENT,L_ANKLE_MOMENT,L_ANKLE_MOMENT,WAIST_JOINT_MOMENT,WAIST_JOINT_MOMENT,WAIST_JOINT_MOMENT,NECK_MOMENT,NECK_MOMENT,NECK_MOMENT,L_SHOULDER_MOMENT,L_SHOULDER_MOMENT,L_SHOULDER_MOMENT,R_SHOULDER_MOMENT,R_SHOULDER_MOMENT,R_SHOULDER_MOMENT,L_ELBOW_MOMENT,L_ELBOW_MOMENT,L_ELBOW_MOMENT,R_ELBOW_MOMENT,R_ELBOW_MOMENT,R_ELBOW_MOMENT,L_WRIST_MOMENT,L_WRIST_MOMENT,L_WRIST_MOMENT,R_WRIST_MOMENT,R_WRIST_MOMENT,R_WRIST_MOMENT
ITEM,X,Y,Z,X,Y,Z,X,Y,Z,X,Y,Z,X,Y,Z,X,Y,Z,X,Y,Z,X,Y,Z,X,Y,Z,X,Y,Z,X,Y,Z,X,Y,Z,X,Y,Z,X,Y,Z
817,-2.32168,1.30211,-0.01591,2.89323,1.54065,-0.27849,-2.89201,4.78194,0.69604,27.37415,11.51774,1.08181,0.59875,-0.20927,0.05465,0.72651,-0.05291,-0.08825,35.48832,19.99982,3.94027,-27.59647,-16.82388,1.4393,3.11044,0.3402,-0.06225,6.3342,-1.13067,0.13163,1.06599,-0.67662,-0.18327,1.34962,0.91408,0.05044,-0.00186,-0.05376,-0.03759,-0.13487,-0.1071,-0.06013
818,-1.8895,1.14116,-0.11779,4.42624,0.40734,-0.61743,-7.14845,3.95688,-0.19006,24.12054,6.12262,-0.27097,0.70043,-0.28501,0.05603,1.0709,-0.11505,-0.20772,22.94596,10.47062,-0.29771,-9.17934,-10.53681,9.07049,0.75458,0.97956,0.92015,6.98788,-1.38654,0.15766,2.25544,-0.90378,-0.30295,-0.02697,0.99116,-0.36198,0.18152,0.01182,-0.08801,-0.3007,-0.00956,-0.09271
819,-1.59794,0.32384,-0.09773,3.99634,0.06487,-0.58095,-8.90896,0.41668,-0.78046,15.11114,5.33989,0.23915,0.67483,-0.35325,0.02462,1.20331,-0.13204,-0.19701,6.83326,4.41574,0.15638,8.90462,-3.81787,11.04725,3.12093,0.92108,1.05579,6.06416,-1.49861,-0.4424,2.72895,-1.352,0.02622,-0.00821,1.47044,-0.4145,0.38547,-0.10933,-0.02044,-0.08564,0.19192,-0.05088
820,-1.72515,-0.11106,-0.05688,2.86438,0.22439,-0.32568,-5.22695,-2.36249,-0.81792,9.60027,8.38845,2.26216,0.38841,-0.25004,-0.00605,1.01545,-0.09686,-0.10956,3.5882,6.96564,5.11263,8.40432,-5.24752,8.00848,5.44777,1.20903,0.83431,4.4814,-1.13735,-0.29944,2.62574,-1.4328,0.2036,0.81334,1.25375,0.00715,0.44275,-0.23251,0.05016,0.26191,0.25805,0.04951
821,-2.55704,0.26233,-0.11393,2.46424,0.86239,-0.02657,-1.63095,-0.3179,-1.14381,14.68117,10.63891,3.50276,-0.01375,-0.04127,-0.0273,0.65095,0.01539,0.02404,15.38646,15.88534,6.78998,-3.21818,-12.28225,2.79626,5.1796,1.97977,0.89963,3.65175,-0.63996,0.29467,2.19107,-1.26653,0.1248,1.79098,0.78376,0.52843,0.31531,-0.25875,0.06256,0.45137,0.18417,0.12757
822,-2.99431,0.872,-0.27934,3.43824,2.23574,0.11057,-3.00626,5.54262,-2.13307,27.33178,9.95683,2.14862,-0.01692,-0.02858,-0.04471,0.42854,0.14106,0.15525,31.04565,21.44685,0.11346,-11.77523,-17.84686,-2.23686,5.99266,2.00212,0.8442,4.59142,-0.08653,0.9643,1.21932,-1.33145,0.28947,2.44244,0.63348,0.76886,0.09882,-0.23702,0.0717,0.44179,0.07667,0.13665
823,-1.95345,1.12219,-0.38425,4.52887,3.3691,-5e-05,-6.44404,9.16771,-2.44291,36.69237,7.34206,-1.0977,0.52485,-0.27077,-0.0325,0.43877,0.16653,0.18711,40.4208,16.82565,-9.26063,-13.96586,-19.69378,-5.17521,9.76635,0.83065,-0.18604,6.7153,0.74349,1.96762,0.14904,-1.29639,0.48619,2.30504,0.51798,0.67911,-0.03037,-0.13416,0.02963,0.37709,0.01293,0.11201
824,-0.47462,0.55784,-0.1671,4.0076,2.56026,-0.27119,-7.97715,5.54856,-0.648,33.20199,3.42038,-3.96357,1.05591,-0.50678,-0.00583,0.57541,0.05946,0.06514,35.40314,3.68611,-11.49079,-11.28938,-15.51451,-4.43738,11.21524,-0.33092,-1.51699,8.21017,1.0468,2.28513,0.3385,-0.808,0.02852,1.63299,0.65708,0.34958,0.049,0.01727,-0.11617,0.33629,0.06416,0.08044
825,-0.48142,-0.48736,0.27179,2.71637,0.67944,-0.56766,-8.37659,-1.35749,2.05905,20.44575,1.04902,-4.8978,1.09718,-0.55121,-0.02393,0.84212,-0.04758,-0.10909,16.60167,-5.54677,-5.60722,-4.5404,-5.59581,-1.74147,7.37115,-0.28785,-1.64354,8.22453,-0.10037,0.75673,1.97749,-0.4113,-0.81792,1.43896,1.61207,-0.02555,0.26913,0.04019,-0.24398,0.25612,0.19266,0.02859
826,-1.6191,-0.66953,0.40444,2.42779,0.65004,-0.67729,-5.52338,-2.43675,2.72673,13.32947,5.31197,-3.66129,0.79327,-0.42761,-0.05954,1.14256,0.01413,-0.16154,7.61546,3.71683,1.29885,1.15699,0.32956,-0.51174,3.43282,0.68968,-0.43041,7.3712,-1.65125,-1.07773,3.4096,-0.74695,-1.01012,1.89215,2.46626,-0.13231,0.44682,-0.12102,-0.20585,0.09014,0.19649,-0.02473
827,-1.71697,0.4291,0.01024,2.89042,2.64624,-0.45616,4.29235,2.8831,0.53058,20.14186,13.42629,-1.34028,0.48132,-0.2344,-0.02524,1.10443,0.18392,-0.07707,29.69103,24.1771,3.8877,-0.01204,-5.65262,0.59259,3.47898,1.46926,0.95253,6.59099,-1.78391,-0.71109,3.34282,-1.50831,-0.27654,1.78238,1.7385,0.04107,0.45606,-0.3156,-0.01532,-0.0361,0.00469,-0.02632
828,-0.51678,1.58641,-0.46415,2.66101,4.42582,-0.00513,13.90077,6.29134,-1.93026,31.10653,17.75028,0.83526,0.28103,-0.06361,0.07347,0.62594,0.26366,0.02713,61.26087,33.26387,3.0473,-6.1012,-17.80468,4.48415,4.74946,1.1832,1.36891,6.20252,-0.45007,1.26682,2.28462,-1.777,0.49003,0.54257,0.17767,0.02948,0.32594,-0.38807,0.16221,0.02494,-0.08073,-0.00226
829,-0.04521,1.80771,-0.53606,1.71443,4.6621,0.30562,11.27501,4.41726,-2.15726,32.77158,16.35366,1.8797,0.22005,0.00724,0.13531,0.214,0.19456,0.05694,63.80056,25.03254,1.04662,-9.12335,-23.41909,8.394,4.17614,0.36654,1.08261,5.77872,0.71271,1.94298,1.70525,-1.57426,0.59016,-0.28043,0.00702,-0.24498,0.19038,-0.33297,0.18932,0.21107,0.15821,-0.0143
830,-1.04979,0.94366,-0.1986,1.36579,3.44781,0.19309,-1.57314,1.02416,-0.58346,26.00536,11.36096,0.83527,0.33951,-0.08693,0.08152,0.31501,0.09238,0.00903,37.77024,11.55964,-2.14394,-5.87968,-15.97043,7.71222,2.83996,0.47628,1.24767,5.16728,0.43732,0.37886,2.37427,-1.59715,0.26991,0.77253,1.57021,-0.23928,0.15989,-0.19284,0.09253,0.31228,0.44191,-0.03005
831,-2.32408,-0.59949,0.24871,2.29672,1.82967,-0.1609,-11.43612,-1.54886,0.99031,21.66975,5.29056,-1.75428,0.53817,-0.28534,-0.05696,0.73392,0.08649,-0.01929,16.03509,3.05348,-5.85551,-1.51549,-3.42567,2.8581,2.98665,1.60492,1.65872,5.47695,-0.71411,-1.42958,3.20087,-1.56724,0.0097,2.43813,3.14267,0.0154,0.20408,0.02415,-0.01355,0.22267,0.49801,-0.04194
832,-2.65173,-1.64386,0.44555,3.15111,1.17135,-0.26628,-10.68066,-3.01868,1.43589,23.60655,1.87238,-3.25536,0.62152,-0.40135,-0.16461,0.96891,0.15894,0.04621,16.3398,1.90265,-7.04753,1.61581,1.28753,-3.55506,5.23543,2.32259,0.98733,6.7004,-1.41792,-1.5935,2.37223,-0.82283,-0.08182,2.8538,3.25269,0.10742,0.15961,0.22175,-0.07364,0.12045,0.40957,-0.06754
833,-1.2289,-0.81754,0.0973,2.1954,2.03935,0.10493,-0.36851,-0.88625,0.19933,24.90151,4.40338,-1.55667,0.56946,-0.34197,-0.12206,0.81222,0.20017,0.16891,29.32214,8.82943,-3.48184,6.27363,-4.21391,-9.3961,9.20624,2.09091,-0.44946,7.07964,-1.29411,-0.15887,0.04828,-0.17862,0.08089,2.07165,1.84269,0.20442,-0.00321,0.17469,-0.07175,0.17514,0.27341,-0.02663
834,0.99462,1.68639,-0.61685,0.47656,3.36201,0.5183,10.61194,5.17214,-1.85505,19.79413,11.24044,1.98706,0.51909,-0.20481,0.08028,0.5081,0.16808,0.24415,35.62899,20.1733,3.09486,7.65074,-13.80806,-10.04345,13.07148,1.42868,-1.35118,6.6091,-0.64769,2.01873,-1.73755,-0.42586,0.44465,0.75992,-0.20957,0.47542,-0.08692,-0.12328,-0.0045,0.23081,0.02063,0.12042
835,0.93939,3.07836,-0.84928,0.5518,2.85536,0.29477,9.13946,7.01115,-1.93767,11.0795,14.55647,3.38068,0.53683,-0.17319,0.24246,0.43568,0.04995,0.13296,22.55822,20.4084,7.43443,-1.75417,-18.67485,-3.08268,12.88215,0.32998,-1.78689,6.23446,-0.10038,3.24238,-2.06336,-0.39248,0.53717,-0.44318,-1.35718,0.51939,-0.09857,-0.27591,0.06995,0.14624,-0.2363,0.23124
836,-2.14195,1.11076,-0.1403,2.14973,0.06863,-0.44743,-4.2858,-0.66702,0.44029,5.84923,9.27548,1.03387,0.56656,-0.3042,0.15871,0.64363,-0.11621,-0.15342,1.41346,2.5787,5.694,-12.995,-12.46098,5.49189,7.40792,-0.81229,-1.65418,5.34227,-0.66336,1.50868,-0.92128,0.19442,0.18258,-0.33937,-0.29607,0.12038,-0.11794,-0.06445,0.06264,0.11231,-0.18361,0.16498
837,-5.11101,-2.33926,0.73281,2.49596,-1.57329,-0.7497,-14.12119,-10.18753,1.80125,7.45005,2.63687,-1.45885,0.55177,-0.44147,-0.08107,0.85706,-0.12369,-0.32693,-4.66007,-13.40456,0.56176,-10.18527,-1.8957,8.74795,1.28636,-0.54552,0.21846,4.04143,-2.20579,-1.82374,1.33104,-0.55916,-0.05957,0.72814,1.76406,-0.4038,-0.02272,0.13555,-0.02539,0.1763,0.11056,-0.01958
838,-5.37035,-3.42259,0.76747,1.0673,0.82593,-0.21582,-13.10419,-11.94908,0.34314,12.74305,4.2107,-0.68793,0.51683,-0.42241,-0.20655,0.95251,0.14458,-0.17751,5.35409,-8.6506,-2.16908,8.31013,-0.56752,7.33274,-0.90996,1.28269,3.22171,3.90894,-2.72682,-2.61319,3.02978,-2.83454,0.23402,0.6965,2.13459,-0.70357,0.20263,-0.0613,-0.08919,0.0581,0.22888,-0.16619
839,-4.06627,-1.28114,0.11424,0.0659,4.04267,0.3376,-10.51347,-5.73634,-1.12367,16.22733,9.49054,1.05356,0.47813,-0.28056,-0.12298,1.00545,0.37145,0.05858,11.17152,7.5033,-1.50495,28.30921,-6.44339,4.24316,1.06066,2.75677,4.40684,4.93688,-1.24036,-0.10415,3.10407,-4.05012,0.57663,-0.48041,0.69096,-0.6204,0.40836,-0.42677,-0.06966,-0.21941,0.07766,-0.18359
840,-2.8488,1.63587,-0.38784,0.27924,3.00888,0.16493,-11.09586,3.62552,-0.25051,14.35284,8.25321,0.37818,0.43418,-0.12485,0.05939,0.93378,0.19137,0.03639,5.43646,17.65178,0.14851,29.33638,-6.07478,-0.18492,5.24367,2.60792,2.66787,5.38101,0.7692,2.35627,1.90559,-2.91918,0.60992,-1.08896,-0.40868,-0.30928,0.37011,-0.54514,0.04679,-0.33522,-0.06682,-0.10348
841,-1.72658,2.88718,-0.45099,0.26279,-0.39068,-0.22318,-7.24255,10.11177,1.02812,7.71988,3.18881,-0.83221,0.38316,-0.01636,0.18776,0.55342,-0.16152,-0.11937,1.15275,17.98755,2.48782,11.25924,1.29811,-4.43333,8.29273,1.42705,-0.18426,4.15911,1.47427,2.30173,0.39862,-0.64645,0.39139,-0.62059,-0.14374,-0.09092,0.09795,-0.36366,0.17991,-0.21149,-0.03238,-0.03083
842,-1.22059,1.9152,-0.34306,-0.53877,-0.41925,-0.05625,2.67063,7.80618,0.2093,1.32277,4.57906,0.87729,0.30729,-0.01545,0.15784,0.07975,-0.19867,-0.06184,6.53407,12.54513,5.97333,-2.22274,4.2656,-4.5866,7.16693,0.24531,-1.85716,2.16171,0.44401,0.21922,-0.26875,0.80248,-0.02534,0.14489,0.87902,-0.12206,-0.10932,-0.1403,0.17205,-0.04777,0.11649,-0.03107
843,-2.11654,0.16176,-0.27386,-0.65105,2.41886,0.37286,7.05684,-0.00934,-1.74913,0.51764,10.45963,3.6273,0.31168,-0.16582,0.01975,0.10025,0.04789,0.15271,12.43952,5.90364,7.3433,-3.68527,0.68843,-0.06198,3.15224,-0.21044,-1.31954,1.83159,-1.23714,-1.32616,0.0946,0.46538,-0.32147,0.40054,1.37421,-0.25447,-0.17786,-0.01607,0.03232,0.01797,0.16293,-0.05189
844,-3.75087,-1.02542,-0.06165,0.49921,3.13868,0.43492,-2.19748,-5.54434,-1.85683,5.59281,9.91396,3.30833,0.50344,-0.40531,-0.07542,0.67512,0.19303,0.2302,7.62093,-1.27867,3.83734,-4.52174,-0.34187,3.66253,1.4666,0.0397,0.16996,4.4743,-2.09347,-0.56025,0.5739,-0.63163,-0.14308,-0.15893,0.77267,-0.37014,-0.21059,0.11795,-0.06756,0.01894,0.01655,-0.02317
845,-4.29008,-1.40479,0.39449,1.46168,1.65581,0.25676,-13.73199,-6.91749,0.73876,12.50194,4.07258,1.0063,0.76338,-0.55908,-0.03995,1.13979,0.15678,0.16007,0.60058,-6.26322,0.81168,-2.35323,1.55739,3.01158,4.50848,0.05466,0.32748,8.25445,-1.7695,1.32756,0.44369,-0.83669,0.31902,-1.18882,-0.01582,-0.59212,-0.13471,0.24977,-0.03313,-0.0067,-0.12997,0.01022
846,-3.21123,-0.98342,0.71521,0.17428,1.88721,0.40205,-11.13859,-6.65031,3.72673,14.57308,4.07148,1.09727,0.86821,-0.50039,0.08447,0.90809,0.15712,0.15492,5.39488,-3.88172,5.67028,8.35404,-3.89049,2.0382,8.51986,-0.33394,-0.90319,10.2015,-0.82284,2.27601,-0.27451,-0.1336,0.582,-1.72742,0.03327,-0.84937,-0.02425,0.20919,0.06718,-0.06718,-0.09325,-0.0256
847,-2.91968,-0.56221,0.67545,-2.89034,3.40177,0.77567,-1.45657,-7.04655,4.28566,10.03365,8.68438,2.90817,0.66284,-0.33178,0.12057,0.22326,0.20271,0.21828,13.24552,-0.48528,11.90898,22.73123,-16.52291,4.72433,8.75301,0.15417,-1.06402,8.56352,0.11526,1.6002,0.10374,-0.11832,0.33733,-0.75384,0.91812,-0.6716,0.04013,0.04776,0.07077,-0.10882,0.07032,-0.08332
848,-4.8434,-1.25686,0.57723,-4.22975,2.64511,0.68327,-2.68656,-8.4163,1.99535,4.90769,7.37198,2.0124,0.24661,-0.23478,-0.02214,-0.0505,0.1102,0.14297,7.8865,-5.08336,7.11256,34.83237,-19.74552,6.50383,5.03331,1.40587,0.61464,3.40415,0.23357,-0.44431,2.36848,-1.25146,-0.18497,1.42952,1.8945,0.07746,0.12157,-0.07257,-0.02069,-0.07495,0.19977,-0.08088
849,-6.03594,-2.43873,0.64694,-2.0394,0.30225,0.0286,-9.98788,-10.35111,-0.44238,3.03768,1.87277,-1.11684,-0.00527,-0.21435,-0.15499,0.41371,-0.07843,-0.08328,-3.20332,-11.66756,-3.34865,34.27399,-2.76481,1.20451,1.9679,1.4318,1.44387,-2.35939,-0.84092,-2.71077,3.95465,-1.78625,-0.48101,2.88483,2.10898,0.73696,0.14397,-0.11797,-0.03461,-0.01696,0.21087,-0.03753
850,-4.46796,-2.42304,0.63454,1.44716,-0.62107,-0.56725,-7.60869,-11.69931,-0.40129,3.33835,1.13725,-2.10493,0.10524,-0.23845,-0.12586,0.96649,-0.17925,-0.28019,-2.60917,-11.10633,-4.31834,17.26659,21.55397,-7.15341,3.15713,-0.11818,-0.3324,-4.10642,-2.01091,-3.3114,2.87602,-0.64298,-0.48727,2.33515,1.48113,0.69334,0.07892,-0.10212,0.03556,0.00859,0.161,-0.01056
851,-2.52407,-0.62916,0.14349,3.78373,-0.16908,-0.72211,2.75954,-8.78982,1.1361,7.66245,4.34553,-0.39578,0.37775,-0.31971,-0.03019,1.04498,-0.15033,-0.34638,12.35261,-3.9976,3.59708,1.38373,30.90473,-9.77804,6.70935,-1.31072,-2.67822,-0.35896,-1.78412,-1.55647,0.3238,0.83961,-0.38569,0.56669,0.70341,0.09219,0.03242,-0.05226,0.03529,-0.01073,0.13124,-0.0264
852,-2.45996,1.26983,-0.5002,4.58035,0.37863,-0.52183,9.3063,-2.41219,1.75313,16.75224,6.20358,1.23932,0.55433,-0.38017,0.02878,0.88093,-0.01919,-0.25463,31.17248,4.42025,8.83986,0.0174,18.1244,-5.92635,8.30818,-0.89091,-2.81069,5.52138,-0.39446,1.14633,-1.26238,0.86426,-0.16255,-0.87893,0.12075,-0.5313,0.09282,-0.06389,-0.05014,-0.07795,0.05147,-0.08095
853,-2.94322,0.94465,-0.37616,3.4648,0.5705,-0.11853,8.8437,-1.1161,1.27306,20.63518,5.38686,1.73797,0.59714,-0.32953,0.06697,0.78511,0.13778,-0.05287,37.57282,5.57685,8.38767,6.34604,-4.10211,-2.22848,6.49155,0.13494,-0.9078,9.14483,0.38301,2.58697,-0.89581,-0.42658,0.20319,-0.90741,-0.15849,-0.71,0.18617,-0.23883,-0.04086,-0.08808,-0.11577,-0.1119
854,-2.19612,-1.29433,0.57104,0.76148,0.21851,0.27723,4.12843,-8.32116,0.79791,12.48892,2.1177,1.47721,0.58618,-0.20079,0.10798,0.6607,0.18138,0.10329,22.83187,-7.19377,5.64581,16.16188,-17.43487,-2.02649,3.64534,0.48715,0.49802,8.94941,-0.34938,1.72238,0.47112,-1.18583,0.35068,0.52521,0.37761,-0.32409,0.19264,-0.37997,0.07689,0.07926,-0.16256,-0.05148
855,-1.9977,-3.23673,1.50083,-1.50084,0.01122,0.40302,-5.68,-16.72895,0.89744,2.00067,-1.1189,0.5142,0.52188,-0.12881,0.1071,0.48504,0.09242,0.12161,-3.83971,-24.48804,1.93632,33.03021,-14.27757,-0.47391,2.89806,0.55605,0.52548,6.66657,-1.36439,0.17524,1.72982,-0.98221,0.04752,2.04618,1.35242,0.36361,0.13078,-0.23013,0.09325,0.29609,0.00428,0.09014
856,-3.98627,-3.75819,1.87816,-1.9159,0.85418,0.24334,-16.75217,-18.55922,1.69009,0.89068,-0.52026,-0.88699,0.38882,-0.18811,0.04462,0.48784,0.02163,0.07763,-20.86382,-28.22001,-1.1251,50.21034,-2.21245,7.21464,4.24307,1.13423,0.99168,4.73877,-1.15949,0.16229,2.8183,-1.56998,-0.25941,2.41082,1.56937,0.98088,0.12012,0.00109,-0.04746,0.36867,0.17942,0.23318
857,-6.37921,-2.93726,1.53832,-0.61798,2.02644,-0.00624,-19.82017,-13.27788,2.22992,8.49852,2.76819,-2.00613,0.25526,-0.30879,-0.0368,0.70389,0.05917,0.05821,-15.64837,-15.9542,-2.1662,51.58915,7.43046,14.31909,4.78529,1.56978,1.86785,3.7538,-0.25905,0.72298,3.05494,-2.47688,-0.20633,1.94134,1.40649,1.07905,0.10481,0.0676,-0.14431,0.30805,0.28133,0.25671
858,-7.01896,-1.51373,0.61925,1.53314,1.96199,-0.2171,-12.91018,-6.63234,1.24355,16.36621,3.63836,-2.4064,0.2057,-0.41295,-0.12374,0.88328,0.08988,0.03419,3.74662,-2.80802,-2.12809,32.1099,13.14589,10.2983,3.97927,1.02654,0.8779,3.39928,-0.2508,0.00981,1.46635,-1.21721,-0.01701,1.73214,1.80838,0.66992,-0.03635,0.09863,-0.04816,0.25883,0.34628,0.15843
859,-5.90129,-0.06055,-0.4325,2.87294,0.80091,-0.31895,-2.2738,-2.59037,-0.64563,17.35195,1.73105,-1.91898,0.25542,-0.42741,-0.18166,0.86187,-0.00517,-0.03781,20.54369,2.11724,-0.87073,6.47114,20.23959,-2.27366,4.295,0.17976,-1.72343,3.91942,-1.07769,-1.00141,-0.88661,1.58243,-0.01316,2.04072,2.23591,0.30705,-0.23679,0.25687,0.09628,0.29831,0.33627,0.06757
860,-4.81835,1.41394,-1.21318,2.09607,0.26577,-0.21828,2.99342,0.39654,-1.77403,11.37962,1.58531,-0.42826,0.29805,-0.29232,-0.1313,0.67419,-0.12811,-0.10252,21.88612,3.49985,1.48594,-0.11564,23.08259,-9.45682,5.41041,-0.06717,-3.01982,4.97982,-1.34403,-0.81399,-0.36711,2.34187,-0.64368,2.2304,1.98722,0.20014,-0.01871,0.36859,-0.03539,0.37611,0.27348,0.03339
861,-4.88075,2.15035,-1.32175,0.40945,0.65741,0.03648,-0.41891,2.73678,-1.64081,5.67099,3.27353,1.37084,0.2524,-0.13418,0.02144,0.46784,-0.09667,-0.0928,9.95828,4.58894,2.50548,17.17932,11.33741,-6.22847,4.80509,-0.08255,-1.52912,5.70639,-0.71415,-0.1176,3.03937,-0.37574,-1.46727,2.01658,1.62432,0.03155,0.52457,0.1192,-0.36324,0.40388,0.26119,-0.01645
862,-5.1534,1.40906,-0.67275,0.14158,0.48281,0.1909,-5.77612,1.7958,-0.7959,6.14028,2.19198,1.90909,0.21125,-0.10568,0.17001,0.48932,0.06625,-0.04442,1.00507,2.60578,1.03292,35.04786,-4.86628,-1.55589,3.72736,-0.23833,1.60264,6.13453,-0.18551,-0.26052,5.13346,-4.36885,-1.14015,2.02774,2.04939,-0.25982,0.69625,-0.48728,-0.42743,0.38167,0.34307,-0.10164
863,-4.3974,-0.13089,0.21143,1.59334,-0.34634,0.08042,-7.70287,-2.92298,0.04185,11.8462,-1.07525,0.72769,0.30141,-0.16869,0.20278,0.80652,0.15278,-0.03069,3.82402,-3.01795,-2.22152,35.9684,-3.39618,-2.80708,4.47464,-0.1324,3.68417,6.4437,-0.48329,-1.30329,3.69494,-5.89168,0.39161,2.9172,3.22123,-0.21104,0.28774,-0.82314,-0.10095,0.39319,0.4445,-0.10809
864,-2.83665,-1.52541,0.84542,3.22643,-0.44716,-0.15964,-7.83765,-8.95891,0.315,19.02642,-1.81617,-0.70735,0.49092,-0.24056,0.09294,1.05886,0.05893,-0.07422,12.56517,-10.38331,-5.96738,27.52239,16.2781,-7.18848,4.81234,-0.04943,2.2399,6.1065,-1.30993,-2.3055,0.2573,-2.6833,1.40408,4.09286,4.11377,0.31506,-0.27096,-0.3613,0.29248,0.41666,0.41687,0.0157
865,-1.80552,-1.96717,0.93971,3.29222,0.28249,-0.25303,-5.65544,-11.76528,0.13798,22.54718,0.41195,-1.03606,0.58681,-0.2537,-0.04165,0.89285,-0.08437,-0.11321,20.41278,-14.48102,-6.60656,25.97648,27.89696,-6.02074,2.84407,-0.42347,-0.48474,5.22147,-1.73207,-2.22388,-1.81215,1.36852,1.25452,4.10188,3.70771,0.70704,-0.42427,0.15869,0.46238,0.34679,0.23863,0.12663
866,-2.06977,-1.07196,0.46395,1.2692,0.83737,-0.11778,1.47844,-8.5423,0.44195,18.57215,2.78297,-0.8302,0.43898,-0.15175,-0.06197,0.51899,-0.08796,-0.04987,26.06197,-9.73163,-1.89333,31.7474,16.91036,3.71581,1.97162,0.00144,-0.00107,5.08134,-1.15177,-0.5304,-0.86186,0.76257,0.93005,2.30545,1.94015,0.44481,-0.15291,-0.02198,0.35883,0.18956,0.09646,0.08098
867,-3.28054,0.19474,-0.08216,-1.65139,1.26276,0.10453,8.52487,-2.96017,1.37737,9.71513,4.93644,-1.0096,0.16085,-0.01238,0.00241,0.33717,0.06506,0.11257,26.44722,0.54059,3.846,29.43574,3.38909,13.3247,5.06226,1.5539,2.42957,6.06697,-0.2022,2.02382,1.71874,-2.74038,0.61545,-0.62006,-0.33266,-0.26952,0.14801,-0.35744,0.07474,-0.01862,0.06707,-0.06865
868,-5.16165,0.46918,-0.20394,-3.27116,2.25042,0.24578,5.68205,-2.03243,1.41256,3.49528,7.68487,-0.99898,0.02759,-0.00803,0.01136,0.39126,0.19939,0.22239,16.42268,5.19912,4.37373,18.45386,9.2927,10.43129,8.49422,1.9652,1.35526,6.04238,-0.182,3.33825,2.9266,-2.59922,-0.3383,-2.55686,-1.83979,-0.58963,0.19339,-0.05448,-0.20209,-0.17423,-0.01517,-0.10104
869,-7.74256,-0.3527,0.02653,-1.9852,2.52536,0.15504,-8.77817,-7.84554,-0.59064,4.92681,6.65284,-0.64107,0.11713,-0.19233,-0.06305,0.52575,0.13351,0.1161,-2.06295,-4.51705,-1.93752,23.13156,27.08181,-5.2891,7.17669,0.40634,-3.21638,3.22501,-1.5574,1.46791,2.15632,1.88988,-1.64395,-1.64834,-1.28155,-0.16583,0.19432,0.58763,-0.31317,-0.15268,-0.13077,0.02469
870,-10.11224,-1.40355,0.31804,0.92803,0.70687,-0.05805,-23.52527,-15.04681,-3.18881,9.67495,-1.32125,-0.61245,0.25274,-0.44285,-0.10848,0.61598,-0.04794,-0.09999,-18.80024,-23.44453,-9.48646,49.42962,37.5679,-18.11843,2.31154,-1.28749,-4.64692,0.08984,-3.44274,-2.63509,1.28062,3.65774,-1.64185,1.1437,1.33934,0.28153,0.2421,0.48061,-0.1564,0.02852,-0.04457,0.10655
871,-10.33725,-1.76133,0.43113,1.74406,-1.05819,0.01312,-24.01242,-16.04152,-3.81398,7.3603,-7.94178,-0.05798,0.31319,-0.56157,-0.04799,0.56037,-0.06121,-0.1239,-24.72997,-30.90527,-8.63336,66.43571,32.02715,-13.3154,-0.10861,-1.67062,-0.72566,0.80469,-3.97711,-4.82457,2.25391,-0.48006,-0.2493,2.92967,3.62733,0.17541,0.33455,-0.46177,0.10901,0.2098,0.18019,0.0671
872,-7.60637,-1.27824,0.31755,0.58176,-0.01098,0.34535,-9.54249,-10.22829,-2.04168,0.92861,-3.90086,1.66994,0.34189,-0.45646,0.04855,0.49556,0.15183,0.07633,-14.18906,-15.56959,0.86485,48.85433,12.08054,2.41494,1.82641,-0.96059,2.81335,4.82126,-2.22032,-2.90261,3.42474,-4.40551,0.7268,2.33137,3.56131,-0.2326,0.33604,-0.99203,0.19247,0.22794,0.31032,-0.01826
873,-3.72507,-0.63192,0.18128,1.42789,1.81011,0.30469,4.95487,-5.3327,0.10911,4.53555,3.70271,1.89517,0.34188,-0.21697,0.06122,0.72958,0.26798,0.16289,10.0282,2.2396,6.1865,14.70812,-7.99788,8.65792,4.00077,0.10374,2.00777,6.96583,0.1133,0.06004,1.86492,-2.98176,0.50324,0.90933,2.25997,-0.41973,0.06657,-0.42503,0.06728,0.12769,0.33674,-0.06829
874,-1.76942,-0.20176,0.09281,3.84248,0.75145,-0.29633,6.70466,-6.07245,0.71937,15.61526,2.57222,-1.34334,0.2475,0.00477,-0.01546,1.13116,0.0556,-0.0335,27.80256,-0.47016,0.1318,4.06577,-7.86547,-0.39439,4.16591,0.65569,-0.96893,5.31939,0.93503,0.96281,-0.96394,0.95196,-0.21636,0.39013,1.36899,-0.24171,-0.19262,0.42407,-0.11649,0.05591,0.29353,-0.05407
875,-2.93474,0.4623,-0.28863,3.16796,-1.79457,-0.72284,-1.6049,-6.99831,-0.46175,16.94074,-3.14186,-4.58422,0.15339,0.10086,-0.06503,1.10033,-0.2186,-0.21191,20.79573,-11.1596,-8.36017,27.16515,12.55167,-11.24914,4.69916,-0.03984,-3.30794,3.83211,0.34685,0.96273,-2.38663,2.97793,-0.60249,0.41728,0.55388,-0.03549,-0.1854,0.60355,-0.17596,0.02143,0.12122,-0.04362
876,-5.45917,1.84191,-1.25802,-0.62224,-1.78606,-0.43563,-9.43789,-1.57982,-2.34477,6.51917,-1.80796,-3.65345,0.19939,0.06811,-0.01779,0.54124,-0.18945,-0.11194,-1.23499,-4.91466,-9.33751,52.79657,29.18291,-13.27284,6.79815,-1.56646,-5.13177,4.98304,-0.47095,1.7159,-2.99392,3.52567,-0.58681,0.05841,-0.62787,-0.07601,-0.18334,0.27816,-0.0486,-0.05075,-0.13418,-0.08695
877,-6.84954,3.16873,-2.18983,-2.76751,0.75267,0.10788,-11.3979,6.47512,-3.11387,-2.21266,5.70262,0.1669,0.30787,-0.01402,0.05627,0.18659,0.03858,0.05403,-15.16196,13.79349,-3.50992,49.975,27.01139,-7.29949,7.35598,-2.14309,-6.2145,6.75542,-0.99939,2.16035,-3.13701,4.33772,-0.63544,-0.48179,-0.95098,-0.27316,-0.36272,0.20512,0.10653,-0.13029,-0.22706,-0.10945
878,-7.13967,2.73988,-1.8887,-1.60911,2.81911,0.3207,-11.45358,7.68975,-2.00695,-2.314,11.56404,3.02583,0.2819,-0.10518,0.04975,0.47632,0.14851,0.04986,-16.37167,23.4912,2.79057,27.17489,17.36103,4.01852,4.33408,-0.42258,-3.82942,7.09517,-1.46049,1.1727,-0.55716,3.39215,-0.74547,-0.3321,0.26443,-0.29802,-0.30487,0.44694,0.09731,-0.08235,-0.04846,-0.03371
879,-8.1479,0.50412,-0.3744,0.36528,3.0228,0.29453,-16.3698,0.67812,-0.60788,3.67763,12.37165,3.53722,0.05692,-0.18948,-0.04957,0.9584,0.10266,0.01308,-15.78198,17.67491,4.02708,18.57962,16.02448,16.07603,1.3792,2.04251,2.64413,5.85652,-2.13894,-0.59691,4.23036,-1.85294,-0.10213,1.00229,1.8095,0.06584,0.18443,0.21584,0.02149,0.1614,0.20433,0.08428
880,-9.47648,-1.47806,0.96142,1.06482,2.24341,0.38475,-24.68062,-6.98678,-0.58661,10.34468,8.60144,2.77286,-0.20202,-0.21278,-0.1395,1.05131,0.07318,0.13644,-18.41249,4.9691,-0.33907,39.10757,23.1481,20.47522,1.64414,2.40355,8.81927,3.91144,-2.95366,-2.54062,7.57812,-8.83493,1.25171,3.17744,3.01755,0.53198,0.73725,-0.79403,0.03143,0.50329,0.40223,0.12335
881,-9.0635,-1.68339,1.09604,0.12743,1.73275,0.58851,-29.10116,-9.21008,-2.08591,11.35653,2.85813,1.9005,-0.23965,-0.16379,-0.1167,0.64548,0.13765,0.31252,-23.42017,-4.86264,-6.40838,68.11367,27.89144,13.89308,3.24684,0.79143,10.03287,2.65913,-3.45484,-4.11877,8.11102,-11.94525,1.84711,4.8604,3.9987,0.68498,1.0803,-1.70933,0.051,0.72919,0.52406,0.0798
882,-7.13032,0.11384,-0.18229,-1.21828,1.41272,0.52983,-26.92993,-4.08381,-4.59171,6.2276,-1.68172,0.89733,0.02917,-0.07108,-0.00393,0.10168,0.18041,0.2624,-28.26138,-5.21055,-11.19797,73.06941,23.21466,0.52463,3.92572,-0.59312,5.49672,2.60196,-2.80685,-3.75994,5.69211,-7.99375,1.04026,4.30041,3.79556,0.47248,0.93049,-1.45146,0.03252,0.61906,0.44745,0.04811
883,-5.91297,3.06287,-2.29758,-0.82635,0.72661,0.08362,-20.766,5.99499,-6.58592,3.63388,-3.95202,-0.64634,0.37252,0.02197,0.07841,-0.05914,0.11406,-0.01982,-24.4652,2.52434,-13.7222,48.41034,17.40001,-13.12118,4.54322,-1.28269,-2.80247,2.72524,-0.93358,-0.84645,0.75915,1.43427,-0.6409,1.16062,1.4664,0.0853,0.19965,0.01078,0.01039,0.12392,0.10237,0.03967
884,-5.9646,4.85389,-3.55745,1.69346,-0.04811,-0.36246,-13.7869,12.51722,-5.90747,9.66784,-4.95579,-2.44163,0.45762,0.03205,0.05748,0.32353,0.01875,-0.20882,-7.01701,7.32671,-13.14379,25.30412,21.78967,-19.75018,6.32232,-1.71961,-9.73472,2.39383,0.38774,2.09554,-3.3032,9.28686,-2.20935,-1.99445,-1.35993,-0.22752,-0.51863,1.41631,-0.06523,-0.42001,-0.25575,-0.02263
885,-5.45834,3.56599,-2.5879,4.03487,-0.59018,-0.54194,-7.9315,8.03701,-2.69769,18.18676,-4.4869,-3.77775,0.28947,-0.03461,-0.03961,0.90872,-0.0506,-0.16286,13.20685,2.88511,-9.95914,27.4042,30.64097,-15.60806,7.36264,-1.42481,-9.51913,2.48235,-0.38443,1.97213,-3.44998,8.69252,-2.39636,-1.77917,-1.61524,-0.1673,-0.69114,1.50958,-0.19839,-0.48118,-0.24518,-0.10575
886,-3.73177,-0.03111,-0.11455,3.85884,-0.84625,-0.53885,-4.4417,-4.39467,0.02325,19.25363,-1.19405,-3.98263,0.15803,-0.12405,-0.1582,1.20371,-0.10311,-0.06248,20.00765,-4.80823,-6.72195,39.59238,33.15971,-5.38273,5.55884,-0.44281,-3.14991,4.37032,-1.7496,-0.58777,-0.54631,1.59358,-1.22648,1.80298,1.43229,0.26861,-0.3861,0.52781,-0.29241,0.06934,0.18623,-0.06604
887,-2.55762,-2.66979,1.43925,1.71172,-0.50387,-0.34569,-3.52887,-12.36,-0.05321,13.2836,2.82299,-2.59229,0.17177,-0.26109,-0.25359,1.00953,-0.05497,-0.00207,13.09756,-6.96548,-5.27348,38.76638,26.89404,5.7363,2.03366,0.44482,3.29131,7.94104,-1.12758,-1.52693,2.5423,-4.61753,0.23631,4.52808,4.34867,0.58504,0.09676,-0.43076,-0.20839,0.65335,0.57634,0.07784
888,-3.55992,-1.77923,0.54368,0.50388,0.32293,0.04666,-5.94344,-7.849,-2.03656,9.78667,3.48368,-0.10188,0.12897,-0.38832,-0.2957,0.65204,0.12118,0.07207,4.53261,-1.28001,-5.28562,27.9826,16.87736,13.30044,-0.45856,1.0595,5.56972,10.32314,0.571,0.2776,3.64915,-5.59829,1.16226,3.36062,3.93895,0.33504,0.36703,-0.69163,0.06317,0.64675,0.51412,0.1469
889,-5.99806,1.26783,-1.50493,1.31281,0.87686,0.36697,-11.62993,2.60913,-3.39789,12.41395,1.44762,1.86894,-0.07322,-0.37516,-0.27579,0.54546,0.23809,0.13306,0.48463,7.08978,-5.2149,25.91093,15.61784,8.48816,0.17849,1.2287,3.01001,8.11676,0.20977,0.76912,2.65045,-2.07502,0.89207,0.93155,2.04919,-0.12944,0.26822,-0.28682,0.25714,0.24204,0.24865,0.07161
890,-7.70044,2.75863,-2.27827,2.1344,0.65201,0.33919,-17.11414,6.74455,-3.47581,15.94481,-0.31303,1.796,-0.16656,-0.2839,-0.20392,0.61478,0.14957,0.09378,-0.35264,8.55437,-5.57933,37.92562,25.9148,-6.98119,3.86445,0.1646,-1.61133,2.12835,-2.23429,-2.0621,1.95332,1.54068,-0.3905,0.6935,1.71526,-0.20132,0.27946,0.11426,0.14134,-0.01253,0.14278,-0.0391
891,-7.72866,1.53123,-1.37661,2.30562,-0.29043,-0.02426,-19.34502,2.22179,-3.92701,17.74347,-2.4492,-0.32794,0.02647,-0.2567,-0.11445,0.64569,-0.04336,-0.05478,0.33867,-0.4128,-9.253,45.75303,31.47551,-15.92727,6.4931,-1.80857,-4.38198,-1.75751,-3.67621,-4.34192,2.11345,2.40995,-1.31024,1.43347,2.18453,-0.0552,0.43544,0.11557,-0.07316,-0.0454,0.10218,-0.06589
892,-6.52989,0.19728,-0.56469,2.93456,-1.09291,-0.4131,-17.34634,-1.71155,-5.05557,18.29214,-5.07732,-2.63443,0.24533,-0.22358,-0.04589,0.6766,-0.13891,-0.1967,1.11185,-7.65654,-14.32119,38.54451,23.80615,-9.08932,4.98328,-2.65283,-3.43266,0.77264,-2.38972,-2.33504,1.80518,1.06083,-0.95853,0.75096,1.44232,-0.08154,0.32832,-0.08254,-0.07545,-0.02693,-0.01503,0.00288
893,-5.6322,0.96919,-0.94918,3.4314,-0.62428,-0.49059,-13.22266,0.85632,-4.95746,16.952,-5.29024,-3.474,0.13403,-0.05301,-0.01695,0.71241,-0.06735,-0.17748,0.05095,-3.26726,-15.25286,31.62481,16.07558,2.17186,2.63694,-1.33671,-0.16786,7.2187,0.19731,1.95008,1.25734,-1.18942,0.06637,-0.39631,0.35477,-0.16366,0.07913,-0.2924,0.04023,0.11666,0.01661,0.10403
894,-5.90751,3.31094,-1.96817,2.67261,1.24378,-0.24002,-11.48181,7.18409,-3.02005,15.46415,-1.42052,-3.15679,-0.23199,0.25585,0.01901,0.71152,0.08684,0.03361,-1.32048,8.76735,-12.11046,33.12315,14.2601,5.7218,3.17402,0.75004,2.32472,11.52184,1.51586,3.95835,1.42693,-2.95692,0.65786,-0.53844,0.48364,-0.25403,0.0502,-0.44479,0.05267,0.31441,0.26827,0.12159
895,-5.71316,5.61827,-2.82386,1.59404,2.7553,-0.01733,-13.20534,14.16119,-1.12059,16.42473,3.88998,-2.75978,-0.34968,0.56544,0.14107,0.75343,0.16768,0.22724,0.50017,22.60162,-9.40171,33.39972,9.29746,3.86111,4.80275,1.778,2.17014,9.83398,0.55377,2.2304,1.92875,-2.84339,0.37995,-0.38675,1.12422,-0.52593,0.1872,-0.42546,-0.02824,0.20084,0.36315,-0.01104
896,-4.35099,5.86166,-2.70396,1.2564,1.96861,-0.11432,-16.16724,14.85799,-0.73968,16.54859,5.77954,-2.4922,0.0278,0.60215,0.29348,0.84219,0.07515,0.15432,1.30131,26.2909,-8.27851,34.85204,5.83653,1.21044,5.14411,0.99422,-0.85584,3.80984,-1.34369,-1.02198,1.57708,-0.23959,-0.61106,-0.07122,1.32253,-0.60128,0.15487,-0.12998,-0.09499,-0.13036,0.15294,-0.1583
897,-3.82633,3.63023,-1.56196,0.85402,-0.09141,-0.28527,-17.46698,3.95606,-1.64824,10.95737,3.6008,-1.5529,0.54254,0.30916,0.32267,0.80002,-0.06198,-0.09032,-4.23325,11.35225,-6.05303,43.06112,20.18427,-3.8254,5.7351,-0.96618,-5.08577,-0.63023,-2.12356,-2.74407,0.41553,3.23725,-1.71038,1.1596,1.41647,-0.05722,-0.09927,0.29162,-0.11051,-0.18417,-0.03919,-0.14197
898,-5.77031,1.03977,-0.55205,-0.55568,-0.84725,-0.09426,-15.01657,-9.61423,-2.96951,2.40571,0.82127,0.36145,0.67614,-0.08985,0.17111,0.48087,-0.02005,-0.16201,-10.48687,-8.89865,-2.34218,44.20481,49.26178,-10.68569,7.57389,-2.5217,-6.99561,0.69201,-1.45801,-1.87364,0.00579,4.3796,-1.99222,2.31871,1.63979,0.54383,-0.23082,0.46879,-0.09043,0.06647,-0.02103,-0.00505
899,-8.87015,0.13909,-0.50119,-1.63891,-0.23269,0.27868,-10.67386,-12.3206,-3.54791,-0.60675,-1.1156,1.49719,0.35187,-0.37387,-0.07224,0.20494,0.15029,0.00521,-9.5705,-15.55138,-1.27915,33.39875,67.16451,-12.24556,7.58292,-2.16796,-3.94838,5.5349,-0.9151,-0.36366,1.03522,1.71646,-0.89861,2.16414,1.91663,0.45759,-0.03717,0.24418,-0.01939,0.25779,0.11249,0.07372
900,-10.60923,1.2913,-1.17916,-0.50106,-0.09209,0.2439,-9.57528,-3.26053,-2.86594,5.32935,-3.24265,0.03274,-0.08605,-0.3709,-0.25934,0.45078,0.17698,0.10555,-3.92929,-7.20623,-5.20107,32.24232,54.51089,-3.49924,3.32572,0.43357,2.85604,7.95299,-1.63479,-0.71101,2.59559,-2.91324,0.96472,1.59471,2.38764,-0.01882,0.28282,-0.18461,0.10803,0.28244,0.2797,0.02437
901,-10.08136,2.57831,-1.56589,1.82083,-0.45762,-0.15592,-11.14317,5.89427,-1.52122,13.78103,-4.39508,-2.18902,-0.3052,-0.17443,-0.29475,0.91783,0.02253,-0.01678,1.71238,3.28582,-8.27807,49.00982,22.57452,9.51452,-2.2743,3.49906,8.52253,5.3533,-2.87248,-2.61728,3.89196,-6.24157,2.02615,1.7064,2.80349,-0.14496,0.44623,-0.50367,0.16921,0.24855,0.40713,-0.0517
902,-8.11735,2.02722,-1.01361,3.06789,0.4262,-0.30143,-9.5318,6.57209,-0.32784,17.87082,-0.44785,-1.60391,-0.24796,-0.09044,-0.19605,0.95851,-0.08033,-0.13004,9.07421,8.92644,-4.27004,60.22394,-0.66104,15.44473,-4.07173,4.40736,8.72909,1.12448,-3.20152,-3.56922,4.66455,-6.26658,1.33298,1.99674,2.51484,0.21339,0.39976,-0.48836,0.03735,0.18801,0.35368,-0.0308
903,-5.22123,0.04216,0.06635,2.71429,2.39935,-0.05258,-3.01168,-0.08002,0.61374,16.93188,8.47079,1.37742,0.01662,-0.22497,-0.04319,0.66967,-0.04644,-0.04894,18.69057,11.12817,3.28775,48.93803,-1.76753,10.52891,-1.01495,2.47602,4.14799,-0.0113,-2.21705,-2.46222,4.57793,-3.63299,-0.26579,1.75327,1.70282,0.53804,0.31003,-0.19266,-0.18648,0.1104,0.15454,0.05308
904,-2.20318,-1.5977,0.80487,1.22273,2.85475,0.2091,2.74239,-8.28537,0.94448,12.58305,13.12428,3.0201,0.37775,-0.43894,0.08717,0.46881,0.00825,0.09714,22.44907,7.12309,6.07724,29.12845,14.64682,-0.8234,3.16201,-0.48664,-1.08268,2.66488,-0.84952,-0.9598,3.02243,-0.31696,-1.17171,1.34097,1.59342,0.37895,0.23688,0.112,-0.25614,0.1148,0.10685,0.0734
905,-1.5187,-2.2414,0.98326,-0.01814,0.36767,0.2518,1.61955,-14.15036,0.34121,9.63591,4.48129,1.51317,0.57793,-0.61539,0.12108,0.3947,0.01846,0.11009,17.12709,-9.74552,1.9504,22.76272,37.05152,-13.10965,5.20783,-1.99983,-3.942,5.8891,-0.50732,-0.93506,-0.0758,2.23961,-0.8138,1.29929,2.49019,-0.0687,0.06445,0.19998,-0.054,0.2095,0.2863,0.01033
906,-3.81891,-2.53506,1.10441,0.69011,-3.32182,0.06259,-4.10743,-16.49823,0.10384,14.05653,-12.69516,-1.76253,0.44438,-0.70356,0.05118,0.48516,-0.0084,-0.05042,13.62184,-32.82292,-4.41983,32.22266,50.42597,-20.88161,5.22391,-1.15699,-3.8665,6.75271,-1.08228,-1.73073,-2.67215,2.98398,0.04109,1.5717,3.099,-0.2567,-0.10286,0.03965,0.22803,0.26051,0.39966,-0.0532
907,-5.789,-2.68003,1.3602,2.14087,-4.79531,-0.18186,-6.63914,-15.56045,1.05634,21.00739,-21.44603,-3.93089,0.20267,-0.62346,0.01631,0.76968,-0.03948,-0.22358,16.93196,-41.5739,-7.77826,44.22571,46.2451,-19.20696,4.99984,0.77414,-1.41262,5.76424,-0.54337,-1.17561,-1.32115,0.92269,0.39039,1.9842,2.67795,0.02954,0.10954,-0.28807,0.23858,0.25741,0.34849,-0.06117
908,-4.91551,-2.66836,1.53302,1.69836,-1.60502,-0.17244,-3.8298,-14.58023,1.94338,20.17851,-8.96675,-2.3119,0.15421,-0.44435,0.09517,0.91035,0.01301,-0.17865,17.91504,-25.39162,-5.30919,47.49677,31.794,-8.94832,5.86088,2.47106,2.228,4.8707,1.40769,0.70498,3.6837,-3.135,0.21001,2.1645,1.98712,0.42465,0.62193,-0.63639,-0.00342,0.26213,0.33038,-0.02135
909,-3.01446,-2.88221,1.59331,0.31225,4.17866,0.02147,-1.87953,-16.90211,2.03555,14.42582,15.67051,2.06562,0.25004,-0.37878,0.14275,0.69062,0.12607,0.05302,13.21157,-0.47806,0.79288,40.29937,20.67003,2.29313,7.86751,3.47197,4.5143,4.22282,1.92664,1.48737,7.62315,-5.95028,0.02685,1.65123,1.53433,0.54023,1.01319,-0.7808,-0.19912,0.22351,0.33221,0.04364
910,-3.35913,-3.58462,1.82962,0.35088,6.70824,0.01871,-7.57896,-21.29782,2.31714,13.33042,26.90481,4.06392,0.28551,-0.51322,0.04716,0.36658,0.12876,0.16825,6.60646,4.17486,3.87541,26.51557,20.29852,6.19128,9.55847,2.80096,2.25174,2.77253,-0.17787,0.1222,6.69923,-4.12283,-0.37447,0.63599,1.04761,0.36995,1.05675,-0.48456,-0.28573,0.06488,0.17767,0.08271
911,-6.90141,-4.48729,2.34117,1.34019,3.2271,-0.18258,-19.42288,-23.94262,3.14312,16.56336,12.2745,0.822,0.1844,-0.73982,-0.09128,0.2918,-0.02885,0.0321,-1.24573,-20.38391,0.66023,13.08055,25.43313,2.93384,8.7657,0.76493,-3.15627,1.16448,-2.18574,-1.49258,1.34527,1.23147,-0.94483,-0.06988,0.60224,0.12015,0.55017,0.10306,-0.24611,-0.1283,-0.05565,0.05062
912,-10.80309,-5.07565,2.73733,2.24828,-2.04733,-0.23204,-24.94587,-23.85852,3.47763,20.41263,-10.80615,-3.79833,0.02127,-0.88983,-0.13707,0.56672,-0.16429,-0.12228,-1.18749,-49.03493,-3.74709,9.44468,24.26103,1.97419,5.51166,0.56289,-5.16791,1.46218,-1.86128,-1.26095,-3.14568,4.36447,-0.8189,0.01149,0.40961,0.00108,-0.22343,0.48045,-0.03803,-0.14426,-0.16712,0.00294
913,-10.92455,-5.26825,2.68548,2.82688,-3.42446,-0.03499,-15.73443,-22.60604,2.81304,24.26999,-17.34993,-4.47084,-0.02671,-0.89507,-0.06372,0.96784,-0.10143,-0.06515,14.84632,-50.47237,-3.42287,15.09516,18.69755,4.43081,3.48377,3.52402,-1.68309,3.86176,-0.26623,0.1414,-2.75732,2.63995,0.0847,0.53241,0.6332,-0.00195,-0.57915,0.41102,0.18622,0.05496,-0.06796,0.00019
914,-7.06583,-5.1813,2.36438,2.377,-0.7033,0.10798,-2.82692,-21.14054,2.00159,26.21556,-5.53988,-1.77146,0.14077,-0.79068,0.07273,1.16989,0.09977,0.09489,30.47,-25.43707,-0.89733,20.35491,18.51851,-1.00079,5.0875,6.66841,2.24644,5.48784,0.39229,0.3194,0.33927,-0.66087,0.74134,1.11182,1.47032,0.08255,-0.32582,0.15145,0.2128,0.27987,0.18203,0.0354
915,-3.6091,-5.575,2.43348,2.12545,2.09225,-0.12545,-2.53639,-23.02773,2.42099,28.37067,6.9937,-0.37874,0.34997,-0.68038,0.13369,1.14519,0.23935,0.11624,30.17804,-5.93482,-1.86737,22.39947,18.2048,-16.44485,7.11999,7.16767,2.92221,3.80945,-0.68386,-1.62549,2.07035,-2.10578,0.57588,1.70655,2.61905,0.33868,0.03282,0.05552,0.04329,0.378,0.40912,0.0923
916,-3.58904,-6.66064,2.97188,4.24155,2.34229,-0.62384,-13.24105,-29.22643,3.99471,35.85881,7.59439,-2.16048,0.36715,-0.64058,0.03187,1.07321,0.21804,-0.01859,25.21001,-13.54285,-6.1369,25.71033,10.63134,-27.44831,5.96088,5.62996,1.6759,0.45433,-2.29792,-3.82952,1.01326,-1.4481,0.17548,1.87028,3.1233,0.53522,-0.16444,0.22397,-0.07975,0.31011,0.45044,0.12353
917,-5.75147,-6.23857,2.85676,6.60329,1.29796,-0.84351,-22.75412,-30.04198,4.29437,44.70002,0.55942,-4.38514,0.20049,-0.58283,-0.11272,0.91919,0.14111,-0.08412,26.62212,-30.12588,-10.82083,32.31945,7.88182,-23.24426,2.5129,4.5579,0.71175,-0.38952,-2.89489,-4.1765,-1.95022,0.1677,0.25873,1.28054,2.64894,0.32749,-0.99901,0.50611,0.05967,0.1222,0.32019,0.06225
918,-7.05974,-2.85623,1.39934,5.02728,1.47841,-0.50719,-24.34978,-17.90817,1.66773,46.05058,-2.03193,-3.88693,0.05621,-0.42861,-0.1278,0.55435,0.14308,0.04351,30.13216,-24.68398,-14.29157,37.8938,22.34746,-11.042,0.49328,5.39366,0.4289,2.46479,-2.33268,-3.19384,-4.57633,1.51589,0.68841,0.80227,2.39664,-0.10237,-1.675,0.64928,0.33005,-0.03426,0.24408,-0.07441
919,-5.90002,2.26406,-0.82523,0.80895,2.08093,-0.0741,-17.80092,2.35626,-2.34897,42.11724,0.275,-2.03751,0.11746,-0.2687,-0.00676,0.2104,0.10211,0.11029,34.51932,2.51562,-16.24565,33.02145,42.3174,-3.8351,3.83942,6.58586,-0.17345,5.71263,-0.90693,-1.99917,-3.64926,1.05389,0.7299,1.10275,2.86144,-0.33139,-1.14207,0.30608,0.35097,-0.04553,0.33883,-0.19113
920,-2.83451,6.93774,-2.74668,0.26642,1.06549,-0.22672,-7.29776,20.93627,-4.63838,45.84901,-0.40368,-2.76818,0.42846,-0.23011,0.12805,0.40589,-0.11863,-0.11498,46.6678,28.12899,-17.6299,14.75493,42.36512,-5.15208,12.84454,6.12023,-2.26911,6.20135,1.35091,0.09402,1.52511,-1.19297,-0.12822,1.4569,2.46776,-0.22148,0.58411,-0.47647,-0.04717,0.05766,0.37869,-0.19713
921,0.16265,9.03902,-3.45041,5.69565,0.51539,-1.02093,1.1426,29.26079,-4.07225,62.25024,-1.29041,-5.16733,0.81056,-0.25601,0.19388,1.17415,-0.22932,-0.34919,69.51853,41.05851,-17.93245,-4.47675,13.61568,-10.77633,20.14528,5.06967,-4.31381,4.54104,3.07977,2.66339,6.27916,-3.181,-1.10999,1.16147,0.6869,0.09735,1.96798,-0.98743,-0.4804,0.17174,0.16827,-0.06526
922,0.64296,7.76054,-2.84528,11.05178,2.45488,-1.73895,4.38819,24.70369,-2.80274,76.40012,3.32931,-4.63886,0.9094,-0.1792,0.17072,1.73403,0.00444,-0.29728,91.23532,43.50283,-14.78828,-11.93284,-17.98039,-16.55135,18.17669,5.60713,-3.61873,3.08419,2.42329,3.12704,5.65778,-2.96861,-0.95747,0.42724,-0.57152,0.30658,1.63898,-0.62146,-0.47684,0.17614,-0.11368,0.10347
923,-1.04331,3.87782,-1.51552,9.24389,4.52487,-1.67083,6.35242,12.04756,-2.38389,67.63434,9.83026,-0.57917,0.65711,-0.09834,0.05272,1.42499,0.26166,-0.16254,92.50282,37.17916,-6.48022,-7.73407,-16.00199,-19.94177,10.51729,7.47968,-1.56238,2.49178,0.11533,0.9741,0.65263,-0.69348,0.2115,-0.2041,-0.11295,0.15488,0.20606,0.21027,-0.13561,0.04534,-0.14395,0.13204
924,-1.94325,0.06109,-0.41508,2.00809,5.03226,-1.07055,11.56165,1.45817,-2.42313,38.75734,13.86124,2.69129,0.38099,-0.18794,-0.06019,0.65101,0.28753,-0.14444,71.88358,28.62524,2.51253,4.09262,17.49691,-19.92859,7.09339,9.1129,-1.28048,2.10876,-1.52777,-1.39346,-3.23457,0.88303,1.23942,-0.12918,1.09614,-0.1109,-0.60048,0.53207,0.10721,-0.06623,0.11571,0.00688
925,-1.40314,-1.38929,-0.04046,-2.75218,5.55487,-0.91436,14.09626,-2.36449,-2.30542,14.16154,17.14995,2.23288,0.28991,-0.35344,-0.05386,0.3208,0.28267,-0.11028,44.79864,24.75741,4.0462,16.36131,43.04153,-19.84817,10.40571,10.16012,-2.37488,1.88509,-2.08759,-2.76513,-2.17258,-0.32717,0.99574,0.87295,2.15663,-0.07649,-0.15068,0.11477,-0.03953,-0.04405,0.38624,-0.10062
926,-1.11302,-1.4025,0.14148,-2.5567,6.46369,-1.32646,5.89312,-5.17647,-1.19856,4.38145,19.28708,-0.68942,0.36768,-0.49606,0.0282,0.59774,0.37223,0.02378,16.91625,19.09206,-1.20837,15.37515,32.59064,-22.21201,13.00491,10.45245,-1.48554,2.32332,-2.46625,-3.81537,2.42012,-3.12829,-0.6688,2.41213,3.19717,0.24538,0.59132,-0.40726,-0.39398,0.05944,0.4459,-0.09271
927,-2.39661,-0.94707,0.30358,-1.63156,6.14015,-1.34743,-8.22843,-6.97144,0.20641,-1.04858,16.92407,-2.45207,0.4761,-0.58499,0.06042,0.88131,0.42904,0.15412,-11.35431,11.79669,-3.32548,-5.18498,-3.94169,-23.57611,10.58955,9.65511,1.50398,3.25984,-2.25666,-4.25992,5.84366,-4.76187,-2.35229,3.60764,3.97067,0.46057,0.70464,-0.53224,-0.51832,0.15611,0.33612,-0.04673
928,-4.7953,0.58398,-0.02297,-2.35233,4.9566,-0.71824,-15.11171,-1.25479,0.10761,-8.16948,14.54183,0.83782,0.44862,-0.52859,0.00798,0.82868,0.41569,0.18938,-25.76427,19.28141,4.68372,-32.89605,-34.93615,-21.68223,8.63294,8.80177,1.52249,3.76533,-0.2172,-2.70854,5.46071,-3.6758,-2.57379,3.63712,3.66109,0.37584,0.41514,-0.22648,-0.38749,0.24554,0.26793,-0.03701
929,-5.99879,2.64658,-0.65981,-2.60969,4.4598,-0.2669,-11.49013,9.18772,-0.94467,-11.8005,16.24879,7.13891,0.37259,-0.37647,-0.03209,0.76615,0.37971,0.14299,-19.12264,37.55478,16.15047,-49.18519,-37.23074,-19.16323,11.44903,8.5828,-4.04589,3.75951,3.07163,0.73187,2.13135,-0.99618,-0.91603,2.01387,2.09661,0.02138,0.18542,0.18695,-0.17674,0.25205,0.34726,-0.07464
930,-4.18706,3.78004,-0.9958,-1.1522,4.28552,-0.281,-5.64721,16.59548,-1.53226,-9.95517,15.29683,9.05095,0.45793,-0.28581,0.04156,1.06498,0.31217,0.10822,-9.20741,42.8567,18.25765,-45.83619,-13.49263,-18.76311,15.85423,7.92064,-11.76266,4.58652,4.87699,3.69809,-1.79471,1.13582,1.68243,-0.48824,0.34031,-0.43028,0.00417,0.33681,0.07583,0.10679,0.44069,-0.13301
931,-1.22551,3.51439,-0.90081,-0.55727,3.12458,0.04043,-3.97096,19.01946,-2.05595,-11.13251,7.24241,5.74115,0.58047,-0.27154,0.15762,1.49179,0.19563,0.14944,-16.79454,31.58864,12.26673,-28.9349,10.33548,-19.77862,17.91319,6.70723,-16.6662,6.64321,3.73469,4.41295,-3.84869,1.495,3.39255,-1.71216,-0.57292,-0.51738,-0.16724,0.18437,0.27718,-0.02884,0.35431,-0.12815
932,-0.30871,2.37179,-0.60778,-1.79908,1.93189,0.73438,-4.55474,18.14751,-2.71012,-16.74473,1.79638,4.20659,0.51671,-0.29977,0.17076,1.60652,0.09179,0.25602,-32.40595,23.95737,10.88867,-11.90115,8.65568,-18.95146,16.77799,6.34764,-15.97853,8.44104,1.73239,3.76626,-3.06511,0.08441,3.10987,-0.26882,-0.60951,0.06068,-0.18351,-0.11457,0.28238,0.08791,0.12319,-0.00685
933,-1.23461,1.19792,-0.33207,-2.12798,3.17461,0.63699,-3.5229,14.53637,-2.32254,-15.81518,9.10344,7.46968,0.37474,-0.38421,0.07633,1.37758,0.13924,0.40057,-31.74235,31.22751,17.12974,-7.74766,-13.29603,-14.05543,13.5667,6.7624,-11.18524,8.32227,1.56538,3.43773,-0.8398,-1.82819,1.30678,2.49957,-0.31123,0.87742,-0.01733,-0.38211,0.06492,0.42469,-0.0354,0.13727
934,-2.65621,0.67379,-0.19897,-0.41615,5.75122,-0.29264,-5.02147,8.74724,-0.91083,-5.95525,20.29669,10.28641,0.31878,-0.48602,-0.05207,1.07673,0.32752,0.52883,-20.28121,38.015,20.28727,-25.98597,-20.98333,-9.11246,11.05119,6.32612,-9.03248,6.18469,2.59406,3.21872,0.11481,-2.15604,0.00113,3.62458,-0.06141,1.0952,0.09424,-0.40148,-0.17865,0.60664,-0.04354,0.16662
935,-4.71468,0.94917,-0.21989,0.42377,5.72207,-0.54994,-13.68794,4.087,-0.01378,1.26614,18.80336,7.9457,0.33137,-0.53421,-0.13395,0.76593,0.44685,0.54246,-21.16498,27.93147,13.84389,-59.07723,4.66702,-14.38621,11.16835,4.47205,-15.33902,3.49599,1.87964,1.42401,-1.3318,0.09925,1.24768,2.33977,0.53434,0.48763,-0.04906,-0.03377,-0.15994,0.42843,0.04297,0.07754
936,-5.87652,1.66072,-0.32068,-1.11582,2.7715,0.2243,-19.71653,3.37365,-0.1079,0.2548,6.24607,2.89857,0.39089,-0.48684,-0.06819,0.29254,0.38695,0.3921,-28.17038,9.9438,4.85808,-73.21657,37.42554,-33.40866,12.31533,2.21369,-26.29084,1.09218,-1.00172,-1.7968,-2.97219,3.25238,3.87465,0.86085,1.61161,-0.13278,-0.23733,0.56733,0.0127,0.12188,0.16685,0.00521
937,-3.64007,1.24123,-0.18403,-2.90252,-0.23678,0.83008,-11.11154,0.48406,0.41394,-3.75128,-2.12902,0.39775,0.47114,-0.4092,0.07362,-0.34491,0.14148,0.09736,-20.14145,-3.72835,3.36725,-44.13949,37.3082,-51.24329,11.87043,0.93915,-31.71945,-0.71531,-2.6758,-3.09428,-2.47266,4.65154,4.25431,0.44857,1.83496,0.00122,-0.14634,1.07642,-0.1103,-0.08324,0.19768,0.05493
938,0.45526,-1.38484,0.37876,-4.40555,-2.15454,0.93804,5.81554,-11.19152,2.50774,-9.04055,-0.01267,2.42536,0.467,-0.40319,0.07454,-0.95859,-0.28404,-0.29177,-3.90586,-14.38109,11.64086,-1.70389,0.51314,-48.78898,10.09376,1.13606,-27.66534,-0.43397,-1.06407,-0.76271,-0.9227,3.19584,2.18197,-0.13799,0.59391,0.40029,0.10772,1.17968,-0.54101,-0.2604,0.06321,0.12533
939,2.11116,-4.24445,0.88555,-7.90735,-3.08845,1.45077,13.78167,-22.59346,3.95062,-20.04544,6.86563,7.15159,0.35243,-0.45131,-0.0881,-1.37665,-0.6704,-0.62549,-6.15495,-18.01751,22.58801,-3.54922,-37.33854,-29.94845,8.12152,1.04336,-22.02895,2.70408,1.16472,2.03079,-0.37436,1.07061,0.51417,-1.11304,-0.55215,0.28172,0.17612,0.86511,-0.88896,-0.43647,-0.14383,0.08714
940,0.20806,-4.45171,0.72826,-12.4845,-2.55715,2.43413,6.31318,-19.58831,2.04899,-32.13426,11.47913,10.80146,0.25035,-0.45734,-0.20711,-1.5203,-0.70416,-0.68472,-29.92225,-6.32199,24.52673,-58.35983,-43.65592,-21.96831,5.6989,-1.11304,-25.53343,6.15728,1.29831,2.31562,-0.5595,0.56828,-0.05735,0.06919,-0.48431,0.0434,0.00329,0.28145,-0.85373,-0.26583,-0.3065,0.02092
941,-2.29366,-1.48675,-0.05641,-13.07854,-0.64281,2.6761,-4.73014,-4.36004,-1.84862,-30.39025,10.81863,10.24128,0.21796,-0.30762,-0.12935,-1.29591,-0.39442,-0.41604,-42.65608,12.79155,14.48029,-106.68123,-20.69908,-40.80482,1.83346,-3.34335,-36.3151,6.12593,1.09956,1.35049,-0.51236,1.57378,-0.30957,3.65941,-0.26659,0.29955,-0.27907,-0.27526,-0.13252,0.31928,-0.33112,-0.0039
942,-3.35577,2.43211,-0.8236,-8.71317,1.02424,1.83796,-8.01638,7.5575,-3.4178,-13.05034,4.6778,5.0247,0.2064,-0.0555,0.05983,-0.71989,-0.12127,-0.04701,-26.3935,18.88923,2.13973,-87.55384,0.67597,-63.09019,-5.14352,-2.72429,-37.78594,2.51096,2.64924,1.33351,0.28135,4.79377,-1.75331,5.27679,-0.78915,0.56505,-0.27211,-0.14827,0.72952,0.69453,-0.17886,-0.04812
943,-3.26782,4.49495,-0.99142,-4.99576,0.18748,1.19295,-7.22488,7.96011,-1.3065,2.26059,-5.9022,-2.54857,0.29974,0.00589,0.1916,-0.10844,-0.26282,0.10561,-6.9942,4.15481,-4.86446,-11.90752,-10.1535,-53.34707,-13.46581,-0.60077,-20.8004,-0.03502,4.5074,2.28123,1.59444,9.22024,-6.88951,2.44435,-1.02448,0.23088,0.17009,0.44785,0.08109,0.46212,0.09595,-0.1453
944,-2.27748,3.06107,-0.47117,-5.24723,-2.49444,1.43923,-6.55313,-0.34238,1.68097,5.00445,-14.55016,-7.42173,0.51416,-0.25445,0.17856,0.2748,-0.64678,0.00433,-3.82513,-17.40946,-5.12585,50.34671,-45.49483,-17.327,-17.26911,-0.12411,-1.67199,2.8208,4.98074,4.33105,1.78308,10.509,-13.69819,-1.47532,-0.92397,-0.04541,0.48729,0.52671,-1.78617,0.04622,0.26874,-0.17999
945,-1.0317,-1.16156,0.39703,-7.22053,-3.01253,1.94933,-1.90562,-12.11835,3.54622,2.75806,-12.80599,-5.52325,0.59496,-0.58772,0.03017,0.35729,-0.66269,-0.06731,-0.79117,-27.56314,2.592,52.34449,-68.59083,8.58603,-14.84372,-2.86279,1.36197,9.08028,3.98942,7.25391,-0.57267,5.32457,-15.85181,-3.07865,-1.71282,0.44502,0.26125,-0.30178,-2.76709,-0.19377,0.14524,-0.0634
946,-0.12643,-4.54867,1.02173,-8.59784,-0.35963,2.25502,9.45679,-19.62369,4.92908,3.76982,-5.0373,-0.01596,0.47042,-0.69531,-0.09328,0.0749,-0.20073,0.06546,17.78883,-24.15306,13.92388,9.23168,-58.98869,11.12881,-10.38879,-7.00755,-6.12699,11.86181,1.62771,7.81515,-3.82922,-3.09223,-9.37426,-2.30362,-2.53561,1.07592,-0.3877,-1.1613,-1.66209,-0.31581,-0.1088,0.09301
947,0.1941,-4.69284,1.07037,-8.68871,2.84829,2.3129,20.30694,-19.94784,6.15227,6.07176,-1.3339,3.47446,0.3089,-0.56407,-0.08134,-0.36133,0.30238,0.28387,37.92867,-19.64499,20.81309,-26.77953,-33.78146,5.29352,-7.4501,-8.47722,-10.15964,8.69659,-1.30154,4.03346,-3.98314,-7.72415,1.95685,0.49597,-1.89249,0.96774,-0.7311,-0.94332,0.66635,-0.14999,-0.20256,0.14606
948,0.16884,-2.82575,0.70858,-6.60888,5.02135,1.81294,22.39417,-17.21916,6.06959,7.37449,0.52961,4.98082,0.26363,-0.3735,0.00467,-0.34705,0.49793,0.34532,43.50783,-16.73285,22.70324,-14.42889,-23.41194,3.17948,-8.02043,-5.84606,-8.91622,4.39814,-3.29334,-0.83942,-1.11224,-6.08548,7.72365,4.70951,-0.91315,0.38382,-0.24095,0.06631,1.96189,0.49487,-0.20576,0.08244
949,0.23512,-0.57424,0.16603,-2.46526,5.29832,0.64003,15.91597,-10.41196,3.87946,11.76663,5.04029,5.65355,0.39266,-0.26728,0.06984,0.37403,0.28062,0.13132,41.66128,-4.74281,20.59954,29.91334,-26.37037,8.48871,-12.54078,-1.75019,-6.63739,2.7973,-3.8264,-2.33545,-0.25464,-1.68282,2.95586,7.04779,-1.41069,0.2284,0.46404,0.63224,1.3432,1.06441,-0.35181,0.02949
950,-0.03236,1.20175,-0.3682,1.57897,2.5044,-0.53567,3.80828,2.10699,0.29522,21.79896,4.62623,2.76801,0.61367,-0.34466,0.05892,1.1583,-0.23477,-0.19779,39.90906,10.65761,9.17089,46.87466,-18.50411,24.04937,-17.59359,0.11972,-2.55017,2.87575,-3.38505,0.16825,-3.20722,1.01261,-5.47856,4.35223,-2.67604,0.80077,0.35882,0.11611,0.16259,0.77277,-0.54727,0.12863
951,-1.54908,1.55428,-0.6257,3.19179,-1.25286,-0.99254,-11.76005,10.93266,-3.03309,35.44213,-4.1137,-2.79781,0.71648,-0.59508,-0.0225,1.1656,-0.70376,-0.3727,35.13518,10.46026,-9.97494,11.72655,-6.16184,43.55694,-18.39941,-2.01099,6.29336,3.54517,-2.31072,3.58407,-6.32203,-0.12319,-7.91977,-0.90082,-2.71553,1.43549,-0.76539,-1.15061,-0.06156,-0.1225,-0.50316,0.30531
952,-4.11352,0.71573,-0.55293,2.90663,-1.02701,-0.95178,-24.31459,6.96222,-4.65416,52.20989,-10.09579,-4.99752,0.51638,-0.72689,-0.07481,0.50211,-0.6853,-0.26451,35.53656,-4.78693,-23.90794,-31.62572,-24.12357,53.67839,-14.55208,-6.61488,17.52438,4.60978,-0.60529,4.81344,-8.16774,-3.19849,-5.2615,-3.04055,-1.59957,1.39135,-2.24398,-2.45553,0.17221,-0.54263,-0.24485,0.3209
953,-6.80945,-0.33532,-0.33576,2.93536,3.18046,-1.01148,-29.00348,-5.21205,-4.44795,66.28998,-7.73517,-3.01773,0.12535,-0.56085,-0.05101,0.01116,-0.14766,0.01463,45.74664,-19.37817,-25.99526,-26.24524,-76.07469,49.73125,-10.63277,-7.42012,22.94755,4.50134,1.35325,3.69099,-9.26032,-2.17289,-7.67487,-0.62815,-1.42646,0.83138,-2.7058,-2.77898,-0.93332,-0.04501,-0.09866,0.09298
954,-9.00953,-0.93119,-0.23475,2.61219,6.45113,-0.98322,-29.95876,-12.09368,-4.00137,60.87114,-2.45808,-1.17577,-0.13209,-0.32839,-0.05265,0.02273,0.43605,0.234,41.51677,-20.36596,-20.7114,23.12661,-115.37128,41.54974,-9.21082,0.62081,19.86024,2.66356,2.01935,2.39177,-5.52292,4.24558,-14.52509,2.38416,-3.057,0.60557,-1.11403,-1.44709,-2.33891,0.71646,-0.25714,-0.14746
955,-9.67324,-0.49961,-0.37477,1.24554,6.75484,-0.69825,-31.14578,-6.41905,-4.36303,35.51104,3.18928,-0.42507,-0.06863,-0.26956,-0.09568,0.27863,0.67145,0.29248,11.98411,-3.69861,-13.40475,59.49982,-120.70006,45.47766,-6.46146,6.2094,18.80901,1.49736,-0.37702,2.57954,-0.77524,7.19484,-15.34736,2.89488,-5.21321,1.29127,0.45217,0.00935,-1.84541,1.0174,-0.70842,-0.07064
956,-7.43872,0.21832,-0.37478,0.29643,5.42743,-0.50334,-27.12891,2.27202,-3.73249,14.74856,7.68412,0.49486,0.27169,-0.38965,-0.03843,0.4701,0.49773,0.22183,-10.22325,13.25387,-6.34126,44.04999,-118.42058,66.91277,1.79477,-1.92552,30.4624,2.92325,-5.12404,3.59911,-1.45365,3.08783,-9.04541,1.37428,-5.74468,2.2947,0.37593,0.21793,-0.43596,0.65137,-1.11963,0.31831
957,-2.93795,0.10578,0.04312,0.84353,3.19292,-0.56383,-12.93314,0.07755,-0.52814,17.48295,4.0506,-0.04223,0.56774,-0.45197,0.14194,0.46734,0.04536,0.06566,6.19675,3.36827,-2.5566,-3.30713,-106.89373,86.71635,11.95049,-13.33921,46.13898,6.1482,-9.70876,3.28279,-3.4355,-1.75401,-2.29862,-1.13422,-2.4397,2.02275,-0.07037,-0.27611,0.20262,-0.2409,-0.75957,0.57786
958,1.16052,-0.84767,0.54336,2.52383,0.58897,-0.75304,5.62258,-12.62861,3.41311,37.03175,-9.35022,-3.34643,0.53782,-0.30032,0.25766,0.41207,-0.40153,-0.11876,50.31073,-31.40317,-3.68497,-19.3424,-67.83285,72.72395,16.42344,-11.6591,42.69756,8.46614,-12.86722,0.70707,-0.18357,-1.44354,-1.12377,-2.95163,3.19563,0.08959,0.5716,-0.24579,-0.22882,-1.03395,0.33932,0.4292
959,3.14837,-2.86282,0.91141,3.30978,-1.88552,-0.64161,19.88024,-25.76488,5.93526,50.59655,-23.94829,-7.39921,0.38114,-0.21406,0.15095,0.45977,-0.59053,-0.25957,86.1992,-62.14973,-5.02006,22.20782,-26.99393,24.5174,15.39411,1.15367,17.00997,7.66607,-14.22756,-2.39485,8.71614,3.28236,-4.83442,-3.00492,6.77814,-1.97227,2.24243,0.53783,-1.05636,-1.2831,1.19206,0.06102
960,2.92837,-5.12215,1.09575,0.69921,-3.64303,0.24905,24.45331,-31.88198,6.65576,40.80224,-29.06656,-8.80393,0.38477,-0.40208,-0.09485,0.4452,-0.51729,-0.28492,83.256,-67.99456,-0.35459,67.57346,-39.25339,-9.50173,13.27475,7.11262,-5.29263,5.18148,-13.19941,-3.57807,11.8059,5.86964,-10.88599,-1.8646,6.30654,-2.65917,2.33576,0.43468,-2.00308,-1.02697,1.20664,-0.20852
961,1.35848,-5.01263,0.85557,-3.86664,-3.29135,1.39395,17.81004,-28.81448,5.53061,15.39072,-21.32887,-6.31503,0.51152,-0.59369,-0.21743,0.25616,-0.3394,-0.15908,42.50549,-50.90468,8.08583,63.45945,-95.25105,0.48686,10.65055,-1.53091,-6.83838,4.02648,-9.67629,-1.80192,0.70414,2.83958,-11.80654,-0.61282,2.70657,-1.55757,-0.66282,0.0124,-2.01814,-0.48973,0.5736,-0.21704
962,0.20222,-2.33248,0.36608,-5.88131,-0.70518,1.69032,7.50941,-21.01966,3.66252,-1.64325,-8.49934,-2.13209,0.60076,-0.52577,-0.07536,0.12419,-0.1841,0.0386,2.15591,-28.76544,13.30181,34.39226,-126.61259,23.78656,9.47343,-12.74383,1.91808,4.25618,-5.10723,1.28789,-10.68959,-0.73941,-2.06274,0.19011,-1.40987,0.39611,-2.89241,0.53712,0.4791,0.03917,-0.14236,-0.03207
963,-0.17406,-0.10151,0.12629,-4.23879,1.88228,1.0763,2.33782,-16.0187,2.83825,-0.04675,-1.28613,0.88731,0.50751,-0.31562,0.14595,0.20727,-0.12323,0.1347,-6.93463,-18.20036,13.45331,24.19182,-116.38875,29.57632,10.55554,-14.87995,5.62943,4.02544,-2.23841,3.08721,-9.6798,-1.69932,5.52398,0.75584,-3.79143,1.77853,-2.08806,0.61355,2.63943,0.39514,-0.59008,0.16987
964,-0.8217,-0.21629,0.2169,-2.02041,2.66542,0.38128,1.54031,-15.75779,3.10416,9.48605,-1.42582,1.40309,0.29339,-0.25637,0.179,0.33775,-0.17551,0.05213,6.0021,-19.83136,10.66989,40.13562,-87.65912,15.23394,10.10455,-10.42661,0.54286,3.51972,-2.57904,3.52497,-3.02377,-1.32836,5.42197,0.78095,-4.42444,2.3546,-1.05308,0.17269,3.13763,0.47008,-0.82774,0.33286
965,-1.87746,-1.58309,0.37459,-1.32201,2.34492,-0.05099,-0.25414,-16.28436,3.38225,15.20339,-2.16125,-0.46222,0.25804,-0.46566,0.03062,0.31627,-0.22804,-0.07404,16.70268,-22.33252,6.06137,69.30716,-58.83253,-12.59703,5.74203,-5.80475,-12.64217,4.40813,-4.85698,4.00634,0.86964,-0.81504,0.52912,-0.14265,-4.37945,2.62872,-1.29791,0.01205,2.90214,0.20164,-0.9469,0.4653
966,-2.69232,-2.38715,0.45783,-1.57903,2.40801,-0.34628,-3.43256,-14.6587,3.66743,15.7874,0.18343,-3.40204,0.47543,-0.75392,-0.09824,0.20199,-0.13283,-0.0693,17.29256,-19.40015,1.33741,80.03671,-52.39521,-29.14149,-1.12108,-4.04857,-23.48324,6.73231,-7.32073,4.21764,-2.33363,-1.21976,-9.0114,-0.88534,-3.88855,2.35031,-2.5552,-0.23924,0.69847,-0.1887,-0.90724,0.48054
967,-3.23123,-2.19685,0.45635,-2.6477,3.46054,-0.26721,-6.10348,-12.63823,3.96653,11.44477,2.65462,-5.29486,0.64149,-0.84002,-0.11955,0.13959,0.12419,0.05902,7.62775,-16.94516,-0.46808,47.62455,-66.50789,-7.95501,-1.3387,-1.52084,-15.47922,8.402,-9.04143,2.83226,-2.87492,-0.7091,-12.83194,-0.03224,-2.3163,0.97286,-1.85315,-0.99776,-1.19906,-0.29835,-0.60433,0.28934
968,-3.97981,-1.50167,0.27896,-3.87708,4.86497,0.17874,-10.5126,-13.58767,2.6489,4.07208,2.60773,-4.02709,0.53482,-0.64842,-0.09439,0.2286,0.30896,0.12262,-11.57343,-22.55558,1.11603,8.77187,-87.18707,34.12709,9.02165,-6.21522,7.42547,7.50316,-8.76597,0.03518,-1.96428,-0.0262,-3.32196,1.59071,0.74313,-1.10242,0.92018,-0.26335,-0.74004,-0.05417,0.09554,-0.07225
969,-4.09639,-0.58047,-0.07127,-3.6414,4.90149,0.52813,-14.13178,-16.63278,-0.3596,0.34012,0.84138,0.79558,0.29586,-0.31994,-0.03998,0.42835,0.13735,-0.00131,-24.34187,-31.79111,5.34511,-1.87299,-110.03452,67.62448,20.78017,-24.42661,28.40267,4.74639,-6.10374,-1.9231,-11.08157,-2.39901,6.90541,1.80852,3.63142,-2.3632,2.05698,0.03287,-1.36424,0.15145,0.85181,-0.36741
970,-2.43937,0.13555,-0.30544,-3.20533,4.02529,0.74163,-8.45184,-17.98344,-1.87816,0.57892,1.54254,6.74938,0.17439,-0.0728,0.06547,0.44683,-0.14858,-0.13541,-15.12345,-30.84681,12.7778,-10.49697,-114.11904,85.92747,28.09992,-34.20073,40.59081,2.48926,-2.80649,-1.38113,-15.45017,-4.1045,11.44737,0.1089,3.88102,-1.80452,1.74238,-0.60527,-1.94488,-0.01795,0.99742,-0.35044
971,-0.99932,-0.24918,-0.21565,-4.16149,4.23099,0.88119,1.82889,-18.11385,-0.65333,0.91198,5.65047,8.98602,0.24378,-0.10626,0.124,0.20298,-0.10045,-0.05316,3.0104,-20.23608,18.01341,-32.66921,-105.43537,84.23343,27.15728,-23.18448,39.35938,1.98841,-1.08803,0.38437,-7.36885,-2.47894,9.64364,-1.01899,1.18765,-0.26042,1.34097,-0.10439,-1.1623,-0.24382,0.37374,-0.08401
972,-2.34697,-1.7107,0.03552,-4.17854,4.5076,0.61308,1.4882,-19.92947,0.53199,5.76224,6.81258,5.28589,0.39913,-0.40295,0.04204,0.04554,0.10986,0.14415,9.51311,-16.30012,12.57127,-29.07837,-97.27637,46.26154,14.43841,-5.97613,20.34072,2.89965,-1.63551,1.01884,0.90774,0.13506,4.50429,0.68943,-2.10462,0.59489,0.48541,0.34237,0.20856,-0.00617,-0.44108,0.09442
973,-4.5159,-3.09258,0.30428,-1.88478,3.44977,0.0101,-9.19254,-22.17443,-0.0154,17.70303,2.8991,0.46562,0.49799,-0.67675,-0.06983,0.14043,0.1317,0.23854,7.24561,-21.76719,1.24421,25.67996,-90.92848,-21.11072,-4.34632,0.42349,-11.71331,4.31835,-3.16358,0.554,-1.03497,0.516,-1.8151,3.15187,-3.41056,0.39715,-1.19338,-0.08067,0.74308,0.44357,-0.74762,0.03971
974,-3.94622,-3.01334,0.47492,0.13188,2.26023,-0.27501,-14.66898,-20.05769,-0.8528,27.8891,-1.86699,-0.67186,0.47193,-0.64679,-0.03201,0.32702,0.03899,0.20788,10.85434,-24.10911,-3.97807,83.7675,-89.65904,-66.15835,-15.10868,0.40421,-34.47752,5.22739,-3.69714,0.83803,-4.221,-0.29651,-7.4516,3.55961,-3.23665,0.46473,-2.15271,-0.27223,0.87297,0.63201,-0.64359,0.01727
975,-1.25167,-1.06817,0.31555,-0.21961,2.37521,-0.02886,-8.76253,-12.47621,-0.49013,27.86031,-3.834,0.96784,0.4006,-0.36677,0.13566,0.46058,0.00849,0.12757,20.21347,-17.33661,-0.46731,101.72898,-96.87799,-63.21747,-15.44647,1.44857,-35.58894,4.68047,-2.50065,1.93759,-3.8056,-0.52026,-10.64268,2.83357,-3.53366,1.39632,-2.0277,-0.27455,0.93209,0.66857,-0.6894,0.21713
976,0.03632,1.0979,-0.07044,-1.33004,3.31038,0.14637,-1.00507,-5.77237,0.881,22.48425,-2.4545,2.56209,0.41563,-0.1619,0.22658,0.53247,-0.00995,0.01965,25.41735,-8.83702,5.72626,91.57645,-99.48237,-40.48349,-11.85074,3.26756,-24.61749,3.15249,-0.80148,1.98205,-2.73888,-0.23092,-10.90938,3.28587,-4.05694,1.91888,-1.68797,-0.31576,0.61686,0.86262,-0.88054,0.39443
977,-0.93675,1.11495,-0.16056,-1.25703,3.55913,-0.07089,2.45767,-8.32269,2.64894,20.56645,-2.07395,1.7168,0.48703,-0.20545,0.13096,0.55681,-0.08907,-0.09397,26.39026,-13.30693,8.78307,67.58944,-89.47755,-14.29879,-4.77539,2.45877,-7.1548,2.1376,-0.35805,0.19744,-1.67753,-0.28275,-6.40885,4.65756,-2.91944,0.82221,-1.05487,-0.42118,0.29261,1.09939,-0.67436,0.21515
978,-1.69843,-1.38997,0.26261,-1.02456,2.72351,-0.18482,6.61098,-20.31912,4.27847,21.40794,-7.61614,-2.94962,0.43629,-0.38543,-0.06331,0.50106,-0.13833,-0.14281,30.47524,-36.4713,6.51821,32.65835,-79.10651,18.87983,6.54505,-4.33502,13.13962,1.90515,-1.5196,-1.68508,-2.99781,-1.44716,-0.21106,4.18478,0.13829,-1.05577,-0.28135,-0.55376,-0.03021,0.85058,0.10076,-0.19367
979,-1.10703,-3.86242,0.71566,-1.92327,1.80529,0.06519,11.68397,-30.49438,4.70097,20.17771,-15.14952,-9.01988,0.26687,-0.54338,-0.18703,0.35297,-0.0956,-0.09265,34.44643,-60.16753,0.16146,1.75936,-74.16318,47.78279,16.28306,-13.61939,26.34474,2.11893,-3.88262,-1.88068,-6.98204,-2.73355,3.54088,1.66634,2.57127,-1.90217,0.25802,-0.62645,-0.47549,0.11548,0.79154,-0.41145
980,-1.39591,-3.90044,0.70483,-2.82993,1.58394,0.20796,7.39987,-29.34227,3.31487,16.92866,-14.99318,-11.20091,0.24471,-0.65724,-0.15936,0.14455,-0.04907,-0.00574,24.49789,-60.42761,-5.78758,-1.5229,-71.33506,51.86815,17.83759,-16.35316,25.58401,2.98678,-6.84753,-0.95089,-8.63516,-2.46298,4.21652,0.71756,1.99916,-1.33107,0.39837,-0.32678,-0.61244,-0.29524,0.71601,-0.28085
981,-4.24986,-2.19069,0.29167,-2.35397,1.57136,-0.00082,-8.76154,-19.9008,0.68732,14.49021,-7.25891,-7.91769,0.40846,-0.73344,-0.10198,0.00012,-0.07933,0.02569,0.52035,-38.7257,-7.77151,27.35529,-71.10567,29.35892,12.28737,-12.60381,14.84899,3.49503,-7.98315,-0.11461,-7.41535,-1.06772,2.99752,1.98771,-0.68296,-0.26361,0.03816,0.09473,-0.53081,-0.10996,0.07111,-0.0298
982,-6.89486,-0.45437,-0.23597,-1.52184,1.19137,-0.07375,-21.14987,-10.63807,-1.88236,12.44735,-1.68951,-2.74696,0.4752,-0.65154,-0.10424,0.04581,-0.15113,-0.02141,-16.1597,-16.24319,-5.06789,60.41302,-71.89986,2.31059,6.7828,-8.92101,5.16689,2.07151,-5.29108,0.51991,-6.1881,-0.02786,1.75626,1.97255,-2.48601,0.5497,-0.44759,0.2099,-0.64396,0.03374,-0.37734,0.08028
983,-6.00245,0.16908,-0.47492,-1.78029,1.30794,0.25288,-16.76506,-8.11926,-2.82489,10.83853,-1.81356,1.20858,0.34302,-0.39943,-0.07633,0.23896,-0.13959,-0.06484,-8.66337,-8.14892,1.47142,65.74655,-71.04935,-10.29014,4.11235,-6.67121,1.49778,0.60111,-2.14637,0.66037,-5.56467,0.00203,0.4233,0.32961,-1.62463,0.52812,-0.87245,0.00374,-0.7027,-0.10689,-0.19126,0.01072
984,-2.84973,-0.37809,-0.19819,-2.12839,2.59885,0.47713,-4.24929,-11.4804,-1.96475,15.53608,-3.97413,2.81999,0.20903,-0.1647,0.06007,0.42885,0.02386,-0.02128,16.17721,-12.88914,5.17203,47.01051,-64.86468,-14.42988,0.8083,-3.40909,-1.74464,2.24379,-3.84491,-0.42584,-3.91078,-0.42396,-1.61703,0.51604,0.94581,-0.55642,-0.97518,-0.17266,-0.19198,-0.12229,0.36921,-0.11066
985,-1.31937,-1.12299,0.25204,-1.70773,3.52414,0.36375,-0.11273,-14.89533,-0.89422,25.09623,-6.01758,1.60224,0.20555,-0.10745,0.19061,0.43037,0.17773,0.05874,32.21521,-21.8055,0.02976,36.81349,-52.26363,-22.49418,-4.21865,1.19554,-8.26763,5.13463,-9.00036,-1.98808,0.26091,-0.18875,-2.94588,2.75562,2.55208,-1.63711,-0.14686,0.02905,1.1209,0.05076,0.65454,-0.12048
986,-2.4193,-2.19057,0.66434,-1.84874,2.80984,0.31923,-5.02983,-18.62127,-0.08346,26.04217,-5.71954,-0.41463,0.27644,-0.29198,0.13764,0.22919,0.10141,0.07487,22.20514,-29.5021,-5.08334,47.46999,-48.89276,-24.14028,-7.07855,2.88316,-9.1195,4.61164,-10.82131,-2.22258,1.66579,0.01271,-1.25625,3.9345,1.19295,-1.30554,0.082,0.36174,2.5391,0.20489,0.20791,0.01998
987,-4.16566,-3.57712,1.01182,-2.64097,1.04071,0.45547,-9.48924,-22.83565,0.95447,17.85334,-3.9857,-1.64105,0.35543,-0.61042,-0.04664,0.12267,-0.21105,0.01135,2.5007,-33.0672,-2.37651,56.87968,-62.39493,-6.2236,-4.60218,-1.4526,2.1247,0.79877,-6.50716,-0.95848,-4.52023,-1.18192,4.22905,2.9984,-1.72876,-0.041,-1.79722,0.43265,2.84967,0.40474,-0.51816,0.11289
988,-4.86569,-4.1524,1.12501,-2.88572,-0.742,0.54544,-10.72948,-23.24741,1.59599,14.38649,-7.326,-4.27877,0.4643,-0.8515,-0.15281,0.19737,-0.48036,-0.0806,-2.36033,-35.56376,-1.25502,46.93225,-75.99943,17.49615,1.30146,-7.38719,13.21971,-1.55421,-1.1559,0.20252,-11.76421,-3.18445,6.18215,1.58585,-2.90705,0.53166,-3.58796,-0.43138,1.43076,0.65072,-0.69988,-0.00194
989,-4.41331,-2.92281,0.70837,-2.32206,-1.3734,0.49247,-10.55908,-18.39291,0.43063,18.42422,-15.25917,-8.33761,0.51521,-0.78921,-0.11244,0.29798,-0.39022,-0.13418,6.44356,-38.87313,-8.60739,31.57016,-64.20721,17.66978,6.02452,-7.20282,8.92648,-0.23429,-1.16743,-0.25933,-8.1039,-2.16693,1.92777,1.93386,-1.6734,-0.06389,-1.5705,-0.84648,-0.95202,0.83162,-0.34003,-0.16794
990,-3.63078,-0.56548,-0.17091,-0.99856,-0.20109,0.24824,-8.19203,-12.26472,-2.39382,22.18497,-17.88732,-9.26483,0.37087,-0.40737,-0.03779,0.48059,-0.00749,-0.09574,16.64087,-36.33977,-15.23217,29.65737,-25.09553,-11.69665,6.44996,-2.38832,-6.62317,1.53535,-5.12228,-2.30078,3.58229,3.20128,0.20601,3.88893,0.34732,-1.09524,2.75101,1.03359,-2.61482,0.72053,0.12282,-0.19103
991,-3.37817,0.7257,-0.77946,0.80114,1.29722,-0.14386,-4.30805,-9.04812,-4.25501,23.84554,-13.66785,-7.28709,0.1812,-0.12286,-0.04908,0.74449,0.24386,0.0248,25.23024,-28.02674,-15.19144,34.10803,-8.44745,-36.14839,3.24968,-1.12019,-15.86521,0.49082,-5.86121,-3.52444,6.92053,3.21446,-4.78024,4.57185,1.24549,-1.27772,3.67284,0.73285,-3.30505,0.14051,0.35523,-0.03649
992,-3.76496,0.31976,-0.66005,1.53902,1.31824,-0.37832,-3.57424,-7.15585,-3.20937,23.19946,-9.89056,-6.98579,0.20523,-0.27429,-0.12757,0.7747,0.11797,0.12612,26.34212,-19.89197,-13.4389,32.84997,-29.63528,-31.2646,0.3754,-4.10536,-7.87484,-1.63375,-1.57758,-1.91452,-0.56644,-3.64728,-8.37399,2.63543,0.24315,-0.18097,0.54477,-1.66889,-1.91519,-0.48001,0.20703,0.17491
993,-3.68062,-0.2792,-0.18853,-0.3488,0.95536,-0.12939,-6.41083,-4.02729,-0.512,15.69082,-5.38291,-5.86399,0.41586,-0.60393,-0.14133,0.41411,-0.16896,0.11934,12.13011,-9.27924,-8.75047,30.23989,-43.63484,-12.27211,0.80364,-2.11153,6.09492,-1.13916,1.46144,0.76944,-2.38599,-4.00051,0.26584,0.09122,-1.09738,0.84287,-0.71537,-0.59674,1.53745,-0.52365,-0.06625,0.22197
994,-2.95228,-0.13524,0.11036,-3.38341,2.23265,0.4243,-9.17532,-2.44882,1.04282,6.25147,3.44928,0.50789,0.56555,-0.68513,-0.03537,0.04197,-0.26521,0.05102,-6.63045,2.12684,1.48353,23.40763,-53.10773,13.71085,0.79392,3.20207,14.0818,1.86449,-0.88921,1.54454,-1.68788,-2.30878,3.15811,-0.7909,-0.97721,0.60583,-0.77216,0.44916,3.05026,-0.03382,-0.11502,0.04032
995,-3.04595,0.43683,0.11816,-4.05534,4.12019,0.68763,-10.76832,-4.36041,0.5498,8.73148,8.47912,6.49567,0.52083,-0.49874,0.11051,0.13614,-0.13182,0.0203,-8.51092,1.78173,7.02147,14.35949,-59.63516,29.05103,-1.68903,5.07914,12.2868,4.16281,-4.71254,0.59725,-4.2817,-3.84769,-3.96892,-0.02841,-0.21352,-0.16515,-1.80702,-0.30228,1.04687,0.43669,-0.07221,-0.13994
996,-4.32052,0.78992,0.03585,-3.14174,4.42785,0.6715,-10.8422,-7.35879,-0.38421,17.46926,4.14378,5.33745,0.36849,-0.31028,0.18681,0.44577,0.00782,0.02638,1.47049,-10.70669,2.1947,18.58316,-52.22101,14.59842,-3.0327,4.62088,1.42482,4.45717,-5.21309,-0.40896,-1.64268,-2.34631,-8.88067,1.49974,-0.12317,-0.55478,-0.84589,-0.39207,-0.98556,0.59726,-0.1212,-0.16789
997,-5.57454,1.15551,-0.18172,-3.874,2.5703,0.86345,-9.28042,-7.65488,-1.03701,12.19956,-2.56716,0.00025,0.23166,-0.21046,0.15972,0.41958,-0.04336,-0.02791,-3.09182,-18.9408,-3.78973,35.62346,-47.74395,-10.37555,-2.08163,2.20558,-5.90351,3.14088,-2.64043,-1.1275,1.33094,0.33699,-7.10515,2.82791,-0.23139,-0.71553,0.51077,0.35503,-1.23547,0.45561,-0.06023,-0.16942
998,-5.47405,1.61235,-0.55103,-5.48598,0.14678,1.14664,-7.00063,-5.2016,-2.11458,-6.20256,-3.81193,-2.6279,0.18522,-0.16158,0.09024,0.12334,-0.21192,-0.12652,-22.78761,-13.55251,-3.02085,53.52707,-46.25609,-26.87766,-0.69672,-0.5006,-6.5745,0.35695,-0.14622,-1.44669,1.80095,0.80397,-3.75069,2.44879,-0.03797,-0.65324,0.85689,0.42956,-0.94961,0.01973,0.14122,-0.15441
999,-3.52192,1.25375,-0.62351,-6.14084,0.14141,1.20389,-3.98548,-3.89088,-2.84926,-17.07112,1.69001,-0.16077,0.31205,-0.2468,0.08966,-0.12889,-0.2175,-0.09776,-29.96653,-0.2989,3.24919,50.43636,-28.92978,-32.68122,-1.14906,-3.37114,-6.06908,-2.16798,0.03772,-1.00582,1.07262,1.54647,1.04173,0.00816,0.34303,-0.22274,0.48886,0.22559,-0.3645,-0.54777,0.24115,-0.02374
1000,-1.68326,0.30437,-0.27638,-5.97715,3.26209,1.06253,-2.743,-3.91097,-2.03376,-9.689,9.50767,4.16981,0.55384,-0.49407,0.16196,-0.21936,0.0184,0.10161,-15.13463,11.98811,8.70055,21.66598,-6.21282,-26.781,-3.0352,-6.90034,-6.20616,-1.51345,-1.74243,-0.07512,-1.15865,2.74932,5.99272,-2.32548,0.74911,0.1936,-0.26981,0.14664,0.39717,-0.84048,0.14859,0.15743
1001,-2.75438,0.2671,-0.10391,-5.1745,5.6772,0.90954,-7.61426,-1.52689,-0.99168,4.70909,11.89737,5.87309,0.61444,-0.6742,0.13813,-0.06607,0.2138,0.24108,-2.26622,16.26288,7.3319,-4.09244,-4.64324,-7.88895,-3.35668,-8.48755,-3.78054,2.38434,-3.63143,0.59685,-4.41339,1.82539,7.596,-2.24503,0.96589,0.14238,-1.05118,-0.11622,0.8289,-0.54241,-0.00499,0.1997
1002,-5.69551,1.19502,-0.42759,-3.27294,3.82793,0.81073,-16.24026,2.44931,-1.97103,11.60554,5.16455,4.19614,0.35114,-0.56585,-0.0653,0.34582,0.12719,0.13395,-8.50335,8.51969,-0.5801,-2.61876,-29.05155,17.59689,-0.45055,-5.67453,2.59507,5.90822,-4.16518,0.61695,-6.88247,-1.26116,5.9692,0.06187,0.70274,-0.22467,-1.47618,-0.52801,0.83919,0.1738,-0.08247,0.05019
1003,-6.74651,1.3087,-0.69977,-0.60973,0.20467,0.60795,-20.3551,1.67883,-4.2051,11.53476,-4.06961,2.03732,0.05987,-0.3078,-0.27351,0.76051,-0.07552,-0.06999,-19.22547,-6.88057,-7.31751,18.83977,-58.44123,33.90181,3.77155,-0.84813,8.20393,6.24487,-3.1031,0.56382,-7.06235,-4.03423,3.46154,1.9984,-0.11486,-0.28538,-1.34149,-0.74025,0.6364,0.60916,-0.07789,-0.09634
1004,-5.27454,-0.39828,-0.24988,1.23585,-0.2738,0.19674,-16.24629,-6.65702,-4.25652,13.93755,-6.70345,0.88326,0.06441,-0.22458,-0.29225,0.85512,-0.09554,-0.11816,-11.89953,-19.46004,-6.63242,43.62256,-64.97887,25.27684,5.4242,0.5418,5.90237,4.07028,-1.71974,0.90352,-3.80629,-4.86288,0.05582,1.75363,-1.02957,0.15615,-0.58743,-0.64425,0.15471,0.31846,-0.08421,-0.06441
1005,-4.0829,-1.91117,0.55246,1.39921,1.64011,-0.26597,-10.15764,-13.39075,-0.96741,22.90437,-4.39623,-1.68065,0.30648,-0.35735,-0.12987,0.63653,-0.01783,-0.01422,12.5185,-20.62607,-3.54953,57.96025,-38.91359,-4.26216,3.67412,-4.03876,-3.91382,1.34088,-1.77054,0.64597,1.58245,-4.42575,-4.25731,0.65493,-1.25989,0.46441,0.46825,-0.47001,-0.56588,-0.24804,-0.13281,0.0599
1006,-4.64479,-1.25417,0.88692,1.14596,1.59561,-0.6486,-10.49521,-10.0486,2.83977,32.77599,-3.68237,-6.0768,0.52485,-0.50936,0.047,0.42489,-0.14657,0.03926,29.91785,-11.72812,-4.56075,50.46801,-3.03066,-28.90553,1.87834,-11.00335,-12.03537,-0.29071,-3.13222,-0.56265,4.65478,-3.91156,-6.2712,0.70348,-0.88234,0.25418,1.04269,-0.40143,-0.94861,-0.3946,-0.18583,0.10186
1007,-5.27613,-0.08338,0.80943,0.78329,0.61123,-0.70873,-15.35885,-3.35948,4.35162,33.82763,-0.38441,-5.9624,0.56895,-0.57964,0.09178,0.33619,-0.348,0.01166,24.44621,1.83352,-2.82665,35.80008,11.54285,-30.50649,2.40785,-14.65923,-12.44749,0.40548,-3.68654,-0.92998,3.26191,-3.22831,-4.10569,1.58507,-0.80819,0.07052,0.76297,-0.37643,-0.68512,-0.08985,-0.20341,0.05134
1008,-3.75373,0.15426,0.5942,-0.26846,1.99156,-0.31525,-14.28151,-1.38929,3.51353,27.29825,9.65132,1.90301,0.50106,-0.53376,0.07522,0.25739,-0.34093,-0.01385,13.30057,16.62906,7.97977,41.40973,2.47137,-13.7753,4.19168,-12.90525,-7.94211,2.81538,-2.30302,0.76267,0.19545,-2.13933,-0.69394,1.72455,-1.36381,0.48513,0.17128,-0.30353,-0.22529,0.20201,-0.17168,0.03923
1009,-1.21885,0.47662,0.12526,0.31399,5.07814,-0.20122,-5.56027,-2.96012,1.24369,27.77821,19.4054,10.60995,0.42937,-0.38003,0.12168,0.31916,-0.12271,-0.02332,22.0458,25.74675,17.95075,52.84253,-11.36103,7.68974,5.97046,-7.85608,-3.23018,4.77528,-0.86923,2.81462,-1.78228,-0.99135,1.24453,0.98464,-1.87294,1.10843,-0.23158,-0.13367,0.09667,0.24523,-0.12241,0.09568
1010,-1.0404,1.2187,-0.52039,3.64259,7.19611,-0.77804,0.31306,-4.36831,-2.11847,41.00542,19.7324,11.66415,0.3425,-0.24241,0.14872,0.58733,0.21664,0.01711,45.89753,21.50366,12.99512,34.50078,-20.26977,20.00125,7.76257,-3.29592,-0.2379,5.54484,-1.80873,2.921,-2.69403,-0.36075,1.97959,0.47325,-1.52871,1.05636,-0.52294,0.00227,0.37357,0.16242,-0.07811,0.10913
1011,-3.10849,1.32289,-0.93884,6.84556,6.26762,-1.40366,-1.15864,-4.39674,-5.16803,55.86385,8.74496,4.33585,0.23733,-0.23864,0.03018,0.82195,0.44901,0.07813,63.44738,5.24602,-5.13048,-4.986,-26.24187,13.84424,8.91911,-1.40916,0.66129,5.86617,-3.94012,1.62506,-2.61535,-0.58538,1.85294,0.62617,-0.68245,0.43919,-0.68666,-0.08147,0.52217,0.11228,-0.05006,0.0553
1012,-3.97062,0.63872,-0.89336,7.59017,3.33764,-1.59053,-2.51766,-4.31844,-5.36469,60.04245,-3.24739,-3.95162,0.23671,-0.34249,-0.1408,0.95669,0.33884,0.05704,66.58007,-9.45016,-18.36061,-29.20072,-29.21209,-5.02275,9.00322,-1.80174,-0.08395,5.16673,-3.86619,0.72515,-1.08498,-1.6705,0.71561,0.93013,-0.17735,0.09462,-0.49133,-0.32407,0.32744,0.07647,-0.0029,0.02063
1013,-2.78591,0.01726,-0.48439,5.71487,1.44873,-1.355,0.61554,-5.74139,-2.23463,50.49059,-5.10373,-6.41628,0.39526,-0.46436,-0.1833,1.04186,-0.02526,-0.07235,57.30177,-12.18192,-14.91892,-22.41074,-26.40033,-19.79215,9.12869,-3.42994,-1.35785,2.96669,-1.32964,0.70512,1.28495,-3.16759,-0.75806,0.90739,-0.32292,0.31215,0.01559,-0.50092,-0.0926,-0.026,0.02316,0.05901
1014,-2.03694,0.06654,-0.04151,2.53498,1.42279,-0.90328,2.90511,-6.04937,1.5386,36.16623,0.2886,-4.21405,0.5578,-0.55199,-0.08291,0.92576,-0.31286,-0.21679,43.07368,-4.55314,-3.72365,9.67194,-24.42605,-19.50079,9.52994,-5.39206,-2.14086,1.69195,0.61552,1.31146,3.01786,-4.24158,-1.55583,0.79119,-1.07803,0.77585,0.44973,-0.50168,-0.39574,-0.04582,-0.13306,0.15488
1015,-2.83443,0.8124,0.09964,0.81239,2.08152,-0.64796,-0.60913,-1.25587,3.02248,31.0801,3.86319,-2.23672,0.58507,-0.56266,0.04349,0.61928,-0.3154,-0.25989,36.08656,7.92335,0.31693,45.57792,-37.92276,-7.7414,8.56816,-6.16762,-1.62931,2.93582,0.01833,1.65454,2.83083,-4.4167,-1.18303,1.42883,-1.75827,0.92786,0.43547,-0.42348,-0.37565,0.24053,-0.40166,0.21705
1016,-3.09757,0.79383,0.11406,1.98492,2.58434,-0.78543,-5.03442,2.02301,1.87855,35.55447,4.40115,-1.29026,0.51733,-0.47137,0.10324,0.40923,-0.11754,-0.20133,38.99098,14.28297,-2.62523,54.73394,-63.00574,3.25529,6.42908,-4.8991,0.20028,3.91531,-1.89932,0.74924,0.53084,-3.89719,0.18865,2.68833,-1.59303,0.5176,-0.02299,-0.39338,-0.08481,0.62127,-0.47647,0.15703
1017,-1.31935,-0.84608,0.26616,3.50414,2.82722,-0.84736,-2.19132,-4.64625,-0.11056,34.71079,6.71671,1.44894,0.41365,-0.30823,0.0857,0.40792,0.05943,-0.11818,40.3273,7.30756,-0.96047,34.20977,-70.7664,5.05914,6.24627,-3.17365,1.60098,2.66842,-3.30204,-0.72895,-1.82592,-2.94353,1.37652,3.23414,-0.85962,-0.07046,-0.39249,-0.37905,0.16177,0.68807,-0.27408,-0.0001
1018,0.118,-1.98362,0.29378,1.36815,3.06606,-0.19746,4.84532,-13.44094,-1.01737,20.87932,11.73057,5.86941,0.29509,-0.2121,0.01621,0.40181,0.09553,-0.02266,29.47833,-1.16579,8.13798,16.23725,-44.24388,0.17075,8.47777,-2.8569,0.53315,2.30961,-4.13121,-1.00369,-1.21654,-1.36526,0.88912,2.44909,-0.29491,-0.35769,-0.15083,-0.25955,0.07075,0.46412,0.00454,-0.15193
1019,-1.12817,-0.85129,0.02563,-3.94299,3.35577,0.93732,6.33723,-11.68971,-0.36471,6.49713,13.39347,7.199,0.27653,-0.2996,-0.0388,0.24324,0.05691,0.11751,13.85126,1.15067,13.61438,19.54691,-6.90436,-4.0605,9.66537,-3.53139,-1.94372,5.36318,-4.87032,0.05043,2.03173,0.10282,-0.72224,1.61324,0.05086,-0.34253,0.44508,-0.16056,-0.18056,0.31803,0.1793,-0.19507
1020,-3.34596,0.67915,-0.15648,-6.73745,3.26457,1.48544,1.63615,-2.69276,0.44268,7.7358,7.11543,2.77889,0.3993,-0.4652,-0.0267,0.08907,0.06272,0.25322,11.9122,5.11585,7.0888,27.78567,3.69106,-5.17113,9.26105,-3.31422,-3.09978,8.70332,-4.84662,0.72477,4.30696,0.49137,-1.67611,2.21697,0.44581,-0.26535,0.77273,-0.22071,-0.30075,0.38899,0.1988,-0.09606
1021,-3.70468,0.5699,-0.08759,-4.22248,2.45562,1.0606,-0.7397,2.87777,-0.01161,18.58561,-2.36713,-2.77647,0.47446,-0.48909,0.01165,0.06393,0.12436,0.28317,23.56323,-0.09209,-3.7385,24.6184,-18.68543,-2.82897,11.09874,-1.35248,-2.26513,8.25029,-3.43086,0.36234,4.12715,-0.2441,-1.74766,3.42891,0.51191,-0.10773,0.78929,-0.37091,-0.4205,0.43523,0.06146,0.05871
1022,-2.03735,0.08392,-0.11707,-0.46938,1.1961,0.40819,2.92912,4.66143,-1.01944,19.09024,-5.86902,-3.22585,0.39063,-0.31764,0.03159,0.10176,0.15462,0.18332,28.31251,-3.63369,-5.36458,14.71863,-46.06598,3.13128,14.96186,1.00041,-0.77504,4.89376,-1.45537,0.11489,3.06321,-1.2895,-1.60031,3.59448,-0.31429,0.27002,0.72769,-0.45951,-0.58911,0.34268,-0.18557,0.15496
1023,-0.7766,0.8094,-0.29924,0.58851,0.34894,0.04749,5.15274,6.31406,-0.66947,7.61163,-0.46665,0.62602,0.30652,-0.17321,0.0287,0.2726,0.07753,0.00236,16.33959,5.93598,2.7932,8.17225,-51.64902,7.54517,14.93278,1.33573,-0.45563,2.22402,-0.30186,0.64374,2.72901,-1.44966,-1.59288,2.42078,-1.37901,0.64738,0.62364,-0.39947,-0.59294,0.18204,-0.33253,0.14112
1024,-1.47009,1.60617,-0.24518,0.14726,0.27902,-0.25975,0.96144,4.05567,1.33396,0.82464,6.55126,2.41455,0.39038,-0.2869,0.0004,0.73433,-0.09054,-0.21535,1.78185,13.37492,9.1054,7.68045,-35.35804,6.47719,9.15782,-0.12365,-1.06062,1.39893,-0.59626,1.21354,2.92182,-0.83995,-1.42485,0.66239,-1.4731,0.72319,0.48797,-0.20152,-0.40278,-0.03857,-0.1999,0.06151
1025,-2.69483,0.95285,0.09336,-0.60582,0.88381,-0.3801,-1.52677,-4.81584,3.04019,5.34129,7.78647,0.38297,0.52989,-0.53967,-0.03602,1.06112,-0.16936,-0.34172,3.68603,1.90052,7.63055,12.03975,-14.96414,3.61439,3.81486,-1.0042,-0.65234,1.64566,-1.73661,1.39595,2.88036,-0.81827,-0.69858,-0.55869,-0.83077,0.67381,0.43331,0.03412,-0.22302,-0.21391,0.03644,0.02664
1026,-2.64479,-0.1574,0.25444,-2.48245,1.55375,0.08835,3.45569,-10.91937,2.63673,13.68228,2.82314,-2.07391,0.48174,-0.58976,-0.03678,0.60971,-0.07457,-0.25325,22.871,-15.49019,1.10883,18.377,-3.06438,0.94716,5.30543,-1.69801,0.74655,2.56409,-2.60934,1.57554,2.61336,-1.63538,0.19132,-0.649,-0.60145,0.75179,0.51147,0.16162,-0.17512,-0.19488,0.0671,0.0817
1027,-1.79867,-0.51463,0.13709,-4.19907,1.0583,0.64698,6.54505,-6.17317,0.77028,17.78868,-4.06395,-3.23986,0.3122,-0.41478,-0.00093,-0.20314,-0.02296,-0.10973,35.22636,-18.08912,-6.45717,22.91036,-2.68522,-5.09247,11.3321,-3.96744,1.15178,3.53634,-2.64285,1.3711,1.98191,-1.89893,0.52814,0.66325,-0.77802,0.7188,0.50975,0.14732,-0.17222,0.09314,-0.07598,0.12899
1028,-1.74952,-0.15941,0.03043,-4.4427,-0.46854,0.65744,0.06823,3.34706,-0.58988,13.20477,-6.84694,-2.94142,0.31152,-0.27499,0.04118,-0.39387,-0.16777,-0.17501,19.6208,-6.88339,-9.41387,24.25387,-14.51305,-11.5167,13.27986,-5.88553,0.02192,3.6629,-2.06962,0.0614,0.86674,-0.93663,0.22674,2.79539,-0.27882,0.21924,0.23927,0.02723,-0.08386,0.47315,-0.07095,0.04935
1029,-2.82369,0.23445,0.02176,-3.99387,-0.28685,0.35671,-7.6964,5.54545,-0.87076,5.04566,-0.89503,-0.38125,0.43615,-0.26358,0.03163,0.07162,-0.23695,-0.3381,-5.42093,3.55684,-3.85605,20.49074,-31.24286,-9.05512,7.69561,-4.29233,-1.05897,3.51995,-1.62826,-1.16922,-0.2518,0.26828,-0.17009,3.6084,0.76149,-0.39871,-0.14103,-0.13949,0.08217,0.52077,0.11422,-0.08776
1030,-3.65037,-0.09209,0.00851,-4.40362,2.33226,0.33355,-6.46397,-1.89994,-0.97694,-0.06023,9.76845,3.21513,0.41935,-0.30306,-0.06417,0.35443,-0.01846,-0.29336,-11.20689,6.05202,5.6771,13.25481,-38.08108,0.41731,0.63544,-0.65595,-1.18041,4.45292,-1.49745,-0.5405,-0.4835,0.66017,-0.4213,2.21399,1.03482,-0.47805,-0.28796,-0.27539,0.1531,0.20099,0.20357,-0.12216
1031,-2.99247,-0.75864,-0.058,-5.45761,4.16992,0.54611,0.18171,-8.88304,-1.31507,-1.96113,15.20435,4.40155,0.33043,-0.3649,-0.14362,0.14566,0.22916,-0.05221,-1.55878,5.89275,10.23329,13.65226,-32.9999,4.89309,-1.1153,0.81031,-1.18346,5.59208,-0.78856,1.37396,1.00314,0.05869,-0.81987,0.48866,0.23153,0.0075,0.00269,-0.34827,-0.0173,-0.05108,0.11173,-0.04448
1032,-1.30057,-0.41648,-0.17219,-5.08351,3.48955,0.55565,3.12154,-7.34128,-1.27791,0.17842,12.15088,2.32577,0.38912,-0.40388,-0.06893,-0.09245,0.25385,0.13901,7.13332,7.84729,6.92319,24.63061,-28.74407,1.48169,1.84768,-0.60362,-1.47169,4.92781,0.7058,2.28449,3.6858,-1.1242,-1.30139,0.38952,-0.47574,0.4623,0.56077,-0.36378,-0.30121,0.00411,0.03449,0.02433
1033,-0.21583,0.88626,-0.25494,-2.64094,1.82914,0.3409,1.20146,-1.38989,-0.53921,6.98486,4.75555,-0.28454,0.50123,-0.38172,0.10364,-0.03444,0.10713,0.15383,12.27574,5.2893,0.59845,28.932,-27.0642,-1.2589,4.31839,-1.61352,-0.80609,2.76933,1.59059,1.16398,5.24593,-2.39378,-1.07825,1.5362,0.01161,0.38719,0.86448,-0.33438,-0.36707,0.1737,0.11647,0.01674
1034,-0.59642,1.647,-0.22254,-0.11017,1.18622,0.28278,-0.63266,1.62719,0.3288,13.59729,-0.6871,-0.27666,0.46923,-0.38385,0.18699,0.17885,-0.02056,0.10122,17.33578,-4.2921,-2.15492,15.41145,-16.82034,1.35873,3.63151,-0.2271,1.02128,1.58497,0.913,-0.31222,3.99878,-2.70868,-0.0334,2.21282,0.95908,0.07419,0.54763,-0.17193,-0.13191,0.23711,0.19879,0.01611
1035,-1.5518,1.17921,-0.10279,-0.33577,2.11955,0.60885,1.46369,1.17719,0.82905,12.62762,1.50093,3.20586,0.35249,-0.46299,0.11838,0.30721,-0.00028,0.13721,19.97599,-6.88931,2.67116,-0.76565,-1.8638,5.34221,1.66495,1.44697,1.70039,2.88862,-0.85271,-0.34089,1.38485,-1.06675,0.62625,1.85126,0.93937,-0.01073,-0.05623,0.20104,0.10953,0.23891,0.077,0.06946
1036,-1.54138,0.04363,0.05552,-2.54954,3.06474,0.90614,7.98948,-0.64112,1.18069,5.205,8.63498,6.29389,0.34172,-0.5192,0.00844,0.41825,0.11561,0.23283,19.65045,2.81458,11.32436,-1.06794,-3.01257,7.53586,0.90641,0.88307,0.35972,5.09895,-2.80834,0.35245,0.45434,0.88342,0.33026,1.21205,0.07077,-0.05134,-0.22854,0.44877,0.14355,0.26593,-0.15221,0.06504
1037,-0.88605,-1.04392,0.23267,-2.14039,2.57455,0.6021,13.50042,-3.72172,1.40401,4.03984,10.6618,4.21954,0.42655,-0.467,-0.04898,0.65574,0.25758,0.28567,22.82506,8.47585,13.21587,10.21526,-24.72539,7.40719,1.31839,-0.7004,-0.95183,5.3871,-3.56904,0.51008,1.68782,0.96201,-0.22232,0.87929,-0.62332,-0.17449,0.14674,0.28982,0.03562,0.25479,-0.24808,-0.03185
1038,-1.03122,-1.38293,0.31125,0.29103,2.083,0.15256,11.13045,-5.67687,1.05742,10.48274,6.20609,-0.10131,0.48537,-0.37737,-0.04774,0.62687,0.45055,0.30329,25.44285,3.3062,6.81116,12.63289,-44.67491,3.55718,1.94028,-0.46823,-0.71227,3.86016,-2.06751,0.41887,2.12041,0.09538,-0.39106,1.14089,-0.55007,-0.08558,0.40454,0.02265,-0.06216,0.25097,-0.12398,-0.07534
1039,-1.91204,-0.12958,0.08029,0.80235,3.25046,0.1622,2.21087,-1.60531,0.15925,13.33459,4.39525,-0.30073,0.50028,-0.31918,0.00359,0.13115,0.57769,0.29621,19.01866,2.49431,1.68764,-1.80711,-45.97715,-2.30874,2.50599,1.38044,0.27223,2.59984,0.66985,0.75066,0.01358,0.10129,-0.24448,1.84485,-0.02445,0.3223,0.11308,-0.00717,-0.08817,0.34224,0.08176,0.0169
1040,-2.76581,2.07507,-0.38587,-0.3998,5.23,0.3494,-6.83098,6.46685,-0.90925,10.49717,10.09323,3.35506,0.48451,-0.27102,0.05605,-0.27956,0.50013,0.26732,7.56563,14.27545,2.06282,-14.40424,-37.72928,-4.73129,2.7733,2.30358,0.77071,1.39413,2.37379,1.08202,-2.07726,0.47658,-0.08782,1.86351,0.22515,0.64747,-0.3324,0.12019,-0.08019,0.30326,0.18637,0.10279
1041,-3.50566,2.72954,-0.60152,-1.09897,5.48478,0.28208,-13.07903,8.40365,-1.93865,9.80682,14.59635,3.98977,0.46809,-0.28508,0.03864,-0.1196,0.27716,0.22386,-0.21295,20.38614,0.32208,-6.13968,-31.33259,-1.88644,2.94564,1.4207,0.84238,-1.04895,2.01947,0.55895,-1.47338,-0.0807,0.05897,0.18369,0.11357,0.3691,-0.42149,0.16483,-0.05631,-0.11286,0.16467,0.01463
1042,-3.49144,1.02996,-0.34431,-1.49152,3.08289,0.07735,-13.29694,1.00265,-2.29534,14.51357,9.04349,-1.27065,0.50086,-0.41499,-0.01823,0.30374,0.05236,0.14132,2.78297,6.59283,-7.07003,11.55249,-21.74506,1.78757,3.873,0.086,0.8609,-2.7421,0.25469,-0.45208,0.37439,-0.9111,0.26236,-2.01808,0.08034,-0.35106,-0.22985,0.10544,0.01236,-0.60664,0.08961,-0.16311
1043,-2.26547,-0.53124,-0.02481,-3.13247,-0.03249,0.10706,-5.24574,-5.35856,-1.26679,17.81438,-0.75936,-6.15039,0.51038,-0.53349,-0.03583,0.36132,-0.08274,-0.00182,14.99739,-9.63291,-10.87467,14.26899,-8.59405,2.41607,4.48834,-0.32582,0.8379,-0.14777,-1.64161,-0.76768,0.68372,-0.85477,0.49506,-1.91013,0.45872,-0.73507,-0.10445,-0.00672,0.12611,-0.56913,0.06001,-0.20577
1044,-1.58182,-0.03601,0.00378,-4.03795,-1.50571,0.24209,2.15941,-2.65683,0.43124,15.78024,-3.73123,-4.79492,0.37847,-0.50225,-0.03177,0.20615,-0.09222,-0.15883,22.08632,-8.26281,-5.54578,2.63428,-7.34991,1.75538,2.51661,0.22092,0.82316,5.34844,-2.44192,-0.00787,-0.25755,-0.38617,0.63422,0.77418,0.93848,-0.38813,-0.07032,-0.17645,0.21642,-0.01331,0.10979,-0.07801
1045,-2.55308,1.11001,-0.05664,-0.44552,-1.16029,-0.04565,1.00391,3.20028,1.43073,17.29052,-0.25216,-0.56177,0.18175,-0.36323,-0.0481,0.48065,-0.05676,-0.25751,23.15798,2.26408,1.01635,-2.01123,-20.96,2.01752,-0.42392,0.64017,0.62696,7.8653,-1.93051,0.84006,-0.74145,-0.08181,0.50968,2.94747,0.91396,0.22242,-0.00785,-0.23814,0.19066,0.40197,0.15221,0.04658
1046,-3.18995,0.70635,0.13583,6.22937,-0.36928,-0.75219,-1.40433,3.51764,1.78869,30.48719,1.26242,-0.15777,0.14961,-0.27378,-0.05188,1.10568,-0.10581,-0.2712,37.10541,4.57998,1.02275,6.41054,-28.24747,1.40987,0.70419,-0.04443,-0.10442,5.61772,-1.14492,0.70581,-0.86522,0.50545,0.15501,2.55763,0.59486,0.28827,-0.02788,-0.00743,0.06162,0.32652,0.14983,0.01607
1047,-1.96972,-0.74884,0.47515,10.21108,0.5051,-1.20851,1.99317,0.30698,2.3263,46.99524,0.64451,-3.17025,0.36908,-0.30558,-0.00391,1.41616,-0.18062,-0.17135,62.93941,2.83238,-2.14491,11.94378,-14.80247,-1.50653,6.61317,-1.50757,-1.10321,3.38822,-1.05766,-0.08758,-1.22624,1.32952,-0.14783,0.87619,0.74511,-0.36634,-0.15955,0.32883,-0.05491,0.07401,0.18699,-0.13641
1048,-0.81779,-1.25113,0.55482,9.2321,1.31528,-1.10695,3.59397,-0.29086,2.41339,51.78021,3.6358,-4.24975,0.59412,-0.35147,0.02889,1.25967,-0.17968,-0.01333,71.64233,8.68264,-3.02613,3.88574,5.65612,-4.64078,11.52711,-2.57397,-1.68667,4.47799,-1.54218,-0.46442,-1.87924,1.74671,-0.19834,0.14945,1.33728,-0.97712,-0.2355,0.41988,-0.08171,0.03793,0.26707,-0.22598
1049,-1.4735,-0.69251,0.23863,6.83108,1.41967,-0.86905,-3.49818,-0.00754,0.68389,42.38275,9.45395,-1.90695,0.57631,-0.35049,-0.03696,1.12677,-0.13482,0.04685,50.31732,15.37374,-3.06798,-5.72361,10.04593,-6.11109,10.27396,-2.26636,-1.43511,5.64654,-1.77273,-0.32239,-2.85801,1.57186,-0.05364,0.90089,1.52368,-0.77667,-0.27518,0.24584,-0.04854,0.17753,0.25571,-0.13999
1050,-2.75538,-0.18142,-0.26386,6.03494,1.05606,-0.77631,-12.65108,-2.84529,-2.53039,28.96995,11.27828,0.49468,0.3971,-0.37721,-0.14017,1.20247,-0.05391,0.00304,20.09163,9.11203,-5.95052,0.82991,-3.53686,-5.88912,3.47468,-0.2502,-0.46365,2.89702,-1.34703,-0.27435,-2.97617,0.89268,0.00666,1.77728,0.75825,0.08163,-0.38321,0.08339,-0.03925,0.17841,0.06187,0.03576
1051,-3.18756,0.40326,-0.69691,5.50281,1.12258,-0.51725,-13.49217,-4.76865,-5.00465,21.57552,5.84419,0.41429,0.22799,-0.40022,-0.15912,1.02898,0.13388,0.03834,8.80413,-4.98574,-9.89048,18.35972,-17.34805,-2.34518,-3.30853,2.18663,0.61279,-1.25024,-0.71387,-0.17438,-0.71878,-0.29204,-0.18335,1.20465,-0.49702,0.693,-0.39769,0.02721,-0.07659,-0.0975,-0.21437,0.13261
1052,-2.86794,1.47178,-0.81694,4.46855,1.51056,-0.11676,-3.67582,-0.40241,-4.46613,25.08981,-1.59749,-1.59868,0.16601,-0.35247,-0.08154,0.52133,0.31729,0.1954,27.0555,-9.02318,-9.78486,23.17705,-21.07056,5.50748,-3.67114,2.54832,1.12222,-1.09936,-0.54947,0.55722,2.49523,-1.61767,-0.33214,-0.51065,-1.23488,0.52598,-0.14095,-0.06623,-0.09406,-0.38742,-0.35234,0.08884
1053,-2.10904,2.00509,-0.43036,5.21465,1.7951,-0.2491,9.2109,5.48704,-0.75689,37.5109,-0.67198,-3.36435,0.32899,-0.34541,0.03089,0.41347,0.24019,0.25209,60.44202,3.11939,-4.57308,5.01847,-18.61661,12.0495,2.84162,0.30348,1.04597,3.60216,-1.08924,1.38164,3.177,-2.36499,0.04562,-1.29182,-0.76114,-0.05267,0.13765,-0.24104,-0.01769,-0.30927,-0.20842,-0.00985
1054,-0.80005,1.07581,0.26,7.83145,2.77828,-0.96973,13.70936,4.45698,3.27892,47.05288,12.44603,-2.60588,0.68269,-0.4555,0.15157,1.06774,-0.03995,0.07055,76.44583,20.59798,1.70844,-19.15097,-17.92634,10.88987,9.11912,-1.92373,0.81692,7.95561,-2.00157,1.39692,0.57319,-2.02826,0.80716,-0.09373,0.52016,-0.32869,0.06148,-0.29288,0.11129,0.10469,0.08901,-0.02385
1055,0.20683,-0.12377,0.62183,7.90774,3.9825,-1.26871,5.6135,-1.64637,4.15086,41.14452,23.73954,0.15839,0.87181,-0.51321,0.23256,1.64691,-0.21987,-0.19328,55.23649,25.74024,3.81882,-25.97049,-23.00418,5.70428,9.16471,-1.82587,0.52307,9.2849,-2.47345,1.01767,-2.12793,-0.72388,1.08327,1.6968,1.45601,-0.10967,-0.26587,-0.01768,0.12994,0.42889,0.27205,0.05753
1056,-0.18409,-0.13259,0.33023,3.18788,3.08285,-0.58491,-5.76286,-4.17232,1.68945,24.67654,16.93531,1.5672,0.65195,-0.41181,0.17695,1.29179,-0.21941,-0.32269,19.51726,12.32261,0.57965,-11.002,-26.10749,4.15863,5.21511,-0.4983,-0.06487,8.81629,-1.86771,0.86669,-1.95338,0.57894,0.46279,2.4686,1.63997,0.03719,-0.39338,0.36371,0.00344,0.45927,0.29354,0.06991
1057,-1.11893,0.40703,-0.14874,-2.61429,0.3861,0.38784,-8.09556,-0.47977,-0.72891,12.80926,-0.38532,0.51106,0.31321,-0.32118,-0.00099,0.36133,-0.13638,-0.24704,5.5704,-2.8112,-2.47771,8.89884,-17.32288,5.1685,3.24481,-0.15404,-0.66545,7.13896,-0.67868,0.63072,1.0231,0.53932,-0.35804,2.1342,1.32775,-0.20818,-0.03181,0.34686,-0.09475,0.34754,0.23635,-0.04545
1058,-1.25129,0.31488,-0.22382,-4.41617,-0.96311,0.74285,-2.21428,4.68586,-0.73432,12.08435,-6.2577,-0.42069,0.24635,-0.35135,-0.12569,-0.15557,-0.01432,-0.04497,16.69879,1.16498,-0.7054,16.45015,-5.1801,3.19767,5.3732,-0.70789,-0.36794,4.35772,-0.37062,-0.0869,4.65046,-1.29916,-0.44478,1.56098,0.91393,-0.49111,0.70434,-0.20155,-0.05122,0.24418,0.14256,-0.14585
1059,-1.2108,-0.23685,0.04372,-1.50094,-0.14336,0.38507,1.90614,6.35182,0.32315,16.83604,3.04771,0.45142,0.41132,-0.41817,-0.0893,0.11326,0.10132,0.11793,28.94438,18.13206,3.42575,11.12748,-5.51799,-0.93653,8.54032,-1.06187,0.73059,2.58289,-1.61651,-0.80639,6.2251,-3.39382,0.18991,1.81319,0.76657,-0.32319,1.22765,-0.76425,0.05977,0.24447,0.03967,-0.07886
1060,-2.31684,-0.61472,0.19972,1.60766,0.39899,-0.05694,1.01513,3.40742,0.3311,18.15182,10.71717,1.65106,0.50806,-0.48338,-0.02795,0.60864,0.1024,0.10749,28.10429,22.54665,5.58445,3.1097,-12.40719,-2.52931,9.14419,-1.7566,0.99622,3.50143,-3.30261,-0.90156,4.51927,-3.47535,0.63254,3.1192,0.9908,0.23975,0.99092,-0.78672,0.11726,0.40382,-0.01709,0.11228
1061,-3.69842,-0.54025,0.058,2.25315,-0.27829,-0.20711,-0.43754,-1.61576,-0.4799,17.05355,7.48317,1.20938,0.42915,-0.53105,-0.06726,0.82446,-0.02292,-0.03944,23.61801,7.39158,4.20381,1.20339,-8.99964,-0.5983,7.55969,-3.18758,-0.24702,6.16611,-3.7967,-0.44958,1.36681,-1.50363,0.3752,4.26,1.42793,0.52613,0.26622,-0.37726,0.09756,0.62298,0.0307,0.21783
1062,-3.0811,-0.10353,-0.16082,1.70323,0.46836,-0.0573,0.99647,-4.992,-0.70094,16.53576,2.75934,0.0578,0.31956,-0.47215,-0.10969,0.80415,-0.03299,-0.07172,22.69506,-6.65824,1.78356,10.49775,1.20121,1.05351,6.86167,-3.4548,-1.42502,8.25107,-2.45352,0.31376,-0.35238,0.27731,-0.07298,3.87862,1.55739,0.22553,-0.14589,-0.03943,0.05413,0.67445,0.12542,0.13448
1063,-0.43106,0.70516,-0.30463,1.04196,3.71796,0.29995,5.07901,-2.33634,-0.41584,14.92664,5.90187,0.16459,0.28347,-0.2932,-0.04518,0.67147,0.20685,0.12948,23.23257,1.36035,1.21027,25.10017,0.81566,-0.73359,8.4249,-1.2063,-0.77862,8.14869,-0.26409,1.17779,0.03,-0.01354,0.09043,2.25505,0.9852,-0.14191,0.01838,-0.06233,0.05612,0.44123,0.13607,-0.02267
1064,1.65874,1.81492,-0.44483,1.67223,6.23348,0.36995,8.76178,6.82167,-0.76169,17.09147,13.67417,0.9564,0.32992,-0.16285,0.07409,0.59109,0.40091,0.28697,30.43685,27.41796,0.80618,27.08681,-13.88754,-2.53295,10.40748,1.76207,1.308,6.36351,0.68307,1.49041,1.40288,-2.05394,0.82657,0.94825,0.33689,-0.15707,0.36053,-0.33734,0.10464,0.10274,0.0818,-0.10127
1065,1.14567,2.16339,-0.46245,4.73828,5.46159,-0.19678,7.92668,12.22847,-1.34168,28.39492,18.13393,0.74567,0.44385,-0.2236,0.13892,0.78187,0.27699,0.13161,45.80108,42.96688,-1.42038,10.24491,-28.36555,0.42383,10.60209,2.86282,2.51931,4.6612,-0.51328,0.9352,3.05773,-3.57679,1.06517,1.10764,0.37561,0.1268,0.56588,-0.47777,0.07019,0.00155,0.08167,-0.04582
1066,-1.43588,0.9922,-0.16591,7.3169,2.55256,-0.80853,1.23658,4.69619,-0.69599,38.27667,13.72284,-0.63106,0.52368,-0.37897,0.11051,1.05236,0.01071,-0.1673,51.13572,25.1518,-3.57223,-4.04003,-27.45333,5.42704,9.03109,1.77887,1.58473,4.71539,-2.50108,0.27142,4.58681,-2.9959,0.29535,2.5127,0.85052,0.49672,0.64821,-0.25567,-0.08993,0.25345,0.13622,0.0779
1067,-3.53335,-0.74776,0.27295,5.90613,0.03546,-0.73568,-6.83068,-7.24753,1.06188,34.16439,2.58371,-1.89916,0.52896,-0.51797,0.02018,1.04079,-0.11834,-0.27996,34.37481,-9.06224,-3.43674,5.66679,-12.53383,6.87135,6.88504,0.15754,-0.05809,7.12456,-3.23683,0.16239,5.41461,-1.36025,-0.59461,3.66983,1.4403,0.3911,0.71217,0.06159,-0.21213,0.54833,0.22067,0.08097
1068,-2.76551,-1.53182,0.47627,2.29076,-0.38344,-0.19918,-7.3381,-8.54604,2.29813,23.17028,-3.49044,-1.86443,0.5749,-0.6331,-0.05107,0.80779,-0.10211,-0.16125,17.34962,-19.30242,-0.99515,24.6268,1.36055,4.21476,5.3673,-0.88761,-0.66331,10.28078,-2.06178,0.72362,5.00443,-0.66491,-0.70211,3.34574,1.86264,-0.23105,0.71284,0.04922,-0.16917,0.53463,0.26583,-0.04787
1069,0.3785,-0.85051,0.27003,0.75985,1.0054,0.08722,3.552,-0.53226,2.01244,20.73868,1.78201,-1.14061,0.65302,-0.61697,-0.03419,0.61631,-0.03873,0.0135,27.6635,0.7077,1.6784,23.50436,5.16758,0.25676,5.6498,-1.60918,-0.59652,12.05376,-0.44856,1.92031,3.03017,-0.9648,-0.29754,2.09184,1.52019,-0.42496,0.47076,-0.23504,-0.05037,0.31309,0.14013,-0.0471
1070,2.8136,0.55865,-0.18212,1.89966,2.3192,-0.04351,16.81861,3.76454,0.61722,26.49636,9.39825,-1.24077,0.59909,-0.39433,0.04402,0.54903,0.06872,0.13042,54.20982,17.86964,1.64391,10.36749,1.74682,-2.25586,7.00392,-1.92796,-0.83755,11.36658,-0.31491,2.75376,0.0305,-0.80785,-0.02201,1.4894,0.66252,0.16874,-0.03376,-0.34687,0.02648,0.26698,-0.06948,0.15616
1071,2.2837,1.64751,-0.53735,2.59852,2.33675,-0.18107,19.31485,1.15339,-0.73568,26.56416,10.25679,-1.70978,0.41431,-0.14729,0.1013,0.58993,0.17662,0.15331,60.14068,14.82343,-0.6209,16.02142,-5.18893,-1.0534,6.36047,-0.93596,-0.98347,7.57922,-1.66196,1.74342,-2.0688,0.17948,0.03198,2.17222,0.30781,0.76916,-0.47925,-0.11549,0.06378,0.47446,-0.11081,0.30604
1072,-0.50633,1.73402,-0.53302,1.29681,1.75338,-0.06244,9.70071,-1.86923,-1.01348,15.46899,7.88807,-0.57303,0.27981,-0.10248,0.08918,0.70875,0.15683,0.06092,34.14665,6.26053,-0.00567,35.02908,-12.91744,3.77962,2.94779,1.01075,-0.26479,2.11683,-3.01735,-0.83465,-1.41091,0.7008,0.0669,2.86885,0.80713,0.58295,-0.44637,0.11823,0.08459,0.55952,0.0758,0.18086
1073,-3.21171,0.95096,-0.26136,-0.28023,1.90418,0.18548,-1.80409,-2.51486,-0.48517,3.30624,8.97917,2.13839,0.23099,-0.19952,0.01918,0.74612,0.04405,-0.04135,2.61169,5.03692,4.5113,34.54071,-16.55324,7.15763,0.7389,1.99405,0.79938,-1.48998,-3.55455,-2.89472,0.69049,-0.0441,0.20443,2.37113,1.4221,-0.15009,-0.0538,0.04085,0.09175,0.31701,0.25823,-0.09057
1074,-4.30475,0.21611,-0.06647,-0.6559,2.60219,0.34286,-8.97789,-2.05666,-0.41156,0.17735,11.62758,3.61958,0.18181,-0.222,-0.0419,0.61477,0.01823,-0.00542,-11.30679,8.49429,5.72929,10.71103,-13.08107,3.60258,2.81943,1.39369,0.87391,-1.52997,-3.31968,-3.04189,1.29868,-0.80503,0.25852,1.35379,1.4802,-0.56739,0.19444,-0.1181,0.05623,0.02463,0.24796,-0.21101
1075,-4.06224,0.09086,-0.04686,-0.11651,2.55717,0.2893,-13.66528,-0.71918,-0.84288,3.84171,10.37935,2.27556,0.1889,-0.19083,-0.03507,0.53335,0.09514,0.10935,-12.94348,11.33749,0.97159,-10.44693,-4.96707,-3.14742,6.27031,0.54042,-0.09731,1.07893,-2.2495,-1.2263,-0.04158,-0.41674,0.08526,0.55426,0.84607,-0.30799,0.09314,-0.04887,-0.02326,-0.10127,0.08523,-0.10363
1076,-3.29474,-0.07096,0.08597,0.81907,1.2359,0.06781,-14.18617,0.01812,-0.22251,7.6571,4.84246,-0.02472,0.34416,-0.29958,0.02002,0.62934,0.10355,0.12109,-9.81273,9.02911,-1.71332,-12.23453,5.31356,-5.36758,6.55879,1e-05,-1.28821,4.39761,-0.59314,1.53388,-1.42941,0.85448,-0.25529,-0.26946,-0.1729,0.18223,-0.15848,0.21349,-0.09789,-0.14016,-0.06642,0.04779
1077,-2.00843,-1.26422,0.53605,1.39125,-0.3999,-0.07304,-5.53637,-3.19719,1.89722,9.44145,-0.44739,-0.67498,0.55318,-0.56224,0.04669,0.66825,-0.00194,0.02161,3.07227,-1.29508,3.10348,1.42022,16.3119,-4.08537,3.74119,-0.72091,-2.1996,5.561,0.25231,2.77753,-1.4042,2.06277,-0.60583,-0.7731,-0.62916,0.31213,-0.28752,0.45597,-0.1309,-0.15996,-0.06547,0.06705
1078,-0.17509,-3.1147,0.99086,1.23303,-0.5398,0.02334,8.32853,-9.7428,3.31599,10.22691,-0.19731,0.81837,0.65735,-0.777,0.01066,0.52721,-0.06107,-0.05386,22.92223,-13.16496,10.00077,16.60139,21.08613,-4.44486,0.67013,-1.04527,-2.21112,3.48406,-0.81164,0.94034,-0.35286,2.27077,-0.7346,-0.23497,0.19153,-0.01998,-0.23224,0.50338,-0.12158,-0.13538,0.07029,-0.03385
1079,0.72137,-3.83812,0.95327,1.23623,1.41497,0.18312,14.92446,-13.86647,2.04516,10.95339,6.90475,3.26625,0.62296,-0.75944,-0.02961,0.43444,0.00725,-0.07685,33.45201,-14.52097,11.87525,22.31851,11.03035,-4.00318,-1.29532,0.15058,-0.6816,1.42931,-2.42302,-1.6687,0.41461,1.08517,-0.43232,0.91494,1.49914,-0.40295,-0.14063,0.29869,-0.06737,-0.02767,0.20202,-0.11882
1080,-0.71676,-2.24356,0.39415,1.44265,3.6716,0.26532,9.65665,-10.8514,-0.38062,9.97908,15.66867,5.35205,0.53523,-0.53731,0.01985,0.51524,0.10985,-0.08348,25.90667,-1.61055,9.85067,23.75742,-11.69945,1.92318,-1.89427,2.31409,1.83798,2.13112,-2.11402,-1.57841,0.34604,-0.91496,0.23482,1.31496,1.64229,-0.40234,-0.12794,-0.05427,0.03293,0.10756,0.20301,-0.09934
1081,-3.41601,0.63559,-0.18244,0.57231,3.79389,0.366,1.06933,-2.67828,-0.67226,5.79251,17.22274,5.67696,0.4747,-0.33552,0.16343,0.62575,0.15564,-0.02486,10.47771,13.35259,8.95768,33.95781,-30.03855,7.85132,-0.39723,3.30012,3.22767,3.64565,0.00734,0.72877,0.00616,-2.19458,0.76807,0.41844,0.45212,-0.13896,-0.13249,-0.31617,0.12842,0.11571,0.07179,-0.01984
1082,-4.89931,1.95408,-0.16286,-1.10771,1.55809,0.46795,-2.55408,1.5718,1.8492,2.65993,7.64509,3.10701,0.43113,-0.33878,0.26419,0.65162,0.12161,0.11423,3.61673,11.55161,8.77501,48.03716,-25.64062,4.03142,2.70819,1.89945,1.75728,3.73672,1.29362,2.01215,-0.13084,-1.346,0.64594,-0.59787,-0.43187,-0.04994,-0.08843,-0.26854,0.1486,0.00912,-0.04728,0.02119
1083,-4.57911,-0.25335,0.62819,-1.41037,-0.55323,0.38074,-2.16188,-5.86413,4.50903,6.48213,-4.4631,-0.90643,0.30412,-0.50837,0.14167,0.56031,0.03459,0.22062,9.63389,-9.13777,6.18461,47.35262,-0.45255,-6.56581,4.62509,-0.4675,-1.06542,2.97423,0.38807,1.06415,-0.29031,0.65786,0.07398,-0.37231,-0.03948,-0.14918,-0.06504,-0.0123,0.09107,-0.0171,-0.04517,0.00616
1084,-4.16234,-3.58454,1.37093,0.35956,-0.3033,0.12224,-2.44488,-17.76898,4.44595,15.57003,-5.96659,-2.84901,0.07993,-0.61486,-0.16231,0.40653,-0.00929,0.21129,19.22673,-24.46192,1.97453,29.26089,21.38625,-11.09229,3.66019,-1.69578,-2.01289,2.01217,-1.26616,-0.67669,-0.46368,1.07702,-0.21557,0.80173,0.86679,-0.14074,-0.09578,0.05734,0.02141,0.05118,0.0273,-0.01733
1085,-4.42242,-3.8922,1.10467,1.94663,1.6281,-0.06575,-4.57183,-18.59237,1.86142,21.04146,3.5072,-1.79694,-0.00385,-0.52153,-0.33871,0.43321,0.06671,0.1438,21.72475,-13.99867,-1.21811,11.68474,16.87862,-5.83241,1.59567,-1.49318,-0.5882,0.67937,-1.81115,-1.53233,-0.37109,-0.53167,0.06989,1.49182,1.14388,0.00874,-0.14416,-0.18118,0.01998,0.00086,0.05976,-0.05193
1086,-4.38099,-1.27497,0.16804,1.56091,3.17216,-0.08679,-5.94577,-7.41417,-0.61155,16.02213,12.59553,-0.24825,0.24392,-0.35366,-0.19611,0.75515,0.18817,0.10274,13.51381,9.30321,-1.86222,9.78872,-12.14572,1.58732,0.39383,-0.46961,1.07896,-0.32314,-1.19595,-1.08374,-0.14058,-1.73064,0.52481,0.94862,0.5658,0.05378,-0.24333,-0.34349,0.1062,-0.22674,0.02146,-0.12725
1087,-3.42885,1.19739,-0.5332,0.65777,3.29886,-0.12809,-2.6442,3.22334,-1.43755,4.90681,13.97701,-0.14828,0.58382,-0.25082,0.0886,1.11338,0.19081,0.05766,4.49219,20.8126,-0.04239,19.81168,-35.88019,5.86394,-0.60424,1.02227,1.67535,0.06464,-0.40886,0.09513,0.06386,-1.1106,0.63213,-0.24941,-0.24786,-0.07195,-0.42235,-0.12692,0.18896,-0.39333,-0.03004,-0.17888
1088,-2.66802,1.76222,-0.6965,0.8481,2.19794,-0.25941,3.9825,4.4833,-1.07354,-0.34292,9.36294,-0.83517,0.62676,-0.25482,0.1884,1.18056,0.05809,-0.04331,7.24905,13.73867,2.1257,29.36834,-21.7377,6.3688,-1.79076,1.99412,1.20139,1.29797,0.00921,1.00806,0.38091,0.32407,0.24155,-0.73188,-0.49678,-0.06604,-0.54189,0.26867,0.14932,-0.24403,-0.01935,-0.09153
1089,-3.28385,0.52215,-0.38044,1.10655,0.49601,-0.26504,6.16435,-3.10181,-0.50052,3.68139,2.87506,-0.62698,0.40991,-0.38302,0.03756,0.87272,-0.0712,-0.16827,14.67456,-4.87971,2.82954,34.82874,23.37736,1.54597,-0.98361,1.28081,-0.10565,1.21624,-0.28368,0.60909,0.67224,1.21417,-0.32895,0.3863,-0.01191,0.34148,-0.40604,0.45754,0.00064,0.13839,0.02777,0.10695
1090,-4.65538,-1.23624,0.18336,0.93034,-1.32028,-0.13625,-0.50805,-11.73013,-0.60562,9.9304,-3.35976,0.52008,0.26349,-0.52107,-0.11999,0.46017,-0.1389,-0.27461,10.25796,-23.34224,1.17612,38.93559,51.64503,-7.32932,2.76006,-0.64158,-1.41466,-0.77021,-1.31938,-1.10217,0.97409,1.02165,-0.58939,2.22096,0.72278,0.7899,0.05024,0.28462,-0.11879,0.39412,0.05407,0.21168
1091,-5.15559,-2.05252,0.58833,1.62448,-2.1728,-0.08196,-9.7302,-13.75255,-1.26584,13.65066,-6.32468,1.16615,0.28312,-0.49621,-0.09747,0.36943,-0.15469,-0.29189,-1.37353,-27.8155,-2.2552,39.50858,36.86265,-12.91047,6.43923,-1.90533,-1.51505,-1.77002,-2.05761,-2.39202,1.78934,-0.15228,-0.3739,2.89215,1.21923,0.62875,0.60734,-0.11569,-0.11324,0.33044,0.07792,0.10104
