PaulMeinheit/Bachelor_Muay_Thai/processed_Data/E3/teep/sliced/JointMoments/sliced1.csv
Unnamed: 0_level_0,R_KNEE_MOMENT,R_KNEE_MOMENT,R_KNEE_MOMENT,L_KNEE_MOMENT,L_KNEE_MOMENT,L_KNEE_MOMENT,R_HIP_MOMENT,R_HIP_MOMENT,R_HIP_MOMENT,L_HIP_MOMENT,L_HIP_MOMENT,L_HIP_MOMENT,R_ANKLE_MOMENT,R_ANKLE_MOMENT,R_ANKLE_MOMENT,L_ANKLE_MOMENT,L_ANKLE_MOMENT,L_ANKLE_MOMENT,WAIST_JOINT_MOMENT,WAIST_JOINT_MOMENT,WAIST_JOINT_MOMENT,NECK_MOMENT,NECK_MOMENT,NECK_MOMENT,L_SHOULDER_MOMENT,L_SHOULDER_MOMENT,L_SHOULDER_MOMENT,R_SHOULDER_MOMENT,R_SHOULDER_MOMENT,R_SHOULDER_MOMENT,L_ELBOW_MOMENT,L_ELBOW_MOMENT,L_ELBOW_MOMENT,R_ELBOW_MOMENT,R_ELBOW_MOMENT,R_ELBOW_MOMENT,L_WRIST_MOMENT,L_WRIST_MOMENT,L_WRIST_MOMENT,R_WRIST_MOMENT,R_WRIST_MOMENT,R_WRIST_MOMENT
ITEM,X,Y,Z,X,Y,Z,X,Y,Z,X,Y,Z,X,Y,Z,X,Y,Z,X,Y,Z,X,Y,Z,X,Y,Z,X,Y,Z,X,Y,Z,X,Y,Z,X,Y,Z,X,Y,Z
478,-7.47638,-0.70391,-0.17206,-2.17768,2.97927,0.2474,-7.73342,-5.36311,-1.43967,-5.66769,12.45713,1.6669,0.08107,-0.406,-0.07463,0.62309,0.15334,0.16177,-15.46947,8.58853,1.44297,31.46517,7.79397,-5.9331,5.27532,1.1042,-0.90007,3.2686,-0.97181,-0.50598,1.61664,0.91372,-0.222,1.59956,1.76621,0.76512,0.38162,0.26582,0.00576,0.1136,0.13741,0.17259
479,-3.67037,-1.73204,0.73288,-2.89777,2.7494,0.55963,8.02016,-10.11513,1.11347,-3.12194,11.30142,2.80382,0.24815,-0.30544,-0.02123,0.6386,0.19059,0.2769,9.73128,1.98597,8.46718,42.39813,12.49329,3.91321,6.32267,-1.28641,2.58689,3.40267,-0.95873,-0.91871,4.83718,-5.12876,0.73646,2.39347,2.16223,0.68882,0.87546,-1.16717,0.19082,0.35038,0.26427,0.13427
480,-2.27744,-1.4778,0.85488,-1.82575,1.00769,0.51074,11.99283,-10.92383,2.13734,2.48486,2.42885,1.67022,0.37566,-0.10968,0.04019,0.68115,0.10535,0.21937,20.99749,-7.91976,8.83665,42.01772,12.00133,7.41327,5.63594,-2.7375,1.97022,4.06133,-0.54668,-0.96871,4.70439,-5.7068,0.36742,1.61725,2.14461,0.04613,0.68748,-1.33425,0.09821,0.30182,0.3307,0.013
481,-3.3533,-1.00361,0.64446,0.22685,-0.96008,0.06943,2.2706,-9.07714,1.09106,9.23947,-6.67758,-1.02729,0.42262,-0.06464,0.11156,0.58361,-0.06497,-0.01389,14.31072,-13.62338,1.52937,31.32198,9.51362,1.91766,3.46552,-2.33823,-0.61086,5.03904,-0.01609,-0.60814,1.09961,-1.99706,-0.23031,0.35146,1.75253,-0.63655,-0.07138,-0.4307,-0.04718,0.10047,0.2809,-0.11813
482,-4.73635,-0.8972,0.59019,1.85547,-1.24927,-0.35715,-7.26461,-5.96087,0.62519,13.85989,-7.26533,-2.45337,0.40353,-0.20291,0.17233,0.4799,-0.19002,-0.23379,6.74622,-10.11069,-3.74486,21.26628,13.97209,-2.36812,1.27203,-0.63766,-0.82522,5.91318,0.35945,-0.07763,-1.07862,0.20485,-0.15748,0.14628,1.35961,-0.8143,-0.47448,0.22827,-0.06351,0.0023,0.17519,-0.19868
483,-5.32605,-0.26401,0.15386,1.99031,-0.09115,-0.38776,-8.07716,-1.99793,1.14736,12.44754,-1.92434,-1.42043,0.30835,-0.30859,0.16051,0.55135,-0.19009,-0.2791,5.00751,-3.72231,-2.05328,17.24689,22.23645,-0.89577,0.20151,0.81274,-0.63834,6.59998,0.64196,0.62079,-0.60809,1.23723,-0.33585,0.79673,1.20305,-0.41746,-0.32472,0.51807,-0.08065,0.05637,0.11192,-0.15071
484,-5.5027,0.94864,-0.77913,0.98019,0.6863,-0.07641,-5.72793,0.7088,0.45506,5.87218,1.63954,0.66223,0.14778,-0.20658,0.0689,0.72717,-0.11047,-0.16226,0.63658,-1.66075,1.69329,13.10841,19.9419,2.74781,1.56407,0.95573,-2.61966,7.6555,0.95449,1.58825,-0.32741,3.17428,-1.02708,1.2003,1.22249,0.19573,-0.19521,0.82451,-0.16365,0.14,0.12735,0.02065
485,-5.63933,1.08218,-1.03149,0.27233,0.5564,0.20674,-7.20257,-1.66443,-1.65918,1.56713,2.01256,1.64272,-0.00191,-0.00702,-0.02195,0.84886,-0.02768,0.01415,-6.88618,-4.75944,1.33823,8.76892,8.12519,6.89979,5.6037,0.26786,-3.02737,8.39451,0.71161,1.78839,0.42225,2.48508,-0.91649,1.28454,1.53288,0.53552,0.05335,0.53432,-0.11801,0.18996,0.20397,0.15355
486,-6.21,-0.30004,-0.20434,0.79638,0.49364,0.17915,-12.31542,-8.51186,-3.40098,5.68085,2.00815,0.48363,-0.09342,0.07827,-0.06501,0.81732,0.03631,0.14651,-7.82214,-10.97202,-4.51007,13.02281,4.05244,9.5656,9.23285,-0.31702,1.38146,7.18656,-0.4904,0.27108,2.65417,-3.17133,0.84241,1.43382,2.15428,0.36279,0.56921,-0.78057,0.21589,0.20934,0.29065,0.12015
487,-7.7829,-1.35461,0.40734,1.81812,0.68635,-0.09596,-18.78148,-13.29418,-4.23103,13.51365,1.98137,-1.61624,-0.13602,0.02666,-0.08621,0.61216,0.05203,0.13294,-4.52718,-16.34085,-12.10092,29.00634,12.26573,5.78106,8.56293,-0.31385,5.81505,4.47764,-1.94,-1.67111,3.91486,-7.54109,2.5418,1.36789,2.33158,-0.01055,0.79676,-1.76702,0.56619,0.16742,0.24163,0.01845
488,-9.01245,-0.76669,-0.05492,1.66001,0.61125,-0.27241,-23.91591,-11.50495,-4.46454,13.04886,1.15577,-2.17796,-0.06915,-0.03532,-0.07734,0.39819,0.00562,-0.00852,-11.25143,-15.13682,-14.56973,45.20993,20.2594,-3.80599,4.09253,0.26673,4.0702,2.75762,-2.54601,-2.19715,3.17313,-4.27592,1.72361,0.82888,1.72218,-0.21325,0.52114,-0.96247,0.47456,0.05609,0.04358,-0.01644
489,-8.49534,0.48068,-0.80852,-0.46639,0.45833,-0.1057,-25.14018,-6.62306,-3.93266,0.99557,0.20871,-0.6985,0.08153,-0.05166,-0.01647,0.4013,-0.01906,-0.08781,-29.96287,-7.57741,-9.45273,44.66844,21.39127,-9.76334,0.45561,0.72351,-1.08031,3.46461,-1.57959,-0.93737,1.36693,1.96504,-0.59958,0.27779,0.98422,-0.20045,-0.09442,0.67145,0.03285,-0.02426,-0.07903,0.00314
490,-7.46645,1.0846,-1.07679,-3.27467,0.82552,0.24045,-22.52054,-3.59783,-2.91325,-10.23179,0.69521,0.63914,0.13564,-0.05153,0.04318,0.57414,0.064,0.02873,-41.92281,0.59495,-3.04899,28.25191,20.87769,-5.20686,0.01884,0.5399,-2.72412,5.76234,0.69307,0.97866,-0.3758,2.90053,-1.64534,0.2296,0.98921,-0.14844,-0.7022,1.17014,-0.3486,0.02879,0.07298,0.0106
491,-7.2744,1.26486,-1.24204,-3.90612,1.83925,0.40759,-17.80646,-1.54608,-2.4467,-7.05235,4.13805,0.46518,0.0759,-0.05868,0.03872,0.71205,0.19853,0.23872,-30.3366,7.96771,-2.03466,15.4768,21.09768,4.50836,1.18798,0.38985,-1.10453,7.1641,2.34249,1.78891,-0.28037,-0.07514,-1.49453,0.5111,1.65323,-0.18301,-0.67245,0.60027,-0.51246,0.1236,0.34997,-0.01344
492,-7.66461,1.51795,-1.68495,-1.14506,2.67715,0.26351,-13.64349,0.96698,-3.18418,7.50299,8.68195,-0.10952,0.01365,-0.09012,-0.027,0.74322,0.21121,0.30602,-4.82618,13.45829,-5.42559,16.59367,19.5826,7.67098,2.29941,0.51254,-0.7113,5.78336,1.27081,0.57826,0.77516,-0.73384,-1.32489,0.66707,2.03483,-0.21025,-0.18778,0.22959,-0.43907,0.091,0.41088,-0.04487
493,-8.25222,1.48546,-1.97668,2.63974,2.29147,0.00475,-13.48419,1.17002,-4.72511,18.49616,9.01574,0.1182,-0.06775,-0.13144,-0.1206,0.7268,0.04464,0.14214,9.01228,10.97282,-8.63585,24.37472,19.11634,0.01446,3.70355,0.03203,-2.46138,2.92631,-1.96643,-1.72346,0.2859,1.5392,-1.00482,0.5642,1.80073,-0.1643,0.04163,0.2993,-0.19004,-0.04476,0.21268,-0.05001
494,-8.57567,0.7799,-1.6053,3.90318,0.34002,-0.10496,-18.35719,-2.55948,-5.88313,17.03919,0.97173,0.42002,-0.15533,-0.16373,-0.20122,0.72847,-0.1433,-0.08695,-0.74099,-3.99557,-10.3394,31.17252,19.11613,-9.08392,5.97056,-0.8544,-3.43207,1.61062,-4.36203,-3.21877,-0.48841,2.50625,-0.37839,0.47951,1.53275,-0.155,0.12604,0.21972,0.04482,-0.09861,0.03296,-0.03595
495,-7.91777,-0.09934,-0.85621,2.32691,-2.17185,-0.04849,-24.6099,-5.82465,-5.84963,9.86986,-11.87561,-0.42995,-0.12884,-0.21751,-0.21491,0.73526,-0.18606,-0.17677,-19.3437,-22.21005,-12.38885,34.71645,13.89509,-8.57892,7.42397,-1.0523,-1.38199,2.65683,-3.99833,-3.02079,0.65099,-0.047,0.33764,0.77201,1.66395,-0.2285,0.36486,-0.27626,0.14626,0.01473,0.0579,-0.0462
496,-6.50063,-0.3692,-0.47952,0.96308,-3.48575,-0.03168,-26.58801,-3.15769,-4.9602,8.96091,-18.52304,-1.88364,-0.01657,-0.3161,-0.14503,0.63619,-0.12039,-0.13185,-23.7394,-24.1337,-14.58955,33.96861,10.47877,-0.34933,6.08993,-0.78514,2.27831,4.43159,-1.91967,-1.9376,2.65041,-3.85763,1.05344,1.25471,2.09244,-0.32835,0.51419,-0.84476,0.21594,0.17817,0.21295,-0.07973
497,-5.44726,-0.0348,-0.63394,1.1281,-2.0259,-0.06725,-21.7349,3.35403,-3.75168,13.85395,-10.69491,-2.03314,0.01218,-0.3908,-0.05333,0.39038,-0.03096,-0.02296,-10.89804,-3.18777,-13.17434,30.72915,17.65803,6.54804,3.21424,-1.03694,4.87096,5.68423,-0.12999,-1.04311,4.09346,-6.39452,1.58212,1.25994,2.50777,-0.43605,0.51062,-1.20104,0.30209,0.22048,0.32621,-0.08289
498,-5.46382,0.30588,-0.78671,0.94306,1.80345,0.01624,-13.41211,4.83196,-2.26753,14.80855,6.24733,-0.49594,-0.09013,-0.305,-0.02029,0.22173,0.07773,0.13425,2.56359,20.42771,-7.37373,29.73299,26.8358,7.39065,1.78669,-1.69059,4.31229,6.15155,0.64391,-0.43869,4.57805,-5.96337,1.30556,0.78951,2.55324,-0.40872,0.52844,-1.11554,0.27107,0.11789,0.30349,-0.0305
499,-6.15383,0.35911,-0.62298,-0.73221,4.62481,0.13546,-7.99167,-2.50446,-1.05235,8.29739,16.55282,0.74143,-0.21908,-0.03178,-0.06469,0.36628,0.1515,0.21215,2.72894,21.47003,-2.40062,30.99886,24.63661,3.39698,2.52375,-1.63314,0.33462,5.2051,0.65154,0.15093,3.30649,-1.69423,0.01634,0.76748,1.95671,0.03435,0.42341,-0.34042,0.07835,0.01445,0.16193,0.04321
500,-6.55388,0.46021,-0.54218,-1.91165,3.12888,-0.00597,-8.94148,-10.07365,-1.21163,1.39502,10.48808,-0.11134,-0.24012,0.22334,-0.13879,0.71843,0.0726,0.03756,-7.64525,1.19518,-2.98978,29.95584,12.33566,0.34331,3.63424,-0.23186,-3.4683,3.20628,0.34719,0.63311,0.83385,3.11488,-1.22849,1.44576,0.99994,0.66598,0.07539,0.6192,-0.12018,0.01982,0.00872,0.07368
501,-6.80456,1.01733,-1.0314,-0.32163,-1.22294,-0.38831,-16.07992,-7.76313,-2.85029,1.64199,-3.5582,-2.23682,-0.08935,0.19733,-0.17332,1.02781,-0.13329,-0.2648,-18.96956,-14.17021,-8.19159,26.78107,7.35569,2.76205,3.727,1.51672,-3.41561,2.50166,0.08513,0.67177,-0.29785,3.77747,-1.42885,1.89307,0.58836,0.78081,-0.22985,0.87403,-0.19799,0.1091,-0.00323,0.03849
502,-7.45062,2.16942,-2.05469,2.71064,-2.7084,-0.55494,-24.71797,3.70353,-4.63691,6.30154,-6.28754,-2.81209,0.16223,-0.05919,-0.11956,1.14273,-0.21226,-0.30179,-26.93243,-1.63987,-12.15378,24.92082,19.98339,5.92226,3.352,2.01699,-1.28107,3.89198,-0.23459,0.1864,0.30872,1.38151,-1.00748,1.65189,1.08769,0.32658,-0.3558,0.52867,-0.18866,0.23098,0.1666,0.0014
503,-8.11783,3.15384,-2.7853,4.00092,0.63399,-0.27655,-27.45801,12.86107,-5.26546,8.39758,6.17987,-0.85383,0.29724,-0.20268,-0.01165,1.01603,-0.05254,0.00917,-28.36725,26.25165,-10.88803,25.74478,31.81289,2.54833,3.51972,1.12306,-0.61558,5.39821,-0.57625,-0.23663,0.77446,0.06869,-0.73283,1.29788,1.67758,-0.01339,-0.366,0.26769,-0.15118,0.32513,0.33721,0.01445
504,-7.67697,2.92915,-2.42349,2.72632,3.38517,0.08623,-19.87413,9.91648,-4.39142,7.8452,12.90688,0.8404,0.19124,-0.02766,0.06085,0.72555,0.08995,0.24981,-16.89067,28.80267,-6.87539,28.81519,24.53708,-5.50688,4.2149,-0.16532,-0.73869,5.74899,-0.5892,-0.1858,1.15295,-0.36941,-0.45267,1.32761,1.76165,0.0569,-0.05094,0.02631,-0.0882,0.32429,0.34754,0.03701
505,-5.80637,1.61519,-1.21808,0.32244,1.5317,0.18987,-4.90693,-1.74492,-2.21699,8.00957,1.26548,0.12077,-0.06686,0.28642,0.06669,0.44588,0.04402,0.15299,6.27488,-2.79012,-3.28857,31.00339,13.78873,-11.24035,4.82653,-1.14843,0.40249,5.32971,-0.94971,-0.5985,2.31478,-2.12388,0.19951,1.58868,1.90733,0.19671,0.5468,-0.50783,0.00588,0.2416,0.26176,0.03312
506,-4.32238,0.75564,-0.38966,-1.55539,-1.60017,0.12113,5.15153,-9.15168,-0.15259,8.70432,-11.81813,-1.10751,-0.30837,0.4911,0.06074,0.35166,-0.03156,-0.0608,22.69109,-26.86206,-0.90014,31.99464,18.21529,-10.35599,4.24376,-1.1705,1.48864,4.48806,-2.33658,-1.95465,2.72078,-3.16726,0.65056,1.72825,2.37685,0.24643,0.73345,-0.75864,0.07932,0.16143,0.17758,0.05475
507,-4.923,1.25509,-0.67491,-1.43218,-2.08846,0.04971,0.80495,-6.46675,-0.37658,9.37363,-10.48756,-0.78076,-0.33393,0.4811,0.09109,0.45,-0.02473,-0.1488,17.8758,-18.95595,-1.0762,35.20748,24.56946,-2.41314,2.6777,-0.06751,0.66025,3.70518,-3.18793,-2.41967,1.04269,-1.2327,0.3074,1.49909,2.28895,0.37883,0.17959,-0.26069,0.06271,0.10255,0.07932,0.12618
508,-6.54791,1.66826,-1.28998,0.95718,-1.07611,-0.02956,-9.33631,-1.78282,-2.7643,12.61498,-3.82876,0.01048,-0.03969,0.15875,0.10667,0.58776,-0.03964,-0.13975,6.24187,-5.77361,-4.12655,35.7906,16.79268,7.41599,2.63878,0.77104,-0.81013,4.07637,-1.74818,-0.66222,-0.59985,0.83886,-0.27988,0.89372,1.41019,0.50142,-0.35948,0.24179,-0.01472,0.03216,0.01027,0.16602
509,-7.87167,0.81842,-1.40649,3.31098,-0.76724,-0.05056,-12.79716,-1.92213,-4.78823,17.98869,-4.3662,-0.1556,0.28414,-0.38326,0.00542,0.68302,-0.09541,-0.08593,5.37134,-9.45899,-7.45605,26.04214,9.3167,11.84302,4.82411,0.16734,-0.73745,6.03336,1.22038,1.78388,0.145,-0.16301,-0.21981,0.24228,0.8739,0.23654,-0.16811,-0.01242,-0.03267,-0.00377,0.1044,0.09222
510,-9.47309,0.16998,-1.41506,2.77163,-0.67476,0.11953,-13.08419,-2.84325,-4.66419,17.70845,-8.66603,-0.6745,0.22147,-0.71793,-0.18162,0.72562,-0.04549,0.05754,3.67141,-16.09895,-8.22393,16.13791,19.77865,11.08747,6.34792,-0.73771,0.8685,8.02381,3.57226,2.9105,2.27327,-2.63861,0.465,0.00393,1.17424,-0.35791,0.35804,-0.56595,0.07225,0.0684,0.31272,-0.05302
511,-11.23658,0.56122,-1.37552,0.06778,0.40453,0.30433,-19.42036,-2.67659,-2.78376,7.93956,-6.88935,-0.67941,-0.1069,-0.60177,-0.26811,0.69338,0.11096,0.21759,-15.14149,-12.04693,-6.61267,25.24116,34.70454,9.21802,4.88647,-0.21817,1.67634,7.405,3.44757,2.2059,3.61096,-2.51985,0.5874,0.56604,1.47948,-0.50676,0.50634,-0.37146,0.11874,0.21971,0.37396,-0.10967
512,-11.63432,0.66813,-0.81126,-1.42041,2.12265,0.16466,-29.21623,-4.17227,-1.24255,-3.12134,2.92078,-0.45516,-0.25936,-0.28849,-0.17331,0.58301,0.18638,0.21479,-39.64369,-0.51108,-5.53707,47.428,35.32349,3.55336,2.39313,0.86669,-0.4385,4.08124,0.52944,0.31754,3.45409,1.27981,-0.65463,1.64424,1.23348,0.2118,0.2473,0.69977,-0.08311,0.30344,0.15996,0.01542
513,-10.10089,-0.13313,-0.02427,-0.93582,3.16043,-0.22635,-30.59335,-5.97842,-1.21947,-5.92696,13.71183,-0.4155,-0.15534,-0.11186,-0.04139,0.44418,0.10441,0.04737,-44.15374,13.05573,-5.49968,54.13919,28.82457,-9.46103,2.34574,0.3142,-4.12936,1.4464,-3.02314,-1.73753,1.59146,5.0374,-1.97113,2.10412,1.09083,0.89712,-0.11857,1.46656,-0.31118,0.20276,-0.07204,0.15757
514,-6.4467,-1.31539,0.64792,-0.1949,2.80925,-0.44719,-14.73378,-6.60858,-0.28009,1.41123,17.46334,-0.44872,0.06631,-0.15949,0.00793,0.44739,-0.03773,-0.1021,-14.61114,21.65642,-2.51321,40.81069,30.27569,-22.80403,5.28785,-1.46065,-6.13049,1.58904,-4.75222,-3.47367,-0.63631,5.19787,-1.97526,1.41163,1.8339,0.51184,-0.24717,1.06737,-0.2779,0.01109,0.01647,0.09149
515,-1.59011,-1.86838,0.9969,0.67095,1.40868,-0.33103,11.89671,-7.05633,2.96577,14.1595,10.82272,-0.58611,0.30935,-0.28745,0.02807,0.68196,-0.12735,-0.11921,35.56043,15.33866,3.99669,29.46762,38.9925,-23.85254,7.91453,-2.05047,-4.64158,2.80078,-4.48055,-4.41481,-0.79926,2.03536,-0.98033,0.22971,2.67463,-0.53606,-0.03817,-0.00645,-0.06195,-0.10322,0.27265,-0.1076
516,1.94231,-1.78578,0.99892,2.43751,-0.24737,-0.09374,30.18344,-9.90006,5.12904,23.69562,-2.1207,-0.88791,0.52101,-0.39173,0.09511,0.91554,-0.12157,-0.05952,70.59155,-8.51741,8.01585,27.28937,44.20167,-11.48586,6.49384,-0.85612,-0.38667,3.18734,-3.4867,-4.17391,1.0413,-2.15104,0.15658,-0.22762,2.72866,-0.99669,0.15199,-0.83765,0.10603,-0.05915,0.35825,-0.17615
517,1.71248,-1.77166,0.85125,3.87254,-1.30305,0.03076,24.87548,-14.28736,3.18536,22.65277,-10.4621,-0.85349,0.61109,-0.4441,0.15786,0.9174,-0.08005,-0.02701,61.15821,-31.35878,5.35808,26.68086,38.24505,1.65791,2.69232,0.83429,3.73561,2.79566,-2.43955,-3.16463,2.97263,-5.0374,0.86951,0.59155,2.52934,-0.46353,0.12526,-1.02893,0.13888,0.08152,0.31258,-0.07095
518,-2.02074,-1.7738,0.73924,3.35287,-1.3587,0.02305,0.87576,-15.35445,0.0303,12.1487,-8.35201,-0.3349,0.5032,-0.41901,0.11798,0.80688,-0.09625,-0.02911,15.80296,-33.22262,0.05866,29.0332,19.52759,6.7842,1.32131,1.98587,4.91485,2.86226,-0.75188,-1.45324,4.43079,-5.13616,0.77554,1.55745,2.37239,0.2902,0.1871,-0.71249,0.04285,0.12986,0.30078,0.02347
519,-5.77359,-1.18152,0.60973,1.52261,-1.03062,0.00889,-19.60445,-10.82307,0.00954,2.1184,-2.8146,-0.07121,0.29908,-0.3551,0.00848,0.77093,-0.14091,-0.0112,-23.41093,-19.39837,-1.91452,37.74663,-1.26485,6.06651,3.11793,2.08711,3.07595,4.3599,1.71977,0.96501,5.22995,-2.97657,0.12985,1.15305,1.76344,0.32639,0.48439,-0.28763,-0.08964,-0.02673,0.26312,-0.02389
520,-6.93173,-0.133,0.33713,-0.32282,-0.81202,0.10525,-21.68937,-5.02106,2.16458,0.44724,-0.71914,-0.06929,0.15359,-0.29782,-0.04279,0.73706,-0.08105,0.03594,-26.86701,-6.11694,0.20322,44.15129,-1.73427,2.03422,5.05027,1.1581,0.03105,6.0958,3.1878,2.45035,3.90018,-0.29614,-0.43643,-0.16843,0.91922,-0.35327,0.61465,-0.07415,-0.13435,-0.23786,0.12326,-0.16676
521,-6.43665,-0.21347,0.38574,-1.59664,-0.29308,0.2716,-12.37867,-5.42306,3.23606,6.42892,0.44989,0.44381,0.09054,-0.32814,-0.03,0.60716,0.07699,0.07553,-5.2578,-1.2888,3.15191,40.11812,20.92299,-4.72344,5.97304,0.11685,-2.44377,6.26229,2.1546,1.76799,1.34568,1.27742,-0.82756,-0.44967,0.65156,-0.6687,0.56612,-0.13003,-0.17257,-0.21243,-0.00932,-0.19635
522,-5.73549,-1.5303,0.78981,-1.40055,0.64224,0.27564,-6.32311,-11.06196,2.14079,15.96755,3.43537,0.96884,0.11528,-0.43699,-0.01676,0.47702,0.13684,0.06443,14.74562,-2.65351,1.95716,32.50489,37.12186,-10.79498,6.81465,-0.12629,-2.53125,5.30198,-0.35071,0.07874,0.39199,0.32394,-0.71524,0.81683,1.12533,-0.00175,0.74247,-0.52932,-0.2051,0.08969,-0.00756,0.00079
523,-4.80869,-2.38493,0.87095,0.52389,1.25091,-0.01075,-6.20677,-14.98942,-0.57136,24.12893,4.58408,0.15013,0.22501,-0.48065,0.00531,0.42798,0.01036,-0.01464,23.18125,-7.00524,-4.82329,28.12385,27.75598,-13.5231,6.89376,0.67068,0.57001,4.189,-2.45241,-1.477,0.8213,-2.87531,0.59473,2.30581,1.95533,0.87593,0.88742,-1.14305,0.0724,0.41567,0.12598,0.2398
524,-3.55932,-2.47606,0.63315,2.38696,0.78496,-0.35353,-4.81354,-16.12935,-3.26596,23.97776,0.00285,-1.85058,0.35677,-0.42837,0.06728,0.44795,-0.15348,-0.12585,24.25145,-16.49805,-10.86506,19.17335,12.28021,-13.83639,4.80072,2.51463,4.18383,2.51717,-3.42325,-3.33586,0.56298,-4.7488,2.1412,2.76706,3.00709,0.85563,0.3896,-1.19347,0.51927,0.50578,0.3451,0.236
525,-3.67391,-3.01072,0.85036,1.86937,0.04231,-0.37095,-4.23928,-18.07819,-3.63024,13.26982,-5.1195,-2.86336,0.35032,-0.40402,0.10123,0.48682,-0.15312,-0.14666,14.50754,-28.39688,-9.76859,6.98758,16.49687,-11.27505,2.24912,4.73272,4.10184,0.84216,-3.06214,-4.80729,0.13413,-2.07371,1.67737,2.0534,3.79198,-0.01248,-0.42432,-0.14862,0.47501,0.32989,0.52769,0.00116
526,-6.10535,-4.07375,1.6378,-1.03195,0.28219,-0.0212,-12.03127,-19.4289,-1.23813,1.23666,-2.66363,-1.39301,0.14091,-0.46053,0.02446,0.42025,0.00537,-0.02804,-6.88859,-29.93923,-3.6421,7.89893,36.97097,-3.90111,1.76833,5.32115,0.80814,1.5005,-0.93181,-3.54984,0.05434,2.14848,-0.24373,0.95082,3.50046,-0.68284,-0.82938,1.00365,0.02158,0.09124,0.5564,-0.18581
527,-9.09444,-4.71104,2.29352,-2.88877,0.60111,0.24527,-25.42616,-16.67276,1.66638,1.26549,3.61008,0.65047,-0.07111,-0.58764,-0.13135,0.33757,0.0739,0.04472,-23.43318,-19.30259,-0.29551,21.2224,54.89818,3.79014,2.55489,3.41189,-2.1218,4.95345,2.22772,0.3152,-0.18972,3.77739,-1.38625,0.32882,2.36786,-0.63218,-0.58509,1.19648,-0.29338,-0.02576,0.47969,-0.20021
528,-10.37167,-4.3873,2.27375,-0.59089,-0.47003,0.04184,-34.26604,-12.47599,2.85756,15.23382,2.80631,0.07224,-0.05751,-0.72875,-0.22505,0.55992,-0.07226,-0.06895,-20.28178,-12.81474,-4.23756,27.38622,58.65127,2.42288,3.56186,1.3133,-2.89738,7.89556,3.72029,3.04776,-0.05229,3.0195,-1.2161,0.71313,1.50448,-0.12664,0.05857,0.71049,-0.28249,0.03704,0.3681,-0.11345
529,-8.36106,-3.59838,1.80435,4.13484,-1.80652,-0.40383,-28.87685,-12.58627,2.42577,32.15078,-5.17999,-2.95631,0.18115,-0.74952,-0.11655,1.02108,-0.20647,-0.20321,4.07981,-18.56976,-11.4448,19.72544,48.15187,-10.1274,5.70738,1.94735,-1.88233,6.41282,1.5121,1.41393,0.39457,1.53027,-0.45507,2.06809,1.67184,0.50289,0.46145,0.27083,-0.11889,0.23553,0.24755,0.01143
530,-4.50903,-3.49512,1.60488,7.14193,-1.32821,-0.67077,-12.354,-17.18211,2.3258,42.39442,-9.38571,-5.20773,0.41386,-0.69184,0.09908,1.32989,-0.14052,-0.17312,36.34041,-23.88492,-14.28995,14.41707,34.49413,-22.9104,9.83649,5.50316,-0.40007,1.04209,-2.55657,-2.97563,1.50286,0.24028,0.02758,3.31625,2.46775,0.94585,0.49234,0.18399,-0.04337,0.40057,0.18486,0.11703
531,-3.48716,-4.46524,2.06126,7.10392,0.79922,-0.7251,-5.04835,-22.2574,4.23684,44.64804,-3.91217,-4.79292,0.43703,-0.7611,0.15273,1.44037,-0.01629,-0.05289,48.65467,-19.54724,-10.53628,22.89626,23.75705,-22.49272,12.88748,9.30966,1.24847,-2.69994,-3.86837,-4.76596,3.24627,-0.99092,0.19318,3.08257,2.68009,0.96614,0.3919,0.2075,-0.03295,0.37158,0.24001,0.15444
532,-6.56668,-5.27784,2.58907,5.43761,2.67834,-0.68092,-17.98437,-25.3619,6.4783,41.79257,4.7927,-2.90505,0.29174,-0.86986,0.00579,1.42614,0.02219,0.02665,29.43438,-15.09517,-6.03764,35.64962,13.87544,-10.17673,10.76757,10.58994,3.1152,-1.16746,-0.92361,-1.79633,3.71911,-2.20416,0.44253,1.31234,1.89909,0.65666,0.16428,0.07861,0.02289,0.15289,0.3374,0.14738
533,-10.02928,-3.51831,1.74722,3.60577,3.00565,-0.53284,-36.97798,-20.7534,3.69969,38.34901,6.99435,-1.85228,0.08906,-0.66007,-0.13606,1.08435,0.04978,0.07039,2.22722,-14.57384,-9.52371,37.47271,11.9619,-2.08546,5.935,9.18543,3.63891,2.61391,2.13654,1.5495,1.40564,-2.40246,0.70923,-0.41126,1.22611,0.30229,-0.35509,0.00076,0.08431,-0.1148,0.32959,0.12508
534,-11.05025,0.94081,-0.6861,2.26189,2.5263,-0.30145,-43.11132,-4.45189,-5.11141,38.74294,2.55498,-2.20911,-0.08776,-0.18294,-0.18956,0.45878,0.16965,0.14929,-4.04749,-5.27231,-20.39189,27.18199,25.39998,-8.129,4.64199,7.64571,1.32945,4.05008,1.16331,0.86269,-2.31143,-0.84277,0.65132,-0.38507,1.45198,0.19895,-1.07374,0.27219,0.09829,-0.19678,0.1544,0.1115
535,-8.26822,5.01825,-2.87332,1.85378,3.16578,-0.16758,-27.43875,16.0895,-12.34109,46.04402,1.48811,-1.9627,0.00276,0.09071,-0.14203,0.07985,0.33091,0.27057,24.44115,22.03474,-25.76801,16.45724,42.17883,-22.42278,8.51768,7.67095,-2.9578,2.88861,-2.52485,-2.34074,-4.6217,1.41325,0.23085,1.10829,1.91473,0.32456,-1.43382,0.59743,0.08717,-0.01043,-0.06977,0.11121
536,-3.83055,6.9314,-3.45239,3.20688,4.38563,-0.38906,-5.34407,29.47795,-11.98166,61.29213,7.26045,-0.20001,0.36038,0.01044,0.01864,0.29675,0.30781,0.24765,69.78671,54.38636,-21.17754,10.26252,44.30037,-36.54333,14.97908,8.54233,-7.4519,1.43735,-4.44525,-3.80893,-4.2511,2.71599,-0.36905,2.08858,1.6694,0.328,-0.93945,0.53616,-0.0187,0.14107,-0.13954,0.04236
537,-1.07867,6.54796,-2.5777,6.19617,2.93933,-0.89506,0.37511,29.61844,-6.41482,76.81984,8.05381,-0.0605,0.68935,-0.20702,0.1847,0.89375,-0.03456,-0.11747,94.41278,62.6269,-16.71649,1.5012,29.65376,-46.02528,20.77217,9.43127,-10.21477,1.07894,-3.27387,-2.81355,-1.77747,2.10921,-0.86377,1.87305,1.14707,0.09321,0.14595,0.15045,-0.29384,0.06358,0.02563,-0.12198
538,-0.09172,4.67566,-1.34191,8.43667,-0.58513,-1.27105,-6.43095,20.62924,-1.56812,77.35029,-0.70882,-3.42352,0.79092,-0.31693,0.22425,1.43457,-0.39833,-0.58204,84.70273,43.08961,-16.90737,-9.08365,8.33033,-45.70281,22.76397,10.2395,-9.0119,1.25111,-1.46968,-2.06572,2.04413,-0.55478,-1.0853,1.63612,1.59653,-0.16214,1.16117,-0.28151,-0.58944,8e-05,0.32058,-0.23814
539,0.1444,1.88168,-0.32695,7.86607,-1.42386,-1.44054,-8.21946,7.91025,0.80129,58.97523,-5.41073,-6.70907,0.71922,-0.34407,0.12627,1.58293,-0.40459,-0.69719,58.84535,19.30245,-14.38495,-10.42314,-7.7345,-34.85475,21.16278,10.89663,-4.88904,0.80351,-0.18855,-2.08047,5.63471,-3.80854,-1.18267,1.96565,2.55373,-0.12055,1.65264,-0.60423,-0.68778,0.14933,0.5165,-0.1595
540,0.31237,-1.35882,0.56501,5.12676,1.86466,-1.59735,-0.25173,-4.19412,2.51798,36.43381,1.91036,-6.27232,0.66124,-0.46536,0.01817,1.25267,-0.08355,-0.37712,41.98387,7.61864,-5.88283,-0.3797,-8.94684,-22.66357,18.5353,10.85649,-3.2709,0.66268,1.6044,-0.96017,6.19743,-4.21139,-1.59096,2.46975,2.67423,0.25871,1.33458,-0.48951,-0.62802,0.3963,0.52712,0.02684
541,0.95036,-2.68567,0.85935,1.49552,6.08203,-1.53479,11.33142,-7.84965,3.19971,22.13986,12.37942,-2.962,0.66833,-0.57803,0.03983,0.74179,0.32452,0.1275,42.01445,10.71078,2.66121,11.24698,1.19493,-18.12081,15.69074,9.69212,-6.52281,2.37886,3.56375,0.84378,3.18256,-0.5485,-2.22259,3.06294,2.35661,0.51216,0.29233,0.27371,-0.51325,0.54559,0.52261,0.06897
542,1.74112,-1.24615,0.28347,-2.14434,8.71374,-1.01689,19.74123,-3.97502,1.58032,11.44489,17.2552,0.96965,0.62365,-0.47833,0.14453,0.62099,0.69071,0.57065,42.7458,20.1189,8.55481,11.62737,5.94247,-19.84647,13.7734,7.92859,-10.81934,5.23313,4.14325,1.51877,0.18508,3.11823,-2.39797,3.48173,2.38199,0.29652,-0.54916,1.04875,-0.37986,0.48859,0.56755,-0.09373
543,1.55935,0.70764,-0.53519,-4.43117,9.5976,-0.31775,20.3442,-1.92158,-1.11169,-4.11867,18.17145,4.98854,0.44721,-0.22776,0.16761,1.10488,0.91518,0.83381,24.98061,23.79478,14.68477,-8.19727,-0.72209,-22.20398,15.23143,6.21938,-13.89131,8.03164,3.35107,1.77811,-0.00336,3.11506,-1.98964,2.95097,2.03537,0.02755,-0.32959,0.98011,-0.39559,0.2981,0.48109,-0.19409
544,-0.08289,1.04691,-0.78675,-4.08813,8.71559,0.10367,11.95051,-4.54688,-1.99156,-19.37395,18.15344,7.96127,0.26883,-0.12375,0.0505,1.7455,0.88011,0.8768,-6.92469,18.69247,20.18212,-42.1014,-4.43143,-27.07253,19.85533,4.74452,-17.91601,10.00816,2.06672,2.47506,0.08264,0.64071,-0.26285,1.84849,1.07739,0.22209,0.40836,0.02937,-0.42273,0.22706,0.22207,-0.02541
545,-2.03206,0.18264,-0.3338,-1.86846,5.98531,0.14691,0.18592,-4.98399,0.01249,-23.34549,14.68373,7.1431,0.28728,-0.29966,-0.07656,1.95753,0.62205,0.70209,-29.77823,13.56747,20.4636,-66.1609,5.83794,-38.64757,23.12188,3.23263,-24.54444,9.18115,0.9022,2.65438,-1.71229,0.01976,2.27184,1.56313,0.21832,0.75413,0.70309,-0.75347,-0.42315,0.37873,-0.07185,0.25451
546,-2.64629,0.05064,0.18303,-1.027,2.27919,0.23617,-5.33715,2.89057,2.44848,-18.7441,6.6521,3.09444,0.48247,-0.53521,-0.06298,1.47842,0.24686,0.33615,-32.12519,17.78948,16.10967,-63.71701,19.51673,-48.49615,20.68459,0.04147,-30.84513,5.53394,0.86387,2.08151,-3.17613,2.33347,3.23502,1.83961,-0.24835,0.91948,0.46417,-0.5831,-0.62792,0.48849,-0.24161,0.32102
547,-1.83659,1.48703,0.11038,-3.84542,-0.28701,0.6839,-1.47651,14.37769,2.43844,-18.53467,0.8995,1.19667,0.61405,-0.5497,0.06895,0.4958,-0.15428,-0.09397,-26.10202,28.66358,14.39229,-42.67985,19.71306,-42.07926,12.59035,-5.53097,-31.89893,2.25512,1.63013,1.6662,-2.70034,4.64952,2.31963,0.92216,-0.69408,0.37852,0.09646,0.13507,-0.7058,0.21845,-0.27913,0.11553
548,-0.78286,2.59725,-0.32171,-7.75967,-0.52017,1.11635,6.97422,17.00753,0.69552,-25.97026,2.92495,4.09918,0.503,-0.37461,0.13961,-0.45378,-0.44348,-0.39821,-23.91879,31.53384,19.82748,-15.40619,-1.00902,-19.74771,4.17846,-9.20145,-25.96781,1.15477,1.32464,1.49317,-0.51542,4.32127,-0.30832,-0.89614,-1.12881,-0.24076,0.04184,0.60416,-0.65011,-0.2956,-0.25169,-0.11874
549,-0.50094,1.38286,-0.40131,-8.22543,-0.99544,1.20369,13.4605,6.04244,0.28535,-32.26192,5.65934,6.92031,0.27155,-0.25903,0.04565,-1.02663,-0.60162,-0.5519,-24.32161,14.18716,26.01913,5.93036,-39.58038,0.16642,1.26126,-7.35531,-16.13001,2.11691,-0.1372,1.07495,1.35686,1.39121,-2.85124,-1.32323,-0.8685,-0.31226,0.21292,0.45892,-0.5668,-0.54241,-0.13518,-0.18576
550,-0.32641,-1.36993,0.11278,-5.15704,-4.68117,1.3355,16.87578,-10.94868,2.86176,-33.43344,-0.12279,4.80409,0.23654,-0.28883,-0.09059,-1.29752,-0.72992,-0.63506,-22.93135,-19.81884,25.60099,3.07143,-73.93693,1.25979,2.57445,-3.0527,-7.83027,4.85671,-0.94173,0.33969,1.08666,-0.49291,-0.71157,0.50344,0.62916,-0.06979,0.15394,0.10729,0.14559,-0.28375,0.10737,-0.10444
551,0.92008,-3.16983,0.70973,-1.48273,-9.80023,1.70616,20.44306,-22.80091,6.46033,-32.345,-10.13596,0.51625,0.45511,-0.33006,-0.1246,-1.21955,-0.849,-0.61901,-17.34526,-49.61051,21.07055,-27.78882,-72.05034,-16.26506,3.30837,-0.60646,-4.46505,6.70713,0.29592,-0.69053,-0.12626,0.5795,6.7003,3.20736,2.93884,-0.05137,-0.05572,0.04176,1.72734,0.27348,0.44715,-0.01119
552,3.21106,-2.3791,0.66725,2.12595,-11.85641,1.58011,25.93539,-22.06196,7.27192,-26.26413,-12.9418,-0.26321,0.66992,-0.3091,-0.05668,-0.55128,-0.91405,-0.46048,-1.685,-52.24153,17.52993,-61.28569,-32.18954,-39.21253,1.73884,-1.48526,-6.13884,4.20273,3.59403,-1.05075,-0.63995,0.84378,11.64069,4.75089,3.89533,-0.1196,-0.28114,-0.326,2.78733,0.70991,0.63887,0.01906
553,5.243,0.19462,-0.05225,4.69826,-9.08482,0.71325,29.91365,-10.5759,4.16025,-12.12151,-7.03321,2.50839,0.68109,-0.29367,0.05617,0.40594,-0.89256,-0.25698,22.26106,-27.22691,14.06864,-62.55968,12.9836,-53.14713,-4.14649,-3.69664,-13.25509,-0.37701,6.69149,0.676,-0.59843,0.45366,4.54565,4.17088,1.72159,0.2517,-0.63173,-1.04953,1.35597,0.70659,0.43785,0.00604
554,4.43868,2.27001,-0.76043,1.42077,-3.32188,0.47237,22.41411,1.57225,-0.42428,-0.43738,-1.13077,3.84517,0.49019,-0.28415,0.16029,0.74565,-0.67662,-0.08232,28.97608,2.425,7.29868,-26.62952,37.97095,-51.63922,-16.19914,-0.96307,-24.77909,-0.7804,6.09755,4.00071,0.76154,7.57017,-11.70902,1.74701,-2.19912,0.93891,-0.31745,-0.21813,-1.95657,0.26937,-0.03102,-0.01544
555,-0.66683,2.02021,-0.76917,-9.73703,2.41291,1.93921,-1.60444,3.9207,-3.1024,-4.47171,-0.86376,1.12322,0.23785,-0.27173,0.16218,0.01425,-0.19252,0.12147,-3.22813,12.06401,-1.08656,17.61062,34.39973,-33.70333,-26.5348,6.04768,-30.88703,4.34281,1.46163,6.61661,3.31404,17.81188,-22.35074,-1.34135,-4.65681,1.35825,0.9407,1.992,-3.87321,-0.2596,-0.40585,0.00562
556,-6.81547,0.14092,-0.18736,-21.85374,6.37375,3.97077,-27.17725,-2.83007,-2.53894,-20.4787,-1.49888,-1.90514,0.09554,-0.33707,0.0295,-1.11171,0.39841,0.34071,-51.45453,2.65635,-3.2543,46.74325,-1.01972,-3.4351,-25.75801,7.62433,-22.71093,10.17273,-3.35657,6.75743,3.71051,17.28289,-22.50206,-2.58853,-4.16736,1.31921,1.89472,2.86321,-3.5581,-0.3994,-0.47973,0.10746
557,-9.00212,-1.00465,0.25403,-25.62745,8.94201,4.54067,-34.94264,-7.05238,-0.49154,-32.03781,5.8183,0.71231,0.13412,-0.4951,-0.11675,-1.52114,0.8365,0.436,-73.52827,1.93701,5.44089,54.81701,-55.97699,26.13689,-16.76012,1.41432,-3.47974,11.65047,-4.64025,4.37427,0.48211,7.35191,-16.78842,0.01524,-2.07432,0.98565,1.63815,1.65811,-2.40516,0.06746,-0.29058,0.18083
558,-7.30786,-0.80685,0.22475,-19.29974,8.67044,3.35692,-28.03876,-2.84055,0.1328,-28.08436,16.64103,7.78725,0.25924,-0.61565,-0.15948,-0.83706,0.76054,0.30251,-61.03164,19.30242,15.80274,43.83647,-93.91013,35.21745,-8.50367,-7.65151,12.79269,7.12815,-1.77652,0.99202,-4.22177,-3.51868,-5.80618,4.89932,-0.71898,0.66148,-0.00286,-0.35685,-0.32467,0.85951,-0.02831,0.11255
559,-5.55543,-0.62054,0.09064,-8.92542,4.04861,1.75668,-20.36567,2.0158,-1.11099,-9.74575,17.52341,11.87176,0.30505,-0.55518,-0.09545,0.29693,0.08075,0.04301,-31.15751,29.00164,16.34332,28.1551,-82.01643,16.13474,-7.25017,-15.38748,11.4378,-0.44793,2.42281,-0.87944,-9.91866,-12.70355,5.42278,7.15994,-1.36748,0.75081,-2.22744,-2.10739,1.77676,1.2398,-0.00248,0.02762
560,-5.36287,-1.6945,0.35649,-1.3498,0.07608,0.57813,-16.02003,-1.70297,-1.66367,15.79326,9.76509,10.28569,0.21533,-0.39331,0.00168,0.90541,-0.51711,-0.08033,4.22492,15.54697,10.44996,23.38789,-33.59054,-4.91644,-11.51579,-16.20819,-2.55586,-4.56981,3.35767,0.29287,-13.67951,-15.39862,8.58436,4.22384,-3.1869,1.33053,-3.43234,-2.68932,2.01873,0.76877,-0.33498,0.1162
561,-5.8165,-3.25467,0.88339,2.03556,2.28527,-0.52223,-15.40975,-8.42301,-0.5966,43.00251,5.18614,6.54318,0.11756,-0.38628,0.05007,0.6957,-0.36473,0.0563,38.13322,-0.04732,4.9632,27.85419,-2.36081,5.68538,-12.96013,-9.70587,-8.7031,-1.53767,-0.35106,3.20935,-10.58496,-9.92663,4.00434,-0.91914,-4.01626,1.75281,-2.59229,-1.92164,0.90786,-0.11191,-0.70828,0.31077
562,-6.8842,-2.9311,0.86223,4.39143,6.92941,-1.77886,-22.78097,-6.25556,-0.64776,65.22731,4.78267,3.10094,0.11712,-0.56836,-0.00204,0.29419,0.16351,0.25573,55.9173,1.56766,-3.56477,22.31417,-24.0616,42.84811,-9.88143,-2.54449,0.78207,4.89658,-4.82001,4.75917,-4.56436,-2.09502,-4.96272,-3.71162,-2.66195,1.28736,-0.85505,-1.0401,-0.49609,-0.61953,-0.7169,0.36039
563,-8.57594,-0.55019,0.06351,6.67561,6.65286,-2.45839,-34.91895,0.51665,-3.14054,70.6079,0.69897,-0.48396,0.19144,-0.70544,-0.11802,0.24735,0.27888,0.21281,45.58121,4.00624,-16.28062,-5.05557,-69.63596,70.39499,-7.23064,0.72055,16.51236,8.743,-6.26647,3.86302,-1.34083,2.16504,-11.39961,-2.84704,-0.59296,0.36051,-0.07524,-0.87004,-1.13702,-0.45855,-0.4278,0.21661
564,-8.06322,1.09803,-0.63261,6.71323,2.58638,-2.09191,-34.13056,-1.03724,-4.72964,57.27874,-6.51624,-3.68418,0.32664,-0.66837,-0.14611,0.3948,0.06792,-0.03692,27.65284,-10.45038,-22.47872,-28.60666,-94.70328,70.90798,-6.19637,0.31501,27.78136,8.72544,-4.92868,2.93519,-1.68898,1.83941,-10.20003,-0.7322,-0.30424,0.18964,-0.736,-1.04156,-0.61376,-0.04792,-0.25174,0.10928
565,-3.77044,0.08573,-0.41353,4.70319,1.49982,-1.5445,-12.3855,-10.53722,-2.3294,43.14674,-7.94648,-3.87105,0.46118,-0.53866,-0.03306,0.48636,0.07834,-0.22296,37.18282,-26.28944,-14.19533,-20.90828,-97.19673,59.32286,-3.23518,-1.59042,30.57613,7.07607,-2.89497,3.50972,-2.80885,0.16417,-4.65771,-0.00721,-1.62347,0.87749,-1.58458,-0.90166,0.09895,0.06157,-0.25884,0.14832
566,0.87286,-1.89383,0.32455,3.23754,4.52407,-1.66418,12.32453,-17.16257,2.22486,41.4675,-0.53231,-0.13038,0.51657,-0.40253,0.10104,0.54406,0.23083,-0.26007,68.33885,-22.53246,2.33999,6.03161,-93.8166,49.66784,2.36373,-1.759,25.32931,5.40116,-2.06419,3.91943,-0.9027,0.29021,-0.43173,-0.67268,-2.20092,1.33515,-1.03819,-0.24889,0.45622,-0.1684,-0.22654,0.21145
567,2.4002,-1.96265,0.55026,2.78533,7.31261,-2.02815,21.23336,-16.10376,4.84135,43.72215,8.69934,4.07211,0.55205,-0.33415,0.13795,0.51467,0.20629,-0.20318,83.19068,-5.82124,14.4007,26.91127,-89.73521,41.46624,7.31931,-0.58378,16.45886,4.88727,-4.00095,2.79799,2.47394,1.43567,0.30303,-1.15865,-1.10864,0.91159,0.41132,0.39132,0.78414,-0.37481,-0.12427,0.20127
568,2.27256,-0.29821,0.06607,1.43762,7.57844,-1.74582,19.63067,-11.81497,4.35329,38.49248,10.75034,4.24276,0.64092,-0.37733,0.09087,0.3415,0.13135,-0.07756,72.5418,2.98231,15.39134,34.99178,-84.64804,36.87246,10.09577,-2.16471,12.33109,6.33108,-8.1879,1.08404,2.24661,1.18015,-0.88038,-0.82104,0.63972,-0.11296,0.91831,0.46974,1.12586,-0.32232,0.02286,0.06632
569,1.96103,0.84539,-0.45029,-1.93772,6.27306,-0.57553,16.74489,-8.81943,2.36854,25.96121,3.84006,0.17639,0.66384,-0.42474,0.02647,0.16703,0.19948,0.07331,51.65622,-2.67643,7.72292,36.65693,-86.35114,41.13525,11.29488,-6.06208,16.63014,7.66545,-10.94148,0.18325,-1.93208,-0.1974,-2.64415,-0.33566,1.63086,-0.8884,-0.15222,0.03433,0.97869,-0.13581,0.24557,-0.14502
570,0.19758,0.57101,-0.46411,-5.2751,3.838,0.82184,8.43458,-8.48367,0.68653,12.23554,-5.93128,-4.222,0.54467,-0.38019,-0.01065,0.12671,0.19334,0.1638,24.90673,-15.46498,-1.35059,42.4066,-97.53887,42.49912,10.53243,-5.24346,17.89075,6.14787,-9.40148,0.64774,-3.54762,0.05459,-7.31869,-0.42476,0.98964,-0.4851,-0.81349,-0.46973,-0.15209,-0.06098,0.32397,-0.1661
571,-2.32154,-0.28849,-0.03325,-5.33932,0.23951,1.5007,-3.82987,-11.02374,0.72491,4.86721,-11.78763,-5.26312,0.40391,-0.28227,0.00832,0.23471,-0.15007,0.15175,1.58545,-27.04007,-4.18171,50.62987,-101.06445,27.28973,7.88692,1.78516,6.34293,3.28034,-5.45034,2.3011,0.93042,2.45144,-13.3065,-1.15744,-0.80688,1.04538,0.32123,-0.34762,-1.64526,-0.16253,0.00926,0.15998
572,-2.99011,-1.22189,0.54868,-2.95978,-2.49043,1.31077,-7.66549,-16.73524,3.10692,6.6458,-11.4291,-2.41799,0.34504,-0.24176,0.06342,0.31982,-0.60361,0.06788,-1.07028,-33.96204,2.75432,41.64922,-87.78481,10.77723,6.07902,5.1116,-6.17288,2.76031,-3.25948,3.63916,4.38603,3.62709,-14.70341,-1.84113,-1.72284,2.09942,1.37214,0.0397,-2.30672,-0.30032,-0.33769,0.47969
573,-1.56935,-2.56297,1.09505,-2.49185,-2.40482,1.1035,0.47799,-24.62846,6.74854,10.20169,-8.22459,0.92807,0.35855,-0.35746,0.07856,0.1082,-0.69722,-0.01473,12.0121,-39.77584,14.26097,12.63992,-68.03291,13.91448,8.95631,-1.1986,-4.21456,4.98522,-4.59226,2.67556,1.84139,1.91639,-8.92344,-0.64562,-0.99358,1.2552,1.1949,0.15732,-1.82234,-0.12891,-0.2709,0.34271
574,0.28814,-3.5271,1.31246,-4.87453,-0.75112,1.40366,12.07603,-27.7616,9.10618,9.85337,-7.65262,0.95151,0.38815,-0.54649,0.03643,-0.29451,-0.37036,-0.03067,24.5154,-43.95423,19.63108,-15.84981,-54.51485,34.65038,15.97289,-12.5625,9.56361,7.30995,-7.82899,0.33916,-3.8826,-0.9406,0.06758,1.92058,-0.1787,-0.54034,0.53875,0.05068,-0.96952,0.24593,0.00481,-0.0875
575,0.68845,-2.06505,0.71076,-6.53456,0.41817,1.70877,15.9491,-18.72331,7.49583,7.77106,-8.5377,-0.59901,0.33604,-0.56725,-0.00189,-0.39017,-0.05384,0.02816,26.94903,-35.48322,15.48051,-26.69538,-54.60243,56.27113,20.71706,-21.38471,20.08757,7.95617,-10.17328,-0.49532,-9.2153,-3.2853,5.25571,2.89195,-0.57318,-1.21493,-0.08255,-0.41181,-0.39658,0.3482,0.02362,-0.30251
576,-1.39687,1.253,-0.5043,-5.46548,1.21533,1.51065,6.46805,-3.7836,1.93874,4.46414,-4.23245,1.30224,0.17679,-0.39438,-0.01587,0.04866,-0.11088,0.10576,11.93781,-13.342,9.63523,-17.76128,-66.84398,64.86251,18.03005,-22.55738,18.36575,6.8473,-10.03683,0.59092,-11.90435,-4.31888,4.37168,1.36101,-1.30109,-0.45068,-0.66167,-0.95364,0.06272,0.09977,-0.18408,-0.16664
577,-4.07851,2.5911,-1.12037,-3.4456,2.81512,0.92578,-8.65526,1.24509,-3.31332,0.30538,5.22145,6.01968,0.07933,-0.2554,-0.00995,0.65245,-0.3452,0.13452,-12.47788,3.83065,8.66159,0.32156,-78.30193,57.86532,10.74765,-16.49429,9.66688,5.06566,-8.22283,1.79222,-10.26065,-3.67696,1.59964,-0.65714,-1.02088,0.5179,-1.00698,-0.94128,0.703,-0.18469,-0.24582,0.09222
578,-4.45646,0.43008,-0.47627,-2.72581,4.60595,0.36924,-16.01329,-7.4179,-4.01006,-0.71745,10.31236,6.49018,0.21724,-0.29108,0.03667,0.79435,-0.28397,0.11381,-24.12623,0.83991,8.36953,14.34164,-78.54686,42.04357,5.64057,-8.1872,4.55762,4.12083,-6.31631,2.09023,-5.33952,-1.85273,1.27657,-1.00833,-0.32138,0.90796,-1.03163,-0.44011,1.36082,-0.20317,-0.12502,0.25035
579,-3.16271,-2.1889,0.51157,-3.22368,4.48799,0.10331,-14.52241,-17.29576,-1.12366,3.54541,4.99276,-0.21942,0.50414,-0.4841,0.08667,0.27776,0.06871,0.07907,-17.02883,-15.76276,1.81447,20.20457,-71.63366,24.18626,4.81303,-2.32051,5.05997,4.27344,-4.68151,1.77466,-0.72816,0.0214,2.73133,0.10197,-0.37439,0.79459,-0.82102,0.04705,1.37816,-4e-05,-0.0497,0.22806
580,-3.0723,-2.78241,0.78611,-3.48144,2.62002,0.07595,-13.35651,-19.14972,0.95973,13.1317,-4.75879,-7.04975,0.66524,-0.72068,0.06115,-0.34169,0.26363,0.02677,-1.70842,-28.98907,-7.90581,22.82553,-66.70936,7.65533,5.59909,-0.51832,4.86734,4.69048,-3.74049,1.25178,1.36496,1.11095,3.00185,1.1208,-0.89939,0.39945,-0.28279,0.36406,0.59731,0.18575,-0.08781,0.07881
581,-4.41563,-2.19485,0.4665,-3.30574,1.50293,0.24591,-14.52839,-16.4019,0.32038,24.42596,-9.7295,-6.01706,0.52547,-0.75801,-0.01483,-0.43563,0.10978,-0.04551,13.18804,-30.72128,-9.96885,27.00387,-71.35002,-1.97971,5.17905,-3.07668,0.93227,5.11738,-4.61296,0.82168,-0.91157,0.48652,0.29712,1.52919,-1.18687,0.0048,-0.09981,0.16058,-0.40256,0.29182,-0.18315,-0.04539
582,-5.03669,-1.60533,0.1471,-3.1872,1.58543,0.60735,-12.88738,-14.05438,-1.14783,26.82564,-8.40588,0.92902,0.22576,-0.51328,-0.03549,-0.09819,-0.17961,-0.09297,17.35298,-25.35252,-1.43711,35.6309,-84.34044,-2.5576,3.4782,-8.57175,-3.76646,5.61606,-6.37181,0.68293,-7.04442,-1.87243,-3.91418,1.79187,-1.23723,-0.1361,-0.86395,-0.64559,-0.98177,0.39016,-0.28942,-0.05503
583,-4.49862,-1.53552,0.12597,-3.08029,1.70014,0.86611,-10.18846,-13.57909,-1.66337,15.57483,-4.71146,5.25725,0.07856,-0.31227,-0.00862,0.11278,-0.29298,-0.0649,2.55973,-21.83641,6.79755,48.78682,-91.58975,-1.93135,2.73426,-11.53957,-5.80139,5.48924,-6.27694,0.66977,-10.06983,-3.33885,-5.01261,1.92485,-1.24489,-0.10964,-1.34543,-0.96888,-0.67932,0.43604,-0.32952,-0.033
584,-4.00779,-2.46079,0.39375,-2.51409,1.59681,0.68737,-11.34085,-16.76191,-1.67325,4.34288,-3.55496,2.38123,0.14724,-0.35952,-0.03708,0.06301,-0.16605,0.02684,-15.42319,-27.86569,3.87937,56.60126,-85.48062,-5.20843,3.99778,-7.78713,-4.82604,3.92146,-4.14603,0.34259,-4.85889,-1.82913,-2.52074,1.75601,-1.22235,-0.17177,-0.19605,-0.29738,0.03447,0.3425,-0.25728,-0.0747
585,-3.83385,-3.64985,0.67762,-1.53607,1.16172,0.28094,-13.03578,-23.53998,-1.43503,6.23395,-6.69331,-3.94148,0.24943,-0.44695,-0.11585,0.04902,-0.05659,0.10627,-13.96182,-41.88104,-4.9524,44.93424,-70.64848,-5.97448,5.69502,-0.71392,-3.07598,1.52404,-2.7036,-0.20346,4.07477,1.00467,-0.01019,1.35801,-1.11013,-0.2531,1.7716,0.54485,0.25874,0.11747,-0.13196,-0.10975
586,-3.52944,-3.58418,0.69841,-1.55612,1.12494,0.13353,-9.69617,-28.91085,0.07674,13.71913,-8.15303,-6.35592,0.35306,-0.47295,-0.12549,0.09157,-0.04745,0.13043,1.26803,-48.57761,-4.96807,19.39733,-55.37405,1.80876,5.73773,3.29344,-2.03703,0.00377,-3.1591,-0.21865,8.45445,2.28694,0.4382,0.69685,-0.83276,-0.02299,2.50479,0.69782,-0.09883,-0.14586,-0.03839,-0.01129
587,-2.95321,-1.95066,0.41445,-2.88439,1.91593,0.33447,-2.74008,-26.79009,2.39118,15.05123,-5.31627,-3.76303,0.48564,-0.51139,-0.02585,0.07599,-0.00377,0.10761,11.92157,-38.96524,4.09387,8.06894,-54.54882,11.95814,3.25694,0.51929,-0.52998,-0.09198,-3.63957,0.66381,2.8369,0.77632,-0.10881,-0.18306,-0.65679,0.64967,0.68037,0.12231,-0.31008,-0.32237,-0.02722,0.20349
588,-2.35096,0.05576,-0.02206,-3.67049,2.31869,0.52055,2.18841,-16.61364,3.24166,14.19144,-4.35773,-1.69696,0.53528,-0.54245,0.08075,0.08411,0.0457,0.04267,17.74768,-22.88039,7.35696,29.40885,-78.82259,11.20745,-0.14537,-7.73703,1.54538,-0.06553,-2.28581,1.68118,-10.34668,-2.51823,-0.5888,-0.60087,-1.13923,1.41677,-2.68364,-0.52737,-0.10834,-0.30067,-0.13,0.37192
589,-2.24628,0.75114,-0.26178,-3.35353,1.50711,0.4871,1.59892,-6.57864,2.18133,18.28174,-8.38878,-3.67025,0.49952,-0.58852,0.08687,0.08308,-0.02423,-0.05231,23.62223,-16.22008,-1.47916,65.67981,-109.22256,-1.43561,0.42158,-15.85219,4.74483,-0.87523,-0.10379,1.66789,-19.82758,-5.24896,0.94164,0.13857,-2.13344,1.63702,-4.63195,-0.69775,0.5189,-0.06035,-0.2932,0.34607
590,-2.91457,-0.19132,-0.13562,-3.43799,0.63522,0.43561,-3.64822,-5.41504,0.63822,21.91228,-11.77197,-6.61866,0.46298,-0.64509,-0.00923,-0.04503,-0.1739,-0.12406,21.17468,-22.12563,-11.24004,79.83069,-109.76976,-11.59455,6.29194,-17.79561,8.63124,-0.91036,0.00023,0.84168,-16.31216,-5.72846,5.29545,1.20534,-2.56345,1.09324,-3.1864,-0.5147,1.42518,0.19696,-0.36364,0.14804
591,-3.46232,-0.98289,-0.02984,-3.7853,1.3621,0.4019,-9.04865,-9.9003,-1.03892,19.04262,-8.39616,-5.21917,0.37965,-0.5159,-0.09954,-0.08067,-0.2431,-0.10151,7.93657,-25.39858,-10.36691,55.12548,-76.49234,-8.26748,9.42378,-9.61973,7.53415,2.21218,-3.56564,0.27479,-2.74457,-3.39568,4.95838,1.54585,-1.75631,0.10302,0.23203,-0.41173,1.21019,0.28005,-0.29095,-0.07239
592,-2.63974,-0.25554,-0.25774,-2.78385,3.24158,0.17849,-8.86657,-10.6582,-2.55959,14.73095,-0.34935,0.28227,0.25049,-0.16642,-0.06908,0.20912,-0.15479,0.00962,1.10504,-14.20691,-1.50767,11.35473,-39.23552,4.06811,5.07568,1.34882,2.74992,7.0187,-8.30209,0.17927,7.851,-0.22154,1.8882,1.45514,-0.38899,-0.81121,2.16329,-0.2945,0.59852,0.21731,-0.17335,-0.18995
593,-1.215,0.37317,-0.36392,-0.78554,3.83611,-0.13607,-1.96881,-8.93754,-2.12462,16.37964,3.21181,3.22025,0.23437,0.01676,0.03841,0.55046,-0.00538,0.10467,14.19617,-3.22599,4.57218,-10.90052,-31.34214,12.33538,-0.24571,3.74201,-0.23225,8.61828,-9.26328,0.23069,6.51723,0.70324,1.30289,1.31142,0.17394,-0.99787,1.3132,-0.10409,0.45949,0.06526,-0.11736,-0.15279
594,-1.64749,-1.30205,0.1399,0.37368,1.94764,-0.1835,3.40126,-13.66227,0.18964,23.28815,-4.49879,-1.23242,0.3106,-0.247,0.03886,0.56164,0.03871,0.09824,33.55503,-16.60674,0.84917,12.85012,-61.5796,11.77477,0.3744,-2.11802,0.11182,5.43021,-5.17022,0.45019,-2.6998,-1.03667,-0.69507,1.18335,-0.6026,-0.23751,-0.42476,-0.08347,0.0814,-0.05632,-0.15483,0.00173
595,-3.80559,-3.63625,0.74614,-0.40178,-0.56447,0.17375,-0.79596,-22.68702,1.27433,25.85756,-17.4318,-8.8699,0.30483,-0.64365,-0.06741,0.26802,-0.04658,0.00944,32.43534,-46.56528,-9.22101,62.73733,-100.65666,7.99981,4.67707,-6.16041,2.88664,1.64416,-0.76268,0.87564,-9.06551,-2.28842,-5.33554,1.6354,-1.85608,0.82026,-1.16531,0.02748,-0.35138,0.08483,-0.23315,0.16712
596,-4.83758,-2.84478,0.5495,-2.07989,-1.057,0.51819,-11.27349,-23.10015,-0.46362,18.98358,-20.1601,-10.56966,0.27392,-0.7101,-0.05594,0.05103,-0.15084,-0.08469,7.82337,-54.77539,-14.09984,90.72754,-110.72927,6.56576,6.01405,-3.209,4.49549,0.94415,-0.88197,0.88781,-8.18485,-1.26066,-9.52608,3.16569,-2.495,1.28193,-0.95519,0.19642,-0.66499,0.50817,-0.30337,0.25082
597,-3.82998,0.82803,-0.3466,-2.74307,1.05592,0.35205,-17.11132,-12.25083,-2.61455,10.66242,-7.0405,-3.46444,0.32638,-0.43113,0.10056,0.18293,-0.20943,-0.13261,-12.35765,-26.25825,-6.72417,72.82966,-80.17761,7.15972,3.89601,0.76152,3.62218,1.61446,-4.11406,-0.2149,-4.52659,0.00707,-9.33115,4.7142,-2.06619,0.78426,-0.6626,0.11779,-0.86595,0.83054,-0.31962,0.19819
598,-2.73168,2.97654,-0.86837,-2.03266,4.64871,-0.2569,-12.76282,-2.64396,-2.38051,11.69581,9.87847,5.54713,0.36658,-0.14799,0.16215,0.43847,-0.14589,-0.09386,-3.88638,8.60141,6.16035,36.44368,-34.75665,5.19127,2.84253,-0.83573,3.76455,0.81068,-5.4747,-1.70325,-3.5548,-0.84643,-3.64125,4.20479,-0.86626,-0.20501,-0.84052,-0.30902,-0.54818,0.68173,-0.24689,0.03219
599,-3.04998,1.36679,-0.45635,-0.76739,7.02055,-0.78343,-5.97951,-3.23356,-0.52899,21.84568,14.16551,7.18717,0.40148,-0.18013,0.04841,0.41029,0.02076,0.03119,20.40973,14.38866,9.27352,22.64195,-19.66162,-0.164,5.02291,-5.29631,6.58774,-0.5174,-3.43871,-1.89498,-5.164,-3.20255,1.12859,1.09477,0.4742,-0.89331,-1.11286,-0.95344,-0.15458,0.12771,-0.06228,-0.14343
600,-4.12917,-1.43478,0.2546,0.04329,5.24668,-0.703,-6.34952,-8.95472,0.19951,30.05532,2.45841,0.27565,0.53484,-0.50809,-0.05651,0.12765,0.05619,0.12401,29.25709,-8.57902,-2.38559,35.1778,-51.14023,-3.59873,8.41151,-7.24088,9.19926,-0.40665,-0.89873,-1.13492,-6.78105,-5.17868,-1.25064,-2.00224,1.76986,-1.20989,-0.92939,-1.4584,-0.55631,-0.39658,0.27742,-0.27733
601,-4.69429,-2.58962,0.52709,-0.39827,0.14016,0.07099,-10.2886,-12.5897,-0.5988,29.06598,-13.69955,-7.20375,0.57131,-0.74205,-0.06047,-0.00275,-0.13046,0.07677,19.19729,-33.73233,-14.81683,45.87446,-87.44506,-2.82923,8.57437,-4.76979,8.0526,0.42365,-0.34283,-0.81424,-5.88127,-4.71234,-6.33221,-2.172,2.2302,-1.20826,-0.30418,-1.24938,-1.18429,-0.54168,0.56884,-0.31564
602,-4.51281,-2.71211,0.57431,-2.15225,-4.06918,1.0819,-9.59264,-16.05976,-0.56893,22.22714,-22.61798,-9.23388,0.3517,-0.68903,-0.05842,0.09541,-0.33029,-0.03353,9.3586,-46.7637,-14.40754,42.27903,-81.04353,-2.11339,4.0792,-1.04684,3.0482,0.33348,-1.19729,-0.35663,-2.85273,-1.61431,-5.41493,-0.30981,0.54338,-0.37851,0.17213,-0.21492,-0.91694,-0.41877,0.42973,-0.1742
603,-4.24629,-3.04994,0.77227,-4.01688,-4.03966,1.5267,-6.43328,-21.27536,1.09923,16.23337,-20.25438,-7.13585,0.15582,-0.59369,-0.09918,0.13832,-0.33372,-0.06448,6.20427,-48.1937,-5.31997,38.78191,-44.63856,-2.81186,-0.85681,-0.01205,-1.40941,-0.10008,-2.34677,0.66182,-0.63015,1.37245,1.64,1.13901,-2.04516,0.87103,0.13607,0.75682,0.06892,-0.19444,-0.05843,0.05859
604,-3.63528,-2.37994,0.68237,-4.65738,-0.4596,1.04327,-5.71783,-19.49962,1.95329,12.48698,-9.21114,-4.33668,0.27757,-0.57876,-0.08394,0.02724,-0.14537,-0.01659,4.36399,-32.73536,0.04574,41.04994,-28.32677,-0.2708,-2.71392,0.69281,-1.65937,1.25657,-3.57562,1.03648,1.40493,2.96801,6.47949,1.80866,-2.58225,1.20021,0.07647,0.98199,0.72085,0.14557,-0.359,0.18612
605,-2.51959,0.0108,-0.04565,-3.42804,2.94395,0.07723,-8.29089,-6.11465,-0.18599,9.4543,1.31061,-3.12947,0.51943,-0.47763,0.01133,0.01566,0.06356,0.00183,0.17713,-4.54039,-4.37634,39.30156,-43.3119,3.85991,-1.24506,1.9382,1.07555,4.26382,-3.88734,0.52282,2.58201,3.14804,6.09985,2.30942,-0.96422,0.4935,0.07727,0.75066,0.86043,0.42811,-0.23207,0.15098
606,-2.29077,2.34991,-0.8715,-0.78188,3.17765,-0.6026,-13.48794,6.85103,-3.95126,8.1922,1.36994,-4.58262,0.48384,-0.21232,0.07702,0.31805,0.08695,-0.06236,-6.51516,9.67278,-14.93112,36.22094,-54.81863,-0.5624,2.34974,0.58387,3.35182,5.34797,-2.59555,-0.11477,-0.18733,1.25399,4.33131,3.0805,0.08142,-0.08797,-0.26915,0.45481,0.83098,0.4732,0.0141,0.0553
607,-3.70259,2.82329,-1.08059,0.78713,1.52038,-0.49529,-16.04128,6.30268,-5.4816,9.87265,-5.58123,-5.42992,0.1873,0.00283,0.059,0.66119,-0.09447,-0.1252,-9.0832,-2.2283,-18.57627,40.95296,-43.66674,-14.43933,5.03209,-2.46779,2.66533,2.71202,-1.72246,-0.97419,-3.83483,-1.48418,2.48365,4.02591,-0.4667,-0.09564,-0.48376,0.18364,0.42828,0.36734,0.01674,-0.00189
608,-4.90225,1.99599,-0.75053,-0.66095,1.64879,0.23367,-8.82845,-2.86265,-2.85921,12.84895,-5.8776,-0.75049,0.0009,-0.03102,0.02368,0.66906,-0.23577,-0.06231,2.00616,-14.65289,-5.24583,42.82347,-28.31718,-21.99066,4.84397,-4.42143,-0.82481,0.06721,-3.18695,-1.92837,-3.83966,-2.99217,0.13971,3.78168,-0.77348,-0.16287,-0.01977,-0.11938,-0.4695,0.17148,-0.14754,-0.00545
609,-4.06597,1.29829,-0.37972,-3.95652,3.78723,1.03991,3.96416,-7.13345,1.4562,12.62663,3.465,7.18421,0.14221,-0.27061,0.02935,0.39914,-0.15643,0.11363,18.95646,-5.46945,15.59474,25.07586,-23.52202,-13.52631,3.51891,-4.59893,-3.61838,0.7209,-5.54054,-2.03269,-1.48387,-2.35703,0.00931,1.59792,0.2002,-0.61179,0.46182,-0.35927,-1.06541,-0.13154,-0.19359,-0.00733
610,-2.14969,0.57686,-0.07162,-6.42416,4.7064,1.45116,10.09513,-4.47182,3.88728,6.88124,11.82829,10.47233,0.48939,-0.58472,0.04024,0.08901,-0.00035,0.25102,22.16291,11.72462,24.7199,-1.77773,-20.30505,-1.74694,3.85752,-3.78354,-2.52365,2.37984,-6.06594,-1.6652,-0.86445,-0.66156,4.30167,-0.66675,1.47112,-1.196,0.1279,-0.42058,-0.48124,-0.33886,-0.04486,-0.09341
611,-1.02108,-0.65847,0.229,-6.66418,3.89604,1.23892,6.73096,-1.85241,3.36832,-0.22479,13.98884,7.4523,0.73024,-0.78764,0.01435,-0.14632,0.09485,0.25735,9.75072,18.71621,18.24961,-7.08872,-14.7331,-2.41584,4.39055,-2.99839,0.04877,2.54782,-4.0375,-1.9036,-1.84898,-0.26986,7.6807,-0.56938,2.24736,-1.65868,-0.56393,-0.45919,0.77071,-0.10634,0.20502,-0.25887
612,-1.46077,-1.38492,0.30571,-5.63582,3.97752,0.65424,-1.13111,-2.47805,0.90947,-3.58723,14.52285,4.04069,0.6542,-0.69169,-0.01859,-0.23923,0.18581,0.16072,-6.48937,17.69591,8.13362,22.54356,-15.19947,-12.30153,2.34988,-2.21415,-1.15778,2.894,-1.24423,-1.95686,-0.21104,-0.52837,4.40166,1.73768,2.26036,-1.55379,-0.45921,-0.10629,2.1189,0.54767,0.37208,-0.31309
613,-3.02614,-0.93751,0.14925,-3.91417,4.52132,0.07723,-10.05735,-7.15896,-1.32144,-0.76667,12.25553,2.12882,0.40072,-0.41134,-0.01663,-0.10011,0.176,-0.01195,-17.3651,6.47646,2.05006,67.8011,-29.5931,-13.36002,-0.98856,-2.98591,-5.27932,4.75909,-0.16333,-0.37526,2.37456,-3.48887,-5.61341,3.70459,0.97537,-0.45772,-0.26585,0.02795,2.57453,1.04912,0.27627,-0.11291
614,-3.98934,-0.12471,0.01248,-1.17163,3.07523,-0.36341,-14.21981,-13.46268,-1.55448,8.09638,2.75462,-1.01235,0.25356,-0.25269,0.01782,0.18054,-0.04854,-0.20413,-12.83176,-17.54518,-1.71432,89.80578,-47.33355,-0.56644,-3.78974,-5.40706,-7.41391,6.21332,-1.58431,1.86047,2.31246,-10.34818,-17.09621,3.23708,-0.86966,0.88919,-1.04314,-1.00236,0.27092,0.82954,0.03273,0.14859
615,-3.06242,0.2838,-0.09926,1.4513,1.00791,-0.55913,-8.03882,-13.08482,-0.68128,20.03066,-7.29694,-3.78125,0.23893,-0.27971,0.04326,0.44391,-0.21993,-0.2467,11.999,-31.87935,-4.67941,65.39945,-41.98822,5.55777,-4.51938,-4.951,-9.785,5.84662,-4.45197,2.48505,3.00976,-10.53247,-21.52079,1.00895,-1.55777,1.24547,-0.50403,-1.44798,-3.01354,0.08657,-0.11724,0.21309
616,-1.68084,-0.26805,-0.11231,2.44379,1.2393,-0.44299,1.418,-6.34294,-0.40495,29.96165,-7.63575,-2.5482,0.23479,-0.38236,0.0062,0.7247,-0.08869,-0.05534,39.01113,-20.3217,-4.82231,17.1137,-21.31442,-1.5495,-1.33098,-2.96256,-11.84208,4.68487,-6.96728,0.77026,3.20671,-3.72099,-15.30863,-0.14428,-0.61121,0.38267,0.71104,-0.44728,-4.02077,-0.36941,-0.08474,0.07201
617,-1.81542,-1.4971,0.17693,1.61508,2.86144,-0.16161,1.46378,-4.24458,-0.21497,33.50066,-0.3472,0.7276,0.26735,-0.45965,-0.0693,0.90261,0.1001,0.17341,42.84381,-1.75968,-1.74966,-11.68553,-16.86952,-4.43123,3.67685,-2.84821,-6.60054,3.65732,-7.35535,-2.06444,-0.26168,-2.25845,-4.76436,1.60965,0.86239,-0.85059,0.40029,-0.61265,-2.76953,-0.09572,0.06378,-0.12479
618,-3.28933,-2.1372,0.60781,0.66376,2.55009,-0.08894,-8.69697,-10.40565,0.80648,32.56968,2.94035,0.80715,0.37399,-0.42571,-0.09279,0.7618,-0.00828,0.18083,25.68244,-1.11239,0.16514,-4.46192,-21.14392,-1.82931,6.3959,-1.74182,3.3663,2.85814,-5.22203,-3.57576,-4.5683,-2.92923,5.77373,4.54241,1.30817,-1.24893,-0.59986,-0.99787,-0.01759,0.50134,0.12676,-0.18449
619,-3.66271,-1.3898,0.68765,0.98474,-0.8078,-0.25602,-14.77381,-14.03065,1.5233,30.48309,-4.23283,-3.19921,0.52223,-0.3124,0.01061,0.44179,-0.37665,-0.03702,13.08126,-15.371,-2.45946,26.13905,-17.80175,-3.02144,5.61633,0.26933,7.14703,2.13983,-1.72245,-2.08273,-5.35624,0.22324,10.87319,5.11461,0.18561,-0.36434,-0.76791,-0.01393,2.05643,0.75545,-0.00464,-0.03925
620,-2.00561,0.09372,0.20445,1.10532,-4.35241,-0.1445,-7.85992,-6.95518,0.45705,25.65205,-14.83817,-6.58368,0.62263,-0.30244,0.14869,0.23988,-0.65788,-0.25171,16.23826,-22.84176,-6.80089,49.14865,-10.7585,-6.48586,3.79031,-1.17704,2.46616,0.84466,1.36575,0.98428,-3.11978,2.12622,8.17994,2.58848,-1.46276,0.93035,-0.37383,0.70508,2.07578,0.48532,-0.19313,0.16169
621,-0.78417,0.70132,-0.37752,-0.74915,-4.1823,0.41277,2.50698,1.83369,-1.39017,18.32528,-16.63216,-5.47546,0.56212,-0.49221,0.10388,0.22683,-0.57737,-0.2727,23.09197,-15.97558,-7.58201,43.13673,-4.44066,-10.09227,4.46819,-5.63895,-5.21934,-0.54343,2.09948,2.71764,-0.23598,-0.27571,1.69898,-0.44805,-2.18755,1.50238,-0.09706,0.20581,0.75224,-0.02909,-0.26466,0.24095
622,-2.2157,0.15413,-0.49152,-3.77014,-0.33703,0.96359,3.39818,0.42446,-1.46321,11.22936,-7.61445,-1.52888,0.38088,-0.69213,-0.12618,0.26695,-0.22376,-0.14153,18.53565,-7.46143,-3.00812,20.38828,-4.039,-14.56954,7.17105,-8.34166,-10.98298,0.33535,0.02522,2.48172,2.77808,-3.22101,-4.40642,-1.79112,-1.57576,1.11327,0.2398,-0.55747,-0.76397,-0.43519,-0.18397,0.17099
623,-4.6573,-0.28329,-0.13457,-5.27374,3.1364,1.0469,-4.4965,-7.77406,0.6637,7.17935,3.33275,1.81398,0.29108,-0.64695,-0.2602,0.2777,0.0432,-0.02876,4.9983,-5.34334,4.01042,2.40155,-20.39516,-14.09299,7.73513,-5.95907,-10.33863,4.14552,-2.61188,1.56218,4.01319,-3.45312,-6.40826,-1.2619,-0.20669,0.1717,0.43432,-0.6983,-1.36693,-0.48263,0.01189,0.00149
624,-5.15584,-0.1256,0.20822,-3.30606,3.58348,0.64804,-10.18466,-10.40554,2.0232,10.67579,7.6171,3.74135,0.28333,-0.36001,-0.16629,0.30998,0.0863,0.03537,2.04109,-3.51013,7.6547,-6.18341,-48.64841,-3.29742,5.63513,-0.49289,-3.36925,7.85236,-3.26431,0.75901,2.00453,-2.79318,-3.57762,0.0653,1.09213,-0.82847,0.07926,-0.46055,-0.7387,-0.1887,0.25767,-0.21799
625,-3.43526,0.12388,0.15196,0.73053,2.38167,0.15507,-6.72831,-4.26182,0.60483,20.5891,4.73401,4.39776,0.20225,-0.10759,0.00561,0.39219,0.0886,0.15098,17.69556,1.81008,5.21845,-6.77119,-57.95182,9.22728,4.9262,2.29895,1.61398,8.36749,-2.36064,0.21709,-0.80494,-2.19118,0.4084,0.83174,1.65993,-1.3479,-0.44463,-0.13753,0.29828,0.12281,0.40749,-0.36137
626,-1.41409,0.38812,-0.1234,2.89493,2.27986,-0.15915,1.69262,1.3885,-1.03975,26.88767,2.97284,3.36331,0.23058,-0.18885,0.13445,0.45041,0.11272,0.28686,34.50146,6.75587,2.06497,5.12915,-35.66458,12.13516,7.69678,-0.20676,-1.27555,6.05714,-2.5478,0.12741,-1.67161,-0.19845,2.03004,0.47095,1.23595,-0.94288,-0.57105,0.22315,0.79182,0.17078,0.29805,-0.24716
627,-0.763,0.58884,-0.17419,1.96209,3.60415,-0.45584,6.25979,-2.00469,-0.03207,25.55372,8.08248,1.14971,0.5052,-0.54446,0.17972,0.46185,0.00467,0.26123,37.12294,6.72701,3.72624,26.40917,-13.81074,7.01912,10.49458,-3.81086,-6.83187,3.82242,-4.47756,0.64938,-1.12247,2.43337,1.35738,-0.37414,0.19263,0.14644,-0.37578,0.35263,0.59403,0.02394,-0.01142,0.09005
628,-0.9423,0.26264,0.02329,1.36877,4.43864,-0.94411,4.63285,-9.71529,1.8474,27.04638,14.32563,-0.31305,0.72579,-0.761,0.12417,0.52358,-0.20622,0.04546,36.3512,3.88951,6.69883,44.03238,-19.52187,0.53885,9.02741,-3.69321,-7.82481,3.65454,-5.48163,1.46765,-0.05132,3.22599,-0.28185,-0.32923,-0.84503,1.03168,-0.07365,0.22615,0.04587,-0.00012,-0.26914,0.33954
629,-1.61871,-1.0053,0.27156,3.2596,4.44706,-1.3783,-2.05898,-12.07291,1.44194,39.37739,14.74912,0.21206,0.57578,-0.62753,-0.03401,0.64459,-0.19223,-0.12766,43.73784,5.25107,4.29326,54.86545,-39.14391,-5.5938,4.36354,-1.05821,-4.54001,4.47157,-3.8284,1.49788,1.90019,1.3938,-2.12381,1.40248,-1.25913,1.00881,0.29443,0.14583,-0.49029,0.25538,-0.29094,0.2688
630,-2.86399,-2.423,0.48877,6.46043,3.88522,-1.6221,-10.55299,-7.7752,-0.67873,55.78457,7.40811,-0.14721,0.24752,-0.3231,-0.16738,0.84399,0.07804,-0.16856,53.37572,7.04822,-5.73107,66.55787,-47.97953,-10.30355,1.92686,0.28475,-1.62673,4.00589,-1.44411,0.0893,4.20053,-1.40853,-3.35976,3.53758,-0.68622,0.2359,0.6319,0.14405,-0.77835,0.51639,-0.10012,-0.00336
631,-3.60823,-2.21191,0.47682,7.88353,3.62348,-1.64283,-12.89851,-1.72738,-1.80767,61.39892,-0.50732,-2.50578,0.15249,-0.15696,-0.12146,0.99542,0.32818,-0.14917,56.00612,4.88111,-15.63814,69.57491,-39.18061,-8.9333,4.39021,-0.19998,-1.40273,2.79301,-0.66946,-1.14951,5.03228,-2.59324,-3.21972,3.90157,0.09881,-0.34564,0.81923,0.07718,-0.77953,0.45295,0.07054,-0.16328
632,-2.34344,0.53638,-0.03387,5.17835,4.02646,-1.14311,-3.06401,4.59041,-0.91561,49.38152,-1.24512,-3.45574,0.36612,-0.21518,0.08468,0.83656,0.35848,-0.09328,52.98478,5.77886,-14.41091,40.50414,-19.22888,0.43987,8.43545,-0.74798,-2.16469,3.3621,-1.24612,-0.38838,2.72858,-1.41835,-1.36652,2.42407,0.20239,-0.19518,0.65009,-0.07638,-0.46244,0.18939,0.07633,-0.09609
633,-0.33955,3.62596,-0.63454,0.946,4.1675,-0.36096,8.29788,9.88694,1.02714,32.80494,3.24586,-1.6199,0.59471,-0.35308,0.23099,0.58058,0.22129,-0.00703,48.33332,13.5434,-3.44958,-4.78317,-2.7357,10.72997,9.95166,-0.66778,-1.49921,5.47113,-1.8415,1.79113,-1.07841,-0.43212,1.06342,0.9476,-0.51308,0.49075,0.21339,-0.336,0.04093,0.07672,-0.06425,0.09428
634,-0.64342,3.57478,-0.52676,-0.33324,3.88007,-0.06642,3.63957,7.73549,2.43805,28.25827,7.37723,0.62268,0.59712,-0.46503,0.14144,0.63655,0.08515,0.02709,38.29588,17.74432,5.09556,-16.90598,-3.76555,12.46864,9.17958,-0.26887,0.13764,6.70037,-2.59842,3.40827,-2.66049,-1.2488,2.16379,0.40173,-1.5622,1.19448,-0.06588,-0.58514,0.3558,0.15815,-0.27173,0.26907
635,-3.07017,0.56248,0.15828,1.58118,3.96234,-0.43413,-11.49528,-3.67102,2.13827,33.11301,9.91137,2.06592,0.41519,-0.49306,-0.07919,0.82257,0.01744,-0.04666,25.50671,8.8179,5.96225,8.53239,-17.93642,5.58565,9.02618,-0.2089,0.33854,6.7603,-4.11561,3.43561,-1.4336,-2.03167,1.53567,-0.11744,-1.89901,1.23801,-0.03205,-0.58756,0.30276,0.15383,-0.36543,0.28797
636,-4.47181,-1.57904,0.43114,3.55603,4.4008,-0.84557,-14.69869,-12.2737,0.2384,34.06934,12.18151,3.83584,0.22128,-0.38911,-0.19616,0.72142,0.00691,-0.1323,24.339,-1.2052,4.68362,24.70235,-32.80093,-0.50478,9.85556,-0.06159,-0.91568,6.65411,-4.9325,2.4666,0.31139,-1.3864,0.24259,-1.33218,-1.00912,0.41746,0.16836,-0.32416,0.01426,-0.1192,-0.21532,0.09947
637,-3.56777,-0.77889,-0.04388,3.05515,3.81156,-0.69648,-3.36265,-5.77536,-1.84204,25.49017,12.16178,5.26253,0.16863,-0.27385,-0.14994,0.41439,0.00639,-0.13106,31.08071,5.70496,4.61356,14.41666,-47.14663,0.18515,8.65249,2.03277,-0.77478,6.02661,-3.22191,1.39909,1.21226,-0.63683,-0.6899,-1.78112,0.27193,-0.5199,0.35115,-0.01802,-0.28081,-0.37227,0.06535,-0.1447
638,-1.99568,1.36876,-0.64777,-0.52216,1.53831,0.09291,4.8915,9.4822,-2.91734,10.83853,6.95741,4.1533,0.27233,-0.2891,-0.0354,0.18288,-0.03403,-0.07889,23.32411,22.21772,3.53334,8.4992,-54.91675,2.81638,4.23757,5.32193,1.49465,4.42659,-0.18662,0.53141,1.53853,-1.05831,-0.93214,0.46227,0.76141,-0.55988,0.34498,0.11314,-0.37478,-0.13385,0.23584,-0.20582
639,-1.45937,2.67337,-0.84054,-5.39048,-0.54213,1.01205,1.98582,16.89474,-3.02295,-1.26431,0.9736,1.49411,0.38424,-0.35556,0.07894,0.03822,-0.08445,-0.05131,1.87268,27.72384,1.05688,18.83885,-38.68438,0.59427,0.79288,5.52493,2.68029,2.89599,1.23182,0.108,1.13024,-1.55358,-0.5621,4.00616,0.23362,0.37301,0.03183,0.11223,-0.20457,0.45046,0.16799,-0.02384
640,-2.08618,2.88355,-0.66135,-7.98264,-0.28403,1.31231,-5.58686,12.56355,-2.34214,-2.58733,1.12484,-0.04454,0.43154,-0.34366,0.16483,0.03169,-0.10169,-0.06627,-9.70161,20.23355,-1.37963,20.09712,-3.76788,-5.35329,3.26622,1.05116,0.42881,2.59898,0.30547,0.37852,-0.68118,-0.40008,0.1836,5.17692,-0.49131,1.17935,-0.47999,0.21838,0.09048,0.70857,-0.0054,0.17825
641,-3.19132,2.28786,-0.2565,-6.23419,1.72053,0.80039,-11.59478,3.70395,-0.4457,5.45129,5.41289,-0.46104,0.4814,-0.31686,0.14181,0.32589,-0.10922,-0.07846,-5.71575,8.71616,-3.08334,5.38506,15.08254,-8.4896,10.03607,-3.74165,-3.28024,3.08266,-1.10885,1.09269,-2.52533,1.80715,0.66755,3.04305,-0.86639,1.05327,-0.70906,0.41799,0.2496,0.41434,-0.09816,0.16844
642,-3.63607,0.52365,0.31323,-2.35806,3.24499,0.17972,-12.39134,-5.74254,2.22448,12.04118,6.60289,-0.42987,0.55857,-0.38829,-0.00665,0.69701,-0.10016,-0.02761,-0.06622,-5.5912,-1.76933,0.16835,-0.50033,-4.29793,14.09424,-3.95996,-4.71915,3.03803,-1.54636,1.95817,-1.74331,2.7185,0.27564,0.09088,-1.51459,0.59082,-0.25285,0.4271,0.10962,-0.0521,-0.19625,0.02943
643,-2.78371,-1.80133,0.75332,0.00301,2.91527,0.11403,-6.64251,-12.55914,3.59244,11.65059,3.06251,0.69963,0.5704,-0.53482,-0.14673,0.74442,-0.06223,0.0503,2.24974,-19.37691,3.39829,13.72286,-28.05217,2.87531,12.81501,-0.52576,-3.24727,2.37458,-1.48301,2.26146,1.04894,1.7313,-0.59794,-1.05855,-2.15973,0.47245,0.5472,0.23676,-0.20169,-0.28118,-0.32485,-0.02434
644,-0.95924,-2.66106,0.66873,-0.20989,1.52807,0.42072,3.11648,-9.9923,2.42354,8.63089,1.30609,3.25395,0.50286,-0.62667,-0.12654,0.51433,-0.02335,0.06353,9.543,-16.77744,9.41544,23.9256,-36.87827,2.31021,11.17733,1.46799,-1.21349,1.83504,-1.88807,1.01224,1.74434,-0.02481,-0.64791,-0.0273,-1.32623,0.43831,0.89529,-0.02263,-0.34265,-0.20136,-0.27315,0.02992
645,0.48803,-1.05916,0.11503,-1.30253,1.0057,0.5201,10.14317,0.73265,0.01886,6.16975,6.47197,5.79149,0.46172,-0.54124,0.04777,0.42064,0.04373,0.04151,20.03951,6.40072,12.31633,16.39865,-25.84512,-7.73234,11.36509,0.52259,0.27117,1.44098,-2.63179,-1.28629,-0.35406,-1.87534,0.39027,1.70874,0.68019,0.20697,0.6046,-0.36465,-0.16732,-0.00644,-0.05714,0.08754
646,0.08386,1.61823,-0.45449,-2.15475,1.26372,0.37957,8.26884,8.14312,-1.7233,0.89155,11.90838,5.65793,0.43517,-0.30071,0.20337,0.53744,0.15027,0.05838,16.69704,25.36784,9.66843,2.0334,-18.31427,-15.11633,9.33477,0.48122,1.95696,0.98664,-2.90333,-2.98805,-1.16811,-3.36309,1.17882,2.80992,2.07847,-0.09907,0.17844,-0.60377,0.08539,0.14657,0.07939,0.08281
647,-1.80322,3.06546,-0.66458,-3.98062,1.69684,0.46688,0.531,5.33281,-2.09971,-7.62438,10.46089,2.78741,0.32526,-0.10236,0.20193,0.43773,0.25547,0.09832,-2.92793,20.1233,4.42444,-4.56761,-27.7957,-10.18067,4.68219,3.16441,3.86956,0.77478,-2.30096,-3.02784,0.87003,-4.01834,0.99197,2.95208,1.95675,-0.24617,-0.06749,-0.44929,0.1744,0.24822,0.03993,0.03229
648,-3.44129,1.8931,-0.34602,-5.72099,2.20087,0.61773,-4.98361,-3.85538,-1.1187,-9.84052,3.5393,-1.19979,0.21757,-0.15247,0.05946,0.07628,0.24246,0.06204,-16.23098,-3.56152,0.19709,1.90808,-39.91825,2.92319,2.04944,5.4318,4.66113,1.90899,-1.29082,-1.48482,3.3396,-3.8656,0.36344,2.65381,0.95253,-0.11447,-0.17663,-0.03279,0.11812,0.38236,-0.0189,-0.00301
649,-3.259,-0.75459,0.25373,-4.21467,1.87976,0.31354,-4.33918,-9.64629,0.61926,0.1532,-3.60867,-4.63189,0.29314,-0.38316,-0.08735,-0.09243,0.05567,-0.0781,-5.79923,-23.66581,-2.85202,15.69064,-37.80082,14.21198,3.30027,4.33455,3.4759,5.06721,-0.60939,0.68682,4.06249,-3.2319,-0.08525,2.46313,0.41046,0.159,-0.16391,0.14254,0.03957,0.57731,0.10536,0.01465
650,-1.48452,-2.19302,0.54537,-0.17711,0.75049,-0.23607,-0.20739,-5.6397,1.68961,14.89904,-4.49176,-4.50293,0.48323,-0.53728,-0.13833,0.13046,-0.12299,-0.18593,19.01148,-17.71642,-3.62611,22.42076,-26.19528,15.61011,6.86533,0.71465,0.90995,7.80032,-0.31931,1.85451,2.7736,-2.16806,-0.17922,2.5036,0.99669,0.29593,0.06196,-0.10538,-0.00788,0.73543,0.42612,0.04472
651,-0.36962,-1.08051,0.21504,2.36892,0.09481,-0.4478,1.91219,3.97001,0.96302,22.28924,1.46787,-0.74037,0.56343,-0.51929,-0.1103,0.49513,-0.11349,-0.15043,33.84331,8.52226,-1.87788,14.80656,-18.17554,5.35985,9.4436,-2.07508,-1.28704,6.31345,0.03079,1.02997,0.50573,-0.82004,-0.03643,2.15756,1.91554,0.08886,0.37395,-0.42374,-0.03383,0.64599,0.68837,-0.00608
652,-1.31323,1.59786,-0.46708,1.36134,0.8652,-0.18653,0.88804,10.46369,-1.06271,16.7781,7.86761,2.71373,0.48633,-0.42734,-0.0479,0.60628,0.05065,-0.00733,26.18387,26.05726,0.81138,3.77958,-17.46094,-6.62954,7.09714,-1.69972,-1.40781,1.5205,0.36832,-0.41292,-1.17994,0.11683,0.17089,0.48292,1.71138,-0.37964,0.44968,-0.44696,-0.03303,0.17452,0.57265,-0.14027
653,-3.27616,3.20985,-0.81926,-2.42832,2.65531,0.35395,-1.80421,9.01474,-2.46956,1.64872,10.42257,3.94785,0.36202,-0.36839,0.01219,0.23833,0.20803,0.14665,2.21461,20.61815,4.56788,3.46656,-17.50364,-8.23223,1.14659,0.7561,0.30226,-1.13194,-0.04877,-0.4148,-1.83075,0.18534,0.42034,-1.70819,0.22676,-0.64329,0.14856,-0.20134,0.02575,-0.39606,0.11018,-0.2078
654,-4.33462,2.24163,-0.4588,-6.78664,3.96311,0.91795,-6.64072,1.53169,-1.89629,-12.64296,9.41216,3.86522,0.27831,-0.3377,0.05148,-0.37863,0.2406,0.22416,-22.23996,4.13227,8.0833,10.58085,-12.06752,-0.89346,-2.08453,2.6762,1.84462,0.71787,-1.38046,0.74878,-2.40679,-0.15082,0.68758,-2.3698,-1.06175,-0.39634,-0.34167,0.05191,0.10536,-0.63166,-0.30687,-0.12513
655,-4.35863,0.47493,0.12489,-8.05233,3.67252,1.04818,-14.83473,-3.68048,-0.39762,-12.02056,6.47618,2.73491,0.23303,-0.27543,0.05413,-0.62329,0.14321,0.15789,-30.50588,-3.82681,5.65865,13.75217,-8.84913,5.13386,-0.21922,3.04787,2.07287,3.90978,-2.27056,1.60638,-3.00925,-0.47059,0.80435,-1.24853,-1.18221,0.0674,-0.70014,0.1177,0.1393,-0.46216,-0.39203,0.00105
656,-4.10328,-0.14452,0.26471,-3.59549,1.99824,0.45022,-21.31581,-2.75498,-0.16212,9.36631,2.9755,0.59046,0.20745,-0.2028,-0.00181,-0.18434,0.00142,-0.02055,-11.85271,-0.40589,-4.28251,9.70386,-18.02304,5.27372,3.17892,2.52452,1.26312,5.48698,-1.36532,1.96581,-2.72452,-0.35911,0.58591,-0.14198,-0.608,0.19751,-0.70049,0.10255,0.09596,-0.14064,-0.19608,0.03366
657,-3.0072,-0.06237,-0.01509,3.34568,0.35758,-0.36848,-16.09831,-0.17776,-1.31632,36.52872,0.4418,-1.36883,0.24359,-0.19563,-0.07801,0.49921,-0.04029,-0.12743,26.51773,3.23423,-12.90239,0.99018,-32.15254,2.35406,4.70959,1.77071,-0.05859,5.786,0.3506,2.03311,-1.48149,0.65318,0.07709,-0.24111,0.14165,-0.23021,-0.38769,0.25984,-0.005,0.05774,0.09135,-0.05489
658,-1.27582,-0.11392,-0.18815,5.60621,-0.07636,-0.61538,-1.26925,1.16157,-1.30673,42.75682,0.99794,-2.14959,0.39593,-0.3405,-0.11918,0.85416,0.03605,-0.06232,51.37408,3.801,-10.16587,-4.88282,-35.54631,0.49365,3.92023,0.88704,-1.10666,5.56288,1.05025,1.59182,0.07504,1.70407,-0.36653,-0.73153,0.89781,-0.75088,-0.00145,0.45915,-0.07442,0.05266,0.30093,-0.16107
659,-0.55835,-0.08351,0.03109,2.07799,0.45603,-0.3528,8.22055,1.73167,1.22458,23.55661,4.0287,-2.69554,0.63987,-0.60211,-0.08948,0.94583,0.10486,0.0607,40.25199,4.27162,0.99813,-1.57921,-22.88204,0.71717,2.10994,-0.10839,-1.20557,4.36989,0.85002,0.93307,0.99913,1.52738,-0.40068,-0.49296,1.16892,-0.70508,0.17637,0.38601,-0.04732,-0.04627,0.32161,-0.17092
660,-1.25402,-0.12054,0.39828,-0.83321,1.42571,-0.19571,5.49539,0.20238,3.48,6.03277,6.18731,-3.63217,0.7705,-0.72914,-0.00272,1.08924,0.16955,0.1517,17.47551,3.63461,7.52547,4.73596,-3.43034,0.21895,1.52193,-0.68451,-0.54281,2.61357,0.36077,0.36028,0.4327,0.29018,-0.06947,0.52006,0.89299,-0.15566,0.02157,0.0971,0.00838,-0.06943,0.1915,-0.08937
661,-2.00296,-0.52135,0.45351,0.81452,3.1345,-0.29579,-0.03213,-2.29232,2.33043,11.7462,8.3976,-2.95767,0.62362,-0.58084,0.05175,1.20542,0.30558,0.22938,19.66403,6.01405,4.65285,6.12881,4.74716,-2.67007,3.13148,-0.11279,0.29384,2.24384,-0.7659,-0.21077,-0.97858,-0.97417,0.28851,1.72646,0.75306,0.30314,-0.25916,-0.12643,0.004,0.05503,0.05217,0.01098
662,-1.98285,-0.23592,0.02947,5.60663,4.97803,-0.59529,0.03638,0.4409,-0.99995,33.96114,13.09683,-0.25093,0.37018,-0.36539,0.02486,1.2479,0.37038,0.23861,46.59895,18.71851,-1.43052,4.69245,-6.26742,-5.58463,4.67516,1.16808,0.69362,3.94957,-2.0456,-0.45769,-1.90275,-1.21521,0.42466,2.46802,1.0043,0.38851,-0.43206,-0.11887,-0.01854,0.21749,-0.00991,0.07713
663,-1.54501,1.05713,-0.46426,9.85358,5.59234,-0.95248,2.45567,7.36938,-2.97127,52.56476,17.82004,2.2587,0.22499,-0.27363,-0.01229,1.25408,0.23819,0.13479,69.22556,34.37046,-4.44195,3.78752,-22.1349,-6.09754,3.78529,1.683,0.42875,5.77159,-2.27368,-0.39466,-2.11021,-0.25531,0.42256,2.52086,1.47858,0.14985,-0.50494,0.05217,0.03981,0.28798,0.04098,0.06691
664,-0.63631,2.15945,-0.60164,11.10354,3.67468,-1.05832,4.57594,10.95519,-2.48918,57.31851,13.88824,2.17663,0.20818,-0.21943,0.04994,1.1511,-0.02519,-0.03498,74.70369,33.70207,-4.64363,3.78909,-25.20214,-4.0553,2.17855,0.75087,0.08049,5.93993,-1.4059,-0.43413,-1.83856,0.43518,0.56242,2.29145,1.89884,-0.19195,-0.4948,0.10434,0.17253,0.28703,0.17824,-0.01991
665,0.04888,1.62886,-0.28353,8.99275,-0.57612,-0.77743,5.15417,6.4568,-0.70964,48.84306,-1.18367,-0.47348,0.28991,-0.21124,0.13818,0.95715,-0.30843,-0.22262,64.77983,8.38797,-4.74625,6.73726,-15.75814,-0.39817,3.36636,-0.95408,-0.00608,5.02024,-0.44795,-0.23023,-0.60894,-0.4006,0.74626,2.36074,1.7024,-0.15574,-0.23453,-0.12244,0.23848,0.32122,0.24809,-0.07371
666,-0.31151,-0.13718,0.18036,4.30705,-3.75353,-0.28642,1.86012,-3.20376,0.89324,31.03108,-12.98451,-2.47741,0.43712,-0.33558,0.12528,0.77971,-0.44566,-0.33137,40.22258,-20.65463,-4.15599,11.32756,-7.48204,3.03539,7.00584,-2.11505,-0.46958,4.58207,-0.2535,0.53129,1.75712,-1.49801,0.36572,2.99273,0.8713,0.46542,0.31468,-0.3345,0.10334,0.45137,0.16006,0.01008
667,-1.06859,-1.15148,0.33326,-0.46905,-1.92596,0.13642,-2.14002,-9.03181,1.3539,14.06793,-4.74722,-0.94893,0.56772,-0.50263,0.0416,0.7411,-0.24988,-0.19152,15.61324,-19.00215,0.03083,8.69876,-9.49597,4.97768,9.73379,-1.9771,-1.46635,5.5297,-0.71872,1.41459,3.85672,-1.26202,-0.56588,3.5852,0.23454,1.08482,0.78744,-0.23359,-0.1458,0.60286,0.04858,0.15475
668,-1.39376,-0.55956,0.16332,-2.38175,3.09761,0.26675,-1.03075,-6.05302,1.20626,8.66819,16.66232,2.19542,0.6276,-0.56992,-0.01876,0.90062,0.1324,0.12642,11.29864,13.13755,7.22252,-4.60533,-14.18497,5.91902,10.58878,-1.5192,-1.92958,7.53921,-1.09483,2.0407,4.28112,-0.76567,-0.9929,3.13017,0.28709,1.03965,0.83305,-0.08212,-0.24754,0.61872,0.06056,0.2055
669,-1.22414,0.62555,-0.02775,-1.04478,5.3829,0.05489,4.67939,1.41567,1.29494,14.0236,27.49568,2.95272,0.58107,-0.492,-0.03973,1.01075,0.30137,0.27274,25.97722,38.40081,11.49611,-14.46412,-8.71739,5.6966,10.28284,-1.9413,-1.47076,9.02303,-1.31156,1.90291,3.49116,-1.23437,-0.56376,1.89594,0.91706,0.4131,0.55516,-0.16677,-0.14318,0.48544,0.1721,0.14186
670,-1.11825,1.34538,-0.1904,1.01204,3.3904,-0.21206,7.8637,7.04101,0.89584,20.57328,18.97142,1.24895,0.3822,-0.33296,-0.0812,0.73605,0.18144,0.11062,38.84288,36.02886,8.11363,-4.44555,0.64107,4.49118,8.4061,-2.16659,-0.47197,8.42921,-1.87744,0.45588,2.89684,-2.08277,0.00991,1.06948,1.89924,-0.3207,0.31436,-0.35348,-0.00218,0.32007,0.27818,0.04052
671,-1.74382,1.5681,-0.39893,1.89875,0.4948,-0.22394,2.74222,8.5849,-0.50936,23.05508,1.52456,-0.83018,0.17492,-0.25523,-0.1521,0.32386,0.03434,-0.12417,35.06001,16.65901,-1.20741,21.06488,-1.58808,3.73414,5.99752,-0.55338,0.79329,6.24612,-2.70208,-1.4882,3.25243,-2.51766,0.29157,1.09562,2.65982,-0.7342,0.35894,-0.43182,0.06802,0.18815,0.2766,-0.0242
672,-2.56721,1.50861,-0.50793,1.86451,-0.88754,-0.04263,-6.75137,6.67008,-1.63433,23.42401,-12.88078,-2.81914,0.23049,-0.34862,-0.16017,0.2793,0.01343,-0.19446,20.77032,-4.83905,-10.04345,42.72313,-11.65091,2.20126,6.45899,1.84716,1.74357,4.8004,-3.05193,-2.11234,4.13238,-2.62179,0.43492,1.83071,2.5462,-0.49609,0.63402,-0.42355,0.08927,0.16365,0.14259,0.00699
673,-2.15693,0.62959,-0.29988,2.52343,-0.09616,-0.02076,-11.25407,2.17473,-1.56983,26.61791,-13.7174,-3.79971,0.50111,-0.47903,-0.06503,0.57973,0.08263,-0.09282,15.33315,-14.2412,-12.94968,44.79336,-16.20905,-1.77294,10.53187,2.65835,1.64501,5.62622,-2.27973,-0.57327,4.39629,-2.6146,0.5391,2.76702,1.56906,0.28074,0.83025,-0.41136,0.0863,0.3039,-0.01187,0.1216
674,-0.06303,-0.92494,0.09099,4.91422,2.82536,-0.31769,-6.27769,-2.95717,-1.05644,33.85988,3.35836,-2.06932,0.66183,-0.43606,0.08051,0.8945,0.17566,0.06085,29.55378,-0.63083,-8.94338,23.06961,-16.92279,-4.01509,13.66795,1.54948,0.65461,7.78961,-0.90049,1.94346,3.53523,-2.34441,0.44765,2.6607,0.36635,0.85164,0.70403,-0.36658,0.04585,0.41455,-0.07115,0.20606
675,1.82671,-1.64088,0.29566,7.04591,5.43299,-0.63993,3.8701,-6.06063,-0.56264,38.21579,22.82098,0.80053,0.58679,-0.25783,0.19364,1.07056,0.21651,0.14405,50.7199,21.46134,-1.57775,-5.96143,-20.22094,-0.22963,11.91414,0.29056,-0.1319,9.02636,-0.62108,3.08487,2.51785,-1.88051,0.11391,1.12351,-0.23317,0.60887,0.37997,-0.25747,-0.03103,0.24509,-0.02674,0.13818
676,1.11271,-0.35167,0.08604,5.61484,4.76741,-0.59388,9.95989,-5.14912,-0.10116,31.87445,24.09279,1.35601,0.44138,-0.16585,0.21394,1.05621,0.13275,0.08954,53.84114,25.31622,3.51312,-11.21635,-16.72684,4.56425,7.38531,0.26367,-0.22039,7.62755,-2.08902,1.49681,2.20447,-1.33284,-0.32433,-0.0747,0.25564,-0.15829,0.14139,-0.06819,-0.12877,-0.0698,0.10435,-0.08077
677,-1.9589,1.89615,-0.38162,0.86631,1.42354,-0.19719,7.30434,-1.12791,-0.10899,17.31656,8.70342,-0.43846,0.33166,-0.21758,0.11837,0.79151,-0.04509,-0.05383,32.53188,8.38293,3.78347,13.19921,2.98634,3.92822,4.12802,1.02556,-0.03713,4.12587,-3.687,-1.7858,1.77129,-0.68466,-0.56788,0.49434,1.6054,-0.83887,0.0345,0.15814,-0.20586,-0.18372,0.30897,-0.31622
678,-4.5559,2.61297,-0.56372,-3.07672,-1.76576,0.18571,1.32411,2.38372,-0.11999,6.07154,-5.57847,-1.68143,0.23248,-0.32677,-0.05246,0.42572,-0.19727,-0.15355,9.7774,-8.36596,2.65672,35.6449,20.8831,0.4456,3.39759,0.97222,-0.21978,1.63781,-3.58124,-4.01959,0.4677,-0.09702,-0.44151,1.85013,2.94313,-1.1373,-0.01476,0.24698,-0.20357,-0.0092,0.49054,-0.40254
679,-4.54642,1.04563,-0.10227,-3.19896,-2.57737,0.37461,-1.11231,2.14624,1.29348,4.48872,-7.17423,-0.5257,0.21643,-0.44126,-0.15342,0.34603,-0.18582,-0.08886,4.57063,-10.41041,5.18785,31.71695,10.04363,-0.59463,5.36605,-0.38424,-0.88368,2.6334,-1.99896,-2.9746,-0.77146,0.0166,-0.05151,2.22254,2.93018,-0.81808,0.00791,0.05173,-0.09086,0.21444,0.44125,-0.24149
680,-2.68875,-0.99892,0.64677,-0.69351,-0.23141,0.46458,-1.49572,-1.87529,3.69155,8.33476,1.83905,2.07851,0.3739,-0.53461,-0.0718,0.62616,0.04656,0.13885,8.66817,-2.69601,9.71427,13.54165,-20.06286,1.86882,8.94977,-0.97145,-0.96218,5.99727,-0.73201,0.57352,-0.91313,-0.63054,0.42279,0.9658,1.19544,-0.07597,0.03959,-0.26872,0.06788,0.21047,0.11029,0.05515
681,-1.04133,-1.31175,0.87264,1.29929,3.24619,0.43983,-1.92352,-4.36944,4.46538,11.97842,11.01005,3.2151,0.60015,-0.56763,0.10378,0.86489,0.32413,0.33082,12.02757,5.84299,9.41812,4.54919,-30.14209,6.89468,9.87587,0.98444,0.67207,8.65764,-0.73038,3.23943,0.01795,-1.83376,0.72432,-0.72602,-0.43669,0.27625,-0.03196,-0.37935,0.1263,0.04852,-0.15948,0.21109
682,-0.31065,0.1906,0.27139,1.32945,4.4208,0.19163,2.51029,-1.88145,2.57481,13.52899,12.13242,1.39432,0.70303,-0.53808,0.18098,0.80969,0.36013,0.27923,19.92225,10.80961,3.95438,7.92062,-7.41028,10.18491,5.35205,3.64251,3.05466,8.3432,-1.32188,2.72351,1.06362,-2.78287,0.64369,-1.14334,-0.17198,-0.07536,-0.20492,-0.20392,0.04061,-0.00698,-0.05149,0.11255
683,-0.05061,1.16976,-0.43879,-0.13218,3.20172,-0.05273,11.49811,-0.17101,-0.19331,10.89253,8.63619,-0.55916,0.61452,-0.47918,0.10604,0.60442,0.14875,0.06576,28.76169,10.21235,0.9409,9.44568,16.1905,4.96918,-0.29394,3.79803,3.38107,5.09349,-1.70412,0.06636,1.2057,-2.18853,0.25149,-0.5193,1.26035,-0.61841,-0.33667,0.08482,-0.05118,0.01071,0.23647,-0.07845
684,0.02827,0.01641,-0.42889,-2.034,2.13631,0.03083,14.75175,-4.27625,-1.9533,3.72824,8.15707,0.61737,0.45831,-0.40274,0.02094,0.42429,-0.04383,-0.07126,23.94451,6.70817,3.94161,2.41905,9.24454,-6.25202,-0.50794,1.28809,0.51221,1.89691,-1.72045,-1.5593,0.37999,0.29045,-0.10102,-0.41031,1.5884,-0.83036,-0.24335,0.30171,-0.00558,-0.08956,0.22762,-0.15754
685,-0.19773,-1.82216,0.1382,-2.31343,1.95982,0.22097,8.49261,-8.92697,-2.30821,0.45762,9.80129,3.16337,0.3943,-0.32017,0.03694,0.32367,-0.06771,-0.08752,12.45911,4.58158,7.28442,-0.03162,-19.55083,-11.40454,3.86093,-0.5018,-2.52298,2.07916,-1.57766,-0.53338,-1.10946,2.68508,0.00426,-0.714,0.27438,-0.57009,-0.08113,0.32378,0.15268,-0.19669,-0.12922,-0.0882
686,-1.20146,-2.29148,0.52906,0.20948,1.80636,0.10036,1.11192,-7.8279,-1.44499,7.82386,9.54163,3.58823,0.38553,-0.29046,0.05498,0.3014,-0.01316,-0.08492,13.97427,5.60664,6.19343,17.70596,-38.83492,-5.09718,6.44802,0.9794,-1.75018,4.6726,-1.71687,1.28375,-1.49947,2.2082,0.45257,-0.10763,-0.93904,0.01399,0.00491,0.15414,0.24163,-0.10893,-0.40408,0.02321
687,-3.2328,-1.42563,0.51691,2.77402,1.36011,-0.15563,-2.02778,-4.19811,0.39595,15.38014,8.30289,2.39829,0.29661,-0.33653,-0.03239,0.35663,-0.0103,-0.08071,19.97525,8.09195,4.65685,44.5466,-31.47216,2.66146,5.0316,3.42149,1.75765,5.18933,-1.94073,1.32625,-0.11278,-0.79477,0.67592,1.18459,-0.66433,0.4857,-0.02312,-0.09137,0.15811,0.05101,-0.28432,0.06025
688,-5.64246,-0.80959,0.51085,2.06794,0.76373,-0.08539,-5.60341,-6.64523,2.27411,9.66381,6.52744,1.8805,0.14676,-0.41105,-0.1423,0.47853,-0.04067,-0.03268,6.6992,2.20117,7.19079,54.00683,-3.0053,1.26557,2.73165,2.75566,3.01009,2.23731,-1.36418,-0.2696,0.82262,-2.87275,0.38989,1.73048,0.65527,0.4599,-0.21391,-0.30137,0.01047,0.0577,0.09439,-0.00357
689,-6.91977,-1.09678,0.70411,-0.45238,0.39119,0.22192,-11.7822,-14.92575,2.67192,-2.47084,3.19909,1.77703,0.10543,-0.45383,-0.11974,0.66338,0.02352,0.04806,-17.80762,-14.96273,9.46683,40.48325,24.52997,-4.83656,2.11228,-0.42218,0.8079,-0.739,-0.52183,-1.43286,0.26809,-2.36103,-0.03797,0.7716,1.42523,0.0138,-0.35322,-0.40066,-0.05223,-0.14212,0.30837,-0.09739
690,-5.94527,-1.16507,0.75426,-1.1798,0.98626,0.27648,-13.70653,-17.86532,1.76963,-5.09252,2.40808,0.79952,0.2514,-0.43177,0.03975,0.98458,0.18868,0.11049,-23.77479,-23.267,6.48783,20.71662,28.63279,-6.27967,2.69547,-2.04869,-1.38388,-0.74368,-0.87576,-1.12281,-0.9486,-0.6957,-0.02356,-0.79387,0.82563,-0.35021,-0.35276,-0.3599,0.03034,-0.35433,0.14984,-0.11048
691,-3.70108,-0.68434,0.58645,0.00767,2.38309,-0.02923,-7.33486,-10.92149,1.84884,2.77755,7.29765,-0.69325,0.44302,-0.44941,0.12752,1.34739,0.25884,0.09792,-6.14204,-9.71312,2.30944,11.57469,13.06471,-2.40415,2.66858,-0.87895,-1.53956,1.37293,-1.56136,-0.03976,-1.85037,0.66679,0.31743,-1.23037,-0.06061,-0.31704,-0.34637,-0.15363,0.16001,-0.26383,-0.06156,-0.02988
692,-3.01142,-0.48697,0.49321,1.12263,3.31804,-0.32048,-0.7801,-2.54284,3.24097,12.13366,12.95739,-1.26061,0.47935,-0.56924,0.00775,1.42473,0.14357,0.0257,13.79529,9.39114,1.90735,18.34388,0.6939,2.51248,1.34111,0.9273,-0.6233,2.81295,-0.71268,0.5236,-1.77931,1.36115,0.417,-0.22767,0.15765,-0.22818,-0.31757,0.16402,0.17189,0.1219,0.05051,0.00413
693,-5.00499,-0.63672,0.52668,1.39396,3.00515,-0.24279,-2.94392,-1.16433,3.49507,17.14937,12.72384,-0.22858,0.34063,-0.60329,-0.15145,1.05747,0.01706,0.00505,18.80279,12.88687,3.38968,35.64151,0.82175,5.06478,0.17394,1.20988,-0.02713,2.23853,0.63786,-0.11395,-0.74493,1.17362,0.17402,1.06556,1.16697,-0.30928,-0.19108,0.34002,0.06566,0.42354,0.32503,-0.06387
694,-7.39307,-0.57576,0.48951,0.41977,1.66553,0.21759,-9.86222,-6.35611,1.5397,14.26854,5.19567,1.61798,0.17271,-0.41819,-0.14186,0.41344,0.0247,0.08808,8.28241,-2.53398,4.01725,53.86794,5.57496,2.94846,0.65269,-0.00102,-0.48557,0.85744,0.42109,-1.07852,0.92563,0.70421,-0.30884,2.05099,1.53914,-0.06105,0.03434,0.32265,-0.07024,0.41911,0.34498,-0.08062
695,-7.31236,-0.61906,0.41538,-1.85109,0.47898,0.73249,-10.95065,-12.85483,-0.99705,4.95053,-3.24718,2.98373,0.1422,-0.21699,-0.00304,-0.15767,0.13046,0.20359,-4.14268,-22.26723,4.05478,64.66673,7.38072,-2.69573,1.59156,-0.86206,-1.42965,0.34766,-0.73631,-1.10757,2.35814,0.80517,-0.85711,2.62263,0.95646,0.60763,0.2372,0.28646,-0.17743,0.22938,0.09934,0.01101
696,-4.13185,-1.23689,0.42335,-3.50984,0.4922,0.79006,-3.51197,-15.50274,-2.62115,-1.82093,-4.26081,2.60154,0.32791,-0.22227,0.11255,-0.23778,0.20746,0.21537,-3.9127,-27.42013,2.29757,62.01749,7.86069,-6.29397,0.68349,-0.16908,-1.13336,0.75603,-1.27419,-0.4388,2.62739,0.81112,-0.98075,2.39559,0.32377,1.00357,0.3081,0.19924,-0.19127,0.04191,-0.11284,0.10032
697,-0.32616,-1.7286,0.3398,-2.17079,0.93193,0.18963,4.7517,-11.91116,-3.25269,-0.78937,0.37787,-0.02278,0.57326,-0.36201,0.12773,0.30546,0.14751,0.0415,4.89652,-16.41238,-2.473,47.94555,14.09646,-4.20716,-1.35789,1.12819,0.69267,1.60748,-1.4028,-0.2087,2.38981,-0.19209,-0.54823,1.63528,0.46392,0.77425,0.37092,-0.04824,-0.10431,-0.00773,-0.10825,0.13288
698,0.44739,-1.19982,0.06874,1.53023,0.14761,-0.5569,6.01401,-5.36417,-2.79169,3.65184,0.62913,-3.02767,0.60226,-0.42631,0.0686,0.97719,-0.03044,-0.22304,6.72648,-7.6069,-6.06326,34.21136,23.91781,0.86752,-0.98317,1.29813,2.08441,3.29864,-1.74542,-0.38208,2.70701,-1.70716,-0.04708,1.26893,1.22018,0.32513,0.53878,-0.36168,-0.01009,0.12302,0.05574,0.13565
699,-2.60388,-0.05673,-0.02518,4.28865,-1.82644,-0.774,-1.11465,-2.43709,-0.74763,8.55886,-6.06753,-3.66111,0.37767,-0.33977,0.01978,1.18959,-0.20863,-0.38837,0.09266,-13.27169,-4.81089,29.3823,24.0265,3.84607,3.11699,-0.12971,1.31948,5.21699,-1.6433,0.02907,2.81822,-2.4318,0.13925,1.39946,1.59039,0.12367,0.59516,-0.52694,0.02137,0.29134,0.20587,0.11169
700,-6.03491,0.51944,0.30029,4.17066,-2.69593,-0.39992,-10.51866,-4.96041,2.14382,16.1236,-9.63099,-1.51768,0.13135,-0.24216,0.0253,0.95056,-0.25629,-0.328,0.07134,-20.60121,-1.35006,31.81316,10.78072,3.34794,7.34522,-1.96303,-0.93406,5.54086,-0.69251,0.75137,1.89249,-1.6831,0.03643,1.58702,1.28433,0.14503,0.35064,-0.42428,0.02247,0.34535,0.27472,0.03411
701,-6.30838,0.51862,0.47456,2.33102,-0.86923,0.09012,-13.09169,-8.18158,3.50641,23.23758,-2.29347,1.17727,0.05626,-0.26112,0.05996,0.64108,-0.13348,-0.08397,13.00924,-12.06537,0.50788,34.59134,0.74408,0.80153,7.54111,-2.53159,-2.59482,4.55448,-0.23372,0.53203,1.12178,0.032,-0.26713,2.11288,1.14774,0.21218,0.05886,-0.09302,0.0145,0.33132,0.2755,-0.05015
702,-4.17318,0.41063,0.17112,1.13708,1.62349,0.20856,-8.20007,-10.15427,2.11093,22.4401,7.16185,1.51989,0.17682,-0.36354,0.08404,0.58403,0.02215,0.11719,23.45653,0.6967,-0.60127,30.93695,6.30545,-3.01448,4.63496,-1.24762,-2.42438,4.13761,-1.17645,-0.53346,1.77449,1.30799,-0.63608,3.01347,1.54313,0.32675,0.07652,0.25549,-0.035,0.30891,0.18592,-0.04577
703,-3.09521,-0.4015,0.15297,0.98524,1.90529,-0.04091,-4.11745,-12.81267,-0.33547,13.90257,5.84666,-0.98817,0.38315,-0.49324,0.06116,0.73944,0.07706,0.12294,17.26054,-4.46827,-3.74366,23.92007,17.10304,-7.11156,3.21705,0.64077,-1.23357,4.22126,-2.15937,-1.10365,3.04489,1.22824,-0.83243,3.13058,1.7747,0.40202,0.35791,0.36079,-0.11345,0.20774,0.05565,0.02442
704,-4.48467,-1.76511,0.72654,0.76115,-0.06035,-0.25962,-4.96812,-13.83474,-1.7156,7.14984,-4.75109,-3.63826,0.4523,-0.53599,-0.02465,0.79626,0.05836,0.01274,4.24228,-21.16882,-6.63173,27.86171,22.79928,-11.50653,4.85869,0.84462,-1.39592,3.75412,-1.92885,-0.85516,2.91527,0.90238,-0.91417,2.33359,1.58198,0.32877,0.51183,0.25684,-0.18311,0.11667,0.04173,0.05859
705,-6.70533,-2.30295,1.1191,0.70214,-2.00065,-0.24195,-7.56089,-9.7139,-1.83911,9.16513,-12.84615,-3.94917,0.24677,-0.39039,-0.14966,0.70068,0.0409,-0.07157,1.2798,-26.65103,-7.99838,43.40499,26.85459,-16.7809,6.38615,-1.22211,-3.55772,3.39281,-1.28224,-0.57216,0.5619,1.64362,-1.04046,2.25289,1.54628,0.32324,0.22921,0.20467,-0.22215,0.26446,0.16651,0.06502
706,-8.22251,-1.35355,0.71607,1.18285,-1.75005,-0.06546,-9.91751,-1.8534,-1.71519,14.45616,-10.39063,-1.8304,-0.09231,-0.20505,-0.24175,0.56958,0.02768,-0.07496,4.93212,-12.8075,-7.27027,49.59197,29.97572,-18.98206,5.43775,-2.9962,-5.06456,4.38213,-1.51646,-0.53437,-2.12912,2.56806,-1.04847,3.13533,1.88122,0.49858,-0.35175,0.30888,-0.20787,0.54357,0.26335,0.12265
707,-8.5121,0.52338,-0.27539,1.2578,0.69819,0.15808,-12.68055,5.5467,-1.85711,13.6334,0.60226,1.19897,-0.24838,-0.18267,-0.19823,0.43188,0.00792,-0.00541,1.04885,10.02779,-3.94056,40.9631,25.66701,-12.46778,4.0035,-1.95735,-3.67852,6.2027,-2.50897,-0.41661,-2.18288,2.08791,-0.81498,3.4719,2.10269,0.57344,-0.7047,0.44138,-0.15394,0.6207,0.22988,0.19332
708,-8.04339,2.0434,-1.02824,0.39304,2.93053,0.3213,-17.61769,8.07224,-2.14252,7.45426,10.47876,3.02603,-0.0877,-0.3016,-0.01355,0.36014,0.02612,0.09985,-13.65696,23.72499,-0.82264,40.52589,12.57028,0.73907,4.58106,0.78609,-0.41082,6.93201,-2.80264,-0.07833,0.68887,0.01944,-0.35489,2.89162,1.83802,0.41372,-0.46585,0.3412,-0.07166,0.44325,0.15803,0.14561
709,-8.28725,1.97867,-0.77208,-0.30115,2.76369,0.30084,-25.31794,2.75502,-2.68402,4.98294,11.07466,2.3836,0.20358,-0.41274,0.18395,0.40912,0.09967,0.15675,-28.15841,15.33654,-2.95931,58.34278,1.37767,10.47062,6.46464,1.9332,2.18967,6.38548,-1.77602,0.43443,3.57446,-2.57121,0.35078,2.35792,1.32163,0.24011,0.19101,-0.21278,0.07062,0.24369,0.14278,-0.00484
710,-9.51588,0.69723,0.17963,0.35596,0.50767,0.05825,-30.53386,-6.45517,-3.31744,10.28012,2.22788,-0.30736,0.3394,-0.37111,0.26229,0.56991,0.14292,0.09189,-27.82948,-9.37661,-10.24217,73.24424,6.67795,8.5375,7.8592,0.46667,2.49432,6.63807,-0.98811,0.86024,4.54052,-4.02739,0.88771,2.06156,1.16348,0.08442,0.84181,-0.9362,0.22016,0.16316,0.17723,-0.09528
711,-9.49393,-0.08912,0.66412,1.96436,-1.88222,-0.23094,-25.99198,-9.1992,-2.83414,18.49748,-9.61754,-3.32141,0.26879,-0.17604,0.20781,0.81829,0.09162,-0.03499,-8.58042,-27.24498,-15.76205,68.90601,26.55198,-1.44573,7.49225,-1.2351,0.88637,7.97247,-1.85241,0.66879,4.56228,-3.14552,0.57775,1.51804,1.59896,-0.22567,1.17837,-1.09203,0.19932,0.15296,0.22359,-0.06578
712,-7.20033,0.60765,0.0748,2.90637,-2.53865,-0.26272,-15.34496,-1.49964,-1.26985,21.89106,-15.47,-4.14874,0.15747,0.00142,0.11585,0.97191,0.00123,-0.07926,11.86055,-21.67665,-14.0808,56.59092,38.80645,-7.48906,5.27401,-1.38913,-1.01441,7.38112,-3.11482,-0.09111,4.26452,-0.61852,-0.33556,1.09782,1.82243,-0.34959,1.00787,-0.46976,0.01457,0.1731,0.20412,0.0145
713,-5.11492,1.98883,-0.97738,2.33964,-1.21102,0.00091,-10.958,6.90268,-1.0091,17.8759,-11.42892,-1.95678,0.07221,0.05659,0.06186,0.89899,-0.06833,-0.01737,11.60124,-3.81389,-8.59222,49.22117,30.21613,-6.28474,4.01769,-1.16974,-2.27391,3.77435,-3.11794,-0.91227,2.46792,1.46934,-0.75176,1.78327,1.4249,0.13724,0.41902,0.21892,-0.07416,0.28758,0.10585,0.09823
714,-5.05058,2.75435,-1.61759,1.87464,0.17606,0.16821,-15.24563,6.74568,-3.0377,14.14838,-3.90912,0.33086,-0.0105,0.06329,0.03634,0.81514,-0.12264,0.01981,-1.16179,5.05847,-7.25356,39.70236,16.19089,-7.08812,6.01872,-1.76736,-2.66782,1.25648,-2.60037,-1.44386,-0.78803,1.66875,-0.1758,2.86472,1.25559,0.60644,-0.11232,0.26895,0.03392,0.39116,0.03502,0.13393
715,-5.95335,2.57558,-1.69659,2.91398,-0.04258,-0.05177,-19.23217,2.01784,-5.16169,16.38746,-0.57582,-0.15121,-0.06178,0.04523,-0.01344,0.89182,-0.15385,-0.04665,-4.90318,3.58433,-11.04002,24.59188,16.43241,-13.54824,9.32449,-2.20831,-1.96329,3.28161,-2.63895,-1.43731,-2.54591,0.19353,0.61586,2.53647,1.83331,0.15409,-0.07603,-0.22309,0.15804,0.27285,0.08317,0.05151
716,-6.93034,1.91313,-1.54348,3.2869,-1.21519,-0.39344,-18.10937,0.14017,-5.4362,15.78221,-1.41434,-2.15879,-0.07486,-0.08258,-0.11066,0.84005,-0.12993,-0.13499,-3.55352,2.18947,-12.66938,20.47512,26.58134,-15.91812,10.22157,-1.21877,-0.11712,6.38568,-2.57469,-1.15952,-0.43197,-1.95261,0.77161,1.1514,2.56093,-0.78055,0.46087,-0.68238,0.13425,0.0559,0.25228,-0.10551
717,-8.01789,1.48029,-1.45418,0.35202,-1.34933,-0.38582,-14.21315,1.12969,-4.0891,3.46862,-1.47449,-2.55932,-0.05464,-0.2468,-0.19169,0.43826,-0.03179,-0.11053,-12.10233,3.86628,-7.07788,38.70376,31.10732,-6.88307,7.19222,0.77321,2.03303,5.44862,-1.7333,-0.98865,3.27092,-3.43755,0.36922,0.58612,2.47455,-0.94915,0.66471,-0.62692,0.01915,0.02206,0.40531,-0.18099
718,-8.35898,1.40865,-1.29069,-4.14905,0.25929,0.01066,-11.32708,1.04498,-2.07435,-11.94565,1.11188,-0.81415,0.02639,-0.27269,-0.17608,0.0445,0.09053,0.04603,-27.22511,4.29179,1.09466,69.06734,26.08227,7.87727,2.10216,2.45519,2.97089,2.31766,-0.87363,-0.42514,4.39711,-2.95539,-0.18484,0.97114,1.28939,-0.17542,-0.12553,0.07891,-0.11802,0.12157,0.347,-0.10674
719,-7.11666,0.85822,-0.59014,-5.50242,2.18244,0.38635,-13.77867,-1.87137,-0.75394,-13.83098,3.22719,0.79869,0.11533,-0.17617,-0.08259,0.108,0.15553,0.21133,-35.60786,-0.0524,1.9227,90.16783,17.91411,15.76944,-1.48428,3.1411,1.6669,2.1257,-0.84187,0.76195,2.33322,-0.25496,-0.79441,1.15061,0.03595,0.56056,-1.19862,1.04635,-0.27022,0.14296,0.11527,0.02251
720,-5.19313,-0.21626,0.2978,-1.76885,2.26621,0.34931,-21.32078,-4.46759,-1.60225,1.12473,1.17934,0.39027,0.0917,-0.09079,-5e-05,0.56716,0.12786,0.21195,-30.1927,-6.15921,-7.37962,83.48628,15.93672,8.95117,-0.81897,2.24034,-1.74767,4.83524,-1.31533,1.39469,-0.68661,3.39604,-1.36802,0.79491,0.01519,0.48313,-1.19663,1.44902,-0.31803,0.06728,-0.02643,0.07773
721,-3.84045,-0.56661,0.36546,3.33639,0.00457,-0.0891,-24.00451,-2.52008,-3.5516,17.9218,-3.96664,-1.33414,0.02363,-0.07851,0.02755,0.96111,0.01349,-0.0225,-12.0329,-6.56969,-16.0107,54.68261,24.76577,-4.56515,4.65911,-0.68484,-4.95095,7.07809,-1.60447,0.73574,-2.08909,4.67194,-1.40872,0.3812,1.14782,-0.23996,-0.11156,0.77331,-0.21338,0.0305,0.04186,0.03715
722,-3.34648,0.17799,-0.35789,4.50763,-2.24598,-0.48491,-14.24157,1.24081,-3.40735,20.05658,-5.84483,-1.98025,0.14156,-0.11006,0.02063,0.94921,-0.11324,-0.31564,8.35092,-0.70974,-11.78626,30.58466,33.4212,-7.57088,9.79861,-3.38108,-4.6626,7.37161,-1.5585,-0.27855,-0.45234,1.94083,-0.63931,0.1725,2.12931,-0.87392,0.89435,-0.40724,0.00266,0.06726,0.16985,-0.02388
723,-3.89364,1.18098,-0.96888,1.43005,-1.9274,-0.42252,-0.7801,0.19903,-0.79323,8.91387,-1.58174,-0.71275,0.42815,-0.07392,0.01055,0.70499,-0.11874,-0.35736,16.11603,1.60466,1.19809,27.01693,27.46453,2.76596,9.11703,-2.42735,-0.25466,5.79243,-1.52557,-0.69261,2.56277,-2.29404,0.62661,0.00187,1.97456,-0.92743,1.02533,-1.02004,0.24456,0.04421,0.17273,-0.05211
724,-5.43016,1.34339,-0.8464,-1.1601,0.41459,-0.0091,1.77253,-7.30786,0.90589,1.75166,3.39819,0.61599,0.55757,0.06421,0.0087,0.68776,0.03658,-0.07734,9.43754,-7.0734,6.89371,37.63663,15.177,9.29432,5.55224,1.37926,3.67295,3.40611,-1.87944,-0.75268,3.75215,-3.52134,1.27628,-0.15208,1.16358,-0.57114,0.50829,-0.54893,0.3142,-0.08752,0.06792,-0.05585
725,-7.35662,0.77388,-0.51539,-0.09305,2.2484,0.28076,-8.29763,-13.28124,-1.17798,9.31234,4.45993,0.43959,0.31709,0.18655,0.00136,0.89655,0.21897,0.23392,1.088,-16.18903,-2.09001,48.30126,13.551,1.24639,3.09009,3.56265,2.60742,2.19231,-2.37471,-0.95362,1.94495,-0.3081,0.57666,-0.2081,0.85425,-0.35297,-0.17183,0.50603,0.16657,-0.21175,0.00397,-0.05927
726,-7.6608,0.90339,-1.00174,2.8098,1.89421,0.13993,-16.77377,-8.01584,-5.41823,21.72139,2.58959,-0.75327,0.04872,0.14999,0.00097,0.91148,0.21317,0.24572,1.51886,-10.32715,-15.40294,50.78262,20.62192,-9.52159,1.2873,2.65898,-0.56074,2.65177,-2.37633,-1.14958,-0.67295,2.70988,-0.43597,-0.15106,1.15822,-0.46478,-0.72445,1.04322,-0.02801,-0.20283,0.03489,-0.07054
727,-5.85786,2.00865,-2.05319,3.82128,0.17708,-0.2012,-15.16034,3.61983,-7.62377,21.10625,0.63685,-1.37399,0.12595,-0.05289,0.01867,0.67038,-0.01814,-0.00691,1.28778,5.09051,-18.59771,48.90974,26.92002,-9.56925,-0.50193,1.15974,-1.1028,3.34858,-1.57757,-0.90289,-0.91254,1.7092,-0.87026,0.22577,1.31898,-0.53516,-0.77123,0.70261,-0.19926,-0.04706,0.11176,-0.0881
728,-4.95542,2.45003,-2.3412,1.70028,-0.47394,-0.22702,-12.82178,6.45601,-6.35589,5.82558,0.88785,-0.26282,0.28377,-0.26142,0.01742,0.46023,-0.20951,-0.15911,-14.01456,12.39697,-10.63848,51.19297,30.63678,-3.0904,-0.74276,0.51892,0.13781,3.4092,-0.40475,-0.26684,1.05935,-1.067,-1.10076,0.99791,1.1912,-0.27162,-0.23618,0.15156,-0.39171,0.11632,0.17328,-0.09884
729,-6.1881,0.99142,-1.23524,-0.64326,0.00973,0.04446,-16.16733,-3.77037,-3.24913,-4.91645,1.10572,1.15723,0.18353,-0.32874,-0.03258,0.5253,-0.17477,-0.08307,-28.81206,3.04294,-2.53989,56.46979,28.38796,-0.2022,1.8807,-0.05704,0.79842,2.72895,-0.08105,-0.36512,3.22657,-2.72301,-1.03239,2.02063,1.47452,0.1716,0.57687,-0.26953,-0.44097,0.17122,0.19436,-0.07813
730,-7.17156,-1.11314,0.26216,0.33202,-0.42399,0.10029,-16.53156,-14.54398,-0.05716,3.98525,-2.99033,0.21957,-0.02318,-0.23754,-0.12494,0.89741,-0.02562,-0.00784,-13.43604,-15.60221,-1.58282,52.82092,18.66494,-2.97455,5.52846,-0.75033,1.87805,1.20703,-1.1875,-1.98076,2.91679,-3.6352,0.50158,2.80266,2.39272,0.35854,0.82218,-0.84552,-0.00107,0.13855,0.23328,-0.06001
731,-6.30389,-1.6399,0.65883,2.78612,-1.30508,-0.09871,-7.45182,-13.08076,1.75352,19.54347,-7.63906,-2.08606,-0.06324,-0.09084,-0.21258,1.12684,0.12927,-0.01543,21.6282,-23.54509,-3.24197,37.42404,14.41068,-7.67939,6.84688,-0.53536,2.6381,0.42079,-2.20311,-3.34091,-0.86417,-2.5906,2.51904,2.4897,3.01984,0.01491,0.0032,-0.99513,0.71452,0.09984,0.34608,-0.09342
732,-5.34151,-0.40461,-0.22277,2.18401,-0.07724,-0.06966,1.74402,-1.86967,0.92994,19.26077,-3.86472,-1.89701,0.04714,-0.03579,-0.23711,0.76685,0.27299,0.0441,32.64618,-7.93878,-0.98371,28.03666,21.29774,-6.40445,6.21602,0.09019,1.19978,2.02764,-1.6325,-2.3973,-1.71784,-0.28046,2.17546,1.35996,2.62751,-0.40704,-0.38847,-0.50249,0.78471,0.15391,0.4504,-0.09998
733,-6.0521,1.08966,-1.31659,-0.79102,2.78981,0.25659,0.6154,7.04381,-1.59339,6.17341,6.60677,0.97572,0.17774,-0.09794,-0.17061,0.17373,0.28943,0.18565,10.32793,16.48141,3.11169,28.12379,26.41408,1.89545,5.27711,-0.13608,-1.03398,4.43828,-0.56233,-0.32799,2.06223,0.293,-0.20588,1.13001,1.77486,-0.14389,0.19701,-0.11601,0.12116,0.33845,0.39944,0.02596
734,-7.9917,1.60767,-1.62216,-1.8099,3.87878,0.42338,-10.33674,6.10195,-3.02985,0.93864,11.93326,2.59974,0.24951,-0.17237,-0.052,0.11157,0.1006,0.24857,-13.82487,23.10037,2.22873,26.5567,22.0844,7.87313,3.95259,-0.73606,-1.91721,5.47603,-0.60722,0.44516,4.55862,-0.50339,-1.85753,2.48691,1.55369,0.6704,0.57064,-0.02107,-0.41081,0.5535,0.25008,0.19275
735,-9.46361,1.05152,-1.05845,-0.28319,1.96486,0.20099,-23.43673,-2.07531,-2.21347,7.21561,8.20668,1.19163,0.25402,-0.17908,0.03997,0.67397,-0.14395,0.15621,-22.73375,8.97458,-3.75681,30.79667,16.41036,6.66372,2.29198,-0.86057,-0.31672,5.18049,-1.35671,-0.39785,3.87196,-1.84809,-1.26603,3.97939,2.27203,1.16811,0.36743,-0.16315,-0.34468,0.64418,0.23439,0.23546
736,-9.10649,0.06083,-0.29404,0.60591,-0.46403,-0.14585,-29.43746,-9.75629,-0.93013,10.09287,2.99998,-1.03301,0.21848,-0.14113,0.0456,1.08714,-0.22174,0.00843,-25.59912,-7.02174,-7.99407,45.28994,20.64745,0.87301,0.58903,-0.48654,1.89652,4.35775,-1.52792,-1.14907,2.11111,-2.5092,0.29388,4.01043,2.90035,1.09436,0.02128,-0.25553,0.02223,0.5349,0.34891,0.18116
737,-6.80209,-0.93702,0.16342,0.56359,-1.4112,-0.38004,-23.14098,-12.56332,-0.95826,7.66563,-0.23603,-2.41825,0.16446,-0.13318,-0.04228,0.87841,-0.09867,-0.11781,-20.25159,-15.82532,-8.49245,50.13072,32.49349,-7.11085,0.4417,-0.32074,1.41149,3.85115,-1.1314,-0.68583,0.72224,-1.14932,0.71655,2.86919,2.4868,0.92186,-0.12671,-0.01553,0.16698,0.33548,0.34395,0.16539
738,-3.54297,-1.97384,0.47117,2.39508,-1.52466,-0.52506,-8.23886,-12.40138,-1.44076,13.49516,-5.27996,-3.43064,0.16941,-0.20024,-0.14731,0.53909,0.05712,-0.22442,5.74933,-23.60447,-9.16693,36.61013,42.50444,-17.88031,3.59662,-1.15503,-2.66952,3.5994,-1.31162,-0.43327,-0.32097,1.93033,-0.42939,2.07473,1.82893,0.78783,-0.08146,0.47283,-0.04932,0.2216,0.20116,0.16961
739,-1.41577,-2.78978,0.79757,5.25135,-1.09916,-0.47071,4.06758,-12.77342,-1.10167,25.83051,-9.62442,-3.44394,0.28134,-0.28314,-0.14495,0.53352,0.13189,-0.2292,36.41341,-29.51955,-9.59164,27.17433,43.86308,-25.68556,7.71832,-2.63206,-6.92879,2.60085,-2.29208,-2.157,-0.35239,4.25472,-1.85099,2.2763,2.38868,0.33635,0.08542,0.76784,-0.32668,0.21497,0.19651,0.05936
740,-1.51366,-3.00114,0.9902,4.76714,0.22573,-0.08763,7.20809,-14.31444,-0.35924,26.55751,-7.25114,-1.2832,0.45757,-0.31384,-0.00496,0.60208,0.12968,-0.07979,41.58902,-26.24654,-5.16019,38.50116,29.59158,-19.4628,8.32471,-2.94872,-6.63522,1.55782,-2.94491,-4.57784,1.48505,3.25715,-2.11408,2.66902,3.86469,-0.41181,0.37923,0.50677,-0.35618,0.1939,0.38973,-0.1436
741,-2.98152,-2.08604,0.64662,0.75419,1.64477,0.34493,3.38807,-12.9527,-0.18994,12.96485,-0.0343,1.59612,0.58872,-0.2826,0.14713,0.49012,0.06873,0.08748,21.29367,-12.86305,2.589,56.60067,3.99962,-2.68731,5.53438,-0.84288,-2.1322,2.47694,-2.24233,-4.51827,3.29825,0.26679,-1.16673,2.56894,4.38792,-0.69688,0.53526,0.08084,-0.1906,0.14378,0.50492,-0.22295
742,-4.65658,0.28969,-0.41206,-1.99055,2.03931,0.3842,-4.32908,-3.97797,-0.76455,2.61959,5.89105,2.33413,0.52103,-0.17207,0.17159,0.43815,-0.01135,0.11382,-0.39918,7.05847,5.59487,61.89481,-9.72137,7.19223,3.67057,1.877,1.70111,4.86434,-0.36163,-1.32581,3.52169,-1.53707,-0.19672,2.30671,3.15949,-0.01583,0.40522,-0.02001,-0.04609,0.19846,0.40262,-0.05533
743,-5.76917,2.49356,-1.33825,-1.57716,1.26019,0.06202,-11.70798,7.51624,-1.00547,3.80255,7.09634,0.53727,0.24927,-0.04478,0.05706,0.55779,-0.05346,0.03786,-9.14526,22.06104,2.2108,52.10545,4.34877,2.93532,4.47611,2.08967,2.21609,5.9674,1.14476,1.88283,3.26829,-1.93281,0.11078,2.21441,1.4024,0.93087,0.23079,-0.06638,0.03147,0.36623,0.24892,0.18524
744,-5.77837,2.04609,-1.01731,-0.82352,0.13525,-0.1182,-12.55693,8.78202,0.39013,5.95198,3.76491,-1.26758,0.04607,-0.06052,-0.09009,0.59411,-0.02825,0.02314,-9.04531,15.0725,0.32623,37.33062,32.61099,-5.28337,5.87852,-0.23304,0.6861,4.91461,0.83309,2.26915,3.30878,-2.13571,0.01153,1.81704,0.45139,1.00838,0.22642,-0.3866,0.08213,0.41812,0.17535,0.21661
745,-4.25538,-0.63144,0.2445,-0.72583,-0.63787,0.01945,-6.69463,-2.748,2.47027,3.09853,-1.47884,-1.30571,0.18376,-0.21795,-0.12611,0.54243,0.0425,0.07284,-6.86075,-11.58097,3.07833,28.29687,47.41038,-6.22389,6.05386,-2.06228,-0.88702,3.78001,-0.80631,0.59962,2.83569,-1.88312,-0.17654,0.60404,0.33198,0.08744,0.31913,-0.66929,0.08167,0.18374,0.09488,0.02334
746,-1.85244,-2.51647,0.94382,0.51934,-1.25394,0.0701,0.17194,-15.19049,2.01747,2.87783,-5.72454,-0.61074,0.51586,-0.31293,-0.01022,0.61004,0.0833,0.00656,-0.14382,-32.5265,3.75859,27.11981,36.89759,-1.41596,5.32984,-1.88997,-1.8993,4.47085,-2.03641,-0.66397,1.46575,-0.67329,-0.42487,-0.97541,0.5203,-0.97239,0.3152,-0.51289,-0.00736,-0.18123,-0.05047,-0.15807
747,-0.25249,-2.37333,0.52185,2.46232,-1.86383,-0.19797,5.30504,-19.12868,-1.29303,8.59225,-7.41844,-0.80988,0.66782,-0.2859,0.11089,0.73353,0.01753,-0.22147,14.14679,-33.43387,-0.69797,26.28119,16.18014,-0.42679,5.22741,-1.05035,-2.67521,5.84248,-2.06192,-0.62603,-0.03605,0.83236,-0.71615,-1.72004,0.67604,-1.29961,0.10029,0.02638,-0.15283,-0.35375,-0.14489,-0.17185
748,-0.93254,-1.61526,-0.02922,2.70752,-1.53846,-0.43015,6.67837,-16.41263,-2.77442,12.69993,-5.54546,-1.64716,0.56045,-0.27817,0.08462,0.81617,-0.10113,-0.34569,25.06088,-24.07286,-3.73545,22.67955,9.26298,-5.82525,6.06019,-0.53963,-2.84689,5.45915,-1.59184,-0.29944,-0.67841,1.49622,-0.81852,-0.58976,0.93861,-0.59927,-0.23192,0.56606,-0.24182,-0.14538,-0.04473,-0.04224
749,-3.37162,-1.09978,0.03539,0.54842,0.11196,-0.23398,2.23315,-11.34066,0.3324,9.32537,-1.2053,-1.72952,0.4302,-0.31797,-0.02673,0.83331,-0.12435,-0.15239,19.57834,-15.71835,-0.37003,24.52468,21.08566,-10.02081,6.50317,-0.16519,-1.71838,3.44869,-1.36576,-0.77227,0.25435,0.7318,-0.55733,1.601,1.70618,0.38321,-0.29179,0.67715,-0.18463,0.22252,0.24349,0.07397
750,-4.82702,-0.69981,0.3833,-1.87985,1.57435,0.2117,-4.40846,-5.56083,4.02168,3.36983,1.75933,-0.81991,0.45118,-0.31901,-0.0675,0.65679,-0.02486,0.16748,4.55114,-8.94771,4.36141,33.98604,32.4536,-8.03093,5.92125,-0.26599,0.31031,1.77061,-1.37971,-1.67612,1.74915,-1.19553,0.19631,2.41348,2.37146,0.53998,0.01549,0.14567,0.03247,0.27718,0.44192,0.02342
751,-5.05937,-1.24536,0.71813,-1.95991,1.5195,0.38375,-12.91092,-2.73916,4.03499,2.61875,1.70948,-0.25684,0.48116,-0.32171,-0.07212,0.43298,0.0787,0.29927,-10.15699,-3.74426,2.90382,39.93406,26.63662,-3.81947,5.4033,-1.20335,1.76152,1.54452,-1.43585,-1.68898,1.9666,-3.12126,1.17162,0.92784,1.75137,-0.12819,0.27774,-0.68836,0.28808,-0.07396,0.2681,-0.12798
752,-4.36765,-2.76844,1.12213,0.6439,0.62861,0.10425,-19.08224,-5.89769,2.24268,8.89662,0.59875,-0.92031,0.47678,-0.34717,-0.06134,0.61063,0.08509,0.18657,-14.03031,-3.50569,-2.26883,35.45334,9.75364,-1.68141,5.55854,-1.85647,1.52367,3.47687,-1.36072,-0.39581,1.02636,-3.43174,1.42887,-1.26476,0.27763,-0.83833,0.29955,-1.0685,0.34484,-0.43262,-0.11929,-0.19849
