PaulMeinheit/Bachelor_Muay_Thai/processed_Data/E3/teep/sliced/JointMoments/sliced7.csv
Unnamed: 0_level_0,R_KNEE_MOMENT,R_KNEE_MOMENT,R_KNEE_MOMENT,L_KNEE_MOMENT,L_KNEE_MOMENT,L_KNEE_MOMENT,R_HIP_MOMENT,R_HIP_MOMENT,R_HIP_MOMENT,L_HIP_MOMENT,L_HIP_MOMENT,L_HIP_MOMENT,R_ANKLE_MOMENT,R_ANKLE_MOMENT,R_ANKLE_MOMENT,L_ANKLE_MOMENT,L_ANKLE_MOMENT,L_ANKLE_MOMENT,WAIST_JOINT_MOMENT,WAIST_JOINT_MOMENT,WAIST_JOINT_MOMENT,NECK_MOMENT,NECK_MOMENT,NECK_MOMENT,L_SHOULDER_MOMENT,L_SHOULDER_MOMENT,L_SHOULDER_MOMENT,R_SHOULDER_MOMENT,R_SHOULDER_MOMENT,R_SHOULDER_MOMENT,L_ELBOW_MOMENT,L_ELBOW_MOMENT,L_ELBOW_MOMENT,R_ELBOW_MOMENT,R_ELBOW_MOMENT,R_ELBOW_MOMENT,L_WRIST_MOMENT,L_WRIST_MOMENT,L_WRIST_MOMENT,R_WRIST_MOMENT,R_WRIST_MOMENT,R_WRIST_MOMENT
ITEM,X,Y,Z,X,Y,Z,X,Y,Z,X,Y,Z,X,Y,Z,X,Y,Z,X,Y,Z,X,Y,Z,X,Y,Z,X,Y,Z,X,Y,Z,X,Y,Z,X,Y,Z,X,Y,Z
2586,-4.65916,-3.37502,-0.01116,0.39142,1.71567,-0.4546,-13.19144,-28.10401,0.36163,29.08082,-6.33693,-3.87343,0.1508,-0.39582,-0.28512,0.37952,-0.24842,-0.04506,15.85669,-48.88811,-6.5558,4.46606,-52.74049,14.11342,5.83589,-10.61288,6.11562,0.36317,-7.37796,-2.90205,-4.28983,-1.546,0.56682,3.84524,-0.44374,-1.80577,-0.09286,-0.52562,-0.12264,0.57986,-0.15491,-0.28008
2587,-1.98879,-2.612,0.11261,0.85245,3.47393,-0.9389,-3.15501,-20.42136,1.06099,29.00991,1.70101,-0.70757,0.54681,-0.47386,-0.11214,0.34644,-0.00585,-0.04797,30.58164,-24.01117,0.24095,1.87746,-63.82685,15.77526,7.02832,-10.12928,10.32097,-3.14478,-2.8322,-2.03295,-3.55411,-1.57713,2.03856,1.61195,-0.16625,-0.71709,-0.61019,0.85731,-1.31206,-0.06658,-0.09089,0.0566
2588,-0.56257,-1.45107,0.03839,-0.98089,6.78449,-0.99715,-0.60323,-12.14296,0.26094,21.87915,13.29963,4.5492,0.81294,-0.49149,0.05402,0.24415,0.31329,-0.01216,26.90845,7.04925,8.96959,25.84441,-80.73935,-0.72178,5.02109,-7.04594,-0.40832,-2.9283,-1.48263,0.1535,-0.6981,-0.56812,-0.81892,-0.98188,-0.47539,0.68786,1.7839,1.16896,-3.17378,-0.61557,-0.09979,0.34923
2589,-2.3925,-1.8474,-0.21431,-4.38031,7.68638,-0.16562,-8.35786,-11.74293,-1.5345,8.40481,15.30333,6.57393,0.68008,-0.54515,-0.08399,-0.0921,0.43533,0.02226,-0.01032,11.15161,10.7108,36.49819,-93.38818,-10.24998,3.68758,-5.69113,-9.08436,0.7799,-3.45451,1.41906,0.41862,-0.02731,-5.52751,-1.07623,-1.1463,0.96932,4.0388,-0.30354,-3.75467,-0.44848,-0.19507,0.27973
2590,-5.23385,-4.78665,-0.12576,-5.79427,3.91032,0.96065,-16.66645,-20.05801,-2.03202,0.93509,1.82364,2.42056,0.34682,-0.72557,-0.49421,-0.34538,0.152,0.03888,-21.65081,-18.92064,3.57239,4.26545,-92.42394,11.79932,5.75742,-7.83046,2.81063,4.54535,-5.5918,1.25593,-3.25267,-0.2271,-4.20482,0.7254,-1.41853,0.34159,1.68797,-1.54355,-1.55596,0.15488,-0.26767,0.03871
2591,-5.278,-8.29296,0.55083,-2.96584,-1.04067,1.1532,-15.21544,-30.89002,0.10249,11.02343,-15.20461,-4.09088,0.18216,-0.93873,-0.79603,-0.07476,-0.3234,0.0442,-9.18331,-56.52803,-3.87188,-16.49463,-81.31649,27.72329,5.03727,-7.27177,11.17463,6.13021,-6.1925,0.86856,-6.46641,-0.78495,-2.93288,1.99232,-1.1136,-0.04872,-2.04184,-1.75441,0.73871,0.5222,-0.24191,-0.0361
2592,-2.52847,-8.84566,1.16848,0.8631,-1.99566,0.33147,-6.97472,-34.62409,2.69115,28.71743,-19.53,-6.88291,0.2525,-0.95019,-0.67864,0.49871,-0.52445,0.03414,22.64845,-67.5183,-4.68901,17.86563,-57.97648,-1.54106,-1.9397,-2.21386,-2.47198,4.79549,-5.11555,0.47052,-5.36795,1.02327,1.25207,2.14328,-0.82146,-0.02991,-3.68281,0.31784,3.02955,0.48325,-0.14573,0.0172
2593,-0.08716,-5.34866,1.07576,0.61547,1.0807,-0.23169,-2.06571,-26.11547,2.90068,31.50397,-9.12545,-3.96575,0.44128,-0.6898,-0.15585,0.66997,-0.36059,-0.00221,33.78336,-42.80474,0.10453,66.34441,-45.16383,-44.4156,-7.63678,2.00478,-23.4429,1.27195,-3.78588,-0.70832,-1.75269,3.24451,3.16879,2.32381,-0.82993,-0.30233,-2.75695,2.10768,4.58957,0.32145,-0.04193,-0.02166
2594,0.16135,-0.10642,0.37653,-3.17363,3.60566,0.17116,-2.56467,-10.88798,0.9808,16.52981,2.6106,0.95257,0.61143,-0.28717,0.48047,0.27804,-0.19556,-0.05134,17.56244,-7.72561,5.13328,49.21873,-52.42147,-26.78733,-2.62158,2.95397,-14.4404,-1.45159,-4.37184,-2.12253,1.17369,2.52833,0.07607,2.75096,-0.61203,-0.96242,-1.71163,1.29691,2.82932,0.23522,0.08179,-0.16236
2595,-0.96731,3.5916,-0.31624,-4.84461,2.82221,0.72267,-2.10058,-0.9934,-0.37213,5.62851,2.74524,2.26432,0.59621,0.11566,0.87056,-0.04591,-0.23442,-0.05818,7.50758,4.04706,5.39783,21.361,-61.03122,6.22086,5.87315,-2.31396,-0.07693,-1.1485,-6.35918,-2.11009,1.91935,-0.63019,-5.61146,2.41842,-0.12987,-1.18556,0.81131,-0.57989,-0.67097,0.19163,0.16978,-0.2297
2596,-1.50279,3.72926,-0.34048,-2.21729,0.30876,0.60977,1.62479,-2.93621,0.84769,11.85837,-7.37371,-1.71322,0.45879,0.30043,0.87236,0.07654,-0.28249,0.01404,19.69774,-12.99114,0.57758,25.17466,-60.9852,5.8703,7.25642,-11.06208,-1.54537,0.81462,-6.61425,-0.4064,-1.53874,-3.63823,-7.0614,1.09042,-0.24129,-0.45255,3.03389,-1.7565,-3.24208,0.10511,0.05861,-0.1097
2597,-0.82721,0.84907,0.38477,0.24701,-1.24337,0.28784,3.02816,-11.71452,3.71369,20.6799,-16.15367,-7.195,0.44259,0.06419,0.63032,0.21016,-0.15579,0.10444,27.44647,-35.17437,-4.28152,27.13511,-64.1539,-4.33756,5.44908,-12.65962,-5.65566,2.20775,-3.89326,1.33691,-2.29762,-4.54435,-6.25968,0.14507,-1.34983,0.65793,2.71763,-2.11297,-3.01326,0.03407,-0.23797,0.10807
2598,-0.06728,-2.3252,1.11593,-1.23048,-0.64472,0.40175,0.21792,-17.67117,5.49944,16.94407,-15.15881,-8.97,0.55625,-0.43775,0.36344,-0.05542,0.0385,0.10569,13.71882,-40.20918,-3.63016,1.13421,-71.28898,8.92398,6.76409,-13.10411,5.24384,2.88294,-1.27038,1.79097,-4.11139,-3.26261,0.59747,0.65707,-2.59886,1.20193,0.39832,-1.39504,-0.68724,0.06782,-0.47023,0.23906
2599,0.50691,-3.17003,1.18682,-4.07127,1.56059,0.61538,0.53576,-15.51536,5.02851,10.11779,-6.35797,-5.47008,0.62082,-0.7342,0.24139,-0.38601,0.07787,0.03033,5.77272,-25.80306,2.55445,-39.17348,-71.34116,42.31792,10.58711,-18.05111,26.48755,3.59136,-2.74293,1.08127,-10.42253,-1.47332,10.61844,1.82389,-2.60925,0.74965,-1.90062,-0.35429,1.23335,0.13463,-0.4496,0.20141
2600,1.4903,-1.89872,0.8098,-3.66091,3.6156,0.31543,6.80307,-8.79684,3.48278,16.08262,1.83252,0.23361,0.52128,-0.55396,0.25757,-0.20201,-0.11359,-0.006,26.85897,-6.08515,8.72192,-52.14545,-53.49009,55.80127,11.30145,-17.38725,32.70008,3.95683,-7.20441,-0.09137,-11.91495,-0.15898,12.22859,2.24479,-1.05842,-0.38829,-1.97627,0.44603,1.29965,0.14752,-0.2319,0.03677
2601,1.81882,-0.43829,0.36285,-0.29635,3.59813,-0.22205,10.29587,-4.27511,1.97032,30.01787,2.93899,3.56592,0.25821,-0.13868,0.21105,0.43388,-0.40641,0.02093,53.97792,3.65449,9.23337,-20.52663,-19.26081,28.80844,6.49673,-6.98695,16.64114,2.92786,-8.81494,-1.11143,-4.75837,0.64534,5.02716,1.67826,0.69247,-1.33955,-0.46542,0.71603,0.58625,0.14522,-0.01026,-0.15845
2602,0.28123,-0.11898,-0.02039,1.47077,1.30982,-0.18689,4.91851,-6.21871,1.04769,34.56997,-3.19438,2.03452,0.01981,0.02684,0.01217,0.82792,-0.57686,0.02473,52.99917,-4.56886,3.45165,28.56293,4.69347,-13.739,0.64151,2.43075,-5.07757,1.14206,-5.47178,-1.28422,2.60291,1.16785,-2.61011,0.9899,0.80677,-1.27748,0.65524,0.4312,0.01166,0.17947,0.02221,-0.24167
2603,-2.04577,-1.31996,-0.0778,-0.10944,-0.97633,0.37408,-5.28436,-14.77084,1.33337,26.51133,-10.78897,-2.8602,0.06325,-0.22437,-0.18095,0.60534,-0.5012,-0.02235,25.2123,-27.10258,-4.60766,51.794,-7.91478,-29.35178,-1.93232,3.79313,-13.81668,0.89831,-2.01482,-0.22374,2.94805,1.10583,-5.83651,0.885,-0.78422,-0.25476,0.36209,-0.01137,-0.3669,0.25433,-0.16839,-0.12191
2604,-2.93064,-3.20378,0.36604,-2.51167,-1.18627,0.71851,-12.64391,-23.29301,2.77109,15.92224,-12.7082,-6.75701,0.43991,-0.61783,-0.19781,0.08302,-0.26712,-0.05241,-2.98035,-45.02583,-9.02659,47.35698,-41.49569,-15.26283,-1.77269,0.60211,-10.34593,2.45554,-2.39302,1.33886,-0.88382,0.5902,-5.4463,1.08261,-2.20801,0.86347,-0.45276,-0.13786,-0.41384,0.31189,-0.37601,0.11952
2605,-1.41539,-4.13254,0.93963,-3.14196,0.38153,0.4825,-11.29027,-22.79811,4.12988,9.97646,-7.02639,-6.53441,0.85593,-0.81482,-0.07727,-0.2297,-0.06181,-0.0286,-11.00999,-39.61978,-6.13644,45.09855,-59.04036,-2.98618,-0.68126,-2.47664,-5.77694,3.06621,-4.20618,1.98503,-3.42091,0.14257,-3.23187,1.07299,-2.20284,1.29031,-0.72677,0.1374,0.1024,0.26778,-0.37545,0.27896
2606,0.78053,-3.20996,0.94886,-1.75107,2.12054,-0.06269,-2.27126,-12.41905,3.67405,9.76379,0.81574,-3.02457,0.87596,-0.68232,0.00313,-0.10021,-0.02768,0.00491,2.41862,-15.24371,0.99855,46.33468,-48.89859,-3.52322,0.80897,-3.75543,-2.4492,1.43274,-3.83241,1.00721,-3.21206,-0.11576,-0.26364,1.20378,-1.36339,0.8284,-0.4682,0.42031,0.79762,0.18945,-0.17375,0.20614
2607,0.59899,-1.85432,0.32116,-0.58873,3.03169,-0.25052,4.30492,-3.17376,1.24999,11.71579,4.73649,1.16244,0.46358,-0.4016,-0.06442,0.22297,-0.12128,0.00702,18.98355,4.26592,6.98211,28.77101,-31.36801,1.71365,2.1103,-3.6736,3.71049,-0.33029,-2.10243,-0.70569,-2.5643,-0.46481,2.59079,1.77026,-0.57869,-0.10416,-0.51527,0.40188,1.2214,0.17603,0.07133,-0.02847
2608,-2.7523,-1.49499,-0.38213,-1.93799,3.16409,0.32218,-0.16159,-3.90401,-1.31271,10.84196,3.86384,3.89135,0.05597,-0.24527,-0.19285,0.30426,-0.1169,-0.00643,19.07353,4.95657,9.56686,-1.58716,-28.69172,20.00422,2.43042,-3.43999,9.84277,-0.28532,-1.65507,-1.49922,-3.33136,-1.14759,2.64007,2.04373,-0.09595,-0.72921,-1.10905,0.02956,1.13247,0.14696,0.22622,-0.19548
2609,-6.3098,-1.89442,-0.65854,-4.28917,2.19794,1.11963,-11.20936,-11.58651,-2.25104,9.55977,-1.87968,2.58165,0.01513,-0.32678,-0.22371,0.13403,-0.02476,-0.01552,6.72856,-10.75007,6.39781,-17.2249,-34.8997,32.39522,2.28654,-2.82612,9.83611,0.53772,-2.32425,-0.96657,-3.63041,-1.50565,-0.83494,1.51746,-0.07418,-0.57165,-1.36031,-0.44899,0.41673,0.02365,0.21883,-0.1606
2610,-6.59113,-2.62723,-0.38307,-3.78857,-0.20327,1.16568,-16.37028,-19.1854,-1.41289,14.8109,-12.02091,-3.44565,0.29991,-0.59079,-0.12703,0.09598,-0.15811,-0.02334,2.62087,-35.49887,-3.80599,-6.08939,-32.30287,21.26139,2.85197,-1.21029,4.06442,0.20854,-2.44054,-0.28155,-1.13258,-0.31799,-2.83222,0.73921,-0.24873,-0.0473,-0.42653,-0.34787,-0.48636,-0.1174,0.13196,-0.01943
2611,-4.00218,-2.60007,-0.02424,-0.72393,-1.42706,0.36641,-11.74927,-20.84273,-0.30219,23.02278,-16.35418,-8.16106,0.58551,-0.737,0.02322,0.26119,-0.41569,-0.01236,10.92616,-48.38642,-12.83342,22.34857,-27.15298,-5.7376,4.26158,-0.42313,-3.00112,-0.54668,-2.28098,-0.05733,2.0314,1.92271,-0.44982,0.20009,-0.09805,0.18686,1.25924,0.58163,-1.16559,-0.15484,0.07213,0.06854
2612,-2.44576,-1.3635,-0.0872,0.57324,1.66896,-0.39928,-7.78768,-15.27023,-0.48046,24.02497,-3.57608,-4.52849,0.56816,-0.56204,0.0872,0.29144,-0.32069,0.04308,14.4689,-27.64777,-9.55009,43.16831,-37.1551,-23.92933,5.00507,-2.19642,-7.67718,0.55818,-3.17099,0.43924,1.86354,2.17621,-0.36893,-0.12264,-0.02141,0.177,2.00638,0.78694,-1.87951,-0.02464,-0.05938,0.08096
2613,-3.73754,-0.43456,-0.3986,-0.91015,6.56817,-0.58097,-12.37679,-7.82133,-1.77627,18.45311,17.03854,4.31336,0.27153,-0.28051,-0.02351,0.11784,0.03389,0.10147,5.94622,11.64921,2.33344,37.72541,-54.89323,-19.82481,3.68855,-6.43468,-6.29787,3.22441,-4.65914,1.14503,-3.47829,-1.50839,-5.98368,0.0972,-0.48998,0.11777,0.44932,-0.83938,-2.18387,0.22231,-0.2629,0.04441
2614,-4.67079,-0.52137,-0.42681,-2.04712,7.24485,-0.33992,-16.60923,-4.32611,-2.33587,15.25821,21.63622,7.63461,0.11339,-0.14886,-0.11264,0.03444,0.06954,0.07915,0.48332,26.31357,7.21551,20.06388,-49.15234,-7.35101,1.61749,-9.54277,-0.44756,4.45304,-5.02078,0.92995,-8.71345,-4.96643,-6.78899,0.99708,-0.90607,-0.09498,-1.64491,-1.72884,-0.94539,0.35728,-0.28523,-0.03632
2615,-2.37369,-0.73853,-0.02908,-1.83639,3.20626,0.16053,-10.07162,-5.27132,-0.8105,16.51741,4.63254,2.15597,0.38087,-0.21893,0.03253,0.11947,-0.23924,-0.00164,8.33262,2.51949,0.72887,12.72399,-21.58165,-2.86292,0.71677,-5.68721,1.31528,2.49651,-3.68065,-0.05593,-5.14512,-3.38876,-1.79484,1.59815,-0.95632,-0.19668,-1.2597,-0.71324,0.68595,0.20116,-0.10818,-0.08134
2616,0.62855,-0.46694,0.32371,-2.10925,0.19248,0.75949,1.44382,-6.05982,1.60563,18.18565,-12.43613,-3.57246,0.73764,-0.42371,0.24006,0.1595,-0.33178,-0.03801,21.10531,-23.55294,-4.87062,13.84347,-9.42406,-1.51646,0.64478,0.90557,-1.14842,-0.83896,-1.91654,-0.49658,1.84972,0.41064,1.26026,1.36418,-1.32868,0.24163,0.22604,0.28779,0.88826,-0.04423,-0.04665,-0.00701
2617,0.54616,-0.30418,0.2419,-3.05729,1.25052,0.9915,5.48805,-5.12294,2.47216,19.99793,-11.5818,-2.80995,0.73373,-0.62733,0.22689,0.08626,-0.05605,-0.03064,29.31157,-20.88758,-1.70419,14.27903,-21.72552,3.42048,1.16817,3.87333,-1.43801,-1.69504,-1.79959,0.057,4.67487,2.38278,1.69758,1.06078,-1.89375,0.8636,0.80899,0.52079,0.29757,-0.08467,-0.17195,0.13528
2618,-2.52049,-0.72182,-0.17323,-2.71674,3.3227,0.51008,-3.84317,-5.95632,0.31415,23.05906,0.35457,0.61875,0.42087,-0.66376,0.00996,0.10125,0.11699,-0.04422,24.9387,-3.62252,1.74016,12.78269,-39.62551,8.94948,1.39767,2.03237,2.05707,1.59711,-4.0771,0.82192,2.12983,1.03967,0.50022,0.99144,-1.19532,0.74104,0.32318,0.14079,0.04248,-0.02097,-0.15794,0.18918
2619,-5.11498,-0.96735,-0.58238,-0.52451,3.34993,-0.33169,-19.90627,-8.7724,-3.63628,23.37218,7.86366,0.99257,0.18091,-0.49182,-0.16793,0.34714,-0.0618,-0.04394,4.56726,3.03407,-2.3454,14.43239,-42.67602,8.28402,0.8577,-1.67812,4.15305,5.86674,-6.66294,1.17453,-2.04747,-1.54976,-0.72731,0.19501,0.81328,-0.15789,-0.3173,-0.18616,0.33339,-0.19843,0.10331,0.09721
2620,-4.56305,-0.37011,-0.71614,1.64934,2.09036,-0.79347,-26.35404,-8.89871,-5.77804,20.02969,5.95989,-1.21681,0.22197,-0.29264,-0.14928,0.63117,-0.29176,0.02062,-11.55812,-1.6706,-8.4358,19.58268,-29.06875,2.86727,0.68452,-4.4382,1.30583,6.93231,-6.692,1.05962,-4.28364,-2.83214,-1.48999,-1.01643,2.08451,-0.8463,-0.49874,-0.17981,0.49479,-0.50059,0.32032,-0.04545
2621,-1.96703,0.25582,-0.48545,2.26333,1.04109,-0.61521,-15.24175,-5.75605,-3.79969,19.67501,-1.78415,-3.05452,0.38769,-0.25971,-0.00457,0.69407,-0.32329,0.0694,1.16465,-8.72144,-8.8746,21.07635,-12.75211,-1.24497,2.13364,-5.65905,-2.79419,4.95939,-4.4564,0.08692,-4.16477,-2.6076,-1.57856,0.14225,1.54824,-0.9624,-0.41243,-0.14226,0.14568,-0.21528,0.32783,-0.17029
2622,-0.55268,-0.02789,-0.05416,1.46572,0.59233,-0.17675,1.46842,-3.68741,0.55592,23.01744,-8.0623,-3.07,0.45755,-0.35674,0.10343,0.56074,-0.25466,0.00354,29.15643,-13.34963,-3.49469,19.22949,-8.93443,-0.85639,4.23087,-4.60119,-1.6939,3.21389,-3.14673,-1.49399,-2.51942,-1.50324,0.3059,4.38785,-0.11899,-0.81492,-0.30098,-0.11092,0.00334,0.86827,0.16079,-0.23309
2623,-1.56143,-1.4957,0.3981,0.3027,0.97102,0.03949,7.29797,-6.82579,3.89678,23.21366,-6.95295,-1.66475,0.45773,-0.47932,0.07843,0.40519,-0.21081,-0.1096,38.35976,-15.74541,2.74532,22.40815,-22.19586,5.87764,4.78879,-1.42406,6.13089,2.70596,-3.51286,-1.98712,-1.17919,-0.23085,4.15684,7.11547,-1.76605,-0.42903,-0.39479,0.12304,0.83365,1.6818,-0.09593,-0.20398
2624,-3.21715,-3.66962,0.77219,-0.75209,2.33065,0.04836,0.82424,-15.43418,4.61219,17.65523,-0.44138,-0.39148,0.48408,-0.57609,-0.0458,0.26292,-0.11701,-0.09965,22.04318,-20.31264,5.49833,32.11306,-39.54675,13.55086,3.67146,0.43211,12.71587,1.89036,-2.71324,-0.38462,-2.07942,-0.43816,5.79465,4.53153,-2.622,0.30336,-0.74375,0.31816,1.82097,1.22588,-0.31427,-0.10236
2625,-3.70322,-4.67072,0.79327,-2.35117,4.06482,0.30544,-8.20057,-22.35489,2.75946,9.84217,5.2819,0.37698,0.46807,-0.54033,-0.13861,0.06041,0.07069,0.06539,-0.2218,-24.02899,4.59318,37.47802,-44.31353,13.32035,2.09603,-0.73626,10.9384,0.54574,-0.42671,1.67742,-4.19348,-2.72637,1.31691,-0.31244,-2.46064,0.93592,-1.07487,-0.07607,1.32502,0.06455,-0.37361,0.03041
2626,-2.77042,-2.88284,0.28347,-3.92231,5.17281,0.75493,-12.1021,-18.17495,-0.42947,5.8404,7.83048,1.56973,0.37277,-0.34969,-0.10196,-0.12375,0.20797,0.2261,-9.62608,-15.53193,2.32858,31.86707,-35.36831,4.84776,0.87452,-1.58457,3.53125,-0.41821,0.01274,1.42487,-3.63058,-4.16446,-6.01938,-2.01514,-1.14499,0.67016,-0.6668,-0.79222,-0.64327,-0.58963,-0.21672,0.10058
2627,-0.9578,0.07686,-0.29745,-3.34301,4.72926,0.72141,-8.58369,-5.31708,-2.18237,10.6475,5.85533,1.51935,0.3708,-0.27741,0.01081,-0.09586,0.1684,0.21919,1.54961,0.37242,-0.81655,22.94752,-23.59757,-6.4393,0.63565,-1.15106,-3.1359,-1.00435,-1.91403,-0.6259,-0.42077,-2.26625,-7.35611,-0.17939,0.17304,0.04984,0.36392,-0.71602,-2.00946,-0.51427,-0.06137,0.14427
2628,0.17852,0.90326,-0.32904,-0.6292,2.83155,0.02473,-2.36699,2.10723,-0.92478,22.42259,-1.11964,-2.19089,0.5265,-0.51786,0.05473,0.14101,0.00569,0.04978,24.43906,3.67168,-5.24077,16.12103,-17.11279,-15.96658,1.41101,-2.38625,-5.51829,-1.48937,-2.64579,-1.69903,0.76359,0.59444,-0.03012,1.58447,0.3935,0.01771,0.6968,0.08805,-1.32986,-0.33294,-0.02113,0.19859
2629,-1.33806,-0.67965,0.03009,1.16524,1.14791,-0.58584,-3.81974,-2.57154,0.94318,30.04037,-5.57548,-5.77329,0.55775,-0.74212,-0.01061,0.35732,-0.18728,-0.13186,32.59987,-6.44863,-7.51595,9.77811,-18.27398,-22.12672,2.01151,-5.31528,-4.98726,-1.44806,-1.12522,-1.4178,-1.18166,1.02099,7.63944,1.77997,0.28644,0.17442,0.01522,0.46212,0.48965,-0.31831,0.0817,0.16407
2630,-5.09807,-1.68453,0.06206,0.42102,0.74933,-0.45287,-14.9634,-10.17204,0.23311,24.34016,-0.09103,-3.08196,0.24032,-0.52623,-0.1,0.45312,-0.40085,-0.19134,11.82871,-11.00056,-3.84923,2.76536,-25.6958,-21.61318,2.29457,-6.7142,-4.20427,0.12942,-0.59978,-0.93491,-2.87004,-0.45421,8.46357,1.51465,0.65122,-0.08698,-0.67949,0.20915,1.57045,-0.19143,0.22072,0.03627
2631,-7.14016,-0.33645,-0.38836,-0.80594,0.81383,0.11787,-21.4999,-9.44191,-2.26327,12.4052,8.32157,3.42516,-0.09229,-0.04347,-0.08856,0.56319,-0.53292,-0.11636,-11.56408,-3.3357,1.67851,-6.23735,-34.9068,-8.36943,2.73687,-4.9101,-2.50293,3.86921,-2.85428,-0.1403,-2.82823,-2.29042,3.18208,1.3459,0.98806,-0.51024,-0.84618,-0.33134,1.12711,0.23615,0.19329,-0.06938
2632,-4.15047,1.46248,-0.6006,-0.8779,0.84286,0.50149,-11.09777,-2.16768,-2.77836,8.5101,7.41532,5.24859,0.12466,0.1139,0.09043,0.67447,-0.37765,0.01027,-4.50408,3.95621,2.45916,-13.2507,-34.4997,10.90966,2.20425,-2.36515,0.11258,8.10369,-5.48178,0.97208,-2.27153,-3.88559,-2.06652,0.94312,1.01256,-0.87962,-0.66953,-0.79901,0.03347,0.67473,0.12145,-0.18553
2633,1.3152,0.82056,-0.01735,-1.20003,1.34989,0.65877,6.37783,-1.46737,0.36792,13.96389,-1.92749,0.63772,0.77564,-0.23976,0.28282,0.4791,-0.02236,0.07624,22.63331,-3.67016,0.70797,-2.2715,-19.98107,18.32907,0.36488,-3.12598,-0.36298,9.52085,-5.81323,1.51671,-2.12134,-4.99948,-3.74673,0.2635,0.89816,-1.14465,-0.37144,-0.89229,-0.61221,0.64657,0.18188,-0.35151
2634,2.91386,-1.92098,0.79608,-1.76588,2.44349,0.57428,10.1598,-12.17805,4.08662,22.51594,-7.68332,-3.60476,1.05809,-0.64101,0.2311,0.02735,0.19234,0.04534,37.65067,-22.39794,1.83197,33.0504,-2.88867,8.47632,-0.04395,-7.2651,-6.17802,6.82092,-4.30905,1.19419,-1.84917,-5.69965,-4.34092,-0.06681,0.39166,-0.86613,-0.03472,-0.64491,-0.82763,0.17354,0.20344,-0.3573
2635,-0.89728,-3.40805,0.83012,-0.62218,3.77524,0.10106,-1.93865,-20.4484,4.03005,30.11352,-2.80837,-2.23318,0.64353,-0.65536,-0.03524,-0.14661,0.16821,0.00472,34.0174,-27.507,4.6327,67.01875,5.47565,-6.70826,3.66892,-11.00076,-12.24638,1.68529,-2.77433,0.00596,-1.34403,-6.49292,-5.29799,0.89389,-0.33658,-0.03099,0.12293,-0.47115,-0.84277,-0.13597,0.06942,-0.09978
2636,-4.71747,-2.36758,0.09573,1.42638,4.61686,-0.39626,-12.26666,-15.34313,0.26193,30.57495,7.01797,2.50976,0.11358,-0.43507,-0.23495,0.14116,0.01505,0.01305,24.30634,-8.91122,5.2437,66.00342,2.02746,-14.64484,9.37271,-10.61693,-11.00874,-2.63007,-1.94828,-1.64844,-1.63488,-7.30872,-4.00069,3.034,-0.66545,0.6999,-0.16022,-0.67147,-0.46788,0.10062,-0.10489,0.21463
2637,-3.76169,-0.129,-0.59328,1.99758,4.1641,-0.4712,-8.64432,-2.91103,-3.24888,19.87773,11.48423,4.93437,0.05114,-0.28317,-0.15457,0.5257,-0.1607,0.02153,15.36693,12.4023,3.11442,31.47985,-10.47709,-13.061,11.09837,-5.52554,-3.24796,-2.64517,-2.1102,-2.42121,-2.44952,-6.53536,-0.64899,4.3387,-0.22962,0.63494,-0.55837,-0.91588,0.0298,0.47497,-0.15748,0.31114
2638,-0.45748,2.01455,-0.81642,0.87811,2.77686,-0.25332,0.04823,6.05814,-3.97474,5.84736,8.91441,3.0815,0.36874,-0.23489,0.12397,0.65149,-0.21121,-0.01238,5.53646,17.32348,-0.036,-4.58085,-24.83513,-5.12801,6.83635,0.50888,2.81502,1.91826,-3.15284,-1.24272,-2.09839,-3.68325,0.68394,3.15859,0.35072,-0.04252,-0.50683,-0.73299,0.00147,0.39485,-0.0888,0.14647
2639,0.25574,2.33991,-0.5413,-0.80142,1.4641,-0.02697,0.40298,5.54541,-2.27136,1.03637,5.75322,-0.01764,0.66754,-0.29205,0.28484,0.45626,-0.10507,-0.05971,-3.53408,8.22908,-1.4194,-15.0615,-33.11942,5.531,1.81265,2.86916,3.31067,6.73461,-4.02115,1.03824,-0.70195,-1.29226,-0.52533,1.23987,-0.19352,-0.26773,-0.12706,-0.28444,-0.3664,0.03934,-0.12495,-0.03341
2640,-1.76794,-0.09331,0.09317,-1.92355,0.69094,0.17133,-5.1992,-3.16406,0.38985,9.21301,4.60324,-1.52909,0.66493,-0.46052,0.14417,0.19351,-0.00361,-0.05001,-1.59114,-4.27864,0.18053,4.55046,-32.51627,12.85393,0.68366,1.04399,1.75156,7.69769,-4.00782,1.68252,0.07935,-1.92674,-1.41608,1.51257,-1.07925,-0.08843,0.07164,-0.1647,-0.43101,0.04998,-0.22417,-0.10311
2641,-3.41887,-3.06072,0.58967,-1.89777,0.7817,0.40152,-7.41193,-10.74302,2.11077,22.44247,2.0581,-1.82988,0.35745,-0.60931,-0.13634,0.12014,0.03146,0.06439,13.9817,-11.31785,0.92926,33.05117,-28.95087,10.67687,2.10773,-2.13806,0.3856,5.15796,-3.78492,0.0445,0.2788,-4.19401,-1.38149,2.99053,-0.68719,-0.24044,0.02414,-0.48878,-0.24278,0.35451,-0.16319,-0.10301
2642,-3.13335,-3.37146,0.51979,-0.77239,1.93684,0.46562,-5.16471,-9.8395,2.02898,31.26515,-1.90671,-2.162,0.08782,-0.60267,-0.26808,0.14764,0.06714,0.21341,31.14412,-8.94798,-2.23796,42.09752,-28.48518,-0.67944,4.26084,-4.84795,-2.85647,2.52699,-4.14847,-1.41426,1.07431,-4.8976,-1.94292,2.79279,0.64404,-0.55777,0.05483,-0.85655,-0.29216,0.41894,0.02781,-0.0514
2643,-2.06564,-1.02622,0.1189,0.9516,3.04457,0.08116,-3.13204,-5.08317,1.77954,34.5103,-3.35542,-2.90765,0.21218,-0.49253,-0.18354,0.15612,0.02647,0.22764,40.3965,-3.45162,-5.29381,27.97192,-25.79192,-12.42767,7.47951,-6.30517,-7.60945,2.53523,-4.41714,-1.01006,2.18244,-3.28392,-2.97282,1.33749,1.50526,-0.59098,0.223,-0.85485,-0.51299,0.31905,0.20592,-0.01083
2644,-1.77511,1.2722,-0.10263,2.43317,2.32215,-0.54107,-3.28495,-2.84631,2.52203,35.71481,-2.48041,-3.72784,0.61295,-0.41211,-0.02234,0.34843,-0.20742,0.02659,43.24596,-1.5397,-4.33076,15.30649,-14.80656,-15.21937,9.63134,-5.7972,-9.57795,4.96868,-3.57069,0.77745,2.59864,-1.37538,-3.23804,0.788,1.05218,-0.22212,0.26549,-0.46896,-0.43667,0.4344,0.25175,-0.01827
2645,-2.05157,1.30568,-0.00975,3.19474,0.38433,-0.85497,-4.03451,-2.68866,2.39142,35.81673,-2.05533,-3.33173,0.77555,-0.35579,0.07989,0.78976,-0.42806,-0.21475,42.90931,-1.60968,-2.02631,17.9881,-2.04127,-10.43602,8.87585,-4.17549,-7.2425,6.89498,-2.22882,2.25361,2.1356,-0.99958,-2.24644,1.22893,-0.11961,0.24494,0.06094,-0.1208,0.00473,0.61812,0.14778,-0.02904
2646,-1.39678,-0.46087,0.17021,2.86442,-0.15629,-0.58545,-3.43541,-3.61326,0.16709,32.54731,-1.87416,-1.28834,0.55363,-0.24238,0.11712,0.98006,-0.34213,-0.23664,37.45337,-3.32388,-1.4647,21.50143,-3.72783,-4.26992,8.62265,-3.11417,-3.45609,5.98857,-1.69418,2.3414,1.00923,-2.32621,-0.20415,1.36519,-0.99171,0.55975,-0.19218,-0.23687,0.42427,0.46323,-0.03534,0.01851
2647,-0.33199,-1.48691,0.15054,1.37604,1.16588,0.0019,-3.62284,-5.73909,-2.04723,26.03344,-0.9901,0.41796,0.32539,-0.16222,0.11326,0.54566,-0.0641,-0.02408,23.57349,-9.55575,-1.7675,20.50329,-25.34194,3.97039,10.19462,-2.60822,-0.74548,3.56502,-1.88333,1.59401,0.18412,-4.37299,1.32488,1.04678,-1.28676,0.73346,-0.18936,-0.72234,0.43159,0.02261,-0.18296,0.09902
2648,-0.70455,-0.90501,-0.04103,-0.44295,2.14838,0.48445,-6.30905,-8.05125,-1.97863,20.80937,-0.91237,0.10968,0.31417,-0.28292,0.02984,-0.0577,0.06341,0.18387,8.64789,-18.51455,-1.33408,27.98351,-40.98888,14.33777,8.81326,-1.21593,0.288,2.47679,-2.16851,0.80741,0.59773,-4.57994,0.65864,1.40338,-1.08634,0.70829,0.08019,-0.77928,0.02562,-0.19413,-0.19822,0.12857
2649,-1.95619,0.00864,-0.16147,-0.75808,1.07212,0.46987,-7.21668,-7.87178,-0.32854,22.05325,-3.43411,-1.92259,0.4069,-0.50928,-0.06996,-0.07114,-0.08386,0.15908,9.72624,-22.56573,-1.36978,40.09529,-23.70124,19.6834,3.50082,0.87182,-0.0964,3.33272,-2.85556,0.40885,0.92362,-1.57507,-0.91372,2.31218,-0.60171,0.56755,0.129,0.02185,-0.31114,0.03077,-0.1129,0.12918
2650,-2.7738,0.309,-0.1419,0.42237,-0.74634,0.05076,-4.25962,-4.07622,0.74036,27.20704,-4.87852,-3.22412,0.44483,-0.59895,-0.09274,0.41841,-0.28905,-0.02992,26.31966,-14.37018,-1.8324,42.30684,5.43294,15.29361,0.54762,1.62145,-1.35409,4.82008,-4.1949,0.75716,0.61976,1.36546,-1.67269,2.32553,-0.21458,0.58181,-0.09753,0.7893,-0.36218,0.34424,-0.02731,0.17527
2651,-2.42516,0.29608,-0.10339,0.57833,-0.72218,-0.11378,0.94759,1.05256,0.51846,27.57582,0.25064,-0.92466,0.40316,-0.45545,-0.03148,0.60598,-0.29789,-0.12106,39.8108,4.82531,0.87705,33.53431,9.45926,2.74999,4.06224,0.50362,-2.87297,5.6824,-5.06217,1.34782,1.20494,1.1931,-1.84275,1.5681,-0.04827,0.65134,-0.01337,0.71477,-0.37666,0.41685,0.02144,0.21276
2652,-1.24751,0.11783,-0.07025,-1.70618,1.38425,0.37329,4.86893,3.17528,-0.27813,19.27189,9.34912,4.12272,0.35603,-0.22333,0.05218,0.16711,-0.11162,-0.00673,35.50173,21.30026,6.68222,19.9462,-6.51388,-14.16834,10.93162,-1.34625,-4.00611,5.34183,-4.15869,0.98718,2.18176,-0.78013,-1.52976,1.55957,0.21719,0.33045,0.4147,0.1085,-0.43627,0.3125,0.06228,0.12066
2653,-0.59951,-0.5226,0.05682,-4.25985,2.41356,1.00925,3.578,1.08638,-0.79851,8.53487,10.87202,6.09214,0.39563,-0.14187,0.09536,-0.28799,0.01557,0.13126,16.67916,19.74768,8.14446,6.94629,-15.93071,-27.93785,15.11226,-2.57747,-4.20832,4.18931,-2.22657,-0.08103,2.1502,-2.02803,-0.7906,2.49779,0.41038,-0.13939,0.73902,-0.37031,-0.43303,0.25156,0.0537,-0.02357
2654,-1.11555,-0.73968,0.15257,-3.61504,-0.14717,0.90802,-1.65055,0.60013,-0.61747,6.10317,-1.01733,0.8452,0.48771,-0.26102,0.08626,-0.07574,-0.12089,0.05684,3.54624,3.33677,0.06821,-2.6996,-14.45866,-27.97524,13.68519,-2.34663,-2.98964,3.34119,-1.19933,-0.13874,1.605,-2.37623,-0.13098,2.79746,-0.09284,-0.04124,0.71625,-0.55778,-0.27696,0.25539,-0.03679,-0.05204
2655,-1.95599,0.36947,0.01636,0.56974,-3.11675,-0.10619,-5.5283,4.07431,0.06473,15.6535,-12.90518,-6.78494,0.53118,-0.43629,0.05982,0.67276,-0.32828,-0.18171,10.68816,-9.06915,-10.73932,-4.4432,-14.18158,-11.36452,8.2067,-0.97159,-1.11288,4.07578,-1.86886,1.5635,2.05939,-2.46999,-0.29508,1.5741,-1.24038,0.64833,0.51946,-0.57742,-0.10699,0.19047,-0.15539,0.0462
2656,-2.51789,1.49712,-0.20231,4.56488,-1.33773,-1.20675,-7.27563,3.65086,0.36791,27.86106,-6.81501,-7.84613,0.52894,-0.55564,0.04082,1.28488,-0.23737,-0.33814,26.04032,-6.58317,-12.87953,8.33027,-17.45453,9.26514,2.93692,0.34583,-0.29579,6.15454,-3.20829,3.55565,3.49013,-2.02159,-1.28872,-0.10813,-2.09971,1.16543,0.43887,-0.44634,-0.13928,0.0228,-0.25127,0.14262
2657,-2.77324,1.16206,-0.2642,4.81126,4.10861,-1.49029,-7.92555,-3.59165,-0.21501,30.04018,13.38795,-0.95088,0.53336,-0.5937,0.01389,1.32372,0.10618,-0.31935,30.32076,5.69729,-4.60032,24.28799,-15.08693,14.57052,3.11006,0.69603,-1.37683,6.56128,-3.26123,3.59796,3.78937,-0.73316,-1.88649,-0.51374,-1.92251,0.99181,0.47115,-0.15917,-0.28968,-0.07202,-0.27796,0.14048
2658,-2.09585,0.06941,-0.17585,1.4965,7.73473,-0.85186,-4.12851,-9.17933,-0.56082,19.8853,27.64226,7.15953,0.55692,-0.54401,-0.02807,0.78973,0.31809,-0.22035,23.63393,16.51022,7.47594,16.09118,-8.70518,2.15793,9.24984,0.69655,-3.10108,3.31107,-1.31082,1.28683,1.55691,0.84882,-1.203,1.04362,-0.88198,0.47111,0.37021,0.16856,-0.30531,0.12776,-0.16509,0.06682
2659,-0.73102,-0.71326,0.0388,-2.55739,7.21836,0.12974,3.78478,-8.75597,0.69318,5.79465,25.69385,10.61124,0.5297,-0.40442,-0.06961,-0.00627,0.26193,-0.12486,14.84011,16.86537,17.22836,-15.63666,-13.98262,-7.84142,13.72075,1.72954,-2.94456,-0.81428,1.04944,-1.01994,-1.23861,1.49048,0.0507,2.87635,0.09236,0.24945,0.05787,0.36523,-0.13427,0.39816,0.03307,0.01026
2660,0.3009,-1.13568,0.32254,-4.9383,4.61365,0.80428,11.1091,-5.7402,2.69624,-2.14213,14.60597,8.92752,0.39506,-0.21277,-0.0793,-0.56309,0.13169,-0.05382,11.65337,9.62139,21.12153,-33.99958,-30.04197,-2.97129,11.00188,3.15608,-0.68777,-2.171,1.82203,-1.11039,-1.36007,0.56911,0.57316,2.78401,0.20616,0.47735,-0.19305,0.37751,0.01493,0.28599,0.12221,0.02617
2661,0.47048,-0.6131,0.299,-5.30197,3.23484,0.9454,14.10057,-0.21294,2.75966,-0.10124,7.5785,5.61698,0.22178,-0.06326,-0.02695,-0.55102,0.15933,0.00394,16.97707,10.45809,18.22997,-14.97882,-35.5374,4.60176,5.99495,2.74646,0.86384,-1.22621,1.03153,0.15457,1.35937,-0.9727,0.022,1.17165,-0.26093,0.76579,-0.08046,0.24076,-0.02686,-0.1171,0.0611,0.07328
2662,-1.12426,0.96298,-0.15492,-4.32719,4.06187,0.74514,6.43232,6.94416,-0.05413,8.70562,8.2636,3.2815,0.10685,-0.09006,0.03365,-0.0825,0.37282,0.05535,18.67969,20.4808,9.17612,26.75322,-21.90089,1.15645,5.13514,0.53915,0.00992,-0.20369,-0.06461,0.41903,4.0017,-1.63619,-0.87885,0.45949,-0.21625,0.65434,0.34455,0.00871,-0.18718,-0.22242,0.03199,0.07718
2663,-4.46128,1.58597,-0.43084,-1.92941,5.09568,0.37119,-12.95745,7.60436,-3.01465,20.09816,9.71514,1.55791,0.12798,-0.34643,0.01339,0.50408,0.53588,0.07168,7.8217,19.8399,-2.85634,56.89525,-2.16731,-9.08817,7.8644,-0.73323,-1.81853,1.51277,-1.3124,-0.94773,4.09437,-0.91651,-1.27088,1.87025,1.11287,-0.05164,0.70611,-0.17495,-0.28977,0.25977,0.20547,0.00059
2664,-6.73201,0.22347,-0.13867,1.82409,4.90711,-0.15408,-28.02814,-0.0054,-3.23584,30.26419,8.93024,0.70123,0.33024,-0.64168,-0.06015,0.9266,0.43865,0.02408,0.2639,5.796,-9.93024,49.71378,6.39806,-14.2776,10.36737,0.45867,-2.41204,5.51562,-3.04007,-2.21706,1.50552,0.23467,-0.76058,3.86078,3.00829,-0.99964,0.61885,-0.18276,-0.20825,0.88738,0.49542,-0.13047
2665,-5.22476,-0.9273,0.16704,4.41742,4.67845,-0.59875,-21.21473,-4.95011,-1.48668,32.3537,10.49884,2.07534,0.58639,-0.65664,-0.07775,0.94122,0.21307,-0.06473,11.99158,0.42473,-6.17896,13.07254,-5.30749,-10.83676,9.95768,2.64194,-1.19895,9.25383,-3.86156,-1.52157,-1.37383,0.50968,0.17891,3.81089,3.41793,-1.3674,0.1746,-0.07481,-0.01788,0.89933,0.55712,-0.21622
2666,-1.22649,-0.32555,-0.01028,2.73421,5.34843,-0.61519,1.82653,-1.38258,-0.2268,22.32225,15.0666,4.19661,0.68886,-0.39765,-0.03869,0.51401,0.10904,-0.15669,31.07645,10.85119,3.71367,-17.85711,-30.00229,-3.5711,5.73955,3.82139,0.87229,8.50055,-2.24488,0.55591,-1.83057,-0.36802,0.66519,1.35012,1.69367,-0.87875,-0.14181,-0.02801,0.08046,0.16177,0.24897,-0.20129
2667,1.30037,0.68275,-0.33404,-2.25239,5.5262,-0.25269,17.36398,3.73246,-0.05774,7.27044,17.24979,4.33537,0.62163,-0.22384,-0.02959,0.0512,0.12124,-0.26089,34.82171,21.19436,10.06228,-22.2741,-46.18722,1.63438,0.6084,3.73751,2.23171,3.91994,0.38216,1.72044,-0.2634,-1.24512,0.47214,-1.06709,-0.25218,-0.21166,-0.13807,-0.06319,0.04623,-0.56116,-0.11667,-0.12555
2668,0.36978,1.01087,-0.37363,-5.9074,4.60904,0.09228,11.83862,4.5605,-0.18801,-1.68172,17.00334,4.14736,0.50577,-0.29187,-0.03747,-0.02142,0.12064,-0.35184,18.89943,24.80409,10.87138,-10.58774,-37.05054,0.89086,0.01151,3.03791,1.48105,-0.02496,1.27249,1.09543,0.0771,-0.58269,0.10976,-1.34288,-0.80434,0.08382,-0.16546,0.04079,0.00061,-0.56705,-0.21891,-0.04198
2669,-2.18547,0.93611,-0.14949,-5.70201,3.91973,0.21502,-5.36918,2.32418,-0.15184,-2.73535,18.43923,6.33509,0.45419,-0.43022,0.02075,0.24441,0.06786,-0.32873,-3.87708,26.53565,10.57831,-0.11751,-8.27874,-4.80235,4.22264,2.13082,-0.98794,-0.62104,0.01959,-0.03882,-2.33038,1.50549,-0.03174,-0.02961,-0.29412,0.0757,-0.52984,0.36685,0.01135,-0.0419,-0.05963,-0.00163
2670,-3.75578,0.52754,0.11691,-2.85386,3.19262,0.15412,-17.38221,-1.10446,-0.07982,1.6566,16.89,6.99898,0.49716,-0.49944,0.09927,0.50899,-0.04824,-0.17234,-16.25296,19.34299,7.14123,6.06148,15.51401,-9.1849,7.13255,1.4304,-2.74641,1.72773,-1.69155,-0.06162,-4.48178,2.91613,-0.06506,0.89558,0.17272,0.02233,-0.87755,0.60538,0.02257,0.35046,0.12752,-0.00526
2671,-4.00811,0.16969,0.12595,0.40424,1.94622,0.04264,-17.9505,-2.92053,-0.56692,13.60324,7.68356,2.13978,0.49315,-0.48755,0.06338,0.52299,-0.07303,0.05682,-5.42042,0.50531,-3.94198,14.22942,12.39706,-8.21967,5.45431,1.38272,-2.26682,4.96426,-2.45756,1.325,-3.31416,2.40874,-0.17663,0.50798,-0.13288,0.09839,-0.72229,0.52463,-0.00683,0.3148,0.11194,0.00144
2672,-3.50136,0.39754,-0.20808,2.05707,1.58205,0.10659,-10.67159,-0.03555,-1.78222,28.6331,-0.88438,-3.37012,0.34259,-0.4256,-0.07243,0.31644,0.20721,0.30467,21.52008,-10.41158,-14.68338,24.13968,-14.38234,-4.51314,2.74835,1.91787,-0.8518,6.03626,-1.97512,2.5284,-0.34024,1.28763,-0.3373,-0.29252,-0.91755,0.24578,-0.22722,0.35411,-0.04504,0.05735,-0.07468,0.01367
2673,-1.84369,0.79299,-0.50364,0.73332,2.66424,0.49012,0.11763,5.10008,-2.56883,32.61506,0.95542,-2.74108,0.22502,-0.32657,-0.11224,0.13666,0.60945,0.5043,41.18429,1.21441,-11.52059,26.61808,-38.52126,-1.27517,2.78598,2.40827,-0.21044,3.2808,-1.0207,1.54554,0.96469,0.76076,-0.26517,-0.0093,-0.92546,0.24661,0.08169,0.29331,-0.04041,-0.0915,-0.15773,-0.01648
2674,0.18908,1.00069,-0.41567,-2.31387,3.70514,0.9173,8.31653,7.18428,-1.66443,24.38025,9.33548,1.99049,0.30206,-0.18173,0.02712,0.11859,0.69589,0.57406,42.59932,21.46072,2.6336,18.81354,-40.84573,2.53999,4.25406,2.37429,0.01719,-0.41127,-0.82791,-1.07084,-0.20859,0.10436,0.27903,1.30182,0.38367,0.04913,-0.01921,0.15113,0.03925,-0.04549,-0.00613,-0.05675
2675,0.48205,1.21718,-0.0742,-3.91939,3.55066,0.94969,7.25024,5.19324,0.54181,17.63023,12.69844,3.59874,0.4487,-0.06635,0.16826,0.13767,0.4145,0.48864,33.283,26.6533,11.09043,8.69857,-24.82714,6.27668,4.0495,2.15451,0.92094,-0.53125,-1.40444,-2.19158,-1.61103,-1.26903,0.97082,2.18088,1.58863,0.01176,-0.31407,-0.15782,0.14861,0.0582,0.14842,-0.00118
2676,-0.95239,1.0291,0.25919,-3.27597,3.3325,0.66571,-0.64588,1.00766,2.55092,17.34289,9.94857,1.48878,0.49138,-0.10225,0.15055,0.02439,0.17513,0.35813,22.58723,14.65931,8.45617,-0.52772,-3.70905,3.66699,2.52517,2.44315,1.73026,2.55366,-1.31512,-0.59446,-1.51746,-1.85276,1.02408,2.10423,1.43939,0.3465,-0.52032,-0.22515,0.15916,0.14108,0.12488,0.13382
2677,-2.35139,0.14251,0.46611,-2.03878,4.55958,0.46552,-7.11707,-2.85994,3.19669,18.09397,10.53401,1.30164,0.4437,-0.28692,0.04845,-0.11492,0.25072,0.32889,14.81767,5.4831,4.289,-8.41552,8.10511,-5.79804,2.2334,3.15261,1.0217,4.59706,0.05627,1.55672,-1.05683,-0.48201,0.35484,1.80732,0.44574,0.76917,-0.60508,0.15417,0.04487,0.20273,0.03677,0.1988
2678,-3.0647,-0.46182,0.42186,-1.38835,6.01215,0.46816,-8.76902,-3.03212,2.1973,16.09226,16.07625,4.54325,0.39942,-0.49294,-0.00791,-0.03297,0.44926,0.36495,9.2806,11.22087,4.95196,-4.73971,1.78589,-10.68225,2.93913,3.18173,-0.5253,4.31137,1.09792,2.21934,-1.47054,1.22572,-0.20636,1.68749,-0.26081,0.83054,-0.56929,0.45017,-0.04553,0.20807,0.01991,0.11191
2679,-3.4698,-0.02616,0.09858,-0.67629,5.54453,0.37774,-6.54272,0.3082,0.32687,13.14209,18.56987,6.88154,0.36566,-0.58242,-0.03252,0.34852,0.44665,0.27376,7.30935,21.45281,7.2194,11.42465,-16.00805,-1.63252,2.04593,1.75872,-0.91031,4.09199,0.21703,1.62478,-1.31541,1.06499,-0.15343,1.49317,-0.28059,0.43846,-0.2369,0.15684,0.004,0.18181,0.04572,-0.0307
2680,-3.44497,0.60303,-0.25805,1.01822,3.77112,-0.06202,-1.4622,1.6973,-1.146,13.70662,15.89311,5.58174,0.32948,-0.51701,-0.09024,0.84267,0.20964,0.01582,15.04979,22.57493,7.59749,21.61207,-28.95723,14.85019,-0.37855,-0.23493,0.23594,5.11615,-1.5977,0.86428,1.24833,-0.60618,-0.0091,1.36299,0.16279,-0.04795,0.45269,-0.40775,0.07354,0.24924,0.07657,-0.09235
2681,-2.62424,0.6847,-0.43883,2.80571,2.52607,-0.58105,3.14532,-0.33051,-1.78913,19.48094,11.62075,1.56552,0.34101,-0.38782,-0.14085,1.07052,-0.02722,-0.17322,30.55194,14.69919,4.6455,17.68241,-29.01941,22.75055,-0.93217,-1.10835,1.18909,5.96015,-2.39514,0.14764,4.33181,-1.71859,-0.2097,1.77681,0.94777,-0.36732,1.03732,-0.58782,0.02051,0.42496,0.17712,-0.0942
2682,-1.41703,0.76964,-0.4594,3.40125,1.71836,-0.73786,2.87313,0.09863,-1.84553,27.44674,5.73601,-3.53884,0.44898,-0.32372,-0.09442,0.91371,-0.08977,-0.10819,41.78286,6.87191,-2.84956,11.68267,-22.9107,14.9422,2.45311,-0.51671,0.54375,5.51302,-1.87203,-0.46821,4.25727,-1.41852,-0.22935,2.48593,1.66841,-0.41656,0.9071,-0.29071,-0.04357,0.50961,0.30525,-0.10408
2683,-0.59017,1.0033,-0.31818,3.84715,0.38661,-0.64205,-0.09258,4.49468,-1.17087,32.82877,-2.3263,-7.64903,0.61936,-0.36612,0.02959,0.77937,-0.03852,0.04207,43.93566,3.20213,-10.68729,9.64255,-18.79788,0.79574,7.00882,0.4276,-0.98981,4.53033,-0.98292,-0.24387,1.14084,-0.56385,0.24627,2.59409,1.53072,-0.04831,0.13985,0.03984,0.02051,0.34517,0.25843,-0.05529
2684,-0.35608,0.71717,-0.02989,5.60987,-1.16063,-0.70732,0.09533,6.2938,0.13582,32.33969,-8.91641,-8.52418,0.73507,-0.43834,0.1158,0.96529,-0.02566,0.00448,41.57035,-1.58233,-11.63433,6.94151,-11.88905,-6.86581,8.85485,0.80011,-1.94988,4.10908,-0.3815,0.7125,-1.21405,-0.10429,0.5526,1.91449,0.74812,0.45656,-0.45918,0.10117,0.11383,0.08255,0.04297,0.07599
2685,-0.4473,0.02256,0.18386,7.23263,-1.69739,-0.9252,2.58773,3.21883,1.00494,26.40956,-8.46044,-5.59223,0.68245,-0.4446,0.1025,1.19063,-0.08946,-0.20319,35.77448,-6.43486,-5.5477,2.98248,0.36335,-6.47591,8.32128,0.70587,-2.12657,4.56576,-0.13512,1.18766,-0.55013,-0.11387,0.12184,1.47085,0.51788,0.5408,-0.33755,0.02896,0.04136,0.04748,-0.06128,0.16364
2686,-0.57374,-0.27453,0.13251,6.51733,-0.76663,-0.97364,2.82664,1.2128,0.58209,20.10575,-0.06443,-0.88447,0.43284,-0.3447,0.02547,1.08987,-0.15292,-0.35273,27.50095,-1.08705,0.54394,0.36825,0.01011,-3.87673,8.12468,1.03992,-1.65615,6.05031,-0.16333,1.0294,1.86692,-0.69578,-0.44612,1.80476,1.06989,0.19384,0.21226,-0.04139,-0.13781,0.28852,0.05901,0.12886
2687,-1.02242,-0.09848,-0.05791,4.91987,0.56231,-0.85887,0.65018,2.71416,-0.60983,20.95281,8.7718,1.88048,0.117,-0.19037,-0.06028,0.82456,-0.16327,-0.33083,25.86388,10.72071,0.92948,-1.94788,-21.89239,-2.35747,8.64093,2.09187,-0.35342,8.13188,-0.62117,1.12471,4.04138,-2.01027,-0.3145,2.01633,1.42955,-0.13062,0.65406,-0.21861,-0.1776,0.48564,0.21257,0.04412
2688,-2.304,-0.1498,-0.13143,5.1276,0.91522,-0.8401,-2.50461,2.38658,-1.47139,30.21351,10.82207,1.00559,0.00936,-0.1568,-0.12528,0.80382,-0.15416,-0.21063,33.73272,13.60471,-3.28524,-3.08495,-41.32821,-1.55834,8.06571,2.85496,1.18988,9.04654,-1.68564,1.36242,4.96825,-3.24089,0.31392,1.70091,1.2114,-0.11134,0.78572,-0.48223,-0.03124,0.45046,0.23993,0.02157
2689,-3.38885,-0.29101,-0.10254,5.67606,0.19402,-0.79239,-5.56123,-1.02701,-1.58791,36.79671,7.69341,-1.13496,0.24549,-0.318,-0.11127,0.96933,-0.17759,-0.0818,37.67833,8.39757,-6.06647,6.89854,-37.32565,0.56411,6.00645,2.48414,2.14452,7.30159,-2.58399,0.96627,4.73298,-3.60298,0.82795,1.76625,0.96818,0.24005,0.7285,-0.62813,0.1313,0.35818,0.19689,0.08321
2690,-2.82905,0.48326,-0.14935,3.34682,-0.42854,-0.36909,-5.76142,-0.41177,-0.95263,30.83299,4.84355,-1.87576,0.62033,-0.48846,0.00989,0.92992,-0.20485,0.05709,29.64371,10.08028,-3.6649,30.21178,-20.56287,5.47844,4.20531,1.539,2.51422,3.7662,-2.19997,0.05945,4.49605,-3.45705,1.02494,2.39299,0.99263,0.56745,0.725,-0.59722,0.18047,0.34682,0.18727,0.12752
2691,-1.48856,2.07097,-0.25441,-1.07875,-0.14375,0.28904,-2.93827,7.03997,0.25574,18.40221,3.54771,-1.77372,0.83404,-0.50396,0.14169,0.64239,-0.15767,0.19292,19.10964,19.85255,0.18069,46.2477,-8.3674,9.74321,4.24569,1.11849,2.22614,1.17195,-1.10954,-0.62789,4.84331,-3.09796,0.79159,2.43458,1.09639,0.44669,0.80002,-0.44138,0.09771,0.2921,0.21214,0.05801
2692,-1.03185,2.78518,-0.25711,-3.73126,0.78685,0.65216,-0.84665,12.55295,1.21461,13.00405,2.97656,-1.90589,0.75937,-0.42978,0.15751,0.41345,-0.02285,0.22439,17.24293,22.40057,0.05412,38.33809,-2.83789,6.76805,6.49048,1.32947,0.72547,1.47708,-0.86134,-0.73913,4.74294,-2.13217,0.14083,1.73212,1.21487,0.00131,0.7222,-0.19112,-0.04531,0.17139,0.23556,-0.05731
2693,-1.27119,1.83133,-0.15306,-2.48779,1.17798,0.48028,-0.96995,8.63042,1.18367,17.82499,2.69729,-1.46742,0.48505,-0.36366,0.06204,0.46194,0.06345,0.08611,23.55953,11.18941,-2.23367,21.97796,-2.14464,-3.14793,9.78621,1.31938,-1.58531,3.47143,-1.53957,-0.57203,3.68222,-0.6773,-0.54055,1.61418,1.44585,-0.20747,0.4597,0.04922,-0.12499,0.18812,0.27121,-0.0885
2694,-1.14292,0.20902,-0.04481,0.86868,-0.21337,0.06342,-0.57095,-0.29417,0.55502,22.9418,0.79418,-0.03759,0.24646,-0.3232,-0.04811,0.71614,-0.05854,-0.13684,28.63775,-3.66262,-0.9583,17.60008,-6.5947,-10.36897,11.26998,0.84411,-3.02855,4.13186,-2.10339,-0.44566,2.66894,0.34223,-0.88175,2.072,1.41645,0.00019,0.24738,0.15096,-0.11493,0.28665,0.25974,-0.03272
2695,-0.64168,-0.90134,0.0092,3.01933,-2.23996,-0.16669,2.10371,-5.02823,0.04814,20.87549,-2.07681,1.3135,0.19995,-0.32166,-0.12865,0.913,-0.26457,-0.26224,27.38235,-9.46392,3.70279,14.86149,-11.43471,-7.65718,9.51468,0.70542,-2.49952,3.64956,-2.24767,-0.0433,2.18688,0.19584,-0.69508,1.22577,0.70921,0.08115,0.17177,0.09388,-0.08486,0.11036,0.07282,0.00308
2696,-0.5447,-0.46318,-0.10791,3.1514,-2.33803,-0.2053,4.71611,-0.68805,-0.32889,17.17602,-0.96688,1.67286,0.30438,-0.32158,-0.12986,0.91407,-0.2872,-0.231,25.57904,0.30035,6.17635,-5.16402,-13.46341,2.05066,6.7595,1.24593,-0.8008,5.67177,-2.2382,1.22315,1.52337,-0.83824,0.00723,-1.43044,-0.29006,-0.44767,0.11473,-0.06051,-0.03819,-0.33707,-0.2408,-0.02891
2697,-1.1668,1.32921,-0.34366,2.04379,-0.1825,-0.21609,3.64074,7.60319,-0.55237,16.58595,6.52395,1.70436,0.43405,-0.271,-0.00359,0.68203,-0.11328,-0.13727,24.38445,19.18038,4.85054,-28.00727,-16.99454,10.34681,5.69843,2.01727,0.69192,10.37486,-2.14642,2.69261,0.9088,-2.02927,0.86271,-3.4727,-0.56049,-1.21704,0.10814,-0.29324,0.07292,-0.54572,-0.38882,-0.07599
2698,-2.09381,2.28776,-0.36193,0.12808,2.11731,-0.15659,-2.10741,8.78927,-0.42667,15.40225,14.55014,1.65301,0.50338,-0.21685,0.15756,0.28697,0.04496,-0.03313,16.6063,28.06071,1.31646,-17.74022,-21.23899,9.84201,6.49798,2.84831,1.52164,11.90289,-1.82784,2.46009,1.36555,-2.89425,1.38656,-2.64381,0.40908,-1.4528,0.24316,-0.55243,0.21652,-0.26413,-0.15748,-0.10292
2699,-2.7049,0.7464,0.00164,-1.71003,2.93185,-0.00938,-8.70358,-0.59213,-0.20945,11.66477,14.5286,0.19203,0.51221,-0.26893,0.18269,0.08494,0.06458,0.08271,4.02505,15.27401,-3.90371,29.63538,-17.46393,0.94915,6.75508,3.25685,1.49008,6.57153,-1.10373,0.34585,2.19573,-2.63069,1.2145,0.04927,1.55017,-0.84811,0.31451,-0.59284,0.28035,0.12567,0.22898,-0.10081
2700,-2.72837,-2.01518,0.4469,-2.40865,2.26064,0.12548,-9.69801,-11.98012,-0.21358,7.16802,5.5558,-2.3058,0.48537,-0.43317,0.04762,0.2751,0.01046,0.13548,-2.26382,-8.98033,-7.15987,67.09217,-5.5217,-5.56774,3.80575,2.31632,0.53968,-0.6172,-0.29959,-1.35457,1.86278,-0.76323,0.32824,1.76237,1.49566,0.03165,0.09667,-0.22663,0.18214,0.20694,0.37582,-0.08175
2701,-2.82569,-3.27467,0.57567,-1.31089,0.96112,0.12158,-4.17271,-15.3913,-0.1767,5.48655,-4.19821,-3.29582,0.3913,-0.55953,-0.09877,0.58798,-0.01453,0.04812,4.1235,-24.38557,-4.11754,50.15379,3.7451,-2.50663,-0.12582,0.80627,-0.72985,-2.6743,0.11776,-1.11044,0.36873,1.39462,-0.63702,1.44158,0.58307,0.36415,-0.26598,0.31813,-0.04046,0.04215,0.24753,-0.08517
2702,-3.40491,-2.0554,0.34606,1.98391,0.6747,-0.13856,2.51059,-9.42257,0.4216,13.59079,-5.17869,-2.23372,0.25287,-0.52978,-0.12786,0.8474,0.04126,-0.09051,24.00167,-18.29123,1.61182,-0.06116,5.05102,1.58019,0.77095,0.8804,-1.81746,0.06589,0.34302,-0.18576,-1.28607,2.19013,-0.96084,0.71251,0.33489,0.036,-0.46265,0.64047,-0.24009,-0.04551,0.1211,-0.11454
2703,-3.52886,-0.3268,0.14248,6.08054,2.77599,-0.5342,6.23605,-1.77837,1.57839,30.82127,4.94223,-0.87502,0.23136,-0.44228,-0.0661,1.11235,0.18743,-0.09539,48.80301,3.89111,3.91072,-19.25217,1.69456,-2.48851,5.90945,2.67512,-2.3897,2.49473,0.51377,-0.34151,-1.99954,1.70219,-0.7065,1.21931,1.25181,-0.34093,-0.31366,0.59238,-0.28807,0.06894,0.14685,-0.12008
2704,-2.50954,-0.61262,0.36153,7.41719,5.6443,-0.65244,6.2763,-0.89215,2.51255,41.28869,17.73452,0.04427,0.44517,-0.48122,-0.00952,1.23263,0.33176,0.05994,57.77706,21.83261,3.8473,14.07089,-5.89731,-7.60875,7.76757,3.83164,-1.74669,2.62622,0.38805,-0.85493,-1.06834,0.76469,-0.35363,2.42301,1.97387,-0.11765,0.04255,0.28392,-0.18543,0.21507,0.20007,-0.05336
2705,-1.02233,-1.87685,0.6744,4.53308,5.91515,-0.2991,4.58362,-3.97912,2.26205,34.60537,21.978,1.09236,0.74897,-0.57784,0.04292,1.03567,0.32969,0.20712,44.69054,24.47946,4.96561,50.40048,-18.62808,-3.26363,3.74787,3.0096,0.00897,2.35471,-0.18967,-0.07351,0.78451,-0.308,-0.09457,2.61149,1.24232,0.58434,0.22375,-0.05651,-0.04465,0.18782,0.1437,0.04838
2706,-0.27107,-1.13725,0.4073,0.67869,3.55363,0.21083,3.75308,-2.70018,1.06015,21.15195,17.49114,2.7227,0.80701,-0.48957,0.12749,0.73576,0.18133,0.21888,28.84328,21.52178,6.96202,45.55729,-26.08833,5.75991,-0.2196,1.38728,1.26256,2.86458,-1.31803,1.32234,1.6153,-1.14695,0.14276,1.42483,-0.24301,0.97766,0.03912,-0.25257,0.0609,0.01655,0.00689,0.08853
2707,-0.75832,1.27762,-0.2809,-0.76789,1.89887,0.45332,3.26817,2.06811,0.26357,13.78506,14.58741,4.67489,0.5118,-0.23561,0.18423,0.58373,0.01903,0.12925,23.03521,24.4721,8.49637,23.30597,-12.20065,6.32522,0.96942,0.40467,0.59083,2.81462,-2.32655,1.32268,0.51641,-0.97167,0.32264,0.41168,-0.84313,0.70036,-0.27652,-0.24721,0.13421,-0.06284,-0.07856,0.04504
2708,-2.08105,2.60266,-0.66498,-0.39714,2.51474,0.35222,0.03634,3.60442,0.30776,11.97656,17.50417,5.58886,0.18364,-0.08518,0.14353,0.50323,-0.0661,0.03457,19.01818,28.26394,8.27328,24.07376,19.52727,-3.27143,4.82158,0.34723,-1.07108,1.5461,-2.01256,0.02233,-0.94647,0.10204,0.29757,0.80695,-0.16368,0.27246,-0.35543,-0.10792,0.1632,0.07691,-0.04245,0.00653
2709,-3.36644,1.95514,-0.57719,-0.03746,3.60663,0.16296,-5.59088,0.17537,0.24109,11.85407,17.62811,4.15451,0.134,-0.14997,0.02896,0.37772,-0.05384,-0.0112,12.47207,17.54632,4.23765,37.07065,43.14129,-10.85296,5.59349,0.81305,-1.2724,1.41315,-0.95871,-0.46306,-0.93132,0.43987,0.23829,1.56916,0.55715,0.18449,-0.1675,-0.06176,0.143,0.19914,-0.02146,0.03367
2710,-4.15592,0.42501,-0.31797,0.50353,3.49854,0.11175,-9.95869,-5.86941,-0.49718,13.39539,8.8977,1.54611,0.2698,-0.28498,-0.09097,0.32261,0.05227,-0.01105,8.31925,-8.73594,-1.67429,32.88449,39.80001,-8.03573,2.77454,1.31644,0.38216,4.24879,-0.91593,0.53033,-0.00095,-0.75941,0.41925,1.2958,0.54336,0.18184,0.01146,-0.20196,0.10616,0.08593,-0.10971,0.06706
2711,-4.42471,-0.97652,-0.01814,1.26714,2.81509,0.21864,-10.85918,-11.80884,-1.12681,12.28863,0.46227,0.73677,0.40495,-0.37661,-0.13371,0.4878,0.19289,0.02139,2.37584,-27.66995,-2.35709,19.644,13.18101,-0.04953,0.77494,1.42624,1.53224,7.2943,-1.62711,1.38943,0.08759,-1.80708,0.60732,0.759,0.48775,0.04659,-0.00525,-0.27322,0.05506,-0.0323,-0.13207,0.05098
2712,-3.99448,-1.73368,0.30151,0.28641,2.53891,0.39293,-7.2595,-14.00974,-0.59245,2.65081,3.35159,2.54251,0.51855,-0.46446,-0.05696,0.72858,0.24114,0.07665,-9.5468,-18.93674,4.95385,22.97668,-18.61572,4.234,1.08112,1.16813,0.63015,6.26113,-1.56624,0.87745,-0.63618,-0.83042,0.28032,1.43376,0.90881,0.19228,-0.13274,-0.00369,-0.04235,0.12905,0.0517,0.0444
2713,-3.30624,-1.26233,0.36331,-1.70003,2.63096,0.46665,-0.88541,-8.97357,0.75335,-6.93125,13.39226,4.39009,0.54413,-0.50063,0.06551,0.86513,0.16773,0.14969,-13.73297,10.30397,12.58873,42.2948,-31.21486,1.79609,1.50536,1.20191,-0.89179,1.79855,-0.92774,-0.65048,-0.96538,1.20367,-0.38867,3.17368,1.58865,0.72243,-0.23403,0.41235,-0.14078,0.47629,0.32565,0.08753
2714,-3.13094,0.01109,0.0912,-1.83985,2.40668,0.35212,3.37271,-0.90371,1.74012,-4.66251,16.09514,3.54179,0.41278,-0.38477,0.10201,0.88178,0.06288,0.19521,-1.11838,29.07449,12.40019,52.98221,-13.51484,-4.34116,1.09205,1.84591,-0.89134,-1.00775,-0.72336,-2.11624,-0.54952,1.71762,-0.58939,4.55324,2.4189,0.90781,-0.28567,0.5168,-0.14395,0.72821,0.52304,0.09287
2715,-3.0711,0.27043,-0.01266,-0.30647,1.3021,0.10846,4.35765,-0.68256,2.01535,6.21463,5.49548,-0.00078,0.26635,-0.24355,0.01315,0.76269,-0.01985,0.11808,17.55294,12.79774,5.12146,38.70663,15.45423,-9.33182,0.77924,2.2697,0.51729,0.83509,-0.98152,-2.66318,0.42786,0.23257,-0.14251,4.75053,3.35969,0.34091,-0.23925,0.20842,-0.04624,0.7754,0.61113,0.00819
2716,-2.59519,-0.88959,0.24557,1.04321,-0.3906,-0.19668,4.44187,-8.25907,1.47343,15.82636,-8.29975,-3.5629,0.28839,-0.26692,-0.09112,0.5433,-0.07281,-0.09604,29.23682,-22.35717,-3.21854,13.99017,30.10931,-11.6918,2.24857,1.83841,1.47847,4.89241,-1.47981,-2.16584,1.7472,-1.49128,0.36004,4.16162,3.83475,-0.29939,-0.00157,-0.19699,0.06433,0.68433,0.58619,-0.06096
2717,-2.39156,-1.53539,0.30996,1.82555,-1.69605,-0.46342,2.53187,-10.76579,-0.17174,18.95988,-12.41821,-4.38279,0.44074,-0.38188,-0.07925,0.40284,-0.09237,-0.30588,27.05647,-35.87543,-7.53463,8.30237,27.27625,-11.90516,6.04303,1.3658,0.97043,6.9703,-1.82737,-1.08084,2.66832,-2.00901,0.46318,3.39848,3.25848,-0.28167,0.34017,-0.37173,0.09624,0.5381,0.43,-0.01948
2718,-3.36643,-0.89012,-0.00322,2.37426,-2.20814,-0.56686,-3.43076,-6.07595,-2.01026,15.05997,-7.62347,-2.88863,0.52463,-0.42886,0.0183,0.53397,-0.12733,-0.36379,10.95634,-22.24059,-6.71345,28.33335,16.89644,-8.26942,8.92643,1.47544,-0.46449,5.99905,-1.4662,0.00627,2.43195,-1.05575,0.07482,2.87563,1.98071,0.30813,0.5134,-0.21679,0.01456,0.46366,0.21065,0.12045
2719,-5.22603,-0.67927,-0.05349,1.59147,-1.96611,-0.395,-10.1126,-5.95271,-2.4432,6.44827,-3.14319,-1.55527,0.42468,-0.43565,0.04899,0.78146,-0.1794,-0.22582,-8.76479,-12.55471,-3.69904,52.64415,3.33156,-0.18,6.99278,1.473,-1.45498,3.45353,-0.87839,0.34382,1.78593,0.48002,-0.57516,2.93371,1.01249,0.93499,0.46068,0.08181,-0.11603,0.54208,0.06096,0.27097
2720,-6.07983,-1.75215,0.47095,-1.10665,-1.30847,0.02499,-10.56321,-13.10595,-1.25599,-1.14904,-3.68935,-1.35335,0.24255,-0.42575,-0.00546,0.76234,-0.15341,0.02945,-15.56315,-21.2553,-2.03339,61.71293,-10.58292,7.31231,1.62697,1.04426,-0.77082,0.58146,-0.9057,-0.51137,2.5025,0.93875,-0.89288,3.34222,0.9148,1.13164,0.4745,0.19549,-0.16038,0.58059,0.04436,0.28449
2721,-4.71235,-2.75376,1.04476,-3.10306,-1.08666,0.38236,-3.64596,-18.15843,0.37607,-1.94054,-7.67584,-1.45729,0.16957,-0.34632,-0.0237,0.51551,-0.03278,0.20924,-4.54361,-34.33647,-1.93285,56.24241,-12.04874,7.57282,-1.83481,0.80624,1.1247,-1.36922,-1.42602,-1.65255,4.41871,-0.19166,-0.55483,3.19343,1.19312,0.81453,0.65243,0.02946,-0.07707,0.32395,0.08513,0.11031
2722,-2.74604,-2.07507,0.87831,-1.48802,-1.41621,0.34467,2.22933,-14.2583,0.87721,4.76499,-10.24863,-1.18092,0.24898,-0.25029,0.02747,0.4173,0.07835,0.16594,10.11233,-34.85716,-2.1115,45.16681,10.50686,0.40416,-0.54097,0.81639,1.94247,-0.48903,-2.20556,-1.72803,5.08029,-1.29843,-0.07475,2.09608,1.23418,0.25641,0.65911,-0.15423,0.01542,-0.08612,0.10332,-0.10135
2723,-2.36792,0.17423,-0.15246,2.71547,-1.08362,-0.01329,0.46105,-3.30768,-0.12953,15.03827,-6.39039,-0.55489,0.34632,-0.23856,0.05747,0.6002,0.10005,-0.01392,16.64897,-16.37459,-2.50014,30.86588,39.9943,-6.74604,3.88869,0.6115,0.51729,3.59427,-3.36884,-0.79936,3.30015,-1.01786,0.02535,0.64108,1.27444,-0.37794,0.34001,-0.14404,0.03645,-0.29401,0.12343,-0.18983
2724,-3.48108,1.86302,-1.03635,5.89506,0.89572,-0.25774,-5.02799,5.65846,-0.82277,23.10005,4.60326,0.4628,0.34093,-0.32245,0.00965,0.89661,0.06726,-0.08949,18.28638,12.42153,-1.94932,14.01084,45.85985,-7.95264,8.19857,0.25493,-1.66655,8.03202,-4.34758,0.14882,0.83904,0.04232,-0.11314,-0.34339,1.50966,-0.91035,0.03307,-0.02042,0.02234,-0.20388,0.14087,-0.13544
2725,-4.54151,1.32977,-0.78507,5.70799,3.21464,-0.15474,-8.13167,4.18522,0.12524,22.87185,14.5493,1.44002,0.27745,-0.41698,-0.04621,1.04538,0.0457,0.01003,15.86486,27.6707,0.60068,4.32085,31.91116,-5.92714,9.9438,0.09947,-2.79365,9.26175,-4.07035,0.60269,-0.09203,0.73673,-0.3028,-0.37876,1.48903,-0.95399,0.02201,0.07437,-0.01452,0.04284,0.1132,-0.01388
2726,-4.78863,-0.30742,0.15791,3.02041,3.49977,0.04325,-9.25668,-5.72819,1.10715,15.39469,13.27951,1.02542,0.24813,-0.37946,-0.01015,0.95022,0.02931,0.10697,6.25607,14.0737,1.43882,14.99629,25.28061,-5.06498,9.07233,0.4793,-2.28256,6.80822,-2.40161,0.50069,0.79399,0.41993,-0.41546,0.35736,1.14702,-0.55988,0.17277,0.05326,-0.06644,0.26829,0.09573,0.05518
2727,-4.90432,-0.94097,0.60501,1.08985,1.66308,-0.00615,-10.44949,-13.81844,0.24835,11.78392,2.97908,-1.02374,0.20777,-0.17774,0.08863,0.77862,-0.01979,0.05584,-0.00135,-12.19108,-2.91154,44.50959,27.35705,-3.95234,7.49713,1.44245,-0.84682,3.15607,-0.61644,-0.1253,2.29189,-0.5548,-0.34704,1.20281,0.96777,-0.24149,0.2423,-0.04704,-0.08758,0.30777,0.12962,-0.00704
2728,-5.04067,-0.42127,0.28254,1.99556,-0.05418,-0.25312,-8.77401,-13.73847,-1.44225,18.26578,-4.22633,-2.84709,0.14431,-0.0175,0.13556,0.73753,-0.06841,-0.06485,10.75993,-22.69481,-8.23305,69.33601,20.84007,0.12863,5.77539,2.3551,0.35032,1.15586,-0.30118,-0.80382,3.12963,-1.08019,-0.222,1.57018,1.01777,-0.19274,0.18507,-0.07698,-0.06476,0.12703,0.13068,-0.12876
2729,-4.48452,-0.0739,-0.138,3.55466,-0.39712,-0.33743,-1.99188,-8.76773,-1.84611,24.05095,-4.26351,-2.85172,0.20612,-0.13552,0.08923,0.78847,-0.032,-0.09027,27.47583,-15.33852,-8.21778,65.78905,8.50205,4.45796,3.17951,2.21276,0.68525,2.52191,-1.57251,-0.79359,2.80761,-0.68366,-0.20364,1.16874,1.11294,-0.39091,0.10544,-0.00747,-0.02749,-0.09061,0.08827,-0.19645
2730,-4.28651,-0.19512,-0.326,1.97084,-0.30062,-0.09007,3.87817,-4.71801,-0.87187,15.53886,-3.84893,-1.44626,0.39498,-0.47462,-0.00519,0.6583,0.08401,-0.00741,24.1418,-10.2286,-3.08281,39.42813,7.88328,3.38076,1.42319,0.66823,0.12297,6.22925,-2.9451,-0.07802,1.83201,-0.07491,-0.218,0.20313,1.31734,-0.84047,0.10319,0.01586,0.00324,-0.13606,0.11007,-0.19001
2731,-6.03303,0.1576,-0.54381,-1.8755,-0.49422,0.20287,0.79502,-2.44047,0.16907,-1.04691,-5.34644,-0.22966,0.4888,-0.70345,-0.07825,0.37456,0.15845,0.05656,-0.50722,-13.03905,1.49451,19.52718,20.53291,-2.97875,2.50673,-1.29402,-1.09495,8.45246,-3.09262,0.55061,1.17736,0.33206,-0.28417,-0.31105,1.55348,-1.0728,0.18089,0.00068,0.00399,0.00742,0.19202,-0.11532
2732,-8.34859,0.78621,-0.63248,-3.194,-0.40859,0.1772,-10.52743,-1.85483,0.45337,-6.49316,-3.87178,-0.27758,0.38783,-0.62007,-0.08415,0.32255,0.10136,0.03304,-20.64708,-13.45332,0.66834,24.79165,31.08654,-6.97178,4.28455,-2.08363,-2.04181,6.70364,-1.99261,0.55083,1.37718,0.73166,-0.48153,0.484,1.5288,-0.52942,0.24284,0.06132,-0.01868,0.20717,0.22546,0.01713
2733,-8.65599,0.21536,-0.05836,-0.52003,0.44313,-0.0627,-20.84938,-4.58911,-0.28662,4.14121,2.67199,-0.5322,0.21392,-0.37637,-0.03151,0.52157,-0.0318,-0.02992,-19.85782,-6.31374,-3.95968,48.81059,31.07617,-4.17646,3.89867,-1.03027,-1.55785,2.99435,-0.76899,0.07314,1.96051,0.7138,-0.52282,1.88312,1.27613,0.34817,0.19117,0.09828,-0.00685,0.31865,0.18292,0.1166
2734,-6.61883,-1.30967,0.80707,2.64506,1.55808,-0.11917,-21.7717,-7.93744,-1.66454,15.91899,9.82092,0.6993,0.13216,-0.21298,0.05053,0.65631,-0.11604,-0.06317,-7.34772,4.76272,-6.06858,71.66638,25.5806,0.16488,2.17833,0.97022,0.16304,0.62471,-0.75922,-0.51246,1.9708,-0.21728,-0.14818,2.49218,1.02029,0.72243,0.03236,-0.03446,0.04603,0.26247,0.09655,0.11232
2735,-4.58344,-1.95179,1.03463,3.52902,1.85479,0.04807,-16.14052,-7.6828,-2.63104,16.65308,11.15029,2.33051,0.17392,-0.20685,0.11854,0.76469,-0.09229,-0.04275,-0.77552,9.913,-4.43428,76.83041,21.10652,0.12681,1.29585,2.31625,1.53158,-0.11915,-2.01567,-0.90877,1.37983,-1.30664,0.27496,2.15435,0.66669,0.6899,-0.09386,-0.19675,0.06277,0.10336,-0.01964,0.07283
2736,-5.28863,-1.24691,0.55607,2.6636,0.99379,0.15952,-13.62187,-5.20801,-2.59191,11.16431,5.49273,1.92798,0.18148,-0.28861,0.11585,0.95573,0.01063,0.02633,-3.90783,2.84916,-3.76956,63.64739,20.40526,-2.32389,1.79094,2.05646,1.44203,-0.1688,-3.034,-0.92584,1.03789,-1.48448,0.28559,1.78289,0.31734,0.6981,-0.05079,-0.18429,0.00865,0.03758,-0.07924,0.06843
2737,-7.78856,-0.12681,-0.05775,0.83389,-0.16139,0.12431,-14.23466,-2.80395,-1.87602,8.56438,-2.38186,-0.3597,0.0901,-0.3174,0.08224,0.88146,0.09867,0.10168,-4.82316,-8.11895,-5.38245,45.06076,22.41387,-2.51336,3.66636,0.63681,0.26304,1.3378,-2.59653,-0.55601,1.14143,-0.97646,0.05379,1.89289,0.65485,0.54681,0.12662,-0.07633,-0.0521,0.16568,0.04997,0.05438
2738,-9.35016,0.98617,-0.63217,-1.41947,-0.59263,0.08514,-14.50059,0.35817,-1.80598,10.03712,-8.15677,-2.35171,-0.04622,-0.16282,0.08601,0.3435,0.09471,0.12914,-0.03957,-12.07874,-7.94256,35.27896,23.72318,-1.95098,6.66233,-0.60598,-1.23971,4.30955,-1.26683,-0.30063,1.06352,-0.31862,-0.15623,2.30957,1.94075,-0.01039,0.24808,0.00607,-0.07657,0.36099,0.33941,-0.01919
2739,-9.77994,2.00633,-1.20269,-2.46191,-0.13472,0.15001,-18.44857,3.47535,-3.29058,11.29502,-10.22834,-2.55583,-0.23259,0.12093,0.06795,-0.13888,0.02695,0.11751,-2.94439,-9.23248,-11.15345,42.39176,23.65932,-3.92847,7.88139,-0.75131,-2.25796,5.82364,-0.53104,-0.65886,0.83092,0.45315,-0.44889,2.71722,3.15717,-0.47525,0.18268,0.09195,-0.09146,0.44591,0.53934,-0.07755
2740,-10.34007,2.18808,-1.4156,-1.06169,0.73754,0.24993,-27.45383,3.0358,-5.07207,9.3306,-6.52201,-0.8341,-0.43208,0.2489,-0.05469,0.05198,-0.03029,0.08756,-19.98775,-3.08789,-12.55567,63.04072,23.86803,-4.93343,4.2579,0.08115,-1.75884,4.44115,-0.95619,-1.12537,1.18809,0.92382,-0.76202,2.81464,3.06391,-0.25571,0.01882,0.16152,-0.10041,0.3799,0.44021,-0.01737
2741,-10.2557,0.69346,-0.74649,1.57747,1.63765,0.26134,-31.56181,-3.05541,-4.94594,5.62391,2.67579,1.4915,-0.42773,0.00581,-0.19214,0.72144,-0.02134,0.05881,-34.76997,2.25989,-9.03736,76.62521,23.26111,-1.52468,-0.89323,0.98981,0.09746,2.41989,-1.9348,-0.87421,2.17067,0.3772,-0.65397,2.47963,1.7776,0.42828,-0.01024,0.08493,-0.05311,0.25155,0.13349,0.12497
2742,-7.97775,-1.51736,0.42078,3.52895,1.5224,0.06503,-22.92737,-10.51035,-2.67053,5.34885,8.81332,1.8569,-0.12872,-0.4219,-0.20074,1.20787,0.02661,0.01303,-27.01215,0.09085,-3.7237,61.2456,22.03174,0.47255,-0.79256,0.82075,1.29348,1.99674,-2.71214,-0.12813,3.07337,-0.82237,-0.08743,1.85741,0.57171,0.81287,0.24972,-0.14296,0.05319,0.16039,-0.07609,0.19711
2743,-4.94976,-1.97867,0.74331,4.09368,-0.86019,-0.38718,-9.8536,-11.30214,-0.56151,10.61677,3.79211,-0.68439,0.15136,-0.58169,-0.10942,1.27497,-0.01708,-0.14407,-2.38652,-8.00075,-3.49405,24.50182,23.97717,-4.33274,4.29377,-0.45734,0.30041,3.06433,-2.74579,0.36077,3.22672,-1.07523,0.23501,1.20805,0.37567,0.49061,0.61005,-0.24756,0.10892,0.13378,0.00511,0.10027
2744,-4.08822,-0.12178,-0.19634,3.14501,-3.55757,-0.76078,-5.66989,-5.29083,-0.73527,16.20057,-5.72053,-3.31319,0.15569,-0.29862,-0.02771,1.05286,-0.1453,-0.34283,13.50538,-11.39107,-8.6206,1.1675,27.75308,-9.82589,7.62617,-1.06477,-1.51058,4.34142,-2.01014,0.27359,2.26935,0.09418,-0.02204,0.90649,1.04895,-0.2051,0.61058,-0.03503,0.0509,0.13606,0.24765,-0.09149
2745,-5.46547,1.78548,-1.20748,1.41984,-2.9446,-0.60004,-10.18544,-0.56948,-2.43318,16.82456,-7.02258,-2.99326,0.09072,0.0811,0.02893,0.73645,-0.16735,-0.32736,10.4886,-6.25004,-11.72666,12.78037,28.22292,-8.24591,6.30538,0.07933,-1.76515,4.53815,-1.42824,-0.57355,0.53869,1.03974,-0.23433,1.28714,2.04182,-0.70146,0.10665,0.22159,-0.00176,0.15367,0.38754,-0.20504
2746,-6.7147,1.75074,-1.19652,0.57159,0.34003,-0.03965,-12.88012,-1.56595,-3.20135,14.03192,-0.6651,-0.75134,0.17261,0.1434,0.07606,0.55583,-0.04649,-0.04893,3.47431,-0.6427,-8.24782,45.50105,27.38998,-1.57235,3.08292,1.41589,-0.56984,3.47244,-1.55847,-1.77516,-0.55047,0.67789,-0.10031,2.05186,2.78313,-0.76026,-0.38014,0.18459,0.02376,0.20855,0.35153,-0.1691
2747,-6.45468,0.49167,-0.53787,0.79992,2.95612,0.44572,-8.70357,-4.77531,-2.17845,11.39609,4.91672,0.779,0.25144,-0.05424,0.07703,0.53563,0.10317,0.29093,5.85437,0.42043,-1.46645,68.88702,29.28153,4.5063,0.5159,1.10411,0.37766,2.73654,-1.51448,-1.80659,0.36046,-0.29849,-0.10168,2.31071,2.59403,-0.45256,-0.2704,-0.07191,0.02186,0.26482,0.24556,-0.0628
2748,-5.16235,-0.18984,-0.16822,0.70489,3.76207,0.65049,-2.46808,-5.76042,-0.76028,8.84226,7.35429,1.22197,0.18646,-0.1848,0.03437,0.50805,0.22133,0.48908,11.3088,0.63227,3.1427,65.91597,29.82998,7.31547,-0.25075,-0.22827,0.47075,3.84604,-0.93025,-0.16112,2.54242,-0.99108,-0.37964,1.66842,1.58273,-0.06024,0.27412,-0.24458,-0.05724,0.25223,0.16365,0.02639
2749,-4.00954,-0.2283,-0.13535,-0.14024,2.40564,0.47853,-1.18295,-4.72607,-0.58327,5.37057,5.57366,0.95131,0.11935,-0.20265,0.01729,0.42285,0.21197,0.37064,7.01718,-1.06455,2.34949,47.6175,23.9494,5.67631,1.30168,-0.585,0.30724,5.32327,-1.0067,1.07381,3.68747,-1.12652,-0.46722,0.9928,0.95671,0.1238,0.60275,-0.19122,-0.10552,0.20502,0.13717,0.0781
2750,-3.55042,-0.47831,-0.03331,-0.46974,-1.15258,-0.05523,-5.66033,-3.02277,-1.55349,3.08763,-2.00312,-0.28418,0.21096,-0.26453,0.04556,0.40761,-0.00062,-0.04292,-5.2949,-7.43383,-3.18252,36.66706,16.02122,0.84815,3.57654,0.58879,0.35489,4.30446,-2.22242,-0.0542,2.92678,-0.81298,-0.22907,1.36464,1.51095,0.08649,0.45951,-0.02302,-0.07069,0.21042,0.18381,0.07825
2751,-3.53187,-0.62183,0.0182,0.59898,-4.11714,-0.52318,-11.31391,-0.7192,-2.19416,4.05994,-9.15611,-1.54529,0.39433,-0.33118,0.06606,0.60255,-0.26062,-0.39469,-13.60613,-11.29282,-8.02486,38.38955,14.23983,-2.22857,4.12303,1.85449,0.37829,1.6669,-3.16407,-2.1069,1.38078,-0.3174,-0.06894,2.37359,2.4598,0.00893,0.10783,0.09517,-0.03406,0.2607,0.27787,0.0211
2752,-4.14067,0.11854,-0.34894,2.16278,-3.40619,-0.48811,-16.59834,0.68208,-2.2694,7.13167,-8.22263,-1.43916,0.45623,-0.24441,0.041,0.90106,-0.30549,-0.37025,-15.53335,-7.31105,-9.02978,40.93159,19.19286,-1.75771,3.36082,1.60378,-0.21928,1.32629,-2.53707,-2.23169,0.09701,0.14345,-0.19587,2.61937,2.54008,-0.08019,-0.1531,0.1089,-0.05265,0.29296,0.33035,-0.05133
2753,-5.30329,1.31007,-0.96027,2.80122,-0.08112,-0.10214,-20.85506,-0.41243,-2.68053,10.27648,-1.64723,-0.66809,0.32784,-0.01744,-0.00242,1.00959,-0.08541,-0.06543,-15.55887,-1.17883,-9.37696,37.63231,24.53513,-2.74471,3.59362,-0.02115,-1.51004,3.78021,-1.17005,-0.53593,-0.77954,0.58041,-0.37627,1.59669,1.78213,-0.35416,-0.22416,0.06214,-0.07446,0.24389,0.28724,-0.10484
2754,-5.32429,1.55296,-1.10141,2.05662,2.32552,0.15704,-15.88227,-2.85522,-2.62078,11.64059,3.58321,-0.62252,0.1905,0.13031,-0.02437,0.85174,0.17187,0.18865,-8.09068,2.10579,-8.82231,34.91351,26.03921,-7.36618,4.89737,-1.36951,-2.38554,5.52565,-0.84222,0.6772,-1.0281,0.77099,-0.29629,0.12327,1.0138,-0.66125,-0.13311,-0.02775,-0.01915,0.06493,0.14829,-0.10822
2755,-3.57153,0.00293,-0.36239,0.67427,2.07773,0.0931,1.44267,-6.25775,-0.945,11.05787,4.23298,-1.10452,0.19554,-0.01577,-0.04819,0.59338,0.21726,0.18254,12.93522,-0.21456,-3.58704,37.87627,25.84956,-9.65742,5.27409,-1.16458,-1.58866,5.06293,-1.72646,0.67067,0.12736,0.23357,0.00662,-0.87328,0.58046,-0.67964,0.05972,-0.12372,0.07922,-0.18381,-0.03508,-0.04961
2756,-2.73288,-2.38663,0.66972,0.06358,0.18823,-0.12206,14.58819,-11.461,0.85645,10.83279,0.81162,-1.29192,0.27099,-0.38321,-0.12255,0.42782,0.05585,-0.02122,31.82871,-10.69886,2.43574,45.41084,26.25765,-5.55435,3.94916,0.36576,0.55809,3.87302,-2.69278,0.13957,2.95449,-0.88931,0.10524,-0.78215,0.51789,-0.40462,0.32805,-0.08416,0.07487,-0.27888,-0.15057,0.02772
2757,-5.05327,-3.25088,0.83948,0.74094,-1.09316,-0.23267,7.15741,-14.97814,0.73412,10.9731,-2.74416,-1.0436,0.29412,-0.62965,-0.21951,0.49325,-0.0954,-0.17798,25.60035,-21.46959,2.40186,56.92339,27.92557,0.12323,1.89978,1.80122,2.0574,2.78227,-3.19346,-0.87424,5.54411,-1.4503,-0.28272,0.58548,1.12345,-0.13593,0.5349,0.14643,-0.0748,-0.07722,-0.07207,0.05064
2758,-8.65851,-1.81075,-0.04092,1.37284,-0.53028,-0.14171,-12.35698,-13.22071,-0.75579,8.6433,-2.31605,-0.70267,0.24738,-0.57584,-0.26274,0.69364,-0.10169,-0.12171,-1.40352,-21.29286,-1.82335,67.43498,31.76283,1.75701,0.61272,1.88017,1.65095,1.80305,-3.11757,-2.228,5.10667,-0.97551,-0.66963,2.38024,2.33685,-0.12521,0.48159,0.26909,-0.19545,0.25455,0.22217,-0.02134
2759,-10.0745,-0.04233,-0.88182,0.90381,1.0488,0.04851,-23.79164,-8.65243,-1.86893,5.15721,1.90633,-0.31405,0.18248,-0.39217,-0.2277,0.73392,-0.01905,0.05901,-21.82216,-10.80111,-4.20887,65.7486,33.3737,-0.54413,1.95162,0.71158,0.0637,1.40012,-2.31688,-2.61256,1.37582,-0.36907,-0.33849,3.35453,3.01247,-0.11406,0.17743,-0.01293,-0.09551,0.45387,0.48977,-0.09715
2760,-8.18794,0.43818,-0.90576,0.88596,1.86712,0.15103,-20.80525,-4.87469,-1.96568,7.49717,5.36424,0.18788,0.18604,-0.24718,-0.13568,0.64335,0.03848,0.14178,-17.25839,-0.19005,-4.15436,45.58974,25.83053,-2.94534,5.42096,-0.29764,-1.38892,2.15751,-1.27885,-1.20365,-2.65553,-0.00585,0.38976,2.79862,2.17393,0.12358,-0.23266,-0.35689,0.13485,0.37695,0.41904,-0.07039
2761,-4.69979,0.06961,-0.38494,2.65019,0.94715,0.08891,-10.96255,-2.8636,-1.11425,17.14938,3.20989,0.31326,0.30706,-0.13147,-0.01953,0.72249,0.02764,0.06006,6.29933,0.89629,-3.92772,14.20292,13.38516,0.47128,6.83047,0.30774,-1.1054,4.45803,-0.83325,1.12495,-2.42781,-0.06418,0.58286,0.83084,0.45859,0.16813,-0.35147,-0.2763,0.19018,0.05663,0.06599,-0.0082
2762,-2.3126,-0.41611,0.10441,4.15646,-1.1083,-0.03767,-2.49012,-2.51043,0.1918,24.05808,-4.28428,-0.39288,0.43311,-0.09126,0.04518,0.85926,-0.01717,-0.05179,26.71647,-7.98143,-3.25649,-10.0595,9.68503,8.52157,4.52266,1.935,1.44814,7.15349,-1.25227,2.5962,2.338,-1.32685,0.33686,-1.048,-0.59702,-0.18236,0.03814,-0.05638,0.07435,-0.19249,-0.18128,0.00244
2763,-2.63331,-0.74726,0.16371,3.13367,-2.81582,-0.15325,0.82608,-2.50685,0.69749,20.03205,-11.19841,-1.59986,0.38732,-0.18326,-0.0012,0.71715,-0.06475,-0.11462,27.7013,-16.43604,-2.18298,-5.87867,17.81872,8.41923,1.62763,2.12245,3.14579,7.14799,-2.29728,1.76803,5.85424,-2.4429,0.12239,-0.89842,-0.14575,-0.39072,0.44953,-0.08036,0.00728,-0.06778,-0.10865,0.01617
2764,-4.97589,-0.70141,-0.2283,1.13705,-2.74879,-0.26722,-0.69674,-2.66824,-0.29161,11.40387,-10.77028,-2.40456,0.20187,-0.27286,-0.08905,0.47004,-0.09949,-0.1509,15.41657,-15.34226,-2.92321,32.85645,26.28915,-5.93302,1.2231,0.19413,0.72396,3.73995,-3.36574,-1.02672,4.17305,-0.8361,-0.38408,1.16323,1.50742,-0.20296,0.33243,-0.00866,-0.0337,0.26173,0.14337,0.06254
2765,-6.65903,-0.44644,-0.58123,1.00473,-0.37322,-0.29516,-3.52706,-6.0615,-1.73847,9.6037,-1.58599,-2.04831,0.16229,-0.21341,-0.08145,0.50207,-0.08149,-0.12166,7.75179,-8.49894,-5.68979,77.6536,26.62952,-21.30694,3.23518,-1.50186,-3.62571,0.79254,-3.33658,-3.19172,-0.30507,2.53268,-1.13234,2.9932,3.08219,0.02072,-0.21135,0.4329,-0.13954,0.41461,0.33915,0.07456
2766,-5.97447,-0.85941,-0.26019,2.41957,2.64527,-0.14443,-6.09533,-14.60682,-2.06262,14.83486,9.03199,-0.75712,0.37889,-0.07993,0.02876,0.73354,0.00122,0.00794,8.37072,-7.54222,-7.54455,85.50368,23.99827,-21.89447,5.85125,-1.39102,-5.3336,1.55295,-1.58094,-2.42008,-2.68095,3.98832,-1.34457,3.20992,3.24686,0.13277,-0.50001,0.76589,-0.22506,0.32625,0.3832,0.03343
2767,-4.17415,-2.08013,0.60173,2.61158,3.07796,0.03915,-8.83685,-21.95456,-0.89055,16.03685,10.32031,0.15966,0.55273,-0.04698,0.10382,0.80128,0.07225,0.11132,5.78273,-15.87015,-5.68576,50.58719,25.20535,-7.46054,7.41269,-0.45705,-3.046,4.41079,0.41482,0.27918,-0.72021,1.66929,-0.64869,2.36464,2.08072,0.30346,-0.02943,0.36723,-0.14859,0.16806,0.30972,-0.01021
2768,-2.84222,-2.50215,1.01559,0.37792,0.11605,0.03614,-8.39086,-17.16417,0.92947,6.38595,1.01256,-0.26957,0.44564,-0.16845,0.0641,0.62623,0.04677,0.04991,-3.49117,-20.96852,0.04742,13.98224,25.63489,9.77792,6.61682,0.16041,1.11858,5.38814,0.52089,1.77899,3.35521,-2.57307,0.50975,1.71704,0.84929,0.53567,0.79686,-0.60876,0.08134,0.0716,0.18733,-0.02565
2769,-1.72406,-1.22899,0.59237,-2.08097,-2.93053,-0.11707,-1.69767,-1.20379,2.50611,-5.71245,-7.29316,-1.35719,0.28066,-0.3291,-0.00682,0.52855,-0.06005,-0.08428,-7.88374,-9.7742,6.74496,7.06701,21.25255,15.85663,4.43838,0.51158,3.5516,3.42686,-1.15943,0.83995,4.90586,-4.67599,1.31096,1.74579,0.38027,0.62415,1.02752,-1.20754,0.31074,0.09999,0.07221,-0.01009
2770,-0.93597,0.26903,0.00919,-2.04091,-2.64392,-0.18422,5.69589,9.87936,2.9469,-6.97487,-5.23038,-1.58421,0.35903,-0.37034,-0.00883,0.6793,-0.13349,-0.09312,0.24402,8.40452,9.9857,18.61772,21.73548,5.07048,4.40355,0.59818,1.82243,1.5514,-2.75947,-0.90984,2.25873,-2.54908,1.07105,1.75805,0.70014,0.32822,0.43921,-0.80494,0.34045,0.20272,0.03996,0.01484
2771,-1.94631,0.48062,-0.26297,0.09132,0.18015,-0.04356,5.24512,5.84224,1.55462,2.51614,1.77569,-0.65748,0.56606,-0.29571,0.02415,0.78128,-0.08031,0.03119,11.28532,11.57853,7.41651,31.87384,31.6272,-12.21383,7.19171,0.16743,-2.21709,2.20578,-2.92265,-1.52744,-0.95136,1.13621,-0.09005,1.29125,1.42994,-0.16339,-0.20331,0.06977,0.09241,0.24107,0.11692,0.03195
2772,-4.72393,-0.21648,-0.41592,1.77293,1.93709,0.13538,-3.78688,-5.64963,-0.92338,11.02247,3.38415,0.20524,0.5696,-0.24277,0.00169,0.66874,0.03895,0.11038,10.53783,-2.50528,0.79777,43.29915,37.18904,-19.24615,8.42195,-0.11611,-4.38713,4.12251,-1.73427,-0.79855,-1.40175,2.80731,-1.21976,0.97782,2.02301,-0.30912,-0.37329,0.61666,-0.23398,0.17184,0.22794,0.03814
2773,-6.49647,-0.8806,-0.47477,1.75594,1.59062,0.1583,-12.93231,-13.63157,-2.49132,12.74763,0.68211,0.3143,0.35343,-0.25638,-0.06233,0.58351,0.11515,0.05935,0.42945,-16.12283,-5.33108,47.4213,31.63499,-14.54706,5.96099,0.54175,-3.70124,4.72057,-0.45849,0.02364,-0.39384,2.60854,-1.63563,1.41278,2.11632,0.00523,-0.30999,0.76095,-0.395,0.10246,0.28561,0.01438
2774,-5.21087,-1.37449,-0.19707,1.00549,1.1668,0.08247,-13.67407,-15.13986,-2.09384,12.5199,0.72764,0.10114,0.237,-0.28575,-0.0816,0.66992,0.12575,-0.01448,-2.60128,-18.27987,-7.52725,43.76112,25.20372,-9.90836,2.8938,1.47467,-1.99941,3.41371,-0.38919,-0.35547,-0.19982,1.90303,-1.25894,2.09642,1.99876,0.18543,-0.29712,0.6538,-0.32568,0.1146,0.29443,-0.06327
2775,-2.61053,-1.76221,0.26723,0.51189,1.41734,0.04231,-7.63569,-11.88477,-0.67586,12.77041,3.09313,-0.02911,0.371,-0.30073,-0.03862,0.72082,0.07511,-0.02198,4.07939,-13.27196,-5.41763,39.65904,20.79586,-8.39637,1.4258,1.35189,-0.3898,2.18071,-1.26047,-1.58116,-0.10073,0.59634,-0.41812,2.21228,2.19741,-0.16582,-0.23843,0.23011,-0.09576,0.19011,0.33439,-0.1497
2776,-1.77343,-2.11985,0.58886,0.14984,1.34292,0.06673,-3.06428,-9.57865,0.44961,10.38116,3.42724,0.06681,0.50431,-0.29053,-0.00451,0.51134,-0.00769,0.00973,7.92549,-11.66941,-0.64992,35.40932,13.76618,-3.67901,1.26564,0.21386,1.0632,2.99334,-2.02403,-2.00452,1.2421,-1.2987,0.41529,1.71278,2.45703,-0.56044,-0.0099,-0.34194,0.15189,0.27596,0.35534,-0.12185
2777,-3.27203,-2.50608,0.66871,0.38459,0.51309,0.05038,-4.24107,-12.30654,0.88457,7.81091,0.84207,0.00801,0.41835,-0.26574,-0.03322,0.30754,-0.06369,0.00664,6.05585,-17.49141,2.67804,27.91771,10.68078,2.39415,2.6893,-0.70175,1.50378,4.97114,-2.56373,-1.15228,2.64171,-2.24409,0.75841,1.16301,2.15498,-0.40057,0.24837,-0.53589,0.24442,0.2787,0.22101,0.04052
2778,-4.96413,-2.12408,0.42729,2.16133,-0.90476,-0.14885,-8.56608,-13.31873,0.69388,10.88541,-3.74837,-1.04292,0.29647,-0.23868,-0.05441,0.60885,-0.09835,-0.07829,6.45196,-21.35189,0.63361,20.28718,16.47086,3.5115,5.01469,-0.68235,0.4274,5.68926,-2.84853,-0.09074,2.69864,-1.38983,0.37696,1.06789,1.47041,0.2048,0.35804,-0.20581,0.1178,0.17653,0.02751,0.18819
2779,-4.85058,-0.57913,-0.01503,3.87918,-2.64345,-0.40478,-11.12686,-6.19165,0.14341,14.80649,-9.07139,-2.63007,0.36027,-0.19772,0.03402,1.19415,-0.14418,-0.18516,7.19882,-15.44449,-3.98441,17.64609,21.73094,3.29184,5.25911,0.10241,-0.18208,4.42235,-2.17832,0.21081,2.81535,-0.58781,-0.27595,1.30763,1.19348,0.56165,0.37077,0.13014,-0.08394,0.09707,0.02693,0.17896
2780,-2.986,0.58762,-0.19433,2.33474,-3.28594,-0.30209,-7.82088,0.92983,-0.20226,9.70299,-10.89619,-2.50011,0.48785,-0.16009,0.18163,1.21069,-0.13098,-0.16548,1.95004,-7.16241,-3.14373,26.01834,19.80428,7.06548,2.94449,1.13648,1.3744,2.30107,-0.48809,-0.30806,5.12832,-1.67892,-0.60414,1.25979,1.51374,0.17024,0.52822,0.07263,-0.1851,0.09137,0.2279,0.00556
2781,-0.68487,0.13171,0.01267,-1.60366,-1.11811,0.2759,2.39212,-1.07578,0.01438,0.2135,-4.89868,0.24323,0.50859,-0.18841,0.2252,0.4712,0.02791,0.0611,1.35661,-4.31983,4.81815,43.91307,15.20728,7.99978,1.79019,1.73363,2.64477,0.98278,0.76838,-1.02112,7.33106,-2.7699,-0.68447,0.9986,1.87019,-0.48768,0.72768,-0.0793,-0.19801,0.10018,0.36686,-0.17725
2782,0.56916,-1.29631,0.33549,-3.39069,2.54624,0.75209,12.90538,-7.78543,1.07186,-0.74676,5.92614,2.90402,0.51933,-0.34877,0.08594,-0.14559,0.19673,0.31836,15.07089,-3.73121,11.95125,52.50524,12.67982,-2.4877,4.08705,1.39263,0.3144,1.80581,0.05333,-1.46488,4.22779,-0.80857,-0.70853,1.20999,2.09215,-0.66768,0.44172,0.06244,-0.15665,0.13261,0.33714,-0.21037
2783,-0.23708,-2.35596,0.62813,-1.80609,3.78867,0.50321,12.57298,-11.00577,2.88627,5.16025,11.72376,2.37806,0.61931,-0.53603,-0.08749,0.07385,0.12901,0.26383,24.12906,-4.20847,11.49976,37.89056,11.33689,-18.29548,7.41639,0.36844,-3.82897,3.96615,-2.01554,-1.61056,-3.86121,2.81064,-0.30935,1.69495,2.26923,-0.41555,-0.46737,0.25339,0.05349,0.19138,0.28023,-0.12381
2784,-3.07495,-3.04929,1.00038,0.8641,1.86072,-0.20409,-1.89936,-11.76793,4.26281,9.51075,8.31224,-0.38343,0.60674,-0.5542,-0.1273,0.79773,-0.07665,-0.08314,10.91024,-9.71539,5.10902,14.78163,7.81209,-24.17553,8.24464,-0.39752,-4.56356,4.70785,-3.27935,-1.31859,-8.74466,3.21303,0.68829,1.74652,1.9479,0.001,-1.14803,-0.01457,0.38542,0.20641,0.21366,0.00054
2785,-6.02289,-3.90299,1.3784,3.22702,0.10558,-0.59032,-18.66255,-13.50685,4.2149,12.97428,2.46534,-1.83971,0.36671,-0.42495,-0.08636,1.3023,-0.11988,-0.30647,-7.38349,-15.55467,-0.61373,4.5908,3.29005,-13.62092,6.4819,-0.03663,-0.46614,3.4142,-2.6784,-0.54832,-4.20215,-0.90755,1.4653,1.19793,1.03674,0.3375,-0.65784,-0.63762,0.4705,0.12898,0.06825,0.09896
2786,-6.40245,-3.81558,1.3246,4.36593,0.05527,-0.44168,-21.98034,-13.38134,3.50664,15.83552,-0.10208,-1.10778,0.21005,-0.31779,-0.05962,1.31759,-0.04779,-0.22944,-7.93402,-14.21346,-0.73841,8.61342,4.52969,4.16558,4.73258,1.26731,3.78283,2.58722,-1.00923,0.32204,5.06963,-4.6714,1.0355,0.51391,0.35488,0.2552,0.63791,-0.82769,0.20216,0.04119,-0.03319,0.08698
2787,-4.48949,-2.09161,0.74206,3.31652,0.40823,-0.10611,-12.47991,-9.82356,3.12429,14.21906,0.16789,-0.01509,0.31837,-0.28824,-0.05199,1.01091,-0.06473,-0.03672,3.24747,-7.98075,3.42512,18.78617,12.51918,14.36727,4.80248,2.03792,3.5182,3.36887,0.03291,0.77777,9.5273,-3.80044,-0.22767,0.4104,0.4065,-0.01489,1.47929,-0.27737,-0.12502,0.05182,0.00756,0.00782
2788,-2.81365,0.11621,0.0095,0.92462,0.51886,0.11716,-4.19098,-5.17051,2.2588,9.24684,2.24389,0.48616,0.44728,-0.24382,-0.02526,0.60294,-0.11392,0.08474,7.42176,-1.52284,6.03386,31.04948,18.35933,10.90334,6.19895,1.27949,-0.14023,4.23863,-0.55274,0.63308,5.71106,-0.1346,-0.85142,0.92087,0.75615,0.08767,1.13267,0.30989,-0.22569,0.08161,0.04683,0.00564
2789,-2.59246,1.03861,-0.41886,-0.54825,1.12917,0.18831,-4.89293,-1.62657,0.06387,7.75055,6.24511,0.84001,0.41189,-0.18352,0.01503,0.26559,-0.01976,0.12688,2.93645,4.79076,3.49356,40.52924,13.67958,1.4304,6.75,0.07187,-2.57443,4.61672,-1.71239,0.3936,-0.69519,1.85717,-0.38623,1.25991,0.9507,0.41002,0.18829,0.36096,-0.0941,0.0225,-0.00087,0.07853
2790,-2.6728,0.17541,-0.36704,-0.12757,2.29833,0.18939,-7.77063,-0.07878,-2.36622,14.32014,10.01308,1.04816,0.36119,-0.19602,0.03714,0.18437,0.18795,0.15707,7.12864,10.36817,-1.96793,38.78099,1.07296,-3.88869,4.86844,-0.1852,-2.13238,5.23676,-1.77835,0.39455,-2.37932,1.26126,-0.06996,1.17439,1.24157,0.35747,-0.23914,0.16015,-0.03312,0.01317,0.04027,0.09589
2791,-2.13434,-0.75292,-0.24334,1.26342,2.68077,0.17433,-4.83538,0.08833,-3.77873,25.57648,8.74117,0.549,0.41216,-0.24236,0.05578,0.38057,0.29896,0.16807,27.63288,10.59504,-6.41258,24.57249,-6.41286,-4.17479,1.74867,0.59865,-0.61733,5.69413,-1.04443,0.12712,0.27323,0.19057,-0.49549,1.32197,1.84675,-0.0448,-0.07367,0.09611,-0.12974,0.21678,0.26199,0.02976
2792,-1.7403,-0.38194,-0.41061,2.75455,1.29996,0.11067,-0.15656,-1.16858,-4.07298,32.92595,1.26274,-0.29734,0.44762,-0.24513,0.08143,0.6166,0.20258,0.08993,45.2332,1.98111,-8.30674,11.97138,-1.87339,-2.04522,-0.29326,1.8028,1.15989,5.00249,-0.81812,-0.55175,2.38016,-0.91496,-0.57227,1.636,2.15973,-0.34642,-0.03727,0.00595,-0.12558,0.4107,0.42193,-0.04844
2793,-2.20156,0.12275,-0.46653,3.71375,-0.69372,-0.033,-2.55635,-4.67146,-2.78351,28.78278,-5.15041,-0.26818,0.41239,-0.26117,0.07701,0.7259,-0.00761,-0.07691,35.30432,-8.41002,-6.43656,14.22765,4.68042,2.76818,-0.26771,2.59647,3.25651,3.68142,-1.12564,-0.92599,2.56697,-2.72626,0.25797,1.52938,1.74596,-0.34754,-0.31405,-0.2693,0.04395,0.32853,0.32347,-0.0869
2794,-3.42268,-0.39733,0.00515,3.18118,-0.81405,-0.17065,-13.21854,-7.96271,0.57026,13.8572,-2.46595,0.44066,0.43771,-0.35463,0.02198,0.84348,-0.13157,-0.1633,-1.27889,-8.69579,-0.96235,24.04001,5.31812,8.40704,2.25777,2.19747,4.09993,3.19367,-1.33756,-0.78692,2.55297,-4.18405,1.00748,1.24599,1.3281,-0.20913,-0.36094,-0.48415,0.1628,0.11236,0.15997,-0.09029
2795,-4.40893,-0.77609,0.52283,1.54102,0.77212,-0.25498,-21.55034,-6.17459,3.98881,0.36877,4.49129,-0.41275,0.58967,-0.44519,-0.03357,1.07582,-0.09885,-0.05586,-30.88898,-0.18246,3.16623,25.55543,8.78354,9.86456,6.91251,0.91644,2.0821,3.74288,-1.50497,-0.3767,2.8192,-3.34656,0.76384,1.21539,1.2149,-0.01281,0.13805,-0.36614,0.09659,0.03221,0.10478,-0.05081
2796,-4.11082,0.03367,0.40658,0.50806,0.93059,-0.33554,-16.1257,-0.26279,4.33265,0.11168,4.1026,-3.24148,0.70425,-0.42889,-0.05017,1.15114,-0.08942,0.06265,-21.8133,2.49136,2.21773,15.78173,20.10361,5.76283,10.80133,0.15536,-1.38164,4.01439,-1.67017,0.28121,2.60946,-0.43418,-0.11748,1.07325,0.69474,0.22589,0.74554,0.01121,-0.06299,0.0774,0.04775,0.02284
2797,-2.66329,0.62026,-0.09769,0.44369,-0.51729,-0.28421,-0.6719,2.08373,1.53842,10.23782,-2.03852,-4.45162,0.64458,-0.34283,-0.05898,0.79367,-0.16909,0.04482,15.32714,-5.79736,0.06721,3.11446,24.52764,0.33889,10.48347,0.61318,-2.93438,3.39824,-1.48614,0.89904,2.1396,1.72087,-0.68987,0.63738,-0.18034,0.36323,0.90865,0.29557,-0.15095,0.08794,-0.08124,0.07171
2798,-0.98466,0.00991,-0.36012,0.70152,-0.99259,-0.03038,10.0596,-1.01148,-1.57578,19.30664,-3.73169,-1.80443,0.51008,-0.25528,-0.05136,0.29498,-0.17521,-0.0331,42.67385,-12.47797,1.05585,-2.79874,7.91434,-2.55334,6.74449,1.4266,-1.67793,3.37406,-0.99061,1.20616,1.58339,1.30963,-0.52848,0.56421,-0.43417,0.4064,0.56073,0.24688,-0.10738,0.04898,-0.16462,0.07806
2799,-0.31239,-0.52759,-0.28244,1.12926,0.26355,0.18927,7.66744,-3.11798,-2.78114,22.04663,1.50589,2.0736,0.39876,-0.15469,0.02372,0.14413,-0.01969,-0.06873,41.11484,-6.2737,3.10191,3.87835,-18.4364,-3.69889,4.3156,1.30832,-0.28357,5.36463,-0.50784,1.40037,-0.06149,-0.20669,0.06952,1.11184,0.33899,0.40464,-0.03254,-0.05543,0.01989,0.05308,-0.06154,0.06002
2800,-1.27629,-0.34724,-0.01624,0.95668,2.15685,0.23721,-3.85791,-1.54575,-1.66587,20.24994,8.49993,3.52644,0.32936,-0.08588,0.11477,0.34967,0.20719,-0.02421,21.10233,8.13376,2.35389,19.97829,-29.73652,-5.24744,5.49516,0.32642,-0.83954,7.54296,-0.1843,1.41049,-2.29395,-0.62416,0.43791,1.37023,1.38654,0.17389,-0.47655,-0.28517,0.11725,0.0716,0.16982,0.00297
2801,-2.91036,-0.18077,0.30366,-0.2198,3.2952,0.18471,-14.80734,0.50294,0.79619,17.66002,12.07856,2.02724,0.39782,-0.16561,0.10572,0.67874,0.31766,0.04022,3.08326,18.7754,-0.48947,33.3197,-20.61434,-5.77899,6.56555,-0.1193,-1.5324,6.91484,-0.20531,0.76392,-2.79196,-0.33751,0.35601,0.62347,1.8274,-0.34341,-0.53911,-0.28676,0.10644,-0.01048,0.30305,-0.08614
2802,-3.27336,-0.13545,0.38909,-0.12819,3.25979,0.07115,-14.04311,1.56565,2.53659,19.95183,12.22329,0.62619,0.58745,-0.34516,0.00403,1.0036,0.23722,0.04642,7.93141,22.3312,-0.06798,29.81013,-7.79029,-2.52728,3.69221,0.65255,0.08905,4.25953,-0.7009,-0.22041,-1.11307,-1.03269,0.29378,-0.13544,1.62284,-0.62318,-0.40167,-0.22317,0.06426,-0.10649,0.23677,-0.10763
2803,-1.55364,-0.03417,0.15479,2.78576,3.06617,-0.05477,1.93799,2.16349,2.07273,29.37944,13.13283,2.21479,0.68426,-0.43523,-0.05911,1.13821,0.09958,0.02523,40.74171,24.76679,6.11609,7.36236,-2.99979,2.80477,0.12129,1.46035,2.30738,2.87375,-1.33189,-0.39049,0.60463,-2.17102,0.46627,0.37653,1.06958,-0.15765,-0.31362,-0.22645,0.08723,-0.03171,0.05613,9e-05
2804,0.09563,0.0388,-0.10763,5.61903,3.0261,-0.13895,16.49514,2.85017,0.24009,37.48931,14.62152,4.67084,0.60049,-0.38449,-0.02333,0.98654,-0.00131,0.01606,69.32697,27.78775,10.78554,-10.6686,-0.51816,5.19392,1.56941,1.00421,1.49158,3.50478,-1.56752,0.37608,1.28572,-1.63242,0.30485,1.70163,0.46443,0.64428,-0.14915,-0.17192,0.09228,0.1675,-0.08582,0.12698
2805,-0.41374,0.32639,-0.20246,4.47496,2.74695,-0.12655,11.86247,3.72021,-0.83334,32.21239,13.25281,4.06189,0.49855,-0.29997,0.03055,0.72136,-0.05932,0.02011,56.65304,25.99274,7.77192,1.75505,5.49787,3.25832,6.60921,0.06516,-1.78286,4.58239,-1.33182,0.85318,1.7988,0.51362,-0.48696,2.37746,0.43218,0.86325,0.25823,0.04434,-0.03779,0.28981,-0.03928,0.12847
2806,-2.19229,0.68417,-0.14334,0.54247,2.26347,-0.1119,-6.73812,2.80561,-0.18452,16.14592,9.3577,0.45785,0.5325,-0.27575,0.01136,0.57353,-0.07312,0.0002,12.53226,15.42313,0.91831,31.86602,7.582,0.83116,8.33168,0.21509,-3.41174,5.25695,-0.83439,0.57418,2.23618,1.93732,-1.16247,1.80423,1.1341,0.3191,0.6002,0.27287,-0.21286,0.25864,0.17553,0.03033
2807,-3.511,0.82295,-0.01668,-1.90664,2.51893,-0.18821,-21.84802,-0.08777,1.12469,4.86627,8.87471,-1.96537,0.6541,-0.26087,-0.02888,0.58142,-0.01589,-0.04437,-21.32501,5.3331,-3.00534,41.44199,0.39265,0.69233,4.90319,1.25025,-1.93075,5.23154,-0.28295,0.28348,1.67181,1.4611,-0.98882,0.62854,1.66079,-0.28494,0.46979,0.31103,-0.23699,0.14628,0.32821,-0.03263
2808,-4.27862,0.77103,0.03598,-1.74785,4.089,-0.13451,-24.65724,-1.77687,1.28435,6.09584,14.44846,0.05899,0.61852,-0.18299,-0.03085,0.53261,0.14896,-0.02215,-23.48681,7.63272,-1.54669,24.60707,-7.17008,1.44339,1.73142,1.68077,0.16789,3.96195,-0.01543,0.13305,0.62363,0.1066,-0.28985,-0.01435,1.41478,-0.43442,0.0615,0.15892,-0.10095,0.05608,0.28961,-0.0428
2809,-4.7159,0.54359,-0.08984,-0.28621,5.09392,0.08548,-18.11234,-0.52129,-0.33912,14.33593,17.76294,3.88249,0.32262,-0.11306,-0.04422,0.34547,0.29858,0.0352,-4.8404,15.84777,1.46224,10.77273,-10.01522,2.71287,2.16788,1.33565,1.3586,2.48825,-0.29539,-0.37135,0.40059,-1.27522,0.38174,0.65206,1.16236,-0.24428,-0.15162,-0.07799,0.0681,0.10566,0.20694,-0.0599
2810,-3.56739,0.34965,-0.29616,1.65704,3.43114,0.0194,-8.17074,1.46258,-2.11379,20.45129,12.22777,4.3082,0.13189,-0.14461,-0.05441,0.36,0.19707,-0.06876,14.72911,16.02827,1.49447,13.16429,-15.76954,7.85314,3.07912,1.60015,3.03622,3.78803,-0.8814,-0.62167,0.96053,-3.11178,1.05317,1.81544,1.54811,-0.0874,-0.07525,-0.38455,0.19628,0.27247,0.20365,-0.05285
2811,-0.77898,0.00459,-0.30157,3.5938,0.72993,-0.48987,0.22634,0.41207,-2.04254,21.51972,5.19671,1.27362,0.34574,-0.27253,-0.02683,0.78458,-0.08361,-0.31044,25.46323,8.98334,0.11918,15.74821,-24.422,15.09579,1.86299,2.71337,5.13516,7.85213,-0.97218,0.4849,1.39367,-4.76311,1.57878,1.71195,1.72209,-0.14624,0.06566,-0.64139,0.25458,0.3193,0.17161,0.00947
2812,0.95927,-0.78094,-0.0407,4.21894,-0.35573,-0.86518,2.61239,-2.58907,-0.6101,20.03036,4.07934,-1.15229,0.66623,-0.40871,-0.01844,1.12918,-0.21731,-0.40142,26.36919,5.38309,0.47527,5.73015,-21.39458,14.24243,1.39915,3.1342,4.72587,9.59155,-0.44588,1.87047,1.04577,-4.14277,1.39855,0.50527,1.04062,-0.23658,0.07667,-0.5807,0.21874,0.13953,0.03584,0.04797
2813,0.04789,-1.21854,0.23024,2.34063,0.37543,-0.54905,-1.30503,-2.72346,0.70596,17.49111,6.26101,-0.99174,0.71232,-0.44361,-0.03652,0.91713,-0.0953,-0.18487,20.23885,9.18435,2.05188,-6.98724,-1.18767,2.73991,4.14422,2.18846,1.0965,6.37385,-0.41882,1.38322,0.03765,-1.16162,0.49935,0.09313,0.47586,-0.17212,-0.02162,-0.19296,0.09639,-0.04983,-0.05076,0.00011
2814,-2.16361,-0.49261,0.34781,-0.22856,1.34798,0.11117,-6.90785,-0.44772,1.8938,15.65014,5.63527,-0.60401,0.5782,-0.34926,-0.00102,0.5898,0.06067,0.13783,13.8133,9.51732,2.20525,-3.14981,19.1819,-6.684,7.31109,1.03304,-2.37857,3.03912,-1.25962,-0.32445,-0.63681,1.47398,-0.44511,0.70591,0.86216,-0.16785,-0.06427,0.20723,-0.07365,-0.06554,0.0407,-0.08588
2815,-3.67151,0.63967,0.33728,-1.69487,1.27088,0.49462,-9.04447,-0.4413,2.71934,13.94049,0.75191,-1.96568,0.50722,-0.214,0.08784,0.56446,0.05973,0.27114,10.87865,-2.71081,0.39077,16.49384,19.47179,-4.78151,7.68352,0.64476,-2.78234,4.15776,-1.6774,-0.6843,-0.2034,1.55694,-0.77915,1.09598,1.51857,-0.31326,0.03249,0.31756,-0.19857,0.05058,0.20409,-0.11395
2816,-4.0035,0.78466,0.1945,-3.50388,1.06938,0.70006,-6.92441,-2.45208,1.62375,8.13005,-2.11863,-2.43267,0.44724,-0.15262,0.10795,0.39802,0.06414,0.23167,8.20928,-13.549,-0.85315,27.42145,-2.91952,1.54495,5.63617,0.8015,-0.5258,6.78269,-0.72847,0.70372,0.78015,-0.49281,-0.28546,1.28556,1.42145,-0.0834,0.14893,0.06085,-0.14556,0.19954,0.2333,-0.02588
2817,-3.5512,0.02991,-0.06973,-5.65032,2.11507,0.9586,-4.00778,-1.32586,-1.42203,0.41995,2.21859,0.47774,0.33458,-0.19801,0.03028,-0.05777,0.24211,0.2213,5.1085,-5.14191,-0.34329,17.85167,-31.14154,3.44896,3.18152,1.01556,2.09056,6.626,0.72084,1.84089,1.35852,-2.63664,0.61956,1.78483,0.8832,0.50781,0.13778,-0.34718,0.07466,0.27925,0.12807,0.09334
2818,-2.7337,-0.30322,-0.29879,-5.37339,3.72124,1.04024,-3.04103,4.2191,-3.70464,-1.06535,10.27587,4.58412,0.29236,-0.28275,-0.03695,-0.15522,0.42993,0.29661,5.11113,16.57859,1.65645,5.57736,-41.25804,3.08762,1.95295,1.20145,3.06818,4.9873,0.88614,1.24448,1.71781,-3.21216,1.04193,1.87715,0.99347,0.5155,0.09121,-0.53896,0.24452,0.22843,0.08904,0.09027
2819,-2.05962,0.45285,-0.35756,-2.61345,4.25222,0.80344,-2.60932,9.29685,-3.13776,3.93579,15.70552,6.83368,0.36258,-0.30341,-0.02522,0.35321,0.41363,0.34428,7.99544,32.8057,6.51489,5.08242,-26.31464,4.78875,2.70436,1.33111,2.10188,4.28473,-0.74586,-0.57755,2.34231,-2.26204,0.59781,1.11492,1.771,-0.23893,0.18954,-0.38479,0.19618,0.11238,0.18778,-0.02508
2820,-1.34656,1.55692,-0.28051,-0.01772,3.05748,0.41189,-0.2955,8.53842,-0.74111,7.6146,14.88342,6.39076,0.46287,-0.22162,0.0464,0.901,0.21842,0.24032,9.69428,30.00983,12.5972,6.40687,-5.28019,5.30973,4.99883,1.17542,0.13926,4.17195,-2.23569,-1.59402,2.16835,-0.74726,-0.08254,0.52111,2.07988,-0.66475,0.26267,-0.03049,0.01295,0.06989,0.26502,-0.08352
2821,-0.69186,1.82116,-0.1571,1.09964,1.16101,0.07865,0.8686,2.34712,1.03169,6.96029,8.03358,3.58388,0.50763,-0.11448,0.10299,1.02406,0.03663,0.04301,7.04822,9.1605,12.99929,-0.11261,1.02467,1.83618,7.09049,0.76806,-1.61743,4.64917,-1.47286,-0.22345,0.63196,0.56388,-0.36153,0.86007,1.30118,-0.10911,0.10011,0.30154,-0.12392,0.15198,0.18027,0.01028
2822,-0.47592,0.80155,-0.01634,1.04789,0.15611,-0.04442,-1.04083,-3.92263,1.09852,6.48609,0.51376,-0.05124,0.54754,-0.11658,0.08057,0.85069,-0.02355,-0.05135,4.88122,-11.2947,5.95373,-6.19983,-8.11697,-0.78802,7.02455,0.74234,-1.9768,6.01113,0.6539,2.29247,-0.63813,0.99583,-0.25582,1.32867,0.23895,0.67649,-0.13017,0.39579,-0.12515,0.22983,0.02444,0.14681
2823,-0.39639,-0.49814,0.04538,0.11318,0.64251,0.06517,-1.01139,-5.12918,0.11838,8.15734,-1.03833,-1.82689,0.66784,-0.25058,-0.006,0.60259,0.00463,0.02456,9.90008,-12.62612,-0.62473,-2.17902,-18.72126,1.00942,5.03367,1.38044,-0.74489,6.54495,1.38098,3.01595,-0.51873,0.2565,0.0248,0.95328,-0.00871,0.70322,-0.21883,0.1873,-0.01898,0.1549,-0.02329,0.16413
2824,-0.2765,-0.3448,-0.12694,-1.40691,1.83831,0.26247,3.43479,0.56694,-0.9079,8.66199,3.50168,-0.65095,0.75042,-0.34748,-0.07744,0.28958,0.05768,0.11661,18.51428,3.6143,-0.75406,9.74761,-19.40762,3.01331,3.79106,1.7442,0.56633,5.26542,-0.02482,1.36975,0.26655,-0.98749,0.29969,0.10668,0.47644,0.05466,-0.12916,-0.1565,0.0841,-0.02338,0.03356,0.0455
2825,-0.67748,1.26206,-0.40193,-2.53813,2.55148,0.37832,5.72588,8.47457,-1.40253,7.14602,8.07453,1.62725,0.62907,-0.2771,-0.06391,0.0213,0.09889,0.08914,20.71519,18.6235,1.80554,18.19302,-13.37134,1.32701,5.11721,1.19594,0.5207,3.9537,-1.57447,-0.36624,0.6773,-1.69944,0.41069,-0.23142,0.81371,-0.51184,0.08819,-0.37957,0.0902,-0.13658,0.05713,-0.10352
2826,-1.76863,1.88362,-0.37149,-2.28471,2.25933,0.33709,0.51672,9.11117,-1.14149,6.75412,8.46947,2.69688,0.39359,-0.18643,0.00701,0.04137,0.08367,-0.0157,13.84723,16.40413,1.89737,12.47251,-12.94526,-1.74859,7.51217,0.69825,-0.31268,3.95361,-1.70432,-0.7647,0.48077,-1.56893,0.39082,0.29446,0.87717,-0.59664,0.29529,-0.37026,0.02167,-0.08214,0.02937,-0.16743
2827,-2.60218,0.42462,0.02844,-0.84764,0.81347,0.08113,-7.10746,1.02597,-0.2535,9.49259,5.43068,1.75271,0.30086,-0.23805,0.05819,0.32604,-0.0876,-0.15963,7.01223,0.84982,0.39741,-2.55347,-20.84845,-2.53683,8.21032,1.04792,-0.47668,4.28108,-0.94327,-0.41918,0.66419,-1.25088,0.29295,1.19924,1.069,-0.25633,0.44012,-0.27319,-0.03161,0.09591,0.01779,-0.08244
2828,-2.56779,-1.01557,0.3812,0.3458,-1.28338,-0.31549,-10.90584,-6.11283,0.88678,13.72799,1.7671,-0.64094,0.43387,-0.33406,0.06466,0.52926,-0.37718,-0.34172,6.37306,-10.77634,-0.48542,-7.93398,-25.7424,-0.51618,6.75725,1.47103,0.11484,4.34375,-0.2882,0.31198,1.98972,-1.32464,0.03887,1.54703,1.04972,0.26564,0.55729,-0.25042,-0.04485,0.22014,0.0076,0.09329
2829,-2.28945,-0.74864,0.39575,-0.1653,-2.46904,-0.43685,-11.85322,-5.49163,1.74947,14.28262,-0.57326,-2.54675,0.60128,-0.34152,0.03284,0.38626,-0.50574,-0.41974,4.2765,-10.23061,-0.62877,4.58347,-18.49626,2.39402,4.96204,1.26015,0.36516,5.23504,0.14649,1.55951,2.99394,-1.33834,-0.27438,1.06414,0.53598,0.59068,0.4596,-0.20689,-0.04292,0.20056,-0.00234,0.19969
2830,-2.06174,0.5978,0.1366,-2.59672,-1.44911,0.10557,-10.00503,0.90474,1.5873,7.46755,-0.10876,-1.33639,0.57144,-0.25944,-0.00266,-0.07151,-0.28935,-0.22085,-3.25636,-0.35576,1.74858,21.17943,-4.75059,4.55324,4.14463,1.11309,0.07275,6.86246,0.51197,2.50524,2.10579,-0.82924,-0.33172,0.53171,0.15617,0.46043,0.00152,-0.01029,-0.02067,0.1162,0.0502,0.12616
2831,-1.60936,1.29818,-0.12438,-4.80085,0.94191,0.88507,-3.57787,6.14226,0.36056,-0.59554,3.16801,2.21922,0.38234,-0.1877,-0.01978,-0.48309,0.06406,0.13297,-5.09748,10.74212,6.72017,24.22672,3.57347,5.42255,4.24101,1.59346,0.16254,6.79814,0.3962,1.81006,0.70238,-0.51269,-0.07004,0.67936,0.52236,0.02059,-0.40333,0.18597,0.00849,0.04866,0.16697,-0.06908
2832,-1.28966,0.47965,-0.15417,-4.0186,1.95438,0.91594,2.39282,4.5403,-0.85733,-0.22469,5.22662,3.21035,0.32221,-0.22361,-0.03742,-0.38905,0.1645,0.24471,3.89067,11.15412,7.7895,11.46719,2.34799,4.67838,4.96426,1.85939,0.87569,3.81311,-0.58139,-0.33464,0.85016,-1.20624,0.25929,1.31353,1.23165,-0.25684,-0.25528,0.12315,0.01157,0.03926,0.24815,-0.19551
2833,-1.50969,-0.94196,0.01704,-0.55267,0.57694,0.01978,2.44457,-2.01871,-1.09515,8.59782,3.91277,0.0365,0.4707,-0.30117,-0.06184,0.19929,-0.05114,-0.03183,15.83585,0.79757,2.09472,-3.68656,-7.52462,2.61288,6.07838,1.21705,1.27945,0.73599,-1.63169,-1.93569,2.03255,-2.28353,0.42578,1.58305,1.51586,-0.20281,0.26325,-0.16961,-0.00078,0.08504,0.22244,-0.15021
2834,-1.72292,-1.26344,0.13477,1.99575,-1.03761,-0.78269,0.68794,-5.60598,-0.43294,18.11037,2.84844,-2.95598,0.58241,-0.26134,-0.06464,0.72594,-0.27995,-0.35402,27.33329,-3.70584,-3.22055,-8.0867,-25.33171,0.12285,7.08001,0.42268,0.65199,1.37295,-1.57881,-1.67165,2.3659,-2.37803,0.36054,0.99686,1.4976,-0.24093,0.56337,-0.40095,0.00422,0.1324,0.17341,-0.03974
2835,-1.54822,-0.04469,0.03957,0.92529,-0.79739,-0.55883,0.92449,-2.42528,0.3737,21.87638,4.61982,-2.35736,0.51946,-0.13691,-0.04068,0.81373,-0.2846,-0.34816,34.81709,5.03425,-2.82456,-2.91721,-42.5651,-2.36151,7.53575,0.48722,-0.41703,5.01541,-0.46596,-0.02908,1.34812,-1.44032,0.19072,0.12679,1.37199,-0.41527,0.43424,-0.40493,0.02074,0.13077,0.14737,0.0242
2836,-1.53337,1.08959,-0.08417,-1.75639,0.52111,0.31822,-0.32487,1.76612,0.86912,19.46898,5.47049,-0.24061,0.39805,-0.1246,-0.02521,0.71802,-0.1127,-0.05944,29.98788,10.63616,-0.07981,3.70245,-43.55213,-4.21942,6.86134,1.40059,-0.56868,7.32081,0.55539,1.50546,0.30185,-0.8014,0.10056,-0.07388,0.97198,-0.26676,0.17692,-0.28438,0.00932,0.06407,0.07823,0.0491
2837,-1.92724,0.81498,-0.02277,-1.73996,0.73874,0.69111,-3.88613,1.42875,0.96456,16.09722,1.88898,-0.00791,0.36066,-0.2658,-0.02198,0.82993,0.03309,0.16349,17.34562,1.34757,1.29579,7.20263,-24.61827,-3.60913,4.62092,2.32309,0.57504,6.38129,0.65487,1.69385,-0.18274,-1.00644,0.30842,0.51445,0.65641,0.11675,-0.02971,-0.18309,0.0247,-0.00651,0.01056,0.04245
2838,-2.02641,0.01202,0.07372,1.60899,0.31096,0.19471,-6.14277,-0.48469,0.37713,15.76769,-0.12722,-0.54078,0.47296,-0.41482,0.01034,1.06855,0.08439,0.15175,9.72108,-6.96129,2.49849,3.39644,-2.43067,1.03032,1.9208,2.54567,1.701,4.78934,-0.01239,0.8218,-1.01403,-1.04079,0.80113,1.07862,0.81654,0.19401,-0.32074,-0.07489,0.14087,-0.00058,0.04203,-0.00469
2839,-1.52241,-0.06393,-0.02639,4.45769,1.48385,-0.38554,-6.57106,0.53092,-0.97054,17.18932,5.98238,0.97421,0.67092,-0.45541,0.06207,1.07593,0.13879,0.0751,9.66857,2.60743,4.19345,-7.3898,5.0,7.29048,0.9314,2.06558,1.49394,5.22072,-0.73101,0.27555,-1.95932,-0.3059,1.03555,0.97668,1.0891,-0.0901,-0.62208,0.1235,0.23085,0.07488,0.12313,-0.04622
2840,-1.12608,0.75027,-0.2806,4.1026,3.82006,-0.36308,-6.55996,4.89396,-2.24957,19.59676,14.19485,3.00602,0.76941,-0.35846,0.07578,0.82755,0.19637,0.11438,15.29262,22.44168,3.45244,-13.4734,-2.35658,8.05294,2.94899,0.99429,-0.11381,6.49983,-0.91754,0.58591,-1.75164,0.42502,0.55307,0.43257,0.94696,-0.32231,-0.61022,0.30838,0.11999,0.13754,0.13857,-0.04043
2841,-1.5548,1.92946,-0.46529,2.79653,4.50175,-0.10952,-6.59139,9.95674,-2.27778,26.4017,14.22299,1.81399,0.66628,-0.18301,0.03666,0.68355,0.1253,0.18145,27.57981,32.8585,-1.83305,-7.76875,-11.38877,0.35458,6.78872,-0.40955,-2.03363,6.0572,-0.62144,0.87101,-0.58548,0.34468,-0.23604,0.01723,0.58635,-0.34678,-0.2262,0.24633,-0.11223,0.10747,0.09706,-0.03206
2842,-2.35024,2.38682,-0.40694,3.56182,2.87894,-0.27851,-6.627,10.72487,-0.95751,36.13321,7.56903,-1.767,0.47173,-0.09195,-0.01689,0.84109,-0.05759,0.09733,40.93427,25.56764,-7.92006,0.95324,-13.23001,-6.9409,9.6419,-0.91181,-2.34749,4.37962,-0.29904,0.72391,0.70149,-0.75234,-0.44945,0.06044,0.45697,-0.19319,0.27241,-0.12054,-0.20517,0.01272,0.05942,-0.03119
2843,-2.51319,1.28137,-0.11971,4.95882,1.40849,-0.64908,-6.98115,4.54124,0.47769,39.35769,4.53083,-3.08597,0.36125,-0.17966,-0.04648,1.00967,-0.1352,-0.08616,42.84134,11.33969,-8.70931,5.21532,-10.51364,-3.66563,9.65673,0.20546,-0.42839,4.32283,-0.12421,1.13112,1.68854,-2.20213,0.16075,0.40094,0.35833,0.20604,0.533,-0.50827,-0.0373,-0.04663,-0.01052,0.04041
2844,-2.31199,-0.27976,0.14889,3.86739,1.35008,-0.60895,-8.90702,-3.2127,0.83109,31.26895,7.41688,-0.99699,0.37218,-0.28734,-0.02995,0.80005,-0.03832,-0.18316,29.16289,4.16592,-4.25967,8.37274,-10.06974,6.54638,6.78396,1.76374,1.73697,6.62099,-0.12052,2.33,2.07862,-2.60034,0.74704,0.59874,0.02706,0.61067,0.41829,-0.50923,0.16951,-0.0484,-0.11577,0.14323
2845,-2.09002,-0.70153,0.17591,0.81939,1.46188,-0.1781,-9.50968,-5.82598,0.18823,18.69661,9.36842,1.17056,0.4472,-0.24641,0.02017,0.35599,0.064,-0.13766,14.18354,3.82588,0.55836,7.98077,-14.87626,10.23576,3.12513,2.3008,2.06168,8.33994,-0.4926,2.55074,1.5426,-1.58718,0.59064,0.4547,0.00244,0.43805,0.09574,-0.13867,0.15689,-0.04386,-0.10236,0.10085
2846,-1.08286,-0.33767,0.05294,-0.68521,1.09244,0.07739,-3.47449,-3.96347,-0.3209,12.55807,7.70337,0.9895,0.5672,-0.17377,0.04669,0.22072,0.04843,-0.04221,15.90231,2.55267,2.9035,-4.42318,-22.25851,2.22377,1.94168,1.69333,0.40528,6.63234,-1.0934,0.62326,-0.11433,0.00521,0.05238,0.15343,0.76641,-0.37193,-0.24962,0.20731,0.00332,-0.05259,0.09468,-0.10785
2847,0.37248,-0.11716,0.01004,0.7849,1.05264,-0.14517,5.83783,-1.04624,0.18765,16.93328,7.33919,-0.53134,0.698,-0.22835,0.02586,0.54595,-0.05297,-0.00868,31.97812,2.85866,3.18757,-17.52594,-23.87314,-7.47794,3.68023,0.91874,-1.55759,2.67376,-1.66662,-2.12353,-1.37452,1.19114,-0.3074,0.58207,1.89777,-0.886,-0.35337,0.30216,-0.08439,0.03295,0.27782,-0.23528
2848,0.34345,0.30705,0.03717,2.30649,2.0325,-0.38283,8.76917,2.99902,1.02224,23.96931,12.22572,-0.48176,0.69563,-0.30481,0.00384,0.87172,-0.11881,-0.02405,41.6801,14.80487,3.52677,-11.9392,-13.28164,-7.82838,5.12791,0.83901,-1.57707,0.22791,-2.34247,-3.56766,-0.92236,1.0651,-0.12212,1.94846,2.51065,-0.46898,-0.18363,0.18129,-0.00185,0.20505,0.24609,-0.13483
2849,-1.2797,1.22162,-0.08416,0.9571,3.59456,-0.03147,4.37553,7.83726,0.41291,22.82484,17.7413,2.12957,0.48276,-0.25027,0.01582,0.80322,-0.01572,0.02465,34.29378,32.99964,5.06774,6.40751,-0.30075,1.20489,4.59785,1.54588,0.6665,1.61843,-2.44993,-2.37584,0.29917,-0.5202,0.59316,2.43647,1.94057,0.1904,-0.01555,-0.03485,0.16792,0.22533,0.07473,0.01742
2850,-2.21844,1.71644,-0.35878,-1.43309,4.02982,0.57139,0.37962,9.14271,-1.67754,14.72744,14.39351,3.82288,0.25637,-0.14326,0.03616,0.54656,0.20428,0.10766,21.25337,34.31801,5.14719,17.10509,0.30311,11.84139,3.59956,2.30933,2.76946,5.85763,-0.84287,0.93778,0.98522,-2.21226,1.06057,1.25325,0.75046,0.36144,0.04628,-0.20055,0.20459,0.1268,0.03168,0.07366
2851,-1.66592,0.95027,-0.44002,-1.19517,2.42411,0.56032,-0.46971,3.62319,-2.6558,11.32926,2.6657,1.21162,0.27609,-0.1712,0.00988,0.53114,0.30415,0.07641,16.71117,10.48402,0.93588,12.72613,-8.47145,16.31702,3.43847,2.10561,2.71614,9.21387,1.54926,3.51008,1.2593,-2.74333,0.68768,0.35915,0.42641,0.28167,0.12574,-0.27127,0.04636,0.20797,0.21055,0.10082
2852,-0.95721,-0.41717,-0.1479,1.31917,0.7481,-0.05251,-0.83967,-3.97493,-0.92615,17.25603,-3.56931,-2.94522,0.53877,-0.3467,-0.05816,0.73738,0.20352,-0.02658,21.98186,-12.37365,-4.19905,1.81896,-14.8923,11.96003,4.40993,0.83815,1.38287,8.59963,2.14087,2.70906,2.06678,-2.72471,-0.01312,0.85356,1.43338,0.1438,0.32292,-0.36402,-0.11533,0.40229,0.41074,0.11154
2853,-1.35513,-1.0146,0.25866,2.90433,1.49262,-0.45909,-3.11936,-5.30065,1.66507,24.58623,4.63796,-3.28657,0.7752,-0.46381,-0.08664,0.80511,0.07794,-0.00562,27.46198,-5.37511,-4.29228,-0.24822,-15.60132,2.30641,6.12097,-0.49,0.48663,5.31846,0.34257,-0.46191,2.94466,-2.90166,-0.19332,1.33892,2.59636,-0.30623,0.45385,-0.49436,-0.09785,0.3673,0.42505,0.0101
2854,-2.80417,-0.74837,0.49126,2.29879,3.67175,-0.30394,-8.54047,-1.19379,2.6952,23.85593,17.0627,0.14869,0.74108,-0.39066,-0.04914,0.61619,0.03637,0.1244,20.99572,18.30311,0.56606,11.16547,-12.79344,-5.61216,7.19821,-0.87975,0.14713,3.284,-1.60144,-2.25924,2.55406,-2.57029,0.12362,0.92172,2.4805,-0.73272,0.32397,-0.46621,0.03319,0.1108,0.23799,-0.12208
2855,-3.35943,-0.35804,0.4222,0.92653,4.01837,-0.00685,-12.59356,0.05435,1.86668,14.82932,17.57851,2.59088,0.49215,-0.23244,0.01202,0.42415,-0.00952,0.12203,4.95089,21.30965,4.68065,18.60068,-11.87799,-6.48931,6.68784,-0.14087,-0.03014,4.13843,-1.78936,-0.94776,1.28765,-1.46584,0.34005,0.06409,1.14507,-0.64886,0.10752,-0.23722,0.09815,-0.10561,0.01242,-0.13398
2856,-2.11892,-0.1424,0.08685,0.5797,1.78183,0.02033,-9.72983,-3.57426,0.10707,7.43261,5.47224,1.4621,0.26539,-0.16925,0.04579,0.46168,-0.08861,-0.071,-2.18498,-0.9181,3.79992,9.18814,-17.84421,-0.85452,5.04811,1.22605,0.06359,6.30426,-0.73578,1.58871,0.71403,-0.44472,0.15128,-0.73735,-0.11644,-0.29388,0.04108,0.02088,0.03964,-0.18653,-0.09312,-0.04659
2857,-0.63385,0.22953,-0.3168,1.08508,-0.91324,-0.09922,-1.7623,-4.86013,-1.71556,9.3026,-6.97516,-1.27554,0.23651,-0.21187,0.05679,0.58484,-0.12275,-0.23731,10.00254,-17.28826,-0.71654,-3.64941,-22.72375,6.42589,3.17413,2.1965,0.19797,7.56095,-0.01898,2.77455,1.05731,0.07108,-0.30397,-0.8568,-0.35972,-0.06217,0.058,0.176,-0.06212,-0.14427,-0.06,0.02222
2858,-0.6678,1.05432,-0.52034,1.12059,-2.15559,-0.06684,1.48035,0.4772,-2.48991,17.3589,-10.88458,-2.77587,0.35698,-0.20581,0.08648,0.55214,-0.09153,-0.2098,26.03307,-10.20085,-5.16494,-4.62035,-14.23007,11.495,1.93531,1.85534,0.10835,7.13766,-0.16467,2.11568,1.36273,0.03134,-0.56191,0.26848,0.21952,0.09325,0.01819,0.14803,-0.09465,0.0457,0.0392,0.02445
2859,-2.59848,1.57601,-0.27387,0.61425,-1.33328,0.09506,-7.90892,6.25197,-0.86927,22.54117,-5.4682,-2.29634,0.47397,-0.13045,0.08898,0.5264,-0.03052,-0.02682,20.95996,6.35329,-6.33545,4.80782,-0.11013,13.35004,2.21833,0.49547,0.11252,6.18682,-0.58943,1.04059,1.43378,-0.71221,-0.33079,1.98319,0.77939,0.32624,0.00632,-0.05105,-0.03934,0.32865,0.10596,0.01647
2860,-4.61111,1.14389,0.23364,0.50834,1.03811,0.13088,-21.40782,6.78647,2.12624,19.71796,5.494,-0.79521,0.60654,-0.15091,0.01287,0.79136,0.02489,0.15506,-2.25414,16.44052,-2.86268,16.25046,0.02699,11.17487,4.17239,-0.69005,0.23062,6.44476,-1.0025,0.70627,1.72173,-1.6862,0.05664,2.82521,0.97603,0.50925,0.15334,-0.25273,0.00564,0.52032,0.09874,0.06388
