PaulMeinheit/Bachelor_Muay_Thai/processed_Data/E3/teep/sliced/JointMoments/sliced3.csv
Unnamed: 0_level_0,R_KNEE_MOMENT,R_KNEE_MOMENT,R_KNEE_MOMENT,L_KNEE_MOMENT,L_KNEE_MOMENT,L_KNEE_MOMENT,R_HIP_MOMENT,R_HIP_MOMENT,R_HIP_MOMENT,L_HIP_MOMENT,L_HIP_MOMENT,L_HIP_MOMENT,R_ANKLE_MOMENT,R_ANKLE_MOMENT,R_ANKLE_MOMENT,L_ANKLE_MOMENT,L_ANKLE_MOMENT,L_ANKLE_MOMENT,WAIST_JOINT_MOMENT,WAIST_JOINT_MOMENT,WAIST_JOINT_MOMENT,NECK_MOMENT,NECK_MOMENT,NECK_MOMENT,L_SHOULDER_MOMENT,L_SHOULDER_MOMENT,L_SHOULDER_MOMENT,R_SHOULDER_MOMENT,R_SHOULDER_MOMENT,R_SHOULDER_MOMENT,L_ELBOW_MOMENT,L_ELBOW_MOMENT,L_ELBOW_MOMENT,R_ELBOW_MOMENT,R_ELBOW_MOMENT,R_ELBOW_MOMENT,L_WRIST_MOMENT,L_WRIST_MOMENT,L_WRIST_MOMENT,R_WRIST_MOMENT,R_WRIST_MOMENT,R_WRIST_MOMENT
ITEM,X,Y,Z,X,Y,Z,X,Y,Z,X,Y,Z,X,Y,Z,X,Y,Z,X,Y,Z,X,Y,Z,X,Y,Z,X,Y,Z,X,Y,Z,X,Y,Z,X,Y,Z,X,Y,Z
1175,-1.6675,1.8285,-0.58747,1.54183,1.57569,0.08546,-2.62469,6.97059,-2.22358,27.47978,3.45335,-1.00133,0.38741,-0.093,-0.00885,0.32346,0.2969,0.16472,33.92356,13.80338,-4.83749,7.79793,-12.78028,6.83917,7.11262,1.00916,0.66704,5.43882,-0.21677,2.53682,0.91839,-0.94897,0.32357,-0.86994,-0.81983,0.26378,0.12027,0.00318,0.04489,-0.18998,-0.14831,0.08654
1176,-3.55959,0.52366,0.09014,-0.23885,1.99927,0.26253,-12.07706,-2.71622,0.78152,20.37638,5.05138,-1.07139,0.44066,-0.18609,0.0594,0.55036,0.30251,0.22759,17.0693,1.63025,-2.6932,16.44062,-4.3209,4.82468,8.24995,0.38064,1.04554,7.3598,-0.25331,1.99897,-0.24174,-1.80402,0.86441,-0.00941,0.15891,0.04729,-0.01354,-0.38831,0.15726,-0.08319,-0.04833,0.02014
1177,-3.81293,-1.1098,0.59118,-1.4041,1.93524,0.25289,-15.30676,-8.34782,2.14673,11.47463,6.947,-0.17019,0.52698,-0.37162,0.09567,0.77856,0.1622,0.12938,2.20004,-1.60199,0.25985,19.87131,-7.24465,2.74601,7.82543,-0.5783,0.14779,9.02646,-0.17519,1.10821,-1.26416,-1.33903,0.73553,1.35587,1.44632,-0.15261,-0.05795,-0.50676,0.1345,0.13841,0.0728,-0.03366
1178,-3.16551,-1.73954,0.45859,-0.65612,0.86312,-0.00625,-11.42479,-5.96981,0.44402,9.49769,7.38572,0.95548,0.48039,-0.49662,0.03342,0.78315,-0.03943,-0.07093,3.13902,5.13652,1.04345,16.04242,-4.46582,-0.87393,7.05666,-2.14695,-1.30287,10.02908,-0.03239,0.52728,-0.32783,-0.59836,0.12326,1.88943,2.40213,-0.36172,0.21452,-0.41866,0.02576,0.2912,0.22004,-0.04917
1179,-2.75264,-1.32534,0.01926,0.84227,-0.68511,-0.26769,-5.63983,-0.155,-1.98567,12.63372,5.14332,1.46534,0.32503,-0.4892,-0.07726,0.5539,-0.2095,-0.24017,12.57337,10.02857,0.75403,7.58462,4.14599,-0.82574,5.1954,-2.50101,-0.73503,9.71349,-0.33724,0.07724,2.60794,-1.44462,-0.15821,1.26337,2.65214,-0.65333,0.56189,-0.34031,-0.00342,0.31625,0.3464,-0.05991
1180,-2.53353,-0.46575,-0.15134,1.61866,-1.32311,-0.33236,-2.5576,3.49639,-1.84116,14.2235,0.65502,0.16451,0.29707,-0.38624,-0.12683,0.42523,-0.25224,-0.25584,16.28897,5.59262,0.79042,-0.93225,-0.19648,7.50113,2.81834,-0.22977,2.41964,7.56988,-1.55729,-0.64418,5.5642,-3.8885,0.20018,0.10282,2.01324,-0.92854,0.69991,-0.35405,0.05224,0.22193,0.31459,-0.09277
1181,-2.05306,0.76018,-0.03901,1.82304,-0.42989,-0.33889,-2.73668,5.09171,0.72238,14.40384,-2.92798,-2.93615,0.54517,-0.30072,-0.06436,0.65379,-0.15129,-0.17227,14.45735,-1.82354,0.068,-6.50032,-15.59155,15.39963,2.35548,2.23069,4.31741,4.42836,-2.85098,-1.19379,5.71482,-4.87052,0.49044,-0.63316,0.83637,-0.86279,0.55188,-0.34128,0.05768,0.09458,0.12806,-0.09663
1182,-1.52971,1.95006,-0.04281,1.7181,1.15573,-0.39826,-3.99322,5.78087,2.03455,18.14355,-1.72421,-5.00443,0.78602,-0.26234,0.04211,0.91659,-0.0084,-0.15869,17.84192,-3.00755,-2.84377,-1.14593,-22.54988,10.97678,4.06781,2.28202,2.24384,2.07472,-2.57342,-0.62733,2.3155,-2.45016,0.1866,-0.26971,-0.18074,-0.2148,0.17215,-0.17097,-0.02003,0.05343,-0.06169,-0.00677
1183,-1.26044,2.21803,-0.30009,0.55999,2.83794,-0.21417,-4.14535,4.95755,-0.01481,24.17272,5.11626,-3.06167,0.65355,-0.19116,0.09246,0.74707,0.138,-0.14062,27.31742,4.25676,-6.34516,20.16848,-18.61448,-2.83938,5.80504,0.79083,-1.53213,1.68298,-0.58783,0.76707,-1.81756,1.30898,-0.37695,0.96623,-0.32294,0.66326,-0.25735,0.14484,-0.11046,0.08464,-0.11227,0.11764
1184,-1.1454,1.75206,-0.58772,-1.71587,4.22291,0.41483,-3.12758,4.83927,-3.23719,24.37148,12.66569,1.72733,0.29227,-0.09411,0.07413,0.3024,0.30641,0.08594,30.36357,16.34002,-6.59759,44.40241,-15.36039,-12.41586,6.34782,-0.05435,-3.34117,3.24495,1.1552,1.61161,-3.02771,3.14551,-0.73444,2.43917,0.56374,1.18351,-0.42586,0.45087,-0.17093,0.14785,0.0023,0.16617
1185,-1.20814,0.97409,-0.54995,-3.17975,3.87159,0.96518,-1.66192,5.88058,-4.01483,16.63513,14.11018,5.16536,0.14519,-0.10997,0.02382,0.16887,0.35905,0.34978,22.87121,24.04561,-1.16705,46.80716,-13.18534,-10.03274,6.23916,0.48745,-1.81596,5.85431,1.08594,1.42223,-0.64299,1.65218,-0.58052,3.36525,1.56755,1.09034,-0.18483,0.49769,-0.15959,0.26817,0.15584,0.11866
1186,-1.15674,-0.27713,-0.06856,-2.20731,1.25741,0.78153,1.23846,3.81917,-1.33774,8.48023,8.59186,4.92391,0.35332,-0.26938,-0.0236,0.45332,0.15381,0.27412,16.73356,18.70377,7.7106,16.24597,-5.19366,1.30818,4.88784,1.41964,1.42342,7.97647,-0.16073,0.91873,2.59345,-1.67453,0.06013,2.59201,1.67958,0.39446,0.18375,0.1592,-0.03884,0.33932,0.20796,0.0276
1187,-0.95694,-1.22706,0.43752,-0.32691,-1.05188,0.1347,4.28446,-1.62504,2.27242,6.01218,2.71533,2.45172,0.59023,-0.37868,-0.05228,0.58063,-0.12429,-0.05428,17.77926,4.48108,13.31839,-19.92357,1.94026,11.85691,2.05166,1.43214,3.05514,7.97009,-1.05862,0.77793,3.73813,-3.47022,0.48079,0.47787,0.93817,-0.31934,0.33029,-0.26182,0.08264,0.23861,0.12257,-0.00131
1188,-1.48097,-0.39016,0.40069,-1.20712,-0.76611,-0.08288,2.2745,-4.42774,3.33403,6.01569,2.10118,0.43147,0.55929,-0.29618,-0.04887,0.15814,-0.21194,-0.21989,14.49746,-4.53467,10.29199,-19.6882,-4.84127,11.36276,1.29612,0.40028,1.54083,5.86441,-0.81459,0.87665,2.3163,-2.25297,0.19478,-0.72536,0.37303,-0.36346,0.24898,-0.33748,0.05581,0.06051,0.00861,0.05937
1189,-2.95486,1.43771,-0.10137,-5.40012,0.95313,0.37608,-5.50911,-1.88836,1.02886,2.38662,4.69852,-0.38304,0.38852,-0.20058,-0.02543,-0.37983,-0.12534,-0.11143,-0.83297,-2.78021,0.87768,12.60475,-21.56146,-0.28316,5.27546,-0.51692,-0.98285,4.05722,0.25696,0.96825,-0.20157,-0.04702,-0.19988,-0.02197,0.57762,0.05686,0.07098,-0.09834,-0.06606,-0.03163,-0.00142,0.08343
1190,-3.12556,1.79723,-0.45524,-8.37148,2.3673,0.90303,-7.76709,1.54833,-1.93215,-2.70023,5.84366,-0.80474,0.37433,-0.29633,0.00376,-0.36703,0.03715,0.10844,-9.6923,1.51506,-5.47141,30.56696,-30.94349,-11.09418,10.3004,-0.45587,-1.78887,4.06523,0.67668,0.89618,-2.09407,0.80403,0.00448,1.35411,0.96287,0.36624,-0.15886,0.09248,-0.08126,0.02482,0.03538,0.03605
1191,-0.62955,0.30331,-0.31645,-6.63495,3.34002,1.01562,2.13053,0.99177,-2.38206,-2.05271,5.58681,-0.47093,0.55226,-0.46881,0.05334,0.13829,0.24891,0.32176,4.53429,0.90502,-1.43743,14.72518,-24.96469,-10.24193,10.99918,0.16835,-0.74779,4.69839,-0.42426,0.21141,-2.36988,0.15125,0.52719,1.92393,1.20374,0.30013,-0.34244,0.05968,0.03132,0.13216,0.05816,-0.00463
1192,1.80424,-1.21957,0.12342,-2.43122,3.3719,0.7866,11.10025,-3.01134,-0.10588,4.97947,5.62953,1.15808,0.71424,-0.50736,0.10064,0.53239,0.37012,0.40693,23.77962,-3.09473,8.26398,-7.38383,-12.43951,1.19138,7.1485,0.51223,0.70107,5.10403,-1.61201,-0.42928,-1.06549,-1.16278,0.67949,1.35253,1.31051,0.01093,-0.3134,-0.12167,0.09347,0.12839,0.08037,-0.01132
1193,1.36729,-1.0898,0.4095,0.49936,2.12082,0.44844,7.67688,-5.01784,2.37864,13.6033,5.40853,2.40999,0.70262,-0.3725,0.09499,0.6027,0.28817,0.29182,28.02389,-4.48115,12.35504,-8.96656,-5.96657,13.0843,2.78642,0.6236,1.81238,5.67972,-1.13547,0.20792,1.07643,-2.50178,0.43096,0.35851,1.05176,-0.18135,-0.02296,-0.32234,0.0552,0.00866,0.09018,-0.01469
1194,-1.00921,0.58426,0.27451,1.31794,0.90979,0.13071,-0.65292,-1.75096,2.8237,19.35652,4.95793,1.78641,0.51102,-0.16937,0.03676,0.56738,0.13576,0.09747,23.95004,0.4258,7.87546,4.85332,-8.57187,16.53819,1.004,1.15611,2.78822,5.55429,0.63832,1.68404,2.89389,-3.38329,0.37095,0.05822,0.42387,-0.00038,0.35502,-0.44969,0.05992,-0.0388,0.07345,-0.00234
1195,-2.78575,1.902,-0.06478,0.72217,0.90641,-0.07491,-4.41654,3.38901,1.14367,19.11647,6.01283,0.56673,0.27508,-0.07031,-0.01798,0.45587,0.07572,-0.01562,19.56222,9.62562,1.0922,13.16877,-14.60872,10.36923,2.13007,1.77815,2.89204,3.80386,2.03695,2.42088,3.24977,-2.9002,0.52019,0.68704,-0.08704,0.40479,0.55067,-0.34559,0.11763,0.08179,0.07102,0.032
1196,-2.92655,1.53478,-0.24287,-0.84309,2.04873,-0.02298,-4.61904,5.84916,-1.05773,12.5503,9.66204,1.26062,0.21575,-0.18322,-0.02911,0.19377,0.11269,0.01237,10.84365,18.71723,-1.32298,8.69617,-19.46853,0.13517,5.08747,1.52212,0.99036,2.23734,1.89098,1.66318,2.07928,-0.65664,0.26823,1.24644,0.10036,0.41353,0.46945,0.05617,0.07302,0.22637,0.13835,0.01532
1197,-1.89627,0.4159,-0.21296,-2.16627,3.25786,0.24299,-2.84915,5.41099,-1.99838,4.30032,12.47115,3.61604,0.39924,-0.39482,-0.01805,0.01008,0.14489,0.11358,1.72301,21.61121,2.4458,2.55259,-22.05817,-6.71761,7.61336,0.69827,-1.131,2.96669,0.18283,-0.01237,0.24706,1.16098,-0.08061,0.88572,0.95025,-0.20141,0.17998,0.32662,-0.01936,0.21422,0.22232,-0.07428
1198,-0.41854,-0.16596,-0.10779,-1.53474,3.35647,0.35905,2.11911,2.58008,-1.05893,1.09261,10.06786,4.51665,0.64142,-0.48011,-0.01487,0.19616,0.12003,0.13972,3.81106,12.50488,8.63632,0.26969,-20.86067,-6.21326,7.51574,0.44198,-1.07624,5.315,-1.68547,-1.1749,-1.27608,0.62608,0.09177,-0.11744,1.69819,-0.86612,-0.18431,0.11426,-0.00882,0.04768,0.22408,-0.13919
1199,0.49445,0.079,-0.0408,0.16937,2.48512,0.16289,5.74582,-1.13999,0.3948,3.68112,5.26459,2.76775,0.76005,-0.36616,0.00106,0.59868,0.09429,0.04244,12.27096,-1.90407,11.12269,-5.47477,-18.69577,-0.47856,6.07305,0.49962,0.05961,7.00703,-1.91666,-0.67193,-1.86651,-0.86177,0.43895,-0.79445,1.61024,-0.9147,-0.3942,-0.26467,0.05101,-0.10619,0.14136,-0.10444
1200,-0.4359,0.74744,-0.07583,0.29995,1.07042,-0.06292,0.61231,-1.71136,0.43287,6.5695,2.39168,0.10378,0.68486,-0.19145,0.01236,0.72487,0.05797,-0.10325,10.48353,-8.39156,6.53264,-14.03868,-18.83065,3.54706,6.24385,-0.51458,-0.27922,6.59819,-0.59049,0.78365,-1.55217,-0.97657,0.41005,-0.46931,0.86011,-0.36752,-0.31766,-0.31598,0.05291,-0.10857,0.04092,-0.01863
1201,-2.68295,1.19657,-0.16462,-0.95865,-0.84707,-0.12405,-9.8718,1.94327,-0.74766,7.0424,0.11646,-1.84635,0.42054,-0.10544,-0.0381,0.42692,-0.0518,-0.22657,-0.43968,-5.18724,-1.85095,-13.38807,-17.00342,1.72004,7.69936,-2.27594,-1.61896,4.70545,0.50041,1.39201,-0.52327,-0.15036,0.13548,0.5327,0.30634,0.16505,-0.08068,-0.03581,0.00678,0.00098,-0.01892,0.02018
1202,-3.89858,0.83441,-0.11969,-1.14726,-2.53152,-0.16449,-14.97056,4.54564,-0.99042,7.90573,-3.08914,-2.83392,0.17246,-0.17467,-0.12225,0.19743,-0.18779,-0.30624,-4.74278,-1.49894,-7.10352,0.21589,-9.87601,-2.0389,7.73934,-2.42705,-1.37928,3.3484,0.35201,0.7798,0.92385,-0.36167,0.0128,1.24937,0.41501,0.2751,0.07612,0.2161,-0.03118,0.07988,-0.00544,-0.00392
1203,-3.21904,-0.29092,0.16535,0.316,-2.40732,-0.27015,-11.87996,1.34403,0.56631,12.55476,-3.35916,-2.36635,0.22763,-0.37037,-0.13095,0.49191,-0.24819,-0.33484,4.01834,-2.06022,-5.44868,16.54934,-0.62933,-2.21933,5.17854,-0.13883,0.77591,3.58601,-0.46242,0.1106,1.87134,-1.55332,0.12879,1.14175,0.78334,0.13273,0.05084,0.19643,-0.02191,0.06628,0.05365,-0.01964
1204,-1.92004,-0.95493,0.43026,2.35413,0.29835,-0.34717,-5.14629,-4.09207,2.02371,22.35306,2.68019,0.13518,0.51823,-0.49563,-0.00597,1.0556,-0.18138,-0.28107,23.07038,-1.90398,0.72543,22.12817,4.99778,1.70778,1.79781,2.33432,2.63259,4.61671,-0.93819,0.15883,1.80297,-2.24308,0.29888,0.47116,0.89428,-0.02334,0.01047,-0.05137,0.03552,0.00824,0.10456,-0.00642
1205,-1.20678,-0.06911,0.30255,4.16897,3.58833,-0.37738,0.59441,-3.49286,1.38217,32.88343,10.82796,3.07078,0.66034,-0.39093,0.14393,1.29338,-0.04212,-0.13847,42.21664,4.79322,5.46597,10.6438,1.21319,6.49948,1.52652,2.63719,2.55554,5.49504,-0.67395,0.6926,1.09186,-2.02806,0.40311,-0.22543,0.75877,-0.19723,0.08551,-0.28601,0.08075,-0.04941,0.12938,-0.01565
1206,-1.10616,1.64388,-0.14674,4.74177,4.82558,-0.38759,2.04514,4.58206,-0.63624,34.78326,15.61928,4.11318,0.53637,-0.19453,0.15835,1.04723,0.08037,0.05386,45.30398,18.06023,5.79031,-8.1818,-11.15158,7.75583,5.59043,0.94454,0.87656,6.13228,-0.29051,1.14309,0.18365,-1.36693,0.41375,-0.56122,0.61079,-0.32148,0.16218,-0.30789,0.05779,-0.09647,0.12052,-0.04447
1207,-1.21944,2.03072,-0.38348,3.81881,3.96622,-0.38757,-1.28247,9.4547,-1.49227,26.6265,16.07733,2.71073,0.40049,-0.16789,0.02475,0.71243,0.15932,0.22235,30.64006,25.77334,3.39064,-13.78027,-20.91504,3.41754,9.21831,-1.04848,-0.77345,6.42098,-0.79785,0.77574,-0.53508,-0.9277,0.35343,-0.37482,0.758,-0.33167,0.08809,-0.22675,0.00932,-0.11309,0.09654,-0.05648
1208,-1.34101,0.49825,-0.16222,2.48927,2.44119,-0.37245,-5.75683,3.41312,-0.3464,18.11399,12.58758,0.0319,0.43531,-0.3284,-0.1202,0.65701,0.17493,0.25709,15.85786,16.5563,0.59215,-0.93219,-20.79686,-2.99777,7.80479,-1.95589,-1.05301,5.77064,-1.87239,-0.45531,-0.46493,-1.19652,0.16816,0.40363,1.26869,-0.25419,-0.06413,-0.254,-0.02562,-0.0252,0.10992,-0.05032
1209,-1.24003,-0.98381,0.14125,1.68268,1.4274,-0.31576,-6.00731,-5.38583,1.01457,17.39611,7.90359,-1.62986,0.57791,-0.46076,-0.14838,0.82699,0.13389,0.13179,16.98137,2.12693,-0.71826,10.44523,-16.25534,-5.78162,3.36224,-1.13429,-0.14485,4.04681,-1.77113,-1.21402,0.35168,-1.69496,-0.18728,1.47406,1.64858,-0.04117,-0.13191,-0.28393,-0.08566,0.19558,0.17678,-0.01933
1210,-0.91728,-0.82093,0.16534,2.05327,0.97384,-0.32453,-1.26939,-6.47954,1.02324,23.13518,4.80109,-1.56025,0.67752,-0.41706,-0.05723,0.98641,0.05194,-0.05456,31.2672,-2.21041,-0.53168,4.83312,-13.40389,-2.23048,0.6722,1.04781,0.94112,2.5354,0.17917,-0.32146,1.19686,-1.58527,-0.48958,1.68979,1.40229,0.17084,-0.05533,-0.13139,-0.15206,0.34351,0.241,0.02944
1211,-0.98927,0.33813,-0.01742,3.20991,1.13588,-0.45136,1.55504,-1.47608,-0.09246,27.79982,4.9864,-0.61792,0.62737,-0.26132,0.04854,0.96796,-0.03427,-0.15631,39.42814,2.37923,-0.50564,-9.7483,-13.61894,5.60422,1.45431,2.94296,1.25373,3.4384,2.23478,1.68252,1.59114,-0.60294,-0.45533,0.39251,0.71107,0.06573,0.1378,0.10005,-0.12049,0.2108,0.22517,0.04885
1212,-2.00724,0.72463,-0.13589,3.07252,2.15809,-0.4266,-3.55433,1.66415,-1.4255,26.50085,8.96676,0.90674,0.41503,-0.16473,0.05614,0.69142,-0.04386,-0.11814,29.04663,9.32063,-1.09024,-18.46486,-18.99804,11.53423,4.76149,2.73952,0.42799,7.21131,2.23579,3.07726,1.16333,0.6688,0.01096,-0.76358,0.26324,-0.1824,0.27566,0.1899,0.05205,0.01226,0.11442,0.03835
1213,-3.16223,-0.00404,-0.09672,0.41499,3.00673,0.01062,-10.51205,1.10645,-2.22035,20.91894,12.40587,2.67205,0.19311,-0.19845,-0.01532,0.23683,0.06218,-0.0241,12.73757,14.60735,-0.58614,-16.057,-26.2196,11.33425,8.09296,0.51092,-0.43354,10.56643,-0.0261,2.53545,0.37617,0.71939,0.67958,0.15476,0.40298,-0.08637,0.26773,0.0545,0.2383,0.07815,-0.05155,0.04761
1214,-3.01431,0.02085,-0.08587,-2.65825,3.1952,0.63236,-8.14486,3.20174,-1.99447,16.26745,12.32801,3.93645,0.19527,-0.27096,-0.02724,-0.05788,0.25773,0.08346,12.38982,20.24354,2.69946,-8.47968,-24.16816,7.79623,8.31028,-1.51548,0.18285,9.77789,-2.59208,0.47475,0.28124,-1.17676,1.08433,1.8646,0.74263,0.14276,0.21301,-0.22363,0.26615,0.25321,-0.17587,0.04276
1215,-1.7648,1.55653,-0.18682,-2.74648,2.99317,0.80018,0.81713,9.95998,-0.86037,16.73032,10.47276,3.55811,0.44307,-0.30312,0.05214,0.17084,0.37172,0.16882,27.55508,27.10034,5.76475,-2.52441,-9.84856,5.07695,5.19944,-1.51523,1.50563,6.30445,-3.42474,-1.28117,0.73064,-2.99497,0.81259,1.764,0.96461,-0.11644,0.1274,-0.34737,0.09906,0.20262,-0.12911,-0.04105
1216,-1.24226,2.25079,-0.11953,0.15227,1.726,0.23429,1.10771,11.7382,0.76738,20.76657,7.05994,0.72279,0.69057,-0.34425,0.07942,0.77642,0.1908,0.08371,32.98973,23.76029,3.28677,4.55643,5.52647,3.77218,2.10804,-0.36265,1.5573,4.92772,-2.42368,-1.45023,1.24574,-2.7562,-0.00437,0.23192,1.29973,-0.6776,0.04676,-0.17412,-0.11706,0.03841,0.08484,-0.12414
1217,-2.31353,0.98443,0.18694,2.43836,0.13922,-0.45639,-11.40534,3.40085,2.20771,22.6349,3.69331,-2.39724,0.70995,-0.37957,-0.00486,1.10553,-0.13947,-0.12962,15.64482,6.87923,-2.78713,12.4568,7.96612,3.6288,1.77103,0.16321,0.51032,6.27989,-0.87591,-0.2559,1.71844,-1.46748,-0.51206,-0.66929,1.59302,-0.75916,0.06951,-0.0184,-0.1555,-0.00359,0.25809,-0.07428
1218,-3.38681,-0.05115,0.26984,2.10349,0.62008,-0.52042,-20.99708,-4.8466,2.05698,21.03643,5.33037,-2.17307,0.50931,-0.30599,-0.08146,0.82757,-0.22599,-0.17585,-2.10952,-3.26349,-4.73179,11.05769,-6.1831,3.91483,3.84717,0.27902,-0.23738,6.52747,0.34287,1.26925,1.36484,-0.41905,-0.24163,-0.55761,1.18737,-0.17637,0.09158,-0.01514,-0.00872,0.00218,0.23036,0.07153
1219,-2.77245,0.17082,-0.04912,1.12684,2.65567,-0.12356,-14.70427,-4.21441,-0.07337,21.18029,10.63408,0.71936,0.29285,-0.19764,-0.07937,0.42003,-0.03793,-0.01625,6.14516,5.60594,-1.40011,0.45914,-24.95671,3.16017,6.19878,1.12799,-0.30341,4.4199,0.95629,2.10734,0.15648,0.34274,0.16744,-0.08841,0.32456,0.48791,0.0301,0.04743,0.08153,-0.02173,0.11164,0.16282
1220,-0.87394,0.1817,-0.25912,1.76609,3.36718,0.01404,0.48843,0.4163,-1.92444,26.61627,12.82111,2.00329,0.28152,-0.20234,-0.0152,0.46287,0.11195,0.07874,35.10835,18.02741,0.82805,-8.58255,-31.36164,1.35702,6.94056,2.07165,0.18895,3.20384,0.56783,1.75586,-0.48812,0.15937,0.19519,0.5063,0.04513,0.64278,-0.01819,0.05723,0.02259,0.00678,0.05571,0.13143
1221,0.66538,-0.66242,-0.00811,3.18777,2.33845,-0.20842,8.99212,1.11131,-1.49127,32.90422,10.43667,0.44906,0.47605,-0.28472,0.09855,0.77857,0.11966,0.038,56.09286,17.37338,-1.16606,-12.8024,-18.88577,-1.42435,6.17817,1.2624,0.67292,4.70657,-0.80215,0.39491,0.0279,-1.27639,0.06717,1.19139,0.72843,0.2403,-0.03933,-0.19673,-0.04288,0.11697,0.06315,0.02204
1222,0.90833,-1.04623,0.29303,3.13458,1.34897,-0.28468,6.26119,-1.45099,-0.04188,31.84438,6.56629,-1.26143,0.69524,-0.3427,0.20521,0.80247,0.122,0.01535,51.23971,6.75681,-3.59301,-11.47588,3.93298,-5.09775,5.71948,-1.16172,0.54944,6.22357,-2.19764,-1.33757,0.99776,-2.76807,0.05724,1.75583,1.78638,-0.287,-0.04116,-0.49006,-0.03219,0.21681,0.10603,-0.08644
1223,-0.18195,0.29609,0.12208,1.10117,1.14558,-0.04505,-0.75447,-1.16278,0.31414,21.45445,2.68947,-1.72614,0.76481,-0.31809,0.20785,0.49212,0.14947,0.03653,28.45543,-2.27066,-3.10909,-1.08045,19.97165,-6.72659,6.29059,-2.69569,0.30142,5.25022,-2.59894,-2.38776,1.42825,-3.12177,0.28829,1.68469,2.27382,-0.54382,0.0036,-0.52365,0.04002,0.16629,0.15437,-0.14478
1224,-1.67918,2.41079,-0.34135,-1.43482,1.37565,0.21145,-5.33643,3.64186,-0.15598,8.00003,0.02989,-1.82294,0.63006,-0.2219,0.08413,0.27506,0.13017,0.0314,5.36807,-3.82755,-0.72742,13.34302,16.61865,-2.67761,6.3882,-1.60639,0.48435,3.45324,-1.65279,-1.71363,1.03862,-2.10702,0.5466,0.74908,1.70103,-0.51319,0.05108,-0.29242,0.11634,-0.03118,0.14617,-0.14799
1225,-2.12515,2.64866,-0.49015,-2.36621,1.59765,0.24785,-4.93022,6.70999,-0.05558,0.36431,0.52774,-1.59639,0.41008,-0.2156,-0.10024,0.38587,0.0771,0.00744,-4.58716,-0.64315,2.28699,18.18479,-2.87364,6.48594,4.58953,1.17183,0.80512,3.83759,0.13349,0.37822,0.33048,-0.41214,0.42239,-0.34263,0.74889,-0.43481,-0.00562,0.04559,0.11297,-0.16659,0.11829,-0.12395
1226,-1.73629,0.33826,-0.14708,-0.57885,1.36599,0.04899,-0.71778,2.10502,0.71651,4.63614,3.66328,-0.58769,0.27158,-0.37294,-0.22903,0.65177,0.05439,-0.01145,5.76096,0.74974,5.23753,6.23179,-21.65574,14.98978,2.1317,3.04391,0.95174,6.51858,1.44333,2.2651,-0.17504,0.55272,0.07856,-0.52066,0.4315,-0.34423,-0.11542,0.22885,0.03799,-0.06872,0.15947,-0.07705
1227,-1.81785,-2.03296,0.29832,2.49693,0.71328,-0.28207,2.07225,-6.21677,1.25265,17.35914,6.66224,0.12207,0.30624,-0.49843,-0.20054,0.85692,0.04806,-0.0467,26.5636,-0.24245,5.50501,-11.20921,-25.12449,15.77593,1.65222,2.3773,0.83385,8.45574,1.19955,2.74986,-0.25875,0.10525,0.00904,0.22737,0.58365,-0.03341,-0.10295,0.11029,-0.01057,0.15015,0.19757,0.0185
1228,-2.11108,-2.32498,0.45955,3.91297,0.5453,-0.48372,-0.16679,-8.69854,1.09655,26.11635,8.27712,-0.31364,0.49681,-0.44533,-0.05882,0.957,0.02496,-0.06373,35.08391,3.30216,2.30569,-12.00757,-15.63866,7.58669,3.61586,0.37764,0.56819,7.03293,-0.18424,1.90805,0.31911,-1.0342,0.17409,0.86423,0.45118,0.40789,0.0687,-0.12448,-0.00687,0.23132,0.10613,0.12648
1229,-1.64291,-0.73841,0.2509,2.55208,0.81722,-0.35295,-4.11939,-1.69097,0.35592,24.02057,7.41022,-1.04331,0.67617,-0.29736,0.04743,0.87836,-0.01922,-0.03647,26.11178,12.41991,-1.22774,5.28798,-8.03809,-2.97533,5.57503,-0.46216,0.36925,3.49346,-1.19298,0.54082,1.20376,-1.56998,0.13968,0.93833,0.21848,0.5465,0.22065,-0.18412,-0.0172,0.13165,-0.02152,0.13691
1230,-0.94975,1.54347,-0.20665,0.64524,0.32529,-0.10542,-4.95733,9.34211,-0.73144,17.73461,3.72517,-0.93377,0.64991,-0.16254,0.05428,0.6476,-0.08423,-0.06627,17.10802,19.48478,-2.25143,15.56718,-10.9283,-7.14477,5.6339,0.16388,0.10478,1.87348,-1.09149,-0.33231,1.70367,-1.09997,-0.2206,0.86005,0.41978,0.25059,0.24764,-0.06832,-0.07564,0.02225,-0.04114,0.03204
1231,-0.89733,3.01261,-0.59998,0.88583,-0.54546,-0.09233,-2.3004,14.7234,-1.48445,16.99727,0.8205,-0.17903,0.47237,-0.11279,0.00314,0.56983,-0.1033,-0.17872,20.82176,19.0616,-1.04525,5.5637,-18.12792,-1.24556,4.78324,0.34646,-0.20221,4.37865,-0.40884,-0.16343,1.8419,-0.79702,-0.49752,0.71324,1.07514,-0.24187,0.24171,-0.07074,-0.11809,-0.00315,0.04388,-0.07551
1232,-0.42524,2.6042,-0.62051,2.73564,-0.14803,-0.28472,3.42106,9.47162,-1.12625,22.9675,1.46518,-0.35292,0.40869,-0.1714,-0.01849,0.72252,-0.01203,-0.20529,35.30091,11.75577,-0.40907,-8.88225,-19.91294,8.95683,4.20074,-0.14331,0.02247,8.41545,0.1652,0.63746,1.52995,-1.24291,-0.27727,0.26767,1.71588,-0.62343,0.16739,-0.21995,-0.0644,-0.00059,0.15587,-0.10017
1233,1.19296,0.74582,-0.25181,3.63943,2.10069,-0.35442,9.4202,-2.33909,0.20283,28.92556,5.50838,-1.55878,0.52011,-0.25774,0.04591,0.81274,0.16072,-0.01509,48.48138,2.95472,-1.81817,-9.74256,-12.49599,11.63398,3.81226,0.25158,0.8498,9.68444,0.17546,1.17401,0.30465,-1.38868,0.30624,-0.0568,1.7536,-0.56741,-0.12401,-0.21204,0.0719,0.00503,0.19724,-0.04243
1234,1.32213,-1.28446,0.24464,2.46256,3.9891,-0.16481,5.35843,-11.72587,1.23275,26.66573,8.14962,-2.3467,0.5844,-0.33378,0.10714,0.73229,0.27534,0.22016,39.09139,-5.43769,-4.66588,4.26477,4.76331,1.64126,4.50681,0.8225,1.15147,7.51764,-0.44781,0.94731,-0.67334,-0.97296,0.66668,0.56805,1.29746,0.00195,-0.36566,-0.06398,0.16874,0.11359,0.14879,0.06348
1235,-1.96758,-2.30841,0.52588,0.32353,2.9821,0.0754,-11.80652,-11.66335,0.8053,15.12325,4.19087,-2.27887,0.49047,-0.42393,0.05058,0.65125,0.21581,0.22145,2.95916,-12.86615,-7.70589,21.99628,22.06279,-11.48648,6.82812,-0.41785,0.03242,4.38503,-0.9851,0.21594,0.27324,-0.83254,0.42036,1.87582,1.01901,0.60217,-0.11847,-0.08657,0.12915,0.33704,0.12735,0.14248
1236,-5.29223,-1.72868,0.40277,-1.4933,0.49256,0.21533,-24.02666,-3.3414,-0.55044,1.83812,-1.32092,-1.21358,0.4097,-0.47638,-0.05,0.60269,0.0688,0.02937,-27.94855,-11.69053,-6.74459,27.39807,17.88854,-13.64888,8.39935,-2.40391,-1.63001,2.47022,-0.6607,-0.09325,2.15822,-0.82687,-0.18743,2.27123,0.83129,0.65595,0.42917,-0.22799,-0.003,0.41949,0.13173,0.11552
1237,-4.63008,-0.09471,-0.00949,-2.77226,-0.12364,0.3445,-14.9591,4.53117,-1.34694,-5.68708,0.76742,1.24839,0.46954,-0.41903,-0.05253,0.46909,0.0077,-0.07813,-24.89314,1.63416,1.7212,13.05726,-8.28632,-2.76339,6.66731,-2.39186,-1.93731,2.69853,0.16326,0.76399,2.63452,-0.53749,-0.54708,0.81155,0.00961,0.17932,0.62206,-0.18915,-0.10297,0.12199,-0.02803,0.00475
1238,-1.53223,1.17041,-0.37088,-2.61123,1.43004,0.39086,4.36429,5.82066,-1.32252,-1.98852,9.20203,3.68287,0.51565,-0.26464,0.01613,0.34655,0.05562,-0.02074,4.17032,17.83478,11.12227,-8.00455,-26.38873,9.36613,2.85757,-0.31507,-0.41809,4.1488,0.38426,1.79495,1.35233,-0.43502,-0.3536,-1.35995,-0.937,-0.40758,0.21858,0.0203,-0.09475,-0.39667,-0.2876,-0.11523
1239,-0.2904,1.27587,-0.46662,0.15677,2.80344,0.14208,11.53007,3.35348,-1.33104,14.62687,14.36669,3.65126,0.38978,-0.1109,0.02584,0.45689,0.12329,0.04511,34.50257,25.54039,10.4092,-14.944,-18.01666,11.47287,0.97416,1.17431,1.00566,4.7308,-0.28974,1.23145,-0.13901,-0.691,0.07097,-2.03561,-0.50813,-0.71995,-0.34039,0.13804,-0.01098,-0.64695,-0.26942,-0.19039
1240,-1.62212,0.53529,-0.29376,3.73216,2.64233,-0.25061,2.42025,1.32735,-1.22623,32.87763,11.08105,1.1658,0.22837,-0.09203,-0.03799,0.7216,0.14207,0.01816,47.59941,19.54384,0.58389,-1.06011,0.43949,4.33265,2.58143,0.63339,0.76287,4.09287,-1.06981,-0.62448,-0.60146,-0.84824,0.25725,-0.14278,1.33458,-0.45066,-0.51476,0.05661,0.05433,-0.28753,0.1174,-0.14992
1241,-2.65888,-0.19826,0.01214,4.11499,1.74427,-0.37002,-8.29132,-0.36287,-0.06734,33.65971,4.87737,-0.98801,0.29578,-0.25684,-0.06162,0.84048,0.08957,-0.04871,35.69597,5.73938,-5.37532,18.99784,4.45438,-4.0665,5.01666,-0.19203,-0.02294,3.71374,-1.20041,-1.76872,-0.27446,-0.81959,0.21212,2.74672,2.90189,0.2403,-0.27115,-0.10014,0.05194,0.41443,0.50628,0.00871
1242,-1.96609,0.0597,0.15059,0.50484,1.85305,-0.11087,-9.75135,-1.6761,1.74701,14.09077,5.47624,-0.45174,0.59048,-0.4499,0.01879,0.76384,0.0449,-0.046,7.31174,-0.06166,-0.22941,25.40669,-6.94678,-8.73604,6.13176,0.36408,-0.13521,4.25283,-0.70177,-1.23024,-0.07076,-0.55515,0.16132,3.9206,2.87486,0.68317,0.06316,-0.16269,0.01344,0.83316,0.55968,0.15277
1243,-1.27587,0.88287,0.07167,-3.09527,3.32915,0.22531,-6.23942,-2.48306,2.72975,-5.52652,13.24612,2.18208,0.78286,-0.46388,0.11397,0.67578,0.10971,0.05384,-15.36136,7.11795,8.97976,18.01489,-15.11771,-8.74085,7.10195,0.91551,-0.22578,5.02419,-0.27285,0.00596,-0.24415,-0.16798,0.19213,2.72437,1.70093,0.52351,0.26853,-0.17232,0.00043,0.68085,0.33105,0.1583
1244,-1.72091,0.45768,0.12605,-3.27788,4.02992,0.36592,-3.33739,-4.27925,2.24738,-7.13832,17.1817,4.17155,0.64241,-0.31272,0.10007,0.57387,0.1973,0.1343,-13.94614,12.96358,12.36115,11.87344,-11.26101,-3.95958,8.57451,-0.24864,-0.60662,5.3433,-0.46488,0.66999,-0.10282,-0.49081,0.34041,0.86278,0.69922,0.13605,0.32009,-0.29712,0.048,0.20731,0.08813,0.06178
1245,-2.13522,-1.04666,0.34806,-0.32229,2.38837,0.21498,0.86623,-5.93086,1.11642,6.33416,10.69534,3.41722,0.38163,-0.18473,0.00558,0.50171,0.13867,0.0768,10.03256,6.849,8.70748,11.85451,-5.0762,4.00592,8.40435,-1.82639,-0.42624,5.5281,-0.98872,0.75523,0.85461,-1.59919,0.4833,-0.0326,0.40334,0.00418,0.24172,-0.42071,0.11046,-0.1468,-0.03685,-0.00093
1246,-1.97113,-1.65463,0.35794,3.31512,-0.01868,-0.1255,5.75517,-5.2273,0.33167,20.31471,0.60276,0.80889,0.34644,-0.23362,-0.06079,0.69254,-0.02837,-0.07185,35.08463,-4.49934,3.31911,11.95051,-4.58559,10.3977,5.51886,-1.55291,0.28625,6.15605,-1.21123,0.70779,1.78925,-1.9364,0.34241,0.26368,0.57966,0.05297,0.08217,-0.23504,0.10173,-0.13366,-0.05122,0.00241
1247,-1.99839,-1.00495,0.04991,4.41197,-1.11411,-0.24223,6.76282,-3.30263,-0.36485,23.55934,-4.39492,-0.55039,0.48465,-0.38937,-0.07342,0.88294,-0.10118,-0.14977,40.40924,-9.85443,1.03969,11.58448,-6.69093,10.88828,2.19176,0.33835,0.52093,6.38046,-0.8629,0.44263,1.45791,-0.70319,-0.0542,0.9045,0.97506,-0.07303,-0.0793,0.17556,0.01589,0.09423,0.03781,-0.01773
1248,-3.11392,0.11305,-0.28216,1.74691,-0.49617,0.05521,-0.96295,-2.27798,-0.99747,14.11366,-2.22061,0.49384,0.50284,-0.39638,-0.03108,0.66438,0.00236,-0.06948,17.91101,-6.2754,2.0496,14.53572,-6.6585,6.71224,1.02234,2.0403,0.34436,5.15367,-0.00483,0.34468,0.37174,0.4707,-0.36052,0.70099,1.00511,-0.33141,-0.17341,0.37648,-0.07968,0.12781,0.11162,-0.08051
1249,-5.26543,0.91911,-0.22265,-2.11683,1.47151,0.32303,-18.05223,-3.38101,0.02765,-1.62519,5.90839,1.75584,0.39003,-0.24071,0.05167,0.41558,0.15802,0.09661,-25.31027,1.24646,3.57217,17.93809,-2.79473,2.87102,2.32965,2.41559,0.57345,3.96752,0.77315,0.98227,0.25851,-0.06955,-0.36293,-0.48163,0.39074,-0.43764,-0.18489,0.20713,-0.10867,-0.1643,0.02532,-0.11126
1250,-6.34635,0.45091,0.29481,-3.62772,3.28897,0.18719,-30.14857,-6.20905,2.37573,-10.73754,13.89203,1.26422,0.36177,-0.20066,0.10062,0.56359,0.20715,0.18779,-53.44357,5.90448,3.91345,15.57862,3.2257,2.53116,4.76172,1.50707,1.28317,4.57911,0.54618,1.47001,1.30928,-1.84135,-0.03032,-1.12909,0.08799,-0.3219,-0.15479,-0.10679,-0.04464,-0.41064,-0.09241,-0.08153
1251,-4.5603,-0.47793,0.54892,-2.16445,2.75035,-0.10161,-19.40296,-6.9835,2.7163,-3.50923,12.06183,-0.62349,0.46773,-0.29377,0.11048,0.77776,0.1117,0.11097,-28.66609,3.61901,2.81827,9.73216,5.812,5.32075,6.54593,0.51245,2.0598,5.60669,-0.56142,0.74417,2.27412,-3.30401,0.42475,0.10522,0.83603,0.021,-0.05331,-0.28952,0.03096,-0.1941,-0.00874,-0.00057
1252,-0.68999,-0.65687,0.24525,-0.22476,0.54685,-0.19004,9.73732,-5.47432,1.1754,11.69464,2.14889,-2.39846,0.6257,-0.33761,0.12145,0.80442,-0.01269,-0.03291,31.24911,-4.94409,2.74467,7.36956,2.16975,7.25118,6.35178,0.16952,1.94519,5.13851,-1.18607,-0.61064,2.63489,-3.18187,0.39258,2.26058,2.03101,0.35608,0.18908,-0.22582,0.00575,0.36764,0.27713,0.07788
1253,1.50914,-0.53247,0.03061,0.15872,-0.32457,-0.12952,29.56096,-5.53601,1.15587,17.34632,-3.19385,-2.84249,0.68642,-0.33844,0.08876,0.90092,-0.03471,-0.10331,63.89088,-12.12348,5.73334,10.08352,-3.77291,3.94225,4.19474,-0.21508,0.32324,4.06639,-0.84039,-1.47628,2.76895,-1.45994,-0.3365,3.29894,2.78727,0.28482,0.47401,-0.03201,-0.09392,0.76431,0.53928,0.07481
1254,-0.80637,-1.12809,0.27122,-0.50804,0.75866,-0.03045,21.55584,-7.90563,2.14745,9.53143,0.05,-1.30412,0.51313,-0.40772,-0.04077,1.01094,0.05575,-0.08458,40.37331,-11.00129,9.20253,17.67268,-5.89737,-2.26178,1.64352,-0.78139,-1.25351,4.2515,-0.53074,-1.58748,2.66402,0.11944,-0.91207,2.63344,2.88051,-0.14758,0.55353,0.02712,-0.11499,0.67675,0.56301,-0.00368
1255,-4.98433,-2.29992,0.59048,-0.71957,1.34244,0.17012,-1.81253,-9.47912,0.88874,0.34122,3.08237,1.64018,0.22356,-0.50376,-0.17247,0.72522,0.14094,-0.044,-3.48365,-5.89888,8.69236,29.32441,1.13887,-5.00293,1.60828,-0.77383,-1.2648,5.79054,-0.70956,-0.81482,1.66209,0.28267,-0.64854,1.42072,2.26451,-0.33032,0.27322,-0.03664,-0.03938,0.26633,0.31297,-0.04873
1256,-6.31634,-2.91195,0.64807,0.279,0.33366,0.38555,-16.11422,-9.21014,-1.92881,3.14244,1.31595,3.95173,0.10154,-0.48348,-0.15679,0.1682,0.11327,-0.02299,-16.88572,-5.63252,3.19721,36.78716,15.43124,-3.21078,5.57055,-0.34275,-0.51235,7.56279,-0.83624,0.56896,0.07586,-0.43589,0.01202,1.12217,1.38189,0.08381,-0.14588,0.02144,-0.021,-0.00238,0.02437,0.00878
1257,-4.4634,-2.69267,0.68862,1.95501,0.35761,0.3891,-12.18117,-10.71448,-1.99128,16.32659,2.13505,4.13341,0.24119,-0.37069,-0.02754,0.0023,0.06782,0.05134,7.33952,-9.97783,-1.16817,31.78703,22.93349,0.56045,9.72118,-0.0682,0.05279,8.37567,-0.91797,1.17629,-0.30284,-1.1658,0.38756,1.64463,1.19775,0.54168,-0.23676,0.14981,-0.06386,0.07651,-0.01141,0.10717
1258,-2.25482,-1.03222,0.56884,2.3793,2.27197,0.13987,1.51394,-12.07444,1.93992,22.16843,7.84405,2.05057,0.49405,-0.20726,0.10591,0.49427,0.08236,0.14659,32.28537,-10.62086,1.89538,20.83059,14.20418,5.3717,8.81041,0.01146,0.43723,7.43485,-1.19393,0.41638,1.36575,-1.41423,0.33736,1.34876,1.62305,0.32212,0.13557,0.08371,-0.00642,0.2037,0.17338,0.13123
1259,-1.56906,1.10279,0.20226,1.03092,3.30624,-0.19006,10.61592,-10.41898,6.05317,13.63671,10.16487,-1.05726,0.61715,-0.07637,0.13968,1.13616,0.07639,0.1089,31.50842,-8.15961,7.9214,15.89271,2.33839,8.52322,3.89412,-0.11149,0.73027,5.37494,-1.0534,-0.44689,2.70777,-1.18288,0.34184,0.00893,1.78162,-0.34093,0.36935,-0.18764,0.18674,0.13179,0.3381,0.05034
1260,-2.7698,0.64084,0.28279,-0.24215,1.90389,-0.32758,7.13411,-11.03557,6.14658,3.05095,4.59401,-2.65281,0.45409,-0.15826,0.02127,1.27108,0.00752,-0.05389,13.57094,-13.15922,8.12469,21.15517,7.20016,5.21576,0.70737,-0.01007,1.0282,3.4997,-0.38886,-0.78682,1.94194,-0.98729,0.56166,-0.15965,1.86923,-0.54554,0.08665,-0.33118,0.3143,0.0298,0.40474,-0.05892
1261,-3.38673,-1.88765,0.8481,-0.26642,-0.9218,-0.19597,-0.58611,-15.09761,2.61759,-1.36062,-4.32068,-1.61134,0.26781,-0.36769,-0.05378,0.917,-0.0941,-0.22368,-1.7271,-24.29426,3.99602,34.62199,23.4739,-3.74041,1.57097,0.74542,1.41669,2.37608,-0.60257,-1.30685,0.56616,-1.28253,0.57688,1.89256,2.2813,0.08179,-0.27447,-0.20008,0.18962,0.09741,0.34969,-0.08577
1262,-2.27174,-2.69354,0.90897,0.67177,-2.66888,-0.00245,-2.63919,-14.65757,-0.71746,1.11013,-8.0417,0.39026,0.33462,-0.45364,0.04334,0.59354,-0.13323,-0.26016,-3.26316,-24.91962,1.62036,46.71943,26.59694,-10.59188,4.08566,1.10634,1.45033,2.81664,-1.88765,-1.59474,0.48874,-1.86715,0.26604,3.54377,2.18529,0.71853,-0.1931,-0.08464,-0.05498,0.20554,0.13193,-0.02784
1263,-1.76886,-0.72658,0.05733,1.51072,-1.46796,0.13094,0.01397,-6.69293,-1.77779,10.69079,-3.18785,1.26603,0.5001,-0.36858,0.14046,0.48215,-0.02383,-0.07673,10.52089,-9.64303,0.47256,45.48452,10.23591,-8.95878,5.87693,-0.11554,0.76256,5.34468,-1.73132,-0.25586,2.28505,-2.38213,-0.08884,2.39564,1.1276,0.48647,0.40304,-0.29168,-0.1441,0.17853,-0.06758,0.01544
1264,-2.89376,1.53252,-0.95152,0.7606,1.33978,0.24923,0.92219,2.374,-1.9362,19.74969,3.63583,0.41485,0.53811,-0.24517,0.09193,0.38607,0.15554,0.20098,24.28908,7.03205,-3.5249,34.07465,-4.4694,-2.52534,6.03212,-1.71261,-0.60644,7.4345,0.87573,1.62525,3.24904,-1.59855,-0.26467,0.41056,0.64235,-0.19915,0.69678,-0.41719,-0.0349,0.16395,0.05258,0.00933
1265,-4.82214,1.90633,-1.26325,-1.95124,2.7669,0.29653,-7.9334,6.13493,-3.2625,15.80028,4.81637,-1.4524,0.43511,-0.21286,-0.04538,0.22454,0.24686,0.33354,9.25782,11.78297,-10.81445,32.58226,1.93596,-0.80013,4.42863,-1.70826,-2.94481,5.04623,2.67696,1.16421,1.14259,1.90744,-0.76428,0.58922,1.69126,-0.31954,0.14033,0.23549,0.01195,0.30447,0.41261,0.00119
1266,-6.18909,0.71063,-0.79422,-4.58732,1.74813,0.13211,-23.08273,3.313,-5.08853,-0.09775,1.60885,-2.87747,0.35825,-0.2559,-0.1274,0.14629,0.19443,0.19766,-31.61002,5.0312,-15.29674,45.84643,22.95518,-5.57437,2.12747,-0.80065,-4.62519,-0.26601,0.8763,-1.38771,-1.7875,4.93936,-1.3643,1.97732,2.49375,0.10887,-0.57443,0.98192,-0.10303,0.37503,0.52641,-0.00243
1267,-6.27523,-0.15555,-0.25183,-4.13229,0.01764,-0.15145,-30.16376,-2.25541,-5.26442,-8.72015,0.02149,-2.73987,0.36532,-0.2297,-0.10403,0.32926,0.10282,-0.0587,-52.23396,-2.87614,-12.58237,51.87931,36.36091,-9.58781,0.92721,-0.63865,-2.93085,-1.67998,-2.52986,-2.67331,-1.8274,2.66228,-1.01812,1.65693,1.42349,0.16156,-0.5089,0.55752,-0.18178,0.12697,0.15494,-0.04698
1268,-5.61283,0.55416,-0.41029,0.00689,-0.48785,-0.25227,-24.55857,-4.514,-4.03281,4.42708,0.62381,-1.37324,0.35455,-0.10019,-0.03999,0.69564,0.08194,-0.1548,-24.93382,-3.71154,-8.30499,40.19056,32.9266,-8.94324,2.15209,-0.86055,1.26936,2.19785,-4.14053,-1.7999,1.71163,-3.2759,0.11014,0.00293,0.04991,-0.23717,0.34198,-0.67911,-0.11736,-0.25532,-0.30217,-0.08746
1269,-5.33697,1.88127,-1.07421,4.24494,0.31016,-0.03719,-15.25009,-2.18471,-2.99272,25.51697,0.72129,0.29692,0.28983,-0.08985,-0.02476,0.89883,0.09079,-0.02839,18.08683,0.92445,-7.53902,28.79955,23.53851,-5.94907,4.6624,-0.20348,4.88531,5.67252,-3.49301,-0.97326,5.02917,-7.32225,1.32868,-0.14333,0.6402,-0.21181,0.96799,-1.39305,0.06745,-0.35862,-0.32641,-0.02088
1270,-5.99769,1.97208,-1.2329,5.11537,1.49647,0.17581,-9.8288,-0.1824,-1.60646,30.60801,1.92757,1.38369,0.21174,-0.33536,-0.10426,0.89408,0.02906,0.09397,32.66861,5.89319,-6.15807,30.06732,20.83808,-3.07513,6.17869,1.13912,4.58388,5.93293,-1.89261,-0.509,4.79775,-5.51678,1.47409,1.35224,1.97768,0.50446,0.72722,-0.80261,0.17847,-0.07234,-0.0237,0.1562
1271,-7.02504,0.55825,-0.46259,3.83213,1.89685,-0.04584,-9.97303,-1.98128,0.80399,19.81779,4.82157,0.69607,0.15738,-0.61537,-0.23459,1.02305,-0.11592,-0.00935,17.01445,7.39802,-2.44092,31.4118,23.15779,-1.3228,6.34809,1.56118,-0.15411,5.61549,-0.08754,0.76574,1.70287,0.77548,-0.02951,1.90163,1.75644,0.89141,0.00153,0.50512,0.06158,0.32647,0.1991,0.27794
1272,-7.27772,-0.98219,0.42456,2.90008,0.8463,-0.5209,-15.61718,-3.90748,1.41702,10.49588,4.80674,-1.65819,0.21088,-0.71303,-0.30295,1.18481,-0.20587,-0.22636,-5.2855,5.24384,-3.14235,24.12965,22.19632,-0.10046,5.95437,0.25912,-4.43751,6.37894,1.37478,2.11693,-1.01284,4.70775,-1.45614,0.66086,0.46863,0.18818,-0.44362,1.02297,-0.11126,0.5098,0.28868,0.16194
1273,-6.48833,-1.56328,0.52841,1.51118,-0.55234,-0.64554,-24.5637,-1.73429,-2.3877,7.33763,0.557,-3.57997,0.37335,-0.68389,-0.26336,0.91738,-0.07946,-0.25581,-23.83377,2.88684,-10.95725,24.80132,20.66703,-0.00245,5.06255,-1.80688,-4.79828,6.2948,1.12583,1.72581,-0.68585,3.13852,-1.63836,-0.14821,-0.04872,-0.60706,-0.20142,0.40135,-0.20251,0.45678,0.3106,-0.05933
1274,-5.52615,-1.06754,-0.09719,-1.20863,-1.30394,-0.3387,-30.52593,2.67894,-7.60322,3.97828,-4.97354,-3.88405,0.44263,-0.58418,-0.20679,0.38325,0.15619,-0.10769,-36.40498,0.48052,-18.57446,46.21942,25.36042,-2.71206,3.62308,-2.86217,-2.77443,3.97777,-0.95135,-0.65937,1.34436,-0.04913,-1.06988,0.91559,0.99743,-0.4794,0.26119,-0.32045,-0.17609,0.31889,0.2803,-0.13001
1275,-5.76616,0.25198,-0.88492,-2.38023,-1.53282,-0.01965,-29.02658,5.80204,-9.05384,4.62909,-9.11229,-3.1613,0.2208,-0.37105,-0.24663,0.16809,0.2597,0.00073,-31.59904,-2.96349,-19.7858,68.18877,31.77674,-4.96875,3.26355,-1.85642,-0.57157,2.02112,-1.80016,-2.23992,2.61723,-1.37363,-0.21351,2.12261,2.41129,0.05406,0.41723,-0.44274,0.00426,0.11094,0.24426,-0.08226
1276,-6.66123,1.87294,-1.44673,0.49812,-0.98602,0.09124,-20.67929,6.99167,-5.76465,16.26857,-8.94969,-1.95074,-0.11414,-0.11616,-0.3254,0.44028,0.20964,0.03812,-4.18723,-2.95266,-15.55155,62.35332,31.90471,-3.57079,5.33703,0.17609,0.51083,3.00316,0.16611,-0.89738,3.14645,-0.84763,0.36195,1.95823,2.59513,0.3043,0.37885,-0.0816,0.17688,-0.12276,0.18285,-0.04762
1277,-6.44634,3.04856,-1.67767,4.11958,0.26968,0.09419,-9.88798,6.72813,-1.20022,26.94959,-3.44529,-0.42249,-0.22612,0.0032,-0.28406,0.82763,0.10745,0.06659,23.38525,3.52095,-8.61711,34.20451,24.76809,-2.64851,7.35347,0.91593,-0.09033,4.72869,1.47646,0.78143,3.24246,0.29113,0.10984,1.57264,1.89659,0.41644,0.2947,0.34968,0.13507,-0.16012,0.08547,-0.01894
1278,-5.50169,3.59576,-1.7347,3.55624,1.59328,0.16069,-4.80208,6.09318,0.72024,21.08118,4.36034,1.06497,-0.0967,-0.03294,-0.09689,0.85537,0.04009,0.12694,22.50904,13.3313,-2.07149,15.68966,15.63513,-4.69717,6.03464,-0.08028,-0.97887,4.45789,-0.4148,0.0178,2.71206,0.56668,-0.46562,2.04872,1.5412,0.58199,0.16437,0.43637,-0.04977,0.05141,0.02088,0.03466
1279,-5.44017,3.50822,-1.52533,0.34483,2.52248,0.25967,-12.18295,5.61536,-0.47742,6.53304,9.61271,1.62903,0.05858,-0.0691,0.11328,0.60985,0.05463,0.21656,-5.23588,20.32117,-0.43069,24.04389,14.57004,-4.86921,2.50451,-1.14522,-0.48689,3.375,-2.80626,-1.71106,2.4578,-0.68884,-0.53163,2.62713,1.74009,0.58034,0.19421,0.03628,-0.14195,0.29673,0.05419,0.07143
1280,-6.15333,2.62603,-0.78338,-0.26473,2.4904,0.14919,-26.29858,3.94229,-2.12884,1.03542,9.18002,0.54566,0.13141,0.00489,0.25437,0.60823,0.08397,0.21951,-32.08173,18.61594,-4.31054,48.71734,27.85106,-1.20761,0.38722,-1.59932,0.60516,3.15198,-3.10726,-2.3708,2.95009,-2.29321,-0.13626,2.59211,2.13061,0.34176,0.4259,-0.57603,-0.05117,0.41866,0.18797,0.06351
1281,-6.07777,1.61346,-0.01254,2.10919,1.0973,-0.19213,-30.02362,0.89392,-2.402,6.34904,3.21224,-1.5245,0.17375,0.14134,0.34475,0.90353,0.04036,0.05202,-33.06691,7.31784,-8.56363,69.30166,45.58662,0.33368,0.88996,-1.88963,0.13583,3.28043,-2.58536,-2.37818,2.76207,-2.07019,-0.01804,2.40413,2.52737,0.22759,0.46678,-0.83624,0.08934,0.43548,0.31893,0.06823
1282,-4.48855,1.64166,-0.09062,3.51262,-0.52748,-0.4095,-16.98675,-0.70671,-2.11624,12.69688,-3.45792,-2.68532,0.23094,0.25376,0.42971,1.03875,-0.01115,-0.14477,-8.75397,-4.39184,-9.22306,70.7409,49.36308,-3.89782,2.76857,-1.55961,-2.36652,3.49189,-2.65554,-2.38744,1.45009,0.79357,-0.76277,2.21404,2.78865,0.35184,0.18873,-0.34592,0.07303,0.34566,0.33779,0.11675
1283,-2.84386,2.76635,-0.95444,2.2584,-0.39396,-0.2261,-2.34965,1.06592,-2.79364,13.61782,-4.34207,-1.62649,0.26173,0.32516,0.48035,0.7708,0.05047,-0.14986,13.99421,-4.96668,-6.92604,52.1913,37.33667,-7.98734,4.77869,-0.06881,-4.46607,4.44104,-2.39378,-2.00268,0.42234,3.84728,-1.77404,1.3488,2.78419,0.24724,-0.14111,0.54888,-0.11333,0.11609,0.29577,0.12294
1284,-3.01315,3.7598,-1.67816,-0.267,1.07164,0.18023,-1.00015,3.84686,-4.07766,8.55721,-0.5971,0.49189,0.23482,0.31971,0.42246,0.32279,0.15276,0.01904,12.37779,3.22611,-4.16977,31.73034,28.09079,-6.08491,5.99809,1.56122,-3.37539,5.05137,-1.37582,-1.32303,0.71324,3.46464,-1.72899,0.18924,2.43158,-0.20282,-0.30585,1.00859,-0.27213,-0.08693,0.28345,0.0314
1285,-4.82447,4.04795,-1.83847,-2.51718,1.16033,0.38539,-8.97271,5.35749,-4.16557,2.5564,0.34366,1.20177,0.17668,0.20469,0.25125,0.08543,0.10889,0.11168,-4.20039,8.75012,-3.326,27.37245,29.92959,-2.67983,5.711,1.97857,0.41171,3.17695,-0.99298,-1.51353,1.92136,-0.39614,-0.43049,0.12645,1.95954,-0.53306,-0.22405,0.67808,-0.25908,-0.06509,0.29003,-0.1141
1286,-6.80074,3.64455,-1.56809,-3.32171,-0.57986,0.25462,-14.1333,5.37782,-2.45438,2.78168,-2.38436,0.28698,0.10846,-0.02829,0.02609,0.18749,-0.04497,0.00598,-10.33477,7.71238,-4.097,37.57029,29.69835,-4.29497,4.54716,1.31948,3.24713,0.08237,-1.67023,-2.86812,3.45649,-3.60795,0.68391,1.45183,2.15892,-0.47523,0.1849,0.07164,-0.121,0.12963,0.33191,-0.22495
1287,-8.3799,2.11509,-0.86418,-2.02073,-1.96498,0.00759,-14.12951,4.27997,-0.24364,10.16605,-3.53178,-0.4949,0.01962,-0.40654,-0.21688,0.44864,-0.10551,-0.16017,-0.78587,5.2133,-4.29022,49.14773,21.90781,-7.80015,3.94866,0.54466,2.60979,-0.087,-1.94527,-3.43686,4.0004,-3.09851,0.62149,2.85916,2.96059,-0.07474,0.583,-0.18859,3e-05,0.3235,0.40718,-0.18376
1288,-9.6298,-0.3744,0.20707,1.41328,-2.10608,-0.24731,-15.62486,1.20499,1.14639,20.49936,-2.80403,-0.99814,-0.03806,-0.84091,-0.41573,0.78176,-0.05358,-0.25394,9.56728,1.34439,-4.88776,52.23254,19.7125,-4.72951,3.65569,0.10166,-0.18119,3.86522,-0.6832,-1.36124,2.38361,-0.15059,-0.09583,2.57077,2.80461,0.29391,0.43204,-0.04271,0.04353,0.35232,0.38919,-0.00521
1289,-9.84622,-2.66699,1.28455,5.6871,-1.91957,-0.53645,-19.28811,-6.47352,1.74256,27.91435,-3.87641,-2.11887,0.02646,-1.07927,-0.44515,1.14048,-0.04379,-0.28795,11.61011,-10.82118,-6.66859,45.6573,30.35078,4.56922,2.818,-0.22177,-1.97684,8.31406,1.38223,1.88049,0.59279,1.66104,-0.60584,0.53013,1.40253,0.15594,-0.01442,0.11353,0.04813,0.19338,0.25777,0.1335
1290,-8.56088,-4.01742,2.02458,7.36104,-1.42749,-0.63611,-17.61827,-17.35406,2.20587,24.72775,-4.66807,-2.72204,0.13177,-0.99654,-0.29108,1.26375,-0.08935,-0.24815,7.16946,-25.24323,-5.22716,35.83808,43.0122,8.67451,2.38104,-0.55666,-1.82462,9.4658,2.5375,3.07899,0.39442,1.11043,-0.60901,-0.93008,0.66744,-0.24391,-0.18886,0.01753,0.03641,0.03366,0.17737,0.13523
1291,-6.15355,-4.23271,2.1496,4.19516,0.70863,-0.27191,-7.61289,-22.69759,2.38687,11.06344,1.65868,-1.04788,0.17561,-0.76403,-0.06887,1.01357,-0.00542,-0.0249,2.05673,-21.0232,1.36144,30.37288,43.91164,2.25522,2.86105,-0.79293,-1.37736,8.08445,2.18715,1.79409,0.42354,0.26306,-0.37123,-0.19381,1.55659,-0.25308,-0.04314,-0.13726,0.01261,0.04205,0.20601,0.08058
1292,-3.65308,-2.93676,1.4314,-0.75598,4.14445,0.33625,2.73418,-15.96717,1.18883,0.57462,13.35932,1.86955,0.23318,-0.59044,0.13894,0.60622,0.24509,0.31901,2.4556,4.00638,6.53822,29.99925,33.79773,-6.56214,2.88998,-0.98148,-1.38907,6.70858,0.93492,0.13367,-0.56002,0.29433,-0.03949,1.41533,2.58024,0.10248,0.12859,-0.19129,0.02417,0.14147,0.21271,0.04557
1293,-2.55834,-0.93914,0.39688,-2.56252,5.79238,0.62855,3.95192,-4.47025,-0.92732,2.74598,18.26592,3.23274,0.28319,-0.51352,0.24686,0.31916,0.38498,0.47051,7.07646,20.91546,5.192,31.69895,26.75164,-10.51053,2.26929,-0.83602,-0.93422,5.02642,-0.7753,-1.0749,-1.34532,0.20192,0.39638,1.85726,2.49024,0.22711,0.16815,-0.23005,0.10627,0.13481,0.17107,-0.00526
1294,-3.04982,-0.3535,0.16558,-0.99275,3.88067,0.40646,-2.70749,-1.52811,-1.06547,9.54352,11.15574,2.07168,0.2045,-0.50172,0.1751,0.30719,0.22195,0.2814,7.86811,10.85189,1.39785,33.21038,27.80574,-10.10892,3.22753,-0.03059,-0.07968,2.80662,-1.81387,-1.7685,-0.54102,-0.47906,0.62971,1.16053,1.90631,0.02113,0.14228,-0.30435,0.18426,0.04304,0.19924,-0.06401
1295,-3.89228,-1.47738,0.84666,0.58619,0.60199,-0.00399,-9.84266,-8.75933,1.50907,10.89885,1.0729,-0.20527,0.11029,-0.53816,0.01329,0.53819,-0.04874,-0.01921,2.02877,-10.50457,-0.75309,31.9276,25.33974,-6.5056,6.3722,0.80877,-0.10221,1.93984,-0.66969,-0.82117,1.52141,-0.98681,0.24186,0.72814,1.39529,0.06884,0.21455,-0.39635,0.12829,0.05083,0.24688,-0.02661
1296,-4.89766,-2.3454,1.32136,0.93949,-1.27484,-0.26617,-14.073,-17.57925,3.14797,10.65141,-4.30882,-2.0963,0.13281,-0.55204,-0.08545,0.68975,-0.14801,-0.176,-2.51486,-26.42076,-3.87903,27.88503,13.02821,0.69062,8.12339,0.92494,-0.73651,3.23832,1.71926,1.55039,3.6202,-1.22121,-0.59675,0.87201,0.79095,0.4914,0.47264,-0.50343,-0.09566,0.14185,0.1736,0.10142
1297,-6.24317,-2.30197,1.13003,1.26248,-1.8078,-0.30829,-13.45743,-22.91753,1.6804,16.64545,-7.86221,-3.21399,0.17695,-0.51131,-0.10161,0.51479,-0.06784,-0.18937,5.51335,-39.60839,-8.56125,25.73908,2.06585,8.27675,6.07651,0.51555,-0.4991,5.20571,2.24952,2.43031,4.58697,-1.79508,-1.12268,0.81967,0.58161,0.58154,0.70327,-0.5925,-0.3179,0.16214,0.0753,0.15996
1298,-6.50826,-2.89774,1.14049,2.23933,-2.25821,-0.22545,-6.48837,-25.70183,0.2417,26.91491,-12.13612,-3.59133,0.2075,-0.54776,-0.07482,0.32166,0.0103,-0.17244,26.07955,-50.69873,-9.35022,27.1806,1.88362,9.79884,3.25952,0.4539,0.53221,5.52374,-0.28019,-0.03615,4.14692,-2.36302,-0.95922,0.55013,1.37365,0.01517,0.58228,-0.53999,-0.33345,0.10729,0.12597,0.05193
1299,-5.06201,-3.61819,1.46146,3.18873,-2.10058,-0.12487,1.02905,-22.78245,1.57742,32.42212,-11.40872,-2.92552,0.27184,-0.67452,-0.02635,0.54337,0.00482,-0.1306,41.84112,-43.3287,-4.30093,27.14838,6.4738,3.03773,2.63012,1.47947,1.02745,3.60195,-3.32182,-3.4391,3.21376,-1.64025,-0.61811,0.72602,2.37968,-0.51374,0.18087,-0.14614,-0.20368,0.06391,0.22493,-0.1193
1300,-3.36015,-2.06558,1.09178,3.27046,-0.45138,-0.04094,0.86034,-10.28456,3.52244,28.61357,-2.66007,-1.10146,0.33306,-0.67678,0.0279,1.02712,-0.00623,-0.02136,37.2075,-11.44491,1.07331,22.99954,11.43199,-7.56585,3.16419,2.9239,0.49509,1.76389,-3.97619,-4.22287,2.28779,0.42903,-0.48958,1.34614,2.46708,-0.33027,-0.1001,0.45856,-0.08934,0.07205,0.17759,-0.15794
1301,-2.68238,1.18017,-0.06186,2.86942,1.02857,0.03117,-4.19577,3.70738,2.89886,21.37576,5.2251,0.845,0.36186,-0.48641,0.09564,1.22762,0.00832,0.07966,22.11493,17.79884,2.00706,17.95053,21.41123,-15.12506,3.92354,3.02253,-0.60326,2.29441,-2.25928,-2.41457,0.59378,2.01542,-0.17936,1.42505,1.9384,0.07244,-0.16884,0.69266,0.03644,0.06861,0.06424,-0.06437
1302,-3.29364,2.39328,-0.7128,2.71021,0.30048,0.0683,-5.864,5.13278,0.18753,19.16698,3.60975,1.18697,0.3666,-0.34852,0.14708,0.95046,-0.02046,0.05436,16.83623,15.64334,-0.69644,15.13137,33.25291,-13.87804,5.00579,1.74863,-1.38582,4.33943,-0.06295,-0.63313,-1.34277,1.87978,0.40086,0.54931,1.7735,-0.10606,-0.1871,0.40126,0.18586,-0.00789,0.08803,-0.02064
1303,-4.27488,-0.0076,-0.09138,2.21394,-1.39054,0.02104,-3.50737,-7.75027,-1.68564,21.41942,-3.51139,-0.71381,0.3536,-0.43264,0.13604,0.56683,-0.06577,-0.05461,22.20752,-11.17815,-4.22393,15.05886,34.19522,-3.26581,4.85107,0.70798,-0.70369,5.63238,1.26229,-0.12744,-1.57954,0.36222,0.84127,-0.21702,2.12129,-0.55231,-0.11473,-0.02209,0.2538,-0.07699,0.23381,-0.06449
1304,-4.70655,-2.97759,0.8762,1.08815,-1.23441,-0.12331,-1.28661,-22.0102,-1.38313,23.23475,-6.47155,-3.41908,0.29153,-0.56371,0.06483,0.47788,-0.01045,-0.07952,27.947,-32.94898,-6.52565,15.88952,20.4792,9.12182,2.51818,0.49422,1.35382,5.38045,1.5354,-0.00639,-0.41102,-1.62693,1.12289,0.12836,2.31137,-0.36316,0.05199,-0.37872,0.25435,-0.03793,0.31576,-0.04877
1305,-4.34943,-4.40958,1.44383,0.57462,0.75428,-0.28633,1.59947,-29.0721,0.7159,25.79035,-3.14036,-4.78344,0.20237,-0.62392,-0.04777,0.62759,0.11953,0.02212,36.07503,-36.52076,-5.71781,14.80343,4.45101,13.21131,0.22081,0.80428,3.1284,3.99988,1.12446,0.40493,0.5693,-3.03133,1.34308,1.12534,1.91516,0.43806,0.22108,-0.68859,0.27797,0.08709,0.27432,0.07231
1306,-2.94262,-4.46502,1.56648,1.11024,1.90295,-0.31711,7.71752,-27.74351,3.02458,32.36874,0.46639,-4.33342,0.24264,-0.65296,-0.1084,0.70888,0.1727,0.11702,52.57447,-27.77761,-3.13172,11.29311,-1.22937,5.85078,0.30005,1.65058,3.43053,2.53161,0.41028,0.40359,1.57174,-3.09982,1.18293,1.43916,1.33873,0.76648,0.38424,-0.79656,0.27564,0.18005,0.22685,0.13834
1307,-1.3639,-2.65864,0.96781,2.12684,1.15205,-0.22864,11.08806,-17.37087,3.03062,42.97511,0.26201,-3.55121,0.42503,-0.57924,-0.03253,0.68001,0.13591,0.09985,69.51517,-12.28962,-4.55748,9.24646,1.56163,-6.36887,1.98699,3.15116,2.68133,2.36097,-0.22837,-0.51187,3.42872,-1.96925,0.32104,0.90956,1.34987,0.17668,0.50654,-0.46369,0.12083,0.19692,0.2846,0.03956
1308,-1.47817,0.67169,-0.25827,3.77469,0.07358,-0.27194,3.47402,-2.37418,0.15826,53.87088,-1.5241,-3.46936,0.5062,-0.36174,0.08368,0.77476,0.09644,-0.03148,71.82197,4.50181,-11.82879,9.84117,5.84022,-14.13285,2.99939,4.9523,1.80752,3.44048,-0.45748,-1.54621,4.19341,-0.48372,-0.71778,0.6555,1.99601,-0.46282,0.26299,0.20388,-0.11964,0.17498,0.36542,-0.10765
1309,-3.10257,3.23114,-1.27399,5.94295,0.52238,-0.57873,-9.6301,9.26398,-3.19012,58.8459,0.55138,-2.71199,0.37854,-0.20142,0.09646,1.07735,0.07412,-0.19533,58.91336,19.72963,-17.51156,9.64612,13.13319,-13.9785,4.01121,6.53969,0.96219,4.13596,-0.27696,-1.46362,1.70908,0.33164,-0.92819,0.89349,2.15612,-0.35966,-0.43306,0.69367,-0.25641,0.08916,0.23552,-0.12384
1310,-4.26384,3.38199,-1.38428,6.8249,2.00729,-0.89721,-14.50393,14.1473,-4.03859,54.98658,7.05859,-0.03269,0.22376,-0.27464,0.0167,1.30348,0.01041,-0.30263,46.52386,34.87956,-13.68877,13.36314,25.08362,-9.29657,8.06839,7.34291,-0.33983,3.6692,-0.20037,-0.41444,-0.79421,0.07755,-0.40654,0.60367,1.2008,0.11184,-0.70444,0.63361,-0.23698,-0.12989,-0.0901,-0.03495
1311,-4.58505,1.94281,-0.65629,5.45639,1.98265,-0.88084,-10.57053,12.6638,-1.14445,48.20554,10.01665,1.86078,0.20087,-0.47907,-0.05395,1.19916,-0.13766,-0.33522,43.98185,41.69985,-3.98829,28.13704,29.55301,-4.37315,13.03344,6.75083,-1.28616,3.29991,-0.51972,0.15049,0.23946,-1.16057,0.1497,-0.12229,0.39079,0.25392,-0.09017,0.08142,-0.09672,-0.33017,-0.24245,0.00833
1312,-4.55719,0.73165,0.21701,4.11493,0.34593,-0.66652,-7.9417,6.60935,3.45194,47.48565,4.91492,-0.61288,0.28589,-0.61956,-0.0597,0.96571,-0.22736,-0.26423,47.39471,29.93095,-0.53937,42.3605,16.73859,1.28586,11.77681,5.43737,-0.25606,4.48134,-0.18819,0.15158,2.10374,-2.35948,0.55787,-0.12634,0.80778,0.04134,0.3616,-0.40151,0.08516,-0.24903,-0.019,-0.0342
1313,-4.28445,0.87418,0.36912,3.71933,-0.04251,-0.61697,-10.57254,1.57585,4.98291,46.74075,-1.29709,-5.17372,0.36657,-0.59714,-0.01046,0.8289,-0.07821,-0.07598,43.12311,10.51465,-6.52539,31.08012,2.43368,8.10155,4.59286,5.32136,1.6317,6.20654,1.39255,0.43528,0.42794,-1.84428,0.83736,0.37233,1.66546,-0.32478,-0.30306,-0.22992,0.21586,0.0231,0.31337,-0.10657
1314,-4.90358,1.87538,-0.25033,2.18485,1.91574,-0.70544,-16.21314,1.22985,1.32451,32.90238,-0.08636,-5.64095,0.35785,-0.45079,0.03804,0.74082,0.21936,0.10023,20.41709,3.26689,-11.37716,-7.55693,2.08835,10.25979,0.76651,7.05545,1.9901,5.94471,2.22787,0.0156,-3.60937,-0.73566,1.1872,0.5654,2.31419,-0.67443,-1.36816,0.18078,0.25232,0.19597,0.45683,-0.1473
1315,-6.00231,1.70172,-0.59478,0.26141,4.21735,-0.82359,-19.16506,0.76879,-3.36475,14.81035,8.13753,-0.73566,0.32552,-0.34519,0.04595,0.74291,0.41737,0.11473,-2.27936,9.41433,-7.07069,-39.78852,5.06708,3.88457,4.04953,8.90647,0.85848,3.43623,1.21141,-1.66398,-3.73166,-0.87694,0.99572,0.65303,3.09146,-0.66389,-1.15435,0.22972,0.08641,0.17478,0.46804,-0.11339
1316,-6.29461,0.28999,-0.33755,-0.01698,5.0361,-0.95089,-17.59522,-1.1013,-4.98497,8.62839,15.20218,4.12677,0.27401,-0.35486,-0.02815,0.85389,0.48367,0.03012,-5.20644,19.4823,0.01787,-40.5771,1.88395,-6.21285,9.68869,9.19856,-0.23131,1.80055,0.96443,-1.78433,2.18838,-1.81893,-0.41037,0.981,3.4182,-0.05628,0.5534,0.00221,-0.31476,0.11705,0.45158,0.03217
1317,-5.47509,-0.63478,-0.11936,-0.267,4.51089,-0.92984,-14.2446,-0.10009,-4.25982,9.51113,14.68988,3.95413,0.19099,-0.44601,-0.14358,0.8248,0.50907,-0.0089,1.42067,25.23678,-0.19061,-24.68867,-1.41941,-16.38855,13.87373,8.83364,-0.8468,3.25909,2.67026,0.8096,7.57956,-2.84684,-1.59759,1.19159,2.45728,0.65339,1.94472,-0.29714,-0.58472,0.14787,0.35718,0.20097
1318,-3.51069,-0.00982,-0.34184,-2.90583,3.3933,-0.61185,-9.52348,4.92963,-3.18854,3.88393,9.22533,0.15705,0.24143,-0.5611,-0.11958,0.52314,0.36184,-0.01606,0.28386,24.19402,-5.60702,-12.50436,-3.13205,-28.98103,15.23993,9.8176,-2.06086,5.50391,3.21876,2.56169,5.62989,-2.66483,-0.94884,1.1279,1.00821,0.75883,1.50757,-0.31637,-0.41276,0.18542,0.18858,0.20132
1319,-2.08804,2.2059,-0.90058,-6.05943,2.93449,-0.30116,-7.02643,12.05424,-2.54293,-7.52229,8.0878,-1.06767,0.41833,-0.57094,0.07621,0.35138,0.06085,-0.02562,-13.41829,26.7143,-5.13453,-6.87925,-5.87181,-39.07085,12.42789,12.02042,-3.3577,5.50333,1.27371,1.51722,-1.6736,-0.55441,1.0187,0.95365,0.20778,0.31082,-0.18749,0.13345,0.03953,0.129,0.04721,0.02841
1320,-3.4485,4.23995,-1.23999,-5.36994,3.94622,-0.42401,-13.05489,15.61897,-2.70879,-14.38549,13.43402,2.92318,0.43718,-0.3843,0.22687,0.78422,0.01839,0.00864,-33.89478,34.51985,3.21535,-9.45435,-2.50537,-35.40812,7.3135,13.52249,-2.67037,4.53608,-0.15468,-0.12856,-6.08024,1.5229,2.4276,0.54575,0.50861,-0.19184,-1.25105,0.58314,0.40065,0.07043,0.08147,-0.09184
1321,-6.5639,3.54532,-0.82256,-0.23039,4.00306,-0.6289,-23.08022,10.0116,-3.40213,-12.80626,13.98027,6.53261,0.23961,-0.17548,0.16423,1.56402,0.26359,0.05505,-46.27412,27.4547,8.26268,-17.05239,7.72807,-20.56103,5.31277,13.34289,-0.4573,4.39514,0.49675,-0.67938,-3.61679,0.75017,2.21385,0.14272,1.63109,-0.37132,-0.72723,0.41801,0.39734,0.10212,0.30161,-0.04323
1322,-6.99705,0.10752,0.13801,4.93438,1.86894,-0.55084,-21.8972,-0.24554,-3.09552,-5.13483,6.73168,5.46118,0.16708,-0.22427,-0.0066,1.94673,0.38489,0.06349,-32.84293,6.89987,6.21238,-15.78173,6.61934,-11.50915,8.22766,12.30335,-0.18572,3.00705,0.63097,-1.39347,1.49836,-2.05334,0.68232,0.53445,2.80031,-0.17427,0.47606,-0.1094,-0.04542,0.10566,0.48288,0.02085
1323,-4.39437,-2.81833,0.84789,6.08966,1.04211,-0.68119,-12.91293,-3.40375,-1.36075,5.17092,5.10147,3.8729,0.351,-0.52285,-0.1237,1.70246,0.27239,0.08086,-6.66825,5.37603,5.24614,-8.25152,-12.59581,-16.71564,13.02254,12.06903,-3.92467,-1.03801,-1.29515,-3.17969,4.06935,-3.35535,-1.23973,1.65167,3.33183,0.07806,1.01853,-0.21586,-0.66676,-0.03658,0.45655,-0.05697
1324,-2.94372,-1.92931,0.64865,4.74713,3.28298,-1.28941,-13.91017,5.64251,-0.18211,13.90588,13.43581,5.85482,0.53815,-0.751,-0.11709,1.39309,0.11351,0.13339,0.18995,31.03143,7.98106,-16.76316,-28.03558,-27.1672,18.10232,13.29953,-9.86572,-4.35556,-2.78572,-4.33344,4.42838,-3.09204,-2.40989,2.47239,3.12851,0.07577,0.88371,0.00484,-0.95153,-0.18329,0.33258,-0.20274
1325,-2.50733,2.01837,-0.36509,4.28213,6.29498,-1.89188,-16.86019,18.6789,-0.71108,17.06784,20.8446,9.18647,0.60075,-0.69276,0.03913,1.42777,0.12454,0.17371,-4.91991,54.24361,11.12236,-44.99665,-25.06444,-31.61183,21.71164,13.83999,-15.17987,-2.6169,-1.24685,-3.22828,4.22957,-2.68737,-2.33433,2.60017,2.78527,-0.15102,0.71575,0.03921,-0.75475,-0.06657,0.32846,-0.25242
1326,-0.9494,4.38559,-1.10537,3.92098,7.53462,-1.89101,-5.16219,21.22284,-1.12146,11.38093,19.78887,9.52552,0.56183,-0.51246,0.18122,1.42504,0.31754,0.17302,0.95478,49.09616,13.36154,-69.97954,-18.20547,-27.56971,19.6156,10.89471,-17.59734,4.03302,2.82408,-0.06579,1.34325,-1.52384,-0.01871,2.30649,2.28684,-0.36339,0.29296,-0.11777,-0.12957,0.31514,0.41317,-0.18248
1327,-0.06743,2.64526,-0.77653,0.4902,6.01599,-1.06931,8.89256,7.82309,0.10834,-4.98507,12.98326,5.44765,0.43493,-0.43886,0.12074,0.82067,0.37698,0.10834,1.21809,18.19681,13.39526,-70.63179,-15.83618,-21.50149,13.00466,6.40836,-17.26129,10.10081,6.17642,3.27498,-3.6604,0.80123,3.83714,2.03407,1.11248,-0.18918,-0.46392,-0.04256,0.53793,0.68852,0.37422,-0.0375
1328,-2.34082,-0.18281,-0.12944,-5.02052,2.0609,0.20503,4.51247,-9.72506,1.02247,-23.31259,3.77518,-1.14689,0.24635,-0.45975,-0.08595,-0.20184,0.07442,-0.06765,-23.8807,-17.2302,7.85581,-47.82536,-5.38216,-23.08685,9.38233,5.30579,-17.71895,10.41161,5.79564,4.30948,-6.48866,2.45165,6.45784,2.12682,-0.12783,0.38687,-0.99564,0.42861,0.67115,0.79486,0.19451,0.12518
1329,-5.9393,-0.73215,-0.11408,-8.90452,-1.43627,1.16186,-12.53318,-14.64076,-0.35966,-29.16262,-3.30461,-5.03749,0.07401,-0.49858,-0.2487,-0.95968,-0.24848,-0.27417,-51.91948,-31.08531,0.04962,-16.85757,11.55332,-32.41486,11.79525,7.51939,-22.07224,6.4578,2.83818,2.91685,-5.0545,2.22214,5.54032,2.25968,-0.4458,0.80474,-0.84446,0.9491,0.15064,0.57298,0.05793,0.19005
1330,-6.3406,0.34001,-0.38344,-9.34124,-1.29936,1.29681,-19.95511,-5.78239,-2.03664,-21.01665,-0.99124,-1.47555,0.08251,-0.48708,-0.19156,-1.07079,-0.17669,-0.33341,-52.56288,-14.0735,0.81955,3.91835,7.73013,-35.97202,15.5485,8.20069,-27.94451,3.6451,1.19341,1.8527,-0.52207,0.48566,0.13502,1.47825,-0.45261,0.74411,-0.05119,0.90546,-0.71642,0.1194,-0.00979,0.11963
1331,-2.46383,0.56008,-0.16413,-6.72357,1.79858,0.74173,-9.5005,1.58467,-1.07786,-9.4278,11.52121,8.03608,0.28762,-0.36235,0.05464,-0.70457,0.13372,-0.19225,-26.67989,14.40317,14.12358,-4.29947,-22.66108,-26.42263,15.07317,5.04629,-30.85143,3.54559,1.81634,2.54634,2.94353,-1.0602,-6.28513,-0.54105,-1.12493,0.43911,0.54151,0.31392,-1.23719,-0.40293,-0.13409,0.01459
1332,1.29363,-0.44071,0.31312,-4.42948,5.09233,0.24616,6.31781,-0.82973,1.5003,-3.97512,25.55693,16.66701,0.41463,-0.21223,0.18878,-0.37619,0.32998,0.06434,0.39918,33.48579,29.91785,-36.99087,-40.10244,-17.96732,9.30601,-0.18367,-30.50412,3.24455,1.94658,2.83946,2.11721,-0.10759,-6.97776,-2.35195,-1.66382,0.15508,0.36987,-0.11873,-0.86033,-0.74281,-0.25974,-0.03553
1333,0.44141,-0.89761,0.30175,-6.0258,6.06373,0.62799,10.49212,-3.96546,2.42849,-6.99877,28.46815,17.54046,0.31402,-0.23362,0.03493,-0.39884,0.27834,0.27975,3.85115,38.65378,33.33878,-59.44735,-9.7521,-28.20606,2.03272,-4.81334,-29.72522,1.25626,-0.24786,0.4856,-0.76181,2.31227,-0.0235,-1.89344,-0.6233,-0.08543,-0.10454,-0.2502,0.13858,-0.66212,-0.1965,-0.0373
1334,-3.58695,-0.19376,-0.1271,-10.45636,3.96662,1.71354,1.65695,-0.82942,1.14328,-13.88683,18.0243,11.45824,0.1926,-0.4064,-0.16722,-0.71193,0.04015,0.30546,-14.26069,33.27979,23.64807,-58.91271,42.70952,-52.08942,-3.27159,-7.11495,-29.97278,-0.43326,-2.46273,-3.1562,-1.91163,4.16638,9.26874,1.52123,1.91715,-0.33139,-0.36629,-0.18107,1.17093,-0.06761,0.11689,-0.05027
1335,-4.80079,0.30745,-0.30737,-13.74504,0.81414,2.52842,-3.6798,1.98297,-0.22255,-18.29429,5.36759,5.7551,0.24227,-0.47474,-0.11862,-1.13772,-0.17988,0.12549,-24.99578,21.10786,14.24639,-61.112,51.13217,-66.91901,-7.53781,-6.8244,-28.57244,-0.27605,-1.17688,-4.82947,-0.67052,6.74881,14.69602,6.24007,4.1728,-0.58296,-0.31671,0.40292,1.76872,0.84485,0.49745,-0.12754
1336,-0.6208,-0.14884,-0.09957,-13.70819,-1.50964,2.51681,4.87742,-1.60997,-0.36322,-15.85952,-2.93503,2.78384,0.37975,-0.35645,0.10286,-1.35738,-0.2796,-0.16305,-9.93096,4.33977,9.88835,-70.70378,-2.71957,-61.92183,-12.11475,-5.27517,-22.46495,0.27055,2.81052,-3.30722,1.38762,10.25028,13.67941,8.58443,4.04245,-0.68166,-0.09098,1.35808,1.4718,1.41747,0.57962,-0.21836
1337,3.8953,-0.44532,0.02305,-11.14885,-2.67251,1.90984,14.47651,-7.25233,0.09539,-5.5046,-8.44588,-0.12343,0.43925,-0.23961,0.19641,-1.05958,-0.37563,-0.40317,14.32628,-11.11901,4.23259,-61.50018,-66.46285,-45.71357,-16.27756,-4.65123,-13.56986,-0.24496,5.34708,0.52845,2.15493,11.91827,5.90517,5.71027,0.79087,-0.17505,0.12924,1.77019,0.14645,0.9631,0.13749,-0.13987
1338,3.27943,-0.15712,-0.10867,-8.17368,-2.03939,1.29351,9.91062,-10.46703,0.49341,8.05003,-10.48889,-2.78707,0.42864,-0.30034,0.07549,-0.38164,-0.46178,-0.40574,22.22379,-20.01105,-2.77053,-30.54154,-92.18309,-26.76245,-18.02538,-5.39637,-7.60975,0.27186,5.05266,5.29322,-0.28027,9.28303,-7.11576,-0.37358,-3.5979,1.06328,0.11047,0.92484,-1.77063,-0.21924,-0.4857,0.11869
1339,-1.12765,-0.11657,-0.20156,-6.54335,0.42085,1.13438,-4.21786,-12.03345,0.78347,14.39672,-9.12537,-4.16823,0.42472,-0.50082,-0.07719,0.21537,-0.351,-0.13286,7.75427,-26.34076,-6.28453,-3.93348,-84.54612,-6.39171,-17.45018,-6.32798,-6.64108,4.7582,3.9742,9.16735,-5.07566,4.26252,-17.27003,-4.03404,-6.17061,2.26232,-0.28565,-0.45489,-2.65678,-0.88352,-0.70576,0.30008
1340,-4.48256,-0.79734,-0.02134,-7.2864,2.47506,1.52499,-14.08648,-13.87445,1.23141,5.57455,-7.94319,-4.92289,0.43155,-0.68829,-0.10566,0.40564,-0.07636,0.19659,-19.54663,-34.73172,-5.20445,8.24124,-66.49136,8.36887,-17.509,-6.14875,-8.73727,11.44984,3.21117,10.19893,-7.71185,1.25716,-17.45978,-3.05599,-5.79739,2.44501,-0.34897,-0.82213,-1.45574,-0.44786,-0.43893,0.25637
1341,-4.60315,-2.00669,0.38867,-9.42921,1.71413,2.09403,-12.14259,-16.64758,2.5288,-9.45859,-8.78436,-4.57097,0.41655,-0.75767,-0.0419,0.17929,0.03252,0.31427,-35.06845,-41.40226,0.51551,23.20711,-47.68829,9.3117,-17.95006,-5.96932,-11.94398,14.63726,1.72582,7.61235,-7.07591,-1.3017,-11.21782,-0.50274,-3.19011,1.47177,0.07814,-0.51451,0.29419,0.30736,-0.06128,0.07829
1342,-2.39689,-2.77809,0.71188,-9.43305,-1.21966,2.18184,2.47526,-16.88347,4.81592,-9.77525,-10.7827,-2.24631,0.34254,-0.66477,0.00732,-0.13632,-0.17116,0.18742,-8.8302,-38.73013,10.23332,53.43427,-40.30761,6.33204,-16.79642,-7.85395,-10.97063,11.44962,-1.17498,2.78005,-6.85005,-5.19005,-5.79226,1.16322,-0.28246,0.18409,-0.12485,-0.76339,0.70777,0.54666,0.09145,-0.03812
1343,0.30684,-2.29169,0.67447,-4.73417,-2.99953,1.37876,21.94554,-11.55956,6.79402,10.94971,-10.82586,1.10329,0.23981,-0.44764,0.015,-0.07617,-0.41174,0.01421,53.03722,-24.71167,18.89017,90.73296,-50.1769,13.26647,-14.22602,-10.62933,-2.26175,4.71732,-3.95444,-1.28647,-9.86976,-6.92348,-6.13008,2.99599,0.44167,-0.23522,-1.05296,-1.4264,-0.49901,0.47058,-0.08386,0.05081
1344,1.14468,-1.13603,0.34995,2.64382,-2.01153,-0.00439,29.44905,-5.25784,6.52832,37.31829,-7.37148,3.08406,0.17789,-0.2432,0.00105,0.45361,-0.42728,-0.05528,101.78075,-9.38663,18.36247,100.29225,-50.6302,27.64001,-10.87472,-11.74763,8.91387,-0.94401,-3.91676,-1.4711,-13.79693,-4.79758,-10.12427,5.34914,-2.32854,0.96842,-1.72376,-1.67451,-2.01268,0.55872,-0.57466,0.346
1345,-0.9258,-0.45337,0.04123,6.54663,-0.40217,-0.92003,15.67726,-3.71948,3.46327,47.98781,-5.39,1.43772,0.21819,-0.20428,0.00198,0.86754,-0.29688,-0.07459,95.28915,-6.76596,6.0532,60.74238,-19.46242,38.528,-8.21221,-10.50581,14.83269,-2.54094,-0.41503,2.31011,-13.93214,-1.85646,-11.63115,5.9062,-6.25527,2.96981,-1.78462,-1.61084,-2.28986,0.70325,-1.04851,0.65165
1346,-3.79136,-0.69137,-0.01046,4.2211,-0.44358,-0.76754,-7.15074,-5.34501,-0.34482,40.54991,-9.98537,-3.5568,0.32562,-0.36093,0.05052,0.68894,-0.19099,-0.12096,50.53646,-16.50486,-10.41394,10.64804,18.46652,35.97766,-7.99172,-5.81414,12.95823,-0.49322,3.70206,5.49204,-8.61069,0.42326,-9.23392,3.6115,-6.7814,3.46606,-1.13742,-1.22709,-1.3622,0.61349,-0.95322,0.60461
1347,-4.63559,-1.17336,0.10224,0.54605,-1.76318,-0.23451,-18.10278,-4.10148,-2.1719,36.11989,-18.27895,-8.56929,0.34096,-0.54172,0.10215,0.27873,-0.17151,-0.14181,28.28618,-23.43531,-21.6144,-3.67938,12.30982,24.54455,-9.10784,1.4369,8.26607,1.69601,5.42129,4.99261,-0.82546,2.725,-6.49842,-0.38643,-3.25203,1.76127,0.15942,-0.44528,-0.48042,0.1768,-0.29879,0.14155
1348,-3.38427,-0.75199,0.03779,0.37144,-2.08185,-0.16733,-12.90273,2.07356,-1.80003,45.83249,-20.55813,-9.58743,0.26257,-0.59013,0.08921,0.23075,-0.20762,-0.05605,48.69318,-15.40424,-23.87678,17.99955,-57.33223,22.9651,-7.80348,4.87196,9.06494,2.42362,4.37346,3.14039,3.36816,3.49386,-5.4493,-3.82214,0.03775,-0.01834,0.79488,-0.19436,-0.04108,-0.37856,0.2227,-0.28687
1349,-2.22667,0.53689,-0.29424,2.60268,-0.13808,-0.53685,-5.11196,7.77387,-1.15925,54.76171,-11.99423,-6.05092,0.27911,-0.56062,0.02166,0.59099,-0.22009,0.09309,69.01804,2.3361,-18.53897,56.37478,-138.10954,33.6016,-2.87555,2.15864,16.6956,3.74946,1.25232,2.00769,2.3858,2.17371,-4.02986,-3.51334,0.27358,-0.42105,-0.09621,-0.56038,0.56969,-0.40844,0.17833,-0.35345
1350,-2.25533,1.37686,-0.56061,4.28063,2.44168,-0.90177,-4.6478,6.60283,-1.27484,51.15208,-1.49409,-2.21617,0.40538,-0.50915,-0.0291,0.9183,-0.15701,0.18139,59.38227,11.39368,-11.3259,90.98045,-153.74603,41.3118,2.57084,-1.97881,23.54731,6.76715,-4.00709,1.20396,-0.70789,0.86645,-1.61814,0.74011,-1.38867,-0.05121,-1.41884,-0.64069,1.04701,0.2537,-0.25087,-0.15064
1351,-2.48458,1.04909,-0.48394,4.8331,3.62367,-1.07877,-8.38493,-1.20105,-1.49598,44.01971,-0.41338,-1.90278,0.45221,-0.3672,-0.02287,0.84767,-0.05837,0.15113,39.69639,0.62891,-8.68982,91.5649,-91.70474,41.83911,6.29485,-2.50296,23.42419,9.51196,-10.47181,0.79121,-1.4744,1.79056,0.24177,3.78316,-2.30349,0.32227,-1.00044,0.40878,0.57198,0.66492,-0.56723,0.11172
1352,-1.67312,0.39158,-0.24557,5.10957,3.31171,-1.13783,-7.52144,-9.72476,-0.96185,44.43029,-8.67558,-4.3333,0.35384,-0.14987,0.01819,0.52053,-0.00257,0.04309,38.35977,-22.01822,-10.4793,54.32132,-14.68135,36.45484,10.43748,-1.24917,16.49619,10.0322,-14.77566,0.86615,1.39897,3.89147,2.71466,1.92518,-0.54534,0.23415,1.64807,2.45055,-0.53926,0.11024,-0.30891,0.28046
1353,0.00717,-0.04088,-0.09508,4.7393,1.94039,-0.98069,1.47158,-14.7958,0.60001,48.02621,-19.12006,-7.0018,0.25801,-0.08271,0.04049,0.3453,-0.01683,-0.07145,53.66731,-40.99116,-11.37538,21.94308,-20.8172,35.62834,15.56435,-6.62963,8.89102,8.17674,-14.18003,0.79831,-1.45771,3.26739,-7.46506,-1.8025,2.42992,-0.22906,1.89495,0.93714,-3.37096,-0.76417,0.28594,0.32422
1354,1.11152,-1.11565,0.12135,2.35647,-0.11263,-0.42674,11.09321,-17.6329,2.89162,42.94239,-25.08143,-8.80316,0.33676,-0.36718,0.00999,0.41659,-0.08267,-0.14464,60.25497,-47.80713,-8.90026,43.47202,-111.9552,35.93688,15.27655,-20.69989,2.04328,4.9109,-9.96616,0.265,-18.35466,-3.37654,-29.32602,-2.52517,3.24097,-0.47727,-4.07306,-3.32552,-6.33972,-0.84878,0.49047,0.25183
1355,1.01786,-2.88513,0.56258,-0.62526,-1.4767,0.1005,12.30381,-20.32334,4.91331,28.80695,-22.48582,-9.41086,0.5978,-0.82725,-0.00912,0.57502,-0.16489,-0.16022,45.45541,-44.2001,-4.94671,120.0618,-163.10205,-3.05114,6.5378,-20.73838,-22.21833,2.25707,-5.96307,0.23237,-24.72195,-4.79242,-40.6666,-0.25879,0.83504,0.03701,-7.18102,-2.18051,-6.09189,-0.12165,0.04076,0.1676
1356,0.93009,-3.60259,0.89491,-0.7949,-0.75899,-0.04907,8.63813,-21.99161,5.3745,16.52696,-13.15454,-8.23444,0.7511,-0.94158,0.0641,0.75326,-0.19117,-0.12083,26.00088,-37.72845,-0.71686,137.7525,-160.6116,-14.54048,-2.69444,-15.52326,-24.28683,2.20134,-4.35221,1.61432,-26.39551,-1.74774,-27.32677,0.86731,-2.2571,1.28162,-9.54308,2.31903,-3.05031,0.32773,-0.53215,0.23765
1357,0.89377,-2.86417,0.77774,1.17063,2.16763,-0.63494,6.78486,-21.92599,3.93519,13.33434,-2.742,-4.74898,0.49121,-0.52113,0.12123,0.82343,-0.0825,-0.03563,19.70905,-31.87055,4.06356,69.32649,-12.34166,-15.25727,9.39632,12.26958,7.75757,4.09204,-4.45317,3.09007,14.65325,17.103,47.35733,-0.32972,-3.25506,2.14308,-0.48113,15.3388,5.71939,0.00692,-0.64032,0.35169
1358,-0.74946,-2.62994,0.51435,1.35674,5.46304,-0.83442,2.80789,-21.84572,2.03999,18.02324,2.75177,-1.02804,0.11443,-0.15782,0.01658,0.62756,0.09909,0.06482,20.89739,-27.65548,6.72072,38.87782,-22.63154,-4.80118,26.6704,23.15551,-6.36613,5.28804,-4.58088,2.66358,50.18811,6.23381,7.53917,-0.55401,-2.56621,1.5762,12.87867,2.54406,-2.12773,-0.31463,-0.36595,0.25212
1359,-4.03374,-3.6019,0.45822,-1.10178,6.89345,-0.40557,-8.35944,-23.48323,0.96812,22.853,1.3726,-0.05175,0.1141,-0.3844,-0.18656,0.28894,0.20554,0.13845,12.36761,-29.57083,5.02786,-67.24535,-99.02841,111.60626,32.22861,-31.38136,67.54045,4.89883,-4.24774,0.89083,-9.82919,-12.97047,3.31409,1.38052,-1.86993,0.23999,0.58367,-9.849,3.73614,-0.00917,-0.12553,-0.03023
1360,-6.99648,-3.42235,0.18471,-3.42573,5.74157,0.20678,-22.69725,-22.84365,-0.97347,18.1699,-2.30974,-1.17725,0.33598,-0.8118,-0.30419,0.15301,0.11553,0.12808,-12.25934,-33.2523,0.37425,-69.49296,-65.64577,121.39803,37.6923,-39.4551,90.83993,5.14801,-4.65548,0.29818,-16.80281,-8.9291,25.26302,2.48568,-1.38454,-0.33569,-2.81621,-5.28251,4.10162,0.52277,-0.10974,-0.19544
1361,-8.0548,-0.92081,-0.62411,-4.12946,3.23922,0.67586,-31.97348,-15.26609,-5.31907,3.72548,-1.81149,-0.60275,0.37357,-0.83933,-0.24568,0.33518,-0.13499,0.02652,-39.27035,-24.69722,-3.57175,42.9424,-83.43059,43.2287,25.44678,-30.53547,32.05976,7.32644,-6.17953,1.17731,-8.55696,-5.27612,10.22618,1.54639,-0.52069,-0.21758,1.64182,-1.46672,-3.92429,0.71916,-0.15893,-0.1774
1362,-6.65221,0.78875,-1.07475,-4.07323,1.19721,1.01904,-30.51238,-7.69785,-8.68176,-7.82731,3.01843,3.43372,0.29444,-0.57446,-0.06614,0.55731,-0.3346,-0.07209,-46.31189,-8.20205,-1.8094,133.81915,-148.51425,-20.4438,5.22524,-15.42803,-39.08065,8.70897,-6.32556,1.69373,-3.45204,-6.03052,-34.53152,0.60472,0.02258,-0.14797,7.05897,-4.96775,-6.95049,0.47614,-0.10137,-0.10913
1363,-3.17916,0.0331,-0.50544,-4.20602,0.32658,1.31653,-17.82875,-7.84069,-6.69458,-8.57722,6.74466,8.04373,0.34106,-0.34632,0.15449,0.50995,-0.33634,-0.06511,-29.34893,-1.63731,7.04644,72.761,-134.3578,17.98582,0.24234,6.67751,-22.64826,6.17817,-3.08909,1.66121,5.01824,2.13049,-23.53675,0.49492,-1.12143,0.52289,1.33436,-1.40097,1.32626,-0.05389,-0.07819,0.06733
1364,-0.15493,-1.24181,0.38186,-4.62348,0.46171,1.5167,-1.70047,-14.36131,-0.45624,-3.75068,7.43673,9.92622,0.40792,-0.21525,0.29771,0.24155,-0.20077,0.04239,-6.90942,-9.67599,18.11032,39.50695,-123.68422,24.12228,-3.47781,-6.74837,-2.93662,1.43699,0.80394,2.097,-9.00522,2.77974,14.02936,-0.07063,-2.88588,1.94533,-2.93278,2.51073,7.16158,-0.54625,-0.18802,0.32855
1365,-0.07241,-1.95966,0.80071,-5.32487,0.93961,1.59236,6.7897,-22.49875,4.93791,-0.3146,5.95673,8.51475,0.34353,-0.21942,0.25799,-0.01117,-0.09942,0.11425,3.4112,-24.21459,23.83597,37.14351,-154.26462,23.96786,-1.51264,-14.72944,2.20531,-0.51492,0.05893,2.72036,-17.49715,-0.36803,8.65351,-1.14896,-2.96477,2.56303,-4.75163,0.86359,3.65948,-0.6415,-0.30623,0.44541
1366,-2.48118,-2.66825,0.73042,-6.18531,0.8664,1.5898,2.66651,-27.52749,5.83634,0.39364,0.83866,4.57149,0.24047,-0.40434,0.07087,-0.15228,-0.16622,0.01666,-3.02526,-37.74553,19.54402,55.5993,-144.17996,3.09927,3.39697,-5.93053,-2.88585,1.32057,-5.60976,2.01225,-5.98285,0.92026,-4.55644,-0.66962,-1.31912,1.23699,-0.8703,-0.2099,-0.94221,-0.26663,-0.29204,0.27757
1367,-4.27325,-2.70345,0.39524,-6.16245,0.9739,1.34183,-6.93116,-24.61959,3.01126,0.64523,-5.46576,0.29086,0.24002,-0.59541,-0.08043,-0.12201,-0.29759,-0.14563,-15.77193,-40.35215,9.52524,80.45856,-106.86922,-22.74235,4.29883,0.14717,-7.07369,3.07136,-9.69368,-0.02825,2.38596,1.74141,-7.16042,1.84672,-0.17328,-0.80925,2.0073,-0.00394,-1.98599,0.26673,-0.21045,-0.01802
1368,-3.61363,-0.79408,-0.16567,-3.95985,2.96158,0.56033,-11.61074,-12.24767,-0.61181,4.66489,-5.62665,-1.31898,0.34426,-0.58582,-0.06708,0.18458,-0.22134,-0.11329,-17.12944,-21.68727,1.69036,90.76693,-87.26698,-23.48472,4.72802,-3.80002,0.06582,3.36309,-8.35372,-1.22322,-0.52236,-0.6019,-3.60689,3.72582,-0.71937,-1.472,0.98887,-0.22126,-0.62478,0.54112,-0.24977,-0.15225
1369,-1.45186,1.64955,-0.66877,0.16697,6.00827,-0.61342,-7.92531,1.03115,-2.43472,16.75276,0.10485,0.23581,0.48698,-0.46865,0.03161,0.67513,0.06736,0.11507,3.51163,6.26995,-1.19136,82.43135,-89.01062,-7.41113,6.96478,-8.05332,9.23499,4.2674,-5.1837,-0.5935,-3.7445,-2.11812,0.64965,3.38721,-1.71309,-0.73165,-0.07137,-0.04073,1.19691,0.45068,-0.35153,-0.08768
1370,0.41746,1.67789,-0.57676,3.45252,7.14164,-1.4056,0.29361,0.18838,-0.96652,33.0475,1.90079,1.92049,0.57983,-0.43009,0.05215,0.98933,0.24528,0.23627,35.83995,9.44302,0.07496,57.6172,-104.69971,15.50276,7.8875,-9.55391,13.96907,5.39896,-4.41927,0.05947,-7.21436,-1.97751,0.34037,2.68099,-1.65483,-0.32809,-1.26032,0.03472,1.51328,0.28298,-0.24147,-0.0404
1371,0.11904,-1.67938,0.20576,2.85456,5.2291,-1.15153,3.47077,-19.73653,2.63276,41.05976,-6.1345,0.16441,0.50998,-0.5067,-0.07816,0.82214,0.12956,0.08474,50.60268,-28.04046,2.77698,41.80102,-110.04564,25.59517,7.3067,-8.18487,11.59612,4.3856,-5.58951,-0.4867,-7.98482,-0.91768,-2.26702,2.95383,-0.61641,-0.85963,-1.74709,-0.11832,0.45295,0.30464,0.10029,-0.12737
1372,-2.70829,-5.85542,1.04091,-0.59466,2.36543,-0.28978,-4.06723,-41.33788,4.98097,35.60705,-16.85047,-4.4118,0.31446,-0.66256,-0.24702,0.32373,-0.10399,-0.1518,33.92028,-72.43199,2.71044,49.00283,-99.14617,19.50854,7.89323,-7.22791,6.55873,1.70743,-6.01026,-0.83064,-5.16231,-0.25675,-1.56932,2.82967,0.0875,-1.04447,-0.88291,-0.03182,-0.18531,0.35635,0.33201,-0.19684
1373,-5.02021,-6.32067,1.10721,-2.26035,1.3796,0.02402,-12.82657,-39.90031,4.22751,26.36888,-17.57973,-6.41025,0.20931,-0.75103,-0.21951,0.0595,-0.19661,-0.21987,10.90412,-71.7863,0.31609,52.96133,-96.80148,17.4437,9.31137,-8.24103,4.15101,-0.28698,-4.51577,0.14334,-3.55945,-0.7004,-0.46991,1.23845,-0.32998,-0.1107,-0.37778,-0.17232,-0.3879,0.10633,0.27677,-0.1109
1374,-3.53905,-2.04864,0.3973,-0.03454,2.61569,-0.55066,-9.31236,-15.99949,2.10255,24.01746,-6.3853,-2.37134,0.32466,-0.59967,0.08479,0.35192,-0.11164,-0.10863,13.27678,-23.71492,1.27361,34.11558,-107.33131,19.97059,8.4403,-8.97702,0.31003,-1.21486,-2.27152,1.17047,-4.0406,-1.26753,-1.97425,-0.59939,-1.05513,0.89161,-0.36207,-0.63846,-1.03443,-0.37868,0.13654,0.03407
1375,0.01913,1.9578,-0.18438,2.7962,4.15986,-1.11057,2.40564,1.45928,1.01353,25.23838,6.188,4.44113,0.49565,-0.32835,0.40328,0.82312,0.01672,0.01646,31.74572,17.46051,8.14404,14.97767,-108.34558,11.0103,4.17171,-9.55006,-6.9922,-1.56529,-0.98057,0.98252,-5.82196,-1.53506,-2.61752,-0.93035,-1.24761,0.94749,-0.34018,-0.78266,-1.65849,-0.61647,0.03867,0.11159
1376,0.30206,1.06412,-0.12603,2.61649,4.48847,-0.83471,4.0327,-7.37807,0.44572,20.14791,9.94259,7.77847,0.39134,-0.20763,0.37298,0.95934,0.08316,0.05875,28.19817,9.12884,14.70493,25.69652,-93.1477,-8.93357,0.14891,-10.04111,-11.39254,-0.21057,-1.24131,0.24559,-7.58702,-1.74766,-0.88594,0.66029,-1.47458,0.45845,-0.44637,-0.47683,-1.35897,-0.27787,-0.14498,0.11417
1377,-3.7522,-2.85987,0.08965,0.03633,3.74378,0.00439,-9.30041,-28.02508,-1.27713,11.24675,3.84325,5.54375,0.01471,-0.27483,0.00028,0.7089,0.06367,0.06974,-2.15956,-30.75133,12.0828,50.96802,-79.17985,-20.71214,0.0119,-9.57597,-8.63337,3.59614,-2.95038,-0.1291,-7.68739,-1.8542,1.08753,2.82091,-1.93089,-0.01681,-0.69017,-0.12987,-0.51292,0.36465,-0.39312,0.04749
1378,-6.96746,-4.99598,0.03189,-2.09035,3.57544,0.53882,-21.05327,-35.0597,-3.20964,10.56339,-3.37051,2.04424,-0.17016,-0.40192,-0.32718,0.32409,0.04347,0.13606,-20.46732,-53.50908,2.23434,55.24841,-78.60227,-14.97291,2.70647,-8.66107,-2.23065,7.31164,-4.74205,-0.30332,-6.17384,-1.87231,3.1327,3.6291,-1.64248,-0.52464,-0.98279,0.03727,0.11749,0.7572,-0.44306,-0.0828
1379,-5.76124,-4.24464,-0.01045,-2.72689,4.41962,0.47861,-19.4307,-25.76196,-3.14437,17.5609,-4.5498,0.80735,0.1343,-0.52458,-0.31697,0.06349,0.08197,0.20638,-8.79773,-42.60283,-4.5555,45.88623,-84.21609,-4.70509,4.71433,-8.34671,1.92799,7.71047,-5.24477,-0.39259,-5.01554,-1.94849,5.55423,2.69264,-0.60396,-0.80213,-1.28181,0.16981,0.58668,0.65634,-0.25958,-0.14527
1380,-2.99047,-3.42667,0.32672,-2.62478,4.02426,0.25671,-12.86729,-16.89359,-1.20982,20.60444,-4.27413,-0.37792,0.59275,-0.65046,-0.08707,0.07793,0.05743,0.14769,6.76573,-25.93677,-5.44662,47.27276,-83.13666,0.03752,4.12947,-7.27377,1.04382,5.52632,-6.07067,-0.18891,-4.76637,-1.7357,4.50725,1.72034,-0.19523,-0.5141,-1.09514,0.27129,0.93148,0.31563,-0.14107,-0.02795
1381,-2.13483,-3.83226,0.77109,-2.40473,1.2343,0.26618,-9.87975,-17.41028,0.84798,15.86606,-7.81655,-3.07057,0.71259,-0.72843,0.08879,0.29495,-0.12566,-0.02322,6.69984,-26.55667,-3.70147,52.44828,-75.96955,3.22322,1.59691,-4.03911,-3.70747,3.25282,-8.14608,0.18121,-4.59057,-1.06265,-3.27394,2.11322,-1.34833,0.14121,-0.2656,0.00036,0.70343,0.08136,-0.3054,0.16328
1382,-2.16985,-3.58923,0.75253,-2.40724,-1.77562,0.50135,-5.80248,-20.00669,1.95116,9.18398,-12.032,-4.91238,0.48551,-0.65698,0.12801,0.47284,-0.33333,-0.15802,2.37496,-34.8513,-0.24252,48.63398,-70.76898,3.80112,-0.16563,-0.56336,-8.2214,0.5049,-7.89053,0.47143,-3.7125,-0.31961,-12.07026,2.94223,-3.24072,0.84828,0.54516,-0.526,-0.05594,-0.0159,-0.61914,0.28766
1383,-1.52046,-1.74851,0.18313,-2.84923,-2.40387,0.74892,1.48781,-17.06381,1.6554,6.05271,-13.11817,-4.65768,0.22038,-0.44872,0.07226,0.43868,-0.34148,-0.15542,5.31073,-34.55169,3.20944,42.40115,-68.0289,-1.86995,1.63381,0.77499,-7.35523,-2.95822,-3.50716,0.48527,-1.68276,0.50885,-12.50817,2.63922,-3.79501,1.16936,0.78709,-0.56564,-0.58822,-0.09072,-0.69148,0.29307
1384,-0.8461,0.09419,-0.394,-3.72009,-0.81121,0.90185,5.75333,-10.65537,0.66965,5.55927,-11.28648,-3.54238,0.14745,-0.27292,-0.02621,0.20642,-0.16595,-0.03921,8.67953,-24.84337,4.23011,43.50499,-62.19145,-10.60047,6.56893,-0.2661,-1.04181,-3.74799,0.69961,0.12393,0.69489,1.68382,-3.01703,1.85657,-2.46679,0.7256,0.7734,0.26751,-0.19805,-0.03421,-0.38705,0.14983
1385,-0.74949,0.36412,-0.41038,-4.43911,0.64182,0.94871,3.58742,-6.71678,0.73927,4.81062,-8.73726,-2.72295,0.30242,-0.29183,-0.09268,0.0013,-0.08309,0.06893,4.92338,-15.16497,2.90945,48.50346,-57.81705,-17.02843,10.10728,-2.76574,3.72371,-0.08175,1.35593,-0.05712,0.61958,2.45793,7.2319,1.77899,-0.9317,0.0293,0.57243,1.2883,0.51,0.22084,0.00426,-0.06211
1386,-0.62425,-0.8083,0.13583,-3.72597,0.26645,0.77048,-0.89119,-8.94005,2.49035,6.47685,-8.83636,-2.83855,0.54924,-0.51147,-0.07071,0.08433,-0.25129,0.04551,2.11221,-16.49436,0.22763,40.77508,-67.74379,-13.5109,7.89851,-4.69087,2.37891,4.4738,-0.44447,0.3676,-3.76835,1.70616,6.52311,1.60258,-0.28299,-0.13813,-0.74474,1.27687,-0.18911,0.35746,0.18524,-0.14334
1387,-0.14865,-1.86776,0.62354,-0.94192,-0.95587,0.24197,-1.8795,-15.16782,4.26491,14.98152,-11.15568,-3.08652,0.67548,-0.74951,0.02375,0.3974,-0.4758,-0.08493,11.4621,-27.70295,-1.74379,19.24665,-76.73464,-3.50507,2.34299,-6.19328,-1.14708,5.66541,-3.22207,0.15648,-8.65933,-0.65798,1.3472,1.10053,0.28083,-0.25497,-2.48423,0.53164,-0.68628,0.2544,0.1713,-0.08461
1388,-0.36452,-1.7024,0.4893,1.9658,-0.28021,-0.35543,0.53044,-18.76,3.828,25.87367,-9.21636,-1.11852,0.50584,-0.7507,0.09415,0.59331,-0.42809,-0.12738,26.32548,-31.58181,0.21398,4.94719,-60.30563,0.99284,0.76469,-5.23557,-1.9282,3.03931,-5.06662,-1.35757,-4.72188,-2.12982,1.65626,1.65811,1.01826,-0.80436,-1.54169,-0.16,0.48773,0.25307,0.10729,-0.0327
1389,-1.82383,-1.61141,0.09077,2.19561,2.77746,-0.47944,2.03527,-18.96175,1.59325,28.84271,-1.5703,2.45989,0.10444,-0.48026,0.0437,0.53413,-0.07352,0.03154,31.33112,-22.87639,5.58875,11.60778,-41.19772,-1.6937,3.2495,-3.39486,-0.30336,-0.94736,-2.93912,-2.26442,0.96352,-2.16664,1.42717,3.05651,0.73104,-0.89135,0.28678,-0.61184,0.91151,0.43451,0.02725,0.00085
1390,-3.13328,-2.62034,0.07224,0.25178,5.25135,-0.15493,0.68077,-19.6229,0.05228,22.19241,3.97697,3.33794,-0.13768,-0.20899,-0.06853,0.46745,0.27591,0.2449,24.24224,-16.76076,8.3855,28.4484,-42.31495,-7.28209,5.88349,-4.78084,1.68657,-3.31533,2.06861,-1.29129,-0.04565,-2.50331,0.30678,3.4982,-0.62751,-0.1124,0.42727,-0.59684,0.66594,0.46938,-0.03667,0.04489
1391,-3.37789,-2.68644,0.14796,-1.0314,4.88868,0.05176,-3.95011,-17.64585,-0.50817,13.50867,2.65745,-0.02278,0.05136,-0.18344,-0.09277,0.57807,0.33868,0.28587,10.30875,-18.71996,3.55176,35.0781,-52.97999,-10.27874,7.80129,-7.65839,2.25108,-2.6254,4.30148,-0.06832,-2.5943,-3.37928,0.48657,2.70726,-1.41211,0.39261,0.02387,-0.52392,0.50841,0.26219,-0.00513,0.01037
1392,-3.10702,-0.38265,-0.22725,-1.5833,2.7631,0.07269,-10.04427,-8.3992,-1.54025,6.42081,-1.73592,-3.88446,0.42994,-0.33227,-0.02087,0.67758,0.1339,0.10738,-6.99823,-17.30497,-5.4765,24.54463,-53.66893,-6.69219,8.98597,-10.02747,2.75874,0.32665,1.49935,0.27267,-3.58084,-4.34227,2.60108,1.53686,-1.14573,0.14665,-0.35435,-0.57697,0.40766,0.02307,0.04338,-0.09454
1393,-2.98411,2.39264,-0.80598,-2.9222,0.73843,0.25839,-13.39329,3.05446,-2.81495,0.87227,-6.35872,-5.38859,0.58549,-0.40692,0.04885,0.5743,-0.14194,-0.1551,-19.49777,-9.82117,-11.65414,11.84587,-45.02757,0.318,9.23055,-11.31322,4.14234,3.77842,-2.57334,0.72193,-4.1433,-4.88153,5.6469,0.54199,-1.0071,0.01228,-0.81053,-0.54989,0.39982,-0.04448,-0.04762,-0.12263
1394,-3.39866,2.62993,-0.88267,-3.61461,-0.05075,0.41679,-12.71076,5.2644,-2.79549,2.12946,-11.12794,-5.39128,0.41025,-0.36531,0.03837,0.40567,-0.25911,-0.30855,-15.74948,-8.87365,-12.75975,14.15192,-42.52152,3.49905,8.57373,-9.33967,5.0285,5.80818,-3.90068,1.47598,-1.45193,-4.27606,7.44112,0.19624,-1.26243,0.31261,-0.28119,-0.52203,0.77414,0.09446,-0.17866,-0.04475
1395,-3.64206,0.01998,-0.2817,-2.22408,0.65871,0.21667,-8.57525,-3.89342,-0.99266,12.29489,-12.86702,-4.75353,0.17002,-0.37629,-0.0254,0.28845,-0.12377,-0.2548,4.55175,-16.8263,-9.78557,26.32862,-50.48607,-0.41513,6.57853,-4.98691,4.85186,5.1727,-2.34565,1.29607,3.71115,-3.06144,7.79734,0.6515,-0.85744,0.35941,0.79136,-0.64947,1.45567,0.23952,-0.08997,0.00923
1396,-2.94337,-2.71854,0.41616,-0.56073,1.66358,-0.12362,-4.19448,-13.76927,0.86817,22.16159,-8.30991,-3.09755,0.18189,-0.53348,-0.04118,0.13778,0.05282,-0.09243,22.23281,-19.85195,-4.77726,35.38467,-60.89176,-9.29531,3.9514,-4.89391,3.3894,2.6151,-0.41927,-0.42288,0.57189,-3.29966,6.51992,1.5212,0.73006,-0.38077,-0.1451,-0.62142,1.51808,0.16941,0.28809,-0.07493
1397,-1.95531,-3.08592,0.57342,-0.092,2.05532,-0.32009,-4.14395,-15.38629,0.7856,24.99205,0.05538,-0.50868,0.40504,-0.67901,0.0187,-0.00361,0.04736,0.01315,22.47025,-11.68702,-0.69244,40.63039,-68.62947,-15.30753,1.46163,-6.61025,-0.1187,0.33136,0.02941,-2.4361,-9.8842,-3.34459,-0.94859,2.21328,2.32156,-1.36151,-2.14243,-0.06589,0.68989,-0.05571,0.66747,-0.23209
1398,-1.66373,-0.9991,0.09091,0.23573,2.52447,-0.41984,-6.8821,-9.8831,-0.82094,25.26777,5.70162,1.62726,0.5691,-0.61899,0.08832,0.07661,-0.04727,0.02909,16.68033,-2.37943,0.28135,36.44202,-71.24965,-8.57091,-1.769,-2.80703,-1.33323,-0.27573,-0.47668,-2.46457,-15.0108,-0.34708,-9.69968,2.18511,1.86436,-1.28992,-2.99345,1.04212,0.82537,-0.15153,0.58216,-0.25041
1399,-2.37445,1.43473,-0.5715,1.26352,3.85273,-0.49723,-8.23522,-3.91097,-2.24433,26.1523,5.87174,2.02155,0.56415,-0.43096,0.09954,0.45558,-0.02432,0.04457,17.58713,-1.22366,-1.91163,22.46831,-77.38342,12.61625,-2.39481,4.45478,3.75195,0.60951,-0.91193,-0.12835,-11.00961,4.17122,-14.50145,1.59583,-0.80037,0.08166,-2.79604,1.58734,0.48638,0.06819,-0.02833,-0.04882
1400,-3.26131,2.40036,-0.86965,1.73832,5.39046,-0.39692,-7.00326,-2.26064,-2.29638,21.29745,4.17904,1.18376,0.44498,-0.28607,0.06606,0.92685,0.10977,0.11282,16.56067,-5.11909,-2.79862,20.26657,-69.94434,19.89929,-0.37418,13.49145,4.23553,1.94208,-1.4282,1.9937,3.89589,9.61139,-14.59631,1.40599,-3.06454,1.30583,0.36436,1.78612,-1.03516,0.45915,-0.60045,0.17286
1401,-2.70742,1.7553,-0.49964,0.06888,5.28216,0.00777,-3.10173,-5.64232,0.17132,7.42168,3.3134,0.02432,0.38345,-0.2794,0.08175,1.1083,0.13333,0.16151,4.58915,-8.77096,2.53548,40.26093,-45.24092,-2.18791,-1.13406,12.07847,-6.72283,2.37462,-1.88057,1.6954,10.19279,8.5256,-9.85084,1.94245,-2.6644,1.16446,2.88613,1.92394,-3.0479,0.65675,-0.56935,0.17746
1402,-1.16127,-0.39671,0.42888,-2.73908,2.68386,0.49303,1.42881,-12.58168,4.56158,-3.32193,0.21542,-1.64069,0.46356,-0.47869,0.10421,0.79423,-0.04774,0.11412,-5.60454,-15.51941,9.54689,50.23843,-34.5396,-14.29358,-1.17082,0.36681,-9.84475,1.5536,-1.47784,-0.2928,1.89647,0.81548,-2.77523,2.64268,-0.31837,0.08313,1.86803,-0.07685,-3.87646,0.50769,0.00028,-0.00503
1403,-0.8411,-2.9896,1.06349,-4.05924,-0.45283,0.79407,5.53414,-18.66517,6.92043,1.52025,-6.92715,-2.92348,0.41273,-0.69761,-0.03325,0.24491,-0.19089,0.03358,4.88289,-27.30108,10.28157,47.02234,-47.52165,-5.17125,3.0538,-7.69724,-2.03893,0.73392,-0.56587,-2.00333,-6.07679,-4.17324,0.0522,2.89724,1.7587,-0.90269,0.19731,-1.9066,-2.52512,0.17714,0.52837,-0.17019
1404,-1.40897,-3.83089,0.70332,-2.90815,-1.19177,0.79754,9.95407,-18.93862,4.18682,16.06865,-11.16354,-1.57055,0.1575,-0.64262,-0.23002,-0.00953,-0.13301,0.0048,29.76266,-34.04623,5.38385,53.28344,-46.77357,-11.03027,4.6487,-9.31071,-1.34626,1.01877,-0.73724,-2.76166,-7.57977,-4.84075,2.44247,2.44343,2.53753,-1.42071,-0.23558,-1.69265,-1.19474,-0.09666,0.52223,-0.17367
1405,-2.01574,-2.95664,-0.05185,-0.66797,1.28166,0.4264,6.49542,-14.77896,-1.74018,25.37568,-3.98528,2.31801,0.08132,-0.45356,-0.25728,0.23397,-0.03952,0.00617,36.48943,-25.08042,-0.215,67.12907,-11.54646,-41.14985,-0.28829,-6.93504,-11.00659,2.09481,-2.74601,-2.98255,-3.16183,-3.2146,9.00271,1.82608,2.35408,-1.54923,-0.0324,-0.55107,-0.53758,-0.07139,0.05654,-0.04287
1406,-2.90483,-1.59191,-0.32855,0.59825,4.22429,-0.09423,-7.63516,-8.23323,-5.49138,24.33308,8.30018,4.81489,0.31999,-0.40605,-0.10664,0.5896,-0.06087,-0.016,16.60873,-2.98902,-4.09944,69.55952,12.9782,-56.82381,-4.32044,-2.72519,-14.85098,3.09993,-4.91048,-2.3972,2.26794,-0.53607,12.96748,1.47143,1.46323,-1.15889,-0.00239,0.34193,0.03785,0.24756,-0.3476,0.06182
1407,-2.72229,-0.12847,-0.10945,1.40564,4.11578,-0.49715,-16.86008,0.12013,-3.86432,23.26456,8.68196,2.06407,0.57692,-0.45808,0.10554,0.75435,-0.14948,-0.0394,5.72975,13.67812,-7.21269,42.28424,-14.6561,-28.45502,-1.71963,0.74693,-2.82561,3.82688,-4.83043,-0.66982,3.3106,1.13379,8.58181,1.36295,-0.0284,-0.31281,-0.34159,0.44588,0.49982,0.59683,-0.35239,0.02159
1408,-1.94045,0.91437,0.12698,2.08187,0.80124,-0.53526,-14.74989,2.99192,-0.07773,25.14236,-6.66692,-4.95898,0.54836,-0.4454,0.22947,0.72814,-0.19742,-0.01531,13.28743,3.02943,-11.53972,-7.83154,-60.81363,17.76423,5.00331,-0.19375,14.63698,3.89546,-2.8181,0.84785,-1.64077,-0.5529,3.13059,1.83301,-1.34311,0.33572,-1.0831,-0.18403,0.91926,0.75205,-0.15594,-0.09731
1409,-2.78785,0.92213,0.09886,1.31454,-2.97874,-0.13427,-12.22079,-5.06782,0.58323,22.40064,-23.54754,-10.76373,0.29178,-0.36329,0.19078,0.5793,-0.21108,0.01048,12.42806,-31.10377,-16.11115,-42.66091,-74.908,39.13828,10.69338,-4.10887,23.47302,2.96967,-1.46931,1.19933,-6.80934,-3.74826,3.83734,2.65336,-2.24813,0.65313,-1.47835,-0.49617,1.55112,0.55074,-0.18235,-0.08561
1410,-4.92205,0.2923,-0.19064,-0.18447,-3.85595,0.28802,-14.62166,-15.62542,-2.48894,18.77334,-26.36571,-10.14726,0.07265,-0.31395,0.04715,0.40623,-0.21104,-0.01833,2.47777,-54.16323,-16.80774,-31.96017,-69.77293,35.01941,11.60152,-4.62656,23.55073,2.39018,-1.73329,1.3919,-6.16548,-4.625,5.28311,2.12518,-2.71468,0.99378,-0.83801,-0.25793,1.88771,-0.13325,-0.35117,0.0809
1411,-5.68102,-0.40447,-0.44218,-0.29047,-1.36781,0.26623,-12.79385,-18.83143,-4.75597,23.34249,-16.30655,-4.80481,0.06284,-0.39007,-0.08872,0.28811,-0.19888,-0.09718,9.53373,-48.40501,-11.63762,10.84258,-73.46214,29.07869,7.35915,-0.51175,20.14869,2.58946,-1.83525,1.57309,-1.45778,-3.0378,1.3968,-0.34237,-1.47472,0.94351,0.16994,-0.23134,1.48028,-0.98205,-0.0995,0.18561
1412,-4.0653,-0.71765,-0.40574,0.93529,1.34601,-0.14839,-2.26405,-14.08056,-2.94454,31.54747,-6.5711,-1.33885,0.26956,-0.56158,-0.12426,0.26205,-0.21248,-0.18516,33.11555,-29.3688,-4.86707,50.56179,-64.77914,22.54048,1.3062,3.07563,11.97775,2.31021,-1.37111,0.51361,2.76683,-1.1761,-5.14552,-1.8813,1.29179,0.11804,0.8616,-0.42382,0.61279,-1.09282,0.47217,0.11742
1413,-2.11365,-0.51612,-0.13823,1.59168,2.32562,-0.48176,4.77766,-5.8366,0.65725,30.52323,-0.56347,-0.97294,0.52013,-0.66601,-0.08035,0.35885,-0.22536,-0.19009,39.83187,-8.8547,-0.27547,69.61288,-25.91673,3.81476,-2.73746,1.87813,-1.4994,1.92912,-2.63342,-1.24453,3.36348,-0.63315,-8.81791,0.02491,2.37577,-0.55546,0.86349,-0.49205,-0.18159,-0.1635,0.48285,0.03541
1414,-1.9459,-0.55143,0.20793,1.41952,2.40607,-0.47685,-1.53568,-0.14993,2.26537,20.00646,6.7215,0.27535,0.58687,-0.62824,-0.07803,0.58668,-0.17821,-0.04969,18.1745,11.17213,3.45487,68.72932,4.75092,-19.34317,-3.63441,-1.76189,-13.10009,2.68019,-5.71958,-2.1001,1.35011,-0.87856,-8.43435,3.5919,0.63549,-0.43519,0.35522,-0.39573,-0.69477,0.87199,-0.14375,0.053
1415,-3.15483,-1.44609,0.51986,1.79029,1.60229,-0.36729,-12.33161,-2.75477,1.57999,15.0643,8.98608,1.20189,0.4573,-0.57324,-0.1414,0.81957,-0.1475,0.12289,0.62724,12.44497,3.95019,51.24141,-7.54829,-29.83501,-2.76214,-3.33159,-15.84443,3.03652,-6.83637,-1.50128,-0.38695,-0.71706,-6.31452,5.11472,-1.6828,0.13538,-0.1244,-0.25397,-0.96699,0.97265,-0.61985,0.09805
1416,-4.12046,-2.67928,0.70852,2.75831,-0.37822,-0.38868,-15.76617,-12.64213,0.33583,23.93411,-2.00653,-2.27441,0.30857,-0.60935,-0.16584,0.88061,-0.18949,0.16149,10.84982,-16.7953,-3.78147,24.52448,-35.11209,-26.92055,-2.02249,-2.3186,-11.22604,1.03834,-3.86985,-0.3378,-1.41803,0.07575,-3.35176,3.57807,-2.36838,0.52322,-0.4507,-0.056,-0.98004,0.25061,-0.47146,0.05768
1417,-4.01831,-2.21178,0.49989,2.54011,-1.39313,-0.33808,-14.10694,-16.65782,-0.95014,33.83271,-14.31633,-6.38481,0.24619,-0.5881,-0.06915,0.73264,-0.19179,0.04828,26.09565,-40.48836,-13.81278,5.77365,-41.71379,-15.44863,-1.68785,0.36495,-3.16401,-0.69581,-0.33709,0.15248,-2.36731,1.5739,0.52715,1.3583,-1.2659,0.31176,-0.66518,0.4081,-0.66115,-0.266,0.01337,-0.07948
1418,-3.1259,0.86115,-0.19355,0.53569,0.77426,0.0125,-14.43722,-5.79284,-2.38006,30.55468,-10.24617,-4.14742,0.24274,-0.35649,0.10457,0.51972,-0.07672,-0.0928,19.36503,-19.99547,-13.85256,6.03274,-34.29344,5.61268,-1.31025,3.48816,5.94165,1.96917,-0.70151,0.11843,-3.6653,1.94128,2.52773,0.23739,0.13122,-0.16467,-0.97217,0.60645,-0.37339,-0.08588,0.23278,-0.14155
1419,-2.76548,3.94742,-0.84502,-1.52108,4.41484,0.43612,-16.29076,8.3119,-3.42419,18.5714,5.3364,2.32694,0.24098,-0.07995,0.20724,0.37086,0.05779,-0.14169,-0.28186,19.9697,-4.45515,20.1741,-28.1088,23.11622,-1.3765,3.36741,9.03443,7.71077,-4.39377,-0.34517,-4.71787,-1.37324,-0.63642,0.63177,1.20288,-0.65719,-1.43579,-0.27304,-0.57729,0.48648,0.10174,-0.06225
1420,-3.64314,3.73606,-0.84773,-2.46899,5.61613,0.63444,-15.11019,8.83438,-3.61263,10.37331,13.16049,5.20854,0.25136,-0.05992,0.14261,0.23068,0.0843,-0.10264,-9.81639,28.36098,1.99573,38.57388,-19.79236,14.6696,-1.55365,-1.79978,0.39242,10.26512,-7.11812,-1.69395,-2.99548,-5.44947,-5.95177,2.51848,2.14166,-1.14543,-1.26924,-1.21159,-0.47683,0.94072,-0.01132,0.03488
1421,-4.25206,0.25007,-0.22148,-2.05261,3.82698,0.54404,-9.37068,-3.03192,-2.8274,12.0282,8.87533,3.50223,0.33399,-0.35776,-0.00502,0.09328,0.04569,-0.03409,-0.038,4.7394,1.09489,51.50779,-16.0627,-12.47748,-0.28292,-7.17951,-12.33916,6.83266,-6.04032,-2.83407,2.34506,-5.40061,-9.29685,4.42629,2.25171,-1.18224,0.34897,-0.84205,0.10465,0.88395,0.07491,0.05406
1422,-3.0525,-2.75889,0.38217,0.64811,2.10152,0.11241,-1.04529,-11.24787,-0.99799,22.54595,4.53593,2.48905,0.48676,-0.71225,-0.05448,0.17828,0.05832,0.05413,24.30226,-9.54536,0.63542,47.83447,-35.19533,-23.40509,1.91648,-7.48115,-13.92635,2.36483,-2.10118,-1.60849,5.83958,-3.69578,-8.94935,4.29689,0.62288,-0.37122,1.72727,-0.28927,0.06571,0.33172,0.13312,0.00972
1423,-1.87268,-2.2476,0.40024,4.14247,1.40977,-0.46589,2.98951,-7.75483,0.91535,32.42675,4.1925,2.82477,0.55556,-0.83794,-0.0141,0.54052,0.01523,0.09563,41.94249,-2.13934,2.90509,24.11404,-54.35223,-10.21676,3.69928,-2.85675,-3.15244,2.41519,1.03949,1.32614,3.33022,-1.37498,-1.36634,1.69793,-1.48961,0.56206,1.22803,-0.09793,0.11715,-0.32513,0.03743,-0.08267
1424,-3.23468,0.43473,-0.02468,4.38601,-0.41944,-0.68413,-3.3915,-1.19729,1.09348,31.04678,-1.25806,-0.04772,0.37496,-0.65181,-0.04463,0.85526,-0.25368,-0.01946,32.43754,-1.47559,-0.38367,-6.86313,-34.04762,1.97996,5.76719,0.87404,5.65863,5.51213,-0.04899,2.24331,-2.99208,2.58181,10.48999,-1.3654,-1.3798,0.36358,-0.26853,0.65015,1.02585,-0.62073,0.05116,-0.20091
1425,-5.34323,1.7047,-0.25242,1.27973,-3.04493,-0.425,-12.53397,-2.37724,-0.1979,21.97563,-11.71468,-5.47139,0.06671,-0.31367,-0.11578,0.85137,-0.55937,-0.1944,10.70592,-19.55023,-8.57283,-22.91294,2.19876,4.93364,7.00506,-0.19469,5.26297,6.53927,-4.94637,-0.10191,-7.47434,1.84967,12.99754,-2.23863,0.78681,-0.70503,-1.42067,0.73545,1.31959,-0.42223,0.19474,-0.23655
1426,-4.24432,0.70544,-0.01636,-0.61641,-2.76823,-0.11304,-9.14269,-8.65127,-0.28454,18.73673,-12.99398,-6.5433,0.00986,-0.13951,-0.02976,0.60778,-0.5505,-0.18846,11.79325,-30.39974,-8.34566,-10.52613,7.50352,5.40674,6.15721,-2.94738,-0.65074,4.35619,-8.58211,-2.24473,-5.25609,-3.53267,3.29471,-0.4471,1.61184,-0.95477,-1.20356,-0.3033,0.22417,-0.0165,0.10922,-0.08398
1427,-0.41328,-0.30197,0.2786,1.20749,0.95032,-0.08603,5.54198,-9.58596,1.68243,28.09235,-2.14278,-1.87803,0.30634,-0.2703,0.17599,0.37138,-0.22411,0.03824,41.005,-16.31758,2.00321,23.53279,-18.63395,5.05753,6.46485,-5.04494,-5.93731,2.63469,-6.61097,-0.99305,-0.36024,-7.28776,-5.20248,2.01194,-0.32729,0.2672,-0.19789,-1.01084,-0.78783,0.26377,-0.22629,0.17805
1428,1.70148,0.14822,0.23339,3.87613,4.26097,-0.16474,13.06256,-3.21832,3.17591,42.34246,7.03185,2.14518,0.60294,-0.4902,0.23739,0.28722,0.12024,0.27796,66.28763,6.58427,8.08697,55.37531,-42.22525,1.79049,8.65178,-6.98974,-9.15335,3.85879,-0.79043,2.31289,2.02779,-6.92374,-6.18184,2.93544,-2.49316,1.61797,0.49444,-0.83237,-0.93639,0.28591,-0.39113,0.31245
1429,0.41603,1.11615,-0.08639,3.11661,4.39093,0.05214,6.11041,3.08387,2.06291,43.0973,7.11207,2.37867,0.60072,-0.55471,0.08323,0.30966,0.22627,0.3095,57.13128,17.68666,4.41421,60.86187,-41.78042,-2.72022,9.44918,-7.60554,-9.98551,5.75168,3.49637,3.73147,1.6026,-3.95232,-3.58779,2.10099,-2.261,1.46176,0.51277,-0.28029,-0.67075,0.1838,-0.13997,0.15403
1430,-1.1269,0.83092,-0.31537,-0.90659,1.57407,0.46003,-0.09381,2.94267,-0.17315,21.45244,3.15171,1.65475,0.41483,-0.52446,-0.10112,0.37127,0.02338,0.06941,22.37068,12.76575,1.52298,38.02621,-23.72154,-4.16945,7.17868,-4.98987,-7.15475,5.13689,3.13387,1.73475,0.24073,-1.59582,-1.5738,0.83314,-0.13583,-0.07673,0.14595,-0.07612,-0.45682,0.17398,0.2579,-0.17954
1431,-0.69432,-1.29252,-0.09334,-3.66907,-1.82091,0.48722,4.12173,-4.52801,-0.52638,-2.76718,0.58085,1.65668,0.35921,-0.61032,-0.16105,0.48835,-0.30042,-0.2697,-0.88203,-2.68201,4.95621,10.38877,-7.11865,-2.23951,4.54024,-1.26806,-3.01205,3.2881,-0.54989,-1.02146,-0.43472,-1.71101,-1.05065,0.25151,1.50026,-1.29183,-0.16174,-0.39657,-0.36656,0.28504,0.39168,-0.34434
1432,-0.25165,-3.45122,0.4608,-2.88748,-2.46959,0.16557,6.94337,-13.66691,1.15418,-3.86385,1.01661,1.67254,0.48047,-0.76034,-0.11163,0.56737,-0.3668,-0.39072,3.57742,-16.79996,7.76406,-2.70595,-9.94662,3.00702,5.49659,0.16597,-0.86952,3.83191,-3.66836,-1.28479,-0.53742,-3.08292,-0.40494,0.27819,1.40044,-1.06239,-0.27858,-0.71058,-0.15922,0.35157,0.21446,-0.18532
1433,-1.54549,-2.89479,0.64407,-1.13142,0.42849,0.18652,0.90818,-14.50695,2.11101,13.13877,3.69919,2.09532,0.49702,-0.68568,-0.0467,0.46966,-0.04542,-0.18975,18.50609,-15.97107,6.11349,-4.23468,-29.82335,13.46717,9.61737,-0.04786,-0.47322,6.63289,-3.77445,0.94151,-0.75557,-3.63749,1.05254,-0.19961,0.31665,-0.05355,-0.23195,-0.57468,0.15858,0.18091,0.00439,0.05477
1434,-3.07688,0.21912,0.11167,-0.92042,3.7622,0.61206,-2.9944,-5.28794,0.91677,24.1176,5.73632,3.26939,0.27547,-0.36807,-0.02726,0.29412,0.27904,0.03406,27.84776,-2.3103,4.82861,2.83177,-43.028,24.92663,12.37767,0.39648,-0.32167,8.54776,-2.39686,3.05221,-0.79736,-3.11454,1.81985,-0.91782,-0.64574,0.63858,-0.09754,-0.16785,0.29736,-0.06021,-0.1189,0.16679
1435,-2.569,2.61203,-0.53445,-2.14761,4.6508,0.86121,4.25519,3.5512,-0.69673,19.57139,4.98415,3.73682,0.0809,-0.13439,-0.00807,0.17622,0.22025,-0.02026,32.22901,7.31322,7.00947,20.73572,-37.46942,26.12243,10.54821,1.17376,-0.4381,7.71601,-2.10974,3.17791,-0.16985,-2.21153,0.93729,-0.36581,-1.21205,0.89007,-0.02263,0.13827,0.20993,-0.07869,-0.26623,0.21017
1436,-0.37904,2.89395,-0.69386,-3.93014,4.05446,0.78529,14.00199,6.14447,-0.92496,7.80759,3.97721,2.93643,0.19149,-0.17338,0.09665,0.0566,-0.06427,-0.24623,30.01993,8.61658,9.17176,32.37648,-29.64438,11.15997,5.71239,0.41203,-1.29749,4.82619,-2.75184,1.84509,0.81877,-1.18219,-0.50275,1.36296,-1.49436,1.03587,-0.03908,0.20474,0.11716,0.06047,-0.41941,0.24278
1437,1.07234,2.1379,-0.42422,-5.62717,4.21902,0.65298,13.2226,5.75062,-0.11197,-0.83954,7.43539,2.80329,0.52055,-0.39333,0.21816,-0.08857,-0.20736,-0.39144,16.73845,12.86155,8.53322,14.29524,-38.56646,-10.12243,2.57811,-1.6715,-2.1849,2.31041,-2.43094,1.23312,1.20608,-0.45882,-0.85628,1.83955,-1.83399,1.18742,-0.07634,0.08019,0.15041,0.01228,-0.48189,0.23028
1438,0.32268,0.44314,0.02193,-6.04125,4.68683,0.45277,2.66289,1.05884,0.63286,-0.5595,13.99144,3.90486,0.68644,-0.57664,0.16963,-0.1054,-0.1527,-0.41566,3.43145,17.97852,6.77034,-18.34624,-52.60033,-20.98752,4.14323,-3.10793,-2.21258,2.10462,-0.61865,2.43779,0.49249,-0.86192,-0.01698,-0.467,-2.29311,1.1266,-0.09213,-0.1323,0.15353,-0.35835,-0.43243,0.14312
1439,-1.72905,-1.78734,0.38877,-4.33515,3.84486,0.05814,-6.47375,-9.46183,0.87427,6.97943,16.73794,3.57374,0.49421,-0.57894,-0.05003,0.07768,-0.0382,-0.34633,3.68583,10.47528,5.05849,-26.80121,-45.46148,-16.8446,9.6028,-3.66117,-2.0466,3.80325,1.36569,3.87531,-0.92192,-1.8043,1.06126,-3.13765,-2.10604,0.63711,-0.09396,-0.19222,0.01324,-0.6564,-0.237,0.00298
1440,-3.33669,-2.16384,0.32364,-2.20137,3.011,-0.16855,-9.17507,-14.54541,0.58032,11.55799,15.59731,1.69335,0.19399,-0.52682,-0.24483,0.25327,0.13541,-0.10132,6.74042,0.01506,3.45302,-4.22791,-24.45327,-6.1793,15.08141,-4.0818,-2.07832,5.91087,2.13225,3.55565,-2.10465,-2.15586,1.84654,-2.30826,-0.70597,0.03781,-0.15364,-0.03612,-0.06222,-0.37014,0.1001,-0.09759
1441,-3.54039,0.79354,-0.24565,-1.81054,4.16942,0.19573,-8.3346,-3.06909,-0.04151,7.52936,14.92538,1.44635,0.06556,-0.48514,-0.25653,0.2087,0.40683,0.306,-0.86074,7.58182,2.57539,21.8042,-18.91817,2.76284,15.96191,-2.7782,-1.26775,7.43848,1.34476,1.65204,-1.93796,-1.99228,2.046,1.96597,1.20002,-0.16627,-0.2065,0.05423,0.08392,0.39172,0.40969,-0.09417
1442,-2.19442,4.17325,-0.70142,-1.44229,5.63476,0.75751,-3.65303,13.10283,-0.15496,5.68291,11.51386,2.62783,0.1218,-0.28889,-0.08082,0.17266,0.62558,0.64562,-0.73106,20.29862,2.28341,26.33451,-26.13196,5.14316,12.74416,1.09659,0.5666,6.76278,-0.22784,-0.32865,-1.33543,-1.4322,2.09717,5.2977,2.12889,-0.02226,-0.17879,-0.01253,0.29444,0.89998,0.44249,-0.0374
1443,-0.046,3.74708,-0.45739,1.71002,5.33272,0.8286,5.9438,13.41898,0.43641,15.94425,3.62379,2.94024,0.30535,-0.00326,0.14808,0.54525,0.63984,0.74645,24.61043,12.7302,2.56346,8.27826,-21.94646,-0.53661,11.59196,4.15591,1.93153,2.0366,-1.09671,-1.43624,-1.32767,-1.51498,2.23796,4.4713,1.14379,0.19929,0.02822,-0.24452,0.25305,0.65249,0.10582,0.01389
1444,1.60321,0.10452,0.1365,4.88368,3.61681,0.49234,14.81653,0.09916,0.54685,26.32638,-2.30564,2.24433,0.58609,0.01167,0.27277,1.06184,0.45774,0.62315,50.24879,-7.25752,3.50629,-14.62016,-8.03655,-8.22527,14.06038,3.93332,1.58874,-4.17313,-0.45363,-1.35065,-0.7714,-2.52445,1.67397,1.15804,-0.90252,0.4669,0.42103,-0.41797,-0.07512,-0.03648,-0.3374,0.05487
1445,1.68203,-2.26802,0.35926,4.15301,1.94171,0.18378,16.00442,-8.24135,-0.05588,23.04757,-0.78378,1.41519,0.83519,-0.36803,0.23373,1.15947,0.2303,0.39561,47.84835,-13.18273,4.70197,-23.43341,-6.95619,-6.07841,14.09532,1.99039,0.27619,-4.51236,0.5753,0.02453,0.9705,-3.15267,0.26194,-0.97514,-1.7549,0.60548,0.66954,-0.32909,-0.34108,-0.45114,-0.44274,0.07587
1446,-0.24758,-1.49936,0.148,1.64488,1.51321,-0.11223,8.45379,-5.79002,-0.09186,13.605,6.3508,0.70661,0.79551,-0.79809,0.05567,0.88133,0.12912,0.20949,27.29929,-1.3653,5.63716,-15.98276,-21.03671,9.47556,9.41525,0.48756,-0.1099,3.59252,0.24506,1.99306,2.11868,-3.21689,-0.52144,-0.69047,-0.41947,0.31117,0.47162,-0.21051,-0.26712,-0.27666,-0.10202,0.06581
1447,-2.81857,0.74324,-0.13108,0.89208,2.87205,-0.43054,-1.71819,0.63545,0.71069,10.85446,14.08556,0.91842,0.41784,-0.87138,-0.11754,0.57991,0.20662,0.15687,13.03516,14.20225,6.42126,-6.1055,-30.2628,23.57473,5.07893,0.18448,1.23108,11.82988,-1.27892,2.96301,0.81887,-3.50576,0.40512,0.78027,1.3995,-0.16777,-0.11992,-0.29482,0.02625,0.16347,0.30479,0.01803
1448,-3.87876,2.39734,-0.25855,1.18434,5.43751,-0.45435,-7.83729,5.64943,1.26166,14.50433,19.72519,3.32494,0.04471,-0.61734,-0.13568,0.3828,0.35886,0.21779,10.71616,26.03632,7.68518,0.23162,-27.21317,18.07266,4.88754,0.99891,2.83573,10.99718,-1.87091,1.80883,-1.52908,-3.885,1.76731,2.35631,1.85434,-0.2191,-0.61868,-0.46317,0.19387,0.4289,0.45314,-0.06657
