PaulMeinheit/Bachelor_Muay_Thai/processed_Data/N2/roundhouse/sliced/JointPositions/sliced2.csv
Unnamed: 0_level_0,Neck_Joint_Position,Neck_Joint_Position,Neck_Joint_Position,L_ANKLE_POSITION,L_ANKLE_POSITION,L_ANKLE_POSITION,R_ANKLE_POSITION,R_ANKLE_POSITION,R_ANKLE_POSITION,L_KNEE_POSITION,L_KNEE_POSITION,L_KNEE_POSITION,R_KNEE_POSITION,R_KNEE_POSITION,R_KNEE_POSITION,L_HIP_POSITION,L_HIP_POSITION,L_HIP_POSITION,R_HIP_POSITION,R_HIP_POSITION,R_HIP_POSITION,L_SHOULDER_POSITION,L_SHOULDER_POSITION,L_SHOULDER_POSITION,R_SHOULDER_POSITION,R_SHOULDER_POSITION,R_SHOULDER_POSITION,L_ELBOW_POSITION,L_ELBOW_POSITION,L_ELBOW_POSITION,R_ELBOW_POSITION,R_ELBOW_POSITION,R_ELBOW_POSITION,L_WRIST_POSITION,L_WRIST_POSITION,L_WRIST_POSITION,R_WRIST_POSITION,R_WRIST_POSITION,R_WRIST_POSITION
ITEM,X,Y,Z,X,Y,Z,X,Y,Z,X,Y,Z,X,Y,Z,X,Y,Z,X,Y,Z,X,Y,Z,X,Y,Z,X,Y,Z,X,Y,Z,X,Y,Z,X,Y,Z
797,0.21451,0.28083,1.36555,0.11357,0.52767,0.07298,0.06088,0.04219,0.06691,0.1353,0.46303,0.43621,0.1077,0.10555,0.4272,0.09802,0.31897,0.78273,0.14871,0.15747,0.8038,0.11747,0.40882,1.27791,0.22547,0.11253,1.30117,0.06014,0.4644,1.01207,0.16435,-0.05581,1.08495,0.21206,0.6176,1.1247,0.27233,-0.13911,0.8936
798,0.21393,0.27948,1.36541,0.11406,0.52895,0.07178,0.06089,0.04224,0.06692,0.13394,0.46078,0.43447,0.10758,0.10566,0.42721,0.09786,0.31851,0.78185,0.14869,0.15718,0.80386,0.11711,0.4083,1.27754,0.22429,0.11144,1.30065,0.05883,0.46543,1.01224,0.16359,-0.05759,1.08484,0.21034,0.61694,1.12767,0.27329,-0.1414,0.8947
799,0.2132,0.27829,1.36533,0.11467,0.53018,0.07075,0.06094,0.04236,0.06687,0.13259,0.4586,0.43289,0.10739,0.10592,0.42716,0.09754,0.31828,0.78117,0.14847,0.15708,0.80386,0.11676,0.40779,1.27754,0.2229,0.11046,1.30011,0.05823,0.46618,1.01256,0.16283,-0.05917,1.0846,0.20878,0.61652,1.13075,0.2745,-0.14324,0.89572
800,0.2124,0.27732,1.36522,0.11506,0.53087,0.06994,0.06097,0.04239,0.06672,0.13131,0.45677,0.43164,0.10726,0.10623,0.42698,0.09706,0.31832,0.78075,0.14813,0.1572,0.80373,0.11642,0.40724,1.27783,0.2218,0.10964,1.29965,0.05777,0.46667,1.01311,0.1621,-0.06044,1.08439,0.20711,0.6163,1.1337,0.27568,-0.14476,0.89676
801,0.21156,0.27664,1.36504,0.11499,0.53098,0.0694,0.06094,0.04217,0.06655,0.13022,0.45539,0.43085,0.10735,0.10648,0.42672,0.09649,0.31851,0.78062,0.14776,0.15744,0.80352,0.11594,0.40663,1.278,0.22125,0.10901,1.29937,0.05661,0.46737,1.01373,0.16154,-0.06131,1.0843,0.20508,0.61622,1.13636,0.27666,-0.1462,0.89788
802,0.21071,0.27616,1.36481,0.11447,0.53079,0.06914,0.06083,0.04175,0.06653,0.1294,0.45436,0.43043,0.1077,0.10669,0.42653,0.09607,0.31871,0.78072,0.14743,0.15765,0.8034,0.11517,0.40596,1.27788,0.22106,0.10862,1.29923,0.05465,0.46866,1.01434,0.1612,-0.06188,1.08435,0.20275,0.61631,1.13884,0.27738,-0.14767,0.89899
803,0.20993,0.27571,1.36463,0.11374,0.53063,0.06903,0.0607,0.04143,0.06672,0.12881,0.45356,0.43017,0.1082,0.10689,0.42654,0.09596,0.31884,0.78087,0.14719,0.15773,0.80351,0.11415,0.40532,1.27772,0.22081,0.1085,1.29906,0.05261,0.47039,1.015,0.16089,-0.0624,1.08452,0.20052,0.61659,1.14142,0.27784,-0.14906,0.90005
804,0.20929,0.27517,1.36458,0.11314,0.53063,0.06893,0.06068,0.04143,0.06701,0.12821,0.45291,0.42993,0.10872,0.1071,0.42672,0.09606,0.31894,0.78098,0.14698,0.15775,0.80378,0.11314,0.4048,1.27786,0.22017,0.10861,1.29877,0.05117,0.47207,1.01579,0.16047,-0.06304,1.08476,0.19873,0.61687,1.14421,0.27826,-0.15013,0.90104
805,0.20871,0.2745,1.36467,0.11289,0.53075,0.06881,0.06083,0.04175,0.06719,0.12742,0.45234,0.42969,0.10923,0.10733,0.42687,0.09601,0.31906,0.78106,0.14665,0.15781,0.80404,0.11234,0.40435,1.27835,0.21918,0.10882,1.29846,0.05046,0.47332,1.01671,0.16007,-0.06372,1.085,0.19748,0.61695,1.14706,0.279,-0.15071,0.90197
806,0.20806,0.27378,1.36492,0.11293,0.53083,0.06882,0.06106,0.04222,0.06724,0.12645,0.45177,0.42959,0.1098,0.10765,0.42689,0.09554,0.31915,0.78126,0.14616,0.15788,0.8042,0.11175,0.40391,1.279,0.21823,0.10903,1.29828,0.05021,0.47419,1.01762,0.15996,-0.06433,1.08526,0.19653,0.61689,1.14977,0.28021,-0.15078,0.90283
807,0.20736,0.27319,1.36529,0.11308,0.53076,0.06901,0.06125,0.04262,0.06727,0.12548,0.45122,0.42972,0.1105,0.10803,0.42686,0.09486,0.31913,0.78161,0.14575,0.15792,0.80432,0.11121,0.4035,1.27961,0.21765,0.10916,1.29826,0.05,0.475,1.01848,0.16023,-0.0649,1.08558,0.19552,0.61696,1.1523,0.28179,-0.15041,0.90357
808,0.20678,0.27298,1.36569,0.11321,0.53064,0.06929,0.06137,0.04285,0.06745,0.12467,0.45073,0.42994,0.11129,0.10842,0.42692,0.09433,0.31902,0.782,0.14563,0.15791,0.80451,0.11052,0.40321,1.28012,0.21741,0.10909,1.29839,0.04959,0.47603,1.0193,0.16079,-0.06546,1.0859,0.19426,0.61734,1.1547,0.28365,-0.14973,0.90419
809,0.20634,0.27318,1.36601,0.11329,0.53062,0.06948,0.06146,0.043,0.06774,0.1241,0.45041,0.43009,0.11204,0.10874,0.42709,0.09408,0.31892,0.78227,0.14568,0.15791,0.80479,0.10955,0.40303,1.28062,0.21723,0.10881,1.2986,0.04896,0.47738,1.02014,0.16149,-0.06608,1.08615,0.19285,0.61803,1.15707,0.28577,-0.14889,0.90473
810,0.20576,0.27361,1.36625,0.11335,0.53071,0.06956,0.06154,0.04316,0.06796,0.1237,0.45023,0.43012,0.11254,0.10888,0.42725,0.0939,0.31892,0.78238,0.14559,0.15795,0.80502,0.10825,0.40275,1.28115,0.21707,0.10841,1.29882,0.04825,0.47893,1.02107,0.16224,-0.06681,1.08641,0.19147,0.61879,1.15949,0.28806,-0.14791,0.90528
811,0.20481,0.27396,1.36646,0.11337,0.53084,0.06959,0.06163,0.04326,0.06796,0.12337,0.45015,0.43011,0.1127,0.10874,0.42729,0.09355,0.31899,0.78242,0.14522,0.15802,0.80507,0.10671,0.4022,1.28172,0.21717,0.10802,1.29901,0.04744,0.48042,1.02208,0.16301,-0.06767,1.08682,0.19013,0.61934,1.16199,0.29038,-0.14666,0.90584
812,0.20373,0.27409,1.36665,0.11332,0.53093,0.06962,0.06169,0.04321,0.06781,0.12296,0.45013,0.43013,0.11257,0.10843,0.42721,0.09292,0.3191,0.78247,0.1447,0.15814,0.80497,0.1051,0.40153,1.28226,0.21751,0.1077,1.2992,0.04637,0.4818,1.02312,0.16394,-0.0685,1.08727,0.18867,0.61972,1.16441,0.29284,-0.14499,0.9063
813,0.20299,0.27414,1.36681,0.11318,0.53095,0.06964,0.0617,0.0431,0.06762,0.12233,0.45009,0.43015,0.11232,0.10823,0.42707,0.09205,0.3192,0.78253,0.14422,0.15834,0.8048,0.10366,0.40109,1.28269,0.21784,0.10752,1.29939,0.04486,0.48328,1.02416,0.16523,-0.06905,1.08753,0.18708,0.62026,1.16645,0.29569,-0.14294,0.9066
814,0.20265,0.27431,1.36691,0.11298,0.53085,0.06959,0.06164,0.04312,0.06742,0.12153,0.44987,0.43009,0.11203,0.10832,0.4269,0.09109,0.31926,0.78255,0.14383,0.15855,0.80462,0.10253,0.40112,1.28295,0.21795,0.1075,1.29955,0.04295,0.48499,1.02514,0.16699,-0.06931,1.0875,0.18549,0.62114,1.16791,0.29908,-0.14068,0.90674
815,0.20234,0.27464,1.367,0.11284,0.5306,0.06942,0.06153,0.04329,0.06723,0.12078,0.44938,0.42988,0.11169,0.10864,0.42671,0.0902,0.31925,0.78251,0.14342,0.15869,0.80446,0.10165,0.40153,1.28303,0.21781,0.10758,1.2997,0.04091,0.48678,1.02595,0.16922,-0.06943,1.08725,0.18393,0.62221,1.16892,0.30292,-0.13839,0.90674
816,0.20182,0.27485,1.36709,0.11283,0.53032,0.06922,0.06144,0.04339,0.0671,0.12031,0.44878,0.42961,0.11137,0.10901,0.42657,0.08948,0.31925,0.78244,0.14284,0.15873,0.80438,0.10086,0.40203,1.28299,0.21747,0.10762,1.29991,0.0391,0.48836,1.02652,0.17185,-0.06946,1.08687,0.18238,0.62326,1.16973,0.30706,-0.13595,0.90655
817,0.20118,0.27476,1.36719,0.11287,0.53024,0.06912,0.06144,0.0433,0.06712,0.12009,0.44832,0.42943,0.11115,0.10929,0.42654,0.08888,0.31928,0.7824,0.14211,0.15873,0.80443,0.10016,0.40233,1.2829,0.21701,0.10765,1.30023,0.03764,0.48966,1.02695,0.17471,-0.06928,1.08637,0.18092,0.62418,1.17051,0.31132,-0.13313,0.90616
818,0.20049,0.27448,1.36732,0.11279,0.5304,0.06916,0.06152,0.04321,0.06725,0.11987,0.44813,0.4294,0.11095,0.10941,0.42667,0.08833,0.31934,0.78243,0.14136,0.15875,0.80462,0.09961,0.40237,1.28284,0.21662,0.10784,1.30053,0.03637,0.49084,1.02746,0.17767,-0.06886,1.08585,0.17965,0.62511,1.17127,0.31564,-0.12984,0.90568
819,0.19967,0.27433,1.36746,0.1126,0.53056,0.06929,0.06157,0.04335,0.06738,0.11943,0.44812,0.42949,0.11062,0.10938,0.42689,0.08771,0.31942,0.78255,0.14067,0.15882,0.80485,0.09924,0.40238,1.28279,0.21651,0.10821,1.30063,0.03501,0.49221,1.02813,0.18069,-0.06852,1.08543,0.17844,0.62622,1.17202,0.32008,-0.12625,0.90529
820,0.19872,0.2746,1.36756,0.11239,0.53053,0.06945,0.06146,0.04365,0.0674,0.11882,0.44806,0.42966,0.11014,0.10931,0.42702,0.08687,0.31951,0.78274,0.13996,0.15894,0.80498,0.09889,0.40255,1.28258,0.21666,0.10859,1.30049,0.03346,0.49397,1.0288,0.18376,-0.06852,1.08513,0.1772,0.62756,1.17277,0.32473,-0.12246,0.90504
821,0.19786,0.2753,1.36753,0.1122,0.53035,0.06963,0.06122,0.0438,0.06732,0.11831,0.44785,0.42983,0.10958,0.10933,0.42701,0.08584,0.31953,0.78295,0.13921,0.15903,0.80498,0.09842,0.40286,1.28217,0.21692,0.10882,1.30021,0.0318,0.49605,1.02934,0.18693,-0.06868,1.08476,0.17592,0.62901,1.17351,0.32956,-0.11842,0.90476
822,0.19735,0.27613,1.36734,0.11206,0.53021,0.0698,0.06102,0.04367,0.06725,0.11812,0.44775,0.43001,0.10895,0.10943,0.42695,0.08483,0.31938,0.78304,0.13849,0.15896,0.80495,0.09784,0.40315,1.28177,0.2171,0.10901,1.29998,0.03014,0.49813,1.02989,0.19037,-0.06849,1.0841,0.17472,0.6305,1.17415,0.33458,-0.11401,0.90424
823,0.19729,0.27677,1.36708,0.11208,0.53014,0.06992,0.06093,0.0434,0.06723,0.11818,0.44808,0.43022,0.10818,0.10941,0.42698,0.08399,0.319,0.7829,0.13782,0.15866,0.80501,0.09725,0.40344,1.28172,0.2171,0.10926,1.3,0.02864,0.49991,1.03066,0.19441,-0.0676,1.08313,0.17369,0.63215,1.17456,0.33993,-0.10912,0.90337
824,0.19739,0.27718,1.36688,0.11229,0.53013,0.06993,0.06092,0.04314,0.06723,0.11827,0.44881,0.4304,0.10726,0.10911,0.42711,0.08332,0.31854,0.78257,0.13714,0.15826,0.80513,0.09666,0.404,1.28219,0.21684,0.10965,1.30034,0.02751,0.50132,1.03161,0.19917,-0.06607,1.08209,0.17282,0.63405,1.17479,0.34555,-0.10376,0.90218
825,0.19729,0.27763,1.36678,0.11256,0.53019,0.06983,0.06094,0.0429,0.06722,0.11817,0.44963,0.43048,0.10632,0.10863,0.42726,0.08272,0.31828,0.7822,0.13646,0.15805,0.80523,0.09602,0.40501,1.28303,0.21635,0.11027,1.30075,0.02681,0.50257,1.03256,0.20423,-0.06433,1.08122,0.17205,0.63616,1.17502,0.35098,-0.09813,0.90083
826,0.19679,0.27837,1.36671,0.11269,0.53035,0.06969,0.06098,0.04271,0.0672,0.11781,0.45029,0.43046,0.10544,0.10828,0.42739,0.08211,0.31828,0.7819,0.13588,0.15811,0.80527,0.0954,0.40629,1.28383,0.21598,0.11109,1.30082,0.02617,0.50405,1.03344,0.209,-0.06276,1.08048,0.17134,0.63833,1.17531,0.35594,-0.09246,0.89953
827,0.196,0.27936,1.36657,0.11256,0.53056,0.06965,0.06098,0.04264,0.06716,0.11738,0.45091,0.43051,0.10454,0.10815,0.42747,0.0814,0.31835,0.78173,0.13544,0.15829,0.80528,0.09491,0.40746,1.28413,0.21613,0.11197,1.30051,0.02503,0.50609,1.03426,0.21334,-0.0613,1.07961,0.17071,0.64047,1.17551,0.36073,-0.08667,0.89837
828,0.19528,0.28035,1.36635,0.11226,0.53074,0.0698,0.06089,0.04274,0.06709,0.11715,0.45169,0.43079,0.10354,0.10798,0.42756,0.08061,0.31829,0.78163,0.13507,0.15839,0.80527,0.09456,0.40835,1.28383,0.21677,0.11271,1.30018,0.02325,0.50866,1.03504,0.21759,-0.05955,1.07848,0.17012,0.64266,1.17542,0.36576,-0.08054,0.89732
829,0.19485,0.28119,1.36605,0.11193,0.53082,0.07007,0.0607,0.0429,0.06703,0.11726,0.45274,0.43127,0.10251,0.10762,0.42769,0.07981,0.31809,0.78153,0.13464,0.15834,0.80531,0.09427,0.40909,1.28329,0.21749,0.11328,1.30012,0.02129,0.51135,1.03578,0.22198,-0.05731,1.07717,0.16947,0.64514,1.17497,0.37105,-0.07391,0.89629
830,0.19463,0.28194,1.36572,0.11175,0.53081,0.0703,0.06049,0.043,0.06703,0.11756,0.45405,0.43178,0.10161,0.10728,0.42785,0.07909,0.31792,0.78136,0.13411,0.15827,0.80541,0.09393,0.40973,1.28292,0.21793,0.11387,1.30017,0.01965,0.51365,1.03648,0.22654,-0.05472,1.07583,0.16864,0.64809,1.1742,0.37656,-0.06657,0.89536
831,0.19444,0.28282,1.36537,0.11183,0.5308,0.07041,0.06036,0.04302,0.06703,0.11787,0.45552,0.43219,0.10091,0.10721,0.42792,0.0785,0.31805,0.78114,0.13349,0.15843,0.80545,0.09336,0.41029,1.28282,0.218,0.11467,1.30001,0.01832,0.51544,1.03714,0.23133,-0.05196,1.07444,0.16769,0.65132,1.17301,0.38246,-0.05836,0.89462
832,0.19426,0.28395,1.36499,0.11212,0.53082,0.0704,0.06032,0.04307,0.06689,0.1182,0.4571,0.4325,0.10031,0.10733,0.42784,0.07791,0.3185,0.7809,0.13287,0.15888,0.80531,0.09246,0.41093,1.28283,0.21797,0.11583,1.29956,0.0169,0.517,1.03771,0.23661,-0.04885,1.07294,0.16685,0.65461,1.17118,0.38893,-0.04929,0.89402
833,0.19412,0.28529,1.36462,0.11246,0.53082,0.07042,0.06034,0.04318,0.06661,0.11869,0.4588,0.43286,0.0997,0.10737,0.42764,0.07712,0.31902,0.78064,0.13229,0.15947,0.80504,0.09139,0.41184,1.28291,0.21823,0.11734,1.29907,0.0152,0.51859,1.03828,0.24248,-0.04502,1.0713,0.16621,0.65807,1.16857,0.39577,-0.03974,0.89328
834,0.19377,0.2868,1.36431,0.11268,0.53073,0.07062,0.0603,0.0433,0.06631,0.11942,0.46067,0.43343,0.09911,0.10724,0.42745,0.07606,0.31937,0.78038,0.13174,0.16,0.80475,0.09037,0.4129,1.28311,0.21893,0.11908,1.29876,0.01341,0.5201,1.03891,0.24869,-0.04037,1.06959,0.16557,0.66205,1.16513,0.40252,-0.03003,0.89227
835,0.19292,0.28847,1.36407,0.11282,0.53052,0.07101,0.06011,0.0433,0.06611,0.12026,0.46271,0.43424,0.0986,0.10712,0.42729,0.07486,0.31965,0.7802,0.13125,0.16051,0.80451,0.08936,0.41392,1.28327,0.21976,0.1209,1.29861,0.01158,0.52148,1.03949,0.25478,-0.03513,1.06783,0.16471,0.66659,1.16084,0.40875,-0.02009,0.89096
836,0.19171,0.2902,1.36387,0.11308,0.53015,0.07148,0.05981,0.04307,0.06597,0.12102,0.4649,0.43516,0.09812,0.10711,0.42714,0.07374,0.32007,0.78014,0.13093,0.16119,0.80424,0.08813,0.41502,1.28307,0.22049,0.12278,1.29843,0.00951,0.52303,1.03976,0.26049,-0.02949,1.06597,0.16366,0.67148,1.15567,0.4143,-0.00956,0.88944
837,0.19072,0.29186,1.36369,0.11353,0.52972,0.07192,0.05958,0.04268,0.06579,0.12177,0.46717,0.43608,0.09757,0.10707,0.42693,0.0728,0.32072,0.78013,0.13079,0.16208,0.80386,0.08658,0.41652,1.28243,0.22133,0.1248,1.29815,0.00709,0.52501,1.03962,0.26597,-0.02348,1.06395,0.16257,0.67652,1.14964,0.41943,0.00181,0.88782
838,0.19019,0.29356,1.36352,0.11401,0.52947,0.07247,0.05952,0.04233,0.06554,0.12276,0.46956,0.43705,0.097,0.1069,0.42671,0.07194,0.3215,0.78015,0.13067,0.16306,0.80343,0.0849,0.41853,1.28163,0.22264,0.12699,1.29778,0.00455,0.52712,1.03915,0.27157,-0.01699,1.06177,0.16142,0.6817,1.14275,0.42456,0.01414,0.88616
839,0.18969,0.2956,1.36332,0.1144,0.52942,0.07323,0.0596,0.04215,0.06538,0.12411,0.47213,0.43822,0.09656,0.1068,0.42658,0.07111,0.32229,0.7802,0.13059,0.16407,0.8031,0.08329,0.42076,1.28102,0.22434,0.12929,1.29734,0.00215,0.52891,1.0386,0.27742,-0.00991,1.05937,0.1598,0.68737,1.13487,0.42981,0.02757,0.88448
840,0.18874,0.29814,1.36304,0.11474,0.52934,0.07414,0.05967,0.04214,0.06542,0.12558,0.47497,0.43954,0.0963,0.1071,0.4266,0.0704,0.32299,0.78023,0.13082,0.16511,0.80296,0.08183,0.42281,1.28078,0.2261,0.13177,1.29683,-2e-05,0.53022,1.03827,0.28322,-0.00217,1.05677,0.15732,0.69399,1.12578,0.43491,0.04217,0.88288
841,0.18728,0.30091,1.36268,0.11521,0.52895,0.07497,0.05965,0.04233,0.06557,0.12677,0.47816,0.44086,0.0961,0.10782,0.42667,0.06991,0.32357,0.7801,0.13153,0.16616,0.80289,0.08031,0.42439,1.2809,0.22776,0.1345,1.2963,-0.00206,0.53124,1.03832,0.28857,0.00623,1.05407,0.15388,0.70164,1.11501,0.43951,0.05797,0.88157
842,0.1855,0.3036,1.36229,0.116,0.52823,0.07566,0.05957,0.04266,0.06566,0.12757,0.48172,0.44212,0.09586,0.10864,0.42669,0.06961,0.32405,0.77975,0.13269,0.16725,0.80274,0.07835,0.42537,1.28111,0.22937,0.13749,1.29582,-0.00423,0.53212,1.03856,0.29346,0.01516,1.05137,0.1497,0.70961,1.10208,0.44349,0.07503,0.88072
843,0.18357,0.30614,1.36192,0.1173,0.52736,0.07631,0.05952,0.04294,0.0657,0.12823,0.48557,0.44336,0.09564,0.10934,0.42667,0.06942,0.32461,0.77929,0.13416,0.16851,0.80247,0.07573,0.42599,1.28108,0.23091,0.14074,1.29544,-0.00692,0.53263,1.03851,0.29815,0.02455,1.04885,0.14451,0.71687,1.08709,0.44682,0.09347,0.88044
844,0.18162,0.30874,1.36159,0.11915,0.52651,0.07704,0.0595,0.04299,0.06578,0.12908,0.48955,0.44463,0.09559,0.10995,0.42665,0.06933,0.3255,0.7789,0.13578,0.17013,0.80211,0.0727,0.42688,1.28076,0.23218,0.14423,1.29527,-0.01035,0.53243,1.03785,0.3028,0.03459,1.04664,0.13734,0.72307,1.07067,0.44946,0.11338,0.88083
845,0.17983,0.31152,1.36135,0.12138,0.52576,0.0779,0.05943,0.04286,0.06593,0.13027,0.49351,0.44596,0.09581,0.11069,0.42661,0.06945,0.32691,0.77878,0.1374,0.17215,0.80171,0.0697,0.42853,1.28031,0.23292,0.14784,1.29547,-0.01444,0.53149,1.03666,0.30737,0.04558,1.04481,0.12774,0.72833,1.0532,0.45138,0.13481,0.88198
846,0.17817,0.31443,1.36127,0.12372,0.5251,0.07886,0.05926,0.04272,0.06612,0.13179,0.49733,0.44731,0.09629,0.11167,0.42652,0.06988,0.32874,0.77891,0.13891,0.17438,0.8013,0.06691,0.43065,1.27992,0.23325,0.15153,1.29602,-0.01872,0.53015,1.03535,0.31175,0.0575,1.04338,0.11648,0.73252,1.03462,0.45245,0.15762,0.88403
847,0.17631,0.31735,1.36132,0.12596,0.5246,0.0798,0.05908,0.04273,0.06634,0.1335,0.50104,0.44855,0.09708,0.11286,0.42641,0.07058,0.33073,0.77908,0.14041,0.17666,0.80092,0.06417,0.43255,1.27972,0.23358,0.15565,1.29684,-0.02271,0.52873,1.03427,0.3157,0.06989,1.04243,0.10417,0.73552,1.01488,0.45249,0.18131,0.88721
848,0.17396,0.32034,1.36141,0.1281,0.52436,0.0805,0.05901,0.04294,0.06658,0.13518,0.50474,0.44949,0.0982,0.11423,0.42629,0.07144,0.33286,0.77905,0.14213,0.17912,0.80054,0.06119,0.43384,1.27972,0.23414,0.16055,1.29791,-0.02627,0.52726,1.03341,0.31893,0.08239,1.04192,0.09032,0.73729,0.9943,0.45143,0.20515,0.89162
849,0.17121,0.32352,1.36143,0.13034,0.52432,0.08078,0.05904,0.0433,0.06679,0.13679,0.50848,0.44997,0.09965,0.11573,0.42611,0.07238,0.33531,0.77872,0.14425,0.18209,0.80003,0.05767,0.43474,1.27977,0.23469,0.16599,1.29909,-0.0297,0.5256,1.03247,0.3215,0.09531,1.04161,0.07458,0.7374,0.97331,0.44953,0.22882,0.8967
850,0.16829,0.32695,1.36137,0.13297,0.52432,0.08058,0.05912,0.0436,0.06697,0.13848,0.51224,0.44992,0.10151,0.11731,0.42583,0.0734,0.3381,0.77804,0.14688,0.18564,0.7993,0.05347,0.43574,1.27967,0.23489,0.17149,1.30008,-0.03341,0.52356,1.0311,0.32393,0.10938,1.04115,0.05768,0.73509,0.9524,0.44711,0.25294,0.90175
851,0.16522,0.33057,1.36125,0.13613,0.5242,0.08003,0.05925,0.04365,0.06713,0.14049,0.51605,0.44949,0.10392,0.11894,0.42539,0.07471,0.34094,0.77695,0.15018,0.18947,0.79834,0.04882,0.43731,1.27916,0.2348,0.17699,1.30062,-0.03765,0.52095,1.02902,0.3265,0.12509,1.04038,0.04049,0.73005,0.93204,0.44416,0.27865,0.907
852,0.16171,0.33436,1.36112,0.13974,0.52399,0.07932,0.05947,0.04341,0.06721,0.14283,0.52001,0.44886,0.10698,0.12066,0.42469,0.07648,0.34354,0.77547,0.15419,0.19325,0.79712,0.04401,0.43958,1.27796,0.23486,0.18289,1.30094,-0.04243,0.51771,1.02602,0.32899,0.14228,1.03956,0.02317,0.72266,0.91233,0.44036,0.30627,0.91338
853,0.15755,0.33826,1.36098,0.14359,0.52385,0.07859,0.0599,0.04302,0.06718,0.1454,0.5242,0.44817,0.11061,0.12255,0.42372,0.07869,0.34601,0.77376,0.15875,0.197,0.79566,0.03906,0.44212,1.27584,0.23524,0.18948,1.30165,-0.04768,0.51401,1.02216,0.33107,0.16033,1.03937,0.00543,0.71341,0.89312,0.43553,0.33453,0.92122
854,0.15283,0.34226,1.36082,0.14757,0.52394,0.07786,0.06061,0.04279,0.06717,0.14807,0.52849,0.44741,0.1147,0.12464,0.42267,0.08103,0.34875,0.77209,0.1636,0.20113,0.79411,0.03364,0.44421,1.27299,0.23568,0.1967,1.3032,-0.05343,0.51002,1.01777,0.3327,0.17837,1.04037,-0.01282,0.70263,0.87463,0.42965,0.36169,0.92987
855,0.14782,0.34644,1.36067,0.15147,0.52432,0.07699,0.06147,0.04289,0.0674,0.15076,0.53266,0.44648,0.11925,0.12696,0.42181,0.08316,0.35214,0.7706,0.16851,0.20611,0.79264,0.02759,0.44554,1.26991,0.23586,0.20447,1.30531,-0.05951,0.50562,1.0133,0.33406,0.19588,1.04242,-0.03111,0.69034,0.85739,0.42273,0.38713,0.93861
856,0.14272,0.35084,1.3605,0.15494,0.52486,0.07587,0.06228,0.04317,0.06801,0.1535,0.53667,0.44526,0.12436,0.1296,0.42112,0.08495,0.3562,0.76921,0.17333,0.21199,0.79129,0.02125,0.44649,1.26704,0.23568,0.21279,1.30718,-0.0656,0.50041,1.00898,0.33534,0.21308,1.04471,-0.04871,0.6765,0.84182,0.41505,0.41152,0.94732
857,0.13749,0.35523,1.36029,0.15771,0.52526,0.07463,0.06299,0.04337,0.06899,0.15611,0.54094,0.44388,0.13015,0.13265,0.42046,0.08653,0.36065,0.76771,0.17808,0.21846,0.78998,0.0149,0.4475,1.2645,0.23529,0.22154,1.30827,-0.07175,0.49397,1.00493,0.33667,0.23047,1.0466,-0.06521,0.66128,0.8283,0.40733,0.43554,0.95622
858,0.13197,0.35948,1.36004,0.15972,0.52536,0.07347,0.06384,0.04333,0.07047,0.15823,0.54573,0.44249,0.1367,0.13607,0.4199,0.08816,0.36515,0.76606,0.18306,0.22526,0.78882,0.00829,0.44834,1.26229,0.23483,0.23051,1.30867,-0.07838,0.48626,1.00134,0.33808,0.24813,1.04818,-0.08066,0.64529,0.81711,0.39988,0.45916,0.96534
859,0.12604,0.36376,1.35982,0.16093,0.52528,0.07242,0.06511,0.04294,0.07274,0.15963,0.55082,0.44112,0.14418,0.13976,0.41971,0.0901,0.36964,0.76448,0.18865,0.23242,0.78801,0.00098,0.44845,1.26043,0.2344,0.23974,1.30897,-0.08546,0.47808,0.99833,0.3395,0.26572,1.04992,-0.09538,0.62941,0.80797,0.39224,0.48195,0.97457
860,0.11978,0.36827,1.35971,0.16135,0.52532,0.07143,0.06695,0.04222,0.07606,0.16058,0.55581,0.43975,0.15278,0.14376,0.42006,0.09251,0.37428,0.76322,0.19503,0.24017,0.78766,-0.00712,0.44755,1.2589,0.23402,0.24948,1.30976,-0.09227,0.47032,0.99569,0.34081,0.28293,1.05226,-0.10952,0.61407,0.80006,0.38402,0.50347,0.98363
861,0.11349,0.37291,1.35984,0.16116,0.5257,0.07052,0.06945,0.0413,0.08055,0.16157,0.56062,0.43845,0.16275,0.14831,0.42093,0.09537,0.37922,0.76237,0.202,0.24854,0.78783,-0.01576,0.44582,1.2576,0.23368,0.25982,1.31132,-0.09835,0.46271,0.99314,0.34193,0.29971,1.05536,-0.12278,0.5991,0.79305,0.37593,0.52345,0.99212
862,0.1074,0.37738,1.36027,0.16073,0.52639,0.06974,0.07297,0.04026,0.08635,0.16263,0.56533,0.43726,0.17436,0.15362,0.42233,0.09841,0.3845,0.7619,0.20909,0.25751,0.78867,-0.02467,0.44355,1.25646,0.23326,0.27057,1.31352,-0.104,0.45413,0.99068,0.34282,0.31609,1.05906,-0.13462,0.5845,0.78746,0.3695,0.54186,0.99963
863,0.10142,0.38152,1.36101,0.16044,0.52716,0.06912,0.07804,0.03924,0.09353,0.16349,0.56993,0.4362,0.18779,0.15969,0.42438,0.10128,0.39015,0.76182,0.21591,0.26709,0.79027,-0.03363,0.44083,1.2555,0.23249,0.28132,1.31603,-0.1096,0.44393,0.98854,0.34336,0.33198,1.06311,-0.14474,0.57111,0.78403,0.3658,0.55878,1.0059
864,0.09528,0.3855,1.36191,0.16052,0.52779,0.0687,0.08513,0.03833,0.10205,0.16398,0.57438,0.43531,0.20308,0.16648,0.42713,0.10375,0.39619,0.76217,0.22223,0.27731,0.79259,-0.04229,0.43764,1.2547,0.23098,0.29166,1.31862,-0.11494,0.43263,0.98686,0.34339,0.34717,1.0674,-0.15324,0.56017,0.78314,0.36469,0.57422,1.01075
865,0.08873,0.38943,1.36285,0.16086,0.52829,0.06853,0.09445,0.03743,0.11176,0.16421,0.57872,0.43463,0.22005,0.17419,0.4304,0.10574,0.40264,0.76295,0.22785,0.28803,0.79535,-0.05031,0.43414,1.25401,0.22855,0.30126,1.32123,-0.11965,0.42127,0.98554,0.34295,0.3614,1.07198,-0.16065,0.55227,0.78457,0.3654,0.58801,1.01403
866,0.08181,0.39295,1.36377,0.16116,0.5289,0.06859,0.10607,0.03622,0.12258,0.16431,0.58297,0.43418,0.23827,0.18334,0.43385,0.10715,0.40954,0.76413,0.23266,0.29918,0.79821,-0.05752,0.43051,1.25338,0.2254,0.31015,1.32376,-0.12372,0.41067,0.98455,0.34257,0.37459,1.07689,-0.16758,0.54671,0.78757,0.36721,0.60008,1.01557
867,0.07486,0.39551,1.36467,0.16118,0.52973,0.06884,0.11989,0.03463,0.13455,0.16429,0.58715,0.43391,0.25723,0.19421,0.43734,0.10791,0.41697,0.76569,0.23669,0.31082,0.80092,-0.06387,0.42689,1.25294,0.22199,0.31857,1.326,-0.12766,0.40125,0.98402,0.34297,0.38685,1.08201,-0.17436,0.54238,0.79131,0.37001,0.61058,1.01545
868,0.06829,0.39701,1.36547,0.16086,0.53053,0.06915,0.1355,0.03317,0.14774,0.164,0.59127,0.43369,0.27644,0.2067,0.44106,0.10814,0.42478,0.76742,0.2401,0.32291,0.80352,-0.06935,0.42345,1.25277,0.21874,0.32666,1.32782,-0.13197,0.39328,0.98405,0.34439,0.39847,1.08723,-0.18135,0.53907,0.79553,0.3744,0.61973,1.01404
869,0.06238,0.39782,1.36602,0.16022,0.53098,0.06938,0.15223,0.03251,0.16236,0.1632,0.59531,0.4333,0.29571,0.2206,0.44529,0.10809,0.43259,0.76901,0.24305,0.33517,0.80627,-0.07407,0.42025,1.25283,0.21574,0.33438,1.32932,-0.13673,0.38674,0.9845,0.34631,0.40942,1.09237,-0.18896,0.53745,0.80068,0.38104,0.62741,1.01181
870,0.05715,0.39842,1.36626,0.15937,0.53098,0.06941,0.16974,0.03287,0.17908,0.16164,0.5992,0.43263,0.31531,0.23604,0.45027,0.10792,0.43999,0.77024,0.24561,0.34724,0.80941,-0.0784,0.41694,1.25297,0.21292,0.34175,1.33068,-0.14149,0.38111,0.98505,0.34802,0.41925,1.09707,-0.19725,0.53785,0.8074,0.39001,0.63306,1.00912
871,0.05234,0.39918,1.36639,0.15848,0.53075,0.0693,0.1882,0.03427,0.19883,0.15927,0.60276,0.43179,0.33578,0.25353,0.45605,0.10756,0.44675,0.77121,0.24779,0.35905,0.81288,-0.08278,0.41305,1.25316,0.2102,0.34887,1.33176,-0.14561,0.37586,0.98536,0.34927,0.42734,1.10084,-0.2057,0.53979,0.8158,0.4005,0.63617,1.00608
872,0.04767,0.40028,1.36664,0.15774,0.53055,0.06911,0.20779,0.03716,0.22207,0.15628,0.60573,0.43096,0.35721,0.27355,0.4625,0.10676,0.45301,0.77219,0.24953,0.37076,0.81628,-0.08732,0.40868,1.25339,0.20747,0.35566,1.33232,-0.14904,0.3713,0.98536,0.35029,0.43346,1.10345,-0.21351,0.54289,0.82526,0.41147,0.63662,1.00249
873,0.04319,0.40161,1.36703,0.15732,0.53053,0.06885,0.22831,0.04232,0.24824,0.1529,0.60793,0.4302,0.37897,0.29608,0.46941,0.10545,0.459,0.7734,0.25083,0.38243,0.81917,-0.09173,0.40445,1.25353,0.20469,0.36179,1.33231,-0.15274,0.36827,0.98517,0.3512,0.43768,1.10515,-0.2202,0.54753,0.83501,0.42236,0.63446,0.99825
874,0.03916,0.40278,1.36748,0.15721,0.53072,0.06862,0.24931,0.05027,0.27646,0.14932,0.60954,0.42961,0.4002,0.3205,0.477,0.10384,0.46474,0.77484,0.25169,0.39372,0.82166,-0.09577,0.40074,1.25341,0.20199,0.36695,1.33207,-0.15786,0.3673,0.98494,0.35198,0.44023,1.10633,-0.22588,0.55439,0.84494,0.4333,0.62966,0.99356
875,0.03568,0.40342,1.36793,0.15716,0.53101,0.06867,0.27088,0.06114,0.30598,0.14572,0.61096,0.42932,0.42058,0.34606,0.48604,0.10227,0.4699,0.77635,0.25212,0.40406,0.82437,-0.09938,0.39745,1.25303,0.19949,0.37117,1.33188,-0.16473,0.36831,0.98484,0.35271,0.4412,1.10727,-0.23063,0.56381,0.85572,0.44464,0.62204,0.9887
876,0.03265,0.40358,1.36842,0.15687,0.53119,0.06913,0.29393,0.07484,0.33599,0.14232,0.61239,0.42939,0.44023,0.37248,0.49728,0.10102,0.47405,0.77778,0.25231,0.41319,0.82779,-0.10268,0.39453,1.2526,0.19718,0.37465,1.33187,-0.17264,0.37088,0.98503,0.35357,0.44056,1.10821,-0.23409,0.57537,0.86824,0.45644,0.61138,0.98392
877,0.03005,0.4036,1.36896,0.1563,0.531,0.06986,0.3191,0.09127,0.36565,0.13932,0.61362,0.42969,0.45901,0.40022,0.51051,0.10015,0.47725,0.7791,0.25252,0.42141,0.83164,-0.10568,0.39231,1.25234,0.19475,0.3775,1.33204,-0.18061,0.37455,0.98566,0.35464,0.43824,1.10939,-0.23591,0.58808,0.8828,0.46827,0.59761,0.97938
878,0.02793,0.40388,1.36949,0.15574,0.53044,0.07051,0.34569,0.11057,0.39479,0.13662,0.61429,0.42994,0.47639,0.43,0.52477,0.0995,0.48005,0.7804,0.2529,0.42929,0.83503,-0.10836,0.39112,1.25246,0.19193,0.37968,1.33224,-0.1883,0.3791,0.98693,0.35575,0.43438,1.11089,-0.23647,0.60084,0.89892,0.47943,0.58093,0.9751
879,0.02621,0.40452,1.36992,0.15546,0.52984,0.07072,0.37227,0.13295,0.42397,0.13402,0.61424,0.42989,0.4921,0.46202,0.53957,0.0988,0.48309,0.78171,0.25336,0.43701,0.83721,-0.11069,0.39087,1.25315,0.18878,0.3812,1.3322,-0.19594,0.38455,0.98908,0.35679,0.42911,1.11242,-0.23652,0.61305,0.91577,0.4894,0.56166,0.97079
880,0.02478,0.40529,1.37026,0.15543,0.52952,0.0704,0.3983,0.15818,0.45336,0.13153,0.61354,0.42951,0.50618,0.49571,0.55555,0.09802,0.48644,0.78297,0.25381,0.44426,0.83815,-0.11276,0.39124,1.25442,0.18578,0.38221,1.33164,-0.2038,0.3911,0.9922,0.35785,0.42217,1.11341,-0.23619,0.62492,0.93291,0.49807,0.53987,0.9661
881,0.0235,0.40586,1.37053,0.15541,0.52936,0.06968,0.42487,0.18538,0.48222,0.1295,0.61245,0.42887,0.51848,0.53014,0.57381,0.09746,0.48973,0.78402,0.25427,0.45056,0.83851,-0.11482,0.3922,1.25602,0.18353,0.3829,1.33054,-0.21205,0.39932,0.99614,0.35907,0.41322,1.11353,-0.23433,0.63732,0.95039,0.50565,0.51542,0.96094
882,0.02232,0.40625,1.37067,0.15535,0.52901,0.0688,0.45323,0.2138,0.5099,0.12835,0.61134,0.42808,0.52835,0.56468,0.59504,0.09747,0.49277,0.78474,0.25485,0.45564,0.839,-0.11716,0.39393,1.25761,0.1822,0.38332,1.32922,-0.2211,0.40991,1.00073,0.36031,0.4023,1.11301,-0.22969,0.65093,0.96803,0.51226,0.48811,0.95565
883,0.02124,0.40674,1.37055,0.15541,0.52846,0.06798,0.4827,0.24354,0.53647,0.12815,0.61057,0.42729,0.53497,0.59913,0.61917,0.09815,0.4957,0.78524,0.25564,0.45984,0.84005,-0.11981,0.39638,1.25895,0.18141,0.38337,1.32804,-0.23135,0.42274,1.00614,0.36111,0.38963,1.1124,-0.22263,0.66506,0.98519,0.51758,0.45802,0.95099
884,0.02045,0.40748,1.37008,0.15562,0.52802,0.06741,0.51074,0.27542,0.56175,0.12849,0.61018,0.42671,0.53777,0.6335,0.64578,0.09933,0.49872,0.7858,0.25663,0.46413,0.84195,-0.12234,0.39924,1.26016,0.18061,0.38292,1.32694,-0.24255,0.43654,1.01276,0.36103,0.37496,1.11196,-0.21506,0.6781,1.00143,0.52114,0.42566,0.94762
885,0.02024,0.40827,1.36928,0.15573,0.52783,0.06716,0.53576,0.30996,0.58482,0.12875,0.60998,0.42648,0.53703,0.66759,0.67487,0.10081,0.50197,0.78672,0.25776,0.46946,0.84506,-0.12426,0.40231,1.26153,0.17963,0.38198,1.32552,-0.25381,0.45024,1.02077,0.35991,0.35813,1.11161,-0.20802,0.68925,1.01698,0.52292,0.39186,0.94576
886,0.02069,0.40898,1.36818,0.15557,0.52772,0.06722,0.55899,0.34726,0.60502,0.12876,0.60976,0.42658,0.53374,0.70079,0.70696,0.10262,0.50571,0.78811,0.25903,0.47618,0.8494,-0.12567,0.40572,1.26317,0.17867,0.38059,1.3236,-0.26437,0.46438,1.03,0.35795,0.34005,1.11136,-0.20031,0.69917,1.03215,0.52305,0.35731,0.94506
887,0.02171,0.40982,1.36677,0.15534,0.52745,0.06748,0.58278,0.38735,0.6227,0.12893,0.60935,0.4269,0.52875,0.73207,0.7421,0.1048,0.51016,0.78994,0.26044,0.48396,0.85462,-0.127,0.40968,1.26479,0.17797,0.37866,1.32147,-0.27381,0.48043,1.0401,0.35562,0.32225,1.11152,-0.1902,0.70889,1.04683,0.52129,0.32228,0.94488
888,0.02309,0.411,1.36497,0.15534,0.52704,0.06781,0.60786,0.43017,0.63903,0.12975,0.60863,0.42737,0.52193,0.76029,0.7792,0.10733,0.51524,0.79205,0.26186,0.49201,0.86042,-0.12832,0.41423,1.26602,0.17746,0.37598,1.31942,-0.28171,0.49889,1.05073,0.35327,0.3053,1.11224,-0.1776,0.71864,1.06101,0.51737,0.2869,0.94507
889,0.02466,0.41244,1.36275,0.15554,0.52679,0.06819,0.63299,0.47586,0.65516,0.13118,0.60772,0.42798,0.51252,0.78478,0.81661,0.11016,0.52064,0.7943,0.26306,0.49938,0.86684,-0.12923,0.41919,1.26663,0.17693,0.37261,1.31748,-0.28765,0.51876,1.06161,0.35056,0.28859,1.11346,-0.1637,0.72778,1.07514,0.51119,0.25133,0.94605
890,0.02628,0.4139,1.36017,0.15578,0.5269,0.06873,0.65658,0.52508,0.67162,0.13289,0.60701,0.4288,0.50036,0.80554,0.85314,0.11332,0.52614,0.79662,0.26402,0.50567,0.87384,-0.12931,0.42441,1.26664,0.17633,0.36882,1.31564,-0.29161,0.53884,1.07271,0.34678,0.27158,1.11485,-0.14912,0.73543,1.08948,0.5022,0.21563,0.94773
891,0.02807,0.41526,1.35731,0.1562,0.52721,0.06959,0.67769,0.5789,0.68884,0.13491,0.60687,0.42985,0.48633,0.82289,0.88848,0.11678,0.53176,0.79896,0.26495,0.51122,0.88093,-0.12862,0.42997,1.26626,0.17578,0.36493,1.31396,-0.29393,0.55886,1.08432,0.34163,0.25452,1.11614,-0.13376,0.74109,1.10356,0.48976,0.17967,0.9498
892,0.0304,0.41653,1.35425,0.15715,0.52752,0.07082,0.69558,0.63783,0.70785,0.13746,0.60752,0.4311,0.47159,0.83703,0.9227,0.1203,0.5374,0.80124,0.26594,0.51659,0.88755,-0.12766,0.43596,1.26584,0.17543,0.36105,1.31245,-0.29485,0.57905,1.09667,0.33548,0.23777,1.11748,-0.11797,0.74505,1.1165,0.47448,0.14366,0.95306
893,0.03353,0.41773,1.3511,0.15871,0.52808,0.0725,0.70906,0.70159,0.72994,0.1403,0.60916,0.43261,0.45675,0.84811,0.95552,0.12348,0.54286,0.80347,0.26676,0.52209,0.89365,-0.12674,0.44226,1.2657,0.17519,0.35727,1.31099,-0.29422,0.59927,1.10968,0.32858,0.22124,1.11917,-0.10274,0.7484,1.12782,0.45782,0.10863,0.95845
894,0.03734,0.41882,1.34795,0.16071,0.52919,0.0748,0.71653,0.7693,0.75591,0.14288,0.61181,0.43459,0.44198,0.85643,0.98622,0.12595,0.54812,0.8059,0.26711,0.52765,0.89945,-0.12549,0.4486,1.26591,0.17492,0.35377,1.30935,-0.29173,0.61883,1.12297,0.3208,0.20458,1.1215,-0.08885,0.75246,1.13776,0.4406,0.07575,0.96571
895,0.04138,0.41971,1.34494,0.16327,0.53073,0.07788,0.71674,0.83921,0.78572,0.14485,0.61538,0.43717,0.42791,0.86242,1.01387,0.1276,0.55342,0.80876,0.26702,0.53311,0.90491,-0.12311,0.45486,1.26642,0.1749,0.35082,1.30749,-0.28708,0.63697,1.13605,0.31195,0.18754,1.12477,-0.07599,0.75763,1.14693,0.42282,0.04536,0.97408
896,0.04525,0.4204,1.34225,0.16644,0.53237,0.08162,0.7095,0.90935,0.81899,0.14628,0.61981,0.44014,0.41571,0.86662,1.03778,0.12859,0.55896,0.8119,0.26696,0.53854,0.90953,-0.11901,0.46105,1.26736,0.17565,0.34857,1.30549,-0.28009,0.65324,1.14836,0.30176,0.17029,1.12903,-0.0629,0.76282,1.15574,0.40401,0.01721,0.983
897,0.04879,0.42108,1.34003,0.16979,0.534,0.08561,0.69491,0.97842,0.85639,0.14727,0.62514,0.44306,0.40588,0.86989,1.05812,0.12929,0.56472,0.81487,0.26734,0.5444,0.91297,-0.11314,0.46708,1.26891,0.17723,0.34679,1.30347,-0.2708,0.66768,1.15961,0.29006,0.15364,1.1338,-0.04835,0.76632,1.16398,0.38363,-0.00883,0.99215
898,0.05214,0.42217,1.33837,0.17274,0.53577,0.08939,0.67219,1.04403,0.89944,0.14788,0.63112,0.44559,0.39728,0.87294,1.07598,0.12999,0.57031,0.81734,0.26809,0.55081,0.91553,-0.10615,0.47277,1.27094,0.17882,0.34484,1.30166,-0.25962,0.68084,1.16994,0.27741,0.13871,1.13851,-0.03215,0.76737,1.17128,0.36156,-0.03258,1.00142
899,0.05553,0.42391,1.33727,0.17524,0.538,0.0927,0.64103,1.10117,0.9477,0.14817,0.63715,0.4477,0.38795,0.87528,1.0924,0.13076,0.57511,0.81927,0.26889,0.5567,0.91765,-0.09893,0.47836,1.27301,0.17932,0.34208,1.30063,-0.24702,0.6937,1.17952,0.26518,0.12613,1.14309,-0.01486,0.76674,1.1777,0.33826,-0.05388,1.01091
900,0.05906,0.42611,1.33667,0.1773,0.54068,0.09558,0.60289,1.14544,0.99763,0.14823,0.64265,0.44962,0.37703,0.87531,1.10732,0.13159,0.57865,0.8209,0.26966,0.56014,0.91932,-0.09205,0.4846,1.27472,0.17845,0.33848,1.30105,-0.23319,0.70737,1.18811,0.2541,0.11574,1.14778,0.00309,0.76558,1.18364,0.31439,-0.07265,1.02094
901,0.06264,0.42832,1.33646,0.17855,0.54336,0.09824,0.55969,1.17652,1.04571,0.14799,0.64737,0.45156,0.36508,0.87218,1.11998,0.13239,0.58102,0.82246,0.27062,0.56013,0.9202,-0.08558,0.49192,1.27606,0.17717,0.33476,1.30284,-0.21808,0.72213,1.19546,0.24363,0.10676,1.15308,0.02163,0.76386,1.18965,0.29083,-0.08901,1.032
902,0.06604,0.43021,1.3365,0.17852,0.54567,0.10075,0.51427,1.19594,1.0911,0.14733,0.6513,0.45353,0.35281,0.8667,1.13043,0.13299,0.58273,0.82409,0.27175,0.55783,0.92011,-0.07948,0.49979,1.27726,0.17697,0.33175,1.30499,-0.20187,0.73715,1.20157,0.23292,0.09818,1.15958,0.04035,0.76033,1.19638,0.26853,-0.10323,1.04391
903,0.06923,0.43175,1.33658,0.17729,0.54746,0.1029,0.47319,1.20477,1.13195,0.14615,0.65447,0.45528,0.34063,0.8607,1.13972,0.13311,0.58456,0.82563,0.27279,0.55578,0.91921,-0.07387,0.50741,1.27837,0.1783,0.32969,1.30655,-0.18541,0.75127,1.20667,0.22145,0.09,1.16685,0.05794,0.75406,1.20383,0.24745,-0.11502,1.05503
904,0.07239,0.43312,1.33658,0.17527,0.54868,0.10431,0.44367,1.20656,1.16127,0.14452,0.65688,0.45636,0.32874,0.85636,1.1484,0.13289,0.58723,0.82681,0.2736,0.55616,0.91809,-0.06868,0.51458,1.27929,0.18006,0.32827,1.30766,-0.16954,0.76396,1.21086,0.20926,0.08335,1.17355,0.07315,0.74565,1.21078,0.22708,-0.1238,1.06407
905,0.07575,0.43439,1.33669,0.17286,0.5493,0.1048,0.4293,1.20595,1.17359,0.1426,0.65859,0.45655,0.31725,0.85501,1.15648,0.1329,0.59109,0.82745,0.27428,0.5596,0.91753,-0.06336,0.52135,1.28007,0.18091,0.32728,1.30922,-0.15411,0.77521,1.21399,0.19746,0.07883,1.17951,0.0862,0.7367,1.21591,0.20777,-0.1299,1.07208
906,0.07934,0.43549,1.33728,0.1704,0.54937,0.10458,0.42851,1.20409,1.17189,0.14062,0.65976,0.45603,0.30696,0.85599,1.16389,0.13339,0.59578,0.82761,0.2749,0.56512,0.91778,-0.05732,0.52742,1.28105,0.18099,0.32681,1.31183,-0.13832,0.78478,1.21586,0.18708,0.07612,1.18556,0.09841,0.72836,1.21925,0.18986,-0.13405,1.0805
907,0.08293,0.43634,1.33862,0.16822,0.54901,0.10407,0.43399,1.20088,1.16231,0.13875,0.66047,0.45521,0.29903,0.85775,1.16988,0.13375,0.6003,0.82746,0.27529,0.57102,0.91804,-0.05046,0.53238,1.28258,0.18169,0.32698,1.31543,-0.12218,0.79228,1.21657,0.17835,0.07482,1.19201,0.11059,0.7214,1.22183,0.17334,-0.13647,1.08932
908,0.08637,0.43716,1.34076,0.16669,0.54853,0.10355,0.43883,1.19782,1.14857,0.13708,0.66072,0.45445,0.29404,0.85952,1.17318,0.13318,0.6036,0.82719,0.27516,0.5758,0.91754,-0.04312,0.53639,1.28468,0.18398,0.32755,1.31959,-0.10695,0.79781,1.21661,0.17098,0.07459,1.19848,0.12243,0.7168,1.22436,0.15819,-0.13722,1.09756
909,0.08971,0.4383,1.34361,0.16592,0.54814,0.10311,0.44093,1.19653,1.13218,0.13573,0.66038,0.45394,0.29182,0.86173,1.17329,0.13181,0.60522,0.82698,0.27441,0.57873,0.91675,-0.0357,0.54003,1.28703,0.18756,0.3282,1.32387,-0.09397,0.80213,1.21664,0.16454,0.07512,1.20449,0.13313,0.71521,1.22694,0.14472,-0.13662,1.10457
910,0.09313,0.44,1.34699,0.16577,0.54778,0.10271,0.44154,1.1973,1.11445,0.13476,0.65934,0.45369,0.29172,0.86508,1.17094,0.13067,0.60554,0.82692,0.27337,0.57998,0.91679,-0.02853,0.54373,1.28928,0.1915,0.32878,1.32804,-0.08343,0.80603,1.21696,0.15853,0.07625,1.20987,0.14224,0.71574,1.22952,0.13333,-0.13519,1.1105
911,0.0967,0.44218,1.35064,0.16587,0.5473,0.10226,0.44273,1.19905,1.0971,0.13406,0.6578,0.45349,0.29264,0.86954,1.16717,0.13044,0.60527,0.82692,0.27261,0.58037,0.9178,-0.02205,0.5476,1.29137,0.19516,0.32946,1.33208,-0.07447,0.80986,1.21709,0.15279,0.07817,1.21423,0.14975,0.71641,1.23203,0.12414,-0.13307,1.11538
912,0.10048,0.4447,1.35419,0.16598,0.54661,0.10171,0.44541,1.20052,1.08096,0.1335,0.65611,0.4532,0.29329,0.87457,1.16236,0.13072,0.605,0.82683,0.27239,0.58067,0.91865,-0.01692,0.55178,1.29348,0.19805,0.33058,1.33572,-0.06642,0.81368,1.21602,0.14836,0.08106,1.21698,0.15569,0.71586,1.2342,0.11711,-0.12993,1.1184
913,0.1045,0.44759,1.35735,0.16604,0.54591,0.10111,0.44884,1.20154,1.06575,0.13301,0.65452,0.45282,0.29315,0.87974,1.15641,0.1306,0.60496,0.82666,0.27245,0.58123,0.91836,-0.01358,0.55641,1.29579,0.1994,0.33259,1.33828,-0.05926,0.81742,1.21314,0.1469,0.0842,1.21839,0.15997,0.71421,1.23591,0.11196,-0.12603,1.1194
914,0.10872,0.45085,1.3601,0.16615,0.54541,0.10049,0.45192,1.20257,1.05084,0.13267,0.65287,0.45251,0.29282,0.88484,1.14956,0.12958,0.60507,0.82657,0.27223,0.58189,0.91717,-0.01153,0.56138,1.29826,0.19885,0.33552,1.33941,-0.05311,0.82083,1.20879,0.14839,0.08705,1.21883,0.16283,0.7123,1.23748,0.10839,-0.12212,1.11951
915,0.11295,0.45427,1.36271,0.1664,0.5449,0.09996,0.45427,1.20373,1.0353,0.13253,0.65079,0.45242,0.29326,0.8896,1.14211,0.12785,0.60504,0.82672,0.27141,0.58208,0.91592,-0.00931,0.56625,1.3007,0.19744,0.33887,1.33972,-0.04784,0.8234,1.20357,0.1508,0.09016,1.21807,0.16506,0.711,1.23927,0.10686,-0.11817,1.11867
916,0.11685,0.45758,1.36544,0.16666,0.54417,0.09964,0.45602,1.2049,1.01831,0.13271,0.64819,0.45265,0.29492,0.89395,1.13393,0.12595,0.6045,0.82717,0.27032,0.58141,0.91502,-0.0057,0.57067,1.30297,0.19688,0.34206,1.34007,-0.04338,0.82472,1.19771,0.15228,0.09375,1.21687,0.16744,0.71112,1.24108,0.10788,-0.11381,1.11606
917,0.12,0.46069,1.36834,0.16668,0.54326,0.09949,0.4573,1.20595,0.99948,0.13326,0.64532,0.45312,0.29762,0.89802,1.12475,0.12426,0.60323,0.82777,0.26947,0.58007,0.91422,-0.00096,0.57459,1.30514,0.19795,0.3449,1.34074,-0.03998,0.82471,1.1913,0.15297,0.09758,1.21568,0.17006,0.71284,1.2423,0.11141,-0.10911,1.11192
918,0.12225,0.46361,1.37124,0.16648,0.5424,0.0993,0.45843,1.20653,0.97876,0.13412,0.64242,0.45361,0.30126,0.90185,1.11471,0.12294,0.6014,0.82832,0.26903,0.57842,0.91331,0.00345,0.57822,1.30747,0.20001,0.3473,1.34163,-0.03805,0.82369,1.18473,0.15368,0.1015,1.2141,0.17205,0.71522,1.24239,0.11628,-0.10409,1.10663
919,0.1239,0.46643,1.37398,0.16642,0.54178,0.09892,0.45997,1.20616,0.95616,0.13518,0.63949,0.45398,0.30607,0.9054,1.10404,0.12199,0.59952,0.82874,0.26883,0.5766,0.91245,0.00646,0.58182,1.31006,0.20196,0.34924,1.34269,-0.03774,0.82208,1.17829,0.15471,0.10535,1.21188,0.17253,0.71688,1.24115,0.12099,-0.09865,1.10024
920,0.12549,0.46921,1.37652,0.16675,0.54126,0.09835,0.46212,1.20469,0.93164,0.13639,0.63649,0.45415,0.31213,0.90869,1.09257,0.12132,0.59779,0.82898,0.26867,0.57461,0.91171,0.0083,0.58536,1.31268,0.20335,0.35084,1.34392,-0.03859,0.81993,1.17187,0.15605,0.10912,1.20916,0.17175,0.71728,1.23862,0.12546,-0.09273,1.09281
921,0.12734,0.47209,1.37894,0.16742,0.5406,0.09765,0.46434,1.20212,0.90505,0.13779,0.63346,0.45414,0.31898,0.9118,1.07997,0.12068,0.59594,0.829,0.26849,0.5726,0.91085,0.00964,0.58843,1.31503,0.20447,0.35229,1.34521,-0.03983,0.8169,1.16536,0.15825,0.11292,1.20596,0.17092,0.71701,1.23493,0.13097,-0.08634,1.08444
922,0.12936,0.47511,1.3814,0.16822,0.5397,0.09693,0.4665,1.19784,0.87632,0.13946,0.63038,0.45406,0.32604,0.91463,1.06625,0.11981,0.59383,0.82889,0.26828,0.57064,0.90959,0.01067,0.59065,1.31705,0.20574,0.35364,1.34643,-0.04121,0.81286,1.15901,0.16202,0.11681,1.20213,0.17078,0.71686,1.23026,0.1383,-0.0795,1.07518
923,0.13122,0.47816,1.38401,0.16893,0.53883,0.09641,0.46921,1.19067,0.84566,0.14128,0.62732,0.45417,0.33281,0.91698,1.05181,0.11862,0.59187,0.82894,0.26796,0.56866,0.90801,0.0112,0.59218,1.31873,0.20717,0.35489,1.34748,-0.04306,0.80821,1.1531,0.16719,0.12084,1.19764,0.17087,0.7172,1.22511,0.14699,-0.07219,1.06519
924,0.13278,0.48107,1.38672,0.16936,0.53833,0.09621,0.47284,1.17966,0.81348,0.14303,0.62453,0.45463,0.33884,0.91882,1.03712,0.1171,0.59069,0.82933,0.26739,0.56669,0.90634,0.01135,0.59365,1.32006,0.2083,0.35619,1.3483,-0.04557,0.80346,1.14747,0.17265,0.12518,1.19277,0.17054,0.71823,1.22008,0.15629,-0.06421,1.05464
925,0.13424,0.4837,1.38941,0.16965,0.53825,0.09622,0.47698,1.16484,0.78021,0.14457,0.62224,0.45525,0.34399,0.92035,1.02218,0.11528,0.59048,0.82989,0.26647,0.56487,0.90458,0.0115,0.5955,1.32119,0.20879,0.35764,1.34885,-0.04843,0.79868,1.14183,0.17746,0.12982,1.18778,0.16988,0.72003,1.21523,0.1661,-0.05537,1.04359
926,0.13586,0.48595,1.39189,0.17014,0.53829,0.09621,0.48087,1.14727,0.74628,0.14597,0.62027,0.45577,0.34858,0.92172,1.00634,0.11339,0.59084,0.83032,0.26545,0.56323,0.90251,0.01191,0.5977,1.32235,0.20904,0.35913,1.34919,-0.05126,0.79355,1.13607,0.18158,0.13462,1.18285,0.16941,0.72237,1.21004,0.17684,-0.04563,1.03218
927,0.13765,0.48785,1.39408,0.17096,0.53807,0.09612,0.48384,1.12829,0.71207,0.14732,0.61824,0.45612,0.35312,0.92277,0.98899,0.11181,0.59109,0.83058,0.26479,0.56155,0.9,0.01254,0.59999,1.32329,0.20973,0.36056,1.34947,-0.05396,0.78796,1.13018,0.18543,0.1395,1.1781,0.16918,0.72472,1.20399,0.18852,-0.03503,1.02079
928,0.13932,0.48964,1.39595,0.17177,0.5377,0.09609,0.48541,1.10848,0.67787,0.14843,0.61606,0.45651,0.35799,0.92309,0.97011,0.11077,0.59071,0.83089,0.26481,0.5595,0.89714,0.01321,0.60235,1.32345,0.21083,0.36224,1.34977,-0.05686,0.7824,1.12416,0.18922,0.1448,1.17347,0.16848,0.72653,1.19719,0.20044,-0.02341,1.00979
929,0.14066,0.49159,1.39748,0.17204,0.53762,0.09625,0.48543,1.08739,0.64378,0.14896,0.61404,0.45711,0.36329,0.92229,0.95011,0.11018,0.58966,0.83143,0.26537,0.55693,0.89421,0.01382,0.60498,1.32261,0.21186,0.36449,1.35008,-0.06043,0.77743,1.11818,0.19297,0.15093,1.1688,0.16667,0.72765,1.19016,0.2121,-0.01063,0.99925
930,0.14178,0.49376,1.39871,0.17161,0.53796,0.09656,0.4841,1.06423,0.60998,0.14878,0.61247,0.45783,0.36897,0.92031,0.92942,0.10977,0.58836,0.83215,0.26601,0.55403,0.89137,0.01436,0.60788,1.32133,0.21284,0.36724,1.35033,-0.06456,0.77275,1.11244,0.1968,0.15785,1.16397,0.16401,0.72832,1.18327,0.22392,0.00325,0.98912
931,0.14287,0.49592,1.39978,0.17081,0.53837,0.0968,0.48181,1.03873,0.57678,0.14808,0.61129,0.4584,0.37509,0.9173,0.90826,0.10925,0.58738,0.83275,0.26637,0.55125,0.88846,0.01483,0.61066,1.32049,0.21439,0.37009,1.35044,-0.06839,0.76745,1.10709,0.20091,0.16507,1.15909,0.16162,0.729,1.17675,0.23647,0.01801,0.97931
932,0.14415,0.4978,1.40087,0.17003,0.53849,0.0968,0.47889,1.01131,0.54447,0.14725,0.61022,0.45864,0.38191,0.91342,0.88656,0.10854,0.58691,0.83304,0.26645,0.5489,0.88515,0.01531,0.61288,1.3205,0.2168,0.37273,1.35039,-0.07117,0.76091,1.10221,0.20524,0.17205,1.15438,0.16032,0.73033,1.17084,0.2495,0.03352,0.96982
933,0.14567,0.49935,1.40203,0.16939,0.53831,0.09654,0.47534,0.98274,0.51309,0.14661,0.60902,0.45858,0.3893,0.90856,0.86395,0.10788,0.58673,0.83304,0.26649,0.54687,0.88151,0.01595,0.61446,1.32117,0.21962,0.37518,1.35029,-0.07303,0.75323,1.09785,0.20962,0.17865,1.15004,0.15986,0.73268,1.1655,0.26213,0.04977,0.9607
934,0.14709,0.5008,1.40323,0.16874,0.53793,0.09616,0.47088,0.95361,0.48245,0.14625,0.60773,0.45839,0.3963,0.90259,0.84001,0.10766,0.58662,0.83293,0.26674,0.54486,0.87813,0.01678,0.61566,1.32204,0.22214,0.3776,1.35028,-0.0747,0.74481,1.09401,0.21402,0.18502,1.14613,0.15935,0.73597,1.16018,0.27368,0.06675,0.95205
935,0.14799,0.50243,1.40437,0.16794,0.53739,0.09587,0.46547,0.92419,0.45263,0.14603,0.60666,0.45823,0.40166,0.89551,0.81473,0.10806,0.58657,0.83289,0.2673,0.54272,0.87548,0.01771,0.61673,1.32286,0.22409,0.38003,1.35042,-0.07653,0.73607,1.09065,0.21859,0.19137,1.14256,0.15836,0.73975,1.15425,0.28416,0.08422,0.94398
936,0.14846,0.50421,1.40536,0.1669,0.5369,0.09592,0.4596,0.89457,0.4241,0.14573,0.60617,0.45833,0.40473,0.88746,0.78872,0.10874,0.58687,0.83314,0.26791,0.54058,0.87333,0.01869,0.61779,1.32358,0.22568,0.38225,1.35072,-0.07817,0.72733,1.08765,0.22344,0.19772,1.13913,0.15717,0.74349,1.14754,0.29416,0.10192,0.93655
937,0.14902,0.50585,1.40616,0.16559,0.53686,0.09647,0.45374,0.86474,0.39736,0.14517,0.60646,0.45886,0.40568,0.87843,0.76275,0.10917,0.58766,0.83378,0.26816,0.53855,0.87125,0.01973,0.6189,1.32428,0.22714,0.38405,1.35113,-0.07901,0.71871,1.08483,0.22859,0.20405,1.13567,0.15636,0.74661,1.14014,0.30443,0.11991,0.92979
938,0.14985,0.50718,1.40687,0.16404,0.53749,0.09734,0.4479,0.83454,0.37251,0.14418,0.60753,0.45968,0.40509,0.86813,0.73727,0.10924,0.58869,0.8347,0.26792,0.5365,0.86921,0.02076,0.62004,1.32499,0.22863,0.38558,1.35159,-0.0787,0.71037,1.0821,0.23409,0.21045,1.13221,0.15635,0.74884,1.13213,0.31523,0.13855,0.92374
939,0.15079,0.50833,1.40757,0.16227,0.53866,0.09815,0.44155,0.80403,0.34938,0.14261,0.60925,0.46039,0.40379,0.85617,0.71251,0.1092,0.58959,0.83551,0.26737,0.53429,0.8674,0.02164,0.62102,1.32559,0.23054,0.38727,1.35214,-0.07754,0.70274,1.07956,0.23999,0.21717,1.12898,0.15698,0.75046,1.1238,0.32617,0.15793,0.91855
940,0.15187,0.50941,1.40828,0.16053,0.53996,0.09869,0.4339,0.77364,0.32776,0.14053,0.61144,0.46074,0.40269,0.84258,0.68871,0.10915,0.59012,0.83594,0.26676,0.53205,0.86563,0.02227,0.62164,1.32591,0.23347,0.38956,1.35287,-0.07635,0.69603,1.07735,0.24616,0.22438,1.1262,0.15738,0.7521,1.11557,0.3366,0.17745,0.91446
941,0.15344,0.51036,1.40911,0.15919,0.54093,0.09907,0.42442,0.74373,0.30757,0.13837,0.61397,0.46076,0.40214,0.82794,0.66594,0.10898,0.59003,0.83597,0.26627,0.53003,0.86342,0.02286,0.62191,1.32595,0.23777,0.3925,1.35375,-0.07568,0.68982,1.0755,0.25219,0.23193,1.12388,0.15685,0.75415,1.10757,0.34619,0.19634,0.91149
942,0.15573,0.5111,1.41024,0.15836,0.54135,0.09947,0.41344,0.71441,0.28891,0.13682,0.61667,0.46065,0.40156,0.81286,0.64412,0.10873,0.58931,0.83572,0.26607,0.52835,0.86069,0.02365,0.6219,1.32592,0.24309,0.39574,1.35449,-0.07509,0.68337,1.0739,0.25757,0.23941,1.12173,0.15564,0.7565,1.09941,0.35507,0.21431,0.90942
943,0.15853,0.51176,1.41168,0.1578,0.54145,0.09988,0.40223,0.68585,0.27164,0.13631,0.61937,0.46051,0.39988,0.79737,0.62316,0.10867,0.58834,0.83533,0.26615,0.52687,0.85802,0.02465,0.62168,1.32614,0.24848,0.39897,1.35494,-0.07395,0.67648,1.07252,0.26216,0.24664,1.11949,0.15443,0.75867,1.09049,0.36345,0.23172,0.90799
944,0.16143,0.5126,1.41311,0.15707,0.54167,0.10018,0.39226,0.65829,0.2554,0.13668,0.62185,0.46038,0.39629,0.78098,0.60316,0.10904,0.58777,0.83494,0.26636,0.52535,0.85611,0.02562,0.62143,1.32673,0.25304,0.40212,1.35521,-0.07227,0.66971,1.07152,0.2664,0.25379,1.1172,0.15343,0.76032,1.0806,0.37125,0.24885,0.90698
945,0.16402,0.51384,1.4142,0.15601,0.5422,0.10037,0.38422,0.63203,0.23988,0.13742,0.624,0.4603,0.39054,0.7634,0.58442,0.11001,0.58793,0.83469,0.26665,0.52364,0.8553,0.02643,0.62136,1.32767,0.25658,0.4052,1.35552,-0.07048,0.66387,1.07107,0.2708,0.26109,1.11499,0.15242,0.76159,1.07012,0.37831,0.26544,0.90609
946,0.16613,0.51551,1.41501,0.15494,0.54294,0.10055,0.37734,0.60733,0.22494,0.13811,0.62571,0.46034,0.38307,0.74485,0.56709,0.11139,0.5886,0.83468,0.267,0.52183,0.85518,0.02724,0.62157,1.32901,0.25966,0.40809,1.35593,-0.0686,0.65954,1.07129,0.27551,0.26849,1.11285,0.15145,0.76286,1.05958,0.38473,0.28115,0.90518
947,0.16798,0.51749,1.41579,0.15418,0.54371,0.10081,0.37008,0.58433,0.2105,0.1386,0.62697,0.46055,0.37517,0.72573,0.55107,0.11265,0.58926,0.83488,0.26728,0.52008,0.85483,0.02834,0.62191,1.33078,0.26306,0.41075,1.35626,-0.06634,0.65652,1.07216,0.28038,0.27566,1.11074,0.15068,0.76429,1.0493,0.39079,0.29603,0.90432
948,0.16998,0.51968,1.41662,0.15362,0.54441,0.10111,0.36152,0.56322,0.19657,0.13896,0.62785,0.46085,0.36829,0.70648,0.53634,0.11337,0.58956,0.83514,0.26725,0.51829,0.85348,0.02993,0.62216,1.33274,0.2671,0.41337,1.3564,-0.06366,0.6537,1.07333,0.28528,0.28238,1.10873,0.14965,0.76581,1.03923,0.39654,0.31019,0.90364
949,0.17237,0.52205,1.41727,0.15299,0.54488,0.10128,0.35188,0.54431,0.1833,0.13938,0.62851,0.46102,0.36286,0.68738,0.52304,0.11358,0.58944,0.83521,0.26678,0.51616,0.85116,0.03208,0.62242,1.33439,0.27151,0.41615,1.35636,-0.06082,0.65001,1.07429,0.28999,0.28874,1.10686,0.14761,0.76724,1.02903,0.40164,0.32354,0.90305
950,0.17525,0.52454,1.41757,0.15227,0.54487,0.1011,0.34198,0.52762,0.17079,0.13992,0.6291,0.46074,0.35806,0.66838,0.51129,0.11364,0.58912,0.83481,0.26592,0.51352,0.84854,0.03477,0.62299,1.33548,0.27593,0.41909,1.35612,-0.05793,0.64558,1.07482,0.29425,0.29494,1.10497,0.14442,0.76842,1.01826,0.4058,0.33587,0.90225
951,0.17856,0.52698,1.4177,0.15162,0.54423,0.10041,0.3326,0.51269,0.15905,0.14062,0.62966,0.45981,0.35292,0.64929,0.501,0.11396,0.58893,0.83377,0.26491,0.5105,0.84626,0.03778,0.62405,1.33623,0.28028,0.42195,1.35553,-0.05498,0.64146,1.0752,0.29802,0.30096,1.1028,0.14056,0.76919,1.0068,0.40913,0.3471,0.90096
952,0.18221,0.5293,1.41793,0.15111,0.54309,0.09925,0.32409,0.49922,0.14797,0.14159,0.63019,0.4583,0.3471,0.63019,0.49196,0.11474,0.58909,0.8322,0.264,0.50744,0.84443,0.04085,0.62541,1.33703,0.28462,0.42446,1.3545,-0.05213,0.63826,1.07582,0.30158,0.3066,1.10024,0.13638,0.76932,0.99508,0.41199,0.35736,0.89913
953,0.18609,0.53141,1.41829,0.15069,0.54196,0.09787,0.3164,0.48735,0.13754,0.14285,0.63071,0.45654,0.34066,0.61134,0.48403,0.1158,0.58959,0.83043,0.2631,0.50448,0.84287,0.04389,0.62682,1.33797,0.2889,0.42647,1.35317,-0.04957,0.63585,1.07676,0.30513,0.31174,1.09743,0.13186,0.76863,0.98356,0.41453,0.36689,0.89692
954,0.19023,0.53324,1.41855,0.15035,0.5413,0.09649,0.30942,0.4774,0.12791,0.14433,0.63118,0.45492,0.33374,0.59329,0.47719,0.11666,0.59023,0.82878,0.26186,0.50162,0.84138,0.04705,0.62816,1.33875,0.2931,0.42816,1.35169,-0.04719,0.63402,1.07773,0.30852,0.31649,1.09455,0.12679,0.76747,0.97209,0.41669,0.3758,0.89456
955,0.19473,0.53473,1.41847,0.15022,0.54123,0.09521,0.30322,0.46961,0.1192,0.14601,0.6316,0.45355,0.32677,0.57674,0.4713,0.11706,0.59087,0.82734,0.26018,0.49891,0.8397,0.0507,0.62968,1.33897,0.29724,0.42975,1.35016,-0.04454,0.63303,1.07827,0.31149,0.32102,1.0917,0.12128,0.76639,0.96014,0.41852,0.38378,0.89215
956,0.1996,0.53604,1.41796,0.15033,0.54144,0.09405,0.2978,0.4639,0.11117,0.14801,0.63197,0.45236,0.32026,0.56197,0.46597,0.1172,0.59146,0.82603,0.25839,0.49645,0.83757,0.05514,0.6317,1.33853,0.30139,0.43125,1.34858,-0.04112,0.63323,1.07819,0.31395,0.32533,1.08887,0.11612,0.76542,0.94767,0.42014,0.39027,0.88957
957,0.20475,0.53744,1.41699,0.1505,0.54157,0.09298,0.29301,0.45996,0.10361,0.15032,0.63228,0.45125,0.31432,0.54868,0.46094,0.11748,0.59195,0.82477,0.25687,0.49419,0.83502,0.06028,0.6344,1.33768,0.30536,0.43253,1.34681,-0.03671,0.63451,1.0776,0.31595,0.32927,1.08594,0.11215,0.76426,0.93533,0.42147,0.39488,0.8865
958,0.21015,0.53919,1.41554,0.1505,0.54144,0.09189,0.28876,0.45734,0.09666,0.15259,0.63253,0.45006,0.30867,0.53651,0.45631,0.11803,0.59222,0.82342,0.25571,0.49192,0.83236,0.06567,0.63769,1.33659,0.30883,0.43368,1.34463,-0.03157,0.63638,1.07662,0.31747,0.33262,1.08283,0.10939,0.76272,0.92364,0.42224,0.39783,0.88286
959,0.21571,0.54127,1.41361,0.15032,0.54108,0.09063,0.28506,0.45549,0.09063,0.15438,0.63276,0.44864,0.30322,0.52549,0.45227,0.11879,0.59217,0.82187,0.25476,0.48949,0.82984,0.07091,0.64135,1.33519,0.31172,0.43493,1.34192,-0.02627,0.6384,1.0752,0.3183,0.33519,1.07955,0.10717,0.76073,0.91252,0.42224,0.39966,0.87892
960,0.22112,0.54349,1.41141,0.15017,0.54064,0.0892,0.28201,0.45399,0.0856,0.15564,0.63305,0.447,0.29815,0.5158,0.44882,0.11975,0.5919,0.82014,0.25397,0.4869,0.82753,0.07601,0.64507,1.33329,0.31433,0.43635,1.33877,-0.02131,0.6405,1.07338,0.31826,0.33699,1.07621,0.10468,0.75832,0.90169,0.42151,0.40075,0.87499
961,0.2261,0.54569,1.40917,0.15015,0.54038,0.0878,0.27964,0.45268,0.08146,0.15674,0.63357,0.44538,0.29363,0.50746,0.4459,0.12086,0.59143,0.81841,0.25335,0.48423,0.82543,0.0812,0.64858,1.33095,0.31699,0.43781,1.33539,-0.01691,0.64275,1.07136,0.31752,0.33837,1.07283,0.1015,0.75576,0.89124,0.42028,0.40123,0.87108
962,0.23063,0.54796,1.40695,0.15012,0.54039,0.08671,0.27794,0.45152,0.07807,0.15809,0.63452,0.44402,0.28966,0.50034,0.44344,0.12195,0.59075,0.81684,0.2528,0.48154,0.82356,0.08656,0.65166,1.32849,0.31966,0.4391,1.33194,-0.01274,0.64516,1.06937,0.31649,0.33955,1.06944,0.09765,0.7534,0.8814,0.41872,0.40112,0.86702
963,0.23493,0.55033,1.4046,0.14987,0.54056,0.08607,0.27689,0.45045,0.07536,0.15974,0.63594,0.44299,0.28614,0.49419,0.44143,0.12292,0.58985,0.81546,0.25224,0.47881,0.82199,0.09192,0.65441,1.32636,0.32215,0.43999,1.32851,-0.00823,0.64788,1.06757,0.31549,0.34045,1.06607,0.09329,0.75139,0.87209,0.41679,0.40033,0.86268
964,0.23914,0.55263,1.40204,0.14937,0.5407,0.08574,0.27637,0.44942,0.07325,0.16136,0.63758,0.44219,0.28293,0.48866,0.43989,0.12376,0.58879,0.81425,0.25165,0.47612,0.82077,0.09707,0.65729,1.32465,0.32449,0.44026,1.32516,-0.00322,0.65103,1.06591,0.31446,0.34085,1.06278,0.08846,0.74966,0.86317,0.41431,0.39873,0.8581
965,0.24322,0.55466,1.39947,0.14871,0.54063,0.08551,0.27608,0.44845,0.07163,0.16262,0.63918,0.44144,0.27989,0.48347,0.43874,0.12452,0.58766,0.81307,0.25111,0.47355,0.81989,0.10195,0.66065,1.32279,0.32678,0.43988,1.322,0.00159,0.65433,1.06408,0.31321,0.34081,1.05965,0.08321,0.74801,0.8548,0.41121,0.39628,0.8534
966,0.24703,0.55636,1.39719,0.14785,0.54034,0.08523,0.27562,0.44763,0.07036,0.16353,0.64061,0.44061,0.2769,0.47846,0.43786,0.12531,0.58663,0.81188,0.25065,0.47118,0.81926,0.10671,0.66422,1.32012,0.32876,0.4391,1.3191,0.00533,0.65726,1.06182,0.3117,0.34052,1.05677,0.07783,0.74615,0.84717,0.40765,0.3931,0.84882
967,0.25055,0.55777,1.39532,0.1466,0.54011,0.08496,0.27476,0.44703,0.06933,0.16432,0.64198,0.43978,0.27372,0.47358,0.43717,0.12612,0.58582,0.81073,0.25004,0.46889,0.81878,0.11146,0.66744,1.31669,0.33001,0.43843,1.31648,0.008,0.65966,1.05924,0.30993,0.34008,1.05428,0.07284,0.74391,0.8403,0.40381,0.38931,0.84457
968,0.25382,0.55889,1.39366,0.14496,0.54023,0.0848,0.27363,0.44667,0.06844,0.16509,0.64336,0.43912,0.27044,0.46905,0.43654,0.12677,0.58506,0.80973,0.24901,0.4664,0.8183,0.11599,0.6701,1.31326,0.33056,0.43818,1.3141,0.01035,0.6619,1.0567,0.30782,0.3394,1.05228,0.0687,0.7415,0.83423,0.39966,0.38489,0.84083
969,0.25687,0.55974,1.39199,0.14316,0.54078,0.08473,0.27262,0.4466,0.06758,0.16567,0.64473,0.43868,0.26777,0.46529,0.43588,0.12713,0.58404,0.80888,0.24753,0.46355,0.81771,0.11988,0.67231,1.31048,0.33101,0.4382,1.31191,0.01293,0.66426,1.05447,0.30527,0.33828,1.0508,0.06556,0.73944,0.82905,0.39505,0.3798,0.83766
970,0.25962,0.56049,1.3903,0.14136,0.54157,0.0847,0.27211,0.44668,0.06676,0.16591,0.64601,0.43836,0.26636,0.46252,0.43517,0.12728,0.58269,0.80811,0.24597,0.46052,0.81699,0.123,0.67414,1.30842,0.33196,0.43813,1.30994,0.01558,0.66665,1.05259,0.30232,0.33662,1.04985,0.06311,0.73812,0.82485,0.38988,0.37423,0.83507
971,0.26208,0.56133,1.38874,0.13941,0.54223,0.08466,0.27208,0.44662,0.06611,0.16595,0.64714,0.43804,0.2659,0.4604,0.43459,0.12752,0.58115,0.80734,0.24473,0.45757,0.81637,0.12574,0.67557,1.30671,0.33339,0.43776,1.30824,0.01782,0.66875,1.05107,0.2991,0.33448,1.04943,0.06098,0.73768,0.82168,0.38426,0.36844,0.83308
972,0.2644,0.56234,1.38746,0.13705,0.54262,0.08467,0.27232,0.44616,0.06582,0.1661,0.648,0.43771,0.26551,0.45828,0.43435,0.12804,0.57967,0.80663,0.24385,0.4548,0.81609,0.12861,0.67684,1.30501,0.33481,0.43716,1.30691,0.01945,0.67047,1.04988,0.2957,0.33207,1.04951,0.05919,0.73799,0.81946,0.37842,0.36252,0.83169
973,0.26671,0.56338,1.38649,0.13424,0.54288,0.08488,0.27258,0.44531,0.06595,0.16651,0.64853,0.43756,0.26464,0.4558,0.43452,0.12872,0.57846,0.80618,0.24301,0.45224,0.81626,0.13176,0.67829,1.30339,0.33571,0.43651,1.30593,0.02073,0.672,1.04907,0.29222,0.32959,1.04999,0.05806,0.73885,0.81805,0.37249,0.35647,0.8308
974,0.2689,0.56437,1.38588,0.13106,0.54327,0.08541,0.27269,0.44431,0.06639,0.16715,0.64885,0.43775,0.26334,0.45308,0.43496,0.12931,0.57763,0.80614,0.24192,0.44995,0.81672,0.1349,0.67997,1.30219,0.33593,0.43595,1.30526,0.02202,0.67363,1.04869,0.2887,0.32716,1.05077,0.05772,0.73995,0.81725,0.36651,0.35037,0.83027
975,0.27074,0.56542,1.38568,0.12764,0.54386,0.08624,0.27264,0.44334,0.06691,0.16787,0.64913,0.43822,0.26195,0.45062,0.43548,0.12971,0.5771,0.80642,0.24052,0.44787,0.81724,0.13775,0.68174,1.30158,0.33551,0.43532,1.30491,0.02345,0.67549,1.04871,0.28525,0.32483,1.05175,0.05798,0.74096,0.81686,0.36039,0.34431,0.82996
976,0.27213,0.56651,1.38597,0.12405,0.54447,0.08719,0.27252,0.44249,0.0674,0.16852,0.64928,0.4388,0.26073,0.44875,0.43596,0.13001,0.57664,0.80684,0.23903,0.4459,0.8177,0.14028,0.68338,1.30142,0.33467,0.43432,1.30503,0.02489,0.67746,1.04904,0.282,0.32252,1.05294,0.05854,0.74176,0.81673,0.35392,0.33819,0.82978
977,0.27301,0.56741,1.38679,0.1203,0.54488,0.08806,0.27248,0.44194,0.06785,0.16893,0.64894,0.43934,0.25979,0.44742,0.43639,0.13032,0.57618,0.80735,0.23775,0.44413,0.81811,0.1426,0.68475,1.30155,0.33391,0.43295,1.30565,0.02628,0.67938,1.04959,0.27902,0.32011,1.05449,0.05932,0.74251,0.81687,0.34705,0.33184,0.82988
978,0.27338,0.56799,1.38806,0.11636,0.54514,0.08878,0.2726,0.44189,0.06831,0.16892,0.64789,0.43987,0.25913,0.44651,0.43683,0.13055,0.57577,0.80804,0.23679,0.44273,0.81853,0.14462,0.68581,1.30195,0.3336,0.43151,1.3066,0.02768,0.68108,1.05026,0.27613,0.3175,1.05655,0.06046,0.74343,0.8173,0.34014,0.32507,0.83059
979,0.27335,0.5684,1.38953,0.11233,0.54536,0.08943,0.27287,0.44227,0.06879,0.16848,0.64626,0.4405,0.25877,0.44606,0.4373,0.13047,0.57539,0.80895,0.23598,0.44174,0.81897,0.1462,0.68654,1.30265,0.33349,0.43017,1.30765,0.02911,0.68249,1.05102,0.27291,0.31466,1.05902,0.06219,0.74447,0.818,0.33352,0.31782,0.83202
980,0.27324,0.56879,1.39087,0.10842,0.54553,0.09004,0.27318,0.44282,0.06924,0.16787,0.64439,0.44116,0.25867,0.44614,0.43773,0.1301,0.57512,0.80993,0.23515,0.44106,0.81935,0.14733,0.68701,1.30358,0.33306,0.42893,1.3086,0.03057,0.6837,1.05179,0.26913,0.31178,1.06158,0.06467,0.74551,0.81887,0.32707,0.31033,0.83387
981,0.2733,0.56914,1.39195,0.10475,0.54556,0.0905,0.27338,0.44331,0.06955,0.16738,0.64244,0.44161,0.25875,0.44666,0.43805,0.12978,0.57526,0.81079,0.23426,0.44071,0.81958,0.14826,0.68751,1.30454,0.33213,0.42792,1.30943,0.03209,0.68492,1.05246,0.26509,0.30914,1.06402,0.06782,0.74659,0.81975,0.32042,0.30296,0.83574
982,0.27351,0.5696,1.39285,0.10124,0.5455,0.0906,0.2734,0.44366,0.06976,0.16708,0.64028,0.4417,0.25897,0.44745,0.43825,0.12983,0.57605,0.81143,0.23333,0.44071,0.8197,0.14934,0.68838,1.30531,0.33093,0.4274,1.31034,0.0337,0.68637,1.05298,0.26138,0.30684,1.06651,0.07126,0.74794,0.82053,0.31336,0.29595,0.83761
983,0.27369,0.57043,1.39363,0.09791,0.54553,0.09031,0.27336,0.44377,0.07001,0.16678,0.63777,0.44151,0.25924,0.44834,0.43851,0.13018,0.57736,0.81196,0.23229,0.44096,0.81986,0.15069,0.68976,1.30587,0.32965,0.4274,1.31152,0.03535,0.68819,1.05341,0.25813,0.30477,1.06929,0.07463,0.74981,0.82126,0.30596,0.28922,0.83976
984,0.27374,0.57145,1.39417,0.095,0.54582,0.08989,0.27341,0.44368,0.07046,0.16628,0.63506,0.44138,0.25944,0.44915,0.43895,0.1305,0.57878,0.81255,0.2311,0.44125,0.82019,0.15206,0.69132,1.30647,0.3282,0.42744,1.31294,0.03695,0.69044,1.05389,0.2549,0.30278,1.07228,0.07787,0.75218,0.82205,0.29848,0.28262,0.84226
985,0.27365,0.57204,1.39443,0.09264,0.54635,0.08959,0.2736,0.44353,0.07111,0.16546,0.63238,0.44156,0.25949,0.44979,0.43958,0.13053,0.57996,0.81338,0.22974,0.4414,0.8207,0.15311,0.69257,1.30731,0.32646,0.427,1.31429,0.03849,0.69299,1.05451,0.25121,0.30075,1.07508,0.08117,0.75476,0.823,0.29122,0.27617,0.84484
986,0.27339,0.57193,1.39473,0.09076,0.54703,0.08932,0.27381,0.44349,0.07187,0.16419,0.62965,0.44198,0.25957,0.45041,0.44033,0.13025,0.58084,0.81438,0.22833,0.44146,0.82131,0.15377,0.69335,1.30832,0.32446,0.42605,1.31535,0.03994,0.69549,1.05516,0.24721,0.29859,1.07741,0.08483,0.75723,0.82406,0.28434,0.26993,0.84716
987,0.27277,0.5714,1.39541,0.08924,0.54782,0.0888,0.27398,0.44361,0.07261,0.16244,0.62672,0.44237,0.2599,0.45115,0.44106,0.12974,0.58152,0.81533,0.22699,0.44155,0.82189,0.15418,0.6939,1.30916,0.32233,0.42491,1.31611,0.04126,0.69764,1.05562,0.24345,0.29632,1.07933,0.08901,0.75952,0.82513,0.27776,0.26383,0.84915
988,0.27166,0.57076,1.39637,0.08804,0.54876,0.08802,0.27415,0.44379,0.07327,0.16037,0.62373,0.44262,0.26033,0.45176,0.44173,0.12909,0.58209,0.81612,0.22563,0.44161,0.82238,0.15438,0.69433,1.30965,0.32,0.42389,1.31679,0.04252,0.69951,1.05567,0.24004,0.29409,1.08103,0.09372,0.76174,0.82602,0.27115,0.25776,0.85097
989,0.27017,0.5701,1.39723,0.08709,0.54991,0.08716,0.27438,0.44388,0.07388,0.15832,0.62092,0.44279,0.26051,0.45191,0.44233,0.12838,0.58256,0.81676,0.22407,0.44149,0.82282,0.15434,0.69465,1.30993,0.31747,0.423,1.31746,0.044,0.70139,1.05532,0.23662,0.29214,1.08259,0.09879,0.76404,0.82661,0.26434,0.25176,0.85277
990,0.26859,0.56954,1.39784,0.08632,0.55118,0.08619,0.27465,0.44376,0.0744,0.15638,0.6183,0.4428,0.26038,0.45159,0.44284,0.12765,0.58294,0.81716,0.22237,0.44122,0.82317,0.15413,0.69501,1.31022,0.31494,0.42216,1.318,0.04589,0.70338,1.05476,0.23297,0.2906,1.0839,0.10395,0.76646,0.82698,0.25754,0.24597,0.85451
991,0.26721,0.56918,1.39831,0.08569,0.55237,0.08492,0.27492,0.4435,0.07474,0.15436,0.61567,0.4425,0.26012,0.45115,0.44316,0.12692,0.58326,0.81722,0.2207,0.44091,0.82336,0.15383,0.69568,1.31062,0.3125,0.42133,1.31831,0.04805,0.70539,1.05418,0.22933,0.28936,1.08487,0.10899,0.76893,0.82729,0.25106,0.24046,0.85607
992,0.2661,0.5688,1.39862,0.08521,0.55313,0.0834,0.27511,0.44323,0.0749,0.15204,0.61297,0.44193,0.25985,0.45076,0.44331,0.12619,0.58348,0.817,0.21907,0.44055,0.82336,0.15351,0.69671,1.31087,0.3099,0.42053,1.31852,0.05005,0.70729,1.05352,0.22596,0.2881,1.08562,0.11409,0.77142,0.82764,0.24511,0.23527,0.85746
993,0.26509,0.5682,1.39866,0.08478,0.55324,0.08194,0.27526,0.44307,0.07503,0.1495,0.61037,0.4413,0.25956,0.45041,0.44342,0.12546,0.58357,0.81669,0.21735,0.44001,0.82331,0.15325,0.69795,1.31051,0.30688,0.4198,1.31878,0.0516,0.70908,1.05246,0.22277,0.28664,1.08635,0.11973,0.77399,0.82801,0.23973,0.23048,0.85882
994,0.26395,0.56764,1.39853,0.08424,0.55262,0.08085,0.27544,0.44316,0.07531,0.14701,0.60803,0.44082,0.25927,0.45019,0.44369,0.12463,0.58344,0.81647,0.21542,0.4392,0.82338,0.15314,0.69937,1.30945,0.30349,0.41923,1.31913,0.05293,0.71092,1.05085,0.2195,0.28512,1.0872,0.12628,0.77663,0.82829,0.2348,0.22622,0.86024
995,0.26253,0.56766,1.39843,0.08369,0.55146,0.08013,0.2757,0.4435,0.07582,0.14476,0.60591,0.44054,0.25895,0.45017,0.44418,0.12362,0.58305,0.81637,0.21321,0.43809,0.82361,0.1532,0.701,1.30812,0.3,0.41883,1.31947,0.05452,0.71301,1.04896,0.21607,0.28379,1.08807,0.1335,0.77906,0.82843,0.23011,0.22245,0.86167
996,0.26077,0.56845,1.39844,0.08338,0.5501,0.07954,0.27603,0.44399,0.07645,0.14271,0.6038,0.44035,0.2585,0.45028,0.44478,0.12244,0.58249,0.81632,0.21069,0.43671,0.82391,0.1534,0.7027,1.30712,0.2965,0.41864,1.31975,0.05661,0.71541,1.04728,0.21265,0.28286,1.08875,0.14074,0.78112,0.82856,0.22549,0.21893,0.863
997,0.25873,0.56961,1.39839,0.08343,0.54888,0.07883,0.27635,0.44441,0.07707,0.14076,0.60159,0.44011,0.25787,0.45027,0.44536,0.12122,0.58186,0.8162,0.20788,0.43515,0.82414,0.15365,0.70409,1.30666,0.29286,0.4187,1.31985,0.05894,0.71794,1.04611,0.20932,0.28229,1.08912,0.14745,0.78296,0.82892,0.2208,0.21549,0.86413
998,0.25659,0.57065,1.39809,0.08373,0.54792,0.07794,0.27665,0.44459,0.07761,0.13891,0.5993,0.43975,0.25717,0.44997,0.44585,0.11998,0.58117,0.81596,0.20494,0.43351,0.82428,0.15384,0.70515,1.3065,0.28905,0.41902,1.31971,0.06097,0.72027,1.04536,0.20601,0.28189,1.08922,0.15364,0.78472,0.82974,0.21604,0.21207,0.86508
999,0.25468,0.57149,1.3976,0.08412,0.5472,0.07704,0.27699,0.44452,0.0781,0.13729,0.59709,0.43936,0.25638,0.44935,0.44629,0.11868,0.58037,0.81564,0.20206,0.43182,0.82437,0.15395,0.7063,1.30626,0.2852,0.41941,1.31935,0.06251,0.72208,1.04465,0.20254,0.28146,1.08921,0.15982,0.78636,0.83103,0.21132,0.20873,0.86594
1000,0.25318,0.57235,1.39711,0.08451,0.54661,0.07628,0.27743,0.44428,0.07859,0.13598,0.59507,0.43903,0.25536,0.44845,0.4467,0.11728,0.57941,0.81536,0.19921,0.43008,0.82448,0.15419,0.70788,1.30562,0.28146,0.41969,1.31895,0.06392,0.72348,1.0436,0.19878,0.281,1.08926,0.1666,0.78786,0.83254,0.20681,0.20556,0.86687
1001,0.25202,0.5734,1.39667,0.08482,0.54604,0.0757,0.27787,0.44401,0.07916,0.13483,0.59314,0.43884,0.25403,0.44733,0.44717,0.1157,0.57816,0.81517,0.19613,0.42804,0.82464,0.15499,0.7097,1.30434,0.27776,0.41977,1.3188,0.06557,0.72487,1.042,0.19479,0.28074,1.08943,0.17404,0.78937,0.8339,0.20269,0.2027,0.86793
1002,0.25095,0.57452,1.39612,0.08506,0.5454,0.07517,0.27805,0.44377,0.07986,0.1336,0.59117,0.43868,0.25253,0.44596,0.44777,0.11392,0.57648,0.815,0.19261,0.42546,0.82485,0.15648,0.71151,1.30238,0.27397,0.41971,1.31902,0.06733,0.72646,1.03994,0.19078,0.28087,1.08961,0.18152,0.7911,0.83496,0.19912,0.20022,0.86906
1003,0.2498,0.5755,1.39519,0.0852,0.54476,0.07449,0.27781,0.44352,0.08062,0.13215,0.58921,0.43837,0.25094,0.44433,0.44844,0.11222,0.57447,0.81467,0.1887,0.42236,0.82507,0.15821,0.71331,1.30006,0.27005,0.4195,1.31954,0.06889,0.72793,1.03766,0.18697,0.28133,1.08969,0.18853,0.79298,0.83595,0.19606,0.19808,0.87014
1004,0.24852,0.57632,1.3938,0.08507,0.54425,0.07359,0.27728,0.44303,0.08139,0.1305,0.58744,0.43782,0.24931,0.44251,0.44912,0.11098,0.57258,0.81413,0.18462,0.41913,0.82525,0.15956,0.71528,1.29775,0.26603,0.41919,1.32008,0.07022,0.72896,1.03531,0.18327,0.28185,1.08962,0.1952,0.79467,0.83708,0.19325,0.19618,0.87104
1005,0.2471,0.57713,1.39218,0.08455,0.54397,0.07263,0.27674,0.44206,0.08216,0.1288,0.58598,0.43714,0.24774,0.44056,0.44981,0.11018,0.57107,0.8135,0.1805,0.41613,0.82543,0.16024,0.71741,1.29561,0.26193,0.41885,1.32032,0.07155,0.72964,1.03287,0.1793,0.28217,1.08941,0.20208,0.79588,0.83843,0.19038,0.19444,0.87171
1006,0.24552,0.5781,1.39063,0.08386,0.54386,0.07183,0.27627,0.44039,0.08296,0.12725,0.58477,0.43656,0.24635,0.43843,0.45053,0.10934,0.56977,0.81296,0.1765,0.41349,0.82564,0.1605,0.71951,1.2935,0.25783,0.41867,1.32018,0.07306,0.7303,1.03028,0.17496,0.28232,1.08916,0.20951,0.79662,0.83997,0.18721,0.19281,0.87225
1007,0.24374,0.57919,1.38932,0.08332,0.54379,0.07129,0.27568,0.43792,0.08375,0.12597,0.58368,0.43622,0.2452,0.43601,0.45128,0.10817,0.56842,0.81261,0.17284,0.41115,0.82592,0.16081,0.72122,1.2913,0.25382,0.41881,1.31989,0.07475,0.73103,1.02759,0.17058,0.28245,1.08901,0.21726,0.79706,0.84167,0.18366,0.19131,0.87282
1008,0.24182,0.58024,1.38827,0.08302,0.5437,0.07099,0.27482,0.43472,0.08455,0.12499,0.58264,0.43611,0.24429,0.43328,0.45208,0.10674,0.56694,0.81245,0.16956,0.40896,0.82628,0.16157,0.72229,1.2891,0.24988,0.4191,1.31969,0.07651,0.73175,1.02505,0.16634,0.2826,1.08901,0.22476,0.79725,0.84348,0.17998,0.19008,0.87344
1009,0.23998,0.58101,1.3874,0.08286,0.54368,0.07086,0.27375,0.43095,0.08549,0.12425,0.58164,0.43614,0.24352,0.43022,0.45305,0.10515,0.56539,0.81243,0.16639,0.40685,0.82683,0.16291,0.72293,1.28704,0.24583,0.41918,1.3197,0.07822,0.7324,1.02287,0.16201,0.2826,1.08917,0.2317,0.79709,0.84542,0.17671,0.18922,0.87405
1010,0.23851,0.58134,1.3866,0.08285,0.54375,0.07081,0.27259,0.42673,0.08665,0.12357,0.5806,0.43628,0.24268,0.42692,0.45423,0.10337,0.56374,0.81248,0.16308,0.40468,0.82756,0.16451,0.7235,1.28515,0.2416,0.4189,1.31994,0.07991,0.73287,1.02095,0.15734,0.28236,1.08954,0.23829,0.79658,0.84748,0.17426,0.18867,0.87472
1011,0.23747,0.58125,1.38581,0.08307,0.54379,0.07076,0.27122,0.42206,0.08785,0.12277,0.57934,0.43648,0.2416,0.42349,0.45545,0.10149,0.5619,0.81259,0.15972,0.40235,0.82835,0.16582,0.72401,1.28338,0.23724,0.41848,1.32036,0.08171,0.73298,1.01901,0.15244,0.28199,1.09013,0.24484,0.79589,0.84969,0.17257,0.18834,0.87556
1012,0.23654,0.5809,1.38514,0.08339,0.54371,0.07064,0.26924,0.41675,0.08886,0.12188,0.57771,0.43664,0.24035,0.41992,0.45651,0.09972,0.55987,0.81268,0.1565,0.39986,0.82903,0.16653,0.72417,1.28171,0.23297,0.41806,1.32088,0.0836,0.73258,1.01695,0.1476,0.28166,1.09081,0.25141,0.79519,0.85216,0.17124,0.18817,0.87653
1013,0.23536,0.58054,1.38473,0.08362,0.54368,0.07041,0.26628,0.41052,0.08963,0.12111,0.57574,0.43668,0.23916,0.41616,0.45738,0.09824,0.55789,0.81268,0.15343,0.39738,0.82955,0.16691,0.7239,1.28027,0.22897,0.4175,1.3214,0.08552,0.73188,1.01502,0.14297,0.2814,1.09139,0.25787,0.79441,0.85497,0.16977,0.18822,0.87735
1014,0.23382,0.58028,1.38468,0.08371,0.54383,0.07006,0.26231,0.40335,0.09032,0.1206,0.57367,0.43658,0.23811,0.41222,0.45821,0.09707,0.55625,0.81256,0.15036,0.39515,0.82999,0.16735,0.7234,1.2791,0.22522,0.41659,1.32193,0.08745,0.7312,1.01339,0.13843,0.28116,1.09181,0.26417,0.79341,0.85804,0.16794,0.18846,0.87792
1015,0.23213,0.57986,1.38493,0.08374,0.54406,0.06969,0.25759,0.39565,0.09118,0.12026,0.57179,0.43641,0.23714,0.40829,0.45919,0.09616,0.55502,0.81238,0.14727,0.3933,0.83055,0.16794,0.72276,1.27812,0.22143,0.41549,1.32265,0.08928,0.73067,1.01205,0.13399,0.281,1.09223,0.27017,0.79216,0.86128,0.166,0.18876,0.8785
1016,0.2306,0.57904,1.38529,0.08368,0.54416,0.06951,0.25244,0.38791,0.09238,0.11995,0.57034,0.43637,0.23615,0.40454,0.46044,0.09542,0.55405,0.81233,0.14436,0.39176,0.83141,0.16851,0.72197,1.27723,0.21742,0.41452,1.32381,0.09071,0.73019,1.01091,0.1298,0.28104,1.09287,0.27567,0.79075,0.86477,0.16439,0.18897,0.87947
1017,0.2293,0.57793,1.38566,0.08347,0.54404,0.0697,0.24704,0.38021,0.09394,0.11964,0.56924,0.43665,0.23507,0.4009,0.46196,0.09475,0.55305,0.81259,0.14187,0.39035,0.83265,0.16885,0.7211,1.27651,0.21334,0.4138,1.3254,0.09169,0.72957,1.01002,0.12591,0.28129,1.09383,0.28064,0.78938,0.86876,0.1633,0.18919,0.88091
1018,0.22806,0.57687,1.38608,0.08309,0.54373,0.0702,0.24141,0.37229,0.09569,0.11928,0.56812,0.4372,0.23379,0.39703,0.46358,0.09403,0.55183,0.81312,0.13982,0.38887,0.83413,0.16873,0.72028,1.27622,0.20942,0.41328,1.32717,0.09257,0.72866,1.00944,0.12225,0.2816,1.09503,0.28541,0.78809,0.87337,0.16262,0.18961,0.88261
1019,0.22671,0.57604,1.38665,0.08268,0.54332,0.07069,0.23553,0.36391,0.09733,0.11878,0.56664,0.43776,0.23223,0.39265,0.46499,0.09325,0.55039,0.81366,0.13793,0.38723,0.83551,0.16808,0.71956,1.27648,0.20577,0.41284,1.32889,0.09361,0.72745,1.0092,0.11875,0.28183,1.09631,0.29015,0.78678,0.87848,0.16211,0.1903,0.88428
1020,0.22516,0.57542,1.3874,0.08234,0.54295,0.07092,0.22931,0.35502,0.09866,0.11798,0.56485,0.43813,0.2304,0.38778,0.466,0.09244,0.54887,0.81404,0.13586,0.38545,0.83649,0.16721,0.71897,1.27713,0.20239,0.4123,1.33044,0.09466,0.72595,1.0093,0.11531,0.2819,1.09755,0.29456,0.78535,0.88381,0.16159,0.19114,0.88581
1021,0.22344,0.57488,1.38825,0.08218,0.54266,0.07093,0.22265,0.34575,0.09974,0.11678,0.56303,0.43832,0.22841,0.38266,0.46664,0.09172,0.54743,0.81428,0.13355,0.38365,0.83705,0.16665,0.71837,1.27791,0.19932,0.41152,1.33178,0.09537,0.72416,1.00971,0.1118,0.28175,1.0987,0.29822,0.78389,0.88921,0.16094,0.19195,0.88719
1022,0.22175,0.57421,1.38914,0.08216,0.54246,0.0708,0.21547,0.33638,0.10069,0.1153,0.56135,0.43841,0.22637,0.37744,0.46703,0.09131,0.54619,0.81445,0.13134,0.38197,0.83737,0.1667,0.71747,1.27858,0.19657,0.41048,1.33287,0.09564,0.72203,1.0103,0.10828,0.28135,1.09973,0.3011,0.78252,0.8947,0.16033,0.1927,0.88843
1023,0.22032,0.57327,1.38999,0.08218,0.54249,0.07063,0.2079,0.32715,0.10154,0.11383,0.55979,0.43844,0.22421,0.37197,0.46724,0.09137,0.54508,0.8146,0.12961,0.38045,0.83762,0.16717,0.71601,1.27908,0.19411,0.40923,1.33379,0.09572,0.71961,1.01088,0.10496,0.28077,1.1006,0.30358,0.78123,0.90029,0.16012,0.19355,0.8895
1024,0.21927,0.57209,1.39072,0.08211,0.54285,0.07053,0.20007,0.31788,0.10232,0.11265,0.55838,0.43852,0.22175,0.36594,0.46733,0.09173,0.54391,0.81477,0.12822,0.3789,0.83786,0.16758,0.7141,1.2795,0.1919,0.40777,1.33474,0.09599,0.71707,1.01134,0.10192,0.28011,1.10143,0.30619,0.77989,0.90596,0.16043,0.19454,0.89055
1025,0.21846,0.57078,1.39129,0.08196,0.5433,0.07064,0.19202,0.30823,0.1032,0.11187,0.55722,0.43874,0.21882,0.35929,0.46747,0.09202,0.54254,0.81505,0.12679,0.37716,0.83816,0.16751,0.71221,1.27996,0.18995,0.40614,1.33591,0.09661,0.71468,1.0116,0.09905,0.27943,1.10244,0.30918,0.77841,0.91165,0.16098,0.19547,0.89189
1026,0.21775,0.56929,1.39171,0.08184,0.54338,0.07091,0.18378,0.29804,0.10432,0.11127,0.55623,0.43909,0.21545,0.35239,0.46771,0.09213,0.54104,0.81541,0.12537,0.37535,0.83861,0.167,0.71074,1.28032,0.18824,0.40438,1.33731,0.09737,0.71254,1.01163,0.09621,0.27874,1.1037,0.31238,0.77665,0.91732,0.16149,0.19617,0.89362
1027,0.21728,0.56749,1.39184,0.08183,0.54294,0.07109,0.17551,0.28749,0.10558,0.11053,0.55509,0.43936,0.21191,0.34575,0.46793,0.0923,0.5396,0.81571,0.12448,0.37373,0.83912,0.16661,0.70966,1.28035,0.18661,0.40251,1.33872,0.09791,0.71041,1.01142,0.09339,0.27796,1.105,0.31539,0.77455,0.92296,0.16188,0.19655,0.89548
1028,0.2171,0.56539,1.39163,0.08189,0.54221,0.07108,0.16742,0.27694,0.10682,0.10958,0.55364,0.43945,0.20847,0.33947,0.46795,0.09267,0.53831,0.81587,0.12423,0.37235,0.83947,0.16671,0.70861,1.28011,0.18476,0.40063,1.33987,0.09822,0.70806,1.01112,0.09064,0.27698,1.10603,0.31805,0.77217,0.92866,0.16229,0.19668,0.89715
1029,0.21695,0.56319,1.3913,0.08188,0.54155,0.07097,0.15959,0.26661,0.10792,0.10871,0.55209,0.43943,0.20521,0.3333,0.46775,0.09309,0.53711,0.81592,0.12416,0.37106,0.83952,0.16692,0.70717,1.28002,0.18253,0.39891,1.34065,0.09868,0.70556,1.01097,0.08798,0.2757,1.10675,0.32069,0.76953,0.93445,0.16284,0.19675,0.89848
1030,0.21649,0.56113,1.39115,0.08168,0.54126,0.07087,0.15215,0.25647,0.10885,0.10819,0.55075,0.43938,0.20193,0.32697,0.46741,0.09332,0.53587,0.81591,0.12378,0.36968,0.83927,0.16648,0.70516,1.28039,0.18013,0.39739,1.3411,0.09953,0.70312,1.01102,0.08547,0.27418,1.10725,0.32357,0.76667,0.94028,0.16361,0.19704,0.8995
1031,0.21569,0.55933,1.39121,0.08142,0.54132,0.07074,0.14528,0.24641,0.10969,0.10798,0.54973,0.43927,0.19848,0.32044,0.46704,0.09334,0.53453,0.8158,0.12301,0.36815,0.83884,0.16516,0.70283,1.28115,0.17818,0.39581,1.34129,0.10063,0.70085,1.01119,0.08312,0.27261,1.1076,0.32651,0.76391,0.94611,0.16462,0.19753,0.9004
1032,0.21486,0.55769,1.39127,0.0814,0.54152,0.07051,0.13905,0.23637,0.11051,0.10794,0.54892,0.43906,0.19487,0.31383,0.46673,0.09346,0.53309,0.81557,0.12208,0.3665,0.8384,0.16361,0.70059,1.28197,0.17706,0.39383,1.3414,0.10176,0.69871,1.01138,0.08076,0.27119,1.10793,0.32923,0.76163,0.95196,0.1657,0.19786,0.90147
1033,0.21433,0.55601,1.39109,0.08178,0.54159,0.07013,0.13329,0.2265,0.11134,0.10802,0.5483,0.43871,0.19118,0.30727,0.4665,0.09396,0.53159,0.8152,0.12125,0.36477,0.83799,0.16254,0.69855,1.28249,0.17652,0.39139,1.34163,0.10283,0.69654,1.01143,0.07811,0.26993,1.10841,0.3317,0.75963,0.9578,0.16654,0.19773,0.90302
1034,0.21412,0.55409,1.39066,0.08238,0.54148,0.06966,0.12764,0.21693,0.11214,0.10833,0.54792,0.43827,0.18745,0.30081,0.46626,0.09471,0.53007,0.81472,0.12053,0.36302,0.83755,0.162,0.69644,1.28254,0.1759,0.38877,1.34202,0.10391,0.69433,1.01113,0.07512,0.26869,1.1091,0.33415,0.75733,0.96363,0.16706,0.19716,0.90503
1035,0.21378,0.55185,1.39019,0.08281,0.5413,0.06928,0.12184,0.20773,0.11292,0.10898,0.54769,0.43788,0.18368,0.29438,0.46602,0.09532,0.52855,0.81426,0.11972,0.36128,0.83702,0.16151,0.69383,1.28219,0.17478,0.38632,1.34236,0.10506,0.69211,1.01043,0.07207,0.26722,1.10978,0.33673,0.75446,0.96951,0.16753,0.19639,0.90708
1036,0.21296,0.54933,1.38985,0.08287,0.54119,0.06913,0.11602,0.1989,0.11371,0.11001,0.54736,0.43766,0.17984,0.28789,0.46588,0.09557,0.52708,0.81396,0.11869,0.35959,0.83645,0.16092,0.69074,1.28172,0.1732,0.38421,1.34235,0.10629,0.6898,1.00958,0.0694,0.26535,1.11013,0.33927,0.75139,0.97547,0.16825,0.19563,0.90868
1037,0.21186,0.54658,1.38962,0.08268,0.5412,0.06918,0.11054,0.19048,0.1145,0.11136,0.54679,0.4376,0.17591,0.28138,0.46589,0.09555,0.52571,0.8138,0.11743,0.358,0.83591,0.16043,0.68769,1.28141,0.17151,0.38227,1.34204,0.10767,0.68725,1.0089,0.06734,0.26306,1.11017,0.34156,0.74866,0.98133,0.16921,0.19495,0.90968
1038,0.21086,0.54365,1.38932,0.0825,0.54122,0.06928,0.10559,0.1824,0.11516,0.11285,0.54618,0.43758,0.17184,0.27499,0.46594,0.09557,0.52436,0.81367,0.11605,0.35642,0.83535,0.1601,0.68514,1.28133,0.17005,0.38019,1.3417,0.10931,0.68451,1.00844,0.06567,0.2605,1.11017,0.34373,0.7463,0.98684,0.17015,0.19422,0.91041
1039,0.21014,0.54073,1.38882,0.08243,0.54115,0.06934,0.10101,0.1745,0.11557,0.11431,0.54581,0.43751,0.16761,0.26879,0.46584,0.0958,0.52278,0.81347,0.11466,0.35459,0.83468,0.15973,0.68296,1.28134,0.16895,0.37777,1.34147,0.11113,0.68181,1.00806,0.06402,0.25787,1.1103,0.3459,0.74392,0.992,0.17103,0.19325,0.91133
1040,0.20956,0.53802,1.38815,0.08239,0.54095,0.06932,0.09656,0.16667,0.11577,0.1157,0.5457,0.43737,0.16343,0.26267,0.46552,0.09624,0.5208,0.81316,0.1134,0.35236,0.83384,0.15931,0.68065,1.28126,0.16821,0.37503,1.3412,0.11276,0.67923,1.00762,0.06227,0.2553,1.1104,0.34785,0.74132,0.99708,0.17219,0.19207,0.91258
1041,0.20894,0.5356,1.38737,0.08229,0.54071,0.06927,0.0921,0.15891,0.11592,0.11717,0.54559,0.43717,0.15962,0.25653,0.4651,0.09682,0.51848,0.81276,0.11234,0.34981,0.83289,0.15905,0.67787,1.28098,0.16776,0.37207,1.34075,0.11397,0.67683,1.00709,0.06058,0.25276,1.11031,0.34931,0.73866,1.00231,0.17395,0.19097,0.91399
1042,0.20826,0.53328,1.38646,0.08227,0.54049,0.06919,0.08766,0.15133,0.11614,0.11875,0.54524,0.43694,0.15621,0.25042,0.46471,0.09742,0.516,0.81231,0.11138,0.34714,0.83191,0.15892,0.67471,1.28048,0.16743,0.36889,1.34019,0.11487,0.67459,1.00642,0.05905,0.25007,1.11005,0.35033,0.73616,1.00766,0.17619,0.18993,0.91544
1043,0.20768,0.5307,1.38544,0.08255,0.54022,0.0691,0.08345,0.14401,0.11635,0.1204,0.54466,0.43671,0.15291,0.24452,0.46432,0.09782,0.51354,0.81187,0.11032,0.3445,0.83092,0.15871,0.67146,1.27976,0.16699,0.3655,1.33971,0.11578,0.67237,1.00553,0.05766,0.24705,1.10983,0.35112,0.73395,1.013,0.17842,0.18848,0.91695
1044,0.20728,0.52755,1.38447,0.08313,0.53989,0.06905,0.07965,0.13691,0.11635,0.12211,0.54402,0.43655,0.14945,0.23893,0.46381,0.09797,0.51114,0.81145,0.10911,0.34193,0.82984,0.15842,0.66829,1.27889,0.16631,0.36202,1.33945,0.11683,0.67008,1.00446,0.05639,0.24357,1.10986,0.35178,0.73207,1.01826,0.18025,0.18625,0.91858
1045,0.20701,0.52391,1.38367,0.08373,0.53959,0.06905,0.07629,0.12997,0.116,0.12399,0.54334,0.43641,0.14579,0.23351,0.46308,0.09801,0.50875,0.81104,0.10788,0.33937,0.82854,0.15834,0.66505,1.27798,0.16543,0.35864,1.33932,0.11802,0.66768,1.00336,0.05519,0.23961,1.11018,0.35228,0.73054,1.02352,0.18175,0.18345,0.92032
1046,0.20668,0.52015,1.38303,0.08413,0.53944,0.06906,0.07318,0.12318,0.11529,0.12603,0.54253,0.43624,0.14204,0.22809,0.46208,0.09805,0.50633,0.81057,0.1068,0.33678,0.82698,0.15851,0.66152,1.27712,0.16444,0.35538,1.33913,0.1193,0.66512,1.00235,0.05406,0.23526,1.11063,0.35257,0.72929,1.02885,0.18335,0.18054,0.9222
1047,0.20619,0.51651,1.38238,0.08432,0.53942,0.06901,0.07022,0.11665,0.11438,0.12805,0.5416,0.43598,0.13833,0.22272,0.46096,0.098,0.50383,0.81,0.10591,0.33414,0.8253,0.15854,0.65774,1.27635,0.16343,0.35209,1.33877,0.12063,0.66239,1.00142,0.05304,0.23063,1.11098,0.35269,0.72803,1.03415,0.18536,0.17768,0.92416
1048,0.20563,0.513,1.3816,0.08447,0.53937,0.06888,0.06756,0.11058,0.11345,0.1299,0.54075,0.43565,0.13477,0.21772,0.45988,0.09782,0.50116,0.80931,0.10517,0.33136,0.82377,0.15807,0.6539,1.27566,0.16244,0.34862,1.33829,0.12191,0.65954,1.00051,0.05218,0.22582,1.11116,0.35274,0.72634,1.03907,0.18765,0.17477,0.92607
1049,0.20519,0.50951,1.38061,0.08473,0.53922,0.06871,0.06521,0.1051,0.11259,0.13155,0.54006,0.43531,0.13145,0.21332,0.45887,0.09764,0.49829,0.80857,0.10454,0.32843,0.82251,0.15711,0.65012,1.27495,0.16147,0.34489,1.33775,0.12303,0.65659,0.99956,0.0513,0.22084,1.11126,0.35274,0.724,1.04339,0.18969,0.17172,0.92782
1050,0.20488,0.50592,1.37948,0.08515,0.53905,0.06852,0.06296,0.10015,0.11171,0.13314,0.53944,0.43497,0.12833,0.20944,0.45782,0.09763,0.49528,0.8078,0.10405,0.32538,0.82138,0.15594,0.64629,1.27411,0.16055,0.34089,1.33714,0.12401,0.65354,0.99848,0.05007,0.21571,1.11142,0.35261,0.72126,1.04736,0.19106,0.16843,0.92949
1051,0.20454,0.50218,1.37836,0.08557,0.53897,0.0683,0.0607,0.09556,0.11056,0.13485,0.53885,0.43458,0.12523,0.20569,0.45656,0.09773,0.49215,0.80695,0.10374,0.32219,0.82012,0.15494,0.64232,1.273,0.15982,0.33671,1.33635,0.12508,0.6505,0.99716,0.04841,0.21052,1.11165,0.35235,0.71861,1.05141,0.19178,0.16466,0.93122
1052,0.20412,0.49831,1.37727,0.08588,0.53893,0.06805,0.0586,0.09131,0.10888,0.13676,0.53836,0.43411,0.12199,0.20178,0.45499,0.09771,0.4888,0.80591,0.10346,0.31879,0.81854,0.15439,0.63813,1.27162,0.15943,0.33246,1.33536,0.12627,0.64765,0.99564,0.04661,0.20539,1.11186,0.3519,0.71636,1.05568,0.19225,0.1602,0.93308
1053,0.20361,0.49438,1.37614,0.08615,0.53869,0.06777,0.05684,0.08756,0.10661,0.13875,0.53792,0.43359,0.11859,0.19764,0.45314,0.09739,0.48516,0.80469,0.10297,0.31511,0.81668,0.15432,0.63361,1.27008,0.15938,0.32815,1.33432,0.12741,0.645,0.99405,0.04501,0.20032,1.11204,0.35117,0.71444,1.05997,0.19273,0.15511,0.93499
1054,0.20301,0.49052,1.37482,0.08649,0.5381,0.06744,0.05539,0.08443,0.10398,0.14062,0.53734,0.43304,0.11513,0.19341,0.4512,0.09679,0.48125,0.80337,0.10209,0.31114,0.81477,0.15439,0.62877,1.2685,0.15943,0.32363,1.33348,0.12852,0.64232,0.99247,0.04368,0.19523,1.11225,0.35023,0.71267,1.06409,0.19314,0.14968,0.93674
1055,0.20233,0.48669,1.37333,0.08684,0.53729,0.0671,0.05403,0.08187,0.1013,0.14238,0.53654,0.43248,0.1118,0.18921,0.44937,0.09611,0.47708,0.802,0.10095,0.30694,0.813,0.15404,0.62383,1.26684,0.15933,0.31889,1.33285,0.12993,0.63941,0.99076,0.04248,0.19002,1.11247,0.34934,0.71095,1.06806,0.19324,0.14426,0.93814
