PaulMeinheit/Bachelor_Muay_Thai/processed_Data/N2/teep/sliced/JointMoments/sliced4.csv
Unnamed: 0_level_0,R_KNEE_MOMENT,R_KNEE_MOMENT,R_KNEE_MOMENT,L_KNEE_MOMENT,L_KNEE_MOMENT,L_KNEE_MOMENT,R_HIP_MOMENT,R_HIP_MOMENT,R_HIP_MOMENT,L_HIP_MOMENT,L_HIP_MOMENT,L_HIP_MOMENT,R_ANKLE_MOMENT,R_ANKLE_MOMENT,R_ANKLE_MOMENT,L_ANKLE_MOMENT,L_ANKLE_MOMENT,L_ANKLE_MOMENT,WAIST_JOINT_MOMENT,WAIST_JOINT_MOMENT,WAIST_JOINT_MOMENT,NECK_MOMENT,NECK_MOMENT,NECK_MOMENT,L_SHOULDER_MOMENT,L_SHOULDER_MOMENT,L_SHOULDER_MOMENT,R_SHOULDER_MOMENT,R_SHOULDER_MOMENT,R_SHOULDER_MOMENT,L_ELBOW_MOMENT,L_ELBOW_MOMENT,L_ELBOW_MOMENT,R_ELBOW_MOMENT,R_ELBOW_MOMENT,R_ELBOW_MOMENT,L_WRIST_MOMENT,L_WRIST_MOMENT,L_WRIST_MOMENT,R_WRIST_MOMENT,R_WRIST_MOMENT,R_WRIST_MOMENT
ITEM,X,Y,Z,X,Y,Z,X,Y,Z,X,Y,Z,X,Y,Z,X,Y,Z,X,Y,Z,X,Y,Z,X,Y,Z,X,Y,Z,X,Y,Z,X,Y,Z,X,Y,Z,X,Y,Z
1173,12.43222,-6.97498,4.66624,93.38978,40.3189,13.13231,44.36018,-27.10505,23.25403,94.59587,-0.84251,8.32909,3.284,-1.15375,1.49512,25.33514,38.30024,6.81451,116.4993,-62.1133,13.79786,11.5292,-34.38101,31.52165,10.19673,7.52291,14.873,10.77238,-7.5208,18.94573,-0.98535,-2.61385,1.51622,3.27552,-3.01756,6.85429,0.21137,0.3186,0.25224,0.19921,-0.5541,1.3932
1174,7.33783,-4.50075,2.44178,89.89094,38.59643,10.554,14.49768,-16.64005,5.91558,90.04571,9.19516,5.11848,2.41411,-0.91916,1.01826,23.1592,31.68705,5.86258,85.20231,-28.36226,4.96235,-0.40818,15.87185,18.35908,7.04967,3.33713,5.91088,-4.47826,-8.99071,36.00901,-0.34927,-0.06962,3.63398,-0.68946,-3.58642,10.13358,0.36524,0.29711,0.59169,-0.44631,-0.47706,1.78336
1175,-10.49925,4.95353,-4.34534,87.54529,37.02754,7.97215,-31.85699,5.18156,-13.01298,85.83736,19.73086,3.28483,-1.33982,0.62583,-0.44549,21.26361,24.49759,4.79707,35.48877,19.95638,-8.21418,-15.03205,28.04346,5.2661,3.96021,0.81824,2.2719,0.68026,-8.60874,29.1683,-0.16381,0.7999,4.34719,0.24613,-2.80239,8.45017,0.37038,0.15445,0.69926,-0.40874,-0.24371,1.31776
1176,-27.67382,15.67299,-8.19786,87.04168,35.6887,5.49084,-55.49832,20.51479,-13.73479,79.64614,28.59116,2.93188,-4.78119,2.42738,-1.04422,19.75363,17.11431,3.61403,0.70225,48.73986,-8.92051,-22.27404,-8.72654,-3.48661,4.06818,3.57279,7.43326,4.95431,-1.41603,3.67144,-0.41239,-0.19172,3.33574,1.37367,-0.72863,2.68626,0.36734,0.28433,0.56717,-0.03049,0.00778,0.49611
1177,-24.73515,16.21728,-4.64985,86.75967,32.57949,3.28988,-37.25051,17.74705,0.61031,70.47031,30.28228,2.53749,-4.13739,2.40018,-0.44538,18.51637,9.80252,2.30665,2.98996,35.84794,4.01,4.13356,-57.66663,9.99917,5.74759,8.9217,16.19149,1.53543,5.01954,-12.40287,-0.90512,-2.36838,1.54556,1.19153,0.72312,-1.62578,0.29749,0.45201,0.21787,0.28345,0.12946,-0.22975
1178,-8.64417,10.29517,3.07924,86.33118,26.90989,1.44813,-9.33091,6.6205,13.90607,64.66646,25.64004,0.91952,-1.22819,1.23197,0.59448,17.52854,2.70276,0.96204,23.50762,4.99237,19.89399,50.80643,-65.52902,30.48926,4.17727,9.30068,16.70389,1.56908,3.71127,-10.32529,-1.07728,-3.74054,-0.31983,1.98193,0.67061,-2.57687,0.04009,0.22989,-0.1577,0.50451,0.16847,-0.78931
1179,0.82813,5.23559,5.32007,86.89761,19.94796,-0.11094,4.20207,-1.49135,12.5703,68.70637,22.49676,-1.19386,0.3869,0.43885,0.91515,16.81369,-4.17534,-0.30478,46.7794,-9.98734,21.14961,71.51324,-22.36298,24.24673,-2.47219,0.82197,3.56299,6.21229,-2.05222,-3.10761,-0.32287,-2.08072,-1.89617,3.7927,-0.00651,-1.62682,-0.2184,-0.28425,-0.1622,0.7443,0.17647,-0.94091
1180,-0.55006,-1.69819,-1.7141,88.59807,13.51196,-1.43355,13.18544,-5.45242,-7.17661,78.67953,25.27766,-1.94128,0.34645,-0.2243,0.16458,16.27222,-10.70947,-1.38856,73.14961,-3.3677,-2.48996,46.75448,28.02283,-0.50398,-8.18344,-9.86823,-11.54531,6.64656,-6.81208,3.74321,0.71865,1.12581,-2.00444,3.72258,-0.94725,1.14482,-0.14623,-0.75399,0.41648,0.73544,0.05577,-0.30746
1181,-2.6129,-8.2641,-7.10238,89.07569,8.83769,-2.54681,14.03256,-5.55425,-23.15706,79.16421,29.68107,-0.67717,0.26118,-0.9463,-0.44812,15.84126,-16.58027,-2.19665,73.50907,13.83908,-23.67627,9.02015,49.29699,-6.20667,-6.8808,-11.72731,-13.19519,-0.76377,-8.42591,13.08543,0.98827,2.05856,-0.45221,0.29206,-2.22439,5.19773,0.17728,-0.86827,1.03319,0.19067,-0.20888,0.81484
1182,-0.35723,-7.78614,-4.57333,87.13778,5.41079,-3.39781,-3.11446,-0.9336,-17.79848,65.38941,28.66846,0.9601,0.6001,-1.1422,-0.33496,15.65065,-21.62683,-2.75524,30.67823,28.5401,-19.61496,-7.26751,41.49785,7.2956,0.69316,-3.59459,-2.40289,-7.42915,-5.11008,17.53631,0.30482,-0.47706,1.69809,-2.57621,-2.65171,6.38369,0.34413,-0.61428,1.03425,-0.29512,-0.37689,1.36223
1183,-0.44727,-3.8372,-2.11966,85.70548,2.42411,-4.05503,-18.187,4.10397,-8.19974,56.14802,23.72444,1.01431,0.48684,-0.83885,-0.30572,15.75695,-25.93262,-3.21685,-3.92308,28.77735,-12.42536,-5.99903,21.1192,17.29357,8.06709,4.73666,6.6793,-4.50357,-0.30618,14.26474,-0.54932,-3.14752,3.31206,-0.91551,-1.92831,4.21827,0.25776,-0.2401,0.57624,-0.03308,-0.34762,1.02293
1184,-7.24462,-2.11787,-4.44975,86.1676,-0.14332,-4.73796,-9.29297,3.4131,-8.71605,64.27875,21.99097,-0.40709,-0.38515,-0.49734,-0.74068,15.84253,-29.5667,-3.70048,16.20457,14.55988,-19.08433,-5.59228,2.66984,17.09209,8.56392,5.75582,5.78433,7.40743,0.35939,8.87046,-0.65005,-1.97991,3.1696,3.33144,-0.88241,1.76266,0.16384,0.24861,0.12154,0.55282,-0.1644,0.34274
1185,-13.98975,-1.67338,-6.94028,85.73217,-3.39824,-5.2235,11.27019,-1.027,-11.77157,78.44085,21.75238,-1.57051,-1.18218,-0.26911,-1.09002,15.55027,-32.50072,-4.178,62.60662,-2.23187,-26.98974,-12.21517,-11.20683,5.64775,3.54455,1.44015,-0.51236,12.63069,0.04396,0.43586,-0.19581,1.37156,1.19746,4.51152,0.17159,-0.07904,0.11196,0.67455,-0.1362,0.61994,0.03998,-0.10141
1186,-13.44582,-0.59457,-5.9427,83.75451,-7.43154,-5.19246,18.18597,-3.65781,-10.77412,87.78603,19.13308,-1.22507,-1.17351,-0.08752,-0.99149,14.96119,-34.6373,-4.49534,87.52886,-9.34694,-25.02152,-17.20355,-15.15257,-3.59655,-0.88765,-1.68281,-4.45804,1.06961,-0.52064,-4.76804,0.20949,2.38568,-1.71532,0.72236,0.2225,-0.13274,-0.01752,0.64947,-0.3273,0.03227,0.05227,-0.0341
1187,-7.76425,-1.01956,-3.48102,81.46068,-10.55274,-4.91131,9.08451,-4.83746,-10.9018,90.08165,16.3196,-0.34595,-0.48127,-0.11703,-0.659,14.30689,-35.99852,-4.59116,81.49007,-7.83193,-20.31712,-10.88467,-9.51624,-0.85021,-1.98922,-0.76542,-3.68266,-10.68966,-2.5276,-2.60089,0.37761,0.43441,-3.77288,-2.97717,-0.67174,1.08903,-0.18765,0.2504,-0.49526,-0.53748,-0.06351,0.19611
1188,-3.08441,-2.91447,-1.69183,78.29804,-12.21631,-4.79531,-0.63682,-6.1738,-13.29446,83.76301,15.06034,-0.69345,0.29311,-0.36454,-0.23141,13.65839,-36.71543,-4.56917,60.99204,-7.35417,-19.15149,3.12273,0.2574,6.24321,-0.36519,2.42899,-0.76956,-10.61538,-3.5891,1.6548,0.31588,-1.65968,-3.68381,-2.93169,-1.27279,1.81713,-0.27224,-0.08752,-0.53947,-0.5307,-0.13293,0.28739
1189,-1.09047,-2.76888,-0.45523,73.24477,-12.96357,-4.90897,-0.17951,-6.09371,-11.67243,71.51109,14.59842,-2.16514,0.70678,-0.48884,0.25212,12.97366,-36.83335,-4.53983,45.2259,-12.23317,-18.36617,15.21095,15.68183,11.83194,3.29543,5.64432,1.65208,-4.26529,-3.60343,5.23457,0.10098,-2.31093,-1.70152,-0.39175,-1.35649,2.13973,-0.21953,-0.18189,-0.39554,-0.03547,-0.17406,0.3799
1190,-0.75967,-0.87105,0.15839,67.28137,-13.01428,-5.119,6.56259,-4.36793,-4.95243,63.30059,14.9144,-3.30311,0.69695,-0.47376,0.52442,12.16296,-36.45071,-4.56162,44.95623,-17.83173,-16.70753,15.38524,28.43976,11.81749,6.90049,6.37103,2.42268,0.01365,-2.9461,6.11754,-0.03767,-2.01223,0.84998,1.54208,-1.15049,2.19295,-0.05596,-0.17923,-0.06489,0.37013,-0.21085,0.49778
1191,-1.82431,0.07731,-0.01241,63.22679,-12.47801,-5.28227,9.62356,-2.39168,5.46477,67.3577,16.94162,-3.44119,0.49707,-0.60686,0.43796,11.25125,-35.79197,-4.6362,58.34584,-14.95187,-11.75822,1.25437,27.84701,4.88002,6.709,2.34747,1.19095,-0.78429,-1.60928,3.47807,0.07395,-1.4055,2.22752,1.23039,-0.74358,1.54801,0.1296,-0.1915,0.30925,0.30624,-0.16349,0.41269
1192,-3.7043,0.7085,-0.50208,62.37791,-12.13296,-5.22544,8.22917,0.18853,19.27935,79.51704,18.93097,-3.06737,0.40882,-0.81072,0.22894,10.35395,-35.02093,-4.70962,75.1915,-3.79599,0.86284,-9.87551,21.60563,0.3535,2.1246,-3.48031,-0.54699,-3.48959,-1.12411,1.13814,0.25422,-0.75779,1.55814,0.04646,-0.54388,0.85519,0.19829,-0.07734,0.4393,0.06873,-0.06221,0.18081
1193,-6.24912,2.47634,-1.12555,62.89386,-12.44464,-4.86714,6.52766,3.04049,27.52789,88.62858,18.03878,-2.36466,0.37082,-0.70155,0.10147,9.49761,-34.20215,-4.73062,83.30129,2.94041,10.94897,-1.74335,22.21595,6.4628,-2.57702,-5.01308,-0.66552,-4.48336,-2.40562,1.98277,0.24312,-0.374,-0.09388,-0.35409,-0.88951,0.98874,0.09923,0.20092,0.21227,-0.00232,-0.04919,0.10941
1194,-9.67791,3.65687,-1.80819,62.01821,-12.50292,-4.37176,5.68329,1.6018,18.77669,88.45879,14.09044,-1.10179,0.12147,-0.27121,-0.03368,8.75732,-33.40687,-4.66718,78.52086,-6.48101,1.19266,13.29621,27.5247,15.67385,-3.48168,-1.84935,0.59358,-4.42004,-4.13459,3.95731,0.17041,-0.55214,-0.89752,-0.33628,-1.5107,1.52728,-0.03569,0.32646,-0.09084,-0.00293,-0.16,0.22547
1195,-12.62385,2.00135,-2.02905,58.38563,-11.2347,-4.03436,8.55377,-7.78719,-2.59866,78.52814,8.50022,0.06974,-0.23186,-0.03349,-0.23536,8.29271,-32.70402,-4.49316,68.07287,-33.09579,-25.13996,13.0288,30.12063,14.19071,-1.25501,0.39974,1.0623,-4.46397,-4.4001,4.04287,0.30251,-1.16875,-0.56086,-0.46422,-1.73112,1.54665,-0.04868,0.10978,-0.1592,-0.0503,-0.23824,0.27237
1196,-13.42968,-0.4765,-1.70896,53.14316,-9.14017,-3.99842,17.40967,-18.64327,-16.88177,62.73916,3.9076,0.19272,-0.35514,-0.26197,-0.35573,8.06526,-32.12082,-4.25696,59.90762,-60.82756,-42.69853,-2.36867,29.32723,1.65815,1.39312,-1.12115,-0.31133,-4.61097,-3.05382,2.27775,0.53012,-1.65964,-0.28131,-0.58932,-1.33542,0.9382,0.02672,-0.1884,-0.04192,-0.10456,-0.15829,0.12109
1197,-11.01221,1.17691,-1.7128,49.21268,-7.45851,-4.20615,29.03356,-17.7057,-8.31333,49.19779,5.68073,-0.65319,-0.08488,-0.47953,-0.2195,7.87525,-31.68046,-4.1043,57.35921,-61.54032,-29.52528,-15.20592,24.77452,-7.41213,3.58811,-2.56903,-1.97457,-5.18803,-1.48274,0.43076,0.68837,-2.0486,-0.5801,-0.64492,-0.73281,0.14432,0.05806,-0.33815,0.02309,-0.14398,-0.00508,-0.11771
1198,-6.08625,5.91117,-2.17315,48.39182,-6.63631,-4.54562,38.45652,-6.40345,12.83444,43.45859,15.32158,-1.91011,0.41112,-0.33331,0.12736,7.61836,-31.40512,-4.13791,59.38633,-34.27008,3.14914,-12.91313,15.38563,-2.40796,5.67226,0.35152,-1.48787,-5.55796,-0.43594,-0.58843,0.98957,-2.67322,-0.27776,-0.47491,-0.19765,-0.39516,0.0758,-0.37824,0.05573,-0.13468,0.08428,-0.25228
1199,-2.97435,7.18044,-2.0172,50.09379,-6.96058,-4.79096,41.13525,-2.61709,20.90644,45.67526,23.04234,-3.22896,0.66688,-0.16432,0.384,7.27481,-31.28785,-4.30141,61.61019,-17.96986,20.19556,3.56886,5.95114,10.03925,6.3819,5.45591,0.947,-4.18327,0.10383,-0.60552,1.366,-2.83671,1.10297,0.1514,0.1276,-0.25352,0.14444,-0.29678,0.18743,-0.02834,0.05684,-0.15935
1200,-4.52092,3.85304,-1.07247,51.71539,-7.99835,-4.78458,38.8131,-12.87394,10.99399,51.97974,20.3706,-3.96342,0.4703,-0.22127,0.34013,6.76529,-31.24409,-4.42539,65.14153,-35.06079,10.46721,23.28417,3.53216,15.12331,4.16572,6.97899,2.56627,-2.17975,-0.30798,0.0894,1.25672,-1.8795,1.90643,0.63624,-0.20869,0.44516,0.16948,-0.07256,0.31007,0.0622,-0.11045,0.07882
1201,-7.3666,0.95893,-0.41013,52.00484,-8.41553,-4.57125,39.10941,-23.25483,0.87004,59.48299,12.27992,-3.11701,0.18891,-0.26367,0.1583,6.1361,-31.15251,-4.40717,78.55761,-60.3884,-4.15442,31.4899,12.83619,7.5936,0.60314,3.67687,1.85554,-2.38244,-2.21868,0.93307,0.65528,-0.74774,0.99084,0.19508,-1.34921,0.91259,0.07083,0.12031,0.22265,-0.00758,-0.34273,0.22879
1202,-5.77783,1.59613,-0.61644,53.59596,-7.87511,-4.25217,42.89711,-19.11122,2.82268,69.10316,9.39667,-0.81237,0.36792,-0.11312,0.18352,5.73269,-30.98257,-4.32263,100.83251,-58.18984,-5.04588,21.8758,30.06969,-4.66633,-1.30467,-0.4857,-0.17303,-4.69224,-4.57784,1.47432,0.21027,-0.71591,-0.8723,-0.74338,-2.39933,0.68551,-0.10404,0.11778,-0.13454,-0.14956,-0.43405,0.17707
1203,1.22141,4.08372,-1.30495,57.70608,-7.65472,-4.06525,43.12224,-0.51963,12.7251,77.29754,14.3493,0.56431,1.12111,0.01639,0.47824,5.78388,-30.86362,-4.33535,113.06542,-23.72298,4.22378,5.66227,41.11981,-12.26319,-0.28523,-1.83205,-1.80977,-6.30401,-4.94163,1.12088,0.30231,-1.59617,-2.13526,-1.0554,-2.24196,0.15953,-0.2634,0.00132,-0.5674,-0.16674,-0.29479,0.05075
1204,8.22538,6.23388,-2.12011,60.49815,-7.76043,-4.37885,37.84411,20.95594,20.92148,75.46539,22.41311,-1.04742,1.93572,-0.033,0.75175,6.04865,-30.87617,-4.47369,101.30984,18.88098,11.07885,0.96775,38.96033,-14.01246,2.92431,-0.19083,-2.18462,-6.24446,-2.39192,-0.63757,0.88496,-2.39495,-1.82068,-0.6809,-0.86735,-0.26535,-0.29349,-0.08099,-0.70807,-0.07931,-0.05166,-0.04505
1205,10.20704,7.75267,-2.89192,58.40039,-6.78237,-5.1931,37.18208,28.77277,21.15134,60.5336,28.21748,-4.36936,2.27113,-0.05023,0.81655,6.0985,-30.93281,-4.6452,76.47124,35.49023,9.99057,13.89005,30.13603,-12.79422,5.2529,2.3838,-1.35066,-6.1138,0.61756,-2.99775,1.46534,-2.31439,-0.42796,-0.61291,0.43273,-0.72021,-0.12805,-0.08479,-0.39336,-0.07598,0.11573,-0.16639
1206,8.26558,6.86851,-2.58626,53.60843,-4.09647,-6.0679,48.10084,8.71243,11.87528,41.01771,30.49798,-6.57939,2.1359,0.00726,0.75263,5.73932,-30.82489,-4.76139,59.3468,4.24409,3.53608,33.01865,23.604,-10.26437,4.02716,3.59783,-0.10298,-6.17904,1.14603,-4.03345,1.33365,-1.24583,0.65857,-0.96088,0.45607,-1.06256,0.1344,-0.05505,0.08964,-0.15639,0.11305,-0.27059
1207,7.17618,2.12565,-0.64892,52.77123,-0.84107,-6.43533,62.35886,-29.68233,0.00425,34.39841,31.42444,-6.4626,1.93118,-0.11092,0.6547,5.20068,-30.31394,-4.74331,64.28879,-54.01914,-1.52066,38.54752,26.36636,-9.26266,1.35599,2.31471,0.36984,-4.98813,-0.2355,-3.07793,0.73148,-0.38067,0.65199,-0.78636,-0.39862,-0.7681,0.29028,-0.09087,0.29476,-0.13939,-0.00519,-0.19759
1208,9.41727,-3.19852,1.3006,57.85031,0.17734,-6.00686,68.51509,-52.37967,-3.70024,46.39866,30.58052,-4.85343,1.9142,-0.42248,0.52826,4.78646,-29.30805,-4.58244,87.96876,-86.88475,0.25697,20.8118,33.52754,-12.43657,1.26757,-0.72773,-0.43073,-3.26719,-0.61858,-1.9852,0.66458,-0.93283,-0.1514,-0.06558,-0.79262,-0.05753,0.22175,-0.18923,0.11407,-0.01556,-0.11036,-0.00654
1209,12.29887,-5.03139,1.58101,63.52266,-2.62108,-5.04125,62.473,-41.49073,1.00834,62.30922,25.37503,-2.9383,1.89914,-0.65339,0.37415,4.5315,-27.92727,-4.39084,107.25079,-72.46355,5.3133,-5.70198,27.68873,-17.65531,3.35,-3.57325,-1.70151,-3.80572,1.22373,-3.02306,1.17004,-2.22171,-1.01754,0.0565,-0.24913,0.03321,0.00352,-0.19046,-0.15762,0.01116,-0.14586,0.0075
1210,11.63082,-3.19165,0.44773,65.30637,-6.80711,-4.13023,49.27554,-14.54616,5.69275,68.73097,17.4185,-1.23055,1.63907,-0.69285,0.2032,4.26621,-26.39317,-4.28176,106.74152,-40.63404,6.47708,-16.0114,9.72754,-20.91986,3.93899,-3.83377,-2.00451,-7.33309,3.72631,-6.0321,1.3959,-2.61029,-1.2184,-0.90102,0.51011,-0.92521,-0.17955,-0.03339,-0.19804,-0.16803,-0.14928,-0.27662
1211,6.9621,-0.3679,-0.78568,64.49727,-7.90991,-3.81072,39.0004,4.32914,6.94814,68.30378,14.04891,-0.09462,1.20694,-0.76561,-0.02188,3.85187,-24.84128,-4.1946,96.17287,-21.69408,4.60086,-0.49374,3.94771,-21.66093,1.60962,-1.18657,-1.06342,-10.90271,5.3139,-8.66207,0.94566,-1.78472,-0.73894,-2.06463,0.95149,-2.04636,-0.21685,0.11146,-0.03827,-0.40489,-0.10901,-0.61103
1212,2.75359,0.71377,-1.22333,64.22097,-6.1541,-3.95123,39.66385,8.89359,8.20365,68.40804,16.06016,0.02209,0.88744,-1.02472,-0.29582,3.32289,-23.35978,-4.07026,93.25274,-17.82889,6.76502,28.29519,13.56596,-21.14559,-1.2941,1.09356,-0.29258,-11.66447,6.61942,-9.48335,0.25896,-1.07117,-0.53449,-2.71739,1.52232,-2.36224,-0.1592,0.0431,0.00942,-0.5125,0.09341,-0.67749
1213,3.51819,-2.14236,-0.50884,65.34378,-5.99971,-3.87862,52.02268,-0.4346,10.69756,70.96859,15.73566,-0.50589,0.89907,-1.40836,-0.49311,2.81768,-21.9589,-3.99471,105.56887,-27.9454,15.18699,46.776,11.89915,-19.22689,-1.68453,0.63705,-0.73915,-11.02245,7.57384,-9.28344,0.05715,-1.39034,-1.04281,-3.1659,2.13388,-2.20421,-0.08409,-0.2095,-0.17289,-0.48499,0.37891,-0.48199
1214,7.92306,-8.04796,0.86166,66.97562,-8.85962,-3.34492,66.17757,-21.91792,11.3078,75.71172,8.39255,-0.79678,1.14292,-1.72606,-0.51198,2.43146,-20.56162,-4.01681,125.54141,-55.82712,22.34642,42.60836,-5.14848,-17.59071,1.42397,-0.88378,-1.73132,-12.06903,6.15117,-9.11482,0.7599,-2.09324,-1.33917,-3.63355,1.82646,-2.47478,0.04422,-0.41252,-0.34912,-0.42757,0.45475,-0.32507
1215,11.5035,-12.31772,1.72153,67.67721,-11.44924,-2.89074,71.38276,-44.80278,8.50085,80.5995,-1.24426,-1.01399,1.38949,-1.76662,-0.39045,2.16083,-19.23014,-4.06367,137.06673,-91.94862,20.08972,29.49387,-8.49194,-19.67739,6.08167,-1.11796,-2.05256,-13.4556,2.7942,-8.27691,1.96043,-2.06634,-0.61761,-3.3085,0.69499,-2.64016,0.20946,-0.36737,-0.28085,-0.34067,0.24361,-0.28279
1216,12.52576,-12.52646,1.65177,66.78316,-11.31133,-3.00563,67.54041,-57.9574,4.51132,81.7956,-5.49986,-1.91551,1.54466,-1.54788,-0.25786,1.99149,-18.16078,-4.06478,132.50496,-117.29742,10.80308,26.55492,10.01494,-24.32425,8.46194,-0.85736,-1.47787,-11.53156,0.7187,-5.90342,2.74109,-1.47657,0.34555,-1.7389,-0.19452,-1.62777,0.31498,-0.14591,-0.04934,-0.16135,-0.04558,-0.17278
1217,12.67729,-9.90493,1.085,65.17709,-9.91815,-3.39433,64.28258,-56.45089,2.46197,77.94818,-3.56826,-3.07893,1.5841,-1.19621,-0.13075,1.93028,-17.37448,-3.99335,123.40347,-118.09418,4.74994,31.94004,23.94213,-25.73168,6.59892,-1.77584,-0.6615,-7.615,1.46002,-3.70468,2.69076,-1.32597,0.40837,-0.40703,-0.19515,-0.39584,0.34064,-0.00892,0.07074,-0.04556,-0.15146,-0.09139
1218,12.48098,-6.50107,0.58316,64.7141,-9.06392,-3.53337,64.46309,-42.88092,2.81868,71.32259,2.16803,-3.00092,1.39161,-0.80249,0.04168,1.99579,-16.70682,-3.82247,117.53552,-93.6273,7.13628,33.23854,14.89853,-19.40874,2.48191,-2.60983,-0.18782,-5.91537,3.01437,-3.48481,2.02961,-1.61815,-0.22115,-0.60891,0.30042,-0.50174,0.29274,-0.05934,-0.00493,-0.15836,-0.04659,-0.24663
1219,9.48752,-4.33316,0.48344,65.59196,-8.81497,-3.39905,56.31714,-28.52963,3.61455,62.22151,10.00144,-1.25998,0.90408,-0.50241,0.18143,2.17125,-16.14629,-3.61427,97.64306,-61.45143,13.37642,29.37892,-8.38522,-8.21714,-0.64311,-1.08013,-0.20944,-7.3532,3.04659,-4.48735,1.14451,-1.6253,-0.63569,-1.5361,0.48518,-1.56792,0.15907,-0.17483,-0.12176,-0.3343,0.05399,-0.50143
1220,3.31073,-4.23575,0.71501,66.43773,-8.87781,-3.25776,34.54939,-23.18107,3.48922,52.03279,15.91026,0.9513,0.33707,-0.4075,0.20438,2.46428,-15.80418,-3.49031,57.35075,-43.76406,16.87758,29.18085,-26.59146,-1.87855,-0.67707,1.60946,-0.52989,-9.47033,2.62547,-5.17891,0.8578,-1.37292,-0.49367,-1.95669,0.47107,-2.06928,0.0824,-0.22821,-0.13912,-0.35118,0.0611,-0.54815
1221,-2.43094,-4.87257,0.89788,66.71227,-9.02746,-3.28145,12.04815,-24.10708,2.62781,46.34172,16.66077,2.17636,-0.02695,-0.46016,0.16587,2.91319,-15.63176,-3.44886,23.21692,-42.55854,15.565,35.27082,-28.60826,-6.65472,2.52446,1.47458,-0.88222,-10.42124,3.46262,-5.22629,1.80949,-1.49991,-0.15913,-1.97931,0.7706,-1.69292,0.22973,-0.20341,-0.08065,-0.2779,0.09071,-0.38096
1222,-5.16245,-5.08878,0.81509,66.21155,-9.08731,-3.5547,-0.31097,-24.42891,1.40917,46.27602,14.16884,1.40685,-0.13864,-0.53435,0.11501,3.39621,-15.47933,-3.39158,12.69321,-45.4136,9.91535,38.85933,-18.53217,-16.25256,5.48731,-1.99544,-0.98184,-10.24765,4.56254,-4.90753,2.85219,-1.94809,-0.08583,-2.01702,1.14074,-1.21895,0.41609,-0.14923,-0.03919,-0.24962,0.17596,-0.21977
1223,-5.45598,-4.87916,0.57139,64.79904,-9.47947,-4.00708,-4.95075,-22.43934,0.1623,47.07399,12.31468,-1.20566,-0.08131,-0.555,0.05404,3.71434,-15.29987,-3.29783,13.455,-45.06738,1.63637,34.95051,-7.30935,-20.02902,4.72808,-4.43015,-0.64729,-9.57622,4.07088,-4.3532,2.64091,-2.07791,-0.23537,-1.7336,0.8386,-1.05102,0.39815,-0.13269,-0.04623,-0.22249,0.14429,-0.17835
1224,-3.80855,-4.0504,0.32996,62.95858,-10.97821,-4.34779,-3.35164,-18.69626,-0.39345,44.42664,12.30002,-3.87427,0.09872,-0.49817,0.01735,3.86048,-15.13971,-3.25236,13.38768,-41.17107,-3.99183,30.30799,-4.29318,-16.55192,1.09415,-2.50733,-0.07402,-9.27321,2.53657,-4.00451,1.54707,-1.64407,-0.30335,-1.09774,-0.15194,-1.1219,0.23862,-0.16975,-0.06921,-0.16826,-0.07576,-0.23744
1225,0.05235,-2.60186,0.12895,61.43488,-13.50493,-4.34285,8.58114,-14.55015,0.0626,39.45247,12.25806,-4.60913,0.31685,-0.3771,0.01235,3.99043,-15.01874,-3.30427,19.65215,-36.69221,-1.96232,27.54581,-14.61113,-10.03525,-2.77851,2.28911,0.54087,-9.9261,2.05614,-4.19358,0.56766,-0.92438,-0.21311,-0.823,-0.86548,-1.2707,0.10992,-0.18029,-0.06784,-0.17105,-0.2466,-0.30795
1226,4.14887,-1.13408,-0.01699,60.62008,-16.02007,-4.07335,24.7675,-11.58049,0.92777,37.65723,9.66633,-3.42473,0.42943,-0.23972,-0.00038,4.20387,-14.87909,-3.36963,36.4727,-35.06725,4.41503,19.53391,-34.217,-1.91144,-4.46045,5.702,1.00204,-10.80276,2.60976,-4.30011,0.42035,-0.47054,-0.10665,-1.07649,-0.732,-1.29145,0.08404,-0.11202,-0.04429,-0.21721,-0.16925,-0.28081
1227,5.19172,-0.12104,-0.03524,59.23892,-17.84528,-3.75816,29.77549,-9.34822,1.50822,38.44918,4.03307,-2.25881,0.41231,-0.17585,-0.00839,4.41829,-14.66713,-3.35407,45.7903,-36.40073,7.14072,12.5892,-53.08107,4.72559,-2.33822,4.60979,0.8575,-10.96384,2.8082,-3.78128,1.29964,-0.83205,-0.141,-1.29932,-0.15591,-1.10553,0.1436,-0.05838,-0.03981,-0.20954,0.06003,-0.15248
1228,2.89175,-0.09308,0.06554,56.05847,-18.68691,-3.56659,19.30204,-7.65112,1.55331,36.8419,-0.98774,-1.97596,0.35951,-0.26603,0.00596,4.52297,-14.40701,-3.26933,33.48284,-37.22051,4.52539,25.57997,-63.58625,2.80199,2.00199,0.39352,0.12034,-10.8652,3.16951,-3.33001,2.58679,-1.79573,-0.27532,-1.25734,0.28126,-0.90526,0.29083,-0.11431,-0.0675,-0.1676,0.21191,-0.07575
1229,0.10326,-0.94553,0.15385,52.44048,-18.32354,-3.61465,4.29821,-6.51882,1.24327,34.28777,-1.58644,-1.76862,0.33209,-0.44029,0.0002,4.50789,-14.15906,-3.16955,12.79444,-33.8366,0.70459,51.33077,-61.64636,-7.32166,4.63899,-3.07171,-0.53408,-10.68033,4.32359,-3.48354,3.22508,-2.56841,-0.38917,-1.02165,0.22081,-0.87246,0.48223,-0.23645,-0.10041,-0.16657,0.14834,-0.16824
1230,-1.17783,-1.34791,0.12832,50.19082,-17.45672,-3.86588,-4.36455,-5.09171,0.85111,34.98001,0.62538,-1.522,0.317,-0.50706,-0.04928,4.3614,-13.9611,-3.09404,2.60524,-28.1111,-2.13045,56.09532,-49.80755,-13.86981,4.23009,-4.16308,-0.86052,-9.11238,3.99919,-3.32483,2.85624,-2.89109,-0.5287,-0.59914,-0.41816,-0.9921,0.57,-0.33954,-0.13302,-0.21301,-0.02768,-0.33987
1231,-1.38859,-1.04921,-0.02214,48.7149,-17.59348,-4.066,-4.34896,-5.2801,0.19624,36.21739,0.83439,-2.02083,0.26068,-0.42721,-0.12447,4.06569,-13.7963,-3.08369,3.84978,-28.42842,-4.18852,29.91479,-40.50567,-8.80231,3.78058,-3.09312,-1.33217,-5.95288,0.29811,-2.05234,2.5567,-2.8574,-0.7273,0.07112,-1.41054,-1.11778,0.55237,-0.36905,-0.1934,-0.20722,-0.15064,-0.39984
1232,-1.12376,-1.2206,-0.2277,46.15266,-19.20834,-3.95731,1.72551,-8.22244,-0.83036,31.78776,-3.17354,-3.35708,0.15985,-0.32798,-0.17181,3.67523,-13.53605,-3.12368,8.25887,-36.64211,-5.46449,1.50246,-43.93684,1.10571,5.46479,-1.47511,-2.03027,-3.41956,-4.24755,-0.50624,3.1684,-2.7181,-0.90909,0.99656,-2.46534,-1.08734,0.55899,-0.35477,-0.27513,-0.00356,-0.29248,-0.26204
1233,-0.31729,-1.73418,-0.34837,41.98277,-20.64049,-3.59921,8.65259,-8.98027,-1.6133,21.81163,-7.57668,-4.4111,0.0946,-0.27564,-0.13008,3.24291,-12.9581,-3.08408,10.36463,-40.20967,-5.66659,-3.56873,-55.64076,6.1135,6.53649,-1.41538,-2.18112,-3.27469,-5.48476,0.09251,3.54836,-2.88122,-0.92811,1.72587,-3.131,-0.82219,0.53511,-0.38938,-0.2853,0.29382,-0.5178,-0.04022
1234,0.61596,-1.1228,-0.26615,37.73741,-19.91503,-3.32266,11.18674,-3.0972,-1.28806,14.44395,-5.95537,-3.98539,0.13026,-0.25688,-0.01545,2.74893,-11.93546,-2.82405,9.21351,-27.33767,-4.12905,10.08643,-62.60221,6.63553,3.45197,-1.68614,-1.1948,-4.90298,-3.20179,-0.29772,2.31128,-2.99954,-0.65268,1.57097,-3.00608,-0.54577,0.33599,-0.44536,-0.16331,0.32994,-0.63124,0.03248
1235,1.23234,0.26876,0.00211,34.96436,-17.89256,-3.21666,9.27992,4.76128,0.37729,16.29711,0.43408,-2.69095,0.27855,-0.3138,0.08011,2.13592,-10.61334,-2.38489,8.56273,-7.27386,-1.26249,23.50696,-57.92801,6.77789,-1.76174,0.45076,0.257,-6.62647,-0.444,-0.81422,0.41046,-2.15686,-0.2374,0.59081,-2.1326,-0.48938,0.0725,-0.3413,-0.0109,0.01776,-0.43175,-0.09204
1236,1.62894,0.38256,0.28798,33.03309,-16.93398,-3.01599,6.71486,5.30872,2.30383,22.80633,4.09369,-2.04144,0.47495,-0.45004,0.10203,1.38885,-9.24526,-1.95905,9.39887,-1.4913,1.10279,23.64587,-47.41288,6.12384,-3.52296,3.41173,0.77611,-7.40165,0.53289,-1.03833,-0.08129,-0.8182,-0.07083,-0.36977,-1.32546,-0.72944,-0.00671,-0.09388,0.01896,-0.33541,-0.10976,-0.2835
1237,2.1664,-0.50272,0.4212,29.59851,-17.14984,-2.49324,6.971,-1.92093,2.78653,22.83512,1.762,-1.83231,0.55241,-0.44014,0.12019,0.56284,-7.95111,-1.69753,7.81707,-15.35221,2.46041,11.44909,-40.57881,4.58918,-0.42022,3.83468,-0.00394,-6.73839,-0.27918,-1.09735,1.02682,-0.38578,-0.21866,-0.5998,-1.38128,-1.0991,0.11617,0.02509,-0.06925,-0.4495,-0.01497,-0.42789
1238,2.48027,-0.71146,0.32145,24.24038,-16.52714,-1.89228,9.13993,-8.99884,1.23304,14.39701,-1.93298,-1.02188,0.40431,-0.18621,0.16183,-0.2877,-6.74102,-1.608,3.06429,-31.35408,3.49431,1.73021,-40.30465,4.98369,3.36591,2.47346,-1.00576,-4.78133,-1.27295,-0.94644,2.19007,-0.89717,-0.36224,-0.04696,-1.92279,-1.11735,0.27077,-0.06645,-0.14927,-0.31273,-0.16469,-0.42519
1239,1.5777,-0.87442,-0.01248,19.44127,-13.97842,-1.79622,8.02144,-10.73269,-1.03185,6.10135,0.27451,-0.31639,0.19166,-0.07221,0.08949,-1.13438,-5.57674,-1.59859,-3.24875,-28.98852,3.82447,7.42704,-44.10466,6.29969,4.16722,1.37183,-1.34692,-3.20561,-1.25533,-0.59994,2.38057,-1.66774,-0.40194,0.81519,-2.29406,-0.68704,0.33687,-0.2557,-0.17154,-0.05566,-0.39529,-0.26635
1240,-0.32881,-1.36659,-0.38726,15.95221,-11.75148,-2.0285,2.59984,-5.89401,-2.02183,2.21012,4.22603,-1.17824,0.12909,-0.32634,-0.12785,-1.93053,-4.43753,-1.65174,-11.10892,-11.98015,1.36683,23.4886,-46.18359,4.00165,3.25675,0.11934,-1.27513,-2.52497,-0.60101,-0.08629,2.15392,-2.52102,-0.46942,1.66107,-2.29658,-0.03425,0.36959,-0.453,-0.18028,0.22294,-0.54695,-0.00988
1241,-2.04265,-0.82513,-0.52373,13.21137,-11.87024,-1.90689,-3.46264,2.42777,-1.36915,2.79394,0.96738,-2.67663,0.16456,-0.57484,-0.3036,-2.55431,-3.27638,-1.69707,-17.07364,-2.15578,-4.09084,34.11934,-40.14786,-2.50422,3.3199,-2.03956,-1.22024,-1.6716,0.2318,0.46421,2.22269,-3.19479,-0.51957,2.22911,-1.71417,0.63224,0.42676,-0.5613,-0.18359,0.41892,-0.43069,0.24413
1242,-2.00053,0.99156,-0.29368,10.75576,-12.90698,-1.30208,-5.10115,8.37693,-0.04259,5.2354,-6.34265,-2.77887,0.21894,-0.46926,-0.25371,-3.05025,-1.98847,-1.58823,-17.18373,-5.57776,-7.89695,29.55715,-27.00111,-7.5131,3.681,-3.62706,-1.01104,-1.11643,1.81238,0.58664,2.01236,-3.01008,-0.38416,2.04268,-0.47981,1.01626,0.34893,-0.45321,-0.12001,0.4287,-0.04859,0.35436
1243,-0.22301,2.33362,0.09078,9.0105,-12.44679,-0.65248,-0.86802,8.67567,0.89957,7.50927,-7.81463,-1.06484,0.27437,-0.17153,-0.03891,-3.50035,-0.58786,-1.25191,-10.70674,-9.33729,-5.84422,14.16207,-15.96353,-5.01854,2.40506,-2.08806,-0.42003,-1.61689,3.68398,0.17036,0.91918,-1.56821,-0.03284,1.05466,0.80093,0.91702,0.02732,-0.09957,0.03053,0.26455,0.30243,0.27576
1244,1.21182,1.60855,0.27782,8.76168,-10.89608,-0.2169,4.17808,3.36441,1.00784,10.1181,-3.49152,1.28869,0.28073,-0.03731,0.11889,-3.80954,0.6175,-0.79314,-1.8772,-9.38788,0.58768,2.60464,-14.61599,3.21375,-0.20357,2.09855,0.29089,-2.01627,3.20655,-0.20473,-0.39778,0.32449,0.27922,-0.02812,0.97239,0.39087,-0.30115,0.25626,0.15099,0.03562,0.32486,0.09744
1245,1.34243,-0.8597,0.2352,8.88494,-10.77304,0.18392,5.51443,-5.1589,0.96869,11.83435,-2.88124,2.8675,0.28359,-0.19806,0.12069,-3.96898,1.30701,-0.48116,3.25378,-15.4238,6.88862,4.27423,-21.54783,8.94786,-2.25657,4.67774,0.58076,-1.23581,-0.67379,-0.03469,-0.97968,1.05356,0.17983,-0.38478,-0.45371,-0.23366,-0.33925,0.25941,0.09508,-0.12025,0.02563,-0.04513
1246,1.13396,-3.08345,0.17204,6.94178,-12.40858,0.65767,4.51631,-11.73218,1.35736,10.36019,-10.60688,3.13322,0.33743,-0.46349,0.04838,-4.16047,1.58978,-0.51547,3.96774,-29.91168,9.04744,12.32093,-28.84599,7.50882,-2.22549,2.50999,0.24095,-0.26178,-4.43377,0.45347,-0.53876,-0.00066,-0.29072,0.02762,-2.15642,-0.51914,-0.08443,-0.07647,-0.08458,-0.1357,-0.29147,-0.0861
1247,1.28076,-3.58417,0.13333,2.43664,-13.2251,0.95535,4.57174,-13.70825,1.31715,5.82228,-20.45507,2.52726,0.35458,-0.54235,0.00842,-4.45637,1.83148,-0.80837,2.72382,-43.88164,6.28049,14.33902,-29.45129,2.61793,-0.1424,-2.25063,-0.36713,0.00502,-4.52086,0.75017,0.52247,-1.70121,-0.61789,0.69555,-2.52171,-0.26967,0.21217,-0.35309,-0.18088,-0.04269,-0.3752,-0.0322
1248,1.50878,-2.69053,0.04559,-2.9669,-11.46252,0.8966,6.12743,-13.81527,0.0885,-1.19227,-24.21149,1.6792,0.26646,-0.36774,0.02829,-4.752,2.16333,-1.13032,-2.27276,-50.19786,2.0503,7.5412,-23.88386,0.95049,2.54335,-4.43051,-0.68398,0.21253,-2.12978,0.68838,1.52566,-2.36803,-0.38855,1.19574,-1.76242,0.24076,0.3544,-0.29197,-0.09848,0.09019,-0.27395,0.0798
1249,1.71957,-1.50298,-0.00792,-7.67869,-8.09743,0.64382,7.5963,-12.96432,-1.14394,-10.01975,-20.82759,0.94658,0.18288,-0.16538,0.07562,-4.94832,2.45177,-1.34313,-11.53354,-46.18143,-0.22889,0.3561,-20.18912,4.41993,3.81032,-2.17883,-0.41102,0.46232,-0.64283,0.42507,1.87873,-1.63752,0.20373,1.11867,-1.1531,0.4561,0.3314,-0.03367,0.06551,0.14377,-0.1786,0.14917
1250,1.79116,-0.81811,0.06986,-10.682,-4.98374,0.39815,7.13397,-8.99862,-0.75764,-17.07945,-14.29583,0.35086,0.22183,-0.16717,0.0919,-4.98888,2.60675,-1.39424,-19.26171,-31.6065,-0.53879,0.13788,-23.33487,8.86598,2.39804,1.28551,0.20644,-0.42197,-1.08572,0.17967,1.34486,-0.74975,0.50245,0.24681,-1.20529,0.07554,0.20465,0.10714,0.15519,-0.0,-0.17735,0.0658
1251,1.08614,-0.77537,0.14215,-11.3526,-3.49495,0.24932,4.05984,-3.36622,0.79042,-18.03794,-10.18472,-0.23405,0.31154,-0.3176,0.03415,-4.85087,2.64385,-1.28609,-20.0075,-15.8203,-0.75473,3.23161,-28.39097,8.93405,-0.69509,1.78336,0.45459,-2.37564,-2.14665,0.14416,0.27779,-1.00632,0.06346,-0.80306,-1.56012,-0.54823,0.05607,-0.01871,0.09193,-0.24683,-0.23364,-0.11366
1252,0.05639,-0.96015,0.07025,-9.99882,-4.09817,0.25196,1.72648,-1.13482,1.5128,-13.27018,-13.15686,-0.59581,0.33914,-0.39407,-0.04733,-4.56948,2.56532,-1.09945,-13.5415,-14.44621,-2.02352,3.60084,-28.16913,3.45081,-3.19184,-1.32831,-0.00848,-2.81644,-2.35233,0.31548,-0.64047,-2.27515,-0.86189,-0.85153,-1.51581,-0.6726,-0.04117,-0.31015,-0.08061,-0.28409,-0.23168,-0.17701
1253,-0.38159,-1.27225,-0.14697,-7.82291,-5.5099,0.3321,2.21278,-4.70127,0.27939,-8.13067,-20.11828,-0.37956,0.2891,-0.34564,-0.08942,-4.23216,2.37356,-0.95217,-7.60714,-28.93978,-3.75645,2.87319,-21.09951,-2.8802,-3.75246,-3.85823,-0.46535,-0.43028,-1.40863,0.4436,-0.82786,-2.9794,-1.40357,0.28115,-0.80747,-0.11335,-0.04394,-0.48229,-0.21131,-0.02568,-0.10598,-0.05247
1254,-0.36372,-1.52809,-0.35698,-5.97273,-5.72265,0.27269,2.39429,-9.03223,-1.77436,-6.74354,-21.75762,0.0802,0.21211,-0.26368,-0.07521,-3.94757,2.14219,-0.91094,-10.29811,-39.479,-4.83655,3.06463,-13.50844,-2.87279,-2.28137,-1.41936,-0.13542,2.06533,-0.52953,0.4613,-0.13224,-2.12743,-0.90322,1.36089,-0.35605,0.51372,0.04558,-0.35923,-0.17366,0.20135,-0.00628,0.10313
1255,-0.22199,-1.58513,-0.3607,-4.98424,-4.17329,-0.01926,-0.14357,-8.98654,-2.59366,-8.48203,-14.20761,-0.06771,0.20871,-0.24693,-0.01969,-3.76698,1.99321,-0.92983,-19.1821,-30.63472,-4.57577,1.84041,-16.512,5.15992,0.64593,4.36569,0.55879,1.58926,-0.78663,0.57009,0.95422,-0.6604,0.27294,1.32207,-0.99992,0.65614,0.15097,-0.08088,-0.01131,0.14185,-0.08927,0.15314
1256,-0.35393,-2.01009,-0.26138,-4.5813,-2.10762,-0.3585,-4.42437,-7.7001,-1.88819,-9.23125,-4.33018,-0.83977,0.29199,-0.37703,-0.01916,-3.60654,1.94955,-0.9065,-24.91204,-14.11511,-2.99981,1.07519,-29.58558,12.94096,3.37219,7.24656,0.71146,-0.98005,-1.43329,0.67915,1.6266,-0.00981,1.09543,0.55787,-2.05319,0.4125,0.20265,0.11161,0.12514,-0.02687,-0.27017,0.12196
1257,-0.55204,-2.40901,-0.21388,-4.25987,-1.38814,-0.49205,-6.25077,-7.5314,-0.83105,-5.73961,-2.45506,-1.36435,0.37741,-0.56379,-0.09887,-3.36022,1.85207,-0.84289,-19.7809,-9.32498,-1.93079,6.66971,-34.20496,9.78714,3.60454,4.01181,0.21619,-2.39576,-0.41467,0.24924,1.36695,-0.38659,0.87607,0.23488,-2.00215,0.20821,0.19221,0.12742,0.14715,-0.02669,-0.29054,0.08059
1258,-0.243,-1.98724,-0.20535,-3.88069,-2.41687,-0.42919,-3.5984,-5.24945,-0.31898,0.64404,-9.30415,-1.34383,0.43324,-0.63828,-0.15372,-3.02641,1.56763,-0.81516,-5.93655,-14.98806,-4.02044,16.10946,-21.56874,-3.18394,1.04058,-1.67054,-0.3294,-1.92838,1.96895,-0.56683,0.39126,-0.94289,-0.0598,0.50513,-0.80861,0.17417,0.11268,0.04908,0.08725,0.07503,-0.08705,0.04055
1259,-0.17625,-1.50039,-0.28452,-4.02041,-3.61439,-0.32884,-1.71444,-2.54297,-0.90818,3.94907,-15.83278,-1.07927,0.4227,-0.56135,-0.14047,-2.68878,1.18163,-0.84514,2.04502,-21.24292,-8.39344,17.8697,-8.92932,-11.74966,-1.80166,-4.01652,-0.41005,-1.32194,2.0406,-0.46809,-0.50545,-0.94739,-0.7247,0.6272,-0.29515,0.22282,-0.03582,0.01984,0.02252,0.06326,0.04251,0.02179
1260,-0.72475,-1.47327,-0.37726,-4.93915,-3.24027,-0.24951,-4.10451,-4.23552,-2.19842,-0.14709,-15.21368,-0.70992,0.32596,-0.39467,-0.08486,-2.38659,0.89097,-0.85604,-5.9008,-25.64503,-10.21491,9.41438,-10.95328,-6.56056,-2.70828,-1.52057,-0.00873,-1.52839,-1.46737,1.07761,-0.7392,-0.40633,-0.6178,0.39563,-1.31869,0.34268,-0.17122,0.09909,-0.00329,-0.0338,-0.11426,0.05863
1261,-1.4301,-1.15083,-0.36076,-5.43939,-1.52026,-0.21301,-9.27487,-7.01121,-2.98448,-7.84866,-8.72579,-0.51614,0.23465,-0.28495,-0.04892,-2.06094,0.74415,-0.75958,-24.54897,-23.74351,-8.11495,5.68134,-19.34838,4.46499,-1.60128,3.04822,0.51249,-2.38168,-4.58471,2.56858,-0.24726,0.08591,-0.03452,0.12089,-2.57907,0.46354,-0.1515,0.1851,0.01537,-0.07256,-0.38494,0.12194
1262,-2.82398,-0.28091,-0.42637,-1.96932,1.17312,0.01396,-15.80563,-5.24642,-3.27559,-8.1975,0.15128,-0.18371,0.16147,-0.30374,-0.1219,0.12948,-0.20073,-0.07055,-36.5714,-9.80932,-5.31257,19.46797,-23.06922,7.25769,-0.1794,6.0953,0.75633,-3.23569,-3.68058,2.32654,0.42659,0.03977,0.3695,0.02244,-2.69197,0.44182,0.01288,0.15948,0.0464,-0.03397,-0.50006,0.14444
1263,-4.56749,0.41263,-0.65105,-2.35948,1.56164,0.03049,-19.02832,-1.32753,-3.44168,-11.71867,3.64617,-0.11594,0.03915,-0.33176,-0.26191,0.05801,-0.14429,-0.07224,-46.41476,1.8097,-3.95668,41.29419,-24.90434,-0.59734,-0.00327,5.14049,0.63956,-3.18826,-0.1668,0.67095,0.69154,-0.62878,0.25916,0.21442,-1.7541,0.28027,0.16271,0.01405,0.06571,0.03488,-0.39852,0.10112
1264,-4.97029,0.2893,-0.73622,-2.99817,2.18565,0.01337,-14.71368,-0.44926,-2.56145,-12.56955,7.15825,-0.0399,-0.05109,-0.32665,-0.33664,0.01841,-0.12814,-0.08144,-38.7276,9.32045,-0.96324,49.13173,-27.96056,-8.42837,-0.3325,0.81549,0.39611,-2.10829,1.98437,-0.62815,0.69067,-1.70557,0.02324,0.55178,-0.74511,0.119,0.22624,-0.16727,0.09411,0.08084,-0.17512,0.02073
1265,-4.1154,0.04779,-0.53588,-3.11838,2.01715,-0.01047,-7.2976,-1.90632,-0.40608,-10.50202,7.3643,-0.49414,-0.0419,-0.32764,-0.31633,0.09299,-0.22068,-0.04883,-20.65081,8.25773,2.07642,34.56049,-26.59681,-7.13234,0.09317,-2.81774,0.07719,-0.91186,0.92609,-0.48953,0.68436,-2.50863,-0.06377,0.65277,-0.48933,0.09398,0.20473,-0.23888,0.10051,0.04663,0.02061,-0.04126
1266,-3.36448,0.99851,-0.2548,-2.23718,0.2383,0.02022,-2.79293,-1.04393,1.47848,-5.73377,0.69572,-1.14064,-0.0192,-0.28364,-0.26601,0.22382,-0.41376,-0.00362,-4.66052,-1.50893,1.56561,13.39652,-22.06355,-0.81071,-0.09185,-2.99326,-0.64318,-0.69308,-0.95721,0.26516,0.29869,-2.56016,-0.67276,0.37358,-0.86753,0.18917,0.05712,-0.17896,-0.06003,-0.04349,0.07232,-0.04425
1267,-3.7708,3.12604,-0.20325,-0.80542,-1.06563,0.0148,-3.73744,3.8321,1.42948,-1.21153,-5.57987,-1.36667,-0.06723,-0.17162,-0.26728,0.31581,-0.55529,0.03017,-1.40509,-7.66496,-2.46604,8.26983,-24.95803,1.36212,-2.3606,-0.75711,-1.46857,-1.96153,-0.32413,0.30259,-0.50436,-2.15979,-1.90874,-0.12842,-1.09792,0.2357,-0.14513,-0.11637,-0.33268,-0.10654,-0.01154,0.00175
1268,-6.02268,5.27859,-0.50619,0.70256,-0.68796,-0.05262,-11.09198,8.8583,-0.91903,1.7891,-5.22669,-0.89898,-0.22481,-0.01011,-0.34887,0.39037,-0.58165,0.06459,-11.20296,-2.64219,-6.77489,21.34224,-32.84309,0.13655,-4.48671,2.41188,-1.21375,-3.95978,2.11261,-0.22389,-0.85822,-1.57716,-2.23105,-0.56187,-0.93307,0.16693,-0.19315,-0.08093,-0.35546,-0.1033,-0.12927,0.05214
1269,-9.30844,6.86468,-0.91969,1.7607,0.035,-0.0607,-20.93095,9.74995,-4.00262,4.30274,-2.10694,0.14488,-0.50035,0.27377,-0.44142,0.46049,-0.53795,0.08411,-22.02997,4.97692,-7.97143,32.8518,-32.71453,2.5445,-3.31592,5.28421,0.31681,-5.12114,2.85779,-0.24057,-0.2544,-1.03227,-0.75905,-0.66448,-0.84562,0.10536,-0.02344,-0.05815,-0.03362,-0.05374,-0.20323,0.07305
1270,-11.27207,8.00101,-1.06902,1.4699,0.45262,-0.016,-25.87014,7.94582,-5.48736,5.71403,-1.18801,0.97927,-0.77305,0.67556,-0.46413,0.40609,-0.39916,0.0417,-24.52097,6.4378,-6.26785,29.24248,-27.08758,6.79048,0.12759,5.35489,1.52205,-4.77404,1.50756,0.26803,0.58361,-1.00235,0.9798,-0.38529,-1.03898,0.13723,0.1604,-0.10303,0.2445,0.0082,-0.23268,0.06664
1271,-10.06701,8.03204,-0.85782,0.20869,1.09968,-0.01698,-22.83163,7.12267,-4.68326,6.57986,-3.10253,1.15417,-0.79488,0.88854,-0.40079,0.21077,-0.15616,-0.03619,-17.47105,2.18988,-5.23305,18.58567,-28.39852,4.92283,2.13852,2.10946,1.17027,-3.58759,0.33894,0.53342,0.7441,-1.44466,1.2098,0.02808,-1.30097,0.22573,0.1616,-0.19028,0.19571,0.03736,-0.2495,0.05555
1272,-6.37772,6.45956,-0.47274,-0.52873,1.58293,-0.0251,-15.95758,8.40839,-2.90924,7.68918,-5.38464,1.0871,-0.4726,0.63627,-0.25951,0.07338,-0.00712,-0.06204,-7.45546,-0.30918,-6.3714,15.48491,-34.09886,-2.05329,1.52518,-0.42172,0.14343,-2.5457,-0.17556,0.54878,0.32306,-1.50273,0.33599,0.21646,-1.45915,0.30666,0.04143,-0.16111,0.02113,0.01058,-0.23972,0.04795
1273,-3.25321,4.2783,-0.15924,-0.09327,1.21819,-0.01016,-12.19693,9.59289,-1.93636,6.9285,-3.64697,0.7454,-0.0395,0.0807,-0.08721,0.14517,-0.13616,0.0059,-5.95703,5.33812,-7.16386,23.41951,-33.30392,-5.31004,-0.25241,0.85098,-0.10126,-2.2003,-0.52437,0.62721,-0.04432,-0.80596,-0.24797,0.08016,-1.32356,0.3172,-0.0405,0.03322,-0.0014,-0.02707,-0.1622,0.03778
1274,-2.51027,2.62929,-0.00654,0.53694,0.54355,-0.02615,-12.34631,6.65468,-2.09788,2.56347,2.3932,-0.22966,0.21991,-0.3873,0.04698,0.31568,-0.38568,0.10605,-14.02128,11.81103,-5.00453,32.65555,-26.10385,-1.3833,-1.77116,3.15892,0.34336,-2.44307,-0.13366,0.52878,-0.10298,-0.3547,-0.30675,-0.16875,-0.80835,0.22753,-0.04186,0.18069,0.06996,-0.02568,-0.04431,0.02619
1275,-3.2577,2.04773,0.02429,0.16995,0.32058,-0.01988,-12.08113,0.5669,-2.18674,-3.14582,5.78203,-1.01042,0.22177,-0.552,0.07956,0.379,-0.46414,0.13695,-20.7564,6.84947,-1.37871,32.72057,-20.34901,4.44966,-2.45315,3.03042,0.36059,-2.53703,1.2256,-0.00435,-0.04821,-1.02697,-0.53476,-0.25636,-0.1765,0.07135,-0.01142,0.08301,0.03433,0.00591,0.02391,0.01621
1276,-4.23199,2.83409,-0.02697,-0.94316,0.0082,0.09515,-11.25359,-0.27287,-1.48523,-6.09649,0.82733,-0.56662,0.05213,-0.43773,-0.03058,0.30762,-0.40674,0.06412,-20.61866,-4.47572,-0.79666,26.81795,-19.01209,5.39729,-2.42091,1.53937,-0.28393,-1.7651,2.5244,-0.70924,-0.03967,-2.24818,-1.12369,-0.00755,0.08,-0.01624,0.02798,-0.19178,-0.11098,0.0415,-0.02783,0.02062
1277,-5.01035,4.6354,-0.12835,-1.70107,-1.01539,0.23997,-13.87131,8.37789,-1.21967,-5.53978,-8.5479,0.51642,-0.12633,-0.16013,-0.20999,0.21304,-0.4229,-0.04483,-20.74539,-6.56456,-5.04155,25.43884,-20.89559,1.56829,-2.04679,0.92253,-0.58572,-1.12034,2.36925,-0.84188,0.03503,-2.83306,-1.30425,0.22547,-0.42341,0.11905,0.09134,-0.39383,-0.15189,0.03457,-0.18354,0.06242
1278,-5.76235,6.25798,-0.25769,-2.00465,-1.67693,0.29041,-20.67628,17.8456,-2.9057,-4.83612,-12.59247,1.05112,-0.22803,0.15169,-0.32945,0.12839,-0.4476,-0.10646,-29.34744,2.40358,-10.09918,28.71821,-26.55074,-0.52761,-1.53245,1.04775,0.05129,-2.40675,0.56914,0.11462,0.2063,-2.24896,-0.56476,-0.1125,-1.31997,0.38271,0.13727,-0.32953,0.00385,-0.04335,-0.30023,0.11671
1279,-6.33458,6.37993,-0.35098,-1.61182,-0.49514,0.20361,-25.34207,17.53487,-5.20726,-3.20974,-6.23045,0.88686,-0.28454,0.33875,-0.3468,0.09031,-0.31262,-0.06662,-35.92318,12.61356,-10.48216,26.19688,-33.98717,2.61591,-0.96015,0.95839,0.88671,-4.86347,-1.55757,1.64896,0.30659,-1.12097,0.38805,-0.70517,-1.73708,0.51371,0.10335,-0.0934,0.14266,-0.10218,-0.25088,0.12502
1280,-5.71346,4.78063,-0.32071,-0.30125,1.8414,0.01008,-21.0871,8.83768,-5.33907,0.71855,4.85437,0.28503,-0.28694,0.28276,-0.26738,0.1379,-0.11123,0.03523,-26.73888,17.53492,-6.4074,14.64082,-34.47863,6.93664,-0.25523,0.43236,1.02264,-5.11128,-2.97896,2.59873,0.30522,-0.63999,0.66752,-0.61933,-1.55067,0.51558,0.03563,0.01862,0.07053,-0.04074,-0.11665,0.09371
1281,-3.35076,2.62792,-0.20852,0.54075,2.79474,-0.18915,-9.73481,0.45065,-3.17456,1.37258,9.67939,-0.63962,-0.16928,0.01921,-0.10221,0.16588,-0.06066,0.04217,-11.92538,13.68211,-2.94438,6.96054,-23.96216,6.68076,0.67668,-0.33638,0.54497,-2.14288,-3.60729,2.37951,0.2928,-1.15371,0.38122,0.17284,-1.47145,0.60239,0.01758,-0.09564,-0.08934,0.07074,-0.08036,0.08398
1282,-1.09347,1.41918,-0.14121,-0.19565,1.39678,-0.29017,-1.0458,-2.551,-1.04825,-3.44958,5.50201,-1.21976,-0.00503,-0.29217,0.02848,0.08439,-0.20874,-0.13345,-8.58795,3.57831,-2.49191,12.63187,-13.58321,1.45609,1.16386,-1.07462,-0.01107,0.29706,-2.8142,1.30942,0.20375,-1.87678,0.0033,0.65057,-1.74526,0.71196,0.02423,-0.24668,-0.12429,0.10425,-0.18047,0.10915
1283,-1.38347,1.438,-0.06981,-0.96137,-0.46665,-0.26417,-2.2542,-2.09263,-0.38008,-5.23412,-0.36692,-0.62921,0.02719,-0.51011,-0.0155,0.03742,-0.41882,-0.31455,-14.03619,-4.45023,-2.56993,21.29904,-15.89582,-3.21424,0.4294,-1.11752,-0.27661,-0.9337,-0.13062,0.07473,0.03116,-2.17458,-0.2812,0.32277,-1.81693,0.57703,0.02088,-0.27772,-0.00915,0.08679,-0.29194,0.12376
1284,-3.29297,1.08833,0.19002,0.13255,-0.67386,-0.10683,-9.76505,-4.29732,-0.34138,1.31491,-2.35435,0.61002,-0.06045,-0.63484,-0.14191,0.19764,-0.49749,-0.21255,-15.35491,-9.63177,-0.50534,20.28052,-24.57599,-1.84365,-0.88849,0.8104,0.02098,-3.89055,2.79393,-0.71353,0.0026,-1.94249,-0.29571,-0.28942,-1.3431,0.21324,0.04526,-0.18636,0.15163,0.07869,-0.29173,0.09516
1285,-3.86487,-1.18957,0.65666,2.01992,0.53667,0.12461,-14.93433,-11.51631,0.21488,8.97148,-1.55507,1.07901,-0.08228,-0.77545,-0.12862,0.44065,-0.37886,0.14587,-10.59408,-16.68607,2.8664,14.64076,-24.36637,3.98707,-1.56664,3.96462,0.56781,-5.03547,3.40772,-0.7794,0.20241,-1.40729,-0.14748,-0.7445,-0.85166,-0.03352,0.10404,-0.05312,0.2074,-0.00772,-0.2059,0.04775
1286,-2.23609,-3.89926,1.01816,-2.12911,-3.87129,-0.84122,-13.48175,-16.71397,1.03203,4.07922,-10.51139,-0.75404,0.03117,-0.94294,0.07044,-4.01898,0.87595,-0.80914,-15.16092,-32.30455,2.01704,15.92448,-15.28867,7.01005,-1.21403,4.59648,0.60772,-4.0812,1.43295,-0.29744,0.42492,-1.10988,-0.1678,-1.02909,-1.00047,0.02927,0.1476,0.01336,0.11283,-0.20247,-0.16266,0.02104
1287,0.30133,-4.0717,0.87836,-5.44759,-5.70559,-1.34754,-6.11162,-12.86899,1.44241,-3.91815,-12.76952,-1.86097,0.19037,-0.98588,0.31457,-6.72482,2.11807,-1.32265,-18.60129,-29.85768,-0.22816,22.71407,-8.27219,3.67167,-0.10721,1.26121,0.18471,-3.36333,-1.16465,0.46475,0.47396,-1.20653,-0.14548,-1.18261,-1.503,0.16017,0.13827,0.01054,0.0405,-0.34776,-0.17833,0.00445
1288,2.21734,-2.4451,0.4371,-8.73768,-7.92039,-1.94069,2.79602,-6.12716,1.76172,-10.51762,-16.41877,-2.39477,0.29291,-0.87247,0.46499,-9.94352,3.66892,-1.96062,-19.46794,-26.81222,-2.64755,22.62036,-6.34059,-1.74741,0.79186,-2.47512,0.0143,-3.87422,-2.21992,1.1611,0.33235,-1.52352,0.16077,-1.11205,-1.22954,0.0334,0.08089,-0.04061,0.08779,-0.29877,-0.08203,-0.03626
1289,2.73006,-2.30005,0.32704,-10.81185,-9.32402,-2.47669,7.45575,-6.29447,2.42004,-10.98425,-21.50737,-2.54219,0.29729,-0.7944,0.48926,-13.50933,5.72409,-2.45858,-15.33534,-34.0228,-3.25323,9.08027,-4.96023,-2.86369,-0.05221,-2.39012,0.1447,-4.38177,-0.98988,1.23611,0.01329,-1.80811,0.14982,-0.80339,-0.00106,-0.2501,-0.01485,-0.13775,0.07136,-0.10479,0.15281,-0.07436
1290,1.94977,-3.53851,0.58566,-12.85812,-9.57489,-3.00844,5.23557,-10.16016,2.56588,-9.08962,-25.54037,-2.78825,0.21635,-0.82984,0.41094,-17.56308,8.34535,-2.88866,-14.9549,-42.65956,-4.25338,-5.26717,-2.60233,1.5631,-1.90149,1.3701,0.26565,-3.67075,0.89297,0.61157,-0.31122,-1.72883,-0.32237,-0.43106,0.74371,-0.2819,-0.107,-0.19974,-0.06991,0.05068,0.26524,-0.04935
1291,0.55226,-3.23653,0.63789,-15.69043,-9.41813,-3.66092,-1.33983,-8.94194,1.30595,-9.48173,-27.63793,-3.59071,0.10969,-0.81022,0.25201,-22.18412,11.3598,-3.39146,-25.39178,-41.62997,-7.89179,1.75873,-5.41123,6.34646,-1.39682,3.7473,0.52274,-2.31778,1.1402,0.1305,-0.21955,-1.62802,-0.20328,-0.11086,0.00848,0.07002,-0.08721,-0.21223,-0.10965,0.08408,0.10414,0.03558
1292,-0.37138,-1.13011,0.2743,-18.25856,-9.04815,-4.38362,-6.01664,-4.35182,-0.30136,-10.70766,-28.64262,-5.0655,0.06616,-0.64018,0.09436,-27.08734,14.58537,-3.85453,-38.50465,-36.20925,-11.60573,29.99237,-18.91634,6.07076,1.70848,0.99679,0.5561,-2.00464,-0.53765,0.56111,0.25635,-1.79723,0.49355,0.06735,-1.58532,0.54753,0.03627,-0.19145,-0.02055,0.04914,-0.20113,0.13034
1293,0.10823,-0.41586,0.0133,-20.18177,-7.65667,-4.95672,-3.96646,-6.13454,-0.07305,-10.5192,-27.80713,-6.52401,0.12517,-0.4833,0.07737,-31.90138,18.02424,-4.10739,-42.00971,-37.81264,-10.4134,48.85962,-31.38096,1.26815,3.06063,-3.95309,-0.30306,-3.15312,-2.18435,1.36329,0.5346,-1.8787,0.2804,-0.11196,-2.7298,0.75933,0.12292,-0.13968,-0.02147,-0.03012,-0.43875,0.17915
1294,1.69683,-2.41473,0.20297,-22.625,-5.31689,-5.24033,2.75867,-15.2175,2.03067,-11.08162,-25.3437,-6.93875,0.22034,-0.46456,0.2106,-36.5149,21.76899,-4.174,-38.09166,-46.96061,-4.81595,36.83937,-23.85414,-3.58492,0.95049,-5.9211,-1.24217,-3.90808,-2.02673,1.38121,0.45107,-1.86135,-0.74836,-0.46036,-2.7027,0.5708,0.13897,-0.14744,-0.08755,-0.126,-0.47418,0.14295
1295,2.95034,-4.09284,0.39777,-26.36717,-2.94545,-5.32773,7.65532,-19.77452,3.33854,-14.94459,-22.89596,-6.29379,0.24966,-0.45111,0.30908,-41.00868,25.71217,-4.18753,-38.76823,-50.87296,-1.82578,10.56105,-3.30723,-5.62434,-1.21368,-4.45866,-1.187,-3.33574,-0.90899,0.70249,0.29849,-1.97007,-1.103,-0.6136,-2.04758,0.22566,0.12983,-0.25622,-0.07318,-0.17691,-0.33249,0.04139
1296,2.89617,-3.14942,0.23421,-30.78436,-0.31458,-5.37176,7.41366,-13.36434,2.48884,-20.48847,-19.25278,-5.61772,0.19746,-0.35731,0.27187,-45.39777,29.49326,-4.17555,-48.5326,-40.1531,-5.01989,-1.69258,3.57058,-4.1867,-0.78025,-2.27679,-0.38024,-2.90345,-0.73337,0.3675,0.21506,-2.09255,-0.4627,-0.64115,-1.69552,-0.03953,0.09186,-0.33561,-0.0172,-0.17218,-0.16915,-0.05645
1297,2.26254,-1.39689,0.0335,-34.45564,3.45166,-5.33529,4.98909,-4.64485,1.28754,-24.22262,-12.24698,-5.36546,0.15219,-0.30929,0.22992,-49.55082,32.7839,-4.02331,-60.49099,-22.21823,-9.05825,4.14881,-7.35754,-0.57117,0.63657,-0.31442,0.45603,-3.47412,-1.30856,0.56921,0.15008,-2.08911,0.32032,-0.6939,-1.75425,-0.17539,0.02519,-0.27661,0.02396,-0.13904,-0.12548,-0.08552
1298,1.86278,-1.19531,0.18766,-36.43905,7.53075,-5.09745,3.82793,-3.55281,1.62499,-24.48748,-5.17661,-5.00514,0.16801,-0.34299,0.266,-53.34145,35.47938,-3.65162,-66.53735,-12.65403,-7.91267,13.50064,-14.61199,1.54931,0.47581,1.28866,0.80817,-3.85595,-0.86494,0.54174,0.07834,-2.0819,0.48461,-0.58513,-1.7515,-0.11667,-0.02217,-0.1799,0.04434,-0.09225,-0.19492,-0.03391
1299,1.47676,-1.93036,0.53945,-36.95665,10.11103,-4.70504,3.81397,-8.15667,3.08916,-21.20407,-3.91896,-4.37829,0.22064,-0.30879,0.2925,-56.79009,37.66609,-3.1146,-64.69631,-16.20807,-3.50616,15.48836,-9.64904,1.21013,-0.5806,1.61264,0.71137,-2.84568,0.99202,-0.08629,0.07567,-2.09487,0.25373,-0.15977,-1.45159,0.15573,-0.01287,-0.17119,0.04751,-0.03447,-0.25011,0.0458
1300,1.46421,-1.32123,0.50345,-37.4722,11.36203,-4.34084,5.04965,-9.37666,4.06715,-16.93299,-6.78962,-4.20486,0.30125,-0.13713,0.28782,-60.02729,39.42072,-2.55061,-58.64421,-20.40662,-1.73149,13.19515,-5.38811,1.19645,-0.19572,0.64587,0.64812,-1.13972,2.48433,-0.67605,0.18277,-1.93863,0.36774,0.3001,-0.97257,0.40719,0.03271,-0.21571,0.07234,0.03127,-0.19064,0.08785
1301,3.00184,0.96093,-0.14454,-39.51377,13.10685,-4.06982,9.78683,-3.75932,3.71931,-16.32724,-6.18256,-4.71309,0.4408,0.01989,0.39439,-63.07885,40.6634,-2.07276,-52.26914,-13.27957,-4.03651,18.39314,-7.74953,1.57922,1.49369,-1.17786,0.68726,-0.87181,1.54318,-0.23096,0.30459,-1.7614,0.79896,0.30413,-0.68508,0.35594,0.07116,-0.25021,0.13006,0.07104,-0.05238,0.07566
1302,6.06158,2.4222,-0.82969,-43.3753,15.81071,-3.70637,17.89759,1.80937,2.54284,-21.84153,0.21351,-4.58725,0.64847,-0.04547,0.70478,-65.73504,41.35511,-1.67008,-49.20716,-1.31993,-6.23582,31.18939,-8.76649,-0.1247,1.97521,-3.9388,0.39843,-2.93061,-1.60461,1.2752,0.32258,-1.90687,0.77122,-0.24531,-0.92135,0.03042,0.07881,-0.2773,0.15322,0.03966,0.0365,0.04495
1303,8.97486,1.09705,-0.89958,-48.24699,18.02806,-3.05927,24.47548,-1.20408,1.72793,-31.65878,8.19716,-2.49194,0.86766,-0.35129,1.07796,-67.81562,41.70555,-1.24425,-55.11608,1.44242,-3.5779,36.15015,-6.08136,-3.16621,0.05218,-6.02541,-0.26858,-5.19633,-4.03037,2.40694,0.2243,-2.19071,-0.00765,-0.85243,-1.42523,-0.26806,0.05983,-0.28565,0.08475,-0.05362,-0.00534,0.0274
1304,10.18725,-1.66228,-0.47485,-53.77047,18.66294,-2.30589,24.68152,-9.94011,1.74648,-44.32382,14.82193,0.2412,0.97847,-0.69737,1.23219,-69.58028,41.92827,-0.78128,-74.45958,-2.34041,2.30642,27.00797,-6.29073,-4.40042,-2.34603,-4.78444,-0.7273,-5.33087,-3.60058,1.94664,0.13222,-2.24105,-0.86292,-1.06164,-1.73654,-0.36396,0.04277,-0.25962,-0.02152,-0.16137,-0.16053,0.00621
1305,9.41005,-3.25008,-0.11855,-59.74133,18.05063,-1.88743,18.69958,-12.45545,1.82064,-59.38184,20.7089,0.34588,0.86577,-0.93279,1.00981,-71.48763,41.83505,-0.37146,-102.86085,3.99148,3.8771,14.89515,-10.97898,-3.4807,-2.59297,-1.35648,-0.60144,-3.74857,-1.58934,0.52924,0.18041,-2.17341,-1.01399,-0.8879,-1.92051,-0.30761,0.0522,-0.22242,-0.05285,-0.23155,-0.34139,-0.03406
1306,9.61257,-1.4844,-0.21483,-64.5649,16.41609,-1.93651,14.60187,-2.92198,0.87197,-71.81297,23.97644,-2.72374,0.88177,1.81326,0.35965,-73.52653,40.9986,-0.04684,-120.92555,23.43706,-2.24025,7.96251,-14.2635,-3.02674,-0.74016,-0.12031,-0.20175,-2.53518,0.14934,-0.5501,0.34735,-2.27335,-0.47544,-0.65648,-1.99668,-0.26669,0.08032,-0.20245,0.01106,-0.24218,-0.38386,-0.08103
1307,7.92426,0.31896,-0.53824,-67.6531,14.02317,-1.97319,9.23923,5.36406,-0.73745,-77.70702,21.49618,-5.06499,0.69568,3.31577,-0.30134,-75.35876,39.52053,0.23722,-131.1955,32.82943,-9.23588,5.10218,-13.5885,-3.94454,0.89945,-1.96858,0.08906,-2.46965,1.87911,-0.94386,0.50246,-2.54229,0.10232,-0.47649,-1.38996,-0.29366,0.10388,-0.21387,0.07004,-0.18002,-0.13877,-0.11188
1308,6.55996,3.07105,-1.16891,-70.35014,11.97904,-1.50068,6.85912,7.54687,-2.5283,-79.41263,16.5487,-3.40881,0.61813,5.54341,-0.85534,-76.85337,37.96734,0.53533,-133.04938,28.26277,-10.47014,6.45441,-13.05711,-3.45744,1.14283,-3.21307,0.2367,-2.38284,3.16986,-0.70343,0.56179,-2.77972,0.28819,-0.10106,-0.2432,-0.17232,0.11145,-0.25265,0.04759,-0.02409,0.22703,-0.08196
1309,5.97356,5.26302,-1.44258,-73.72587,10.61899,-0.73973,6.56192,4.34191,-2.35342,-81.34717,15.55476,0.31001,0.733,8.18654,-1.26073,-78.06018,36.47554,0.83615,-131.79431,20.47714,-4.86402,12.63514,-14.01496,0.1503,0.89884,-2.15274,0.26484,-1.61323,1.7684,0.23797,0.52349,-2.87638,0.17841,0.41697,0.0148,0.16357,0.10439,-0.30862,-0.01724,0.15083,0.26654,0.02567
1310,6.42971,6.17299,-1.18946,-78.04516,9.03268,-0.26114,8.16012,0.93088,-0.01651,-87.1327,19.9193,2.13612,1.00079,10.7815,-1.60909,-79.12231,34.83607,1.02999,-132.06288,20.25523,2.59651,19.90758,-12.72606,4.12488,0.93169,-1.04123,0.19813,-1.03715,-2.06499,1.46156,0.43913,-2.82848,0.08751,0.66139,-1.19923,0.44483,0.09159,-0.35662,-0.02702,0.20245,-0.13526,0.13636
1311,7.62205,7.03418,-1.12431,-82.05756,5.94615,-0.29035,12.03344,2.36841,1.21043,-95.7504,23.02369,1.16384,1.20393,13.33262,-2.05706,-80.18076,33.10416,1.0593,-134.76421,26.38889,4.56173,24.90352,-11.52138,5.16337,0.84612,-1.30262,0.20493,-1.75346,-4.39112,1.95295,0.4234,-2.73898,0.16941,0.3396,-2.42966,0.31418,0.09461,-0.36128,0.04034,0.06585,-0.49557,0.11265
1312,9.35939,8.31361,-1.55868,-84.79375,1.87158,-0.51229,18.33951,6.36513,-0.12748,-105.18666,20.73089,-0.48338,1.29545,16.10139,-2.63008,-81.24281,31.60764,1.00807,-137.3495,29.84948,0.72655,25.18418,-16.06364,3.71706,0.69524,-1.98776,0.32321,-3.39877,-2.58043,1.16771,0.59865,-2.92056,0.30786,-0.31035,-2.28228,-0.18803,0.14049,-0.35104,0.09312,-0.14717,-0.38352,-0.04731
1313,10.79222,9.27058,-1.98448,-86.75217,-1.69975,-0.52321,23.49209,6.05218,-1.40224,-115.03107,16.99999,-0.83246,1.45085,19.17949,-3.28811,-82.19849,30.55085,1.01115,-140.51151,25.76248,-1.34613,15.92815,-22.24481,2.95263,1.70821,-2.26483,0.48191,-4.31491,1.1466,-0.21133,0.90475,-3.45297,0.49476,-0.66518,-1.40224,-0.56936,0.22198,-0.39314,0.08329,-0.24264,-0.04837,-0.17295
1314,10.52435,10.1056,-2.12639,-88.30521,-4.2478,-0.2888,22.76421,2.04904,-1.12246,-122.2116,17.25283,0.62027,1.76137,22.44589,-4.06313,-82.95725,29.9086,1.13647,-144.07468,21.53291,2.09606,2.07484,-22.61169,3.06137,3.81315,-2.21041,0.71909,-4.03932,2.99954,-1.07484,1.06193,-3.76379,0.83471,-0.49643,-1.18141,-0.61127,0.2763,-0.45328,0.07421,-0.16226,0.0218,-0.16011
1315,9.26759,11.91093,-2.41473,-89.57995,-6.00573,-0.0892,18.59808,2.62087,-1.3501,-123.72359,22.01373,2.96829,2.21119,25.71618,-4.93964,-83.58035,29.588,1.29291,-142.53145,28.92709,5.90499,1.58559,-17.52578,-0.03161,4.49955,-2.25817,0.8951,-3.84641,2.2637,-1.06468,0.96676,-3.57471,1.0332,-0.23297,-1.71877,-0.60304,0.26673,-0.4621,0.10244,-0.03713,-0.17812,-0.07619
1316,9.00049,14.41443,-3.0002,-90.8424,-7.59244,-0.32695,16.10654,9.45777,-2.62376,-122.13193,26.61057,3.66663,2.74333,28.79926,-5.81213,-84.19961,29.45737,1.27023,-136.98532,44.49814,4.93198,13.45685,-11.47239,-5.77722,2.64642,-2.76775,0.79274,-4.34665,0.93792,-0.72064,0.87319,-3.41282,0.79965,-0.27428,-2.21965,-0.73683,0.2365,-0.42831,0.14463,-0.02452,-0.32708,-0.04681
1317,9.68506,16.51519,-3.49451,-91.65434,-10.35422,-1.2499,14.24904,15.14698,-2.4659,-121.80975,24.12449,0.52905,3.29137,31.59961,-6.63003,-84.74605,29.3713,0.98639,-137.07381,49.51124,0.16557,12.74538,-10.01616,-6.67536,0.55684,-3.947,0.35313,-4.53499,0.41702,-0.5053,0.96863,-3.65345,0.25699,-0.43883,-2.22143,-0.78122,0.22898,-0.39439,0.11622,-0.09878,-0.29678,-0.07185
1318,9.6032,17.97295,-3.72698,-91.36017,-14.33789,-2.44744,9.69829,14.42586,-0.39397,-122.60006,13.1899,-4.36893,3.86123,34.18889,-7.414,-84.95213,29.38478,0.64605,-143.38805,35.13316,-4.11337,-3.78941,-17.10595,-0.22773,0.32729,-5.13267,-0.22166,-4.08379,0.41364,-0.35253,1.13934,-4.05306,-0.29437,-0.47302,-1.83007,-0.66492,0.24234,-0.39346,-0.04826,-0.1397,-0.2026,-0.08514
1319,8.03172,19.17123,-3.95981,-89.97861,-17.25349,-3.16355,3.18814,10.58732,0.60226,-120.9173,1.34582,-6.28531,4.46742,36.66945,-8.17744,-84.69976,29.61962,0.47966,-145.49843,15.75774,-5.71153,-12.14176,-28.05019,6.4606,1.10572,-4.68479,-0.50793,-3.99433,0.91628,-0.30556,1.22632,-4.28941,-0.60506,-0.42783,-1.31998,-0.64675,0.25883,-0.42775,-0.24727,-0.12407,-0.13143,-0.10525
1320,6.43918,20.33261,-4.43045,-86.95489,-17.90135,-3.43757,-1.1618,9.72737,-1.13799,-114.21571,-4.72341,-4.3505,5.02145,38.99723,-8.89014,-84.09886,29.8749,0.43086,-137.14374,8.07662,-6.16582,-5.61445,-34.12854,7.29396,1.3891,-2.54055,-0.28922,-4.22008,2.29564,-0.5427,1.23608,-4.33485,-0.5177,-0.24256,-1.0375,-0.64898,0.26714,-0.46756,-0.28768,-0.07631,-0.08684,-0.143
1321,7.12689,21.7874,-5.19505,-82.25319,-17.5975,-3.9362,0.68564,13.87882,-4.09827,-105.07965,-7.28234,-2.55663,5.42114,41.01674,-9.46422,-83.24138,29.90262,0.25897,-122.14505,10.27517,-8.93857,0.63812,-31.76918,3.84155,1.54361,-0.77547,0.34231,-3.78877,3.55712,-0.88589,1.16137,-4.1415,0.07887,0.12095,-1.25051,-0.449,0.24505,-0.47074,-0.08067,-0.0283,-0.07964,-0.1667
1322,9.4077,22.93219,-5.89655,-77.0807,-17.95097,-4.94687,5.77105,18.24064,-5.79957,-96.19823,-11.59117,-3.82609,5.60264,42.50742,-9.88071,-81.94054,29.7604,-0.11458,-106.58531,8.65455,-14.05729,-0.29187,-22.70613,1.49011,2.2655,-0.71505,1.06562,-3.01754,3.38476,-0.92974,0.91117,-3.61653,0.93867,0.3566,-1.67274,-0.21154,0.17178,-0.42305,0.2434,-0.02064,-0.08125,-0.15762
1323,10.1585,22.68382,-6.08797,-72.21788,-19.67167,-6.24568,6.60426,17.46092,-5.256,-87.16426,-18.02333,-6.94348,5.56492,43.36987,-10.25137,-79.86231,29.53608,-0.56097,-93.35702,-1.57901,-17.02719,-3.47598,-15.05495,3.53819,2.94263,-1.8483,1.46353,-2.87013,2.43355,-0.59981,0.6275,-3.12011,1.48941,0.29365,-1.68568,-0.09986,0.09251,-0.37801,0.44501,-0.0314,-0.02811,-0.09175
1324,8.70566,21.8322,-6.01346,-67.72379,-22.42694,-7.45952,3.05309,13.38505,-3.93915,-80.05148,-24.02935,-9.51515,5.41774,43.88754,-10.64842,-76.98184,29.21701,-0.94989,-83.32972,-12.50615,-16.00664,-3.95495,-17.68496,6.07351,3.00596,-3.30256,1.15887,-3.26739,2.60203,-0.50921,0.63837,-3.00513,1.25929,0.09738,-1.13666,-0.13458,0.08528,-0.36743,0.37169,-0.01764,0.05663,-0.01297
1325,6.90371,21.5308,-6.04939,-62.65164,-24.26872,-8.33765,0.32307,10.52304,-3.2907,-74.48941,-28.12924,-10.97995,5.30478,44.33353,-10.98178,-73.61269,28.83649,-1.17683,-73.42155,-18.29489,-14.83352,1.09444,-25.0348,1.02616,3.00901,-4.58614,0.05497,-3.72244,4.29997,-1.28229,1.02886,-3.05807,0.21102,-0.12487,-0.65547,-0.44469,0.16766,-0.35627,0.06471,-0.01156,0.03949,-0.03264
1326,5.82837,22.19977,-6.25001,-56.01743,-24.07457,-9.0025,0.20959,12.5108,-3.50909,-63.94332,-32.09589,-12.58615,5.27197,44.58459,-11.13918,-70.09136,28.35381,-1.25048,-56.76841,-19.94391,-19.02932,8.7343,-22.98141,-10.18023,3.18502,-4.79035,-1.21025,-3.75375,5.39381,-2.24138,1.41782,-2.80134,-1.00366,-0.27678,-0.92205,-0.80232,0.24953,-0.30625,-0.24652,-0.05091,-0.13006,-0.12035
1327,5.01715,24.12458,-6.73205,-48.80172,-23.03965,-9.60123,1.22183,19.65568,-4.9622,-47.52244,-36.58075,-14.17614,5.21015,44.53896,-11.18734,-66.66797,27.71323,-1.30851,-33.70611,-17.6392,-27.45818,10.07411,-13.38887,-15.25816,2.8048,-3.39012,-1.61538,-2.66825,3.88118,-2.00576,1.33065,-2.13745,-1.4311,-0.18287,-1.54717,-0.61174,0.23009,-0.2377,-0.32468,-0.09477,-0.26491,-0.1268
1328,3.74609,25.89285,-7.33913,-42.4753,-22.17727,-9.93183,1.14231,24.8762,-7.26398,-33.59832,-37.88276,-13.76204,4.98132,44.35712,-11.27435,-63.47405,27.07862,-1.35333,-16.6758,-12.12297,-31.59109,3.75972,-12.42111,-8.44041,1.91394,-1.66616,-0.74069,-0.61601,0.71473,-0.51941,0.82837,-1.66879,-0.65728,0.16545,-1.70177,0.18649,0.1333,-0.22374,-0.11179,-0.08072,-0.22972,-0.00945
1329,2.10269,25.9171,-7.59701,-37.47533,-21.62518,-9.89668,-1.74659,23.20293,-8.40315,-28.49306,-35.60182,-11.83794,4.63457,44.22891,-11.3974,-60.56575,26.63899,-1.25966,-16.80764,-8.59811,-27.99393,-2.67493,-22.48327,2.41982,1.59178,-0.97333,0.77713,0.55635,-1.3322,0.68613,0.35921,-1.78318,0.7367,0.38637,-1.36337,0.70054,0.03515,-0.23796,0.22007,-0.03935,-0.15018,0.08141
1330,0.69697,24.84723,-7.32162,-33.44292,-21.20895,-9.70467,-6.61602,17.88586,-6.96957,-26.90054,-34.59328,-10.85803,4.36135,44.28491,-11.43475,-58.04193,26.44286,-0.962,-25.03996,-12.93729,-21.66215,-6.37546,-28.99306,8.70237,2.37475,-0.9262,1.82184,-0.49,-0.73281,0.55498,0.18871,-2.06625,1.65505,0.15462,-0.89002,0.31045,-0.01095,-0.18771,0.37564,-0.0429,-0.11209,0.02589
1331,0.21774,23.94732,-6.80414,-29.94929,-20.18792,-9.40974,-8.52139,13.12828,-4.25251,-19.08078,-37.6615,-11.33728,4.26066,44.52303,-11.30834,-55.9928,26.45403,-0.47168,-17.81769,-25.80849,-18.21305,-10.05717,-24.8847,9.26423,3.66269,-0.70539,1.8392,-2.45336,1.42031,-0.29264,0.27506,-2.02031,1.54454,-0.22519,-0.45846,-0.37484,0.03832,-0.10602,0.22952,-0.06939,-0.03972,-0.07745
1332,0.2008,24.02921,-6.52826,-27.47382,-18.02267,-8.86243,-6.41561,11.69767,-2.80138,-6.50672,-41.46584,-12.10921,4.20799,44.71484,-11.11128,-54.41019,26.49698,0.13097,5.5487,-37.43742,-19.44741,-14.71024,-15.80892,6.22476,4.55115,-0.19658,1.30167,-3.30621,2.79541,-0.81112,0.3323,-1.5135,0.9072,-0.28539,-0.3459,-0.61034,0.131,-0.04725,-0.03834,-0.0556,0.04491,-0.10579
1333,-0.55722,25.1109,-6.6556,-26.59614,-15.23037,-8.05083,-5.72861,14.41873,-3.3682,0.21665,-40.97393,-12.46112,4.03028,44.6382,-11.00312,-53.29778,26.43382,0.77936,18.59508,-36.88269,-22.9016,-19.47922,-6.90712,3.0854,4.63754,0.5206,1.0675,-2.9095,2.42023,-0.84521,0.10112,-0.8401,0.6112,-0.09968,-0.77533,-0.51246,0.12869,0.02436,-0.16408,-0.03437,0.01059,-0.1046
1334,-1.6436,26.22037,-6.94202,-27.1839,-12.50418,-7.02699,-7.83253,19.1053,-4.97983,-3.49913,-34.78917,-11.80233,3.75812,44.37339,-10.96843,-52.8098,26.41238,1.5006,8.99865,-23.26494,-24.32552,-22.01759,-3.19396,4.59446,3.93041,1.19431,1.29512,-2.23736,1.24665,-0.73789,-0.2451,-0.55848,0.81569,0.02874,-1.47922,-0.40786,0.00425,0.09202,-0.0735,-0.06143,-0.13491,-0.13965
1335,-2.04065,26.07149,-7.01526,-28.94989,-9.47265,-5.65292,-10.11852,21.68925,-6.38917,-12.37064,-24.01279,-8.96475,3.53629,44.15033,-10.88253,-53.10464,26.65384,2.34923,-10.11628,-3.06164,-20.37328,-16.3013,-12.2802,10.67199,2.08046,1.28536,1.15802,-1.24982,0.16587,-0.44738,-0.16758,-0.86502,0.78616,0.20995,-1.97581,-0.09599,-0.0865,0.05642,0.06897,-0.07713,-0.24533,-0.12885
1336,-1.83973,24.68061,-6.74687,-31.7756,-5.42513,-3.8686,-11.95183,20.0512,-6.58776,-19.76077,-11.93793,-4.31286,3.43741,44.13245,-10.72238,-54.16482,27.19157,3.29151,-23.71148,13.9691,-12.13615,-2.79229,-28.68088,14.18295,-0.44662,0.26001,0.23604,0.26664,-0.77112,0.11214,0.43043,-1.38948,0.16793,0.57183,-2.00079,0.49344,-0.03444,-0.11688,0.11916,-0.01065,-0.25237,-0.00354
1337,-1.56182,23.77446,-6.4096,-35.08231,-0.45094,-1.98027,-12.75878,16.89602,-5.53786,-21.72111,-4.01143,-0.4476,3.43012,44.3452,-10.56171,-55.82017,27.94525,4.20649,-23.67645,18.90534,-5.91438,2.31339,-29.88881,9.29948,-1.08474,-2.0907,-0.64586,1.27271,-0.97734,0.46606,0.83489,-1.5372,-0.3713,0.72187,-1.34074,0.81758,0.05644,-0.29203,0.10601,0.07512,-0.14654,0.13442
1338,-1.20917,24.26024,-6.26893,-39.01934,4.60997,-0.35854,-10.6866,15.17252,-4.19354,-20.6492,-2.42843,0.75429,3.42989,44.57381,-10.41558,-57.85271,28.7859,4.95617,-12.948,11.60501,-5.82878,-10.29162,-7.07258,-1.23947,1.57095,-4.86438,-0.71488,0.85794,0.27312,0.21989,0.53624,-0.99556,-0.32939,0.41435,-0.24233,0.59841,0.06044,-0.26131,0.05714,0.08489,0.03577,0.1611
1339,-0.94389,25.09087,-6.24057,-45.21666,9.38015,0.99945,-7.91241,14.73716,-3.35453,-26.05201,-1.75903,0.18241,3.36556,44.50296,-10.23923,-60.0073,29.49671,5.48153,-11.13894,5.22396,-8.61321,-23.36086,17.28159,-9.0809,4.94054,-6.057,-0.10472,-0.73287,2.50844,-0.33846,-0.05204,-0.16123,0.06081,0.03008,0.44516,0.1919,0.02478,-0.01716,-0.04318,0.03793,0.16992,0.08771
1340,-1.08202,25.48903,-6.21218,-53.80965,14.22889,2.33975,-8.9189,15.69515,-3.43835,-42.43556,6.3314,0.48623,3.28585,44.15311,-10.03259,-62.06184,29.96537,5.86205,-32.89343,16.9001,-8.07904,-19.27668,16.4453,-7.50992,5.68566,-4.18473,0.62212,-2.39258,4.36337,-0.75735,-0.18831,0.13603,0.40635,-0.05081,0.32744,-0.04023,0.07451,0.187,-0.12996,0.01143,0.17669,0.00536
1341,-1.2276,25.81071,-6.27446,-62.32709,18.98163,3.72498,-12.24241,18.04428,-4.60841,-63.55633,22.66404,3.3637,3.29952,43.92587,-9.85099,-63.98595,30.40452,6.21982,-68.06126,46.58723,-1.84756,-6.38489,-8.8291,2.75994,3.4675,0.30989,0.96868,-3.19529,4.56668,-1.04048,0.19865,-0.2025,0.4434,-0.06041,-0.23742,-0.26633,0.1659,0.19105,-0.12347,-0.01514,0.07656,-0.07822
1342,-1.13761,26.0305,-6.39414,-68.28519,22.21771,4.81209,-13.40611,19.64448,-6.03369,-79.49367,35.3276,6.82749,3.33648,44.00564,-9.7514,-65.7589,30.93628,6.54078,-94.71371,69.1269,4.77083,0.18028,-32.65705,11.94058,0.79091,4.25675,0.83471,-3.28092,2.9934,-1.29205,0.53484,-0.69649,0.20281,-0.37067,-0.79379,-0.76028,0.15026,0.05097,-0.04857,-0.10205,-0.06352,-0.19885
1343,-1.19418,25.48365,-6.34586,-70.61287,23.16468,5.25374,-12.28619,18.71305,-6.32449,-82.61452,33.74838,7.63614,3.19278,44.09078,-9.7293,-67.15134,31.26368,6.70616,-98.35822,63.40876,4.8465,0.15102,-35.37987,10.38093,0.09907,3.89421,0.34417,-2.83839,0.50639,-1.04923,0.66006,-1.22086,-0.13997,-0.60832,-1.34129,-1.02332,0.07406,-0.13875,-0.00648,-0.17271,-0.19351,-0.24789
1344,-0.94913,24.37146,-6.16867,-70.92574,23.83378,5.38506,-10.11855,17.20321,-5.64566,-76.68623,26.45957,6.54225,2.84226,43.93381,-9.71312,-67.99525,31.24316,6.68803,-83.99636,45.92994,0.09159,-2.29342,-24.03473,0.89636,1.04218,-0.11001,-0.20111,-1.54998,-1.77328,-0.04093,0.61704,-1.4181,-0.34456,-0.15053,-2.08781,-0.39494,0.02724,-0.22199,-0.02614,-0.11362,-0.29304,-0.11217
1345,0.12048,23.54329,-6.08097,-72.54371,26.22349,5.69829,-7.21128,17.35196,-5.14403,-74.31417,28.1745,6.45128,2.48084,43.65431,-9.65453,-68.38584,31.14217,6.53593,-70.2975,45.457,-2.11517,-7.84525,-14.52539,-4.68303,1.77882,-3.07221,-0.00411,0.45608,-2.34533,0.84548,0.15639,-1.11584,0.05125,0.7441,-2.55246,0.80137,-0.02338,-0.16508,0.01944,0.01154,-0.29916,0.08944
1346,1.09814,23.23026,-6.05318,-76.10742,28.89726,5.94582,-4.87868,16.95152,-4.72118,-79.17524,36.77133,7.29111,2.32076,43.41035,-9.56592,-68.494,31.11062,6.24376,-67.52429,57.8432,0.59937,-13.19039,-7.42024,-1.5962,1.74743,-2.54643,1.01774,1.73484,-1.05022,0.81325,-0.48558,-0.81895,0.87101,1.16163,-2.23985,1.49693,-0.08187,-0.11257,0.1654,0.04413,-0.20539,0.15638
1347,0.38261,23.38336,-5.96617,-79.40296,29.47898,5.62849,-6.87684,15.0738,-3.91969,-85.89428,40.68985,7.17808,2.40402,43.18038,-9.50697,-68.40253,31.02724,5.7679,-77.16287,63.20743,3.7472,-10.96043,1.82165,3.89642,1.65154,-0.61944,1.63983,0.72308,-0.06404,0.46924,-0.58534,-0.8133,1.18046,0.77114,-1.82109,1.14076,-0.09911,-0.07737,0.23381,-0.03029,-0.16261,0.081
1348,-1.88247,23.87577,-5.8878,-80.61114,27.79469,4.71751,-14.11203,15.51512,-3.50585,-90.6269,37.07198,5.82971,2.61057,42.87738,-9.50849,-68.04964,30.81492,5.11807,-94.55428,61.30494,2.64286,-2.97821,5.10384,4.93434,1.96774,-0.1536,0.98649,-1.94687,-0.55337,0.52935,0.20742,-1.07461,0.5413,0.17497,-2.07727,0.25104,-0.02438,-0.00845,0.10681,-0.08122,-0.25608,0.00256
1349,-3.49179,23.8887,-5.91885,-79.87126,24.90156,3.47792,-19.60067,18.10822,-4.27994,-93.16882,30.26393,4.14755,2.77609,42.44657,-9.52091,-67.36335,30.55031,4.36142,-106.31313,58.52207,-2.15717,-0.11418,-6.05988,1.13336,2.4996,-1.32457,-0.26354,-3.61298,-0.74055,0.54356,1.29972,-1.45233,-0.41791,0.03394,-2.45346,-0.25262,0.12759,0.01976,-0.09105,-0.02631,-0.32931,0.00787
1350,-2.99786,22.74059,-6.00889,-78.29549,21.96537,2.25569,-16.59085,17.37232,-5.50009,-93.6301,23.71877,2.64192,2.78932,41.87127,-9.48528,-66.48266,30.36516,3.64535,-101.96976,50.58101,-6.22602,-5.35533,-23.0936,-1.91659,2.96641,-2.22595,-0.67988,-2.44989,0.67849,0.08248,1.66039,-1.7271,-0.72851,0.44516,-2.08915,0.15131,0.24988,-0.0686,-0.16702,0.09432,-0.2508,0.11945
1351,-1.50931,21.36859,-6.06854,-76.20722,20.07413,1.36053,-8.811,13.54816,-5.79597,-90.01138,19.65161,1.32482,2.65462,41.14638,-9.41644,-65.6813,30.31603,3.15675,-84.9849,37.69724,-6.84018,-12.30337,-28.85828,1.91837,3.07272,-1.66599,0.26719,0.20194,1.73943,-0.10435,0.88859,-1.76157,-0.08772,1.01744,-1.49631,1.12287,0.20736,-0.18607,-0.06757,0.19183,-0.15031,0.32025
1352,-0.91261,20.94819,-6.08973,-73.483,19.56894,0.83694,-5.25612,12.66425,-5.10819,-82.38772,20.09288,0.42113,2.44415,40.23465,-9.37102,-65.0971,30.34103,2.91473,-69.46751,31.93241,-5.24262,-16.32518,-17.60386,10.04953,2.51541,-0.80441,1.26357,1.25843,0.5541,0.50162,-0.19595,-1.43571,0.65158,1.17088,-1.64419,1.62608,0.02583,-0.18199,0.05814,0.17736,-0.19102,0.43086
1353,-1.5846,20.91177,-6.09726,-71.11427,19.4068,0.38905,-8.86649,15.92125,-4.63141,-76.13834,22.52052,-0.00812,2.19526,39.13601,-9.36669,-64.73269,30.40431,2.68547,-67.02413,37.35772,-5.03081,-15.04317,0.81267,12.33866,1.8994,-1.42288,0.8078,-0.30075,-1.19176,0.994,-0.4903,-0.74485,0.51099,0.67918,-2.24884,1.06339,-0.09155,-0.04229,0.03001,0.02792,-0.31114,0.26092
1354,-2.45169,20.40755,-6.17116,-70.85458,18.239,-0.28823,-14.27185,18.63848,-5.02601,-76.6057,20.70483,-0.55968,1.91292,37.99162,-9.39336,-64.64475,30.58979,2.24222,-75.49686,42.18657,-8.06806,-8.88227,11.1034,6.6397,2.37065,-2.94266,-0.29835,-2.41608,-1.33774,0.59738,-0.07262,-0.24368,-0.09403,-0.02514,-2.44212,0.02848,-0.06087,0.07155,-0.07715,-0.14712,-0.35109,-0.0577
1355,-2.83627,19.54906,-6.35159,-73.02324,16.55466,-1.04808,-15.56397,16.99529,-5.64188,-83.34511,15.16031,-1.34733,1.63151,36.8802,-9.45561,-64.88368,30.96142,1.66325,-85.28105,38.28867,-11.14999,-4.81192,1.98918,2.1865,3.38006,-3.22395,-0.33303,-2.92676,-0.62392,-0.00359,0.33234,-0.59763,-0.1535,-0.28592,-2.19846,-0.44591,0.02007,0.01948,-0.063,-0.18953,-0.28845,-0.20308
1356,-3.25306,18.72089,-6.51659,-75.84219,16.01935,-1.51669,-14.119,13.00536,-5.67397,-90.83705,12.78924,-2.06373,1.43225,35.6917,-9.529,-65.39719,31.49244,1.24739,-92.98946,32.58342,-11.22031,-6.0332,-21.52309,3.80133,3.00189,-2.04566,0.36799,-2.11886,-1.09285,0.27582,0.61661,-1.4043,0.19411,0.03521,-2.31885,-0.07674,0.09056,-0.09595,0.03791,-0.0846,-0.27335,-0.06386
1357,-3.56784,18.2109,-6.58819,-77.34737,16.80416,-1.67203,-13.35224,11.67232,-5.21952,-93.58371,15.80272,-2.88437,1.3708,34.43008,-9.53962,-66.14517,32.13843,1.16901,-97.85447,33.61662,-9.94711,-5.27756,-34.97253,5.67437,1.36855,-1.22628,0.36767,-1.14069,-2.80696,1.32356,0.85656,-1.47319,0.19844,0.55663,-2.9879,0.67701,0.145,-0.06634,0.04214,0.03179,-0.37762,0.18566
1358,-2.99176,17.97412,-6.6861,-77.69631,18.1183,-1.62335,-12.65972,13.20934,-5.0098,-91.83643,20.83196,-3.36278,1.35817,33.3207,-9.50506,-67.19437,32.95309,1.33276,-97.6974,39.40285,-9.16573,-0.60614,-21.59278,3.42983,0.761,-1.54129,-0.20519,-0.15146,-3.4778,1.9224,0.71833,-0.59119,-0.05729,0.9225,-3.18029,1.28412,0.12887,0.0846,-0.03809,0.07049,-0.43562,0.32545
1359,-2.19536,17.73121,-6.97823,-78.94726,19.70743,-1.31149,-11.25725,13.89191,-5.74164,-91.01301,23.10523,-2.70136,1.22782,32.49558,-9.57863,-68.63572,34.08003,1.52087,-94.28451,40.71312,-9.73388,-0.93465,4.17616,0.74376,1.97144,-1.90095,-0.12465,0.51631,-1.52139,1.24365,0.19204,-0.06288,0.01142,0.9156,-2.13181,1.32333,0.03896,0.10488,-0.03558,0.04867,-0.27942,0.26728
1360,-2.6416,17.30904,-7.41406,-82.19075,21.53344,-0.78267,-10.74239,12.60769,-7.27128,-94.43339,21.21977,-1.10161,0.96199,31.80486,-9.82938,-70.45097,35.50802,1.59288,-92.59483,34.71774,-12.11829,-9.2991,14.82431,1.833,3.66883,-1.74666,0.73469,0.08141,1.07037,-0.03053,-0.16266,-0.7857,0.40734,0.48759,-0.7934,0.67548,-0.01766,-0.1012,0.06514,-0.00412,-0.03478,0.06282
1361,-4.15763,16.66881,-7.72656,-86.6729,22.846,-0.45795,-12.46612,11.53236,-8.46093,-101.70596,19.22702,0.24442,0.71853,31.03049,-10.10303,-72.57977,36.97302,1.51426,-98.33786,30.08406,-14.43066,-17.47957,2.58549,5.90229,4.49299,-1.74381,1.32219,-0.88493,0.6776,-0.34683,-0.15184,-1.79893,0.64612,0.09079,-0.873,-0.04426,-0.00778,-0.3057,0.12623,-0.04817,-0.01865,-0.11097
1362,-5.16881,15.92546,-7.79038,-91.23028,22.62684,-0.75908,-15.7624,12.01931,-8.54416,-111.47966,20.74933,0.16876,0.57751,30.13672,-10.22726,-75.00928,38.3113,1.33858,-114.28828,34.42302,-14.46593,-19.00614,-13.90202,10.0608,4.00736,-1.90259,1.02462,-0.74825,-2.48783,0.70059,-0.10539,-1.73554,0.4999,0.3109,-2.24583,0.04606,-0.01273,-0.26495,0.08163,-0.02179,-0.25913,-0.06958
1363,-4.56472,15.17966,-7.77458,-95.07433,21.4995,-1.46664,-17.83524,12.41767,-7.88237,-121.31361,25.82025,-1.0636,0.45861,29.22593,-10.22943,-77.68032,39.69153,1.20435,-133.81146,45.3659,-12.12432,-14.87521,-15.5061,12.73334,3.07343,-1.33732,0.30526,0.54382,-4.52805,1.84131,-0.03447,-0.64195,0.10783,0.87179,-2.93347,0.81396,-0.01363,-0.00556,-0.03382,0.04989,-0.40278,0.13393
1364,-3.06202,14.90826,-7.88225,-98.32962,21.18921,-2.03194,-18.09589,12.38385,-6.92712,-128.85818,32.04572,-2.54613,0.30304,28.38937,-10.26833,-80.46413,41.29165,1.18349,-148.11382,56.72027,-9.65212,-6.04723,-8.00384,13.93712,3.10078,-0.0922,-0.06103,1.57496,-4.29397,2.249,0.26529,0.36031,-0.22362,1.10811,-2.3648,1.41774,0.07229,0.24825,-0.13826,0.08347,-0.32651,0.3041
1365,-2.31048,15.62531,-8.11459,-101.23914,22.237,-2.16491,-19.07488,14.47934,-5.84164,-133.29509,36.45718,-3.65735,0.15347,27.64063,-10.40128,-83.15494,43.00591,1.28435,-155.3093,65.5407,-9.50328,7.23482,-8.79502,13.2815,3.6141,0.76984,0.2217,1.57646,-3.82348,2.30088,0.36842,0.5839,-0.13673,0.99058,-1.82674,1.50676,0.11982,0.31945,-0.12637,0.06686,-0.25755,0.35333
1366,-2.67714,17.00395,-8.44287,-103.06746,23.90624,-1.72975,-20.27153,19.16263,-5.62381,-134.79242,37.62391,-3.2517,0.03264,27.00808,-10.54995,-85.49209,44.64848,1.61951,-155.77388,70.56916,-11.89757,14.56138,-16.4406,10.228,2.84283,0.86937,0.95512,0.79803,-3.69685,2.25163,-0.28847,0.212,0.44064,0.86854,-1.97792,1.31865,-0.0529,0.20416,0.02147,0.04857,-0.30701,0.32605
1367,-3.75895,17.80963,-8.83542,-103.26524,25.265,-0.88478,-20.37451,20.66963,-6.85696,-133.16078,35.28146,-1.27047,-0.12425,26.49305,-10.69431,-87.38992,46.14432,2.21415,-150.52333,64.95643,-14.73542,3.71045,-12.77517,6.60681,1.40344,0.69779,1.93217,0.34037,-3.57191,2.19091,-1.38741,-0.44143,1.21186,1.05483,-2.45569,1.28344,-0.31299,0.0062,0.18763,0.10196,-0.3968,0.34269
1368,-5.00073,17.36699,-9.15609,-103.89359,26.10178,-0.20763,-20.00109,13.80474,-7.98713,-131.46213,30.39727,-0.53167,-0.31063,25.97689,-10.86579,-89.11922,47.48222,2.76653,-145.43744,43.90702,-16.20261,-16.58245,6.93036,4.82114,1.92216,0.53375,2.85521,1.05011,-3.99878,2.25651,-2.16669,-0.92315,1.76999,1.45159,-2.73166,1.37995,-0.38134,-0.10474,0.21662,0.20614,-0.38044,0.37328
1369,-5.70939,16.58323,-9.34603,-107.81084,27.36957,0.05931,-19.18552,4.28147,-7.71652,-137.30104,28.86591,-2.24805,-0.45604,25.40583,-11.04555,-91.0102,48.66735,2.9921,-150.49646,25.4506,-15.85356,-25.63955,20.22033,6.74981,4.33872,0.78263,3.11268,2.40197,-5.07065,2.30741,-2.17054,-0.68901,1.73145,1.54632,-2.4133,1.20236,-0.2299,0.00172,0.06716,0.21041,-0.15179,0.23236
1370,-5.90856,16.2658,-9.45898,-114.16782,29.8323,0.33023,-18.91474,2.11993,-7.1137,-153.19476,37.91996,-2.58146,-0.59072,24.8512,-11.17768,-93.05101,49.6587,2.97041,-170.88559,36.71202,-12.61204,-20.86635,4.18241,15.05658,5.11682,2.48003,2.64411,3.74979,-6.07696,2.38438,-1.57004,0.11991,1.10581,1.35911,-1.71982,0.97693,-0.11804,0.24262,-0.10353,0.10199,0.1424,0.01989
1371,-6.44583,16.42166,-9.61269,-119.61836,33.11797,0.96872,-21.33894,7.78863,-7.68146,-170.82816,54.43916,1.42229,-0.82803,24.40061,-11.26556,-95.03202,50.43562,2.90806,-196.57118,72.77953,-6.77047,-16.81204,-30.22934,26.96421,2.65775,4.92477,2.24295,5.49917,-6.53136,2.66523,-1.16833,0.7822,0.59862,1.61272,-1.46414,1.39367,-0.25912,0.38399,-0.07693,0.0763,0.15771,0.07558
1372,-7.23372,17.18684,-9.93341,-122.14883,35.44301,1.51556,-24.01353,14.35073,-9.23236,-178.13249,64.58078,6.02419,-1.17604,24.05695,-11.35307,-96.82068,50.94935,2.79618,-205.45282,98.35141,-3.83619,-19.23355,-47.89873,31.64524,0.06623,4.93822,2.12306,7.38851,-7.34493,3.13275,-1.41193,0.84637,0.77921,2.32731,-2.18415,2.16436,-0.50118,0.29435,0.13556,0.19121,-0.18527,0.35799
1373,-7.5411,18.96223,-10.44609,-121.70349,35.49518,1.39653,-23.48952,19.58568,-10.72038,-172.97878,61.3885,6.04337,-1.48962,23.73193,-11.45861,-98.37423,51.15895,2.60838,-193.21239,96.79208,-9.25329,-18.9721,-30.36819,22.79689,0.18986,1.481,1.52743,7.86133,-8.87882,3.60946,-1.78365,0.59787,1.22714,2.62853,-3.05584,2.32027,-0.53255,0.09396,0.27449,0.27294,-0.45446,0.49491
1374,-7.55103,21.18392,-10.97045,-120.76377,34.22597,0.90682,-21.25025,24.15741,-11.53382,-171.10611,53.80068,1.82284,-1.62836,23.36962,-11.56848,-99.79854,51.24688,2.47598,-188.37212,85.02302,-19.0404,-10.34796,6.33478,7.61527,1.48982,-2.17262,0.32612,5.41804,-8.49201,3.31288,-1.73804,0.70124,1.24266,1.9372,-2.82122,1.51576,-0.34091,0.0257,0.18731,0.18287,-0.34687,0.31592
1375,-7.95075,22.06078,-11.18337,-121.12286,33.74224,0.74272,-20.15118,24.48125,-11.19322,-182.37952,54.96073,-1.63251,-1.64643,22.96445,-11.66514,-101.13435,51.41666,2.52499,-207.30008,82.65477,-21.74739,-1.47383,31.1914,-1.54231,1.41537,-2.58296,-0.44933,1.61607,-3.91542,1.73835,-1.48901,1.42326,0.89238,0.95217,-1.3353,0.59587,-0.19985,0.18777,0.02033,0.05527,-0.05967,0.06336
1376,-8.5916,21.35965,-11.08692,-121.98882,34.78459,1.07292,-20.1415,19.99598,-9.80563,-195.84511,65.23017,-1.01556,-1.75018,22.63384,-11.76252,-102.21346,51.64377,2.68869,-228.31276,90.8802,-14.1799,-5.81071,26.93126,0.8272,0.76729,0.40595,0.41166,0.80897,2.13006,0.10409,-1.68634,2.18224,1.01715,0.97656,0.32417,0.76562,-0.29925,0.42853,0.00311,0.10354,0.11697,0.06716
1377,-8.94342,21.30695,-11.13936,-122.3878,36.42918,1.63287,-20.89289,17.10446,-8.77724,-200.36879,74.10254,2.3581,-2.03338,22.64542,-11.91227,-102.89628,51.83534,2.80423,-230.91263,100.60555,-5.59662,-24.12747,-0.01741,11.34213,1.5016,4.71164,3.48525,3.78202,4.27588,-0.02773,-2.54425,1.85892,2.46281,1.98108,0.66577,1.83357,-0.56815,0.45094,0.25821,0.27165,0.06156,0.31165
1378,-9.48292,22.98885,-11.57453,-122.01695,36.92883,2.00658,-24.91002,19.86954,-9.09451,-200.08055,74.66814,4.45269,-2.37385,22.94232,-12.1264,-103.14916,51.77666,2.76202,-229.23303,105.64263,-5.50709,-37.3997,-29.43113,21.25124,2.41138,8.21974,7.39081,5.91587,1.7299,0.71133,-3.21099,0.43069,4.52499,2.57864,-0.75443,2.31256,-0.73165,0.17315,0.6452,0.3123,-0.20575,0.47235
1379,-10.22014,25.08029,-12.12987,-120.76456,35.21979,1.91577,-30.20495,25.64403,-10.26257,-203.29742,68.15852,2.16038,-2.57591,23.09772,-12.31173,-102.9983,51.17474,2.58673,-241.15508,104.05322,-15.06363,-32.27342,-45.17373,24.83528,1.00068,9.88417,9.39898,4.56654,-1.68381,0.84673,-3.10317,-0.34787,5.41595,2.28824,-2.82624,1.66352,-0.68461,-0.05612,0.83838,0.18849,-0.52019,0.38041
1380,-10.1289,26.46137,-12.569,-118.26737,33.49995,1.76597,-29.41884,29.2557,-11.59606,-207.09415,62.97075,-1.65158,-2.58459,23.08869,-12.41435,-102.61339,50.15079,2.51035,-251.01175,100.16474,-24.89788,-20.64744,-46.88231,25.07505,-1.89439,9.32052,8.4668,3.23199,-4.03885,0.76776,-2.64408,0.33229,4.6992,2.28218,-4.27971,1.0233,-0.58564,0.00112,0.76077,0.13741,-0.71135,0.24154
1381,-9.50608,27.15711,-12.86414,-114.87305,34.42455,2.00286,-23.43328,27.85691,-12.41429,-205.37332,67.64931,-1.31548,-2.52658,23.28123,-12.51859,-102.25938,49.00879,2.6376,-242.46643,102.66964,-23.89163,-15.47899,-39.62987,23.8519,-3.71547,6.51707,5.06458,5.34652,-6.10732,1.60085,-2.04359,1.45214,2.73987,3.24095,-4.59808,1.28588,-0.48068,0.18772,0.50794,0.2772,-0.69637,0.27024
1382,-9.95797,28.0586,-13.08607,-111.52835,37.71019,2.43087,-22.79202,25.47268,-12.15772,-200.04103,81.46832,3.41896,-2.51106,23.76777,-12.69476,-101.97428,47.75995,2.78477,-231.15416,116.69064,-13.91114,-10.9147,-26.26776,18.67549,-3.63804,3.60115,1.25335,9.21471,-7.57386,2.91147,-1.29431,1.8495,0.36387,4.25493,-3.93016,1.9619,-0.31356,0.27221,0.2241,0.43677,-0.50292,0.38156
1383,-11.56303,30.1371,-13.41837,-108.52137,41.13057,2.69372,-30.13921,27.9788,-11.68211,-195.88129,93.80161,7.63504,-2.51862,24.37454,-12.90219,-101.45052,46.40029,2.78637,-233.75737,134.83134,-7.44364,-2.72773,-17.30026,13.53004,-1.90813,4.18821,1.07699,11.61984,-6.91624,3.45142,-0.53834,1.18466,-0.13781,4.58021,-2.95868,2.37879,-0.11423,0.18269,0.2252,0.4726,-0.31089,0.42325
1384,-12.81135,33.19362,-14.02877,-105.26109,43.1091,2.82801,-35.36506,34.16781,-12.60065,-192.81575,96.47727,8.88967,-2.53597,25.00927,-13.11754,-100.25925,45.22246,2.70031,-238.56653,144.61089,-9.62631,-5.19502,-21.22136,15.38671,0.07002,8.60533,5.38682,10.8147,-4.15898,2.83976,0.07986,0.50672,2.09622,4.41493,-2.54487,2.39524,0.04687,0.06598,0.57658,0.42436,-0.3255,0.3804
1385,-12.75472,36.07091,-14.76528,-101.12366,44.0258,2.98655,-30.95961,39.06449,-14.81384,-188.54474,93.67387,9.41103,-2.59487,25.69154,-13.33804,-98.13992,44.56055,2.63943,-227.5618,146.4028,-13.29891,-26.98223,-28.47474,22.41154,-0.40524,13.1387,9.49267,7.2167,-1.46215,1.69289,0.26546,0.87229,4.08757,4.17498,-3.01219,2.09749,0.12132,0.06823,0.76794,0.38703,-0.55788,0.30578
1386,-12.12601,37.61038,-15.17011,-96.80042,45.01801,2.92671,-23.39111,40.70956,-16.13772,-186.38962,94.45051,10.30103,-2.69283,26.40717,-13.50148,-95.20422,44.43362,2.47243,-211.89772,149.89977,-12.44215,-48.15636,-29.74519,29.06347,-4.33111,15.18081,10.14439,5.26972,-1.19719,1.29757,-0.36465,1.83863,3.54924,4.57858,-3.89383,1.98926,0.04905,0.14312,0.53423,0.47841,-0.81213,0.30666
1387,-11.87511,38.16664,-15.13103,-92.59547,46.46492,2.26233,-21.61975,40.93757,-15.38659,-189.67065,99.71127,8.89694,-2.78042,27.18088,-13.57169,-91.63866,44.65448,1.98396,-213.07906,156.99841,-10.90045,-46.88334,-32.04636,34.73017,-9.66937,14.98313,9.02182,9.55384,-3.63317,2.69232,-1.5082,2.48877,1.93627,6.18378,-4.44349,2.66228,-0.10741,0.20181,0.31688,0.74077,-0.87567,0.46257
1388,-11.61808,39.72356,-15.14302,-86.96717,48.27645,1.11629,-22.70315,41.63913,-13.82342,-192.8147,102.84938,3.36396,-2.77966,28.19993,-13.62494,-87.27562,45.26338,1.26492,-223.52879,158.8568,-14.07837,-30.97976,-43.45249,41.52546,-13.40464,14.7231,9.18271,16.39365,-6.64566,4.79665,-2.14718,2.6309,1.52389,7.83714,-4.3989,3.49102,-0.15719,0.24522,0.49249,0.95418,-0.73864,0.61095
1389,-11.41085,43.54514,-15.67015,-79.33109,50.56429,0.06005,-21.43853,43.68406,-13.19058,-188.1599,101.2673,-3.02803,-2.63493,29.67827,-13.81456,-81.80341,46.58547,0.57408,-221.2804,153.15378,-20.17487,-18.0988,-59.06422,48.47191,-14.07922,17.14591,11.72581,17.32293,-7.6836,5.05744,-1.72412,2.65415,2.56625,7.69154,-4.05549,3.19152,-0.04666,0.30122,0.866,0.88504,-0.59181,0.51372
1390,-12.25427,48.22499,-16.54338,-71.21226,53.38909,-0.55832,-21.0516,47.65197,-14.08054,-175.47601,99.77117,-4.82199,-2.32744,31.65716,-14.21622,-75.18987,48.8194,-0.03457,-204.37045,151.70589,-24.2421,-10.42449,-66.36855,49.92059,-12.86801,20.47578,14.09496,11.62213,-4.98267,3.25692,-0.81183,2.50192,3.28461,5.79186,-3.20979,2.15228,0.11311,0.30778,0.99339,0.61117,-0.48027,0.27905
1391,-13.60686,51.64145,-17.26759,-63.53626,56.80444,-0.87977,-24.55481,52.24418,-15.57077,-160.74294,104.08213,-0.47119,-1.84653,34.08626,-14.73448,-67.71368,51.86712,-0.65395,-188.29927,164.24861,-23.21112,-3.95487,-60.83878,42.04561,-10.44949,18.69077,12.74236,6.93901,0.38373,2.18813,0.26889,1.22553,2.30136,4.02779,-1.6888,2.11032,0.32619,0.10013,0.67507,0.39004,-0.30625,0.24579
1392,-14.2065,53.70538,-17.64119,-55.50146,59.881,-1.2549,-29.69596,53.85184,-15.77343,-150.1748,111.51898,4.81408,-1.25298,36.97453,-15.26682,-59.67744,55.57835,-1.3457,-184.62965,180.04929,-18.44225,0.26501,-50.09851,27.09825,-6.56628,9.96491,7.33812,8.25981,4.03951,3.43837,1.54553,-1.37485,-0.05866,4.0974,-0.63323,3.38188,0.6241,-0.3473,0.03327,0.40917,-0.16349,0.46942
1393,-14.81497,54.7945,-17.65314,-45.81832,61.82929,-1.85498,-35.72644,48.76887,-13.64311,-143.73653,114.71942,4.69635,-0.69152,40.32003,-15.84401,-51.19022,60.02162,-2.05077,-188.93576,179.92377,-15.45379,-3.29509,-39.12908,11.00316,-4.04478,0.29438,1.51608,11.89022,3.33392,4.92915,1.55136,-3.3676,-2.24436,5.50076,-1.00748,4.16388,0.69959,-0.68358,-0.53963,0.58198,-0.20133,0.58004
1394,-15.53796,54.94444,-17.35279,-33.83183,63.30195,-2.51688,-39.74889,40.31103,-10.85516,-135.58453,111.39919,-1.50862,-0.19554,44.07012,-16.45528,-42.31271,65.26041,-2.61539,-182.87502,164.85197,-20.15869,-18.07915,-26.76685,1.35703,-4.40232,-4.03921,-1.03965,12.01314,-0.22285,4.15503,0.03123,-3.37209,-2.88077,6.06116,-2.07286,2.9676,0.41801,-0.58457,-0.6613,0.62549,-0.34892,0.27046
1395,-15.03016,55.26123,-17.02631,-20.22042,66.21439,-2.79445,-37.10106,37.40889,-9.78966,-123.17686,107.84818,-7.73651,0.27991,48.13389,-17.04344,-33.18425,71.08028,-2.85703,-160.07399,156.32516,-29.09344,-35.60386,-20.32996,6.55627,-6.14073,-3.12585,-0.40638,9.94559,-4.02996,2.45088,-1.0694,-2.70627,-2.46594,5.13005,-2.54868,1.02174,0.09445,-0.27873,-0.47044,0.49633,-0.4447,-0.16032
1396,-14.14242,56.9331,-16.96106,-7.71324,72.94038,-2.37901,-31.14762,41.22897,-10.22156,-112.61275,113.77315,-6.97795,0.66973,52.33947,-17.68575,-23.98649,77.16679,-2.66228,-141.68448,166.76457,-28.82984,-35.68269,-30.40385,27.4522,-8.38096,-0.30091,1.36897,9.94278,-6.03932,2.82894,-0.94086,-2.99424,-2.04519,4.19885,-2.11345,0.81643,0.00614,-0.23166,-0.30959,0.45735,-0.43499,-0.12998
1397,-14.54146,59.22416,-17.02953,1.95516,82.90898,-1.70131,-28.31497,44.22404,-10.66819,-109.08672,127.89342,-1.86813,0.91193,56.42925,-18.42049,-14.93044,83.16028,-2.21702,-142.96703,182.86148,-18.64469,-11.16574,-49.95953,45.06844,-9.53799,1.41972,2.22954,8.88961,-4.64933,4.18801,-0.50567,-4.26142,-1.78761,3.81714,-1.29344,2.34289,0.0837,-0.55794,-0.28369,0.5497,-0.34879,0.3778
1398,-15.13688,60.74969,-16.94509,9.91339,92.42223,-1.64682,-27.87875,44.45639,-11.14587,-111.13616,139.00832,-2.74944,1.04891,60.17312,-19.05227,-6.32102,88.6012,-1.96471,-152.14102,190.70297,-16.88702,17.72857,-59.87774,34.62695,-4.09869,1.0924,0.41821,1.08947,0.7939,3.05825,0.94463,-5.11335,-1.65329,2.72194,-0.30811,3.56859,0.27546,-0.91945,-0.33081,0.45483,-0.17541,0.79934
1399,-14.04373,60.40073,-16.39345,18.51144,97.62674,-2.32949,-26.06792,43.28012,-11.10336,-115.2994,140.92908,-12.39359,1.05483,63.3365,-19.36053,1.55866,93.13483,-2.1934,-157.49936,188.91428,-30.05269,30.31263,-53.00479,-0.53281,6.49932,-3.46729,-3.94715,-9.65492,7.83602,-0.06964,3.84487,-5.39199,-2.4076,0.68619,0.74029,3.63337,0.60424,-0.98103,-0.49279,0.09759,0.0682,0.74159
1400,-12.21452,57.25332,-14.96637,30.1812,99.14727,-2.74969,-24.24825,36.54704,-8.15117,-114.28018,143.64743,-18.00483,0.75912,65.57569,-19.34429,8.72156,96.94587,-2.61223,-158.48198,185.0983,-34.73317,31.46922,-37.35728,-24.52756,10.8757,-11.45747,-6.50402,-14.15336,10.3977,-2.5646,5.5942,-6.19418,-3.76418,-0.85065,1.15595,2.34838,0.7854,-0.89438,-0.73927,-0.22831,0.22792,0.25047
1401,-11.07038,50.84422,-12.40641,43.71024,99.40479,-2.19982,-23.30305,19.75444,-1.40689,-103.01197,154.11937,-10.48541,0.11341,66.51265,-18.99888,15.31638,100.43986,-2.77159,-152.46463,178.05125,-13.94449,34.19724,-19.4312,-16.53714,7.09791,-14.47104,-4.81736,-10.79413,5.18819,-4.4225,5.30921,-6.29573,-4.24245,-1.38679,0.66641,-0.61244,0.7514,-0.80499,-0.86817,-0.36678,0.23074,-0.41867
1402,-9.91304,42.36827,-9.12946,55.70518,97.13166,-0.92549,-19.87757,-1.22608,6.18224,-84.68363,157.17189,-0.6187,-0.70919,65.85678,-18.15331,21.4081,103.48045,-2.68476,-135.12402,152.56183,11.88878,37.3395,0.91866,-1.44931,5.74427,-11.66188,-3.60852,-6.69635,-2.19571,-6.2912,5.3389,-4.86124,-4.00634,-2.28265,0.21926,-3.86168,0.84306,-0.59681,-0.88688,-0.51515,0.22105,-0.90685
1403,-9.3197,33.99232,-5.76265,65.06744,94.16632,0.31201,-15.85849,-14.47297,10.88947,-65.98916,148.85257,2.04178,-1.70904,63.37374,-16.80178,26.89149,105.7077,-2.41981,-113.30863,120.48627,21.08556,37.07336,18.53034,-8.46987,11.56193,-10.21404,-6.09824,-7.0281,-5.21993,-8.02185,6.70931,-3.55689,-4.05435,-3.76525,0.30707,-5.59255,1.09919,-0.37683,-0.90665,-0.73575,0.27352,-1.07553
1404,-10.04802,26.11765,-2.36491,71.92481,92.98016,1.1118,-14.3902,-17.49859,12.21416,-53.77404,139.61702,-0.07948,-3.04538,58.8454,-15.02416,31.56134,106.85127,-2.01136,-98.90021,103.52193,16.38556,36.67129,23.865,-31.00262,17.57429,-12.7373,-8.92146,-10.02581,-3.69423,-9.22993,7.6226,-3.6918,-4.20427,-4.70117,0.5534,-5.69035,1.20131,-0.36832,-0.83872,-0.89565,0.33496,-1.10452
1405,-9.96825,18.04229,0.92314,76.86267,91.90639,1.67808,-10.86356,-16.46611,12.2778,-50.1823,133.52571,-2.14021,-4.61626,52.20856,-12.71054,35.33423,106.72499,-1.65313,-91.1041,100.6518,10.60351,39.55253,19.18919,-46.29924,19.43236,-14.61747,-9.54038,-12.63039,0.27575,-8.86793,7.31199,-4.20368,-3.92742,-5.24768,0.73997,-4.52682,1.06513,-0.43905,-0.62332,-1.02252,0.35432,-1.03583
1406,-8.06674,10.67192,3.53418,80.21597,88.60291,2.25264,-2.08381,-14.25316,12.76742,-52.77945,128.00746,-3.39286,-6.1436,43.83191,-9.88384,38.20494,105.32838,-1.49862,-86.23529,100.59049,10.40928,45.45487,18.28027,-47.29035,19.66632,-11.77911,-9.39841,-14.74495,4.34324,-7.88035,7.06934,-3.57957,-3.5157,-6.03065,0.80823,-3.17711,0.91766,-0.33169,-0.42502,-1.11892,0.31425,-0.86076
1407,-5.66803,6.11333,4.77871,81.68424,83.11884,2.89909,9.0958,-10.53028,13.55444,-56.50249,120.37944,-5.28438,-7.31047,34.70683,-6.90189,40.15507,102.86525,-1.44486,-83.27832,96.42993,14.90061,52.62874,29.56579,-41.78096,19.50445,-6.44951,-9.51586,-17.05597,5.48946,-9.67718,7.57577,-2.12038,-3.57503,-6.39875,0.57161,-3.60592,0.90854,-0.12312,-0.42741,-1.0004,0.21604,-0.84451
1408,-3.64677,5.35603,4.04443,82.12271,77.98988,3.53119,18.27456,-9.0717,14.41444,-54.30501,112.12919,-7.29546,-7.74235,26.14807,-4.29319,41.21868,99.6384,-1.2165,-77.14944,85.04798,21.32916,61.13248,49.13976,-38.56903,18.57012,-3.03448,-9.5611,-19.23326,2.38142,-15.49708,8.45893,-0.96215,-4.24484,-5.53437,-0.0882,-6.19198,1.0652,-0.01928,-0.66841,-0.66248,0.06748,-1.16684
1409,-3.70459,8.23487,1.56731,82.37713,75.87203,3.97465,20.49955,-13.75528,15.68602,-45.44585,106.46487,-7.86838,-7.48966,19.10374,-2.51693,41.50792,95.99265,-0.67054,-69.13106,64.70927,26.90223,70.45675,64.15634,-40.68916,17.92743,-3.63372,-9.59702,-20.79542,-2.77005,-22.21487,9.15106,-0.86117,-5.17374,-3.93473,-0.88173,-8.85648,1.3049,-0.04637,-0.98187,-0.36279,-0.06211,-1.5772
1410,-7.41476,13.21555,-1.28097,81.10974,75.94435,4.30615,16.51118,-21.26958,17.05866,-38.10795,101.15846,-7.19433,-6.98832,13.65865,-1.51552,41.11467,92.26264,0.00113,-66.1701,36.58485,30.14938,73.88329,61.61839,-44.24219,18.12265,-6.36031,-9.75637,-21.16251,-5.46882,-24.67197,8.93353,-1.66872,-5.67523,-2.98263,-1.12343,-9.18415,1.34879,-0.14745,-1.07601,-0.28217,-0.05695,-1.64141
1411,-11.24793,15.55853,-2.86788,77.9668,75.01764,4.81051,16.74292,-24.28024,18.00211,-36.87944,92.32936,-6.20467,-6.1579,9.11208,-0.78448,40.11832,88.6838,0.49971,-63.11912,11.91782,32.24312,65.02167,47.60855,-45.47349,19.36112,-6.81913,-10.26818,-20.38025,-2.2835,-20.25856,8.15768,-2.10659,-5.42801,-3.61746,-0.20968,-6.41426,1.13561,-0.20409,-0.88818,-0.42517,0.11926,-1.18975
1412,-9.14322,10.70708,-2.45412,73.84377,71.77691,5.46902,29.28412,-18.36646,18.62055,-41.94473,81.35522,-5.7223,-4.57072,4.77615,-0.02244,38.69031,85.28454,0.7138,-54.66724,7.20755,33.50693,50.61141,47.42221,-45.46601,21.80539,-3.36103,-11.17988,-19.32677,4.06724,-13.12896,8.20489,-1.19768,-4.87196,-5.00721,1.36403,-2.68191,0.97924,-0.07666,-0.64146,-0.62622,0.32801,-0.60373
1413,-1.97465,1.05644,-0.29951,69.93787,67.81166,5.91052,44.80139,-9.22403,20.05735,-47.91412,72.22775,-5.85468,-2.4692,0.89679,0.69931,37.17456,81.94211,0.72845,-46.71997,18.15998,33.36285,46.40677,67.95116,-44.17509,23.09703,0.88444,-11.37202,-18.61877,6.4831,-10.35378,9.02087,0.32266,-4.45934,-5.38245,2.04924,-1.21738,1.02556,0.14425,-0.51971,-0.65712,0.35339,-0.38726
1414,1.11062,-8.9976,4.76394,67.99139,65.91016,5.81892,45.39085,-20.94132,27.14233,-42.13982,68.24209,-5.56035,-0.49069,-4.4503,1.33503,35.84575,78.72721,0.76398,-41.30235,6.64932,37.47813,55.36881,82.6125,-40.95447,20.88487,2.1282,-10.10073,-18.73554,3.40439,-13.13915,9.0407,0.96007,-4.22667,-4.62893,1.3448,-2.30905,1.05313,0.20778,-0.52477,-0.51686,0.19603,-0.4863
1415,2.25166,-10.89952,7.88277,67.33347,67.10145,5.29409,38.04005,-42.86692,32.30676,-23.28221,70.51077,-4.15627,-0.00644,-4.4309,1.71177,34.60883,75.98048,1.0163,-24.3797,-17.88759,40.02916,61.64777,73.65057,-40.11386,17.13255,0.09295,-8.68158,-19.87935,0.31656,-16.853,7.86953,0.28598,-4.272,-4.07964,0.49931,-3.59843,0.93879,0.04173,-0.60845,-0.40092,0.07089,-0.54468
1416,0.96537,-7.97907,8.1911,65.30915,70.06371,4.74441,30.33961,-62.5497,33.75651,-6.82598,77.0776,-1.91354,0.40876,-3.12185,1.62369,33.20485,73.97282,1.52662,-5.73928,-35.6185,42.78578,50.77,59.44201,-46.08208,15.20344,-2.01285,-8.54825,-21.0301,-0.31945,-18.80397,6.64529,-0.69152,-4.60923,-4.00149,0.19096,-4.13011,0.8118,-0.16651,-0.72242,-0.37788,0.03792,-0.57557
1417,3.40532,-3.96689,2.32033,61.52945,72.88324,4.43363,31.8324,-52.8968,27.59134,-3.61389,83.01175,0.03721,1.2071,-1.43956,0.81553,31.55024,72.54299,2.12063,7.72102,-11.96019,39.94068,25.45613,58.22002,-56.95708,15.93747,-1.59584,-9.56989,-20.32489,-1.19818,-19.25317,6.23086,-1.04172,-4.98013,-3.60295,-0.21988,-4.55763,0.7558,-0.26062,-0.80385,-0.37389,-0.014,-0.76091
1418,11.14496,-2.57797,-7.18072,59.34431,73.60449,4.48044,45.66137,-23.16897,23.21446,-5.2489,82.74797,0.66385,2.47497,-0.58366,-0.30016,29.99728,71.09018,2.46312,25.17209,30.67541,38.17849,2.07409,60.71479,-65.96701,18.27037,0.79591,-10.63556,-17.25377,-1.59952,-17.26247,6.60285,-0.60991,-4.99836,-2.95948,-0.4394,-4.46105,0.73134,-0.20211,-0.75886,-0.36772,-0.03931,-0.92094
1419,17.68846,-3.04669,-13.65031,61.05463,71.72231,4.9113,65.79362,-3.16562,30.83808,0.14527,75.08821,-0.0743,3.51239,-0.7393,-0.80414,29.00201,69.23671,2.44432,53.83723,45.27506,47.43122,-4.1579,58.94682,-67.29751,20.43745,2.85644,-10.69763,-13.38882,0.63214,-13.05362,7.34161,0.30566,-4.4376,-2.50038,0.21479,-3.33373,0.72421,0.0008,-0.52726,-0.32304,0.01697,-0.79181
1420,16.4164,-2.42439,-13.9464,64.20078,69.24664,5.47035,74.79878,-3.31506,41.97416,10.96852,63.61978,-1.65364,3.50476,-1.13878,-0.37609,28.41498,67.20918,2.33624,74.84238,21.42679,56.59843,6.3241,62.90187,-58.63568,19.45458,2.38841,-9.61297,-11.22354,2.39161,-10.17132,7.38181,0.75793,-3.88369,-2.06308,0.82242,-2.14276,0.66189,0.16349,-0.28386,-0.18146,0.02448,-0.46938
1421,8.83889,-1.2644,-7.41694,65.50398,68.04382,5.84716,62.31131,-17.9945,42.80955,20.00246,52.11215,-3.35219,2.50623,-1.24554,0.63062,27.67678,65.21904,2.39369,70.80827,-22.17524,49.27154,19.55053,73.06738,-42.21649,13.4116,0.37601,-7.77859,-12.34224,1.42503,-10.88769,5.733,0.17922,-3.9734,-1.77163,0.59288,-1.81566,0.43507,0.0868,-0.30143,-0.03593,-0.05858,-0.221
1422,2.99037,-0.78852,-1.16967,64.90336,67.84707,5.95019,42.4525,-28.64826,33.37819,24.27577,44.13686,-4.38917,1.53836,-0.98594,1.17765,26.5644,63.01601,2.57791,56.03039,-49.8888,31.49432,25.30286,71.26891,-25.74407,5.1064,0.61707,-5.07625,-15.55938,0.77057,-13.58105,3.04153,-0.65349,-3.91267,-2.03521,0.27172,-2.18707,0.12667,-0.14513,-0.50287,-0.02684,-0.11544,-0.17823
1423,3.44854,0.59658,-6.35741,64.44633,67.64246,5.87403,32.48991,-18.15808,24.7446,26.45144,42.67025,-4.4052,1.41523,-0.42739,0.43823,25.29971,60.25566,2.78157,52.40265,-36.06527,21.35287,25.91968,51.07927,-16.86427,-0.10695,3.83502,-1.69609,-17.95054,1.59463,-15.64232,0.95965,-0.84639,-2.58901,-2.70254,0.29908,-2.79916,-0.08016,-0.28708,-0.54011,-0.1732,-0.11645,-0.31456
1424,7.26475,3.69375,-19.72616,65.57661,66.95267,5.81173,34.70292,0.52611,27.02229,30.62051,46.20475,-3.56055,1.88949,0.17851,-0.74944,24.06933,56.79949,2.98824,63.52885,-4.18359,27.00481,22.77716,30.47039,-17.5837,0.95382,6.27203,0.22335,-16.84359,-0.03181,-14.89164,0.5285,-0.4906,-0.71707,-3.04519,-0.14415,-3.08083,-0.09564,-0.23853,-0.33351,-0.37982,-0.11757,-0.46944
1425,10.50367,6.57139,-27.9043,67.58225,66.31747,5.76003,40.55291,8.08115,36.1989,34.07421,51.97453,-1.8775,2.27522,0.57038,-1.10455,22.79414,52.68449,3.21567,73.25045,15.34185,39.59187,7.02248,28.03504,-24.30363,6.50289,3.95791,-2.32713,-11.04089,-5.52979,-9.56424,1.42529,-0.30626,-0.71669,-2.30338,-1.40939,-2.09323,0.05476,-0.13993,-0.2942,-0.47176,-0.12281,-0.39449
1426,12.68467,7.15203,-23.42621,68.53524,65.61646,5.61678,39.6117,4.09153,36.58214,32.06018,56.52925,0.25584,2.37244,0.73537,-0.3824,21.31219,48.02266,3.42997,64.57593,18.9013,39.40493,-21.56796,46.45866,-33.15343,11.15585,-4.24329,-10.57014,-3.46434,-8.72647,-2.13798,2.52613,-0.70642,-4.74066,-0.64913,-2.0422,0.15718,0.28725,-0.16412,-0.89971,-0.3579,-0.04512,-0.04336
1427,14.66015,5.92992,-11.37669,68.41544,63.38625,5.54336,28.50518,-0.02202,17.77786,30.1548,55.37492,1.84998,2.36062,0.86888,0.72057,19.54175,42.9662,3.55223,42.78683,17.00913,10.45013,-44.86829,71.69344,-41.69093,10.26531,-13.74014,-20.01249,-1.13466,-6.28788,0.29053,2.32028,-1.07672,-10.63369,0.21282,-1.44654,1.44563,0.32002,-0.24243,-1.79769,-0.2524,0.04787,0.1785
1428,15.71997,5.16635,-1.99846,69.2961,58.99146,5.7026,14.85059,2.69612,-6.50157,37.38705,48.07362,2.16701,2.22845,1.06817,1.43175,17.49879,37.67098,3.51892,29.33486,18.1839,-32.60931,-43.687,83.72642,-40.5005,3.60743,-16.14996,-21.17239,-4.53187,1.10112,-3.33942,-0.01707,-0.51019,-11.89549,-0.4085,0.47491,0.48164,-0.14454,-0.12764,-1.85297,-0.29012,0.11889,0.03415
1429,13.85153,4.18413,3.92409,71.23402,52.91629,5.85623,10.89296,2.80563,-5.20247,50.40961,38.19053,1.14727,1.85585,0.90393,1.98334,15.34263,32.19332,3.29126,37.33057,14.0162,-44.10656,-12.08729,75.7085,-19.2002,-3.65729,-9.49755,-11.18689,-4.89203,10.18595,-5.61049,-2.51222,0.4382,-6.52004,-0.4433,3.56944,-1.1373,-0.74286,0.14302,-0.70073,-0.10215,0.28085,-0.16924
1430,8.86619,1.82743,6.56748,72.14068,46.43193,5.64805,17.72205,-8.25982,28.51992,58.59737,31.46891,0.03574,1.30905,0.0703,2.35649,13.4336,26.61412,2.95405,58.37558,0.17859,-2.06811,29.82159,55.84332,12.67691,-7.35913,-2.58122,-1.00902,-2.40649,8.19358,-2.29646,-2.50834,0.28137,-2.11284,0.09395,3.52403,-1.86911,-0.82985,0.16193,0.35713,0.24963,0.20148,-0.20729
1431,5.87647,3.58096,1.48116,71.20105,41.81899,4.95912,21.91119,-16.03685,66.44785,57.54917,33.46984,0.6436,1.02353,-0.51105,1.68301,12.02845,21.18297,2.70426,68.88131,0.34786,62.89008,39.65866,37.4459,30.87481,-9.42216,-2.11209,0.0153,-4.27236,-6.89345,3.50856,-0.98729,-0.57049,-4.12846,-1.1966,-1.72727,-1.25198,-0.58109,-0.0399,0.19714,-0.02919,-0.36387,-0.13725
1432,8.56096,14.44183,-5.77397,69.3459,38.11484,4.12035,10.18131,-0.72434,78.76315,51.94368,37.834,2.41669,1.18373,0.24003,0.3749,10.92429,15.94164,2.47266,52.2679,31.01331,97.83041,2.03051,28.38372,22.00838,-9.01363,-3.43284,-2.36904,-5.55287,-16.13512,7.0956,-0.11098,-0.5384,-6.07815,-2.34626,-5.71285,0.7738,-0.42709,0.02385,-0.36235,-0.55852,-0.74888,0.00486
1433,10.90314,26.21023,-5.83004,69.4314,31.99156,3.67755,-10.46328,24.83735,65.98816,54.61897,33.89536,3.14295,1.13727,1.43922,-0.21901,9.89057,10.69611,2.02127,30.79475,64.37895,84.25816,-48.2917,19.01792,-9.91869,-2.09731,-2.40204,-2.60556,-1.42298,-7.97349,3.55813,0.38811,0.23808,-2.44556,-0.54491,-3.12232,1.60581,-0.15387,0.25808,-0.32975,-0.36177,-0.32982,0.01633
1434,8.56135,25.61337,1.12664,73.76304,25.39986,3.43271,-20.11387,29.71914,53.06578,71.68187,28.65326,2.7891,0.72082,1.28887,0.04929,9.09233,5.59766,1.42928,38.26521,69.31582,58.32312,-78.66888,1.7701,-39.05171,6.33904,-0.89704,-2.81094,2.28147,4.48632,-4.10917,0.75543,0.89164,2.3593,1.91988,1.37292,0.06633,0.23582,0.35271,0.04869,0.19981,0.25205,-0.15649
1435,4.32923,13.00491,5.88221,78.82987,21.48449,2.77608,-11.01494,8.27966,49.59142,83.99559,29.37708,2.7188,0.47689,-0.01771,0.15515,8.70736,0.96618,0.8561,59.2224,42.43348,48.17733,-86.89225,-2.90845,-35.11834,6.20621,-0.66591,-3.46696,-0.08361,4.30515,-5.84556,0.15949,1.43988,2.77855,1.94136,1.37051,-0.25734,0.21994,0.38488,0.22635,0.39289,0.1579,0.0017
1436,-2.15054,4.23228,-3.16011,80.79909,19.05052,1.85315,10.06549,-17.13474,42.73817,76.71251,30.94418,3.88031,-0.06083,-0.2606,-0.92132,8.87763,-3.13161,0.28918,65.28252,4.91466,37.79912,-76.58168,22.03284,-3.92761,-2.91912,-2.13586,-4.0396,-7.06526,-4.89201,-1.59822,-0.96129,1.77546,-1.13699,-0.38517,-1.47185,1.45217,-0.13296,0.34515,0.03125,0.1274,-0.25852,0.45703
1437,-13.69431,6.56107,-25.1686,81.02547,14.91101,1.28089,33.45654,-29.55175,22.85641,63.18039,28.68382,5.91647,-1.87004,1.19427,-3.14767,9.7125,-6.84444,-0.33372,65.93242,-17.62654,6.51774,-47.15471,55.10698,22.82745,-10.14509,-2.68915,-2.75118,-8.78496,-8.04893,1.05127,-1.56933,1.51716,-3.96591,-1.41929,-1.92438,2.05248,-0.43715,0.24159,-0.21924,-0.09731,-0.24801,0.50686
1438,-23.61996,6.74971,-48.91536,81.41683,9.50807,0.90107,56.58589,-32.97981,-15.06376,56.11195,26.6042,6.69035,-4.24161,2.03381,-5.80938,10.9196,-10.16158,-0.9392,79.03028,-19.66026,-49.44699,-10.81018,70.49786,28.21249,-7.18596,0.27924,2.45435,0.27351,-2.02406,0.19363,-1.2736,0.6111,-1.9776,1.11531,0.49306,0.48471,-0.50634,0.23036,-0.1713,0.08636,0.1722,-0.00107
1439,-26.09637,1.67386,-71.65324,83.44585,7.21174,0.12582,67.17829,-21.83915,-80.49854,55.99412,29.73047,5.08817,-5.66857,1.50214,-8.97617,12.24307,-12.81926,-1.35965,90.66832,1.37707,-129.92119,2.98586,76.41846,26.28483,1.90367,4.56533,9.31328,10.42199,0.35315,3.93201,-0.11002,-0.8082,2.01784,3.92698,1.14401,0.31921,-0.25929,0.21103,0.16106,0.32013,0.29628,-0.26014
