PaulMeinheit/Bachelor_Muay_Thai/processed_Data/N2/teep/sliced/JointMoments/sliced2.csv
Unnamed: 0_level_0,R_KNEE_MOMENT,R_KNEE_MOMENT,R_KNEE_MOMENT,L_KNEE_MOMENT,L_KNEE_MOMENT,L_KNEE_MOMENT,R_HIP_MOMENT,R_HIP_MOMENT,R_HIP_MOMENT,L_HIP_MOMENT,L_HIP_MOMENT,L_HIP_MOMENT,R_ANKLE_MOMENT,R_ANKLE_MOMENT,R_ANKLE_MOMENT,L_ANKLE_MOMENT,L_ANKLE_MOMENT,L_ANKLE_MOMENT,WAIST_JOINT_MOMENT,WAIST_JOINT_MOMENT,WAIST_JOINT_MOMENT,NECK_MOMENT,NECK_MOMENT,NECK_MOMENT,L_SHOULDER_MOMENT,L_SHOULDER_MOMENT,L_SHOULDER_MOMENT,R_SHOULDER_MOMENT,R_SHOULDER_MOMENT,R_SHOULDER_MOMENT,L_ELBOW_MOMENT,L_ELBOW_MOMENT,L_ELBOW_MOMENT,R_ELBOW_MOMENT,R_ELBOW_MOMENT,R_ELBOW_MOMENT,L_WRIST_MOMENT,L_WRIST_MOMENT,L_WRIST_MOMENT,R_WRIST_MOMENT,R_WRIST_MOMENT,R_WRIST_MOMENT
ITEM,X,Y,Z,X,Y,Z,X,Y,Z,X,Y,Z,X,Y,Z,X,Y,Z,X,Y,Z,X,Y,Z,X,Y,Z,X,Y,Z,X,Y,Z,X,Y,Z,X,Y,Z,X,Y,Z
666,0.96041,-0.05557,-0.08444,3.29169,-3.81697,0.71026,11.00457,-1.79893,-0.2218,6.43715,0.58776,3.24208,0.12917,-0.12581,0.03655,1.66758,-3.00011,0.52706,14.72672,-5.83877,5.67191,-5.51885,-9.20022,-0.42001,4.94131,-0.02878,-1.73267,-2.79047,1.3027,0.45493,1.87825,-1.36333,0.1486,-0.33417,0.13312,-0.00455,0.26885,-0.14588,0.02928,-0.01914,0.00604,0.00235
667,-0.67947,0.07417,-0.07812,1.89171,-5.23492,1.01873,0.4346,2.77566,-0.25254,3.77611,-6.43304,2.76142,0.04124,-0.10287,-0.01338,1.23217,-2.38266,0.43329,-3.49642,-6.56821,0.08722,-8.74716,-21.9752,0.56579,5.16817,-0.34837,-1.8165,-4.26599,2.51751,0.36949,1.97944,-1.0887,0.1158,-0.69425,0.84228,-0.16546,0.23385,0.15651,0.04613,-0.03465,0.20213,-0.06141
668,-1.36395,-0.45021,-0.04057,0.3646,-5.63342,1.22674,-6.24696,0.19099,-0.34529,-1.75426,-9.26779,2.0316,0.05439,-0.12226,-0.03559,0.96159,-1.92492,0.41204,-16.09841,-9.25166,-1.34835,4.1997,-41.13948,0.2844,2.81225,0.40763,-1.08823,-3.99518,3.03722,0.05783,1.16155,-0.90116,-0.10726,-0.45999,0.84483,-0.2187,0.00435,0.33724,0.02489,-0.02859,0.23157,-0.08487
669,-0.35353,-2.03932,-0.03728,-0.49592,-2.43297,0.47164,-2.47587,-10.47005,-0.54999,-2.52042,-5.60838,0.88546,0.18186,-0.24888,-0.03536,0.38513,-0.5355,-0.03955,-6.12677,-16.13569,1.19288,19.84064,-50.44592,-0.42993,0.31378,1.38653,-0.24453,-3.41787,2.92835,-0.30325,0.34426,-0.99521,-0.33758,-0.34119,0.32105,-0.21506,-0.15968,0.28006,-0.01549,-0.11827,0.12081,-0.08715
670,1.2483,-2.98056,-0.02161,-1.24193,-1.07006,0.43647,5.57306,-17.1821,-0.37487,-2.4665,-3.70095,0.50057,0.36268,-0.40335,-0.0193,0.25813,-0.4035,0.08982,7.00886,-23.85155,3.99092,27.50191,-53.52714,-2.8603,-0.16626,2.19282,0.08007,-3.18219,3.87234,-1.1744,0.27364,-0.98207,-0.33132,-0.44841,0.12117,-0.15039,-0.0733,0.05322,-0.04495,-0.19886,0.01897,-0.05224
671,2.16479,-1.47053,0.08766,-1.4422,0.15147,0.23476,10.96794,-10.83692,0.52529,-0.07057,-3.25355,-0.26473,0.47375,-0.38602,0.02927,0.16314,-0.31214,0.1407,16.26536,-16.8115,2.31697,23.81522,-52.98488,-9.26756,1.13694,1.1209,-0.46932,-3.44908,5.96333,-2.20766,0.59534,-1.02982,-0.25496,-0.62916,0.62578,-0.10067,0.11933,-0.21568,-0.07145,-0.18578,0.03062,-0.00709
672,2.28301,1.02744,0.18588,-0.83754,0.99775,-0.09792,13.73427,0.90403,1.35227,4.05061,-2.10334,-0.97725,0.44736,-0.21133,0.07101,0.19326,-0.32076,0.08973,21.97203,0.77965,-1.08877,10.63899,-46.67241,-14.90145,2.57767,-1.98224,-1.44165,-3.97435,6.52449,-2.2056,0.77384,-1.62488,-0.31476,-0.89128,1.02459,-0.15561,0.20868,-0.41075,-0.07804,-0.1814,0.07254,-0.01354
673,1.84578,1.48793,0.08091,-0.17279,0.9972,-0.25068,13.06171,4.47649,0.92698,6.39399,-0.32801,-0.85179,0.35508,-0.13451,0.02641,0.25374,-0.33693,-0.00406,19.80593,10.78936,-2.49778,-3.31881,-43.39066,-10.97262,2.71017,-3.16792,-1.54744,-3.50213,4.34994,-1.11694,0.87316,-2.40861,-0.33256,-0.8234,0.60127,-0.24678,0.19464,-0.47612,-0.0438,-0.1823,0.03199,-0.06045
674,1.16909,-0.03362,-0.12229,-0.60156,-0.05287,-0.04345,7.57001,-1.3485,-0.33282,2.83341,-1.18824,-0.00396,0.32699,-0.25576,-0.06835,0.22701,-0.31744,-0.1029,4.97226,3.27211,-1.4419,-9.3485,-50.1406,1.93014,1.42819,0.31831,-0.35498,-2.12995,1.74597,-0.02789,0.94802,-2.42588,-0.13885,-0.26734,-0.20841,-0.2043,0.15256,-0.40623,-0.00029,-0.10166,-0.06251,-0.0691
675,0.77447,-1.38596,-0.15718,-1.4289,-0.6111,0.18385,1.63398,-7.17341,-0.81763,-2.19904,-3.25214,0.64396,0.37292,-0.41936,-0.10045,0.19256,-0.28144,-0.13623,-8.00677,-9.64655,0.33543,-2.30762,-57.41454,9.63961,0.84779,4.23948,0.50758,-2.06936,1.67148,0.28147,0.92903,-1.81286,0.06756,0.0704,-0.36571,-0.04343,0.08551,-0.27062,0.006,-0.01329,-0.07055,-0.0189
676,0.57503,-1.86779,-0.01506,-1.21334,0.30125,0.09626,-0.63165,-7.18786,-0.04961,-2.79832,-2.13744,0.40662,0.38216,-0.47116,-0.04335,0.27307,-0.26618,-0.06063,-6.79226,-10.79791,1.3039,15.15331,-56.30432,3.51855,1.80147,3.60557,-0.11609,-3.82159,3.93639,-0.10562,0.68495,-1.4013,0.02949,-0.09566,0.28683,0.08708,-0.03363,-0.1468,-0.02586,0.02137,0.03247,0.03967
677,-0.29843,-1.98553,0.08068,-0.33988,0.98289,-0.0953,-2.38292,-4.03311,0.70618,-1.8523,0.95104,-0.4112,0.27942,-0.40565,0.01456,0.41115,-0.31349,0.03177,-4.28855,-1.3111,1.03867,24.96062,-49.43937,-5.11868,1.9953,0.98202,-0.85261,-4.58984,5.81742,-0.81717,0.20224,-1.11122,-0.18145,-0.06655,0.89442,0.11794,-0.16448,-0.01551,-0.05781,0.086,0.12855,0.06057
678,-1.48616,-1.8602,0.00978,0.06625,0.30511,-0.11594,-5.01042,-2.19771,0.49143,-1.74202,2.14695,-0.98711,0.16238,-0.32383,-0.00837,0.46947,-0.38227,0.04837,-8.1354,5.34461,-0.16183,11.98329,-40.12851,-3.72755,0.9482,0.65574,-0.5093,-2.93957,5.35421,-1.36051,0.04894,-0.80678,-0.26616,0.40686,0.60818,0.11792,-0.14866,0.08182,-0.05743,0.18063,0.08814,0.05462
679,-1.49267,-1.53919,-0.12907,-0.34443,-0.02448,-0.09653,-4.5277,-2.84901,-0.17514,0.12582,2.77077,-1.02245,0.20446,-0.32318,-0.08765,0.38889,-0.38009,0.00239,-7.47633,4.56799,-1.39289,-11.57323,-29.91929,3.27782,0.86393,1.29839,0.0086,-1.55823,3.23349,-1.2073,0.59089,-1.09575,-0.11801,0.52262,-0.44906,0.16874,0.07788,0.00366,-0.01439,0.16509,-0.09703,0.06274
680,-0.20248,-1.07726,-0.16543,-0.87901,1.50782,-0.21195,-0.28163,-3.6268,-0.5054,3.41797,6.78103,-0.62001,0.36791,-0.35853,-0.10935,0.25852,-0.28213,-0.02775,0.41178,5.22534,-1.25207,-20.01033,-24.93604,5.84585,1.60489,0.3732,-0.07194,-2.57649,1.96944,-0.54998,1.09783,-2.09069,-0.02195,-0.15817,-1.09947,0.20432,0.30007,-0.24156,0.0395,-0.01951,-0.24389,0.07962
681,0.91087,0.00348,-0.04733,-0.57079,3.43494,-0.3074,3.60128,-1.34531,-0.48337,4.14685,12.10435,0.28523,0.41247,-0.29472,0.0029,0.23539,-0.16235,0.00532,4.92292,13.13788,0.57835,-6.14254,-30.33026,2.45732,1.48874,-0.47533,-0.29928,-4.6338,2.98279,-0.12596,0.86643,-2.67047,-0.14632,-1.00018,-0.51395,0.10162,0.27983,-0.38955,0.04728,-0.24311,-0.16344,0.05774
682,0.91305,1.28762,0.08894,0.31198,3.69909,-0.21936,3.94395,2.26536,-0.5734,0.80792,13.0313,1.26815,0.28036,-0.1724,0.157,0.33843,-0.12862,0.05881,0.02442,20.02595,2.10676,11.86723,-39.89227,-1.86304,1.35363,1.21309,-0.38818,-5.48795,4.74203,-0.16559,0.33169,-1.92184,-0.19541,-1.18824,0.53944,-0.07668,0.07383,-0.2458,0.00474,-0.31444,0.05655,-0.00304
683,0.23575,1.07408,0.09866,0.40324,2.95369,-0.09475,0.51646,0.94301,-0.91087,-4.59364,10.41365,1.25482,0.21282,-0.19726,0.18988,0.424,-0.18324,0.08968,-11.59965,16.16247,1.8344,12.99955,-42.27587,-2.71095,2.00521,3.83166,-0.49261,-4.61697,4.8839,-0.32748,0.04491,-0.57227,-0.08253,-0.75656,0.77985,-0.13303,-0.10575,0.00459,-0.05012,-0.22004,0.15984,-0.04101
684,-0.43865,-0.89603,0.01342,-0.96311,2.74342,-0.07788,-4.38763,-6.32904,-1.20188,-9.30334,8.89841,0.16505,0.34178,-0.38146,0.09334,0.36973,-0.21113,0.09843,-23.01262,3.8277,0.88373,-2.97169,-35.98263,0.19443,1.51911,4.39792,-0.29513,-3.20503,3.41002,-0.37019,-0.14034,0.26106,-0.09238,-0.36973,0.17111,-0.03019,-0.16634,0.1255,-0.084,-0.11192,0.06524,-0.01697
685,-0.91046,-2.51011,-0.06916,-3.0505,2.34366,-0.04223,-6.6528,-12.02487,-1.25541,-11.25259,6.60705,-0.6875,0.44588,-0.4649,-0.00232,0.17672,-0.1677,0.0373,-25.27207,-8.72519,-0.0329,-17.8163,-28.20947,2.59724,-0.43164,2.88547,0.40791,-2.84027,2.14393,-0.24376,-0.23103,0.31869,-0.13924,-0.42131,-0.39619,0.06882,-0.12737,0.1132,-0.06117,-0.07858,-0.09445,0.03588
686,-1.56175,-2.42473,-0.18435,-3.83531,0.50747,0.05346,-5.71716,-11.39881,-1.39616,-8.10191,-0.19466,-0.70636,0.32424,-0.34352,-0.05505,0.02168,-0.15725,-0.09863,-15.78444,-17.35722,-2.46245,-15.10364,-23.99218,-0.0417,-0.93644,1.77003,1.02459,-3.701,2.04227,-0.01322,0.09041,-0.11853,0.13381,-0.67299,-0.46073,0.05057,-0.01615,0.0531,0.02715,-0.07531,-0.16407,0.05782
687,-2.38185,-1.30035,-0.33266,-2.32411,-1.87426,0.0633,-4.5694,-7.71274,-1.84018,-0.97811,-8.61319,-0.76487,0.15352,-0.21856,-0.09288,0.0896,-0.27818,-0.18872,-3.48717,-21.89709,-6.83169,2.48027,-23.45274,-5.17686,0.47174,2.45323,1.00341,-4.30265,2.3005,0.15054,0.4539,-0.68309,0.40326,-0.70572,-0.37358,-0.01342,0.07771,-0.0223,0.09544,-0.06058,-0.11581,0.03282
688,-2.60559,-0.03039,-0.36907,0.13828,-2.73736,-0.03647,-4.50541,-5.05228,-2.16056,5.21404,-12.88706,-1.30488,0.19393,-0.22646,-0.09391,0.31749,-0.43539,-0.12072,1.75271,-23.37554,-10.31731,15.14172,-22.48192,-5.42341,0.85596,3.30033,0.42033,-4.01785,1.9168,0.25791,0.14134,-1.03559,0.02565,-0.57588,-0.49416,-0.049,0.04066,-0.07357,0.04899,-0.07905,-0.03547,-0.01347
689,-1.84589,0.37985,-0.29239,1.82995,-1.84411,-0.08252,-4.90506,-4.7356,-2.05042,7.10702,-12.06847,-1.45785,0.42435,-0.3508,-0.09241,0.48891,-0.48573,0.04932,-1.77311,-23.89656,-9.74955,10.48376,-17.6432,0.69282,-0.84607,2.30189,-0.29229,-4.12696,1.08022,0.50855,-0.70165,-0.90423,-0.80398,-0.70206,-0.68607,-0.08931,-0.10809,-0.00898,-0.06869,-0.16202,-0.01361,-0.04652
690,-0.88219,-0.62735,-0.29799,2.01178,-1.2391,0.04344,-5.80205,-5.17708,-1.80047,5.19562,-10.83956,-0.53413,0.59401,-0.52557,-0.18106,0.47199,-0.45237,0.12608,-8.95105,-23.88424,-6.29992,0.65133,-13.46862,7.17356,-2.61037,0.50091,-0.57387,-5.14452,0.62627,0.80253,-1.2112,-0.37626,-1.24126,-1.06756,-0.70265,-0.12527,-0.21304,0.15635,-0.12632,-0.22568,-0.05993,-0.03533
691,-1.56785,-1.86548,-0.49599,0.81161,-1.5165,0.20881,-10.1554,-3.99978,-2.08398,1.84399,-10.86139,0.75045,0.46797,-0.61358,-0.34667,0.30868,-0.37255,0.04006,-16.82033,-19.97634,-4.61456,5.41504,-17.72817,9.1064,-2.47893,0.42208,-0.07216,-5.48795,0.56718,0.82502,-0.82589,-0.01799,-0.83438,-1.13044,-0.64734,-0.05552,-0.14053,0.23806,-0.05735,-0.1756,-0.12631,0.02426
692,-4.6006,-1.60047,-0.74595,-0.77868,-9.37109,-0.07405,-18.99377,-1.61241,-3.01825,0.35689,-23.36253,0.692,0.08356,-0.5012,-0.45676,-2.50044,-0.73134,-0.90445,-25.81714,-27.94011,-7.82386,24.61927,-29.34528,7.02759,-0.56535,2.4151,0.94359,-3.95151,0.39084,0.48072,0.18036,-0.1502,0.11911,-0.67979,-0.68575,0.09744,0.06771,0.14896,0.08712,-0.07087,-0.1571,0.07695
693,-7.73339,0.48764,-0.80943,-0.97176,-9.70034,-0.32887,-24.68019,0.34029,-3.45881,-0.21165,-19.22711,-0.42024,-0.28722,-0.21999,-0.41465,-3.3642,-0.49133,-1.02678,-29.23581,-18.95679,-8.56682,37.85966,-36.99797,4.23602,1.53597,4.7875,1.81568,-2.05845,0.32436,0.00118,1.04146,-0.33148,0.99247,-0.33589,-0.63994,0.09874,0.23323,0.03221,0.20634,-0.08155,-0.11251,0.04292
694,-8.16499,3.50904,-0.5885,-0.85381,-10.19302,-0.58073,-18.49007,2.18753,-2.40057,-0.18531,-16.16428,-1.45792,-0.45023,0.12092,-0.22626,-4.33827,-0.26276,-1.15188,-21.29756,-14.69691,-5.99649,31.63647,-31.45502,2.29335,2.04095,5.83233,2.0195,-2.02614,0.92942,-0.26687,1.1316,-0.16034,1.17765,-0.58109,-0.36479,-0.14084,0.23379,0.01516,0.22015,-0.23001,-0.02079,-0.06865
695,-6.59359,6.45908,-0.27533,-0.85073,-11.62765,-0.64381,-6.3147,4.80512,-0.98904,1.3782,-21.36829,-0.89412,-0.47471,0.43873,0.0122,-5.54284,0.05602,-1.37357,-8.78904,-22.52098,-4.10325,17.11273,-18.13674,-0.52404,0.22438,4.6773,1.4109,-3.21199,1.99813,-0.2333,0.39648,0.03327,0.42451,-0.81982,-0.04168,-0.3328,0.1095,0.04936,0.11518,-0.2997,0.06047,-0.14293
696,-5.70542,8.34315,-0.14866,0.01602,-14.4246,-0.54806,-1.68287,7.47867,-0.84741,5.24282,-35.06606,0.63563,-0.48257,0.63253,0.14304,-6.82375,0.51261,-1.62842,-5.24275,-40.25069,-6.43823,13.40726,-13.00345,-4.7319,-2.15331,1.94476,0.3647,-3.57697,2.19482,0.089,-0.50287,-0.18325,-0.62247,-0.50098,-0.05995,-0.20111,-0.01089,0.04684,-0.01427,-0.16823,0.08887,-0.09784
697,-5.74273,8.41061,-0.18284,1.51521,-17.87124,-0.56555,-5.43888,8.96533,-1.07455,8.62317,-46.72781,0.76489,-0.41286,0.58509,0.07787,-8.02337,1.05633,-1.83015,-10.56097,-52.5452,-9.2813,18.46696,-21.83354,-5.84405,-2.35286,-0.26052,-0.33885,-3.1767,0.80209,0.66965,-0.76601,-0.62359,-0.8934,-0.17402,-0.49057,0.08395,-0.04792,0.01387,-0.03889,-0.01234,0.05963,0.00893
698,-5.91041,7.53557,-0.19603,2.89369,-19.90873,-0.87859,-10.52055,10.267,-0.23239,11.66848,-46.85529,-1.26357,-0.23108,0.34778,-0.10469,-9.16376,1.73954,-1.94873,-13.4183,-48.03596,-8.88068,15.76166,-32.05841,-1.09504,-0.51249,-0.40346,-0.21479,-3.12497,-0.7271,1.06046,-0.36694,-0.75977,-0.27627,-0.41133,-0.83032,0.1628,-0.02782,0.01965,0.04072,-0.01797,0.02773,0.05441
699,-7.1599,7.43959,-0.24927,4.53221,-19.10272,-1.30349,-16.35457,12.88845,0.39132,17.3398,-38.36896,-3.22857,-0.14183,0.13977,-0.2859,-10.29742,2.73129,-2.00269,-12.51799,-33.5196,-8.27775,4.79532,-31.2579,4.56242,0.82731,0.80724,0.37661,-2.9998,-1.16157,0.86438,0.0797,-0.39246,0.35098,-0.73993,-0.93892,0.05397,-0.01218,0.09657,0.10519,-0.10302,-0.02071,0.03065
700,-9.75143,8.02971,-0.42879,5.6305,-16.18222,-1.56462,-24.30536,14.48322,-1.17066,21.30085,-30.91407,-3.13223,-0.28622,0.10593,-0.39725,-11.45458,4.08778,-2.07877,-19.71842,-25.4102,-11.46063,0.36593,-21.01074,5.54392,0.56173,1.89764,0.72778,-2.43348,-1.23949,0.55455,0.18889,0.11404,0.36856,-0.6212,-1.15019,-0.00488,-0.01108,0.18666,0.08146,-0.09643,-0.14531,0.02503
701,-10.96526,7.58652,-0.52439,4.43375,-13.36801,-1.63786,-29.01646,11.79068,-3.93087,16.10639,-29.48197,-1.80088,-0.43646,0.18608,-0.36174,-12.56643,5.61329,-2.24501,-38.45059,-30.77389,-16.53552,7.59911,-10.50264,3.23002,-0.35318,2.64463,0.65056,-3.02858,-1.19872,0.68454,0.04537,0.27245,-0.06709,-0.55136,-1.21523,-0.09162,0.00295,0.20495,0.00629,-0.03412,-0.24369,0.03159
702,-8.64404,4.96734,-0.37966,2.09738,-12.11659,-1.66803,-25.40108,4.89698,-5.39697,5.80022,-31.01819,-1.03547,-0.34055,0.20619,-0.19407,-13.41694,7.06036,-2.42455,-53.45427,-41.77362,-18.06799,18.8197,-8.58182,2.40918,-1.11548,3.39058,0.52559,-4.82143,0.00691,0.74375,-0.15962,-0.06606,-0.48338,-0.92277,-0.60535,-0.35272,0.03236,0.11624,-0.04214,-0.05117,-0.14736,-0.02737
703,-3.6686,1.44515,-0.11487,1.87079,-12.7703,-1.76206,-14.61759,-1.59814,-4.35181,2.71291,-32.48461,-1.36869,-0.03661,0.09904,0.00573,-13.91028,8.3025,-2.53835,-46.75614,-48.82006,-14.14328,25.51911,-17.48442,4.85097,-1.85857,4.05242,0.6841,-4.70086,1.84373,0.16642,-0.34694,-0.57128,-0.60885,-1.00369,0.29513,-0.51268,0.04737,-0.02002,-0.02845,-0.11437,0.08737,-0.12069
704,0.70171,-0.61271,0.05978,4.691,-14.60956,-1.92384,-3.23836,-3.29464,-1.80358,11.79429,-33.91425,-2.07557,0.252,-0.07712,0.15401,-14.23898,9.44126,-2.61129,-20.57806,-50.09453,-8.63858,22.83821,-28.23853,8.06102,-2.1082,4.4563,1.04178,-1.93466,2.22882,-0.43158,-0.36018,-0.7999,-0.39213,-0.35943,0.47883,-0.26662,0.04494,-0.09472,0.02712,-0.12129,0.20698,-0.13065
705,1.36678,-0.28631,0.13279,7.78003,-14.75416,-2.06608,1.09201,-1.32259,-0.02809,24.56915,-31.67033,-2.07975,0.34885,-0.25667,0.22669,-14.69188,10.83743,-2.65061,1.22185,-45.507,-5.59816,13.47332,-29.18774,8.04883,-1.11401,4.33323,1.18402,-0.10493,0.87058,-0.24594,-0.13848,-0.70103,-0.02053,0.19104,-0.27603,0.14945,0.03719,-0.06996,0.06997,-0.10255,0.08589,-0.04219
706,-1.03008,1.98211,0.16239,7.83679,-11.00028,-2.17366,-2.73631,1.61527,-0.02718,28.05262,-22.45863,-1.491,0.28009,-0.34684,0.24037,-15.35972,12.63584,-2.67214,-2.38662,-34.01679,-5.45264,9.98062,-19.5542,3.26251,0.1307,3.12444,0.88246,-1.67084,-0.64687,0.6094,0.05168,-0.55309,0.16603,-0.10347,-1.16165,0.28906,0.02348,-0.00427,0.07046,-0.12547,-0.12579,0.04373
707,-3.60412,4.42133,0.07416,5.45597,-5.90306,-2.33864,-10.38478,3.69538,-1.19572,20.6548,-13.07009,-1.57195,0.14069,-0.30305,0.11869,-16.00202,14.49176,-2.73549,-27.48279,-23.03834,-7.57291,19.4575,-9.96723,-3.28409,-0.1172,0.97726,0.43002,-4.81134,-1.14691,1.42429,-0.01834,-0.46873,0.06573,-0.80007,-1.37807,0.09922,0.00998,0.0456,0.05747,-0.15116,-0.19594,0.05448
708,-5.00741,4.72961,-0.0507,3.66848,-3.66712,-2.50531,-17.21329,2.4679,-2.69415,13.03821,-13.45921,-2.50399,-0.01815,-0.20622,-0.15999,-16.37683,16.17868,-2.80423,-50.70129,-26.07735,-11.27839,29.1059,-9.37199,-6.33739,-1.56288,-0.33987,0.16789,-6.38736,-0.67316,1.57662,-0.31094,-0.30146,-0.18943,-1.09943,-0.98343,-0.14353,-0.01578,0.07406,0.04036,-0.13421,-0.09548,0.00352
709,-4.92316,3.35924,-0.06207,3.58727,-4.54903,-2.45571,-18.06228,-0.04621,-3.32276,13.12932,-22.83345,-3.16251,-0.08342,-0.12446,-0.33799,-16.54001,17.90578,-2.71021,-53.48032,-41.6849,-14.53707,24.30856,-13.30923,-3.8243,-2.04206,0.87352,0.1263,-5.22686,-0.07619,1.02892,-0.55714,-0.02607,-0.38845,-0.81855,-0.59787,-0.22453,-0.057,0.0837,0.00423,-0.08605,-0.00881,-0.04235
710,-3.54309,2.44051,-0.00053,3.87836,-5.74787,-2.1341,-11.946,0.89505,-2.12161,16.99884,-31.25887,-2.88304,0.0083,-0.12843,-0.2291,-16.71041,19.79481,-2.39742,-42.34562,-52.65928,-14.89814,12.34491,-8.89192,0.4177,-0.94658,3.75088,0.23688,-2.74353,0.11128,0.32152,-0.51268,0.18899,-0.37644,-0.35367,-0.43027,-0.16208,-0.06213,0.06924,-0.02063,-0.03008,-0.02678,-0.03869
711,-2.72872,1.79792,0.24282,3.43226,-5.65377,-1.68803,-7.08282,2.82431,-0.22304,17.04114,-32.79239,-1.67532,0.0895,-0.31419,-0.03352,-17.10436,21.65396,-2.03454,-40.26765,-52.81247,-11.79208,7.13293,6.30485,1.65073,-0.29316,5.72465,0.39639,-1.49062,0.55917,-0.17591,-0.34821,0.34412,-0.28409,-0.26864,-0.17454,-0.11885,-0.01386,0.06521,-0.00511,-0.03517,-0.02018,-0.02284
712,-3.50536,0.53741,0.74311,2.37268,-3.5899,-1.2568,-9.58575,1.03797,0.23549,11.96699,-26.08436,-0.06114,0.04036,-0.56655,0.04766,-17.83875,23.34115,-1.70384,-55.30674,-45.35756,-7.25691,8.44946,14.26313,1.12275,-0.97937,5.29952,0.42327,-2.37373,1.72226,-0.50769,-0.29911,0.4471,-0.26669,-0.66937,0.10024,-0.16162,0.03241,0.10494,0.02588,-0.15125,0.07138,-0.04484
713,-3.77514,-0.54202,0.97532,1.12295,1.2121,-0.89451,-12.46802,-2.13367,-0.77646,6.20864,-10.00463,0.65661,0.00314,-0.67008,0.0649,-18.78444,24.84543,-1.23732,-68.75201,-25.94784,-4.01979,12.57773,-4.43113,3.32342,-1.28968,3.05879,0.24191,-3.51302,2.32808,-0.5778,-0.24777,0.26102,-0.23113,-0.93842,-0.12052,-0.16497,0.02573,0.1547,0.03361,-0.26288,0.09024,-0.07382
714,-2.00637,-1.0046,0.60677,-0.15521,6.43737,-0.54872,-8.31136,-4.04505,-1.46293,3.29134,6.93003,-0.21059,0.08036,-0.62354,0.08006,-19.65387,26.08623,-0.53946,-64.9922,-2.61978,-3.21738,23.59704,-40.0063,7.23129,-0.24489,0.88114,0.00334,-3.2236,1.2576,-0.2065,-0.08673,-0.30157,-0.11745,-0.62803,-0.80999,-0.06993,-0.03349,0.164,0.009,-0.21046,-0.06107,-0.0532
715,0.55374,-1.27568,0.1055,-1.50189,7.86312,-0.04539,-0.56529,-5.70284,-0.68006,2.66962,10.50216,-1.34507,0.2282,-0.52356,0.11967,-20.24517,27.01909,0.25874,-52.09226,2.05715,-3.32763,39.05865,-55.6327,7.23158,1.13905,0.28939,-0.00302,-2.73975,-0.60866,0.42465,0.14224,-0.85903,0.03909,-0.31633,-1.25345,-0.07811,-0.0752,0.11861,-0.01113,-0.05348,-0.22602,-0.01034
716,1.40919,-1.56856,0.13827,-3.54042,5.71967,0.73045,2.03127,-8.08475,1.01963,0.57565,2.0743,-0.87582,0.3098,-0.4479,0.16277,-20.58737,27.79514,1.01565,-49.84055,-14.86873,-1.69179,42.73771,-30.29358,2.09493,1.71387,0.75078,0.2557,-3.72024,-1.90463,0.9683,0.34608,-1.01451,0.19991,-0.66109,-1.17872,-0.27222,-0.03392,0.00278,0.00256,-0.01531,-0.23658,-0.01074
717,-0.04443,-1.59808,0.63793,-7.23403,3.99802,1.66051,-2.26264,-11.01227,2.27678,-7.52483,-3.88114,1.30051,0.21986,-0.4562,0.13926,-20.88853,28.46141,1.66759,-67.34406,-32.85238,2.43416,26.7414,9.65847,-2.59532,0.61211,0.00956,0.33446,-5.15561,-2.14903,1.25173,0.17009,-1.09032,0.12209,-1.14562,-0.93223,-0.34284,0.03722,-0.2162,0.00404,-0.11238,-0.10389,-0.03754
718,-1.67962,-1.14891,0.88456,-11.37084,5.09383,2.52176,-6.40623,-13.41737,2.43553,-19.34375,0.95743,3.51536,0.06187,-0.54122,0.05392,-21.28222,28.75212,2.28634,-90.44364,-33.87511,7.26764,3.71223,21.63442,-1.50532,-1.8474,-2.44914,-0.00936,-5.08606,-1.48425,1.17797,-0.47799,-1.54719,-0.3016,-1.02301,-0.77391,-0.08103,0.05704,-0.43657,-0.03614,-0.16746,0.03792,-0.02155
719,-1.74742,-0.8842,0.67635,-14.42046,7.42097,3.16921,-5.3719,-13.40792,2.04752,-29.0623,10.49093,4.24127,0.01795,-0.66917,-0.0054,-21.85739,28.46628,2.94066,-101.70525,-20.10825,9.69177,-9.38501,1.64445,3.5954,-2.97839,-3.82989,-0.27956,-3.38302,-0.29339,0.64086,-0.75359,-1.85809,-0.57372,-0.53635,-0.75482,0.25725,0.06578,-0.40104,-0.05574,-0.14996,0.04433,0.03935
720,-0.59648,-1.27203,0.41592,-16.47944,8.36439,3.63721,-2.09208,-10.08037,1.35212,-32.48339,15.15187,3.80886,0.14049,-0.7742,0.03836,-22.71548,27.83503,3.58096,-98.70584,-5.21048,8.03722,-5.58549,-18.26723,5.43646,-1.38516,-2.2608,-0.09284,-1.88557,1.52853,-0.31244,-0.16509,-1.41543,-0.35146,-0.31984,-0.56655,0.25977,0.09526,-0.07522,-0.01665,-0.1317,-0.05448,0.06598
721,0.41899,-1.67355,0.27547,-17.49931,7.75746,4.13238,-1.34834,-5.68788,-0.20653,-27.814,12.55508,4.00793,0.30905,-0.77796,0.14841,-23.78057,27.27087,4.19429,-88.17204,0.41725,4.09496,9.15948,-15.65465,0.10979,1.34194,0.41373,0.28173,-2.65891,4.10562,-1.24896,0.69866,-0.71461,0.12884,-0.54919,0.12256,-0.15368,0.12269,0.22799,0.06143,-0.09589,-0.09239,0.02129
722,1.08211,-1.32871,-0.02228,-17.60808,6.68419,4.74287,-0.77038,-3.04269,-1.84037,-19.6309,3.94152,5.36046,0.39787,-0.69578,0.23374,-24.86012,26.88098,4.79139,-75.75627,-7.06949,0.81069,22.03181,1.18406,-8.2597,3.20122,1.36161,0.44248,-5.44699,5.79927,-1.43852,1.11334,-0.61886,0.50892,-0.97905,0.77497,-0.58471,0.13039,0.22146,0.1301,-0.0395,-0.02887,-0.03747
723,1.84441,-0.42656,-0.44871,-18.24151,5.37471,5.20169,2.22717,-2.9742,-1.45017,-16.36995,-6.66683,6.02513,0.41156,-0.61518,0.27044,-25.89223,26.37587,5.26388,-68.31132,-21.1705,0.01976,27.73462,7.6571,-11.60707,3.01317,0.2408,0.31092,-7.16322,3.88998,-0.41739,0.81539,-1.16482,0.55169,-1.17229,0.31342,-0.50742,0.08388,-0.04997,0.13371,-0.03583,-0.00013,-0.03434
724,2.29871,-0.60761,-0.29625,-20.27034,4.05806,5.29511,3.15166,-7.47783,1.47136,-20.04042,-11.70617,5.00938,0.4123,-0.64395,0.29736,-26.97177,25.56849,5.52071,-71.24231,-31.00432,3.08965,30.64266,-7.51106,-5.72728,1.57324,-0.62246,0.17346,-5.54959,-0.85885,1.11701,0.39174,-1.64647,0.33754,-0.8658,-1.01682,0.05335,0.05919,-0.29557,0.07852,-0.11265,-0.04518,0.01269
725,2.24632,-2.38106,0.42994,-22.6191,3.32009,5.25816,1.41715,-15.21115,4.3349,-25.1392,-9.91484,4.0877,0.40435,-0.77971,0.34057,-28.20687,24.68911,5.64242,-76.99657,-34.1792,8.32335,31.21024,-26.65913,4.76905,1.03016,0.11642,0.2502,-2.63927,-3.88735,1.81005,0.61331,-1.73028,0.12497,-0.44408,-1.64099,0.45686,0.14555,-0.35592,0.0011,-0.2108,-0.01393,0.0114
726,1.91263,-3.67286,0.825,-23.77185,3.02848,5.31894,1.59827,-18.71284,4.56979,-26.32727,-8.05211,4.34955,0.32819,-0.8608,0.34673,-29.57953,23.96179,5.75178,-74.45724,-34.66826,10.48574,24.73818,-26.49678,11.01164,1.49455,0.49365,0.37289,-2.14159,-3.46642,1.52375,1.09448,-1.86464,-0.0325,-0.55868,-1.25525,0.31449,0.21442,-0.35411,-0.07501,-0.26107,0.08532,-0.05003
727,1.14806,-3.00519,0.6532,-23.68936,2.09155,5.3384,2.26831,-14.1691,2.8863,-24.18876,-11.60785,4.32576,0.2038,-0.76354,0.25582,-30.94985,23.30039,5.87069,-68.09514,-36.12702,6.82502,15.1472,-9.10281,8.77006,1.27922,-1.63275,0.28778,-3.90556,-2.06163,1.06493,1.04321,-2.44588,-0.15443,-1.04194,-1.07546,-0.05476,0.16546,-0.40075,-0.10167,-0.21535,0.01264,-0.07626
728,-0.0075,-0.98615,0.28641,-23.16902,0.44776,5.25988,-0.06008,-5.83373,1.17792,-22.67599,-18.0559,3.4716,0.10872,-0.51808,0.09457,-32.20879,22.66439,6.00431,-67.86197,-37.44332,1.01687,14.07691,5.30657,1.16429,0.00702,-4.08807,0.04066,-4.6022,-0.66166,0.48971,0.5894,-2.80572,-0.1435,-1.03883,-1.21601,-0.2316,0.1102,-0.36696,-0.03991,-0.06526,-0.22132,-0.02014
729,-0.47871,0.713,-0.1347,-22.43215,-0.66392,5.23508,-1.88643,0.31912,-0.05778,-21.17994,-20.93951,3.31772,0.08004,-0.26215,-0.02832,-33.39923,22.18498,6.1324,-67.40781,-34.10402,-1.5967,22.36112,5.95097,-5.79487,-0.87371,-3.47833,-0.18779,-4.18756,1.74929,-0.42556,0.39164,-2.31249,-0.01458,-0.79528,-0.73438,-0.3119,0.15224,-0.19419,0.04452,0.00468,-0.3087,0.0212
730,0.15243,1.15828,-0.50011,-21.49831,-1.57669,5.16401,-0.33007,1.62266,-0.82278,-15.64598,-21.82995,4.24022,0.09239,-0.08622,-0.04461,-34.63727,21.84977,6.09194,-56.7238,-31.41958,-0.81726,28.1326,-0.83091,-8.74155,-0.1372,-1.39027,-0.40027,-4.55242,4.06408,-1.09989,0.64846,-1.81215,0.01425,-0.96463,0.20688,-0.42177,0.22314,-0.10715,0.04129,-0.12035,-0.13146,-0.02001
731,0.46497,0.38528,-0.35775,-20.28706,-3.75586,4.7635,-0.05489,-3.18085,-0.13366,-6.081,-27.57686,4.65161,0.06659,-0.03578,-0.00037,-35.85745,21.47696,5.7725,-42.33721,-43.23478,0.89256,25.97267,-4.65344,-8.8277,1.7577,-2.35753,-0.6306,-4.67456,3.60982,-0.77603,1.11218,-2.48399,-0.16789,-1.0063,0.3378,-0.27492,0.24615,-0.30304,-0.05832,-0.22186,0.06952,-0.05874
732,-0.02591,-1.00621,0.30546,-19.26374,-6.97295,3.99026,-3.02423,-11.1762,2.27282,0.33755,-36.48359,3.34549,0.00805,-0.11942,0.05336,-36.83685,20.94314,5.27679,-36.77313,-64.88576,2.2217,20.72668,-2.67412,-8.26507,3.24954,-6.60021,-0.68465,-3.91632,0.31194,0.46659,1.47987,-3.80646,-0.39564,-0.6596,-0.78965,0.20347,0.23862,-0.61541,-0.16317,-0.18555,0.06399,-0.02037
733,0.2041,-2.20529,0.81658,-19.13276,-9.6743,3.11714,-3.17582,-15.4488,4.59894,-1.91698,-40.96562,1.03039,0.04513,-0.28011,0.13312,-37.47916,20.32963,4.78769,-38.71646,-74.90808,2.60656,15.28277,1.17075,-6.08864,3.43586,-9.26241,-0.37792,-3.78644,-2.75991,1.74791,1.63158,-4.18884,-0.42277,-0.53181,-1.9752,0.5783,0.2396,-0.71363,-0.18708,-0.1379,-0.07051,0.04832
734,1.51854,-2.54383,0.75082,-18.46583,-10.9935,2.52816,2.61053,-13.98374,5.15256,-5.80593,-40.09426,-0.25097,0.20423,-0.4435,0.23789,-37.81983,19.88635,4.46428,-35.02813,-68.50582,2.75091,12.11674,1.73348,-0.99394,2.67729,-6.85491,0.06651,-5.16986,-3.16118,2.21727,1.63112,-3.10573,-0.20263,-1.04636,-2.03339,0.48144,0.24886,-0.51464,-0.12764,-0.17059,-0.18387,0.09139
735,2.42432,-1.86521,0.32669,-15.27104,-11.42965,2.32254,8.6544,-10.68866,4.12846,-1.15244,-39.24955,0.25274,0.35073,-0.58145,0.32876,-37.87976,19.75543,4.35075,-21.4768,-60.72613,3.00149,18.4325,-1.93356,2.69224,1.93701,-1.8038,0.18907,-6.90618,-0.80235,1.51924,1.61302,-1.60486,0.02282,-1.76322,-0.97159,0.01644,0.26028,-0.24867,-0.07321,-0.20401,-0.2172,0.10574
736,1.94808,-0.90767,0.05929,-10.09971,-12.20273,2.15485,7.97875,-8.79511,2.90818,12.02583,-41.59941,0.73526,0.3675,-0.71094,0.38622,-37.71856,19.8251,4.34483,-6.92606,-61.59261,1.65197,32.75242,-5.63601,-0.12932,1.99129,0.525,-0.1738,-7.06479,2.49227,0.07535,1.72812,-1.09324,-0.03017,-1.79615,0.24762,-0.37301,0.30674,-0.17151,-0.10478,-0.13215,-0.16092,0.08836
737,0.66111,-0.64567,0.22699,-4.70697,-13.53964,1.76922,1.2333,-9.19575,2.67388,27.50074,-44.19497,-0.19997,0.26305,-0.7903,0.40808,-37.48659,19.98858,4.37538,3.90654,-66.53547,-0.76202,41.24866,-6.72395,-5.04752,2.59076,-1.48103,-0.71064,-4.94415,3.42902,-0.77292,1.89796,-1.812,-0.33189,-0.89961,0.43596,-0.30879,0.36877,-0.26856,-0.17973,-0.00844,-0.07175,0.04063
738,0.0752,-0.94501,0.48562,0.22043,-14.36805,1.4422,-4.04942,-9.83414,2.9476,40.15985,-44.03461,-1.41916,0.16497,-0.69003,0.39513,-37.26402,20.28082,4.53098,13.91363,-67.58469,-2.21921,38.6721,-6.72676,-3.69653,3.10321,-4.01094,-0.98846,-2.38081,0.40237,-0.02481,1.92837,-2.58258,-0.52708,-0.02126,-0.64743,0.10144,0.36545,-0.31666,-0.19218,0.0066,-0.04751,-0.00814
739,1.16856,-0.95639,0.34838,4.02602,-13.76562,1.53912,-2.62785,-7.32765,2.33178,46.58041,-43.023,-1.45365,0.20294,-0.38647,0.36755,-37.0617,20.72394,4.8724,22.50348,-63.96276,-3.67727,34.15959,-6.76766,1.8964,3.30078,-3.7357,-0.85934,-2.03736,-3.4791,1.44137,1.76152,-2.41994,-0.40571,-0.16658,-1.89293,0.3995,0.277,-0.21668,-0.12681,-0.11577,-0.11345,-0.02359
740,2.87493,-0.69167,0.03626,6.18227,-12.33333,1.93425,2.72005,-2.90301,1.12876,48.28637,-44.21181,-0.59837,0.34146,-0.06021,0.34925,-36.95943,21.22907,5.27019,28.76835,-61.26384,-6.14796,32.24565,-6.16109,2.6685,2.80677,-2.14889,-0.51107,-3.97028,-4.07147,1.97526,1.43778,-1.76742,-0.21075,-1.00271,-2.14177,0.35716,0.16924,-0.10604,-0.06811,-0.22219,-0.19586,0.00963
741,3.53578,-0.59902,0.00746,7.21628,-10.83795,2.26054,6.24973,-0.64441,0.66948,50.38696,-45.36577,0.08087,0.45993,0.13788,0.34991,-37.11066,21.72623,5.571,35.07361,-60.06329,-7.87926,28.21746,-3.45947,-3.43622,1.42373,-1.50811,-0.20784,-5.959,-1.00729,1.08976,1.06363,-1.33618,-0.20275,-1.58403,-1.31238,0.07714,0.10881,-0.09482,-0.06938,-0.22953,-0.19698,0.04285
742,3.17473,-0.31822,0.06164,7.44806,-8.43068,2.4568,6.00004,-0.19991,0.66672,52.5382,-39.59038,0.17718,0.51189,0.23638,0.34777,-37.61836,22.22894,5.79854,37.96299,-51.01736,-7.67673,22.32901,-1.44931,-9.60789,-0.29431,-1.12122,-0.10307,-6.21989,2.72419,-0.35495,0.66483,-1.06398,-0.30068,-1.5408,-0.18666,-0.23772,0.07514,-0.12545,-0.09432,-0.18813,-0.0966,0.01591
743,2.69224,0.82136,-0.29219,6.50048,-4.27843,2.75679,4.24525,2.19133,-0.31473,50.18431,-24.76341,0.21072,0.49008,0.29837,0.29209,-38.42382,22.74952,6.09243,32.53134,-28.82887,-6.81491,20.82841,-7.07888,-9.03325,-1.40883,-0.08795,-0.13471,-4.56247,3.50589,-0.87318,0.39453,-0.85014,-0.30351,-0.98608,0.14165,-0.28531,0.03961,-0.11952,-0.08671,-0.11448,-0.02967,-0.02055
744,2.39449,2.36229,-0.94327,4.33028,0.66466,3.37929,4.05492,5.78499,-1.97618,43.70728,-8.75212,1.32847,0.40096,0.28376,0.19206,-39.41273,23.32467,6.51981,23.94156,-6.19937,-5.38447,23.36135,-17.55824,-2.59593,-1.00628,0.35689,-0.08789,-2.32868,1.04434,-0.01991,0.63701,-0.94642,-0.12892,-0.2329,-0.55544,0.01933,0.05727,-0.06848,-0.02745,0.00051,-0.09881,0.00643
745,2.1027,3.01585,-1.28201,2.12498,4.89255,4.30887,5.28903,6.19351,-2.30557,40.33463,-0.60923,3.93101,0.28534,0.0581,0.13115,-40.52443,23.9567,7.03034,21.94634,0.3754,-1.88585,23.09604,-20.79618,2.5945,0.94186,-0.79726,0.06399,-1.5102,-1.01534,0.87992,1.29035,-1.29527,0.12138,0.11063,-1.20861,0.28713,0.14916,-0.01318,0.05309,0.046,-0.18307,0.04675
746,2.06685,2.38679,-1.11976,0.63131,7.87915,5.20675,5.8506,3.09861,-0.80606,42.29312,-0.53211,6.4254,0.20588,-0.41886,0.15428,-41.70468,24.49978,7.49419,25.42185,-7.45352,2.18553,23.45373,-15.08235,1.37849,3.5126,-2.37793,0.18963,-3.09632,-0.55954,0.83593,1.99428,-1.52941,0.34183,-0.50027,-1.08793,0.20852,0.30153,-0.02373,0.09574,-0.11438,-0.14087,0.02474
747,4.06187,1.13168,-0.48997,-2.09136,10.10584,5.69203,7.87738,-2.2246,1.67921,39.15885,-1.45363,6.93532,0.04681,1.34625,-0.04791,-42.91055,24.86217,7.74651,24.76161,-16.93105,5.27001,34.64808,-9.58122,-4.26011,5.40405,-2.67856,0.28206,-5.73149,0.4543,0.62997,2.73095,-1.62188,0.52031,-1.52428,-0.72438,0.02437,0.50245,-0.12096,0.07452,-0.33159,-0.04003,-0.01332
748,3.4631,2.17488,-0.72044,-7.53059,12.67163,5.84408,4.3921,-2.12458,1.49499,23.8058,3.59412,6.08958,-0.25789,2.54011,-0.36987,-44.0221,25.12608,7.78306,3.04955,-11.00448,5.36059,49.00782,-8.07314,-7.58983,5.07838,-1.53712,0.30352,-7.10967,-0.00774,1.20701,3.12985,-1.72833,0.50788,-1.75998,-0.77162,0.07637,0.61534,-0.20813,0.01832,-0.30962,-0.02767,0.01778
749,2.09562,4.41937,-1.20792,-14.14013,15.72733,6.0356,1.54157,2.41388,-0.38668,3.56268,13.39959,5.86692,-0.60446,4.41922,-0.80987,-44.82665,25.31098,7.77437,-22.38832,7.415,5.02848,45.88802,-7.22127,-5.47413,2.17008,-0.39656,0.12005,-6.65419,-0.85756,1.90271,2.4117,-1.67745,0.13366,-1.08213,-0.91645,0.21551,0.47236,-0.18476,-0.01902,-0.07454,-0.07248,0.07309
750,1.41886,5.95426,-1.36157,-19.67525,17.71985,6.30032,0.53401,7.71203,-1.74687,-10.03055,19.77877,6.50865,-0.84563,6.60557,-1.26209,-45.21132,25.28682,7.8047,-38.13098,22.34085,4.14398,25.88966,-3.83711,-2.13535,-1.15308,-0.26526,-0.07105,-5.46971,-0.28055,1.56243,0.85682,-1.21263,-0.25566,-0.46977,-0.61405,0.11775,0.16331,-0.06409,0.01853,0.06928,-0.0463,0.04725
751,1.94364,5.58897,-0.90435,-23.56348,17.63779,6.34983,-0.6387,7.64902,-0.59604,-14.0258,19.76584,6.83422,-1.02417,8.8553,-1.69403,-45.24814,24.97483,7.78975,-44.38815,21.91491,3.62308,12.65007,-0.35902,-1.4266,-2.82019,-0.59584,0.02742,-4.77408,0.91381,0.6174,-0.2556,-0.68657,-0.24565,-0.58922,-0.22748,-0.10689,-0.07962,0.04556,0.11091,-0.03063,0.01917,-0.03155
752,3.45307,4.12533,-0.29163,-26.47834,16.8516,6.18484,-0.38461,1.52558,1.84256,-14.76918,19.34783,6.78623,-1.23525,11.23188,-2.14429,-45.05737,24.48689,7.67544,-45.60909,13.10885,5.32136,18.84024,-5.23231,-1.21317,-3.29522,-0.61404,0.13331,-4.56649,0.63731,0.35738,-0.40946,-0.73372,-0.19527,-1.07211,-0.49697,-0.08457,-0.18623,0.0449,0.12119,-0.22161,-0.02507,-0.03937
753,5.34554,3.8184,-0.34817,-28.6995,16.97562,6.12866,4.21713,-3.42512,2.03834,-18.20945,22.07841,7.30909,-1.50541,13.91836,-2.6734,-44.67312,23.96495,7.52829,-42.96193,9.59732,7.58813,33.98236,-20.35713,0.7309,-2.89053,-0.5566,-0.13006,-3.81658,-1.06026,0.7908,0.12502,-1.44915,-0.49356,-1.17617,-1.29689,0.20639,-0.14224,-0.09867,-0.01695,-0.28753,-0.19437,0.04489
754,6.80454,5.78075,-1.21563,-30.26169,17.48839,6.22433,10.45717,-1.86687,-0.78963,-24.63126,24.81463,8.43091,-1.79489,16.92412,-3.28458,-44.10805,23.36397,7.37103,-38.80605,14.85553,7.43783,43.65538,-32.99187,2.81924,-0.81966,-0.7662,-0.38159,-2.47729,-2.20632,0.99442,1.09274,-2.24937,-0.63489,-0.79399,-1.76422,0.4227,0.08052,-0.29604,-0.13598,-0.19235,-0.31258,0.11664
755,7.40387,9.00266,-2.25018,-31.7331,16.77798,6.09722,13.2129,3.43691,-3.74923,-32.16833,24.82515,9.06313,-2.04691,20.06557,-3.92477,-43.43599,22.54846,7.08491,-38.85859,22.96159,5.29374,44.23537,-30.13879,3.4935,2.0375,-0.33404,0.11957,-2.16727,-1.68975,0.78655,1.98556,-2.22484,0.09363,-0.54182,-1.50271,0.39223,0.32058,-0.32347,-0.02466,-0.08381,-0.24973,0.11348
756,6.88012,11.68234,-2.78706,-33.46693,14.41561,5.44863,11.34488,6.20088,-4.12088,-37.92647,22.24075,8.28513,-2.28634,23.1433,-4.58838,-42.71177,21.54029,6.55223,-43.39141,25.39291,3.67632,39.73124,-15.14093,1.75898,3.46489,1.32385,1.25188,-3.7962,0.33034,0.40029,2.23368,-1.18346,1.34506,-0.78454,-0.78753,0.22416,0.3533,-0.08621,0.24339,-0.07103,-0.06763,0.0728
757,5.34894,13.20873,-2.78246,-35.29385,12.05976,4.51043,8.03087,4.62353,-2.08527,-38.84301,19.41404,6.4848,-2.55312,26.07743,-5.2984,-41.93904,20.58245,5.86431,-43.21425,20.45715,3.65135,31.66244,-3.42018,-2.70297,3.13335,2.88564,1.975,-5.90486,3.19641,-0.33813,2.04774,-0.13849,1.99236,-1.09331,0.03896,-0.01294,0.23763,0.19531,0.38061,-0.0957,0.10353,0.02013
758,3.7113,14.82343,-2.79391,-37.09134,11.64304,3.83561,5.58363,4.16371,-0.02864,-37.43212,20.67011,5.05862,-2.8013,28.90202,-6.01576,-41.17233,19.93087,5.29193,-37.09458,19.71781,4.20469,20.54352,-6.01791,-6.32403,2.15742,2.54662,1.46501,-6.28144,4.95268,-1.13513,2.01236,-0.26936,1.34362,-0.92346,0.44225,-0.24144,0.21055,0.22284,0.23941,-0.08077,0.14233,-0.04475
759,3.03219,16.90811,-3.0466,-38.52711,12.46179,3.5563,3.99191,7.87991,0.88245,-39.93026,26.82453,4.73339,-2.96325,31.6179,-6.6641,-40.52055,19.56819,4.9668,-36.7473,31.15852,5.10748,14.8604,-19.98369,-5.08254,-0.23148,0.02419,-0.35447,-4.57796,3.50056,-0.96985,1.76003,-1.52735,-0.64916,-0.33533,-0.151,-0.24054,0.24577,-0.02536,-0.09548,-0.03727,-0.02705,-0.07309
760,3.30935,18.04478,-3.18683,-39.19118,11.51723,3.15226,3.0277,10.58371,1.57334,-46.19843,30.25852,4.71288,-3.04905,34.16619,-7.2303,-40.09305,19.24472,4.6731,-45.523,41.95362,6.6173,21.63301,-31.06031,0.48769,-3.60457,-2.3073,-2.12887,-3.34057,-0.20963,0.4351,1.08501,-2.69704,-2.62258,-0.11906,-1.43374,0.01507,0.19941,-0.30403,-0.35997,-0.04065,-0.3026,-0.02301
761,3.58181,17.84265,-3.14207,-39.55818,7.62512,2.25081,2.11888,8.86281,2.08236,-50.86527,23.25549,3.996,-3.11588,36.50732,-7.76535,-40.01264,18.86237,4.13248,-54.35113,36.50555,6.53412,31.96173,-27.03765,6.39379,-4.26208,-1.33593,-1.76299,-4.46049,-2.66075,1.87324,1.00866,-2.88849,-2.3228,-0.73234,-2.17998,0.23823,0.16932,-0.38809,-0.26423,-0.13613,-0.40442,0.04824
762,3.20155,17.58825,-3.26045,-40.44154,3.87102,1.36711,0.08015,6.89811,1.0898,-52.75736,10.57946,2.92428,-3.19345,38.62922,-8.30305,-40.33243,18.69019,3.5118,-59.20801,21.31068,2.73112,32.37509,-12.54902,8.22084,-1.21845,2.67723,0.51992,-5.48157,-2.09711,2.09007,1.69269,-2.1954,0.09687,-1.14895,-1.70598,0.34477,0.2147,-0.26932,0.08304,-0.18711,-0.19973,0.07332
763,2.46879,18.2602,-3.69772,-42.11939,3.8219,1.23225,-2.75266,8.68057,-1.41097,-55.76333,4.58669,2.45283,-3.28814,40.58596,-8.82508,-40.99386,19.02822,3.25301,-64.67309,14.955,-2.85981,23.10181,-4.47347,4.30472,2.12424,5.65219,2.09766,-4.41351,0.05466,1.14517,1.9621,-1.20947,1.89089,-0.66077,-0.78303,0.43064,0.204,-0.10169,0.22948,-0.10867,0.0561,0.06853
764,2.15318,19.89158,-4.35998,-44.55761,6.31084,1.57167,-3.32802,12.79373,-4.04342,-61.55262,8.19568,2.50938,-3.41563,42.49899,-9.29517,-41.9649,19.74849,3.32908,-70.23824,21.60882,-6.92858,12.28339,-9.38357,-2.67958,2.62989,4.06091,1.3035,-3.9031,2.0621,-0.18083,1.24794,-0.52286,1.25624,-0.46567,-0.38066,0.29413,0.07618,-0.00409,0.01631,-0.10433,0.04961,0.05206
765,2.51242,21.44874,-4.94248,-47.179,7.24644,1.44857,0.31123,13.72356,-5.28399,-65.72823,12.61205,2.28195,-3.55737,44.37614,-9.69684,-43.2526,20.46635,3.28053,-67.45943,26.11976,-7.75897,4.30505,-16.97591,-6.18544,1.39396,0.02998,-0.26413,-5.43125,3.00808,-1.04574,0.31167,-0.18038,-0.17992,-1.19891,-0.48358,-0.1077,-0.0634,0.05386,-0.14949,-0.23663,-0.14936,0.02498
766,3.03857,21.85811,-5.0842,-49.62328,5.77268,0.69807,5.2185,8.69762,-3.99106,-65.83641,12.90126,1.54491,-3.63766,46.08184,-10.04638,-44.81459,21.06867,2.9868,-57.64719,19.95457,-4.82522,1.22089,-18.0599,-1.76028,1.97876,-1.62743,-0.34014,-6.70686,2.39182,-0.86069,0.37888,-0.25682,-0.0321,-1.86084,-0.65326,-0.3923,-0.04026,0.07932,0.0406,-0.34012,-0.25372,-0.00775
767,2.86962,21.88162,-4.91114,-52.36237,4.90261,0.12983,5.77576,3.43178,-1.06088,-66.69051,14.40238,1.10081,-3.66081,47.55043,-10.39027,-46.56699,21.80057,2.81697,-56.57175,17.03769,0.42137,5.20775,-14.65737,6.91998,4.16359,-0.15013,0.51932,-5.54393,0.82796,0.05994,1.4983,-0.98753,0.98882,-1.40996,-0.76794,-0.22826,0.15708,0.00078,0.29265,-0.28291,-0.19816,-0.01595
768,1.57203,22.79535,-4.92404,-55.8118,6.65246,0.33403,0.2559,4.20513,0.46815,-73.09372,21.17477,1.91044,-3.75256,48.85671,-10.75793,-48.49823,22.91316,2.9895,-73.19041,28.73351,4.41344,14.96796,-12.09227,11.22799,4.53723,1.10448,0.73426,-3.08264,0.11664,0.57238,2.56806,-2.08888,0.99935,-0.2526,-0.70336,0.13488,0.38433,-0.19886,0.28871,-0.09334,-0.0853,0.006
769,0.20635,24.45,-5.3414,-60.36415,9.33134,0.86092,-5.29475,10.50681,-1.21369,-84.77386,27.29002,2.94053,-3.91972,50.10004,-11.08263,-50.65006,24.28487,3.21198,-96.19966,44.33076,2.50568,23.86412,-13.28509,6.98849,2.49968,0.05726,0.55387,-1.75748,1.24456,-0.08892,2.7383,-2.72878,0.37112,0.384,-0.26392,0.17947,0.48244,-0.38937,0.16923,0.07099,0.04018,-0.00054
770,-0.36069,25.49603,-5.70311,-66.11207,9.92606,0.81566,-6.38092,16.88932,-3.74899,-97.55229,24.47358,1.68519,-4.02822,51.26272,-11.29063,-52.91861,25.46594,3.10381,-110.92864,46.68108,-6.29109,25.18904,-18.51324,-0.40265,0.60551,-1.23718,0.87305,-1.9793,2.50575,-1.1068,2.10781,-2.32616,0.43846,0.13056,-0.0389,0.01335,0.36264,-0.35978,0.14424,0.07842,0.06891,-0.0165
771,-0.68361,25.04265,-5.54253,-72.28106,8.17642,0.11171,-5.96898,16.78527,-3.70474,-108.68633,14.76838,-1.61895,-4.036,52.27584,-11.42186,-55.06818,26.19832,2.70011,-119.31801,33.03464,-14.70219,19.11922,-23.25416,-2.92876,0.24468,-0.58776,0.96415,-2.80746,1.65287,-0.99495,1.51744,-1.37293,0.55757,-0.43306,-0.71245,0.08576,0.14409,-0.09877,0.06636,-0.05375,-0.09032,0.0296
772,-1.11356,23.8259,-5.14525,-77.65057,7.27844,-0.31363,-7.25199,7.50254,-1.14075,-118.45583,9.57479,-3.29633,-4.02519,53.18534,-11.55717,-56.97274,26.68704,2.39643,-129.61382,15.5399,-13.45007,10.0752,-21.75953,0.61926,0.37453,0.80845,-0.25862,-3.71414,-0.58695,0.23911,1.50504,-0.76336,-0.60093,-0.81958,-1.57177,0.26316,0.03627,0.16952,-0.22171,-0.17424,-0.247,0.07546
773,-1.81261,23.56669,-5.0936,-81.55259,9.85407,0.24477,-10.30187,-3.78077,1.07389,-125.29675,15.80912,-1.13286,-4.12094,54.08505,-11.75993,-58.72577,27.25574,2.46908,-138.31792,10.19561,-3.57746,-0.78455,-16.05027,6.15079,0.24945,1.56661,-1.44094,-4.46869,-1.4923,1.10623,1.60731,-0.65504,-1.74319,-0.9506,-1.52966,0.18965,0.04962,0.23149,-0.36923,-0.17242,-0.20312,0.0484
774,-2.65578,24.94295,-5.53023,-84.24115,14.05249,1.20394,-12.50632,-4.46353,0.59668,-127.24934,27.77808,2.63943,-4.38628,54.89767,-12.0082,-60.36328,27.84562,2.73228,-137.63104,24.87555,3.66379,-11.66787,-14.00923,9.76227,1.21898,2.29064,-0.77818,-4.38644,-0.05164,0.6927,1.40667,-0.86823,-0.89604,-0.74,-0.69528,-0.00158,0.12012,0.04061,-0.12021,-0.09207,-0.0453,0.00078
775,-2.86394,26.3829,-6.04374,-86.66486,16.26742,1.59295,-10.4855,6.48176,-1.94453,-128.53522,35.76978,4.51667,-4.7477,55.45836,-12.19729,-61.61776,28.08604,2.81491,-132.88954,49.75056,1.7546,-15.77704,-18.24047,9.11985,3.91164,2.80651,0.55586,-3.3187,1.79012,-0.25173,1.11872,-1.20325,0.85735,-0.33417,-0.03025,-0.04939,0.1933,-0.1956,0.16084,-0.07549,0.04581,-0.03444
776,-2.15049,26.33294,-6.24297,-89.73691,16.46286,1.50663,-4.53554,16.2506,-4.01453,-134.96783,37.98668,4.01763,-5.03329,55.85032,-12.26985,-62.20559,27.83689,2.67914,-134.5894,66.73376,-4.0476,-10.51178,-23.83604,3.61205,6.11395,1.2957,0.35725,-2.66965,2.0239,-0.63551,0.92496,-1.33127,1.11987,-0.29498,-0.16118,-0.03023,0.1488,-0.2359,0.11376,-0.1823,0.00099,-0.07916
777,-1.30224,25.19305,-6.15572,-93.19107,16.96736,1.62507,0.14145,15.56964,-4.2313,-144.34474,38.26028,3.08356,-5.1361,56.35983,-12.28065,-62.21811,27.26929,2.52063,-142.28711,67.63205,-6.42723,-2.75563,-25.03924,-3.87332,6.09308,-2.23787,-1.02304,-3.16046,1.153,-0.45809,1.01191,-1.36,-0.05447,-0.60198,-0.81213,0.00603,0.0299,-0.13642,-0.10666,-0.25135,-0.1115,-0.07943
778,-1.46084,24.02611,-5.95133,-95.91693,18.29101,2.00637,-1.81413,7.95487,-3.13305,-150.78885,38.5565,2.95892,-5.13097,57.08209,-12.3382,-61.96603,26.47739,2.34942,-151.93439,57.57502,-4.41154,-0.15022,-19.72755,-7.20432,4.46897,-4.47991,-1.45677,-3.24023,0.51992,-0.25792,1.26167,-1.4686,-0.67159,-0.50554,-1.26614,0.20368,-0.017,-0.0854,-0.14515,-0.11227,-0.15265,0.01898
779,-3.04967,23.47655,-5.73549,-97.02227,19.52592,2.36009,-10.34897,2.14357,-1.96407,-152.9738,39.26747,3.71253,-5.15859,57.74515,-12.45687,-61.48999,25.44994,2.12008,-163.87015,47.44076,-0.71174,-4.06988,-11.22557,-3.48876,2.87041,-3.45695,-0.24289,-2.18567,0.66714,-0.39739,1.34454,-1.51823,0.12172,0.02306,-1.09249,0.38801,0.04757,-0.1229,0.06514,0.10058,-0.07558,0.10539
780,-4.86555,23.69238,-5.65464,-96.24068,20.63285,2.75178,-18.39733,1.66552,-1.6935,-151.86656,40.842,5.2716,-5.28587,57.9683,-12.51266,-60.55896,24.36855,1.96833,-172.03049,44.54635,2.77974,-10.71572,-6.36933,2.12134,2.57218,-1.42948,1.09438,-1.78013,1.87685,-1.05209,1.38007,-1.47465,1.19835,0.17879,-0.32512,0.14592,0.18376,-0.17458,0.2885,0.12743,0.04115,0.03727
781,-5.44435,23.98213,-5.70815,-94.26254,22.32668,3.30424,-19.99779,3.16671,-1.87061,-148.0036,43.29113,7.20779,-5.53735,57.63754,-12.43636,-59.1573,23.60597,1.95317,-167.83578,48.69487,5.58576,-16.45267,-8.30836,3.08053,3.4156,-0.8921,0.71846,-3.02289,3.11643,-1.57442,1.57644,-1.31809,0.96198,-0.28488,0.28807,-0.32956,0.31296,-0.16976,0.24884,-0.04722,0.06175,-0.09879
782,-4.96699,23.90045,-5.70752,-92.93377,24.85918,3.71167,-18.1169,4.83945,-1.11594,-145.49776,47.41523,8.31519,-5.87487,56.9551,-12.29932,-57.64936,23.50757,1.8335,-159.59888,60.0131,6.87295,-22.35899,-14.35271,0.06767,4.06885,-0.91273,-0.97243,-4.28881,3.14268,-1.46832,1.58231,-0.89776,-0.44868,-0.76974,0.03783,-0.44606,0.31815,-0.08838,-0.03866,-0.22032,-0.07009,-0.12149
783,-4.97861,24.31567,-5.67027,-93.53114,28.02807,3.63124,-19.79576,8.78328,0.42342,-148.94952,54.61283,8.09367,-6.18261,56.19263,-12.18296,-56.40437,24.45419,1.3885,-163.1413,80.17326,6.02935,-27.61488,-21.08414,-1.01845,3.7523,0.39279,-1.55835,-4.04164,2.6217,-1.38359,1.15647,-0.54568,-1.07572,-0.78018,-0.69272,-0.12472,0.18332,-0.01162,-0.21751,-0.24254,-0.23185,-0.02354
784,-6.07367,25.60929,-5.85016,-94.89346,31.85648,3.18567,-24.49795,12.93809,0.59187,-155.97382,63.93365,7.8147,-6.38023,55.51249,-12.07877,-55.50167,27.00195,0.69882,-175.5795,101.22343,4.68271,-25.69112,-24.83747,2.70055,3.09649,2.00978,-0.28069,-2.55141,2.13913,-1.43406,0.91857,-0.86932,-0.18874,-0.36367,-1.03285,0.26103,0.07791,-0.0347,-0.11006,-0.14437,-0.24172,0.06668
785,-6.9499,26.16918,-6.20873,-95.6692,36.60941,2.57981,-24.20395,11.6197,-1.77314,-162.284,71.79683,8.04003,-6.47583,54.89963,-11.90875,-54.89205,31.64338,-0.12814,-182.40941,108.7837,4.03106,-17.98998,-20.67222,7.87457,3.31987,1.4522,0.77189,-0.79333,1.07006,-0.85935,1.34947,-1.59889,0.68078,0.15624,-0.83211,0.47895,0.1308,-0.10493,0.0322,-0.0511,-0.11109,0.07384
786,-7.01741,24.69218,-6.32122,-96.57701,42.56297,1.6785,-17.34865,5.03735,-4.68377,-168.21365,75.65213,6.83594,-6.53597,54.20975,-11.64889,-54.61649,38.57759,-1.15532,-182.07736,99.99668,1.86847,-16.0579,-10.84394,9.60876,4.49302,-0.7628,0.34144,-0.24608,0.07166,-0.12894,1.71537,-1.7872,0.62168,0.28681,-0.55588,0.41953,0.21575,-0.10911,0.02481,-0.05717,-0.01764,0.01391
787,-7.25835,22.22682,-6.00139,-98.86655,50.90423,0.49569,-10.83537,-1.80171,-5.40022,-176.05243,79.59051,3.55757,-6.64729,53.37423,-11.38982,-54.82281,47.96626,-2.39352,-185.062,88.84953,-1.90795,-21.58832,-8.10451,7.71488,4.74007,-1.10741,-0.06702,-1.97581,0.96748,-0.63817,1.09798,-1.17704,0.5392,-0.22631,-0.38515,0.01941,0.13804,-0.05456,0.0201,-0.14424,-0.01344,-0.07959
788,-7.6808,21.12215,-5.64486,-103.14273,62.74754,-0.75377,-8.38647,-4.19148,-3.90818,-187.04138,90.64808,0.549,-6.83377,52.43794,-11.18078,-55.6668,59.98874,-3.80952,-197.12086,92.69939,-3.86977,-22.5232,-17.85472,5.85531,2.67244,1.74649,0.86569,-4.63919,3.09709,-1.93693,-0.09666,-0.45458,1.01879,-0.89283,-0.30507,-0.40138,-0.07017,-0.01628,0.12528,-0.19925,-0.02748,-0.13863
789,-7.79137,22.25957,-5.57079,-108.8458,77.54796,-2.02683,-10.55976,-0.32336,-1.87704,-199.72108,109.60304,-0.3891,-7.05232,51.38874,-10.9611,-57.10616,74.60837,-5.37451,-216.12732,115.81748,-3.04611,-14.75798,-26.09791,5.24147,0.28793,4.3056,1.97013,-5.76239,3.24662,-1.90794,-0.6343,-0.2689,1.37927,-1.04524,-0.66594,-0.30379,-0.19676,-0.01466,0.21048,-0.15409,-0.09307,-0.06461
790,-8.14388,23.64019,-5.53316,-114.75955,93.93443,-3.36064,-17.4304,5.28989,-0.30469,-213.07285,131.42686,0.09768,-7.23846,50.20886,-10.6928,-58.94942,91.57872,-6.9635,-239.98322,146.65419,-1.55956,-8.08835,-20.38242,3.73305,0.31962,2.80862,1.58712,-4.39423,0.60565,-0.16471,-0.02519,-0.63946,1.02226,-0.57317,-1.47085,0.33832,-0.12427,-0.03014,0.16563,-0.05625,-0.24395,0.12206
791,-9.06594,23.43265,-5.35031,-120.14205,110.43361,-4.85593,-24.10811,6.79569,0.15908,-228.15726,151.12411,-0.16115,-7.32547,49.01314,-10.42936,-60.99768,110.31998,-8.44088,-265.91693,171.16986,-1.78108,-8.78118,-8.05415,0.54402,1.98564,-1.3183,0.13106,-2.02813,-1.50374,1.08532,0.959,-1.0948,0.28002,0.02804,-1.85723,0.85139,0.04081,-0.04185,0.04039,-0.00198,-0.33407,0.23396
792,-9.52719,22.83793,-5.37708,-124.67712,125.74726,-6.59496,-23.11843,5.56094,-1.13994,-243.6295,166.66338,-2.83607,-7.30039,47.95711,-10.23188,-62.94508,129.87886,-9.70109,-285.78931,186.2879,-5.27602,-13.75985,-0.85627,-1.50165,3.3658,-3.22809,-0.70256,-1.00606,-0.42354,0.25461,1.3137,-1.25254,-0.041,0.21401,-1.25884,0.67979,0.13096,-0.04892,-0.04182,-0.02246,-0.23077,0.14906
793,-9.05449,23.45561,-5.80563,-127.55557,139.38753,-8.27473,-16.34152,5.37357,-3.39111,-254.9505,179.27185,-6.71622,-7.24933,47.13702,-10.12477,-64.39919,149.28911,-10.50747,-295.80811,196.94505,-10.24228,-18.33898,-1.34672,0.09602,4.19088,-1.15344,-0.34457,-2.06319,2.19763,-1.4307,0.87423,-1.0859,0.30338,-0.1265,-0.29097,0.0312,0.1035,-0.06055,-0.01534,-0.07696,-0.03628,-0.03383
794,-8.32083,24.2638,-6.16641,-127.85798,151.13,-9.46798,-12.80129,4.6778,-4.34217,-259.92923,189.25363,-9.74096,-7.19558,46.5484,-10.05357,-65.16252,167.72551,-10.60368,-302.47067,202.83029,-13.21926,-19.43935,-9.15038,2.7853,4.31798,1.75787,0.27349,-3.85437,3.22651,-1.92389,0.22229,-0.71741,0.70692,-0.64933,0.09819,-0.44462,0.02358,-0.05901,0.05872,-0.12707,0.05538,-0.13729
795,-7.78354,23.70285,-6.00473,-126.06821,161.30003,-10.04879,-14.89141,2.25048,-2.95048,-259.47055,195.43716,-12.08555,-7.06231,46.07209,-9.9401,-65.22479,184.45999,-9.9835,-308.64542,202.65231,-14.59186,-16.4119,-20.26747,1.63275,3.97202,2.19887,0.22471,-4.52064,1.90258,-0.86464,0.03216,-0.40852,0.6384,-0.85225,-0.33056,-0.30724,-0.01363,-0.02076,0.06854,-0.14865,-0.00747,-0.08762
796,-7.18472,22.53911,-5.60051,-124.96087,171.03491,-10.06274,-16.22868,2.15569,-1.0731,-257.03552,199.65202,-14.33368,-6.88364,45.61851,-9.79583,-64.60368,198.87117,-8.93717,-308.9122,204.86398,-17.31058,-11.74726,-26.10663,-3.75365,4.03114,0.11835,-0.49744,-3.36724,-0.1377,0.55947,0.58356,-0.44485,0.17202,-0.48602,-1.07695,0.33171,0.06639,0.03101,-0.00651,-0.10977,-0.12113,0.05323
797,-6.4725,22.33274,-5.5219,-127.50111,180.77063,-9.57771,-13.37403,5.86905,-1.13432,-257.64441,205.02385,-15.40533,-6.7946,45.22683,-9.68929,-63.41388,210.56689,-7.85576,-303.66153,215.17528,-21.27471,-8.32866,-24.95227,-7.76439,3.92435,-2.65986,-1.3794,-1.38011,-1.03558,1.14927,1.53372,-0.71638,-0.49109,0.21235,-1.44288,0.92961,0.23779,0.05062,-0.10319,-0.00618,-0.16279,0.16716
798,-6.2637,22.75339,-5.7348,-132.71831,189.80594,-8.7509,-11.24707,7.79128,-2.68366,-260.91992,211.77357,-14.24979,-6.76665,44.90995,-9.6308,-61.81904,219.4583,-6.91167,-300.082,225.41466,-22.75436,-7.6048,-23.50268,-3.9789,2.86518,-3.50636,-1.65664,-0.43871,-0.52308,0.75008,2.08769,-0.92168,-1.01146,0.61303,-1.25468,1.00516,0.35641,0.0324,-0.18559,0.07822,-0.13074,0.17734
799,-6.80393,22.90247,-5.83424,-136.6169,196.52846,-8.0064,-14.25111,5.19906,-3.41486,-261.8194,216.11588,-12.50229,-6.63908,44.59848,-9.57619,-60.01051,225.63576,-6.07858,-301.82452,226.10284,-21.29081,-8.68714,-23.92189,7.48354,2.16791,-0.53573,-0.63341,-1.30799,-0.01682,0.22808,1.70404,-1.14644,-0.72009,0.3269,-1.04911,0.62825,0.30106,-0.01902,-0.21097,0.05041,-0.12973,0.11142
800,-7.04286,22.94311,-5.75349,-136.86688,199.30206,-7.84447,-18.42047,2.40253,-2.6204,-259.10651,213.75821,-13.07392,-6.42365,44.25012,-9.49132,-58.25506,229.42838,-5.35198,-306.17865,216.56218,-21.43732,-8.26571,-19.26119,16.8658,3.13623,3.74332,1.15613,-2.8414,-0.46571,0.30728,0.79972,-1.65257,0.47629,-0.28835,-1.20794,0.26175,0.13124,-0.13652,-0.09028,-0.04908,-0.19672,0.05825
801,-5.78692,22.99102,-5.67607,-134.21135,198.26971,-8.29997,-17.51504,2.56635,-1.53138,-255.25182,205.79707,-16.1316,-6.28943,43.85868,-9.35594,-56.70563,231.43387,-4.7612,-307.85419,202.38779,-25.22921,-5.70187,-6.32878,13.4878,4.82782,4.38415,1.9359,-3.80527,-0.51978,0.36514,0.22732,-2.11078,1.53055,-0.61499,-1.31391,0.11558,-0.0242,-0.26444,0.12974,-0.09946,-0.23791,0.05043
802,-3.78254,22.53152,-5.64134,-130.78552,195.19243,-8.96523,-12.92077,4.0876,-1.33895,-251.59827,198.10497,-18.90658,-6.30589,43.47376,-9.20524,-55.29698,232.19867,-4.3245,-304.65607,191.86032,-29.38367,-3.78896,4.27557,0.08202,5.1592,0.86597,0.84973,-4.09615,0.89181,-0.30848,0.31662,-1.84843,1.36158,-0.53886,-1.02445,0.08688,-0.10904,-0.24742,0.24739,-0.08217,-0.18586,0.04653
803,-2.47917,21.46335,-5.60519,-128.08553,192.08723,-9.41268,-8.89418,4.75909,-2.28216,-248.16513,195.42459,-19.23206,-6.36662,43.16955,-9.09545,-53.84322,231.94162,-4.02886,-296.88754,191.81584,-30.2816,-2.27726,1.6938,-8.33577,3.35551,-2.74698,-0.89728,-3.69134,1.66937,-0.58911,0.88032,-0.93931,0.15173,-0.28787,-0.83175,0.23612,-0.08151,-0.07576,0.17557,-0.05868,-0.09925,0.03221
804,-1.84331,20.48336,-5.54159,-126.12354,189.64436,-9.61899,-5.84995,4.61617,-3.423,-244.82727,196.08983,-18.25744,-6.29053,42.87879,-8.97898,-52.12093,230.46968,-3.88704,-286.38013,199.14922,-28.35964,0.52887,-8.77517,-3.78559,1.17908,-3.67347,-1.78289,-2.62922,-0.03506,0.70875,1.48785,-0.17287,-0.95091,0.05374,-1.16898,0.67794,0.06369,0.08484,0.01872,-0.02652,-0.06783,0.05819
805,-1.7167,20.23158,-5.37016,-124.27699,186.99196,-9.85526,-5.27731,4.24592,-3.23327,-241.06598,193.24274,-18.56654,-6.00776,42.45297,-8.79726,-50.11494,227.53189,-3.94648,-279.47476,199.26399,-26.68453,2.98647,-14.67909,5.36754,0.98308,-2.33151,-1.47394,-2.01972,-2.40147,2.47105,1.79312,-0.20297,-1.11389,0.30134,-1.66548,1.09572,0.25062,0.10546,-0.0983,0.01243,-0.10972,0.12686
806,-2.1271,20.40429,-5.10912,-122.0908,183.64104,-10.0633,-7.98769,3.33745,-1.87856,-236.47249,183.99272,-20.06952,-5.63841,41.87711,-8.59416,-48.13736,223.35312,-4.12188,-279.14932,183.59891,-26.78342,2.89701,-11.93689,8.01721,2.71368,-0.22848,-0.5162,-2.58995,-3.11023,3.03309,1.69897,-0.92086,-0.48855,0.18693,-1.8097,1.11201,0.35623,0.00563,-0.13335,0.00123,-0.1612,0.16288
807,-2.45356,20.05386,-4.91016,-118.40497,179.85913,-10.01234,-10.50863,2.87147,-1.32405,-228.51375,173.43239,-20.52685,-5.36365,41.20922,-8.43683,-46.31715,218.3708,-4.19386,-275.73593,164.73166,-28.44254,-0.2895,-5.91398,4.2811,4.52346,1.26457,0.29535,-3.44931,-2.37518,2.43862,1.29065,-1.59876,0.24937,-0.15338,-1.60202,0.8538,0.3072,-0.10939,-0.09381,-0.04862,-0.15053,0.14093
808,-2.32752,19.00919,-4.81181,-113.35136,175.5103,-9.83287,-11.33624,5.33112,-2.21839,-217.57414,166.70367,-19.82343,-5.2334,40.48226,-8.32162,-44.44611,212.70186,-4.08629,-264.17374,160.04417,-31.58567,-3.70113,-6.10789,2.17708,5.044,1.48895,0.59145,-3.91435,-1.31206,1.56999,0.84773,-1.74407,0.67857,-0.35641,-1.33064,0.60702,0.14609,-0.15939,0.01068,-0.05806,-0.10132,0.1086
809,-1.91894,17.82292,-4.67685,-108.3871,170.61137,-9.67371,-12.04514,9.65653,-3.02021,-207.40593,163.74725,-19.39353,-5.12454,39.7314,-8.18877,-42.39384,206.32927,-3.87441,-250.6595,168.09389,-34.29296,-1.79569,-17.05911,6.03125,3.88306,1.08456,0.58894,-4.29311,-0.53868,0.96359,0.69107,-1.42888,0.64975,-0.29684,-1.29829,0.4779,-0.01973,-0.11409,0.10632,-0.01205,-0.12489,0.10882
810,-1.84829,16.87286,-4.43745,-103.46799,165.40623,-9.43438,-13.28234,11.52093,-2.70662,-197.61731,162.00388,-18.89571,-4.95722,38.93986,-8.03284,-40.22938,199.39131,-3.63191,-238.17204,174.38013,-33.10166,3.04417,-28.71062,12.81776,2.12856,1.13389,0.50926,-3.94331,-0.83943,1.14202,0.89643,-1.03457,0.19688,0.03922,-1.65568,0.66155,-0.06153,-0.01115,0.07181,0.04786,-0.25234,0.17082
811,-1.74716,16.20193,-4.28196,-98.23531,160.03241,-8.98082,-11.02599,9.02678,-2.2509,-187.46992,160.1405,-17.13188,-4.79838,38.05704,-7.86756,-38.09466,192.08563,-3.39098,-222.97893,171.49335,-27.25702,-0.61506,-24.71889,16.4098,1.79068,1.69184,0.26923,-2.2471,-2.37473,2.12221,1.10574,-0.78143,-0.28933,0.40389,-2.12649,1.12703,0.05434,0.07101,-0.08704,0.0604,-0.34824,0.25138
812,-0.84358,15.59858,-4.31848,-93.15845,153.98041,-8.54393,-3.68147,4.60662,-2.46832,-179.4521,155.77345,-15.62172,-4.7407,37.08606,-7.68754,-36.06335,184.52048,-3.17423,-206.15633,160.70415,-21.74761,-11.83238,-6.81203,12.70129,3.06611,1.9933,-0.05003,-0.56416,-3.61302,2.85235,0.86534,-0.57545,-0.31188,0.41558,-2.10205,1.33071,0.16475,0.08985,-0.18899,0.01331,-0.26437,0.24016
813,0.18441,14.95441,-4.36638,-88.81213,146.6568,-8.48835,1.96836,2.36109,-2.91874,-174.68294,145.61275,-17.00244,-4.73919,36.06845,-7.49133,-34.17889,176.8291,-3.00782,-195.95192,145.37985,-23.08751,-12.45034,4.21148,3.34545,3.82814,1.61183,0.04175,-0.79541,-3.54786,2.71597,0.30215,-0.49505,0.21459,0.06254,-1.62772,0.95164,0.107,0.03159,-0.0822,-0.03019,-0.08723,0.12178
814,-0.13973,14.21147,-4.22214,-84.59863,138.80215,-8.64583,-0.59481,2.55783,-3.06569,-167.52663,130.84671,-20.00865,-4.68431,35.04496,-7.30846,-32.51474,169.29359,-2.86381,-191.53793,128.3405,-30.09413,3.62508,-2.00337,-4.83093,2.80897,0.64833,0.58883,-2.42588,-2.94325,2.17049,0.0221,-0.73565,0.79817,-0.25688,-1.36696,0.36426,-0.04202,-0.08249,0.14482,-0.03092,-0.03441,-0.00291
815,-1.60201,13.23836,-3.90078,-79.28146,132.07852,-8.4872,-7.98966,1.46369,-2.62049,-152.33238,118.35685,-20.62202,-4.56569,34.05865,-7.16329,-31.05532,162.15216,-2.67521,-181.15718,113.29639,-33.70859,17.98683,-13.57988,-5.25645,1.45477,-0.55047,1.05873,-2.66896,-2.48054,1.71703,0.4092,-1.32867,1.02235,-0.03955,-1.48199,0.26547,-0.06654,-0.23187,0.32092,0.01085,-0.13544,-0.01518
816,-2.21735,12.31517,-3.60607,-73.49644,127.55551,-7.80634,-12.16136,-0.98557,-1.56869,-134.05133,114.8208,-17.5281,-4.44666,33.12287,-7.02111,-29.66978,155.48669,-2.42988,-162.47606,107.74827,-28.85415,13.65795,-17.15821,0.94578,1.55234,-1.29115,0.88119,-1.50261,-2.06468,1.37855,1.17109,-1.79192,0.76712,0.35629,-1.74411,0.66748,0.08617,-0.31337,0.32745,0.01323,-0.27446,0.074
817,-0.92135,12.1912,-3.58819,-69.60789,124.71426,-6.90312,-10.12293,-0.02374,-0.91094,-123.19057,118.8885,-13.14348,-4.35788,32.24416,-6.83666,-28.29685,149.44121,-2.19684,-145.83884,115.83936,-20.79259,-2.29084,-14.72847,6.06112,3.07472,-0.89735,-0.00208,-1.86488,-1.83537,1.30927,1.69543,-1.55719,0.09207,0.19365,-2.01199,0.96306,0.26784,-0.18046,0.11074,-0.06557,-0.3479,0.16618
818,0.86278,12.92577,-3.8465,-68.15821,121.95304,-6.21998,-5.32447,4.81959,-1.57376,-122.58868,122.18853,-10.3955,-4.28292,31.45934,-6.64728,-26.95361,144.19316,-2.03368,-137.91365,128.89824,-16.70815,-11.8369,-14.62653,5.12018,4.75424,0.21141,-0.98668,-4.17959,-2.1061,1.76,1.54101,-0.78663,-0.53353,-0.28426,-2.17727,0.9719,0.29473,0.09776,-0.19002,-0.11164,-0.32149,0.23472
819,1.23577,13.30373,-4.0232,-67.30521,118.29594,-5.98363,-2.42318,7.6123,-2.71312,-125.82254,118.55265,-10.53188,-4.19384,30.77964,-6.52855,-25.72057,139.72766,-1.94616,-136.48734,131.42789,-17.78486,-9.64019,-15.92832,0.57143,5.23255,0.83705,-1.37908,-5.20601,-2.27451,2.13382,0.88386,-0.21667,-0.64094,-0.24895,-2.04787,0.97809,0.14511,0.25624,-0.32291,-0.0365,-0.24437,0.28597
820,0.11373,12.44951,-3.89397,-65.34444,114.3832,-6.03598,-3.6825,5.1906,-2.9871,-124.1317,109.27776,-12.60172,-4.12145,30.2108,-6.51807,-24.74097,136.01524,-1.88603,-136.09932,117.83219,-21.33681,-1.5789,-11.28456,-1.64472,4.16919,0.70114,-1.00273,-2.88889,-1.84498,1.81957,0.44399,-0.30952,-0.38618,0.38006,-1.5727,1.0359,-0.00295,0.17347,-0.2333,0.08163,-0.17392,0.26941
821,-1.06182,11.41495,-3.71502,-62.19577,111.36224,-6.076,-8.23992,2.4852,-2.44649,-114.82389,100.9711,-14.43336,-4.12639,29.7907,-6.58902,-23.96432,133.10197,-1.78445,-133.13269,101.87659,-24.95099,7.67025,-0.25543,1.064,2.80783,0.34389,-0.39213,0.64694,-2.16068,1.75768,0.56725,-0.7806,-0.19031,0.89899,-1.21624,0.98747,-0.00478,-0.00094,-0.09106,0.11302,-0.12355,0.14858
822,-1.33424,11.426,-3.74441,-59.09286,109.60876,-5.95964,-12.87727,3.925,-1.80021,-104.56601,99.43993,-14.47432,-4.20159,29.51474,-6.67668,-23.16824,130.89641,-1.63291,-128.06522,100.30937,-26.42138,12.61594,8.5294,5.064,2.44452,-0.24319,-0.32749,1.89893,-3.70262,2.53119,0.88523,-0.99737,-0.17263,0.79541,-1.29419,0.73802,0.08407,-0.07782,-0.02414,0.0186,-0.07982,-0.03452
823,-1.27352,11.87173,-3.89896,-57.32625,109.16602,-5.52497,-14.32222,5.55952,-1.49654,-101.46817,104.48258,-12.32226,-4.31666,29.30167,-6.7701,-22.38157,129.26816,-1.4429,-123.23852,109.98835,-23.49352,5.97258,5.35335,5.38015,2.98373,-1.11349,-0.88794,-0.12727,-3.65706,2.36606,1.03984,-0.79206,-0.2315,0.24002,-1.27812,0.32655,0.13635,-0.02947,-0.02077,-0.10355,-0.04359,-0.15489
824,-1.22918,11.76481,-4.11677,-56.8718,109.82954,-4.73699,-10.03786,3.13276,-1.97971,-105.2692,111.43022,-8.88965,-4.46964,29.04161,-6.90686,-21.74623,128.13377,-1.19951,-117.42616,117.85059,-16.8638,-8.88386,-10.21007,2.66323,3.82527,-1.30523,-1.1977,-3.30327,-0.70289,0.28922,1.02523,-0.63934,-0.17173,-0.20482,-0.92559,0.05012,0.11398,0.03224,-0.01917,-0.11566,-0.07939,-0.08412
825,-1.01014,11.55731,-4.46317,-56.3485,110.59621,-4.02355,-3.14573,0.4899,-3.01673,-108.17229,115.2914,-6.70314,-4.661,28.70314,-7.10936,-21.14093,127.38862,-0.91769,-109.89274,120.8772,-11.98708,-16.6054,-24.1068,2.62756,4.71384,0.09642,-0.4222,-4.31147,1.44039,-1.1713,0.89716,-0.95347,0.24703,-0.00041,-0.91973,0.34685,0.07253,-0.00654,0.03662,0.01522,-0.2092,0.15843
826,-1.37446,12.15997,-4.85778,-55.05246,110.28833,-3.87932,-3.14929,2.55446,-3.61695,-105.34312,112.36369,-7.8912,-4.85905,28.41203,-7.36456,-20.45901,127.03625,-0.69428,-107.04429,120.5892,-14.51944,-9.92177,-22.85229,7.38169,5.1053,2.18582,0.92099,-2.08662,-0.11009,0.03773,0.72855,-1.39766,0.79797,0.77714,-1.47681,1.08904,0.07143,-0.10241,0.11629,0.1707,-0.30501,0.36889
827,-2.76913,13.23532,-5.15751,-54.09626,108.97657,-4.25528,-11.694,6.75416,-3.62267,-101.49522,104.65774,-11.17561,-4.98703,28.29162,-7.61994,-19.84047,127.18452,-0.64269,-114.27468,116.50803,-22.50522,1.38546,-11.43668,10.76061,4.48078,2.80208,1.39802,0.36954,-2.6292,1.834,0.52213,-1.3288,0.93573,1.22967,-1.8412,1.40532,0.07138,-0.11123,0.12417,0.17959,-0.26436,0.33174
828,-4.21398,13.94356,-5.41334,-53.93961,107.91539,-4.64972,-18.001,7.49613,-3.82684,-101.45029,99.63889,-13.10049,-5.01632,28.33883,-7.86678,-19.34954,127.83192,-0.71966,-122.46479,110.96226,-27.79482,6.26886,-3.99614,7.33435,3.15039,1.28642,0.67543,0.33364,-2.83917,1.80192,0.20189,-0.8305,0.65927,0.94145,-1.61615,1.0048,-0.00187,-0.02735,0.05421,0.04335,-0.1481,0.10247
829,-4.73916,14.03069,-5.71178,-53.52529,107.7697,-4.73896,-14.6792,4.14875,-4.39605,-102.90541,100.50313,-12.54805,-5.01744,28.47466,-8.15672,-18.86986,128.82065,-0.73907,-117.66702,107.63258,-26.85962,2.84352,-5.9849,2.13865,1.50084,-0.38234,-0.08501,-0.6914,-2.12293,1.21857,-0.11955,-0.45365,0.30022,0.67531,-1.45951,0.7246,-0.11973,0.02927,-0.01891,-0.04936,-0.08267,-0.02723
830,-4.69622,13.88115,-6.01433,-52.13398,108.11996,-4.60774,-8.18493,1.5789,-4.64908,-102.60178,103.43224,-11.45451,-5.07718,28.57593,-8.50964,-18.25716,129.9382,-0.58642,-104.18114,108.87179,-23.96757,-7.04005,-12.34726,3.83892,0.25952,-0.18751,-0.15097,0.20583,-3.35339,2.38364,-0.16168,-0.35035,-0.10773,1.1312,-1.91309,1.21552,-0.14912,0.00396,-0.07419,0.02659,-0.12366,0.10841
831,-5.42538,14.18183,-6.30766,-50.57466,108.67918,-4.42135,-9.5594,3.07157,-4.2471,-102.17258,105.06621,-11.26793,-5.23799,28.58188,-8.91641,-17.52218,131.07622,-0.35968,-102.56218,114.40388,-22.95945,-19.21987,-15.91257,11.41737,0.75221,1.14631,0.02849,2.75327,-5.96146,4.60407,0.01537,-0.4536,-0.33477,1.85698,-2.52453,1.9233,-0.04746,-0.07749,-0.10042,0.17651,-0.24063,0.34113
832,-7.35271,15.32659,-6.70341,-49.8623,109.80582,-4.18281,-19.22208,6.77156,-3.90556,-103.62797,105.95506,-11.36899,-5.45328,28.6014,-9.35832,-16.86549,132.34074,-0.21823,-118.48369,120.98268,-23.65965,-23.51842,-17.94736,15.80865,2.37564,1.64314,0.30776,3.6211,-6.86622,5.00488,0.01669,-0.71873,0.14098,1.81769,-2.57403,1.7578,0.03253,-0.1572,-0.01505,0.20569,-0.35237,0.35286
833,-9.07926,17.23519,-7.31217,-49.6276,111.4694,-3.91341,-26.10425,10.57255,-4.64269,-105.17265,107.99116,-11.0274,-5.58441,28.76884,-9.7816,-16.33462,133.86551,-0.15646,-131.71036,127.48944,-24.98796,-14.59137,-27.2493,13.07473,2.67381,1.39464,1.01829,1.60463,-4.35303,2.52905,-0.35063,-0.64485,1.11347,1.00207,-1.84138,0.75523,-0.0512,-0.11199,0.17403,0.08821,-0.35171,0.10952
834,-9.74273,19.10216,-7.9765,-48.95893,113.18237,-3.68019,-24.58898,13.21529,-6.00531,-105.35722,112.05395,-10.51098,-5.58682,29.10535,-10.17704,-15.75036,135.65926,-0.0479,-128.72446,133.6692,-25.58826,-3.99594,-40.57222,8.11106,1.57306,1.90954,1.76159,-0.04399,0.31254,-0.50063,-0.93139,0.1711,1.76855,0.57071,-0.5798,0.24155,-0.24894,0.10515,0.3129,0.00265,-0.19581,-0.07101
835,-10.09517,20.15552,-8.44528,-47.71289,114.41393,-3.58304,-21.98503,14.39857,-6.53413,-106.23824,115.55812,-10.79743,-5.62415,29.59921,-10.60033,-15.09172,137.60852,0.07723,-123.10503,136.94136,-26.26513,-5.56905,-37.47699,6.59023,1.34417,3.04713,2.06605,1.04498,3.23386,-1.09658,-1.45291,0.8855,2.04321,1.08068,0.29619,0.8676,-0.41605,0.26143,0.37269,0.05698,-0.02529,0.02613
836,-10.90285,20.53534,-8.71968,-45.76864,114.96006,-3.70168,-24.74658,15.46062,-5.94263,-106.94846,115.40551,-12.17406,-5.88229,30.18595,-11.07655,-14.47052,139.51125,0.05533,-126.25694,137.24692,-29.19616,-15.07272,-11.46678,8.9853,2.09158,3.05241,1.82459,3.26193,1.27467,1.13589,-1.32242,0.52828,1.92459,1.93909,-0.16836,1.80625,-0.37182,0.1336,0.36681,0.18382,-0.03826,0.25873
837,-11.91404,21.05912,-9.06225,-43.54442,115.46964,-3.85863,-28.1682,16.01049,-5.58536,-105.43693,113.10174,-13.60139,-6.31511,30.77069,-11.5576,-13.90439,141.35193,-0.09028,-130.63223,135.55753,-32.67522,-19.84817,10.79242,12.926,1.80592,1.6233,1.0476,5.06375,-3.05421,3.90583,-0.58873,-0.29019,1.06203,2.62648,-1.28914,2.29294,-0.13391,-0.08666,0.18636,0.30188,-0.16208,0.40869
838,-12.37586,22.75722,-9.76264,-42.33868,116.9147,-3.75136,-25.23209,15.88483,-6.94405,-105.13422,114.24084,-13.72558,-6.69568,31.38499,-11.98116,-13.29425,143.35538,-0.16627,-129.87944,134.99789,-33.02438,-18.42614,2.90187,16.92148,0.56773,0.67634,0.89549,6.55976,-4.23972,4.84215,-0.57628,-0.69568,0.63327,3.11118,-1.59914,2.50047,-0.0755,-0.16899,-0.01642,0.382,-0.19806,0.44966
839,-12.40716,25.70178,-10.7035,-42.12894,119.22646,-3.42849,-19.41407,18.21242,-9.33611,-109.11491,122.56,-12.12663,-6.91805,32.12542,-12.36213,-12.50872,145.58195,-0.12587,-130.04715,144.07578,-30.26846,-15.81155,-23.7563,18.89643,-0.19083,1.38066,1.88413,7.27192,-1.43424,3.73965,-1.96235,-0.41138,1.58555,3.35184,-1.12354,2.68869,-0.41491,-0.12432,-0.00205,0.40262,-0.17935,0.44492
840,-12.95304,28.63103,-11.41473,-41.37404,121.14305,-3.20646,-19.68628,23.64735,-10.34191,-114.22462,133.12094,-10.16673,-7.05197,33.04361,-12.76649,-11.64831,147.87328,-0.08414,-137.17621,161.43344,-27.82968,-12.36532,-39.12313,18.67542,-1.62074,3.06289,2.7584,6.83006,1.17359,2.49124,-3.96727,0.89644,2.5251,3.4277,-0.88848,2.84806,-0.93855,0.039,0.13584,0.38554,-0.22123,0.43895
841,-14.87242,30.63099,-11.73782,-39.50121,121.72787,-3.13373,-28.18323,27.87172,-9.42944,-116.8207,136.23073,-9.76128,-7.16039,34.15738,-13.24068,-11.0154,150.10806,-0.09471,-149.20352,170.81354,-28.54749,-7.27543,-37.39999,20.43583,-5.28235,5.0661,3.51883,6.0793,1.04079,2.58577,-4.84454,2.43583,2.19181,3.53435,-1.04366,3.0074,-1.1722,0.24138,0.27496,0.37083,-0.25373,0.45949
842,-17.85501,32.19967,-12.03818,-36.65649,121.54743,-2.98303,-38.31514,28.4793,-8.85031,-116.74576,131.03894,-10.93327,-7.24022,35.44501,-13.77952,-10.62163,152.14934,-0.09629,-158.58559,165.95329,-32.28111,-6.89594,-35.74098,26.50723,-8.84836,7.81363,6.34311,6.01328,-0.04544,3.51912,-3.81771,2.51367,2.2653,3.66029,-0.99745,3.2287,-0.94749,0.27772,0.55714,0.34632,-0.16887,0.4982
843,-19.65383,34.31115,-12.65822,-33.1142,121.77411,-2.75741,-40.53131,28.55284,-10.16152,-115.7975,125.46744,-13.0647,-7.27852,36.89811,-14.29945,-10.23104,153.74763,-0.06852,-157.03737,158.93782,-38.01768,-15.11169,-40.00357,31.32337,-8.74766,10.86356,10.78274,7.24281,-0.21451,4.43164,-1.92326,1.20581,4.12722,3.92418,-0.80339,3.6058,-0.50182,0.11841,0.96066,0.33237,-0.07103,0.55591
844,-19.12548,37.20621,-13.44771,-29.84876,122.83216,-2.62139,-34.90501,31.69911,-11.94732,-116.45522,124.98424,-15.99721,-7.32105,38.58015,-14.74161,-9.84532,154.72446,-0.05269,-149.87047,161.09322,-44.7145,-20.6438,-39.22871,25.63327,-5.78607,10.65559,10.77768,9.32439,-0.03904,5.29107,-0.12542,0.19127,4.20501,4.57216,-0.92621,4.16687,0.00831,-0.0003,0.85805,0.41476,-0.11212,0.66987
845,-18.19471,40.03517,-14.02972,-27.16616,124.28563,-2.40552,-31.68444,35.58557,-12.144,-120.22483,129.82959,-17.70166,-7.46265,40.57772,-15.1709,-9.64918,155.06125,0.01051,-154.35335,170.07315,-47.85108,-14.81613,-32.22563,12.24684,-3.30866,5.76768,4.67944,9.64812,0.02711,5.38408,0.97741,-0.12631,0.66721,5.10225,-1.15742,4.40625,0.40495,-0.02058,0.11378,0.55187,-0.21223,0.75496
846,-18.36032,42.13464,-14.38248,-24.16493,125.28728,-1.79644,-33.39638,35.80721,-11.29748,-124.36123,137.37485,-15.53067,-7.71954,42.95751,-15.67717,-9.68697,154.73549,0.24983,-167.78008,177.25191,-43.12515,-7.7517,-30.9028,7.20055,-1.88132,2.19109,1.22869,5.97698,0.73113,3.35985,1.3156,-0.48615,-1.02522,4.6056,-1.14729,3.59748,0.52359,-0.09085,-0.18548,0.56521,-0.25417,0.60906
847,-19.55554,44.22464,-14.79643,-20.39843,124.52769,-0.93301,-35.0811,34.72591,-11.37501,-124.81182,142.87503,-10.88817,-7.99885,45.68627,-16.30248,-9.77344,153.52829,0.66048,-172.20175,180.93402,-34.82678,-9.65457,-37.15579,16.11533,-1.6045,4.6877,4.8182,1.23073,1.37083,0.36403,1.12823,-0.4117,1.69922,3.35966,-1.25658,2.0048,0.37212,-0.12185,0.39025,0.44816,-0.32762,0.26325
848,-21.25247,46.90526,-15.30546,-16.95566,121.25893,-0.17721,-36.41673,35.93997,-12.28419,-123.64517,141.64386,-8.54995,-8.14948,48.65423,-16.99188,-9.75602,151.11786,1.10921,-169.50694,180.41339,-31.26992,-14.55462,-42.36252,27.98281,-4.31643,8.75618,8.62512,1.56995,0.51495,-0.04916,0.21518,0.50667,3.6507,2.63386,-1.501,1.02782,0.0563,0.00562,0.87592,0.3772,-0.42509,0.05033
849,-22.70581,49.47327,-15.58652,-14.53332,115.61913,0.32984,-40.21269,36.40325,-11.82606,-123.88672,131.68622,-11.14703,-8.07262,51.80143,-17.62414,-9.73057,147.18982,1.45822,-173.92398,167.80916,-34.12145,-13.21717,-44.47522,34.56511,-8.53189,8.91947,7.76784,8.2337,-0.58604,3.35208,-0.7752,0.95072,1.93529,3.10892,-1.13791,1.81629,-0.16317,0.14617,0.6977,0.40761,-0.32477,0.19923
850,-23.02537,51.14597,-15.45799,-12.23546,108.88607,0.68798,-44.12147,33.35278,-9.18115,-122.64401,118.89803,-15.41815,-7.84407,55.10592,-18.12707,-9.8822,141.44911,1.67084,-181.2695,146.91493,-37.33795,-8.17142,-45.54246,37.22302,-10.24513,6.32528,5.18375,15.73244,-0.23274,7.65006,-0.74953,0.26356,-0.30174,4.59383,-0.39589,3.82562,-0.08392,0.09631,0.30733,0.48238,-0.06696,0.55193
851,-22.24136,52.00343,-15.14251,-8.89014,102.33685,1.07808,-43.81823,30.27607,-6.6105,-115.92178,110.66585,-16.49169,-7.72128,58.53109,-18.55952,-10.26069,133.81311,1.83053,-175.60951,134.05426,-37.0037,-6.5404,-42.615,36.41804,-9.47231,4.00414,3.86378,17.22389,0.44975,8.7684,-0.40079,-0.53188,-0.77691,5.85344,-0.28052,4.8786,0.08743,-0.09458,0.09708,0.55955,0.02668,0.70257
852,-21.33639,52.69978,-14.97124,-4.38504,96.26176,1.71298,-40.05776,31.28965,-6.67552,-104.82468,107.91474,-12.86286,-7.8774,62.02365,-19.00909,-10.80823,124.59516,2.10987,-155.37674,136.7282,-33.90442,-7.2559,-40.80739,30.95016,-7.7519,3.8198,4.09601,9.57817,-0.79114,4.80077,-0.26311,-0.77116,0.04129,5.25505,-1.01065,3.25515,0.1382,-0.24877,0.09875,0.54943,-0.14677,0.39713
853,-20.50719,54.18303,-15.09261,0.22266,90.99664,2.648,-35.09832,36.11362,-9.05088,-95.46793,109.69653,-6.3898,-8.13545,65.48595,-19.44307,-11.49364,114.23808,2.66857,-133.76984,150.51404,-28.2616,-5.52983,-50.755,22.75496,-5.37545,5.46827,4.80499,-2.3266,-2.35537,-1.31397,0.62475,-0.75784,0.83661,2.79891,-1.45754,0.35746,0.24068,-0.26615,0.21622,0.33579,-0.30865,-0.10892
854,-19.92894,56.68103,-15.32537,3.4193,86.45396,3.56845,-31.02788,42.02931,-11.10084,-92.91035,114.18403,-0.69297,-8.23291,68.73753,-19.84127,-12.34808,102.95834,3.41259,-123.64975,166.9472,-21.80093,-0.44545,-61.66393,14.29446,-3.89112,5.05615,4.05017,-8.45432,-1.13971,-3.75068,1.85446,-1.02573,0.28803,0.45079,-0.76535,-0.67553,0.42141,-0.17227,0.20606,0.01843,-0.20355,-0.27862
855,-19.91901,58.45447,-15.13173,4.94329,81.46893,4.14543,-29.65754,45.07822,-10.53068,-92.05365,117.51408,3.21475,-8.14579,71.57364,-20.21578,-13.36986,90.90229,4.03071,-121.62485,177.46257,-16.10299,11.15308,-50.65628,7.02414,-4.05356,1.07971,1.68023,-5.39197,0.81494,-1.65138,2.53512,-1.85051,-1.51913,-0.28788,0.1519,0.14292,0.56755,-0.11502,-0.07501,-0.18571,0.0469,-0.07128
856,-20.25884,57.56306,-14.11141,5.70314,75.25384,4.4218,-31.53741,41.78593,-7.07927,-86.26369,118.65115,7.95311,-8.03807,73.81709,-20.50074,-14.58114,78.48128,4.36556,-119.76234,177.088,-7.71161,27.04925,-21.5406,4.59457,-3.76468,-1.33393,-0.08614,-0.03397,0.10466,0.29209,3.42338,-2.69443,-2.99474,0.19319,0.24905,0.39756,0.76254,-0.17082,-0.46044,-0.18368,0.17085,0.0854
857,-20.98656,54.13788,-12.42846,6.49102,68.57681,4.58727,-36.66541,32.61011,-2.68288,-80.88454,119.89047,14.21613,-8.06501,75.26468,-20.61485,-16.08833,66.2804,4.55377,-124.23009,166.61336,5.45897,29.57366,-0.53168,8.31103,-0.1978,0.92801,-0.56806,1.3309,-2.37944,-0.40635,5.09717,-2.69435,-3.05893,1.1961,-0.32842,-0.30591,1.00293,-0.23216,-0.66281,0.04295,0.05253,-0.01348
858,-21.18872,50.0719,-10.70612,8.02077,61.53305,4.61632,-40.50444,21.98385,0.00715,-81.2015,117.78928,17.97024,-8.19464,75.79423,-20.42437,-17.89647,54.66381,4.69733,-133.32878,147.22525,16.20399,12.02639,2.25168,11.86867,6.62584,3.22555,-1.32434,-0.61864,-4.35901,-2.47147,6.54171,-1.79111,-2.11863,2.03314,-1.02342,-1.19682,1.10981,-0.1419,-0.53822,0.28755,-0.21087,-0.34823
859,-18.40321,46.63947,-9.4813,10.95769,52.56392,4.38086,-34.43639,14.09885,0.4848,-80.33547,104.78301,15.44084,-8.30943,75.37949,-19.75187,-19.73811,43.78394,4.6986,-126.35979,119.03925,16.04478,-1.42827,-2.34796,10.70049,10.85515,1.18823,-2.27642,-3.41124,-5.78474,-4.88268,6.43347,-0.9346,-1.36319,1.55169,-1.50244,-2.49759,1.02082,0.06596,-0.27502,0.20135,-0.40575,-0.80504
860,-13.5589,42.98638,-8.39305,14.77689,42.32559,3.90031,-20.91623,9.19655,1.2334,-73.16252,86.79925,9.96964,-8.5825,73.77921,-18.67378,-21.28434,33.89802,4.55477,-102.41401,92.6747,10.29839,12.14411,-4.95712,7.88685,7.96331,-3.14091,-2.32429,-5.91282,-7.33529,-7.34654,5.38125,-1.37043,-1.79443,-0.18064,-1.57792,-4.14184,0.9357,0.08772,-0.28662,-0.16039,-0.37232,-1.06446
861,-10.67508,37.03913,-6.32822,17.36909,33.60032,3.31282,-12.65495,2.51388,4.6429,-66.82642,77.89198,8.31786,-9.28958,70.49962,-17.35085,-22.54285,25.24309,4.41825,-87.54519,78.5704,12.38494,41.2529,-4.57614,4.70182,3.49529,-5.62197,-2.23124,-7.93841,-8.32769,-9.38766,5.61097,-2.78048,-3.04909,-2.16122,-1.24334,-5.5054,1.0786,-0.14748,-0.62573,-0.53171,-0.11914,-0.98526
862,-9.75158,28.56081,-3.2107,17.44009,26.62218,2.80928,-11.56988,-8.09866,9.30863,-67.13402,76.45688,10.79619,-10.21357,65.2473,-15.62863,-23.73632,17.71035,4.28686,-89.73034,69.21629,22.48122,57.09102,-2.9862,-3.16966,4.9847,-5.85359,-3.18262,-9.81513,-6.90691,-9.90025,7.62067,-3.52779,-3.94284,-3.67762,-0.65337,-5.6402,1.29901,-0.30355,-0.88859,-0.78882,0.17658,-0.68844
863,-8.66164,19.59667,-0.07678,16.69697,20.25674,2.42583,-10.565,-17.77964,12.17207,-69.04099,72.06415,13.0879,-10.90556,58.16012,-13.41018,-24.92221,11.02554,4.02973,-92.89303,55.97248,29.54754,50.33036,0.8394,-18.31513,12.30634,-5.47883,-4.74911,-11.6372,-3.57078,-8.80226,9.85289,-2.84634,-3.9118,-4.11246,-0.15118,-4.36143,1.34934,-0.18398,-0.82015,-0.81232,0.29762,-0.39239
864,-7.30189,11.84414,2.47602,17.89239,15.10573,1.95929,-4.47623,-20.91431,12.23244,-65.81025,64.86143,14.10844,-11.21132,49.6796,-10.87915,-25.95489,5.12365,3.64053,-82.50871,46.80649,30.426,36.34476,10.87584,-35.07264,19.03838,-4.51152,-5.6133,-13.35677,-2.16509,-8.40289,10.59851,-1.34526,-3.21747,-3.79978,-0.13377,-3.4398,1.24226,0.06802,-0.58886,-0.67398,0.18866,-0.40515
865,-6.18907,5.6941,4.53061,21.22072,11.71179,1.2984,6.16772,-17.39674,10.92843,-57.59783,60.55222,15.27788,-11.14964,40.35058,-8.17338,-26.65224,0.15558,3.20564,-59.4313,48.94331,31.11889,30.23009,28.00557,-42.64079,19.40293,-1.62066,-4.99821,-14.2591,-4.96917,-10.04756,9.10921,0.17191,-2.17053,-3.62882,-0.67142,-4.18433,1.05237,0.27905,-0.38908,-0.60659,-0.04005,-0.76339
866,-5.07213,1.44205,5.93517,24.0241,9.31059,0.57298,14.49957,-11.19216,9.87022,-51.09171,59.83181,16.01189,-10.66186,30.91661,-5.42507,-27.00635,-3.6985,2.80732,-42.30837,54.17274,33.2907,31.17897,47.15096,-39.83895,16.01876,2.22135,-3.96566,-13.33234,-10.20094,-12.60362,6.80009,1.04953,-1.23202,-3.69885,-1.46484,-5.99886,0.84064,0.32563,-0.29322,-0.67823,-0.24562,-1.17113
867,-2.68093,1.32671,4.92027,24.48599,7.79379,-0.07786,17.66416,-1.25422,7.10315,-52.43892,61.72602,14.98772,-9.58519,22.60232,-3.03763,-27.22073,-6.29349,2.56082,-46.26768,58.9323,30.99018,35.76344,58.75216,-35.34943,16.42383,4.72659,-4.1443,-10.79768,-14.06248,-14.48607,6.2751,1.10909,-1.01671,-3.17428,-2.15504,-7.5571,0.7777,0.15327,-0.37921,-0.65469,-0.35467,-1.37412
868,-0.91721,5.71908,1.26648,24.19621,7.72855,-0.6458,16.27395,9.01056,3.2667,-58.8047,66.70197,13.44819,-8.12224,16.22791,-1.5027,-27.44337,-7.63664,2.48337,-66.47915,62.43749,26.38339,47.50947,55.05806,-31.51911,20.12189,5.1828,-5.03649,-9.24489,-13.80531,-15.24265,7.84795,0.89819,-1.50389,-1.88433,-2.47414,-7.87999,0.95682,-0.04603,-0.60139,-0.37716,-0.38053,-1.32319
869,-3.91716,9.85896,-1.0862,25.57106,7.54741,-1.02654,11.54287,4.17034,5.58125,-61.00617,69.59799,12.95428,-6.84131,11.37004,-0.75319,-27.61893,-8.10698,2.30975,-83.61687,47.45179,31.84936,64.27679,40.92556,-24.62901,19.98995,3.6161,-4.85252,-11.231,-9.75394,-15.28741,9.44379,0.98039,-2.11613,-1.01377,-2.22499,-6.79478,1.26458,0.03762,-0.74652,-0.06492,-0.33448,-1.09172
870,-10.08987,10.5826,-0.25767,28.55641,5.2382,-1.01147,12.03051,-16.47284,15.25388,-55.90205,63.53296,12.96408,-5.83056,7.44045,-0.28299,-27.71099,-8.17516,1.81505,-78.55742,11.35906,49.08724,70.3756,30.97909,-19.21548,15.54803,0.70299,-3.6496,-15.91707,-4.20613,-14.69584,9.32872,1.22498,-2.42792,-1.69494,-1.35158,-4.95295,1.40783,0.34855,-0.66253,-0.04895,-0.18993,-0.8184
871,-12.27858,8.51392,0.75208,31.15979,2.01792,-0.66929,26.61,-32.53438,23.97273,-49.78257,51.48636,12.10262,-4.52925,4.27443,0.10864,-27.87934,-7.93043,1.17926,-49.84944,-17.20914,64.67023,55.98615,33.54484,-26.38372,14.13134,-1.74899,-3.94281,-19.84899,0.08986,-13.72365,7.85128,0.75481,-2.83669,-3.27451,-0.30318,-3.47156,1.21706,0.42477,-0.52108,-0.30574,-0.01998,-0.66488
872,-7.33072,5.37957,-0.93321,32.60832,0.58914,-0.37897,46.09921,-29.56333,24.45422,-44.57519,41.18654,9.54425,-2.57779,1.72232,0.22912,-28.14647,-7.31446,0.72747,-16.9234,-19.09056,63.50727,36.0095,46.16471,-44.51815,18.81336,-0.49473,-6.47974,-20.42167,0.68951,-13.493,6.88814,-0.08296,-3.44501,-3.91569,0.00566,-3.19544,0.96799,0.17745,-0.53555,-0.4743,0.00184,-0.70275
873,-2.29002,0.37907,-2.40906,33.7058,1.99424,-0.40329,47.37374,-24.25719,20.45326,-35.41335,35.79114,5.95345,-0.31388,-2.29706,0.0076,-28.21898,-6.51962,0.53984,-6.28999,-20.55317,47.06786,32.49805,60.74471,-57.15248,24.16353,4.47906,-8.65351,-18.43468,-2.06199,-14.29608,7.35429,-0.07196,-3.56103,-3.29284,-0.59609,-3.80635,0.9296,-0.02123,-0.60323,-0.40878,-0.12124,-0.79208
874,0.15146,-1.82087,-2.10425,34.33121,5.53792,-0.62999,32.43374,-27.74429,17.00262,-25.82809,34.50357,3.14536,0.13283,-2.97081,0.11586,-27.93702,-5.7963,0.50767,-19.20898,-36.97626,28.61852,45.30973,68.40314,-55.43516,25.30843,7.0597,-9.01202,-16.78008,-5.10013,-15.18493,8.51313,0.36077,-3.59122,-2.74389,-1.1738,-4.26476,1.00667,-0.03863,-0.61634,-0.32136,-0.17808,-0.73654
875,-0.29899,-4.50255,2.63602,33.84825,8.99956,-0.69623,24.09237,-47.66531,24.19163,-24.64232,32.69142,1.44957,0.01403,-2.98195,0.50242,-27.49868,-5.21333,0.48546,-32.70829,-73.69788,30.38288,53.21327,64.33675,-46.41059,21.76965,4.00683,-7.97089,-16.75566,-6.29814,-15.5009,8.95722,0.43972,-3.95707,-2.87234,-1.13099,-4.13849,0.98373,0.03701,-0.54722,-0.35146,-0.09484,-0.57432
876,2.08811,-5.3159,4.04194,32.7968,10.61938,-0.5194,40.51362,-48.26955,34.03132,-31.61018,29.27003,0.65636,0.10274,-2.24791,0.68045,-27.17841,-4.73869,0.34177,-19.15821,-76.96581,46.63101,38.10629,50.72218,-41.01373,15.60499,-0.11654,-5.95011,-17.06937,-5.70494,-14.99919,7.92423,0.4656,-3.7589,-3.11117,-0.83567,-3.7353,0.80446,0.14674,-0.36898,-0.42642,-0.03161,-0.4981
877,8.16775,-2.85005,-3.87844,33.89048,10.56487,-0.25593,70.56041,-17.58793,37.42474,-34.65921,28.57096,1.69868,1.17469,-1.27803,0.16013,-26.91445,-4.44424,0.03359,21.12307,-27.62748,61.84309,2.61679,38.77697,-43.15005,10.0736,-0.47281,-3.79895,-16.70877,-3.37273,-13.46801,5.97798,0.58771,-2.69031,-3.30886,-0.41782,-3.2539,0.57875,0.18268,-0.2289,-0.5016,-0.03487,-0.53271
878,12.25528,0.11004,-13.05369,38.40845,9.99324,-0.02102,84.40184,9.43731,34.5596,-26.64747,30.35102,3.27774,2.72702,-0.83437,-0.33917,-26.44065,-4.50003,-0.33818,53.2971,17.90325,63.54736,-27.77211,43.02251,-48.49988,7.2541,1.58984,-2.88748,-16.745,0.43873,-11.96591,4.26731,0.37912,-1.97972,-3.72,0.45902,-2.75637,0.41315,0.05849,-0.33616,-0.54287,0.02677,-0.52049
879,11.50851,0.08306,-11.84608,42.6332,10.52937,-0.13837,70.37318,4.45057,28.42161,-16.07074,30.42373,1.40537,3.61795,-0.97231,0.10741,-25.79906,-4.89544,-0.58578,47.68159,9.22308,45.9963,-25.98335,64.61877,-52.76398,8.25394,1.55797,-4.62572,-18.23714,3.52547,-12.477,3.59708,-0.24965,-3.02829,-4.20594,1.4573,-2.67333,0.32775,-0.12559,-0.66136,-0.48488,0.16253,-0.42444
880,8.72576,-2.6375,-0.29072,42.576,12.23487,-0.75353,45.54356,-20.1806,22.57295,-12.01244,26.11632,-4.73463,3.38188,-1.27598,1.29919,-25.30952,-5.47739,-0.69446,16.97819,-39.1461,18.1431,4.13603,82.90166,-57.89006,13.71577,-1.44726,-9.62384,-20.01223,3.41486,-15.09273,3.80533,-0.87217,-5.8816,-4.63011,1.63504,-3.54208,0.3132,-0.21841,-1.04066,-0.43069,0.21172,-0.47666
881,4.15267,-3.62708,8.58635,39.72887,12.74498,-1.32892,28.55478,-35.28571,19.77608,-9.87522,17.41676,-10.45806,2.29368,-1.35604,2.10512,-25.0726,-6.27274,-0.88652,-2.84527,-81.04616,-2.37323,32.35227,74.40739,-62.67361,18.80548,-2.98435,-14.52275,-20.4398,0.84876,-17.56856,3.55106,-1.02684,-8.21695,-4.98909,0.85404,-4.93703,0.30028,-0.21173,-1.32917,-0.52683,0.11408,-0.78229
882,0.93694,-0.65376,0.36398,39.40765,12.04196,-1.42329,29.90002,-23.10882,22.63731,0.26656,12.7465,-10.08451,1.51087,-0.99219,1.43198,-24.74101,-7.35797,-1.16081,15.36015,-75.8077,1.36951,40.54672,44.22562,-55.36536,14.85627,0.03913,-12.87285,-19.69682,0.109,-17.88391,2.30135,-0.64795,-7.28763,-4.89794,0.45543,-5.22777,0.22453,-0.15878,-1.33405,-0.6248,0.08236,-0.9393
883,5.2374,4.0943,-20.97496,41.91965,13.13957,-1.4979,46.60389,6.05308,31.93522,11.85244,22.57126,-3.35219,1.9051,-0.20728,-0.31556,-24.05016,-8.65207,-1.25422,55.40048,-24.20527,30.86891,34.27121,22.09988,-32.37725,2.46501,4.19567,-4.27507,-17.89388,2.28535,-15.90696,0.91401,-0.20918,-3.77053,-3.71918,0.84328,-3.66063,-0.00119,-0.09523,-0.94395,-0.45092,0.16981,-0.5961
884,13.34387,7.25694,-32.83327,43.51882,15.9312,-1.95501,63.3026,16.44534,38.75324,14.678,39.87655,4.20719,2.71099,0.59881,-1.51254,-23.12775,-10.08167,-1.18771,82.33315,12.50858,58.79332,20.8457,25.8399,-12.56314,-5.49649,4.41103,2.05423,-14.21505,2.94497,-12.24064,0.23396,-0.09585,-1.3931,-1.98713,0.59232,-1.62097,-0.30469,-0.03334,-0.40501,-0.1555,0.10978,-0.09859
885,15.78289,6.6269,-23.60718,42.98182,16.07738,-2.40376,68.50443,-5.68647,31.94987,11.40259,44.06229,6.50329,2.77335,0.94269,-1.45417,-22.27877,-11.65846,-1.3419,85.6739,-11.36878,54.50255,-0.17109,44.42515,-14.40841,-0.73573,-0.22822,-1.98207,-8.93697,1.11691,-7.18862,0.14888,-0.17575,-2.43342,-1.15254,0.0471,-0.6048,-0.44,0.00888,-0.20001,-0.15087,-0.02431,0.01695
886,12.1223,3.20543,-6.52322,41.53926,11.12882,-2.50821,57.23352,-29.65304,13.07556,6.28277,27.40922,1.64961,2.24613,0.89907,-0.77742,-21.6486,-13.31157,-1.89435,64.66935,-60.71635,16.60921,-24.3586,56.50364,-29.81668,8.80719,-6.17296,-11.9116,-4.32924,-0.25369,-2.55584,-0.02654,-0.11643,-4.99605,-1.25473,0.44083,-0.62569,-0.39497,0.02221,-0.39775,-0.38528,0.01139,-0.20914
887,7.85388,1.3344,0.87257,42.08316,5.64416,-2.60915,34.66451,-26.75525,-0.79412,4.96764,9.47332,-5.21688,1.86275,0.97586,0.11511,-21.01468,-14.78246,-2.43222,30.53218,-71.58553,-23.06363,-36.50545,52.23355,-35.12808,11.44436,-8.86347,-15.74967,-3.38883,-1.24282,-1.25908,0.11716,-0.08293,-5.52314,-1.3769,0.61927,-0.89,-0.26771,0.01549,-0.52351,-0.49004,0.04313,-0.34832
888,6.1935,2.93798,-0.93975,45.72662,5.4165,-3.08224,17.59418,-6.67571,6.60814,14.50766,11.48891,-6.89112,1.64532,1.0261,1.46477,-20.2053,-15.89109,-2.50053,14.51372,-34.31334,-28.78226,-25.30973,39.65519,-22.59734,6.85688,-7.93949,-11.00108,-5.13587,0.24174,-3.0965,1.16113,-0.55964,-4.26352,-1.17902,0.74944,-0.76518,-0.07802,-0.03565,-0.38483,-0.3503,0.07627,-0.20802
889,8.1907,5.72512,-2.13005,48.6396,7.27186,-3.47871,14.80397,7.75945,26.74057,29.71633,21.13017,-3.71838,1.42435,0.68306,2.55895,-19.44119,-16.84991,-2.35438,27.10281,2.79201,-4.40692,-1.95307,37.19405,-8.80462,1.6601,-6.40088,-6.3873,-5.05426,8.55198,-5.82597,1.98329,-1.14052,-4.46887,-0.62838,3.18965,-0.83059,0.05013,-0.11083,-0.41756,-0.07686,0.42641,-0.06302
890,11.19356,7.14082,0.27401,47.80186,4.90786,-3.36096,20.61845,7.06244,40.8223,37.92835,16.20392,-1.5057,1.31535,0.16344,2.54982,-18.91129,-17.94579,-2.49486,45.61757,0.73468,20.72251,6.31736,50.3925,-8.04987,-0.6377,-4.733,-6.41873,-3.0339,14.82319,-7.2322,1.42692,-0.89306,-6.15027,-0.11254,5.32861,-1.63713,-0.02374,-0.10665,-0.77756,0.11697,0.70957,-0.15482
891,10.53853,6.61849,1.90063,46.79293,-0.31227,-3.17034,26.15244,-4.67679,43.24196,41.41639,4.48584,-1.76882,1.18412,-0.28357,1.69237,-18.36357,-19.22302,-2.89945,56.35882,-23.17288,30.93283,-8.38303,58.75746,-12.41874,-0.74372,-1.90694,-6.25695,-3.38167,6.86501,-5.11051,-0.01565,0.15137,-5.56375,-0.49948,2.43686,-1.67421,-0.21766,0.03253,-0.82495,0.01836,0.29588,-0.21742
892,8.17451,7.66758,0.26253,49.79101,-2.79965,-3.48873,28.09402,-14.18298,48.05025,51.72629,7.92071,-0.93325,1.06186,-0.37111,0.71669,-17.4616,-20.61683,-3.23305,69.44563,-23.4809,42.95683,-25.40275,44.58908,-9.42596,-0.26163,0.71517,-2.12149,-4.37597,-5.08183,-1.06713,-1.1839,1.18041,-1.00908,-0.93307,-2.01351,-0.07785,-0.33482,0.2672,-0.07696,-0.17399,-0.33572,-0.06649
893,7.59187,12.73991,-0.60308,53.07831,-3.23278,-4.13337,24.98996,-13.28108,61.54095,62.03584,21.73551,1.74717,1.04711,0.09558,0.36321,-16.34234,-22.19789,-3.51864,78.85126,3.51677,64.83421,-31.96146,23.02688,-0.32517,0.07176,1.0768,2.31648,-2.84783,-8.08615,0.40493,-1.34615,1.60405,3.83433,-0.29653,-2.93644,1.24003,-0.2864,0.47608,0.84078,-0.17154,-0.47499,0.05442
894,4.92872,17.0204,-0.35481,52.87113,-5.57601,-4.56532,12.50419,-3.32232,58.02535,62.09924,25.67299,2.80152,0.7481,0.5518,0.52883,-15.23293,-24.04147,-3.89532,66.16935,29.22457,60.80281,-35.93092,22.30811,7.47044,-0.67759,-1.4478,1.58348,-1.79748,-5.85018,-1.22453,-0.62619,1.29809,3.96102,0.41723,-1.58971,1.01417,-0.12905,0.49178,0.9777,-0.04499,-0.27587,0.01626
895,-0.97945,13.28287,-1.71183,52.77758,-7.91286,-4.94813,-2.23409,5.12987,30.17026,59.09132,21.0122,0.62327,0.06143,0.13616,0.3533,-13.99755,-25.99193,-4.17235,43.77311,38.74764,24.40549,-41.24142,43.69337,9.7602,-3.06151,-5.40623,-4.21193,-0.58152,-1.57613,-3.29537,0.124,0.50354,-0.76266,1.14296,0.16489,0.0061,0.00721,0.22737,0.34199,0.16053,-0.04,-0.0731
896,-4.95021,2.55827,-5.58973,56.35195,-5.35175,-5.88794,5.11698,-6.89444,14.14153,59.88098,24.81803,-1.76638,-0.528,-0.77962,-0.92217,-12.52478,-27.76605,-4.18376,46.59819,23.69026,6.92847,-40.41374,57.33808,7.40558,-5.26348,-7.8276,-10.01585,3.94501,4.3044,-3.73331,0.35881,-0.48474,-6.20022,2.37849,1.76941,-0.78983,0.02915,-0.22737,-0.42904,0.36272,0.14746,-0.1458
897,-7.0413,-5.21102,-13.4732,61.96046,-0.81702,-6.92099,44.20368,-41.5604,27.97309,57.94332,33.45524,-1.84165,-0.81808,-1.08113,-2.89208,-10.93853,-29.35243,-4.22428,79.23476,-21.58801,22.48762,-28.74359,42.72248,3.99074,-4.7644,-7.12078,-11.81944,8.64011,6.23046,-0.07855,0.22046,-1.3491,-8.4652,3.30617,2.08348,-0.41778,-0.05245,-0.57705,-0.89246,0.4054,0.22127,-0.12303
898,-13.51493,-3.52135,-26.56592,67.0227,0.30462,-7.29212,86.3093,-66.05213,31.96214,49.18977,33.78713,-1.28083,-0.84973,-0.84979,-4.52078,-9.27819,-30.82476,-4.49075,104.58936,-58.53028,5.57828,-17.66519,17.43812,-1.93526,-2.22993,-4.71429,-10.4061,8.414,1.65667,7.38459,-0.15721,-1.17694,-6.24804,3.19512,0.72199,1.33818,-0.15986,-0.45834,-0.81,0.32813,0.13671,0.0953
899,-22.02665,1.13343,-41.25878,68.21932,0.44643,-7.86445,99.11613,-53.18913,-4.98877,35.08603,32.5132,-3.18007,-0.02952,-1.36096,-5.98594,-7.64197,-31.98382,-4.72484,91.10738,-36.98342,-74.97868,-22.58157,13.9814,-11.30555,-0.47642,-2.97809,-9.09282,3.89906,-4.19625,13.00605,-0.50494,0.20358,-1.96665,2.07001,-1.14862,3.2837,-0.19495,0.06709,-0.27591,0.16271,-0.06939,0.4398
900,-21.66627,-1.91967,-58.39544,66.29827,3.35615,-9.38235,93.02041,-25.24488,-62.26558,24.15572,40.33212,-6.73184,1.97779,-2.80393,-9.46873,-6.051,-32.62932,-4.74285,67.2813,18.78558,-161.03366,-35.32107,35.11597,-13.42531,-0.35802,-2.36983,-8.30432,-3.97563,-8.31541,12.73373,-0.4017,1.04261,-0.09561,-0.33788,-2.45588,4.17162,-0.12344,0.49796,0.15989,-0.15936,-0.23562,0.65932
901,-19.70811,-4.17091,-87.75106,65.67046,6.50487,-10.60816,82.7959,0.0328,-130.68605,22.61568,50.93093,-7.8972,3.14625,-1.72847,-15.07443,-4.4602,-32.72839,-4.70113,59.72005,64.37627,-220.94189,-35.67872,48.07652,1.98071,-0.58924,-1.64362,-4.80473,-8.47231,-9.85101,9.22386,-0.03008,-0.26888,-2.73629,-1.43796,-2.3588,3.81665,-0.05678,0.41354,-0.04957,-0.22308,-0.17837,0.53124
902,-46.90736,15.38685,-108.04236,67.72742,6.72694,-10.36958,-0.90801,51.21754,-191.49519,27.1155,53.07186,-5.45431,0.26041,4.13001,-15.05212,-3.01487,-32.18626,-4.71429,-14.55678,123.66315,-242.13139,-28.91107,22.6862,20.71052,-0.89997,-0.39659,2.12998,4.10482,-4.49488,3.15112,-0.08274,-2.73033,-7.4032,2.87307,-0.41348,1.63565,-0.19601,-0.16599,-0.83806,0.39967,0.06126,0.01942
903,-114.41577,46.87529,-88.00682,70.73038,5.33379,-9.18246,-214.69968,117.36521,-189.61301,32.86071,45.02201,-2.34485,-8.99274,10.45136,-4.51239,-1.92036,-30.91669,-4.68829,-224.89117,194.77054,-179.7104,-39.05542,-21.25401,30.14729,-2.78182,0.40755,6.65193,20.59853,0.76366,0.7814,-0.67453,-3.28564,-9.56534,7.44348,0.39876,0.47259,-0.53847,-0.70426,-1.49074,0.87489,0.07041,-0.19646
904,-177.81471,65.91524,-71.9199,72.575,3.86829,-7.88146,-405.09116,166.76025,-182.29294,38.02503,30.6433,-1.03567,-20.75226,13.97385,4.29163,-1.32893,-29.14921,-4.5791,-411.72659,233.05978,-133.42253,-59.66546,-28.17768,40.16861,-5.30678,0.23878,4.92906,14.85593,-2.72531,9.29614,-0.90829,-1.25758,-6.79385,4.9569,-1.4071,3.05644,-0.65428,-0.69554,-1.24537,0.47838,-0.16076,0.2886
905,-181.81071,68.36142,-85.59949,72.46877,1.85375,-6.67273,-403.18625,192.18211,-213.76723,41.18156,16.4872,-1.28636,-25.78126,15.43699,1.62999,-1.29831,-27.24661,-4.44705,-406.18399,234.6337,-179.60736,-57.99908,14.96434,55.10789,-5.40179,-0.13873,2.1284,0.07275,-7.32686,17.98856,-0.332,0.86918,-0.70709,0.61742,-2.71655,5.52403,-0.21946,-0.17513,-0.06391,0.05926,-0.24852,0.78776
906,-134.56157,56.67311,-88.25443,71.40174,-0.43197,-5.67894,-272.3511,168.73686,-205.43341,40.19308,9.7129,-2.33748,-18.5642,14.35433,-5.73076,-1.74992,-25.34043,-4.31415,-282.67181,206.87582,-210.18262,-31.28051,61.58918,72.99852,-2.91074,0.95736,4.52682,-2.11476,-9.07822,20.26595,0.4334,1.99384,4.18322,0.55794,-2.68973,5.84929,0.3406,0.49647,0.98715,0.21417,-0.24752,0.8921
907,-57.03419,29.21834,-60.88503,71.65342,-1.67176,-4.90682,-113.69708,97.5461,-135.95856,39.04038,8.5274,-3.6403,-3.1898,9.09498,-8.21936,-2.3735,-23.45538,-4.14917,-131.49458,137.09644,-163.54114,-5.51135,59.4735,81.03011,1.27448,3.1826,11.7721,3.91774,-9.1937,17.93123,0.60411,1.45266,4.91696,2.62437,-2.40661,5.02191,0.51604,0.76567,0.9462,0.47593,-0.26864,0.71916
908,8.9173,1.27587,-14.77815,71.87463,-1.28631,-4.3291,-12.99607,30.6326,-48.51726,38.37149,3.86776,-4.46312,8.37456,2.18094,-4.15373,-2.96214,-21.75403,-3.96059,-26.47996,44.23133,-72.02248,0.76372,13.94149,69.77079,5.9553,4.28836,18.0571,6.92067,-8.62513,14.45678,-0.06908,-0.9406,2.82952,3.19517,-2.31528,4.40616,0.30436,0.4259,0.23537,0.43299,-0.25323,0.53233
