PaulMeinheit/Bachelor_Muay_Thai/processed_Data/N2/teep/sliced/JointMoments/sliced6.csv
Unnamed: 0_level_0,R_KNEE_MOMENT,R_KNEE_MOMENT,R_KNEE_MOMENT,L_KNEE_MOMENT,L_KNEE_MOMENT,L_KNEE_MOMENT,R_HIP_MOMENT,R_HIP_MOMENT,R_HIP_MOMENT,L_HIP_MOMENT,L_HIP_MOMENT,L_HIP_MOMENT,R_ANKLE_MOMENT,R_ANKLE_MOMENT,R_ANKLE_MOMENT,L_ANKLE_MOMENT,L_ANKLE_MOMENT,L_ANKLE_MOMENT,WAIST_JOINT_MOMENT,WAIST_JOINT_MOMENT,WAIST_JOINT_MOMENT,NECK_MOMENT,NECK_MOMENT,NECK_MOMENT,L_SHOULDER_MOMENT,L_SHOULDER_MOMENT,L_SHOULDER_MOMENT,R_SHOULDER_MOMENT,R_SHOULDER_MOMENT,R_SHOULDER_MOMENT,L_ELBOW_MOMENT,L_ELBOW_MOMENT,L_ELBOW_MOMENT,R_ELBOW_MOMENT,R_ELBOW_MOMENT,R_ELBOW_MOMENT,L_WRIST_MOMENT,L_WRIST_MOMENT,L_WRIST_MOMENT,R_WRIST_MOMENT,R_WRIST_MOMENT,R_WRIST_MOMENT
ITEM,X,Y,Z,X,Y,Z,X,Y,Z,X,Y,Z,X,Y,Z,X,Y,Z,X,Y,Z,X,Y,Z,X,Y,Z,X,Y,Z,X,Y,Z,X,Y,Z,X,Y,Z,X,Y,Z
1705,-0.94481,21.22266,-7.08391,-40.38637,91.4726,2.49542,-9.35993,18.34653,-4.73057,-74.17583,83.42065,-1.74483,-0.64487,26.0,-8.08743,-5.21626,117.47055,6.46378,-88.59835,103.85364,-12.90052,-14.856,1.00737,6.54548,4.9043,0.26877,1.13584,2.54483,-3.38837,1.96193,-0.96135,-0.74043,1.34813,1.25172,-1.43391,1.22328,-0.36742,0.20031,0.18492,0.16804,-0.14555,0.18349
1706,-0.8526,22.66876,-7.58227,-41.40562,86.95022,2.60909,-8.14025,19.94036,-5.14274,-76.38241,80.3114,-1.34973,-0.72295,26.84041,-8.49791,-6.90163,114.58885,6.72876,-92.9557,102.1128,-12.10064,-14.32619,-7.55595,8.91541,3.67158,0.33172,1.22198,4.64934,-3.72308,1.68346,-0.66226,-0.746,1.26091,1.65658,-1.71211,1.36106,-0.25067,0.071,0.24006,0.22302,-0.30239,0.20212
1707,-2.18824,23.70938,-8.2079,-42.61276,81.55981,2.63922,-8.87724,18.83826,-6.45667,-81.58828,75.11668,-1.43142,-0.85837,27.64095,-9.01569,-8.69634,111.1959,6.92697,-100.49741,96.73518,-13.16366,-13.7244,-12.56313,11.9171,2.32562,0.60108,0.99816,5.08379,-5.81154,2.43138,-0.16959,-0.69247,0.69924,1.7145,-2.38425,1.50495,0.03867,-0.08623,0.10707,0.21893,-0.38828,0.22837
1708,-4.49617,24.12839,-8.74375,-44.75775,77.06184,3.15019,-13.40706,15.39167,-7.56969,-90.61545,74.95898,0.37287,-0.98453,28.49257,-9.55772,-10.64818,107.29037,7.15489,-114.2002,96.18697,-10.80784,-18.21469,-7.67447,15.87285,1.2032,1.05675,1.11967,3.55781,-8.64403,3.85807,-0.38326,-0.2729,0.57798,1.25501,-2.76381,1.4035,0.18017,-0.0866,-0.05725,0.11074,-0.30015,0.19563
1709,-6.07783,24.41571,-9.12742,-46.8413,73.2294,3.96333,-18.70851,12.56425,-7.83812,-98.72329,78.06608,3.29552,-1.08182,29.46217,-10.04543,-12.71623,102.99254,7.44635,-127.77874,98.91033,-5.77667,-24.29418,-1.24936,20.06309,-0.00792,1.66726,2.10113,2.41308,-9.2517,4.40153,-1.54272,0.18708,1.30913,0.8096,-2.23061,1.14648,0.00522,0.02767,-0.08658,0.00707,-0.10011,0.12227
1710,-6.06986,25.47762,-9.51869,-47.1373,68.74279,4.42356,-20.58097,14.71551,-7.70734,-97.03381,76.5551,4.38256,-1.2596,30.51943,-10.50124,-14.77639,98.40363,7.7145,-126.69041,98.1788,-5.19818,-24.23502,-2.19613,19.79052,-0.70092,1.57533,2.95754,2.92811,-6.05017,3.14653,-2.78331,0.2948,2.27766,0.87377,-1.21457,1.03549,-0.36785,0.08587,0.06802,0.02445,0.00747,0.10068
1711,-5.3811,27.17299,-10.0254,-46.22784,63.69321,4.49586,-17.38363,20.47392,-7.96813,-86.88975,71.22733,4.15955,-1.53479,31.63905,-10.99824,-16.74533,93.53386,7.8437,-107.92005,95.29403,-9.12822,-17.14568,-9.17649,11.94036,0.69378,0.17805,2.24269,3.54093,-0.92384,1.05011,-3.1682,0.16931,2.67273,1.3385,-0.594,1.16842,-0.69061,0.04534,0.30682,0.14964,-0.05723,0.16593
1712,-5.75216,28.68094,-10.60785,-46.11705,59.3138,4.74527,-12.88427,24.1279,-8.69415,-81.63012,71.82084,5.93998,-1.73886,32.7704,-11.58316,-18.57238,88.26757,7.81369,-92.21522,99.61636,-8.99182,-11.95836,-19.333,2.11951,3.93583,-0.83292,0.19863,2.50807,2.73797,-0.3855,-2.46353,0.38477,2.04771,1.64516,-0.64445,1.2754,-0.74803,0.11137,0.37993,0.24113,-0.17922,0.22783
1713,-7.63927,30.48151,-11.30328,-46.81819,55.58339,5.25406,-13.28222,26.40056,-9.58763,-87.94882,79.71977,9.35284,-1.78986,33.76338,-12.21789,-20.20506,82.45702,7.69032,-99.62704,114.11021,-3.64883,-15.30952,-29.01169,-1.01898,5.86244,0.62984,-1.15324,0.99685,3.59585,-0.81844,-1.29902,1.21806,0.77813,1.60291,-0.99801,1.20445,-0.555,0.39826,0.20065,0.22465,-0.2508,0.21526
1714,-9.99769,33.29032,-12.13083,-46.65228,51.464,5.57329,-20.33744,31.25809,-10.53814,-98.17671,84.62418,10.62401,-1.85645,34.56056,-12.79881,-21.70913,76.2499,7.54549,-123.41663,127.18733,-1.42799,-23.77707,-29.77856,3.45528,4.53485,3.65741,-0.2299,1.88,2.69166,-0.63781,-1.01969,2.12423,0.29565,1.67553,-1.15162,1.22173,-0.42401,0.67904,0.03288,0.20529,-0.25097,0.19393
1715,-11.83982,35.64022,-12.84117,-44.94003,47.23529,5.60691,-28.97826,35.1538,-11.24832,-103.16713,82.71864,9.40493,-2.14203,35.30084,-13.27796,-23.27316,70.05755,7.38772,-141.21457,128.96042,-3.92638,-30.5725,-23.39043,11.36099,1.61054,6.05786,3.19073,4.77193,0.55238,0.16318,-2.16534,1.87913,1.71686,1.96376,-1.22822,1.41951,-0.56625,0.59049,0.18805,0.24948,-0.22822,0.23262
1716,-12.56985,36.13057,-13.26431,-42.53867,44.01455,5.60593,-31.73062,33.35814,-11.50371,-101.95132,81.13607,9.23957,-2.64557,36.14672,-13.70957,-24.99965,64.09936,7.13501,-139.7552,125.33342,-4.47209,-31.20283,-23.46605,18.86293,-0.52943,6.82331,7.49888,6.61787,-2.41346,1.45619,-3.59909,0.22672,4.23428,2.11373,-1.56603,1.56955,-0.80964,0.12693,0.63463,0.27429,-0.2281,0.28049
1717,-11.97185,36.26758,-13.6645,-39.81963,41.40421,5.57553,-26.87078,29.81078,-11.78093,-96.88357,81.89323,11.3879,-3.20485,37.13356,-14.1601,-26.76391,58.32748,6.75435,-122.87952,123.58368,-1.96543,-25.57362,-32.69828,21.48136,-1.02391,5.66556,9.15493,6.42566,-4.28913,2.38189,-3.9627,-1.0907,5.60212,2.1004,-1.9297,1.58737,-0.86378,-0.24311,0.95638,0.21426,-0.2233,0.25425
1718,-11.0702,37.85661,-14.28768,-36.59989,37.57318,5.26358,-21.19707,29.88584,-12.28558,-91.00974,78.94112,13.03384,-3.65551,38.14974,-14.64246,-28.33678,52.68645,6.31219,-107.56454,120.07141,-1.71985,-20.15924,-39.65772,17.4046,-0.39933,3.41739,6.21536,5.40035,-4.19278,2.43058,-3.05779,-0.46383,4.33612,2.13446,-2.11234,1.56549,-0.62958,-0.15615,0.74332,0.12428,-0.182,0.1731
1719,-11.34143,39.81619,-14.90009,-33.64549,32.16702,4.59206,-20.79818,30.25761,-12.27663,-88.97338,71.81764,11.85604,-3.89476,39.03213,-15.11462,-29.59686,47.23323,5.82315,-107.55341,110.13445,-4.37849,-22.46,-37.00894,12.00898,0.02518,2.21991,1.80947,4.45927,-3.69616,2.06205,-1.72422,1.12076,1.55579,2.22135,-2.40397,1.5316,-0.26894,0.14905,0.16056,0.07944,-0.16705,0.12368
1720,-12.67601,40.51185,-15.2576,-31.83142,27.02469,3.75339,-23.38834,26.20847,-11.79794,-92.17057,66.83914,9.08359,-3.93863,39.75743,-15.51317,-30.60447,42.12789,5.21759,-118.28168,97.6225,-5.86434,-30.78669,-27.63394,12.27153,-0.48049,2.87762,0.70514,4.49537,-4.06745,1.98271,-0.98729,1.56104,0.14979,2.40027,-2.87264,1.56081,-0.0645,0.21735,-0.11641,0.11017,-0.25299,0.1521
1721,-13.59476,40.80424,-15.55141,-30.18092,23.13674,2.91381,-23.98289,22.48579,-12.18995,-95.05621,65.23962,7.16422,-3.92633,40.45355,-15.81046,-31.3907,37.499,4.50597,-123.56483,90.55468,-6.21434,-31.80318,-17.90843,16.60676,-0.85131,3.34092,2.46908,6.57794,-4.79936,2.58202,-1.0934,0.78843,1.08128,2.98225,-3.12206,1.88789,-0.14825,0.06396,0.14781,0.24061,-0.39067,0.25302
1722,-13.50492,42.44279,-16.03834,-27.99663,20.01239,2.17184,-22.8399,26.87692,-13.80634,-94.33884,63.79842,6.69367,-3.95705,41.22445,-16.06797,-31.82245,33.35341,3.78913,-118.80322,94.83366,-8.72762,-15.58349,-13.89185,17.15376,-0.38779,1.83303,2.916,9.90214,-4.79395,3.63252,-1.48907,0.23525,2.25146,4.04482,-2.90039,2.58412,-0.38949,0.00163,0.46143,0.46615,-0.45374,0.40212
1723,-13.68352,45.2407,-16.6712,-25.98022,17.56029,1.57297,-24.93984,38.14894,-15.3131,-93.13239,63.47511,6.99686,-4.01872,42.09208,-16.42454,-31.72457,29.64781,3.14248,-116.18551,110.95723,-12.72551,4.16127,-20.1058,12.91465,-1.00108,0.10937,1.50152,11.70425,-3.34562,4.15636,-1.70124,0.492,1.8747,4.94542,-2.38039,3.23079,-0.52071,0.06713,0.43732,0.67677,-0.4143,0.5365
1724,-14.64706,47.11412,-17.13068,-24.65571,15.75676,1.04037,-31.31796,46.69088,-15.48746,-94.68451,66.06614,7.4321,-4.03677,43.04355,-16.89553,-31.11467,26.4174,2.5445,-124.48365,128.89642,-14.54606,2.93765,-33.51384,11.4721,-4.34557,1.33092,1.59458,10.66481,-0.6499,3.46047,-1.59052,1.0402,0.55113,5.03799,-1.91221,3.36826,-0.3628,0.08302,0.21976,0.74599,-0.38122,0.58134
1725,-15.17426,46.68563,-17.14127,-24.08353,13.41008,0.47413,-36.72265,45.75242,-14.35368,-98.9913,66.89283,6.99138,-3.91398,44.04755,-17.30088,-30.26572,23.79468,1.91486,-137.9249,131.88199,-13.99487,-19.95573,-44.33156,18.2354,-8.70729,6.4662,5.79433,8.61775,1.61316,2.34394,-1.22906,1.3018,0.41329,4.63534,-1.85817,3.15013,-0.06224,0.0486,0.22744,0.67807,-0.43533,0.53529
1726,-14.893,45.13192,-16.87336,-23.4688,9.70187,-0.08022,-37.16871,38.38695,-13.14374,-102.60921,60.61107,5.44969,-3.64068,45.11695,-17.52912,-29.3767,21.8101,1.2595,-145.07463,114.96719,-13.62421,-39.28635,-50.01498,30.88646,-11.20221,13.59192,13.08377,8.1398,1.44669,2.33601,-0.75358,1.36022,2.54316,4.59021,-2.27609,3.10977,0.09827,0.10385,0.64013,0.58104,-0.4894,0.47489
1727,-14.55465,45.19799,-16.90112,-20.80695,6.01008,-0.53355,-33.74034,33.28899,-13.50296,-99.59965,50.36386,4.63285,-3.36538,46.37531,-17.67463,-28.31233,20.17295,0.67236,-137.9333,93.72027,-14.07526,-35.88347,-54.10456,41.76886,-10.46571,18.18563,18.12371,9.3961,-1.38256,3.74713,0.11054,1.15388,4.67213,5.13709,-2.81957,3.3801,0.16464,0.16413,1.02158,0.53987,-0.4405,0.45701
1728,-14.05232,48.28701,-17.50742,-15.93939,3.98326,-0.96049,-29.6716,36.13717,-15.54902,-89.88381,42.80222,4.87516,-3.21213,47.87873,-17.82626,-26.93312,18.45854,0.16894,-120.65904,85.9332,-15.92322,-19.75916,-52.81586,43.69611,-6.90153,16.56475,16.31054,10.47431,-4.07576,5.07554,1.42786,0.20275,4.00135,5.67964,-2.986,3.59573,0.33404,0.03531,0.81723,0.54646,-0.3462,0.44614
1729,-12.67437,52.55377,-18.21527,-11.82766,3.78845,-1.42578,-26.55252,43.60302,-17.16865,-80.55582,40.82454,4.35373,-3.085,49.53349,-17.94952,-25.46969,16.59979,-0.27008,-104.6061,93.49127,-18.89477,-15.01199,-43.59285,37.39503,-4.68868,11.18353,10.39977,10.27879,-2.82911,4.92611,1.63581,-0.67984,1.40362,5.66199,-2.39473,3.62453,0.35872,-0.14935,0.15404,0.56204,-0.27186,0.42439
1730,-11.4624,54.8399,-18.35578,-9.38389,4.87725,-1.81937,-25.67933,46.97054,-16.43132,-71.89083,43.13515,3.53338,-2.83743,51.30661,-18.08194,-24.21603,14.88206,-0.56125,-91.0109,104.42391,-19.28075,-22.24268,-35.20097,30.95454,-7.77015,7.67611,7.37411,8.95702,1.20304,3.6411,-0.00285,-0.47923,0.06623,5.00553,-1.47038,3.46544,0.0563,-0.20219,-0.17727,0.55472,-0.1975,0.43448
1731,-12.03394,54.43922,-17.90452,-7.17919,6.56294,-1.96271,-27.73585,42.97309,-13.9864,-62.85313,45.35348,3.73275,-2.51121,53.28783,-18.34482,-23.27162,13.49456,-0.69228,-81.20915,105.29617,-16.22025,-22.90644,-31.98643,27.40582,-14.00301,6.33175,7.82391,8.41939,2.75551,2.92132,-2.05805,0.30529,0.38292,4.34715,-1.10414,3.1849,-0.23681,-0.12565,0.12533,0.55183,-0.14352,0.50375
1732,-13.43006,53.21099,-17.34924,-4.63239,7.47036,-1.95738,-29.47697,36.41243,-11.84636,-59.53086,43.39589,3.57668,-2.25406,55.47158,-18.71577,-22.58552,12.32255,-0.8416,-83.16876,92.50933,-14.11753,-13.58267,-28.81029,21.53959,-18.00996,2.749,6.12008,10.7849,0.81181,3.98241,-3.38479,0.31194,-0.1729,4.50815,-1.35276,3.27409,-0.32726,-0.02405,0.4492,0.61054,-0.18117,0.59037
1733,-13.79567,53.32797,-17.08986,-1.5133,6.31655,-2.2197,-28.44323,35.0163,-11.1709,-62.59647,38.92881,1.73079,-2.09934,57.66096,-19.03422,-22.01346,11.17432,-1.16552,-93.63875,79.37701,-15.93947,-3.51809,-29.52509,13.54907,-15.96581,-1.90431,1.94985,13.8102,-0.30943,5.6802,-3.03643,-0.98468,-1.98731,5.25869,-1.63258,3.85863,-0.24313,-0.03544,0.31587,0.6935,-0.32322,0.56754
1734,-13.10168,55.79481,-17.21678,1.73596,4.05906,-2.91712,-26.26336,43.02529,-12.2591,-65.33772,39.00056,-0.01498,-1.88953,59.74134,-19.1786,-21.50691,10.07862,-1.5993,-97.78899,86.43484,-20.11974,3.70748,-40.78601,12.18576,-9.10259,-0.06929,1.44119,12.56306,1.73476,5.74268,-0.42883,-1.97023,-2.47766,5.28988,-1.51062,4.03617,0.06888,-0.15834,-0.062,0.6505,-0.4164,0.36435
1735,-12.32629,59.26142,-17.41814,5.59472,1.78717,-3.78366,-24.47063,54.29278,-14.16112,-59.45337,43.07185,0.48757,-1.47375,61.83262,-19.15771,-20.9507,9.12588,-1.95714,-82.31574,108.86244,-23.03485,6.80328,-50.31458,18.90629,-3.74728,8.18605,5.21238,6.31371,3.11606,3.46462,2.54319,-1.34813,-1.1682,3.86196,-1.10817,2.82037,0.51612,-0.26928,-0.36885,0.38574,-0.32076,0.05393
1736,-11.91669,60.69827,-17.07345,10.31537,-0.11083,-4.35438,-22.67156,55.92271,-14.11401,-45.31173,45.84608,3.9243,-0.97612,63.92941,-19.0636,-20.15906,8.34314,-2.1158,-54.02965,120.40952,-18.00424,4.19744,-45.04011,25.64204,-3.48618,12.255,6.68227,1.27274,0.39925,0.91362,3.3478,-0.80824,-0.74508,2.18043,-0.81149,0.98377,0.75604,-0.38826,-0.61281,0.05826,-0.08798,-0.14381
1737,-12.08828,58.70679,-15.84895,13.2864,-1.42286,-4.41481,-22.23527,44.94631,-10.37639,-37.44344,47.71295,8.70815,-0.7406,65.60289,-18.9379,-19.21248,7.73045,-2.14473,-42.88566,112.2905,-3.07846,2.46598,-35.48962,28.76715,-3.86033,7.76476,3.28459,2.16005,-2.78135,0.8065,3.02181,-1.90772,-2.23326,1.84111,-0.70772,0.61944,0.76794,-0.51626,-0.79579,-0.04994,0.08621,0.02309
1738,-12.60398,54.8961,-14.14148,13.55078,-2.97421,-4.3413,-24.57512,31.62904,-5.05394,-44.92589,50.16394,10.89143,-0.93865,66.33711,-18.69616,-18.32981,7.18466,-2.25693,-63.34901,98.3287,10.85818,10.5992,-35.09571,29.28153,-1.59798,3.13679,-0.07164,4.08111,-1.77053,2.29435,3.42103,-2.69639,-3.28411,2.55614,-0.77336,1.90915,0.6958,-0.37369,-0.68983,0.13128,0.01512,0.42847
1739,-13.32052,51.57259,-12.6689,13.96891,-4.79503,-4.64726,-28.71101,24.45465,-2.02591,-58.44154,52.04019,8.42493,-1.45604,65.95905,-18.26167,-17.55115,6.60384,-2.51022,-95.46555,90.26675,12.28863,26.78555,-37.31999,22.76697,-0.14624,2.64755,-0.21891,-0.19352,2.03695,1.74115,3.47937,-1.73395,-2.48138,2.46315,-0.73129,2.56119,0.49718,0.04975,-0.25313,0.30369,-0.1649,0.54834
1740,-13.62345,48.79379,-11.57489,16.93375,-6.86611,-5.27317,-30.52278,20.24612,-2.2007,-62.0606,47.4163,2.89291,-2.10386,64.54794,-17.53654,-16.70231,5.94207,-2.79052,-107.5405,78.57565,2.37135,40.76342,-29.10899,7.87211,-0.61872,0.59346,0.50256,-8.13302,4.6228,-1.11779,2.7271,-0.91194,-1.28616,0.79406,-0.17096,1.55559,0.36192,0.32515,0.14283,0.16056,-0.12789,0.19964
1741,-11.70143,45.17156,-10.41106,21.51586,-9.56339,-5.73827,-26.3803,13.51691,-2.60992,-50.90487,34.84528,-1.75963,-2.74998,62.10316,-16.31714,-15.67332,5.1732,-3.01164,-89.4277,54.22459,-7.01498,45.64878,-9.29521,-5.51899,-0.5227,-5.6189,-0.23142,-11.57654,3.57688,-3.73402,2.2887,-1.98279,-1.36506,-1.11691,0.49347,-0.43083,0.40752,0.09752,0.11077,-0.20265,0.09367,-0.37041
1742,-8.95442,40.38745,-8.70193,25.15678,-10.96784,-5.9021,-22.50927,6.6855,-0.37611,-37.26376,27.22953,-1.8425,-3.48122,58.46849,-14.66529,-14.62433,4.37652,-3.10249,-68.81908,34.18321,-5.32472,42.29247,10.04985,-10.46313,2.62364,-11.54852,-2.6088,-9.32473,0.83719,-4.52015,3.02506,-4.0962,-2.64267,-2.38125,0.81926,-2.05994,0.50664,-0.4522,-0.29153,-0.58002,0.2844,-0.80239
1743,-8.10641,34.23026,-6.23265,26.23966,-9.57349,-6.00917,-22.27907,2.39185,3.62383,-38.06118,35.10256,1.81286,-4.42912,53.57412,-12.87652,-13.83361,3.65705,-3.09446,-73.46963,34.67837,6.51804,36.1162,17.58673,-11.05619,10.69619,-10.52925,-5.73825,-6.3371,0.5809,-2.79095,5.69054,-4.33697,-3.66116,-3.28091,0.86295,-1.65791,0.75234,-0.66597,-0.6732,-0.86205,0.34558,-0.72044
1744,-8.7458,26.40457,-3.2521,26.43474,-7.84441,-6.29544,-20.1962,-1.23265,6.62468,-51.55556,49.90609,5.1379,-5.48493,47.54145,-11.03108,-13.34209,2.95285,-3.1912,-94.16003,45.71362,18.7358,33.75849,14.96776,-11.85552,17.59604,-2.10652,-7.12654,-5.02782,1.80981,-0.77084,8.30884,-1.49811,-3.32777,-3.23503,0.52133,-0.28666,1.01637,-0.25076,-0.7356,-0.80571,0.23219,-0.28335
1745,-8.76141,18.64215,-0.63309,29.7029,-8.8237,-6.85697,-11.93407,-2.1203,6.77223,-54.3404,56.07702,6.84689,-6.36852,40.6194,-8.97995,-12.87302,2.08167,-3.51689,-93.6488,53.36451,23.68808,37.94343,9.79106,-12.89775,14.77442,4.57209,-5.04298,-5.90959,0.29202,-2.6913,7.68836,1.32291,-2.19246,-2.30078,0.09993,-0.97683,0.92915,0.25974,-0.52701,-0.48036,0.08993,-0.0917
1746,-7.00066,13.61017,0.64799,36.78417,-11.46604,-7.52713,2.04587,3.30299,4.67596,-33.60431,51.57582,8.58555,-6.80528,33.21933,-6.69073,-12.17686,1.08531,-3.84505,-53.1646,57.58305,23.19849,40.78132,7.72991,-16.55865,6.70529,2.39887,-2.00738,-9.41112,-4.42615,-8.84633,4.92293,0.95453,-1.61092,-1.79005,0.07983,-3.88669,0.56947,0.27984,-0.3161,-0.29963,0.11598,-0.32188
1747,-4.31912,12.0626,0.40848,43.52887,-12.21939,-7.97802,14.87286,10.06132,3.66674,-6.76705,46.58177,10.14492,-6.67515,25.95037,-4.44259,-11.30475,0.28153,-3.83264,-4.16633,58.29254,23.75077,33.61075,13.83886,-25.38686,4.81665,-4.78325,-1.89513,-13.14791,-8.68044,-14.62278,3.92572,-1.52832,-2.15557,-1.8308,0.28923,-6.35454,0.43764,-0.05654,-0.28444,-0.31099,0.23228,-0.69161
1748,-3.10334,12.38427,-0.45254,46.3523,-10.78043,-8.08409,16.72276,9.30835,5.81622,4.74491,45.04676,9.04897,-6.14367,19.42852,-2.64657,-10.47332,-0.24303,-3.59887,10.18665,47.72528,25.35685,26.77419,27.54338,-31.59659,9.45205,-8.54282,-4.16549,-14.22401,-9.28194,-16.08881,5.45797,-2.89898,-3.1302,-1.80952,0.27139,-6.74061,0.73085,-0.25124,-0.41315,-0.31251,0.2315,-0.94751
1749,-5.04495,12.56715,-0.7477,46.1176,-9.82123,-8.03079,5.15168,-1.16149,9.31255,0.95366,41.87833,4.65655,-5.48614,13.98363,-1.47715,-9.79043,-0.71082,-3.59546,-14.08296,22.71939,22.84524,38.15671,39.86116,-27.6115,12.7622,-6.1789,-5.59435,-13.87012,-6.39514,-14.02136,7.00635,-1.93198,-3.49787,-2.22115,-0.13097,-5.76452,1.10332,-0.11491,-0.55842,-0.39214,0.08392,-1.10064
1750,-8.26255,12.27914,-0.64421,45.6247,-9.8172,-8.03612,-8.62104,-15.99777,11.61857,-7.31955,36.19994,-0.50455,-4.64477,9.69078,-0.80312,-9.14748,-1.17736,-3.90348,-47.37119,-7.42055,17.42509,59.43606,43.25996,-23.58168,13.77943,-1.38348,-6.00189,-14.5715,-2.77796,-11.88013,7.46471,0.08931,-3.28525,-3.60587,-0.71587,-5.04551,1.25061,0.17426,-0.64537,-0.6803,-0.1026,-1.25872
1751,-9.90084,12.07091,-1.01547,46.48684,-9.01149,-8.1045,-12.93833,-28.3242,13.01489,-14.05144,33.20723,-3.31071,-3.44036,6.46366,-0.45627,-8.38379,-1.44602,-4.17789,-65.35429,-30.53118,17.11737,64.97883,42.10715,-33.52257,15.85447,2.05634,-6.98889,-15.23878,-1.91109,-12.58784,7.50965,1.50619,-3.21047,-4.56004,-1.14488,-5.9682,1.19123,0.35566,-0.69909,-0.80656,-0.21929,-1.48773
1752,-9.73605,11.92128,-1.75669,48.96567,-7.25894,-8.05152,-7.91566,-31.26173,14.0228,-16.12589,34.36603,-2.46779,-2.06612,4.07463,-0.29049,-7.50397,-1.40079,-4.19784,-62.76102,-38.35455,23.60216,51.90079,46.87164,-51.57447,17.82229,3.11445,-8.27332,-14.55454,-4.5681,-16.07159,7.29865,1.64198,-3.47061,-3.96096,-1.17829,-8.12963,1.00372,0.32163,-0.71321,-0.53901,-0.17509,-1.65372
1753,-9.06975,7.52606,-1.31547,52.09593,-6.38141,-7.7075,2.32244,-28.94238,16.68536,-13.549,35.26319,0.11372,-0.52343,-0.62794,-0.32677,-6.65258,-1.14872,-4.08544,-46.05595,-37.48804,33.43883,39.90636,53.65422,-60.68817,18.18405,2.41761,-9.12261,-14.6989,-7.24988,-19.10406,6.9703,0.84396,-3.92775,-3.33899,-0.80007,-9.19598,0.78021,0.15077,-0.67315,-0.36975,0.04578,-1.51632
1754,-4.49377,4.62018,-1.85707,53.58298,-6.41743,-7.22437,21.21669,-10.66245,16.52908,-13.33242,34.36208,0.93516,-0.39284,-0.98064,-0.03837,-6.01718,-0.82856,-4.00476,-23.31397,-13.16193,35.24371,40.02562,46.09813,-57.46074,19.23015,1.24891,-10.13195,-16.69472,-6.88809,-19.37916,7.22113,-0.0022,-4.58848,-3.49175,-0.33542,-8.00273,0.68822,-0.00092,-0.64827,-0.45969,0.2426,-1.19958
1755,-0.77233,0.20594,-0.83309,52.62998,-5.96037,-6.87976,37.05122,-5.40534,21.59615,-16.91998,31.84652,-1.28067,-0.47205,-1.48298,0.39164,-5.68373,-0.5718,-3.98127,-11.82034,-3.58025,37.53571,44.6601,26.256,-51.81894,21.70847,0.50208,-11.41238,-17.86193,-4.48025,-17.22542,7.88667,-0.36614,-5.25639,-2.99901,-0.24575,-5.44779,0.76746,-0.07104,-0.7051,-0.38621,0.15786,-0.91375
1756,0.14843,-3.80034,2.15419,51.90291,-5.1046,-6.65592,41.06121,-19.2301,30.06232,-13.63789,25.74958,-4.35685,-0.64072,-1.99561,0.76985,-5.49007,-0.55532,-3.95865,-5.62015,-22.29977,39.58165,45.80588,20.70783,-49.72424,22.72048,0.55739,-11.85706,-17.01274,-3.26204,-15.26929,8.02955,-0.30257,-5.46627,-1.8883,-0.6381,-3.76611,0.88533,-0.11807,-0.8192,-0.17384,-0.10327,-0.82386
1757,-0.64208,-6.23178,5.64099,53.45531,-4.22314,-6.45608,33.45061,-43.74712,36.30179,-1.2542,19.02086,-5.87316,-0.64086,-2.38516,0.90216,-5.24273,-0.82822,-3.87507,0.41241,-58.68173,39.88728,46.58887,43.73494,-46.91869,21.17583,2.16232,-11.31151,-15.74076,-3.48749,-14.41022,7.74138,0.16729,-5.16042,-1.69358,-0.89415,-3.51145,0.9723,-0.15132,-0.92312,-0.16225,-0.20936,-0.8495
1758,-0.02039,-7.39952,7.31313,55.44392,-3.38258,-6.24406,24.84838,-62.87775,37.0204,7.90329,15.92919,-6.06304,-0.30666,-2.56839,0.83774,-4.92377,-1.30768,-3.76241,2.97669,-88.21745,38.42693,47.79051,74.77641,-41.85397,19.4224,4.62105,-10.81871,-15.47219,-3.15639,-13.87359,7.79263,0.83455,-4.84955,-2.67875,-0.51066,-3.66135,1.03062,-0.11389,-0.94372,-0.33942,-0.07581,-0.81564
1759,4.71816,-7.62905,4.39302,55.33798,-2.07225,-6.05709,29.71136,-60.9223,34.74259,9.01765,17.24158,-5.45305,0.45895,-2.40724,0.62876,-4.60526,-1.8257,-3.62559,14.1181,-85.81268,39.56736,43.02308,85.72087,-40.7229,18.75551,5.20558,-10.56172,-16.91654,-1.93208,-14.35824,8.04452,1.18288,-4.86713,-3.81331,0.07856,-3.8955,1.01795,0.009,-0.83085,-0.46283,0.08558,-0.75787
1760,11.98565,-6.2848,-3.84355,54.00091,-0.19908,-6.00693,48.74209,-36.7444,34.80559,11.48586,21.44027,-4.1316,1.55437,-1.876,0.20881,-4.40852,-2.28365,-3.45231,47.13133,-49.01361,48.06058,33.34835,75.86182,-45.81932,18.12239,3.01331,-9.9932,-19.46711,-0.941,-16.28911,7.85932,1.07878,-5.05619,-4.17345,0.26917,-4.13318,0.91723,0.1422,-0.66007,-0.43413,0.1076,-0.72641
1761,16.90982,-3.86106,-12.41286,54.22585,1.00049,-6.15142,66.08971,-10.85689,38.91719,20.30905,26.319,-3.15772,2.6185,-1.33196,-0.19372,-4.39742,-2.78152,-3.34151,84.40809,-10.25801,59.4723,26.57211,64.60609,-54.46416,17.31348,0.92389,-9.54941,-21.58139,-1.37616,-18.89947,7.48028,0.95185,-5.2723,-3.89308,-0.07201,-4.52026,0.83829,0.20071,-0.6051,-0.35684,0.0279,-0.75194
1762,15.39935,-1.22361,-15.15269,55.94356,1.81049,-6.39289,67.18755,-5.94212,41.74334,27.17687,33.06298,-2.33166,3.14757,-0.99335,-0.25964,-4.36822,-3.34428,-3.29565,92.78213,-0.65563,62.86732,24.9601,58.72306,-63.66483,17.05986,2.82103,-9.79858,-22.40938,-1.77348,-20.22994,7.62308,1.42949,-5.22662,-3.78538,-0.31247,-4.83303,0.90494,0.22152,-0.69738,-0.35058,-0.01259,-0.80794
1763,7.98112,1.25191,-11.88889,57.03796,2.58139,-6.31031,51.54918,-19.76355,35.0096,29.32487,37.97109,-0.49339,2.86314,-0.80996,0.01315,-3.96222,-3.90368,-3.18738,72.10606,-19.07211,49.20277,23.92352,52.98141,-68.13356,16.74281,8.26369,-10.05696,-21.03544,0.08131,-18.24318,8.06717,2.2823,-4.66622,-3.93382,0.28886,-4.3607,1.04128,0.24174,-0.80046,-0.41146,0.06942,-0.7898
1764,2.72876,1.74872,-7.40353,56.81491,1.76622,-5.66992,33.56995,-29.536,19.44668,34.59223,32.70778,1.11489,2.38635,-0.92434,0.50483,-3.2501,-4.45182,-3.01591,56.26132,-40.90048,22.00722,19.66034,53.05628,-62.05701,15.79203,11.65874,-10.01634,-15.96869,1.91404,-13.10512,8.08545,2.38696,-4.35394,-3.40602,1.06858,-3.11194,1.06326,0.19982,-0.83505,-0.40672,0.17105,-0.63905
1765,6.15899,-0.29938,-5.05329,54.54874,-0.23126,-5.01346,26.62405,-24.25622,6.04709,39.78456,21.55523,0.47619,2.46604,-1.16999,0.96546,-2.85113,-4.91717,-2.92635,56.01224,-45.81977,-2.08504,17.19033,65.74744,-47.61404,15.71616,9.07758,-10.85718,-9.09042,1.96141,-7.30867,7.62282,1.34491,-5.27072,-2.09955,1.20552,-1.57075,0.93645,0.07169,-0.84492,-0.2801,0.15863,-0.38343
1766,11.87698,-2.54487,-1.63474,51.57639,-2.15258,-4.69366,28.18972,-22.48617,3.38096,38.45994,11.85258,-1.97824,2.67743,-0.96734,1.19255,-2.91468,-5.2727,-2.97562,55.63903,-53.04874,-10.90192,22.63951,76.59333,-37.64548,17.60059,3.1993,-12.9321,-5.74234,2.40794,-4.6328,6.99931,0.02122,-6.69441,-1.05798,1.02928,-0.3241,0.78254,-0.07992,-0.85684,-0.151,0.03365,-0.14092
1767,11.37358,-3.37151,4.09932,50.04729,-2.76381,-4.56443,31.63437,-37.6584,11.77958,33.63949,6.70638,-3.75452,2.43313,-0.28335,1.2019,-3.02015,-5.52956,-2.9698,53.00938,-78.73007,-2.45828,28.47224,65.77516,-40.82402,18.87725,0.01243,-13.55361,-8.80674,3.25277,-7.58115,6.08549,-0.56034,-6.25559,-1.17714,0.62524,-0.39258,0.62525,-0.18233,-0.72403,-0.16579,-0.14957,-0.09182
1768,7.59202,-2.42857,4.78287,50.05253,-1.70221,-4.52055,36.01402,-49.55713,30.51435,32.46695,7.78389,-3.50846,1.91084,0.28062,1.0574,-2.95986,-5.69806,-2.76046,60.86606,-91.07239,23.49222,23.94153,37.95693,-46.73244,15.63957,1.41286,-9.8936,-15.06253,4.63382,-13.20683,4.55257,-0.42154,-3.27503,-2.43656,0.59236,-1.75881,0.34713,-0.22597,-0.34421,-0.31147,-0.21771,-0.23519
1769,7.79163,0.84486,-3.29104,49.47346,-1.84745,-4.41233,35.45729,-36.12109,48.82816,32.53659,8.71472,-3.32744,1.52434,0.32589,0.79181,-2.87733,-5.88993,-2.58419,65.74012,-64.67634,47.73059,10.59974,23.17211,-37.44855,7.2378,3.08451,-3.51333,-17.51357,7.28297,-15.18253,2.87361,-0.36092,-0.99153,-3.34551,1.8494,-2.77355,0.02286,-0.24074,-0.06784,-0.37938,0.04911,-0.34423
1770,12.4445,7.20062,-15.64366,47.01775,-5.7004,-4.05202,21.05667,-0.15931,39.59789,26.10929,0.13092,-5.59495,1.5056,0.17782,0.18919,-2.81395,-6.21606,-2.68605,38.0693,-16.84382,27.18865,-8.0937,44.39808,-11.97555,-2.49341,1.29344,1.13881,-12.58961,3.11632,-10.67207,2.07662,-0.57974,-2.49379,-2.38708,1.44936,-2.17925,-0.07406,-0.20208,-0.34452,-0.27695,0.24169,-0.27501
1771,16.17554,15.00755,-24.86473,45.56855,-9.25985,-3.77409,-0.37209,36.97533,2.82085,22.13899,-10.09973,-7.93628,1.67488,0.36482,-0.6019,-2.65517,-6.52164,-2.79373,-2.07494,27.51023,-34.01133,-33.6479,82.59947,9.01787,-7.79164,-2.41494,1.25665,-3.73863,-7.21741,-1.87088,2.25924,-0.65263,-6.32449,-0.28243,-1.69264,0.1079,0.09412,-0.09972,-0.99468,-0.19483,-0.03059,-0.04671
1772,14.81324,17.12656,-21.53154,46.39056,-9.37761,-3.85491,-6.40478,42.82909,-20.15606,34.48277,-10.93123,-7.1452,1.63266,0.74234,-0.65358,-2.59748,-6.73346,-2.69834,1.62093,34.24526,-67.10494,-51.20485,86.70392,2.38943,-5.98535,-5.30699,-3.75859,3.48889,-2.57502,3.69277,1.93084,-0.59697,-9.24723,1.28231,-0.84835,1.98657,0.12226,-0.04654,-1.52571,-0.14637,-0.09621,0.08945
1773,9.53615,6.77868,-3.05808,46.56156,-9.83306,-3.89156,17.90399,-1.10962,2.44137,57.54335,-7.71014,-4.25755,1.26024,0.59095,0.67289,-2.87842,-7.11697,-2.62067,65.40878,-28.15453,-23.94288,-33.24792,36.51385,-25.48393,0.82134,-6.00496,-11.82914,6.62745,17.27683,1.31491,0.30249,-0.52449,-9.41131,2.24753,5.37686,1.26878,-0.26261,-0.04988,-1.59294,0.15809,0.41114,0.01665
1774,6.75919,-10.06739,17.9007,44.39458,-12.85666,-3.51119,53.29968,-62.31685,60.59306,72.12885,-6.49014,-1.40629,0.83644,-0.42068,2.65745,-3.2311,-7.79306,-2.62853,134.22327,-114.45856,71.70965,14.37692,-17.94941,-43.47598,8.33981,-5.21399,-18.59065,2.25449,24.07757,-4.60817,-0.76848,-0.55834,-7.1869,1.95054,8.38781,-1.30019,-0.61237,-0.03401,-1.05055,0.53109,0.81688,-0.18307
1775,9.88342,-12.68107,21.62801,40.02845,-15.73636,-2.79535,57.75855,-79.51987,113.78679,64.47837,-4.83519,1.3203,0.73347,-1.18529,3.30731,-3.29772,-8.64603,-2.60346,133.00694,-125.39738,150.80563,42.92999,-18.59101,-34.44268,11.27079,-5.95625,-21.05572,-9.38306,6.23698,-6.71439,0.18069,-1.17542,-5.85619,-1.17898,2.80576,-3.04419,-0.44355,-0.1296,-0.34946,0.14876,0.36033,-0.40216
1776,10.70335,9.0864,4.92994,34.41676,-18.08276,-1.9839,21.58826,-36.36986,114.49437,40.57899,-6.67926,3.32801,0.76857,-0.26489,1.74237,-3.10342,-9.7829,-2.6871,57.78873,-46.40773,144.97766,24.32139,27.90256,-1.58164,6.06454,-7.30898,-15.71747,-11.86131,-13.71901,0.76018,1.35824,-1.91738,-6.25145,-2.99862,-4.80637,-0.47213,-0.10362,-0.30576,-0.00796,-0.49204,-0.53189,-0.16317
1777,3.94308,34.83625,-12.5979,31.00165,-19.69235,-1.63099,-17.42676,24.28672,57.63286,26.61662,-14.08632,2.84403,0.44078,1.51422,-0.17756,-2.79165,-11.23335,-2.88814,-8.03051,40.88971,55.82664,-11.46869,69.56976,25.61703,-2.7959,-5.35712,-2.15006,0.76072,-9.61343,6.37913,1.1191,-1.70782,-5.26065,0.20385,-4.23699,2.7576,-0.06479,-0.26937,0.03006,-0.31426,-0.6072,0.23973
1778,-0.83679,38.2332,-11.41535,31.98683,-17.84324,-2.1827,-25.1301,50.52774,2.65528,38.74768,-17.42492,-0.13203,0.24458,1.80061,-0.31075,-2.45107,-12.63035,-2.91825,1.4857,67.06165,-26.24393,-37.49707,76.42303,19.85982,-7.86469,-2.70602,8.11447,9.32796,5.00887,0.55622,-0.15896,-0.54178,-3.04339,3.11458,1.00618,1.43947,-0.23307,-0.03811,-0.12159,0.09702,-0.0692,0.08372
1779,2.65612,17.90762,3.47101,33.69153,-13.0296,-3.18704,-4.41107,23.03828,1.94651,57.4819,-11.28269,-3.08762,0.82601,0.21524,0.81249,-2.23829,-13.67685,-2.73909,55.35974,25.40271,-26.42722,-55.23411,61.46571,-2.21274,-9.25502,-3.29728,5.34776,2.38327,2.14786,-3.84813,-1.98417,1.25154,-2.37462,1.22814,1.17722,-0.33534,-0.43275,0.24307,-0.39068,-0.07248,0.00235,-0.14131
1780,3.59947,-3.44008,4.59864,33.41528,-7.32089,-4.01576,25.3523,-32.28579,29.19963,59.86753,3.9666,-3.10509,0.88746,-0.99616,0.30964,-2.05051,-14.27609,-2.44745,93.90015,-34.45403,18.53219,-59.30989,43.67971,-14.34904,-9.56041,-4.79599,-4.5314,-9.39792,-10.65036,-1.49329,-3.48565,3.16411,-3.4,-2.15897,-1.86814,0.36932,-0.58658,0.58334,-0.43034,-0.4038,-0.20811,-0.02305
1781,-9.30826,-9.58962,-23.17081,31.5348,-2.01475,-4.42347,56.62019,-70.96559,18.87751,42.16658,23.92779,0.15923,-0.74926,-0.40644,-3.37722,-1.65802,-14.48828,-2.08781,99.84744,-58.5179,11.68957,-43.21254,28.55842,-14.68099,-7.98611,-4.18682,-10.91587,-6.7735,-8.01723,-1.47388,-3.50994,4.03901,-3.75672,-0.93241,-0.85285,0.51359,-0.53907,0.85094,-0.05295,-0.11901,-0.00784,0.02569
1782,-24.30324,-5.27859,-58.37275,26.82283,1.64405,-4.53437,85.13452,-69.10997,-34.30191,10.10088,39.66118,3.34205,-2.53332,0.86808,-7.50701,-1.23854,-14.47281,-1.7165,80.5976,-32.65726,-63.39194,-22.81291,24.58727,-3.78805,-4.59586,-2.39874,-9.0071,11.08883,6.23236,-2.94824,-1.91592,3.03866,-2.09334,4.57569,2.66253,-0.31466,-0.20563,0.71387,0.36082,0.5665,0.3389,-0.07604
1783,-27.80121,3.83871,-70.62239,20.16793,3.1327,-4.64387,85.30774,-26.43755,-79.4083,-18.48299,44.45322,2.57838,-2.80408,1.50991,-8.86545,-1.0112,-14.27822,-1.35809,39.20123,31.3767,-133.29999,-20.98349,43.03708,24.96637,-2.81618,-1.46715,-0.64221,22.69907,7.95145,5.38082,-0.18819,1.13285,-0.35353,7.86239,2.37976,1.28274,0.12397,0.23426,0.26453,0.87213,0.28807,0.1065
1784,-26.04989,12.96328,-62.5784,16.51881,2.63932,-4.81396,45.81871,29.06655,-95.05404,-22.46548,38.96651,-2.50917,-2.09074,0.99709,-8.82438,-0.7822,-13.93137,-1.08415,-5.6327,93.8522,-154.66507,-35.79942,60.42037,52.05277,-4.5655,-1.13608,8.73418,15.12881,-1.30908,16.82733,0.04928,0.21022,-0.62422,5.45902,-0.80965,3.70513,0.03907,-0.07672,-0.29453,0.56823,-0.01431,0.42292
1785,-27.27619,16.76194,-62.62057,15.54128,1.15091,-4.99994,4.46158,54.23037,-104.49262,-9.21554,30.56752,-8.48421,-1.70144,-0.42797,-10.39879,-0.52453,-13.48734,-1.027,-24.40371,108.47087,-156.04535,-43.75248,44.48996,56.91195,-7.04906,-0.3338,13.1472,1.81902,-7.28318,20.0338,-1.03983,0.63746,-2.43613,0.75964,-2.92194,4.43016,-0.42151,0.03603,-0.75892,-0.02703,-0.25561,0.60148
1786,-28.16747,15.93519,-70.06868,14.06264,-1.15159,-4.634,-4.417,37.82122,-114.49669,3.74539,22.74592,-9.81811,-1.49061,-1.71571,-10.71317,-0.30316,-12.90206,-1.14952,-8.07525,76.31731,-155.82892,-29.36997,11.41048,43.21594,-6.56309,-0.10746,6.80378,-7.22589,-10.17471,17.58567,-1.61363,0.7896,-5.96018,-3.01377,-3.6165,4.76679,-0.70909,0.12535,-0.9693,-0.65246,-0.35301,0.79991
1787,-49.16449,27.536,-53.32626,13.21214,-4.22295,-3.15847,-67.77342,49.52675,-111.78485,14.20025,14.47355,-4.58497,-3.99232,0.7994,-3.57631,0.06612,-12.06252,-1.18168,-54.72883,88.36267,-129.63383,-5.53404,1.42615,24.08498,-3.94913,-1.4509,-7.29917,-8.80586,-12.00857,13.81773,-0.83517,-0.19606,-11.48294,-3.35888,-3.10009,4.99326,-0.63706,-0.21731,-1.25157,-0.79501,-0.24619,0.87042
1788,-116.70951,73.6036,-80.0124,12.05558,-7.30528,-1.24321,-236.97391,181.66096,-211.82306,13.36987,3.79525,1.58911,-11.23414,14.3209,1.66018,0.41213,-11.11039,-1.00935,-230.82452,233.89291,-207.93571,-1.83699,11.06552,9.29095,-3.09676,-2.55442,-12.68689,4.43989,-7.85899,5.26346,0.05228,-0.84843,-13.81669,2.1415,-0.86457,2.35215,-0.47633,-0.49845,-1.3645,0.03745,0.01703,0.30028
1789,-148.95255,111.68921,-156.39169,9.57851,-8.9352,-0.03128,-286.12689,309.36417,-367.46234,0.16561,-7.05158,3.65596,-14.17823,27.78588,-4.31877,0.4959,-10.25653,-0.75836,-301.75247,349.2999,-378.67627,-32.30621,6.07975,9.80819,-4.77052,-1.48638,-1.69971,19.88741,-1.56949,-3.25359,-0.04905,0.11936,-8.49506,7.99012,0.48884,-0.91907,-0.26682,-0.18597,-0.75442,1.00413,0.07876,-0.30991
1790,-124.518,88.49254,-113.00379,6.79703,-7.01178,-0.17501,-217.04553,215.18654,-244.26669,-11.68506,-8.13697,2.45238,-12.95474,20.52101,-6.06916,0.38415,-9.36294,-0.47453,-246.3783,235.06873,-261.73404,-66.80788,-22.04576,35.88401,-5.00607,1.18307,14.82595,13.32275,-2.40427,0.94145,-0.5136,1.29211,0.33011,5.51074,-0.85021,0.31935,-0.01182,0.39702,0.27711,0.78388,-0.13074,-0.09539
1791,-68.85353,33.57263,2.95114,5.39832,-3.11788,-1.03313,-110.38231,-4.4771,37.31157,-7.90598,-0.05941,0.72928,-8.40396,3.44464,0.57362,0.33612,-8.37714,-0.18892,-122.88218,-0.30185,47.46097,-56.35642,-55.46926,69.70724,-2.58022,3.42461,23.78809,-3.59803,-7.70415,13.05836,-0.74693,1.3232,5.18367,-0.78339,-2.49712,4.1135,0.01059,0.74037,0.67727,-0.02915,-0.2525,0.47272
1792,-14.73454,3.27401,29.79961,4.04651,-2.12372,-1.31181,-6.62608,-94.51991,124.12578,2.85349,2.04106,-0.60243,-1.54484,-2.18813,1.59206,0.318,-7.59433,-0.0561,10.19916,-108.62643,148.57436,0.1574,-61.72905,80.46799,-1.44127,4.12519,20.87757,0.54437,-12.29139,21.00456,-0.94442,1.52771,4.18275,0.4038,-3.45162,6.1911,-0.24991,0.78723,0.14035,0.16259,-0.26048,0.6656
1793,9.6204,-4.15641,12.7373,1.33821,-3.35218,-1.07216,23.77532,-41.93134,59.61558,0.93703,-2.98401,-1.73821,3.19443,-0.63709,-1.59448,0.19805,-7.01499,-0.00037,40.4108,-60.22269,66.68018,48.984,-29.1732,64.46537,-1.92627,3.14519,13.12075,17.47449,-13.97727,22.05885,-0.8068,1.5634,1.56699,6.1826,-4.31782,6.32296,-0.36669,0.52103,-0.36535,0.98033,-0.35808,0.64486
1794,10.44908,1.04888,23.78631,-0.91148,-3.73956,-0.89476,-18.66863,33.757,7.99367,-13.05901,-8.66356,-3.01318,4.73282,0.42629,-1.12256,0.08289,-6.45598,0.12741,-33.69346,30.2182,-9.8276,49.08042,8.28665,46.81816,-1.63978,1.58284,8.54879,18.30042,-12.33298,21.74533,-0.32358,0.52278,0.19997,6.25027,-4.5969,6.9064,-0.16122,0.15771,-0.17341,0.92087,-0.44796,0.93876
1795,7.37292,5.80433,30.34845,-0.41242,-4.55175,-0.51268,-39.56813,63.38345,-20.36843,-20.15558,-16.8301,-4.13808,3.89685,0.30687,0.96421,0.111,-6.05448,0.17382,-76.39617,62.29117,-57.75968,15.33153,9.99786,37.78467,0.22374,0.72481,6.93525,5.88155,-8.47545,18.68688,0.15341,-0.84575,-0.29713,1.89535,-3.47978,6.71041,0.12158,0.01136,0.27393,0.18116,-0.35109,1.17015
1796,13.01376,-3.77775,15.13356,1.67583,-6.45853,0.02079,-2.38752,44.52464,-42.6398,-13.65168,-24.06086,-4.59264,3.52758,-0.89547,1.41628,0.28613,-5.92158,0.0362,-30.1799,24.17337,-84.27814,-13.7284,-18.18373,36.72985,2.7573,0.92458,7.54715,0.13195,-7.25251,13.94071,0.46915,-1.66511,0.44877,0.32518,-2.4257,5.09875,0.35908,0.1271,0.55444,-0.14682,-0.24755,0.96725
1797,13.75737,-14.5092,-9.06988,1.79911,-6.92477,-0.00867,20.84392,27.14243,-70.22855,-8.4755,-21.23722,-4.61775,2.53049,-1.68267,-0.07475,0.51798,-5.82549,-0.05533,6.31089,-1.11097,-99.21756,-18.18321,-38.0317,40.11464,3.79301,2.20876,10.69162,3.47938,-9.73754,12.46826,0.6001,-1.19156,2.47114,1.7949,-2.62712,4.25889,0.56612,0.29633,0.73591,-0.03146,-0.26712,0.71698
1798,5.14179,-15.43121,-22.87093,-0.64474,-5.05852,-0.54812,5.36851,27.78972,-83.03148,-13.44319,-9.60214,-4.29015,0.09597,-0.87153,-0.99051,0.64441,-5.52589,0.10257,-10.67665,14.56962,-93.55124,-5.26623,-28.22809,40.22437,3.13152,4.05491,13.16456,4.82628,-11.50566,14.17696,0.50269,0.16128,3.43794,2.43705,-3.31625,5.18342,0.57625,0.33362,0.77572,0.08947,-0.32464,0.78527
1799,0.89358,-9.90432,-15.77619,-3.48374,-3.30414,-0.81242,-9.29603,23.5466,-51.58012,-21.21087,-0.82829,-3.50393,-1.35412,0.17068,0.10129,0.46221,-5.11358,0.37593,-32.11709,26.19321,-48.47098,7.16709,-9.48973,32.49807,3.29599,5.41815,13.23067,0.70221,-9.73119,13.92285,0.05934,0.69743,2.51455,1.56827,-3.37056,5.83541,0.2856,0.30925,0.53034,0.22699,-0.37912,0.90044
1800,2.26558,-4.06074,-3.61772,-4.63986,-2.67913,-0.67963,-4.31703,9.82342,-5.15968,-22.4953,1.93597,-2.55394,-0.70994,0.19461,0.95707,0.05154,-4.79748,0.54196,-27.2406,17.33328,-0.93951,12.4726,-15.14639,22.46884,5.22202,5.8546,14.03124,-1.97335,-6.74171,10.20689,-0.61227,-0.26551,2.0242,1.08334,-2.87157,4.78096,0.01232,0.33072,0.27971,0.42429,-0.42557,0.73812
1801,0.44788,-1.34908,-2.19006,-3.74977,-2.11189,-0.54549,6.81124,0.85482,9.34871,-17.02628,4.5182,-1.50724,0.34706,-0.2213,0.21314,-0.2548,-4.64381,0.55317,-9.61554,8.32601,5.29803,10.34923,-39.75135,20.35558,6.69144,5.63209,17.20548,-0.8333,-5.58814,8.3671,-1.0778,-1.83408,2.9592,0.89472,-2.52536,3.73658,0.01109,0.31152,0.2698,0.40244,-0.39021,0.52051
1802,-3.48253,-1.17891,-5.91362,-2.09193,-1.69677,-0.35539,5.51607,2.7117,-5.89987,-10.29185,7.03165,0.11283,0.49726,-0.34611,-0.69628,-0.25786,-4.56258,0.50517,-2.93766,12.13392,-12.18285,-1.16923,-46.91675,25.79763,5.80859,5.02368,18.94092,-0.09699,-5.79769,11.28061,-1.08208,-2.70402,3.44761,0.12685,-2.58058,4.20737,0.11792,0.23608,0.30262,0.16356,-0.29769,0.59025
1803,-5.0867,-0.79618,-6.14754,-1.19354,-2.44366,0.10342,-9.93312,9.12189,-20.33617,-6.18215,4.58083,2.01196,0.054,-0.14126,-0.77871,-0.07887,-4.44441,0.47781,-12.37152,21.83346,-18.11842,-11.364,-27.91706,27.02077,3.80356,3.73233,15.06792,-0.00785,-5.63836,13.98631,-0.68611,-2.45202,2.56213,-0.09609,-2.69749,4.72521,0.19591,0.15772,0.28546,0.07556,-0.26442,0.76007
1804,-5.24066,1.1758,-3.18321,-1.08794,-3.34338,0.48154,-18.64159,8.63306,-15.35006,-2.65303,-0.17493,2.85911,-0.27851,0.09566,-0.40673,-0.01617,-4.2266,0.506,-14.9121,20.58501,-6.71835,-3.24647,-9.24538,16.50952,2.69409,1.58932,6.63554,2.10668,-4.75216,11.19645,0.07337,-1.38152,1.61927,1.03101,-2.42269,3.63184,0.33974,0.03458,0.38581,0.22934,-0.28926,0.65268
1805,-6.58948,1.86533,-2.90968,-1.11511,-2.37716,0.32805,-7.98907,-0.73893,-4.17136,3.10659,0.35897,2.04254,-0.36963,0.08497,-0.36641,-0.25914,-3.88313,0.61341,5.02531,6.38874,-0.00097,15.18649,-2.0002,1.37627,2.74666,-0.73502,-1.39437,3.42393,-4.20814,6.01757,0.94985,0.02779,2.00306,1.96087,-1.95014,2.03184,0.57922,-0.17662,0.65462,0.38473,-0.30017,0.35005
1806,-8.49872,0.26899,-5.33116,-1.92427,-1.14682,-0.02842,5.82211,-10.0799,0.16872,6.12118,1.98654,0.48926,-0.43812,-0.1221,-0.70013,-0.73861,-3.57061,0.67487,24.6541,-11.44779,-3.31803,18.96417,3.69044,-4.35967,2.73388,-2.4411,-5.16533,2.31511,-5.80354,4.96803,1.21344,0.7597,2.9159,1.78852,-2.14703,2.0229,0.63446,-0.42816,0.78709,0.40365,-0.31876,0.25676
1807,-8.96398,-0.54612,-5.91195,-2.4065,-1.26497,-0.06904,6.09004,-10.35695,0.77378,7.12003,-1.11608,0.02634,-0.49437,-0.29458,-0.89228,-1.07687,-3.41614,0.60884,27.20827,-21.71314,-5.75868,1.65709,2.58372,5.30712,2.03537,-2.03755,-2.52047,1.42,-7.82486,6.83369,0.47582,0.03448,2.66418,1.12692,-2.5774,2.86214,0.31374,-0.45319,0.48939,0.2661,-0.29338,0.35134
1808,-8.71775,-0.74173,-5.63516,-1.0277,-0.48732,-0.00514,1.48268,-3.0671,-6.03701,10.96869,-0.89084,0.98252,-0.39689,-0.48776,-0.88749,-1.04804,-3.3159,0.57691,25.35985,-15.95754,-16.07831,-18.1201,-17.44108,23.35675,1.79011,1.99904,5.90243,1.44835,-6.61983,6.04267,-0.58072,-1.14278,1.76962,0.50764,-1.93016,2.3768,-0.06213,-0.00624,0.03605,0.00794,-0.11518,0.26661
1809,-10.32743,-2.59763,-7.70545,0.162,1.67956,-0.16103,5.63372,1.2083,-21.41595,11.06972,7.01192,1.37775,-0.2496,-0.77746,-0.98925,-0.89524,-3.23716,0.67688,23.38944,-2.10509,-40.69399,-18.57369,-41.51663,34.36181,3.09072,6.7569,12.77518,0.34,-2.74126,2.33197,-1.12025,-1.85283,1.29125,0.00416,-0.61917,0.89053,-0.22169,0.47679,-0.18329,-0.21614,0.08566,0.03599
1810,-13.50744,-4.6099,-10.22228,-0.69455,2.73496,-0.28081,14.37937,-2.32889,-30.23764,2.46199,12.88881,0.66593,-0.30476,-0.94298,-1.17149,-0.94187,-3.25481,0.82283,14.30944,3.84124,-57.91145,1.33231,-40.22287,28.88892,4.93693,6.82875,10.30241,-4.11294,0.03085,0.02775,-1.00438,-2.52924,0.33015,-0.824,-0.18534,0.35519,-0.24502,0.34584,-0.22125,-0.31246,0.07935,-0.00234
1811,-15.35629,-2.98337,-9.25389,-1.45912,1.93341,-0.04506,15.97202,-6.9772,-21.11173,-4.30021,10.02068,0.66971,-0.59059,-0.67239,-1.1055,-1.23682,-3.37138,0.89144,5.04184,0.95456,-47.30626,18.76054,-14.36765,14.72696,5.75636,2.63771,1.62274,-9.46237,0.10429,0.81444,-0.43147,-2.71833,-0.97612,-1.87485,-0.77839,1.00452,-0.14657,-0.19267,-0.0664,-0.31988,-0.08076,0.1802
1812,-14.42725,1.8777,-5.35458,0.51886,0.93964,0.32273,10.10601,-6.56242,-2.28212,1.15549,4.38614,1.63949,-0.84754,-0.06715,-0.74802,-1.60493,-3.56224,0.81294,9.30601,-0.28582,-18.83223,13.92572,4.87342,6.29945,5.03622,-0.38521,-3.59144,-10.78503,-0.45036,2.14408,0.14091,-1.85892,-1.3119,-2.28618,-1.0769,1.33428,0.06796,-0.37219,0.18264,-0.29827,-0.16669,0.31824
1813,-13.06775,5.30274,-2.78523,3.85049,0.03237,0.50186,3.81221,-2.84636,8.42737,11.99352,-0.19257,1.91572,-0.99409,0.37278,-0.51864,-1.87639,-3.89153,0.58201,21.50789,-2.33851,-1.21173,-5.00224,4.75476,4.2776,3.34347,-0.68676,-3.14993,-6.85003,0.40873,1.57768,0.29349,-0.96054,-0.89269,-1.45434,-0.38887,0.62182,0.16623,-0.04399,0.1731,-0.197,-0.13295,0.265
1814,-13.44467,5.2173,-2.99003,5.48946,-1.24999,0.51497,0.16664,-0.08677,4.64845,15.21368,-4.8917,1.34837,-1.14035,0.39537,-0.58556,-2.03961,-4.37313,0.30969,24.20097,-12.7706,-6.18951,-16.25761,2.65266,-0.36013,2.49118,-0.95188,-2.10067,-1.06816,1.81162,-0.19152,0.16191,-1.04096,-0.57355,0.18868,0.45811,-0.21286,0.059,0.20608,-0.05026,0.03799,-0.08583,0.12835
1815,-12.87171,3.14869,-3.47089,6.09045,-2.37221,0.62154,3.09696,-1.62637,-2.86529,12.31661,-8.72317,1.30231,-1.01299,0.06448,-0.60893,-2.18668,-4.92809,0.14244,22.42631,-29.67314,-16.98931,-11.96728,8.17468,-6.79543,4.64584,-1.66452,-2.62534,1.34514,1.62949,-0.95634,0.15923,-2.14135,0.01584,1.32444,0.50429,-0.27639,-0.0444,-0.00923,-0.13373,0.26093,-0.03692,0.03052
1816,-8.9291,0.6349,-2.66509,7.13421,-3.20986,0.80821,16.29726,-8.17729,-2.93512,10.04183,-11.06215,1.33538,-0.37114,-0.44824,-0.39527,-2.47924,-5.53486,0.07697,29.88855,-47.72964,-16.37087,0.77598,12.49879,-6.35301,8.6692,-1.10824,-3.20554,-2.23603,-1.25375,0.64408,0.38536,-3.14669,1.04422,0.85984,-0.55383,0.42612,-0.02195,-0.40703,0.00349,0.25453,-0.01876,0.02628
1817,-4.56837,-1.04653,-1.47896,8.18223,-3.63773,0.76418,33.31054,-15.54548,2.30585,9.00578,-9.63392,0.37999,0.31992,-0.78033,-0.11319,-2.86824,-6.18816,0.02188,41.8853,-56.97458,-7.75406,14.36331,10.0622,1.7983,9.84058,0.42646,-2.88901,-8.4467,-5.40269,3.5471,0.50281,-3.13579,1.11142,-0.81023,-2.21741,1.24619,0.00098,-0.54114,0.10171,0.00469,-0.12887,0.10019
1818,-3.47459,-0.30823,-0.83034,9.53077,-2.90946,0.46863,40.47742,-17.39878,6.46431,10.21245,-0.84311,-0.52061,0.55228,-0.67379,0.05932,-3.02043,-6.78973,-0.03302,46.2729,-44.45564,-1.2055,23.13964,1.04291,8.44849,7.08291,2.0207,-1.34053,-11.08132,-6.47,4.29604,0.43506,-2.51132,0.04468,-1.99086,-2.92015,1.31357,-0.01459,-0.30907,0.0538,-0.27632,-0.25317,0.12546
1819,-6.36039,2.63975,-1.06755,11.30672,-1.43095,0.25617,28.48022,-10.67071,8.8141,13.57252,10.39201,-0.18369,0.36772,-0.39579,0.00543,-2.94437,-7.22673,-0.04053,34.50658,-12.75576,0.32858,19.4082,-14.54512,7.3157,4.65405,4.48486,1.47123,-8.4924,-2.35643,1.51571,0.48811,-1.92335,-0.37099,-1.67229,-1.69566,0.59462,0.02697,0.09363,-0.00533,-0.38165,-0.17326,0.03982
1820,-12.67239,5.1944,-2.47188,12.21881,-0.7075,0.39632,4.59479,-0.07368,9.73998,15.62286,13.36163,1.33412,-0.08401,-0.3496,-0.36411,-3.06664,-7.49359,-0.00256,10.61183,12.47372,-3.06561,0.27559,-26.06392,1.03025,4.40454,6.73875,3.87581,-5.2636,3.19618,-2.04597,0.7037,-1.5585,0.3185,-0.72907,0.35979,-0.16568,0.09039,0.33176,-0.00388,-0.30711,0.07188,-0.06706
1821,-19.30604,6.03163,-4.13274,13.03851,-0.59611,0.89567,-8.3053,5.25629,8.95332,18.04237,8.09737,4.03846,-0.59188,-0.46022,-0.81158,-3.46208,-7.67155,0.04807,-0.69581,10.23486,-8.11236,-21.56376,-16.0506,-5.32561,3.96504,4.96689,3.21083,-5.48734,5.24839,-3.4374,0.76576,-1.65293,0.60695,-0.38764,1.41984,-0.53868,0.05412,0.1301,-0.01621,-0.16229,0.23221,-0.11399
1822,-19.70894,6.67152,-4.15304,16.33761,0.15074,1.51528,5.17558,2.2523,8.87419,26.211,4.8752,7.27545,-0.60148,-0.42299,-0.76512,-3.77068,-7.87916,0.0697,21.02379,-10.47351,-7.39189,-26.88799,10.53126,-7.44233,3.21616,-0.43625,-0.39277,-8.32038,2.31925,-2.11071,0.60912,-2.2281,0.07752,-0.76558,0.63556,-0.57234,-0.07088,-0.36464,-0.08224,-0.04691,0.16253,-0.11322
1823,-11.32298,7.38094,-2.22148,21.45907,1.2519,1.85241,37.04346,-5.88101,9.85817,37.80826,8.10572,8.65129,0.13468,-0.29501,-0.03427,-3.82017,-8.16152,0.01436,64.89615,-30.13327,-0.07219,-12.97144,25.73301,-1.8549,4.54329,-3.19675,-3.38136,-9.93638,-3.80278,0.95493,0.50156,-2.61174,-0.11744,-1.04755,-1.54108,-0.277,-0.17552,-0.60266,-0.12992,0.00744,-0.09926,-0.06611
1824,0.18904,6.07185,0.11782,24.63238,1.05741,1.71823,68.90759,-16.84291,9.02331,44.76532,11.32615,6.56134,1.0938,-0.34887,0.86469,-3.77052,-8.41066,-0.12083,106.58179,-46.09269,7.76447,5.19451,15.42087,8.0742,7.36361,-0.2495,-3.45503,-7.81538,-8.87152,3.74951,0.57661,-2.33012,0.37563,-0.57195,-3.44866,0.27065,-0.19452,-0.32127,-0.09638,0.0308,-0.39299,0.0407
1825,7.39801,1.52221,1.57114,23.72443,-1.11962,1.34847,87.69937,-29.72314,5.28885,43.18057,7.51096,2.56702,1.60156,-0.65299,1.27913,-3.85315,-8.49508,-0.3052,131.07292,-65.03378,11.87249,14.99345,-9.39534,10.98983,8.23952,3.8425,-2.02549,-4.33678,-7.494,3.14489,0.62945,-1.74823,0.51107,0.02978,-3.02011,0.48863,-0.16182,0.13489,-0.05411,-0.00203,-0.45419,0.09603
1826,6.92015,-4.77788,1.99147,20.69907,-3.76709,1.09235,85.63799,-41.897,-1.11599,36.79118,-1.93103,-0.10858,1.37536,-0.99285,0.9878,-4.07455,-8.45304,-0.5392,130.57086,-86.49307,8.61704,14.95435,-34.37492,1.80428,5.61132,4.23775,-1.12257,-4.48734,0.19811,-1.68315,0.43069,-1.49343,-0.43516,-0.45184,-0.64984,-0.02432,-0.16529,0.32598,-0.11526,-0.17241,-0.23194,-0.00556
1827,1.14985,-8.9068,1.85305,20.2625,-4.05771,1.16782,66.54944,-48.47825,-7.36804,34.97664,-8.26069,0.71188,0.70267,-1.0832,0.34982,-4.11189,-8.39813,-0.7494,112.43768,-100.84039,-0.67991,12.23463,-46.90679,-11.3718,2.21195,2.18745,-0.54484,-8.75924,7.06154,-7.07053,0.36784,-1.80759,-1.4472,-1.78658,1.01532,-0.85297,-0.14638,0.15681,-0.19218,-0.42312,0.03286,-0.19597
1828,-4.28368,-8.50594,1.5256,23.97479,-0.84978,1.46813,45.52023,-47.02804,-9.8653,39.90681,-4.38342,3.79885,0.23728,-0.89734,-0.05402,-3.80696,-8.32387,-0.76566,91.30792,-96.81657,-8.55217,15.47518,-33.71784,-18.04392,1.81182,2.02859,0.84697,-13.10005,7.18188,-8.76224,1.02185,-2.35818,-1.11026,-2.68538,0.63178,-1.37542,0.01591,-0.11852,-0.11771,-0.57944,0.14702,-0.33039
1829,-5.98704,-5.4541,1.14491,26.08638,3.14486,1.40862,31.32074,-39.57875,-8.82132,37.15204,5.69973,4.54117,0.32611,-0.67581,-0.03926,-3.56898,-8.21047,-0.57275,62.37939,-74.91178,-12.23718,22.14407,0.02009,-15.51222,3.4192,4.30637,2.49729,-14.9082,2.16614,-6.72529,1.77525,-2.61304,-0.135,-2.6302,-0.69594,-1.50886,0.16129,-0.21575,0.00997,-0.53155,0.09045,-0.32846
1830,-3.20818,-1.647,0.47175,23.03023,5.10129,0.77173,25.89305,-25.86181,-4.06308,21.08814,13.30047,1.29174,0.82544,-0.62596,0.17727,-3.69204,-8.10792,-0.33313,28.90501,-44.45849,-11.07688,19.20545,28.60969,-8.3491,3.2789,5.2377,2.53208,-13.18797,-1.58403,-3.8224,1.48503,-2.30828,-0.13364,-1.73176,-1.17274,-1.21867,0.08422,-0.11429,0.01779,-0.26723,-0.0498,-0.18432
1831,2.7217,2.09374,-0.80993,19.22918,3.88155,0.29275,29.99884,-7.61174,3.61725,7.08063,11.53593,-2.15011,1.3982,-0.83108,0.32263,-3.90649,-8.14749,-0.31443,16.24066,-21.58579,-4.53732,0.73807,35.97439,-2.22484,1.7145,3.09453,0.59379,-7.42966,-1.12588,-1.36283,0.45754,-1.55351,-0.78604,-0.30505,-0.3759,-0.32055,-0.07399,0.02195,-0.04882,0.07059,-0.14279,0.02098
1832,7.66928,3.8102,-1.91796,19.95112,0.53868,0.5978,38.01104,4.0523,8.92993,10.43125,2.15279,-2.02189,1.72825,-1.16296,0.33858,-3.87162,-8.33346,-0.59009,35.14201,-19.20798,2.98653,-20.14353,29.40781,-0.12205,1.99643,0.50314,-1.53767,-1.22159,0.10558,0.66119,0.08848,-0.96642,-0.73537,0.55685,0.48113,0.47276,-0.09684,0.05177,-0.06386,0.17633,-0.12966,0.0961
1833,8.33085,2.70124,-1.64164,24.83779,-1.69439,1.32046,40.76807,1.73913,8.97979,27.92786,-4.16315,0.89346,1.78176,-1.28872,0.47221,-3.57828,-8.43666,-0.82849,64.03603,-29.93329,6.32546,-23.07771,20.83133,-2.04533,3.79719,-0.0219,-2.11598,-0.6692,-1.68469,1.12765,0.58988,-0.96236,-0.06758,0.06654,0.06592,0.00996,-0.02909,0.00201,-0.01685,-0.02038,-0.10355,-0.05673
1834,5.85177,0.03159,0.02002,28.81801,-1.13655,1.71016,36.14353,-8.85242,6.43081,41.29278,-1.95834,2.86686,1.72385,-1.09865,0.85108,-3.35336,-8.3178,-0.7106,74.05553,-37.79405,5.05696,-4.15887,10.67563,-6.74772,3.89836,1.00784,-1.30512,-6.98275,-4.80845,-1.32041,0.76425,-1.38071,-0.0003,-1.23997,-1.3198,-1.62413,-0.06661,-0.04794,0.00538,-0.27458,-0.14432,-0.32386
1835,3.24988,-1.7876,1.49332,28.93755,1.39814,1.53306,31.29546,-17.32048,4.46096,41.3611,6.21265,2.63176,1.56965,-0.74825,1.19871,-3.45465,-8.07552,-0.31559,64.95478,-35.41848,3.11207,19.69396,-1.93508,-11.85343,1.6971,2.12998,-0.27461,-13.97855,-4.43093,-5.33408,0.07773,-1.75576,-0.74993,-2.22175,-1.81197,-2.81186,-0.25159,-0.08215,-0.04524,-0.39698,-0.11348,-0.47268
1836,1.48088,-1.46411,1.50525,26.85113,3.30003,1.15373,29.71017,-20.10184,2.71809,35.40097,12.22272,1.72942,1.24004,-0.41759,1.15682,-3.76354,-7.92836,-0.02877,53.04016,-31.97607,1.26322,35.45774,-9.09702,-13.42963,-0.68009,3.14759,0.73956,-15.57193,-0.52618,-7.52175,-0.68914,-1.69556,-1.37185,-2.26755,-0.86644,-2.44943,-0.42677,-0.11465,-0.1278,-0.39127,0.03193,-0.39691
1837,0.27599,-1.14111,0.90518,25.69737,2.58621,0.98042,27.26361,-21.3748,0.67674,33.03902,9.9353,1.3227,0.82948,-0.38757,0.66581,-3.94598,-7.98375,-0.08952,46.05219,-39.11441,-1.50784,48.6113,-7.13431,-9.60986,-1.45946,3.97685,1.87666,-12.43697,1.97006,-6.56997,-0.61966,-1.5445,-1.29689,-1.82036,0.09736,-1.44514,-0.4289,-0.20875,-0.17004,-0.35846,0.11311,-0.2627
1838,0.19295,-2.37636,0.65889,26.53083,0.52076,0.94134,27.19975,-23.72365,0.82785,35.48187,4.65371,1.37834,0.56805,-0.79239,-0.01768,-3.82014,-8.17748,-0.36334,49.70121,-50.09018,-0.00468,59.49589,-0.89535,-3.80285,-1.04543,3.50067,2.36311,-8.82541,0.84623,-4.16203,0.01234,-1.92985,-1.05967,-1.58678,0.26112,-1.05739,-0.31608,-0.32627,-0.1469,-0.3531,0.09179,-0.22774
1839,1.16693,-3.64295,0.46002,28.28346,-0.50534,0.798,35.75502,-27.28489,3.60212,39.45954,5.31519,1.90758,0.52728,-1.30273,-0.53004,-3.52856,-8.41129,-0.58661,67.14256,-53.25553,9.00761,51.06045,8.38795,-2.63021,-0.74397,0.85182,1.30469,-7.11259,-1.49791,-2.42507,0.28446,-2.77448,-1.28834,-1.48684,0.03408,-1.18108,-0.24416,-0.30146,-0.07945,-0.32264,0.08588,-0.22214
1840,1.92826,-3.73508,0.18105,29.77051,-0.58343,0.68529,45.36215,-31.29683,5.76908,43.02523,10.31173,3.28437,0.53966,-1.47967,-0.65498,-3.36821,-8.60177,-0.64893,84.8401,-50.31523,18.21383,22.30889,16.9996,-9.33065,-0.63488,-2.77067,-0.85903,-7.13696,-2.54678,-2.36968,0.04013,-3.24476,-1.71114,-1.1751,-0.31207,-1.28131,-0.21141,-0.12437,-0.02232,-0.24004,0.06785,-0.19684
1841,2.33718,-3.62076,0.31144,30.43246,-0.98652,0.82608,45.35463,-33.71164,5.73969,44.43503,13.31081,5.33913,0.53452,-1.31084,-0.43201,-3.43207,-8.61553,-0.56669,86.2593,-47.06898,21.05527,3.54115,12.69856,-18.00305,-0.21366,-3.96253,-2.23996,-8.00527,-1.91079,-3.85733,-0.26286,-2.62564,-1.63738,-0.84619,-0.80349,-1.40328,-0.161,0.00274,-0.01977,-0.16616,-0.07274,-0.22886
1842,2.92045,-4.09441,0.86935,29.9611,-1.04546,0.98753,38.01808,-32.42979,5.1292,41.78003,15.91977,6.85802,0.62311,-1.12217,-0.07085,-3.51485,-8.29166,-0.36316,73.1096,-39.76065,20.47758,14.84135,-2.86531,-18.3346,0.43791,-0.30112,-1.27896,-8.33174,-0.39573,-5.25195,-0.21745,-1.15716,-0.86427,-0.67828,-1.04628,-1.40084,-0.07182,-0.04031,-0.04198,-0.10777,-0.23546,-0.25684
1843,3.06198,-3.92022,1.03234,28.10239,0.10514,0.77385,31.46246,-24.26792,5.25244,34.03896,21.00562,6.20719,0.76667,-1.09024,0.20212,-3.48148,-7.68489,-0.14429,55.14648,-22.36101,19.57896,37.58122,-7.58006,-7.68457,0.35832,5.88914,1.5097,-6.3297,0.93782,-4.28248,0.07408,0.20308,0.03478,-0.37733,-0.53247,-0.69146,-0.00016,-0.08213,-0.03546,-0.00866,-0.18911,-0.10386
1844,2.45572,-1.99974,0.30362,26.32844,1.23605,0.27315,28.45722,-10.42336,5.53267,25.4826,24.83047,3.60156,0.78691,-1.06726,0.30433,-3.38588,-7.15854,-0.0968,39.7855,-1.10093,16.98717,47.02506,6.24863,4.23729,-0.92907,8.86699,3.91403,-3.00404,1.72099,-1.66221,0.2853,0.49767,0.35801,-0.13113,0.53718,0.31913,-0.00566,0.00276,0.0089,0.04111,0.09322,0.12357
1845,1.75397,0.08168,-0.44511,26.62267,1.07065,-0.14032,25.23002,-2.12422,5.17732,23.38905,24.04649,1.43311,0.64286,-0.87861,0.30836,-3.27139,-7.05638,-0.28912,31.66743,8.51228,13.06543,43.32894,16.3551,5.45877,-2.05625,5.72316,3.82993,-2.61683,2.17629,-1.16551,0.23557,-0.45709,0.02844,-0.63402,1.28365,0.22583,-0.08588,0.01711,0.0538,-0.10407,0.35078,0.08266
1846,1.2834,0.69979,-0.44583,28.40193,0.5849,-0.31518,18.59443,-5.60173,4.25396,28.33252,20.80758,1.18671,0.44153,-0.54864,0.28286,-3.22523,-7.25703,-0.53848,29.47695,1.55553,9.97122,35.61485,6.85739,-4.29378,-0.75299,-0.1242,0.97197,-6.18761,1.83751,-3.64109,0.11262,-1.7583,-0.41455,-1.57315,1.06429,-1.09254,-0.19414,-0.16894,0.06611,-0.32633,0.32938,-0.24705
1847,1.17859,0.66659,-0.31243,29.83293,1.08972,-0.26791,12.61445,-10.14473,3.21806,34.90548,17.68189,1.95172,0.29968,-0.25301,0.22605,-3.33013,-7.2774,-0.55786,31.16832,-8.37344,7.59257,25.92232,-8.50232,-14.27324,3.05799,-3.07739,-2.54006,-9.14757,0.43025,-5.49748,0.49185,-2.29686,-0.50058,-1.95221,0.28417,-2.12687,-0.15522,-0.3509,0.05041,-0.41626,0.1127,-0.50989
1848,1.57228,0.49794,-0.37473,30.24421,0.59369,0.03373,12.40573,-7.28991,2.74087,40.46183,10.63231,2.27909,0.27306,-0.16367,0.18319,-3.48021,-6.93769,-0.36996,39.29095,-14.75138,4.86129,18.96643,-12.65227,-16.38955,5.40633,-1.53094,-3.62403,-8.35155,-0.78504,-4.7043,1.14934,-1.87445,-0.37014,-1.62209,-0.19036,-1.97858,0.06997,-0.29003,0.02297,-0.36763,-0.02258,-0.48219
1849,2.15063,-0.40251,-0.07561,30.32311,-2.85503,0.47394,15.44044,-4.39253,3.33272,47.06071,-2.33087,2.23015,0.34419,-0.26551,0.26258,-3.51222,-6.44087,-0.24755,54.27616,-26.18936,2.96315,21.99303,-5.01479,-12.8651,2.8702,1.62681,-1.3864,-5.86197,-0.50039,-3.3133,0.98446,-1.10726,-0.34986,-1.11529,-0.18645,-1.24712,0.17671,-0.04608,-0.00747,-0.26278,-0.01031,-0.27673
1850,2.33392,-1.95993,0.73664,30.35803,-6.96397,0.73424,14.68517,-9.72097,4.32922,52.27333,-12.44082,2.59479,0.44345,-0.44176,0.45202,-3.42181,-5.95932,-0.29059,63.26113,-43.11735,3.71485,31.14341,7.63647,-9.94011,-1.86541,3.01583,1.59995,-4.40373,0.78206,-3.32489,0.03337,-0.67877,-0.42288,-0.7109,-0.17687,-0.83352,0.00721,0.0889,-0.03194,-0.13111,-0.01714,-0.13253
1851,2.13301,-3.42874,1.48759,29.60357,-8.74269,0.69409,8.66583,-18.10756,4.27331,49.13747,-12.10639,3.33687,0.5171,-0.6227,0.59927,-3.3351,-5.54312,-0.39197,53.22677,-51.93382,5.84064,36.01518,15.78819,-8.98957,-3.43601,2.03123,2.32149,-3.8446,1.66596,-3.8501,-0.49696,-0.68887,-0.42083,-0.38944,-0.29042,-0.78817,-0.21933,0.03063,-0.03428,-0.00623,-0.09868,-0.11994
1852,2.09977,-3.99419,1.58019,28.06372,-8.00178,0.51356,4.62588,-18.88374,3.05465,39.67829,-5.24371,3.75419,0.54696,-0.75084,0.60924,-3.3634,-5.20873,-0.41616,36.10042,-43.93849,6.61011,33.78045,11.12146,-7.37929,-0.93076,0.74491,0.67579,-3.0935,1.57488,-3.24303,-0.2771,-0.77256,-0.33499,-0.19722,-0.1913,-0.62428,-0.34617,-0.01564,-0.00235,0.04755,-0.12239,-0.12625
1853,2.62237,-3.05016,0.92271,27.02963,-6.20552,0.34663,8.76615,-10.81741,2.27221,34.77666,-0.04045,3.41769,0.51772,-0.70092,0.52763,-3.54675,-4.98151,-0.30135,35.57365,-26.21246,6.10497,27.68701,-0.1063,-5.58396,2.2718,0.63689,-1.21591,-2.39089,1.10991,-1.89668,0.23248,-0.86673,-0.3396,-0.25496,0.18522,-0.28237,-0.33835,0.00226,0.01978,0.00687,-0.03551,-0.08855
1854,2.98409,-1.04097,0.06436,26.86843,-4.64041,0.26468,16.50005,-3.45581,2.90027,36.98199,1.46101,2.75901,0.38319,-0.42306,0.41146,-3.86703,-4.86545,-0.09566,49.05535,-12.89233,7.04835,21.3664,-3.99888,-6.0147,2.87443,1.07488,-1.38124,-2.62891,1.27621,-1.5636,0.78682,-1.10405,-0.51662,-0.60553,0.55443,-0.22441,-0.11667,-0.07254,-0.03636,-0.08244,0.06518,-0.07954
1855,2.25373,0.81374,-0.45017,26.15933,-3.88769,0.26461,18.98605,-2.60917,3.76971,36.3655,2.95373,2.41896,0.1622,-0.08127,0.27331,-4.2298,-4.82059,0.068,50.06623,-8.26365,9.57867,20.92106,-0.53412,-7.26186,-0.14175,0.41254,0.49682,-3.87136,1.75453,-2.65247,0.88919,-1.61537,-0.69598,-1.00346,0.59336,-0.67435,0.20813,-0.28972,-0.12952,-0.13933,0.08245,-0.14727
1856,0.61498,1.79157,-0.55367,24.34708,-3.84267,0.19543,14.01452,-3.75207,3.4495,29.02905,7.24197,2.19589,-0.03449,0.09004,0.1294,-4.53328,-4.8324,0.0694,29.41039,-5.1259,10.31523,27.76208,0.6328,-6.43394,-3.96072,-1.63203,2.43626,-5.16388,1.12385,-3.64236,0.2426,-2.31693,-0.63743,-1.01067,0.16604,-1.15576,0.31363,-0.48475,-0.12813,-0.12565,0.01561,-0.20573
1857,-0.4534,1.73063,-0.37336,22.86406,-3.95911,-0.08229,7.77251,-3.22446,2.79138,25.10815,13.53179,1.73931,-0.08583,0.03538,0.0481,-4.8022,-4.9147,-0.08793,10.78916,0.65846,9.25332,32.52932,-1.57943,-3.9075,-3.76851,-2.40012,1.99641,-5.56227,-0.12344,-3.4627,-0.20946,-2.31646,-0.29266,-0.67891,-0.28092,-1.09182,0.13819,-0.41374,0.00142,-0.11655,-0.02354,-0.18672
1858,0.44716,0.66507,-0.06842,22.34399,-3.97176,-0.41613,7.99734,-3.4347,3.34655,30.49218,18.16939,1.60054,0.03469,-0.10476,0.08995,-5.17196,-5.01158,-0.28495,16.21849,4.70356,10.25529,30.67854,-2.04351,-1.49981,-0.04808,-0.41372,-0.1561,-5.03373,-0.03676,-2.76081,0.04364,-1.24107,0.09455,-0.46689,-0.17984,-0.5622,-0.09395,-0.10779,0.14444,-0.16921,0.04999,-0.1288
1859,2.08584,-0.46905,0.1129,22.05581,-4.07222,-0.49125,12.38653,-4.5702,4.06824,38.57021,17.33427,2.37124,0.16504,-0.1723,0.1626,-5.67653,-5.03498,-0.38859,35.60514,3.56265,12.0935,30.62897,-2.22619,-0.46977,2.32282,1.47402,-1.45028,-4.08076,0.81507,-2.23438,0.40022,-0.38461,0.07799,-0.38638,0.09362,-0.14863,-0.20224,0.08522,0.14902,-0.19128,0.11551,-0.08331
1860,2.48477,-0.40652,-0.03625,21.66993,-4.32136,-0.28532,13.44977,-4.44028,3.46603,42.79568,10.96528,3.4915,0.17232,-0.1299,0.15555,-6.20483,-5.00685,-0.38044,47.3299,-3.22976,10.52859,35.50076,-7.49907,-2.18975,2.89872,1.04516,-1.8526,-3.09019,-0.07686,-1.54211,0.9539,-0.5322,-0.54256,-0.12911,-0.23266,-0.21729,-0.10006,0.02845,-0.03761,-0.10543,0.01807,-0.07653
1861,1.72302,0.94458,-0.45324,21.59151,-4.63664,-0.0686,10.33844,-3.73447,2.45119,45.20958,2.72199,4.14055,0.12201,-0.06528,0.11463,-6.6439,-4.99619,-0.36555,48.76859,-15.12412,6.53444,37.30287,-15.19035,-6.8295,3.97296,-0.54348,-2.61046,-2.50027,-2.54552,-0.5547,1.69052,-0.91621,-1.20028,0.23941,-0.92253,-0.50722,0.09084,-0.07261,-0.23814,0.01189,-0.15262,-0.09375
1862,0.93365,2.22134,-0.71347,21.32769,-4.91898,-0.01407,7.08983,-3.72865,2.41717,47.61134,-2.69106,4.25584,0.13552,-0.11765,0.15345,-6.97237,-4.95402,-0.41184,48.00542,-24.64477,4.05867,32.94555,-16.18927,-12.9737,5.08856,-2.42899,-3.33773,-2.66391,-3.46641,-0.09006,1.90802,-1.33874,-1.24519,0.4275,-1.08038,-0.45803,0.183,-0.16952,-0.24473,0.06345,-0.18962,-0.065
1863,1.11042,2.05826,-0.50515,19.80883,-5.74451,-0.07461,7.67225,-3.73523,3.15916,46.93377,-5.01627,4.15952,0.24934,-0.33882,0.31962,-7.26449,-4.82791,-0.51469,49.04304,-25.76179,4.15956,30.14041,-8.72977,-17.94243,5.2167,-3.53676,-3.24579,-3.48026,-1.62601,-0.8348,1.84558,-1.878,-0.86596,0.36303,-0.63029,-0.10174,0.24911,-0.30941,-0.12152,0.04162,-0.08054,0.00283
1864,2.41873,0.78772,-0.12183,18.00173,-7.274,-0.11198,12.4532,-3.29255,3.30989,44.31505,-7.72213,4.16428,0.37979,-0.59956,0.54469,-7.56736,-4.65452,-0.60838,53.22357,-24.40685,4.83478,35.21689,-2.72399,-17.37864,3.45208,-2.12479,-1.95829,-4.69877,0.41073,-2.32651,1.6471,-1.94417,-0.51211,0.1374,-0.34718,-0.13579,0.32374,-0.36168,-0.04734,-0.01088,0.00621,-0.01172
1865,4.21227,-0.11131,-0.08667,17.17862,-7.97412,-0.06176,16.62424,-3.18118,1.96362,42.68683,-10.08827,3.98513,0.47804,-0.67187,0.70825,-7.83874,-4.46897,-0.56586,55.59834,-25.8353,3.9651,43.68422,-6.26869,-9.90372,0.32532,1.72227,-0.03098,-6.05349,0.31553,-3.31735,1.13309,-1.12141,-0.29804,-0.11752,-0.52595,-0.69794,0.3027,-0.20685,-0.05769,-0.04321,-0.00419,-0.1156
1866,5.71346,0.06693,-0.4406,16.23554,-6.91016,0.00243,15.32764,-3.82326,-0.02359,38.51868,-7.70022,2.90491,0.60348,-0.43238,0.72233,-8.02155,-4.27309,-0.34658,45.53417,-24.49353,1.96222,45.25023,-13.44617,-2.08638,-0.28043,4.89026,0.38756,-6.80633,-1.68306,-2.81965,1.10143,0.02303,-0.34623,-0.14004,-0.8487,-1.07871,0.22783,0.04338,-0.09752,-0.02391,-0.05327,-0.16746
1867,6.25467,0.72415,-0.755,14.20574,-5.83698,-0.04086,9.18007,-3.56396,-1.16705,29.25541,-1.13924,1.24062,0.73886,-0.06146,0.5851,-8.04925,-4.0767,-0.14118,23.00379,-15.04742,0.37105,37.64801,-13.58733,-1.32516,3.11329,3.78731,-1.49058,-5.63669,-3.83483,-0.87326,1.88865,0.33327,-0.65116,0.19905,-1.023,-0.77121,0.21226,0.15885,-0.12387,0.00991,-0.0803,-0.12463
1868,5.32929,0.88868,-0.68553,12.37975,-6.51574,-0.17043,2.54376,-1.24269,-1.23282,20.328,3.37678,0.49576,0.73275,0.05777,0.38832,-7.88855,-3.84457,-0.15435,2.89897,-3.82679,-0.53296,31.73715,-9.71002,-5.81733,5.37238,-0.26346,-2.86485,-2.8817,-4.20503,1.06126,2.20838,-0.4469,-0.74855,0.59769,-0.89675,-0.02061,0.23053,0.02034,-0.10852,0.00371,-0.06497,-0.04956
1869,3.17803,0.41099,-0.38925,11.50733,-7.97728,-0.17458,-0.50193,0.28988,-0.74269,16.40647,1.64194,1.39124,0.49973,-0.19651,0.20947,-7.69473,-3.47281,-0.27212,-2.50943,-3.56331,-0.26027,35.46569,-12.17904,-9.23218,2.19647,-2.13216,-1.21692,-2.05612,-2.86854,1.08578,1.24859,-1.24105,-0.3282,0.58108,-0.74439,0.37929,0.21085,-0.23876,-0.04549,-0.03542,-0.05156,0.01834
1870,0.94438,-0.25087,-0.17893,10.51288,-8.27685,0.07297,0.42688,-1.81856,0.20282,15.25945,-3.85647,2.72544,0.15563,-0.59454,0.0483,-7.67836,-2.95702,-0.20473,2.53643,-16.35488,1.8703,41.63255,-17.4821,-10.43704,-2.09687,0.68411,1.40973,-4.79182,-1.67731,-0.68448,0.38099,-0.85268,0.14061,0.24665,-1.00017,0.13456,0.18728,-0.29282,0.01079,-0.05011,-0.09161,0.07241
1871,-0.14137,-0.99532,-0.02912,8.53045,-7.09356,0.3671,2.21018,-5.76139,1.64087,12.37934,-6.74198,2.83168,-0.09263,-0.90227,-0.09251,-7.81406,-2.4707,0.07081,3.74048,-28.94746,4.85489,42.53876,-13.86546,-12.11623,-1.25897,4.44443,1.43662,-7.01106,-0.89387,-2.12137,0.96546,0.25918,0.009,0.35074,-1.32048,0.02039,0.2179,-0.07454,-0.01217,0.00895,-0.1181,0.11068
1872,-0.08643,-1.86449,0.22846,6.40488,-5.72051,0.43834,2.08458,-8.81608,3.11676,7.82161,-4.88907,1.7269,-0.15925,-1.00679,-0.16162,-7.82559,-2.14137,0.29702,-4.06973,-31.31793,7.18206,42.54077,-5.01635,-13.12214,2.49634,4.13977,-0.74141,-4.79942,0.24228,-1.85828,1.78114,0.49787,-0.5176,1.24838,-1.19227,0.57653,0.21876,0.05089,-0.10885,0.13413,-0.07557,0.12352
1873,2.42856,0.03036,0.35713,5.45092,-5.39957,0.3207,4.40768,-6.84254,3.44215,5.74294,-2.6581,0.72227,-0.12771,2.63724,-0.32848,-7.4886,-1.89699,0.34466,-5.24948,-22.10958,7.33529,46.0166,-7.30939,-9.18827,3.41043,0.98749,-2.17211,-0.30828,0.15175,-0.4084,1.24012,-0.39184,-0.84498,2.21208,-1.21752,1.1139,0.1127,-0.12579,-0.22414,0.25687,-0.10621,0.11296
1874,1.53308,2.01908,0.13908,4.94881,-6.08511,0.17169,1.30399,-2.78407,2.0785,6.68897,-2.53526,0.2761,-0.18166,4.35521,-0.48905,-6.92722,-1.6525,0.32096,-5.76788,-11.37833,4.64864,48.98389,-21.43237,-2.5169,1.71191,0.51262,-1.99872,1.62408,-1.94681,0.81624,0.23716,-0.76875,-0.87639,2.23865,-1.75259,0.91719,-0.0176,-0.2495,-0.2821,0.2921,-0.29027,0.09329
1875,1.14554,4.43001,-0.28996,3.29333,-6.45329,0.06547,1.17287,3.11915,0.37665,6.62082,-0.87794,-0.07743,-0.26741,6.23659,-0.73127,-6.46102,-1.39871,0.36215,-0.89017,2.18554,1.64281,44.01389,-29.98734,-1.08683,1.28899,3.77018,-1.59979,-0.71973,-3.20163,0.61411,0.17003,0.22227,-0.72341,1.1507,-1.88073,0.20266,-0.10789,-0.01053,-0.19392,0.17668,-0.44979,0.0383
1876,2.22923,5.45987,-0.54361,0.52671,-5.43142,0.11869,4.22595,5.70497,-0.18149,2.27996,3.51609,-0.30068,-0.36634,8.15903,-1.11806,-6.22046,-1.08959,0.51184,1.42137,11.50968,1.08631,29.12844,-25.57267,-5.14764,2.83717,5.64074,-1.6892,-5.06937,-2.0759,-0.84322,0.82026,1.13373,-0.45435,-0.39026,-1.1927,-0.56165,-0.10357,0.31844,-0.01396,-0.07273,-0.38939,-0.08039
1877,3.92395,5.16031,-0.61385,-1.59746,-4.0703,0.38001,7.34448,2.60181,0.11884,-3.7519,3.90766,0.16069,-0.47049,10.2702,-1.64591,-6.03789,-0.75589,0.65623,-0.92633,6.30044,2.14562,14.15294,-17.53366,-5.30735,3.68309,3.33734,-1.51949,-7.55259,-1.23826,-1.80584,1.24519,0.54683,-0.18943,-1.29518,-0.69805,-1.04622,0.01491,0.30027,0.08356,-0.26367,-0.20662,-0.1805
1878,4.74346,5.29254,-0.78769,-1.34928,-4.23015,0.61021,8.02063,-2.59779,0.42595,-3.88414,-4.16734,1.11701,-0.59612,12.66203,-2.24837,-5.65305,-0.58078,0.63064,0.96864,-11.41912,2.38876,12.13285,-13.07871,0.58444,2.40514,-0.62658,-0.6708,-6.38657,-2.40729,-1.1657,1.14222,-0.96887,-0.07878,-0.86442,-1.0372,-0.93057,0.17384,-0.02273,0.03715,-0.20285,-0.1182,-0.14678
1879,4.47042,7.07757,-1.18767,-0.09271,-5.72805,0.51617,6.76835,-3.61738,0.78272,1.53191,-14.33427,1.06758,-0.73467,15.14045,-2.85162,-5.05242,-0.64517,0.45142,8.72221,-24.55831,1.07991,21.13741,-13.49396,3.80981,0.15094,-3.47778,0.252,-3.09012,-3.17259,0.12751,0.76324,-1.98627,-0.13365,0.45441,-1.39068,-0.16987,0.26508,-0.25607,-0.06124,0.02346,-0.08965,-0.0005
1880,4.23395,9.92753,-1.6953,-0.37582,-7.05784,0.13091,6.33502,1.17809,1.25773,4.22412,-18.16308,-0.66543,-0.8236,17.54654,-3.42806,-4.41985,-0.83501,0.27536,13.44893,-21.88291,-0.54286,26.88259,-19.79807,0.52734,-2.00413,-4.28718,0.83629,-0.33044,-1.98321,0.67417,-0.0103,-1.93897,-0.12796,1.46692,-1.1852,0.59022,0.12934,-0.25049,-0.07612,0.15716,-0.00989,0.0951
1881,4.43193,12.10453,-2.08053,-2.12555,-7.0269,-0.16957,7.06709,6.05766,1.39617,0.75786,-13.95744,-2.20107,-0.81294,20.00735,-4.00841,-3.89529,-0.97702,0.20691,10.39107,-9.08442,-0.21511,25.96198,-26.75724,-5.28038,-2.3349,-2.6159,0.75291,-0.20443,-0.51425,0.06813,-0.49502,-1.14577,-0.10381,1.28273,-0.87023,0.54066,-0.10102,-0.14795,-0.0281,0.07517,0.0666,0.02528
1882,3.95438,13.06624,-2.30347,-3.70834,-5.36455,-0.09195,4.7619,6.305,0.9365,-5.22355,-5.63561,-1.60859,-0.73116,22.6609,-4.64377,-3.48457,-0.95417,0.24979,1.0222,3.86585,2.41461,27.27041,-25.73327,-9.46575,0.96939,1.22402,-0.28728,-2.64466,-0.41497,-1.01511,0.65757,-0.09863,-0.31843,0.18025,-0.8917,-0.24022,-0.00963,-0.03626,-0.05537,-0.10308,0.02178,-0.12924
1883,2.62879,13.9258,-2.59183,-4.18383,-3.26589,0.23827,-0.68151,4.15698,0.08992,-8.70034,1.30289,0.54725,-0.62836,25.36887,-5.32368,-2.99833,-0.78144,0.33912,-5.97571,13.05428,5.02146,30.11826,-18.91533,-7.92538,5.05652,5.35233,-1.28513,-4.94581,-1.92049,-1.31019,2.49024,0.78664,-0.50865,-0.62357,-1.36281,-0.87949,0.35506,0.08164,-0.1219,-0.17642,-0.18149,-0.1925
1884,2.1555,15.92602,-3.22151,-4.25017,-2.20501,0.47554,-3.03305,5.37553,-1.3715,-8.86508,3.85175,2.26667,-0.51367,27.95724,-5.97352,-2.35284,-0.56979,0.38092,-1.99217,20.54597,4.20907,24.38948,-17.59248,0.62703,5.04792,7.53129,-1.00576,-4.83934,-3.69423,-0.42772,2.60868,1.2319,-0.27676,-0.36379,-1.92446,-0.75843,0.48278,0.16106,-0.08823,-0.08333,-0.40073,-0.10977
1885,3.08964,18.60347,-4.03838,-4.3055,-2.42367,0.41257,-1.76959,10.07434,-3.11028,-6.13955,1.87191,2.30384,-0.40428,30.43454,-6.57537,-1.74198,-0.45514,0.32082,9.4821,24.49291,-0.85138,11.94117,-26.91444,9.04443,1.51497,6.79039,-0.01615,-3.15771,-3.26638,0.40199,0.96017,1.11672,0.11298,0.42469,-1.7453,-0.11491,0.2335,0.15879,0.0113,0.04624,-0.39441,0.00824
1886,3.98201,20.60095,-4.61619,-4.00991,-3.11761,0.15918,-2.19933,12.74012,-3.6462,-2.18979,-4.02066,0.64518,-0.29991,32.83955,-7.17801,-1.30753,-0.49766,0.22199,15.96738,18.36137,-6.53399,4.7752,-38.42091,9.01684,-0.97086,3.42552,0.2434,-1.62181,-0.21555,0.23023,-0.49411,0.35542,0.15046,0.8878,-0.60633,0.47324,-0.04998,0.07003,0.03653,0.09556,-0.13335,0.07005
1887,3.8787,21.47999,-4.80206,0.40179,-0.58485,-0.15193,-4.55627,11.50703,-2.40342,6.7403,-6.54394,-1.16433,-0.14108,35.08435,-7.79045,0.35688,-0.13022,-0.06104,22.14379,11.64156,-7.61283,3.6646,-37.45449,3.25557,-0.67634,0.19013,-0.29654,-0.58351,2.51149,-0.28561,-0.73626,-0.40399,-0.11315,0.91375,0.4711,0.73521,-0.12253,0.00094,-0.02143,0.08076,0.11149,0.08404
1888,3.43792,21.58221,-4.7824,1.04601,-0.95844,-0.09691,-3.76462,9.06089,-0.67833,7.06346,-10.94835,-2.6781,0.11362,37.14363,-8.36988,0.42304,-0.22791,0.10743,21.78584,4.54904,-5.59096,0.49126,-19.91776,0.92452,0.5969,0.57357,-0.5713,-0.24012,2.32453,-0.31397,-0.17162,-0.2612,-0.26041,0.7208,0.461,0.64192,-0.0223,0.03251,-0.06917,0.02371,0.1334,0.05901
1889,3.37797,21.72826,-4.9139,2.46162,-1.02109,0.02334,1.07859,7.26119,-0.28073,12.00969,-10.85823,-2.14936,0.41307,39.20302,-8.90277,0.5771,-0.21576,0.23841,36.99047,6.07908,-2.37063,-1.45458,-1.41766,3.3146,1.16746,4.01243,-0.15181,-1.3148,-0.25063,-0.04779,0.47553,0.53304,-0.12229,0.33156,-0.56284,0.22463,0.10511,0.09586,-0.05496,-0.0714,-0.0029,-0.01294
1890,3.5841,22.83134,-5.43316,3.34018,-0.44774,0.17599,3.72774,7.10347,-1.8216,17.38138,-7.12096,0.15376,0.66537,41.33409,-9.40098,0.60587,-0.09861,0.21999,52.13823,12.31621,-0.4998,5.44586,-1.64047,4.29877,0.81547,6.62975,0.49314,-3.60992,-2.95737,-0.02853,0.633,1.00355,0.15443,-0.2246,-1.73791,-0.36238,0.11315,0.12384,0.02225,-0.1565,-0.14967,-0.10764
1891,3.38014,25.01754,-6.25255,2.46724,0.66622,0.31491,-1.2013,10.13346,-4.45481,15.97454,-1.56427,2.5243,0.78002,43.371,-9.89859,0.45564,0.03489,0.08537,46.55084,22.20972,-1.5272,12.25721,-20.21656,2.58141,0.19927,6.41022,0.86479,-4.6593,-3.8665,-0.11702,0.31781,0.80638,0.33834,-0.41349,-2.11867,-0.61187,-0.00131,0.12432,0.11043,-0.13932,-0.20552,-0.13496
1892,2.46483,27.22032,-7.02993,1.07625,1.50716,0.32007,-9.25603,14.76977,-6.76311,11.38097,2.84624,3.36278,0.7776,45.21254,-10.41757,0.27546,0.08194,-0.05122,30.72575,32.26315,-5.08655,6.71357,-38.60457,2.45074,0.14683,4.44041,0.77087,-2.20118,-2.95094,0.26479,0.20061,0.27394,0.24885,0.38818,-1.69931,-0.03714,-0.05298,0.07937,0.10341,0.02852,-0.18383,0.00504
1893,1.19358,28.19415,-7.3971,0.666,1.27603,0.13593,-12.15265,16.36604,-7.51284,10.70065,2.92071,2.47322,0.85331,46.86556,-10.88244,0.18845,0.01592,-0.12584,27.98923,34.05621,-8.05203,-3.30953,-42.421,4.25729,1.33308,2.02459,0.12371,1.54822,-2.20922,1.08511,0.789,-0.40424,-0.14999,1.61727,-1.55418,0.9486,0.09905,-0.04475,-0.04972,0.21776,-0.21693,0.24388
1894,-0.02755,28.14385,-7.30868,0.83491,0.17357,-0.09852,-10.46181,14.99306,-6.41946,12.40503,-1.07274,0.79247,1.1242,48.30251,-11.19699,0.21822,-0.09172,-0.13062,36.42591,28.20291,-8.13363,-5.06936,-33.61906,4.69225,3.33636,-0.24724,-0.79311,1.71326,-2.50163,1.41686,1.65003,-1.14679,-0.59705,1.72152,-1.97523,1.22023,0.32768,-0.18746,-0.22977,0.19554,-0.30024,0.31967
1895,-0.98543,28.11193,-7.04894,0.66649,-0.59062,-0.18073,-11.57357,14.959,-4.29187,11.54637,-4.19641,-0.44089,1.38035,49.51821,-11.39971,0.3053,-0.14581,-0.07102,37.30252,26.00471,-6.39958,-2.03334,-24.80521,3.90869,4.29126,-0.89478,-1.14939,-2.44456,-2.26464,0.55073,1.93296,-1.46607,-0.68665,0.23871,-1.9811,0.31417,0.41129,-0.24589,-0.26806,-0.08004,-0.27486,0.07919
1896,-1.54798,28.50366,-6.95787,0.96689,-0.17601,-0.07693,-16.97264,16.42651,-2.37899,10.80909,-2.26595,-0.36376,1.30727,50.59197,-11.62827,0.39087,-0.13109,0.02514,29.82467,31.99731,-4.42955,-0.70147,-23.8555,4.55868,2.89905,1.30514,-0.52236,-5.9798,-0.68668,-0.74554,1.41884,-0.98275,-0.35378,-1.25117,-1.03375,-0.83704,0.32534,-0.1928,-0.15926,-0.3284,-0.10102,-0.25729
1897,-1.70363,29.52785,-7.29355,2.84733,0.8773,0.08528,-20.03209,17.34091,-2.06374,14.8757,2.36384,0.66263,0.91576,51.57717,-11.93151,0.49191,-0.10564,0.11562,29.15946,39.74572,-3.50715,1.00346,-26.27411,6.08338,0.42711,3.9084,0.21261,-5.16203,1.32912,-1.20593,0.56162,-0.44786,-0.03745,-1.24939,0.43274,-1.09911,0.16567,-0.1147,-0.03917,-0.29275,0.13736,-0.3671
1898,-2.10806,31.00495,-7.97448,4.6529,1.28407,0.19635,-17.84885,18.18358,-3.98399,19.55406,2.47069,1.16114,0.52261,52.40091,-12.22596,0.57355,-0.10062,0.16795,37.0621,40.81014,-5.8405,3.5262,-27.20592,6.18888,-0.55283,3.46925,0.03645,-2.17299,2.88588,-0.91265,-0.04963,-0.80651,-0.09434,-0.26667,1.3968,-0.50906,0.00652,-0.11553,-0.00414,-0.09589,0.25862,-0.22119
1899,-3.41814,31.41991,-8.48197,3.65011,0.80676,0.27553,-15.58586,18.00388,-6.70417,17.92837,-3.45444,0.59108,0.32105,52.96928,-12.42428,0.52108,-0.07741,0.17439,41.44693,33.0758,-10.34644,2.72562,-28.84302,6.65545,0.36476,1.68142,-0.45765,-0.73646,2.92582,-0.58684,-0.13755,-1.32433,-0.21181,0.41389,0.80836,0.17716,-0.08178,-0.12805,-0.00119,0.00543,0.08099,0.00162
1900,-4.99491,30.26232,-8.52612,0.10935,0.39551,0.31947,-16.79617,15.47815,-8.04007,10.26675,-8.20401,-0.18644,0.18012,53.33379,-12.51608,0.34167,-0.01817,0.12508,37.50417,24.68143,-12.52429,-3.44673,-31.96028,11.3725,1.43611,2.83539,-0.00373,-0.60296,0.32989,-0.03093,0.21104,-0.57688,0.11189,0.65196,-1.17121,0.63451,-0.05339,0.02131,0.0757,0.00687,-0.28261,0.17862
1901,-6.11082,29.56535,-8.42869,-2.60976,0.2613,0.17433,-19.24689,13.00638,-7.53849,2.9792,-7.15841,-0.70495,-0.09933,53.62705,-12.55908,0.21497,0.00944,-0.00662,32.2506,24.16157,-10.88061,-14.6277,-33.2967,17.86019,2.121,6.20563,1.02382,0.04336,-3.29646,0.80774,0.73667,1.01615,0.68539,0.77988,-2.84324,0.8565,0.04418,0.26836,0.18535,-0.00144,-0.49154,0.24809
1902,-7.29079,30.66103,-8.50787,-5.25181,-3.18117,-0.93451,-21.13234,12.23636,-6.29842,-3.32258,-7.45978,-2.20298,-0.45051,53.84761,-12.58716,-2.33914,-0.40784,-0.61277,24.69508,23.97593,-9.18411,-27.14506,-30.85711,17.97394,2.9727,7.50927,1.24458,-0.00867,-3.74476,0.86727,1.10197,1.79757,0.90536,0.4573,-2.54435,0.63993,0.12891,0.34607,0.18863,-0.04853,-0.35225,0.16346
1903,-9.28226,32.25534,-8.69806,-3.34353,-4.88898,-1.57977,-24.0383,11.99908,-5.52118,1.30478,-5.56769,-1.92718,-0.65738,53.7916,-12.59053,-3.4521,-0.60681,-0.95582,24.96381,26.61298,-6.93325,-32.49715,-26.33926,9.7134,3.59061,5.79771,0.56267,-2.33267,0.09905,-0.20367,1.1419,1.29468,0.66102,-0.31594,-0.60085,0.01408,0.18583,0.18781,0.08808,-0.10982,-0.01606,-0.01808
1904,-11.47432,32.78778,-8.87036,-1.78058,-6.2386,-1.98677,-28.00909,11.91547,-5.64118,7.04806,-6.37863,-1.30276,-0.73201,53.27197,-12.57407,-4.76882,-0.73942,-1.20693,23.32914,25.96126,-7.55397,-25.42046,-23.96235,0.98831,3.48953,3.39588,-0.02768,-5.3372,3.76715,-1.12434,1.07184,0.27371,0.3447,-0.93645,0.97432,-0.57385,0.21482,-0.022,0.00668,-0.12187,0.21237,-0.16607
1905,-12.42893,32.57185,-9.0067,-2.91378,-7.31182,-2.27818,-29.71275,11.75793,-5.91821,5.25294,-9.49444,-1.91247,-0.86473,52.43857,-12.52869,-6.34569,-0.76886,-1.39814,16.8784,21.74023,-10.31651,-11.88383,-24.65921,-0.30668,2.6912,2.12099,0.03581,-5.75362,3.02031,-0.775,1.03011,-0.51831,0.20282,-0.93814,0.90003,-0.68874,0.17847,-0.10281,-0.00184,-0.08832,0.20821,-0.19928
1906,-12.12378,32.72252,-9.07498,-7.6037,-8.4967,-2.72042,-28.16469,10.70395,-5.36111,-5.97047,-13.70342,-4.61235,-1.06517,51.65532,-12.42408,-8.3089,-0.70988,-1.64652,5.85591,13.12268,-13.18057,-4.15299,-25.01247,4.79075,1.254,2.25587,0.5,-2.51528,-0.41598,0.25715,0.87353,-0.84373,0.11303,-0.14515,-0.21707,-0.24441,0.10221,-0.03892,0.02355,0.00045,0.05641,-0.1036
1907,-11.78485,33.37881,-9.05634,-13.7243,-10.1131,-3.34573,-26.23602,10.88416,-4.5079,-18.69148,-17.7467,-7.92977,-1.12523,50.98967,-12.23742,-10.51893,-0.56011,-1.96649,-5.64926,6.24731,-16.21747,-8.01003,-24.09852,8.97429,-0.21941,2.6922,0.72954,1.48157,-1.96823,0.69685,0.60145,-1.00069,-0.10781,1.0117,-1.20708,0.43296,0.08711,0.03115,0.03266,0.12666,-0.14337,0.07766
1908,-12.08344,33.74836,-9.00719,-17.17286,-11.98359,-3.87483,-26.71795,13.27758,-4.60416,-23.47928,-20.31902,-8.99849,-0.95153,50.27422,-11.99421,-12.63853,-0.2071,-2.20994,-12.67176,6.81158,-18.89857,-16.26275,-22.85392,7.79445,-0.33157,2.14377,0.32579,2.56635,-0.92002,0.43316,0.47084,-1.23749,-0.35038,1.50867,-1.65653,0.86808,0.14772,0.00187,0.0167,0.15792,-0.31786,0.23282
1909,-12.63309,33.52526,-8.97863,-16.95396,-14.07039,-4.2142,-29.32305,13.59708,-5.37314,-21.41047,-23.02064,-7.80107,-0.70749,49.54475,-11.75293,-14.68346,0.43246,-2.30681,-17.21847,5.11245,-19.58792,-18.18762,-19.87982,3.7515,1.65297,1.20217,-0.42697,0.93131,0.04387,0.27612,0.57695,-1.25194,-0.30922,1.05878,-1.6876,0.89834,0.15932,-0.08594,-0.01711,0.0408,-0.38314,0.27301
1910,-13.28582,32.86843,-8.93017,-16.34376,-16.06107,-4.53512,-33.14256,9.59077,-5.5534,-22.62338,-25.98155,-7.05184,-0.63214,48.82727,-11.57725,-16.90175,1.29523,-2.33419,-29.59604,-5.33804,-18.33825,-14.40864,-17.13904,1.47453,4.00197,1.81326,-0.78642,-0.85932,0.25926,0.27496,0.5682,-0.67878,0.03592,0.37024,-1.32798,0.66094,0.0348,-0.13124,-0.06103,-0.09669,-0.29816,0.2044
1911,-13.74534,32.07246,-8.8475,-18.18349,-16.42131,-4.76706,-36.11592,6.60796,-5.18992,-32.69086,-23.67583,-7.48506,-0.78554,47.95412,-11.4609,-19.36229,2.36908,-2.31138,-51.36048,-9.18125,-16.4907,-12.33606,-20.56628,1.40231,4.25769,3.89903,-0.37506,-1.61349,1.54572,-0.27275,0.27774,0.13189,0.36749,0.05726,-0.52526,0.30653,-0.11553,-0.08326,-0.06553,-0.11366,-0.09762,0.08276
1912,-12.86596,31.98094,-8.83289,-21.67985,-15.20756,-4.89915,-33.98871,10.00809,-5.36076,-44.85742,-16.61675,-8.21962,-1.00457,46.87619,-11.30137,-22.00699,3.68803,-2.26084,-64.86414,3.0116,-16.42163,-12.19059,-27.75105,2.18609,3.13101,4.91979,0.47854,-1.2731,3.06238,-0.99174,0.34092,0.49316,0.66132,0.14375,0.20138,0.03954,-0.08963,0.05234,0.04452,-0.02414,0.08997,-0.01634
1913,-10.75406,32.64583,-8.89538,-23.47057,-14.03446,-5.10752,-27.63498,16.46158,-6.19213,-46.79404,-12.14001,-8.60958,-1.13115,45.73244,-11.0468,-24.73198,5.2234,-2.22144,-55.8495,17.13625,-19.04052,-11.72187,-28.72742,5.5715,3.10406,3.61881,1.13505,-0.2315,1.67965,-0.65062,1.11534,0.37033,1.11272,0.24284,0.0703,0.06868,0.10751,0.22597,0.23801,0.02437,0.11772,-0.02584
1914,-8.91557,32.70424,-8.88605,-22.30052,-13.82069,-5.42268,-22.63578,19.03098,-7.07653,-38.41517,-13.26046,-8.25809,-1.15197,44.65341,-10.75393,-27.44915,6.89962,-2.17424,-37.23893,18.31698,-21.85571,-13.81087,-23.84517,12.56174,3.69512,1.8162,1.18033,0.40099,-2.06929,0.63971,1.66488,0.23726,1.34052,0.11367,-0.81925,0.31184,0.24024,0.33236,0.33263,-0.02972,-0.02728,0.04269
1915,-8.27178,31.21823,-8.71708,-20.14911,-14.92705,-5.79599,-21.33191,15.74239,-7.62149,-30.90537,-17.40185,-7.17874,-1.14821,43.65088,-10.51121,-30.12055,8.63828,-2.09154,-30.15024,7.78425,-21.43353,-17.97031,-24.1503,18.12833,2.70926,1.68559,0.77937,0.41012,-4.44469,1.53286,1.15272,0.23717,0.86056,0.15436,-1.63955,0.50462,0.18423,0.27767,0.22526,-0.05294,-0.21419,0.11039
1916,-8.59058,29.10584,-8.45788,-20.05606,-16.56098,-6.12015,-22.32423,10.65262,-7.49381,-32.33881,-20.4595,-5.98187,-1.14804,42.66947,-10.35101,-32.75426,10.42146,-1.97697,-40.28394,-3.26221,-17.59747,-18.73244,-30.95619,16.11576,0.77157,2.95663,0.46629,0.58788,-3.82519,1.44475,0.24738,0.15007,0.12544,0.64549,-1.85069,0.53596,0.06657,0.10288,0.05656,0.03807,-0.30405,0.12682
1917,-9.23978,27.74554,-8.15376,-23.30069,-16.59455,-6.25131,-24.43084,8.68096,-6.24113,-40.40794,-19.14098,-5.71823,-1.0588,41.64271,-10.22218,-35.26989,12.1916,-1.84045,-58.23723,-5.89598,-14.15781,-16.87321,-31.2041,7.76931,0.17382,3.31122,0.3551,0.44265,-1.90839,1.05129,-0.07059,-0.14767,-0.11672,0.90127,-1.58338,0.48838,0.02264,-0.03485,0.00415,0.09964,-0.27656,0.11827
1918,-9.59971,27.10709,-7.76618,-28.52681,-14.70993,-6.29087,-26.32963,10.92886,-4.10312,-48.48911,-14.02405,-7.11711,-0.8222,40.48895,-10.0448,-37.45202,13.72788,-1.71434,-71.92992,0.41031,-14.44528,-17.17987,-19.60726,0.64438,0.98594,1.61231,0.11297,-0.31426,-0.71814,0.84546,0.05648,-0.5075,0.06718,0.54689,-1.22943,0.4506,0.01211,-0.03976,0.06279,0.04423,-0.20051,0.11473
1919,-9.37809,26.27904,-7.3757,-33.91863,-13.09551,-6.37118,-26.62058,13.98961,-2.65832,-54.72474,-9.67721,-8.94739,-0.56592,39.27991,-9.79293,-39.17067,14.94395,-1.62333,-78.77937,7.93295,-17.29277,-17.32167,-9.54454,-0.89604,1.80357,-0.26162,-0.20449,-0.52161,-0.13353,0.289,0.12457,-0.70953,0.23463,0.15481,-0.84871,0.32951,-0.03052,0.01016,0.10743,-0.03016,-0.10448,0.07545
1920,-8.74013,25.02305,-7.16546,-38.83565,-12.03728,-6.14358,-25.60796,13.5201,-3.30127,-60.55198,-7.54902,-8.36358,-0.45417,38.26879,-9.49945,-40.51862,16.09947,-1.48197,-83.73442,9.41464,-18.23519,-14.24971,-9.57406,0.06846,2.45163,-0.50223,-0.34131,-0.09901,1.15391,-0.96198,0.18719,-0.68125,0.28308,0.00444,-0.23078,0.0122,-0.06742,0.00275,0.05465,-0.05766,0.01243,-0.02497
1921,-8.08554,24.22876,-7.18849,-43.23631,-9.93724,-5.34571,-24.26771,10.90511,-5.3397,-66.35656,-4.84995,-5.06502,-0.4969,37.49268,-9.21771,-41.62213,17.26797,-1.21806,-89.73839,7.89369,-15.73538,-13.81483,-9.33844,0.16048,3.48255,0.044,-0.41127,0.27083,2.61785,-1.9203,0.45459,-0.55685,0.28174,0.03321,0.40894,-0.29288,-0.04455,-0.04427,-0.064,-0.0264,0.0837,-0.10076
1922,-7.78088,24.39772,-7.28559,-47.14636,-6.66292,-4.32155,-22.90102,11.5448,-6.81666,-72.49557,-0.27373,-2.00226,-0.60859,36.70482,-9.00182,-42.53251,18.14316,-0.88638,-96.81712,12.08001,-12.9334,-19.55429,-4.69151,1.49066,4.34137,0.52969,-0.2563,0.6666,1.95494,-1.28873,0.89283,-0.45075,0.38886,0.3816,0.32839,-0.21405,0.04873,-0.02763,-0.10432,0.07238,0.02121,-0.05654
1923,-7.41474,24.80391,-7.2564,-51.2839,-3.27729,-3.40484,-20.5704,16.11874,-6.86093,-81.38001,4.71266,-0.90271,-0.68575,35.82567,-8.83578,-43.34579,18.55251,-0.5755,-106.06443,23.72268,-11.9618,-23.4899,-8.66076,6.36743,4.42216,1.19333,0.55881,0.50012,-1.52408,0.86807,1.44391,-0.43211,0.8906,0.71768,-0.86465,0.31882,0.20575,0.0567,0.05187,0.12531,-0.16567,0.08877
1924,-6.76875,24.45876,-7.03789,-55.67872,-0.34413,-2.57225,-18.07238,18.51857,-5.96042,-91.77811,8.77826,-0.65779,-0.67089,35.01421,-8.66379,-44.09136,18.59571,-0.28948,-116.67759,34.19489,-10.78989,-18.5989,-24.51912,11.47186,3.88818,1.28648,1.42083,-0.5822,-5.16836,2.83893,1.81379,-0.80565,1.4132,0.54048,-2.3428,0.91474,0.34447,0.03755,0.25869,0.03942,-0.33065,0.22041
1925,-6.2912,23.39684,-6.73347,-59.91722,2.28134,-1.69335,-17.65805,14.44902,-4.81591,-100.31091,12.06698,0.05733,-0.61231,34.37175,-8.47018,-44.70328,18.42506,0.00561,-126.52791,35.07342,-7.34577,-9.02467,-35.90937,11.55444,2.64908,0.86227,1.31003,-1.14886,-5.09755,2.67743,1.44601,-1.35712,1.1105,0.21195,-2.5129,0.96723,0.30716,-0.11325,0.25165,-0.05394,-0.29844,0.20969
1926,-6.44993,22.99383,-6.56691,-64.27779,4.54133,-0.7664,-20.50067,8.93946,-4.09358,-107.49985,13.57743,1.02493,-0.62752,33.89434,-8.29382,-45.18,18.2092,0.31718,-136.71281,28.36573,-4.44019,-4.08229,-31.14514,6.17252,1.45483,1.67996,0.6604,-0.70659,-0.60771,0.41118,0.59499,-1.23232,0.32902,0.11488,-0.98914,0.33957,0.11319,-0.14977,0.08195,-0.04414,-0.09361,0.05747
1927,-7.19841,23.68418,-6.6006,-68.51794,6.22847,0.10938,-25.54089,7.71885,-4.06874,-114.23872,13.3432,1.83167,-0.75391,33.47536,-8.16097,-45.55365,18.11201,0.66824,-147.46167,23.13861,-4.57756,-10.18869,-19.47427,0.69337,1.79468,3.78016,0.55256,-0.21207,4.33437,-1.83311,0.17778,-0.40701,0.19085,0.07386,0.71034,-0.35302,-0.02671,0.01651,0.01767,-0.00696,0.06583,-0.08048
1928,-7.7957,24.13207,-6.65084,-71.76237,7.36929,0.79629,-29.48842,8.50027,-4.34681,-118.97271,14.69341,2.66439,-0.91298,32.90001,-8.03921,-45.7558,18.10886,1.046,-156.02589,24.78214,-4.81741,-25.47424,-16.91476,0.90755,3.0043,5.1027,0.94473,-0.09592,5.22377,-2.18427,0.3377,0.13584,0.66145,-0.02914,0.97293,-0.48012,-0.01483,0.14911,0.10722,-0.02023,0.03818,-0.08398
1929,-7.40124,23.79582,-6.61052,-74.17818,8.15658,1.23225,-28.40432,7.82563,-4.53451,-120.80811,18.12362,3.13634,-1.02976,32.11145,-7.88363,-45.70917,18.07499,1.38013,-158.31354,29.87263,-3.10984,-38.74746,-23.11583,5.70005,3.12584,4.11256,0.94315,-0.30275,2.30939,-0.96663,0.49834,-0.22081,0.77571,-0.10009,-0.02118,-0.12858,0.05475,0.06529,0.16009,-0.05333,-0.08467,-0.00726
1930,-6.13381,23.50374,-6.5253,-77.02961,8.38434,1.46038,-21.66935,7.31558,-4.56517,-121.76099,18.19707,2.31504,-1.1032,31.29541,-7.69225,-45.47149,18.01128,1.63834,-153.24861,30.95697,-2.57745,-39.65394,-24.30158,8.73748,2.48138,1.82318,0.31149,-0.40543,-0.34001,0.05029,0.4755,-0.90767,0.32486,0.05581,-0.87624,0.21686,0.07281,-0.09251,0.05841,-0.02832,-0.12164,0.03986
1931,-5.07931,23.49002,-6.39015,-80.7634,7.76354,1.60983,-14.41952,9.43375,-4.47456,-124.81506,12.36023,0.81249,-1.1549,30.59599,-7.48713,-45.15362,17.96897,1.87438,-147.82173,27.20464,-5.02933,-29.13765,-16.03118,7.2545,2.59151,0.50561,-0.29526,0.25757,-0.45489,-0.06324,0.50468,-1.1988,-0.08697,0.4821,-0.89099,0.33666,0.04225,-0.13348,-0.10531,0.0529,-0.04452,0.04155
1932,-4.95726,23.36868,-6.1918,-84.09171,6.93161,1.89527,-12.31677,13.31523,-4.38625,-129.40387,5.6106,0.54438,-1.16915,30.06152,-7.28485,-44.82068,17.92439,2.17539,-148.04904,24.72622,-7.56462,-17.68499,-7.9106,3.90738,3.30111,0.21461,-0.40051,1.27544,0.48862,-0.59193,0.62382,-1.27173,-0.06681,0.752,-0.60372,0.33677,0.02475,-0.09925,-0.15013,0.05515,-0.00065,0.04977
1933,-5.18246,23.25904,-6.01665,-86.10722,6.54566,2.32811,-14.19439,16.29251,-4.41638,-133.12399,2.59698,1.62915,-1.12244,29.71335,-7.10083,-44.50676,17.8097,2.55127,-150.91824,26.17129,-7.74783,-13.30494,-10.19671,1.63203,3.85296,-0.53182,0.00634,1.14726,0.66158,-0.54813,0.80969,-1.58965,0.44365,0.42845,-0.61993,0.32264,0.06687,-0.1199,0.00286,-0.09005,-0.06483,0.07466
1934,-5.03628,23.08504,-5.90629,-87.15746,6.44932,2.70054,-15.3442,15.9709,-4.50427,-134.73706,3.44107,2.52987,-1.03963,29.45669,-6.95294,-44.15435,17.61836,2.96671,-151.96661,28.35397,-5.92673,-12.51522,-22.79863,0.68793,4.2814,-1.42517,0.6784,-0.27845,0.29276,-0.01232,1.12257,-2.04143,1.17389,-0.12805,-0.816,0.28867,0.15349,-0.19457,0.21115,-0.20422,-0.13635,0.07907
1935,-5.01422,22.37709,-5.80479,-87.76067,6.47288,3.00522,-15.9572,12.08819,-4.63712,-134.50223,5.47755,2.87252,-0.94076,29.23516,-6.85374,-43.72396,17.50779,3.41335,-154.01372,26.58289,-3.60711,-10.74403,-32.14536,0.75782,4.07242,-0.8021,1.02683,-1.35634,0.05047,0.3666,1.22284,-1.83642,1.37617,-0.25539,-0.88278,0.2532,0.18195,-0.14406,0.25732,-0.12585,-0.1314,0.05903
1936,-5.58244,21.6175,-5.69719,-87.92577,6.82209,3.43081,-19.29125,9.23684,-4.82154,-132.63042,5.55169,3.39622,-0.77946,29.14665,-6.79168,-43.30331,17.64584,3.90051,-159.85278,21.78133,-2.97706,-12.5719,-25.83111,2.58832,2.83819,0.71582,0.61285,-1.49359,-0.05199,0.40519,0.86322,-1.08858,0.69247,-0.07698,-0.76808,0.25766,0.1163,0.01727,0.10825,0.01904,-0.06651,0.04405
1937,-6.09447,21.48622,-5.55975,-87.50313,7.37993,3.92882,-24.71013,11.83066,-4.53737,-128.86899,3.62991,3.92631,-0.57654,29.13665,-6.74769,-42.92985,17.90137,4.41263,-164.91861,20.87212,-4.69931,-19.86382,-12.17221,6.42039,1.59718,1.24661,0.0048,-1.42593,0.44183,0.16113,0.51378,-0.92708,-0.11687,-0.01397,-0.4675,0.23121,0.06326,0.05341,-0.05047,0.05896,0.00852,0.03375
1938,-5.62104,21.31145,-5.31151,-86.83059,7.92134,4.33929,-26.65129,15.72131,-3.41821,-125.03827,2.85727,3.84028,-0.47552,29.01239,-6.69284,-42.61139,18.09701,4.93588,-163.4084,24.03032,-5.7494,-24.60203,-8.91799,11.05355,1.44424,0.58972,-0.02233,-1.1106,0.94937,-0.07104,0.63286,-1.64317,-0.23893,0.10109,-0.39536,0.17416,0.09085,-0.08376,-0.08012,0.04893,-0.02432,0.03201
1939,-3.6581,20.2296,-4.97664,-86.17561,8.23022,4.65256,-20.08206,13.69431,-2.45631,-123.75907,3.2216,3.3876,-0.50777,28.83053,-6.56224,-42.47836,18.40144,5.47321,-153.62871,21.68817,-3.95647,-22.50749,-15.91354,14.111,2.47847,-0.40939,0.33141,0.10811,-0.08443,0.09145,1.03088,-2.43677,0.20354,0.53647,-0.90555,0.18858,0.13811,-0.24109,-0.04063,0.08027,-0.17659,0.03839
1940,-0.92118,18.41669,-4.65649,-84.32016,8.051,4.89268,-8.26458,6.22102,-2.68531,-121.37173,2.26564,3.28155,-0.5026,28.74446,-6.33759,-42.59678,18.9705,6.00512,-136.02763,11.40047,-1.2272,-17.24835,-18.51729,12.20753,3.9212,-1.48901,0.39936,1.41337,-1.76028,0.4079,1.3094,-2.86046,0.60125,0.85676,-1.34987,0.21524,0.15501,-0.35039,-0.01925,0.06178,-0.22603,0.01166
1941,0.85215,16.7904,-4.37832,-80.16226,7.30611,4.9584,-1.14814,0.41561,-3.47721,-111.81918,-0.74505,3.29065,-0.2841,28.70483,-6.09318,-42.88387,19.54522,6.44221,-115.61197,1.29333,-1.01006,-11.25845,-11.75477,4.21751,4.61366,-2.5665,0.02639,0.73517,-1.57507,0.39805,1.26969,-3.08322,0.59275,0.41645,-1.04627,0.11423,0.13715,-0.40133,-0.01032,-0.08194,-0.06868,-0.05261
1942,0.38024,16.06163,-4.12431,-75.18536,6.29709,4.7632,-5.36772,0.72575,-3.48767,-98.85994,-4.79016,2.54815,0.12035,28.58121,-5.93408,-43.28929,19.84801,6.68044,-106.24984,-3.26931,-4.23263,-7.41782,-4.7265,-4.696,3.98837,-2.79527,-0.33319,-2.28595,0.63241,0.11911,0.90731,-3.0044,0.32072,-0.6589,-0.33695,-0.05865,0.07251,-0.31987,0.02545,-0.23321,0.10883,-0.08709
1943,-1.34656,15.96205,-3.86474,-72.01786,5.36976,4.32396,-15.62176,4.82001,-2.30834,-92.40084,-7.1886,1.13255,0.54473,28.25896,-5.87041,-43.81384,19.96477,6.66499,-114.0678,-2.04904,-7.49811,-10.90509,-5.34605,-6.68657,2.61619,-1.51209,-0.18796,-5.0953,2.60241,-0.05758,0.51159,-2.51191,0.17405,-1.54653,0.03793,-0.07235,0.01902,-0.14555,0.09825,-0.27612,0.11482,-0.02446
1944,-1.80509,15.96319,-3.64537,-70.75117,4.86299,3.8202,-19.41987,8.47789,-0.98954,-91.79949,-5.58019,0.40513,0.8999,27.73898,-5.80073,-44.45444,20.21256,6.45336,-120.15936,4.603,-7.20888,-19.30326,-12.2476,-0.20339,1.46844,0.51012,0.37511,-5.14022,2.90248,-0.01946,0.46024,-1.95397,0.25286,-1.52188,-0.15802,0.16234,0.06866,-0.0454,0.16172,-0.2102,-0.02994,0.10733
1945,-0.39261,16.18517,-3.64497,-68.53832,4.82419,3.46301,-12.86873,10.82599,-1.2136,-86.34332,-2.75301,1.248,1.16307,27.2216,-5.68302,-45.20757,20.85534,6.19729,-104.23867,12.64871,-5.05667,-24.31023,-21.03892,7.97748,1.43359,1.48097,0.7889,-3.1414,2.58455,-0.03543,0.80176,-1.73631,0.41514,-0.71719,-0.54257,0.41773,0.1915,-0.06862,0.15816,-0.08236,-0.1537,0.18845
1946,1.67602,16.60491,-3.81848,-63.70757,3.75784,2.9008,-3.02956,12.55567,-2.90153,-73.83205,-5.25861,1.94319,1.32788,26.81026,-5.5269,-45.95058,21.72521,5.89184,-75.28136,13.49146,-5.2597,-23.69484,-27.19867,11.00307,3.13517,0.79048,0.99111,-1.33867,2.88108,-0.3386,1.37965,-1.94921,0.86796,0.10286,-0.71907,0.46837,0.29895,-0.11306,0.13908,0.03261,-0.15716,0.16082
1947,3.41328,16.44675,-3.7855,-57.5662,0.57358,1.64786,2.03411,12.40881,-3.82418,-61.11691,-13.9045,0.13592,1.43827,26.37393,-5.31188,-46.48293,22.41017,5.39992,-55.48497,3.53922,-8.24655,-19.85974,-25.44002,8.14973,5.39288,0.05637,1.43783,-0.79773,3.03981,-0.63736,1.88805,-2.15205,1.7334,0.23379,-0.7252,0.35542,0.36373,-0.07435,0.2026,0.01706,-0.10052,0.08883
1948,4.4413,15.30769,-3.40635,-52.8324,-2.67524,0.06806,1.33213,9.25386,-3.06419,-53.00971,-22.36793,-3.57009,1.55266,25.88042,-5.06344,-46.89015,22.90317,4.7135,-50.19681,-11.37826,-11.77123,-13.75128,-17.44314,1.71207,5.44953,-0.50828,1.54543,-1.46261,2.14744,-0.5205,1.80964,-2.37332,1.96995,-0.37443,-0.77247,0.21717,0.33611,-0.11354,0.25349,-0.13799,-0.07624,0.04561
1949,4.78608,14.00933,-3.01598,-51.0891,-4.26839,-1.29819,-0.97245,5.96159,-2.23386,-51.80575,-27.77409,-7.13416,1.69828,25.39882,-4.85957,-47.41096,23.39377,3.89821,-53.61776,-23.80135,-16.0078,-6.05059,-11.5736,-6.20576,2.093,-2.64478,0.03909,-2.84089,0.96717,-0.06591,0.8177,-3.22984,0.27155,-1.07889,-0.86579,0.0936,0.09013,-0.49706,0.06818,-0.27492,-0.09443,0.03152
1950,4.58188,13.2157,-2.82619,-50.75862,-5.28295,-2.41585,-3.61477,5.16996,-2.242,-55.9003,-32.2477,-9.58878,1.87622,24.83101,-4.71686,-47.98959,23.9106,3.07174,-62.56351,-31.67936,-21.00184,1.81342,-10.74167,-11.73657,-2.06555,-4.89673,-2.1593,-4.10977,0.54715,0.37266,-0.45192,-4.05275,-2.22961,-1.24642,-0.87272,-0.03324,-0.26486,-0.97474,-0.24961,-0.2599,-0.10538,0.0083
1951,4.23982,12.867,-2.70254,-48.72389,-7.29254,-3.37737,-6.58382,5.34937,-2.18995,-56.22267,-37.47152,-10.577,2.05918,24.05829,-4.55539,-48.42532,24.5316,2.43365,-67.17384,-38.23849,-23.55439,5.13532,-10.61754,-10.12952,-3.13887,-3.75375,-2.39961,-4.37507,1.01358,0.44858,-0.79873,-3.53994,-2.71308,-0.88895,-0.69098,-0.1721,-0.35302,-0.96002,-0.32434,-0.13796,-0.06711,-0.04335
1952,4.30447,12.83641,-2.55741,-43.68215,-10.37716,-4.1657,-6.68535,5.02024,-1.66009,-44.12716,-43.13631,-10.10289,2.17922,23.04249,-4.30969,-48.66803,25.29817,2.0853,-52.69793,-44.92773,-21.94588,-1.24857,-8.06726,-1.07944,-0.18547,0.307,-0.13168,-4.06009,1.75951,0.16461,0.11348,-1.95427,-0.44776,-0.72743,-0.4608,-0.30859,-0.05257,-0.40285,-0.03972,-0.0931,-0.00675,-0.09606
1953,5.03379,12.72741,-2.42213,-37.82055,-13.28421,-4.7792,-1.6535,4.64654,-1.28148,-26.05458,-47.97357,-9.38641,2.19996,21.75222,-4.00301,-48.85398,26.04422,1.9221,-25.98182,-50.12252,-19.12175,-10.24975,-6.58897,8.48701,3.85839,2.89066,2.06932,-4.32391,1.93292,-0.00233,1.27765,-0.79607,2.11537,-1.20088,-0.50939,-0.36445,0.30003,0.11022,0.29088,-0.20717,-0.0122,-0.09178
1954,5.84671,12.14522,-2.29377,-33.8698,-14.3531,-5.10587,3.97653,4.00002,-1.25946,-15.2984,-49.84275,-9.599,2.16818,20.28307,-3.70498,-49.15506,26.70288,1.86351,-11.52,-53.14817,-18.04536,-8.58801,-11.80448,9.98015,5.45554,1.30369,1.82429,-4.41372,1.28965,0.19464,1.59075,-0.97177,2.38957,-1.51221,-0.8752,-0.20431,0.38108,0.14964,0.33173,-0.29573,-0.11362,-0.00879
1955,5.84835,11.41057,-2.16457,-32.32687,-13.08877,-4.95467,3.88303,3.24694,-1.30441,-14.54552,-47.92228,-10.21145,2.14898,18.78505,-3.427,-49.60742,27.42949,1.99043,-18.23043,-53.54097,-18.67653,2.87767,-20.12845,2.80564,4.40156,-2.25244,-0.10226,-3.46736,0.18177,0.65237,1.16348,-1.99441,0.7488,-0.96817,-1.30523,0.14394,0.25366,-0.13559,0.13343,-0.18896,-0.22622,0.0949
1956,5.15471,11.15783,-2.07117,-32.00013,-10.98972,-4.3744,-0.37121,4.12146,-1.43726,-16.86797,-45.43049,-10.28958,2.14449,17.23335,-3.1079,-50.10734,28.30653,2.39977,-30.36492,-51.34841,-20.07108,11.98611,-21.50109,-4.66913,3.16905,-3.6125,-1.20277,-3.30984,-0.98486,1.38062,0.8504,-2.73749,-0.44435,-0.35717,-1.53236,0.35432,0.14277,-0.3527,-0.05075,-0.01758,-0.23271,0.13389
1957,4.58478,11.47469,-2.01072,-31.09441,-9.3161,-3.55381,-2.60674,7.50699,-1.6425,-15.05984,-44.07767,-9.83288,2.11575,15.493,-2.70947,-50.53794,29.23296,3.10795,-31.33195,-45.9682,-21.04749,12.44325,-15.43685,-6.21931,3.02847,-2.34905,-0.70691,-4.99664,-1.5124,2.00446,0.95378,-2.83933,-0.23006,-0.54043,-1.40813,0.19262,0.11074,-0.36792,-0.12793,0.01581,-0.12347,0.08522
1958,4.42469,11.77658,-1.88831,-29.3834,-7.57724,-2.55934,-1.36392,11.947,-1.54985,-9.08218,-41.06712,-9.07149,2.05456,13.56818,-2.26251,-50.92965,30.11656,4.03199,-24.44587,-36.378,-20.31699,9.18407,-11.84289,-6.0077,2.34853,-2.44092,-0.38646,-5.66532,-0.30469,1.42705,0.9387,-2.96753,-0.15946,-0.9369,-0.92712,-0.12874,0.05361,-0.37419,-0.20571,-0.05358,-0.00283,0.00022
1959,4.66567,11.59264,-1.65731,-28.77158,-4.63043,-1.2457,1.65537,14.46929,-1.03787,-5.19432,-34.71678,-7.49091,1.98678,11.70568,-1.81684,-51.44601,31.04766,5.07166,-20.58997,-26.08778,-17.24754,10.74182,-15.02198,-9.44788,0.04748,-5.48483,-1.41449,-3.29631,2.69943,-0.53646,0.44547,-3.39888,-1.34039,-0.71303,-0.24869,-0.2776,-0.06478,-0.48933,-0.32257,-0.09221,0.05607,-0.06435
1960,4.90283,11.04092,-1.45837,-30.22586,0.24108,0.59278,4.16798,13.29593,-0.63769,-6.76153,-26.18518,-4.3752,1.88271,10.10495,-1.43846,-52.18546,32.13441,6.18493,-22.97853,-20.08646,-12.21779,18.55299,-17.99726,-11.8964,-1.37085,-7.30176,-2.23886,-1.15661,5.43098,-2.15031,0.01264,-3.55441,-2.15634,-0.39157,0.2348,-0.29232,-0.12061,-0.57297,-0.3072,-0.13401,0.06607,-0.10018
1961,3.71979,9.99563,-1.43229,-32.06826,6.38942,2.79121,1.85531,9.32612,-0.93902,-10.19583,-16.63973,-0.16545,1.63929,8.59624,-1.22545,-53.02285,33.20491,7.30894,-31.54651,-17.44196,-6.62427,27.35702,-14.40855,-6.09612,0.55888,-3.80193,-0.91859,-2.67299,5.4888,-1.85098,0.27678,-2.93098,-0.68803,-0.84433,0.12909,-0.41121,-0.01402,-0.43296,-0.03716,-0.27092,0.04747,-0.12677
1962,1.0336,8.33009,-1.51497,-33.36885,11.55935,4.6934,-4.98774,5.21519,-1.77711,-12.91542,-9.01521,3.20482,1.25815,6.95455,-1.17163,-53.78485,33.9843,8.29456,-44.80307,-15.88227,-2.77357,35.19534,-8.9324,4.15931,3.75222,2.36125,1.66299,-5.76982,2.34586,-0.01704,1.01206,-1.9743,1.87664,-1.57982,-0.72548,-0.51338,0.17322,-0.15683,0.28265,-0.39489,-0.0551,-0.11787
1963,-1.11221,7.25511,-1.64719,-34.675,14.50002,5.90417,-10.06091,5.4395,-2.73028,-13.24237,-6.75924,4.25713,0.8647,5.33148,-1.13596,-54.4087,34.48466,9.08646,-52.92977,-13.83541,-3.4135,41.75392,-10.95775,8.10699,4.35117,5.20376,2.91673,-6.41228,-1.95609,1.84881,1.53029,-1.68911,2.76641,-1.46532,-1.99529,-0.23796,0.29242,-0.02515,0.34915,-0.31987,-0.26162,-0.02223
1964,-1.69722,7.815,-1.82664,-36.19315,16.63613,6.74663,-10.34351,12.36502,-3.58169,-9.63581,-6.51372,3.77569,0.53871,3.96828,-1.01639,-54.85902,34.83587,9.7827,-48.67216,-5.16937,-8.17428,40.80112,-19.69485,2.69148,2.26798,3.43453,2.19081,-4.31362,-3.844,2.41458,1.50404,-2.092,1.65963,-0.52082,-2.71479,0.29444,0.29057,-0.06103,0.22492,-0.09149,-0.39412,0.10487
1965,-1.56694,8.84254,-1.90416,-37.90285,19.54595,7.67205,-7.9608,19.90594,-3.77231,-6.63252,-1.1924,3.76779,0.29954,2.83813,-0.82012,-55.10921,35.00291,10.43572,-40.89283,11.15904,-10.99628,29.90092,-25.5716,-5.48162,0.32221,-0.60942,0.75307,-2.40936,-2.05991,1.51931,1.14188,-2.483,0.29649,0.11088,-2.25992,0.47664,0.21964,-0.13462,0.16356,0.05783,-0.29087,0.12695
1966,-2.88973,3.98178,-0.97672,-39.82155,22.99954,8.79257,-8.17468,11.45733,-1.7277,-10.3314,8.44324,5.48409,-0.27227,-0.2551,-0.29873,-55.25891,35.0502,11.00998,-46.81014,13.44118,-4.44045,20.04965,-26.22918,-9.52902,-0.38302,-4.64402,-0.51039,-2.59048,0.78275,0.32498,0.79377,-2.67042,-0.53932,-0.21706,-1.13344,0.05831,0.1518,-0.23142,0.14701,0.01973,-0.05501,0.01879
1967,-3.39932,3.48182,-0.92176,-41.85822,26.00036,9.89876,-9.57032,3.9283,-0.89114,-19.34415,15.10345,8.29441,-0.28877,-0.12905,-0.32439,-55.41279,35.15952,11.43819,-60.55428,10.75688,4.26442,22.224,-27.12027,-8.01126,-0.47466,-5.8181,-1.29879,-4.03498,1.94973,-0.05184,0.60297,-2.7555,-1.11567,-0.92971,-0.35403,-0.48833,0.10375,-0.32723,0.01606,-0.10453,0.08385,-0.09247
1968,-4.29894,3.30163,-0.91674,-44.05379,27.82685,10.5193,-13.66818,0.23881,-0.75606,-27.5083,16.3559,10.00397,-0.321,0.05006,-0.36632,-55.44945,35.17094,11.57594,-75.36082,6.42471,8.44219,31.6082,-27.3281,-3.62305,-0.31855,-2.65991,-1.27618,-5.04361,1.4803,0.30025,0.51898,-2.69161,-1.38577,-1.19303,-0.43062,-0.62173,0.05821,-0.34321,-0.18761,-0.17323,0.0355,-0.10347
1969,-4.91548,4.15545,-0.94694,-46.28808,28.33857,10.36811,-16.03566,5.75561,-1.27692,-30.84618,16.04237,9.477,-0.30505,0.16502,-0.34802,-55.18243,34.80617,11.32443,-78.19575,13.77019,5.26043,34.68719,-21.48089,-0.11474,-0.28353,1.46087,-0.64278,-5.24182,1.222,0.44968,0.49753,-2.56534,-1.26053,-1.08499,-0.72398,-0.5355,0.02455,-0.28953,-0.30223,-0.16762,-0.03375,-0.07999
1970,-4.81405,5.17389,-0.95435,-48.08041,27.97963,9.74949,-14.2384,12.96315,-1.8896,-30.15129,16.48496,8.17767,-0.24066,0.23408,-0.26429,-54.68263,34.22448,10.8087,-69.60712,24.55514,0.44121,29.12817,-13.30036,0.27795,-0.33282,1.42583,-0.2604,-5.22992,2.17043,-0.01801,0.71133,-2.92666,-1.02768,-1.1216,-0.30876,-0.69488,0.07002,-0.3094,-0.2683,-0.14869,0.08504,-0.12721
1971,-3.09547,4.92752,-0.79258,-49.4441,27.48722,9.13689,-8.99743,13.51848,-2.07044,-30.9083,17.42978,7.80014,-0.09939,0.26156,-0.07701,-54.21912,33.71516,10.21552,-64.09879,25.92174,-0.36482,26.82656,-12.79072,-0.55776,-0.47472,-1.96451,-0.47276,-5.14794,2.336,-0.12421,1.16858,-3.72258,-1.04899,-1.20443,0.09376,-0.81532,0.20007,-0.42083,-0.15747,-0.1367,0.24398,-0.16828
