PaulMeinheit/Bachelor_Muay_Thai/processed_Data/N2/teep/sliced/JointAngles/sliced0.csv
Unnamed: 0_level_0,L_MTP_ANGLE,L_MTP_ANGLE,L_MTP_ANGLE,R_MTP_ANGLE,R_MTP_ANGLE,R_MTP_ANGLE,L_ANKLE_ANGLE,L_ANKLE_ANGLE,L_ANKLE_ANGLE,R_ANKLE_ANGLE,R_ANKLE_ANGLE,R_ANKLE_ANGLE,L_KNEE_ANGLE,L_KNEE_ANGLE,L_KNEE_ANGLE,R_KNEE_ANGLE,R_KNEE_ANGLE,R_KNEE_ANGLE,L_HIP_ANGLE,L_HIP_ANGLE,L_HIP_ANGLE,R_HIP_ANGLE,R_HIP_ANGLE,R_HIP_ANGLE,L_SHOULDER_ANGLE,L_SHOULDER_ANGLE,L_SHOULDER_ANGLE,R_SHOULDER_ANGLE,R_SHOULDER_ANGLE,R_SHOULDER_ANGLE,L_ELBOW_ANGLE,L_ELBOW_ANGLE,L_ELBOW_ANGLE,R_ELBOW_ANGLE,R_ELBOW_ANGLE,R_ELBOW_ANGLE,L_WRIST_ANGLE,L_WRIST_ANGLE,L_WRIST_ANGLE,R_WRIST_ANGLE,R_WRIST_ANGLE,R_WRIST_ANGLE,NECK_ANGLE,NECK_ANGLE,NECK_ANGLE,NECK_ANGLE_SHADOW,NECK_ANGLE_SHADOW,NECK_ANGLE_SHADOW,Trunk_Joint_Angle,Trunk_Joint_Angle,Trunk_Joint_Angle
ITEM,X,Y,Z,X,Y,Z,X,Y,Z,X,Y,Z,X,Y,Z,X,Y,Z,X,Y,Z,X,Y,Z,X,Y,Z,X,Y,Z,X,Y,Z,X,Y,Z,X,Y,Z,X,Y,Z,X,Y,Z,X,Y,Z,X,Y,Z
143,-1.66438,0.0,-0.0,-0.90348,0.0,0.0,1.96099,-7.1341,10.3684,4.93076,12.70055,-10.98606,-17.31227,-0.79635,0.00025,-8.77495,-1.97736,-1e-05,24.18641,14.06894,7.82112,7.20251,-8.0673,-14.351,4.58575,10.63213,15.93009,-4.64797,-14.79058,12.07781,102.18605,-0.00054,-97.39566,60.53133,-0.00379,96.0253,-24.18431,7.71066,-0.0008,-18.9438,1.40587,-4e-05,17.95872,8.86521,39.7425,1.67345,-4.93036,40.30948,2.98664,-1.18225,4.70474
144,-1.29777,0.0,-0.0,-0.83891,0.0,0.0,1.75185,-7.55473,10.34589,4.88061,12.48223,-10.44372,-17.17298,-0.63669,0.00019,-8.68609,-1.95012,-3e-05,24.21121,14.11754,7.91207,7.3002,-8.01393,-14.77458,4.64931,10.84962,16.11917,-4.70663,-14.87289,11.92907,102.76069,-0.00111,-97.37918,60.19219,-0.00207,95.63486,-24.1485,6.9953,-0.00169,-18.76343,1.6685,0.00107,18.02829,8.89544,39.861,1.77174,-4.93415,40.4308,3.0692,-1.16878,4.56199
145,-1.1397,-0.0,-0.0,-0.91932,0.0,0.0,1.58942,-7.93669,10.42899,4.92749,12.05217,-10.05904,-17.0753,-0.54861,6e-05,-8.58859,-1.9213,-6e-05,24.21849,14.18897,7.96731,7.31728,-7.92386,-15.20947,4.5754,10.9482,16.22014,-4.77981,-14.9739,11.7089,103.34723,-0.00444,-97.19585,59.73753,0.00493,95.66521,-24.17327,6.5393,0.00012,-18.28424,1.89337,0.00188,18.03815,8.78692,40.15466,1.84859,-5.11941,40.68006,3.18587,-1.07159,4.40925
146,-1.33155,-0.0,0.0,-1.30473,-0.0,0.0,1.57953,-8.14428,10.59482,5.16674,11.62201,-9.99225,-16.98604,-0.54924,3e-05,-8.52348,-1.89901,-7e-05,24.17387,14.24609,7.99048,7.28977,-7.83781,-15.41435,4.43243,10.95476,16.20862,-4.89051,-15.15808,11.50008,103.95517,-0.00651,-96.84148,59.19882,0.00874,96.23867,-24.37251,6.24006,0.00237,-17.6925,2.08265,0.00128,17.96298,8.56419,40.53529,1.85849,-5.438,40.98082,3.32713,-0.95669,4.30226
147,-1.82046,0.0,0.0,-1.91613,-0.0,0.0,1.73809,-8.22226,10.72945,5.54133,11.44966,-10.14497,-16.86696,-0.58754,4e-05,-8.50331,-1.90517,-5e-05,24.06491,14.31721,8.07047,7.29434,-7.75301,-15.29649,4.35745,10.96714,16.19138,-5.01829,-15.407,11.36365,104.54067,-0.00118,-96.80784,58.68296,0.00391,96.63493,-24.62657,5.95153,0.00289,-17.33541,2.1036,0.00061,17.84714,8.37344,40.85403,1.814,-5.70856,41.23215,3.44774,-0.87602,4.30876
148,-2.50128,-0.0,0.0,-2.46967,-0.0,0.0,2.02955,-8.32016,10.89848,5.9304,11.64748,-10.40296,-16.71687,-0.63723,-5e-05,-8.51799,-1.93226,-1e-05,23.94211,14.45731,8.18399,7.39039,-7.64447,-14.88748,4.4377,11.0174,16.30108,-5.1008,-15.66598,11.27564,105.04861,0.00672,-97.6596,58.21865,-0.00385,96.23326,-24.63478,5.43817,-0.00121,-17.40914,1.88045,0.00177,17.75431,8.33683,41.05234,1.76797,-5.79786,41.41156,3.53029,-0.81225,4.41305
149,-3.13579,0.0,-0.0,-2.67886,0.0,-0.0,2.32566,-8.45229,11.17755,6.197,12.04951,-10.64679,-16.54598,-0.70805,-0.00025,-8.5558,-1.94256,-1e-05,23.85103,14.64908,8.24008,7.55765,-7.53763,-14.38238,4.63799,11.0702,16.57121,-5.08217,-15.9167,11.19318,105.48057,0.00794,-99.05826,57.7187,-0.00667,95.26588,-24.13121,4.65976,-0.00775,-17.78156,1.53759,0.00246,17.68714,8.43805,41.2059,1.74078,-5.74233,41.58635,3.57575,-0.7427,4.50394
150,-3.32392,0.0,0.0,-2.42785,0.0,-0.0,2.34408,-8.43935,11.38356,6.21931,12.32932,-10.60065,-16.30247,-0.78013,-0.00028,-8.61245,-1.90753,-4e-05,23.72314,14.77103,8.28158,7.70189,-7.5356,-14.12572,4.85064,11.12038,16.91199,-4.96085,-16.15943,11.1109,105.89175,0.00137,-99.89438,57.11311,-0.00223,94.48323,-23.20252,3.96605,-0.00678,-18.09717,1.26866,0.00118,17.61182,8.56696,41.41646,1.72015,-5.67549,41.82314,3.5476,-0.71416,4.48959
151,-2.80873,0.0,-0.0,-1.78277,0.0,-0.0,1.84484,-8.11624,11.25733,5.97919,12.2668,-9.97712,-15.90197,-0.79336,0.00027,-8.67608,-1.84665,-3e-05,23.44015,14.70806,8.47873,7.74846,-7.71101,-14.37238,4.99739,11.22229,17.18118,-4.80285,-16.36919,11.03075,106.33578,-0.00693,-99.48769,56.4369,0.00398,94.3017,-22.3698,3.71625,-0.00069,-18.08308,1.12936,-0.0005,17.54953,8.62445,41.67465,1.72244,-5.68995,42.08571,3.41537,-0.79534,4.38878
152,-1.7922,0.0,-0.0,-0.94954,-0.0,-0.0,0.93723,-7.53944,10.79102,5.62344,11.88422,-8.864,-15.37072,-0.71291,0.00093,-8.70284,-1.81435,-0.0,23.01543,14.49469,8.9117,7.70407,-7.97527,-15.01532,5.08513,11.39697,17.29818,-4.73826,-16.50607,10.88261,106.82433,-0.00965,-98.20493,55.80534,0.00518,94.52333,-22.07826,3.86594,0.00095,-17.75417,1.03764,-0.00179,17.56378,8.56314,41.85942,1.78031,-5.7987,42.2456,3.24146,-0.96441,4.29819
153,-0.82075,0.0,0.0,-0.23334,-0.0,0.0,0.03334,-6.96576,10.23878,5.36427,11.37526,-7.78109,-14.87744,-0.58718,0.00073,-8.63799,-1.83313,-5e-05,22.60547,14.29998,9.4319,7.61968,-8.14174,-15.63119,5.16489,11.58491,17.29676,-4.88972,-16.56244,10.53038,107.32545,-0.0049,-96.96696,55.34775,0.00185,94.66088,-22.19664,4.10059,0.00013,-17.25249,0.96045,-0.00161,17.65161,8.40443,41.90409,1.87466,-5.96345,42.24496,3.1364,-1.10694,4.28239
154,-0.36336,-0.0,0.0,0.10627,0.0,0.0,-0.5175,-6.60816,9.89458,5.30343,10.96114,-7.20743,-14.56982,-0.51318,6e-05,-8.48759,-1.87534,-9e-05,22.34365,14.25351,9.7781,7.54115,-8.12228,-15.87953,5.25835,11.73862,17.26641,-5.24354,-16.58294,9.92075,107.79205,0.00197,-96.45427,55.10471,-0.00071,94.48312,-22.25955,4.15219,-0.00058,-16.59984,1.03202,0.00159,17.7189,8.25178,41.91324,1.9398,-6.11281,42.21197,3.13962,-1.13922,4.29341
155,-0.62635,-0.0,0.0,-0.0717,0.0,-0.0,-0.60638,-6.49889,9.96148,5.43724,10.76906,-7.28291,-14.45163,-0.55309,-0.00017,-8.34722,-1.90932,-5e-05,22.25046,14.34393,9.75689,7.51879,-7.97896,-15.66676,5.36149,11.88017,17.2957,-5.6396,-16.62348,9.19994,108.20018,0.0052,-96.69617,54.96611,-0.00063,94.25497,-22.02216,3.92267,-0.00149,-15.80199,1.40017,0.00527,17.68888,8.20912,42.04175,1.94013,-6.18841,42.32342,3.20669,-1.07799,4.22687
156,-1.54523,0.0,0.0,-0.78061,-0.0,0.0,-0.30405,-6.58168,10.46486,5.74693,10.77509,-7.92514,-14.43672,-0.70447,-6e-05,-8.31302,-1.93379,0.0,22.25859,14.51449,9.3598,7.59129,-7.78436,-14.98773,5.48641,12.02101,17.46536,-5.92525,-16.70777,8.622,108.56636,0.00437,-97.21879,54.75931,0.00129,94.31348,-21.52773,3.53745,-0.00096,-15.08054,1.98618,0.00385,17.58981,8.2511,42.2908,1.90372,-6.21478,42.57354,3.27034,-0.97206,4.07304
157,-2.65138,-0.0,0.0,-1.73877,0.0,-0.0,0.14708,-6.79779,11.1135,6.147,10.86698,-8.85987,-14.44477,-0.90077,1e-05,-8.3637,-1.97211,2e-05,22.26726,14.74812,8.84106,7.70755,-7.54289,-14.01609,5.64543,12.11292,17.79514,-6.09019,-16.84075,8.32445,108.93515,0.00183,-97.50567,54.40456,0.00281,94.64692,-20.80568,3.2355,0.00107,-14.74958,2.4944,-0.00025,17.50939,8.25132,42.50818,1.87717,-6.27263,42.78197,3.27216,-0.83847,3.93873
158,-3.30007,0.0,0.0,-2.4374,0.0,0.0,0.42382,-7.10305,11.45626,6.48568,10.99392,-9.6972,-14.43988,-1.03117,1e-05,-8.39014,-2.0328,-2e-05,22.22341,15.02002,8.55565,7.74811,-7.26246,-13.18379,5.81963,12.13049,18.17805,-6.23852,-17.03483,8.23749,109.34402,-0.00137,-97.28535,53.95422,0.00097,94.9215,-19.89363,3.0838,0.00227,-14.92305,2.63125,0.00037,17.49268,8.16285,42.59209,1.87866,-6.3802,42.83847,3.18966,-0.6844,3.89176
159,-3.35723,0.0,0.0,-2.68962,-0.0,0.0,0.40291,-7.45759,11.36589,6.71367,11.19548,-10.26302,-14.42186,-1.03718,4e-05,-8.34746,-2.09305,-4e-05,22.16871,15.28894,8.60336,7.69079,-6.97782,-12.77019,5.98412,12.1477,18.44861,-6.45993,-17.28079,8.18421,109.77547,-0.00432,-96.45506,53.49221,-0.00238,94.78222,-19.046,2.99785,0.00257,-15.43053,2.34439,0.00388,17.5162,8.08232,42.60844,1.90381,-6.46211,42.83236,3.07429,-0.5202,3.89247
160,-3.29088,0.0,0.0,-2.82011,-0.0,-0.0,0.23249,-7.77785,11.16919,6.89528,11.44179,-10.65227,-14.38974,-0.99074,6e-05,-8.30057,-2.13806,-1e-05,22.17335,15.55901,8.76152,7.66769,-6.69202,-12.61869,6.14534,12.2892,18.52583,-6.76818,-17.50892,7.96881,110.14191,-0.00403,-95.09586,53.05589,-0.00169,94.34604,-18.57143,3.05555,0.00245,-15.88128,1.91089,0.00383,17.54736,8.09806,42.67185,1.95122,-6.46384,42.89746,3.02217,-0.3433,3.90631
161,-3.42601,-0.0,0.0,-3.07691,0.0,-0.0,0.08516,-7.9434,11.19325,7.02121,11.54294,-10.88091,-14.32643,-1.00814,0.0,-8.31615,-2.18114,3e-05,22.24062,15.85278,8.78778,7.79096,-6.39286,-12.49699,6.30738,12.60847,18.4511,-7.13767,-17.64424,7.46592,110.35677,-0.00064,-93.72327,52.659,0.00171,94.07977,-18.5838,3.50425,-0.00138,-15.91737,1.66446,0.00249,17.58027,8.16173,42.79474,2.0167,-6.43518,43.03261,3.07219,-0.1545,3.95173
162,-3.57592,-0.0,-0.0,-3.31403,0.0,-0.0,0.00964,-7.90522,11.43307,7.01027,11.3514,-10.79662,-14.22228,-1.1213,-0.00014,-8.39317,-2.23922,4e-05,22.30836,16.14667,8.64449,8.01434,-6.10566,-12.43944,6.41543,13.02054,18.33894,-7.52305,-17.70461,6.75842,110.43435,0.00119,-93.00538,52.29203,0.00069,93.95419,-18.98434,4.45972,-0.00737,-15.56259,1.60741,0.00249,17.6067,8.17063,42.91261,2.07284,-6.45788,43.14812,3.16969,0.02721,4.01617
163,-3.51455,-0.0,0.0,-3.39738,-0.0,-0.0,-0.00692,-7.70486,11.71609,6.89124,11.01684,-10.38885,-14.08042,-1.29355,-0.00033,-8.49191,-2.3183,0.0,22.30327,16.40249,8.44158,8.2024,-5.87178,-12.55881,6.39742,13.36743,18.3191,-7.85177,-17.77467,6.06076,110.49748,0.00079,-93.04456,51.86917,-0.00451,93.56817,-19.55626,5.68958,-0.00724,-15.10283,1.43457,0.00134,17.6007,8.10928,42.99559,2.08574,-6.53898,43.21127,3.23312,0.18628,4.03204
164,-3.30247,-0.0,0.0,-3.34844,0.0,0.0,-0.01892,-7.38797,11.8831,6.78081,10.84018,-9.87634,-13.89986,-1.46377,-0.00037,-8.57005,-2.40206,-8e-05,22.18445,16.59892,8.3426,8.26157,-5.71631,-12.81695,6.25528,13.56272,18.43316,-8.06182,-17.89231,5.46323,110.69253,0.00013,-93.40253,51.2652,-0.00575,93.07566,-20.18554,6.59422,0.00231,-14.64058,0.9375,-0.00156,17.55367,8.04315,43.07253,2.05593,-6.62307,43.26735,3.22057,0.31549,3.94905
165,-3.0885,0.0,0.0,-3.14885,0.0,-0.0,-0.1064,-7.08016,11.84471,6.74791,10.90473,-9.54628,-13.69092,-1.53118,-4e-05,-8.62139,-2.4306,-0.00016,22.00125,16.70773,8.47487,8.22472,-5.65281,-13.01497,6.06872,13.64868,18.58497,-8.14984,-18.034,4.90478,111.08858,-0.00016,-93.74498,50.44621,0.00064,93.02821,-20.91439,6.61055,0.01457,-14.09317,0.25593,-0.00338,17.49831,8.0159,43.17403,2.0252,-6.67617,43.35755,3.16184,0.40783,3.78437
166,-2.9178,0.0,-0.0,-2.80835,0.0,0.0,-0.29574,-7.01112,11.64843,6.78552,11.04665,-9.57725,-13.49197,-1.40859,0.00039,-8.69285,-2.35215,-0.00023,21.88806,16.7238,8.81448,8.23818,-5.65773,-12.94425,5.9222,13.70889,18.67569,-8.16412,-18.17875,4.34664,111.61907,0.00044,-94.08537,49.52811,0.00827,93.62922,-21.63507,5.80934,0.01546,-13.50358,-0.26502,-0.0014,17.47239,8.02442,43.29593,2.03019,-6.70012,43.47697,3.14242,0.47939,3.6047
167,-2.74927,0.0,-0.0,-2.43676,-0.0,0.0,-0.55,-7.23143,11.41723,6.82293,11.09907,-9.79959,-13.33983,-1.12913,0.00045,-8.83043,-2.21536,-0.0002,21.9219,16.72076,9.22843,8.41897,-5.64848,-12.6751,5.84793,13.78586,18.73499,-8.14738,-18.32597,3.8194,112.12928,0.0018,-94.60415,48.66845,0.00934,94.60902,-22.04293,4.79549,0.00364,-13.06009,-0.41532,0.00112,17.4691,8.06537,43.40002,2.05441,-6.68807,43.58797,3.21087,0.57403,3.48643
168,-2.70027,-0.0,-0.0,-2.25958,0.0,-0.0,-0.75512,-7.54622,11.33612,6.85568,11.00871,-9.9331,-13.25169,-0.86062,0.0002,-9.05072,-2.10727,-0.00017,22.026,16.81126,9.52442,8.73457,-5.54474,-12.40667,5.83323,13.88727,18.86328,-8.09526,-18.48548,3.34623,112.49444,0.00196,-95.29952,47.89966,0.00183,95.37986,-21.95942,4.11919,-0.0052,-12.90038,-0.3248,0.00113,17.46114,8.12849,43.41972,2.05338,-6.6324,43.62378,3.30686,0.72553,3.4806
169,-3.05022,-0.0,0.0,-2.48579,0.0,-0.0,-0.76415,-7.83181,11.58805,7.01073,10.77208,-10.07496,-13.23442,-0.75568,7e-05,-9.36202,-2.03174,-0.00036,22.07106,17.04246,9.54297,9.06203,-5.33861,-12.04784,5.87044,14.00218,19.11592,-8.00313,-18.66738,2.9129,112.68883,0.00087,-95.75854,47.13149,-0.0089,95.4032,-21.4174,4.06481,-0.00219,-13.01475,-0.27006,0.00062,17.45287,8.17164,43.30555,2.01766,-6.56076,43.52567,3.3286,0.92785,3.57879
170,-3.74931,0.0,0.0,-2.89245,-0.0,0.0,-0.59525,-8.12124,12.04371,7.30014,10.38583,-10.44169,-13.26557,-0.79412,9e-05,-9.72876,-1.9693,-0.0004,22.01085,17.35592,9.40329,9.31351,-5.07771,-11.43952,5.94783,14.10678,19.47103,-7.94514,-18.84864,2.46468,112.79572,-0.0001,-95.58721,46.33088,-0.01223,94.77562,-20.47962,4.61555,0.00654,-13.269,-0.34053,0.00105,17.45474,8.15941,43.11584,1.97145,-6.52248,43.34021,3.2519,1.13768,3.70668
171,-4.37424,0.0,0.0,-2.96291,-0.0,-0.0,-0.44408,-8.39203,12.30005,7.52215,9.93427,-10.91417,-13.29677,-0.8477,6e-05,-10.04506,-1.96975,-9e-05,21.89288,17.65314,9.40126,9.46535,-4.80858,-10.77445,5.99362,14.18632,19.84321,-8.04419,-18.96985,1.8635,112.97356,-0.00105,-94.94803,45.61,-0.005,94.22858,-19.1526,5.3985,0.00879,-13.44862,-0.37161,0.00215,17.44161,8.09433,43.00497,1.92853,-6.55587,43.21624,3.13983,1.31525,3.77168
172,-4.60214,0.0,0.0,-2.54351,0.0,-0.0,-0.46172,-8.5064,12.11408,7.5175,9.60337,-11.16732,-13.31805,-0.83331,-4e-05,-10.22631,-2.08419,7e-05,21.80847,17.88868,9.64968,9.54013,-4.54438,-10.45159,5.94255,14.23609,20.11285,-8.34429,-19.00893,0.94871,113.32367,-0.00078,-94.32268,45.08017,0.00247,94.34056,-17.54402,5.95898,0.00103,-13.33632,-0.21836,0.00296,17.38897,7.99703,43.04628,1.88323,-6.66057,43.22972,3.0727,1.47508,3.74572
173,-4.36237,-0.0,-0.0,-1.93619,0.0,0.0,-0.64405,-8.37052,11.62281,7.32244,9.46613,-11.00449,-13.37077,-0.74553,-0.00017,-10.29767,-2.27392,7e-05,21.84224,18.09763,10.0299,9.60746,-4.26704,-10.66398,5.86851,14.24334,20.19993,-8.76314,-19.03618,-0.2262,113.77106,0.00053,-93.94631,44.6929,0.00283,94.83833,-16.0712,6.11698,-0.00599,-12.91974,-0.07227,0.00084,17.31118,7.90071,43.114,1.81938,-6.77131,43.26889,3.10233,1.67097,3.68951
174,-3.79317,0.0,-0.0,-1.47776,0.0,-0.0,-0.88246,-8.0804,11.2321,7.07941,9.38963,-10.53206,-13.47386,-0.63945,-0.00016,-10.35021,-2.43409,7e-05,22.00888,18.33526,10.34098,9.74181,-3.96878,-11.19384,5.92294,14.20877,20.11628,-9.19127,-19.14709,-1.34817,114.1687,0.00088,-93.70656,44.32891,-0.0018,94.9122,-15.35697,5.93276,-0.00234,-12.48104,-0.16375,-0.00176,17.23066,7.85609,43.02677,1.71558,-6.79121,43.17303,3.2248,1.91609,3.67096
175,-3.22104,0.0,0.0,-1.26539,0.0,-0.0,-1.05283,-7.89642,11.25518,6.92779,9.24728,-10.07322,-13.58524,-0.58951,-0.0,-10.45097,-2.47683,-0.0001,22.22532,18.59321,10.4478,9.9491,-3.70577,-11.60299,6.14688,14.17661,19.92171,-9.57222,-19.34674,-2.1979,114.49271,0.00036,-93.46019,43.95294,-0.00509,94.26614,-15.77372,5.52395,0.00731,-12.26108,-0.28832,-0.00121,17.15678,7.89046,42.7802,1.5812,-6.69263,42.94535,3.36442,2.14377,3.69051
176,-2.98201,0.0,0.0,-1.22284,0.0,0.0,-1.08649,-8.03277,11.61442,6.96075,9.10024,-9.90459,-13.64515,-0.61313,4e-05,-10.61685,-2.38615,-0.00042,22.37217,18.79547,10.36343,10.16212,-3.57161,-11.6268,6.45768,14.19348,19.67763,-9.87675,-19.5517,-2.88965,114.82496,8e-05,-93.23069,43.55475,-0.00353,93.45636,-17.03429,5.10048,0.00875,-12.19193,-0.18618,0.00048,17.11135,7.96145,42.5369,1.47748,-6.55944,42.73092,3.42027,2.26994,3.70283
177,-3.10959,0.0,0.0,-1.27171,0.0,0.0,-1.03152,-8.43893,11.96323,7.1669,9.07286,-10.04547,-13.62163,-0.6645,-5e-05,-10.81897,-2.22888,-0.00044,22.38629,18.90366,10.20081,10.30571,-3.57387,-11.36447,6.78354,14.25071,19.45525,-10.10299,-19.70334,-3.64285,115.19972,9e-05,-93.07511,43.08203,0.0012,93.16718,-18.39496,4.91515,0.00137,-12.13654,-0.01528,0.00135,17.12392,7.98899,42.40434,1.45804,-6.49751,42.61118,3.35525,2.29781,3.67482
178,-3.25024,0.0,0.0,-1.33295,0.0,-0.0,-1.05272,-8.86572,12.05171,7.38873,9.1458,-10.277,-13.50872,-0.68944,-3e-05,-10.99617,-2.10589,-0.00013,22.2915,18.973,10.08701,10.36422,-3.59628,-11.08857,7.09342,14.31201,19.32662,-10.31118,-19.83459,-4.49423,115.58186,4e-05,-92.95971,42.54216,0.00451,93.57523,-19.40473,4.96358,-0.00232,-12.05693,-0.0659,0.00042,17.1841,7.9445,42.36132,1.50621,-6.52883,42.55778,3.23553,2.33014,3.59246
179,-3.12447,0.0,-0.0,-1.32473,0.0,-0.0,-1.2582,-9.13927,11.98125,7.46244,9.25452,-10.40756,-13.32252,-0.65116,0.00015,-11.11176,-2.0635,0.0001,22.15584,19.06021,10.04727,10.39998,-3.53589,-10.90932,7.33232,14.37194,19.35228,-10.56443,-20.02319,-5.32287,115.95741,0.00031,-92.86345,42.03122,0.00299,94.37264,-20.15324,4.93897,0.00026,-11.85268,-0.42378,-0.00262,17.23563,7.87662,42.38937,1.56256,-6.6017,42.56625,3.16536,2.45936,3.44142
180,-2.89184,-0.0,0.0,-1.2407,0.0,0.0,-1.56087,-9.22164,12.04799,7.38612,9.48879,-10.38812,-13.12249,-0.54981,0.00026,-11.18295,-2.07817,0.00011,22.03297,19.1611,9.96541,10.47473,-3.40454,-10.78538,7.45132,14.44564,19.57276,-10.84853,-20.29436,-6.06485,116.35087,0.0008,-92.82218,41.62021,-0.00046,95.18938,-20.67914,4.65769,0.00264,-11.44337,-0.93558,-0.00469,17.23784,7.83121,42.50474,1.59191,-6.67627,42.6647,3.16968,2.68708,3.22973
181,-2.85505,0.0,0.0,-1.15202,0.0,0.0,-1.78651,-9.08769,12.35521,7.27143,9.94831,-10.19672,-12.996,-0.45606,0.00016,-11.23117,-2.11482,5e-05,21.93788,19.27,9.73099,10.56007,-3.26526,-10.74606,7.48981,14.53519,19.94921,-11.11542,-20.58,-6.80622,116.75384,0.00055,-92.78926,41.29761,-0.00131,95.98286,-20.72167,4.40529,0.00369,-11.03321,-1.25445,-0.00328,17.20308,7.79665,42.66943,1.59695,-6.75349,42.81353,3.17195,2.94919,3.01235
182,-3.09932,0.0,-0.0,-1.15225,0.0,0.0,-1.83827,-8.75067,12.76599,7.21897,10.49019,-9.8763,-12.98634,-0.47023,0.00015,-11.25926,-2.15365,1e-05,21.85667,19.41518,9.38268,10.59157,-3.14118,-10.81603,7.53391,14.66151,20.34123,-11.35719,-20.78869,-7.61479,117.11534,-0.00033,-92.63558,41.00622,0.0004,96.90172,-20.2723,4.60885,0.00609,-10.95148,-1.14639,-0.00228,17.16435,7.76506,42.81594,1.59369,-6.82294,42.9458,3.10075,3.16665,2.8603
183,-3.46583,0.0,-0.0,-1.27649,0.0,0.0,-1.76115,-8.30349,13.13068,7.27302,10.8349,-9.57234,-13.04485,-0.59897,0.00016,-11.28826,-2.18185,-0.0,21.76753,19.60345,9.10335,10.57943,-3.01905,-10.8936,7.59818,14.88606,20.6124,-11.59719,-20.89935,-8.40126,117.43391,-0.00055,-92.35686,40.70698,0.00148,97.86136,-19.83334,5.22321,0.00374,-11.25174,-0.81905,-0.00152,17.14257,7.77568,42.92062,1.59837,-6.84053,43.0493,2.97015,3.28443,2.81156
184,-3.74395,0.0,0.0,-1.49588,0.0,-0.0,-1.67268,-7.85637,13.416,7.42263,10.85845,-9.38725,-13.06806,-0.72745,2e-05,-11.35536,-2.18357,-5e-05,21.66085,19.78906,9.03965,10.59715,-2.89482,-10.86209,7.62094,15.2215,20.7588,-11.85942,-20.96971,-9.06544,117.78616,0.00063,-92.13318,40.43934,0.00056,98.52813,-19.89018,5.75159,-0.00036,-11.6812,-0.63733,0.00073,17.15408,7.8387,42.98378,1.62769,-6.79656,43.12701,2.84605,3.31638,2.846
185,-3.88354,0.0,-0.0,-1.78583,0.0,-0.0,-1.62223,-7.55352,13.61493,7.61436,10.63318,-9.28472,-12.99619,-0.73768,8e-05,-11.45607,-2.14634,-0.00012,21.55083,19.93075,9.17551,10.68441,-2.77531,-10.70794,7.57833,15.56756,20.90978,-12.16209,-21.07684,-9.64643,118.21903,0.00205,-92.10132,40.30431,0.00013,98.67365,-20.406,5.77016,0.00083,-12.00377,-0.59177,0.00145,17.21365,7.88776,43.04462,1.70405,-6.76542,43.19873,2.77723,3.34763,2.88348
186,-3.92493,0.0,-0.0,-2.0591,-0.0,-0.0,-1.58718,-7.51338,13.57293,7.76008,10.29989,-9.10335,-12.86959,-0.60799,0.00022,-11.52608,-2.09959,-0.0001,21.46312,20.03348,9.48338,10.80871,-2.66509,-10.56635,7.54065,15.81618,21.18152,-12.51528,-21.2564,-10.23181,118.6741,0.00099,-92.12537,40.33949,0.00114,98.43862,-20.96325,5.19444,0.00109,-12.23243,-0.42885,9e-05,17.30458,7.86705,43.21321,1.83661,-6.82998,43.35522,2.77314,3.44737,2.83185
187,-3.98492,0.0,0.0,-2.20913,0.0,-0.0,-1.51547,-7.68996,13.248,7.81012,10.07482,-8.77633,-12.76648,-0.43062,0.00013,-11.51751,-2.10768,-0.0001,21.39439,20.12265,9.90572,10.91036,-2.56497,-10.56868,7.59945,15.98486,21.55143,-12.91827,-21.48846,-10.81891,119.05753,-0.00242,-91.92434,40.44159,0.00146,98.16814,-21.2553,4.23252,-0.00344,-12.52497,-0.16937,-0.00102,17.37503,7.80282,43.55136,1.9902,-6.981,43.6633,2.80768,3.59439,2.67987
188,-4.35393,0.0,-0.0,-2.31001,-0.0,-0.0,-1.32011,-7.98442,13.06371,7.82402,10.19265,-8.55688,-12.70366,-0.34678,-4e-05,-11.46406,-2.18723,-0.0001,21.28663,20.23005,10.16825,10.94012,-2.45006,-10.58521,7.77325,16.19066,21.90924,-13.35635,-21.73497,-11.33206,119.34958,-0.00454,-91.55323,40.46555,0.00029,97.95744,-21.36899,3.21678,-0.00588,-12.91599,-0.0961,-0.00019,17.40076,7.74916,43.9603,2.1179,-7.1399,44.04273,2.81001,3.72785,2.52033
189,-5.04944,-0.0,0.0,-2.43067,-0.0,0.0,-1.03691,-8.37075,13.40879,7.85111,10.63205,-8.69719,-12.62977,-0.40024,-0.00014,-11.43341,-2.28721,-3e-05,21.07142,20.39207,10.08821,10.87241,-2.27475,-10.38588,7.99795,16.51665,22.18744,-13.79197,-21.97933,-11.73633,119.61749,-0.00187,-91.63328,40.33331,-0.0013,97.67391,-21.63766,2.2967,-0.00159,-13.29684,-0.39286,0.00153,17.41422,7.72458,44.26947,2.20946,-7.24416,44.33414,2.70033,3.82921,2.45881
190,-5.58327,0.0,0.0,-2.43076,0.0,-0.0,-0.89677,-8.78373,14.05835,7.8246,11.07052,-9.03111,-12.49911,-0.49638,-9e-05,-11.44841,-2.35448,2e-05,20.75629,20.60791,9.89626,10.74404,-2.04258,-9.99477,8.1863,16.93587,22.40046,-14.1799,-22.23511,-12.07897,119.93748,0.00547,-92.81015,40.03508,-0.00054,97.45554,-22.23503,1.29659,0.0059,-13.62546,-1.01778,0.00257,17.43096,7.72609,44.39618,2.25872,-7.2756,44.45669,2.49349,3.91363,2.51664
191,-5.64507,0.0,0.0,-2.25213,0.0,0.0,-1.03391,-9.10742,14.59818,7.69478,11.22328,-9.2367,-12.31997,-0.54811,2e-05,-11.47165,-2.36013,5e-05,20.44274,20.82741,9.84629,10.65081,-1.82327,-9.61999,8.29086,17.35435,22.58261,-14.52222,-22.51929,-12.44422,120.32455,0.01058,-94.94576,39.67065,0.00237,97.64279,-22.9841,0.09081,0.00765,-13.91629,-1.72948,0.00148,17.41412,7.76033,44.41341,2.24744,-7.24702,44.48233,2.31581,3.99451,2.61307
192,-5.45858,-0.0,-0.0,-2.04399,0.0,-0.0,-1.30737,-9.33597,14.96397,7.55432,11.06103,-9.26979,-12.12534,-0.56722,1e-05,-11.45715,-2.29579,0.0001,20.23713,21.00722,9.83252,10.65805,-1.67435,-9.39672,8.33058,17.71977,22.73423,-14.88493,-22.81143,-12.90026,120.72757,0.00742,-97.04668,39.46264,0.00369,98.10965,-23.58527,-0.974,0.00115,-14.08449,-2.26865,-0.00089,17.36156,7.83984,44.47594,2.21358,-7.18647,44.56357,2.26462,4.08014,2.6355
193,-5.29289,0.0,0.0,-1.88944,0.0,0.0,-1.52317,-9.55422,15.21122,7.52513,10.68609,-9.2367,-11.93198,-0.58259,1e-05,-11.40826,-2.19936,0.0001,20.16202,21.1434,9.69195,10.74674,-1.58751,-9.36874,8.35296,18.06948,22.86887,-15.31998,-23.05502,-13.44772,121.09292,0.00026,-98.08411,39.54586,0.0045,98.30907,-23.83833,-1.35668,-0.003,-14.10061,-2.63229,-0.00084,17.34838,7.94969,44.63987,2.24619,-7.1228,44.75044,2.3079,4.16849,2.55017
194,-5.11814,0.0,0.0,-1.73375,-0.0,0.0,-1.65308,-9.71901,15.22717,7.60051,10.19294,-9.12401,-11.76064,-0.57959,0.0001,-11.35463,-2.1438,1e-05,20.15909,21.2651,9.55424,10.84474,-1.50487,-9.52628,8.363,18.44315,23.08384,-15.78632,-23.22144,-14.0072,121.4407,-0.0043,-97.79676,39.76833,0.00447,98.15636,-23.63599,-0.96111,0.00143,-14.22808,-2.99032,0.00262,17.43442,8.0285,44.8037,2.37708,-7.08891,44.92897,2.34691,4.26048,2.43781
195,-4.84641,0.0,-0.0,-1.57926,0.0,-0.0,-1.77984,-9.65727,14.95481,7.68282,9.69626,-8.91176,-11.65469,-0.54905,0.00012,-11.30485,-2.15336,-5e-05,20.15763,21.40672,9.62944,10.89259,-1.38195,-9.74527,8.30857,18.81122,23.4845,-16.19869,-23.367,-14.47028,121.8511,-0.00485,-96.69409,39.8683,0.00283,98.1189,-23.06421,-0.20462,0.00518,-14.7924,-3.32889,0.00441,17.57889,8.01194,44.90166,2.54637,-7.13008,45.01904,2.32471,4.3769,2.39831
196,-4.53064,0.0,-0.0,-1.50286,0.0,0.0,-1.98906,-9.32162,14.55491,7.72279,9.366,-8.7075,-11.62601,-0.51169,5e-05,-11.27442,-2.17635,-4e-05,20.13639,21.55266,9.89435,10.90547,-1.25147,-9.87462,8.15058,19.15461,24.02991,-16.53235,-23.57195,-14.78813,122.36419,-0.00214,-95.47447,39.81837,0.00107,98.41422,-22.54714,0.4893,0.00128,-15.72531,-3.36934,-0.0002,17.67348,7.90085,45.03335,2.67146,-7.27117,45.11699,2.26222,4.51332,2.43997
197,-4.19086,0.0,-0.0,-1.49065,0.0,0.0,-2.34584,-8.89342,14.23483,7.74278,9.34119,-8.63293,-11.61821,-0.50374,-0.0001,-11.29887,-2.16765,-4e-05,20.11656,21.65838,10.14763,10.94358,-1.18068,-9.89916,7.93599,19.52455,24.5682,-16.81225,-23.82132,-15.03605,122.92709,-9e-05,-94.45999,39.81686,-0.00033,98.81335,-22.46401,1.05281,-0.00308,-16.5661,-2.96385,-0.00402,17.65585,7.76458,45.28563,2.71488,-7.46738,45.32495,2.20488,4.61227,2.48904
198,-3.80806,0.0,-0.0,-1.46898,-0.0,-0.0,-2.82468,-8.60587,14.13269,7.76252,9.58974,-8.72898,-11.58039,-0.58167,-0.00029,-11.36847,-2.13327,-4e-05,20.11494,21.7516,10.22289,11.0116,-1.15941,-9.86958,7.77005,19.94325,25.04128,-17.05641,-24.04634,-15.31533,123.46399,-0.00233,-93.48123,39.98813,3e-05,99.02698,-22.53059,1.62525,-0.00014,-16.93877,-2.45762,-0.00305,17.57533,7.67451,45.58153,2.70859,-7.62984,45.58741,2.15828,4.64704,2.48333
199,-3.53591,0.0,-0.0,-1.44517,0.0,0.0,-3.2657,-8.52854,14.28201,7.75662,9.90928,-8.93127,-11.54666,-0.78634,-0.00023,-11.41319,-2.09097,1e-05,20.13019,21.92976,10.11567,11.04586,-1.10172,-9.79327,7.71121,20.33531,25.51722,-17.29531,-24.26645,-15.60127,123.96807,-0.00436,-92.43943,40.28551,0.00063,99.02637,-22.0663,2.15344,0.00455,-16.87704,-2.2465,-0.00259,17.52902,7.64713,45.81999,2.72391,-7.71681,45.81085,2.09202,4.69315,2.42467
200,-3.58283,0.0,-0.0,-1.44759,0.0,-0.0,-3.50121,-8.52394,14.56629,7.67247,10.11066,-9.07026,-11.59551,-1.08262,0.00017,-11.38716,-2.05396,5e-05,20.15212,22.22289,9.95859,10.99774,-0.96746,-9.70808,7.72924,20.64765,26.0118,-17.57193,-24.56474,-15.81401,124.47982,0.00081,-91.86478,40.64666,-0.00085,99.10876,-20.97817,2.30644,0.00036,-16.63115,-2.08098,-0.00088,17.55965,7.65373,46.01677,2.80658,-7.76019,46.00286,1.9784,4.83802,2.35621
201,-3.88155,0.0,0.0,-1.42292,-0.0,0.0,-3.50443,-8.39789,14.77007,7.47514,10.1687,-8.99291,-11.76289,-1.37841,0.00046,-11.31512,-2.05622,-0.0,20.18715,22.5506,9.88781,10.90048,-0.79793,-9.72355,7.77398,20.97069,26.4301,-17.8769,-24.95536,-15.97017,124.99476,0.00872,-92.35963,41.06503,-0.00219,99.44977,-19.96592,1.89386,-0.00287,-16.30199,-1.43348,0.00423,17.65286,7.6669,46.23802,2.95873,-7.80318,46.22028,1.81999,5.06868,2.32414
202,-4.12993,0.0,-0.0,-1.32122,0.0,0.0,-3.36342,-8.11506,14.72275,7.19605,10.2237,-8.74444,-12.02173,-1.60418,0.00036,-11.24343,-2.1383,-8e-05,20.28249,22.85366,9.93165,10.85293,-0.61288,-9.86944,7.83451,21.44898,26.70221,-18.12991,-25.37188,-16.14384,125.45712,0.00775,-93.51991,41.50425,-0.00105,99.81696,-19.6783,1.2204,0.00118,-15.85683,-0.45094,0.00675,17.81076,7.66165,46.49688,3.18514,-7.87319,46.46947,1.65328,5.32603,2.36591
203,-4.12196,0.0,-0.0,-1.15801,0.0,-0.0,-3.17797,-7.8357,14.40642,6.93782,10.43964,-8.53299,-12.3181,-1.7438,2e-05,-11.19569,-2.28186,-6e-05,20.47548,23.14542,10.01606,10.91641,-0.39655,-10.01051,7.91234,22.11193,26.86071,-18.25077,-25.75149,-16.32589,125.84928,-0.0015,-94.16717,41.86355,0.00038,99.98525,-20.13168,0.79219,0.00047,-15.46116,0.07574,0.00356,18.06325,7.59499,46.73102,3.49767,-7.99617,46.67927,1.50714,5.58088,2.50254
204,-3.86506,0.0,-0.0,-0.91362,0.0,-0.0,-3.04532,-7.71326,13.93196,6.78264,10.78561,-8.43291,-12.61808,-1.80509,-0.0004,-11.17674,-2.40451,1e-05,20.73461,23.40557,10.08812,11.04233,-0.20017,-10.05571,7.9884,22.86359,26.97157,-18.2235,-26.07605,-16.39857,126.22806,-0.00858,-93.83302,42.06242,0.00022,99.95421,-21.00468,0.72012,-0.00417,-15.45263,-0.28367,0.00362,18.39009,7.4596,46.85609,3.85309,-8.15837,46.76614,1.36882,5.79034,2.7104
205,-3.57316,0.0,0.0,-0.5855,0.0,-0.0,-3.02255,-7.77709,13.47282,6.70703,11.04004,-8.30747,-12.92698,-1.81393,-0.00067,-11.18216,-2.43838,2e-05,21.00628,23.56877,10.17505,11.1468,-0.12243,-10.09108,8.04988,23.59761,27.07303,-18.08544,-26.36115,-16.26213,126.65714,-0.00692,-93.29964,42.11955,-0.00056,99.67636,-22.04928,0.63657,-0.00175,-15.86386,-1.16676,0.00498,18.69749,7.33712,46.87617,4.16143,-8.28193,46.75454,1.21786,5.8901,2.91027
206,-3.62925,0.0,-0.0,-0.37617,0.0,0.0,-3.03996,-8.01006,13.17885,6.64032,11.04608,-8.10641,-13.26404,-1.83607,-0.00047,-11.20092,-2.37718,-2e-05,21.27842,23.65095,10.31099,11.21453,-0.16868,-10.178,8.12365,24.26676,27.17648,-17.88919,-26.64596,-15.92917,127.14558,0.0012,-93.55746,42.14265,-0.00033,99.08911,-23.13281,0.07716,0.01023,-16.29543,-2.02943,0.00117,18.91711,7.31768,46.90315,4.38755,-8.30746,46.77579,1.05609,5.88863,3.02429
207,-4.27614,-0.0,-0.0,-0.59304,0.0,0.0,-2.95479,-8.37076,13.08485,6.59083,10.80882,-8.01434,-13.63601,-1.94986,0.00026,-11.22341,-2.25011,-7e-05,21.56293,23.75466,10.45234,11.26848,-0.23909,-10.21558,8.25775,24.87984,27.25291,-17.67268,-26.96399,-15.47259,127.65137,0.00833,-94.92599,42.23454,0.00073,98.35545,-24.12444,-1.22185,0.01861,-16.3989,-2.57606,-0.00252,19.07009,7.37622,46.99341,4.56684,-8.27323,46.8782,0.88378,5.87803,3.05433
208,-5.31391,0.0,-0.0,-1.30695,0.0,-0.0,-2.72039,-8.76561,13.1471,6.64614,10.406,-8.23181,-14.04257,-2.17753,0.00111,-11.2454,-2.08842,-9e-05,21.8761,23.9168,10.44258,11.29056,-0.26893,-10.09656,8.47728,25.47876,27.23992,-17.43757,-27.282,-14.97363,128.10265,0.00826,-97.09154,42.39842,0.00076,97.75987,-24.71328,-3.09778,0.00597,-16.2282,-2.6586,-0.00208,19.1986,7.38521,47.03825,4.7077,-8.27566,46.92398,0.69142,5.91853,3.07218
209,-6.14361,0.0,0.0,-2.15315,0.0,0.0,-2.50441,-9.08222,13.20427,6.80144,9.95496,-8.6723,-14.48282,-2.44884,0.00132,-11.2533,-1.93508,-3e-05,22.25477,24.06942,10.20989,11.24618,-0.28246,-9.93115,8.77559,26.10117,27.11114,-17.14158,-27.51765,-14.5234,128.41455,0.00159,-99.31059,42.55445,-0.00023,97.49773,-24.51499,-4.85741,-0.01042,-15.96993,-2.37089,-0.00103,19.31355,7.24789,46.93103,4.78889,-8.38196,46.78515,0.47995,5.98922,3.12404
210,-6.1406,-0.0,-0.0,-2.54416,-0.0,-0.0,-2.60652,-9.22034,12.87123,6.87979,9.57629,-8.93903,-14.94788,-2.63791,0.0005,-11.22232,-1.84995,-0.0,22.72647,24.1696,10.04372,11.16233,-0.30919,-10.01776,9.1413,26.74022,26.90728,-16.71237,-27.66317,-14.14697,128.53036,-0.00323,-100.59678,42.65202,-0.00092,97.5999,-23.60728,-5.57428,0.00076,-15.55523,-2.13261,-0.00266,19.44637,6.98313,46.76419,4.86719,-8.59663,46.55588,0.25481,6.06269,3.19622
211,-5.13662,-0.0,-0.0,-2.19551,0.0,-0.0,-3.16978,-9.13952,11.79475,6.72217,9.31295,-8.70796,-15.4242,-2.65576,-0.00088,-11.14247,-1.86518,-9e-05,23.26452,24.27088,10.39657,11.11847,-0.32741,-10.51315,9.57585,27.36923,26.65412,-16.11548,-27.81179,-13.74047,128.46744,-0.00056,-100.28816,42.74076,-0.001,97.92255,-22.70231,-4.80476,0.01459,-14.82963,-2.24578,-0.00543,19.66386,6.68209,46.69216,5.05383,-8.86994,46.40911,0.02055,6.159,3.29232
212,-3.54577,0.0,0.0,-1.36849,-0.0,-0.0,-4.0198,-8.92665,10.06464,6.37234,9.14004,-8.0843,-15.90405,-2.52495,-0.00193,-11.01981,-1.94661,-0.00016,23.8125,24.42981,11.37173,11.14558,-0.31705,-11.25253,10.08333,28.01334,26.30346,-15.38069,-28.01807,-13.18048,128.29405,0.00504,-98.65964,42.86376,-0.00047,98.21746,-22.58645,-3.14239,0.00328,-13.97965,-2.57631,-0.00423,19.98829,6.41969,46.64738,5.35585,-9.11261,46.29847,-0.20152,6.29507,3.45321
213,-2.12902,0.0,0.0,-0.59383,-0.0,-0.0,-4.82054,-8.74514,8.2551,6.03663,9.05826,-7.51438,-16.3851,-2.38667,-0.00192,-10.85663,-2.01702,-4e-05,24.33204,24.60729,12.53772,11.1678,-0.31664,-11.95328,10.64127,28.71524,25.85285,-14.4824,-28.23032,-12.44169,128.04533,0.00675,-96.79828,42.86976,0.00057,98.34991,-23.47973,-1.673,-0.0045,-13.44442,-2.91061,0.00015,20.37564,6.205,46.41079,5.67161,-9.26076,46.01295,-0.39416,6.4306,3.6618
214,-1.65373,0.0,-0.0,-0.3071,-0.0,0.0,-5.2984,-8.70707,7.08453,5.92962,9.14262,-7.44214,-16.87154,-2.43219,-0.00081,-10.66426,-2.02215,0.0002,24.82432,24.72087,13.20791,11.0818,-0.37399,-12.42817,11.1902,29.41733,25.46321,-13.31994,-28.3805,-11.56755,127.70865,0.00081,-95.88024,42.53078,0.00234,98.47915,-24.8957,-0.93228,0.0052,-13.43429,-3.26072,0.00388,20.79127,5.99168,45.97237,5.96266,-9.35592,45.53068,-0.58689,6.51925,3.81363
215,-2.32094,0.0,-0.0,-0.59681,0.0,-0.0,-5.38273,-8.85271,6.88988,6.11985,9.45593,-8.01994,-17.40397,-2.75769,0.00062,-10.49473,-1.96383,0.00028,25.3313,24.75481,12.9982,10.8862,-0.48323,-12.60536,11.67317,30.00724,25.34698,-11.92209,-28.44787,-10.60162,127.28658,-0.00941,-96.38215,41.93913,0.00287,98.91681,-25.95112,-0.74988,0.01243,-13.7766,-3.61024,0.00429,21.24535,5.75704,45.59697,6.30843,-9.48678,45.10376,-0.8498,6.57016,3.83172
216,-3.38079,0.0,-0.0,-1.09484,0.0,0.0,-5.27148,-9.16357,7.28735,6.46136,9.86797,-8.97386,-18.08319,-3.25715,0.00126,-10.439,-1.87461,8e-05,25.9057,24.79265,12.2582,10.70417,-0.60148,-12.53173,12.07485,30.525,25.55617,-10.45833,-28.44951,-9.5173,126.80354,-0.01471,-97.71048,41.52988,-0.0029,99.8498,-26.01714,-0.80641,0.00895,-14.19653,-3.63578,0.00047,21.74828,5.56544,45.4846,6.77374,-9.64303,44.94406,-1.2496,6.61698,3.79286
217,-3.90607,-0.0,-0.0,-1.31386,-0.0,-0.0,-5.23985,-9.53056,7.59159,6.72391,10.10537,-9.8724,-18.99404,-3.74391,0.00092,-10.55405,-1.78031,-0.0002,26.54288,24.97047,11.70336,10.64029,-0.66932,-12.31001,12.4084,31.17937,25.92624,-8.97762,-28.4503,-8.15944,126.25766,-0.00865,-98.65607,41.56879,-0.00944,101.0357,-25.22436,-0.96641,0.00319,-14.56257,-3.06952,-0.00292,22.24998,5.4875,45.55435,7.29018,-9.73625,44.99168,-1.80974,6.68674,3.88953
218,-3.89365,-0.0,0.0,-1.14009,0.0,0.0,-5.32972,-9.7507,7.52985,6.79275,10.07922,-10.5776,-20.08654,-4.15815,0.00041,-10.76403,-1.6914,-0.00028,27.15849,25.36233,11.61286,10.62396,-0.6272,-12.00333,12.70392,32.08833,26.22973,-7.39244,-28.54638,-6.35228,125.59715,0.00809,-98.26938,41.85529,-0.00711,101.7239,-24.09723,-1.10708,0.0036,-14.78966,-2.24599,-0.00132,22.64757,5.46889,45.62308,7.70486,-9.77188,45.05388,-2.47759,6.81252,4.21776
219,-3.87162,0.0,-0.0,-0.78229,-0.0,-0.0,-5.42283,-9.58441,7.15814,6.68845,9.95505,-11.10988,-21.20206,-4.53653,-0.00033,-10.89716,-1.62572,-0.00016,27.69448,25.88587,11.8199,10.50394,-0.48377,-11.77137,13.00985,33.1407,26.33602,-5.71968,-28.74641,-4.13349,124.74535,0.02232,-96.61337,42.05022,-0.00273,101.36709,-22.97774,-1.07602,0.00812,-14.67525,-1.75957,0.00112,22.90562,5.38446,45.62869,7.96062,-9.8549,45.03726,-3.11342,7.00027,4.65967
220,-3.94345,-0.0,0.0,-0.47569,-0.0,-0.0,-5.4847,-8.96055,6.47473,6.51435,9.87092,-11.3293,-22.21737,-4.90398,-0.00088,-10.86262,-1.60091,-0.0001,28.19647,26.38226,12.18767,10.26501,-0.33548,-11.8754,13.34975,34.15012,26.20323,-4.10946,-28.88919,-1.82881,123.67972,0.01771,-94.80214,42.04815,-0.0017,100.30616,-22.06331,-1.03722,0.00974,-14.1355,-1.79969,-0.00029,23.12159,5.21303,45.56902,8.15328,-10.00518,44.93407,-3.57169,7.18911,5.03889
221,-4.00254,-0.0,0.0,-0.39287,-0.0,-0.0,-5.50023,-8.20468,5.59644,6.43059,9.83018,-11.21552,-23.10802,-5.31257,-6e-05,-10.70905,-1.5931,-6e-05,28.70962,26.76572,12.59311,9.98023,-0.27045,-12.32525,13.71027,35.01829,25.80439,-2.65407,-28.77934,0.1808,122.4467,0.00179,-93.88861,41.90562,-0.00031,99.37365,-21.46541,-1.33407,0.00915,-13.48257,-2.2197,-0.00141,23.38552,5.03632,45.3625,8.35538,-10.12264,44.68583,-3.84603,7.31271,5.30573
222,-4.1355,0.0,0.0,-0.52163,0.0,-0.0,-5.39087,-7.82968,4.85244,6.51404,9.82402,-11.09197,-23.89998,-5.8148,0.00098,-10.5024,-1.55657,4e-05,29.16164,27.03482,12.84842,9.61135,-0.29226,-12.8267,14.1035,35.73862,25.15932,-1.30142,-28.40053,1.76558,121.01856,-0.00677,-93.86509,41.64217,0.00314,99.14263,-20.94568,-1.76788,0.01149,-13.11294,-2.79176,-1e-05,23.64335,4.87137,44.93901,8.49605,-10.17207,44.22837,-4.09727,7.38457,5.52042
223,-4.2605,-0.0,0.0,-0.64788,0.0,-0.0,-5.12883,-7.951,4.42862,6.66215,9.84549,-11.24096,-24.62608,-6.34647,0.00035,-10.26076,-1.48166,0.00011,29.44347,27.19566,12.95187,9.0502,-0.36242,-13.17304,14.56677,36.3423,24.3723,0.03357,-27.91972,3.08057,119.2228,-0.01387,-94.22428,41.29432,0.00507,99.5812,-20.06599,-1.65652,0.02127,-13.07865,-3.20235,0.0002,23.77906,4.63551,44.38967,8.47989,-10.25591,43.6287,-4.48116,7.4743,5.74772
224,-4.10078,0.0,-0.0,-0.65747,0.0,0.0,-4.75646,-8.10671,4.26114,6.73866,9.85883,-11.60283,-25.33377,-6.79307,-0.00109,-9.99577,-1.38991,9e-05,29.61213,27.24476,13.08239,8.33236,-0.47352,-13.42334,15.06327,36.88326,23.53722,1.36303,-27.49,4.36324,116.92255,-0.02078,-94.7855,41.0281,0.00268,100.11969,-18.79301,-0.78732,0.02866,-13.14643,-3.19398,-0.00077,23.75038,4.29599,43.88037,8.30568,-10.44868,43.03951,-4.93849,7.62051,5.99528
225,-3.69242,0.0,-0.0,-0.62431,0.0,-0.0,-4.29833,-7.79271,4.28547,6.7226,9.85042,-11.98791,-26.08785,-7.14661,-0.00133,-9.71622,-1.30028,3e-05,29.8872,27.21173,13.31753,7.64185,-0.63228,-13.69833,15.42805,37.44341,22.70916,2.68781,-27.10162,5.73988,114.20059,-0.00229,-95.2595,41.01059,0.00074,100.18816,-17.50783,0.35369,0.02097,-13.02431,-2.8049,0.00053,23.59492,3.94772,43.48949,8.0347,-10.68007,42.56266,-5.23871,7.7938,6.20606
226,-3.34226,-0.0,-0.0,-0.55597,0.0,-0.0,-3.76918,-7.0083,4.5844,6.68503,9.82613,-12.36864,-26.92631,-7.48811,0.00017,-9.42168,-1.22108,0.0,30.38256,27.16272,13.5767,7.09098,-0.8103,-13.9685,15.4631,38.10143,21.9949,4.0707,-26.63507,7.16835,111.2882,0.02209,-95.22216,41.23105,0.00157,99.69943,-16.54254,1.12554,0.00434,-12.55156,-2.3139,0.00248,23.37927,3.69881,43.22803,7.74111,-10.84967,42.23876,-5.2736,7.93419,6.31824
227,-3.18702,-0.0,-0.0,-0.41345,-0.0,-0.0,-3.2028,-6.11178,5.40565,6.72867,9.76509,-12.86268,-27.81829,-7.88542,0.00229,-9.14346,-1.1426,5e-05,30.98318,27.14635,13.73283,6.62935,-0.96183,-14.08998,15.11497,38.86024,21.5174,5.56228,-26.01714,8.53724,108.32365,0.00791,-94.92239,41.55022,0.00219,98.91867,-16.00704,1.22471,-0.00636,-11.88379,-1.97514,0.00171,23.15877,3.54765,43.11383,7.48439,-10.96446,42.08545,-5.17696,8.01888,6.34728
228,-3.07435,-0.0,-0.0,-0.32637,0.0,-0.0,-2.64881,-5.32182,6.98088,6.92519,9.66545,-13.44449,-28.68234,-8.30633,0.0026,-8.93615,-1.06605,4e-05,31.52998,27.1524,13.78873,6.17643,-1.07033,-14.08329,14.53786,39.61494,21.29305,7.12167,-25.27759,9.81021,105.21208,-0.02533,-94.82115,41.85173,0.00119,98.13004,-15.69982,1.13689,-0.00215,-11.33888,-1.9441,-0.00079,22.94512,3.42683,43.12165,7.26632,-11.08289,42.05985,-5.10774,8.07283,6.38652
229,-2.81481,-0.0,-0.0,-0.49264,0.0,0.0,-2.17788,-4.66471,9.19342,7.25741,9.59331,-13.88106,-29.42713,-8.58489,0.00036,-8.80855,-1.03736,-6e-05,31.96302,27.11161,13.98639,5.70609,-1.16334,-14.20168,13.96423,40.24615,21.18278,8.66161,-24.47285,11.06839,101.75595,-0.03798,-94.73881,42.11213,-0.00118,97.59209,-15.20734,1.7787,0.0157,-11.02529,-2.3333,-0.00298,22.73609,3.31085,43.12523,7.052,-11.19553,42.0314,-5.0756,8.10294,6.52305
230,-2.46204,-0.0,0.0,-0.9348,0.0,0.0,-1.82181,-4.23379,11.59073,7.6488,9.5707,-14.10776,-29.97892,-8.57497,-0.00164,-8.70206,-1.07172,-9e-05,32.24881,26.95777,14.55386,5.1664,-1.282,-14.55765,13.56562,40.73841,20.90984,10.13107,-23.60648,12.425,97.89156,-0.02208,-94.25805,42.40673,-0.00372,97.5105,-14.4276,3.27529,0.0269,-10.87133,-3.06091,-0.00376,22.57921,3.21077,42.96251,6.84947,-11.24788,41.84434,-5.04264,8.08223,6.76825
231,-2.18043,-0.0,0.0,-1.44927,-0.0,-0.0,-1.54141,-4.08885,13.76,8.01704,9.49325,-14.33751,-30.31619,-8.33205,-0.00144,-8.54459,-1.10293,6e-05,32.35973,26.71784,15.41253,4.47664,-1.42188,-14.97904,13.44301,41.14451,20.20399,11.53602,-22.6314,13.88865,93.72033,0.03247,-93.18882,42.86293,-0.00223,97.74734,-13.78653,4.68619,0.0169,-10.9213,-3.75149,-0.00292,22.54278,3.09595,42.53399,6.7014,-11.24198,41.3927,-5.02869,8.01734,7.07083
232,-1.94205,-0.0,0.0,-1.74011,0.0,-0.0,-1.3091,-4.02658,15.60664,8.30534,9.31903,-14.66857,-30.47791,-8.04539,-0.00029,-8.31959,-1.08304,0.00018,32.38562,26.48876,16.26167,3.67189,-1.52472,-15.36996,13.6357,41.47198,19.06463,12.90685,-21.50802,15.31386,89.31221,0.12433,-91.48251,43.54301,0.00628,97.82422,-13.61258,5.16848,0.00635,-11.29706,-4.11718,-0.00191,22.61501,2.89344,41.83137,6.59174,-11.24411,40.64812,-5.02282,7.9655,7.37646
233,-1.62863,0.0,0.0,-1.65095,-0.0,0.0,-1.11801,-3.7657,17.27738,8.52204,9.19832,-14.96309,-30.53434,-7.84532,0.00034,-8.0823,-1.04159,7e-05,32.51346,26.34172,16.83199,2.90823,-1.53233,-15.85912,14.04727,41.69634,17.81772,14.26313,-20.25212,16.54407,84.5945,0.16251,-89.63624,44.38795,0.01203,97.55889,-13.60102,4.84941,0.00321,-11.92948,-4.26469,-0.00019,22.69009,2.57232,40.92533,6.43254,-11.30097,39.67066,-4.92258,7.98792,7.66755
234,-1.26951,-0.0,-0.0,-1.31635,0.0,-0.0,-0.92078,-3.2716,18.87684,8.72189,9.23639,-15.17712,-30.55949,-7.74833,0.00033,-7.90462,-1.00663,-9e-05,32.83386,26.31675,17.0588,2.29421,-1.42553,-16.47876,14.39766,41.84714,16.77955,15.59658,-18.94221,17.59883,79.55123,0.04208,-89.17857,45.34761,0.0012,97.45914,-13.42873,4.27453,0.0013,-12.49548,-4.27897,0.00316,22.68004,2.18429,39.96962,6.17692,-11.40395,38.62463,-4.65084,8.12597,7.96931
235,-0.90912,0.0,0.0,-0.99732,0.0,-0.0,-0.70896,-2.74653,20.35579,8.9123,9.32422,-15.43953,-30.58401,-7.70382,0.00014,-7.79521,-0.95781,-0.0001,33.24841,26.42671,17.13177,1.80733,-1.24326,-17.04842,14.33151,41.98273,15.96953,16.88406,-17.67584,18.64401,74.43214,-0.14506,-91.58659,46.49013,-0.0209,98.09464,-13.40296,3.49554,-0.00289,-12.58292,-3.93314,0.01005,22.60788,1.81821,39.22555,5.91291,-11.54235,37.79076,-4.25475,8.38404,8.3011
236,-0.43125,0.0,-0.0,-0.83562,0.0,-0.0,-0.6169,-2.37515,21.69362,9.0496,9.36052,-15.78697,-30.56049,-7.65044,3e-05,-7.68721,-0.88536,2e-05,33.59666,26.59974,17.28898,1.35323,-1.06106,-17.458,13.63631,42.10067,15.31484,18.12347,-16.48136,19.79625,69.58137,-0.19194,-96.43896,47.85862,-0.02768,99.19912,-13.70506,2.41429,-0.01076,-11.96765,-3.32442,0.01324,22.56194,1.55208,38.96961,5.79324,-11.72356,37.4624,-3.84293,8.70787,8.61295
237,0.21532,0.0,-0.0,-0.89285,0.0,0.0,-0.79327,-2.16281,23.03386,9.1595,9.39939,-16.12917,-30.42074,-7.58097,-2e-05,-7.52637,-0.8213,0.00012,33.81554,26.69448,17.53537,0.86014,-0.93159,-17.77133,12.40455,42.14841,14.96692,19.32659,-15.27678,21.00408,65.03617,-0.08548,-101.59229,49.33757,-0.0062,99.7974,-13.59441,1.88087,0.01079,-10.81425,-3.18067,0.00292,22.57944,1.42891,39.19799,5.85499,-11.90728,37.6495,-3.4685,8.98786,8.84512
238,0.80089,0.0,-0.0,-1.20311,-0.0,0.0,-1.214,-2.00342,24.47126,9.34882,9.44846,-16.42767,-30.17501,-7.51946,-9e-05,-7.31377,-0.79449,0.00011,33.9628,26.61422,17.74864,0.31462,-0.85266,-18.07989,11.00473,42.09818,15.14698,20.47576,-13.9502,22.07986,60.4541,0.02451,-105.34129,50.81171,0.01971,99.30315,-12.20113,3.30591,0.10459,-9.59515,-3.85331,-0.00237,22.61068,1.43044,39.49903,5.95484,-11.99225,37.94461,-3.09842,9.10151,9.03941
239,1.06306,-0.0,0.0,-1.62696,0.0,-0.0,-1.72869,-1.87255,25.82518,9.64989,9.3833,-16.78606,-29.95664,-7.46764,-0.00017,-7.01926,-0.80411,-6e-05,34.12051,26.41039,17.92067,-0.33956,-0.74207,-18.39363,9.82989,41.94125,15.69022,21.5578,-12.49059,22.90367,55.70876,0.05139,-107.61805,52.30429,0.02406,98.18685,-9.76306,6.51756,0.15729,-8.9723,-4.59159,-0.00061,22.57471,1.49083,39.41817,5.90408,-11.91122,37.88316,-2.71734,9.01994,9.27932
240,1.00616,0.0,-0.0,-1.83666,0.0,0.0,-2.22686,-1.90807,26.75686,9.94604,9.17014,-17.3589,-29.98065,-7.44011,0.00011,-6.57689,-0.8359,-0.0003,34.30711,26.27057,18.1349,-1.24973,-0.47157,-18.63133,8.95149,41.62495,16.0101,22.63738,-11.01868,23.65139,51.4171,0.02625,-109.16181,53.84504,0.00928,97.38007,-7.56785,9.00013,0.07878,-9.69877,-4.38829,-0.03223,22.40385,1.5648,38.85584,5.61026,-11.67855,37.35496,-2.39778,8.86413,9.55953
241,0.81712,0.0,-0.0,-1.5687,-0.0,-0.0,-2.71689,-2.26214,27.0268,10.08375,8.95624,-18.08409,-30.40222,-7.46565,0.00115,-6.03441,-0.87078,-0.00033,34.49863,26.35396,18.50762,-2.43661,-0.03062,-18.75599,8.01617,41.05707,15.79223,23.81126,-9.66781,24.59525,48.44253,0.00864,-110.28984,55.36107,-0.00483,97.33912,-6.6938,8.5079,0.01649,-11.92996,-3.17521,-0.07582,22.09905,1.65077,38.00602,5.12111,-11.34954,36.55089,-2.16788,8.77245,9.83697
242,0.63178,-0.0,0.0,-0.86495,-0.0,0.0,-3.26995,-2.88588,26.6416,10.01831,8.86567,-18.64151,-31.16859,-7.52429,0.00192,-5.56847,-0.8815,-9e-05,34.69583,26.6262,19.13779,-3.64699,0.40845,-18.8849,6.59463,40.17616,15.54573,25.07474,-8.4794,25.61476,46.91559,0.00478,-110.82053,56.78952,-0.01086,97.94347,-7.03409,5.51145,0.02067,-14.41324,-1.88099,-0.0621,21.7896,1.72428,37.09354,4.61673,-11.01144,35.68415,-1.8999,8.75574,10.15267
243,0.43598,0.0,0.0,-0.03277,-0.0,0.0,-3.83218,-3.49784,25.82317,9.84199,8.85926,-18.81861,-32.06317,-7.52733,0.00089,-5.30716,-0.84399,0.00013,34.937,26.87516,19.97863,-4.59331,0.66681,-19.1885,4.61936,38.99784,16.03178,26.27369,-7.46888,26.28031,46.15807,0.00946,-110.57681,58.23383,-0.0148,98.89879,-7.74574,2.11838,0.01502,-15.31884,-1.24855,-0.02113,21.6107,1.72053,36.23434,4.25407,-10.76013,34.84786,-1.42588,8.73718,10.57911
244,0.14921,0.0,0.0,0.60618,-0.0,0.0,-4.11578,-3.80246,24.87249,9.70915,8.86726,-18.75899,-32.9138,-7.36524,-0.00151,-5.24278,-0.74633,0.00035,35.24984,26.86961,20.81448,-5.26421,0.71159,-19.73152,2.41337,37.61605,17.29439,27.2359,-6.70819,26.4994,45.51305,0.02371,-109.30634,59.88915,-0.01444,99.85381,-8.20476,-0.17462,-0.00342,-14.28672,-0.88367,0.00645,21.49575,1.63203,35.38039,3.95565,-10.58862,33.99222,-0.69915,8.65429,11.09264
245,-0.17548,0.0,0.0,0.9287,-0.0,0.0,-3.83039,-3.71899,24.09328,9.73663,8.95349,-18.80062,-33.69246,-7.03243,-0.00271,-5.31169,-0.57396,0.00067,35.58338,26.50477,21.35984,-5.9063,0.5983,-20.39941,0.35987,36.15371,18.65946,27.9488,-6.25943,26.66541,44.93869,0.02128,-106.68057,61.73935,-0.00283,100.37772,-8.27716,-1.05915,-0.01115,-12.7632,-0.10966,0.01304,21.24781,1.53835,34.35144,3.49272,-10.36606,32.96657,0.18196,8.4729,11.60676
246,-0.28976,0.0,0.0,1.08951,0.0,-0.0,-3.00795,-3.36256,23.73965,9.93425,9.23513,-19.20189,-34.43601,-6.69442,-0.00117,-5.48864,-0.30207,0.00087,35.82601,25.8356,21.38284,-6.73743,0.36166,-20.91994,-1.40733,34.68776,19.48958,28.51938,-6.09968,27.07013,44.84563,-0.01952,-102.89371,63.48362,0.00996,100.20934,-8.15432,-0.97714,-0.01058,-12.14886,0.76339,0.00167,20.80634,1.49922,32.96196,2.77511,-9.97652,31.61144,1.07849,8.1729,12.11074
247,0.02536,-0.0,0.0,1.42164,0.0,0.0,-1.95763,-2.85521,23.82292,10.21527,9.67925,-19.98322,-35.17221,-6.50552,0.00091,-5.82806,0.07107,0.00053,35.95158,25.0085,20.88371,-7.71962,0.03292,-21.05762,-3.04595,33.26524,19.58636,28.96119,-6.15712,27.50579,45.56104,-0.05292,-99.10992,64.87695,0.01131,99.51545,-8.14869,-0.78629,-0.00702,-12.58321,1.04062,-0.0009,20.30633,1.48513,31.12437,1.92829,-9.41596,29.83667,1.95086,7.78773,12.68342
248,0.68637,-0.0,0.0,2.1288,0.0,0.0,-0.91369,-2.25466,24.00663,10.46273,10.10352,-20.90387,-35.90362,-6.41981,0.00092,-6.45428,0.49427,-0.00021,36.05091,24.16646,20.14338,-8.63179,-0.30199,-20.86988,-4.78525,31.98296,19.03461,29.17904,-6.37256,27.57333,47.01585,-0.02223,-96.98919,65.94018,0.00599,98.69283,-8.52037,-1.31626,0.00607,-13.52158,0.86057,0.00137,19.91361,1.43684,28.90031,1.13938,-8.75338,27.68682,2.8558,7.41534,13.35866
249,1.35285,-0.0,0.0,3.08808,0.0,0.0,0.14764,-1.64647,23.9126,10.54744,10.41354,-21.59188,-36.57373,-6.31283,-0.00021,-7.4861,0.89999,-0.00054,36.16013,23.37497,19.43653,-9.31641,-0.56174,-20.69646,-6.67592,30.97438,18.03872,29.18662,-6.72177,27.16195,48.84836,0.04072,-97.39864,66.74667,0.0013,98.01508,-9.37173,-2.70961,0.02302,-14.45817,0.92621,0.00073,19.67889,1.36027,26.48151,0.50436,-8.03945,25.35021,3.80978,7.12156,14.03905
250,1.78786,0.0,0.0,4.08787,0.0,-0.0,1.33164,-1.16556,23.47776,10.28215,10.76667,-21.75421,-37.07327,-6.16438,-0.0005,-8.94172,1.25949,2e-05,36.21115,22.61074,18.75393,-9.76246,-0.7496,-20.84128,-8.55408,30.27276,16.97049,29.16026,-7.24592,26.50689,50.64663,0.06258,-99.63364,67.24043,-0.001,97.45352,-10.46039,-4.20377,0.02117,-15.05576,1.5886,0.00319,19.49168,1.33922,24.05617,-0.04814,-7.25553,23.03506,4.77601,6.87921,14.57659
251,2.03285,0.0,0.0,5.15188,-0.0,-0.0,2.63032,-0.90333,22.88241,9.41339,11.40733,-21.29173,-37.33863,-6.01146,-8e-05,-10.75314,1.59031,0.00087,36.12378,21.83996,17.93614,-10.03594,-0.92238,-21.29088,-10.24275,29.72046,16.31054,29.23655,-8.02278,25.90537,52.18687,0.03249,-101.95303,67.34528,-0.00241,96.67037,-11.06293,-4.84432,0.00806,-15.30427,2.60044,0.00547,19.13626,1.4436,21.70632,-0.72059,-6.36533,20.8431,5.72142,6.65251,14.92118
252,2.22188,-0.0,-0.0,6.53859,0.0,-0.0,3.94715,-0.84446,22.26494,7.66356,12.36862,-20.21194,-37.41627,-5.86429,0.00015,-12.89097,1.9253,0.00165,35.85434,21.11577,16.94942,-10.18855,-1.134,-21.78638,-11.73847,29.10379,16.31228,29.39551,-9.02836,25.43063,53.57954,-0.00824,-102.92624,67.03761,-0.00186,95.5899,-10.47094,-4.56792,0.00451,-15.42122,3.42576,0.0027,18.4474,1.63878,19.42963,-1.68427,-5.40366,18.76018,6.6183,6.48701,15.16753
253,2.40309,0.0,-0.0,8.47083,-0.0,-0.0,5.16048,-0.8625,21.6645,4.79807,13.45941,-18.49283,-37.39883,-5.74536,2e-05,-15.39684,2.28373,0.00269,35.43143,20.54107,15.87472,-10.18925,-1.43375,-22.11236,-13.13786,28.36609,16.78296,29.52961,-10.13233,24.90056,55.02086,-0.03102,-102.31548,66.26942,0.00416,94.78851,-8.80267,-4.15795,-0.00171,-15.31747,3.68553,-0.00359,17.45497,1.79695,17.17385,-2.92243,-4.47461,16.69193,7.48648,6.47041,15.44762
254,2.48413,0.0,-0.0,10.59339,-0.0,-0.0,6.16171,-0.7746,21.11097,0.77703,14.45884,-16.068,-37.33355,-5.65869,-7e-05,-18.27383,2.68954,0.00312,34.89149,20.09299,14.80034,-10.03667,-1.90074,-22.20867,-14.44679,27.59939,17.33965,29.48919,-11.29701,24.15022,56.42583,-0.02838,-100.75995,65.01973,0.00469,94.59522,-6.89123,-4.06002,-0.00675,-14.67396,3.43446,-0.01015,16.35903,1.77932,14.85769,-4.2457,-3.68062,14.51171,8.35997,6.61648,15.79337
255,2.30966,0.0,0.0,11.61978,0.0,0.0,6.91622,-0.48705,20.548,-4.11921,15.11181,-12.85286,-37.23417,-5.48571,8e-05,-21.44128,3.18768,0.00217,34.19843,19.5817,13.86262,-9.86047,-2.63173,-22.06826,-15.55261,26.88253,17.76776,29.12372,-12.62234,23.25465,57.58218,-0.01283,-99.07204,63.41849,-0.00751,94.53573,-5.39112,-4.13213,-0.00414,-13.61181,3.17313,-0.00805,15.34313,1.54203,12.42036,-5.47102,-3.0409,12.14486,9.17726,6.82127,16.12015
256,1.97107,0.0,0.0,10.18414,-0.0,0.0,7.45618,-0.12092,19.82824,-9.43261,15.04714,-8.83998,-37.15589,-5.14436,9e-05,-24.82611,3.80253,-0.00032,33.35526,18.88744,13.09972,-9.74446,-3.62299,-21.63443,-16.35919,26.26202,17.97923,28.42918,-14.13432,22.42337,58.56273,-0.00135,-97.84315,61.61743,-0.00499,94.35592,-4.514,-4.50596,0.00079,-12.71204,3.51848,-0.00225,14.44132,1.20499,9.86725,-6.55405,-2.44489,9.63739,9.82903,6.9645,16.30809
257,1.94887,0.0,0.0,6.05834,0.0,0.0,7.82484,0.10431,19.01081,-14.82289,13.97476,-4.26507,-37.18533,-4.88067,0.00039,-28.47412,4.52226,-0.00638,32.49052,18.17131,12.16986,-9.55853,-4.69947,-20.79291,-16.87454,25.83306,17.83728,27.5946,-15.68967,21.74134,59.70302,0.01124,-97.34623,59.55133,0.02602,94.53119,-4.36325,-5.60251,0.01209,-12.29183,4.5433,-0.00294,13.60361,0.9593,7.28157,-7.5321,-1.74478,7.13499,10.29016,7.04546,16.28927
258,2.60588,0.0,-0.0,-0.16953,0.0,-0.0,8.10516,0.12534,18.34966,-20.16987,11.91186,0.48668,-37.34119,-5.04784,0.00155,-32.58915,5.30076,-0.01297,31.71388,17.72462,10.68375,-9.07794,-5.66477,-19.55596,-17.14958,25.67496,17.30097,26.79688,-17.15452,21.01235,61.2591,0.03304,-97.59621,56.97245,0.04048,95.16981,-4.76678,-7.27168,0.0176,-12.02997,5.46997,-0.00654,12.82603,0.87337,4.76146,-8.40524,-0.91423,4.7538,10.61838,7.16583,16.11201
259,3.63585,0.0,-0.0,-7.88456,0.0,0.0,8.46563,0.02009,17.86421,-25.4268,9.12281,5.12053,-37.53859,-5.58676,0.00166,-37.43237,6.0116,-0.00832,30.9614,17.6495,8.81419,-8.21134,-6.49342,-18.21875,-17.21047,25.7327,16.61608,26.01377,-18.54612,19.8772,63.24497,0.04153,-98.19782,53.71457,-0.00293,95.49249,-4.9709,-8.62889,0.00934,-11.54436,5.2821,-0.01201,12.16295,0.86223,2.29918,-9.1246,-0.0318,2.45525,10.8325,7.39589,15.92125
260,4.41742,-0.0,0.0,-16.07349,-0.0,-0.0,9.0262,-0.17968,17.31111,-30.42491,5.99363,9.38471,-37.67161,-6.09788,0.00038,-43.10596,6.49558,0.00739,30.0928,17.8087,7.07068,-7.02008,-7.29364,-17.0907,-17.0813,25.87678,16.08353,25.08605,-19.93419,18.1273,65.50747,0.00932,-98.21291,49.89665,-0.06224,94.95341,-4.24131,-8.86617,0.01479,-11.03209,3.68097,-0.00667,11.64774,0.84168,-0.19712,-9.66015,0.85578,0.12219,10.89651,7.73372,15.81564
261,4.76861,0.0,0.0,-23.13316,-0.0,0.0,9.67949,-0.43325,16.50526,-34.84483,2.96016,12.91713,-37.70356,-6.31933,-0.00044,-49.41543,6.74153,0.00948,29.13499,18.00386,5.66191,-5.57365,-8.12949,-16.1679,-16.78408,26.06403,15.66075,23.87095,-21.31785,15.81633,67.84934,-0.03844,-96.84423,45.92056,-0.0711,94.02245,-2.70898,-8.02267,0.0262,-10.88273,1.43405,0.00867,11.2432,0.81992,-2.73489,-10.04739,1.75735,-2.25048,10.85239,8.1474,15.71608
262,4.98336,0.0,0.0,-27.85781,0.0,0.0,10.1869,-0.56811,15.4124,-38.39653,0.40218,15.23917,-37.6713,-6.27698,-0.00047,-55.98317,6.91991,-0.01483,28.27565,18.12479,4.46047,-3.91649,-8.95964,-15.26554,-16.28182,26.37255,14.99546,22.29733,-22.6544,13.09419,70.09538,-0.04981,-94.38416,42.2264,-0.0255,93.64194,-1.12267,-6.8792,0.01609,-11.01207,-0.19834,0.01192,10.86213,0.85346,-5.21911,-10.37531,2.68958,-4.55488,10.8228,8.59035,15.42513
263,5.33169,-0.0,-0.0,-30.41688,-0.0,-0.0,10.44556,-0.41814,14.10525,-41.02743,-1.35789,15.82755,-37.62895,-6.15372,-0.00038,-62.51604,7.11841,-0.03107,27.58441,18.24021,3.33601,-2.11418,-9.70896,-14.32558,-15.4778,26.87628,13.84231,20.37578,-23.90577,10.10631,72.11317,-0.02385,-91.93034,38.95174,0.03706,94.51265,0.03712,-6.10564,-0.00041,-11.07448,-0.53564,0.00683,10.42578,0.96308,-7.56086,-10.73029,3.63848,-6.70154,10.82911,9.04071,14.83222
264,5.7876,0.0,-0.0,-31.89554,0.0,-0.0,10.56212,-0.02716,12.65421,-43.0003,-1.98989,14.38047,-37.60636,-6.09948,-0.00035,-68.92294,7.10791,0.00124,26.89485,18.54347,2.37986,-0.2308,-10.38753,-13.47388,-14.29823,27.55417,12.2244,18.21587,-25.03889,7.07895,73.84055,0.00086,-90.26385,35.89016,0.06909,96.602,0.74018,-5.64802,-0.00727,-10.97518,0.02409,0.00313,9.90614,1.08801,-9.67544,-11.15036,4.51644,-8.63383,10.72665,9.52583,14.01074
265,6.11241,0.0,-0.0,-32.99276,0.0,0.0,10.69576,0.35385,11.01601,-44.72644,-1.35724,11.24177,-37.595,-6.0754,-0.00012,-75.18643,6.59286,0.05355,26.02215,19.0898,1.87393,1.74399,-11.20957,-12.7912,-12.76508,28.35621,10.19923,15.95914,-26.05592,4.33791,75.30965,0.00885,-89.52353,32.8372,0.0398,98.95218,0.8444,-5.11213,-0.01128,-10.72924,0.66219,0.00053,9.31439,1.15934,-11.4601,-11.63738,5.22263,-10.27996,10.40688,10.01521,13.0945
266,6.14518,-0.0,0.0,-33.80024,0.0,-0.0,10.88202,0.43824,9.19659,-46.38792,0.01188,7.49402,-37.53968,-5.94365,0.00065,-81.25481,5.73889,0.04701,25.01184,19.63717,1.93566,3.94952,-12.53699,-12.02917,-11.00209,29.2521,7.81044,13.65919,-26.9934,2.05335,76.64342,0.01376,-89.67497,29.81677,-0.0107,100.55542,-0.0071,-4.60365,-0.00806,-10.14528,0.95449,-0.00283,8.6852,1.21124,-12.85408,-12.17192,5.76842,-11.56931,9.999,10.33173,12.12271
267,6.04542,0.0,-0.0,-34.36961,0.0,-0.0,10.99701,0.12592,7.39831,-47.70689,0.83895,4.38334,-37.36488,-5.68901,0.00147,-87.12281,5.14757,-0.03274,24.06815,19.86627,2.31423,6.57839,-14.60067,-10.71366,-9.179,30.16628,5.30631,11.29397,-27.84866,0.02701,77.98325,0.02318,-90.69859,26.91147,-0.01888,101.43493,-1.68333,-4.70683,0.01159,-9.20595,0.94017,-0.00627,8.10398,1.33172,-13.86893,-12.6804,6.24167,-12.47982,9.73054,10.27985,11.03609
268,6.10634,0.0,-0.0,-34.96822,-0.0,0.0,10.92964,-0.3496,5.83192,-48.07004,0.06088,2.4996,-37.03674,-5.48895,0.00068,-92.86507,5.04952,-0.09051,23.24015,19.74632,2.65885,9.70431,-17.27316,-8.7393,-7.39506,31.01092,3.00475,8.90524,-28.56289,-2.08463,79.37369,0.02093,-92.19043,24.08379,0.0007,102.14867,-3.39318,-5.5471,0.02085,-8.42907,0.87813,-0.0066,7.68678,1.5347,-14.54981,-13.05074,6.67274,-13.04795,9.59782,9.86842,9.77209
269,6.33016,0.0,0.0,-36.25325,0.0,0.0,10.7846,-0.6095,4.5029,-47.06701,-2.0251,1.58296,-36.59704,-5.54099,-0.0015,-98.43906,4.73134,-0.04055,22.29578,19.62495,2.87077,13.21597,-20.11946,-6.71129,-5.58976,31.83363,0.90223,6.6264,-29.09638,-4.50818,80.76162,-0.00238,-93.30283,21.27033,-0.00167,102.65885,-4.42396,-6.49142,0.00772,-8.1307,0.97695,-0.00595,7.46815,1.78484,-14.90801,-13.25014,7.03342,-13.29606,9.31055,9.36766,8.34009
270,6.45787,0.0,-0.0,-39.18843,0.0,-0.0,10.78244,-0.58208,3.26331,-45.133,-4.01367,0.9695,-36.15607,-5.79822,-0.0022,-103.52322,3.2285,0.05497,20.99124,19.90252,3.16734,16.95128,-22.68774,-5.31134,-3.62637,32.80194,-1.27879,4.50749,-29.46661,-7.41944,82.12525,-0.02767,-93.53968,18.5537,-0.01573,102.65894,-4.53601,-7.03173,-0.00707,-7.7545,1.13166,-0.00663,7.33897,2.10128,-14.90087,-13.39402,7.32686,-13.17646,8.60395,9.0974,6.83262
271,6.39393,0.0,-0.0,-44.61012,0.0,0.0,10.94946,-0.60409,2.03245,-43.24811,-4.72537,-0.00336,-35.85948,-6.00279,-0.00091,-107.70235,0.50183,0.07625,19.43302,20.64653,3.77928,20.91804,-24.76387,-4.42834,-1.47418,34.01912,-3.73951,2.39897,-29.72426,-10.82181,83.50078,-0.02883,-93.37482,16.14533,-0.01223,102.38184,-3.75552,-7.30276,-0.01366,-6.67736,1.14067,-0.00734,7.13806,2.52085,-14.55548,-13.64275,7.59689,-12.70103,7.56011,9.16455,5.34802
272,6.29509,0.0,-0.0,-52.78717,0.0,0.0,11.08502,-0.99481,0.93139,-41.80933,-3.98376,-1.67381,-35.77436,-6.04276,0.0003,-110.80392,-2.58,0.02567,17.97021,21.62787,4.58533,25.24333,-26.37772,-3.36198,0.72138,35.44812,-6.48277,0.1135,-29.95125,-14.25333,84.86213,0.00102,-94.01447,14.18257,-0.0035,102.15491,-2.31388,-7.4143,-0.00619,-5.24259,1.11817,-0.00295,6.80226,2.99357,-14.06526,-14.03991,7.86479,-12.06964,6.50314,9.46335,3.88616
273,6.34306,-0.0,-0.0,-62.56055,0.0,-0.0,11.01891,-1.72264,0.14418,-40.40554,-2.32976,-3.85584,-35.76109,-6.09257,0.00072,-112.98419,-5.32203,-0.01422,16.64316,22.64822,5.22432,29.85369,-27.65027,-1.79339,2.76725,36.99678,-9.39763,-2.36546,-30.24275,-17.16333,86.09831,0.0312,-96.31134,12.5891,0.00375,102.07533,-0.7551,-6.91088,0.01185,-4.36774,1.3054,-0.0007,6.41886,3.41656,-13.62194,-14.47766,8.10236,-11.49984,5.52954,9.86599,2.37376
274,6.6294,0.0,0.0,-70.78563,-0.0,0.0,10.70976,-2.55542,-0.36216,-38.87052,-0.4197,-6.05244,-35.56938,-6.318,0.00013,-114.52539,-7.79414,-0.01219,15.07505,23.69663,5.55082,34.44263,-28.68392,-0.20796,4.68145,38.59021,-12.42273,-4.94371,-30.61756,-19.47421,87.10697,0.02738,-99.5106,11.23456,0.0143,102.40505,0.23213,-5.31922,0.00929,-4.46332,1.84893,-0.00979,6.14136,3.7317,-13.23047,-14.79938,8.25722,-11.01745,4.36249,10.34567,0.76703
275,7.01034,0.0,-0.0,-74.2216,0.0,0.0,10.18742,-3.32958,-0.81237,-37.82925,1.24325,-7.85919,-35.10275,-6.6824,-0.00092,-115.54453,-10.31928,-0.0014,13.04865,24.89182,5.63335,38.77348,-29.5529,0.66217,6.78692,40.16585,-15.67826,-7.60347,-31.00361,-21.26012,87.8339,0.0034,-101.73753,10.19791,0.01537,103.09926,0.26532,-2.9464,-0.01642,-5.13069,3.20728,-0.01864,6.06789,3.93458,-12.8175,-14.91179,8.29928,-10.55529,2.7655,10.98986,-0.96486
276,7.06044,0.0,-0.0,-72.74923,0.0,0.0,9.57448,-3.96975,-1.31321,-37.85899,2.21598,-9.13795,-34.47698,-7.107,-0.00174,-115.86578,-12.79297,-0.01053,10.80907,26.38461,5.40947,42.81001,-30.28871,0.60863,9.39239,41.67359,-19.30374,-10.40396,-31.37045,-22.30265,88.29841,-0.00594,-102.13817,9.63137,0.00387,103.33348,-0.37904,-0.72984,-0.02489,-5.60022,5.94762,0.00402,6.18387,4.06067,-12.36884,-14.8319,8.25662,-10.08739,0.86924,11.9383,-2.88407
277,6.53834,0.0,0.0,-69.86189,-0.0,-0.0,9.01848,-4.41689,-1.78039,-38.61571,2.11569,-9.91636,-33.81881,-7.54262,-0.00207,-115.19658,-14.74549,-0.02109,8.67848,28.24813,4.84028,46.61347,-30.82935,0.09162,12.41326,43.12955,-23.1984,-13.35035,-31.79982,-22.42637,88.64484,-0.00018,-101.50007,9.33096,-0.00934,102.58709,-1.05345,0.64952,-0.01174,-5.35706,9.52224,0.04253,6.37127,4.19012,-11.83526,-14.6846,8.18641,-9.53855,-0.98619,13.25582,-4.96842
278,5.86984,0.0,0.0,-69.30975,0.0,-0.0,8.48588,-4.64601,-2.09667,-39.208,0.94175,-10.2003,-33.14692,-7.86553,-0.00125,-113.41563,-15.77398,-0.00194,6.65261,30.3462,4.26625,50.25151,-31.03917,-0.13375,15.50698,44.63609,-27.1825,-16.37483,-32.36391,-22.03397,89.09727,-0.00284,-100.48166,8.79849,-0.0097,101.68153,-1.6111,1.10911,0.00315,-4.60076,12.17693,0.03712,6.4586,4.39079,-11.08333,-14.65148,8.10392,-8.75887,-2.6184,14.81517,-6.99796
279,5.89434,0.0,0.0,-71.76422,0.0,0.0,7.76577,-4.68247,-2.20701,-39.25368,-0.72904,-9.89209,-32.47302,-7.90999,0.00046,-110.64886,-15.82526,0.03268,4.5157,32.32881,4.10857,53.76168,-30.87287,0.42163,18.585,46.23079,-31.3772,-19.45885,-32.96316,-22.16719,89.78074,-0.02038,-98.68797,7.85829,0.01721,101.97135,-2.5588,0.74287,0.02157,-3.93512,12.69991,0.00561,6.31699,4.64634,-10.08382,-14.8587,7.98285,-7.72721,-4.15895,16.33378,-8.69667
280,7.06374,0.0,0.0,-75.30676,0.0,-0.0,6.75021,-4.60627,-2.17505,-39.21618,-2.11916,-8.90639,-31.87878,-7.59443,0.00146,-107.1078,-15.32886,0.02858,2.21578,33.86178,4.28482,57.11796,-30.52827,1.47422,21.92961,47.69505,-36.05936,-22.68153,-33.34005,-23.63597,90.56531,-0.02626,-96.09452,6.82275,0.04819,103.73441,-3.96765,-0.33453,0.03199,-3.61909,11.54733,-0.00956,5.94849,4.89411,-9.02253,-15.28833,7.83127,-6.64127,-5.86045,17.58337,-10.012
281,8.89795,0.0,0.0,-78.32984,0.0,0.0,5.60256,-4.57954,-2.12533,-39.61454,-2.71034,-7.37203,-31.40623,-6.97287,0.00149,-102.93545,-14.91735,-0.03683,-0.12887,34.89746,4.34204,60.23431,-30.30525,2.19407,25.62377,48.69682,-41.03177,-26.02229,-33.32487,-25.54683,91.136,-0.0099,-93.89755,5.86855,0.05027,105.58337,-4.91418,-1.64725,0.01721,-3.57174,9.95834,-0.00909,5.4705,5.11866,-8.06716,-15.81498,7.69542,-5.66394,-7.8401,18.5641,-11.15461
282,10.27065,0.0,-0.0,-80.69007,0.0,-0.0,4.60418,-4.72138,-2.0069,-40.29963,-2.13331,-5.81476,-30.95947,-6.2656,0.00105,-98.21136,-14.79239,-0.11174,-2.51028,35.64814,4.06641,63.0872,-30.27291,2.11459,29.19163,49.21419,-45.58516,-29.21829,-33.08477,-25.51647,91.30882,0.00263,-93.09059,4.64889,-0.00561,105.44085,-4.62089,-2.48723,0.00707,-3.80532,8.6288,-0.00265,5.01588,5.3508,-7.10395,-16.31271,7.56313,-4.67722,-10.00865,19.42508,-12.30872
283,10.33791,0.0,-0.0,-82.15891,-0.0,-0.0,3.88565,-4.95239,-1.59597,-40.8959,-0.16985,-5.00676,-30.41333,-5.77103,-0.00047,-92.98642,-14.38749,-0.1008,-4.99982,36.32727,3.58386,65.75692,-30.25382,1.64799,32.19135,49.60732,-49.35618,-31.97829,-32.9626,-22.33151,91.24708,0.0035,-93.31917,2.77509,-0.10656,102.30742,-3.52699,-2.75412,0.01146,-4.32999,7.4509,0.00459,4.64251,5.60963,-5.88527,-16.73005,7.36253,-3.44268,-12.16734,20.24525,-13.4472
284,9.24588,0.0,0.0,-81.87244,0.0,0.0,3.30325,-5.16687,-0.81601,-41.34286,2.70255,-5.40143,-29.75239,-5.59867,-0.0021,-87.24221,-12.73179,0.03689,-7.52945,37.00064,3.03864,68.2181,-30.13253,1.67248,34.78638,50.19537,-52.71535,-34.26687,-33.06453,-17.73406,91.27,0.0012,-93.70673,0.45168,-0.14805,97.20255,-2.54983,-3.24292,0.00366,-4.99062,6.18232,0.00851,4.30004,5.90566,-4.37715,-17.11208,7.09081,-1.92552,-14.16647,20.97862,-14.50979
285,7.96511,0.0,-0.0,-79.9161,-0.0,0.0,2.56552,-5.42903,0.20633,-41.55543,5.5714,-6.91568,-29.03394,-5.59876,-0.00204,-80.89617,-9.45971,0.19681,-9.90298,37.60188,2.4344,70.28624,-29.96622,2.56862,37.42917,50.95631,-56.12313,-36.43157,-33.26077,-15.2747,91.45713,-0.002,-93.83742,-1.50748,-0.08974,92.82868,-1.7901,-4.58931,-0.02067,-5.64109,5.12539,0.00495,3.90109,6.22477,-2.77243,-17.5367,6.80494,-0.31165,-15.94843,21.55662,-15.5892
286,7.45177,0.0,0.0,-77.05834,0.0,-0.0,1.4967,-5.80392,1.34203,-41.48858,8.06304,-9.12458,-28.30775,-5.58531,-0.00074,-73.88371,-5.52196,0.21073,-12.00338,38.02865,1.69026,71.8456,-29.85769,3.61449,40.2661,51.6228,-59.56257,-39.01288,-33.4004,-17.68036,91.53983,-0.00411,-93.63221,-2.28353,-0.05713,92.05207,-0.63573,-6.15947,-0.03024,-6.22275,4.92872,-0.00319,3.47412,6.4741,-1.211,-17.96967,6.46972,1.2343,-17.5257,21.97904,-16.83866
287,7.91179,0.0,-0.0,-72.80367,-0.0,0.0,0.16695,-6.16679,2.43354,-42.02307,10.05421,-11.04943,-27.62655,-5.46046,0.00073,-66.27267,-2.51174,0.04787,-13.94569,38.27476,0.8335,72.90707,-29.85249,3.45973,43.00592,51.93998,-62.71282,-42.21103,-33.28932,-24.3102,91.21736,-0.00161,-93.03818,-1.78597,-0.07913,94.99618,1.20112,-6.55803,0.00961,-6.69485,5.67116,-0.00657,3.19043,6.57082,0.33207,-18.23783,5.99943,2.70538,-19.02532,22.34025,-18.26991
288,8.8247,-0.0,0.0,-66.29824,0.0,0.0,-1.20642,-6.29557,3.22111,-44.8189,10.48647,-11.18039,-27.06207,-5.18948,0.00149,-58.33763,-1.24555,-0.1335,-15.93811,38.45578,0.18725,73.55984,-29.8541,1.24591,45.22335,51.86185,-65.31717,-45.61808,-32.89288,-31.20395,90.47365,0.00571,-91.99325,-0.81149,-0.04794,98.42202,3.40075,-5.27228,0.05393,-6.99853,6.6215,-0.00325,3.1533,6.59757,1.88934,-18.24189,5.45954,4.16264,-20.58535,22.73231,-19.67764
289,9.57085,-0.0,0.0,-57.62455,-0.0,-0.0,-2.43068,-6.09857,3.60931,-50.62397,7.44185,-9.00287,-26.66216,-4.86649,0.0008,-50.4429,-1.20373,-0.16852,-17.94378,38.65471,0.12177,74.09539,-29.59408,-2.73184,46.70278,51.58715,-67.27668,-48.79325,-32.51056,-35.11266,89.53385,0.01225,-90.46301,-0.2526,-0.00024,99.744,5.62764,-3.36827,0.04277,-7.03696,7.14122,-3e-05,3.22316,6.74256,3.38655,-18.13037,5.05255,5.60634,-22.08704,23.06537,-20.78969
290,9.88848,-0.0,0.0,-45.77285,0.0,0.0,-3.43424,-5.75389,3.83915,-57.92357,0.18926,-6.73564,-26.39691,-4.70489,-0.00042,-42.90372,-1.21422,-0.06063,-19.64298,38.79078,0.59677,75.03078,-28.82362,-7.31216,47.56409,51.4105,-68.6776,-51.75332,-32.32561,-36.48914,88.64698,0.01047,-88.66479,-0.21358,0.00973,99.51697,7.80344,-2.3611,-0.0067,-6.78374,7.30925,0.00077,3.1502,7.08789,4.74011,-18.1601,4.8854,6.98881,-23.17246,23.05071,-21.53518
291,9.92695,-0.0,-0.0,-29.53237,0.0,-0.0,-4.27613,-5.58087,4.05279,-63.22541,-8.56795,-8.01173,-26.1689,-4.76735,-0.00077,-36.13622,-0.43344,0.05518,-20.82359,38.71729,1.3245,76.76192,-27.57538,-11.19063,48.14709,51.47671,-69.88535,-54.75058,-32.14316,-38.0319,87.9979,0.00196,-87.18879,-0.11762,0.0001,99.32207,9.84048,-2.72021,-0.03717,-6.37919,7.50262,0.00141,2.83969,7.56126,5.92429,-18.42803,4.90001,8.25967,-23.63925,22.46368,-22.08985
292,10.07324,-0.0,-0.0,-12.69877,-0.0,-0.0,-5.05069,-5.74446,3.96645,-61.52805,-14.45678,-13.90186,-25.90067,-4.86611,-3e-05,-31.02003,1.04601,0.06306,-21.63563,38.44035,2.21323,79.23123,-26.15951,-13.37327,48.82742,51.65841,-71.48002,-57.82417,-31.6606,-41.35019,87.71524,-0.00227,-86.65384,0.42013,-0.00838,99.67951,11.51273,-3.75986,-0.02663,-5.93439,7.78961,0.00106,2.41728,8.11154,6.84917,-18.81632,5.08078,9.31707,-23.69777,21.39501,-22.63089
293,10.60485,0.0,-0.0,-1.79804,0.0,0.0,-5.76378,-6.11458,3.33476,-48.36481,-15.25485,-20.33076,-25.61206,-4.8853,0.00055,-28.92511,2.10363,0.03407,-22.33408,38.17911,3.2522,82.11747,-24.85772,-13.39219,49.84885,51.75256,-73.85561,-60.63273,-30.83068,-45.30429,87.83432,-0.00045,-87.0453,1.10914,-0.0,100.24271,12.54192,-4.74133,-0.00286,-5.41771,7.88981,-0.00202,2.06107,8.82178,7.38981,-19.16323,5.5492,10.07597,-23.72721,20.16401,-23.16003
294,11.33429,0.0,-0.0,1.82301,0.0,-0.0,-6.31836,-6.39858,2.37404,-28.04816,-8.96312,-21.58466,-25.39572,-4.96674,0.00039,-30.74708,1.5364,0.12503,-22.90049,38.17171,4.25537,85.21075,-23.71654,-11.5406,51.17889,51.79345,-76.78706,-62.83416,-29.91747,-47.87847,88.23821,-0.0034,-87.36784,1.50251,0.0228,100.76749,12.79823,-5.57902,0.00705,-4.88932,7.62644,-0.00536,1.83284,9.732,7.67781,-19.4067,6.2947,10.67373,-23.84063,19.04393,-23.61159
295,11.57732,-0.0,0.0,1.64994,-0.0,-0.0,-6.61033,-6.43836,1.423,-14.66337,3.88909,-18.32961,-25.31544,-5.2295,0.00036,-35.66557,-0.41858,0.20727,-23.06599,38.5007,4.98154,88.3242,-22.75389,-8.71223,52.52608,51.98681,-79.52763,-64.45736,-29.17575,-48.97038,88.64288,-0.00629,-86.58447,1.59744,0.03844,101.56,12.66082,-6.29676,0.00335,-4.55549,7.23883,-0.00574,1.64002,10.61903,8.10524,-19.60696,6.96903,11.39205,-23.81621,18.19832,-24.074
296,10.78959,0.0,0.0,1.08184,-0.0,0.0,-6.66839,-6.37702,0.54862,-13.76029,14.0389,-13.6969,-25.33826,-5.536,0.0004,-41.58945,-1.97886,0.09398,-22.69866,39.12915,5.32392,91.07619,-22.17895,-5.62527,53.50652,52.32942,-81.35795,-65.86642,-28.63265,-50.82247,88.67922,-0.00057,-85.00822,1.74039,0.00122,103.35879,13.00701,-6.39729,0.01241,-4.42853,7.09807,-0.00327,1.29996,11.12822,8.88086,-19.91161,7.16785,12.29328,-23.43619,17.7898,-24.78199
297,9.19131,0.0,0.0,1.19101,0.0,0.0,-6.64974,-6.46178,-0.27971,-18.15028,15.76475,-10.92346,-25.37813,-5.67512,0.00023,-46.91832,-1.66106,-0.07534,-22.03441,39.96293,5.33159,93.06247,-22.18315,-2.50211,53.86954,52.54177,-82.03674,-67.43622,-28.1165,-56.42352,88.12506,-0.00321,-83.94582,2.29518,-0.12715,106.97404,14.48504,-5.4442,0.04472,-4.22707,7.24754,0.00575,0.73005,11.12843,9.7847,-20.40873,6.84769,13.12654,-22.75903,17.91619,-25.82246
298,7.61813,-0.0,0.0,0.77981,0.0,0.0,-6.68566,-6.76444,-0.90102,-21.04568,13.23887,-11.77665,-25.3889,-5.63306,0.00011,-51.16125,0.39367,-0.12272,-21.45428,40.79622,5.12786,94.15337,-22.6479,0.37353,53.71429,52.40893,-81.89318,-69.14511,-27.47499,-65.69213,87.14081,-0.01334,-84.06309,3.22117,-0.26636,111.55361,16.87152,-3.94921,0.04825,-3.96847,7.33507,0.02353,0.13047,10.81999,10.44921,-20.93927,6.32504,13.62739,-22.02933,18.42348,-26.92386
299,7.05944,0.0,0.0,-2.85599,-0.0,-0.0,-6.86429,-7.15875,-1.09266,-22.20014,12.07869,-14.62717,-25.36598,-5.55307,0.0001,-54.25211,3.00535,-0.06117,-21.14918,41.31149,4.85862,94.55615,-23.17899,2.43396,53.38464,52.00142,-81.50672,-70.70756,-26.97069,-72.89979,86.22543,-0.00786,-84.85007,3.75554,-0.31804,113.11893,19.26746,-3.02684,0.00768,-4.17856,6.95659,0.04212,-0.14055,10.51939,10.72222,-21.17505,5.94814,13.77061,-21.42968,18.92879,-27.64036
300,7.99057,0.0,0.0,-11.16413,0.0,0.0,-7.25422,-7.42253,-0.88718,-23.69659,13.7801,-17.5556,-25.28521,-5.49274,0.00016,-56.19651,5.02949,0.00981,-21.06507,41.28074,4.70055,94.62777,-23.38956,3.27656,53.11543,51.53699,-81.27155,-72.0351,-27.03468,-73.06349,85.8754,0.00779,-85.54615,3.21161,-0.29051,109.08335,20.80576,-3.29872,-0.01787,-4.77854,6.23499,0.03966,0.10917,10.44088,10.70755,-20.92368,5.88003,13.72874,-20.98827,19.09187,-27.75611
301,9.69962,0.0,0.0,-20.72589,0.0,-0.0,-7.73199,-7.37211,-0.46196,-26.28365,16.39238,-19.33569,-25.11911,-5.40306,0.00011,-57.19514,5.9079,0.03372,-21.01912,40.74734,4.70686,94.64021,-23.13243,2.98365,52.97144,51.16679,-81.32573,-73.0043,-27.57269,-68.72974,86.24557,0.01105,-85.75814,1.98509,-0.13523,102.98315,21.22394,-4.604,-0.00842,-4.70425,5.85333,0.02259,0.79651,10.611,10.58082,-20.2537,6.08354,13.67324,-20.64313,18.85375,-27.41808
302,10.74725,-0.0,0.0,-26.19679,0.0,0.0,-7.96354,-7.0609,0.17233,-29.07842,17.21443,-19.7298,-24.87684,-5.29427,-0.0003,-57.50663,5.81918,0.02221,-20.84011,39.9631,4.69711,94.65387,-22.47267,1.98879,53.04313,50.97943,-81.75143,-73.49276,-28.0947,-65.77431,87.12442,-0.00583,-85.10535,1.09239,0.01373,100.01341,20.84698,-6.55207,0.0034,-3.42572,6.21911,0.0191,1.67706,10.8712,10.43814,-19.39568,6.37674,13.63571,-20.32679,18.42516,-26.89062
303,10.52488,0.0,0.0,-28.68075,0.0,-0.0,-7.82651,-6.78116,0.97034,-30.86211,15.54726,-19.71686,-24.56959,-5.18123,-0.00049,-57.20605,5.35512,0.0074,-20.55401,39.1932,4.61353,94.48365,-21.53596,0.66788,53.4415,51.10689,-82.62233,-73.52337,-28.31073,-67.44897,88.21132,-0.02077,-83.46758,1.26683,-0.02279,101.77002,20.14961,-8.75896,-0.00473,-1.6052,7.14324,0.02215,2.46667,11.02626,10.27342,-18.62655,6.57959,13.53998,-20.06631,18.06451,-26.3266
304,9.87951,0.0,-0.0,-35.07874,0.0,0.0,-7.66296,-6.79127,1.67941,-31.07297,13.15408,-20.51422,-24.19812,-4.96676,-7e-05,-56.25978,4.92078,0.00419,-20.34381,38.53568,4.65086,93.85802,-20.44209,-0.89629,54.1169,51.66488,-83.82603,-73.06104,-28.26529,-73.85966,89.28045,-0.00862,-81.89035,2.60605,-0.12819,106.72565,19.68131,-10.41392,-0.01404,-0.04775,8.30034,0.01893,2.96673,11.06371,10.0176,-18.14979,6.70494,13.31774,-19.98654,17.81687,-25.78538
305,9.66261,0.0,0.0,-46.21642,-0.0,0.0,-7.8219,-7.09953,2.20598,-30.38991,11.81474,-22.24082,-23.79843,-4.56151,0.00018,-54.75684,4.50413,0.00638,-20.23999,37.83474,4.814,92.76368,-19.30212,-2.76277,54.8598,52.59663,-84.96897,-72.13313,-28.30837,-81.73563,90.03378,0.00746,-81.87202,4.31486,-0.09675,111.02775,20.32192,-10.17317,0.04202,0.78618,9.2794,0.00712,3.19071,11.17652,9.59518,-17.96584,6.95962,12.96933,-20.10135,17.45251,-25.32108
306,9.47785,0.0,0.0,-53.41302,-0.0,0.0,-8.19365,-7.45001,2.6508,-30.31845,11.68226,-23.97641,-23.40684,-3.99074,0.00015,-52.93353,3.8556,0.00161,-20.04709,36.86133,4.91078,91.51135,-18.19296,-5.01204,55.49615,53.62756,-85.6604,-71.08155,-28.87947,-85.5919,90.12392,-0.00144,-83.4623,5.20009,-0.05945,110.10144,22.73197,-7.5179,0.12354,0.62489,9.58888,0.00091,3.36206,11.52484,9.03855,-17.85552,7.48164,12.58331,-20.20107,16.74548,-24.97508
307,8.69149,-0.0,0.0,-51.7902,0.0,-0.0,-8.50384,-7.48781,2.91067,-31.64746,12.32156,-24.99775,-22.97606,-3.35969,0.00065,-51.00326,2.72335,-0.01328,-19.59958,35.64326,4.96522,90.40044,-17.1423,-7.78988,55.96762,54.37172,-85.97878,-70.15485,-30.09779,-82.64985,89.59521,-0.00718,-85.03127,4.79244,-0.14549,102.58485,25.90224,-4.45882,0.06763,-0.37546,9.11141,0.00617,3.69715,12.01233,8.56529,-17.58204,8.1039,12.32579,-20.05126,15.77552,-24.77159
308,7.60441,0.0,-0.0,-45.21731,0.0,-0.0,-8.77401,-7.0489,2.74018,-33.89763,13.46213,-25.19498,-22.42747,-2.79426,0.00129,-49.09824,1.08257,-0.02567,-18.89502,34.47655,5.16912,89.49374,-16.15749,-11.15504,56.19336,54.56746,-86.40921,-69.14138,-31.73059,-75.47162,89.04087,-0.00522,-84.79496,3.70505,-0.14203,92.32466,26.96643,-4.44796,0.11988,-1.67854,8.12234,0.01123,4.16076,12.36215,8.46102,-17.14511,8.46685,12.3582,-19.58995,14.84479,-24.7588
309,6.83652,0.0,0.0,-39.1868,0.0,0.0,-9.22117,-6.34791,2.2473,-36.17241,14.4479,-24.58525,-21.76367,-2.3828,0.00106,-47.36646,-0.62673,-0.01779,-18.03079,33.56642,5.51328,88.6871,-15.27241,-14.71856,55.93249,54.28782,-87.08709,-67.83162,-33.39256,-69.2468,88.99374,-0.01968,-82.24818,2.97525,-0.03137,85.28886,23.72105,-8.79828,0.4912,-2.83945,6.96565,0.00998,4.53499,12.38383,8.83775,-16.74201,8.35343,12.71274,-18.90839,14.16236,-24.96454
310,6.50316,0.0,0.0,-36.43595,0.0,-0.0,-9.95917,-5.82426,1.99114,-37.64104,14.31064,-23.27884,-21.04649,-2.16602,-3e-05,-46.01752,-1.57089,0.00443,-17.15428,32.79284,5.68512,87.80962,-14.58102,-17.66288,54.90776,53.90078,-87.40175,-66.31998,-34.84743,-67.00018,89.32012,-0.02531,-78.90626,3.1454,-0.01592,84.30573,17.27644,-15.12613,0.57322,-3.59016,6.02277,0.00469,4.70736,12.11833,9.53251,-16.49866,7.85999,13.25478,-18.15622,13.69427,-25.32554
311,6.37627,0.0,-0.0,-36.92594,0.0,0.0,-10.93395,-5.78481,2.44312,-37.74714,12.92248,-21.62137,-20.32964,-2.15301,-0.00123,-45.27327,-1.20686,0.01219,-16.41287,31.89112,5.36995,86.72675,-14.15058,-19.41305,53.0837,53.7891,-86.62357,-64.74913,-36.15537,-67.52913,89.41418,-0.02581,-77.50748,4.03117,-0.06529,87.42532,11.25668,-19.60546,0.16245,-3.74394,5.45643,0.00158,4.76067,11.78544,10.30216,-16.36329,7.27769,13.84187,-17.49238,13.26018,-25.72814
312,6.2573,0.0,0.0,-38.81104,-0.0,-0.0,-12.00435,-6.21817,3.58447,-36.60403,11.43218,-20.15289,-19.69016,-2.31644,-0.00165,-45.27069,0.06112,0.00122,-15.81863,30.74267,4.53443,85.53503,-13.84007,-20.12455,50.70757,54.09126,-84.6199,-63.13543,-37.5154,-67.2346,88.8651,-0.04373,-79.15393,5.0047,-0.06317,90.1259,8.42229,-20.52235,-0.11281,-3.32631,4.92558,0.0001,4.81791,11.6058,11.07167,-16.2291,6.83899,14.48521,-17.00386,12.68811,-26.07152
313,6.15065,0.0,0.0,-40.22729,0.0,-0.0,-13.07363,-6.84305,5.0461,-34.84796,10.86212,-19.42006,-19.25411,-2.57933,-0.00105,-45.96384,1.22867,-0.003,-15.19228,29.42027,3.435,84.53638,-13.3265,-20.37414,48.08852,54.67295,-81.79617,-61.39339,-38.92456,-64.24636,87.80524,-0.03072,-81.90149,5.67891,-0.05279,89.93323,8.6117,-18.95432,-0.07901,-2.51359,4.19311,0.00192,4.90795,11.62209,11.89533,-16.06244,6.56494,15.24943,-16.60788,11.89962,-26.25582
314,6.26638,-0.0,0.0,-40.57914,0.0,0.0,-14.16078,-7.24779,6.33942,-32.95656,10.87503,-19.52111,-19.11734,-2.82275,-0.00054,-47.13316,1.70264,0.00445,-14.36832,28.09794,2.52254,83.8576,-12.38796,-20.59387,45.38966,55.23372,-78.62188,-59.48567,-40.10863,-60.31384,86.63728,0.01474,-83.36275,6.29158,-0.07067,88.81504,9.98431,-16.795,-0.00586,-1.50868,3.58598,0.01186,4.98751,11.6962,12.74553,-15.90199,6.33671,16.05875,-16.14346,10.96989,-26.16299
315,6.69061,0.0,0.0,-40.09606,-0.0,0.0,-15.25356,-7.13683,7.07023,-31.0312,10.70434,-20.08434,-19.30906,-2.96819,-0.00076,-48.51949,1.72821,0.00488,-13.32927,26.97398,2.1243,83.30032,-11.0617,-20.79545,42.66237,55.4113,-75.40125,-57.55989,-40.94029,-57.1865,85.46916,0.03211,-83.45431,7.12629,-0.07239,88.80727,11.00996,-14.92279,0.0043,-0.80849,3.17295,0.02423,5.02956,11.68709,13.44673,-15.78732,6.08376,16.70094,-15.54051,10.11473,-25.71211
316,6.99817,0.0,0.0,-38.72316,0.0,0.0,-16.07745,-6.51983,7.18332,-29.13987,10.37962,-20.80441,-19.89526,-3.05539,-0.0,-49.92608,1.8367,-0.00473,-12.05838,26.15856,2.08459,82.6396,-9.50671,-20.77058,40.0155,54.96516,-72.3315,-55.75413,-41.60583,-53.96307,84.02197,-0.00134,-83.74786,8.04862,-0.03419,88.57274,11.21578,-13.04302,-0.01223,-0.94884,2.42476,0.03429,5.03528,11.58829,13.80414,-15.74008,5.86711,16.99472,-14.81177,9.53043,-24.91945
317,6.46979,0.0,-0.0,-35.78661,-0.0,0.0,-16.15769,-5.58128,6.87445,-27.50824,10.26773,-21.51691,-21.02161,-3.17622,0.00296,-51.2157,2.10607,-0.0097,-10.46308,25.62296,1.9491,81.82179,-7.83724,-20.61749,37.57127,54.02177,-69.46565,-53.99997,-42.22497,-50.18184,82.18359,-0.04698,-85.31553,8.96048,-0.01166,87.16058,10.95983,-10.82254,-0.01824,-1.59059,1.30668,0.02964,4.99355,11.47896,13.80783,-15.77747,5.76361,16.95914,-13.99008,9.25433,-23.89186
318,4.9696,0.0,0.0,-31.20605,0.0,0.0,-15.2295,-4.47579,6.26599,-26.26851,10.26384,-21.91801,-22.74748,-3.33748,0.00506,-52.33326,2.13587,-0.00462,-8.47645,25.22944,1.45748,80.91376,-6.11324,-20.76332,35.28569,53.04729,-66.60189,-52.14453,-42.71391,-47.38393,80.37178,-0.04575,-87.81534,10.11022,-0.02336,86.01854,10.81991,-8.70949,-0.00682,-1.78118,0.58086,0.01546,4.90873,11.4125,13.72159,-15.86907,5.73145,16.85602,-13.12485,9.15495,-22.79712
319,3.30149,0.0,-0.0,-26.48019,-0.0,-0.0,-13.50957,-3.41611,5.37736,-25.26026,10.08539,-21.78387,-24.88589,-3.44123,0.00266,-53.36006,1.61469,0.0038,-6.12143,24.75784,0.66847,80.05582,-4.3964,-21.36965,33.02051,52.43483,-63.50964,-50.13232,-42.98847,-46.25383,79.12088,-0.005,-90.13423,11.71347,-0.01835,85.56599,11.03309,-7.49516,0.00178,-1.37454,0.6511,0.01016,4.86186,11.38495,13.8859,-15.89751,5.64857,16.99755,-12.2473,8.98821,-21.77884
320,2.3296,0.0,0.0,-23.15294,0.0,-0.0,-11.49002,-2.76145,4.33279,-24.31918,9.87583,-21.32101,-27.07254,-3.38906,-0.00252,-54.45254,0.63822,0.00929,-3.54618,24.03292,-0.2338,79.35473,-2.7816,-22.16277,30.75801,52.17455,-60.27773,-47.99892,-42.99968,-45.71822,78.50244,0.02593,-91.38498,13.6561,0.01305,84.51022,11.38497,-7.44641,0.00165,-1.25472,1.02743,0.00818,4.96019,11.35651,14.38857,-15.74386,5.44753,17.4505,-11.37185,8.53194,-20.84654
321,2.17457,0.0,0.0,-21.21045,0.0,0.0,-9.58953,-2.72335,3.42057,-23.49662,9.94959,-20.94078,-28.93213,-3.16199,-0.006,-55.70918,-0.43315,0.00774,-1.03962,23.07763,-1.09764,78.74474,-1.39391,-22.82183,28.58796,51.96061,-57.20243,-45.82289,-42.72363,-44.96758,78.08781,0.02749,-91.57291,15.68206,0.02217,82.52724,11.56849,-8.0728,0.0002,-1.96945,1.12302,0.00907,5.1966,11.30003,14.99739,-15.43797,5.18397,17.99142,-10.54965,7.73796,-19.92706
322,2.50165,-0.0,0.0,-19.94526,0.0,0.0,-8.04858,-3.09537,2.9849,-22.77903,10.12541,-20.80032,-30.15997,-2.81545,-0.006,-57.11988,-1.2378,2e-05,1.10983,22.04813,-1.9047,78.06432,-0.32897,-23.20073,26.53098,51.47689,-54.38999,-43.71005,-42.26778,-44.1471,77.29646,-0.00444,-91.7327,17.67154,0.01437,80.32119,11.37406,-8.4941,-0.00544,-2.98801,0.9251,0.00784,5.42,11.25636,15.44206,-15.16257,4.9896,18.38579,-9.82082,6.7435,-19.01515
323,3.03139,0.0,-0.0,-19.05407,0.0,-0.0,-6.99845,-3.49058,3.20737,-21.87585,9.92593,-20.76092,-30.56293,-2.39615,-0.00342,-58.61191,-1.67149,-0.00498,2.7691,21.06212,-2.71733,77.22346,0.45046,-23.32884,24.55604,50.56536,-51.72005,-41.71107,-41.85766,-43.46262,75.79486,-0.05445,-92.90688,19.57978,0.01656,78.04441,10.62572,-8.22949,-0.01504,-3.50473,0.63058,0.00203,5.4897,11.29345,15.6667,-15.06802,4.94693,18.60589,-9.17218,5.75246,-18.15369
324,3.5083,0.0,-0.0,-18.19913,0.0,-0.0,-6.46168,-3.72995,3.85161,-20.50298,9.29506,-20.67514,-30.11216,-1.85271,0.00229,-60.12323,-1.93,-0.00185,3.9377,20.15969,-3.45149,76.23,1.13906,-23.33092,22.70713,49.28706,-49.09625,-39.75702,-41.6463,-42.84219,73.78043,-0.05626,-94.6626,21.27387,0.0128,75.67069,9.38262,-7.78647,-0.01289,-3.29546,0.17332,-0.00501,5.40675,11.38725,15.77782,-15.14085,4.9965,18.74135,-8.60072,4.90446,-17.27815
325,3.57675,0.0,-0.0,-16.67794,-0.0,-0.0,-6.24471,-3.86563,4.32913,-18.75156,8.59211,-20.57458,-28.97469,-1.09724,0.00993,-61.62445,-2.17955,0.00299,4.68603,19.34935,-3.88664,75.14882,1.93376,-23.21662,21.01327,47.87447,-46.46572,-37.81245,-41.60663,-42.21231,71.84578,0.00175,-95.41666,22.73123,-0.00485,73.80591,8.12494,-7.88838,-0.00435,-2.62097,-0.46455,-0.0078,5.25044,11.41332,15.88351,-15.28554,4.98456,18.84793,-8.1017,4.22939,-16.23055
326,3.01912,0.0,-0.0,-14.08514,0.0,0.0,-5.92814,-4.00244,4.1361,-17.02997,8.17294,-20.65761,-27.52768,-0.1495,0.01233,-63.07802,-2.33878,0.00332,5.16543,18.63733,-3.94235,74.05286,2.84673,-22.85473,19.35407,46.55856,-43.6853,-35.96389,-41.6717,-41.50106,70.42385,0.03913,-94.71415,24.18652,-0.01723,72.97666,7.4441,-8.0815,-0.00212,-1.76997,-0.90536,-0.00203,5.05455,11.25284,16.0481,-15.45719,4.77768,18.94314,-7.60533,3.71765,-14.98205
327,2.04784,0.0,0.0,-10.80835,-0.0,0.0,-5.06976,-4.22441,3.21023,-15.65601,8.17619,-21.07014,-26.29762,0.84388,0.00544,-64.4353,-2.27045,0.00077,5.60218,18.0152,-3.79063,72.9702,3.69361,-22.1964,17.57986,45.39553,-40.57267,-34.18688,-41.89085,-40.54332,69.43217,0.02222,-94.10439,25.7634,-0.01127,72.91798,7.59784,-6.99423,0.01584,-0.88558,-0.80449,0.0054,4.81856,10.85044,16.27502,-15.65507,4.32278,19.0111,-7.03279,3.36546,-13.74152
328,1.19593,-0.0,-0.0,-7.85315,0.0,-0.0,-3.48721,-4.5826,1.96488,-14.53551,8.4313,-21.69394,-25.70284,1.64773,-0.00335,-65.69947,-1.93981,-0.00307,6.18324,17.43099,-3.77908,71.86787,4.24252,-21.28683,15.74705,44.22151,-37.11552,-32.29771,-42.31279,-39.29725,68.46075,-0.02237,-95.17767,27.28427,0.00686,73.06046,8.38179,-4.07323,0.04021,-0.02088,-0.36539,0.00517,4.61161,10.22577,16.45119,-15.82589,3.67697,18.95493,-6.40504,3.11193,-12.75619
329,0.85729,0.0,-0.0,-6.06743,0.0,0.0,-1.38604,-5.04695,0.96277,-13.28523,8.6609,-22.29037,-25.76062,2.02127,-0.00495,-66.93873,-1.37995,-0.00785,6.86614,16.81833,-4.14187,70.6312,4.41365,-20.11711,14.12974,42.8409,-33.61284,-30.33014,-42.81604,-37.95494,67.23225,-0.05134,-97.77565,28.72663,0.01645,73.16083,9.30946,-0.32061,0.0306,0.74365,-0.08242,-0.00041,4.56763,9.49729,16.40807,-15.86007,3.00916,18.66031,-5.88416,2.81961,-12.03677
330,1.00354,0.0,0.0,-5.33838,-0.0,-0.0,0.82609,-5.47899,0.42828,-11.64293,8.73792,-22.74186,-26.15089,1.9336,-0.00213,-68.21594,-0.74865,-0.00899,7.40405,16.13461,-4.57717,69.10766,4.35693,-18.71523,12.92272,41.34972,-30.537,-28.62266,-43.22676,-36.66756,65.88531,-0.03257,-100.33789,30.49678,-0.00613,73.40617,9.9016,2.61959,-0.00049,1.20326,-0.17516,-0.002,4.74151,8.8597,16.12107,-15.70843,2.51065,18.1716,-5.67497,2.34972,-11.38213
331,1.39027,0.0,-0.0,-4.87875,0.0,0.0,2.89374,-5.70755,0.25369,-9.58376,8.58227,-23.02587,-26.62563,1.58717,-0.00035,-69.53316,-0.38389,-0.00215,7.74484,15.34553,-4.4861,67.31963,4.28812,-17.31857,12.0011,40.10565,-28.14258,-27.35363,-43.50782,-35.39684,64.7957,0.00425,-101.45973,32.97616,-0.05585,74.15029,9.86085,3.67149,-0.00841,1.2127,-0.56077,0.00139,5.04181,8.48102,15.75647,-15.44343,2.28191,17.7011,-5.77092,1.63029,-10.661
332,1.83815,0.0,0.0,-4.02141,0.0,-0.0,4.85418,-5.62645,0.3945,-7.16747,8.05327,-23.16679,-27.24599,1.15507,0.0011,-70.83605,-0.56886,0.00738,8.22551,14.44548,-3.69696,65.53346,4.31215,-16.23917,11.0885,39.27295,-26.23572,-26.32896,-43.73503,-34.09887,64.15082,0.01744,-101.0317,36.04258,-0.06412,75.13931,9.14251,2.94896,0.00818,1.04883,-1.14805,0.00168,5.33561,8.38983,15.4561,-15.18127,2.30055,17.39061,-5.8915,0.70172,-9.90791
333,2.23435,0.0,-0.0,-2.44645,-0.0,0.0,6.82624,-5.25648,0.85921,-4.56164,7.09371,-23.33231,-28.1931,0.70042,0.00254,-72.05301,-1.20872,0.00977,9.1487,13.51076,-2.53688,63.93521,4.42092,-15.54212,10.06426,38.62116,-24.37778,-25.28131,-43.98131,-32.81303,63.80487,0.01148,-99.94936,39.21807,0.00613,75.18492,8.006,1.47636,0.01445,1.286,-1.82498,-0.00313,5.56385,8.45084,15.2098,-14.98054,2.44314,17.18365,-5.84189,-0.28098,-9.181
334,2.56396,0.0,-0.0,-0.43693,0.0,-0.0,8.73362,-4.77416,1.51772,-2.06416,5.89875,-23.79226,-29.49405,0.28783,0.00206,-73.14141,-1.90268,0.00457,10.4381,12.62708,-1.44759,62.42109,4.53637,-14.9969,8.98412,37.82591,-22.22727,-24.02876,-44.27409,-31.54373,63.50906,0.00124,-99.25861,42.12207,0.06876,73.55998,6.92132,0.14996,0.00393,2.13993,-2.34612,-0.00413,5.74181,8.46431,14.99682,-14.82554,2.52972,16.99095,-5.73959,-1.15081,-8.53194
335,2.98071,0.0,0.0,1.06741,0.0,-0.0,10.2859,-4.43165,2.1697,0.06903,4.84333,-24.64517,-31.00801,-0.02565,-9e-05,-74.07896,-2.34801,-0.00082,11.87669,11.80637,-0.74406,60.83459,4.56535,-14.35993,7.91698,36.76587,-19.74276,-22.41181,-44.60921,-30.18466,63.14486,-0.00808,-99.61154,44.66745,0.05145,71.24956,6.22747,-0.87843,-0.00407,3.17223,-2.46233,-0.00016,5.91186,8.3112,14.86381,-14.66722,2.43261,16.81379,-5.74944,-1.84129,-8.02141
336,3.56858,0.0,-0.0,1.44909,-0.0,0.0,11.24789,-4.36357,2.62138,1.74844,4.19304,-25.67566,-32.60765,-0.24278,-0.00158,-74.82523,-2.50629,-0.00253,13.40096,11.04977,-0.44311,59.17412,4.47248,-13.56612,6.95147,35.56791,-17.34587,-20.43515,-44.96299,-28.5946,62.71719,-0.0094,-100.75654,46.97325,-0.00063,69.74868,5.7517,-1.69695,-0.00428,3.7802,-2.13194,0.00041,6.10947,8.03856,14.76374,-14.4762,2.21219,16.62506,-5.84717,-2.38196,-7.60739
337,4.14573,0.0,0.0,1.11161,0.0,0.0,11.68476,-4.44152,2.77105,3.07355,3.99883,-26.58659,-34.26995,-0.41475,-0.0009,-75.38316,-2.41741,-0.00244,15.0535,10.39077,-0.34988,57.51802,4.26518,-12.63879,6.24889,34.48361,-15.6975,-18.38385,-45.30498,-26.74053,62.22122,0.00102,-101.58662,49.17211,-0.02318,69.38096,4.95084,-2.05349,-0.00931,3.76805,-1.69639,-0.00016,6.29893,7.80407,14.48304,-14.31255,2.09051,16.28207,-5.93519,-2.82767,-7.1621
338,4.48217,0.0,0.0,0.86284,0.0,-0.0,11.8815,-4.38088,2.72009,4.22699,4.19899,-27.28105,-35.96792,-0.5968,0.00079,-75.85725,-2.1255,-0.00232,16.80618,9.86021,-0.31626,55.91941,3.96705,-11.63945,5.87679,33.6054,-14.89198,-16.51913,-45.60203,-24.7372,61.60342,0.01306,-101.33891,51.26768,-0.01546,69.64062,3.68411,-1.60223,-0.02,3.33441,-1.64314,0.00352,6.34819,7.69167,13.87133,-14.32303,2.19899,15.6748,-6.00103,-3.19963,-6.64426
339,4.52549,0.0,-0.0,1.08852,0.0,0.0,12.08128,-4.02469,2.64946,5.21617,4.55309,-27.85264,-37.55933,-0.79672,0.00122,-76.2775,-1.79662,-0.00144,18.52313,9.51398,-0.25076,54.37674,3.70056,-10.77168,5.64516,32.71458,-14.1305,-14.75172,-45.80328,-22.70744,60.86194,0.00997,-100.62193,53.18673,-0.00529,70.2439,2.63581,-0.41051,-0.01186,2.67746,-1.95935,0.00481,6.13111,7.61444,13.07725,-14.61516,2.40506,14.91072,-6.07058,-3.45387,-6.09936
340,4.40063,0.0,0.0,1.60531,-0.0,-0.0,12.34223,-3.45471,2.64819,5.88398,4.59966,-28.41542,-38.83268,-1.00513,0.00062,-76.404,-1.62268,-0.00053,20.07689,9.43965,-0.08911,52.83248,3.68027,-10.26089,5.25002,31.53451,-12.5374,-12.7776,-45.86909,-20.58576,60.12808,-0.00434,-100.67937,54.89653,-0.00269,71.19856,2.63557,0.96973,0.00963,1.73775,-2.17058,-0.00124,5.62946,7.45502,12.42644,-15.17399,2.48485,14.25033,-6.08321,-3.52306,-5.53958
341,4.23635,-0.0,-0.0,1.96089,-0.0,-0.0,12.60494,-2.88987,2.74081,6.29974,3.98394,-28.9609,-39.62398,-1.23588,-0.00013,-75.92444,-1.59866,-0.00075,21.39003,9.61918,0.12594,51.18081,3.99914,-10.05838,4.57446,30.01983,-10.0599,-10.43711,-45.81553,-18.15521,59.60004,-0.00869,-101.82234,56.42254,-0.00402,72.44721,3.6589,1.86599,0.0112,0.42057,-2.07012,-0.00774,4.92931,7.2214,12.06104,-15.90283,2.39528,13.82817,-5.95202,-3.41555,-4.96475
342,3.93473,0.0,-0.0,1.95671,0.0,-0.0,12.84441,-2.54726,2.92664,6.80851,2.79012,-29.28475,-39.8872,-1.45596,-0.00109,-74.85318,-1.57447,-0.00028,22.38892,9.84519,0.32069,49.34184,4.49011,-9.86373,3.74765,28.33036,-7.36234,-7.86234,-45.69765,-15.34807,59.35824,-0.00282,-103.24641,57.8186,-0.00641,73.81276,4.7514,2.04009,0.00055,-0.94353,-1.91979,-0.00663,4.15953,6.97444,11.80556,-16.691,2.25469,13.50311,-5.70586,-3.25158,-4.42087
343,3.35618,0.0,-0.0,2.02026,-0.0,-0.0,13.05009,-2.49995,3.191,7.55675,1.53196,-29.14307,-39.69083,-1.592,-0.00182,-73.56622,-1.42365,0.00158,23.06726,9.85653,0.4709,47.39619,4.85896,-9.3947,2.95819,26.65899,-5.11827,-5.33485,-45.60087,-12.34724,59.27038,0.00102,-104.12873,59.14727,-0.00756,75.07732,4.95896,1.90241,-0.0036,-1.69926,-1.92882,-0.00277,3.41294,6.6946,11.40153,-17.46747,2.13608,13.02823,-5.42265,-3.19515,-3.93982
344,2.66646,0.0,-0.0,2.59199,0.0,0.0,13.09025,-2.67027,3.52893,8.33365,0.88128,-28.55302,-39.15188,-1.61553,-0.00174,-72.4273,-1.1185,0.00225,23.50462,9.54311,0.57551,45.5092,4.92192,-8.59264,2.27774,25.14936,-3.6153,-3.027,-45.63646,-9.31699,59.15425,0.00192,-104.19725,60.44037,-0.00306,75.94682,4.12471,1.98291,-0.00676,-1.61597,-1.82879,0.00045,2.67515,6.33981,10.74591,-18.2529,2.03706,12.29265,-5.13903,-3.33759,-3.48354
345,2.1697,0.0,0.0,3.19738,0.0,0.0,12.78831,-2.95137,3.91128,8.97804,1.18385,-27.78335,-38.36934,-1.50416,-0.00018,-71.49689,-0.78451,-0.00012,23.75506,9.00632,0.72259,43.70312,4.71828,-7.68552,1.63075,23.87164,-2.79106,-0.88494,-45.81708,-6.2439,58.96664,0.00244,-103.5412,61.67091,0.00551,76.12686,2.71605,2.32159,-0.0066,-1.17524,-1.22336,0.00133,1.83762,5.9579,9.90044,-19.14866,1.98108,11.37049,-4.88585,-3.62858,-2.98757
346,1.94711,0.0,-0.0,3.07586,-0.0,-0.0,12.13437,-3.20346,4.3228,9.5995,2.11456,-27.0825,-37.41545,-1.22303,0.00249,-70.60262,-0.58242,-0.0032,23.85362,8.42623,1.05901,41.87542,4.41474,-6.96732,0.91702,22.77325,-2.32377,1.19502,-45.95353,-3.13728,58.74507,0.00177,-102.58052,62.82675,0.00982,75.65749,1.24883,2.62016,-0.00118,-0.93929,-0.22425,-0.00313,0.82454,5.62787,9.04881,-20.21628,1.97683,10.46067,-4.65282,-3.93275,-2.42671
347,1.79153,0.0,-0.0,2.53415,0.0,-0.0,11.30832,-3.24206,4.8193,10.26113,2.93485,-26.52449,-36.36579,-0.80814,0.00409,-69.58739,-0.48278,-0.00304,23.898,7.90897,1.60529,39.99015,4.12197,-6.49872,0.16016,21.70971,-1.80896,3.10754,-45.84185,-0.18789,58.47296,-0.00082,-101.98892,64.00759,0.00785,74.96954,0.05154,2.74207,0.00214,-1.19542,0.64433,-0.0064,-0.29607,5.35529,8.42474,-21.37341,1.94568,9.78261,-4.35745,-4.14239,-1.8184
348,1.46362,0.0,-0.0,2.69177,0.0,-0.0,10.51635,-3.0169,5.4409,10.68314,3.14719,-26.03905,-35.30757,-0.39608,0.00261,-68.45473,-0.31133,0.00152,24.02342,7.49914,2.20222,38.14212,3.85285,-6.13304,-0.49471,20.6034,-1.11246,4.58334,-45.52584,2.37918,58.1114,-0.00339,-102.1139,65.35529,0.00405,74.48212,-0.77942,2.72734,0.00204,-2.2044,0.97387,-0.00066,-1.3655,5.11332,8.08441,-22.46055,1.84184,9.37912,-3.94327,-4.2171,-1.16664
349,0.99882,-0.0,-0.0,4.04158,0.0,-0.0,9.85617,-2.72648,6.15787,10.48752,2.88022,-25.59314,-34.29472,-0.16209,-0.0011,-67.28108,0.02413,0.00739,24.27985,7.25143,2.60128,36.42518,3.62316,-5.71532,-0.93906,19.51732,-0.44122,5.49778,-45.19404,4.45217,57.69517,-0.00243,-102.6579,66.87675,0.00163,74.34164,-1.3659,2.53798,0.00203,-3.7915,0.58738,0.00636,-2.28397,4.91182,7.78596,-23.39409,1.7609,9.02903,-3.48093,-4.16318,-0.44914
350,0.6055,0.0,0.0,5.72647,0.0,-0.0,9.27663,-2.62761,6.84822,9.69521,2.64251,-25.23369,-33.30133,-0.16115,-0.00299,-66.0252,0.39326,0.00798,24.54506,7.18953,2.69502,34.77267,3.47168,-5.24697,-1.22791,18.51849,0.04728,6.03095,-44.88636,6.02216,57.33819,0.0009,-103.07388,68.40721,-0.00128,74.58517,-1.82572,2.07605,0.00202,-4.90161,-0.4758,-0.00716,-3.065,4.75445,7.24206,-24.20342,1.80942,8.4665,-3.14163,-4.02493,0.31645
351,0.36011,0.0,-0.0,6.39122,0.0,0.0,8.60451,-2.75369,7.25759,8.7905,2.7961,-24.85412,-32.2458,-0.24221,-0.00077,-64.52439,0.47776,-0.00235,24.66741,7.24996,2.71635,33.06213,3.37416,-4.962,-1.55707,17.55772,0.5007,6.53843,-44.49619,7.22801,57.19113,0.00036,-102.95278,69.7591,-0.00652,75.35265,-2.10938,1.36199,-0.00014,-4.74374,-1.69618,-0.02306,-3.77352,4.60804,6.45163,-24.95056,1.95723,7.67853,-3.00263,-3.87632,1.0475
352,0.25181,-0.0,0.0,5.73074,0.0,-0.0,7.68316,-2.92738,7.23428,8.28393,3.34261,-24.25287,-31.05948,-0.26323,0.00188,-62.68953,0.08922,-0.0159,24.65096,7.3266,2.95133,31.31889,3.2242,-5.07802,-2.10178,16.55297,1.12564,7.29021,-43.9917,8.3551,57.35468,-0.0061,-102.09416,70.85906,-0.00851,76.67223,-2.21883,0.55694,-0.00189,-3.93693,-2.21899,-0.01545,-4.43568,4.46995,5.68564,-25.64633,2.10454,6.91619,-2.94943,-3.79022,1.6608
353,0.29422,-0.0,-0.0,4.61801,-0.0,0.0,6.55776,-3.02167,6.9661,8.36418,4.05385,-23.52478,-29.73125,-0.2841,0.001,-60.60203,-0.52583,-0.0155,24.55002,7.35099,3.35292,29.61327,2.92121,-5.44937,-2.8319,15.50145,1.89137,8.29278,-43.45783,9.61146,57.75006,-0.00901,-100.71611,71.74548,-0.00353,78.15005,-2.41518,-0.18379,-0.00086,-3.62255,-1.6774,-0.01035,-4.98879,4.41066,5.15859,-26.22084,2.23947,6.40454,-2.88153,-3.80348,2.13193
354,0.38444,-0.0,-0.0,3.78001,0.0,-0.0,5.47471,-3.0473,6.7177,8.89279,4.62845,-23.03121,-28.31017,-0.40229,-0.00122,-58.39229,-0.91319,-0.00097,24.33658,7.33614,3.73422,27.90581,2.46729,-5.71456,-3.55567,14.44441,2.62794,9.33117,-42.94335,10.94525,58.17169,-0.00258,-99.53074,72.49751,0.00253,79.27843,-2.89747,-0.80941,-0.00097,-4.06001,-0.56842,-0.01171,-5.36587,4.50864,4.79909,-26.61362,2.46065,6.10571,-2.82642,-3.88914,2.50747
355,0.32519,0.0,-0.0,3.25372,-0.0,-0.0,4.66723,-3.02127,6.56488,9.5295,4.86333,-22.97123,-26.86685,-0.59173,-0.00183,-56.08653,-0.91,0.01072,23.99919,7.35046,4.04458,26.14916,1.9751,-5.72548,-4.17807,13.41729,3.23579,10.139,-42.38003,12.10573,58.55797,0.00344,-99.03827,73.19897,0.00286,79.97982,-3.5071,-1.39512,-0.00287,-4.70625,0.39631,-0.00606,-5.63972,4.76187,4.38367,-26.90742,2.84677,5.81131,-2.77956,-3.97224,2.89258
356,0.10379,0.0,-0.0,2.91746,0.0,-0.0,4.1692,-2.95315,6.50209,9.95356,4.81103,-23.27331,-25.44187,-0.79149,-0.00136,-53.62421,-0.72199,0.01065,23.59212,7.43215,4.25637,24.36415,1.5615,-5.60767,-4.79518,12.48438,3.67387,10.54647,-41.6647,12.82308,59.07772,2e-05,-98.91105,73.93617,-0.00059,80.51484,-4.13786,-2.09798,-0.00024,-5.10247,1.02648,0.00023,-5.99765,5.09902,3.80422,-27.29258,3.37046,5.39513,-2.67942,-4.01048,3.37741
357,-0.07091,0.0,0.0,2.69086,0.0,0.0,3.84383,-2.93144,6.45111,10.09156,4.66994,-23.79519,-24.04597,-0.96249,-5e-05,-51.02409,-0.59986,0.00467,23.16427,7.54975,4.34356,22.59557,1.2468,-5.53646,-5.49791,11.7064,3.94046,10.59422,-40.78534,13.02468,59.86994,-0.00942,-98.55666,74.73825,-0.00041,80.95025,-5.07064,-2.94358,0.00735,-5.13948,1.55221,0.00324,-6.55765,5.45357,3.12704,-27.88293,3.94582,4.89476,-2.54107,-4.03176,3.92526
358,-0.06807,-0.0,-0.0,2.44761,-0.0,0.0,3.56983,-3.07494,6.24393,10.07604,4.54608,-24.34725,-22.7039,-1.07234,0.00146,-48.46714,-0.63577,0.00048,22.78705,7.66392,4.40528,20.95734,0.97345,-5.62181,-6.21344,11.03859,4.16079,10.5518,-39.84784,12.978,60.81569,-0.01004,-98.07342,75.48955,0.00287,81.21514,-6.51103,-3.70442,0.00876,-4.84261,2.03872,0.0034,-7.25811,5.75903,2.48973,-28.61039,4.46114,4.41384,-2.40546,-4.07435,4.39318
359,0.00583,0.0,0.0,2.1612,0.0,0.0,3.33606,-3.42181,5.87309,10.0283,4.47664,-24.59667,-21.46676,-1.1506,0.00137,-46.15887,-0.84967,-0.00293,22.59335,7.78479,4.56197,19.64948,0.68911,-5.91969,-6.81205,10.38205,4.51354,10.72749,-38.97807,13.11841,61.63763,-0.00034,-98.24453,76.00024,0.00397,81.68822,-8.15382,-4.1096,0.00108,-4.36968,2.24075,0.00065,-7.91212,5.9103,2.02236,-29.2814,4.77137,4.03469,-2.21064,-4.14346,4.6971
360,-0.00973,0.0,0.0,1.88846,0.0,-0.0,3.16792,-3.91561,5.52227,9.96697,4.58185,-24.22536,-20.38492,-1.28114,-7e-05,-44.1342,-1.27868,-0.00822,22.65406,7.96552,4.8247,18.75295,0.40294,-6.43906,-7.28615,9.74744,5.00438,11.1943,-38.22741,13.65159,62.15987,0.0042,-99.49252,76.2144,0.00381,82.9867,-9.45428,-4.03544,-0.00461,-4.01844,2.00744,-0.00076,-8.3453,5.82334,1.78965,-29.71773,4.77475,3.78656,-1.88181,-4.21081,4.89596
361,-0.13903,0.0,0.0,1.60723,-0.0,0.0,3.05787,-4.44075,5.28065,9.86191,4.9635,-23.31619,-19.4741,-1.49867,-0.00098,-42.26341,-1.83876,-0.01028,22.86193,8.24515,5.13455,18.07277,0.15416,-7.06671,-7.75051,9.24575,5.43963,11.7129,-37.58791,14.38477,62.42111,0.00102,-101.14211,76.2848,0.00157,85.04739,-10.11968,-3.44673,-0.0024,-4.01191,1.57307,0.00029,-8.55,5.53869,1.74643,-29.915,4.52534,3.64233,-1.48642,-4.23022,5.09287
362,-0.29266,-0.0,-0.0,1.3082,0.0,0.0,2.96801,-4.85054,5.10322,9.70322,5.49199,-22.43943,-18.68749,-1.75042,-0.00065,-40.44085,-2.24397,-0.00445,23.0202,8.56801,5.4196,17.31311,-0.08736,-7.5659,-8.28895,8.91396,5.65178,11.95974,-37.04696,14.9684,62.58099,-0.00171,-102.19072,76.39581,-0.00116,86.97527,-10.26797,-2.42024,0.00213,-4.38756,1.29384,0.00023,-8.72446,5.2238,1.75871,-30.08041,4.22762,3.53872,-1.18013,-4.19314,5.31362
363,-0.36831,-0.0,-0.0,1.09435,-0.0,-0.0,2.8545,-5.03101,4.99247,9.51961,5.86698,-22.19032,-17.92266,-1.95432,0.00023,-38.67316,-2.25039,0.00376,23.01122,8.8067,5.62505,16.33979,-0.4158,-7.78868,-8.83404,8.66444,5.6241,11.81888,-36.59154,15.19157,62.75584,-0.00142,-102.55249,76.55952,-0.00073,87.82179,-10.24282,-1.31008,0.0026,-5.06537,1.23588,-0.00052,-9.06059,5.05472,1.65487,-30.41434,4.10782,3.3804,-1.05536,-4.13888,5.52591
364,-0.28584,0.0,0.0,1.03258,0.0,-0.0,2.69505,-4.95254,5.01337,9.34263,5.89858,-22.69742,-17.07804,-2.08099,0.00058,-36.98304,-1.88154,0.00721,22.86014,8.90146,5.73712,15.2245,-0.86104,-7.818,-9.20552,8.42299,5.37195,11.40592,-36.20844,15.03404,62.92471,-0.00026,-102.89543,76.65736,-0.0007,87.28191,-10.35677,-0.61838,0.00182,-5.86845,1.23882,-0.00035,-9.5076,5.10259,1.27286,-30.87042,4.29097,3.04255,-1.08919,-4.09056,5.73956
365,0.02648,0.0,-0.0,1.03408,-0.0,0.0,2.49557,-4.69816,5.18081,9.17392,5.64306,-23.6115,-16.13069,-2.16928,5e-05,-35.33144,-1.33178,0.00655,22.67097,8.91045,5.77923,14.10097,-1.35438,-7.84915,-9.28971,8.22681,4.85832,10.87158,-35.89185,14.61547,62.99639,-0.00056,-103.53078,76.63789,-0.00183,85.84853,-10.74298,-0.54498,0.00324,-6.60612,1.21311,0.0001,-9.85197,5.32824,0.5531,-31.23389,4.76232,2.45547,-1.19704,-4.03853,6.00927
366,0.56203,0.0,0.0,0.98504,0.0,-0.0,2.2695,-4.50706,5.43489,8.97086,5.26492,-24.42123,-15.17282,-2.25547,-0.00051,-33.66217,-0.77144,0.00494,22.53048,8.91551,5.7958,13.03633,-1.8264,-8.04418,-9.18785,8.15316,4.09647,10.27233,-35.61556,14.1417,62.96258,-0.00092,-104.01509,76.57703,-0.00086,84.45335,-11.2727,-0.73954,0.00315,-7.21965,1.12563,0.00085,-9.98843,5.64824,-0.3642,-31.3929,5.39334,1.71912,-1.30721,-3.97419,6.33752
367,1.10803,0.0,0.0,0.8899,0.0,0.0,2.03141,-4.62827,5.65325,8.64966,4.8701,-24.72009,-14.3389,-2.32378,-0.00042,-31.97291,-0.32395,0.00157,22.48271,8.95463,5.87667,12.05203,-2.25303,-8.52705,-9.13364,8.20688,3.25384,9.61506,-35.32638,13.78673,62.92108,-0.00073,-103.8144,76.54665,0.00033,83.68357,-11.55872,-0.67864,0.00209,-7.66738,0.88492,0.00104,-10.02081,5.9894,-1.20093,-31.44515,6.01487,1.0655,-1.37082,-3.89885,6.65086
368,1.34206,0.0,0.0,0.77729,0.0,0.0,1.80751,-5.02588,5.67473,8.16061,4.53925,-24.39631,-13.6754,-2.33769,-7e-05,-30.31632,-0.10814,-0.00387,22.536,9.03526,6.15258,11.18397,-2.61898,-9.34205,-9.25439,8.30945,2.5843,8.96897,-34.99369,13.61906,62.95723,-0.00051,-103.14573,76.48911,-0.00141,83.28092,-11.20249,-0.34324,0.00109,-7.80399,0.46272,-0.00063,-10.12224,6.30088,-1.75531,-31.56213,6.50622,0.66384,-1.3507,-3.82854,6.88527
369,1.1453,0.0,-0.0,0.61148,0.0,0.0,1.62398,-5.43554,5.5082,7.5582,4.40902,-23.79882,-13.11245,-2.28454,0.00016,-28.74695,-0.12481,-0.00604,22.64138,9.12933,6.63963,10.4434,-2.92745,-10.2524,-9.4715,8.38825,2.21513,8.47132,-34.64444,13.64555,63.06297,0.00046,-102.76525,76.25932,-0.00508,82.72586,-10.18453,-0.17013,-0.00444,-7.6186,-0.00595,-0.00161,-10.34614,6.53605,-2.02304,-31.79707,6.82239,0.50109,-1.26276,-3.80163,7.0452
370,0.68758,0.0,-0.0,0.42067,0.0,0.0,1.47433,-5.68909,5.43747,6.94365,4.56891,-23.55153,-12.56687,-2.17199,0.00034,-27.28651,-0.18241,-0.00198,22.72417,9.16066,7.16842,9.77935,-3.23326,-10.79403,-9.63339,8.45792,2.01441,8.17766,-34.33904,13.82864,63.15657,0.00084,-102.9371,75.79514,-0.00403,82.22088,-8.96045,-0.26772,-0.00707,-7.35793,-0.30385,-0.00031,-10.58684,6.64496,-2.10028,-32.04282,6.95182,0.46928,-1.17912,-3.84424,7.16544
