PaulMeinheit/Bachelor_Muay_Thai/processed_Data/N2/teep/sliced/JointAngles/sliced1.csv
Unnamed: 0_level_0,L_MTP_ANGLE,L_MTP_ANGLE,L_MTP_ANGLE,R_MTP_ANGLE,R_MTP_ANGLE,R_MTP_ANGLE,L_ANKLE_ANGLE,L_ANKLE_ANGLE,L_ANKLE_ANGLE,R_ANKLE_ANGLE,R_ANKLE_ANGLE,R_ANKLE_ANGLE,L_KNEE_ANGLE,L_KNEE_ANGLE,L_KNEE_ANGLE,R_KNEE_ANGLE,R_KNEE_ANGLE,R_KNEE_ANGLE,L_HIP_ANGLE,L_HIP_ANGLE,L_HIP_ANGLE,R_HIP_ANGLE,R_HIP_ANGLE,R_HIP_ANGLE,L_SHOULDER_ANGLE,L_SHOULDER_ANGLE,L_SHOULDER_ANGLE,R_SHOULDER_ANGLE,R_SHOULDER_ANGLE,R_SHOULDER_ANGLE,L_ELBOW_ANGLE,L_ELBOW_ANGLE,L_ELBOW_ANGLE,R_ELBOW_ANGLE,R_ELBOW_ANGLE,R_ELBOW_ANGLE,L_WRIST_ANGLE,L_WRIST_ANGLE,L_WRIST_ANGLE,R_WRIST_ANGLE,R_WRIST_ANGLE,R_WRIST_ANGLE,NECK_ANGLE,NECK_ANGLE,NECK_ANGLE,NECK_ANGLE_SHADOW,NECK_ANGLE_SHADOW,NECK_ANGLE_SHADOW,Trunk_Joint_Angle,Trunk_Joint_Angle,Trunk_Joint_Angle
ITEM,X,Y,Z,X,Y,Z,X,Y,Z,X,Y,Z,X,Y,Z,X,Y,Z,X,Y,Z,X,Y,Z,X,Y,Z,X,Y,Z,X,Y,Z,X,Y,Z,X,Y,Z,X,Y,Z,X,Y,Z,X,Y,Z,X,Y,Z
392,0.55679,0.0,0.0,-1.70862,0.0,-0.0,1.58804,-7.41597,14.59698,3.89359,10.00453,-21.88647,-10.29591,-2.22166,2e-05,-7.47198,-0.78723,0.00031,25.53193,10.8091,11.60907,4.84885,-8.32659,-15.23786,-8.62453,15.18418,-1.33994,1.48357,-30.57456,18.72309,63.73516,0.00014,-105.74032,53.78093,-0.00191,98.20013,-5.04855,-5.76217,0.00033,-4.76901,3.73424,-0.00538,-11.21158,5.37739,1.86359,-32.56931,4.33264,3.69233,-0.88011,-7.34725,7.3199
393,-0.07381,0.0,0.0,-2.04726,0.0,-0.0,1.4383,-6.92141,14.24422,2.60973,10.66324,-20.5527,-10.52714,-2.24162,0.0001,-6.63941,-0.83766,0.0003,25.79556,10.741,11.73645,4.88212,-8.54881,-15.91081,-8.72776,15.28889,-1.02007,0.86881,-30.48566,18.54922,63.77448,0.00356,-107.47416,53.03794,-0.00272,98.6116,-4.85323,-6.1387,-0.00123,-5.27122,3.80894,0.0002,-11.08547,5.23061,2.12073,-32.43307,4.10271,3.87786,-0.73335,-7.55787,7.05833
394,-0.38889,0.0,0.0,-2.38845,0.0,0.0,1.37221,-6.364,14.25527,1.26614,11.26483,-19.06974,-10.7437,-2.27732,0.00018,-5.85866,-0.86215,0.0003,25.98515,10.6822,11.85295,4.86442,-8.75834,-16.50738,-8.88078,15.42357,-0.80483,0.29504,-30.37631,18.49446,63.93329,0.00268,-108.52007,52.07401,0.00106,98.78135,-4.41353,-6.28053,0.0009,-5.7408,3.44205,0.00222,-11.10649,5.15593,2.26599,-32.44854,3.98049,3.98569,-0.59257,-7.78818,6.8669
395,-0.55389,0.0,0.0,-2.94386,0.0,-0.0,1.42404,-6.13253,14.73482,0.43772,11.82837,-18.38816,-10.97464,-2.30642,0.00012,-5.17401,-0.87941,0.00015,26.12171,10.70054,11.89045,4.8451,-8.86777,-16.5763,-8.94148,15.63106,-0.77181,-0.2835,-30.2809,18.40184,64.09073,-1e-05,-108.44859,50.99144,0.00516,98.96085,-3.83614,-6.07481,0.00276,-5.83977,2.78101,-0.00089,-11.14266,5.1013,2.38353,-32.48033,3.88701,4.07506,-0.46695,-7.978,6.80359
396,-0.76431,0.0,-0.0,-3.58599,0.0,0.0,1.51217,-6.32977,15.36746,0.33159,12.18509,-18.70972,-11.21333,-2.28163,-0.0001,-4.61047,-0.90522,5e-05,26.26929,10.81216,11.90254,4.88198,-8.82795,-16.20669,-8.86827,15.86152,-0.74263,-0.90589,-30.23391,18.2513,64.18237,-0.00068,-107.94814,49.99853,0.0018,98.98236,-3.28878,-5.79096,0.0015,-5.6673,2.21168,-0.00237,-11.07094,5.00125,2.64054,-32.39938,3.70067,4.27758,-0.34629,-8.05721,6.76739
397,-1.00041,-0.0,0.0,-3.88888,-0.0,0.0,1.50986,-6.73862,15.79642,0.70023,12.11926,-19.43249,-11.40822,-2.18278,-0.0002,-4.14651,-0.94144,6e-05,26.43921,10.97363,12.01866,4.97289,-8.6734,-15.80463,-8.76597,16.04385,-0.45791,-1.56076,-30.23002,18.13798,64.22595,-0.0005,-108.11501,49.24407,-0.00438,98.52766,-2.94115,-5.66996,0.00063,-5.55087,1.98822,-0.00132,-10.86726,4.83015,3.13168,-32.17792,3.36338,4.67197,-0.2224,-8.03153,6.62692
398,-1.15327,0.0,-0.0,-3.72964,0.0,-0.0,1.38107,-7.08008,15.99103,1.26019,11.7358,-19.87448,-11.52012,-2.05382,-8e-05,-3.78364,-1.01354,6e-05,26.58901,11.13835,12.29073,5.10988,-8.48729,-15.63365,-8.73211,16.20717,0.1049,-2.22297,-30.22985,18.10392,64.25618,-0.00028,-109.23669,48.7052,-0.00538,97.80849,-2.81028,-5.73042,0.00269,-5.56288,2.09859,-0.00015,-10.60518,4.62329,3.76934,-31.89176,2.93981,5.18971,-0.08209,-7.99546,6.39364
399,-1.21614,0.0,0.0,-3.46294,0.0,0.0,1.21928,-7.22673,16.14764,1.931,11.39019,-19.83093,-11.55913,-1.96645,0.0,-3.56412,-1.17238,0.00017,26.67505,11.31516,12.64474,5.29968,-8.30088,-15.70066,-8.76788,16.45484,0.74072,-2.87447,-30.20153,18.10387,64.35186,0.00033,-110.63007,48.23729,-0.00095,97.48486,-2.67918,-5.9863,0.00536,-5.5167,2.35037,0.00091,-10.38431,4.42397,4.40976,-31.64531,2.52245,5.7129,0.06924,-8.01674,6.17456
400,-1.25721,-0.0,0.0,-3.41222,0.0,0.0,1.14364,-7.20312,16.37015,2.64228,11.23405,-19.54665,-11.57258,-1.95565,-2e-05,-3.4768,-1.41419,0.00036,26.67372,11.55976,12.95184,5.49178,-8.06173,-15.84755,-8.8479,16.8061,1.30628,-3.4965,-30.15499,18.08959,64.65146,-0.00082,-111.54099,47.70098,0.00519,97.92471,-2.23905,-6.52151,0.00387,-5.40753,2.54706,0.00121,-10.22719,4.19142,5.02523,-31.46157,2.08328,6.20102,0.1733,-8.03169,6.01021
401,-1.29458,0.0,0.0,-3.5419,0.0,0.0,1.19128,-7.1613,16.64733,3.24585,11.07632,-19.36725,-11.61823,-2.00937,1e-05,-3.42537,-1.66138,0.00027,26.60716,11.91642,13.08425,5.60586,-7.71068,-15.84561,-8.97193,17.13443,1.8644,-4.06904,-30.11832,18.04386,65.24497,-0.0041,-111.8051,47.04742,0.00799,98.90266,-1.27175,-7.35673,-0.00476,-5.43359,2.66818,0.00098,-10.04369,3.84235,5.67886,-31.24743,1.52189,6.68274,0.1818,-7.92042,5.85859
402,-1.29405,0.0,0.0,-3.64615,0.0,0.0,1.28945,-7.29252,16.95972,3.65974,10.71571,-19.37253,-11.7331,-2.10682,0.00013,-3.32552,-1.87417,-3e-05,26.5497,12.38284,12.98721,5.64926,-7.25072,-15.61211,-9.12409,17.29446,2.53498,-4.58452,-30.097,17.97113,66.06535,-0.00425,-111.7748,46.32455,0.00382,99.88752,0.26452,-8.41838,-0.01563,-5.60569,2.85747,0.00082,-9.73847,3.40986,6.39855,-30.90737,0.85905,7.19626,0.14567,-7.65604,5.70078
403,-1.28982,0.0,-0.0,-3.67678,0.0,-0.0,1.32228,-7.6323,17.27333,3.94035,10.21034,-19.37902,-11.89457,-2.23795,0.00018,-3.18505,-2.09849,-0.00024,26.55351,12.93185,12.73915,5.71475,-6.72315,-15.29696,-9.25224,17.25709,3.31382,-5.06378,-30.07845,17.88566,66.9095,8e-05,-111.95906,45.61512,-0.0039,100.41779,2.09427,-9.55981,-0.01592,-5.73628,3.18701,0.00112,-9.32738,3.04885,7.14269,-30.45982,0.25429,7.75893,0.16952,-7.29866,5.58546
404,-1.37358,0.0,-0.0,-3.74925,0.0,-0.0,1.21033,-7.99645,17.51897,4.174,9.80409,-19.23619,-12.03123,-2.38013,3e-05,-3.06582,-2.358,-0.00016,26.58354,13.54123,12.5178,5.8455,-6.15763,-15.08904,-9.30179,17.09606,4.07899,-5.55461,-30.05596,17.75161,67.57124,0.00219,-112.65996,44.96596,-0.0064,100.51218,3.6312,-10.59087,-0.0032,-5.72754,3.54448,0.00131,-8.88601,2.84171,7.86405,-29.98168,-0.19846,8.35636,0.27133,-6.8706,5.57404
405,-1.52171,0.0,0.0,-3.87138,0.0,0.0,0.9309,-8.18429,17.66586,4.36711,9.71824,-18.9712,-12.07536,-2.47495,-0.00017,-3.0011,-2.57791,6e-05,26.54869,14.15995,12.46146,5.96281,-5.59662,-15.03325,-9.23439,16.8911,4.72801,-6.07978,-30.0437,17.51927,67.97816,-0.00096,-113.77132,44.34858,-0.00203,100.62663,4.47961,-11.38767,0.00786,-5.63265,3.74466,0.00068,-8.42763,2.67957,8.59453,-29.48371,-0.61213,8.97889,0.34163,-6.34495,5.66338
406,-1.61624,-0.0,0.0,-3.91056,0.0,0.0,0.53038,-8.19383,17.80597,4.49098,9.96681,-18.69456,-11.9763,-2.46791,-0.00015,-2.97376,-2.6619,0.00017,26.37505,14.69172,12.52097,5.95982,-5.11872,-15.03678,-9.05624,16.68196,5.28227,-6.58095,-30.06398,17.2766,68.23275,-0.00402,-114.96889,43.65553,0.00338,101.01762,4.88379,-11.93789,0.00843,-5.54397,3.6354,-0.00033,-7.90812,2.39721,9.43874,-28.91609,-1.17836,9.66483,0.27234,-5.74646,5.77536
407,-1.65063,-0.0,-0.0,-3.81031,0.0,-0.0,0.11913,-8.16738,18.06322,4.54448,10.30071,-18.44258,-11.70797,-2.37244,-4e-05,-2.96337,-2.60015,0.00015,26.06136,15.09197,12.50442,5.83834,-4.76213,-14.99957,-8.84346,16.48771,5.8337,-6.98546,-30.10733,17.1785,68.51818,-0.0024,-116.13156,42.79506,0.00494,101.54509,5.38209,-12.3222,0.00339,-5.51657,3.21703,-0.00117,-7.31341,2.00394,10.4364,-28.26183,-1.90248,10.45516,0.0845,-5.14987,5.84386
408,-1.71655,0.0,0.0,-3.64926,-0.0,0.0,-0.20786,-8.23316,18.42683,4.54435,10.41891,-18.16853,-11.30205,-2.23822,4e-05,-2.9907,-2.45785,4e-05,25.6897,15.41253,12.30296,5.71832,-4.4807,-14.88189,-8.6712,16.30919,6.42714,-7.33636,-30.13132,17.19724,68.95623,0.00316,-117.44632,41.83165,0.00094,101.96297,6.14495,-12.72485,-0.00069,-5.54352,2.75264,-0.0018,-6.67513,1.69877,11.47053,-27.55679,-2.55652,11.31237,-0.10777,-4.59242,5.88315
409,-1.79377,0.0,-0.0,-3.44134,-0.0,0.0,-0.48556,-8.41536,18.69164,4.49305,10.24723,-17.79088,-10.84064,-2.06301,0.0004,-3.08933,-2.29467,-2e-05,25.3588,15.70579,12.06953,5.7054,-4.2155,-14.74871,-8.53884,16.09831,7.07305,-7.76372,-30.10966,17.12174,69.56429,0.00582,-118.97301,40.9538,-0.00443,102.1236,6.88144,-13.36716,0.00038,-5.49322,2.63762,-0.00045,-6.02537,1.61395,12.37613,-26.84157,-2.95796,12.12907,-0.22436,-4.06169,5.92932
410,-1.80155,0.0,-0.0,-3.05877,0.0,-0.0,-0.85103,-8.59678,18.62707,4.38226,9.95981,-17.21733,-10.40285,-1.82358,0.00073,-3.2574,-2.14213,7e-05,25.08527,15.97921,12.0871,5.78295,-3.94678,-14.76778,-8.41417,15.76732,7.82604,-8.30969,-30.04061,16.78566,70.29983,0.00037,-120.34736,40.26662,-0.00378,102.19105,7.30259,-14.35316,0.0046,-5.12504,3.05907,0.00508,-5.3754,1.63642,13.12298,-26.13243,-3.20191,12.83602,-0.28449,-3.54116,5.96283
411,-1.89521,0.0,0.0,-2.52424,0.0,-0.0,-1.31932,-8.6296,18.34534,4.27928,9.77129,-16.55273,-10.01953,-1.58648,0.00037,-3.47884,-2.00564,4e-05,24.80285,16.23283,12.35341,5.87036,-3.69403,-14.92824,-8.29565,15.24712,8.75754,-8.87063,-29.89387,16.15234,71.11648,-0.00526,-121.31952,39.67964,0.00426,102.60815,7.55572,-15.59743,0.00173,-4.39261,3.79418,0.00882,-4.73116,1.56645,13.83674,-25.43051,-3.51987,13.47966,-0.35952,-3.04341,5.94897
412,-2.37231,-0.0,0.0,-2.12139,0.0,-0.0,-1.70933,-8.51633,18.27436,4.32136,9.70833,-16.15018,-9.67755,-1.47361,-0.00038,-3.75611,-1.85373,-0.00035,24.48139,16.44908,12.48893,5.94788,-3.50847,-14.92338,-8.20076,14.54221,9.84095,-9.3586,-29.62979,15.26307,72.02173,-0.00278,-122.13602,39.04392,0.01117,103.50834,8.06355,-16.86093,-0.00699,-3.68659,4.3832,0.00587,-4.1112,1.35045,14.63148,-24.74646,-4.00239,14.14821,-0.47583,-2.60754,5.90141
413,-3.1902,0.0,-0.0,-2.06234,0.0,0.0,-1.88588,-8.41772,18.57989,4.55493,9.59795,-16.20029,-9.36357,-1.50571,-0.00064,-4.08835,-1.67462,-0.00065,24.19655,16.57735,12.20758,6.06985,-3.41987,-14.57424,-8.13762,13.75662,10.90838,-9.83453,-29.31223,14.30982,73.06729,0.00517,-123.034,38.34811,0.00656,104.29836,8.94683,-17.80338,-0.00647,-3.53697,4.54126,0.00333,-3.53501,1.07311,15.47246,-24.10089,-4.55783,14.83959,-0.58083,-2.25719,5.8472
414,-3.8962,0.0,-0.0,-2.2882,0.0,-0.0,-1.92444,-8.46529,18.90791,4.8672,9.33665,-16.47761,-9.0835,-1.58267,-0.00025,-4.43763,-1.54798,-0.00025,24.02964,16.59771,11.6603,6.26772,-3.3706,-14.10695,-8.10054,13.05111,11.77939,-10.38915,-29.09661,13.65391,74.25138,0.01216,-123.96602,37.68439,-0.00435,104.26768,9.9238,-18.16721,0.00298,-4.04124,4.45733,0.00224,-2.98516,0.82606,16.23995,-23.48516,-5.05833,15.4738,-0.61197,-1.96445,5.77818
415,-4.10987,0.0,0.0,-2.58618,0.0,-0.0,-1.97874,-8.58576,18.82106,5.08798,9.06909,-16.63666,-8.84893,-1.6418,8e-05,-4.72485,-1.57927,0.00034,23.93307,16.5933,11.19929,6.47409,-3.24444,-13.83383,-8.07985,12.52624,12.43451,-10.98066,-29.04709,13.48867,75.4832,0.00943,-124.66905,37.06368,-0.00804,103.55847,10.75082,-18.08455,0.00727,-4.737,4.54527,5e-05,-2.40874,0.65448,16.90553,-22.84831,-5.45183,16.03968,-0.58379,-1.66291,5.69075
416,-3.88604,0.0,0.0,-2.75085,-0.0,0.0,-2.10077,-8.60168,18.29418,5.1233,8.99438,-16.60789,-8.67636,-1.73726,2e-05,-4.87396,-1.76037,0.00028,23.77122,16.67515,10.9686,6.57104,-2.99465,-13.75925,-8.07946,12.15194,13.02325,-11.53065,-29.04549,13.52065,76.68053,-0.00522,-124.66003,36.42537,-0.0017,103.06078,11.47278,-18.03987,0.00203,-5.07422,4.83886,5e-05,-1.78759,0.5688,17.58825,-22.15995,-5.77016,16.65259,-0.5776,-1.32471,5.62465
417,-3.54631,0.0,0.0,-2.70339,0.0,0.0,-2.25974,-8.49992,17.65741,5.01779,9.11267,-16.60104,-8.59769,-1.912,-9e-05,-4.87224,-1.96579,-4e-05,23.50067,16.80863,10.85529,6.51135,-2.72226,-13.65495,-8.10874,11.82905,13.69217,-12.1037,-28.92519,13.21311,77.85975,-0.01714,-123.73188,35.81864,0.00524,103.40769,12.28388,-18.37942,-0.00647,-4.85344,4.96625,-0.00096,-1.17712,0.55897,18.38939,-21.46413,-6.0577,17.40437,-0.63888,-1.02851,5.60381
418,-3.23551,-0.0,-0.0,-2.51371,0.0,-0.0,-2.44493,-8.42285,17.14787,4.88726,9.26084,-16.75253,-8.65391,-2.09584,-0.00025,-4.77143,-2.09695,-6e-05,23.23284,16.84659,10.76391,6.36507,-2.56183,-13.4292,-8.1482,11.49557,14.41729,-12.81714,-28.64697,12.35495,79.10085,-0.01025,-122.4642,35.38211,0.00485,104.42087,13.25482,-18.97574,-0.00807,-4.1959,4.74164,-0.00368,-0.64238,0.59657,19.22798,-20.83426,-6.31252,18.20882,-0.71998,-0.88115,5.60441
419,-2.80173,0.0,0.0,-2.26874,0.0,0.0,-2.62621,-8.40817,16.70325,4.78107,9.29648,-16.88873,-8.87502,-2.21167,-0.00059,-4.63631,-2.17084,3e-05,23.09957,16.74957,10.77822,6.25779,-2.51759,-13.24389,-8.15823,11.1721,15.03906,-13.62326,-28.30592,11.24562,80.44971,0.00887,-121.63015,35.11875,0.0013,105.3897,14.17008,-19.43384,0.00034,-3.35896,4.39923,-0.00293,-0.1837,0.64143,19.93965,-20.29105,-6.51554,18.89666,-0.73535,-0.88029,5.61999
420,-2.10525,-0.0,-0.0,-1.94338,0.0,-0.0,-2.72951,-8.29914,16.13316,4.65451,9.19788,-16.71641,-9.26708,-2.29253,-0.00052,-4.50164,-2.25608,2e-05,23.1386,16.61193,11.0472,6.27646,-2.5082,-13.30063,-8.12214,10.92263,15.46198,-14.33005,-27.9985,10.32553,81.86929,0.01841,-121.25433,34.85312,-0.00118,105.73904,14.63577,-19.4972,0.00944,-2.73485,4.21991,0.00042,0.24489,0.66007,20.49084,-19.79556,-6.68721,19.42422,-0.64806,-0.94125,5.65351
421,-1.27546,0.0,-0.0,-1.5437,0.0,-0.0,-2.71545,-7.9863,15.41929,4.50168,9.09138,-16.2624,-9.81274,-2.43218,0.00039,-4.3608,-2.37458,-3e-05,23.31127,16.49059,11.53595,6.40697,-2.51102,-13.55504,-8.05397,10.77714,15.73019,-14.80774,-27.72667,9.80115,83.26912,0.00969,-120.69316,34.41297,-0.00378,105.4402,14.30762,-19.18155,0.01031,-2.82696,4.20683,0.00302,0.67798,0.63878,20.99688,-19.30103,-6.88037,19.8957,-0.49844,-1.02091,5.6456
422,-0.6523,-0.0,-0.0,-1.32858,0.0,-0.0,-2.56455,-7.64441,14.85744,4.42633,9.18898,-15.96259,-10.47561,-2.66872,0.00126,-4.18534,-2.49321,-6e-05,23.5504,16.36073,11.9318,6.54748,-2.54629,-13.67297,-7.98167,10.71752,15.88924,-15.09564,-27.43565,9.63382,84.56666,-0.00872,-119.27116,33.74901,-0.00601,104.78047,12.99055,-18.62056,0.00044,-3.84587,4.20487,0.00508,1.13358,0.59488,21.56831,-18.77518,-7.11654,20.42178,-0.35778,-1.13016,5.53614
423,-0.52998,0.0,0.0,-1.586,0.0,-0.0,-2.2457,-7.49502,14.71676,4.48853,9.54859,-16.08731,-11.20735,-2.93637,0.00079,-3.954,-2.58246,-5e-05,23.78663,16.20667,11.98146,6.60321,-2.58514,-13.46533,-7.91114,10.72634,15.90512,-15.33524,-27.09194,9.62082,85.70963,-0.01887,-116.81954,32.92704,-0.00428,104.08182,10.77404,-17.84872,-0.01709,-5.23898,4.20072,0.00483,1.62249,0.59122,22.20485,-18.20394,-7.3363,21.02394,-0.25938,-1.262,5.37114
424,-0.95596,-0.0,0.0,-2.25324,-0.0,0.0,-1.77078,-7.45209,14.90561,4.58424,9.91398,-16.37595,-11.95986,-3.14281,-0.00042,-3.66432,-2.6379,-1e-05,23.97195,16.0483,11.79298,6.56031,-2.57824,-13.17173,-7.76665,10.79472,15.74921,-15.64494,-26.6906,9.41361,86.67047,-0.01253,-113.94143,32.06949,0.00049,103.66119,8.21764,-16.86401,-0.02353,-6.02999,4.34477,0.00451,2.11953,0.72045,22.81847,-17.61943,-7.42236,21.65023,-0.18824,-1.37816,5.26369
425,-1.70835,0.0,-0.0,-2.99281,0.0,-0.0,-1.22049,-7.29107,15.21348,4.57799,9.98472,-16.50707,-12.70265,-3.28719,-0.0006,-3.33352,-2.66178,5e-05,24.08563,15.90495,11.58842,6.45448,-2.5243,-13.03855,-7.41574,10.88706,15.45159,-16.04191,-26.23707,8.71998,87.47087,-0.00191,-111.42669,31.25764,0.00029,103.58761,6.06354,-15.93099,-0.00595,-5.78241,4.65618,0.00597,2.56147,1.01904,23.3321,-17.09415,-7.31434,22.23925,-0.13206,-1.44649,5.27922
426,-2.37128,0.0,-0.0,-3.466,0.0,-0.0,-0.71552,-6.9698,15.52231,4.44683,9.7825,-16.46257,-13.43086,-3.4416,0.0004,-3.00272,-2.66237,5e-05,24.12118,15.79483,11.43854,6.31248,-2.45251,-13.00776,-6.82406,10.94382,15.07677,-16.44273,-25.76075,7.58277,88.17392,0.00512,-109.60217,30.45865,-0.00636,103.59888,4.66878,-15.31976,0.01362,-4.89128,4.88976,0.00324,2.9022,1.37935,23.74751,-16.67989,-7.11441,22.75553,-0.09802,-1.44529,5.3871
427,-2.55508,0.0,0.0,-3.51331,0.0,0.0,-0.35518,-6.63306,15.70408,4.24723,9.55839,-16.28585,-14.13771,-3.62421,0.00098,-2.73144,-2.6453,1e-05,24.08269,15.72348,11.35346,6.15935,-2.39605,-12.99105,-6.14112,10.9339,14.69944,-16.73304,-25.31163,6.30965,88.82095,0.01232,-108.49642,29.57062,-0.00774,103.62762,3.94313,-14.72487,0.01692,-3.96824,4.80053,-0.00177,3.15282,1.61335,24.12795,-16.36519,-7.02116,23.19556,-0.07172,-1.36345,5.49801
428,-2.28088,0.0,0.0,-3.34295,0.0,-0.0,-0.1194,-6.50169,15.72076,4.07509,9.45146,-15.99672,-14.79011,-3.76258,0.0003,-2.56895,-2.59719,-3e-05,23.99887,15.63308,11.33378,6.0503,-2.40602,-13.01104,-5.56543,10.88632,14.33422,-16.85822,-24.91445,5.12285,89.45252,0.01653,-107.85134,28.53873,0.00551,104.12746,3.55809,-13.67161,0.00939,-3.30428,4.44931,-0.00271,3.38129,1.63259,24.55306,-16.07411,-7.14477,23.60571,-0.00799,-1.23558,5.54366
429,-2.04037,0.0,0.0,-3.38229,0.0,-0.0,0.12012,-6.70189,15.73029,4.02311,9.44122,-15.73153,-15.35052,-3.78894,-0.00063,-2.51404,-2.50906,-7e-05,23.92625,15.44103,11.31161,6.04786,-2.51394,-13.05198,-5.175,10.85081,13.90044,-16.86673,-24.54623,4.02457,90.18809,0.00792,-106.92403,27.40568,0.0198,105.41701,2.97801,-12.37717,0.00276,-2.9198,4.16651,-0.00059,3.67084,1.51603,25.05917,-15.71462,-7.42292,24.04765,0.13217,-1.13079,5.53389
430,-2.24419,0.0,0.0,-3.76421,-0.0,-0.0,0.42826,-7.07343,15.83788,4.07623,9.50992,-15.60616,-15.78187,-3.72305,-0.00072,-2.50532,-2.40053,-3e-05,23.89465,15.15453,11.21353,6.15321,-2.66805,-13.06967,-4.94037,10.84753,13.35992,-16.87903,-24.17905,3.0263,91.16404,-0.01288,-105.03063,26.27904,0.01408,106.90531,1.70307,-11.49992,0.00989,-2.81562,4.21066,0.00021,4.03119,1.39993,25.57537,-15.28161,-7.70343,24.50001,0.35341,-1.07619,5.53388
431,-2.75627,0.0,-0.0,-4.21386,-0.0,0.0,0.69815,-7.2912,15.90591,4.11209,9.65329,-15.54417,-16.00827,-3.64363,-0.00015,-2.46462,-2.30517,4e-05,23.83364,14.87195,11.0656,6.2833,-2.77434,-13.06603,-4.81687,10.88368,12.83285,-16.98891,-23.8235,2.30395,92.3678,-0.02756,-102.20625,25.27187,-0.00334,107.6195,-0.21385,-11.17223,0.02045,-3.00676,4.52166,-0.00071,4.36485,1.35848,25.99146,-14.88607,-7.87992,24.88249,0.61499,-1.04318,5.59593
432,-3.06775,-0.0,0.0,-4.37045,0.0,0.0,0.73823,-7.18556,15.68441,4.00192,9.81444,-15.34648,-15.93744,-3.60346,0.00017,-2.34571,-2.25753,-5e-05,23.59943,14.68302,10.99778,6.33559,-2.78799,-13.07956,-4.75601,10.98424,12.47886,-17.16982,-23.51554,1.98614,93.62499,-0.02184,-99.09606,24.434,-0.00859,107.40652,-2.14303,-10.8036,0.01511,-3.4172,4.85257,-0.00058,4.56985,1.40341,26.32668,-14.62695,-7.94784,25.21691,0.84192,-1.0069,5.72292
433,-2.8404,0.0,-0.0,-4.09453,0.0,-0.0,0.4878,-6.84469,15.09667,3.71193,9.95252,-14.89396,-15.56634,-3.6065,-0.00026,-2.1661,-2.28086,-0.00026,23.11386,14.63392,11.10361,6.27693,-2.71003,-13.14308,-4.70364,11.16381,12.32014,-17.30085,-23.27524,1.93921,94.78162,-0.00376,-96.46263,23.72492,-2e-05,106.90816,-3.64207,-9.84982,0.00067,-3.86151,5.06745,0.00077,4.66194,1.53045,26.72739,-14.46591,-7.95933,25.64106,0.97745,-0.94991,5.88136
434,-2.30855,0.0,-0.0,-3.66574,-0.0,0.0,0.1505,-6.53246,14.43127,3.39243,10.09161,-14.34217,-15.01454,-3.63432,-0.00095,-2.0197,-2.34413,-0.00028,22.46856,14.7272,11.27577,6.1795,-2.55355,-13.1803,-4.63208,11.39877,12.23639,-17.27243,-23.06451,1.86506,95.82384,0.01085,-94.79375,23.04968,0.00588,106.4615,-4.9586,-8.41072,-0.01331,-4.17929,5.26884,0.00116,4.76921,1.70635,27.27,-14.26355,-7.9704,26.21672,1.03568,-0.83853,6.03642
435,-2.03815,0.0,-0.0,-3.50722,0.0,-0.0,-0.02311,-6.49825,14.07982,3.24847,10.1758,-13.96823,-14.41537,-3.6301,-0.00092,-1.99378,-2.36217,-0.0002,21.86103,14.88784,11.34225,6.1543,-2.3638,-13.06513,-4.52426,11.65633,12.09403,-17.03024,-22.79661,1.54639,96.80305,0.01316,-94.01673,22.30763,-0.00158,105.6608,-6.44666,-7.00412,-0.01626,-4.39793,5.66972,-0.00057,5.02165,1.85529,27.8703,-13.90593,-8.0247,26.83859,1.07883,-0.66466,6.17215
436,-2.26279,0.0,-0.0,-3.63663,0.0,0.0,-0.05737,-6.7392,14.1176,3.27137,10.03354,-13.82519,-13.79887,-3.51275,7e-05,-2.05012,-2.28548,-0.00011,21.40662,15.00542,11.32245,6.22686,-2.19247,-12.81065,-4.3464,11.91769,11.8697,-16.58857,-22.43194,0.95907,97.73631,0.00508,-93.58662,21.46464,-0.01377,104.07504,-7.9042,-6.07306,-0.00406,-4.65205,6.31466,-0.00306,5.46225,1.92207,28.41534,-13.37111,-8.1378,27.38103,1.13625,-0.46749,6.28074
437,-2.68543,0.0,-0.0,-3.69555,0.0,-0.0,-0.18245,-7.06096,14.36595,3.27278,9.66257,-13.7907,-13.1084,-3.26455,0.00117,-2.06948,-2.15881,7e-05,21.05153,15.05153,11.32281,6.31036,-2.02623,-12.52216,-4.0962,12.1476,11.67939,-16.07907,-22.03317,0.18913,98.61777,-0.00325,-93.11179,20.63051,-0.01365,101.97117,-8.87088,-5.69945,0.00889,-4.9417,6.94936,-0.00336,6.03275,1.92953,28.90299,-12.71729,-8.28773,27.84964,1.17754,-0.27095,6.33124
438,-2.9064,0.0,-0.0,-3.43378,0.0,-0.0,-0.54486,-7.30757,14.66085,3.1464,9.32661,-13.76878,-12.31947,-2.9515,0.0014,-2.00167,-2.07159,0.00011,20.72009,15.09076,11.3266,6.34001,-1.80452,-12.29967,-3.84362,12.28105,11.69471,-15.70641,-21.68475,-0.62601,99.48077,-0.00683,-92.61486,19.99202,-0.00301,99.95713,-9.14349,-5.5809,0.01517,-5.18555,7.24849,-0.00189,6.60745,1.93599,29.42228,-12.05246,-8.44806,28.34859,1.19398,-0.04809,6.265
439,-2.8592,-0.0,0.0,-2.97206,-0.0,0.0,-1.11307,-7.40569,14.93254,2.9489,9.22891,-13.68095,-11.49098,-2.64893,0.0008,-1.89089,-2.0782,-3e-05,20.45886,15.16529,11.24202,6.37698,-1.51487,-12.24413,-3.66455,12.29135,11.95873,-15.58276,-21.40009,-1.28245,100.40726,-0.00388,-92.2738,19.64261,0.00438,98.1475,-8.97373,-5.37842,0.01667,-5.49715,7.1385,0.00023,7.08486,1.96748,30.04215,-11.46434,-8.61585,28.95246,1.25702,0.21738,6.05395
440,-2.86781,0.0,0.0,-2.69581,-0.0,-0.0,-1.71607,-7.39241,15.27971,2.80212,9.34847,-13.53493,-10.69662,-2.39422,0.00011,-1.79028,-2.16415,-0.00013,20.33313,15.23148,10.98707,6.50745,-1.23071,-12.31925,-3.54971,12.26039,12.2344,-15.65069,-21.14053,-1.63793,101.44324,0.0069,-92.39639,19.53656,0.00519,96.22391,-9.30573,-5.02907,0.00739,-6.11257,6.79844,0.00295,7.49297,2.0258,30.72996,-10.92971,-8.7785,29.63068,1.42558,0.4746,5.76606
441,-3.33345,0.0,-0.0,-2.90327,0.0,-0.0,-2.13404,-7.40209,15.89201,2.80209,9.58171,-13.46748,-9.97218,-2.19648,-0.00027,-1.73161,-2.26163,-0.0001,20.2802,15.23009,10.53955,6.71404,-1.04187,-12.31556,-3.42637,12.3245,12.18825,-15.77337,-20.88033,-1.79848,102.52683,0.01264,-93.07745,19.58098,0.00277,94.20514,-11.15683,-4.54562,-0.01455,-6.97521,6.39906,0.0042,7.94174,2.12488,31.36412,-10.35968,-8.88411,30.27095,1.65088,0.65549,5.53973
442,-4.29651,0.0,0.0,-3.4665,0.0,-0.0,-2.28613,-7.44798,16.70858,2.93771,9.8013,-13.51527,-9.34298,-2.04959,-0.0004,-1.7305,-2.29598,-6e-05,20.1664,15.17746,10.04817,6.89851,-0.96282,-12.14517,-3.26565,12.52501,11.82187,-15.85583,-20.62486,-2.02993,103.56932,0.0026,-93.75521,19.7225,0.00018,92.56152,-14.06604,-3.80154,-0.02718,-7.61346,6.00009,0.00228,8.44262,2.27996,31.84682,-9.76104,-8.88791,30.78375,1.83232,0.7639,5.45672
443,-5.41029,-0.0,-0.0,-3.96043,-0.0,0.0,-2.27491,-7.41173,17.43063,3.07452,9.89808,-13.56067,-8.83768,-1.93795,-0.00046,-1.7496,-2.24229,-2e-05,19.91929,15.14291,9.75866,6.96177,-0.93052,-11.93418,-3.11891,12.75497,11.53268,-15.89085,-20.39849,-2.45563,104.56422,-0.01033,-93.90539,19.95348,0.00036,91.49151,-16.13519,-2.7623,-0.005,-7.57236,5.63086,-0.0012,8.87012,2.47428,32.20478,-9.25634,-8.81477,31.18899,1.9127,0.86884,5.45883
444,-6.37462,0.0,-0.0,-4.1706,0.0,-0.0,-2.21446,-7.31081,17.92841,3.10606,9.87932,-13.57479,-8.45111,-1.83964,-0.00047,-1.7163,-2.14657,7e-05,19.58952,15.1497,9.74473,6.89436,-0.88301,-11.7519,-3.02362,12.89398,11.65936,-15.92146,-20.22244,-2.94643,105.53894,-0.01096,-93.81952,20.25571,0.00388,90.66101,-16.14399,-1.71103,0.02339,-6.89306,5.28427,-0.00327,9.12772,2.66808,32.54055,-8.92516,-8.7347,31.5725,1.91931,1.00449,5.42253
445,-7.10624,0.0,-0.0,-4.25385,-0.0,-0.0,-2.16424,-7.26747,18.26288,3.07748,9.81545,-13.61138,-8.12925,-1.72577,-0.00028,-1.62258,-2.0742,9e-05,19.31467,15.16583,9.8906,6.82244,-0.80488,-11.52421,-2.93912,12.95257,12.16442,-15.964,-20.08825,-3.29776,106.48893,-0.0006,-94.14494,20.58976,0.00564,89.97514,-14.6767,-1.09055,0.01834,-6.06495,4.95266,-0.00249,9.25518,2.86258,32.89378,-8.72014,-8.65884,31.97277,1.94418,1.12926,5.29124
446,-7.51636,0.0,-0.0,-4.39326,0.0,-0.0,-2.20425,-7.24156,18.36488,3.08015,9.7234,-13.56669,-7.80088,-1.5667,0.00023,-1.55253,-2.04163,7e-05,19.17883,15.18187,10.14843,6.88977,-0.70415,-11.24598,-2.81072,13.03984,12.80623,-15.96891,-19.95968,-3.42065,107.42245,0.01124,-95.1666,20.96017,5e-05,90.08234,-13.00342,-1.16185,-0.00287,-5.56332,4.78243,-0.00062,9.35487,3.12446,33.19932,-8.54851,-8.50368,32.34794,2.04703,1.1995,5.10764
447,-7.59909,-0.0,0.0,-4.5634,-0.0,-0.0,-2.3713,-7.09561,18.12422,3.12099,9.58419,-13.29125,-7.42353,-1.35414,0.00077,-1.60717,-2.01989,5e-05,19.13488,15.22104,10.54395,7.11878,-0.58869,-11.04093,-2.60823,13.2354,13.38728,-15.87115,-19.79823,-3.36783,108.36567,0.01379,-96.62703,21.41587,-0.00985,91.54388,-11.81803,-1.76663,-0.01107,-5.51539,4.94143,-0.001,9.49972,3.49367,33.39368,-8.34867,-8.21185,32.64914,2.18945,1.22987,4.93338
448,-7.73413,0.0,-0.0,-4.68091,-0.0,0.0,-2.52565,-6.88563,17.78676,3.18078,9.44603,-12.96389,-7.01437,-1.13069,0.00069,-1.8335,-1.98174,-7e-05,19.09639,15.28409,10.89593,7.43405,-0.47693,-10.92755,-2.30617,13.53876,13.77206,-15.6753,-19.58152,-3.27362,109.30112,0.00126,-97.78968,21.9649,-0.01314,93.85849,-11.28373,-2.3831,-0.00644,-5.72198,5.26305,-0.00186,9.71863,3.90306,33.5385,-8.08329,-7.86636,32.91464,2.30009,1.26107,4.78336
449,-8.19794,-0.0,0.0,-4.64809,0.0,0.0,-2.51459,-6.8396,17.79954,3.26604,9.45174,-12.96081,-6.62237,-0.97107,2e-05,-2.20182,-1.9189,-0.00019,18.99598,15.33928,10.90852,7.73552,-0.41042,-10.74194,-1.93154,13.89719,13.86797,-15.46714,-19.31186,-3.28281,110.19762,-0.01134,-98.07809,22.56949,-0.00757,95.89202,-11.54898,-2.62412,-0.00065,-5.89705,5.31978,-0.0017,9.99774,4.25743,33.79455,-7.73822,-7.60683,33.26923,2.34054,1.2957,4.66015
450,-8.51019,-0.0,0.0,-4.29335,0.0,0.0,-2.42577,-7.05316,18.19301,3.34247,9.69971,-13.29141,-6.28367,-0.90643,-0.00051,-2.63575,-1.8416,-9e-05,18.77932,15.3718,10.61706,7.94951,-0.421,-10.41448,-1.60301,14.23873,13.70846,-15.35084,-19.01361,-3.41311,111.08807,-0.00277,-97.98917,23.25032,-0.00098,97.01113,-12.6798,-2.67856,0.00578,-5.93666,4.90949,-0.00138,10.29347,4.56949,34.24269,-7.33923,-7.44525,33.79424,2.30108,1.28696,4.58933
451,-8.11596,-0.0,0.0,-3.67252,-0.0,-0.0,-2.4591,-7.36934,18.51684,3.35205,10.05838,-13.52781,-6.02792,-0.88791,-0.00053,-3.0714,-1.77094,0.00023,18.51162,15.40668,10.38864,8.12302,-0.48122,-10.136,-1.42231,14.51981,13.47096,-15.39267,-18.72125,-3.47172,112.03124,0.01768,-98.4602,24.12251,0.00632,97.2522,-14.22349,-2.88082,0.0096,-5.97613,4.24375,1e-05,10.58175,4.9437,34.75916,-6.93032,-7.24389,34.40289,2.24028,1.1943,4.56525
452,-7.185,0.0,-0.0,-3.13364,0.0,-0.0,-2.70214,-7.55262,18.42039,3.29202,10.22262,-13.33182,-5.85264,-0.83839,-0.00026,-3.48189,-1.70263,0.00034,18.35541,15.46142,10.48132,8.38043,-0.53487,-10.12286,-1.34901,14.7622,13.33714,-15.57555,-18.47598,-3.25178,113.02958,0.01876,-99.23425,25.25545,0.01489,96.7971,-15.33956,-3.05203,0.00517,-6.14214,3.67507,0.00106,10.88205,5.42055,35.13702,-6.5336,-6.90195,34.90881,2.2576,1.03811,4.51638
453,-6.16563,0.0,-0.0,-2.89747,0.0,-0.0,-3.12434,-7.52555,18.03349,3.22112,10.03629,-12.7976,-5.67928,-0.72495,8e-05,-3.869,-1.59406,1e-05,18.33169,15.51216,10.80747,8.72936,-0.57816,-10.33895,-1.26843,14.99538,13.38829,-15.78579,-18.3231,-2.79965,114.05469,-0.00403,-99.10363,26.53672,0.01322,96.02726,-15.53496,-2.73613,0.00542,-6.32425,3.41871,0.00063,11.21867,5.9177,35.3466,-6.13547,-6.48983,35.25877,2.34672,0.89492,4.35732
454,-5.43645,-0.0,0.0,-3.01406,-0.0,0.0,-3.54403,-7.48054,17.84289,3.22445,9.68468,-12.29191,-5.4259,-0.5746,0.00026,-4.25643,-1.4183,-0.00046,18.3127,15.52841,11.03312,9.0712,-0.65022,-10.51643,-1.14201,15.18612,13.63757,-15.90898,-18.29101,-2.34064,115.10489,-0.02424,-97.65034,27.78409,0.00179,95.55532,-14.97322,-1.83505,0.01214,-6.28567,3.43274,6e-05,11.57411,6.34903,35.59033,-5.71414,-6.15021,35.62074,2.40572,0.84147,4.054
455,-5.35002,0.0,0.0,-3.4651,0.0,-0.0,-3.70255,-7.67346,18.20765,3.33571,9.46638,-12.06688,-5.1,-0.42423,0.00024,-4.66604,-1.21163,-0.00055,18.23179,15.51572,10.92734,9.37427,-0.75137,-10.42591,-0.99861,15.30285,14.03617,-15.93489,-18.36952,-1.98894,116.17905,-0.02172,-95.76566,28.95853,-0.0026,95.55203,-14.14503,-0.75761,0.011,-5.98862,3.47159,-0.00078,11.9038,6.71506,36.0544,-5.27356,-5.9372,36.1726,2.38499,0.89593,3.66012
456,-5.80208,-0.0,-0.0,-3.92729,0.0,0.0,-3.62406,-8.00022,18.85343,3.46704,9.41746,-12.00005,-4.76952,-0.27334,0.00017,-5.08388,-1.04426,-0.00015,18.13252,15.50074,10.70236,9.68527,-0.83007,-10.15137,-0.83268,15.41803,14.45186,-15.92766,-18.49851,-1.68703,117.24854,-0.00291,-94.6264,30.16596,-0.00037,95.7066,-13.49615,-0.09306,0.00222,-5.74411,3.39503,-0.00158,12.2068,7.04661,36.6971,-4.8208,-5.80796,36.88369,2.32202,1.00379,3.28228
457,-6.35058,0.0,0.0,-3.99901,0.0,0.0,-3.60483,-8.07339,19.18338,3.49458,9.35295,-11.84587,-4.48438,-0.1171,1e-05,-5.45273,-0.94541,0.00023,18.06067,15.50626,10.72303,10.00865,-0.84096,-9.93372,-0.61076,15.66367,14.78027,-15.94247,-18.58707,-1.37541,118.29099,0.01323,-94.68276,31.48571,-0.00475,95.97814,-13.17151,-0.18134,-0.00309,-5.93522,3.32978,-0.00225,12.54289,7.34666,37.33484,-4.33498,-5.70545,37.57991,2.27489,1.0879,2.98949
458,-6.92632,0.0,0.0,-3.73577,-0.0,-0.0,-3.74423,-7.79305,19.10766,3.3818,9.25728,-11.65565,-4.23007,0.0102,-0.00029,-5.70083,-0.87483,0.00027,17.96634,15.55858,10.97082,10.25858,-0.78194,-9.73825,-0.35241,16.09108,15.06136,-16.00552,-18.58459,-1.0803,119.30444,0.01688,-95.57966,32.87416,-0.01154,96.52405,-13.00953,-0.90205,-0.00359,-6.57613,3.39935,-0.00241,12.93971,7.62874,37.84795,-3.8151,-5.58261,38.15127,2.25481,1.11839,2.79721
459,-7.61249,0.0,0.0,-3.44527,0.0,-0.0,-3.91855,-7.45197,18.96695,3.15831,9.35238,-11.61049,-3.93868,0.0895,-0.00043,-5.80225,-0.79269,0.00019,17.72821,15.65475,11.23383,10.33863,-0.69444,-9.34124,-0.13028,16.6316,15.39602,-16.13034,-18.53024,-0.84382,120.27163,0.00932,-96.60597,34.2378,-0.00774,97.08287,-12.84904,-1.76031,-0.00187,-7.32431,3.4864,0.00024,13.33698,7.9435,38.25698,-3.31642,-5.3976,38.63211,2.20389,1.11557,2.71036
460,-8.19119,-0.0,-0.0,-3.28112,-0.0,0.0,-4.09215,-7.32182,18.87532,2.90247,9.7813,-11.65129,-3.56693,0.16958,-0.00015,-5.81645,-0.73564,0.00014,17.32306,15.73277,11.52233,10.26955,-0.63042,-8.78341,0.01578,17.1974,15.7893,-16.30467,-18.51119,-0.62582,121.15774,-0.00046,-97.17044,35.52327,0.00293,97.18375,-12.73895,-2.27804,0.0005,-7.95427,3.37389,0.00394,13.66607,8.31292,38.66567,-2.88397,-5.15919,39.12747,2.0754,1.10121,2.70546
461,-8.38409,-0.0,-0.0,-3.2138,-0.0,0.0,-4.32047,-7.45136,18.68622,2.70835,10.41775,-11.54244,-3.14373,0.30911,0.00029,-5.8384,-0.76943,0.00018,16.90759,15.74799,11.93265,10.19972,-0.59294,-8.3843,0.12443,17.77249,16.15135,-16.46905,-18.58235,-0.3215,121.9454,-0.00421,-97.1365,36.70493,0.00872,96.72575,-12.85877,-2.39104,0.00048,-8.52134,3.08059,0.00441,13.91488,8.67819,39.16627,-2.51005,-4.94945,39.70815,1.92849,1.09167,2.70137
462,-8.12335,-0.0,0.0,-3.03814,0.0,0.0,-4.60721,-7.75481,18.35129,2.54718,10.96099,-11.13048,-2.72368,0.50862,0.00045,-5.90464,-0.87518,0.00022,16.65286,15.74377,12.38871,10.25436,-0.53555,-8.34806,0.27535,18.3893,16.43469,-16.56303,-18.71746,0.08443,122.6234,-0.00318,-96.64297,37.78456,0.00643,95.98144,-13.33536,-2.25833,-0.00326,-9.05911,2.92642,0.001,14.08614,8.96452,39.77666,-2.18868,-4.8445,40.36995,1.87648,1.11678,2.60139
463,-7.6867,0.0,-0.0,-2.6216,0.0,-0.0,-4.86599,-8.06921,18.05074,2.30064,11.15629,-10.45952,-2.33287,0.72774,0.0003,-5.98169,-0.94008,9e-05,16.57137,15.77948,12.6944,10.43067,-0.44466,-8.54031,0.54458,19.028,16.70849,-16.60016,-18.82782,0.44726,123.16525,-0.00219,-95.6762,38.82021,-0.00046,95.30437,-14.01089,-1.7931,-0.00644,-9.46194,3.14084,-0.0016,14.16853,9.17121,40.42897,-1.94628,-4.82567,41.0486,1.95754,1.19199,2.37176
464,-7.49528,0.0,-0.0,-2.17257,-0.0,0.0,-5.03699,-8.19103,18.01162,1.95354,10.95543,-9.67925,-1.95716,0.92417,-1e-05,-6.03861,-0.8804,-6e-05,16.53765,15.84935,12.74357,10.63978,-0.36715,-8.65716,0.98913,19.56617,17.08549,-16.65005,-18.84595,0.5942,123.56195,-0.00182,-94.17411,39.85489,-0.00603,94.89287,-14.34978,-0.76806,0.00201,-9.63337,3.58952,-0.00099,14.17561,9.35602,40.99516,-1.79853,-4.8025,41.63881,2.09429,1.29516,2.08927
465,-7.60918,0.0,0.0,-1.95526,0.0,-0.0,-5.20092,-8.0341,18.26645,1.61502,10.54415,-8.92302,-1.55746,1.06081,-0.00041,-6.07882,-0.73759,-8e-05,16.40842,15.92995,12.62126,10.78172,-0.33281,-8.48601,1.60066,19.89753,17.60795,-16.74888,-18.787,0.47799,123.86707,-0.00103,-92.47263,40.83966,-0.0039,94.58617,-13.87138,0.64742,0.01624,-9.53754,3.98863,0.00025,14.15423,9.55734,41.38472,-1.72054,-4.71434,42.06501,2.17067,1.40054,1.8889
466,-7.80495,-0.0,0.0,-1.98201,0.0,0.0,-5.45907,-7.75617,18.62096,1.39336,10.25823,-8.30034,-1.11257,1.13811,-0.00053,-6.10505,-0.61669,-2e-05,16.15133,16.00855,12.51467,10.81822,-0.33109,-8.01092,2.23051,20.11073,18.20409,-16.8845,-18.71206,0.2029,124.19247,0.00073,-91.21199,41.72213,0.00394,94.06093,-12.74659,1.8443,0.01414,-9.22281,4.19354,0.00011,14.13726,9.77244,41.65263,-1.66711,-4.57949,42.37884,2.1611,1.48383,1.82783
467,-8.03114,0.0,-0.0,-2.17164,0.0,0.0,-5.77444,-7.59519,18.83844,1.33022,10.3456,-7.85572,-0.65359,1.22418,-9e-05,-6.10851,-0.56217,2e-05,15.89421,16.03671,12.55272,10.8208,-0.36959,-7.42337,2.65773,20.44681,18.72484,-17.06681,-18.64995,-0.07404,124.62234,0.00345,-90.7512,42.56368,0.00853,93.36547,-11.71921,2.34772,0.00377,-8.90142,4.22492,-0.00057,14.13851,9.97868,41.93179,-1.59265,-4.45574,42.70056,2.17038,1.50153,1.82885
468,-8.4794,0.0,-0.0,-2.55437,0.0,-0.0,-5.99892,-7.61512,18.90938,1.41607,10.74105,-7.51901,-0.24451,1.38432,0.00035,-6.10268,-0.54493,1e-05,15.7908,15.96814,12.68821,10.90236,-0.4605,-6.98095,2.81422,21.04247,19.07619,-17.32997,-18.58395,-0.2896,125.13133,0.00378,-90.87962,43.46063,0.00381,92.99479,-11.3231,2.08027,0.00289,-8.816,4.13458,-0.00042,14.18983,10.1349,42.25203,-1.45865,-4.39062,43.04741,2.29886,1.43739,1.7907
469,-9.27269,-0.0,-0.0,-3.10856,-0.0,0.0,-6.02526,-7.69654,19.03364,1.58293,11.16203,-7.18163,0.07534,1.59915,0.00027,-6.1166,-0.53854,-2e-05,15.83935,15.83685,12.78794,11.08576,-0.56542,-6.76868,2.85975,21.79427,19.36504,-17.64979,-18.50158,-0.50052,125.64837,0.0001,-91.07584,44.40331,-0.00648,93.36463,-11.29517,1.09144,-0.00042,-8.95605,3.94366,0.00067,14.31827,10.208,42.53929,-1.25705,-4.3963,43.34026,2.50401,1.33761,1.70266
470,-10.13804,0.0,-0.0,-3.50987,-0.0,0.0,-5.92215,-7.7011,19.27406,1.69892,11.41033,-6.84364,0.32731,1.79714,0.0,-6.12911,-0.53568,-2e-05,15.86825,15.72826,12.83504,11.24319,-0.62107,-6.64761,2.98487,22.50134,19.80722,-17.95383,-18.42756,-0.73035,126.17575,-0.00287,-91.05991,45.33902,-0.01317,94.35575,-10.98503,-0.54717,-0.01738,-9.06835,3.76572,0.00227,14.50449,10.23572,42.78764,-1.008,-4.4351,43.58388,2.63065,1.2559,1.60786
471,-10.61918,-0.0,-0.0,-3.4498,0.0,0.0,-5.8565,-7.62451,19.5068,1.69467,11.47402,-6.64309,0.55624,1.93753,-0.0001,-6.07041,-0.50686,0.0001,15.71649,15.68904,12.8716,11.19945,-0.61334,-6.44838,3.22652,23.08584,20.42178,-18.2265,-18.40447,-0.87291,126.75474,-0.00075,-91.09106,46.28048,-0.01119,95.39777,-10.30436,-2.56442,-0.02491,-8.94747,3.81007,0.00408,14.72456,10.31026,43.08616,-0.71118,-4.44163,43.88776,2.56991,1.1975,1.51606
472,-10.65343,-0.0,-0.0,-3.18814,0.0,-0.0,-5.88214,-7.61106,19.67859,1.68136,11.38571,-6.65008,0.76712,2.02439,-0.00012,-5.91553,-0.42535,0.00024,15.43615,15.69408,12.85558,10.9483,-0.59314,-6.21267,3.49648,23.63556,20.94298,-18.50369,-18.45563,-0.79373,127.33884,0.00261,-91.54826,47.20032,-0.00189,95.8782,-9.92043,-4.44283,-0.00835,-8.66335,4.03699,0.0038,14.9877,10.47168,43.4719,-0.34691,-4.38666,44.29762,2.396,1.13116,1.40377
473,-10.62763,0.0,-0.0,-3.3034,-0.0,-0.0,-5.89266,-7.75735,19.83973,1.82823,11.1624,-6.7444,0.92531,2.05535,-0.00017,-5.70533,-0.32585,0.00018,15.24246,15.69826,12.76456,10.68099,-0.60604,-6.14758,3.70472,24.26333,21.14335,-18.78054,-18.57858,-0.4436,127.8287,0.00103,-92.32516,47.97271,0.00508,95.57522,-10.40105,-5.70324,0.0053,-8.53015,4.11442,0.00224,15.28468,10.66142,43.88379,0.05911,-4.31034,44.73949,2.29358,1.02976,1.27599
474,-10.96427,-0.0,0.0,-4.00095,0.0,-0.0,-5.72371,-7.95657,20.01008,2.17151,10.87186,-6.78562,0.98865,2.01561,-0.00016,-5.4775,-0.27014,-2e-05,15.27359,15.68342,12.69596,10.57433,-0.64562,-6.3223,3.83208,24.96669,21.12863,-19.03074,-18.75108,0.10066,128.23488,-0.0025,-92.98626,48.56862,0.00463,94.82581,-11.51486,-6.2783,0.00243,-8.78392,3.88534,0.00266,15.55084,10.78357,44.24817,0.42143,-4.28618,45.11806,2.36007,0.88826,1.19469
475,-11.72644,0.0,-0.0,-4.9433,0.0,0.0,-5.31018,-8.03707,20.15225,2.60251,10.62148,-6.77313,0.92894,1.91809,-4e-05,-5.2381,-0.26998,-3e-05,15.48463,15.65086,12.73945,10.63485,-0.69238,-6.57285,3.92593,25.62074,21.17214,-19.29103,-18.92239,0.61583,128.67438,-0.00121,-93.47728,49.13647,0.00165,94.13406,-12.64919,-6.55059,-0.0008,-9.28323,3.51451,0.00243,15.71385,10.76536,44.51234,0.65243,-4.37135,45.36459,2.55329,0.72045,1.22427
476,-12.33787,-0.0,-0.0,-5.47037,0.0,0.0,-4.85861,-7.94151,20.21413,2.95041,10.47345,-6.80583,0.76868,1.78563,5e-05,-4.9691,-0.28935,0.00016,15.7083,15.61703,12.85334,10.69997,-0.74096,-6.69894,4.04502,26.1112,21.38034,-19.63731,-19.031,0.84913,129.19901,0.00441,-94.1769,49.79345,-0.00021,93.72196,-13.56476,-6.99016,0.00212,-9.63227,3.19947,7e-05,15.74549,10.58341,44.62297,0.70909,-4.57528,45.42251,2.75942,0.54596,1.35238
477,-12.07003,-0.0,0.0,-5.12164,0.0,-0.0,-4.70319,-7.74184,20.17192,3.08643,10.41209,-6.93465,0.57181,1.62255,-6e-05,-4.64192,-0.3133,0.00021,15.80858,15.62485,12.92501,10.59082,-0.76445,-6.66405,4.20238,26.47155,21.70273,-20.07199,-19.06501,0.7748,129.72867,0.00573,-95.07032,50.47768,-0.00101,93.57173,-14.28586,-7.64674,0.00371,-9.61415,2.99982,-0.00163,15.66473,10.30148,44.57484,0.60981,-4.83526,45.3032,2.8725,0.37858,1.48937
478,-11.10875,-0.0,-0.0,-4.23249,0.0,0.0,-4.86792,-7.61083,20.089,3.04125,10.40734,-7.11079,0.36149,1.4466,-0.00036,-4.26168,-0.37662,-9e-05,15.82555,15.71976,12.86384,10.31374,-0.70217,-6.58718,4.36606,26.86239,22.14505,-20.49447,-19.08195,0.63035,130.14748,0.00115,-95.47821,51.06614,-0.00193,93.67679,-14.53451,-8.04309,0.00496,-9.38142,2.89741,-0.00113,15.53627,10.05476,44.48726,0.45313,-5.05108,45.15528,2.86519,0.23044,1.55474
479,-10.38039,0.0,0.0,-3.56463,-0.0,0.0,-5.04578,-7.68,20.05849,2.95709,10.44084,-7.26222,0.10088,1.28291,-0.00056,-3.88411,-0.50894,-0.00036,15.89334,15.91565,12.66102,10.0262,-0.51422,-6.5805,4.49844,27.43524,22.76506,-20.81539,-19.13981,0.60775,130.41524,-0.00201,-94.95062,51.54379,-0.00255,94.02115,-13.89375,-7.77976,0.01413,-9.14326,2.90448,0.00101,15.45998,9.93093,44.53032,0.38509,-5.18168,45.16405,2.771,0.11898,1.56505
480,-10.31566,-0.0,0.0,-3.35851,0.0,0.0,-5.03372,-7.84292,20.0267,2.90722,10.45353,-7.32127,-0.24713,1.10393,-0.0002,-3.56831,-0.69087,-0.00031,16.05354,16.21049,12.44219,9.83035,-0.21893,-6.68379,4.57207,28.24227,23.49367,-21.05234,-19.24778,0.67291,130.58492,-0.00162,-93.87739,51.98691,-0.00127,94.37046,-12.55462,-7.07829,0.01656,-8.87216,3.07191,0.00357,15.51573,9.88879,44.72327,0.48984,-5.27173,45.33737,2.6271,0.05757,1.62895
481,-10.58939,-0.0,-0.0,-3.30532,0.0,0.0,-4.89529,-7.8705,19.82874,2.87277,10.40673,-7.26112,-0.70005,0.85599,0.00064,-3.33348,-0.87387,-8e-05,16.25919,16.5888,12.35722,9.70289,0.11522,-6.88108,4.58312,29.23251,24.10044,-21.26916,-19.40343,0.7746,130.71823,-0.00017,-92.9118,52.41285,0.00136,94.37699,-11.35404,-6.46024,0.00482,-8.55434,3.3214,0.00451,15.71702,9.84017,44.88974,0.73321,-5.36116,45.48384,2.46744,0.02899,1.82621
482,-10.71547,0.0,-0.0,-3.17452,0.0,0.0,-4.78583,-7.7233,19.40905,2.83527,10.36582,-7.15175,-1.25344,0.55267,0.00097,-3.1645,-1.00539,0.00011,16.47485,16.98218,12.42513,9.56915,0.38955,-7.10077,4.56688,30.28053,24.41676,-21.46542,-19.61917,1.00349,130.81682,0.00066,-92.20531,52.73813,0.00204,93.99295,-10.8272,-6.10909,-0.0032,-8.47236,3.38151,0.00426,16.01218,9.79083,44.89377,1.02822,-5.40985,45.47487,2.30464,-0.01341,2.09573
483,-10.36886,-0.0,-0.0,-2.98852,0.0,-0.0,-4.8163,-7.586,18.88328,2.78013,10.39711,-7.07515,-1.85186,0.26692,0.0003,-3.0468,-1.05504,0.00018,16.68518,17.31235,12.57428,9.38542,0.54465,-7.27584,4.56468,31.23973,24.54658,-21.58978,-19.89875,1.42126,130.86356,0.00056,-91.44344,52.9179,0.00012,93.67345,-10.63404,-5.84975,-0.00111,-8.88751,3.14083,0.00421,16.30965,9.83076,44.83954,1.31256,-5.35745,45.4334,2.11383,-0.07794,2.29144
484,-9.66676,-0.0,0.0,-2.85735,0.0,0.0,-4.952,-7.63762,18.48658,2.69893,10.48785,-7.06271,-2.40722,0.02788,-0.00041,-2.98211,-1.04001,0.0001,16.87939,17.58544,12.67943,9.18133,0.62142,-7.37809,4.58085,32.02479,24.73303,-21.62682,-20.22239,1.91467,130.88216,-6e-05,-90.45695,53.02546,-0.00218,93.98136,-10.25937,-5.58829,0.00321,-9.67,2.81877,0.00213,16.52024,9.9749,44.92607,1.54913,-5.24025,45.55352,1.88571,-0.09973,2.34289
485,-9.16753,0.0,0.0,-2.86621,0.0,-0.0,-5.02042,-7.8822,18.41107,2.62798,10.6202,-7.1328,-2.88371,-0.20809,-0.00029,-2.95838,-1.00591,0.0,17.0773,17.87944,12.57611,9.02086,0.71336,-7.39805,4.6044,32.64265,25.05324,-21.60145,-20.55931,2.31434,130.90874,-0.00016,-89.63979,53.1319,-0.00286,94.88485,-9.83131,-5.45406,0.00318,-10.47813,2.57192,-6e-05,16.61982,10.11269,45.17481,1.71688,-5.17025,45.82683,1.66023,-0.01141,2.31166
486,-9.11815,0.0,0.0,-2.98417,0.0,0.0,-4.91452,-8.17435,18.51405,2.60063,10.75812,-7.21329,-3.35365,-0.46813,0.00024,-2.93653,-0.99384,-4e-05,17.34803,18.26287,12.26199,8.94082,0.89658,-7.4289,4.64954,33.13011,25.37152,-21.53657,-20.89114,2.54699,130.94479,0.00084,-89.64982,53.20327,-0.00136,95.73229,-9.75215,-5.56026,0.00092,-11.03975,2.34336,-0.0005,16.67851,10.13948,45.41623,1.83949,-5.20535,46.06437,1.4955,0.20255,2.30807
487,-9.16682,-0.0,0.0,-3.12988,0.0,-0.0,-4.67593,-8.37257,18.40641,2.60526,10.77878,-7.1279,-3.93206,-0.70186,1e-05,-2.90461,-1.02132,-3e-05,17.77068,18.7319,11.97361,8.95747,1.19017,-7.65563,4.74867,33.51733,25.53831,-21.46591,-21.21574,2.64032,130.97108,0.0019,-90.58849,53.18204,-8e-05,96.04022,-9.97379,-5.86892,-0.00139,-11.19891,2.20979,0.00041,16.77514,10.03424,45.50464,1.95689,-5.32936,46.12182,1.44149,0.51165,2.39763
488,-9.11308,0.0,-0.0,-3.36962,0.0,0.0,-4.33826,-8.42305,17.96437,2.66232,10.59243,-6.88671,-4.65596,-0.8519,-0.00105,-2.9047,-1.06172,0.0,18.34453,19.19478,11.89875,9.06596,1.52021,-8.06267,4.91599,33.86584,25.52131,-21.42751,-21.52899,2.67104,130.97214,0.00215,-91.64875,53.09322,0.0001,95.84818,-10.22338,-6.20638,-0.00315,-10.99124,2.44326,0.00285,16.8854,9.82876,45.47071,2.05323,-5.51946,46.03656,1.50075,0.83485,2.56967
489,-9.15057,-0.0,-0.0,-3.82326,-0.0,-0.0,-3.86675,-8.32729,17.49206,2.84695,10.27778,-6.81629,-5.47115,-0.95572,-0.00148,-2.96464,-1.05169,-5e-05,18.94008,19.54839,11.96281,9.18063,1.75938,-8.33415,5.12977,34.26597,25.36704,-21.40189,-21.83142,2.73429,130.95137,0.00183,-92.04497,53.01532,4e-05,95.37336,-10.65539,-6.43977,-0.00046,-10.6929,3.08951,0.00301,16.92365,9.60286,45.47077,2.0858,-5.73784,45.9785,1.57276,1.06408,2.76427
490,-9.10454,0.0,-0.0,-4.31646,-0.0,-0.0,-3.32172,-8.13353,17.30595,3.15005,9.956,-7.15319,-6.31963,-1.11977,-0.00061,-3.04603,-0.95069,-9e-05,19.37849,19.77302,11.9882,9.14363,1.83998,-8.27263,5.35838,34.77465,25.13313,-21.31964,-22.14767,2.91725,130.94321,0.00133,-92.00765,52.99549,-0.00013,94.92209,-11.69492,-6.75924,0.00971,-10.62873,3.81234,-5e-05,16.88485,9.44876,45.60919,2.07936,-5.92173,46.07153,1.48962,1.14231,2.91346
491,-8.46112,0.0,0.0,-4.56674,0.0,0.0,-2.86214,-7.91638,17.39779,3.44652,9.60954,-7.71502,-7.20032,-1.40272,0.00068,-3.09405,-0.79853,-2e-05,19.64081,19.92665,11.88632,8.89878,1.81004,-8.1138,5.59021,35.37178,24.89677,-21.13472,-22.51423,3.25979,130.963,0.00113,-92.16614,53.01076,-0.00078,94.77993,-13.23439,-7.38813,0.01646,-10.90094,4.23263,-0.00093,16.86831,9.37363,45.82975,2.11893,-6.04987,46.2638,1.19667,1.10901,2.9648
492,-7.41091,0.0,-0.0,-4.76432,0.0,-0.0,-2.49381,-7.68619,17.56331,3.66962,9.17227,-8.19615,-8.15009,-1.78063,0.00149,-3.10389,-0.69681,5e-05,19.95754,20.07626,11.6534,8.61824,1.78363,-8.18653,5.81948,35.95937,24.76604,-20.83546,-22.9539,3.70595,130.95007,0.00132,-92.57629,52.96857,-0.00198,94.74606,-14.44588,-8.04603,0.0104,-11.25694,4.1225,-7e-05,16.9617,9.31013,45.98562,2.2518,-6.1504,46.39716,0.86334,1.05917,2.924
493,-6.66515,-0.0,0.0,-5.24517,0.0,0.0,-2.08478,-7.36321,17.56242,3.84026,8.70341,-8.4943,-9.17415,-2.19458,0.00104,-3.11199,-0.72421,0.00011,20.54325,20.2677,11.42236,8.51926,1.8483,-8.52161,6.02285,36.43193,24.81693,-20.41355,-23.457,4.14554,130.80876,0.00204,-92.92599,52.77253,-0.00353,94.41007,-14.63095,-8.12044,0.01083,-11.28281,3.44045,-0.00354,17.16381,9.22513,45.97579,2.44896,-6.23014,46.366,0.69391,1.06681,2.86342
494,-6.16939,0.0,-0.0,-5.61056,0.0,0.0,-1.6462,-6.89709,17.14357,3.89482,8.33,-8.58228,-10.22371,-2.58322,-0.00049,-3.13529,-0.87201,0.00013,21.30794,20.53962,11.47992,8.58572,2.01862,-8.98901,6.17928,36.79381,25.0043,-19.8757,-23.96567,4.56178,130.51501,0.00165,-93.16848,52.43247,-0.003,93.90414,-14.07848,-7.42764,0.01803,-10.87459,2.49623,-0.00645,17.42829,9.14047,45.80495,2.66596,-6.26911,46.18026,0.67395,1.1478,2.83494
495,-5.25876,0.0,-0.0,-5.12835,-0.0,0.0,-1.28465,-6.36058,16.3271,3.72262,8.11191,-8.47718,-11.26285,-2.9364,-0.00091,-3.13263,-1.05148,5e-05,21.98188,20.92277,11.91466,8.60187,2.25513,-9.46342,6.3122,37.16565,25.17622,-19.25598,-24.39804,5.05002,130.16727,-0.00138,-93.65047,52.06948,-0.00025,93.76032,-13.67349,-6.68468,0.01369,-10.42482,1.85095,-0.00312,17.72989,9.06509,45.54801,2.89783,-6.2772,45.91412,0.62175,1.27766,2.8395
496,-3.95701,0.0,0.0,-3.9724,0.0,0.0,-0.95448,-5.86034,15.58432,3.39418,8.05127,-8.41506,-12.3061,-3.32056,0.00086,-3.04492,-1.15964,0.0001,22.4487,21.38852,12.37064,8.41919,2.4905,-9.77279,6.48034,37.6362,25.23037,-18.58971,-24.72271,5.66216,129.87971,-0.00348,-94.42213,51.79636,0.0009,94.27457,-13.5918,-6.69016,0.00463,-10.45845,1.82854,-0.00164,18.06229,8.97107,45.26425,3.15325,-6.29614,45.61734,0.42498,1.41673,2.89729
497,-2.98895,0.0,-0.0,-3.14622,0.0,-0.0,-0.54645,-5.40349,15.38162,3.14645,8.15445,-8.6494,-13.3538,-3.77209,0.00234,-2.88718,-1.16043,0.00027,22.8322,21.8184,12.41897,8.09489,2.65079,-9.83927,6.71989,38.16038,25.19708,-17.8956,-24.98441,6.33767,129.62878,-0.00115,-94.73956,51.62524,-0.00054,95.29353,-13.00887,-7.13785,0.00246,-11.16542,2.20834,-0.00255,18.40531,8.83418,44.96642,3.41476,-6.35249,45.2958,0.13539,1.51477,3.04146
498,-2.75096,0.0,0.0,-3.3117,-0.0,0.0,-0.08437,-4.93118,15.74805,3.15643,8.40285,-9.1282,-14.35725,-4.22503,0.00152,-2.77373,-1.10707,0.00023,23.33017,22.09005,11.99986,7.82691,2.70346,-9.81641,7.02734,38.63074,25.13672,-17.17622,-25.24078,6.98127,129.26894,0.00554,-93.98556,51.47441,-0.00186,96.47945,-11.31819,-7.10096,0.01984,-12.21514,2.564,0.00039,18.7257,8.66872,44.6899,3.65868,-6.44143,44.98701,-0.09691,1.53598,3.24966
499,-2.9323,-0.0,0.0,-4.14585,0.0,-0.0,0.33218,-4.45168,16.33287,3.39403,8.64491,-9.59098,-15.28987,-4.57696,-0.00094,-2.80237,-1.06334,4e-05,24.01081,22.18903,11.46241,7.74931,2.67578,-9.90899,7.38602,39.00278,25.0572,-16.42288,-25.50687,7.53471,128.6797,0.01071,-92.56226,51.24256,-0.00109,97.70409,-9.0577,-6.32581,0.03109,-12.96805,2.77119,0.00414,19.00345,8.52521,44.50743,3.88509,-6.533,44.77409,-0.17233,1.4903,3.45715
500,-2.95618,-0.0,-0.0,-4.72931,0.0,0.0,0.65949,-4.04791,16.68996,3.66176,8.61781,-9.87656,-16.18126,-4.78022,-0.00304,-2.92335,-1.02491,-5e-05,24.74022,22.20424,11.29384,7.77327,2.60669,-10.15923,7.75384,39.3321,24.94731,-15.62228,-25.74999,8.01106,127.87176,0.00842,-91.33141,50.88031,0.00105,99.02402,-7.4674,-5.39711,0.01522,-13.01293,2.87791,0.00451,19.23531,8.46024,44.42425,4.0936,-6.57425,44.67707,-0.14911,1.40999,3.62477
501,-2.74085,0.0,0.0,-4.75314,0.0,0.0,0.96519,-3.79221,16.77082,3.86535,8.20612,-10.11212,-17.05992,-4.92533,-0.00244,-2.98725,-0.95064,0.00012,25.38521,22.24893,11.60418,7.75412,2.52601,-10.39174,8.04351,39.70061,24.80179,-14.74536,-25.91525,8.52226,126.9659,0.00175,-90.77619,50.38795,0.00237,100.32583,-7.41924,-4.99774,0.004,-12.53302,2.71886,0.00082,19.41108,8.48558,44.33244,4.24653,-6.52606,44.59552,-0.10298,1.31506,3.76713
502,-2.77058,0.0,-0.0,-4.8313,-0.0,0.0,1.33166,-3.68942,17.04366,4.11165,7.6239,-10.52788,-17.92751,-5.1952,0.00061,-2.89562,-0.84026,0.00042,25.96291,22.39258,12.00889,7.66278,2.46787,-10.40969,8.20684,40.10402,24.59408,-13.75303,-25.97503,9.23317,126.05148,-0.00476,-90.92057,49.79424,0.00247,101.36631,-8.70728,-5.26446,0.00814,-12.09647,2.14261,-0.0009,19.51398,8.53736,44.08303,4.28708,-6.41144,44.36962,-0.01996,1.21896,3.9294
503,-3.12474,0.0,0.0,-5.12182,0.0,0.0,1.65138,-3.66809,17.79433,4.37879,7.24027,-11.06991,-18.78071,-5.64925,0.00275,-2.64765,-0.75717,0.00029,26.43287,22.64092,12.24955,7.41124,2.47204,-10.29814,8.3364,40.4314,24.26591,-12.65534,-25.96025,10.2177,125.08865,-0.0112,-91.58398,49.18099,0.00192,102.06624,-10.25132,-5.77279,0.00482,-12.14256,1.47329,-0.00017,19.55025,8.51732,43.58104,4.19497,-6.29984,43.88247,0.01064,1.14833,4.16052
504,-3.20755,0.0,-0.0,-4.93931,-0.0,-0.0,1.66861,-3.65568,18.74514,4.43209,7.2738,-11.47103,-19.60375,-6.15472,0.00215,-2.31053,-0.78534,-0.00035,26.65293,22.96062,12.49609,6.85661,2.57559,-10.32546,8.57125,40.57551,23.7778,-11.53719,-25.93282,11.36583,123.97528,-0.01467,-92.42936,48.65773,-1e-05,102.37251,-11.095,-5.94621,-0.00349,-12.634,1.22181,-0.00317,19.55337,8.37551,42.87445,4.01607,-6.25038,43.16673,-0.1878,1.13778,4.49461
505,-2.71657,-0.0,0.0,-4.11652,0.0,0.0,1.27124,-3.62472,19.57424,4.21059,7.65787,-11.64276,-20.35643,-6.56828,0.00058,-1.99168,-0.94053,-0.00063,26.67691,23.29992,12.91347,6.11288,2.7727,-10.56607,8.90691,40.54604,23.16899,-10.47698,-25.93673,12.49975,122.65395,-0.00934,-93.0149,48.27033,-0.00296,102.03199,-11.1417,-5.43231,-0.0036,-13.13694,1.36001,-0.00511,19.57477,8.1533,42.14994,3.85101,-6.27118,42.41189,-0.55879,1.19266,4.9189
506,-2.0326,-0.0,0.0,-3.38034,0.0,-0.0,0.59868,-3.54812,20.25167,3.96153,8.09098,-11.73722,-21.01251,-6.85018,-0.00021,-1.76092,-1.11747,-0.0002,26.7546,23.59215,13.41968,5.47228,2.98047,-10.86939,9.21521,40.47009,22.5368,-9.45485,-25.97757,13.59216,121.13818,0.00892,-93.00727,47.99991,-0.00408,100.95083,-10.73814,-4.37854,0.0027,-13.34887,1.37586,-0.00365,19.68627,7.95101,41.56684,3.81352,-6.30865,41.79758,-0.85982,1.27529,5.35696
507,-1.56464,-0.0,0.0,-3.23914,-0.0,0.0,-0.12439,-3.40046,20.76604,3.90233,8.27388,-11.86338,-21.60082,-6.9925,-0.00064,-1.57761,-1.18711,0.00034,27.03085,23.76942,13.93094,5.03429,3.09851,-11.17695,9.39604,40.47613,21.97024,-8.39011,-26.01594,14.7634,119.484,0.03377,-92.28094,47.8746,-0.00197,99.68434,-9.86843,-3.27695,0.00978,-13.44579,1.08447,-0.00164,19.93101,7.85707,41.12365,3.94792,-6.27851,41.34696,-0.99172,1.33452,5.71422
508,-1.34549,0.0,-0.0,-3.35376,0.0,-0.0,-0.7384,-3.19756,21.02446,3.96646,8.20778,-11.90172,-22.17769,-6.97089,-0.00151,-1.34391,-1.14677,0.00046,27.4768,23.79181,14.52282,4.69667,3.09783,-11.65446,9.3985,40.55874,21.5114,-7.24957,-25.97073,16.04945,117.72607,0.0351,-91.25143,47.97283,-0.00115,99.07396,-8.35245,-2.51013,0.00785,-13.68014,0.89126,-0.00081,20.24355,7.89479,40.75171,4.1721,-6.14054,41.00123,-1.00881,1.32076,5.95153
509,-1.26786,0.0,-0.0,-3.1287,-0.0,0.0,-1.16582,-2.98019,21.1329,3.96579,8.13143,-11.72664,-22.76034,-6.81636,-0.00205,-1.01122,-1.09797,8e-05,27.99997,23.68707,15.24354,4.35126,3.03296,-12.41781,9.1977,40.58478,21.13313,-6.05773,-25.76303,17.30631,115.76965,-0.00508,-90.944,48.2429,-0.00253,99.42216,-6.61712,-2.15095,-0.00175,-13.92173,1.18859,0.00061,20.48462,7.99584,40.46688,4.34804,-5.9652,40.75687,-0.95257,1.20751,6.10337
510,-1.31443,-0.0,0.0,-2.62016,0.0,0.0,-1.40043,-2.74484,21.45795,3.90308,8.12601,-11.53673,-23.3086,-6.68584,-0.00108,-0.61401,-1.09946,-0.00031,28.49726,23.56382,15.87571,3.93069,3.00381,-13.26589,8.82173,40.45737,20.7896,-4.82709,-25.36087,18.35323,113.36561,-0.05164,-91.82912,48.45834,-0.00147,100.27293,-5.59863,-1.94423,-0.00746,-13.90509,1.8592,0.00393,20.569,8.02567,40.31554,4.39724,-5.89485,40.62049,-0.83816,1.04712,6.23645
511,-1.46165,0.0,-0.0,-2.51429,0.0,-0.0,-1.51608,-2.45361,22.27834,3.98734,8.00998,-11.68342,-23.7705,-6.76876,0.0005,-0.23897,-1.11749,-0.00028,28.89678,23.5372,16.08549,3.4194,3.08107,-13.87459,8.30151,40.22879,20.52495,-3.524,-24.79162,19.15347,110.33834,-0.05467,-93.1264,48.46645,-0.00033,100.73351,-5.85295,-1.64316,-0.00814,-13.62807,2.37934,0.00394,20.52099,7.89904,40.23599,4.32666,-5.99451,40.50895,-0.6905,0.95049,6.39747
512,-1.55495,-0.0,0.0,-3.13474,0.0,0.0,-1.63841,-2.14566,23.48107,4.31383,7.67105,-12.17488,-24.13583,-7.08942,0.00111,0.03335,-1.09657,-8e-05,29.17876,23.64061,15.84109,2.85819,3.24591,-14.16795,7.63202,40.00927,20.41926,-2.08778,-24.14734,19.88549,106.8604,-0.01231,-93.78128,48.38689,0.00013,100.22062,-6.92183,-1.45163,-0.00343,-13.23648,2.34901,0.00088,20.44476,7.6702,40.08891,4.20877,-6.17356,40.30396,-0.56123,0.98882,6.59778
513,-1.46513,-0.0,-0.0,-3.96343,0.0,0.0,-1.85737,-1.949,24.63926,4.702,7.3098,-12.64069,-24.45805,-7.48835,0.00087,0.18952,-1.02048,1e-05,29.34316,23.85523,15.48661,2.27498,3.43547,-14.31667,6.8826,39.80677,20.38894,-0.51411,-23.52471,20.76121,103.36933,0.03434,-93.39098,48.50276,0.00126,99.22026,-7.63131,-1.73704,-0.00432,-12.78102,1.92408,-0.00052,20.47135,7.44434,39.77874,4.15539,-6.30419,39.94337,-0.52903,1.15374,6.86341
514,-1.28084,-0.0,0.0,-4.32479,0.0,-0.0,-2.16243,-1.98715,25.34833,4.92882,7.19147,-12.79479,-24.82432,-7.79856,0.00028,0.29212,-0.89897,0.0001,29.42676,24.14803,15.39141,1.67051,3.59813,-14.47556,6.24288,39.51993,20.17855,1.05349,-22.90801,21.70222,100.15123,0.05484,-92.29305,49.00824,-0.00321,98.75586,-7.25099,-2.45745,-0.01239,-12.28035,1.48708,-0.00047,20.6549,7.23863,39.31215,4.22355,-6.3711,39.43829,-0.59795,1.36213,7.27
515,-1.18055,-0.0,-0.0,-4.0234,0.0,0.0,-2.47734,-2.31076,25.4639,4.95119,7.26532,-12.68809,-25.30222,-7.93533,-0.00101,0.41501,-0.75107,0.00022,29.55459,24.44013,15.71939,1.09428,3.69642,-14.69262,5.83996,39.06849,19.65719,2.40875,-22.18332,22.38934,97.0407,0.05857,-91.27216,49.89563,-0.00878,99.11342,-6.07117,-3.1265,-0.00717,-11.79171,1.12976,-0.00149,20.88821,7.01246,38.80277,4.33205,-6.44446,38.88598,-0.61411,1.49072,7.86788
516,-1.22208,0.0,-0.0,-3.29766,0.0,-0.0,-2.74063,-2.82367,25.14555,4.90106,7.31459,-12.60718,-25.91454,-7.90233,-0.00219,0.57343,-0.62509,0.00014,29.86808,24.64946,16.40665,0.62581,3.73764,-14.9391,5.57909,38.4745,19.01876,3.52124,-21.29323,22.74255,93.57259,0.05753,-90.96774,51.06689,-0.00463,99.70502,-4.70831,-3.21397,0.00919,-11.35148,0.88376,-0.00178,21.00462,6.78746,38.40126,4.3494,-6.54617,38.43682,-0.40728,1.49024,8.57837
517,-1.36258,0.0,-0.0,-2.6142,0.0,0.0,-2.9311,-3.26294,24.83066,4.9817,7.34625,-12.89017,-26.62117,-7.83257,-0.00131,0.73098,-0.55771,-3e-05,30.36072,24.76248,17.11641,0.24196,3.76809,-15.10958,5.23449,37.8364,18.48855,4.59755,-20.31375,23.13034,89.45154,0.01479,-91.72468,52.44851,0.00307,99.99026,-3.74056,-2.69679,0.0151,-10.97011,1.0082,0.00033,20.96918,6.65476,38.16935,4.25699,-6.60716,38.17639,0.01141,1.44033,9.22164
518,-1.51962,0.0,0.0,-2.30041,-0.0,0.0,-3.04564,-3.36573,24.94852,5.28737,7.4853,-13.61343,-27.32453,-7.89005,0.00105,0.8578,-0.50512,-8e-05,30.85117,24.80312,17.45532,-0.20987,3.80972,-15.17243,4.62207,37.28312,17.93524,5.83315,-19.34237,23.92945,84.85217,-0.09702,-93.99078,53.90998,0.00235,100.02657,-3.91206,-2.24311,0.01624,-10.58927,1.56135,0.00206,20.87293,6.66969,38.0276,4.12925,-6.55234,38.04499,0.48563,1.44986,9.67341
519,-1.55785,0.0,-0.0,-2.22676,0.0,0.0,-3.06142,-3.15251,25.51818,5.71912,7.66096,-14.47319,-27.96371,-8.0811,0.00259,0.93824,-0.40242,-0.00013,31.16896,24.79541,17.37907,-0.8688,3.86672,-15.27177,3.68967,36.9275,17.05693,7.18052,-18.33697,25.00837,80.22158,-0.18303,-97.76565,55.18566,-0.00173,100.03363,-5.50762,-2.48295,0.02739,-10.09726,2.00819,-0.00055,20.7541,6.77785,37.78632,3.95969,-6.37964,37.84549,0.88943,1.55201,9.96307
520,-1.33645,0.0,-0.0,-2.06896,0.0,-0.0,-2.90346,-2.94996,26.16697,6.14821,7.73395,-15.14807,-28.61707,-8.25692,0.00222,0.93587,-0.28874,-0.00015,31.34761,24.78191,17.20754,-1.70962,3.98262,-15.51956,2.56986,36.72785,15.9224,8.44213,-17.16536,25.87561,75.84103,-0.13032,-101.55266,56.05622,-0.00036,99.86217,-7.66953,-3.1811,0.022,-9.56647,1.65735,-0.00276,20.554,6.86555,37.2184,3.63576,-6.13219,37.32816,1.22124,1.70416,10.21525
521,-0.83214,0.0,-0.0,-1.69886,0.0,-0.0,-2.49498,-2.97534,26.49341,6.5494,7.78482,-15.58235,-29.44967,-8.25599,-0.00045,0.81666,-0.29765,0.0003,31.57528,24.82283,17.27761,-2.56692,4.23995,-15.85351,1.54077,36.35751,15.1141,9.53577,-15.83419,26.29731,71.62086,0.01727,-103.27412,56.6127,0.00339,99.34396,-9.01104,-3.53044,0.006,-9.28395,0.45537,0.00534,20.26394,6.87259,36.20406,3.12371,-5.83053,36.36207,1.56706,1.85711,10.54441
522,-0.2266,0.0,0.0,-1.19945,-0.0,0.0,-1.85952,-3.06212,26.35443,6.93183,7.99092,-15.87563,-30.51872,-8.01563,-0.00373,0.5939,-0.48581,0.00089,31.95377,24.93129,17.64226,-3.31784,4.66961,-16.17659,0.79503,35.41845,15.21342,10.56244,-14.5444,26.50886,67.32175,0.13703,-102.28116,57.22148,0.00247,98.80894,-8.76644,-3.08198,0.01392,-9.40918,-0.78992,0.01327,19.99012,6.81814,34.84962,2.55966,-5.48292,35.05547,1.99014,1.99812,10.98806
523,0.19838,0.0,-0.0,-0.72015,-0.0,-0.0,-1.13755,-2.91752,25.89029,7.29056,8.28806,-16.1161,-31.68281,-7.62,-0.00362,0.28076,-0.71874,0.00056,32.42246,25.02192,18.05517,-3.9444,5.16258,-16.49564,0.19478,33.92457,16.13226,11.64118,-13.45452,26.83319,62.97536,0.16309,-99.52717,58.17181,-0.00747,98.7627,-7.3163,-2.17035,0.02377,-9.89104,-1.04263,0.00419,19.83065,6.72896,33.41776,2.10279,-5.13848,33.66712,2.50172,2.12764,11.49018
524,0.28762,0.0,0.0,-0.36418,-0.0,0.0,-0.47667,-2.4439,25.32386,7.65167,8.39923,-16.35452,-32.76302,-7.23253,-0.00042,-0.16874,-0.80004,-0.00066,32.90183,24.98628,18.23678,-4.43934,5.53654,-16.88455,-0.66785,32.36707,17.1655,12.78194,-12.49858,27.34266,58.95946,0.09731,-96.52025,59.42234,-0.0175,99.26884,-5.77531,-1.64793,0.01203,-10.75127,-0.00017,-0.01619,19.77313,6.61256,32.11911,1.78395,-4.8537,32.3989,3.10928,2.231,11.95433
525,0.10448,0.0,0.0,-0.09916,0.0,0.0,0.10778,-1.75332,24.73273,8.04361,8.19922,-16.6177,-33.72682,-6.9285,0.00106,-0.8043,-0.6825,-0.00079,33.35837,24.7998,18.12456,-4.8033,5.70312,-17.40143,-2.03958,31.17746,17.77148,13.93413,-11.55261,27.91766,55.60283,-0.0048,-94.7431,60.73732,-0.01291,99.84628,-4.97086,-2.16809,0.00352,-11.93022,1.64005,-0.02121,19.7352,6.51126,30.93622,1.51602,-4.58481,31.24656,3.79868,2.28371,12.3351
526,-0.15069,0.0,0.0,0.19873,0.0,0.0,0.76265,-1.04912,24.02957,8.42526,7.88016,-16.88866,-34.64423,-6.63666,-0.00097,-1.61879,-0.47583,0.00206,33.74361,24.50393,17.822,-5.10141,5.71292,-18.06032,-3.70797,30.33466,17.96623,15.08639,-10.67856,28.42701,52.90486,-0.06897,-95.0405,61.98232,0.00723,99.80055,-4.82434,-3.53522,0.00446,-12.8268,2.94976,-0.00473,19.64804,6.49782,29.63248,1.18651,-4.18995,30.00915,4.50185,2.27794,12.68398
527,-0.27632,0.0,0.0,0.57464,0.0,0.0,1.67062,-0.56029,23.23173,8.75995,7.73254,-17.18039,-35.50739,-6.31428,-0.00276,-2.6202,-0.25751,0.00572,33.93581,24.10819,17.32425,-5.43294,5.61608,-18.74978,-5.27134,29.53408,17.98295,16.2104,-10.04743,28.74694,50.71472,-0.06783,-97.03455,63.19298,0.02479,98.83958,-4.76748,-4.90637,0.00222,-12.76215,3.53266,0.00464,19.49368,6.56508,28.00232,0.74353,-3.60944,28.49217,5.12837,2.23514,13.09911
528,-0.18411,0.0,0.0,0.91091,0.0,-0.0,2.86408,-0.45652,22.65184,9.14194,7.87375,-17.62157,-36.15556,-6.08622,-0.00158,-3.93457,0.0495,0.0049,33.76065,23.55689,16.43512,-5.85032,5.34503,-19.22867,-6.56096,28.53723,18.0067,17.13404,-9.69084,28.72858,48.94722,-0.03229,-99.60675,64.44496,0.01588,97.65759,-4.5078,-5.68619,5e-05,-11.96103,3.52295,0.00072,19.28747,6.59592,26.08386,0.2145,-2.96252,26.69628,5.62489,2.17847,13.62024
529,0.0506,-0.0,0.0,1.06274,0.0,0.0,4.19012,-0.70269,22.54636,9.69058,8.2372,-18.30243,-36.4308,-6.05676,-7e-05,-5.74666,0.57794,-0.0022,33.13715,22.82725,15.101,-6.32088,4.82226,-19.39325,-7.72627,27.32264,18.19893,17.64967,-9.49863,28.28156,47.60342,-0.0009,-101.84392,65.76314,-0.01378,97.42338,-4.18149,-5.97136,-0.00041,-11.27923,3.23345,-0.00161,19.04253,6.49914,24.03785,-0.35488,-2.38417,24.74309,6.00969,2.1218,14.17726
530,0.25022,0.0,-0.0,1.18992,0.0,-0.0,5.43973,-1.00927,22.72419,10.27238,8.74498,-19.12506,-36.38121,-6.1441,0.00022,-8.11912,1.34726,-0.00898,32.2211,22.02614,13.60784,-6.74491,4.12491,-19.38575,-9.03383,26.03647,18.58766,17.7678,-9.44255,27.47656,46.77285,0.01328,-103.11282,67.05687,-0.02622,98.34035,-3.95858,-6.17279,-0.0005,-11.05492,2.85211,-0.00101,18.75812,6.30232,21.93325,-0.94959,-1.86961,22.70495,6.36042,2.09469,14.66703
531,0.3025,0.0,0.0,1.9148,0.0,0.0,6.41477,-0.9852,22.7919,10.41154,9.40096,-19.82002,-36.21881,-6.24877,0.0001,-10.95256,2.22007,-0.00666,31.34503,21.3237,12.25403,-6.96192,3.43014,-19.40169,-10.60337,24.86347,18.95633,17.72589,-9.62476,26.48787,46.55259,0.00677,-102.95345,68.07408,-0.00921,99.47973,-3.85914,-6.52354,0.0011,-10.92998,2.42799,-0.00135,18.41403,6.09868,19.76125,-1.58692,-1.3277,20.60406,6.78599,2.12817,15.0684
532,0.32661,0.0,-0.0,3.92857,0.0,0.0,6.96739,-0.46974,22.58137,9.5032,10.22065,-19.97413,-36.10197,-6.37166,2e-05,-14.13825,3.01646,0.00194,30.74082,20.81019,11.06958,-6.81821,2.82752,-19.58147,-12.28834,23.91489,19.04789,17.77708,-10.09071,25.45592,46.886,-0.00928,-101.62354,68.49979,0.00972,100.05132,-3.87799,-7.03259,0.00385,-10.58584,2.09192,-0.00139,17.97598,5.98173,17.53248,-2.2966,-0.67439,18.48258,7.34407,2.21498,15.43911
533,0.60591,0.0,0.0,7.37241,0.0,-0.0,7.1497,0.24988,22.18218,7.11235,11.1456,-19.25013,-36.03101,-6.49923,0.0001,-17.64516,3.69476,0.00282,30.32981,20.44067,9.93887,-6.31643,2.23347,-19.89075,-13.82127,23.17198,18.83978,18.04374,-10.76088,24.46219,47.59381,-0.01276,-100.15199,68.13454,0.01075,99.91428,-3.89214,-7.69763,0.00262,-10.10984,2.0149,-0.00056,17.43782,5.99574,15.25596,-3.0824,0.1279,16.3653,7.95045,2.33363,15.82234
534,1.16632,-0.0,-0.0,11.49064,0.0,-0.0,7.26908,0.70072,21.67532,3.16985,12.06673,-17.60292,-35.94429,-6.51109,0.00045,-21.4394,4.36409,-0.00835,29.88567,20.1021,8.84392,-5.58472,1.49198,-20.0589,-15.06394,22.5223,18.52389,18.46642,-11.55927,23.50979,48.57409,0.0002,-99.50933,66.99629,-0.00352,99.15199,-3.52029,-8.49402,-0.00504,-9.73944,2.19567,-0.00069,16.84604,6.07636,12.88497,-3.90143,1.03433,14.18703,8.47568,2.50975,16.2059
535,1.54142,0.0,0.0,14.57026,0.0,-0.0,7.64887,0.67919,20.98136,-1.94172,12.83004,-15.088,-35.85355,-6.24673,0.00052,-25.44748,5.06478,-0.01607,29.32866,19.71325,7.92136,-4.68944,0.53443,-19.84578,-16.0838,21.89649,18.27661,18.82471,-12.49901,22.43495,49.81928,0.01388,-99.8942,65.28702,-0.01785,97.91348,-2.48462,-9.22469,-0.00941,-9.49693,2.53894,0.00021,16.25819,6.07244,10.38031,-4.69436,1.91724,11.85738,8.89924,2.79233,16.55885
536,1.29083,0.0,0.0,14.5182,0.0,-0.0,8.32322,0.31176,20.01583,-7.56177,13.13169,-11.60959,-35.84008,-5.66453,-0.00055,-29.65734,5.63901,-0.00451,28.72841,19.2378,7.27763,-3.60678,-0.61954,-19.32775,-17.0294,21.33765,18.14651,18.87684,-13.6522,21.01185,51.22715,0.01516,-100.79975,63.25984,-0.01774,96.57308,-1.01392,-9.63035,-0.00362,-9.12027,3.05628,0.00477,15.68325,5.84316,7.85068,-5.4359,2.6065,9.42492,9.26822,3.16077,16.8503
537,0.60011,0.0,0.0,10.28076,0.0,-0.0,9.0532,-0.19586,18.878,-13.31372,12.55723,-7.04267,-35.93899,-4.94061,-0.0016,-34.16309,5.90021,0.01954,28.1337,18.66529,6.77545,-2.33475,-1.95496,-18.83227,-17.99021,20.90664,18.12201,18.50857,-15.07435,19.23391,52.6015,0.00995,-101.70238,61.09316,-0.01032,95.59138,0.44598,-9.61722,0.00441,-8.4435,3.71107,0.00774,15.07994,5.32037,5.51547,-6.15185,2.95867,7.06611,9.58568,3.53931,17.0213
538,0.02935,0.0,0.0,2.59678,0.0,-0.0,9.63349,-0.67129,17.80507,-19.39452,10.86238,-1.6332,-36.07226,-4.38535,-0.0012,-39.05221,5.89774,0.02829,27.5221,18.06662,6.06743,-0.92412,-3.43003,-18.53012,-18.90993,20.62129,18.13695,17.73977,-16.73115,17.34635,53.84569,0.00494,-102.35255,58.86401,-0.012,95.12399,1.71775,-9.2928,0.00742,-7.84298,4.20421,0.00459,14.41973,4.55209,3.4405,-6.87598,2.9925,4.85799,9.81851,3.92156,16.99423
539,-0.13161,0.0,-0.0,-6.91367,-0.0,0.0,10.06326,-0.94008,16.91174,-26.00768,8.20892,3.84096,-36.10064,-4.17291,-0.00056,-44.29647,5.92219,0.0058,26.85823,17.585,4.95333,0.58334,-4.91574,-18.17021,-19.58488,20.52224,17.9939,16.63031,-18.47955,15.55288,54.99458,-0.00266,-102.48882,56.59407,-0.01264,95.13046,2.81256,-8.90878,0.00467,-8.059,4.29251,0.00408,13.7319,3.72716,1.43025,-7.59637,2.95278,2.68737,9.97266,4.37193,16.74129
540,0.07073,0.0,0.0,-16.69867,0.0,0.0,10.40312,-0.89025,16.06656,-32.71582,5.18986,8.4889,-35.91853,-4.18793,-0.00047,-49.77835,6.19416,-0.02719,26.10285,17.28465,3.61003,2.15823,-6.28062,-17.36055,-19.83172,20.67694,17.45614,15.23902,-20.1261,13.79891,56.12664,-0.01081,-101.94421,54.24485,0.01416,95.77577,3.57082,-8.73161,0.00023,-9.41766,4.14287,0.00537,13.07619,3.07208,-0.71655,-8.26081,3.12227,0.44974,10.07409,4.88261,16.31121
541,0.66551,0.0,0.0,-25.25307,-0.0,-0.0,10.60314,-0.60458,15.09694,-38.6083,2.5674,11.77099,-35.52552,-4.18558,0.00015,-55.39937,6.60365,-0.03625,25.21535,17.10663,2.36828,3.77186,-7.4782,-16.02196,-19.65764,21.08242,16.44829,13.67881,-21.52591,11.87608,57.33144,-0.01266,-101.00971,51.68018,0.06388,97.25555,3.66704,-8.76824,-0.00209,-11.32872,4.13977,0.00044,12.4942,2.69119,-2.93399,-8.82551,3.57306,-1.75549,10.09727,5.35994,15.76213
542,1.82618,-0.0,-0.0,-31.43731,0.0,-0.0,10.55862,-0.33069,13.98183,-42.96036,0.84425,13.41587,-35.06812,-3.9968,0.00076,-61.15041,6.82078,-0.01531,24.28768,17.01084,1.41637,5.50614,-8.52495,-14.46623,-19.20139,21.62729,15.12501,12.12634,-22.65693,9.63013,58.69504,-0.00739,-100.21763,48.73986,0.07388,99.11753,3.07362,-8.71672,-0.00506,-12.63421,4.42285,-0.00276,11.998,2.54981,-4.9561,-9.28323,4.17519,-3.69326,10.02624,5.78065,15.09739
543,3.41508,0.0,-0.0,-35.27232,-0.0,-0.0,10.29746,-0.29052,12.83125,-45.66827,0.12651,13.18273,-34.74752,-3.61713,-0.00028,-67.04922,6.63305,0.01131,23.52857,17.04467,0.70202,7.53082,-9.4901,-13.07306,-18.54548,22.16307,13.78762,10.71852,-23.60127,7.03124,60.269,0.00166,-99.84291,45.37408,-0.00989,100.09588,2.36529,-8.33462,-0.0055,-12.45394,4.66646,-0.00666,11.59251,2.58577,-6.60142,-9.64317,4.80469,-5.21672,9.89361,6.22782,14.27144
544,4.82547,0.0,0.0,-37.71098,-0.0,-0.0,10.00606,-0.55542,11.70026,-47.19828,0.25111,11.05368,-34.57805,-3.13489,-0.00104,-73.01344,6.0617,0.02556,22.93214,17.22027,0.12079,9.84927,-10.53957,-11.9949,-17.64454,22.6227,12.66103,9.46631,-24.45436,4.18348,62.02456,0.01492,-99.855,41.68444,-0.11402,99.34698,2.25586,-7.6991,3e-05,-10.77684,4.53036,-0.01576,11.28247,2.75953,-7.89142,-9.91138,5.43298,-6.35967,9.65334,6.72753,13.22304
545,5.56938,-0.0,-0.0,-39.39408,0.0,0.0,9.82837,-1.02679,10.46612,-48.11917,0.80036,7.56791,-34.31466,-2.5869,0.00101,-78.88186,5.24017,0.02298,22.18835,17.40622,-0.23361,12.28468,-11.89629,-11.1017,-16.4362,23.09554,11.62962,8.2477,-25.26781,1.29464,63.84007,0.02929,-100.0972,37.88908,-0.10635,97.78195,2.85355,-7.0183,0.00273,-8.38302,4.20792,-0.01103,11.03022,2.98803,-8.92846,-10.12705,6.0202,-7.24736,9.19187,7.16453,11.92459
546,5.71739,0.0,-0.0,-40.26098,0.0,0.0,9.75575,-1.47023,9.03187,-48.61588,1.15086,3.73201,-33.72215,-2.02028,0.00335,-84.5668,4.35453,0.00463,21.06589,17.44378,-0.25337,14.79339,-13.66502,-10.02927,-14.96628,23.77368,10.26733,6.84989,-26.04968,-1.4911,65.58182,0.02726,-100.11412,34.23021,0.00616,97.24116,3.57943,-6.45769,-0.00041,-6.22797,4.12919,0.00462,10.74083,3.14032,-9.81369,-10.37947,6.48103,-8.02152,8.53194,7.41992,10.44285
547,5.5475,0.0,0.0,-40.51137,0.0,0.0,9.76069,-1.69736,7.53161,-48.50207,0.90652,0.48652,-32.83677,-1.57563,0.00203,-90.05061,3.52569,-0.01319,19.66187,17.34328,-0.07089,17.57481,-15.72099,-8.40653,-13.34941,24.78888,8.25021,5.10862,-26.77625,-4.21799,67.20763,-0.00471,-98.99875,30.8149,0.0981,98.46016,3.73215,-6.33201,0.00383,-4.80291,4.35058,0.01002,10.35744,3.17553,-10.65496,-10.71932,6.81626,-8.79775,7.8481,7.51249,8.93032
548,5.18864,0.0,0.0,-41.2085,0.0,0.0,9.89871,-1.76104,6.21593,-47.57977,0.35581,-1.87788,-31.90018,-1.34861,-0.00113,-95.22023,2.6681,-0.01664,18.19966,17.27275,0.07839,20.80359,-17.81406,-6.15139,-11.63661,26.07759,5.70542,3.06715,-27.41681,-6.98945,68.77897,-0.04605,-96.15129,27.55073,0.08746,100.43585,3.09963,-7.08762,0.02158,-4.05251,4.48777,0.00237,9.93065,3.1898,-11.46815,-11.09927,7.12126,-9.55595,7.24952,7.56572,7.51101
549,4.74729,0.0,0.0,-43.62519,0.0,-0.0,10.23091,-1.87719,5.20566,-45.83925,0.11749,-3.72868,-31.12825,-1.25907,-0.00203,-99.85241,1.58207,-0.00916,16.80417,17.36822,0.10087,24.45066,-19.74254,-3.47015,-9.79721,27.41265,3.07172,0.90979,-27.9787,-9.755,70.39191,-0.05405,-92.39819,24.33038,-0.00639,101.46734,2.1894,-8.64067,0.02592,-3.7333,4.14896,-0.01075,9.52267,3.25286,-12.09013,-11.47121,7.40279,-10.11755,6.69766,7.70371,6.18467
550,4.32942,-0.0,-0.0,-48.04857,0.0,-0.0,10.73077,-2.17743,4.41899,-43.4986,0.35986,-5.43456,-30.58712,-1.12532,-0.0007,-103.76654,0.04806,0.00597,15.52212,17.63182,0.11132,28.45176,-21.39806,-0.69073,-7.83244,28.61223,0.65409,-1.28168,-28.5004,-12.32317,72.12962,-0.01896,-89.5771,21.32297,-0.0797,100.74304,1.69308,-10.09131,0.01089,-3.52362,3.53879,-0.01996,9.11542,3.31746,-12.33844,-11.86535,7.55189,-10.32766,6.1471,7.99586,4.87225
551,3.89152,0.0,-0.0,-53.60142,0.0,0.0,11.27684,-2.56558,3.81092,-40.88213,0.85,-7.05609,-30.18979,-0.89771,0.00033,-106.90441,-2.12908,0.02264,14.31964,18.002,0.17763,32.7946,-22.70783,1.83727,-5.82956,29.72922,-1.60278,-3.59561,-28.97578,-14.56522,74.05107,0.02219,-88.73657,18.94381,-0.05684,99.21297,1.60281,-10.66293,0.00317,-3.00531,3.68316,-0.00215,8.69084,3.3369,-12.22328,-12.29838,7.52887,-10.21237,5.5815,8.44655,3.51058
552,3.34555,-0.0,0.0,-59.25525,0.0,0.0,11.72229,-2.8304,3.49202,-38.20332,1.4886,-8.71516,-29.74492,-0.73535,-3e-05,-109.28261,-4.90284,0.02721,12.98366,18.48917,0.10278,37.30261,-23.60799,3.84176,-3.85926,31.00948,-3.99367,-6.1008,-29.36017,-16.43127,76.14388,0.03825,-89.48185,17.42379,0.00472,98.49393,1.26728,-10.49235,0.00381,-1.98817,5.85556,0.0493,8.31439,3.32717,-11.91067,-12.6944,7.40795,-9.92204,4.87163,9.05508,2.06011
553,2.79831,-0.0,0.0,-64.23232,0.0,0.0,11.96881,-2.94981,3.42867,-35.70533,2.29998,-10.68019,-29.06136,-0.74647,-0.00052,-110.89534,-7.88706,0.01547,11.23034,19.22747,-0.27711,41.59237,-24.09618,5.1893,-1.84562,32.67591,-6.89693,-8.7283,-29.68227,-17.7647,78.30392,0.03245,-90.93191,16.48431,0.02352,98.83481,0.27545,-10.06697,0.00303,-0.81697,10.30643,0.0673,8.05244,3.29132,-11.54553,-12.97736,7.24374,-9.59192,3.80648,9.90764,0.48664
554,2.5333,0.0,-0.0,-67.8306,0.0,0.0,11.98931,-3.12496,3.37079,-33.93755,3.19533,-12.96402,-28.0628,-0.83831,0.00013,-111.65366,-10.65405,-0.00296,8.98263,20.35822,-0.84988,45.40803,-24.29531,5.85021,0.43624,34.72997,-10.65528,-11.41767,-30.05252,-18.44769,80.39093,0.01789,-92.43307,15.47159,-0.01222,99.09498,-1.22548,-9.48163,-0.00527,-0.13864,15.18539,0.01796,7.8633,3.19529,-11.19897,-13.18301,7.0299,-9.3012,2.33642,11.13604,-1.19595
555,2.58375,-0.0,0.0,-69.71319,0.0,0.0,11.85515,-3.43551,3.26251,-33.59384,3.98414,-15.10265,-26.82604,-0.92863,-9e-05,-111.41658,-13.02214,-0.01821,6.41634,21.87305,-1.50366,48.83733,-24.39888,5.92303,3.19983,36.89925,-15.26328,-14.23535,-30.54546,-18.84891,82.25114,0.00197,-93.5285,13.81104,-0.06659,98.608,-2.80909,-8.56748,-0.01645,-0.25685,17.54741,-0.00686,7.63698,3.00983,-10.90571,-13.41843,6.75163,-9.09303,0.62639,12.76593,-2.90607
556,2.53986,0.0,-0.0,-70.27705,0.0,0.0,11.69893,-3.71684,3.3348,-35.01205,4.41351,-16.38281,-25.52725,-1.06563,-0.00212,-110.07793,-14.92759,-0.02347,3.74076,23.59476,-2.24078,52.12987,-24.52868,5.76916,6.42647,38.82219,-20.11832,-17.27496,-31.13173,-20.02586,83.72787,-0.00901,-93.9012,11.5421,-0.06451,98.28441,-3.93655,-7.36504,-0.01731,-0.77761,16.33462,0.0118,7.33482,2.74319,-10.63341,-13.72515,6.40508,-8.93399,-1.17419,14.63793,-4.55593
557,2.17317,0.0,0.0,-70.52833,0.0,0.0,11.54729,-3.80879,3.59487,-37.76562,4.18794,-16.34001,-24.34798,-1.23469,-0.0022,-107.6481,-16.24123,-0.01634,1.05355,25.2931,-2.83241,55.43338,-24.66656,5.86612,9.86401,40.34714,-24.39344,-20.55879,-31.64301,-23.26414,84.7585,-0.01215,-93.45407,9.39288,0.01117,100.04823,-4.08188,-6.2199,-0.00723,-1.04691,13.52177,0.01078,7.05308,2.47889,-10.24879,-14.01806,6.02034,-8.66888,-3.07189,16.48762,-6.10629
558,1.90198,0.0,-0.0,-71.44747,-0.0,-0.0,11.28933,-3.70377,3.64901,-40.67539,3.24229,-15.13354,-23.402,-1.27807,0.00037,-104.31327,-16.91661,-0.01017,-1.59656,26.85186,-2.8298,58.73697,-24.71263,6.28428,13.28145,41.5737,-27.71424,-23.96718,-31.83162,-28.34715,85.44288,-0.01134,-92.40117,7.9337,0.07542,104.41115,-3.02898,-5.27915,0.00699,-0.86541,11.55539,0.0002,6.9106,2.34296,-9.59858,-14.19018,5.65979,-8.10875,-5.083,18.15071,-7.57324
559,2.20804,0.0,-0.0,-73.41869,0.0,-0.0,10.86798,-3.47214,3.31593,-42.35829,2.103,-13.40448,-22.70173,-1.12526,0.00185,-100.42313,-17.06639,-0.01668,-4.14802,28.3131,-2.22526,61.92093,-24.68572,6.58559,16.61064,42.63492,-30.36345,-27.1834,-31.71213,-32.13807,85.99016,-0.0092,-91.25227,6.73885,0.04861,108.30932,-1.24554,-4.1276,0.01802,-0.73227,10.77484,0.00162,6.90435,2.35976,-8.62691,-14.24423,5.32556,-7.19288,-7.10787,19.68427,-9.05881
560,3.00291,-0.0,0.0,-76.22424,0.0,0.0,10.35048,-3.20622,3.00637,-42.21094,1.74291,-11.78939,-22.18081,-0.90165,0.001,-96.29797,-16.70549,-0.02399,-6.601,29.71193,-1.66953,64.79494,-24.84773,6.46064,19.9177,43.61877,-33.01487,-29.92147,-31.68938,-30.951,86.64007,0.00195,-90.66882,4.83983,-0.1373,107.48421,0.20752,-2.49422,0.00503,-1.31235,10.08784,0.0159,6.96807,2.40918,-7.40022,-14.23362,4.92891,-6.02749,-9.07631,21.23551,-10.75019
561,3.83335,0.0,0.0,-79.14981,-0.0,0.0,9.83048,-3.06046,3.23814,-41.0875,2.77848,-10.60883,-21.79721,-0.74646,-0.00059,-91.97186,-15.66995,-0.01758,-9.04429,30.96649,-1.69026,67.20113,-25.40914,6.10738,23.39515,44.65691,-36.35178,-32.12383,-32.01082,-24.5748,87.5881,0.02588,-91.15704,1.8959,-0.33102,101.14059,0.55479,-1.15771,-0.01075,-2.53655,8.82308,0.02495,7.11499,2.40066,-6.05143,-14.13271,4.43308,-4.77019,-11.08555,22.8349,-12.73505
562,4.22913,0.0,0.0,-80.84135,0.0,0.0,9.39084,-3.22023,4.06907,-40.57036,4.80818,-9.7899,-21.62748,-0.70716,-0.00152,-87.21609,-13.87591,0.00308,-11.50748,32.01256,-2.0511,69.1516,-26.17608,5.8178,27.33269,45.84435,-40.75586,-34.04427,-32.47449,-16.66624,88.84808,0.03577,-92.38797,-1.35531,-0.26503,92.63173,-0.04059,-1.41661,0.00743,-3.57002,7.18809,0.00886,7.36798,2.39093,-4.74036,-13.91411,3.94891,-3.54973,-13.24734,24.3658,-14.80104
563,3.92298,0.0,0.0,-80.0154,-0.0,-0.0,9.04688,-3.71018,5.1317,-41.27745,6.88712,-9.14095,-21.80958,-0.8144,-0.0008,-81.82152,-11.43768,0.03338,-13.84102,32.91788,-2.12508,70.80206,-26.72087,5.59941,31.91796,47.01235,-46.12505,-36.26351,-32.82241,-11.76346,90.14283,0.01003,-92.87798,-3.7616,-0.04607,86.339,-0.79061,-3.52091,0.02069,-3.66951,5.84627,-0.00798,7.61664,2.45472,-3.65009,-13.68797,3.61277,-2.50937,-15.4821,25.68572,-16.54041
564,3.2876,0.0,-0.0,-76.88853,0.0,-0.0,8.62985,-4.29729,6.04089,-42.35631,8.58023,-8.86838,-22.38449,-1.09618,0.00122,-75.76331,-8.57844,0.06269,-15.85585,33.75414,-1.62829,72.26386,-26.84775,5.31407,36.91244,47.80054,-51.78124,-39.28271,-32.86751,-12.36156,91.08253,-0.01268,-91.44965,-4.71775,0.01943,85.09683,-0.73581,-6.09441,0.00799,-2.67339,5.43194,0.00393,7.69795,2.55958,-2.91664,-13.61902,3.44415,-1.78725,-17.59573,26.7125,-17.71598
565,3.18846,0.0,-0.0,-72.9957,0.0,0.0,7.9103,-4.7078,6.66982,-42.96423,9.92557,-9.39344,-23.22965,-1.509,0.00233,-69.13068,-5.63785,0.06987,-17.55882,34.4754,-0.82398,73.49324,-26.75414,4.77114,41.67731,48.08746,-56.81055,-42.98212,-32.31357,-17.2001,91.58154,-0.00577,-89.15447,-4.54245,-0.07613,88.70229,0.83638,-7.39662,0.03163,-0.89452,5.91913,0.01992,7.55424,2.64596,-2.47345,-13.769,3.36365,-1.34263,-19.52712,27.43674,-18.52105
566,4.12643,0.0,0.0,-69.42153,0.0,0.0,6.85747,-4.86979,7.15532,-43.70724,10.48057,-10.73303,-24.1319,-1.97507,0.00187,-62.01556,-3.05585,0.04755,-19.16602,35.03207,-0.183,74.35899,-26.71794,3.54924,45.75769,48.16251,-60.88229,-46.55544,-31.12328,-21.67109,91.99844,0.01443,-88.28213,-4.19773,-0.12097,93.15004,3.60077,-7.00245,0.07492,0.98896,6.41351,0.00752,7.23034,2.74512,-2.03427,-14.09812,3.29648,-0.89716,-21.42629,27.93059,-19.3853
567,6.02058,0.0,0.0,-65.54906,-0.0,-0.0,5.58975,-4.87541,7.70113,-46.1468,9.84431,-12.83323,-24.91051,-2.46158,0.00101,-54.56237,-1.14355,0.01466,-20.84676,35.48083,0.06284,74.84778,-26.70611,1.12521,49.20179,48.38784,-64.41042,-49.39289,-29.82406,-22.32336,92.77163,0.02971,-89.42828,-4.39335,-0.0709,94.0337,6.30483,-6.08103,0.05009,2.05691,6.07442,-0.0045,6.82655,2.96636,-1.34887,-14.50886,3.25354,-0.17785,-23.43946,28.30338,-20.4981
568,8.52837,0.0,0.0,-59.31943,-0.0,0.0,4.18626,-4.83139,8.25845,-51.03629,9.84558,-16.67572,-25.51027,-2.91358,8e-05,-47.14138,0.0364,-0.01507,-22.48581,35.87097,0.13822,75.23739,-26.40287,-2.57993,52.15926,48.90857,-67.70562,-51.56078,-28.92989,-20.29174,94.04689,0.01472,-91.05962,-4.98641,0.0507,91.17822,8.24975,-6.07244,-0.02446,1.78338,5.11695,-0.00267,6.52403,3.36004,-0.42102,-14.81764,3.28311,0.82996,-25.46963,28.58976,-21.71041
569,10.89771,-0.0,-0.0,-49.80545,0.0,0.0,2.77642,-4.84888,8.47821,-56.97287,14.21801,-23.38016,-25.97704,-3.19951,-0.00095,-40.35187,0.51881,-0.0405,-23.84875,36.15259,0.45658,75.89884,-25.63731,-6.93986,54.43432,49.72186,-70.35119,-53.39111,-28.63948,-19.02728,95.66977,-0.01822,-91.75571,-5.38808,0.16723,88.20618,10.10713,-7.20598,-0.08132,0.74562,4.52764,-0.01452,6.50215,3.79866,0.65854,-14.83901,3.29953,1.99509,-27.26549,28.75307,-22.98119
570,12.05592,-0.0,-0.0,-40.04472,-0.0,-0.0,1.65706,-5.0798,8.13546,-61.1109,22.75505,-31.31288,-26.33395,-3.2438,-0.00145,-34.78962,0.42177,-0.04757,-24.91511,36.28476,1.09255,76.90852,-24.59836,-10.93766,55.63581,50.79296,-71.61463,-55.30513,-28.98125,-21.98896,97.32615,-0.02249,-91.65692,-4.95537,0.01974,89.84583,13.02965,-8.26857,-0.03948,0.12617,5.2735,-0.01151,6.69851,4.0577,1.99395,-14.6253,3.05615,3.33236,-28.66736,28.81402,-24.61199
571,11.59192,0.0,0.0,-34.77759,-0.0,-0.0,1.0751,-5.59052,7.43878,-63.59185,27.89833,-35.28321,-26.54869,-3.15026,-0.001,-30.92658,0.03333,-0.03241,-25.78664,36.30561,1.70768,78.19815,-23.53115,-13.69007,55.79548,52.01252,-71.39934,-57.68029,-29.55203,-31.93517,98.71704,0.01093,-91.83349,-3.01122,-0.50141,99.2231,17.32049,-7.80119,0.1091,0.57005,7.87409,0.0421,6.77544,4.02121,3.74685,-14.50169,2.38693,4.95001,-29.61518,28.84362,-26.77037
572,10.19317,-0.0,-0.0,-35.47937,0.0,0.0,1.00208,-6.20194,6.68063,-66.93194,22.9698,-30.72543,-26.64481,-3.10833,-0.00025,-29.15885,-0.49879,-0.01363,-26.34905,36.27157,2.03799,79.97533,-22.47354,-14.90946,55.71653,53.20708,-70.70705,-60.24413,-29.48951,-47.43317,99.84512,0.04098,-92.65365,0.3618,-0.77393,113.73079,22.10748,-5.89179,0.17357,1.81815,11.78537,0.08461,6.45537,3.77476,5.73564,-14.74534,1.43839,6.71113,-30.01935,28.82486,-29.02705
573,8.86938,0.0,-0.0,-39.8746,0.0,0.0,1.21186,-6.63636,5.78771,-68.12034,10.66441,-20.60402,-26.73967,-3.21195,0.00041,-29.6501,-1.39266,0.00774,-26.29308,36.20782,2.20975,82.54383,-21.41172,-14.93096,56.41583,54.2134,-70.93987,-62.16331,-28.64204,-60.77425,101.14312,0.01997,-92.88168,3.27586,-0.41729,124.7103,26.13511,-4.53378,0.06558,2.73381,15.16653,0.05835,5.81045,3.55174,7.44995,-15.30784,0.61283,8.22633,-29.78644,28.65266,-30.64799
574,8.20719,0.0,0.0,-44.46298,0.0,0.0,1.49019,-6.83162,4.57934,-64.39959,1.32254,-10.27813,-26.90898,-3.41745,0.00075,-32.08287,-2.80143,0.03078,-25.50319,36.07967,2.53163,85.82106,-20.43613,-14.21918,58.10738,54.82402,-72.55733,-63.47675,-27.75942,-65.41142,103.15093,-0.05051,-91.10473,3.82019,-0.17613,126.2205,28.71647,-5.42609,-0.03889,1.91724,16.32054,0.05574,5.17803,3.56023,8.5472,-15.87972,0.22671,9.25121,-28.96702,28.27865,-31.20185
575,8.15674,0.0,0.0,-46.62057,0.0,-0.0,1.78645,-6.93082,3.22855,-58.1937,0.946,-3.00312,-27.08918,-3.62533,0.00047,-35.76566,-4.52527,0.03893,-24.31847,35.83368,3.16827,89.25567,-19.63141,-13.09217,59.98233,54.86335,-74.67282,-64.64881,-27.16929,-63.11464,106.01366,-0.0887,-87.7034,2.12112,-0.17088,121.14539,29.98555,-8.12266,-0.03976,-0.69006,15.34542,0.08586,4.87043,3.76361,9.16625,-16.15016,0.19473,9.90082,-27.84256,27.81632,-30.83766
576,8.28671,0.0,0.0,-46.23582,0.0,0.0,2.15313,-7.01547,2.14673,-52.03642,7.37827,0.02774,-27.16024,-3.78039,-0.0,-39.96294,-6.27438,0.03007,-23.35196,35.54322,3.97134,92.0907,-19.03189,-11.88268,61.13134,54.43063,-76.14717,-65.70937,-26.68036,-59.74563,109.34644,-0.05602,-84.1677,-0.17055,-0.05965,116.13271,30.36473,-11.06408,0.00091,-3.51037,13.55312,0.05514,4.98614,3.9102,9.69403,-16.00074,0.14284,10.44498,-26.84841,27.52597,-30.17835
577,8.39657,0.0,0.0,-45.66476,0.0,0.0,2.5432,-7.03958,1.63369,-46.11653,15.66077,-0.34263,-27.07036,-3.90519,-0.0002,-44.06319,-7.91774,0.01853,-23.04285,35.34762,4.59067,93.77268,-18.66293,-10.94456,61.36092,53.83649,-76.59804,-66.52108,-26.2846,-56.9267,112.54367,-0.01298,-81.19739,-1.92855,0.0016,113.11666,30.13511,-13.19789,0.02004,-4.99132,11.62551,-0.01195,5.45491,3.79808,10.36219,-15.48677,-0.20038,11.02738,-26.3447,27.60037,-29.89542
578,8.70983,0.0,-0.0,-46.99838,0.0,0.0,2.78781,-6.95334,1.73112,-40.19439,21.91554,-2.55886,-26.85763,-4.0248,-4e-05,-47.50601,-9.43822,0.00712,-23.29121,35.16932,4.83951,94.33371,-18.44376,-10.44959,60.9874,53.28026,-76.24218,-66.91837,-26.21061,-52.32411,115.14287,0.00451,-78.63598,-3.24868,-0.05238,109.48975,29.52994,-14.02867,0.00836,-4.77388,9.44851,-0.0578,6.1674,3.41057,11.10972,-14.72227,-0.82869,11.58595,-26.32962,27.92167,-30.20534
579,9.46102,0.0,-0.0,-49.61471,-0.0,-0.0,2.79076,-6.72814,2.18757,-34.885,24.20171,-5.5895,-26.58188,-4.12641,5e-05,-49.70495,-10.53733,-0.00881,-23.52898,34.78723,4.86507,94.28395,-18.21741,-10.24743,60.34447,52.7193,-75.44897,-66.87694,-26.32455,-46.42133,117.04685,0.01453,-76.6637,-4.30742,-0.06911,105.10756,28.82549,-13.48152,-0.00627,-3.53744,7.40987,-0.0491,7.00139,2.88875,11.68295,-13.84962,-1.52018,11.93493,-26.4077,28.20148,-30.76364
580,10.46234,0.0,0.0,-51.02602,0.0,0.0,2.6786,-6.36462,2.62216,-31.06323,22.347,-9.25035,-26.25436,-4.22983,-0.00065,-50.29972,-10.57552,-0.00403,-23.31242,34.22904,4.93669,94.01858,-17.96341,-10.0178,59.59481,52.08387,-74.53827,-66.59769,-26.16566,-43.54935,118.51116,0.02527,-75.96716,-4.74594,-0.0531,103.81459,28.31054,-12.34867,-0.00198,-2.31057,6.40147,-0.00978,7.8173,2.45755,11.83047,-13.02731,-1.97559,11.91919,-26.224,28.34296,-31.05463
581,11.07716,0.0,0.0,-50.10624,0.0,-0.0,2.71003,-5.96862,2.8723,-29.00574,18.04709,-13.24626,-25.83975,-4.3703,-0.00165,-49.50074,-9.42044,0.02053,-22.75631,33.73241,5.18676,93.50687,-17.78889,-9.74211,58.68383,51.49464,-73.6251,-66.24173,-25.58179,-46.14351,119.86256,0.02256,-76.56844,-4.24494,-0.09548,107.51965,28.14732,-12.02462,0.00673,-1.74826,6.49894,0.00785,8.50973,2.26784,11.54565,-12.35835,-2.05155,11.58551,-25.84581,28.44962,-30.88016
582,10.7618,0.0,0.0,-48.4402,-0.0,0.0,2.98372,-5.68411,3.01974,-28.12784,13.84525,-16.50753,-25.30844,-4.46569,-0.00112,-47.92808,-7.91399,0.02066,-22.23924,33.31974,5.63544,92.60203,-17.69846,-9.83387,57.4385,51.12497,-72.61985,-65.70033,-24.8971,-51.45663,121.24108,0.00588,-77.57926,-3.02948,-0.09451,113.04909,28.25289,-13.16374,0.00526,-1.77399,6.71601,0.00511,9.04571,2.2803,11.1307,-11.85203,-1.89212,11.20234,-25.5573,28.5443,-30.45777
583,9.63434,0.0,0.0,-47.4372,0.0,0.0,3.31633,-5.5478,3.15491,-27.64105,11.22742,-18.10269,-24.66363,-4.37036,0.00095,-46.11078,-6.98275,-0.00287,-21.87703,32.73708,6.2323,91.39171,-17.53764,-10.56226,55.79832,50.93368,-71.43617,-64.77829,-24.50991,-54.67535,122.60579,-0.00185,-78.5044,-1.64683,-0.01118,115.99364,28.47182,-14.93972,0.00145,-1.91262,6.21098,-0.00032,9.47228,2.31168,10.92556,-11.43946,-1.78967,11.02195,-25.47057,28.50897,-30.08331
584,8.21304,0.0,0.0,-45.99622,-0.0,-0.0,3.50389,-5.5,3.34656,-27.38694,10.38275,-18.29532,-23.94805,-4.08269,0.00211,-44.32504,-6.672,-0.01397,-21.48611,31.79277,6.69505,90.11115,-17.23569,-11.57036,53.88086,50.7117,-70.13988,-63.4204,-24.48998,-53.83266,123.85633,0.00421,-79.61781,-0.43297,0.04314,115.28828,28.67882,-16.03328,0.00023,-1.8354,5.20359,-0.00245,9.89077,2.15058,11.0012,-11.0176,-1.96713,11.03507,-25.49029,28.28285,-29.88026
585,6.74539,-0.0,-0.0,-42.61759,0.0,0.0,3.57863,-5.47121,3.63642,-27.59386,11.10014,-18.07949,-23.23503,-3.7356,0.0015,-42.80668,-6.33141,-0.00506,-20.91398,30.6008,6.68898,88.87695,-17.00554,-12.29918,51.8203,50.36667,-68.86524,-61.72775,-24.71104,-50.62107,124.8887,0.00659,-80.97814,0.57263,0.033,112.85459,28.73705,-15.90489,-0.00533,-1.46381,4.57279,0.00343,10.32646,1.73063,11.17049,-10.57586,-2.41981,11.04329,-25.45991,27.99403,-29.86973
586,5.26864,-0.0,-0.0,-37.85252,0.0,0.0,3.6865,-5.41823,3.97598,-28.29706,12.75804,-17.98258,-22.5668,-3.43202,0.00041,-41.82534,-5.38581,0.0024,-20.17745,29.4825,6.22394,87.66963,-17.14583,-12.64718,49.63665,50.03349,-67.59673,-59.82456,-25.18778,-47.23501,125.6342,0.00078,-82.12379,1.37115,0.00827,110.29108,28.65481,-14.93769,-0.01611,-0.9504,4.76066,0.01082,10.6279,1.24301,11.23824,-10.27781,-2.89949,10.93245,-25.22225,27.84184,-30.05547
587,4.07323,0.0,0.0,-33.52741,0.0,0.0,3.82689,-5.28796,4.38061,-29.35874,14.07696,-17.80505,-21.92344,-3.21689,-0.00058,-41.49299,-3.82207,-0.00223,-19.35095,28.63023,5.51959,86.48057,-17.63436,-12.89736,47.2816,49.89925,-66.1401,-57.76309,-25.94508,-44.16018,126.10361,-0.00471,-82.59579,1.94762,0.0014,107.55937,28.51983,-14.04354,-0.02191,-0.79141,5.33599,0.00977,10.60742,0.95129,11.17492,-10.30813,-3.14941,10.76896,-24.70152,27.85244,-30.35086
588,3.53889,0.0,-0.0,-30.77325,0.0,0.0,3.84984,-4.98145,5.03089,-30.60802,14.08752,-17.40335,-21.28746,-3.10818,-0.00132,-41.71138,-2.17695,-0.008,-18.49192,27.9294,4.65358,85.35321,-18.05474,-13.29247,44.74219,49.99212,-64.40583,-55.62959,-26.71675,-41.52823,126.34676,-0.00492,-82.14125,2.51914,-0.00622,104.76104,28.13063,-14.33044,-0.00035,-1.41381,5.69167,0.00653,10.25403,0.91047,11.09408,-10.66779,-3.15868,10.67875,-23.99102,27.84716,-30.54556
589,3.63003,-0.0,0.0,-29.52948,0.0,0.0,3.66155,-4.49341,6.01245,-31.70471,13.08746,-17.10087,-20.67531,-3.04986,-0.00099,-42.36779,-1.05578,-0.00534,-17.64181,27.15524,3.66078,84.33677,-17.99146,-13.89559,42.03733,50.16903,-62.53981,-53.58647,-27.21294,-40.59229,126.37235,0.00056,-80.77419,3.51501,-0.06178,103.47294,27.05388,-16.31872,0.05536,-2.416,5.70901,0.00408,9.72684,0.95805,11.15166,-11.19015,-3.13479,10.74963,-23.24812,27.68068,-30.48107
590,3.87078,0.0,0.0,-29.25526,-0.0,-0.0,3.35423,-4.02738,7.15468,-32.21144,12.031,-17.15632,-20.07548,-2.9419,0.00012,-43.4199,-0.65536,0.00405,-16.82039,26.25622,2.72693,83.43244,-17.37924,-14.69767,39.14193,50.2392,-60.63296,-51.61927,-27.62406,-41.71508,126.13384,0.00604,-79.07436,4.96864,-0.13109,104.55013,25.05185,-19.05736,0.07918,-2.89153,5.42425,-0.00022,9.20286,0.90772,11.44113,-11.69526,-3.2851,11.00243,-22.51101,27.42085,-30.19715
591,3.86243,0.0,-0.0,-29.39561,0.0,-0.0,3.09417,-3.75424,8.27925,-31.94296,11.48247,-17.44124,-19.43783,-2.7752,0.00059,-44.80932,-0.75308,0.0119,-16.03113,25.35551,2.01506,82.56553,-16.43098,-15.62041,36.01878,50.05722,-58.56577,-49.52407,-28.429,-42.27729,125.60788,0.00318,-77.99541,6.27559,-0.1208,105.36178,22.25953,-20.79201,0.01978,-2.67251,4.6983,-0.00194,8.78237,0.68875,11.8665,-12.0905,-3.64131,11.32234,-21.71966,27.24408,-29.79179
592,3.73608,-0.0,0.0,-29.41178,0.0,-0.0,2.88853,-3.59729,9.33812,-31.0716,11.45079,-17.81203,-18.76578,-2.61355,0.00027,-46.47525,-0.94065,0.01088,-15.30142,24.51838,1.56925,81.60909,-15.39903,-16.352,32.7078,49.60172,-56.22749,-47.24925,-29.69539,-39.41578,124.86712,-0.0037,-77.99853,7.05025,-0.06103,102.43906,19.12538,-20.72878,-0.05286,-2.40594,3.69344,0.00294,8.4645,0.36912,12.16266,-12.3947,-4.04546,11.48558,-20.88791,27.18527,-29.28685
593,3.88869,0.0,0.0,-28.77043,0.0,-0.0,2.6001,-3.41076,10.22697,-29.88103,11.70804,-18.36269,-18.15532,-2.45558,0.00011,-48.42107,-0.8661,0.00116,-14.66368,23.674,1.49131,80.44277,-14.48054,-16.51612,29.30386,48.99849,-53.62712,-44.92528,-30.9809,-33.9083,123.99892,-0.00565,-78.74115,7.76375,0.00559,96.49981,16.39762,-19.41113,-0.05784,-2.43361,2.96126,0.00434,8.16453,0.09868,12.1633,-12.70164,-4.2984,11.38962,-20.13856,27.08727,-28.74909
594,4.36978,0.0,-0.0,-27.28306,0.0,-0.0,2.2039,-3.17182,10.80585,-28.5657,12.02288,-19.26372,-17.71752,-2.25769,-3e-05,-50.62438,-0.3962,-0.01085,-14.03555,22.77036,1.84117,79.0434,-13.80462,-16.07638,25.91076,48.38692,-50.83139,-42.65131,-31.96449,-28.82672,123.03176,-0.00452,-79.73451,9.02477,0.03267,91.27786,14.89102,-17.74355,-0.01353,-2.5218,2.63879,-0.00103,7.79136,-0.00916,11.95183,-13.09278,-4.3238,11.15293,-19.539,26.79717,-28.34257
595,4.85854,-0.0,0.0,-25.55379,0.0,0.0,1.85302,-2.96993,11.14192,-27.24623,12.25719,-20.47369,-17.48141,-2.03551,-0.00035,-52.92337,0.38813,-0.01561,-13.23671,21.82929,2.3901,77.51524,-13.36894,-15.30844,22.61731,47.80286,-47.97982,-40.32497,-32.67176,-25.62737,122.06541,-0.00426,-80.88114,10.81299,0.0067,88.71408,14.74519,-16.38955,0.01348,-2.48845,2.19565,-0.00655,7.31188,0.02928,11.6941,-13.58921,-4.19598,10.92523,-19.00772,26.28323,-28.13286
596,5.07291,-0.0,0.0,-24.39904,0.0,-0.0,1.68016,-2.93148,11.43237,-26.04747,12.38286,-21.52294,-17.34634,-1.83073,-0.00022,-55.09665,1.22579,-0.00681,-12.25102,20.84522,2.86324,75.95444,-13.00146,-14.52367,19.4359,47.2542,-45.27873,-37.80598,-33.19188,-23.64277,121.31417,-0.00347,-82.27321,12.76871,-0.03121,88.35298,14.96344,-15.4827,-0.00032,-2.54317,1.21539,-0.00308,6.7334,0.10719,11.48603,-14.17995,-4.04895,10.75823,-18.45358,25.57507,-27.97892
597,4.96547,0.0,-0.0,-23.79456,0.0,0.0,1.64162,-3.04302,11.73475,-25.01527,12.39463,-21.79707,-17.13379,-1.65428,0.00036,-57.04493,1.82328,0.00685,-11.32718,19.78666,3.30299,74.3139,-12.48288,-13.92439,16.31713,46.79686,-42.84179,-35.11285,-33.60396,-21.78451,120.86722,-0.0007,-83.58266,14.70846,-0.06121,89.25264,14.31872,-14.60216,-0.02799,-3.17378,-0.0491,0.00789,6.08095,0.13399,11.38722,-14.83842,-3.98864,10.67529,-17.90374,24.73747,-27.71304
598,4.72573,0.0,-0.0,-23.03201,-0.0,0.0,1.56672,-3.07569,11.99905,-23.95131,12.20665,-21.23105,-16.73606,-1.52409,0.00045,-58.86,2.17887,0.00936,-10.68181,18.68923,3.86244,72.48734,-11.75198,-13.47355,13.27154,46.41407,-40.55371,-32.38057,-34.01063,-19.52007,120.54977,0.00517,-83.91418,16.72628,-0.06928,90.374,12.8179,-13.6227,-0.02851,-4.56218,-0.97534,0.00562,5.40082,0.07144,11.43756,-15.51672,-4.06504,10.70004,-17.40608,23.88833,-27.34241
599,4.64527,0.0,-0.0,-21.68601,-0.0,-0.0,1.35798,-2.88128,12.23658,-22.5461,11.71776,-20.36559,-16.20818,-1.48561,-0.0003,-60.70309,2.58551,-0.00079,-10.23084,17.61723,4.43103,70.48891,-10.93877,-12.90341,10.39792,45.92639,-38.19632,-29.83625,-34.42228,-17.07663,120.14483,0.01424,-82.68351,19.10934,-0.03404,90.44712,11.57337,-13.24871,-0.00573,-6.04312,-1.10751,-0.00546,4.71156,-0.07719,11.55707,-16.20173,-4.24654,10.75877,-16.88675,23.10054,-26.97831
600,4.75583,0.0,0.0,-19.73226,0.0,-0.0,1.12771,-2.65683,12.42353,-20.78896,10.90288,-19.53538,-15.70399,-1.53212,-0.00074,-62.59859,3.19238,-0.00858,-9.69777,16.53582,4.7786,68.46928,-10.18828,-12.00766,7.73513,45.1713,-35.67271,-27.77287,-34.70591,-15.03454,119.64549,0.01598,-80.42661,22.15148,0.03774,88.67205,11.40693,-14.21917,-0.01148,-6.59892,-0.41558,0.00236,3.96779,-0.25982,11.52287,-16.95275,-4.40492,10.66134,-16.17988,22.27016,-26.636
601,4.76783,0.0,0.0,-17.16864,0.0,-0.0,1.05433,-2.71662,12.39211,-18.97742,9.90149,-18.4887,-15.35575,-1.55703,-0.0004,-64.39316,3.8323,-0.00621,-8.88823,15.29647,4.87638,66.55936,-9.54421,-10.79511,5.11813,44.19385,-33.00586,-26.3171,-34.71474,-13.62694,119.2003,0.0068,-78.3952,25.85119,0.09817,85.29616,12.26069,-16.34325,-0.0359,-5.90969,0.70404,0.01747,3.13894,-0.39596,11.18755,-17.80757,-4.41228,10.29845,-15.18536,21.16732,-26.25283
602,4.67189,0.0,0.0,-14.43521,-0.0,-0.0,1.09741,-3.07772,12.02118,-17.21232,9.12959,-17.02415,-15.19936,-1.46871,-0.00019,-65.92877,4.34488,-0.0018,-7.84738,13.80102,4.8787,64.72082,-8.9802,-9.31735,2.28785,43.14125,-30.23195,-25.24042,-34.42535,-12.53969,118.89865,-0.00328,-77.63584,29.83454,0.11584,81.1627,13.56367,-18.46863,-0.0285,-4.65197,1.63587,0.01288,2.26755,-0.44961,10.65146,-18.71447,-4.27058,9.77717,-13.99748,19.65852,-25.81365
603,4.97033,-0.0,0.0,-12.46716,0.0,0.0,1.00675,-3.43943,11.3853,-15.33896,9.07813,-15.45841,-15.18575,-1.32219,-0.00026,-67.15271,4.68861,0.00042,-6.76185,12.1936,4.9828,62.78725,-8.40615,-7.69405,-0.72571,42.04629,-27.47709,-24.17345,-33.96959,-11.32044,118.67454,-0.00975,-78.35921,33.68767,0.08843,77.22709,14.71477,-19.39996,0.00146,-3.82886,1.93912,0.0017,1.4122,-0.47276,10.06896,-19.60545,-4.08344,9.22361,-12.82977,17.89767,-25.27598
604,5.93549,0.0,-0.0,-11.58804,-0.0,0.0,0.65503,-3.57591,10.69044,-13.42959,9.8845,-14.2618,-15.27236,-1.26426,1e-05,-68.06297,4.72771,0.00225,-5.69029,10.81122,5.32072,60.66685,-7.68554,-6.30261,-3.40374,40.8588,-25.08061,-22.97139,-33.55385,-9.80259,118.33829,-0.01147,-79.71515,37.27704,0.01993,74.65465,15.43496,-18.91763,0.01541,-3.90406,1.64665,0.00123,0.61374,-0.54668,9.41833,-20.44246,-3.91889,8.58828,-11.76719,16.27861,-24.49298
605,7.06802,0.0,0.0,-11.05614,0.0,0.0,0.22482,-3.56748,10.1713,-11.82608,11.17682,-13.60016,-15.46947,-1.36858,0.00076,-68.6714,4.35625,0.00184,-4.52036,9.87096,5.85689,58.41663,-6.77551,-5.47948,-5.20408,39.66457,-23.38129,-21.75413,-33.28746,-8.15223,117.7114,-0.00012,-80.35394,40.69589,-0.05918,74.40507,15.7829,-17.76225,0.01206,-4.55139,1.19743,0.0023,-0.08926,-0.67502,8.62823,-21.18956,-3.7545,7.80317,-10.71678,15.10595,-23.39102
606,7.53299,0.0,0.0,-9.92032,-0.0,0.0,0.04195,-3.5832,9.9474,-10.70061,12.31135,-13.33161,-15.78879,-1.56792,0.00119,-69.0145,3.83858,-0.00085,-3.19123,9.2618,6.46621,56.11086,-5.81683,-5.02991,-6.20675,38.68789,-22.33445,-20.67415,-33.06905,-6.64714,116.82001,0.01931,-79.51321,44.04022,-0.09941,76.38868,15.76387,-16.70491,0.00368,-5.13713,1.14195,0.00059,-0.68205,-0.75667,7.79007,-21.82351,-3.52866,6.99033,-9.62056,14.30693,-22.13549
607,6.88787,0.0,0.0,-7.90514,-0.0,0.0,0.27673,-3.62529,9.89945,-9.88627,12.76556,-13.28674,-16.21122,-1.71449,0.00031,-69.09208,3.65359,0.00015,-1.77654,8.7023,7.14937,53.73974,-5.00246,-4.40386,-6.9778,38.02456,-21.57239,-19.77915,-32.70147,-5.47085,115.88293,0.02398,-77.63255,47.31542,-0.08033,79.48021,15.1526,-15.87969,-0.00669,-5.30239,1.77649,0.0025,-1.19094,-0.68176,7.07002,-22.36124,-3.19894,6.34478,-8.54963,13.57142,-20.97544
608,5.36644,0.0,-0.0,-5.52181,0.0,0.0,0.82106,-3.55114,9.79982,-9.11738,12.44119,-13.44552,-16.71581,-1.69869,-0.00148,-68.80098,3.94625,0.00867,-0.37276,8.03079,8.0059,51.2472,-4.39234,-3.35739,-7.86504,37.50012,-20.85185,-19.06053,-32.11188,-4.65905,115.03849,0.00921,-75.99209,50.44328,-0.02943,82.39442,13.96844,-14.96381,-0.01435,-5.1025,2.85069,0.00469,-1.67078,-0.45111,6.46364,-22.8602,-2.7648,5.86206,-7.59017,12.73206,-19.97388
609,3.6631,-0.0,-0.0,-3.58936,0.0,0.0,1.47771,-3.26284,9.65699,-8.2745,11.70671,-13.80847,-17.32759,-1.56851,-0.00209,-68.00614,4.34384,0.01692,1.00233,7.28346,8.91635,48.62302,-3.90754,-2.1934,-8.74087,36.88633,-20.24395,-18.49062,-31.40936,-4.10007,114.18145,-0.01088,-75.62225,53.25643,0.009,84.47452,12.80622,-13.66469,-0.00743,-4.77408,3.75389,0.00239,-2.19728,-0.18369,5.77681,-23.40679,-2.26712,5.3179,-6.73239,11.87018,-19.01311
610,2.40734,0.0,-0.0,-2.6325,-0.0,0.0,2.20113,-2.86527,9.7262,-7.40737,11.15429,-14.19329,-18.13058,-1.50294,2e-05,-66.63377,4.31771,0.01125,2.39895,6.59968,9.52162,45.91188,-3.40885,-1.3884,-9.4095,36.16995,-19.84584,-17.98795,-30.75677,-3.57028,113.13093,-0.02104,-76.47694,55.54122,0.02113,85.66102,12.23389,-11.93847,0.00942,-4.50631,4.00437,0.00037,-2.82225,0.00285,4.86074,-24.05796,-1.76161,4.531,-5.91064,11.13384,-18.00413
611,1.71791,0.0,-0.0,-2.55431,-0.0,-0.0,3.05065,-2.59452,10.06808,-6.61616,11.15661,-14.30694,-19.18711,-1.61027,0.00298,-64.63868,3.58353,-0.01229,3.84244,6.12904,9.67579,43.12411,-2.7352,-1.19498,-9.92417,35.51038,-19.546,-17.45467,-30.21361,-2.91874,111.87161,-0.01071,-77.66832,57.18869,0.02011,85.96503,12.09817,-10.10032,0.0146,-4.46734,3.54406,0.00281,-3.49669,0.09017,3.75824,-24.75975,-1.28064,3.53476,-5.12858,10.60514,-16.95081
612,1.30328,0.0,0.0,-2.80679,-0.0,-0.0,3.97542,-2.55695,10.39371,-5.9866,11.56138,-13.98344,-20.44183,-1.80289,0.00303,-62.00494,2.24162,-0.03709,5.3201,5.9196,9.66147,40.26684,-1.81991,-1.55903,-10.39424,35.03224,-19.20933,-16.88194,-29.68423,-2.23108,110.55727,0.00738,-78.45219,58.32297,0.01358,85.51223,11.92487,-8.7814,0.00851,-4.90807,2.90408,0.00114,-4.07927,0.13644,2.61429,-25.36385,-0.82246,2.48538,-4.4441,10.26568,-15.84527
613,0.97014,0.0,-0.0,-2.91095,-0.0,-0.0,4.7734,-2.61532,10.45231,-5.62645,11.93034,-13.26692,-21.7254,-1.92391,0.00064,-58.87939,0.74281,-0.03446,6.84973,5.84202,9.81155,37.49939,-0.82716,-2.18298,-10.77339,34.74573,-18.86147,-16.36505,-29.01494,-1.71395,109.33536,0.00886,-78.98808,59.20402,0.00402,84.8311,11.80621,-8.38986,0.00173,-5.95126,2.90941,-0.0147,-4.45246,0.21238,1.55523,-25.75022,-0.36715,1.52613,-3.82397,9.98546,-14.6418
614,0.85035,0.0,-0.0,-2.76056,0.0,-0.0,5.29486,-2.54539,10.29649,-5.61929,12.05935,-12.341,-22.85467,-1.92831,-0.00088,-55.55301,-0.36773,-0.00239,8.44831,5.7079,10.12702,35.03985,-0.03534,-2.68501,-11.00343,34.60374,-18.58241,-16.0295,-28.13301,-1.49717,108.24324,-0.00499,-79.97396,59.99063,-0.00457,84.50465,12.23348,-8.66327,-0.00495,-7.24476,3.75367,-0.02454,-4.60197,0.35916,0.64577,-25.90612,0.09999,0.73213,-3.14785,9.62359,-13.35583
615,1.04379,0.0,-0.0,-2.37409,-0.0,0.0,5.66272,-2.26201,10.05327,-5.79287,12.06956,-11.46564,-23.77955,-1.84826,-0.0018,-52.17766,-0.88211,0.02708,10.03123,5.46357,10.43822,32.84494,0.45744,-2.8931,-11.18022,34.53246,-18.37117,-15.96897,-27.10646,-1.60873,107.23283,-0.01056,-81.50471,60.67277,-0.0057,84.50356,13.18016,-9.04557,-0.0056,-8.19556,4.65462,-0.01394,-4.57148,0.52892,-0.11562,-25.87794,0.53478,0.08446,-2.40799,9.1969,-12.08729
616,1.28977,-0.0,-0.0,-1.61508,0.0,-0.0,6.24276,-1.88236,9.71802,-5.57526,12.05041,-10.9243,-24.63889,-1.69725,-0.00338,-48.62062,-1.05682,0.0302,11.46759,5.20066,10.70389,30.6262,0.80761,-2.94288,-11.45971,34.4041,-18.13323,-16.16642,-26.09975,-1.96896,106.23518,0.00243,-82.78906,61.18163,-0.00057,84.12754,14.05659,-9.31645,-0.0029,-8.66493,4.74473,-0.00126,-4.39101,0.56479,-0.75061,-25.6968,0.79892,-0.4941,-1.76915,8.85699,-10.89797
617,1.24603,0.0,0.0,-0.37858,0.0,-0.0,7.33456,-1.56478,9.37447,-4.30339,11.88873,-10.90417,-25.60227,-1.557,-0.0034,-44.69735,-1.30495,0.00894,12.71915,5.01223,10.90171,28.23635,1.22919,-3.02324,-11.92573,34.0745,-17.73676,-16.43316,-25.23484,-2.34572,105.20173,0.01454,-83.31277,61.46953,0.00089,83.11413,14.39895,-9.49023,-0.00343,-9.11606,3.95908,0.00761,-4.07978,0.35105,-1.25929,-25.38202,0.78459,-1.04571,-1.38778,8.67455,-9.73187
618,0.91448,0.0,-0.0,1.11821,-0.0,-0.0,8.90789,-1.31041,9.37166,-1.80896,11.46361,-11.36988,-26.67496,-1.62087,-0.00033,-40.47052,-1.87471,-0.01772,13.80192,4.9164,10.87816,25.82841,1.8356,-3.15394,-12.59191,33.48891,-17.09212,-16.50143,-24.50678,-2.43853,104.11108,0.00488,-83.66471,61.53031,-0.00021,82.34665,14.1975,-9.39748,-0.00742,-10.04593,2.88637,0.01139,-3.67569,-0.00649,-1.66646,-24.97299,0.59937,-1.55499,-1.31172,8.56037,-8.51709
