PaulMeinheit/Bachelor_Muay_Thai/processed_Data/N2/teep/sliced/JointAngles/sliced2.csv
Unnamed: 0_level_0,L_MTP_ANGLE,L_MTP_ANGLE,L_MTP_ANGLE,R_MTP_ANGLE,R_MTP_ANGLE,R_MTP_ANGLE,L_ANKLE_ANGLE,L_ANKLE_ANGLE,L_ANKLE_ANGLE,R_ANKLE_ANGLE,R_ANKLE_ANGLE,R_ANKLE_ANGLE,L_KNEE_ANGLE,L_KNEE_ANGLE,L_KNEE_ANGLE,R_KNEE_ANGLE,R_KNEE_ANGLE,R_KNEE_ANGLE,L_HIP_ANGLE,L_HIP_ANGLE,L_HIP_ANGLE,R_HIP_ANGLE,R_HIP_ANGLE,R_HIP_ANGLE,L_SHOULDER_ANGLE,L_SHOULDER_ANGLE,L_SHOULDER_ANGLE,R_SHOULDER_ANGLE,R_SHOULDER_ANGLE,R_SHOULDER_ANGLE,L_ELBOW_ANGLE,L_ELBOW_ANGLE,L_ELBOW_ANGLE,R_ELBOW_ANGLE,R_ELBOW_ANGLE,R_ELBOW_ANGLE,L_WRIST_ANGLE,L_WRIST_ANGLE,L_WRIST_ANGLE,R_WRIST_ANGLE,R_WRIST_ANGLE,R_WRIST_ANGLE,NECK_ANGLE,NECK_ANGLE,NECK_ANGLE,NECK_ANGLE_SHADOW,NECK_ANGLE_SHADOW,NECK_ANGLE_SHADOW,Trunk_Joint_Angle,Trunk_Joint_Angle,Trunk_Joint_Angle
ITEM,X,Y,Z,X,Y,Z,X,Y,Z,X,Y,Z,X,Y,Z,X,Y,Z,X,Y,Z,X,Y,Z,X,Y,Z,X,Y,Z,X,Y,Z,X,Y,Z,X,Y,Z,X,Y,Z,X,Y,Z,X,Y,Z,X,Y,Z
666,-3.71465,0.0,-0.0,-7.99411,0.0,-0.0,6.65692,-2.82601,4.62648,-4.59793,9.37628,1.7362,-17.07886,-0.62189,0.00022,-7.09345,-0.35269,1e-05,20.43451,1.28454,5.59775,23.08361,1.55628,-4.17596,-4.02124,12.31404,-8.72806,-10.28784,-14.64294,4.26712,46.74866,-0.00361,-100.36842,22.43032,0.00177,94.50337,5.10652,-10.73445,6e-05,-4.09219,4.74939,0.00307,-7.90467,6.27552,-15.512,-28.83358,11.44509,-12.24963,-5.04559,6.51864,-3.4133
667,-4.29258,-0.0,-0.0,-8.65272,0.0,-0.0,6.90935,-2.75008,4.62996,-4.54418,9.26118,2.02469,-16.77363,-0.49589,6e-05,-6.64601,-0.31538,-0.00059,20.0953,1.32303,5.41836,22.76867,1.67108,-4.39879,-4.06302,12.30162,-9.03273,-10.38625,-14.68581,4.00558,47.15485,-0.00321,-99.49075,22.55216,0.00296,94.60098,4.66992,-8.72309,-0.00984,-4.88516,4.36065,-0.0,-8.30266,6.59388,-15.6109,-29.24716,11.77755,-12.22721,-4.92742,6.69407,-3.41633
668,-4.25984,0.0,-0.0,-8.60319,0.0,-0.0,7.1535,-2.53502,4.36947,-4.82866,9.10305,2.45292,-16.46722,-0.37661,6e-05,-6.09964,-0.34868,-0.00073,19.57248,1.51915,5.48089,22.22639,1.94291,-4.70543,-3.98307,12.39106,-9.47903,-10.5132,-14.70403,3.78267,47.62023,-0.00254,-98.64307,22.7208,0.002,94.70448,3.92632,-7.43677,-0.00634,-5.28389,3.91526,-0.00484,-8.42505,7.11672,-15.86238,-29.3897,12.3551,-12.27443,-5.09516,6.96091,-3.39097
669,-3.85738,0.0,0.0,-7.87728,0.0,-0.0,7.37706,-2.12598,3.90663,-5.34276,8.94829,2.88145,-16.08706,-0.2774,0.00015,-5.50659,-0.38272,-0.00031,18.99356,1.75501,5.75355,21.63543,2.24354,-4.92041,-3.84524,12.55629,-9.987,-10.56876,-14.73458,3.66078,48.37552,-0.00334,-98.15801,22.84871,0.00112,94.73669,3.38721,-7.59816,-0.00287,-5.25761,3.51245,-0.00691,-8.33822,7.6505,-16.14424,-29.32339,12.95357,-12.34611,-5.3974,7.22779,-3.3181
670,-3.36773,0.0,-0.0,-6.66617,0.0,0.0,7.56942,-1.60287,3.40755,-5.84107,8.80321,3.27117,-15.58114,-0.21298,0.00011,-4.96962,-0.36804,0.00022,18.46086,1.90714,6.1684,21.16677,2.43086,-5.02052,-3.74523,12.72603,-10.47606,-10.52542,-14.80693,3.75143,49.52565,-0.00354,-98.04528,22.91236,0.00181,93.94912,3.44546,-9.30964,-0.01515,-5.24097,3.43279,-0.00615,-8.31538,8.00944,-16.362,-29.31319,13.36597,-12.42091,-5.59804,7.40578,-3.21949
671,-2.93834,-0.0,0.0,-5.35738,0.0,-0.0,7.74147,-1.1446,3.07326,-6.09819,8.66096,3.63047,-14.97994,-0.18573,-1e-05,-4.55016,-0.29789,0.00036,17.9958,1.94773,6.65165,20.86136,2.47662,-5.04984,-3.72376,12.83425,-10.90546,-10.44266,-14.85113,3.75774,50.87164,0.00106,-98.32156,22.93599,0.00326,92.61872,3.93871,-11.66933,-0.01986,-5.46539,3.75747,-0.0047,-8.54448,8.14444,-16.53869,-29.5396,13.55469,-12.5391,-5.58063,7.47224,-3.11488
672,-2.72589,0.0,-0.0,-4.39096,0.0,0.0,7.91285,-0.95444,3.05272,-6.06945,8.60392,3.91462,-14.35019,-0.1851,-9e-05,-4.25161,-0.22129,8e-05,17.51271,1.90826,7.11628,20.61499,2.4495,-4.97119,-3.72552,12.88212,-11.29818,-10.33881,-14.75997,3.23988,52.05648,0.0072,-99.15813,22.90194,0.00483,92.04204,4.37568,-13.42275,-0.00708,-5.71845,4.24126,-0.002,-8.93698,8.10844,-16.65812,-29.91926,13.56343,-12.66591,-5.4615,7.43045,-3.02345
673,-2.81843,-0.0,0.0,-3.9816,0.0,-0.0,8.06586,-1.13203,3.34449,-5.91846,8.7545,4.09387,-13.76056,-0.20312,-0.0001,-4.08759,-0.22741,-0.00012,16.96545,1.82648,7.49955,20.36412,2.43195,-4.74448,-3.67042,12.93959,-11.73138,-10.17259,-14.53727,2.27876,52.93707,0.00645,-100.36332,22.80639,0.0046,92.38842,4.33373,-14.14983,0.00401,-5.91132,4.72133,-0.00129,-9.29197,7.97432,-16.56949,-30.26997,13.40678,-12.63104,-5.40475,7.28453,-2.98107
674,-3.04132,-0.0,0.0,-4.06536,0.0,-0.0,8.15191,-1.54457,3.77464,-5.81574,9.1026,4.23987,-13.28374,-0.23962,-7e-05,-4.11924,-0.35803,0.00027,16.49203,1.7459,7.83851,20.23946,2.46757,-4.46621,-3.54835,13.09419,-12.24004,-9.92319,-14.31106,1.48357,53.71383,-0.00123,-101.2001,22.70286,0.0007,92.24741,3.65927,-14.34385,0.00759,-6.32132,5.2162,-0.00297,-9.54985,7.79343,-16.17198,-30.54466,13.09686,-12.3199,-5.39098,7.05966,-3.01295
675,-3.11027,-0.0,-0.0,-4.471,0.0,0.0,8.14802,-1.92472,4.13437,-5.74476,9.47186,4.39944,-12.95465,-0.29352,-4e-05,-4.36771,-0.54075,0.00059,16.23456,1.71231,8.21562,20.36174,2.55863,-4.27788,-3.42487,13.38523,-12.74275,-9.61609,-14.21264,1.39366,54.66429,-0.00924,-101.19692,22.6201,-0.00361,90.47272,2.56056,-14.45819,0.00566,-7.14982,5.61987,-0.00194,-9.77958,7.59516,-15.61264,-30.80178,12.71305,-11.86196,-5.3222,6.813,-3.11308
676,-2.92207,0.0,0.0,-4.98149,0.0,0.0,8.05153,-2.13259,4.30914,-5.62582,9.6717,4.5115,-12.72176,-0.34208,3e-05,-4.71378,-0.66206,0.0002,16.10983,1.73246,8.66624,20.60158,2.67622,-4.18967,-3.3439,13.75756,-13.15778,-9.31929,-14.26533,1.99315,55.80194,-0.00983,-100.64183,22.56601,-0.00361,87.51012,1.44944,-14.42011,-0.00143,-8.22732,5.78166,0.0014,-10.00287,7.40227,-15.17622,-31.04258,12.37773,-11.51913,-5.22264,6.60369,-3.25466
677,-2.62237,0.0,-0.0,-5.3449,0.0,0.0,7.85583,-2.2601,4.34471,-5.51821,9.68325,4.53992,-12.48576,-0.3472,0.00023,-4.96991,-0.69354,-0.00018,15.92566,1.74742,9.12897,20.72483,2.76858,-4.08913,-3.25363,14.08254,-13.53211,-9.12642,-14.37453,2.74927,56.87918,-0.00536,-99.97688,22.59956,-0.00032,84.87894,0.64403,-14.06766,-0.00595,-9.16751,5.80172,0.00202,-10.18193,7.25969,-15.02681,-31.22155,12.19145,-11.42997,-5.17667,6.45235,-3.4091
678,-2.47635,0.0,0.0,-5.40588,0.0,-0.0,7.58685,-2.43392,4.41282,-5.53606,9.64861,4.5584,-12.19264,-0.29579,0.00051,-5.06782,-0.69882,-0.00017,15.65041,1.68161,9.47305,20.69574,2.78844,-3.88771,-3.07828,14.25333,-13.91235,-9.06236,-14.42719,3.11095,57.73989,-0.00076,-99.39062,22.77418,-0.00019,83.71687,0.38297,-13.62561,-0.00477,-9.61556,5.90695,0.00165,-10.33756,7.24172,-15.11544,-31.36922,12.20624,-11.52052,-5.1729,6.3407,-3.57378
679,-2.62942,-0.0,0.0,-5.25327,0.0,0.0,7.30738,-2.59166,4.63484,-5.67578,9.68383,4.63809,-11.86215,-0.2268,0.00052,-5.09354,-0.73151,-6e-05,15.40983,1.5289,9.63204,20.66901,2.73283,-3.59738,-2.81699,14.28817,-14.22829,-9.02427,-14.39014,2.90631,58.50663,0.00578,-99.14037,23.06995,-0.002,83.92982,0.7589,-13.47556,-0.00446,-9.39372,6.12521,0.00191,-10.5349,7.39567,-15.27689,-31.56657,12.40741,-11.61696,-5.14869,6.24168,-3.77292
680,-2.9819,0.0,0.0,-5.24642,0.0,0.0,7.06599,-2.59887,5.01865,-5.85278,9.85702,4.7113,-11.54056,-0.22516,7e-05,-5.12963,-0.78305,-4e-05,15.25866,1.37393,9.62815,20.72628,2.65166,-3.27329,-2.50908,14.32641,-14.45604,-8.88859,-14.29161,2.2755,59.36761,0.01088,-99.41288,23.44397,-0.00119,84.66679,1.30726,-13.63656,-0.00403,-8.60527,6.23929,-0.00047,-10.76907,7.67001,-15.38704,-31.81442,12.70266,-11.62048,-5.13033,6.13679,-4.0129
681,-3.31563,-0.0,0.0,-5.67963,0.0,-0.0,6.87094,-2.48921,5.50313,-6.03505,10.23714,4.6728,-11.25821,-0.35774,-0.0004,-5.17264,-0.83401,-0.00011,15.12539,1.31532,9.51272,20.80479,2.60633,-2.95806,-2.15602,14.47764,-14.71172,-8.63001,-14.15081,1.47205,60.35578,0.00592,-99.8193,23.86143,0.001,85.35963,1.17307,-13.78654,-0.00222,-7.67028,6.07069,-0.00304,-10.9667,7.90853,-15.42523,-32.02869,12.93885,-11.56881,-5.20291,6.01635,-4.26263
682,-3.47947,0.0,-0.0,-6.32681,0.0,-0.0,6.69114,-2.38193,5.90248,-6.2496,10.7253,4.62415,-11.01547,-0.59433,-0.00046,-5.2204,-0.90397,-6e-05,14.9748,1.37518,9.42352,20.87739,2.62301,-2.71628,-1.72275,14.70705,-15.09017,-8.30839,-13.98382,0.79908,61.36069,-0.00407,-99.79336,24.29047,0.00238,86.01769,0.04589,-13.69229,-0.00323,-7.08737,5.73763,-0.00142,-11.10224,7.94435,-15.38546,-32.17015,12.95812,-11.51788,-5.36273,5.87931,-4.49459
683,-3.49432,0.0,0.0,-6.61914,-0.0,0.0,6.48824,-2.31629,5.97087,-6.49828,11.01089,4.85154,-10.78113,-0.8253,-0.00015,-5.33062,-1.0255,0.00025,14.88236,1.49347,9.57077,21.04697,2.6861,-2.63988,-1.19221,14.92699,-15.57804,-8.01296,-13.83325,0.49993,62.21797,-0.00697,-99.30212,24.77727,0.00335,86.67178,-1.52095,-13.30869,-0.00569,-7.0422,5.58713,0.00013,-11.24678,7.7509,-15.22464,-32.31077,12.72033,-11.43672,-5.48984,5.72328,-4.71188
684,-3.58804,0.0,0.0,-6.45368,0.0,0.0,6.30178,-2.33745,5.70246,-6.69518,10.91987,5.45819,-10.5206,-0.96531,0.00032,-5.55689,-1.17894,0.00045,14.95112,1.6113,9.99893,21.44885,2.76831,-2.72409,-0.60908,15.13645,-16.12887,-7.82782,-13.72176,0.56445,62.82051,-0.00231,-98.75613,25.46025,0.00258,87.20329,-2.86223,-12.60903,-0.00643,-7.31418,5.88867,-0.00072,-11.48746,7.48529,-14.94373,-32.55079,12.3724,-11.26834,-5.44665,5.54408,-4.94
685,-3.98785,0.0,0.0,-6.37851,0.0,-0.0,6.23402,-2.50468,5.39385,-6.72831,10.65563,6.20446,-10.22146,-1.02305,0.00063,-5.86915,-1.28445,0.00014,15.17874,1.73425,10.49407,22.07965,2.85604,-2.81584,-0.0764,15.39128,-16.65426,-7.78256,-13.60976,0.75591,63.24154,0.00317,-98.52367,26.38526,-0.00204,87.72469,-3.72126,-11.65704,-0.00247,-7.59729,6.54199,-0.0004,-11.84654,7.33609,-14.61588,-32.92179,12.1163,-11.01278,-5.19911,5.35346,-5.21583
686,-4.51485,0.0,0.0,-6.60751,0.0,-0.0,6.26599,-2.69679,5.26399,-6.66393,10.54001,6.87093,-9.8669,-1.07321,0.00053,-6.1561,-1.28815,-0.00022,15.36821,1.89434,10.88118,22.70996,2.94816,-2.79308,0.28714,15.70578,-16.97135,-7.81632,-13.45422,0.92434,63.69576,0.00499,-98.58537,27.37874,-0.00581,88.43736,-4.08129,-10.67404,0.00394,-7.82197,7.08669,0.00149,-12.27633,7.36464,-14.29431,-33.37628,12.02819,-10.69798,-4.89197,5.17119,-5.55726
687,-4.69439,0.0,0.0,-6.58705,-0.0,0.0,6.21346,-2.65273,5.23383,-6.72595,10.67056,7.5192,-9.42301,-1.18003,3e-05,-6.33711,-1.21968,-0.00018,15.28225,2.08659,11.22541,23.084,3.04001,-2.6813,0.4049,16.05371,-16.92741,-7.82449,-13.2869,1.16157,64.34232,0.00152,-98.5647,28.22165,-0.00505,89.25667,-4.07263,-9.81157,0.00592,-8.05246,7.11603,0.00309,-12.69515,7.50872,-13.95245,-33.82932,12.04046,-10.32158,-4.731,4.99977,-5.94057
688,-4.38115,0.0,-0.0,-5.93863,0.0,-0.0,5.94904,-2.26487,5.20863,-6.97327,10.95111,8.29346,-8.87548,-1.35914,-0.00065,-6.48283,-1.14035,-4e-05,14.89047,2.27298,11.63328,23.20141,3.1227,-2.53069,0.30173,16.40876,-16.58577,-7.76404,-13.19667,1.60493,65.16006,-0.00382,-98.15132,28.90947,-0.00294,89.95264,-4.01864,-8.9886,0.00097,-8.22245,6.7073,0.00216,-13.04028,7.67149,-13.54593,-34.21347,12.04685,-9.87726,-4.77917,4.8147,-6.29201
689,-3.85216,0.0,-0.0,-5.00144,0.0,-0.0,5.55077,-1.69868,5.30658,-7.21613,11.31961,9.21474,-8.25056,-1.58878,-0.0011,-6.73732,-1.08052,-3e-05,14.31853,2.44877,12.06971,23.22824,3.21664,-2.33597,0.10615,16.74267,-16.19925,-7.69692,-13.24543,2.27762,65.99597,-0.00509,-97.39086,29.63395,0.00149,90.29291,-4.20324,-8.05977,-0.00597,-8.26068,6.31911,-0.00012,-13.29896,7.77558,-13.10128,-34.50784,11.98463,-9.41877,-4.96837,4.59626,-6.50358
690,-3.3807,0.0,0.0,-4.30771,-0.0,0.0,5.20327,-1.26029,5.67406,-7.28334,11.85427,10.15866,-7.61454,-1.81896,-0.00081,-7.10599,-1.03572,-3e-05,13.70336,2.67582,12.42517,23.25665,3.38002,-2.11247,-0.05532,17.01927,-15.98329,-7.71375,-13.41246,3.12593,66.7142,-0.00252,-96.53983,30.51813,0.00941,90.07164,-4.56836,-7.1307,-0.00674,-8.33981,6.22855,-0.00124,-13.48172,7.78138,-12.67284,-34.71653,11.83637,-9.01221,-5.19741,4.38357,-6.53287
691,-3.05894,0.0,-0.0,-4.0473,-0.0,-0.0,5.02402,-1.17005,6.23934,-7.17359,12.6614,10.94502,-7.0615,-1.98689,3e-05,-7.43569,-0.99181,7e-05,13.20791,3.00988,12.67397,23.31759,3.64418,-1.93614,-0.15521,17.21215,-15.9666,-7.84255,-13.60572,4.01698,67.28337,-0.00043,-95.77962,31.48263,0.01239,89.41202,-4.82683,-6.51887,-0.00213,-8.65226,6.22951,-0.00048,-13.59451,7.71577,-12.23157,-34.84948,11.61679,-8.62027,-5.33614,4.24532,-6.44956
692,-2.82597,0.0,0.0,-3.9656,0.0,-0.0,4.96526,-1.36597,6.74646,-6.95083,13.67891,11.50464,-6.65741,-2.06746,0.00053,-7.6067,-0.93535,0.00027,12.94846,3.41853,12.93838,23.43628,3.9532,-1.8608,-0.20899,17.33072,-16.0729,-8.03992,-13.71412,4.69355,67.71035,0.00016,-95.16182,32.38331,0.00384,88.93705,-4.88459,-6.32323,0.00089,-9.05113,5.95336,0.00032,-13.6695,7.64843,-11.70494,-34.94798,11.36473,-8.14888,-5.30421,4.18174,-6.31998
693,-2.55358,0.0,0.0,-3.68895,-0.0,0.0,4.86604,-1.54304,7.03931,-6.61558,14.69207,11.88315,-6.37704,-2.09523,0.00037,-7.65442,-0.83863,0.00026,12.87381,3.79895,13.31681,23.59134,4.18513,-1.83017,-0.17507,17.4292,-16.23639,-8.22327,-13.66413,4.91202,67.95695,0.00059,-94.72579,33.17043,-0.00838,89.27044,-4.93535,-6.27886,0.00118,-9.25053,5.33127,-0.00122,-13.77304,7.58651,-11.12114,-35.07672,11.09693,-7.62212,-5.1696,4.10884,-6.14667
694,-2.2347,0.0,-0.0,-3.16415,-0.0,-0.0,4.60649,-1.46335,7.26391,-6.11661,15.5377,12.09885,-6.11465,-2.11816,-5e-05,-7.71425,-0.67503,-0.00032,12.85861,4.05791,13.67022,23.7528,4.23839,-1.74521,0.01314,17.57404,-16.38899,-8.31344,-13.4709,4.70908,67.96707,0.00162,-94.42462,33.8914,-0.01143,90.26676,-5.12297,-6.05112,0.00044,-9.33117,4.64289,-0.00162,-13.92025,7.47267,-10.6231,-35.23969,10.81142,-7.19575,-5.05472,3.9495,-5.95457
695,-1.98693,0.0,-0.0,-2.56797,-0.0,0.0,4.18626,-1.18563,7.64766,-5.48375,16.16115,12.17724,-5.78107,-2.1456,-0.00025,-7.91111,-0.47393,-0.00119,12.82753,4.18295,13.78723,23.92074,4.12562,-1.62239,0.34194,17.78467,-16.45827,-8.31155,-13.23448,4.42287,67.74103,0.00258,-94.06124,34.62325,-0.00298,91.08446,-5.38981,-5.51068,0.0004,-9.74203,4.21547,-0.00139,-14.0501,7.30187,-10.3228,-35.37152,10.54404,-6.97662,-5.00545,3.71422,-5.80913
696,-1.79999,-0.0,-0.0,-1.89001,0.0,-0.0,3.67795,-0.95446,8.07837,-4.88677,16.52588,12.28244,-5.39457,-2.14359,-6e-05,-8.32393,-0.33059,-0.00112,12.73027,4.25796,13.80137,24.0759,3.98528,-1.60042,0.69793,18.00564,-16.42859,-8.31889,-13.04939,4.36878,67.34892,-0.00027,-93.66383,35.41919,0.00707,91.15116,-5.69326,-4.78528,0.00092,-10.7076,4.15782,-0.00359,-14.14446,7.10597,-10.15704,-35.46019,10.30175,-6.89327,-5.00659,3.47901,-5.71282
697,-1.53022,0.0,0.0,-1.05732,0.0,-0.0,3.17209,-0.92212,8.16619,-4.45194,16.60845,12.59079,-5.06192,-2.07366,0.0001,-9.0151,-0.33938,0.00072,12.57747,4.3829,14.12245,24.225,3.9598,-1.78477,0.98004,18.1649,-16.36718,-8.4078,-12.93224,4.5809,66.85262,-0.00616,-93.51403,36.23787,0.00817,90.73682,-6.16834,-4.09481,-7e-05,-11.85359,4.32897,-0.00405,-14.27491,6.84979,-9.90564,-35.58501,9.97239,-6.7517,-5.00545,3.29192,-5.60039
698,-1.21958,0.0,0.0,-0.31946,0.0,-0.0,2.76347,-1.05625,7.83465,-4.06796,16.49262,12.98491,-4.86487,-1.93811,-5e-05,-9.99966,-0.50961,0.00279,12.47372,4.57569,14.81371,24.42675,4.05978,-2.13551,1.20788,18.25986,-16.37787,-8.5028,-12.85291,4.91921,66.23813,-0.00589,-93.44048,36.89822,0.00292,90.54702,-6.99124,-3.52524,-0.00266,-12.61014,4.50845,-0.00146,-14.4865,6.49321,-9.39088,-35.79614,9.45439,-6.39993,-4.93945,3.1412,-5.47674
699,-1.16288,0.0,0.0,-0.01255,-0.0,-0.0,2.52786,-1.30383,7.5665,-3.47246,16.39714,13.01492,-4.77511,-1.78929,-0.00024,-11.18802,-0.74203,0.00231,12.45133,4.79363,15.3733,24.63384,4.18142,-2.47615,1.46961,18.33182,-16.48413,-8.47296,-12.79114,5.27404,65.46001,0.00467,-92.84153,37.2263,0.00106,91.03362,-8.0897,-3.03028,-0.0039,-12.79802,4.6295,0.00094,-14.7307,6.11866,-8.64429,-36.04771,8.83574,-5.83759,-4.84247,3.01717,-5.45428
700,-1.57772,0.0,0.0,-0.10234,0.0,0.0,2.45475,-1.66346,7.7941,-2.44993,16.45202,12.29254,-4.69974,-1.67894,-0.00021,-12.47065,-0.91109,-0.00044,12.43657,5.01841,15.36631,24.72508,4.23657,-2.63012,1.80016,18.3705,-16.57046,-8.30828,-12.73981,5.56022,64.51057,0.01703,-91.52951,37.2965,0.00137,92.11266,-9.11013,-2.59839,-0.00183,-12.62342,4.80426,0.00264,-14.93989,5.86365,-7.82589,-36.27176,8.3022,-5.16462,-4.79122,2.94745,-5.60403
701,-2.31812,0.0,-0.0,-0.24251,0.0,-0.0,2.42438,-2.08931,8.35492,-0.98951,16.51367,10.87994,-4.58055,-1.60319,-8e-05,-13.84029,-0.98324,-0.00219,12.40969,5.27759,14.97828,24.72778,4.23626,-2.56884,2.15485,18.31571,-16.49126,-8.10995,-12.69897,5.69348,63.42437,0.0172,-90.01651,37.36023,-0.0002,93.30717,-9.75568,-2.31885,0.0011,-12.31892,4.99467,0.00278,-15.08572,5.73952,-7.01721,-36.43604,7.89379,-4.45333,-4.75305,2.96006,-5.82892
702,-2.95681,-0.0,0.0,-0.14498,0.0,0.0,2.30923,-2.45836,8.85036,0.61423,16.40692,9.21677,-4.41997,-1.52341,6e-05,-15.33799,-1.0307,-0.00119,12.39736,5.60325,14.70332,24.77236,4.26158,-2.39061,2.46432,18.14119,-16.21326,-7.94369,-12.68593,5.69095,62.26064,0.001,-89.13414,37.51703,-0.00066,94.09786,-10.02962,-2.29722,0.00206,-11.98194,4.85352,0.00016,-15.14841,5.62291,-6.18458,-36.51474,7.48343,-3.71755,-4.65781,3.04901,-5.92837
703,-3.17873,0.0,0.0,0.23983,-0.0,-0.0,2.1008,-2.60549,9.13559,1.92705,16.16434,7.75592,-4.26266,-1.4112,7e-05,-16.92079,-1.13194,0.00093,12.39746,5.98283,14.77803,24.89971,4.35055,-2.25141,2.71427,17.88357,-15.85164,-7.78553,-12.72144,5.6602,61.06268,-0.01477,-89.28178,37.63997,-0.00038,94.21208,-10.1466,-2.48277,0.00148,-11.61306,4.18445,-0.00307,-15.10635,5.43344,-5.32907,-36.48224,6.99668,-2.98779,-4.52469,3.18006,-5.78573
704,-3.1884,-0.0,-0.0,0.73897,-0.0,-0.0,1.92782,-2.47926,9.34729,2.72165,15.9219,6.64013,-4.15903,-1.26124,-3e-05,-18.44912,-1.28809,0.00143,12.39729,6.34592,15.03425,25.02584,4.43083,-2.28117,2.97929,17.59299,-15.56794,-7.5771,-12.80116,5.65834,59.8098,-0.0137,-89.97121,37.59349,-0.00178,93.7147,-10.34861,-2.65711,0.00051,-11.18911,3.32657,-0.00309,-14.9854,5.22399,-4.54279,-36.3656,6.51627,-2.33056,-4.42542,3.30694,-5.47416
705,-3.56856,0.0,-0.0,1.02607,0.0,-0.0,1.9219,-2.23085,9.72406,3.108,15.76565,5.70428,-4.10341,-1.10468,-0.0001,-19.80002,-1.44989,0.00049,12.3956,6.61633,15.15301,25.05402,4.39193,-2.46436,3.31257,17.27951,-15.37967,-7.30001,-12.89033,5.64777,58.46047,-0.00158,-90.4453,37.38306,-0.00229,93.01263,-10.71533,-2.66465,-0.00052,-10.73967,2.8077,0.00024,-14.86885,5.05727,-3.87134,-36.25108,6.11721,-1.76518,-4.37057,3.38797,-5.17441
706,-4.4773,0.0,0.0,0.88005,0.0,-0.0,2.0337,-2.00337,10.31976,3.34883,15.6629,4.87954,-4.02629,-0.99514,-0.0001,-20.96446,-1.60136,0.00013,12.40414,6.78337,15.07825,24.99028,4.19489,-2.70713,3.61021,16.91623,-15.11424,-7.02227,-12.95942,5.58889,57.05798,0.00557,-90.46976,37.12345,-0.00026,92.64939,-11.0792,-2.55384,-0.00077,-10.37646,2.79617,0.00264,-14.83024,4.87084,-3.22325,-36.21162,5.70822,-1.22908,-4.25463,3.41468,-5.00905
707,-5.35818,0.0,-0.0,0.40138,0.0,-0.0,2.07095,-1.84213,10.9379,3.64996,15.46785,4.29804,-3.87539,-0.94895,-0.0001,-22.02984,-1.75134,0.00022,12.43315,6.90418,15.03783,24.91552,3.88693,-2.95208,3.70848,16.49832,-14.62116,-6.84722,-13.03038,5.56404,55.71623,0.00318,-90.26765,36.93452,0.00111,92.80598,-11.26401,-2.50683,-0.00049,-10.22863,3.05125,0.00257,-14.85825,4.55393,-2.47767,-36.23312,5.14225,-0.65008,-3.96144,3.41076,-4.96683
708,-5.74879,0.0,-0.0,-0.15875,0.0,0.0,1.9433,-1.82493,11.41015,4.12181,15.05567,3.86283,-3.6925,-0.92528,-7e-05,-23.10632,-1.86278,-0.00051,12.50415,7.0251,15.12931,24.90118,3.51928,-3.12442,3.62691,16.06531,-13.92979,-6.78887,-13.14624,5.74967,54.45295,0.00032,-90.00274,36.87341,0.00048,93.18011,-11.33318,-2.64084,-0.00028,-10.30789,3.34623,0.00247,-14.84413,4.13812,-1.60755,-36.20808,4.43888,0.00868,-3.50477,3.36786,-4.96793
709,-5.72144,0.0,0.0,-0.56968,0.0,-0.0,1.71772,-2.01213,11.7317,4.73694,14.50283,3.23145,-3.56808,-0.88258,-6e-05,-24.2513,-1.90059,-0.00112,12.61107,7.13012,15.22762,24.93545,3.08648,-3.16894,3.56707,15.64215,-13.13649,-6.74694,-13.29023,6.1992,53.13601,0.0022,-89.62319,36.92265,-0.0007,93.48615,-11.43305,-2.89372,-0.00027,-10.45602,3.75079,0.00317,-14.67783,3.79284,-0.65939,-36.03042,3.77282,0.76581,-3.03953,3.22325,-4.95411
710,-5.44024,0.0,-0.0,-0.6297,0.0,-0.0,1.48209,-2.31561,12.01788,5.29963,14.06663,2.30323,-3.53151,-0.83258,-7e-05,-25.41354,-1.91261,-0.00032,12.63452,7.20137,15.25265,24.87023,2.58092,-3.15538,3.64333,15.21061,-12.28538,-6.63098,-13.40241,6.78135,51.66565,0.00426,-89.13512,36.98221,-0.0023,93.56607,-11.54944,-3.15529,-0.00073,-10.52547,4.28769,0.00349,-14.37233,3.59964,0.31218,-35.71331,3.23994,1.60007,-2.74614,2.955,-4.89394
711,-5.11526,-0.0,-0.0,-0.3674,-0.0,-0.0,1.34212,-2.57357,12.47024,5.65589,13.89153,1.24301,-3.55421,-0.81397,-3e-05,-26.46863,-1.94079,0.00025,12.47813,7.28834,15.20813,24.56568,2.06213,-3.13373,3.73796,14.76549,-11.40304,-6.46407,-13.45632,7.35372,50.10547,0.00416,-88.66522,36.90071,-0.00493,93.21723,-11.61459,-3.36708,-0.00104,-10.51458,4.61236,0.00233,-14.051,3.45686,1.26431,-35.37706,2.76121,2.43448,-2.63838,2.65156,-4.77084
712,-5.1005,0.0,0.0,-0.08697,0.0,-0.0,1.40891,-2.70559,13.09766,5.85066,13.85429,0.16705,-3.62454,-0.82961,3e-05,-27.30566,-1.94607,-0.0004,12.26631,7.48187,15.14285,24.07727,1.62435,-3.03338,3.64917,14.33834,-10.51824,-6.34901,-13.45217,7.81135,48.57864,0.0024,-88.31791,36.61244,-0.00469,92.66802,-11.70086,-3.49356,-0.0003,-10.41611,4.52525,0.00064,-13.81553,3.26608,2.1604,-35.12254,2.2583,3.19921,-2.51709,2.44799,-4.61453
713,-5.44767,-0.0,0.0,0.02978,0.0,0.0,1.6392,-2.73344,13.53285,5.98063,13.79966,-0.83175,-3.74663,-0.84931,9e-05,-27.88037,-1.92572,-0.00078,12.20982,7.83328,15.20288,23.56623,1.3111,-2.86086,3.33769,13.95039,-9.65641,-6.35166,-13.38312,8.04611,47.08927,-0.00123,-88.19913,36.23166,0.00112,92.69514,-11.92509,-3.54269,0.00177,-10.20328,4.47226,1e-05,-13.66431,3.079,2.96297,-34.9509,1.79294,3.8783,-2.20413,2.412,-4.48213
714,-5.79605,-0.0,0.0,0.09203,0.0,0.0,1.84182,-2.74678,13.49388,6.07442,13.70609,-1.60631,-3.90969,-0.85358,8e-05,-28.25466,-1.97416,-0.00022,12.33379,8.28365,15.45496,23.10211,1.06306,-2.76358,3.03365,13.59645,-8.9009,-6.4165,-13.26368,8.04635,45.46793,-0.00338,-88.32117,35.93401,0.00558,93.59741,-12.2386,-3.61707,0.00403,-10.02907,5.01148,-0.00176,-13.52593,2.97863,3.65703,-34.79309,1.44791,4.48797,-1.76816,2.48154,-4.37324
715,-5.819,0.0,-0.0,0.20607,0.0,0.0,1.89055,-2.89946,13.20663,6.13446,13.5614,-2.10137,-4.1079,-0.82894,-9e-05,-28.57479,-2.16317,0.00075,12.50306,8.67792,15.70524,22.66488,0.74598,-2.84457,3.06563,13.26394,-8.35598,-6.4091,-13.16042,7.94777,43.52491,-0.00381,-88.51958,35.75845,0.00504,94.58395,-12.38,-3.92981,0.00122,-10.09805,6.00421,-0.00452,-13.35435,2.93362,4.29103,-34.60195,1.17641,5.06188,-1.42775,2.51784,-4.22705
716,-5.53563,-0.0,-0.0,0.30364,0.0,-0.0,1.8318,-3.33272,13.14027,6.1532,13.35957,-2.42449,-4.3466,-0.75909,-0.00035,-28.93779,-2.44416,0.00115,12.66647,8.89164,15.68609,22.2712,0.25557,-3.0427,3.51937,12.92654,-7.95294,-6.25588,-13.15718,7.90275,41.28447,-0.00754,-88.69832,35.56096,-0.00132,94.58942,-12.03935,-4.69411,-0.01087,-10.38678,6.69558,-0.00162,-13.19335,2.84199,4.97871,-34.417,0.84223,5.66896,-1.25105,2.43121,-4.02172
717,-5.15672,0.0,-0.0,0.31321,0.0,0.0,1.75177,-3.98235,13.49814,6.09908,13.18888,-2.73862,-4.58662,-0.67415,-0.00037,-29.28911,-2.69317,0.0005,12.88051,8.95195,15.37932,21.95964,-0.38767,-3.16838,4.119,12.5552,-7.4356,-6.02263,-13.27184,7.9626,38.97986,-0.00727,-88.84001,35.16534,-0.01276,93.33948,-11.15399,-5.76914,-0.01929,-10.72728,6.56592,0.004,-13.11074,2.64465,5.84745,-34.30046,0.34436,6.40659,-1.07655,2.23965,-3.80087
718,-4.69289,0.0,0.0,0.314,0.0,0.0,1.60767,-4.52548,14.03661,5.93522,13.07674,-3.12497,-4.7278,-0.65369,-0.00025,-29.49842,-2.82572,-0.00025,13.12197,9.00447,15.05338,21.67631,-1.05967,-3.0873,4.52712,12.14077,-6.62837,-5.84252,-13.41031,8.04849,36.76967,0.00902,-88.72861,34.54906,-0.01654,91.55083,-10.07197,-6.45841,-0.00943,-10.97593,5.92074,0.00479,-13.07006,2.37243,6.94776,-34.21191,-0.30641,7.3334,-0.74877,2.02289,-3.59801
719,-4.0305,0.0,0.0,0.43945,0.0,-0.0,1.32644,-4.67969,14.36701,5.65973,12.88687,-3.5691,-4.69437,-0.71725,-0.00024,-29.51477,-2.85336,-0.00027,13.28616,9.15491,14.95175,21.32164,-1.65665,-2.88223,4.68534,11.67717,-5.59973,-5.79294,-13.4433,7.98315,34.59465,0.02818,-88.18134,33.85035,-0.0053,90.3858,-9.29335,-6.11336,0.00198,-11.02162,5.50552,0.00275,-12.94277,2.12346,8.1897,-34.02387,-0.98567,8.40149,-0.28241,1.85522,-3.40022
720,-3.34855,0.0,-0.0,0.74462,0.0,-0.0,1.00558,-4.52024,14.40411,5.32741,12.53667,-4.06536,-4.49233,-0.77712,-1e-05,-29.38473,-2.82842,0.00033,13.32347,9.37485,15.03634,20.86845,-2.17091,-2.70918,4.77399,11.1604,-4.48574,-5.85211,-13.34409,7.64571,32.36182,0.02054,-87.54301,33.19804,0.00852,90.55432,-8.99604,-4.974,0.001,-10.87305,5.63656,0.00256,-12.64228,1.98986,9.40565,-33.65574,-1.54677,9.48786,0.21047,1.77116,-3.17855
721,-3.00548,0.0,0.0,1.22057,-0.0,0.0,0.81286,-4.38105,14.41788,5.00157,12.15917,-4.63541,-4.16357,-0.76336,0.00035,-29.13661,-2.76814,0.00105,13.23719,9.57523,15.08072,20.32452,-2.66044,-2.58839,4.94588,10.60613,-3.25157,-5.95445,-13.20664,7.1152,30.12124,-0.01929,-87.52642,32.59914,0.01161,91.69576,-8.94911,-4.06112,-0.00279,-10.7033,5.93009,0.0031,-12.18495,1.9874,10.51059,-33.12866,-1.94444,10.51854,0.62371,1.75362,-2.93139
722,-3.01622,0.0,0.0,1.78924,-0.0,-0.0,0.74379,-4.45285,14.59844,4.67383,11.96041,-5.17063,-3.75106,-0.71621,0.00029,-28.73197,-2.70977,0.00053,13.04377,9.72452,15.01136,19.6823,-3.18093,-2.55951,5.20867,10.05252,-1.78392,-6.08547,-13.13582,6.61178,27.99112,-0.05099,-88.35494,32.01674,0.00347,92.75941,-8.88921,-4.19076,-0.00461,-10.62842,5.80196,0.00275,-11.65486,2.05207,11.58262,-32.52314,-2.26633,11.54313,0.92146,1.74756,-2.69558
723,-2.99496,-0.0,0.0,2.24258,0.0,-0.0,0.63782,-4.60649,14.7475,4.28261,12.0048,-5.41979,-3.31787,-0.70434,-7e-05,-28.1389,-2.77333,-0.00197,12.80742,9.8673,15.07545,18.97616,-3.72359,-2.81513,5.4908,9.57268,-0.16408,-6.29647,-13.16953,6.33891,25.99898,-0.03007,-89.07838,31.48057,-0.00644,93.07763,-8.81188,-5.1776,-0.00328,-10.51522,5.06119,-0.00083,-11.15004,2.09473,12.74491,-31.92911,-2.63938,12.64496,1.17078,1.70565,-2.50618
724,-2.74088,-0.0,0.0,2.42078,0.0,0.0,0.43074,-4.65355,14.6622,3.8294,12.1784,-5.36696,-2.94126,-0.73992,-0.00024,-27.40243,-2.97516,-0.00329,12.63219,10.05691,15.44286,18.29667,-4.23011,-3.34566,5.73284,9.2549,1.37957,-6.59931,-13.26275,6.32685,24.08026,0.02827,-88.28842,31.04269,-0.00987,92.91032,-8.86864,-6.12416,-0.00011,-10.18003,4.03064,-0.00517,-10.71445,2.0652,13.97664,-31.3916,-3.10269,13.78718,1.46924,1.62256,-2.36973
725,-2.5168,0.0,0.0,2.44026,0.0,0.0,0.25499,-4.60694,14.53375,3.41446,12.31402,-5.37241,-2.67299,-0.79486,-0.00014,-26.6338,-3.0914,-0.00081,12.59026,10.29341,15.84918,17.72143,-4.6958,-3.78257,5.92553,9.11865,2.78423,-6.90852,-13.29737,6.3562,22.23048,0.05955,-85.76504,30.66608,-0.00532,93.03818,-9.13956,-6.46123,0.00126,-9.71822,3.21669,-0.00417,-10.29623,1.98288,15.09578,-30.87449,-3.57375,14.80665,1.83476,1.51788,-2.27556
726,-2.48625,-0.0,-0.0,2.4184,0.0,0.0,0.20889,-4.59927,14.53037,3.12808,12.27188,-5.61398,-2.51478,-0.83045,1e-05,-25.93445,-2.95179,0.00183,12.67337,10.52458,16.03187,17.26471,-5.18826,-3.94357,6.08796,9.07363,4.2725,-7.11678,-13.17271,6.15903,20.58779,0.03414,-82.80209,30.23632,0.00676,94.13667,-9.5454,-6.39309,0.00199,-9.38806,3.04182,-0.00026,-9.80771,1.9139,15.92845,-30.30815,-3.93033,15.56335,2.19705,1.39909,-2.18934
727,-2.43605,0.0,-0.0,2.19353,0.0,-0.0,0.22594,-4.72659,14.47384,2.96689,11.97536,-5.82794,-2.42787,-0.82467,6e-05,-25.3186,-2.67737,0.00169,12.80289,10.70729,16.10671,16.87878,-5.74272,-4.07551,6.23495,8.98905,6.19817,-7.1754,-12.92378,5.71472,19.30146,-0.00801,-80.83199,29.6825,0.01777,96.24642,-9.81201,-6.34241,0.00208,-9.21263,3.69508,0.00283,-9.2337,1.92572,16.473,-29.67977,-4.10962,16.07863,2.47624,1.25698,-2.04805
728,-2.33043,0.0,-0.0,1.64874,0.0,-0.0,0.25378,-5.03364,14.31758,2.88245,11.55408,-5.86956,-2.35801,-0.7993,-1e-05,-24.71922,-2.45459,0.00042,12.87715,10.84871,16.1838,16.48122,-6.31764,-4.32852,6.35656,8.80628,8.70082,-7.13256,-12.69377,5.19635,18.39911,-0.02141,-80.03665,29.05824,0.01324,98.40034,-9.69192,-6.42814,0.00045,-8.96918,4.80107,0.00397,-8.64946,2.0578,16.93522,-29.04489,-4.14702,16.55886,2.64399,1.08342,-1.79448
729,-2.48208,0.0,0.0,0.96333,-0.0,-0.0,0.32684,-5.46585,14.32886,2.82801,11.32711,-5.95134,-2.25307,-0.78255,-5e-05,-24.05986,-2.33135,-0.00039,12.83861,10.97536,16.15936,16.0101,-6.85502,-4.55867,6.40035,8.58381,11.41695,-7.12601,-12.59032,4.72262,17.84839,-0.00771,-79.21284,28.4919,-0.00156,99.30495,-9.4783,-6.6109,0.00049,-8.56061,5.49666,-0.00022,-8.12015,2.3,17.58869,-28.44023,-4.14711,17.25716,2.73522,0.88075,-1.4287
730,-3.01756,0.0,0.0,0.43345,0.0,-0.0,0.42837,-5.84893,14.64532,2.71422,11.45489,-6.23597,-2.09168,-0.75616,6e-05,-23.29223,-2.27917,-0.00071,12.74357,11.092,15.99228,15.48054,-7.33693,-4.70665,6.30381,8.40392,13.78757,-7.26863,-12.6153,4.34988,17.65091,0.003,-77.18794,28.04784,-0.0088,98.74655,-9.88247,-6.90891,0.00498,-8.18847,5.3023,-0.00379,-7.62062,2.57828,18.53714,-27.82831,-4.21425,18.24512,2.83306,0.66536,-1.0333
731,-3.60277,0.0,0.0,0.27467,-0.0,0.0,0.44019,-6.04066,15.09083,2.39498,11.76415,-6.6351,-1.91143,-0.69346,0.00017,-22.39871,-2.25967,-0.00084,12.73103,11.19676,15.80837,14.96744,-7.78384,-4.9133,6.06352,8.27161,15.57515,-7.53614,-12.70105,4.12697,17.8224,-0.00157,-74.05717,27.66997,-0.00604,97.67473,-11.20002,-7.27719,0.00788,-8.09794,4.60957,-0.00173,-7.08385,2.78687,19.64772,-27.15571,-4.40041,19.36162,3.02207,0.46376,-0.71278
732,-3.79703,-0.0,-0.0,0.47961,0.0,-0.0,0.24685,-6.0303,15.36186,1.76132,11.9741,-6.95666,-1.77157,-0.62773,9e-05,-21.40608,-2.24333,-0.00091,12.86356,11.31903,15.7869,14.5145,-8.21887,-5.30707,5.74922,8.15864,16.84122,-7.8231,-12.76438,3.97334,18.3139,-0.00842,-70.53793,27.30459,-0.00028,97.02766,-12.9976,-7.50811,0.00196,-8.24575,4.14941,0.00031,-6.48509,2.86889,20.74297,-26.41889,-4.69753,20.42093,3.31811,0.29265,-0.49207
733,-3.6087,-0.0,0.0,0.79953,0.0,-0.0,-0.13396,-5.88809,15.33312,0.83804,11.90577,-7.11619,-1.67693,-0.62476,-9e-05,-20.37733,-2.19686,-0.00017,13.05572,11.49259,15.97517,14.09945,-8.65276,-5.83636,5.45873,8.05638,17.84672,-8.06626,-12.76362,3.73761,18.99628,-0.00519,-67.13602,27.02316,0.0023,97.0732,-14.56713,-7.38938,-0.00516,-8.33957,4.40374,0.00238,-5.84382,2.87863,21.74597,-25.64689,-5.02883,21.36977,3.65382,0.13863,-0.30966
734,-3.49007,0.0,0.0,0.94587,0.0,0.0,-0.55062,-5.75545,15.2353,-0.2474,11.55199,-7.24841,-1.58228,-0.68864,-0.00016,-19.36279,-2.06804,0.00147,13.20803,11.68501,16.16649,13.69821,-9.09854,-6.29635,5.25486,7.93847,19.04382,-8.26625,-12.74971,3.49144,19.77204,0.0019,-64.18584,26.93141,0.00064,97.54478,-15.46831,-6.89801,-0.00431,-8.22888,5.43594,0.00486,-5.17849,2.94747,22.60972,-24.86251,-5.25545,22.20832,3.94994,-0.03685,-0.10494
735,-3.65494,0.0,-0.0,0.77284,0.0,0.0,-0.88059,-5.80078,15.29815,-1.36885,11.13668,-7.51807,-1.48317,-0.73328,-7e-05,-18.37365,-1.86757,0.00195,13.32648,11.81471,16.15359,13.30182,-9.56012,-6.59212,5.13476,7.76824,20.68574,-8.4423,-12.82995,3.49629,20.66926,-0.00145,-61.66367,26.97558,-0.00086,98.04851,-15.7448,-6.1994,-1e-05,-8.08902,6.78347,0.00299,-4.48017,3.17361,23.27694,-24.06377,-5.26633,22.91481,4.15904,-0.25924,0.11655
736,-3.80764,0.0,-0.0,0.33322,0.0,-0.0,-1.1137,-6.04479,15.3756,-2.41813,11.00197,-7.88579,-1.44258,-0.67054,-8e-05,-17.40991,-1.70759,0.00024,13.45704,11.8546,16.0307,12.87331,-9.9979,-6.86806,5.05242,7.55914,22.54418,-8.61409,-13.05108,3.84026,21.77599,-0.0106,-59.3178,26.94539,9e-05,98.45236,-15.67197,-5.50832,0.00185,-8.10791,7.60482,0.00021,-3.72566,3.56173,23.79714,-23.22268,-5.07425,23.53655,4.24824,-0.51005,0.30601
737,-3.69297,0.0,-0.0,-0.18084,0.0,0.0,-1.26855,-6.33218,15.25581,-3.25368,11.30524,-8.21083,-1.50371,-0.51108,-0.00023,-16.49478,-1.66575,-0.0016,13.5948,11.8574,15.98775,12.3823,-10.36586,-7.26381,4.94016,7.36258,24.20997,-8.82872,-13.33767,4.30613,23.14311,-0.00691,-57.34451,26.74009,0.00169,98.93924,-15.38777,-4.94175,0.00193,-8.18952,7.39146,-0.00106,-2.92002,4.04137,24.35061,-22.32154,-4.80588,24.21954,4.21839,-0.75377,0.43656
738,-3.41026,0.0,-0.0,-0.65119,-0.0,-0.0,-1.36605,-6.52549,15.03353,-3.74418,11.86838,-8.41803,-1.62408,-0.34473,-0.00019,-15.67257,-1.68568,-0.00162,13.70782,11.86324,15.98306,11.86169,-10.69734,-7.75703,4.74083,7.20061,25.43361,-9.14766,-13.56736,4.57672,24.78264,0.00735,-56.20339,26.5262,0.00089,99.65611,-14.92245,-4.49475,0.00144,-8.12777,6.53267,-0.00269,-2.09733,4.48573,25.04741,-21.38088,-4.61674,25.02508,4.12029,-0.98315,0.52995
739,-3.13563,0.0,-0.0,-1.11714,0.0,-0.0,-1.45942,-6.62597,14.93471,-3.91303,12.3529,-8.47058,-1.72413,-0.23596,-4e-05,-14.95485,-1.65885,-0.00031,13.79126,11.8565,15.85378,11.36244,-11.07464,-8.29211,4.45897,7.06429,26.09004,-9.55128,-13.688,4.48382,26.67642,0.0082,-55.8143,26.49775,-0.00112,100.39948,-14.46283,-4.13445,0.00037,-7.91565,5.89323,-0.0018,-1.27453,4.77224,25.78795,-20.4346,-4.58923,25.81895,4.00254,-1.20966,0.64062
740,-2.95927,-0.0,-0.0,-1.58026,0.0,0.0,-1.56964,-6.69029,15.04704,-3.98868,12.55447,-8.3556,-1.78368,-0.18548,-4e-05,-14.2654,-1.5429,0.00097,13.87579,11.83114,15.58227,10.88896,-11.50399,-8.84781,4.15958,6.96009,26.14188,-9.9165,-13.73444,4.08047,28.7525,-0.00751,-55.65535,26.6112,-0.00098,100.83855,-14.26613,-3.87524,-0.00038,-7.7123,5.87962,4e-05,-0.44857,4.91514,26.41933,-19.50345,-4.66013,26.46228,3.87935,-1.43764,0.8148
741,-2.92696,0.0,-0.0,-1.9162,-0.0,0.0,-1.6605,-6.70173,15.29087,-4.24943,12.54998,-8.10562,-1.86087,-0.18023,-0.00011,-13.49288,-1.38651,0.00127,14.00749,11.81375,15.31371,10.42746,-11.91328,-9.37619,3.92569,6.89861,25.83305,-10.15955,-13.7563,3.53037,30.89652,-0.01375,-55.59821,26.72888,-0.00018,100.97388,-14.27666,-3.77589,-0.00015,-7.60255,6.17955,0.00026,0.37911,5.07076,26.9391,-18.5864,-4.68168,27.00433,3.75287,-1.69175,1.04414
742,-2.98964,-0.0,0.0,-2.04205,0.0,0.0,-1.72967,-6.58366,15.47384,-4.85254,12.59279,-7.71032,-2.02992,-0.22467,-2e-05,-12.60735,-1.27251,0.0005,14.23446,11.81617,15.20026,10.00727,-12.2621,-9.81523,3.81454,6.88035,25.60366,-10.35204,-13.76639,2.97818,32.98679,0.00075,-56.06936,26.87904,-0.00073,101.08118,-14.0978,-3.85061,-0.00012,-7.55075,6.3617,-0.00011,1.20412,5.34433,27.44643,-17.6694,-4.5867,27.57283,3.63858,-2.03159,1.26852
743,-3.0866,-0.0,-0.0,-2.07297,0.0,-0.0,-1.7951,-6.36348,15.48751,-5.8189,12.86446,-7.09953,-2.32439,-0.32292,0.0002,-11.67164,-1.23983,-0.00027,14.59917,11.83326,15.21196,9.69202,-12.56524,-10.15012,3.81061,6.92927,25.64683,-10.61643,-13.7609,2.50145,34.93882,0.01648,-57.35376,27.16643,-0.00187,101.27254,-13.38791,-4.01306,-2e-05,-7.51757,6.35021,-0.00031,2.00903,5.682,27.98482,-16.76413,-4.43999,28.19093,3.57704,-2.48437,1.42754
744,-3.33822,-0.0,-0.0,-2.22033,-0.0,0.0,-1.80714,-6.2129,15.54224,-7.10012,13.36175,-6.2788,-2.69736,-0.46763,0.00025,-10.75719,-1.26706,-0.0004,15.09116,11.86607,15.08786,9.51765,-12.83439,-10.39431,3.8325,7.07318,25.80856,-10.94118,-13.77194,2.14771,36.76827,0.01652,-59.15161,27.53555,-0.00168,101.32627,-12.16646,-4.1671,0.00096,-7.48523,6.22579,-0.00046,2.75713,5.97841,28.52176,-15.91539,-4.33074,28.79374,3.60636,-2.99635,1.51652
745,-3.823,-0.0,0.0,-2.43738,0.0,0.0,-1.73639,-6.20586,15.89124,-8.62826,13.98599,-5.31481,-3.03801,-0.64689,-3e-05,-9.89335,-1.33205,-0.00051,15.60362,11.91101,14.6656,9.4392,-13.0596,-10.5862,3.80801,7.27537,25.90371,-11.20983,-13.87465,2.00166,38.60155,0.00336,-60.91541,27.82563,-0.00042,100.80247,-10.82676,-4.35726,0.0011,-7.44637,5.92619,-0.00044,3.41948,6.18162,28.99016,-15.16528,-4.28695,29.30145,3.70301,-3.48031,1.59901
746,-4.29943,-0.0,-0.0,-2.38009,0.0,0.0,-1.64708,-6.216,16.39292,-10.25024,14.64826,-4.28551,-3.2956,-0.8511,-0.00017,-9.07907,-1.43386,-0.00081,16.01404,11.97425,14.17868,9.34576,-13.22212,-10.77077,3.72749,7.44847,25.87443,-11.39169,-14.11526,2.10755,40.5602,-0.0159,-62.33229,27.99923,0.00099,99.41189,-9.87138,-4.7087,0.00119,-7.46867,5.4043,0.00018,3.98804,6.28497,29.29869,-14.53896,-4.28658,29.62601,3.78785,-3.87391,1.74988
747,-4.52526,0.0,-0.0,-1.91801,0.0,-0.0,-1.56429,-6.17494,16.7419,-11.5885,15.27909,-3.42157,-3.5431,-1.07541,0.00025,-8.33183,-1.54203,-0.00059,16.31425,12.09514,13.97209,9.17723,-13.3032,-10.87222,3.62696,7.55207,25.74091,-11.56981,-14.4393,2.30915,42.6338,-0.02996,-63.4793,28.16697,0.00189,97.58553,-9.46276,-5.10998,0.00226,-7.68881,4.9255,-0.00027,4.46731,6.31445,29.41846,-14.03738,-4.29643,29.74859,3.81708,-4.16115,1.98687
748,-4.54157,0.0,0.0,-1.32815,0.0,-0.0,-1.4534,-6.17271,16.86776,-12.16322,15.7268,-3.00593,-3.8566,-1.30164,0.00073,-7.72396,-1.58913,9e-05,16.59797,12.29121,14.08706,8.9971,-13.31492,-10.7736,3.53707,7.64017,25.58991,-11.79603,-14.74423,2.39938,44.736,-0.01877,-64.8611,28.42949,-6e-05,96.26305,-9.27321,-5.2117,0.00352,-8.14437,4.85839,-0.00305,4.88633,6.33706,29.48423,-13.60592,-4.29573,29.81796,3.82408,-4.38617,2.24859
749,-4.48141,0.0,-0.0,-0.89004,0.0,-0.0,-1.34821,-6.27634,16.86724,-11.77223,15.79166,-3.05019,-4.21856,-1.47437,0.00054,-7.33526,-1.54506,0.00033,16.95242,12.49467,14.26847,8.89422,-13.31403,-10.55475,3.46246,7.7967,25.52208,-12.03933,-14.99217,2.4214,46.84072,0.0209,-67.18588,28.79477,-0.0029,95.82989,-8.9262,-4.8739,0.00548,-8.65738,5.17641,-0.00376,5.30774,6.40498,29.70291,-13.14313,-4.30017,30.04625,3.85443,-4.63036,2.42938
750,-4.4239,0.0,0.0,-0.65453,0.0,0.0,-1.3117,-6.4692,16.80066,-10.64301,15.51222,-3.33133,-4.5905,-1.52108,-0.00035,-7.15132,-1.46487,3e-05,17.41325,12.6048,14.26415,8.85969,-13.34218,-10.42359,3.40382,8.04916,25.5421,-12.26064,-15.20356,2.56133,48.96077,0.05362,-70.61733,29.21003,-0.00238,95.8166,-8.48423,-4.27437,0.00412,-8.97655,5.49948,-0.00113,5.77622,6.48475,30.16845,-12.58722,-4.37055,30.5117,3.90877,-4.94008,2.45235
751,-4.44363,0.0,-0.0,-0.58434,0.0,-0.0,-1.32804,-6.72605,16.65107,-9.18167,15.17305,-3.71059,-4.98929,-1.42651,-0.00121,-7.05967,-1.42197,-0.00023,17.97153,12.61117,14.06663,8.81958,-13.37083,-10.42761,3.36346,8.36273,25.57256,-12.46034,-15.38371,2.85273,51.05623,0.04193,-74.27656,29.6119,0.00038,95.64829,-8.36318,-3.57588,-0.00257,-9.02191,5.62301,0.00093,6.25047,6.50898,30.82734,-11.98932,-4.55312,31.14276,3.97161,-5.28322,2.33278
752,-4.65151,-0.0,0.0,-0.69639,0.0,0.0,-1.32079,-7.04643,16.46549,-7.66037,14.92485,-4.2712,-5.44247,-1.28514,-0.00113,-6.97365,-1.4048,-0.00023,18.57285,12.63178,13.81264,8.75119,-13.32903,-10.34387,3.32168,8.69054,25.55894,-12.66351,-15.53402,3.2007,53.08916,-0.00028,-76.88478,29.95745,0.00158,95.21339,-8.83121,-2.88159,-0.00789,-8.95343,5.70974,0.00105,6.63338,6.4802,31.54291,-11.47093,-4.80221,31.81153,4.05051,-5.57682,2.18782
753,-5.05774,0.0,-0.0,-1.00106,0.0,-0.0,-1.24216,-7.40271,16.38675,-6.18457,14.66472,-5.11365,-5.93431,-1.23575,-1e-05,-6.87965,-1.3491,-7e-05,19.12641,12.81756,13.54796,8.67151,-13.15169,-9.95799,3.24273,8.99988,25.50379,-12.87735,-15.67486,3.52536,55.13095,-0.02629,-77.92627,30.22383,0.00043,94.80089,-9.67319,-2.43797,-0.00485,-9.04007,5.92138,-0.00025,6.89592,6.45935,32.12021,-11.09712,-4.99976,32.35246,4.13466,-5.74371,2.14952
754,-5.4315,-0.0,0.0,-1.33452,0.0,-0.0,-1.1322,-7.66907,16.41949,-4.84181,14.30641,-6.08959,-6.44398,-1.33251,0.00112,-6.75241,-1.2658,4e-05,19.56959,13.22952,13.25676,8.54701,-12.79814,-9.42728,3.13637,9.27973,25.43985,-13.06382,-15.79591,3.72414,57.27472,-0.01575,-77.96104,30.40884,-0.00057,94.65171,-10.35088,-2.39474,0.00016,-9.44467,6.11829,-0.0002,7.1326,6.49431,32.38572,-10.80749,-5.04789,32.6152,4.15695,-5.76326,2.23589
755,-5.5148,0.0,-0.0,-1.41857,0.0,-0.0,-1.08387,-7.7292,16.38989,-3.70054,13.92643,-6.88789,-6.98059,-1.50363,0.00126,-6.54055,-1.23481,-8e-05,19.93375,13.79522,13.00494,8.3317,-12.28698,-9.1563,3.10602,9.56544,25.39878,-13.16763,-15.85374,3.6674,59.43604,-0.00043,-77.66554,30.53742,0.00026,94.61246,-10.53461,-2.35652,0.00129,-10.07005,6.04603,0.00212,7.45705,6.61902,32.36513,-10.48373,-4.92293,32.63422,4.06097,-5.69526,2.35265
756,-5.25133,0.0,-0.0,-1.14618,0.0,0.0,-1.1561,-7.67643,16.19241,-2.7326,13.63672,-7.31881,-7.53812,-1.62553,0.00032,-6.24875,-1.28913,-0.00024,20.29892,14.38292,12.91547,8.05753,-11.69663,-9.3732,3.28159,9.93262,25.38497,-13.16207,-15.84458,3.34171,61.38153,-0.01402,-76.94652,30.62798,0.00177,94.55736,-10.41469,-1.72339,5e-05,-10.62399,5.67649,0.00228,7.87503,6.87431,32.32671,-10.06671,-4.6683,32.6767,3.86567,-5.63202,2.43035
757,-4.70531,-0.0,0.0,-0.69266,0.0,-0.0,-1.32608,-7.72882,15.85647,-1.89369,13.49239,-7.39582,-8.08096,-1.63006,-0.00072,-5.95112,-1.4073,-0.00027,20.69776,14.93059,13.03164,7.80317,-11.08133,-9.99891,3.66816,10.414,25.42219,-13.06753,-15.81646,2.88672,63.00846,-0.03611,-75.61382,30.67521,0.00192,94.97489,-10.3719,-0.55868,-0.00318,-10.82715,5.26926,-0.00011,8.30165,7.25051,32.555,-9.58582,-4.38003,33.00903,3.63019,-5.60791,2.48382
758,-3.98709,0.0,0.0,-0.32911,0.0,-0.0,-1.51671,-7.91189,15.42162,-1.19942,13.49691,-7.24614,-8.59324,-1.55476,-0.00094,-5.7166,-1.56415,-0.00015,21.08187,15.45932,13.25947,7.59169,-10.45525,-10.80668,4.09463,10.91772,25.62052,-12.95216,-15.82666,2.47328,64.50451,-0.02312,-74.51277,30.71295,-0.00164,96.43658,-10.5297,0.3772,-0.00301,-10.55622,5.1281,2e-05,8.67092,7.61399,33.08389,-9.10236,-4.19459,33.6213,3.39132,-5.58234,2.53923
759,-3.27149,-0.0,0.0,-0.19897,0.0,-0.0,-1.6735,-8.00931,14.98666,-0.64087,13.58194,-7.0463,-9.06584,-1.49954,-0.00037,-5.55255,-1.71234,4e-05,21.34998,15.97373,13.42256,7.36075,-9.86671,-11.5608,4.35627,11.271,26.07581,-12.90582,-15.92458,2.18582,66.17662,0.0354,-75.06714,30.85444,-0.00689,98.54049,-10.76972,0.49999,0.00077,-9.92386,5.33394,0.00232,8.97814,7.77456,33.68349,-8.66961,-4.2224,34.23785,3.14585,-5.49911,2.59058
760,-2.78609,-0.0,0.0,-0.25419,-0.0,-0.0,-1.79043,-7.87379,14.84409,-0.11691,13.62728,-7.00907,-9.44752,-1.54698,0.00022,-5.4274,-1.78864,0.00018,21.44051,16.44171,13.32612,7.05974,-9.37583,-12.04375,4.39352,11.38262,26.67711,-12.9835,-16.13743,2.00278,68.16132,0.08171,-77.51579,31.20488,-0.00164,99.89571,-10.98795,-0.0064,0.00268,-9.31982,5.65896,0.0028,9.24046,7.64792,34.09065,-8.32635,-4.46516,34.58511,2.88857,-5.32722,2.63627
761,-2.77708,0.0,0.0,-0.31602,-0.0,-0.0,-1.86382,-7.59931,15.2604,0.48587,13.54322,-7.31492,-9.68784,-1.72051,0.00028,-5.33842,-1.78122,0.00017,21.42009,16.86311,12.86488,6.74921,-8.9698,-12.08801,4.30418,11.34124,27.14244,-13.17649,-16.44964,1.88683,70.33621,0.05432,-80.29626,31.73757,0.01436,99.3366,-11.24355,-0.47996,0.00045,-9.1976,5.69107,0.00537,9.46588,7.30603,34.22415,-8.08169,-4.83105,34.60826,2.65882,-5.07421,2.71077
762,-3.36055,0.0,0.0,-0.21459,0.0,-0.0,-1.87911,-7.36118,16.03623,1.19173,13.314,-7.97256,-9.81359,-1.98011,0.00011,-5.31479,-1.73951,7e-05,21.43229,17.27896,12.16975,6.53754,-8.58174,-11.6949,4.20472,11.31211,27.3087,-13.41419,-16.80442,1.84388,72.50637,-0.01557,-81.64304,32.28823,0.01868,97.19783,-11.67705,-0.45075,-0.00548,-9.60714,5.23991,0.01059,9.65126,6.89403,34.20663,-7.91085,-5.21861,34.46688,2.51516,-4.79348,2.85046
763,-4.30958,0.0,0.0,0.04519,0.0,0.0,-1.86109,-7.25654,16.57712,1.93827,13.00596,-8.77829,-9.91757,-2.22748,4e-05,-5.34086,-1.71127,1e-05,21.5675,17.71087,11.57422,6.44794,-8.1719,-11.10276,4.11641,11.37115,27.31549,-13.57935,-17.13756,1.89361,74.59503,-0.05262,-81.28876,32.70267,0.00635,95.16837,-12.1965,0.07373,-0.00883,-10.05885,4.70677,0.00992,9.79244,6.539,34.22254,-7.7765,-5.56186,34.37438,2.46695,-4.5523,3.02204
764,-5.16508,0.0,0.0,0.25085,0.0,0.0,-1.87539,-7.30554,16.57899,2.64958,12.72988,-9.4853,-10.07761,-2.35876,-0.00011,-5.33973,-1.70449,0.0,21.81877,18.1443,11.31745,6.42055,-7.74226,-10.60828,3.99533,11.47649,27.45985,-13.59462,-17.42967,2.05385,76.61427,-0.03182,-80.40401,32.9978,-0.00474,94.55471,-12.30793,0.77421,-0.00398,-10.09902,4.68079,0.007,9.89666,6.30436,34.36561,-7.64983,-5.82845,34.43947,2.47159,-4.36294,3.13405
765,-5.59991,0.0,0.0,0.19081,0.0,-0.0,-1.96387,-7.4905,16.31641,3.27328,12.50614,-9.94457,-10.29,-2.34777,-0.00029,-5.24915,-1.708,-2e-05,22.11011,18.55944,11.34383,6.38806,-7.30355,-10.35264,3.83111,11.55033,27.89766,-13.51469,-17.72245,2.29471,78.56078,0.00338,-80.11697,33.31953,-0.00649,95.06663,-11.56924,1.33604,0.00196,-9.88661,5.12287,0.0044,9.97351,6.19134,34.61201,-7.52547,-6.00998,34.64009,2.47572,-4.16878,3.14484
766,-5.48365,0.0,0.0,-0.06751,0.0,0.0,-2.13771,-7.7564,16.02954,3.75118,12.24743,-10.02545,-10.4811,-2.24485,-0.00024,-5.06168,-1.7231,-0.00011,22.32428,18.94245,11.51766,6.28135,-6.8703,-10.39917,3.65125,11.55978,28.51632,-13.46725,-18.08036,2.50243,80.41965,0.0103,-80.38089,33.75237,-0.0022,95.64845,-10.25214,1.66055,0.00301,-9.9266,5.44861,0.00228,10.03695,6.16068,34.88388,-7.40637,-6.12038,34.8901,2.41815,-3.91193,3.10395
767,-4.96747,0.0,0.0,-0.25515,0.0,-0.0,-2.3523,-8.03594,15.60864,4.06812,11.97873,-9.74022,-10.59482,-2.12459,-3e-05,-4.81761,-1.75606,-0.00018,22.3804,19.2968,11.77698,6.05025,-6.45458,-10.73534,3.45856,11.54745,29.07275,-13.51201,-18.52797,2.58285,82.22602,0.00802,-80.69879,34.24061,0.00116,95.82989,-9.19617,1.73898,0.0033,-10.46696,5.35209,0.00351,10.14164,6.1345,35.1049,-7.2562,-6.21114,35.09311,2.24844,-3.57567,3.08132
768,-4.67755,0.0,-0.0,-0.31918,0.0,0.0,-2.48797,-8.31738,15.12198,4.33656,11.8814,-9.48183,-10.65123,-2.06719,0.00012,-4.5969,-1.79293,-8e-05,22.33949,19.65538,11.93841,5.74143,-6.04173,-11.10073,3.25052,11.59243,29.38885,-13.62386,-19.01435,2.56405,84.0313,0.02359,-81.20002,34.69044,0.00114,95.77206,-8.99375,1.55409,0.00618,-11.44465,5.01718,0.00519,10.35949,6.01839,35.25126,-7.01137,-6.36543,35.19793,1.99795,-3.16654,3.10124
769,-5.08002,-0.0,-0.0,-0.52849,-0.0,0.0,-2.54178,-8.59596,14.89578,4.67066,12.00548,-9.60223,-10.70237,-2.11933,0.00019,-4.45677,-1.82139,7e-05,22.37759,20.06401,11.76722,5.48028,-5.5862,-11.28302,3.0884,11.73556,29.44782,-13.78786,-19.46648,2.5402,85.7902,0.02819,-81.93842,35.08994,0.00076,95.61509,-9.61041,1.39142,0.00238,-12.63517,4.68292,0.00469,10.68041,5.77794,35.37591,-6.67234,-6.63193,35.24482,1.7901,-2.69344,3.13298
770,-5.7356,-0.0,-0.0,-1.06133,-0.0,0.0,-2.70862,-8.80329,15.00421,5.02811,12.15679,-9.92013,-10.75804,-2.25582,0.00014,-4.35659,-1.85527,0.00013,22.58775,20.54659,11.28819,5.32469,-5.04719,-11.44764,3.06372,11.93762,29.41288,-14.02455,-19.87012,2.52916,87.3752,-0.00889,-81.93578,35.49855,0.00161,95.32633,-10.61899,1.88201,-0.01116,-13.61114,4.44408,0.00212,10.99377,5.47332,35.53298,-6.33662,-6.96929,35.30365,1.71943,-2.16792,3.13773
771,-5.87936,-0.0,0.0,-1.70012,0.0,-0.0,-3.09273,-8.91763,15.26785,5.30947,12.15806,-10.11069,-10.78548,-2.42673,-2e-05,-4.19503,-1.9056,5e-05,22.83642,21.08685,10.72119,5.17958,-4.44062,-11.73573,3.18485,12.11318,29.53672,-14.32223,-20.24865,2.42881,88.75714,-0.05133,-80.4119,35.9539,0.00163,94.97626,-11.44941,3.20256,-0.01344,-14.04494,4.26604,0.00034,11.19866,5.20175,35.6984,-6.10679,-7.27758,35.38064,1.72563,-1.62236,3.13382
772,-5.45456,0.0,-0.0,-2.08308,0.0,0.0,-3.53255,-8.98851,15.5215,5.51206,12.03809,-10.17005,-10.77326,-2.61537,-0.00011,-3.93403,-1.97623,-0.00011,22.9236,21.65901,10.25296,4.9324,-3.81698,-11.94487,3.36131,12.20675,29.94095,-14.60676,-20.58703,2.12895,90.08022,-0.04132,-78.63182,36.42698,-0.00029,94.82315,-11.63008,4.50134,-0.00522,-14.11105,4.00819,0.00082,11.29933,5.0376,35.82618,-5.98531,-7.47214,35.45396,1.65993,-1.1048,3.19231
773,-5.07773,-0.0,-0.0,-2.07228,0.0,-0.0,-3.8103,-9.02501,15.61856,5.69485,11.9365,-10.21699,-10.75656,-2.80779,-4e-05,-3.67301,-2.08085,-0.00013,22.82831,22.24105,10.00899,4.62649,-3.21321,-11.8951,3.49865,12.21283,30.4834,-14.80351,-20.85477,1.60329,91.5287,0.02027,-78.9045,36.84645,-0.00122,94.97092,-11.13978,4.70168,-0.01006,-14.15002,3.57629,0.0016,11.37758,4.99211,35.92316,-5.88821,-7.54427,35.53338,1.46039,-0.64306,3.37023
774,-5.14528,0.0,-0.0,-1.73705,0.0,-0.0,-3.898,-9.06863,15.50939,5.89136,11.94304,-10.26961,-10.76654,-2.94626,4e-05,-3.56913,-2.19098,3e-05,22.66091,22.76078,10.03269,4.37796,-2.69803,-11.70315,3.55611,12.14734,30.91976,-14.92859,-21.08736,0.90315,93.17869,0.0643,-81.68101,37.16352,-0.00037,95.23222,-10.42421,3.69521,-0.01698,-14.15036,2.96991,-0.00031,11.49041,4.977,36.00252,-5.75904,-7.58215,35.60503,1.17386,-0.24463,3.65284
775,-5.45765,0.0,-0.0,-1.24462,-0.0,-0.0,-3.94006,-9.26026,15.32,6.10487,11.98954,-10.32888,-10.79169,-2.97318,3e-05,-3.65749,-2.21172,-7e-05,22.50618,23.11126,10.21916,4.20595,-2.37465,-11.58206,3.53681,12.06266,31.13714,-15.08285,-21.3542,0.13787,94.93384,0.04754,-85.18239,37.4159,-0.00058,95.54985,-10.00923,2.36973,-0.01044,-13.93849,2.26612,-0.00319,11.63167,4.86579,36.04783,-5.61253,-7.70175,35.61526,0.8749,0.08367,3.94878
776,-5.81743,0.0,-0.0,-0.90596,-0.0,-0.0,-4.04078,-9.63458,15.17181,6.35208,11.87308,-10.44755,-10.80747,-2.91,1e-05,-3.80574,-2.09508,-0.00019,22.43015,23.27895,10.38598,4.07297,-2.24538,-11.58893,3.47128,12.05685,31.15879,-15.30988,-21.66438,-0.54232,96.60806,0.0094,-87.77887,37.6711,-0.00188,96.07412,-10.12592,1.57885,-0.00255,-13.67319,1.71903,-0.00339,11.78747,4.64312,36.08677,-5.45748,-7.92591,35.58603,0.64876,0.35565,4.16653
777,-6.49317,0.0,0.0,-1.11409,-0.0,0.0,-4.15574,-9.96477,15.09106,6.69339,11.48258,-10.68326,-10.81589,-2.84782,-2e-05,-3.89413,-1.92534,-0.0,22.49954,23.36467,10.41895,4.00997,-2.18028,-11.60236,3.4093,12.19908,31.05458,-15.51976,-21.99361,-0.99434,98.09419,-0.00927,-89.14829,37.91311,-0.00141,96.67944,-10.53957,1.3483,-0.00048,-13.8128,1.60589,-0.00444,11.96476,4.44037,36.20446,-5.26353,-8.15432,35.63853,0.57693,0.6067,4.29866
778,-7.69887,-0.0,-0.0,-2.01551,0.0,0.0,-4.23602,-9.95503,15.07152,7.16705,10.94415,-11.01234,-10.83978,-2.8614,-4e-05,-3.9532,-1.82668,0.00022,22.70961,23.44757,10.3336,4.08734,-2.08123,-11.50717,3.40609,12.47108,30.93312,-15.60776,-22.35753,-1.19429,99.41164,-0.01436,-89.40703,38.08669,0.00018,97.05731,-10.81199,1.17657,-0.00101,-14.46304,1.87746,-0.00603,12.16014,4.38607,36.42356,-5.02349,-8.27081,35.83313,0.66309,0.83834,4.39907
779,-8.91122,0.0,-0.0,-3.15647,0.0,0.0,-4.35564,-9.56625,15.0053,7.66223,10.48111,-11.32989,-10.89359,-2.96364,-7e-05,-4.05013,-1.83961,0.00036,22.938,23.53157,10.23383,4.26016,-1.96076,-11.33279,3.48037,12.80388,30.91585,-15.56705,-22.77485,-1.31755,100.63351,-0.01969,-88.59121,38.20135,0.00041,97.31067,-10.80199,0.77796,-0.0022,-15.00009,2.19221,-0.00348,12.35678,4.4618,36.66527,-4.77149,-8.26953,36.08839,0.78069,1.00963,4.50054
780,-9.30436,0.0,-0.0,-3.71332,0.0,-0.0,-4.57289,-9.03406,14.69784,7.95539,10.24331,-11.54467,-10.97419,-3.13894,-0.00014,-4.13102,-1.92688,0.0002,23.03021,23.63251,10.19268,4.33463,-1.83336,-11.18901,3.58304,13.12711,31.06555,-15.46901,-23.20028,-1.62946,101.83766,-0.02178,-87.03825,38.30937,-0.00054,97.76305,-10.74072,0.27815,-0.00184,-14.68564,2.29417,-0.00218,12.55046,4.54243,36.85718,-4.53277,-8.24875,36.29713,0.7545,1.11841,4.5921
781,-8.66243,-0.0,0.0,-3.29012,-0.0,0.0,-4.8082,-8.54117,14.05752,7.92011,10.2516,-11.55979,-11.08696,-3.36958,-0.00023,-4.069,-2.04644,-0.00028,22.95777,23.80472,10.21881,4.14924,-1.6522,-11.2164,3.64647,13.38731,31.35209,-15.40812,-23.5611,-2.24349,103.08812,-0.01035,-85.57625,38.43737,-0.00101,98.33479,-10.90597,-0.09267,-0.00064,-13.51327,2.20498,-0.00333,12.73466,4.55028,36.99771,-4.31763,-8.28236,36.43478,0.53044,1.23936,4.64037
782,-7.38312,0.0,0.0,-2.27995,0.0,0.0,-4.94621,-8.05944,13.14412,7.63012,10.35753,-11.28187,-11.27978,-3.61672,-0.00023,-3.81937,-2.16876,-0.00061,22.83755,24.0659,10.3626,3.7214,-1.38672,-11.52374,3.65407,13.57383,31.66089,-15.45302,-23.86428,-2.96376,104.39942,0.01092,-85.03014,38.57328,-0.0002,98.6433,-11.40704,-0.28497,0.00018,-12.21027,2.09046,-0.00205,12.86438,4.52274,37.13279,-4.15959,-8.34814,36.55675,0.21473,1.44672,4.5986
783,-6.06482,0.0,-0.0,-1.42518,0.0,0.0,-4.87179,-7.59486,12.15707,7.28914,10.30743,-10.89314,-11.62852,-3.8368,-0.00011,-3.45924,-2.2435,-0.00034,22.78928,24.37612,10.6523,3.18264,-1.07621,-11.93672,3.62322,13.72744,31.85912,-15.61646,-24.21125,-3.45067,105.72165,0.02046,-85.45684,38.71124,0.00135,98.47074,-12.18262,-0.39249,0.00062,-11.51347,2.01885,0.00097,12.8738,4.54291,37.3295,-4.10617,-8.3862,36.75224,-0.05868,1.73963,4.43104
784,-5.22302,0.0,0.0,-1.20484,0.0,-0.0,-4.46353,-7.37568,11.48282,7.12333,9.97186,-10.89077,-12.16026,-4.03316,0.00024,-3.11004,-2.20109,0.00022,22.8522,24.67067,10.91548,2.66184,-0.80939,-12.00252,3.55242,13.89779,31.90756,-15.85858,-24.6665,-3.61529,106.98508,0.0089,-86.08444,38.89557,0.00268,97.90739,-13.09044,-0.43452,-0.00032,-11.5215,1.90044,0.00365,12.75526,4.64191,37.64499,-4.15087,-8.38314,37.08548,-0.23437,2.04233,4.15109
785,-4.77471,0.0,-0.0,-1.54944,0.0,0.0,-3.76518,-7.61302,11.47201,7.23962,9.45923,-11.52332,-12.8044,-4.24015,0.00056,-2.86535,-2.01652,0.00035,23.03726,24.88142,10.95533,2.26881,-0.6739,-11.53489,3.44774,14.10017,31.88795,-16.07977,-25.15599,-3.72124,108.15601,-0.00559,-86.27098,39.14153,0.00196,97.37468,-13.97667,-0.32494,-0.00201,-11.74497,1.72045,0.00438,12.6063,4.77082,38.06852,-4.20004,-8.38216,37.5316,-0.32013,2.25829,3.82334
786,-4.05113,0.0,0.0,-2.05627,0.0,0.0,-3.02579,-8.16144,12.06518,7.53738,8.99036,-12.40001,-13.45273,-4.46097,0.00042,-2.74174,-1.75919,0.00013,23.36205,24.98451,10.8616,2.08085,-0.67315,-10.94223,3.37648,14.33175,31.89602,-16.14743,-25.53741,-4.04932,109.22639,-0.00711,-86.16482,39.30863,0.0009,97.41836,-14.65205,-0.04917,-0.00161,-11.79416,1.58061,0.00362,12.54523,4.85875,38.47235,-4.16658,-8.41401,37.94672,-0.33125,2.35632,3.52745
787,-2.7592,0.0,0.0,-2.47109,0.0,0.0,-2.45447,-8.59052,12.93238,7.81953,8.74291,-12.93284,-14.0457,-4.66633,-5e-05,-2.66662,-1.54612,5e-05,23.79519,25.02638,10.85971,2.07133,-0.71147,-10.75385,3.41934,14.60451,31.93729,-16.02829,-25.74554,-4.64191,110.16483,-0.00093,-86.21445,39.23326,0.00228,98.09889,-15.00934,0.30211,3e-05,-11.78551,1.48631,0.0027,12.59309,4.88874,38.67574,-4.07141,-8.44347,38.15165,-0.2764,2.40108,3.32201
788,-1.41861,0.0,0.0,-2.78355,0.0,-0.0,-2.09707,-8.56907,13.93125,7.94271,8.79468,-12.91764,-14.5768,-4.83818,-0.00037,-2.55659,-1.46821,-6e-05,24.22971,25.08379,11.0095,2.1303,-0.67605,-11.06824,3.56558,14.90885,31.95336,-15.87326,-25.84568,-5.40946,110.94144,0.00211,-86.51486,39.02089,0.00227,98.91552,-15.21442,0.68929,-0.00014,-11.93712,1.48623,0.00144,12.7141,4.90615,38.62708,-3.96069,-8.41289,38.10976,-0.18326,2.49128,3.2411
789,-0.6742,0.0,0.0,-2.92143,0.0,-0.0,-1.95564,-8.07971,15.15189,7.85593,9.12216,-12.56978,-15.04556,-4.99967,-0.00021,-2.3962,-1.5616,-0.00038,24.53273,25.21991,11.23464,2.15534,-0.50173,-11.60412,3.69082,15.18034,31.92375,-15.88483,-25.96017,-6.27128,111.61641,0.00042,-86.82406,38.99472,0.00055,99.44955,-15.53227,1.1206,-0.00152,-12.14606,1.8043,0.0009,12.91134,4.95226,38.48747,-3.7931,-8.32877,37.98848,-0.12159,2.67997,3.29899
790,-0.70163,0.0,-0.0,-2.71791,0.0,0.0,-2.05173,-7.30273,16.67246,7.62396,9.55979,-12.28331,-15.43211,-5.2054,0.00025,-2.21093,-1.76388,-0.00045,24.60149,25.44655,11.46182,2.07137,-0.21399,-11.98635,3.6564,15.38225,31.8991,-16.133,-26.15819,-7.15018,112.31536,-0.00111,-86.97747,39.32046,-0.00028,99.69877,-16.05092,1.50137,-0.00115,-12.19694,2.42512,0.00222,13.1739,5.00821,38.49172,-3.52724,-8.2764,38.00882,-0.16346,2.93376,3.47197
791,-1.26382,0.0,-0.0,-2.16292,-0.0,0.0,-2.40467,-6.44689,18.35512,7.38862,9.83575,-12.31038,-15.71931,-5.44659,0.0003,-2.01082,-1.91748,-3e-05,24.42968,25.70148,11.74443,1.85775,0.06807,-11.98402,3.44799,15.56047,31.96416,-16.53726,-26.41251,-7.98648,113.07259,0.00032,-87.08264,39.85432,-0.00047,99.87106,-16.66775,1.67535,0.00106,-12.11397,2.89754,0.00252,13.40818,5.03736,38.74449,-3.23441,-8.32071,38.26104,-0.28488,3.16822,3.69496
792,-1.97902,-0.0,-0.0,-1.4779,0.0,-0.0,-3.00937,-5.72104,19.81607,7.23306,9.8194,-12.54296,-15.91942,-5.60127,-0.00021,-1.79412,-1.92106,0.00043,24.12893,25.90048,12.23588,1.58613,0.24374,-11.66805,3.19363,15.74743,32.20252,-16.97166,-26.63985,-8.79879,113.78458,0.00183,-87.24363,40.37432,-0.00076,100.15604,-17.11716,1.63476,0.0021,-12.09392,2.89372,0.00173,13.51934,5.07793,39.14597,-3.02985,-8.39605,38.66013,-0.37094,3.34072,3.90459
793,-2.55935,0.0,-0.0,-0.96433,0.0,-0.0,-3.77249,-5.26313,20.70979,7.15355,9.64903,-12.71651,-16.04873,-5.58062,-0.00077,-1.58144,-1.84357,0.00037,23.82768,26.02374,12.89367,1.35384,0.3465,-11.29098,3.01545,15.91601,32.61204,-17.37034,-26.76967,-9.67857,114.35857,0.00079,-87.33413,40.81456,-0.00103,100.6451,-17.16846,1.56585,0.00133,-12.19084,2.61881,0.00099,13.51139,5.22219,39.49337,-2.95174,-8.35604,39.03687,-0.35556,3.4892,4.09321
794,-2.94297,0.0,0.0,-0.77038,-0.0,-0.0,-4.52189,-5.0403,20.96778,7.12304,9.47924,-12.69102,-16.07277,-5.43531,-0.00096,-1.42306,-1.81325,5e-05,23.57851,26.11652,13.45524,1.21514,0.48674,-11.06784,2.91376,16.06646,33.03683,-17.7466,-26.80599,-10.67547,114.82983,-0.00174,-87.22179,41.2266,7e-05,101.20829,-17.01794,1.63632,-0.00026,-12.27881,2.42857,0.00034,13.47353,5.46729,39.66143,-2.94057,-8.16832,39.26913,-0.27566,3.67609,4.30205
795,-3.2896,0.0,0.0,-0.78083,0.0,-0.0,-5.12125,-4.97762,20.73363,7.10279,9.31068,-12.4584,-15.89651,-5.23728,-0.00054,-1.35458,-1.85722,-6e-05,23.37091,26.22044,13.79441,1.18162,0.72311,-11.10483,2.81938,16.24952,33.30591,-18.11095,-26.83329,-11.69435,115.30559,-0.00437,-86.98238,41.62502,0.00201,101.61582,-17.15666,1.80176,-0.00193,-12.30937,2.40614,3e-05,13.49489,5.67531,39.7094,-2.89972,-7.98225,39.37473,-0.19293,3.93766,4.54195
796,-3.92082,0.0,-0.0,-0.79284,0.0,0.0,-5.51159,-5.13479,20.33104,7.07052,9.18695,-12.15788,-15.43364,-4.98948,0.00048,-1.34847,-1.92167,-2e-05,23.16602,26.3458,13.95196,1.20648,1.04821,-11.32538,2.68059,16.50472,33.44033,-18.41466,-26.94381,-12.55359,115.86125,-0.00508,-86.82253,41.97823,0.00213,101.93519,-17.7475,1.83339,-0.00065,-12.39196,2.49369,-0.00048,13.58772,5.74393,39.81673,-2.77917,-7.94652,39.49772,-0.14054,4.28714,4.73543
797,-5.09135,0.0,0.0,-0.74709,-0.0,0.0,-5.67079,-5.62728,20.2447,7.05437,9.23376,-12.07135,-14.68824,-4.69348,0.00142,-1.346,-1.98154,-2e-05,22.92291,26.47551,13.86733,1.21267,1.43178,-11.45821,2.48821,16.81647,33.62843,-18.59359,-27.17342,-13.12235,116.49437,-0.00045,-87.08804,42.29694,0.00019,102.47416,-18.46704,1.50786,0.00179,-12.58416,2.72807,-0.00111,13.68603,5.71921,40.10046,-2.61544,-8.04965,39.76427,-0.11545,4.70941,4.77216
798,-6.56451,0.0,-0.0,-0.68487,0.0,-0.0,-5.64259,-6.39154,20.75458,7.06969,9.37782,-12.29976,-13.76722,-4.38295,0.00167,-1.3258,-2.05066,-5e-05,22.63792,26.55981,13.47376,1.18715,1.81482,-11.33621,2.28932,17.09421,34.0218,-18.63316,-27.50533,-13.39677,117.12148,0.00699,-88.18513,42.62585,-0.00173,103.34507,-18.89949,0.8751,0.00036,-12.75291,3.14987,-0.00057,13.72462,5.69105,40.52187,-2.47863,-8.19404,40.16297,-0.08135,5.14613,4.62571
799,-7.70316,0.0,-0.0,-0.60066,0.0,0.0,-5.55502,-7.1227,21.62988,7.0796,9.39342,-12.57285,-12.84206,-4.09265,0.00102,-1.30749,-2.12704,-7e-05,22.37148,26.53708,12.92402,1.19432,2.10488,-11.13868,2.14799,17.24496,34.59746,-18.60347,-27.88195,-13.53171,117.64873,0.00855,-89.96577,42.99023,-0.00201,104.32033,-18.78427,0.34557,-0.0006,-12.73834,3.63131,0.00048,13.70926,5.69808,40.97716,-2.3854,-8.31329,40.60466,0.00121,5.52205,4.38494
800,-8.22124,-0.0,-0.0,-0.48209,0.0,0.0,-5.5023,-7.55636,22.42291,7.08535,9.32124,-12.61543,-12.08548,-3.85009,-9e-05,-1.32437,-2.196,-4e-05,22.21775,26.37956,12.43913,1.30192,2.22667,-11.13915,2.05474,17.3206,35.18293,-18.62024,-28.2032,-13.79393,118.07082,0.00269,-91.41366,43.37944,-0.00097,105.09309,-18.10632,0.3591,0.00481,-12.57496,3.91812,3e-05,13.69294,5.76914,41.40196,-2.29686,-8.36181,41.03507,0.14877,5.78016,4.17727
801,-8.4604,0.0,-0.0,-0.40794,0.0,0.0,-5.45473,-7.75281,22.90971,7.15821,9.45641,-12.48376,-11.58284,-3.65412,-0.00067,-1.4153,-2.26618,0.0001,22.19562,26.12546,12.11886,1.513,2.18738,-11.34102,1.95009,17.50601,35.61097,-18.7269,-28.38472,-14.3383,118.44054,-0.00469,-91.46651,43.7218,0.00019,105.51699,-17.22839,0.99031,0.00769,-12.45236,3.77235,-0.00036,13.69653,5.93866,41.76962,-2.19747,-8.29927,41.43755,0.33807,5.89619,4.08836
802,-8.92474,0.0,-0.0,-0.56674,-0.0,0.0,-5.31485,-7.97495,23.16591,7.34783,9.88457,-12.43812,-11.29161,-3.48109,-0.00055,-1.59481,-2.35173,0.00024,22.18907,25.88321,11.95396,1.74417,2.09191,-11.48356,1.83495,17.91644,35.87133,-18.87546,-28.4509,-15.0081,118.77046,-0.00761,-89.98723,43.94581,0.00072,105.52773,-16.67798,1.91647,0.00124,-12.51023,3.10207,0.00143,13.69038,6.18547,42.06779,-2.12118,-8.14284,41.79386,0.50032,5.90295,4.12442
803,-9.70967,0.0,0.0,-1.09855,0.0,0.0,-5.06847,-8.34237,23.3658,7.61819,10.35779,-12.63533,-11.09171,-3.33498,-0.00018,-1.8192,-2.43133,0.00015,22.05544,25.76345,11.89614,1.88787,2.05547,-11.36429,1.75893,18.46638,36.08281,-19.02692,-28.52292,-15.48851,119.04946,-0.0054,-87.79303,44.09714,0.00086,105.1245,-16.7113,2.64844,-0.00392,-12.74283,2.11127,0.00291,13.65111,6.41228,42.2932,-2.09644,-7.9855,42.07391,0.57353,5.8878,4.22171
804,-10.29037,0.0,-0.0,-1.80833,0.0,-0.0,-4.90249,-8.69983,23.56992,7.84778,10.59889,-12.96052,-10.86669,-3.2354,9e-05,-2.0259,-2.46884,-7e-05,21.78161,25.76705,11.91927,1.9309,2.09287,-11.09851,1.73957,18.95317,36.31601,-19.16486,-28.70313,-15.65205,119.29733,-0.00116,-86.02302,44.27738,0.00075,104.53613,-17.24096,2.82144,-0.0002,-13.04046,1.26336,0.00142,13.59547,6.4975,42.42665,-2.11599,-7.93942,42.22612,0.57218,5.92698,4.31507
805,-10.26652,0.0,-0.0,-2.31489,0.0,-0.0,-5.00525,-8.81861,23.80431,7.94339,10.53105,-13.19325,-10.57096,-3.18808,6e-05,-2.21144,-2.46496,-0.00019,21.53458,25.77927,11.91995,2.0115,2.1297,-10.9558,1.77908,19.24759,36.51721,-19.26555,-28.99421,-15.63042,119.53245,0.00284,-85.46373,44.50893,0.00062,104.04013,-17.98472,2.42027,0.0047,-13.26904,0.86583,-0.00057,13.5533,6.37831,42.4351,-2.1606,-8.05643,42.20169,0.60372,6.0212,4.39237
806,-10.1114,0.0,0.0,-2.49291,0.0,0.0,-5.27825,-8.67762,24.17241,7.95474,10.29272,-13.30226,-10.24399,-3.19638,-0.00016,-2.42395,-2.45712,-0.0001,21.48544,25.69588,11.69905,2.25573,2.10444,-10.996,1.88446,19.397,36.63459,-19.33554,-29.31169,-15.56792,119.7449,0.00426,-86.10748,44.76471,0.00149,103.61893,-18.57694,1.79002,0.00313,-13.40583,0.7886,-0.00076,13.53836,6.12043,42.32986,-2.21149,-8.27629,42.02932,0.75388,6.10129,4.45443
807,-10.38554,0.0,-0.0,-2.40028,-0.0,0.0,-5.51598,-8.46527,24.58606,7.96732,10.10414,-13.4172,-9.95027,-3.24181,-0.00022,-2.67779,-2.4799,0.0001,21.55555,25.53243,11.29087,2.55138,2.03933,-11.05517,2.01922,19.53862,36.7334,-19.39573,-29.56803,-15.44873,119.92434,0.00224,-87.12081,45.04489,0.00178,103.22556,-18.76279,1.43368,0.00036,-13.57125,0.79723,-0.00035,13.55227,5.89066,42.19567,-2.23969,-8.46114,41.83638,0.93609,6.11817,4.46073
808,-10.84701,-0.0,0.0,-2.061,0.0,-0.0,-5.70189,-8.33446,24.69129,7.9713,10.04689,-13.56159,-9.72169,-3.26778,-3e-05,-2.93535,-2.53378,0.0002,21.54063,25.39844,11.05296,2.70103,2.01059,-11.03807,2.12717,19.74945,36.91056,-19.41313,-29.75282,-15.19693,120.06371,-0.00067,-87.49224,45.35009,-0.00112,103.20718,-18.5798,1.66963,0.00163,-13.787,0.936,8e-05,13.59332,5.81424,42.12408,-2.21928,-8.51528,41.74607,1.01254,6.11443,4.37775
809,-11.03499,0.0,-0.0,-1.61629,0.0,0.0,-5.90052,-8.32524,24.35127,7.92113,9.98841,-13.61124,-9.55977,-3.23352,0.00012,-3.15805,-2.58165,0.00012,21.4196,25.36344,11.22914,2.71687,2.04416,-11.00222,2.23465,20.02298,37.13799,-19.34824,-29.91178,-14.83166,120.14474,-0.00144,-87.03533,45.67235,-0.00472,103.88083,-18.34698,2.29999,0.00315,-13.86889,1.33861,0.00195,13.649,5.87413,42.10813,-2.16507,-8.45333,41.74712,0.9963,6.15245,4.26774
810,-10.94765,0.0,-0.0,-1.32856,0.0,-0.0,-6.08679,-8.45987,23.88277,7.81962,9.79276,-13.53387,-9.4578,-3.15618,9e-05,-3.31882,-2.57394,-1e-05,21.3101,25.38083,11.6568,2.7268,2.07494,-10.96843,2.45523,20.33966,37.26519,-19.2574,-30.06214,-14.44823,120.16003,-0.00074,-86.49931,46.05163,-0.00225,104.74785,-18.40211,2.68485,0.00626,-13.74994,1.82391,0.00388,13.69746,5.97446,42.04021,-2.12917,-8.33838,41.70907,0.95602,6.20815,4.26262
811,-10.7348,0.0,-0.0,-1.32231,-0.0,-0.0,-6.2331,-8.69832,23.61723,7.71844,9.5649,-13.47147,-9.40478,-3.07887,-0.0,-3.40198,-2.49047,-3e-05,21.27809,25.36154,12.01907,2.76705,2.02562,-10.8842,2.84388,20.68883,37.17967,-19.24354,-30.17477,-14.10735,120.13922,-0.00036,-86.42422,46.53622,0.00705,104.81154,-18.68641,2.41436,0.0113,-13.67194,1.9538,0.00468,13.72682,6.04501,41.84708,-2.14412,-8.21806,41.54182,0.90123,6.21236,4.43164
812,-10.29993,0.0,0.0,-1.4674,-0.0,-0.0,-6.4019,-8.88004,23.49788,7.66603,9.52277,-13.52627,-9.37789,-3.02383,-6e-05,-3.42337,-2.3722,1e-05,21.32124,25.27319,12.21607,2.80993,1.89892,-10.78229,3.27573,21.04911,36.913,-19.3222,-30.23511,-13.81672,120.11997,-0.00031,-86.41027,47.07974,0.01037,103.97787,-18.73162,1.86159,0.01121,-13.82224,1.58535,0.00514,13.74145,6.05021,41.59033,-2.19162,-8.1431,41.29519,0.86264,6.16398,4.70783
813,-9.5656,0.0,0.0,-1.51706,0.0,0.0,-6.62761,-8.88563,23.32818,7.66107,9.6369,-13.66234,-9.33935,-2.98363,-5e-05,-3.41547,-2.29077,1e-05,21.41501,25.13677,12.31221,2.84183,1.77058,-10.76281,3.53778,21.40389,36.582,-19.40469,-30.29028,-13.5545,120.1076,-0.00025,-85.98415,47.56614,0.0024,103.34566,-18.29706,1.67229,0.00805,-14.00804,1.133,0.00374,13.74786,5.98657,41.40084,-2.23353,-8.15248,41.09449,0.90531,6.12842,4.94825
814,-8.86103,0.0,-0.0,-1.36494,0.0,0.0,-6.7982,-8.76581,23.20029,7.68056,9.65516,-13.83401,-9.25333,-2.94618,-4e-05,-3.39735,-2.27807,-1e-05,21.5271,24.97792,12.26063,2.87477,1.70569,-10.81727,3.53948,21.75579,36.31414,-19.36068,-30.41648,-13.22158,120.09863,-0.00013,-85.4243,47.91343,-0.00426,103.60869,-17.70474,1.87256,0.00223,-13.91741,1.02898,0.00282,13.74562,5.9145,41.34697,-2.25161,-8.207,41.0224,1.03509,6.13724,5.05341
815,-8.56735,-0.0,-0.0,-1.10843,0.0,0.0,-6.82121,-8.61018,23.29786,7.71095,9.49266,-13.97899,-9.12329,-2.90396,-4e-05,-3.38328,-2.32367,-0.0,21.6317,24.82386,12.01743,2.94297,1.70863,-10.87459,3.37559,22.10229,36.22116,-19.07176,-30.63679,-12.65999,120.11173,0.00017,-85.19238,48.1013,-0.00377,103.99689,-17.4114,1.97652,-0.00222,-13.51672,1.17436,0.00218,13.73643,5.89677,41.40273,-2.24806,-8.23933,41.07133,1.19346,6.15386,5.04412
816,-8.603,0.0,-0.0,-0.89342,0.0,0.0,-6.78217,-8.46323,23.48901,7.7302,9.3304,-13.97405,-9.00259,-2.83457,-5e-05,-3.39798,-2.4154,8e-05,21.72143,24.70789,11.77054,3.06703,1.74574,-10.95677,3.20204,22.43053,36.30788,-18.51159,-30.88816,-11.83101,120.15057,0.0005,-85.37823,48.14614,-0.00224,103.3653,-17.73713,1.71203,0.00135,-13.05877,1.19296,0.00077,13.72837,5.89202,41.50906,-2.23064,-8.273,41.17275,1.32816,6.14257,5.03054
817,-8.7183,0.0,-0.0,-0.81311,0.0,0.0,-6.75965,-8.44399,23.58331,7.71634,9.30133,-13.85959,-8.93506,-2.73106,-8e-05,-3.44735,-2.51983,0.00013,21.76554,24.65504,11.68532,3.18759,1.78866,-11.05348,3.09709,22.74102,36.44289,-17.80066,-31.1032,-10.87931,120.17144,0.00016,-85.93071,48.1013,-0.0018,101.69027,-18.80729,1.25238,0.00635,-12.8515,0.93382,0.00119,13.71374,5.79764,41.61314,-2.22389,-8.3922,41.24717,1.39857,6.12696,5.10559
818,-8.85202,0.0,0.0,-0.86287,0.0,0.0,-6.73191,-8.62763,23.61885,7.664,9.29184,-13.86027,-8.90359,-2.64298,-7e-05,-3.48857,-2.56738,0.00011,21.71706,24.66661,11.70436,3.21034,1.82453,-11.05156,3.02846,23.05242,36.52116,-17.12288,-31.30917,-9.93071,120.12858,-0.00089,-86.79559,48.0742,-0.00066,100.00773,-20.23054,0.89979,0.00398,-13.01846,0.54928,0.00229,13.67094,5.58711,41.672,-2.26107,-8.61072,41.24568,1.37749,6.15409,5.26662
819,-9.07989,0.0,0.0,-1.00227,-0.0,0.0,-6.72171,-8.81275,23.62089,7.60461,9.14768,-14.04651,-8.8712,-2.60903,-6e-05,-3.4819,-2.52025,0.00013,21.64941,24.68683,11.75825,3.17572,1.82936,-10.95492,2.93517,23.39534,36.57663,-16.5623,-31.58513,-8.93279,120.03664,-0.00139,-87.82838,48.19526,-0.00172,99.31432,-21.23017,0.70572,-0.001,-13.37577,0.28483,0.00141,13.61478,5.35351,41.67409,-2.32656,-8.83591,41.18281,1.33307,6.20965,5.41239
820,-9.5646,0.0,-0.0,-1.2906,0.0,0.0,-6.74618,-8.80233,23.54929,7.61874,8.95155,-14.28085,-8.8395,-2.58222,-0.00011,-3.45115,-2.43093,9e-05,21.73116,24.62064,11.83212,3.23786,1.77487,-10.89636,2.81793,23.80324,36.68729,-16.04784,-31.94004,-7.7674,119.95266,-0.00086,-88.78674,48.51683,-0.00478,99.72776,-21.40411,0.44044,-0.00457,-13.63138,0.19557,0.00027,13.59664,5.23306,41.66949,-2.351,-8.95047,41.14486,1.38807,6.2169,5.42935
821,-10.16139,-0.0,-0.0,-1.71656,0.0,0.0,-6.76004,-8.73394,23.40254,7.72933,8.93101,-14.4116,-8.85257,-2.49851,-0.00025,-3.4277,-2.39984,-3e-05,21.97586,24.46429,11.93118,3.40584,1.69379,-10.95975,2.72557,24.28929,36.8499,-15.44778,-32.28834,-6.44146,119.88765,0.00029,-89.3157,48.94079,-0.00359,100.53729,-21.02231,0.00081,-0.0055,-13.68389,0.0576,-0.00018,13.64897,5.29441,41.75387,-2.27558,-8.91455,41.24369,1.51673,6.1418,5.31597
822,-10.37574,0.0,-0.0,-2.02779,-0.0,0.0,-6.75649,-8.76972,23.19226,7.82863,9.14093,-14.38851,-8.96872,-2.40506,-7e-05,-3.38064,-2.46884,-0.00018,22.21919,24.36756,12.05993,3.50125,1.68629,-11.1193,2.69044,24.82291,36.99227,-14.64386,-32.53565,-5.06389,119.77593,0.00234,-89.09488,49.26447,0.00047,100.95998,-20.55745,-0.32572,-0.00238,-13.62067,-0.27482,-0.00051,13.78312,5.48126,41.97927,-2.07867,-8.79629,41.51391,1.53761,6.04667,5.1862
823,-10.17224,0.0,-0.0,-2.03955,-0.0,-0.0,-6.74427,-8.76408,23.02526,7.816,9.42173,-14.33323,-9.2001,-2.43996,0.00069,-3.26674,-2.56759,-0.00016,22.34979,24.47774,12.09826,3.40848,1.80681,-11.22235,2.71871,25.31632,37.06458,-13.54355,-32.66676,-3.64898,119.55617,0.00356,-88.30599,49.2955,0.00093,100.73911,-20.18904,-0.23723,0.00096,-13.59408,-0.53544,-0.00108,14.00112,5.66068,42.2732,-1.78128,-8.70343,41.84818,1.35262,6.01024,5.14877
824,-9.90955,-0.0,0.0,-1.82789,0.0,-0.0,-6.75695,-8.50986,22.94726,7.69131,9.64264,-14.37573,-9.46402,-2.63843,0.00098,-3.09411,-2.59124,0.00011,22.36868,24.76163,11.9915,3.17663,1.98386,-11.13761,2.80995,25.64587,37.0685,-12.1789,-32.76572,-2.08103,119.25275,0.00138,-87.68921,48.97718,-0.00096,100.15606,-19.74984,0.11919,0.00104,-13.77459,-0.38681,-0.00268,14.25965,5.73746,42.49652,-1.46468,-8.68986,42.08561,1.04601,6.04647,5.23024
825,-9.66576,0.0,0.0,-1.52844,0.0,0.0,-6.86703,-8.07043,22.77317,7.49804,9.82021,-14.44596,-9.64908,-2.86352,0.00029,-2.89957,-2.52825,0.0002,22.31655,25.05457,11.94896,2.91425,2.11388,-10.96868,2.93312,25.76453,37.02276,-10.78719,-32.94695,-0.31218,118.95179,-0.00072,-87.75179,48.48907,-0.00078,99.59327,-19.07968,0.31648,-0.00258,-14.22083,0.00886,-0.00248,14.47127,5.72169,42.58024,-1.23307,-8.72761,42.16242,0.76815,6.12712,5.37842
826,-9.51247,-0.0,0.0,-1.2988,0.0,-0.0,-7.0048,-7.7216,22.47347,7.30633,9.98551,-14.46661,-9.74115,-3.00159,-0.00037,-2.70174,-2.46005,-0.0,22.27319,25.24781,12.07735,2.70045,2.1849,-10.90323,3.01511,25.82314,36.92622,-9.63486,-33.22159,1.49136,118.70537,0.00046,-88.28547,48.15848,0.00058,99.19196,-18.40453,0.13939,-0.00413,-14.73794,0.12921,0.00032,14.57632,5.68888,42.54345,-1.13846,-8.74928,42.11779,0.6093,6.22108,5.50595
827,-9.67613,-0.0,-0.0,-1.34722,-0.0,-0.0,-6.98271,-7.68633,22.32755,7.1946,10.06009,-14.53434,-9.84071,-3.0856,-0.00046,-2.48766,-2.4235,-4e-05,22.32321,25.35396,12.18126,2.53926,2.23425,-10.95088,3.01939,26.07091,36.7379,-8.74852,-33.45036,3.05629,118.48723,0.00159,-88.95407,48.1438,0.00085,98.98058,-18.15601,-0.32342,0.00028,-15.00399,-0.28762,-0.00059,14.60444,5.68696,42.40717,-1.14397,-8.71436,41.9852,0.53963,6.28339,5.58
828,-10.07681,0.0,0.0,-1.7183,-0.0,-0.0,-6.74678,-7.95196,22.45581,7.17068,9.96047,-14.69847,-10.06622,-3.19098,-2e-05,-2.24526,-2.36551,0.00024,22.51302,25.44451,12.1062,2.41106,2.27352,-11.02697,3.00414,26.58997,36.42906,-7.91982,-33.48767,4.26882,118.23399,-0.00163,-89.80014,48.28478,0.00061,98.98907,-18.36846,-0.93019,0.00403,-14.91271,-1.01011,-0.00424,14.65092,5.68947,42.18312,-1.15236,-8.65133,41.76885,0.48321,6.28268,5.66583
829,-10.31369,-0.0,0.0,-2.1625,0.0,-0.0,-6.43946,-8.27749,22.60199,7.15232,9.76847,-14.80326,-10.45224,-3.34992,0.00056,-2.00654,-2.26424,0.00033,22.83927,25.59622,11.93482,2.33876,2.32195,-11.13887,3.04744,27.22257,36.07081,-6.97034,-33.34701,5.29382,117.87479,-0.00873,-90.82617,48.37171,0.00106,99.16599,-18.56185,-1.5627,0.00199,-14.66899,-1.53855,-0.00431,14.76511,5.64619,41.92692,-1.10252,-8.6234,41.50882,0.42982,6.25687,5.83655
830,-10.017,-0.0,0.0,-2.3389,0.0,0.0,-6.27556,-8.39992,22.4569,7.04926,9.67484,-14.69007,-10.915,-3.55483,0.0006,-1.82571,-2.18,8e-05,23.17255,25.82749,11.86385,2.29905,2.39675,-11.33343,3.15098,27.76317,35.78135,-5.8975,-33.18357,6.41346,117.34614,-0.01333,-91.55473,48.42749,0.00098,99.41277,-18.30119,-2.05728,-0.00096,-14.43394,-1.42334,-6e-05,14.89633,5.56092,41.72226,-1.0246,-8.64962,41.28705,0.37551,6.26124,6.0891
831,-9.23388,0.0,-0.0,-2.161,0.0,-0.0,-6.33,-8.24806,22.03439,6.86386,9.75863,-14.4234,-11.34262,-3.77439,8e-05,-1.71108,-2.15039,-8e-05,23.35116,26.06153,11.9799,2.20479,2.45399,-11.56637,3.25847,28.13788,35.54643,-4.74826,-33.13429,7.7943,116.64977,-0.008,-91.32022,48.58384,-0.00027,99.75268,-17.67516,-2.21815,-0.00068,-14.07077,-0.6083,0.0066,14.99997,5.47179,41.61469,-0.95074,-8.70593,41.15815,0.27565,6.28632,6.36756
832,-8.50927,0.0,-0.0,-1.84647,0.0,0.0,-6.44295,-7.94512,21.60236,6.68124,9.87905,-14.21095,-11.73735,-3.9833,-0.00035,-1.61303,-2.12678,3e-05,23.43555,26.21436,12.14964,2.04602,2.43955,-11.75271,3.33343,28.40408,35.20748,-3.49894,-33.18146,9.38926,115.84715,0.01142,-89.71246,48.79512,-0.00038,100.36187,-17.17357,-1.79924,-0.00305,-13.43877,0.39958,0.00785,15.13469,5.37319,41.56301,-0.83268,-8.78659,41.08068,0.13951,6.28779,6.60181
833,-8.18723,-0.0,-0.0,-1.60689,0.0,-0.0,-6.45311,-7.67253,21.21362,6.54948,9.79343,-14.11446,-12.22118,-4.16232,-0.00058,-1.49453,-2.04614,0.00019,23.66154,26.29501,12.2604,1.91375,2.3686,-11.90806,3.39358,28.64811,34.69466,-2.12022,-33.16941,11.00599,114.94269,0.04,-86.84821,48.85823,0.00166,101.19814,-17.10768,-0.599,-0.01027,-12.75834,0.94204,0.00158,15.39041,5.23501,41.4178,-0.6179,-8.8796,40.9015,0.0338,6.24219,6.74861
834,-8.01606,0.0,-0.0,-1.52957,-0.0,0.0,-6.3787,-7.53282,20.6885,6.4652,9.44019,-13.99627,-12.88297,-4.29722,-0.00065,-1.3853,-1.91916,0.0001,24.15912,26.36026,12.36996,1.89504,2.28984,-12.13103,3.491,28.91353,34.12396,-0.65108,-32.96926,12.49072,113.85078,0.0491,-83.83778,48.67168,0.00099,101.75583,-17.2779,1.08287,-0.01078,-12.43671,0.86427,-0.00142,15.74553,5.09591,41.01703,-0.36489,-8.90285,40.47432,-0.00416,6.14176,6.83303
835,-7.69376,0.0,-0.0,-1.64568,0.0,0.0,-6.31293,-7.42223,20.08113,6.45003,9.09075,-13.77251,-13.66369,-4.4265,2e-05,-1.31896,-1.81214,-0.00012,24.80643,26.41444,12.49462,1.94306,2.20797,-12.46995,3.64886,29.20757,33.57899,0.83283,-32.59652,13.86124,112.53049,0.0108,-82.64981,48.32826,-0.00238,101.64091,-17.44041,2.24782,-0.00086,-12.60173,0.55578,-0.00042,16.06181,5.04904,40.40767,-0.19519,-8.77869,39.87116,-0.01857,5.98701,6.90026
836,-7.23952,0.0,-0.0,-1.84908,-0.0,-0.0,-6.3135,-7.10163,19.61856,6.51101,9.06409,-13.53888,-14.43452,-4.61436,0.00096,-1.25424,-1.75094,-0.00015,25.34977,26.41892,12.58198,1.87675,2.08477,-12.86379,3.80851,29.5151,32.96693,2.24697,-32.15056,15.22044,111.06796,-0.04647,-84.47978,47.98923,-0.00253,101.21541,-17.8156,1.97456,0.01789,-13.02072,0.40009,-0.00048,16.25148,5.09904,39.90335,-0.12161,-8.58958,39.39767,-0.09882,5.80449,6.9532
837,-6.91178,-0.0,0.0,-1.98151,0.0,0.0,-6.34651,-6.56349,19.3119,6.60875,9.31977,-13.49286,-15.15959,-4.84286,0.00063,-1.13408,-1.67771,0.00011,25.70447,26.35946,12.64928,1.62209,1.88565,-13.14064,3.88241,29.7707,32.18367,3.51818,-31.69267,16.59087,109.57825,-0.07483,-88.37355,47.75951,-0.00072,101.09937,-18.67276,0.44393,0.03046,-13.42951,0.41215,-0.00067,16.369,5.11794,39.77594,-0.03297,-8.53564,39.27993,-0.24421,5.63454,6.9958
838,-6.9188,0.0,0.0,-2.03012,-0.0,-0.0,-6.3098,-6.14992,18.99624,6.70632,9.54667,-13.75124,-15.92585,-5.01367,-0.00148,-0.97534,-1.54057,0.00032,26.03743,26.26282,12.74661,1.31616,1.62447,-13.16228,3.86638,29.89561,31.27294,4.66011,-31.20083,17.92446,108.0556,-0.07499,-92.10487,47.64384,-0.0008,101.21194,-19.77201,-1.11681,0.01269,-13.72626,0.37196,-0.00012,16.50432,5.02032,39.92723,0.13343,-8.67182,39.39831,-0.35728,5.4917,7.07397
839,-7.09787,-0.0,-0.0,-2.07708,-0.0,0.0,-6.15374,-6.10833,18.57746,6.76645,9.60877,-14.15644,-16.81697,-5.08654,-0.00359,-0.83087,-1.39699,0.00017,26.50854,26.18708,12.8879,1.08569,1.39239,-13.0736,3.84977,29.90323,30.35016,5.77224,-30.60944,19.1919,106.32899,-0.05117,-93.9332,47.59489,-0.0019,100.97991,-20.61647,-1.50326,-0.01178,-13.89577,0.11877,0.00016,16.67825,4.89194,40.00932,0.32096,-8.81804,39.4411,-0.40293,5.36537,7.21732
840,-7.19184,0.0,-0.0,-2.26342,0.0,-0.0,-5.85512,-6.25285,18.16801,6.77403,9.62424,-14.4574,-17.80777,-5.18599,-0.00257,-0.7053,-1.3474,-0.00011,27.11562,26.20466,12.98274,0.9196,1.30158,-13.16529,3.93072,29.89429,29.45187,6.90381,-29.87687,20.34291,104.1458,0.03153,-93.02853,47.6178,-0.00148,100.24479,-20.83068,-0.35209,-0.00286,-13.95756,-0.33714,-2e-05,16.85613,4.8576,39.805,0.44972,-8.79356,39.23366,-0.42554,5.25618,7.40036
841,-7.17403,-0.0,-0.0,-2.71113,-0.0,-0.0,-5.36639,-6.23952,18.00557,6.77181,9.64209,-14.69682,-18.8112,-5.51715,0.00146,-0.55082,-1.39665,-0.00024,27.76222,26.36028,12.85352,0.72783,1.38263,-13.44136,4.17876,29.95053,28.47802,7.99178,-29.01715,21.29072,101.30211,0.15905,-89.38527,47.78641,0.00098,99.32002,-20.23838,1.79907,0.02857,-13.99139,-0.89198,1e-05,16.9908,4.91222,39.33331,0.47762,-8.60802,38.79335,-0.47131,5.18364,7.60213
842,-6.88172,-0.0,0.0,-3.23122,0.0,-0.0,-4.76962,-5.95065,18.14539,6.7835,9.56289,-15.09017,-19.79042,-6.12982,0.00431,-0.32803,-1.45988,-9e-05,28.32731,26.62523,12.51038,0.38,1.56231,-13.66009,4.61006,30.0692,27.29425,8.95285,-28.09407,22.06252,97.80532,0.19974,-84.44735,48.16186,0.0035,98.50857,-19.13374,3.79497,0.03453,-14.06975,-1.38212,-8e-05,17.05442,4.95226,38.67995,0.39358,-8.38382,38.17414,-0.59585,5.15653,7.84537
843,-6.01737,-0.0,0.0,-3.4236,0.0,0.0,-4.27536,-5.4655,18.35481,6.76681,9.37644,-15.57001,-20.7789,-6.82379,0.00305,-0.05654,-1.47347,0.00015,28.78693,26.9018,12.2848,-0.1562,1.72876,-13.7988,5.08033,30.15118,25.96427,9.78586,-27.1767,22.85683,93.95014,0.07685,-80.91886,48.7304,0.00393,98.00235,-18.25955,4.43119,0.01731,-14.1256,-1.5509,-0.00018,17.07817,4.90688,37.92189,0.24481,-8.20965,37.43005,-0.77852,5.15303,8.13383
844,-4.79652,0.0,-0.0,-3.16527,-0.0,-0.0,-3.96015,-4.86796,18.44342,6.71228,9.24232,-15.85018,-21.7971,-7.35915,-0.0005,0.19656,-1.44437,0.0002,29.23789,27.0743,12.47989,-0.72514,1.78707,-14.07803,5.27905,30.07029,24.80718,10.61174,-26.24765,23.88986,90.09903,-0.06696,-80.61327,49.38611,0.00203,97.99126,-17.90077,3.34576,0.00547,-13.9952,-1.21879,0.00131,17.14637,4.79383,37.18639,0.1456,-8.10455,36.6885,-0.86869,5.10742,8.40816
845,-3.89729,-0.0,-0.0,-2.75304,0.0,-0.0,-3.69128,-4.23645,18.55372,6.71739,9.31953,-15.90584,-22.79497,-7.71093,-0.00193,0.36535,-1.41373,8e-05,29.72954,27.08053,12.98829,-1.15065,1.68366,-14.50937,5.00855,29.81117,24.06809,11.60588,-25.20107,25.27394,86.37298,-0.08707,-82.96481,49.99671,-0.00035,98.66209,-17.42611,1.5271,-0.00364,-13.59429,-0.55629,0.00281,17.31587,4.68237,36.62568,0.18835,-8.04713,36.11592,-0.75666,4.93142,8.62134
846,-3.63328,-0.0,-0.0,-2.56392,0.0,-0.0,-3.33978,-3.70128,18.90835,6.87516,9.59463,-15.98525,-23.71732,-8.01097,-0.00068,0.41758,-1.40946,3e-05,30.23031,26.97195,13.47648,-1.38252,1.45315,-14.83847,4.43211,29.48308,23.62542,12.79327,-24.00395,26.96928,82.56921,-0.0355,-86.47479,50.5854,-0.00087,99.89967,-16.2979,0.55228,0.00569,-12.91827,0.04773,0.00265,17.54448,4.61988,36.26732,0.33719,-8.0014,35.75265,-0.48224,4.6169,8.81393
847,-3.60453,0.0,-0.0,-2.63258,0.0,-0.0,-2.93971,-3.39092,19.40444,7.11851,9.86377,-16.18353,-24.57723,-8.29218,0.00018,0.36888,-1.42615,8e-05,30.69872,26.86425,13.87453,-1.50607,1.21069,-14.97303,3.8981,29.17714,23.20434,13.93818,-22.78054,28.70884,78.36259,0.00644,-90.4191,51.39228,0.00277,101.07014,-14.9169,1.16965,0.02021,-11.97617,0.41574,0.00321,17.72428,4.58569,35.95452,0.44877,-7.94165,35.44174,-0.16617,4.27947,9.06486
848,-3.29257,0.0,0.0,-2.70418,-0.0,0.0,-2.58413,-3.3359,19.82321,7.29365,9.88294,-16.36826,-25.4017,-8.47332,-0.00037,0.26684,-1.42718,8e-05,31.10521,26.79854,14.34379,-1.65859,1.02972,-15.10882,3.59359,28.87543,22.75093,14.78638,-21.65272,30.13485,73.61258,0.02799,-94.55325,52.55153,0.00796,101.66144,-14.01276,2.8672,0.01071,-10.96565,0.54701,0.0047,17.78905,4.52808,35.53216,0.42178,-7.87129,35.01863,0.11591,4.0391,9.39687
849,-2.62399,0.0,0.0,-2.58849,-0.0,0.0,-2.29796,-3.4026,20.17496,7.34639,9.56794,-16.42478,-26.17822,-8.51318,-0.00137,0.14754,-1.36893,-7e-05,31.46635,26.70717,14.93194,-1.90414,0.88416,-15.47134,3.45073,28.51107,22.38492,15.39884,-20.55897,31.18227,68.49432,-0.01433,-98.99644,53.77352,0.00617,101.92835,-13.85971,4.44366,-0.00143,-10.30644,0.27701,0.00717,17.76138,4.44776,35.06785,0.29365,-7.80937,34.54852,0.40642,3.90352,9.75062
850,-1.83804,0.0,-0.0,-2.24195,0.0,0.0,-2.08425,-3.36066,20.5268,7.35823,9.1041,-16.36962,-26.91641,-8.43773,-0.0019,0.00547,-1.24979,-0.00024,31.85317,26.54269,15.55807,-2.2211,0.75352,-16.12278,3.25612,28.05375,22.11168,16.0631,-19.31371,32.11829,63.42187,-0.11708,-104.4211,54.67479,0.00174,102.36089,-14.28334,4.74366,0.00625,-10.10688,-0.43065,0.01021,17.69831,4.4197,34.76526,0.16674,-7.74541,34.24961,0.7978,3.80595,10.03645
851,-1.27165,0.0,-0.0,-1.77955,0.0,-0.0,-1.92281,-3.1455,20.88313,7.50898,8.85395,-16.4076,-27.67435,-8.34316,-0.00068,-0.20095,-1.13163,-0.00011,32.30705,26.36246,16.07307,-2.59035,0.68917,-16.87061,2.79949,27.51211,21.82248,16.88927,-17.79681,33.09661,58.80467,-0.15908,-110.76313,55.32985,0.00287,102.85924,-14.83976,3.50207,0.0126,-9.83209,-1.07232,0.01104,17.62675,4.52282,34.63206,0.07192,-7.60706,34.15322,1.31103,3.69389,10.23064
852,-1.2274,0.0,-0.0,-1.47031,0.0,0.0,-1.71872,-2.94931,21.2308,7.96214,9.02832,-16.7916,-28.49296,-8.35459,0.00181,-0.5037,-1.0842,0.00051,32.77296,26.23788,16.34143,-3.02948,0.72303,-17.40921,2.03478,26.917,21.46886,17.71767,-16.04963,33.94574,54.75439,-0.08432,-116.35453,56.09092,0.00905,102.92206,-15.04828,1.64691,0.00261,-8.96588,-1.20497,0.01156,17.53372,4.74764,34.35472,-0.06913,-7.30925,33.95593,1.8734,3.53855,10.43673
853,-1.66319,0.0,0.0,-1.4559,0.0,-0.0,-1.42433,-2.89767,21.42704,8.65549,9.43682,-17.44682,-29.3612,-8.45557,0.00245,-0.88705,-1.10048,0.00108,33.18815,26.14152,16.45774,-3.53551,0.79581,-17.6997,1.12539,26.33187,21.04611,18.39682,-14.25782,34.48916,51.05605,0.04287,-119.24292,57.0106,0.01018,102.45823,-14.78441,0.32596,-0.00379,-7.82087,-1.1161,0.00698,17.40216,4.97603,33.59226,-0.34667,-6.86097,33.29638,2.4169,3.32826,10.79106
854,-2.16277,-0.0,0.0,-1.51863,0.0,-0.0,-1.12836,-2.84283,21.34536,9.30026,9.70585,-18.00739,-30.2093,-8.46616,0.00028,-1.32176,-1.07963,0.00085,33.54235,25.94909,16.63528,-4.08822,0.81173,-18.01331,0.27552,25.80847,20.56681,18.92724,-12.65729,34.8614,47.46428,0.13935,-118.82178,57.86837,0.00075,101.91743,-14.30364,-0.21357,-0.00158,-7.24349,-1.28439,0.00244,17.25664,5.08097,32.33835,-0.73633,-6.37777,32.13201,2.9239,3.09222,11.28539
855,-2.41834,0.0,-0.0,-1.30129,0.0,0.0,-0.87048,-2.63544,21.19134,9.70212,9.71741,-18.29691,-30.93783,-8.26261,-0.00161,-1.83967,-0.9286,-1e-05,33.84282,25.54133,16.83627,-4.66808,0.71941,-18.54388,-0.48111,25.3035,20.20208,19.37584,-11.38064,35.36154,43.95622,0.14445,-116.12672,58.61763,-0.01023,101.68855,-13.90517,-0.50021,0.00065,-7.504,-1.57991,0.0017,17.16655,5.06237,30.90413,-1.10047,-5.95088,30.76062,3.40602,2.87909,11.76876
856,-2.56014,0.0,0.0,-0.67259,0.0,0.0,-0.50087,-2.32969,21.26983,9.95659,9.64283,-18.50121,-31.55882,-7.91168,-0.00139,-2.53484,-0.66735,-0.00063,34.14768,24.93517,16.82644,-5.19674,0.54244,-19.16154,-1.31622,24.71069,20.23971,19.8274,-10.3597,36.06098,40.76625,0.06056,-113.05742,59.42055,-0.01147,101.63391,-13.72168,-0.98968,0.00176,-7.83394,-1.48115,0.00537,17.17555,5.04865,29.57989,-1.33465,-5.54776,29.49821,3.91445,2.70018,12.11833
857,-2.86663,0.0,-0.0,0.24363,0.0,-0.0,0.13424,-1.97284,21.53205,10.23685,9.57124,-18.9212,-32.23707,-7.5824,0.00039,-3.46821,-0.3797,-0.00057,34.51682,24.30496,16.5237,-5.61345,0.36636,-19.54071,-2.43738,23.99939,20.71973,20.36203,-9.43025,36.74309,38.24511,-0.02525,-110.9945,60.34004,0.00149,101.1565,-13.64647,-1.6704,0.0018,-7.30619,-0.88058,0.01747,17.22649,5.15151,28.39639,-1.48971,-5.07402,28.4092,4.47705,2.54602,12.32789
858,-3.27142,-0.0,-0.0,1.21012,0.0,0.0,0.9896,-1.51358,21.66355,10.54563,9.3822,-19.65833,-33.07147,-7.37671,0.00212,-4.60532,-0.09766,-0.00028,34.87957,23.81925,16.05857,-6.00329,0.28019,-19.53228,-3.83884,23.27505,21.29414,20.95201,-8.5433,37.2151,36.50673,-0.04225,-109.86549,61.30416,0.018,99.83413,-13.45627,-2.24783,0.00202,-6.06961,-0.18807,0.02131,17.19744,5.36484,27.16003,-1.72367,-4.47495,27.30887,5.04735,2.43985,12.47396
859,-3.33991,0.0,0.0,1.97971,-0.0,0.0,1.89945,-1.07108,21.40359,10.75485,9.0839,-20.43327,-33.96529,-7.19517,0.00095,-5.87887,0.20069,0.00051,35.09926,23.46914,15.6386,-6.49472,0.29222,-19.42715,-5.20634,22.69293,21.6341,21.43966,-7.80821,37.46338,35.15287,-0.01489,-108.92497,62.2891,0.01811,98.14809,-13.23914,-2.50594,0.00437,-5.46617,0.42697,0.0042,17.03215,5.61104,25.61774,-2.13493,-3.74126,25.93448,5.59635,2.39265,12.67437
860,-2.85368,0.0,0.0,2.52166,-0.0,0.0,2.76893,-0.95756,20.69498,10.76663,9.01878,-20.88541,-34.77976,-6.85305,-0.00196,-7.30049,0.52072,0.00282,35.13829,23.13157,15.35107,-7.08574,0.33753,-19.59541,-6.17588,22.30315,21.8287,21.69758,-7.3289,37.47522,33.65331,-0.0014,-108.17868,63.28124,-0.00306,97.37093,-13.4494,-2.49028,0.00529,-6.68245,1.33517,-0.03445,16.81421,5.81268,23.62876,-2.65528,-2.8962,24.1305,6.14275,2.35487,13.05091
861,-2.19769,0.0,0.0,3.17793,0.0,0.0,3.60429,-1.26662,19.73629,10.49048,9.53371,-21.04905,-35.45953,-6.38427,-0.0024,-8.98013,0.85036,0.00581,35.0491,22.7666,14.96736,-7.65765,0.37562,-19.92935,-6.72683,21.98445,22.19907,21.75855,-7.0973,37.08459,32.08406,-0.01148,-108.23669,64.1257,-0.0163,98.18501,-14.27056,-2.25931,0.0015,-9.33504,2.8084,-0.05744,16.67749,5.88886,21.25407,-3.12874,-2.03044,21.92916,6.65951,2.30391,13.65851
862,-1.90667,0.0,-0.0,4.38521,0.0,0.0,4.41057,-1.68699,18.83045,9.69149,10.575,-21.14452,-35.98747,-6.03161,-0.00032,-11.02794,1.2265,0.00518,34.86016,22.43265,14.13633,-8.10638,0.4009,-20.04742,-7.18802,21.57271,22.81827,21.73854,-7.06857,36.08132,31.13869,-0.01066,-109.13583,64.57632,-0.00424,99.72105,-15.30163,-1.74646,-0.00254,-11.76376,4.49087,-0.02596,16.65095,5.76851,18.66754,-3.48875,-1.26449,19.46867,7.07085,2.31732,14.43577
863,-2.08458,0.0,0.0,6.2207,0.0,0.0,5.14532,-1.83989,18.12967,8.02495,11.74055,-21.04708,-36.35004,-5.93938,0.00115,-13.46212,1.75274,-0.00295,34.52913,22.15436,12.79096,-8.43021,0.36754,-19.84652,-7.86699,21.02502,23.46864,21.69021,-7.23277,34.41877,31.4026,-0.00027,-110.19685,64.4557,0.00563,100.65062,-15.98608,-1.21361,-0.00225,-12.54809,5.6556,0.01137,16.64998,5.4911,15.99304,-3.79437,-0.60147,16.87574,7.33615,2.4913,15.24816
864,-2.46262,0.0,-0.0,8.33626,0.0,0.0,5.75505,-1.66047,17.57323,5.27061,12.67642,-20.35922,-36.56819,-6.02886,0.00098,-16.23899,2.48289,-0.01365,34.0152,21.89625,11.19754,-8.65377,0.182,-19.50274,-8.82639,20.42598,24.04561,21.59737,-7.56994,32.28834,32.92188,-0.00032,-110.86083,63.70058,-0.0093,100.47192,-16.01161,-1.35073,-0.00799,-11.42637,5.81069,2e-05,16.59858,5.2408,13.27633,-4.111,0.11502,14.25554,7.50136,2.82723,15.97373
865,-2.79999,-0.0,0.0,10.2122,0.0,-0.0,6.20483,-1.39717,16.96357,1.48285,13.35522,-18.80156,-36.69433,-6.09139,0.00022,-19.34493,3.2788,-0.01523,33.40228,21.5967,9.71884,-8.66145,-0.23722,-19.17749,-9.9615,19.89159,24.63576,21.46549,-8.0408,30.05758,35.33393,0.00087,-111.13878,62.32529,-0.03347,99.50176,-15.47401,-2.51482,-0.01717,-9.27553,5.05536,-0.02474,16.44451,5.18941,10.58594,-4.48468,1.01941,11.73287,7.70768,3.21671,16.54391
866,-3.06855,0.0,-0.0,11.1185,0.0,0.0,6.50477,-1.33095,16.07545,-3.06761,13.88318,-16.26999,-36.75627,-5.91475,-1e-05,-22.78347,3.89094,-0.00395,32.79456,21.14793,8.62684,-8.31927,-0.94366,-18.91582,-11.14826,19.51762,25.17402,21.33119,-8.67033,28.14386,38.10124,0.01795,-111.34807,60.43285,-0.03267,98.59633,-14.9138,-4.3005,-0.00896,-7.43602,4.05961,-0.01738,16.06661,5.32456,8.07202,-5.03175,2.04336,9.44368,8.0505,3.51411,16.93123
867,-3.29792,0.0,0.0,10.06207,0.0,-0.0,6.7438,-1.56763,14.84058,-8.04818,14.03356,-12.68676,-36.7478,-5.43601,0.00039,-26.48866,4.19054,0.01139,32.14833,20.46643,7.96557,-7.70558,-1.94515,-18.70478,-12.31595,19.38432,25.41441,21.2156,-9.54081,26.80888,40.73963,0.03157,-111.58362,58.17521,-0.00302,98.64613,-14.8075,-5.99784,0.00587,-6.65137,3.6401,-0.0007,15.33703,5.4782,5.87738,-5.88107,2.97535,7.45965,8.45908,3.65763,17.13433
868,-3.37779,0.0,-0.0,6.40994,-0.0,0.0,7.04549,-2.02175,13.52207,-13.19709,13.28171,-8.09587,-36.68528,-4.84224,0.00045,-30.34622,4.25463,0.01901,31.41114,19.65365,7.45712,-6.97363,-3.12023,-18.49045,-13.41712,19.55497,25.26583,21.12232,-10.6679,25.94097,43.06505,0.00913,-111.32799,55.60566,0.02812,99.81681,-14.81787,-7.09283,0.00566,-6.64947,4.05446,0.00272,14.31142,5.48339,3.97361,-6.98613,3.66733,5.69244,8.8354,3.74769,17.18808
869,-3.11519,0.0,0.0,0.45173,0.0,-0.0,7.46969,-2.4646,12.5745,-18.34608,11.52345,-2.92431,-36.60945,-4.45924,-0.00017,-34.33197,4.28331,0.01264,30.63113,18.98357,6.66463,-6.15049,-4.23654,-18.08566,-14.36771,20.0187,24.89224,21.00357,-11.95846,25.04316,45.26405,-0.04298,-109.86269,52.69573,0.04503,101.61898,-14.0271,-7.4041,0.00383,-6.77404,4.71327,0.00185,13.2187,5.26934,2.16497,-8.12882,4.12275,3.93313,9.15086,3.97951,17.16128
870,-2.51371,0.0,0.0,-6.8397,-0.0,-0.0,7.99348,-2.65731,12.15233,-23.39437,9.36215,2.1988,-36.53589,-4.45851,-0.00074,-38.62018,4.45726,-0.00453,29.87478,18.67102,5.39525,-5.14478,-5.14066,-17.2511,-15.05388,20.61579,24.5388,20.70079,-13.308,23.56342,47.6622,-0.06408,-107.43027,49.56664,0.03984,103.4891,-12.06221,-7.06402,0.01082,-6.70781,4.84199,0.00026,12.24585,4.8711,0.29617,-9.12636,4.42992,2.04923,9.40183,4.48627,17.10082
871,-1.92688,0.0,-0.0,-14.11543,0.0,0.0,8.55174,-2.57193,11.88056,-28.25589,7.34411,6.90569,-36.43276,-4.67312,-0.00051,-43.49735,4.81691,-0.02066,29.17166,18.65351,3.91306,-3.83889,-5.9174,-15.9904,-15.39276,21.12249,24.35441,20.03483,-14.67964,21.34218,50.37048,-0.00907,-105.4381,46.52115,0.009,104.88364,-9.49809,-6.34679,0.01408,-6.50639,4.34774,-0.00102,11.44226,4.4203,-1.63363,-9.92992,4.71114,0.08753,9.60502,5.20659,16.96515
872,-1.71979,-0.0,0.0,-19.84235,0.0,0.0,9.03678,-2.38568,11.26139,-32.72908,5.3598,11.06036,-36.21188,-4.76531,0.001,-49.0971,5.24929,-0.01868,28.44752,18.61745,2.71285,-2.22694,-6.8437,-14.59968,-15.39014,21.49835,24.21346,18.97638,-16.05895,18.68115,53.18932,0.05942,-104.81216,43.75672,-0.02163,105.42522,-7.16593,-5.44302,0.00897,-6.32797,3.78859,-0.0006,10.80044,4.07003,-3.53963,-10.55033,5.07735,-1.81718,9.76396,5.87969,16.64781
873,-1.78707,0.0,0.0,-23.19797,-0.0,0.0,9.3089,-2.19804,10.18246,-36.41371,3.09666,14.38459,-35.78412,-4.60194,0.00247,-55.26746,5.56855,0.0088,27.56076,18.31616,2.05503,-0.42237,-8.13701,-13.35607,-15.13096,21.96215,23.71293,17.653,-17.38804,15.93409,55.84587,0.05805,-104.72099,41.19339,-0.0266,105.29538,-5.50186,-4.42284,0.00164,-6.37651,3.64201,-0.00106,10.29121,3.85887,-5.32063,-11.02197,5.52704,-3.55643,9.83993,6.27183,16.09925
874,-1.72355,0.0,0.0,-24.87309,0.0,0.0,9.30655,-1.94399,8.93421,-38.95037,0.70795,16.3488,-35.18917,-4.38108,0.00127,-61.71299,5.68169,0.03717,26.50462,17.85632,1.71622,1.51001,-9.7277,-12.24102,-14.66315,22.76143,22.48566,16.21321,-18.60094,13.15629,58.24494,0.00707,-103.69904,38.63455,-0.01536,105.01192,-4.45853,-3.38659,-0.00359,-6.76463,3.84116,-0.00221,9.84157,3.7191,-6.90097,-11.42302,5.96936,-5.08414,9.80298,6.44348,15.38772
875,-1.41057,0.0,-0.0,-26.42276,-0.0,0.0,9.13222,-1.63517,7.80103,-40.6017,-1.14754,16.34931,-34.61948,-4.30075,-0.0013,-68.14522,5.76697,0.02481,25.47102,17.59168,1.32807,3.63849,-11.33208,-10.94568,-13.92099,23.94003,20.47146,14.73173,-19.70134,10.20207,60.5261,-0.03725,-101.28893,35.98671,-0.00854,104.88423,-3.80201,-2.64192,-0.00643,-7.23181,3.95894,-0.00186,9.39682,3.6192,-8.29784,-11.81267,6.38122,-6.42745,9.66502,6.69389,14.60515
876,-1.05786,0.0,-0.0,-28.79456,-0.0,-0.0,8.9591,-1.45985,6.79259,-42.34334,-1.84192,14.10004,-34.2583,-4.26319,-0.00263,-74.30492,6.16883,-0.02915,24.65035,17.73507,0.83428,6.0395,-12.73717,-9.11493,-12.85781,25.33623,17.90596,13.20523,-20.75937,7.02687,62.9586,-0.04825,-98.14209,33.28843,-0.00749,104.97561,-3.5184,-2.63242,-0.00159,-7.33262,3.70125,-0.00339,8.98293,3.56254,-9.61794,-12.16488,6.80439,-7.68476,9.44466,7.22417,13.74599
877,-0.7795,0.0,0.0,-31.61348,-0.0,-0.0,8.86138,-1.53889,5.78929,-44.82763,-1.40039,10.1998,-34.09794,-4.0492,-0.00265,-80.05439,6.93915,-0.06993,23.99743,18.1201,0.44314,8.66559,-13.99411,-6.70044,-11.60718,26.75138,15.16739,11.59626,-21.84462,3.82301,65.71847,-0.0177,-95.32698,30.58348,0.00302,105.38612,-3.81365,-3.51835,0.01525,-6.98797,3.21003,-0.00497,8.64284,3.48464,-10.89968,-12.43379,7.19254,-8.91543,9.13633,7.91402,12.72092
878,-0.55974,0.0,0.0,-33.99096,0.0,0.0,8.80384,-1.7496,4.64083,-47.38167,-0.62371,6.09538,-33.92969,-3.56397,-0.00028,-85.5295,7.5761,-0.05271,23.25379,18.36634,0.48094,11.46599,-15.37721,-4.0655,-10.39552,28.10334,12.60105,9.88486,-22.98882,0.93864,68.68828,0.02068,-93.47861,27.84047,0.0266,106.26853,-4.55685,-4.84944,0.02466,-6.55131,2.91665,-0.0029,8.35574,3.3124,-11.98388,-12.64771,7.42036,-9.99617,8.7461,8.44263,11.50309
879,-0.57937,0.0,0.0,-36.00857,0.0,0.0,8.78948,-1.9537,3.19309,-48.55706,-0.46038,3.05939,-33.5215,-2.84742,0.0042,-90.99571,7.42935,0.00577,22.21891,18.23253,1.24662,14.56205,-17.14677,-1.61811,-9.31696,29.4221,10.37617,8.0631,-24.18296,-1.3155,71.55445,0.01815,-92.24389,25.06726,0.03983,107.48,-5.01741,-5.85826,0.01614,-6.31942,3.03703,-0.00111,8.05944,3.09088,-12.65377,-12.88956,7.45296,-10.70596,8.31541,8.58581,10.18869
880,-1.12765,0.0,-0.0,-39.11278,-0.0,-0.0,8.9095,-2.249,1.62916,-47.65921,-1.06483,1.31822,-32.8169,-2.08717,0.0058,-96.43756,6.25611,0.05415,20.94983,17.78367,2.53522,18.16637,-19.29552,0.567,-8.25648,30.75408,8.38764,6.09541,-25.36834,-2.8796,74.14005,-0.0105,-90.95815,22.439,0.02443,108.42731,-4.62854,-6.26714,0.00588,-6.28072,3.2767,-0.00108,7.71133,2.94444,-12.88841,-13.21467,7.39991,-10.97943,7.87123,8.38709,8.87342
881,-2.10622,0.0,0.0,-44.53308,0.0,-0.0,9.23526,-2.75483,0.5135,-45.45115,-1.58927,0.13452,-31.96632,-1.56375,0.00215,-101.45465,4.22111,0.06366,19.66216,17.30813,3.61739,22.42854,-21.48542,2.70796,-6.9881,32.1335,6.23582,3.95812,-26.45296,-4.03903,76.51876,-0.01525,-89.75008,20.12953,-0.00412,108.51218,-3.76326,-6.56766,-0.00274,-6.36904,3.30414,-0.00204,7.32492,2.95023,-12.87323,-13.60242,7.39991,-10.96307,7.40043,8.11048,7.58817
882,-2.94991,0.0,-0.0,-51.52418,0.0,0.0,9.71705,-3.31607,0.19146,-43.19178,-1.08757,-1.41205,-31.17639,-1.41549,-0.00194,-105.65458,1.68981,0.03836,18.49137,17.08443,3.98078,27.36784,-23.26103,5.13944,-5.33461,33.63478,3.44476,1.68786,-27.38164,-5.26909,78.7802,0.00737,-89.31644,18.08302,-0.02853,107.55574,-3.1283,-7.10611,-0.00401,-6.57072,3.31093,-0.00433,6.98393,3.10512,-12.77992,-13.9571,7.51128,-10.81948,6.87841,8.03765,6.36556
883,-3.229,0.0,0.0,-58.1743,0.0,0.0,10.18189,-3.6474,0.45491,-41.22435,0.41385,-3.59266,-30.53766,-1.54653,-0.00305,-108.97996,-0.80499,0.00092,17.36349,17.19176,3.67978,32.73267,-24.34999,8.08645,-3.32154,35.37664,-0.10429,-0.71936,-28.18807,-6.94859,80.87604,0.02105,-89.83604,16.20638,-0.0395,105.76038,-2.60939,-7.27498,0.01402,-6.66961,3.63774,-0.00512,6.78069,3.35217,-12.62686,-14.18255,7.68736,-10.58638,6.22942,8.28761,5.19175
884,-3.16868,-0.0,0.0,-63.59981,0.0,0.0,10.47311,-3.6351,0.86637,-39.06184,1.90299,-6.08675,-29.99042,-1.77565,-0.00238,-111.56268,-2.89991,-0.01773,16.05403,17.58295,2.97568,37.9521,-24.79378,11.15554,-1.18355,37.41618,-4.00802,-3.4084,-28.95219,-9.22253,82.76467,0.01407,-90.82232,14.70137,-0.02615,103.74079,-1.45281,-6.32625,0.05002,-6.25053,4.21002,-0.00147,6.71396,3.58264,-12.35372,-14.27861,7.80494,-10.2462,5.29426,8.85096,3.88853
885,-3.34066,0.0,-0.0,-67.96942,-0.0,-0.0,10.59565,-3.44134,1.10239,-36.64225,2.60835,-8.73907,-29.42796,-1.95095,-0.00086,-113.43575,-4.85916,-0.00914,14.39287,18.24932,2.12059,42.54362,-24.89942,13.26235,0.88362,39.67566,-7.83285,-6.4984,-29.71193,-11.98212,84.53385,0.00295,-91.78413,13.83262,-0.00469,102.45883,0.41073,-4.62302,0.05587,-5.14264,4.83795,0.00392,6.69553,3.69136,-11.94973,-14.3282,7.76189,-9.82698,3.97022,9.70772,2.22888
886,-3.92563,-0.0,0.0,-70.7459,-0.0,0.0,10.63073,-3.38828,0.97261,-34.84695,2.8858,-11.7154,-28.78198,-1.95061,0.00168,-114.46908,-7.19183,0.00077,12.36649,19.18847,1.42954,46.51537,-25.0412,13.65525,3.01212,41.99715,-11.71871,-9.80211,-30.46175,-14.80985,86.27714,-0.00119,-92.53214,13.33067,0.00513,102.55881,2.05009,-3.2604,0.01894,-3.72867,5.605,0.0052,6.66476,3.68539,-11.4628,-14.38844,7.58188,-9.37151,2.31908,10.82173,0.17267
887,-4.59697,0.0,-0.0,-70.95525,0.0,0.0,10.58087,-3.66277,0.50579,-34.61209,3.49954,-14.7911,-28.00443,-1.761,0.00324,-114.48241,-9.74721,0.00055,10.04417,20.30852,1.0308,50.16914,-25.40626,12.88185,5.5943,44.22939,-16.16207,-12.89566,-31.23035,-17.04755,87.98385,-0.0001,-92.98627,12.46614,0.00386,103.75365,2.77916,-2.81753,-0.00568,-2.6771,6.62663,-0.00363,6.64462,3.67128,-10.92728,-14.43903,7.3766,-8.87366,0.47916,12.12174,-2.11271
888,-5.07841,0.0,0.0,-69.42044,0.0,0.0,10.42791,-4.13878,0.09641,-35.79684,4.40692,-17.05418,-27.05456,-1.56919,0.00085,-113.40628,-11.81186,0.00755,7.52026,21.55859,0.60997,53.70721,-25.81659,12.12673,8.88252,46.27884,-21.25587,-15.54971,-32.07017,-18.2451,89.64182,0.00533,-93.06984,10.88529,-0.00664,105.25497,2.95381,-3.13473,-0.0063,-2.31525,7.87146,-0.01301,6.67368,3.73267,-10.35541,-14.4441,7.22843,-8.31462,-1.45322,13.59752,-4.36163
889,-5.35516,0.0,0.0,-68.48999,0.0,-0.0,10.22432,-4.58386,0.1408,-37.36785,4.70805,-17.8046,-25.96214,-1.57144,-0.00308,-111.36156,-13.19879,0.00633,4.85028,23.07135,-0.09268,57.07655,-25.8477,11.62067,12.80313,48.14734,-26.60958,-17.9365,-32.92824,-18.66084,91.35659,0.01154,-92.80928,8.92853,0.00573,107.08725,3.24593,-3.92688,-0.00415,-2.26487,9.17142,-0.00826,6.74995,3.88088,-9.79527,-14.40322,7.16513,-7.7353,-3.49729,15.3311,-6.28734
890,-5.32779,0.0,0.0,-69.37917,0.0,-0.0,9.9988,-4.92082,0.56889,-38.53281,3.82943,-17.28691,-24.85291,-1.70748,-0.00306,-108.54414,-14.48553,-0.03225,2.02412,24.92805,-0.76966,60.12406,-25.30651,10.55404,17.16313,49.90543,-31.99729,-20.35312,-33.61777,-18.58994,93.29729,0.00252,-92.13149,6.94865,0.03524,109.81895,3.82038,-5.02543,-0.0035,-1.94249,10.06127,0.00068,6.86149,4.08316,-9.30687,-14.32413,7.17781,-7.20376,-5.72094,17.31654,-7.73117
891,-4.83518,0.0,0.0,-71.68438,-0.0,-0.0,9.70849,-5.15526,1.10533,-39.24809,2.28823,-16.23194,-23.88123,-1.77485,-0.0,-105.04233,-15.95736,-0.07306,-0.86843,26.91023,-1.02193,62.92994,-24.47216,8.58825,21.82472,51.59378,-37.57861,-22.88659,-34.02657,-17.30225,95.51482,-0.0228,-90.78356,4.85288,0.01188,112.50613,4.49707,-6.04998,0.00061,-1.39721,9.99527,0.00147,6.99846,4.27849,-8.84308,-14.21661,7.19265,-6.6979,-8.02244,19.35979,-8.83103
892,-4.08712,0.0,-0.0,-74.78352,0.0,-0.0,9.32377,-5.22447,1.74437,-39.79791,1.21084,-15.21165,-23.1633,-1.72197,0.00144,-100.82017,-16.98165,-0.05418,-3.55938,28.71746,-1.02491,65.71419,-23.79859,6.45203,26.69418,53.16489,-43.46886,-25.4389,-34.2639,-14.27873,97.80585,-0.03766,-88.78244,2.54814,-0.05361,113.34255,5.09933,-6.50899,0.00532,-1.0744,8.99284,0.00227,7.1275,4.39432,-8.2456,-14.1172,7.08489,-6.09594,-10.16938,21.27085,-9.94646
893,-3.56874,-0.0,-0.0,-77.80571,-0.0,-0.0,8.81567,-5.08782,2.56142,-40.41249,1.57557,-14.57663,-22.74399,-1.64272,0.00061,-95.86163,-16.7669,0.00858,-5.88762,30.25363,-1.1833,68.43372,-23.52463,4.94,31.70232,54.51848,-49.46897,-27.98575,-34.49236,-11.04964,99.78836,-0.02635,-86.60221,0.36394,-0.05798,112.61069,5.54863,-6.41532,0.00555,-0.99211,7.81309,0.00278,7.20501,4.38078,-7.43014,-14.06883,6.77745,-5.33758,-12.13663,23.01269,-11.31437
