PaulMeinheit/Bachelor_Muay_Thai/Sub01_Teep/sliced/Sub01_Teep/JointPositions.txt/sliced4.csv
Unnamed: 0_level_0,Neck_Joint_Position,Neck_Joint_Position,Neck_Joint_Position,L_ANKLE_POSITION,L_ANKLE_POSITION,L_ANKLE_POSITION,R_ANKLE_POSITION,R_ANKLE_POSITION,R_ANKLE_POSITION,L_KNEE_POSITION,L_KNEE_POSITION,L_KNEE_POSITION,R_KNEE_POSITION,R_KNEE_POSITION,R_KNEE_POSITION,L_HIP_POSITION,L_HIP_POSITION,L_HIP_POSITION,R_HIP_POSITION,R_HIP_POSITION,R_HIP_POSITION,L_SHOULDER_POSITION,L_SHOULDER_POSITION,L_SHOULDER_POSITION,R_SHOULDER_POSITION,R_SHOULDER_POSITION,R_SHOULDER_POSITION,L_ELBOW_POSITION,L_ELBOW_POSITION,L_ELBOW_POSITION,R_ELBOW_POSITION,R_ELBOW_POSITION,R_ELBOW_POSITION,L_WRIST_POSITION,L_WRIST_POSITION,L_WRIST_POSITION,R_WRIST_POSITION,R_WRIST_POSITION,R_WRIST_POSITION
ITEM,X,Y,Z,X,Y,Z,X,Y,Z,X,Y,Z,X,Y,Z,X,Y,Z,X,Y,Z,X,Y,Z,X,Y,Z,X,Y,Z,X,Y,Z,X,Y,Z,X,Y,Z
1996,0.11478,0.30883,1.53025,0.05353,0.58764,0.10031,0.06476,0.23957,0.08423,0.08151,0.56156,0.51951,0.1738,0.30904,0.48115,0.01154,0.38538,0.89827,0.15084,0.24377,0.89674,-0.04776,0.38894,1.47633,0.21867,0.16596,1.46554,-0.05759,0.54513,1.23638,0.37467,0.26052,1.23764,0.0748,0.57745,1.45518,0.32261,0.42709,1.43365
1997,0.11506,0.30713,1.52917,0.05394,0.58835,0.10115,0.06527,0.23993,0.08395,0.08338,0.56463,0.52039,0.17572,0.31029,0.48033,0.01155,0.38613,0.89771,0.15071,0.24438,0.89569,-0.04729,0.38741,1.47564,0.21872,0.1646,1.46365,-0.05724,0.54529,1.23679,0.37577,0.25922,1.23649,0.07508,0.57541,1.45596,0.32418,0.42499,1.4333
1998,0.11539,0.30536,1.52808,0.05455,0.58965,0.10279,0.06584,0.24016,0.08366,0.08558,0.56895,0.52207,0.17759,0.31132,0.47953,0.01152,0.38695,0.89728,0.15042,0.24495,0.89469,-0.04673,0.386,1.47504,0.21876,0.16316,1.46161,-0.05679,0.54546,1.23725,0.37692,0.25791,1.23528,0.07549,0.57317,1.45676,0.32574,0.42267,1.43305
1999,0.11582,0.30356,1.52696,0.05541,0.59165,0.10541,0.06639,0.24023,0.0834,0.08816,0.57465,0.52473,0.17939,0.31215,0.47877,0.01143,0.38781,0.89701,0.14999,0.24548,0.89373,-0.04612,0.38464,1.47454,0.21882,0.16168,1.45953,-0.05626,0.54567,1.23782,0.37817,0.25663,1.23411,0.07609,0.57082,1.45759,0.32718,0.42018,1.43293
2000,0.11638,0.30178,1.52582,0.05656,0.59442,0.10919,0.06685,0.24016,0.08317,0.09117,0.58182,0.52851,0.18114,0.31279,0.47805,0.01129,0.38868,0.8969,0.14945,0.246,0.89281,-0.04552,0.38324,1.47412,0.21898,0.16018,1.45751,-0.05568,0.54596,1.23855,0.37952,0.25547,1.23309,0.07685,0.56837,1.4585,0.3284,0.41767,1.43298
2001,0.11703,0.30007,1.52463,0.05797,0.59796,0.11424,0.06715,0.24001,0.083,0.09464,0.59038,0.53352,0.18285,0.31332,0.47734,0.0111,0.38955,0.89694,0.14887,0.24652,0.89192,-0.04496,0.38171,1.47372,0.2193,0.15864,1.45564,-0.0551,0.54632,1.23947,0.381,0.25451,1.2323,0.07773,0.56581,1.45953,0.32935,0.41527,1.43321
2002,0.11774,0.2984,1.5234,0.05957,0.6022,0.12064,0.0673,0.23986,0.08286,0.09859,0.60017,0.53976,0.18455,0.31381,0.47662,0.01088,0.39043,0.89713,0.14833,0.24713,0.89103,-0.04445,0.38,1.4733,0.21983,0.15707,1.45395,-0.0545,0.54675,1.24056,0.38258,0.25379,1.23174,0.07862,0.56307,1.4607,0.33005,0.41306,1.43361
2003,0.11848,0.29674,1.52211,0.06125,0.60694,0.12838,0.06731,0.23975,0.08276,0.10294,0.61096,0.54724,0.18624,0.31437,0.47589,0.01067,0.39134,0.89744,0.14787,0.24786,0.89013,-0.04395,0.37814,1.47284,0.22058,0.15548,1.45239,-0.05387,0.54719,1.24176,0.38428,0.2533,1.23136,0.07941,0.56012,1.46203,0.33066,0.41099,1.43418
2004,0.11925,0.29504,1.52074,0.06286,0.61187,0.13746,0.06724,0.23971,0.08269,0.10762,0.62253,0.55588,0.18795,0.31505,0.47514,0.01047,0.39232,0.89787,0.1475,0.24876,0.88922,-0.0434,0.37616,1.47233,0.22153,0.15391,1.45088,-0.05317,0.54762,1.24302,0.38609,0.25299,1.23107,0.08008,0.55694,1.46348,0.3314,0.409,1.4349
2005,0.12004,0.29327,1.51929,0.06427,0.61668,0.14785,0.06716,0.23973,0.08267,0.11253,0.63466,0.56563,0.18967,0.31592,0.4744,0.01028,0.39341,0.89839,0.14721,0.24984,0.88831,-0.04274,0.3741,1.47178,0.22258,0.15241,1.44934,-0.05239,0.548,1.24432,0.38804,0.25286,1.23083,0.08065,0.55358,1.46504,0.33241,0.40704,1.43579
2006,0.12085,0.29145,1.51774,0.06537,0.62112,0.15956,0.0671,0.2398,0.08274,0.11759,0.64717,0.57643,0.19142,0.31698,0.4737,0.01009,0.39464,0.89902,0.14697,0.25114,0.88744,-0.04195,0.37198,1.47121,0.22364,0.15102,1.44772,-0.05151,0.54835,1.24566,0.39012,0.25291,1.23066,0.08119,0.55009,1.46665,0.33369,0.40516,1.43685
2007,0.12164,0.28962,1.51607,0.06612,0.62509,0.17259,0.06713,0.23992,0.0829,0.12272,0.65988,0.58825,0.1932,0.3183,0.47306,0.00984,0.39606,0.89978,0.14672,0.25268,0.88661,-0.04108,0.36985,1.47063,0.22461,0.14976,1.44602,-0.05055,0.54873,1.24707,0.39233,0.25322,1.23066,0.08178,0.54655,1.46827,0.33505,0.40344,1.43809
2008,0.12235,0.28777,1.51434,0.06657,0.62865,0.18692,0.06728,0.24005,0.08317,0.12788,0.67263,0.60104,0.19504,0.31989,0.47248,0.00951,0.39769,0.9007,0.14642,0.25452,0.88583,-0.0402,0.36776,1.47006,0.22548,0.14859,1.44427,-0.04954,0.5492,1.24855,0.39463,0.25384,1.2309,0.08255,0.543,1.46983,0.33624,0.40197,1.43953
2009,0.12294,0.28591,1.51258,0.06687,0.63196,0.20247,0.06754,0.2402,0.08353,0.13303,0.68529,0.61474,0.1969,0.32176,0.47195,0.00905,0.39956,0.90176,0.14604,0.25666,0.88507,-0.03942,0.36578,1.46948,0.22627,0.14745,1.44248,-0.04852,0.54982,1.25012,0.39702,0.25479,1.23144,0.08353,0.53947,1.47126,0.33705,0.40075,1.44114
2010,0.12338,0.28403,1.51083,0.06718,0.63524,0.21908,0.06785,0.24036,0.08392,0.13813,0.69776,0.62926,0.19876,0.32387,0.47142,0.00847,0.40164,0.90294,0.14558,0.25911,0.8843,-0.03876,0.36393,1.46886,0.22701,0.14629,1.44066,-0.04749,0.55063,1.25175,0.39947,0.256,1.23224,0.08472,0.53597,1.47254,0.3374,0.39971,1.44288
2011,0.12365,0.28214,1.50911,0.06764,0.63871,0.23657,0.06813,0.24054,0.08428,0.14312,0.70997,0.64451,0.20054,0.32615,0.4708,0.00781,0.40391,0.90415,0.1451,0.26183,0.88346,-0.03822,0.3622,1.46815,0.22778,0.14512,1.43879,-0.04646,0.55167,1.25343,0.40199,0.25737,1.23321,0.08607,0.53254,1.47369,0.33735,0.39869,1.44469
2012,0.12376,0.2803,1.50742,0.06836,0.64262,0.25468,0.06834,0.24075,0.08453,0.1479,0.72188,0.66037,0.20224,0.32854,0.47005,0.00713,0.40634,0.90533,0.14467,0.26483,0.8825,-0.03772,0.36054,1.4673,0.22858,0.14399,1.43683,-0.0454,0.55294,1.25518,0.40462,0.25881,1.23424,0.08752,0.52923,1.47477,0.33701,0.39755,1.4465
2013,0.12374,0.27853,1.50572,0.0694,0.64725,0.27318,0.06845,0.241,0.08467,0.15241,0.73349,0.67675,0.20388,0.33102,0.46914,0.00649,0.40893,0.90645,0.14432,0.26807,0.88143,-0.03721,0.35889,1.46632,0.2294,0.14297,1.43474,-0.04429,0.55441,1.25705,0.40738,0.26022,1.23527,0.08902,0.52612,1.47585,0.33653,0.39622,1.44825
2014,0.12365,0.27685,1.50401,0.07081,0.65288,0.29185,0.06852,0.24128,0.08473,0.15661,0.74479,0.69358,0.20555,0.33359,0.46809,0.00597,0.41171,0.90749,0.14406,0.27153,0.88024,-0.03665,0.35723,1.46526,0.2302,0.14206,1.4325,-0.04311,0.55603,1.25907,0.41026,0.26158,1.23625,0.09058,0.52319,1.477,0.33598,0.39473,1.44986
2015,0.12355,0.27521,1.50229,0.07263,0.65977,0.31053,0.06861,0.24154,0.0848,0.16055,0.75578,0.71083,0.20732,0.33628,0.46696,0.00561,0.41469,0.90843,0.14388,0.27514,0.87894,-0.03607,0.35561,1.46419,0.23095,0.14119,1.4301,-0.04188,0.55774,1.26126,0.41319,0.26285,1.23722,0.09224,0.52045,1.47821,0.33543,0.39317,1.45133
2016,0.12355,0.27355,1.50055,0.07495,0.66814,0.3291,0.06872,0.24177,0.0849,0.16425,0.76648,0.72853,0.20923,0.33908,0.46576,0.00547,0.41788,0.90926,0.14376,0.27884,0.87756,-0.03548,0.35409,1.46321,0.23161,0.14023,1.4276,-0.0406,0.55951,1.26358,0.41611,0.26398,1.23823,0.09404,0.51782,1.47941,0.33488,0.39165,1.45266
2017,0.12369,0.27184,1.49878,0.07781,0.67818,0.34749,0.06887,0.24195,0.08503,0.16774,0.77694,0.74668,0.21126,0.34196,0.46448,0.00559,0.42134,0.90994,0.14368,0.28261,0.87607,-0.0349,0.35276,1.46232,0.23211,0.13913,1.42507,-0.03925,0.56134,1.26598,0.41894,0.26493,1.23936,0.096,0.51525,1.48053,0.3344,0.39023,1.4539
2018,0.12401,0.27011,1.49694,0.08127,0.68998,0.36568,0.069,0.2421,0.08512,0.171,0.78722,0.76529,0.21332,0.34486,0.4631,0.00602,0.42514,0.91046,0.14367,0.28651,0.87449,-0.0343,0.35166,1.46147,0.23242,0.13791,1.42256,-0.03783,0.56328,1.26841,0.42168,0.26561,1.24065,0.09812,0.51267,1.48149,0.33403,0.3889,1.45512
2019,0.12451,0.26845,1.49494,0.08536,0.7036,0.38365,0.06909,0.24226,0.0851,0.17395,0.79735,0.78434,0.21533,0.34772,0.4616,0.00677,0.42932,0.91082,0.14377,0.29058,0.87283,-0.03363,0.35076,1.46054,0.23254,0.13665,1.42007,-0.03631,0.5654,1.27081,0.42437,0.26601,1.24206,0.10034,0.51004,1.48226,0.33385,0.38757,1.45633
2020,0.12515,0.267,1.49275,0.09005,0.71905,0.40141,0.06911,0.24246,0.08493,0.17645,0.80724,0.80383,0.21719,0.35047,0.45999,0.00778,0.43382,0.91109,0.144,0.29485,0.87114,-0.0329,0.35006,1.45939,0.23256,0.13551,1.41761,-0.03471,0.56773,1.27314,0.42707,0.26614,1.2435,0.10261,0.50739,1.48279,0.3339,0.38613,1.4575
2021,0.12584,0.26584,1.49034,0.09527,0.7363,0.41901,0.06908,0.24271,0.08461,0.17837,0.81668,0.82376,0.21893,0.35309,0.45828,0.00896,0.4385,0.91134,0.14437,0.29932,0.86943,-0.03217,0.34957,1.458,0.23259,0.13459,1.41512,-0.03304,0.57026,1.27534,0.4299,0.26604,1.24481,0.10485,0.50483,1.48307,0.3342,0.3845,1.45855
2022,0.12649,0.265,1.48775,0.10097,0.75535,0.43654,0.06902,0.243,0.08419,0.17958,0.82547,0.84409,0.2206,0.35557,0.45649,0.01017,0.4432,0.91165,0.14488,0.30396,0.86771,-0.03154,0.34934,1.45642,0.23276,0.13393,1.41257,-0.03134,0.57293,1.27731,0.43292,0.26572,1.24588,0.10695,0.50254,1.48314,0.33473,0.38266,1.45933
2023,0.12702,0.26445,1.48504,0.10709,0.77615,0.45416,0.06897,0.24329,0.08368,0.1801,0.83343,0.86474,0.22232,0.35795,0.45463,0.01137,0.44784,0.91207,0.14553,0.30878,0.86594,-0.03107,0.34942,1.45473,0.2331,0.13352,1.40989,-0.02965,0.57567,1.27899,0.43615,0.26519,1.24664,0.10885,0.50066,1.48305,0.33547,0.38064,1.45975
2024,0.1274,0.26414,1.4823,0.11359,0.79866,0.47206,0.06894,0.24357,0.08313,0.18002,0.8405,0.88561,0.22414,0.3603,0.45266,0.01255,0.45241,0.91261,0.14633,0.3138,0.86409,-0.03077,0.34981,1.45302,0.23357,0.1333,1.40704,-0.02806,0.57842,1.28039,0.43952,0.26448,1.24706,0.11046,0.49929,1.48287,0.33641,0.37851,1.45976
2025,0.12764,0.26401,1.47955,0.12041,0.82277,0.49041,0.06887,0.24383,0.08255,0.17951,0.84667,0.9065,0.22604,0.36273,0.45055,0.01374,0.45697,0.91326,0.14725,0.31906,0.8621,-0.03054,0.3504,1.4513,0.23405,0.13326,1.40401,-0.02661,0.58113,1.28152,0.44293,0.26357,1.24714,0.11179,0.49838,1.48264,0.3375,0.37631,1.45939
2026,0.12785,0.26401,1.47678,0.1275,0.84834,0.50935,0.06868,0.2441,0.08197,0.17875,0.85199,0.92715,0.22797,0.36524,0.44833,0.01499,0.4616,0.91398,0.14826,0.32453,0.86001,-0.03025,0.35108,1.44953,0.23445,0.13338,1.40083,-0.02531,0.58374,1.28246,0.44625,0.26247,1.24692,0.11292,0.49782,1.48235,0.33869,0.37406,1.45871
2027,0.12811,0.26411,1.47394,0.13479,0.87517,0.52895,0.06835,0.24438,0.08146,0.17783,0.85659,0.94727,0.22988,0.36779,0.44607,0.01636,0.46638,0.91473,0.14928,0.33014,0.85788,-0.02979,0.35174,1.44768,0.23473,0.13364,1.3976,-0.02412,0.58627,1.28326,0.44937,0.26122,1.24637,0.11401,0.49748,1.48196,0.33997,0.37177,1.45777
2028,0.12851,0.2643,1.47098,0.14223,0.90303,0.54923,0.06792,0.24468,0.08106,0.17673,0.86062,0.96661,0.23175,0.37027,0.44389,0.01787,0.47134,0.91544,0.15032,0.33582,0.85581,-0.02911,0.35237,1.44571,0.23494,0.13401,1.39438,-0.02291,0.58875,1.28398,0.45222,0.25984,1.24549,0.11522,0.49728,1.48146,0.34132,0.36941,1.45661
2029,0.12907,0.2646,1.46791,0.14975,0.93164,0.57022,0.06751,0.24496,0.08078,0.17531,0.86425,0.98494,0.23359,0.37266,0.44185,0.01954,0.47644,0.91611,0.15142,0.34153,0.85389,-0.02825,0.35306,1.44363,0.23512,0.13442,1.39122,-0.02152,0.5913,1.28467,0.45478,0.25835,1.24423,0.11667,0.49716,1.48085,0.34278,0.36698,1.45525
2030,0.12972,0.265,1.46473,0.15725,0.96073,0.59195,0.06721,0.24522,0.08062,0.17346,0.8676,1.00214,0.23538,0.37502,0.43997,0.02135,0.48165,0.91672,0.15264,0.34728,0.85214,-0.02733,0.35389,1.44147,0.23532,0.1348,1.38809,-0.01986,0.594,1.28537,0.45712,0.25669,1.24261,0.11835,0.49708,1.48018,0.34442,0.36444,1.45371
2031,0.13037,0.26548,1.46151,0.16464,0.99003,0.61446,0.06707,0.24545,0.08055,0.17119,0.87074,1.0181,0.23707,0.37748,0.43823,0.02323,0.48689,0.9173,0.15402,0.3531,0.85054,-0.02645,0.35494,1.43926,0.23549,0.13512,1.38489,-0.01794,0.59689,1.28609,0.45932,0.25477,1.24067,0.12019,0.49705,1.47948,0.34628,0.36171,1.452
2032,0.13094,0.26602,1.45829,0.17178,1.01934,0.6378,0.06711,0.24569,0.08054,0.16866,0.87374,1.03275,0.23862,0.38018,0.43657,0.02512,0.49216,0.91791,0.1555,0.35904,0.84905,-0.02565,0.35623,1.43704,0.23557,0.13537,1.38153,-0.01583,0.59995,1.28678,0.4615,0.25244,1.23848,0.12209,0.49713,1.47875,0.3484,0.35875,1.45011
2033,0.13137,0.26658,1.4551,0.17852,1.04844,0.66195,0.06728,0.246,0.08057,0.16614,0.87668,1.04605,0.24,0.38317,0.435,0.02695,0.49751,0.91859,0.15697,0.36513,0.84764,-0.02497,0.35778,1.43484,0.23549,0.13557,1.37796,-0.01368,0.60314,1.28739,0.46377,0.24956,1.23616,0.124,0.4974,1.47794,0.35075,0.3555,1.448
2034,0.13168,0.26714,1.45197,0.18472,1.07717,0.68685,0.06748,0.24645,0.08064,0.16394,0.87972,1.05803,0.24118,0.38642,0.43348,0.02873,0.50305,0.91935,0.15829,0.37139,0.84627,-0.02441,0.35954,1.43265,0.23524,0.13576,1.37421,-0.01159,0.6064,1.28785,0.46621,0.24602,1.2338,0.12592,0.49795,1.47699,0.35327,0.35201,1.44567
2035,0.13187,0.26767,1.44889,0.19031,1.10535,0.71238,0.06761,0.24711,0.08073,0.16228,0.883,1.0687,0.24218,0.38989,0.43201,0.03049,0.50887,0.92021,0.1594,0.37781,0.84493,-0.02397,0.36146,1.43049,0.23483,0.13597,1.37036,-0.00966,0.60967,1.28816,0.46886,0.24172,1.23157,0.12782,0.49879,1.47591,0.3559,0.34834,1.44311
2036,0.13198,0.26815,1.44589,0.19531,1.13278,0.73836,0.06762,0.248,0.08085,0.16118,0.88665,1.07813,0.24303,0.39353,0.43059,0.03228,0.51498,0.92116,0.1603,0.38438,0.84358,-0.02356,0.36344,1.42838,0.23429,0.13622,1.36648,-0.00791,0.61289,1.28836,0.4718,0.23662,1.22963,0.12961,0.49978,1.47475,0.35858,0.34454,1.44037
2037,0.13201,0.26852,1.44295,0.19981,1.15924,0.76452,0.06751,0.24911,0.08098,0.16057,0.8908,1.08637,0.24377,0.39731,0.42916,0.03419,0.52137,0.92222,0.16103,0.39109,0.84222,-0.02309,0.36539,1.42635,0.23362,0.13651,1.36261,-0.00638,0.61599,1.28854,0.47501,0.23068,1.22814,0.13121,0.50076,1.47358,0.36129,0.3406,1.43757
2038,0.13197,0.26875,1.44006,0.20385,1.18455,0.79054,0.06734,0.25038,0.08111,0.16029,0.89555,1.09348,0.24444,0.40124,0.42772,0.03631,0.52801,0.92338,0.16169,0.39792,0.84081,-0.02249,0.36723,1.42444,0.23283,0.13685,1.35877,-0.00507,0.61897,1.2888,0.47847,0.22388,1.22723,0.13257,0.50156,1.47243,0.36399,0.33645,1.43483
2039,0.13188,0.26881,1.4372,0.20734,1.20868,0.81609,0.06715,0.25173,0.08124,0.16018,0.90103,1.09949,0.24506,0.40526,0.42626,0.03871,0.53488,0.92462,0.16236,0.40487,0.83936,-0.02176,0.36896,1.42269,0.23193,0.13725,1.35498,-0.00399,0.62182,1.28921,0.48208,0.21628,1.22694,0.13371,0.50212,1.4713,0.36666,0.33203,1.43227
2040,0.13179,0.26871,1.43435,0.21002,1.23178,0.84083,0.06698,0.25308,0.08137,0.16012,0.90735,1.10436,0.24561,0.40932,0.42479,0.04145,0.54201,0.92594,0.16311,0.41194,0.83792,-0.02095,0.37058,1.42107,0.23091,0.13771,1.35124,-0.00314,0.62461,1.28984,0.48571,0.20796,1.22733,0.13466,0.50244,1.47021,0.36923,0.32732,1.42997
2041,0.13175,0.26853,1.43146,0.21152,1.25407,0.86449,0.06683,0.25438,0.0815,0.16004,0.91466,1.10808,0.24608,0.41331,0.42337,0.04458,0.54943,0.92732,0.16396,0.41915,0.83655,-0.02017,0.37211,1.41958,0.22979,0.13819,1.34757,-0.00249,0.62737,1.29074,0.48926,0.19899,1.22843,0.13544,0.50256,1.46919,0.37166,0.32235,1.428
2042,0.13174,0.26834,1.42847,0.21163,1.27578,0.88677,0.06671,0.25562,0.08166,0.1599,0.92306,1.1106,0.24644,0.41712,0.42207,0.04813,0.55723,0.92876,0.16492,0.42651,0.8353,-0.01946,0.37354,1.41818,0.2286,0.13858,1.34399,-0.00198,0.63011,1.29192,0.49261,0.18939,1.23028,0.13604,0.50249,1.46832,0.3739,0.31719,1.42637
2043,0.13172,0.26816,1.42537,0.21032,1.29695,0.90727,0.0666,0.2568,0.08183,0.15969,0.93261,1.11194,0.24668,0.42063,0.42093,0.05206,0.56547,0.93023,0.16597,0.43406,0.83421,-0.01881,0.37484,1.41689,0.22736,0.13876,1.34051,-0.00151,0.63277,1.29341,0.49571,0.17917,1.23294,0.13645,0.5022,1.46767,0.37592,0.31185,1.4251
2044,0.13163,0.26791,1.42219,0.20777,1.31741,0.92544,0.06648,0.25796,0.08198,0.15943,0.94323,1.11211,0.24677,0.42379,0.42,0.05627,0.57418,0.93169,0.16707,0.44186,0.8333,-0.01818,0.37594,1.4157,0.22612,0.13863,1.33711,-0.00103,0.63528,1.29519,0.49852,0.16835,1.23645,0.13665,0.5016,1.4673,0.37768,0.30632,1.42417
2045,0.13144,0.26741,1.41899,0.20431,1.33691,0.94065,0.06633,0.25907,0.08211,0.15918,0.95472,1.11119,0.24663,0.42655,0.41932,0.06059,0.5833,0.93307,0.16819,0.44993,0.83259,-0.01754,0.37674,1.41461,0.22489,0.13817,1.33378,-0.0005,0.63752,1.29725,0.50097,0.157,1.24082,0.13667,0.50058,1.46718,0.37912,0.30063,1.42358
2046,0.13112,0.26648,1.41585,0.20029,1.35516,0.95235,0.06611,0.26009,0.08222,0.15899,0.96674,1.10924,0.24613,0.42897,0.41887,0.0648,0.59268,0.93431,0.16934,0.4582,0.83208,-0.01691,0.37711,1.41353,0.22368,0.13735,1.33051,2e-05,0.63941,1.29956,0.50301,0.14522,1.24607,0.13654,0.49909,1.46725,0.38023,0.29483,1.42332
2047,0.13064,0.26503,1.41281,0.19606,1.37196,0.96026,0.06579,0.26096,0.08232,0.15889,0.97892,1.10629,0.24518,0.43111,0.41867,0.0687,0.60204,0.93534,0.17053,0.4665,0.83179,-0.01635,0.37698,1.4124,0.22247,0.13614,1.3273,0.00046,0.64084,1.30208,0.50453,0.13317,1.25216,0.13635,0.49718,1.46743,0.38099,0.28903,1.4234
2048,0.12997,0.26304,1.40991,0.19196,1.38723,0.96446,0.06543,0.26167,0.08242,0.15887,0.99089,1.10234,0.24378,0.43307,0.41869,0.07218,0.61108,0.93615,0.17179,0.47456,0.83171,-0.01598,0.37631,1.41117,0.22122,0.13449,1.32417,0.00078,0.64175,1.30472,0.50546,0.12105,1.25903,0.1362,0.49492,1.46766,0.38146,0.28336,1.42383
2049,0.1291,0.26057,1.40718,0.18826,1.40099,0.96538,0.06508,0.26224,0.08254,0.15887,1.00235,1.09735,0.24199,0.43495,0.4189,0.07522,0.61947,0.93674,0.17317,0.4821,0.83186,-0.01586,0.37511,1.40986,0.21993,0.13236,1.32114,0.001,0.64211,1.3074,0.50575,0.10915,1.26651,0.13614,0.4924,1.46793,0.3817,0.27796,1.42461
2050,0.12806,0.25774,1.40464,0.1852,1.41338,0.96374,0.06478,0.26274,0.08268,0.15883,1.01308,1.09124,0.23994,0.43679,0.41926,0.07785,0.62696,0.93714,0.17467,0.48883,0.83221,-0.01601,0.37345,1.4085,0.21863,0.12981,1.31825,0.00119,0.64191,1.31001,0.50545,0.09774,1.27441,0.13622,0.48965,1.46822,0.38174,0.27291,1.4257
2051,0.12692,0.25464,1.40234,0.18302,1.42451,0.96037,0.06455,0.26322,0.08284,0.15875,1.02287,1.08399,0.23778,0.43858,0.41974,0.08012,0.63336,0.93738,0.17625,0.49453,0.83276,-0.01638,0.37138,1.40716,0.21738,0.12695,1.3156,0.00143,0.64118,1.31249,0.50466,0.08706,1.28248,0.1364,0.48664,1.46854,0.38157,0.26826,1.42702
2052,0.12579,0.25138,1.40033,0.18192,1.43451,0.95613,0.06434,0.2637,0.08302,0.15867,1.03155,1.0756,0.23563,0.44019,0.42032,0.08207,0.63856,0.93747,0.17781,0.49899,0.83347,-0.01688,0.36896,1.40592,0.21624,0.12391,1.31329,0.00175,0.63993,1.3148,0.5035,0.07725,1.29047,0.13662,0.48333,1.46886,0.38112,0.26395,1.42848
2053,0.12473,0.24798,1.39862,0.18204,1.44344,0.95175,0.06416,0.26416,0.08317,0.15871,1.03899,1.06607,0.23361,0.44148,0.42097,0.08375,0.64248,0.93742,0.17926,0.50207,0.83434,-0.01745,0.36626,1.40485,0.21526,0.12071,1.31142,0.00211,0.63821,1.3169,0.50213,0.06833,1.29815,0.13679,0.4797,1.46916,0.38039,0.25987,1.42994
2054,0.12373,0.24446,1.39722,0.18331,1.45133,0.94772,0.06399,0.26457,0.0833,0.15903,1.04511,1.05537,0.23179,0.44226,0.42173,0.08522,0.64513,0.93722,0.18055,0.50371,0.83536,-0.01812,0.36333,1.40401,0.2145,0.11728,1.31009,0.00245,0.63606,1.31877,0.50075,0.06026,1.30533,0.13684,0.47581,1.46946,0.37938,0.2559,1.4313
2055,0.12276,0.24085,1.39612,0.18543,1.45821,0.94421,0.06384,0.26486,0.08341,0.15975,1.04995,1.04349,0.23027,0.44239,0.4226,0.08659,0.64661,0.9369,0.18167,0.50397,0.83653,-0.01902,0.36025,1.4034,0.21397,0.11351,1.30931,0.00277,0.63358,1.32039,0.49951,0.05289,1.31189,0.13674,0.47175,1.46976,0.37817,0.25192,1.43247
2056,0.12177,0.23723,1.39527,0.18793,1.46414,0.9411,0.06377,0.26502,0.08351,0.16084,1.05369,1.0305,0.22908,0.44183,0.42361,0.08797,0.6472,0.93643,0.18266,0.50306,0.83785,-0.02025,0.35713,1.40296,0.21365,0.10939,1.30911,0.00311,0.63086,1.32173,0.49849,0.0461,1.31782,0.13651,0.46761,1.47006,0.37684,0.24789,1.43341
2057,0.12077,0.23368,1.39461,0.19026,1.46924,0.93811,0.06379,0.26505,0.08361,0.16206,1.05664,1.01661,0.22823,0.44061,0.42479,0.08952,0.64725,0.93579,0.18361,0.50131,0.8393,-0.02181,0.35403,1.40257,0.21343,0.10505,1.30945,0.00351,0.62802,1.32283,0.49763,0.03979,1.32317,0.13622,0.4635,1.47037,0.37549,0.24384,1.43417
2058,0.11981,0.23023,1.39403,0.19205,1.47369,0.935,0.06393,0.26499,0.08371,0.16303,1.05916,1.0022,0.22764,0.43884,0.42612,0.09136,0.64717,0.93493,0.18457,0.4991,0.84085,-0.02352,0.35101,1.40214,0.21321,0.10075,1.31025,0.00397,0.62517,1.32371,0.49683,0.03396,1.32803,0.13589,0.45952,1.4707,0.37416,0.23994,1.43481
2059,0.11896,0.2268,1.3935,0.19313,1.47762,0.93166,0.06415,0.26487,0.0838,0.16335,1.0615,0.98776,0.22723,0.43665,0.42755,0.09356,0.64724,0.93384,0.1856,0.49677,0.84245,-0.02511,0.34807,1.40163,0.21286,0.09672,1.31139,0.00445,0.62237,1.32442,0.49596,0.02868,1.33244,0.13551,0.45577,1.4711,0.37288,0.23636,1.4354
2060,0.11822,0.22325,1.39301,0.19364,1.48102,0.92801,0.06436,0.26472,0.08383,0.16276,1.06372,0.9738,0.22689,0.43414,0.429,0.09604,0.6475,0.93256,0.1867,0.49452,0.84401,-0.02635,0.34518,1.40108,0.21233,0.09313,1.31271,0.0049,0.6196,1.32501,0.49498,0.0241,1.3364,0.13506,0.45227,1.47165,0.37167,0.23327,1.436
2061,0.11754,0.21953,1.39261,0.19383,1.48362,0.92379,0.06449,0.26454,0.0838,0.16119,1.06558,0.96073,0.22662,0.43144,0.43038,0.09857,0.64772,0.93123,0.1879,0.4924,0.84545,-0.02709,0.34226,1.40061,0.21157,0.08998,1.31401,0.00529,0.61681,1.32548,0.49388,0.02033,1.33984,0.13454,0.44901,1.4724,0.37049,0.23075,1.43666
2062,0.11684,0.2157,1.39237,0.19395,1.48502,0.91842,0.06453,0.26433,0.0837,0.15875,1.06665,0.94879,0.22643,0.42866,0.43162,0.10084,0.6475,0.93002,0.18918,0.49028,0.84672,-0.02733,0.33926,1.4003,0.21061,0.08716,1.31512,0.00561,0.61393,1.32586,0.49274,0.01747,1.3427,0.13399,0.44594,1.47332,0.36932,0.22883,1.43742
2063,0.11608,0.21195,1.39237,0.19407,1.48486,0.91114,0.06453,0.26405,0.08357,0.15575,1.06654,0.93809,0.22635,0.42597,0.43266,0.10255,0.64644,0.92908,0.19051,0.48793,0.84783,-0.02718,0.33619,1.40027,0.20948,0.08452,1.3159,0.00591,0.61094,1.32617,0.49164,0.01555,1.34495,0.13353,0.44301,1.47437,0.36815,0.22747,1.43832
2064,0.11526,0.20848,1.39267,0.19408,1.48301,0.90125,0.06457,0.26368,0.08344,0.15268,1.06501,0.92871,0.22639,0.4235,0.43349,0.10357,0.64432,0.92848,0.19182,0.48517,0.84881,-0.02682,0.33313,1.40055,0.20825,0.08192,1.31637,0.00625,0.60789,1.3265,0.49067,0.01456,1.34663,0.13322,0.44018,1.47549,0.36699,0.22664,1.43937
2065,0.11444,0.20544,1.39331,0.19376,1.47958,0.88824,0.06466,0.26322,0.08331,0.15012,1.06217,0.92065,0.22651,0.42135,0.43412,0.10394,0.64121,0.92816,0.19298,0.48191,0.84969,-0.02641,0.33017,1.40114,0.20702,0.0793,1.31663,0.00668,0.60489,1.32694,0.48993,0.01445,1.34779,0.13315,0.43746,1.47667,0.36587,0.22633,1.4405
2066,0.11375,0.20288,1.39426,0.19269,1.47484,0.87182,0.06477,0.26272,0.0832,0.14854,1.05833,0.91382,0.22666,0.41957,0.43456,0.10377,0.6374,0.92803,0.19385,0.47824,0.85046,-0.02599,0.3274,1.40199,0.20586,0.07667,1.31682,0.00723,0.60205,1.32757,0.48945,0.01514,1.34847,0.1333,0.43488,1.47794,0.36481,0.22646,1.44166
2067,0.11328,0.20083,1.39547,0.19044,1.46902,0.85192,0.06485,0.26221,0.08307,0.1481,1.05398,0.90796,0.2268,0.41811,0.43482,0.1032,0.6333,0.92795,0.19428,0.47437,0.85108,-0.02552,0.32486,1.40301,0.20486,0.07414,1.31708,0.00782,0.59944,1.3284,0.48927,0.01648,1.34873,0.13359,0.43254,1.4793,0.36379,0.2269,1.44281
2068,0.11307,0.19928,1.39686,0.18663,1.46221,0.82879,0.06485,0.2617,0.08287,0.14854,1.04956,0.90268,0.22692,0.41685,0.43491,0.10228,0.6293,0.92785,0.19418,0.4706,0.85148,-0.02492,0.32261,1.40418,0.2041,0.07189,1.31743,0.00834,0.59714,1.32934,0.48937,0.0183,1.34858,0.13388,0.43054,1.48078,0.36281,0.2275,1.44397
2069,0.11313,0.19825,1.39833,0.18111,1.45424,0.80291,0.06477,0.26116,0.0826,0.14937,1.04533,0.89763,0.22697,0.41569,0.43484,0.10104,0.62563,0.92774,0.19355,0.46715,0.85165,-0.02415,0.32073,1.40552,0.2036,0.07007,1.31783,0.0087,0.5952,1.33028,0.48968,0.02043,1.34804,0.13403,0.42904,1.48238,0.36192,0.22808,1.44518
2070,0.11338,0.19774,1.39984,0.17413,1.44476,0.77493,0.06459,0.26056,0.08225,0.15009,1.04131,0.89257,0.22693,0.41451,0.43468,0.09944,0.62227,0.92769,0.19253,0.46411,0.85164,-0.02322,0.31929,1.4071,0.20332,0.06871,1.31823,0.0089,0.59364,1.33113,0.49014,0.02269,1.34711,0.13401,0.4281,1.48408,0.36116,0.22856,1.44641
2071,0.11372,0.19767,1.40139,0.16624,1.43332,0.74556,0.06434,0.25987,0.08187,0.15044,1.03731,0.88737,0.22672,0.41325,0.43453,0.0975,0.61903,0.92781,0.1913,0.46138,0.85157,-0.02221,0.3183,1.40903,0.20318,0.06767,1.31866,0.00904,0.59243,1.3319,0.49069,0.02501,1.34579,0.13389,0.42766,1.48588,0.36062,0.22893,1.44765
2072,0.11407,0.19789,1.40303,0.1582,1.41957,0.71545,0.06407,0.25909,0.08151,0.15044,1.03307,0.88202,0.22629,0.41186,0.4345,0.09529,0.61567,0.92816,0.19005,0.45874,0.85162,-0.0212,0.31771,1.41135,0.20312,0.06681,1.31918,0.00925,0.59149,1.33266,0.49128,0.02736,1.34413,0.13382,0.42758,1.48779,0.36036,0.22929,1.44884
2073,0.11434,0.1982,1.40487,0.15062,1.40337,0.68522,0.06382,0.25826,0.0812,0.15032,1.02841,0.87651,0.22564,0.41034,0.43468,0.09295,0.61202,0.92867,0.18891,0.45594,0.85189,-0.02025,0.3174,1.41405,0.2031,0.06599,1.31993,0.00963,0.5907,1.33351,0.4919,0.02978,1.34222,0.13391,0.42769,1.48981,0.36041,0.22977,1.44989
2074,0.1145,0.19838,1.40699,0.1438,1.38481,0.65531,0.06365,0.25744,0.08094,0.15028,1.02329,0.87084,0.22477,0.40868,0.4351,0.09064,0.60804,0.92919,0.18793,0.45277,0.85246,-0.01939,0.31724,1.41706,0.20311,0.06517,1.32101,0.01022,0.58998,1.33453,0.49254,0.03232,1.34019,0.13421,0.42786,1.49199,0.3608,0.23056,1.45073
2075,0.11451,0.19835,1.40943,0.13775,1.36412,0.62598,0.06357,0.25665,0.08071,0.15046,1.01779,0.86492,0.22372,0.40688,0.43573,0.08847,0.60382,0.92954,0.1871,0.44915,0.85331,-0.01865,0.31718,1.42022,0.20312,0.06438,1.32249,0.01099,0.58931,1.33573,0.49313,0.03499,1.33813,0.13468,0.42808,1.49433,0.36147,0.23177,1.45136
2076,0.11439,0.19817,1.41216,0.1323,1.34155,0.59731,0.06355,0.25591,0.08047,0.1509,1.01205,0.85861,0.22251,0.40495,0.43653,0.08649,0.59949,0.92961,0.18639,0.44515,0.85435,-0.01806,0.31722,1.42341,0.20307,0.06362,1.32436,0.01189,0.58873,1.33705,0.4936,0.0378,1.3361,0.1352,0.42838,1.49683,0.36236,0.23339,1.45184
2077,0.11416,0.19801,1.41512,0.12732,1.3173,0.56932,0.06353,0.25524,0.08022,0.15165,1.00615,0.85178,0.22118,0.4029,0.43744,0.0847,0.59519,0.92937,0.18574,0.44091,0.85552,-0.01766,0.31747,1.42654,0.2029,0.0629,1.32654,0.01288,0.58834,1.3384,0.49388,0.04072,1.33407,0.1357,0.42887,1.49944,0.36338,0.2353,1.45232
2078,0.1139,0.19804,1.41821,0.12273,1.29156,0.54206,0.06346,0.25462,0.07996,0.15272,1.00015,0.84434,0.21973,0.40078,0.4384,0.08306,0.591,0.92885,0.1851,0.43656,0.85675,-0.01744,0.31804,1.42961,0.20264,0.06224,1.32897,0.01394,0.58824,1.33972,0.49395,0.04374,1.33201,0.13615,0.42963,1.50208,0.36443,0.23733,1.45293
2079,0.11371,0.19837,1.42136,0.11855,1.26452,0.5157,0.0633,0.25407,0.07973,0.15408,0.99403,0.83626,0.21819,0.39865,0.4394,0.08153,0.58698,0.92813,0.18442,0.43219,0.858,-0.01737,0.319,1.43264,0.20232,0.06173,1.33159,0.01505,0.58848,1.34098,0.49385,0.04691,1.32988,0.13657,0.4307,1.50465,0.36542,0.23938,1.45373
2080,0.11372,0.19903,1.42452,0.11483,1.2365,0.49044,0.06306,0.25359,0.07954,0.15568,0.98774,0.82755,0.21659,0.39661,0.44042,0.08008,0.5831,0.92729,0.18368,0.42785,0.85927,-0.01738,0.32034,1.43564,0.20201,0.06152,1.33437,0.01614,0.58907,1.34219,0.49364,0.0503,1.32773,0.13695,0.43206,1.50711,0.3663,0.24145,1.45472
2081,0.11401,0.19999,1.42766,0.11159,1.20785,0.46649,0.06279,0.25319,0.0794,0.15744,0.98121,0.81823,0.21494,0.39472,0.44145,0.07869,0.57935,0.92638,0.18287,0.42354,0.86054,-0.01744,0.32199,1.43859,0.20176,0.06175,1.33729,0.01714,0.58996,1.34335,0.49334,0.05395,1.3256,0.13731,0.4337,1.50945,0.36706,0.24363,1.45581
2082,0.1146,0.20124,1.43076,0.10875,1.17898,0.44397,0.06252,0.25286,0.07931,0.15926,0.97439,0.80836,0.21326,0.393,0.44249,0.07737,0.57567,0.92544,0.182,0.41925,0.86181,-0.01756,0.32384,1.44148,0.20155,0.06252,1.34029,0.01798,0.59105,1.34449,0.49295,0.05781,1.32358,0.1377,0.43565,1.51171,0.36778,0.24605,1.45691
2083,0.1154,0.2028,1.43383,0.10614,1.15023,0.4229,0.0623,0.25256,0.07923,0.16103,0.96725,0.798,0.21157,0.3914,0.44352,0.07609,0.57205,0.92447,0.18106,0.41497,0.86305,-0.01776,0.32581,1.44427,0.20141,0.06385,1.34336,0.01862,0.5923,1.34563,0.49252,0.06176,1.32173,0.13825,0.43796,1.5139,0.36856,0.24875,1.45791
2084,0.11625,0.20473,1.43687,0.10357,1.12182,0.40324,0.06214,0.25225,0.07912,0.16262,0.95979,0.78723,0.20987,0.38987,0.4445,0.07483,0.56846,0.92343,0.18006,0.41071,0.86423,-0.018,0.32784,1.44697,0.20138,0.06564,1.34645,0.01911,0.59365,1.34678,0.4921,0.06566,1.32008,0.13908,0.44066,1.51603,0.36953,0.25173,1.45875
2085,0.11703,0.20713,1.43991,0.10094,1.09385,0.38485,0.06202,0.25191,0.07896,0.16395,0.95202,0.77614,0.20817,0.38833,0.44542,0.07353,0.56491,0.92231,0.17899,0.4065,0.86531,-0.01821,0.32992,1.44958,0.20152,0.06772,1.34959,0.01952,0.5951,1.34792,0.49179,0.06943,1.3186,0.14023,0.44374,1.51811,0.37073,0.2549,1.45939
2086,0.11767,0.21001,1.44299,0.09827,1.06627,0.36763,0.0619,0.25153,0.07874,0.16501,0.94391,0.76482,0.20646,0.38675,0.44628,0.07213,0.56137,0.92112,0.1779,0.40239,0.86632,-0.01825,0.33211,1.45214,0.20188,0.06996,1.35277,0.01995,0.59665,1.34903,0.49161,0.07309,1.31723,0.14161,0.44712,1.52016,0.37206,0.25812,1.45988
2087,0.11818,0.21329,1.44608,0.09564,1.03901,0.35146,0.06179,0.25112,0.0785,0.16589,0.93542,0.75336,0.20476,0.38509,0.44711,0.0706,0.55782,0.91988,0.17682,0.3984,0.86727,-0.01803,0.33446,1.45469,0.20242,0.07228,1.356,0.0205,0.59834,1.35004,0.49154,0.07673,1.31591,0.143,0.45069,1.52221,0.37334,0.26128,1.46029
2088,0.11864,0.2168,1.44917,0.09315,1.01206,0.33629,0.06171,0.25069,0.07826,0.16669,0.92652,0.74183,0.20309,0.38329,0.44798,0.06891,0.55426,0.91862,0.17576,0.39455,0.86824,-0.01755,0.33707,1.45727,0.20308,0.07466,1.35927,0.02121,0.60025,1.35093,0.49149,0.08048,1.31454,0.14417,0.45433,1.52424,0.37435,0.26432,1.46068
2089,0.11911,0.22037,1.45223,0.09087,0.98555,0.32203,0.06168,0.25022,0.07808,0.16751,0.91717,0.73025,0.20148,0.38132,0.44893,0.0671,0.55072,0.9174,0.17469,0.39081,0.86927,-0.01688,0.34004,1.4599,0.20377,0.0772,1.36256,0.0221,0.60242,1.3517,0.49137,0.08447,1.31308,0.14503,0.45793,1.52622,0.37498,0.26728,1.46109
2090,0.11964,0.22386,1.45526,0.08884,0.95976,0.30859,0.06173,0.24974,0.07799,0.16836,0.90744,0.71863,0.19995,0.37917,0.45002,0.0652,0.54729,0.91623,0.17353,0.3872,0.87041,-0.01615,0.3434,1.46259,0.20445,0.07997,1.36584,0.02315,0.60489,1.35235,0.49113,0.08875,1.31149,0.14562,0.46146,1.52807,0.37526,0.27028,1.4615
2091,0.12024,0.22723,1.4583,0.08709,0.93494,0.29585,0.06184,0.24924,0.078,0.16916,0.89742,0.70701,0.1985,0.37685,0.45123,0.06328,0.54408,0.91516,0.17223,0.38376,0.87165,-0.01546,0.34715,1.4653,0.20509,0.08302,1.36908,0.02426,0.60764,1.35287,0.49075,0.09335,1.30982,0.14602,0.46498,1.5297,0.37537,0.27346,1.46188
2092,0.12092,0.2305,1.46137,0.08556,0.91119,0.2837,0.062,0.24877,0.07809,0.16975,0.8873,0.69544,0.1971,0.37444,0.45255,0.06139,0.54119,0.9142,0.17071,0.38052,0.87298,-0.01483,0.3512,1.46802,0.20567,0.08634,1.37228,0.02531,0.61059,1.35323,0.4902,0.09819,1.30811,0.14637,0.46861,1.53109,0.37547,0.27697,1.46223
2093,0.12168,0.23378,1.46448,0.08417,0.88848,0.27206,0.06221,0.24836,0.07825,0.17,0.87721,0.684,0.19574,0.37201,0.45394,0.05957,0.53868,0.91333,0.16897,0.37752,0.87435,-0.01421,0.35545,1.47071,0.2061,0.08992,1.37545,0.02617,0.61367,1.35338,0.48942,0.1032,1.30643,0.14676,0.47252,1.53222,0.37568,0.28082,1.4626
2094,0.12249,0.23721,1.46761,0.08282,0.8667,0.2609,0.06244,0.24804,0.07843,0.16979,0.86723,0.67276,0.19441,0.36962,0.45535,0.05785,0.53655,0.91257,0.16709,0.37477,0.87573,-0.01354,0.35985,1.47336,0.2063,0.09372,1.37863,0.02674,0.61682,1.35328,0.48837,0.10831,1.30485,0.14724,0.47686,1.5331,0.37597,0.28498,1.46306
2095,0.12328,0.24094,1.47073,0.08144,0.84576,0.25023,0.06267,0.24779,0.07864,0.16912,0.85736,0.66178,0.19311,0.3673,0.45675,0.0563,0.5347,0.91189,0.1652,0.37224,0.87709,-0.01276,0.36441,1.47595,0.20625,0.09775,1.38186,0.02698,0.62006,1.35291,0.48699,0.11349,1.30342,0.14782,0.4817,1.53375,0.37626,0.28936,1.46368
2096,0.12396,0.24507,1.47383,0.08004,0.82561,0.24003,0.0629,0.24758,0.07884,0.16804,0.84753,0.65109,0.19182,0.36504,0.4581,0.05496,0.53304,0.9113,0.16347,0.36992,0.87842,-0.01187,0.3692,1.47848,0.20594,0.10201,1.38513,0.02696,0.62345,1.3523,0.48531,0.11877,1.30214,0.14841,0.48704,1.5342,0.37645,0.29393,1.46446
2097,0.12445,0.24962,1.47692,0.07864,0.80627,0.23027,0.06311,0.24735,0.07901,0.16662,0.83769,0.64072,0.1905,0.36285,0.4594,0.05387,0.53148,0.91074,0.16201,0.36776,0.87971,-0.01097,0.37428,1.48094,0.20545,0.10648,1.38839,0.02674,0.62704,1.35147,0.48343,0.12421,1.30104,0.14889,0.49277,1.5345,0.3765,0.29869,1.46536
2098,0.1247,0.25455,1.48004,0.0773,0.78775,0.22092,0.06329,0.24706,0.07917,0.16497,0.82783,0.63067,0.18908,0.36073,0.46064,0.05298,0.52997,0.9102,0.16083,0.36573,0.88096,-0.01017,0.37963,1.4833,0.20485,0.11111,1.39161,0.0264,0.63082,1.35049,0.48141,0.12984,1.30008,0.14919,0.49874,1.53467,0.37641,0.30367,1.46633
2099,0.12481,0.25976,1.48318,0.07607,0.77008,0.21192,0.06347,0.24674,0.07931,0.16315,0.81792,0.62097,0.18755,0.3587,0.46185,0.0522,0.52851,0.90963,0.15984,0.36381,0.8822,-0.0096,0.38514,1.4855,0.20421,0.11584,1.39479,0.02597,0.63471,1.34941,0.47932,0.13572,1.29921,0.14934,0.50481,1.53476,0.37622,0.30892,1.46729
2100,0.1249,0.26515,1.48634,0.07494,0.75331,0.20326,0.06364,0.24645,0.07946,0.1612,0.80798,0.61163,0.18589,0.35679,0.46305,0.05141,0.52711,0.90904,0.15887,0.362,0.88345,-0.00928,0.39069,1.48748,0.20359,0.12066,1.39795,0.0255,0.63866,1.34829,0.47716,0.14187,1.29831,0.14941,0.51093,1.53477,0.37596,0.31444,1.46818
2101,0.12509,0.27058,1.4895,0.07386,0.73746,0.19492,0.06381,0.24625,0.07962,0.15916,0.79799,0.60266,0.18413,0.35502,0.46427,0.05055,0.52583,0.90847,0.15779,0.36031,0.88471,-0.00917,0.39619,1.48917,0.20304,0.12558,1.40118,0.02501,0.64264,1.34717,0.4749,0.1483,1.29729,0.1495,0.51706,1.53473,0.37562,0.32022,1.46894
2102,0.12545,0.27595,1.49262,0.07279,0.72256,0.18687,0.064,0.24618,0.07982,0.15704,0.78798,0.59407,0.18232,0.35345,0.46551,0.04961,0.52469,0.90797,0.1566,0.35875,0.88599,-0.00916,0.40159,1.4906,0.20259,0.13067,1.40449,0.02453,0.64663,1.34605,0.47255,0.15497,1.29611,0.14967,0.52327,1.53465,0.37518,0.32623,1.46952
2103,0.12598,0.28118,1.49567,0.07167,0.70861,0.17912,0.06419,0.2462,0.08007,0.15484,0.77797,0.58589,0.18048,0.35209,0.46676,0.04866,0.5237,0.90755,0.15536,0.35737,0.88728,-0.00918,0.40694,1.4918,0.20224,0.13595,1.40782,0.02405,0.65065,1.34492,0.47016,0.16182,1.29484,0.14989,0.52959,1.53455,0.37464,0.33242,1.46991
2104,0.12662,0.28623,1.49862,0.0705,0.6956,0.17164,0.06437,0.24628,0.08037,0.15249,0.76802,0.57812,0.17861,0.35094,0.468,0.04771,0.52287,0.90724,0.15414,0.35618,0.88855,-0.00919,0.41229,1.49287,0.202,0.14137,1.41105,0.02354,0.65467,1.34371,0.46783,0.16875,1.29358,0.1501,0.53609,1.53442,0.374,0.33874,1.47015
2105,0.12729,0.29116,1.50145,0.06928,0.68357,0.1644,0.0645,0.24638,0.08068,0.14992,0.75817,0.57075,0.1767,0.34999,0.46919,0.04675,0.52222,0.90702,0.15298,0.35524,0.88979,-0.00922,0.41769,1.49393,0.20181,0.14686,1.41406,0.02293,0.65868,1.34238,0.46564,0.17568,1.2925,0.15021,0.54281,1.53427,0.37327,0.34517,1.47031
2106,0.12794,0.29606,1.50416,0.06808,0.67254,0.15735,0.06457,0.2465,0.08098,0.14711,0.74843,0.56378,0.17474,0.34917,0.47032,0.04572,0.52175,0.90689,0.15179,0.35454,0.89097,-0.00924,0.42319,1.49499,0.20162,0.15236,1.41679,0.02216,0.66264,1.34088,0.46364,0.18254,1.29168,0.15019,0.54976,1.53405,0.37247,0.35168,1.47044
2107,0.12853,0.30108,1.50673,0.06692,0.66253,0.15046,0.06461,0.24663,0.08124,0.14406,0.7388,0.55718,0.17273,0.34847,0.47137,0.04455,0.52142,0.90681,0.15052,0.35404,0.89205,-0.00922,0.42875,1.49605,0.2014,0.15787,1.4193,0.02119,0.66655,1.3392,0.46178,0.18933,1.29111,0.15003,0.55692,1.53369,0.37161,0.35824,1.4706
2108,0.12903,0.30631,1.5092,0.06585,0.65356,0.14369,0.06462,0.24672,0.08146,0.14086,0.72925,0.55092,0.17069,0.34786,0.47233,0.04324,0.52121,0.9067,0.14911,0.35368,0.89304,-0.00915,0.43437,1.49704,0.20114,0.16347,1.4217,0.02006,0.67042,1.33735,0.45994,0.19608,1.29066,0.14981,0.5642,1.53313,0.3707,0.3648,1.47078
2109,0.12947,0.31176,1.51156,0.0649,0.64559,0.13706,0.06466,0.24674,0.08165,0.1376,0.71979,0.54498,0.16866,0.34735,0.47321,0.04184,0.52106,0.90654,0.14764,0.3534,0.89395,-0.00901,0.44002,1.4979,0.20084,0.16926,1.42411,0.01882,0.67429,1.33538,0.45804,0.20283,1.29019,0.14961,0.57151,1.5323,0.36977,0.37134,1.47099
2110,0.12991,0.31733,1.51381,0.06409,0.63855,0.13062,0.06471,0.2467,0.08184,0.13436,0.7105,0.53937,0.16667,0.34697,0.47403,0.04046,0.52095,0.90631,0.14623,0.35319,0.89479,-0.00884,0.44569,1.49859,0.20054,0.1753,1.42655,0.01756,0.67821,1.33333,0.45603,0.20962,1.28958,0.14954,0.57875,1.53116,0.36884,0.37784,1.47118
2111,0.1304,0.32294,1.51593,0.06341,0.63239,0.12449,0.06477,0.24662,0.08204,0.13121,0.70152,0.53415,0.16475,0.3467,0.47479,0.03918,0.52089,0.90603,0.14501,0.3531,0.89558,-0.00869,0.45137,1.49911,0.20028,0.18156,1.42898,0.01634,0.68219,1.33127,0.45392,0.21648,1.28876,0.14962,0.58588,1.52978,0.36789,0.38429,1.47129
2112,0.13095,0.32847,1.51788,0.06283,0.62707,0.1188,0.06482,0.24655,0.08226,0.1282,0.69306,0.52937,0.16295,0.34652,0.47551,0.03806,0.52091,0.90571,0.14409,0.35318,0.89633,-0.00861,0.45704,1.49945,0.20011,0.18791,1.43131,0.01519,0.68622,1.3292,0.45177,0.22338,1.28769,0.14983,0.59292,1.52824,0.36696,0.39066,1.47127
2113,0.13151,0.33392,1.51966,0.06229,0.6226,0.11367,0.06484,0.24652,0.08251,0.12536,0.68532,0.52511,0.16128,0.34639,0.47619,0.03712,0.52101,0.90538,0.14348,0.35343,0.89706,-0.00865,0.46269,1.49962,0.20005,0.19424,1.43349,0.01411,0.69026,1.32709,0.44963,0.23024,1.28642,0.15007,0.5999,1.52659,0.36608,0.39692,1.47113
2114,0.13199,0.33931,1.52128,0.06171,0.619,0.1092,0.06479,0.24655,0.0828,0.12274,0.67845,0.52143,0.15976,0.34629,0.47687,0.0363,0.52119,0.90509,0.1431,0.35385,0.89777,-0.00881,0.4683,1.49962,0.20007,0.20041,1.43552,0.01303,0.69424,1.32485,0.4475,0.23702,1.285,0.15023,0.60683,1.52481,0.36531,0.40303,1.47092
2115,0.13234,0.34473,1.52281,0.06104,0.61624,0.10542,0.06468,0.24664,0.08313,0.12031,0.67251,0.51835,0.15837,0.34624,0.47755,0.03554,0.52146,0.90486,0.1428,0.35438,0.89848,-0.00905,0.47388,1.49947,0.20018,0.20636,1.43744,0.01184,0.69814,1.32243,0.44539,0.24369,1.28351,0.15024,0.61368,1.52283,0.36469,0.40901,1.47068
2116,0.13254,0.35022,1.52428,0.06025,0.61423,0.10232,0.06451,0.2468,0.0835,0.11804,0.66748,0.51586,0.15708,0.34627,0.47821,0.03474,0.52179,0.90474,0.14249,0.35499,0.89917,-0.0093,0.47944,1.4992,0.20038,0.21209,1.43933,0.01046,0.7019,1.31978,0.44328,0.2503,1.28199,0.15009,0.62039,1.52054,0.36421,0.41496,1.47044
2117,0.13266,0.35581,1.52571,0.0593,0.61287,0.09982,0.06431,0.24701,0.08386,0.11585,0.66328,0.51389,0.15587,0.34642,0.47883,0.03386,0.52216,0.90473,0.14209,0.35565,0.8998,-0.00952,0.48498,1.49885,0.20068,0.21763,1.44122,0.00886,0.70552,1.31692,0.44115,0.25694,1.28045,0.14978,0.62691,1.51794,0.36385,0.42103,1.47012
2118,0.13277,0.36151,1.52709,0.05819,0.61204,0.09781,0.06412,0.24725,0.08417,0.11369,0.65981,0.51233,0.15476,0.34668,0.47934,0.0329,0.52257,0.9048,0.14162,0.35636,0.90032,-0.00969,0.4905,1.49847,0.20109,0.22305,1.44307,0.00706,0.709,1.31394,0.43901,0.2637,1.27887,0.14933,0.63326,1.51512,0.36356,0.42735,1.46967
2119,0.13291,0.36729,1.52836,0.05695,0.61161,0.09616,0.06394,0.24751,0.08438,0.1115,0.657,0.51107,0.1538,0.347,0.47972,0.0319,0.52299,0.9049,0.14109,0.35709,0.90071,-0.00984,0.49596,1.49807,0.20159,0.22846,1.44483,0.00515,0.71238,1.31096,0.43688,0.27061,1.27725,0.14876,0.63951,1.51223,0.36333,0.43397,1.46904
2120,0.13309,0.37312,1.52948,0.05563,0.61151,0.09475,0.0638,0.24776,0.08449,0.10926,0.65478,0.51002,0.15304,0.34733,0.47995,0.03087,0.52345,0.90499,0.14054,0.35786,0.90093,-0.01003,0.5013,1.49764,0.20213,0.23389,1.44645,0.00321,0.7157,1.3081,0.43474,0.27763,1.27559,0.14811,0.64569,1.50946,0.36312,0.44086,1.46821
2121,0.13327,0.37892,1.53043,0.05429,0.61165,0.09354,0.06371,0.24797,0.08453,0.10697,0.65308,0.50911,0.15251,0.34763,0.48006,0.02983,0.52394,0.90504,0.13998,0.35867,0.90103,-0.01033,0.50645,1.49718,0.20266,0.23937,1.44794,0.00134,0.71899,1.30545,0.43261,0.2847,1.27392,0.1474,0.65176,1.50693,0.36286,0.4479,1.46725
2122,0.13338,0.38461,1.53126,0.05301,0.61191,0.09248,0.0637,0.24811,0.08455,0.10467,0.65185,0.50833,0.1522,0.34789,0.48012,0.02877,0.52449,0.90508,0.13941,0.35954,0.90106,-0.01077,0.51137,1.49669,0.20315,0.24485,1.44934,-0.00042,0.72225,1.30305,0.43046,0.29171,1.27227,0.14661,0.65761,1.50467,0.36248,0.45494,1.46621
2123,0.13337,0.39015,1.53207,0.05186,0.61219,0.09159,0.0638,0.24817,0.0846,0.10243,0.65101,0.50767,0.15209,0.34811,0.48017,0.02773,0.52511,0.90512,0.13881,0.36046,0.90108,-0.01131,0.51601,1.49616,0.2036,0.25027,1.45072,-0.00209,0.72542,1.30088,0.42826,0.2986,1.27071,0.14572,0.66317,1.50269,0.36193,0.46183,1.46522
2124,0.13322,0.3955,1.53292,0.05089,0.61243,0.09085,0.06401,0.24812,0.08471,0.10031,0.65048,0.50714,0.15212,0.34832,0.48026,0.02675,0.52581,0.90518,0.1382,0.36141,0.90112,-0.01189,0.52038,1.49564,0.204,0.25551,1.45214,-0.00373,0.72845,1.29887,0.42601,0.30534,1.26925,0.14466,0.6684,1.50092,0.36123,0.46848,1.46436
2125,0.133,0.40068,1.53383,0.05012,0.61258,0.09025,0.0643,0.24795,0.08488,0.09836,0.65016,0.50672,0.15223,0.34849,0.48038,0.02584,0.52657,0.90529,0.1376,0.36238,0.9012,-0.01241,0.52451,1.49514,0.20438,0.26053,1.45358,-0.00545,0.73124,1.29692,0.4237,0.31189,1.2679,0.14339,0.67334,1.49926,0.36046,0.47483,1.46367
2126,0.1328,0.40573,1.53474,0.04955,0.61263,0.08977,0.06462,0.24768,0.08508,0.09659,0.64996,0.5064,0.15233,0.34862,0.48053,0.02503,0.52737,0.90546,0.13704,0.36335,0.90129,-0.01283,0.52844,1.4947,0.20477,0.26533,1.45502,-0.00732,0.73372,1.29494,0.42134,0.31825,1.26658,0.14189,0.67805,1.49763,0.35973,0.48089,1.46312
2127,0.1327,0.41062,1.53557,0.04917,0.61261,0.08939,0.06489,0.24736,0.0853,0.09497,0.64977,0.50618,0.1524,0.34869,0.48069,0.02428,0.52818,0.90569,0.13651,0.36432,0.9014,-0.01318,0.53219,1.49433,0.2052,0.26991,1.45641,-0.00935,0.73583,1.29286,0.41894,0.32446,1.26522,0.1402,0.68264,1.49597,0.35909,0.48672,1.46262
2128,0.13277,0.41537,1.53626,0.0489,0.61253,0.08908,0.06508,0.24706,0.08552,0.09346,0.64954,0.50601,0.1524,0.34871,0.48088,0.02353,0.52896,0.90596,0.13597,0.36526,0.90153,-0.01356,0.53576,1.49404,0.20576,0.2743,1.45774,-0.01151,0.73754,1.29068,0.41652,0.33056,1.26375,0.1384,0.68719,1.49425,0.35857,0.49237,1.46208
2129,0.13297,0.41997,1.53677,0.04871,0.61238,0.0888,0.0652,0.24683,0.08576,0.09202,0.64924,0.50588,0.15236,0.34872,0.48109,0.02273,0.5297,0.90626,0.1354,0.36616,0.90169,-0.01411,0.53915,1.49379,0.20649,0.2785,1.45902,-0.01371,0.73886,1.2884,0.41408,0.33655,1.26216,0.1366,0.69176,1.49245,0.35809,0.4979,1.46143
2130,0.13324,0.42447,1.5371,0.04854,0.61215,0.08851,0.06526,0.24667,0.08601,0.09061,0.64886,0.50573,0.15227,0.34876,0.48132,0.02186,0.53038,0.90652,0.13475,0.36699,0.90186,-0.0149,0.54231,1.49355,0.20744,0.28253,1.46025,-0.01594,0.73987,1.28608,0.41167,0.34244,1.26046,0.13486,0.69642,1.49059,0.3576,0.50333,1.46063
2131,0.13349,0.42893,1.53727,0.04838,0.61188,0.08818,0.06529,0.24661,0.08623,0.08924,0.64839,0.50554,0.15216,0.34885,0.48153,0.02091,0.53096,0.90671,0.13406,0.36775,0.90202,-0.01591,0.54525,1.49331,0.20857,0.28642,1.46142,-0.01817,0.74061,1.28378,0.4093,0.3482,1.25868,0.13322,0.70118,1.48866,0.35701,0.50863,1.45969
2132,0.13365,0.43336,1.5373,0.04823,0.61162,0.08781,0.06532,0.24662,0.08643,0.08794,0.64781,0.50531,0.15204,0.34901,0.48173,0.0199,0.53144,0.90683,0.13338,0.36846,0.90216,-0.01705,0.54798,1.49306,0.20981,0.29022,1.46251,-0.0204,0.74117,1.28156,0.40701,0.35379,1.25687,0.13169,0.70603,1.48669,0.3563,0.51376,1.45866
2133,0.13366,0.43778,1.53721,0.04811,0.61142,0.0874,0.06537,0.24669,0.08661,0.08677,0.64711,0.50504,0.15198,0.34923,0.48189,0.01886,0.53181,0.90689,0.13282,0.36916,0.90228,-0.01818,0.55051,1.49281,0.21106,0.29396,1.4635,-0.02258,0.74162,1.27943,0.4048,0.35921,1.25512,0.13026,0.71089,1.48472,0.35545,0.51875,1.45757
2134,0.13352,0.44215,1.53706,0.04807,0.61131,0.08697,0.06545,0.24678,0.0868,0.08576,0.64626,0.50476,0.15204,0.34947,0.48205,0.01781,0.53207,0.90693,0.13242,0.36987,0.9024,-0.01922,0.55289,1.49252,0.2122,0.29767,1.46439,-0.02463,0.74201,1.2774,0.40268,0.36447,1.2535,0.1289,0.71565,1.48278,0.3544,0.52367,1.45649
2135,0.1332,0.44646,1.53687,0.04813,0.61128,0.08656,0.06556,0.24684,0.08704,0.08492,0.64526,0.50451,0.15224,0.34969,0.48222,0.01681,0.53225,0.90698,0.13217,0.37059,0.90253,-0.02017,0.55517,1.49212,0.21309,0.30139,1.46517,-0.02648,0.74242,1.2754,0.40061,0.36965,1.25212,0.12756,0.72022,1.48089,0.35308,0.52863,1.45545
2136,0.13269,0.45068,1.53669,0.0483,0.61127,0.08618,0.0657,0.24682,0.08734,0.08423,0.64417,0.50429,0.15257,0.3499,0.48243,0.01586,0.53235,0.90705,0.13203,0.37126,0.90269,-0.02109,0.55739,1.49157,0.21369,0.3051,1.46587,-0.02812,0.74285,1.27334,0.39857,0.37482,1.25099,0.12619,0.72452,1.47901,0.35141,0.53373,1.45447
2137,0.132,0.45479,1.53653,0.04854,0.61123,0.08583,0.06585,0.24674,0.08769,0.08366,0.64304,0.50409,0.15295,0.3501,0.48266,0.01497,0.53239,0.90712,0.13193,0.37187,0.90287,-0.02207,0.55957,1.49084,0.21402,0.3088,1.46651,-0.02963,0.74328,1.27114,0.3965,0.38005,1.25009,0.12474,0.72854,1.47705,0.34939,0.53898,1.45355
2138,0.13117,0.45873,1.53639,0.04879,0.61117,0.08551,0.06599,0.24664,0.08804,0.08319,0.64196,0.50391,0.1533,0.35033,0.48286,0.01411,0.53234,0.90715,0.13183,0.37239,0.90304,-0.02313,0.56171,1.48994,0.21417,0.31245,1.46709,-0.03109,0.74364,1.26879,0.39438,0.3853,1.2493,0.1232,0.73229,1.47497,0.3471,0.54428,1.45269
2139,0.13028,0.46242,1.53625,0.04899,0.6111,0.08522,0.0661,0.24658,0.08833,0.08277,0.64098,0.50374,0.15361,0.35064,0.48301,0.01325,0.53222,0.90714,0.13173,0.37282,0.90316,-0.02428,0.56377,1.48893,0.21426,0.31604,1.46763,-0.03256,0.74392,1.26632,0.3922,0.39047,1.24851,0.12158,0.73577,1.47278,0.34473,0.54944,1.45185
2140,0.12939,0.46584,1.53608,0.04913,0.61105,0.08497,0.06619,0.24662,0.08852,0.08238,0.64013,0.50359,0.15386,0.35105,0.48308,0.01239,0.53203,0.90709,0.13161,0.37318,0.90321,-0.0255,0.56576,1.48786,0.2144,0.31949,1.46813,-0.03402,0.74409,1.26381,0.39001,0.3954,1.24764,0.11989,0.73899,1.47053,0.34248,0.55432,1.45101
2141,0.12858,0.46896,1.53589,0.04919,0.61103,0.08476,0.06626,0.24675,0.08863,0.08198,0.63943,0.50346,0.1541,0.35152,0.48306,0.01154,0.53178,0.907,0.13148,0.37347,0.90318,-0.02676,0.56763,1.48679,0.21463,0.32273,1.46861,-0.03543,0.74416,1.26133,0.38785,0.39998,1.24671,0.11817,0.74198,1.46833,0.34044,0.55886,1.45014
2142,0.12788,0.47182,1.53569,0.04916,0.61102,0.08457,0.06631,0.24696,0.08868,0.08156,0.63889,0.50334,0.15435,0.35201,0.48298,0.01072,0.53148,0.90687,0.13135,0.37368,0.90309,-0.02804,0.56938,1.48578,0.21494,0.32569,1.4691,-0.03676,0.7441,1.25891,0.3858,0.40417,1.2458,0.11642,0.74477,1.46623,0.3386,0.5631,1.44925
2143,0.1273,0.47447,1.53547,0.04903,0.611,0.08441,0.06633,0.24721,0.08869,0.08113,0.63848,0.50322,0.15466,0.35244,0.48288,0.00995,0.53112,0.90671,0.13122,0.37382,0.90298,-0.02932,0.57101,1.48486,0.21529,0.32836,1.46959,-0.03802,0.74388,1.25658,0.38388,0.40799,1.24497,0.11466,0.74737,1.46424,0.33687,0.56709,1.44833
2144,0.12681,0.47692,1.53527,0.0488,0.61094,0.08424,0.06634,0.24743,0.0887,0.0807,0.63816,0.50309,0.15506,0.35276,0.48278,0.00923,0.53069,0.9065,0.13111,0.37386,0.90287,-0.03059,0.57253,1.48407,0.21566,0.33075,1.47009,-0.03925,0.74349,1.25435,0.38207,0.41145,1.24423,0.1129,0.74979,1.46234,0.33522,0.57086,1.44738
2145,0.12632,0.4792,1.53511,0.04851,0.61083,0.08409,0.06633,0.24757,0.08872,0.08028,0.63789,0.50296,0.15555,0.35293,0.48268,0.00858,0.53015,0.90625,0.13105,0.37378,0.90275,-0.03185,0.574,1.48343,0.21605,0.33294,1.47057,-0.04051,0.74292,1.25221,0.38033,0.41462,1.24352,0.11114,0.752,1.46046,0.33363,0.57441,1.4464
2146,0.12572,0.4813,1.53501,0.04821,0.61068,0.08396,0.06631,0.24758,0.08875,0.07984,0.63766,0.50284,0.15613,0.35295,0.48257,0.008,0.52949,0.90599,0.13103,0.37356,0.90262,-0.03311,0.57546,1.48295,0.21648,0.33501,1.47106,-0.04187,0.7422,1.25015,0.37862,0.41755,1.24278,0.1094,0.75401,1.45854,0.33214,0.57775,1.4454
2147,0.12497,0.48322,1.53498,0.04796,0.61053,0.08386,0.0663,0.24745,0.08877,0.07938,0.63745,0.50276,0.15678,0.35284,0.48243,0.00749,0.52872,0.90575,0.13105,0.3732,0.90245,-0.03441,0.57691,1.48255,0.21694,0.33698,1.47156,-0.04336,0.7413,1.2481,0.3769,0.42029,1.24202,0.10767,0.75582,1.4565,0.33076,0.5809,1.44439
2148,0.12408,0.48499,1.535,0.04777,0.61041,0.08378,0.06629,0.2472,0.08879,0.07886,0.63723,0.50271,0.15747,0.35263,0.48228,0.00706,0.52788,0.90555,0.13109,0.37274,0.90227,-0.03574,0.5783,1.48216,0.21742,0.33888,1.47209,-0.04501,0.74023,1.24601,0.37516,0.42286,1.24126,0.10591,0.75743,1.45428,0.32943,0.58388,1.44339
2149,0.12311,0.48668,1.53504,0.04764,0.61034,0.08371,0.06629,0.24689,0.08881,0.07829,0.63697,0.50269,0.15816,0.35236,0.48213,0.00668,0.52701,0.90539,0.13114,0.37221,0.90209,-0.03709,0.57957,1.48169,0.21785,0.34069,1.47262,-0.04679,0.73895,1.24383,0.37345,0.42527,1.24056,0.1041,0.75887,1.45188,0.32811,0.58673,1.44244
2150,0.12211,0.48835,1.53504,0.04754,0.61029,0.08364,0.06631,0.2466,0.08881,0.0777,0.63664,0.50267,0.15884,0.35204,0.48198,0.00634,0.52615,0.90528,0.1312,0.37167,0.90192,-0.03844,0.58065,1.48111,0.21815,0.34241,1.47312,-0.04866,0.73745,1.24157,0.37179,0.4275,1.23995,0.10218,0.76013,1.44936,0.32676,0.58943,1.44151
2151,0.12111,0.49001,1.53499,0.04747,0.61021,0.08357,0.06632,0.24639,0.08881,0.07713,0.63617,0.50266,0.1595,0.35168,0.48187,0.00603,0.52534,0.90522,0.13125,0.37116,0.90177,-0.03974,0.58149,1.48043,0.21829,0.34402,1.47358,-0.05056,0.73577,1.23928,0.37023,0.42951,1.23943,0.10017,0.76125,1.44682,0.3253,0.59197,1.44059
2152,0.12011,0.49163,1.53488,0.04741,0.61004,0.0835,0.06635,0.24629,0.08879,0.07663,0.63556,0.50265,0.16013,0.35128,0.48179,0.00572,0.52457,0.9052,0.1313,0.37069,0.90165,-0.04098,0.58207,1.47967,0.2183,0.34552,1.47399,-0.05245,0.73396,1.23705,0.36876,0.4313,1.239,0.09811,0.76225,1.44436,0.3237,0.59435,1.43966
2153,0.11908,0.49315,1.53474,0.04735,0.6098,0.08344,0.0664,0.24627,0.08878,0.07622,0.63482,0.50264,0.16071,0.35084,0.48176,0.0054,0.52382,0.9052,0.13136,0.37025,0.90159,-0.04213,0.58242,1.4789,0.21821,0.34691,1.47438,-0.05428,0.73213,1.23494,0.36739,0.43288,1.23864,0.09607,0.76314,1.44202,0.32196,0.59656,1.4387
2154,0.11803,0.49451,1.53462,0.04728,0.60951,0.0834,0.06651,0.24628,0.08878,0.07591,0.63401,0.50265,0.16123,0.35039,0.48178,0.00507,0.52302,0.90522,0.13145,0.3698,0.90158,-0.04318,0.58263,1.47816,0.21811,0.34816,1.4748,-0.05604,0.7303,1.23301,0.36611,0.43422,1.23835,0.0941,0.76397,1.43983,0.32014,0.59857,1.43773
2155,0.11694,0.49568,1.53454,0.04718,0.60925,0.08339,0.06669,0.24627,0.08881,0.07567,0.63317,0.50268,0.16166,0.34993,0.48187,0.00476,0.52211,0.90521,0.13159,0.36926,0.90165,-0.04414,0.58275,1.47751,0.21802,0.34928,1.47527,-0.05773,0.72847,1.23123,0.36488,0.43535,1.23813,0.0922,0.76476,1.43775,0.31837,0.60039,1.43682
2156,0.1158,0.49663,1.53452,0.04706,0.60908,0.08338,0.06693,0.24619,0.08888,0.07545,0.63237,0.50271,0.16203,0.3495,0.482,0.00449,0.52107,0.90517,0.1318,0.3686,0.90178,-0.04504,0.58282,1.47696,0.21793,0.35024,1.4758,-0.05939,0.72656,1.22956,0.36371,0.4363,1.23798,0.09034,0.76554,1.43574,0.31673,0.60199,1.43602
2157,0.11462,0.49737,1.53452,0.04693,0.60904,0.08336,0.06719,0.24604,0.08901,0.07522,0.63161,0.50274,0.16237,0.34909,0.48218,0.00429,0.51989,0.90509,0.13205,0.36781,0.90198,-0.04594,0.58281,1.4765,0.21781,0.35105,1.47635,-0.06104,0.72449,1.22796,0.36257,0.43712,1.23792,0.08845,0.76627,1.43376,0.31524,0.60339,1.43538
2158,0.1134,0.4979,1.53455,0.0468,0.60911,0.08333,0.06743,0.24583,0.0892,0.07496,0.63088,0.50277,0.16274,0.34868,0.48239,0.00415,0.51863,0.90499,0.13235,0.36691,0.9022,-0.04691,0.58266,1.47608,0.21762,0.35171,1.4769,-0.06266,0.7222,1.22638,0.36146,0.43784,1.23793,0.08652,0.76688,1.43179,0.31386,0.60465,1.43488
2159,0.11217,0.49824,1.53458,0.04668,0.60924,0.0833,0.06764,0.24562,0.08941,0.07465,0.63014,0.50279,0.16318,0.34824,0.48261,0.00404,0.51734,0.90489,0.13266,0.36596,0.90243,-0.04796,0.58229,1.47567,0.21734,0.35222,1.47743,-0.06422,0.71967,1.2248,0.36039,0.43849,1.23803,0.08457,0.7673,1.42984,0.3125,0.6058,1.43448
2160,0.11094,0.49842,1.5346,0.04656,0.60937,0.08329,0.06778,0.24544,0.08963,0.07431,0.62938,0.50284,0.16368,0.34773,0.48283,0.00391,0.51601,0.90482,0.13296,0.365,0.90265,-0.04909,0.58166,1.47521,0.21695,0.35258,1.47792,-0.06564,0.71694,1.22322,0.35934,0.43905,1.2382,0.08269,0.76743,1.4279,0.31111,0.6069,1.4341
2161,0.10973,0.49847,1.53464,0.04639,0.60946,0.08331,0.06788,0.24532,0.08982,0.07394,0.62862,0.50291,0.1642,0.34714,0.48303,0.00375,0.51464,0.90475,0.13326,0.36402,0.90286,-0.05026,0.58077,1.47468,0.21649,0.35276,1.47839,-0.06691,0.71411,1.22166,0.3583,0.43949,1.23842,0.08095,0.76724,1.42602,0.30966,0.60795,1.4337
2162,0.10856,0.49842,1.5347,0.04617,0.60948,0.08335,0.06795,0.24523,0.08996,0.07354,0.62787,0.503,0.16468,0.34643,0.48323,0.00357,0.51321,0.90468,0.13356,0.36301,0.90305,-0.05148,0.57969,1.47404,0.21599,0.35274,1.47886,-0.06801,0.7113,1.22012,0.35726,0.43979,1.23869,0.07936,0.76674,1.42421,0.30817,0.60894,1.43326
2163,0.10743,0.49826,1.53479,0.0459,0.60946,0.0834,0.06802,0.24513,0.09005,0.07313,0.6271,0.50309,0.16508,0.34561,0.48343,0.00341,0.51174,0.90462,0.13388,0.36194,0.90326,-0.05277,0.57849,1.4733,0.21548,0.35255,1.47934,-0.06897,0.70863,1.21859,0.35623,0.43997,1.23899,0.0779,0.76599,1.42252,0.30667,0.60987,1.43278
2164,0.10636,0.49799,1.53493,0.0456,0.60941,0.08347,0.06811,0.24499,0.09012,0.07273,0.62629,0.50319,0.16536,0.34471,0.48364,0.00333,0.51023,0.90457,0.13422,0.3608,0.90348,-0.05415,0.57723,1.47246,0.215,0.35224,1.47984,-0.06981,0.70613,1.21709,0.35521,0.44001,1.23931,0.0765,0.76506,1.42098,0.30519,0.61067,1.43231
2165,0.10539,0.49762,1.53509,0.04533,0.60938,0.08354,0.06822,0.24481,0.09017,0.07239,0.62541,0.5033,0.16551,0.34377,0.48387,0.00335,0.50869,0.90456,0.13461,0.35959,0.90374,-0.05557,0.57591,1.47158,0.21453,0.35189,1.48035,-0.0706,0.70377,1.21565,0.35421,0.43992,1.23961,0.0751,0.76402,1.41958,0.30375,0.61129,1.43187
2166,0.10454,0.49714,1.53524,0.04511,0.60935,0.08364,0.06833,0.24459,0.09021,0.07215,0.62444,0.50344,0.16554,0.34285,0.48411,0.00346,0.50714,0.90458,0.13505,0.35832,0.90402,-0.05693,0.57455,1.47074,0.21404,0.35152,1.48082,-0.07139,0.70145,1.2143,0.35327,0.43969,1.23987,0.07368,0.76288,1.41833,0.30236,0.61168,1.43146
2167,0.1038,0.49658,1.53538,0.04495,0.60934,0.08376,0.06843,0.24437,0.09024,0.07199,0.62341,0.5036,0.16547,0.34199,0.48434,0.00364,0.50558,0.90464,0.13553,0.35703,0.9043,-0.05813,0.57316,1.47001,0.21352,0.35111,1.48123,-0.07221,0.69906,1.21306,0.35242,0.43928,1.24009,0.07222,0.76165,1.41719,0.30097,0.6118,1.43105
2168,0.10311,0.49595,1.53549,0.04483,0.60933,0.08389,0.06851,0.24415,0.09026,0.0719,0.62237,0.50376,0.1653,0.34118,0.48456,0.00385,0.50402,0.90471,0.13603,0.35573,0.9046,-0.05909,0.57177,1.46946,0.21296,0.3506,1.48156,-0.07306,0.69657,1.21196,0.35166,0.4387,1.24028,0.07077,0.76032,1.41615,0.29957,0.61167,1.43066
2169,0.10243,0.49525,1.53558,0.04473,0.60932,0.08402,0.06854,0.24395,0.09026,0.07181,0.62135,0.50391,0.16502,0.34038,0.48479,0.00408,0.50245,0.90474,0.13656,0.35443,0.90489,-0.05982,0.57043,1.46906,0.2124,0.34992,1.48183,-0.07388,0.694,1.21098,0.351,0.43794,1.24046,0.06937,0.75892,1.41522,0.29816,0.6113,1.43028
2170,0.10174,0.49443,1.53565,0.0446,0.60929,0.08411,0.06851,0.24376,0.09023,0.07171,0.62039,0.50403,0.16465,0.3395,0.48501,0.00432,0.50086,0.90473,0.13711,0.35311,0.90519,-0.06036,0.56917,1.46878,0.21188,0.34906,1.48207,-0.07457,0.69142,1.21008,0.35043,0.43704,1.24066,0.06808,0.75745,1.41438,0.29677,0.61072,1.42996
2171,0.10102,0.49348,1.53568,0.04444,0.60923,0.08418,0.06841,0.24358,0.09015,0.07158,0.61947,0.50412,0.16417,0.33849,0.48523,0.00461,0.49924,0.90468,0.13769,0.35175,0.90549,-0.06079,0.56797,1.46857,0.21144,0.34804,1.48231,-0.07506,0.68887,1.20924,0.34994,0.43605,1.24088,0.06697,0.75595,1.41363,0.29543,0.60997,1.42971
2172,0.10028,0.49235,1.53571,0.04426,0.60912,0.08423,0.06825,0.24339,0.09,0.07143,0.61858,0.50419,0.16357,0.33733,0.48542,0.00495,0.49759,0.9046,0.13829,0.35034,0.90576,-0.06122,0.56676,1.46835,0.2111,0.34693,1.48257,-0.07533,0.68638,1.20842,0.34952,0.43499,1.24111,0.06603,0.75443,1.41295,0.29413,0.60907,1.42954
2173,0.09947,0.49105,1.53575,0.0441,0.60897,0.08428,0.06805,0.24318,0.08977,0.07127,0.61771,0.50426,0.16285,0.33605,0.48557,0.00533,0.49592,0.90452,0.13889,0.34888,0.90599,-0.06171,0.56545,1.46811,0.21084,0.34576,1.48285,-0.07541,0.68393,1.20763,0.34916,0.43386,1.24135,0.06527,0.75291,1.41233,0.29287,0.60807,1.42939
2174,0.09857,0.48964,1.5358,0.04394,0.6088,0.08435,0.06786,0.24295,0.08947,0.07112,0.61681,0.50433,0.16202,0.33471,0.48567,0.00571,0.49425,0.90445,0.13947,0.34739,0.90618,-0.06228,0.56394,1.46783,0.21063,0.34458,1.48314,-0.07537,0.68145,1.20689,0.3489,0.43262,1.24159,0.06463,0.75135,1.41173,0.29164,0.60696,1.42921
2175,0.0976,0.48816,1.53585,0.04378,0.60863,0.08441,0.0677,0.24268,0.08914,0.07096,0.61585,0.50442,0.16113,0.33335,0.48576,0.00607,0.49256,0.90439,0.14002,0.34587,0.90635,-0.06293,0.56218,1.46753,0.21044,0.34338,1.48341,-0.07532,0.67889,1.20619,0.34872,0.43124,1.24181,0.06408,0.74972,1.41113,0.29044,0.60576,1.42896
2176,0.0966,0.48665,1.53589,0.04361,0.60847,0.08449,0.06756,0.2424,0.0888,0.07082,0.61483,0.5045,0.16022,0.33197,0.48586,0.00643,0.49086,0.90435,0.14055,0.34433,0.90652,-0.06365,0.56018,1.46723,0.21023,0.34217,1.48368,-0.0753,0.67623,1.20556,0.34863,0.42975,1.24203,0.06357,0.74799,1.41053,0.28928,0.60446,1.42866
2177,0.09562,0.48512,1.5359,0.04344,0.60832,0.08456,0.06744,0.24211,0.08847,0.07069,0.61372,0.50458,0.15929,0.33058,0.48597,0.00679,0.48912,0.90431,0.14111,0.34277,0.9067,-0.06438,0.558,1.46692,0.21001,0.34093,1.48392,-0.07539,0.67348,1.20497,0.34859,0.42819,1.24227,0.06305,0.74611,1.40993,0.28816,0.60312,1.42835
2178,0.09473,0.4835,1.53594,0.04331,0.60819,0.08462,0.06731,0.24182,0.08815,0.07062,0.61253,0.50465,0.15835,0.32919,0.48607,0.00718,0.48733,0.90426,0.14172,0.34119,0.90687,-0.0651,0.55572,1.4666,0.20976,0.33966,1.48416,-0.0756,0.67068,1.2044,0.34855,0.42667,1.24254,0.06246,0.74406,1.40934,0.28708,0.60178,1.4281
2179,0.09396,0.48176,1.53605,0.04323,0.60808,0.08466,0.06715,0.2415,0.08783,0.07061,0.61128,0.5047,0.15738,0.32785,0.48616,0.0076,0.48549,0.9042,0.14239,0.3396,0.90703,-0.06578,0.55341,1.46622,0.20952,0.33831,1.48439,-0.07594,0.66788,1.2038,0.34847,0.42521,1.24282,0.06174,0.74184,1.40878,0.28606,0.60047,1.42793
2180,0.09334,0.47987,1.53627,0.0432,0.60802,0.08468,0.06693,0.24116,0.0875,0.07065,0.60997,0.50472,0.15636,0.32658,0.4862,0.00803,0.4836,0.9041,0.1431,0.33796,0.90714,-0.06644,0.55109,1.46578,0.20936,0.33685,1.48466,-0.07638,0.66509,1.20314,0.34833,0.4238,1.24312,0.06089,0.73949,1.40824,0.28513,0.5992,1.42784
2181,0.09286,0.47787,1.53659,0.04321,0.60799,0.08468,0.06664,0.24078,0.08718,0.07071,0.60863,0.50472,0.15532,0.32536,0.48623,0.00848,0.48167,0.90397,0.14381,0.33628,0.90723,-0.06707,0.54878,1.46528,0.20931,0.33524,1.48501,-0.07688,0.66229,1.20243,0.34813,0.42233,1.24344,0.05993,0.73706,1.40771,0.28435,0.5979,1.42779
2182,0.09252,0.47582,1.53694,0.04325,0.60797,0.08468,0.06633,0.24037,0.08691,0.07076,0.60729,0.50472,0.15431,0.32417,0.48628,0.00893,0.47971,0.90384,0.14448,0.33453,0.90734,-0.06769,0.5465,1.46478,0.20937,0.33346,1.48549,-0.07737,0.65947,1.20169,0.34791,0.42068,1.2438,0.05895,0.73462,1.40716,0.2837,0.5965,1.42775
2183,0.09228,0.47378,1.53726,0.04331,0.60793,0.08471,0.06602,0.23995,0.08671,0.07081,0.60594,0.50475,0.15336,0.32295,0.48639,0.00939,0.47776,0.90374,0.14509,0.33273,0.9075,-0.06829,0.54424,1.4643,0.2095,0.3315,1.48611,-0.07781,0.65666,1.20097,0.34768,0.41875,1.24423,0.05801,0.73224,1.40661,0.28316,0.59495,1.42771
2184,0.09212,0.4718,1.53747,0.04339,0.60784,0.08478,0.06576,0.23958,0.08661,0.07083,0.60457,0.50482,0.1525,0.32168,0.48661,0.00986,0.47581,0.90368,0.14564,0.33086,0.90775,-0.06887,0.54197,1.46387,0.20958,0.32935,1.48683,-0.07817,0.65387,1.20031,0.34745,0.41654,1.24475,0.05716,0.72996,1.40608,0.28268,0.59321,1.42769
2185,0.09201,0.4699,1.53752,0.04348,0.6077,0.08488,0.06558,0.23928,0.08659,0.07082,0.60318,0.50491,0.15171,0.32037,0.48692,0.01036,0.47387,0.90368,0.14615,0.32894,0.9081,-0.06941,0.53967,1.4635,0.20955,0.32705,1.48758,-0.07844,0.65109,1.19972,0.34719,0.41409,1.24531,0.05638,0.72773,1.40562,0.28223,0.59127,1.4277
2186,0.0919,0.46802,1.53741,0.04357,0.60754,0.08499,0.06551,0.23906,0.08662,0.07076,0.60174,0.50501,0.15097,0.31905,0.48732,0.01092,0.47192,0.90371,0.14665,0.32695,0.90853,-0.06987,0.53731,1.46319,0.20938,0.32463,1.48824,-0.07864,0.64831,1.19923,0.3469,0.4115,1.24584,0.05567,0.72548,1.40527,0.28178,0.58911,1.42775
2187,0.09177,0.46611,1.53722,0.04365,0.60738,0.08509,0.06551,0.23891,0.08667,0.07065,0.60029,0.50511,0.15026,0.31772,0.48776,0.01156,0.46996,0.90375,0.14719,0.32491,0.90899,-0.0702,0.5349,1.46298,0.20908,0.3221,1.48872,-0.07877,0.64551,1.19884,0.34658,0.40883,1.24626,0.05501,0.72318,1.40504,0.28132,0.58673,1.42784
2188,0.09157,0.46411,1.53701,0.04372,0.60724,0.08518,0.06556,0.23877,0.08671,0.07049,0.59884,0.50518,0.14959,0.31635,0.48818,0.01227,0.468,0.90379,0.14776,0.32283,0.90943,-0.07037,0.53251,1.46289,0.2087,0.31952,1.48898,-0.0788,0.64272,1.19859,0.34628,0.40614,1.24652,0.05446,0.7208,1.40496,0.28087,0.58414,1.42796
2189,0.09132,0.46199,1.53686,0.04378,0.60714,0.08524,0.06562,0.23859,0.08669,0.07029,0.5974,0.50523,0.14898,0.31491,0.48855,0.01302,0.46605,0.90381,0.14833,0.32073,0.90981,-0.0704,0.53018,1.46293,0.20828,0.31693,1.48903,-0.07873,0.63999,1.19846,0.34603,0.40349,1.24665,0.05403,0.71838,1.40504,0.28044,0.58141,1.42809
2190,0.09106,0.45975,1.53681,0.04383,0.60705,0.08528,0.06566,0.23833,0.08661,0.07008,0.59594,0.50525,0.14844,0.31336,0.48883,0.01377,0.46413,0.90381,0.14886,0.31861,0.9101,-0.07033,0.52792,1.46307,0.20782,0.31437,1.48892,-0.07853,0.63731,1.19843,0.34589,0.40088,1.24671,0.05373,0.71593,1.40524,0.28005,0.57864,1.42821
2191,0.09086,0.45739,1.53685,0.04387,0.60695,0.08528,0.06564,0.23799,0.08646,0.06987,0.59444,0.50523,0.14795,0.3117,0.48902,0.01448,0.46223,0.90379,0.14933,0.3165,0.91029,-0.07018,0.52568,1.46325,0.20734,0.31184,1.48872,-0.07826,0.63467,1.19843,0.34588,0.39831,1.24677,0.05352,0.71344,1.4055,0.27973,0.57589,1.42833
2192,0.09077,0.45488,1.53695,0.0439,0.60683,0.08525,0.06561,0.23759,0.08625,0.06969,0.59286,0.50516,0.14747,0.30996,0.48914,0.01513,0.46034,0.90373,0.14975,0.3144,0.91042,-0.07,0.52338,1.46339,0.20686,0.30931,1.48847,-0.078,0.632,1.19842,0.34605,0.39574,1.24687,0.05333,0.71087,1.40573,0.27952,0.57315,1.42846
2193,0.0908,0.4522,1.53713,0.04392,0.60669,0.08516,0.0656,0.23718,0.08601,0.06954,0.59119,0.50504,0.147,0.30817,0.48924,0.01573,0.45845,0.90363,0.15014,0.31234,0.91051,-0.06979,0.52096,1.46343,0.20641,0.30669,1.48819,-0.0778,0.62926,1.19833,0.34636,0.3931,1.24701,0.05315,0.70812,1.40588,0.27944,0.57034,1.42862
2194,0.0909,0.44935,1.53737,0.04393,0.60652,0.08503,0.06567,0.2368,0.08578,0.06941,0.58947,0.50485,0.14651,0.30638,0.48937,0.01629,0.45656,0.90349,0.15055,0.31032,0.91063,-0.06956,0.51841,1.46336,0.20601,0.30392,1.48787,-0.07772,0.62643,1.19814,0.34678,0.3903,1.24716,0.05298,0.70512,1.40592,0.27953,0.56738,1.42881
2195,0.09102,0.44635,1.53768,0.04393,0.60634,0.08488,0.06581,0.23646,0.08557,0.06929,0.58776,0.50465,0.14597,0.3046,0.48955,0.01685,0.45466,0.9033,0.15102,0.30835,0.9108,-0.06931,0.51573,1.46319,0.20567,0.30097,1.48756,-0.07773,0.62355,1.1979,0.34721,0.38727,1.24728,0.0529,0.70185,1.40587,0.2798,0.56421,1.42901
2196,0.09109,0.44328,1.53804,0.04395,0.60613,0.08474,0.06598,0.23617,0.08541,0.06916,0.58613,0.50445,0.14538,0.30286,0.48977,0.01743,0.45275,0.9031,0.15156,0.30643,0.91101,-0.06908,0.51293,1.46297,0.20536,0.29786,1.48733,-0.07778,0.62066,1.19765,0.34758,0.38392,1.24736,0.05297,0.69841,1.40575,0.28027,0.56079,1.42919
2197,0.0911,0.44024,1.53841,0.04398,0.60591,0.08462,0.06611,0.23589,0.08526,0.069,0.5846,0.50428,0.14473,0.30115,0.49001,0.01805,0.45081,0.9029,0.1522,0.30453,0.91123,-0.06888,0.51006,1.46276,0.20507,0.29467,1.48725,-0.0778,0.61781,1.19747,0.34787,0.38021,1.24744,0.05323,0.69499,1.4056,0.28088,0.55715,1.42932
2198,0.09104,0.43729,1.53876,0.04405,0.60567,0.08455,0.06614,0.23561,0.08512,0.06886,0.58316,0.50415,0.14405,0.29949,0.49023,0.0187,0.44883,0.90269,0.1529,0.30261,0.91142,-0.06874,0.50716,1.46263,0.20481,0.29148,1.48738,-0.07774,0.61504,1.19738,0.34807,0.37617,1.24754,0.05368,0.69179,1.40543,0.28156,0.55334,1.42937
2199,0.09096,0.43447,1.53906,0.04414,0.60545,0.0845,0.06606,0.23533,0.08495,0.06876,0.58175,0.50405,0.14338,0.29786,0.49038,0.01938,0.44681,0.90248,0.1536,0.30063,0.91155,-0.06865,0.5043,1.46261,0.2046,0.28835,1.48769,-0.0776,0.61231,1.19741,0.34822,0.3719,1.24768,0.05426,0.68893,1.40524,0.28223,0.54945,1.42933
2200,0.09088,0.43176,1.53933,0.04423,0.60526,0.08446,0.0659,0.23505,0.08475,0.06872,0.5803,0.50394,0.14277,0.29623,0.49048,0.02006,0.44478,0.90226,0.15422,0.29857,0.91161,-0.06863,0.50147,1.46269,0.20445,0.28532,1.48813,-0.07738,0.60961,1.19754,0.34836,0.36759,1.24784,0.05481,0.68643,1.40508,0.28283,0.54561,1.4292
2201,0.09084,0.42908,1.53955,0.04431,0.60511,0.08442,0.06569,0.23479,0.08453,0.06874,0.57876,0.50383,0.14223,0.29459,0.49052,0.0207,0.44276,0.90206,0.15471,0.29642,0.91163,-0.06863,0.49869,1.46284,0.20439,0.2824,1.48853,-0.07713,0.60694,1.19773,0.34851,0.36348,1.24797,0.05516,0.6842,1.40504,0.28331,0.54192,1.42903
2202,0.09091,0.42637,1.53975,0.04436,0.60499,0.0844,0.06545,0.23452,0.0843,0.06881,0.57711,0.50371,0.14176,0.29292,0.49054,0.02124,0.44076,0.90187,0.15501,0.29422,0.91163,-0.06863,0.49596,1.46301,0.20443,0.27957,1.48878,-0.0769,0.60432,1.19794,0.34871,0.35974,1.248,0.05514,0.68212,1.40521,0.28365,0.5384,1.42891
2203,0.09112,0.42356,1.53994,0.04438,0.6049,0.08439,0.06519,0.23425,0.08408,0.0689,0.57537,0.50358,0.14133,0.29125,0.49054,0.02166,0.43877,0.90171,0.15516,0.292,0.91162,-0.06856,0.49332,1.46318,0.20456,0.27679,1.48879,-0.07673,0.60177,1.19815,0.34897,0.35643,1.24792,0.05468,0.68001,1.40565,0.28391,0.53504,1.42887
2204,0.09148,0.42061,1.54014,0.04439,0.6048,0.0844,0.06493,0.23398,0.08385,0.06895,0.5736,0.50346,0.1409,0.28962,0.49054,0.02198,0.43682,0.90156,0.15521,0.28981,0.9116,-0.06836,0.49081,1.46333,0.20472,0.274,1.48861,-0.07664,0.5993,1.19831,0.34928,0.35339,1.24775,0.05383,0.67778,1.40631,0.28418,0.53176,1.42892
2205,0.09197,0.41754,1.54037,0.04439,0.60469,0.0844,0.0647,0.23371,0.08363,0.06893,0.57183,0.50334,0.14045,0.28806,0.49054,0.02231,0.43492,0.90143,0.15529,0.28769,0.91158,-0.06798,0.48845,1.46344,0.20483,0.27114,1.48832,-0.0766,0.59689,1.19841,0.34959,0.35042,1.24755,0.05275,0.67537,1.40711,0.28458,0.52851,1.42902
2206,0.09251,0.4144,1.54065,0.04441,0.60458,0.0844,0.06457,0.23346,0.0834,0.06881,0.5701,0.50321,0.13992,0.2866,0.49054,0.02272,0.43308,0.90133,0.15548,0.28566,0.91155,-0.06744,0.48622,1.46353,0.20482,0.26821,1.48803,-0.07656,0.59452,1.19846,0.34987,0.34733,1.24737,0.05169,0.6728,1.40791,0.28515,0.52525,1.42912
2207,0.09302,0.41128,1.54095,0.04443,0.60443,0.08439,0.06453,0.23322,0.08317,0.06861,0.56843,0.50309,0.13931,0.28521,0.49057,0.02324,0.4313,0.90125,0.15583,0.28373,0.91154,-0.06678,0.48404,1.46361,0.20466,0.26519,1.48779,-0.07646,0.59216,1.19849,0.35009,0.34403,1.24726,0.05087,0.67014,1.40862,0.28591,0.52198,1.42918
2208,0.09343,0.40825,1.54125,0.04449,0.60425,0.0844,0.06455,0.23299,0.08296,0.06838,0.56685,0.50299,0.13861,0.28385,0.49063,0.02386,0.42954,0.90119,0.15629,0.28184,0.91155,-0.06609,0.48182,1.46373,0.2044,0.26209,1.48764,-0.07625,0.58981,1.19858,0.35024,0.34053,1.24724,0.05043,0.66747,1.40922,0.28681,0.5187,1.42919
2209,0.09371,0.40538,1.5415,0.04459,0.60402,0.08444,0.06459,0.23278,0.08277,0.06821,0.56536,0.50293,0.13785,0.28245,0.49072,0.02452,0.42776,0.90112,0.15682,0.27994,0.91159,-0.06544,0.47947,1.4639,0.2041,0.25894,1.48757,-0.07591,0.58747,1.19876,0.35036,0.3369,1.24726,0.05039,0.66487,1.40972,0.2878,0.51539,1.4292
2210,0.09389,0.40268,1.54169,0.04472,0.60377,0.08453,0.06461,0.23259,0.0826,0.06814,0.56392,0.50292,0.1371,0.28096,0.49085,0.02515,0.42592,0.90104,0.15732,0.278,0.91165,-0.06489,0.47698,1.46413,0.20385,0.25577,1.48757,-0.07546,0.58512,1.19905,0.35045,0.33322,1.2473,0.05064,0.66242,1.41017,0.28881,0.51203,1.42924
2211,0.09402,0.4001,1.54184,0.04486,0.60354,0.08466,0.0646,0.23245,0.08245,0.06816,0.56252,0.50295,0.13643,0.27937,0.49099,0.0257,0.42404,0.90096,0.15776,0.27603,0.91173,-0.06441,0.47439,1.4644,0.20371,0.25262,1.48757,-0.07496,0.58279,1.19943,0.35055,0.32957,1.2473,0.05105,0.66014,1.41058,0.28982,0.50862,1.42932
2212,0.09416,0.39756,1.54197,0.04495,0.60339,0.08482,0.06458,0.23236,0.08231,0.06821,0.56111,0.50298,0.13589,0.27771,0.49112,0.02619,0.42215,0.90087,0.15812,0.27404,0.91182,-0.06397,0.47182,1.4647,0.20368,0.24954,1.48754,-0.07446,0.58048,1.19983,0.35066,0.32601,1.2472,0.0515,0.65808,1.41092,0.29083,0.50517,1.4294
2213,0.09435,0.39501,1.5421,0.04498,0.60334,0.08498,0.06452,0.23231,0.0822,0.06823,0.55969,0.50301,0.13551,0.27601,0.49124,0.02662,0.42029,0.90078,0.1584,0.27205,0.9119,-0.06353,0.46937,1.465,0.20374,0.24655,1.48744,-0.074,0.57821,1.2002,0.3508,0.32256,1.247,0.05193,0.65621,1.41116,0.29183,0.50174,1.42946
2214,0.09461,0.39241,1.54223,0.04497,0.60335,0.08513,0.06443,0.23226,0.08211,0.06819,0.55825,0.503,0.13527,0.27433,0.49135,0.02702,0.41847,0.90069,0.15862,0.27008,0.91198,-0.06307,0.46708,1.46528,0.20385,0.24363,1.48726,-0.0736,0.57598,1.20051,0.351,0.31921,1.24674,0.05229,0.65451,1.4113,0.29285,0.49835,1.42951
2215,0.09495,0.38977,1.54233,0.045,0.60336,0.08524,0.06431,0.23218,0.08202,0.06807,0.55685,0.50297,0.13511,0.27269,0.49142,0.02739,0.41668,0.90057,0.15881,0.26816,0.91203,-0.06258,0.46491,1.46553,0.20399,0.24079,1.48707,-0.07323,0.57383,1.20077,0.35126,0.31597,1.24649,0.0526,0.65288,1.41139,0.29385,0.49504,1.42956
2216,0.09539,0.38713,1.54237,0.04511,0.6033,0.08532,0.06416,0.23205,0.0819,0.06792,0.55552,0.50292,0.13491,0.2711,0.49145,0.02771,0.41493,0.90042,0.159,0.2663,0.91204,-0.06207,0.46281,1.46574,0.20411,0.238,1.4869,-0.07291,0.57178,1.20101,0.35159,0.31281,1.24634,0.05288,0.65124,1.41151,0.29482,0.49181,1.42968
2217,0.09595,0.38452,1.54234,0.04532,0.60317,0.08538,0.064,0.23188,0.08172,0.06782,0.55428,0.50287,0.13461,0.26956,0.49143,0.02797,0.41319,0.90023,0.15917,0.2645,0.91198,-0.06152,0.46073,1.46594,0.20414,0.23523,1.48676,-0.07262,0.56988,1.2013,0.35194,0.30974,1.2463,0.05318,0.64952,1.41172,0.2957,0.48867,1.42988
2218,0.09665,0.38193,1.54225,0.0456,0.60301,0.08544,0.06387,0.23172,0.08147,0.06781,0.55315,0.50283,0.1342,0.26809,0.49135,0.02817,0.41149,0.90001,0.15931,0.26275,0.91186,-0.06091,0.45866,1.46615,0.20405,0.23246,1.48662,-0.07239,0.56813,1.20166,0.35229,0.30674,1.24637,0.05353,0.64772,1.41203,0.29646,0.48558,1.43014
2219,0.09745,0.37938,1.54211,0.04586,0.60291,0.08554,0.06379,0.23161,0.08119,0.06792,0.5521,0.50283,0.13372,0.26669,0.49125,0.02837,0.40983,0.8998,0.15942,0.26101,0.91172,-0.06024,0.45664,1.4664,0.20385,0.22971,1.48646,-0.07219,0.56652,1.20209,0.35261,0.30378,1.24646,0.05396,0.64584,1.41243,0.29712,0.48254,1.43042
2220,0.09831,0.37687,1.54195,0.04606,0.6029,0.08572,0.06377,0.23158,0.08093,0.06812,0.55113,0.50288,0.13322,0.26539,0.49117,0.0286,0.4082,0.89962,0.15952,0.25928,0.91161,-0.05953,0.45469,1.46669,0.20362,0.22698,1.48623,-0.07197,0.56498,1.20258,0.35287,0.30089,1.24649,0.05445,0.64393,1.41289,0.2977,0.47952,1.43067
2221,0.09918,0.37437,1.5418,0.04615,0.60301,0.08598,0.06379,0.23164,0.08074,0.06837,0.55022,0.50301,0.13276,0.26417,0.49117,0.02887,0.40662,0.8995,0.15964,0.25756,0.91156,-0.05883,0.45278,1.467,0.20345,0.22433,1.48596,-0.07167,0.56344,1.20307,0.35309,0.29808,1.2464,0.05499,0.642,1.41338,0.29825,0.47653,1.43086
2222,0.09996,0.37185,1.5417,0.04617,0.60319,0.08632,0.06383,0.23176,0.08064,0.06862,0.54937,0.5032,0.13235,0.263,0.49124,0.02919,0.40509,0.89946,0.15977,0.25587,0.91159,-0.0582,0.45082,1.46733,0.2034,0.22178,1.48566,-0.07125,0.56182,1.20355,0.35327,0.29536,1.2462,0.05556,0.64007,1.41389,0.29884,0.47357,1.43102
2223,0.10057,0.3693,1.54169,0.04618,0.60339,0.0867,0.06387,0.23187,0.08062,0.06885,0.54858,0.50344,0.13201,0.26183,0.49138,0.02954,0.40362,0.89947,0.15991,0.25423,0.91169,-0.05769,0.44872,1.46764,0.20347,0.21929,1.48538,-0.0707,0.56008,1.204,0.35344,0.29275,1.24595,0.05616,0.63813,1.41438,0.29952,0.47067,1.43119
2224,0.10096,0.36672,1.54176,0.04622,0.60357,0.0871,0.06388,0.23191,0.08067,0.06909,0.54789,0.50372,0.13171,0.26064,0.49157,0.02989,0.40224,0.8995,0.16001,0.25264,0.91184,-0.05728,0.44648,1.46792,0.20362,0.21684,1.48517,-0.07008,0.5582,1.20443,0.35362,0.29019,1.24573,0.0568,0.63616,1.41483,0.30031,0.46784,1.43141
2225,0.10115,0.36416,1.54187,0.04634,0.6037,0.0875,0.06386,0.23185,0.08075,0.06935,0.54733,0.50401,0.13145,0.25943,0.49176,0.03022,0.40093,0.89952,0.16006,0.2511,0.91201,-0.05694,0.44418,1.46816,0.20378,0.21441,1.48504,-0.06943,0.55627,1.20481,0.35385,0.28765,1.2456,0.05752,0.63412,1.41522,0.30123,0.46506,1.4317
2226,0.10122,0.36166,1.54198,0.04652,0.60382,0.08789,0.06385,0.23172,0.08082,0.06966,0.54697,0.50433,0.13125,0.25824,0.49194,0.03053,0.39967,0.89951,0.16008,0.2496,0.91217,-0.05661,0.44198,1.46838,0.20393,0.21203,1.48496,-0.06881,0.5544,1.20515,0.35416,0.28513,1.24558,0.05832,0.632,1.41555,0.3022,0.46235,1.43205
2227,0.10127,0.35927,1.54204,0.04676,0.60393,0.08829,0.06387,0.23158,0.08087,0.07003,0.54683,0.50469,0.1311,0.25712,0.49208,0.03084,0.39845,0.89946,0.16011,0.24816,0.91228,-0.05624,0.43999,1.46856,0.2041,0.20968,1.4849,-0.06825,0.55271,1.20546,0.35454,0.28269,1.24562,0.05917,0.62982,1.41586,0.30316,0.45969,1.43245
2228,0.10138,0.357,1.54203,0.047,0.60404,0.08872,0.06393,0.23144,0.08088,0.07047,0.54689,0.50511,0.131,0.25609,0.49216,0.03115,0.39728,0.89939,0.16014,0.24676,0.91235,-0.05581,0.43821,1.46874,0.20435,0.20738,1.48483,-0.06776,0.55124,1.20577,0.35493,0.28038,1.24564,0.06003,0.6276,1.41621,0.30402,0.45707,1.4329
2229,0.10159,0.35483,1.54197,0.04719,0.60412,0.08919,0.06399,0.23128,0.08084,0.07096,0.5471,0.50557,0.13093,0.25517,0.49219,0.03146,0.39613,0.89933,0.16016,0.24537,0.91236,-0.05531,0.43654,1.46894,0.20473,0.20507,1.48471,-0.0673,0.54996,1.20614,0.35531,0.27826,1.24558,0.06089,0.62537,1.41668,0.30478,0.45449,1.43338
2230,0.10191,0.3527,1.54191,0.04733,0.6042,0.08972,0.06404,0.23108,0.08078,0.07151,0.54738,0.5061,0.13087,0.25434,0.49219,0.03174,0.39497,0.89927,0.16015,0.24396,0.91234,-0.0548,0.43487,1.46918,0.20524,0.20274,1.48452,-0.06683,0.54881,1.2066,0.35562,0.27633,1.24538,0.06175,0.62312,1.4173,0.30546,0.45193,1.43387
2231,0.10235,0.35055,1.54189,0.04744,0.6043,0.09031,0.06406,0.23086,0.08072,0.0721,0.5477,0.5067,0.13084,0.25359,0.49217,0.03196,0.39377,0.89924,0.16011,0.24255,0.9123,-0.05432,0.43309,1.46948,0.20583,0.20039,1.48426,-0.06633,0.54771,1.2072,0.35587,0.27452,1.24507,0.06263,0.62082,1.41808,0.30608,0.44939,1.43434
2232,0.10287,0.34834,1.54194,0.04754,0.60447,0.09098,0.06405,0.23064,0.08069,0.07271,0.54803,0.50736,0.13084,0.25289,0.49216,0.03209,0.39254,0.89923,0.16007,0.24117,0.91229,-0.05387,0.43119,1.46983,0.20644,0.19807,1.48394,-0.06578,0.54661,1.2079,0.35609,0.2728,1.2447,0.06355,0.61845,1.419,0.3067,0.44693,1.43475
2233,0.10346,0.34608,1.54205,0.04762,0.60477,0.09175,0.06402,0.23047,0.08071,0.07332,0.54842,0.50811,0.13089,0.25224,0.49219,0.03212,0.39131,0.89927,0.16003,0.23988,0.9123,-0.05342,0.42915,1.47021,0.207,0.19584,1.4836,-0.0652,0.54548,1.20868,0.35634,0.27114,1.24435,0.06447,0.61603,1.42,0.30732,0.44461,1.43508
2234,0.10409,0.3438,1.5422,0.04767,0.6052,0.09261,0.06398,0.23037,0.08076,0.0739,0.54889,0.50894,0.13102,0.25162,0.49225,0.03207,0.39013,0.89937,0.16002,0.23872,0.91235,-0.05295,0.42703,1.4706,0.20748,0.19372,1.48326,-0.06464,0.54432,1.20949,0.35668,0.26954,1.24408,0.06535,0.6136,1.42103,0.30791,0.44252,1.43534
2235,0.10475,0.34155,1.54235,0.04767,0.60574,0.09354,0.06392,0.23034,0.08085,0.07442,0.5495,0.50985,0.1312,0.251,0.49233,0.03195,0.389,0.8995,0.16001,0.23768,0.91243,-0.05243,0.42488,1.47098,0.20792,0.19172,1.48295,-0.06415,0.54311,1.21029,0.35714,0.26806,1.24395,0.06611,0.61119,1.42206,0.30845,0.44068,1.43555
2236,0.10541,0.33934,1.54249,0.04762,0.60638,0.09453,0.06387,0.23037,0.08096,0.07489,0.55026,0.51082,0.13142,0.25036,0.49242,0.0318,0.38794,0.89965,0.15997,0.23671,0.91253,-0.05185,0.42275,1.47133,0.20833,0.18984,1.48271,-0.06376,0.54189,1.21106,0.35767,0.26669,1.24395,0.06671,0.60884,1.42306,0.30889,0.43906,1.43574
2237,0.10604,0.33719,1.54258,0.04758,0.60704,0.09552,0.06384,0.23046,0.08106,0.0753,0.55115,0.51181,0.13163,0.24971,0.49252,0.03165,0.38692,0.89978,0.15988,0.23574,0.91264,-0.05128,0.42069,1.47168,0.20873,0.18802,1.48252,-0.06348,0.54065,1.2118,0.35823,0.26542,1.24404,0.06715,0.60657,1.42403,0.30923,0.43758,1.43597
2238,0.10664,0.3351,1.54264,0.04761,0.60766,0.09649,0.06381,0.2306,0.08113,0.07566,0.55215,0.51281,0.1318,0.24905,0.49259,0.03153,0.38594,0.89987,0.15973,0.23474,0.91272,-0.05073,0.41869,1.47204,0.20912,0.18624,1.48238,-0.06329,0.5394,1.21253,0.35875,0.26423,1.24416,0.06749,0.6044,1.42495,0.30948,0.43614,1.43624
2239,0.10721,0.33304,1.54267,0.04777,0.60818,0.09742,0.06379,0.23075,0.08117,0.07601,0.55321,0.5138,0.13192,0.24841,0.49264,0.03144,0.38496,0.89993,0.15956,0.23369,0.91277,-0.05025,0.41673,1.47246,0.20951,0.18447,1.48225,-0.06315,0.53815,1.2133,0.3592,0.26306,1.24428,0.06784,0.60238,1.42582,0.30971,0.43469,1.43656
2240,0.10779,0.33104,1.54269,0.04807,0.6086,0.09833,0.06378,0.23087,0.08117,0.07637,0.55431,0.5148,0.13199,0.24782,0.49266,0.03139,0.384,0.89998,0.1594,0.23263,0.91279,-0.04985,0.41478,1.47294,0.20989,0.18268,1.48212,-0.06301,0.53686,1.21411,0.3596,0.26189,1.24437,0.06824,0.60052,1.42664,0.30998,0.43319,1.4369
2241,0.10839,0.32911,1.54269,0.04848,0.60895,0.09928,0.06379,0.23093,0.08117,0.07677,0.55542,0.51584,0.13204,0.24729,0.49268,0.03139,0.38308,0.90007,0.15929,0.23161,0.9128,-0.04952,0.41282,1.47348,0.21027,0.18089,1.48197,-0.06285,0.53554,1.21495,0.35998,0.26069,1.2444,0.06869,0.59885,1.42741,0.3103,0.43166,1.43722
2242,0.10904,0.32727,1.54266,0.04892,0.60932,0.1003,0.06384,0.23088,0.0812,0.07718,0.55653,0.51696,0.13213,0.24683,0.49271,0.03141,0.38221,0.90025,0.15924,0.23067,0.91283,-0.04926,0.41087,1.47405,0.21067,0.17913,1.48179,-0.06265,0.53416,1.2158,0.36034,0.25946,1.24438,0.06916,0.59734,1.42812,0.31068,0.43012,1.43748
2243,0.10974,0.32552,1.54258,0.04929,0.60978,0.10141,0.06394,0.23075,0.08127,0.07759,0.55764,0.51815,0.13228,0.24641,0.49278,0.03142,0.38139,0.90051,0.15923,0.22982,0.91289,-0.04903,0.40896,1.47461,0.21109,0.17742,1.48158,-0.06241,0.53272,1.21659,0.36069,0.25824,1.2443,0.06963,0.59595,1.42876,0.3111,0.42859,1.43769
2244,0.11045,0.32386,1.54247,0.0495,0.61036,0.1026,0.06408,0.23057,0.08138,0.07795,0.55877,0.51939,0.13254,0.24604,0.49288,0.0314,0.38062,0.90082,0.15923,0.22905,0.91299,-0.04879,0.40712,1.47514,0.21153,0.17579,1.48137,-0.06211,0.53127,1.2173,0.36104,0.25708,1.24418,0.0701,0.59462,1.42932,0.31155,0.42711,1.43788
2245,0.11114,0.32228,1.54236,0.04951,0.61105,0.10383,0.06423,0.23041,0.08151,0.07826,0.55992,0.52066,0.13288,0.24569,0.49299,0.03131,0.37988,0.90116,0.15921,0.22834,0.91311,-0.04852,0.40538,1.47562,0.212,0.17423,1.48116,-0.06177,0.52986,1.21793,0.36137,0.25603,1.24406,0.07061,0.59328,1.42983,0.312,0.42573,1.43807
2246,0.11178,0.32077,1.54228,0.04936,0.61181,0.10507,0.06437,0.23032,0.08164,0.07849,0.56107,0.52192,0.1333,0.24537,0.49308,0.03119,0.37919,0.9015,0.15914,0.22769,0.91322,-0.04819,0.40374,1.47603,0.2125,0.17274,1.48099,-0.06138,0.52853,1.2185,0.36168,0.25511,1.24398,0.07116,0.59187,1.43032,0.31243,0.42451,1.43828
2247,0.11235,0.31934,1.54225,0.04909,0.61258,0.10628,0.06447,0.23029,0.08175,0.07865,0.56222,0.52315,0.13375,0.24508,0.49314,0.03104,0.37857,0.90183,0.15901,0.22706,0.9133,-0.04781,0.40215,1.47637,0.21299,0.1713,1.48088,-0.06094,0.52734,1.21903,0.36195,0.25433,1.24395,0.07175,0.59038,1.43085,0.31283,0.42348,1.43852
2248,0.11286,0.31798,1.54227,0.04878,0.61331,0.10743,0.06453,0.23029,0.08182,0.07875,0.56332,0.52431,0.13421,0.24483,0.49316,0.03091,0.37799,0.90215,0.15887,0.22646,0.91333,-0.04738,0.40058,1.47665,0.21345,0.16991,1.48083,-0.0605,0.52629,1.21956,0.36213,0.25368,1.24398,0.07235,0.58883,1.43142,0.31319,0.42263,1.43876
2249,0.11332,0.31668,1.5423,0.04845,0.614,0.10849,0.06457,0.23026,0.08187,0.07881,0.56437,0.5254,0.13467,0.24463,0.49314,0.03082,0.37746,0.90243,0.15875,0.22588,0.91333,-0.04691,0.39904,1.47689,0.21388,0.16858,1.48083,-0.06014,0.52537,1.22011,0.36222,0.25311,1.24405,0.0729,0.58725,1.43205,0.31353,0.42192,1.43901
2250,0.11376,0.31545,1.54231,0.04815,0.61466,0.10948,0.06463,0.23018,0.08189,0.07885,0.56537,0.5264,0.13514,0.2445,0.49309,0.03079,0.37695,0.90267,0.15868,0.22531,0.91329,-0.04645,0.39755,1.47711,0.21431,0.16733,1.48088,-0.05992,0.52455,1.22067,0.36227,0.2526,1.24413,0.07336,0.58566,1.43269,0.31383,0.4213,1.43925
2251,0.11421,0.31425,1.54226,0.04788,0.61533,0.11039,0.06471,0.23005,0.08189,0.0789,0.56634,0.52732,0.13562,0.24446,0.49302,0.03084,0.37647,0.90286,0.15868,0.22477,0.91323,-0.04602,0.39613,1.47732,0.21476,0.16618,1.48095,-0.05984,0.52377,1.22121,0.36234,0.25213,1.2442,0.07371,0.58408,1.43329,0.3141,0.42071,1.43947
2252,0.11469,0.31306,1.54218,0.04763,0.61602,0.11123,0.06482,0.22989,0.08188,0.07895,0.56726,0.52816,0.13613,0.24449,0.49293,0.03095,0.37601,0.90301,0.15874,0.22426,0.91314,-0.04564,0.39481,1.47753,0.21529,0.16515,1.48101,-0.05986,0.52296,1.2217,0.36253,0.25169,1.24427,0.07397,0.58253,1.4338,0.31434,0.42015,1.43965
2253,0.1152,0.31186,1.54207,0.0474,0.61675,0.11202,0.06494,0.22976,0.08185,0.07898,0.56814,0.52895,0.13666,0.24455,0.49282,0.03111,0.37559,0.90315,0.1589,0.22381,0.91302,-0.04531,0.39361,1.47774,0.21591,0.16422,1.48103,-0.0599,0.52211,1.22211,0.36291,0.25132,1.24434,0.07417,0.58106,1.43424,0.31455,0.4196,1.43984
2254,0.11574,0.31065,1.54196,0.0472,0.6175,0.11275,0.06503,0.2297,0.08181,0.07897,0.56897,0.52967,0.1372,0.24466,0.4927,0.03132,0.3752,0.90327,0.15914,0.22344,0.91289,-0.04503,0.39253,1.47798,0.2166,0.16333,1.48097,-0.05986,0.52121,1.22245,0.36349,0.25105,1.24444,0.07432,0.5797,1.43463,0.31476,0.41906,1.44007
2255,0.11629,0.30946,1.54187,0.04702,0.61827,0.11342,0.0651,0.22972,0.08177,0.07889,0.56976,0.53034,0.13773,0.24481,0.49257,0.03158,0.37488,0.9034,0.15944,0.22313,0.91275,-0.04478,0.39155,1.47826,0.21733,0.16247,1.48081,-0.05971,0.52028,1.22276,0.36422,0.25089,1.24455,0.07445,0.57849,1.43503,0.31498,0.41853,1.44037
2256,0.11684,0.30832,1.54178,0.04685,0.61904,0.11404,0.06515,0.22978,0.08172,0.07876,0.57052,0.53096,0.13819,0.24502,0.49244,0.0319,0.37464,0.90355,0.15977,0.22288,0.91261,-0.04452,0.39065,1.47855,0.21805,0.16157,1.48057,-0.05946,0.51936,1.22305,0.36505,0.25082,1.24468,0.07456,0.57741,1.43545,0.31525,0.41801,1.44075
2257,0.11738,0.30723,1.54167,0.04662,0.61983,0.11462,0.06521,0.22987,0.08165,0.07862,0.57125,0.53152,0.13856,0.2453,0.49231,0.03223,0.37449,0.90371,0.16007,0.22269,0.91245,-0.04425,0.3898,1.47883,0.21874,0.16063,1.48026,-0.05914,0.51849,1.22331,0.36591,0.25082,1.24483,0.0747,0.57644,1.43586,0.31556,0.41751,1.44119
2258,0.11791,0.30618,1.54156,0.04631,0.62065,0.11518,0.06527,0.22994,0.08156,0.0785,0.57197,0.53205,0.13884,0.24563,0.49218,0.03252,0.37442,0.90388,0.16031,0.22256,0.9123,-0.04397,0.389,1.47908,0.21938,0.15968,1.47992,-0.05882,0.51769,1.22356,0.36674,0.25085,1.24499,0.07489,0.57553,1.43622,0.31592,0.41703,1.44166
2259,0.11839,0.30518,1.54146,0.0459,0.62152,0.11572,0.06532,0.22999,0.08147,0.0784,0.57268,0.53255,0.13904,0.24597,0.49204,0.03276,0.3744,0.90403,0.16051,0.22249,0.91214,-0.04371,0.38828,1.4793,0.21996,0.15879,1.4796,-0.05854,0.517,1.22378,0.36752,0.25088,1.24516,0.07513,0.57469,1.43651,0.3163,0.4166,1.44211
2260,0.1188,0.30424,1.54137,0.04541,0.62244,0.11624,0.06535,0.23003,0.08138,0.07831,0.57337,0.53301,0.13921,0.24627,0.49192,0.03292,0.37437,0.90414,0.16068,0.22246,0.912,-0.04348,0.38765,1.47949,0.22049,0.15802,1.47931,-0.05832,0.51641,1.22401,0.36822,0.25091,1.24529,0.0754,0.57393,1.43675,0.31667,0.41619,1.44253
2261,0.11911,0.30342,1.5413,0.04491,0.62335,0.11673,0.06534,0.23008,0.08131,0.07819,0.57404,0.53344,0.13938,0.24652,0.49181,0.03302,0.37433,0.90421,0.16084,0.22246,0.91187,-0.04329,0.38709,1.47969,0.221,0.15739,1.47904,-0.05815,0.51591,1.22424,0.36884,0.25096,1.24536,0.07567,0.57327,1.43696,0.31701,0.41582,1.44288
2262,0.11932,0.30277,1.54122,0.04445,0.62421,0.11717,0.06531,0.23014,0.08126,0.07801,0.5747,0.53384,0.13959,0.2467,0.49172,0.03307,0.37428,0.90425,0.16099,0.22248,0.91177,-0.04314,0.38659,1.47991,0.22154,0.15691,1.47879,-0.05801,0.51549,1.22449,0.3694,0.25104,1.24536,0.07592,0.57271,1.43718,0.31732,0.41547,1.44317
2263,0.11945,0.30226,1.54113,0.04406,0.62494,0.11759,0.06526,0.23021,0.08125,0.07776,0.57537,0.53424,0.13986,0.24682,0.49164,0.03309,0.37422,0.90429,0.16112,0.22251,0.91171,-0.04301,0.38613,1.48012,0.22214,0.15656,1.47853,-0.05784,0.51509,1.22473,0.36996,0.2512,1.24529,0.07614,0.57225,1.4374,0.31759,0.41515,1.44342
2264,0.11956,0.30179,1.54104,0.04372,0.62553,0.11799,0.0652,0.23031,0.08126,0.07748,0.57606,0.53465,0.14017,0.24692,0.49159,0.03307,0.37419,0.90434,0.16124,0.22259,0.91166,-0.04287,0.38564,1.48029,0.22284,0.15629,1.47827,-0.05765,0.51467,1.22494,0.37059,0.25145,1.24518,0.07632,0.57188,1.4376,0.31784,0.41486,1.44365
2265,0.11968,0.3013,1.54099,0.04339,0.62597,0.1184,0.06512,0.23043,0.0813,0.07723,0.57677,0.53509,0.14054,0.24703,0.49154,0.03302,0.37418,0.9044,0.16138,0.22273,0.91162,-0.04269,0.38509,1.4804,0.22364,0.15607,1.47802,-0.05743,0.51418,1.22507,0.37131,0.25176,1.2451,0.07647,0.57158,1.43774,0.31806,0.41464,1.44388
2266,0.11983,0.30072,1.54099,0.04302,0.62628,0.11884,0.06504,0.23058,0.08135,0.07705,0.5775,0.53556,0.14098,0.24719,0.4915,0.03294,0.37415,0.90448,0.16157,0.22294,0.91159,-0.04246,0.38446,1.48043,0.22449,0.15585,1.47778,-0.05721,0.51361,1.22513,0.37214,0.2521,1.24507,0.07659,0.57132,1.43777,0.31826,0.4145,1.44407
2267,0.12002,0.30009,1.54104,0.04257,0.62647,0.11933,0.06496,0.23073,0.08141,0.07695,0.57821,0.53608,0.14148,0.24742,0.49144,0.03286,0.37409,0.90457,0.16186,0.22318,0.91155,-0.04216,0.38374,1.4804,0.22533,0.15561,1.47756,-0.05705,0.51293,1.22513,0.37303,0.25242,1.24512,0.07667,0.57106,1.43771,0.31841,0.41445,1.44422
2268,0.1203,0.2995,1.54112,0.04204,0.62658,0.11987,0.06487,0.23086,0.08147,0.0769,0.5789,0.53664,0.14205,0.24772,0.49137,0.03279,0.37395,0.90467,0.16224,0.22341,0.91148,-0.04184,0.38298,1.48038,0.22611,0.15533,1.47736,-0.05698,0.51215,1.22512,0.37394,0.25271,1.24524,0.07671,0.57081,1.43756,0.31855,0.4145,1.44432
2269,0.1207,0.299,1.54119,0.04147,0.62659,0.12044,0.06477,0.23095,0.08151,0.07687,0.57955,0.53725,0.14265,0.24806,0.49127,0.03277,0.37377,0.9048,0.16268,0.22363,0.91139,-0.04153,0.38221,1.48041,0.22683,0.15503,1.47719,-0.05704,0.51131,1.22513,0.37481,0.25299,1.24542,0.0767,0.57059,1.43737,0.31866,0.41463,1.4444
2270,0.12123,0.29863,1.54124,0.0409,0.62653,0.12105,0.06468,0.23099,0.08153,0.07685,0.58019,0.53788,0.14327,0.24838,0.49115,0.03277,0.37357,0.90497,0.16314,0.22381,0.91126,-0.04129,0.38145,1.48052,0.22752,0.15475,1.47708,-0.05724,0.51043,1.22521,0.37561,0.25332,1.24563,0.07662,0.57047,1.43716,0.31876,0.41484,1.44452
2271,0.12182,0.2984,1.54125,0.04032,0.62641,0.12168,0.0646,0.23102,0.08155,0.07686,0.58082,0.53855,0.14389,0.24867,0.49101,0.03278,0.3734,0.90519,0.16355,0.22398,0.91113,-0.04112,0.38073,1.48068,0.22822,0.15454,1.47703,-0.05753,0.50959,1.22534,0.37631,0.25378,1.24587,0.07648,0.57048,1.43695,0.31882,0.41514,1.44471
2272,0.12238,0.2983,1.54123,0.03973,0.62627,0.12231,0.06455,0.23104,0.08156,0.0769,0.58146,0.5392,0.1445,0.24893,0.49089,0.03279,0.3733,0.90542,0.16389,0.22415,0.91101,-0.04099,0.38007,1.48086,0.22892,0.15447,1.47701,-0.05785,0.50883,1.2255,0.37693,0.25443,1.24611,0.07632,0.5706,1.43675,0.31886,0.41556,1.44496
2273,0.12282,0.29831,1.54117,0.03913,0.62614,0.12289,0.06457,0.23104,0.08158,0.07697,0.58207,0.5398,0.1451,0.24919,0.49078,0.03282,0.37328,0.90566,0.16418,0.22436,0.91092,-0.04087,0.37951,1.48101,0.22964,0.15456,1.47702,-0.05817,0.50823,1.22565,0.3775,0.25525,1.24633,0.07617,0.57079,1.43657,0.31892,0.41613,1.44524
2274,0.12311,0.29841,1.54111,0.03852,0.62605,0.12335,0.06466,0.23101,0.0816,0.07704,0.58262,0.54027,0.14563,0.24949,0.49071,0.03288,0.37335,0.90586,0.16449,0.22463,0.91085,-0.04073,0.37909,1.48112,0.23033,0.15481,1.47702,-0.05846,0.5078,1.2258,0.37803,0.2562,1.24654,0.07609,0.57098,1.4364,0.31904,0.41687,1.44549
2275,0.12325,0.29855,1.54104,0.03793,0.62602,0.12367,0.06479,0.23097,0.08163,0.07708,0.58307,0.54058,0.14607,0.24985,0.49065,0.03299,0.37349,0.90599,0.16486,0.225,0.9108,-0.04057,0.37878,1.48121,0.23099,0.1552,1.47701,-0.05878,0.50755,1.22595,0.37853,0.25722,1.24671,0.07609,0.57119,1.4362,0.31925,0.41777,1.44567
2276,0.1233,0.29872,1.54101,0.03738,0.6261,0.1238,0.06494,0.23092,0.08165,0.07709,0.5834,0.54069,0.14638,0.25029,0.49062,0.03316,0.37371,0.90605,0.16531,0.22546,0.91076,-0.04039,0.37855,1.48128,0.23157,0.15569,1.47701,-0.05916,0.50743,1.22612,0.37898,0.25826,1.24687,0.0762,0.57142,1.43595,0.31954,0.4188,1.44579
2277,0.12331,0.29887,1.541,0.0369,0.62634,0.12377,0.06509,0.2309,0.08167,0.07704,0.58359,0.54061,0.14655,0.25081,0.4906,0.0334,0.37398,0.90606,0.16584,0.22599,0.91073,-0.04022,0.37836,1.48135,0.23206,0.15626,1.47703,-0.05958,0.5074,1.2263,0.37937,0.25932,1.24704,0.07638,0.57173,1.43564,0.31983,0.41993,1.44588
2278,0.12332,0.29905,1.54101,0.03649,0.62679,0.1236,0.06522,0.23094,0.08167,0.07692,0.58365,0.54037,0.1466,0.25139,0.4906,0.03369,0.37433,0.90603,0.16641,0.22659,0.9107,-0.04005,0.37823,1.48139,0.23249,0.15686,1.47708,-0.06002,0.50738,1.22645,0.37971,0.2604,1.24726,0.07656,0.5721,1.43527,0.32003,0.42113,1.44596
2279,0.12337,0.29933,1.54101,0.03615,0.62744,0.12331,0.06533,0.23101,0.08166,0.07673,0.5836,0.53999,0.14656,0.25195,0.49059,0.03403,0.37476,0.90599,0.167,0.22725,0.91067,-0.03987,0.37819,1.48141,0.23289,0.15746,1.47714,-0.0604,0.50734,1.22651,0.38003,0.26156,1.24751,0.07668,0.57248,1.43487,0.32009,0.42237,1.44606
2280,0.12348,0.29977,1.54097,0.03584,0.62829,0.12292,0.0654,0.2311,0.08163,0.07645,0.58347,0.53949,0.14647,0.25247,0.49057,0.03437,0.37527,0.90593,0.16756,0.22796,0.91063,-0.03966,0.37832,1.4814,0.23332,0.1581,1.47718,-0.06067,0.50729,1.22645,0.38039,0.26281,1.24779,0.07673,0.57284,1.43447,0.32002,0.42362,1.44622
2281,0.12364,0.30041,1.54091,0.03554,0.62927,0.12243,0.06544,0.2312,0.08157,0.07612,0.58328,0.53888,0.14638,0.25294,0.49052,0.0347,0.37586,0.90584,0.16809,0.22874,0.91056,-0.03942,0.37865,1.48137,0.23382,0.15882,1.47721,-0.06082,0.50727,1.22628,0.38081,0.2642,1.24807,0.0767,0.57313,1.43412,0.31989,0.42489,1.44642
2282,0.12388,0.30121,1.54087,0.03525,0.63031,0.12187,0.06546,0.23132,0.08149,0.07577,0.58308,0.53818,0.14633,0.25339,0.49044,0.03502,0.37653,0.9057,0.1686,0.22957,0.91047,-0.03914,0.37917,1.48134,0.23442,0.1597,1.47722,-0.06087,0.50733,1.22605,0.3813,0.26576,1.24832,0.0766,0.57335,1.43387,0.31978,0.42619,1.4467
2283,0.12416,0.30207,1.54089,0.03494,0.63135,0.12125,0.06545,0.2315,0.08142,0.07544,0.58286,0.53742,0.14637,0.25389,0.49034,0.03535,0.37725,0.90554,0.16907,0.23043,0.91037,-0.03882,0.37981,1.48132,0.23511,0.16075,1.47721,-0.06088,0.50749,1.22581,0.38184,0.2675,1.24854,0.07645,0.57356,1.43371,0.31977,0.42754,1.44706
2284,0.12443,0.3029,1.54099,0.03461,0.63233,0.1206,0.06541,0.23174,0.08138,0.07515,0.58261,0.53662,0.14651,0.25444,0.49024,0.03568,0.37803,0.90538,0.16955,0.23133,0.91027,-0.0385,0.38053,1.48135,0.2359,0.16195,1.47721,-0.0609,0.50772,1.22563,0.38238,0.26941,1.24871,0.07624,0.57381,1.43365,0.31988,0.42892,1.44752
2285,0.12466,0.30364,1.54116,0.03422,0.63322,0.11993,0.06534,0.23199,0.08137,0.07492,0.58229,0.53579,0.14673,0.25507,0.49015,0.03601,0.37883,0.90523,0.17002,0.23226,0.91019,-0.03819,0.38126,1.48144,0.23676,0.16324,1.47723,-0.06097,0.508,1.22553,0.3829,0.27144,1.24886,0.07599,0.57414,1.43366,0.32005,0.43034,1.44806
2286,0.12482,0.3043,1.54137,0.03377,0.63401,0.11926,0.06528,0.2322,0.0814,0.07474,0.58188,0.53494,0.14699,0.25576,0.49009,0.03632,0.37962,0.90509,0.17048,0.2332,0.91013,-0.03796,0.38195,1.48161,0.23764,0.16453,1.47729,-0.06108,0.50834,1.22556,0.38337,0.27354,1.24905,0.07573,0.57456,1.43375,0.32021,0.43181,1.44865
2287,0.12493,0.30497,1.54154,0.03323,0.63465,0.11855,0.06522,0.23232,0.08146,0.07459,0.5814,0.53406,0.14726,0.25652,0.49005,0.03659,0.3804,0.90493,0.1709,0.23412,0.91009,-0.0378,0.38257,1.48184,0.23848,0.16576,1.47741,-0.06122,0.50873,1.2257,0.38382,0.27567,1.24935,0.07549,0.57508,1.43392,0.32026,0.43336,1.44927
2288,0.125,0.30572,1.54166,0.0326,0.63507,0.11779,0.0652,0.23235,0.08155,0.07447,0.58086,0.53312,0.14751,0.25735,0.49004,0.03686,0.38117,0.90474,0.17129,0.23501,0.91007,-0.03772,0.38314,1.48209,0.23922,0.16693,1.47757,-0.06132,0.50921,1.22592,0.38426,0.27782,1.2498,0.07526,0.57569,1.43418,0.32017,0.43502,1.44994
2289,0.12506,0.30661,1.5417,0.03191,0.63521,0.11694,0.06521,0.23235,0.08163,0.07439,0.58028,0.53211,0.14773,0.25828,0.49002,0.03716,0.38198,0.90451,0.17167,0.2359,0.91004,-0.03766,0.38375,1.48231,0.23982,0.16805,1.47779,-0.06134,0.50983,1.22615,0.38472,0.27999,1.25043,0.07505,0.57645,1.4345,0.31992,0.43681,1.45065
2290,0.12507,0.30768,1.54169,0.03121,0.63507,0.11599,0.06526,0.23238,0.08169,0.07435,0.57969,0.53104,0.14794,0.25931,0.48998,0.03755,0.38286,0.90426,0.17206,0.23679,0.90999,-0.03756,0.38451,1.48244,0.24029,0.16918,1.47804,-0.06128,0.51067,1.22633,0.3852,0.28217,1.25121,0.07482,0.57739,1.43484,0.31955,0.43869,1.45139
2291,0.125,0.30892,1.54162,0.03052,0.63464,0.11496,0.06534,0.23247,0.08173,0.07437,0.57909,0.52991,0.14819,0.26044,0.48992,0.03803,0.38383,0.90401,0.17245,0.23768,0.9099,-0.03743,0.38549,1.48247,0.24065,0.17038,1.47832,-0.06115,0.51176,1.22641,0.38574,0.28433,1.25209,0.07456,0.57853,1.43515,0.31909,0.44058,1.45215
2292,0.12487,0.31029,1.54153,0.02989,0.63397,0.11391,0.06543,0.23261,0.08177,0.07442,0.57844,0.52879,0.14851,0.26166,0.48983,0.03855,0.38485,0.90379,0.17283,0.23857,0.90979,-0.03728,0.38668,1.4824,0.24093,0.1717,1.47862,-0.06102,0.51308,1.22641,0.38632,0.28644,1.25299,0.07427,0.57983,1.43543,0.31857,0.44242,1.45289
2293,0.12471,0.31175,1.54142,0.02934,0.63312,0.11286,0.06548,0.2328,0.08181,0.07451,0.57773,0.52769,0.14893,0.26295,0.48972,0.03904,0.38587,0.90362,0.17318,0.23947,0.90967,-0.03717,0.38798,1.48225,0.24113,0.17315,1.47894,-0.06094,0.5146,1.22636,0.38695,0.28848,1.25388,0.07392,0.58121,1.43571,0.31802,0.4442,1.45357
2294,0.12458,0.31326,1.54131,0.02893,0.63216,0.11183,0.0655,0.233,0.08185,0.07461,0.57693,0.52663,0.14943,0.26424,0.48958,0.03946,0.3869,0.90352,0.17351,0.24041,0.90952,-0.03712,0.38929,1.48206,0.24123,0.17471,1.47928,-0.06093,0.51625,1.22635,0.38757,0.29042,1.25476,0.07355,0.58259,1.43602,0.31745,0.44593,1.45419
2295,0.12454,0.31479,1.54122,0.02873,0.63119,0.1108,0.06546,0.23321,0.08188,0.0747,0.57604,0.52557,0.14999,0.26551,0.4894,0.03981,0.38797,0.90347,0.17383,0.24145,0.90934,-0.03715,0.39052,1.48186,0.24123,0.17637,1.47966,-0.06097,0.518,1.22641,0.38814,0.29229,1.25562,0.07325,0.5839,1.43639,0.31688,0.44766,1.45476
2296,0.12459,0.31635,1.54117,0.02878,0.63027,0.10972,0.06538,0.23347,0.08188,0.07476,0.5751,0.52449,0.15061,0.26676,0.48917,0.04014,0.38914,0.90346,0.17419,0.24264,0.90912,-0.03722,0.39171,1.48165,0.2411,0.17811,1.48007,-0.06098,0.51986,1.22653,0.38862,0.29413,1.25647,0.07311,0.58512,1.43679,0.31636,0.44942,1.45532
2297,0.12469,0.31799,1.54113,0.02912,0.62949,0.1086,0.0653,0.23377,0.08184,0.07478,0.57413,0.52338,0.15128,0.26804,0.4889,0.04048,0.39044,0.90348,0.1746,0.24399,0.90887,-0.03731,0.39293,1.48141,0.24088,0.17995,1.48049,-0.06088,0.52185,1.22666,0.38897,0.29601,1.25729,0.07314,0.58628,1.43722,0.31591,0.45124,1.45589
2298,0.12475,0.31976,1.54106,0.02967,0.62889,0.10744,0.06524,0.23412,0.08181,0.07472,0.57316,0.52224,0.15204,0.26943,0.4886,0.04082,0.39184,0.90351,0.17506,0.2455,0.90859,-0.03742,0.39427,1.48115,0.24061,0.18186,1.48087,-0.06061,0.52397,1.22676,0.38922,0.298,1.25806,0.07332,0.58741,1.43767,0.31556,0.45313,1.45652
2299,0.12473,0.32166,1.54093,0.03033,0.62845,0.10628,0.0652,0.2345,0.0818,0.07455,0.57223,0.5211,0.15291,0.27102,0.4883,0.04115,0.3933,0.90354,0.17555,0.24709,0.90831,-0.03755,0.39579,1.4809,0.24039,0.18384,1.48111,-0.06017,0.52623,1.22683,0.38946,0.30022,1.25875,0.07361,0.58855,1.43818,0.31528,0.45511,1.4572
2300,0.12462,0.32365,1.54073,0.03099,0.62815,0.10514,0.0652,0.23487,0.08184,0.07422,0.57135,0.51999,0.15396,0.27287,0.48797,0.04145,0.39475,0.90356,0.17603,0.2487,0.908,-0.03769,0.39752,1.48071,0.24031,0.18584,1.48114,-0.0596,0.52861,1.22692,0.38978,0.30278,1.25933,0.07396,0.58975,1.43875,0.31504,0.45716,1.45798
2301,0.12446,0.32565,1.54048,0.03158,0.62792,0.10405,0.06521,0.2352,0.08194,0.07374,0.57052,0.51892,0.15522,0.27503,0.48762,0.04169,0.39615,0.90357,0.17651,0.2503,0.90766,-0.03783,0.39942,1.48061,0.24045,0.18784,1.48094,-0.05896,0.53112,1.22707,0.39026,0.3057,1.25985,0.07434,0.59103,1.43942,0.31482,0.45924,1.45887
2302,0.12434,0.32758,1.54018,0.03208,0.62767,0.10301,0.06522,0.23548,0.08209,0.07312,0.56974,0.51792,0.15674,0.2775,0.48721,0.04185,0.39747,0.90359,0.17696,0.25188,0.90724,-0.03792,0.4014,1.48056,0.24082,0.18977,1.48058,-0.0583,0.53378,1.22731,0.39093,0.30885,1.26035,0.0747,0.59243,1.4402,0.31458,0.46132,1.45985
2303,0.12434,0.3294,1.53984,0.03249,0.62738,0.10202,0.06523,0.23575,0.08228,0.07238,0.569,0.51698,0.15854,0.28028,0.48673,0.04194,0.39876,0.90361,0.17735,0.25344,0.90675,-0.03792,0.40338,1.48049,0.24137,0.19162,1.48022,-0.05764,0.53661,1.22764,0.39172,0.31208,1.2609,0.07502,0.59397,1.44109,0.31429,0.46336,1.46089
2304,0.12449,0.33113,1.53945,0.0328,0.62703,0.10107,0.06527,0.23602,0.08252,0.07157,0.56836,0.5161,0.16058,0.28332,0.48618,0.04195,0.40004,0.90363,0.17766,0.25499,0.90618,-0.03783,0.40529,1.48033,0.242,0.1934,1.47999,-0.05701,0.53964,1.22803,0.39256,0.31521,1.26157,0.07527,0.59561,1.44207,0.31396,0.46538,1.46193
2305,0.12479,0.33284,1.53898,0.03297,0.62666,0.10014,0.06537,0.23632,0.08281,0.07071,0.56787,0.51524,0.16284,0.28658,0.4856,0.04194,0.40137,0.90363,0.17791,0.25656,0.90556,-0.0377,0.40708,1.48001,0.24257,0.19516,1.47993,-0.0564,0.54285,1.22844,0.39336,0.31818,1.26234,0.07546,0.59729,1.44314,0.31359,0.4674,1.46296
2306,0.12515,0.33458,1.53844,0.03298,0.62632,0.09921,0.06557,0.23666,0.08317,0.06981,0.56756,0.5144,0.16529,0.28999,0.48501,0.04193,0.4028,0.90359,0.17809,0.25816,0.90491,-0.03756,0.40874,1.47954,0.243,0.19697,1.47997,-0.05581,0.54624,1.22888,0.39411,0.32104,1.2632,0.07563,0.59896,1.44427,0.3132,0.46946,1.46396
2307,0.1255,0.33638,1.53783,0.03281,0.62607,0.09829,0.06587,0.23702,0.08359,0.06891,0.56746,0.51356,0.16794,0.2935,0.48441,0.04195,0.40432,0.9035,0.17824,0.25979,0.90423,-0.03743,0.41029,1.47896,0.24319,0.19886,1.47998,-0.05519,0.5498,1.22937,0.39483,0.32386,1.26412,0.07582,0.60057,1.44549,0.31282,0.47158,1.46494
2308,0.12571,0.33819,1.53721,0.03246,0.62596,0.0974,0.06622,0.23743,0.08407,0.06802,0.56757,0.51276,0.17082,0.29706,0.48378,0.042,0.4059,0.90337,0.17834,0.26142,0.9035,-0.0373,0.41179,1.47835,0.24317,0.20081,1.47987,-0.05448,0.55349,1.22996,0.3956,0.32669,1.26508,0.07611,0.60208,1.44683,0.31246,0.47376,1.46591
2309,0.12573,0.33995,1.53661,0.03193,0.626,0.09657,0.06659,0.23792,0.08459,0.0672,0.5679,0.51199,0.17394,0.3006,0.4831,0.04205,0.4075,0.90318,0.17841,0.26304,0.9027,-0.03712,0.41323,1.4778,0.24297,0.20274,1.47957,-0.05363,0.55728,1.23072,0.39648,0.32953,1.26608,0.07658,0.60346,1.44835,0.31214,0.47599,1.46687
2310,0.12556,0.34159,1.53605,0.03123,0.62621,0.0958,0.06698,0.23852,0.08511,0.06646,0.56844,0.51127,0.17726,0.30409,0.48235,0.04206,0.40909,0.90293,0.17844,0.26466,0.9018,-0.03686,0.41458,1.47735,0.2427,0.20451,1.47912,-0.05255,0.56112,1.23168,0.3975,0.33232,1.26718,0.0773,0.60462,1.45007,0.31189,0.47827,1.4678
