PaulMeinheit/Bachelor_Muay_Thai/processed_Data/E3/teep/sliced/JointPositions/sliced1.csv
Unnamed: 0_level_0,Neck_Joint_Position,Neck_Joint_Position,Neck_Joint_Position,L_ANKLE_POSITION,L_ANKLE_POSITION,L_ANKLE_POSITION,R_ANKLE_POSITION,R_ANKLE_POSITION,R_ANKLE_POSITION,L_KNEE_POSITION,L_KNEE_POSITION,L_KNEE_POSITION,R_KNEE_POSITION,R_KNEE_POSITION,R_KNEE_POSITION,L_HIP_POSITION,L_HIP_POSITION,L_HIP_POSITION,R_HIP_POSITION,R_HIP_POSITION,R_HIP_POSITION,L_SHOULDER_POSITION,L_SHOULDER_POSITION,L_SHOULDER_POSITION,R_SHOULDER_POSITION,R_SHOULDER_POSITION,R_SHOULDER_POSITION,L_ELBOW_POSITION,L_ELBOW_POSITION,L_ELBOW_POSITION,R_ELBOW_POSITION,R_ELBOW_POSITION,R_ELBOW_POSITION,L_WRIST_POSITION,L_WRIST_POSITION,L_WRIST_POSITION,R_WRIST_POSITION,R_WRIST_POSITION,R_WRIST_POSITION
ITEM,X,Y,Z,X,Y,Z,X,Y,Z,X,Y,Z,X,Y,Z,X,Y,Z,X,Y,Z,X,Y,Z,X,Y,Z,X,Y,Z,X,Y,Z,X,Y,Z,X,Y,Z
478,0.09275,0.37767,1.52209,-0.00865,0.45244,0.07796,0.28063,0.13591,0.14553,0.02074,0.455,0.49365,0.27287,0.36791,0.48972,0.04248,0.36215,0.91826,0.21306,0.3537,0.91851,-0.06564,0.34411,1.43744,0.27394,0.36177,1.4465,-0.1105,0.48018,1.18214,0.32628,0.49991,1.20975,-0.0349,0.57057,1.41987,0.20889,0.56921,1.43072
479,0.09132,0.38001,1.52222,-0.00869,0.45286,0.07789,0.28133,0.13769,0.14774,0.01977,0.45512,0.49364,0.27309,0.37213,0.49026,0.04115,0.36326,0.91848,0.21172,0.35481,0.91871,-0.06825,0.34667,1.43771,0.27224,0.36313,1.44685,-0.11196,0.48301,1.18235,0.32509,0.50085,1.20997,-0.03544,0.57329,1.41983,0.20735,0.57065,1.4306
480,0.08997,0.38207,1.52233,-0.00868,0.45298,0.07779,0.28214,0.13973,0.14998,0.01859,0.45505,0.49362,0.27334,0.37653,0.49087,0.03981,0.36447,0.91874,0.21039,0.35601,0.91895,-0.07079,0.34898,1.43789,0.27054,0.36457,1.44744,-0.11327,0.48578,1.18256,0.32404,0.5014,1.21019,-0.03611,0.57556,1.42002,0.20601,0.57184,1.43045
481,0.0886,0.38378,1.52248,-0.00858,0.45283,0.07772,0.28316,0.14206,0.15221,0.01743,0.45496,0.49364,0.27365,0.38111,0.4915,0.03843,0.36568,0.91904,0.20902,0.35738,0.91916,-0.07292,0.35087,1.438,0.26891,0.36593,1.44814,-0.11433,0.48834,1.18286,0.32306,0.50169,1.21042,-0.0369,0.57727,1.42056,0.20475,0.57308,1.43023
482,0.08706,0.38529,1.52262,-0.00842,0.45268,0.07778,0.28428,0.14449,0.15436,0.01654,0.45493,0.49376,0.27407,0.38574,0.49208,0.03695,0.36678,0.91943,0.20755,0.35877,0.91926,-0.07462,0.3525,1.43813,0.26724,0.36701,1.44872,-0.11505,0.49063,1.18318,0.32208,0.50199,1.21071,-0.03776,0.57881,1.4212,0.20343,0.57463,1.42993
483,0.08536,0.38678,1.52275,-0.00835,0.45273,0.078,0.28543,0.14687,0.15641,0.01596,0.45496,0.49402,0.27449,0.39023,0.49259,0.03538,0.36774,0.91992,0.20599,0.36006,0.91924,-0.07607,0.35416,1.43821,0.26556,0.36789,1.44909,-0.11558,0.49261,1.1833,0.321,0.50251,1.21103,-0.03888,0.58045,1.42163,0.20202,0.57634,1.42967
484,0.0837,0.38827,1.52295,-0.00844,0.45299,0.07829,0.28651,0.14924,0.15836,0.0155,0.45501,0.49433,0.27474,0.39454,0.49309,0.03388,0.36865,0.92046,0.20451,0.3613,0.91923,-0.07746,0.35594,1.43821,0.26395,0.36899,1.44937,-0.1161,0.49423,1.18308,0.31973,0.50337,1.21124,-0.04023,0.58216,1.42165,0.2006,0.57791,1.42956
485,0.08226,0.38971,1.52318,-0.00863,0.45329,0.07855,0.2874,0.15171,0.16021,0.01498,0.45494,0.49461,0.27475,0.39871,0.49366,0.03258,0.3695,0.92096,0.20322,0.36255,0.91935,-0.07892,0.35771,1.43817,0.26234,0.37072,1.44961,-0.11661,0.49564,1.1827,0.31824,0.50469,1.21129,-0.04128,0.58398,1.42128,0.19917,0.57922,1.42964
486,0.081,0.39111,1.52338,-0.00877,0.45351,0.0787,0.28816,0.15427,0.16191,0.01438,0.45476,0.49479,0.27463,0.40267,0.49429,0.03146,0.37022,0.92133,0.20211,0.36385,0.91957,-0.08036,0.35925,1.43812,0.26064,0.37299,1.44983,-0.11711,0.49713,1.18249,0.31666,0.50654,1.2113,-0.04171,0.586,1.42085,0.19762,0.58035,1.42992
487,0.07983,0.39247,1.52351,-0.00878,0.45366,0.07872,0.28902,0.15682,0.16342,0.01372,0.45456,0.49484,0.27456,0.40634,0.49491,0.03043,0.37086,0.92157,0.20111,0.36515,0.91982,-0.0816,0.36055,1.43812,0.25901,0.37527,1.45007,-0.11771,0.49886,1.18263,0.31516,0.50865,1.21147,-0.04187,0.58814,1.4207,0.19603,0.58137,1.4304
488,0.07878,0.39376,1.52366,-0.00873,0.45386,0.07863,0.29011,0.15922,0.16477,0.01303,0.45449,0.49479,0.2746,0.40959,0.49558,0.02948,0.37161,0.92169,0.20018,0.36644,0.92012,-0.08266,0.36191,1.43828,0.25759,0.37702,1.45041,-0.11848,0.50058,1.18294,0.31391,0.51052,1.21192,-0.04217,0.59023,1.42073,0.19454,0.58242,1.43099
489,0.07786,0.39502,1.52388,-0.00871,0.45423,0.07846,0.29129,0.16139,0.16602,0.01238,0.45445,0.49466,0.27472,0.41233,0.49634,0.02858,0.37253,0.92176,0.19929,0.36767,0.92054,-0.08369,0.36359,1.43863,0.25634,0.37816,1.45091,-0.11936,0.50198,1.18312,0.31297,0.5119,1.21262,-0.04261,0.59209,1.42059,0.19329,0.5837,1.43156
490,0.07692,0.39633,1.52409,-0.00875,0.45467,0.07829,0.29232,0.16327,0.1671,0.01179,0.45422,0.49452,0.27492,0.41455,0.49711,0.02771,0.37344,0.92184,0.19843,0.36876,0.92101,-0.08477,0.36543,1.43899,0.25524,0.37904,1.45144,-0.12016,0.50299,1.18299,0.31217,0.51306,1.21339,-0.04318,0.59349,1.42023,0.19225,0.58521,1.43208
491,0.07591,0.3977,1.52424,-0.00879,0.45486,0.07816,0.29307,0.16478,0.16795,0.01128,0.45368,0.4944,0.27522,0.41638,0.49771,0.02686,0.37416,0.92197,0.19759,0.36967,0.9213,-0.08576,0.36702,1.43907,0.25435,0.38004,1.45176,-0.1208,0.50372,1.18257,0.31112,0.51457,1.21395,-0.04427,0.59427,1.41995,0.19127,0.5868,1.43265
492,0.07493,0.39908,1.52432,-0.00877,0.45458,0.07806,0.29353,0.16588,0.16862,0.01074,0.45305,0.49433,0.27555,0.41798,0.49798,0.02611,0.37474,0.92213,0.19684,0.37048,0.92128,-0.08641,0.36807,1.43881,0.25369,0.38136,1.45172,-0.12141,0.50426,1.18203,0.30961,0.51669,1.21417,-0.04622,0.59449,1.41995,0.19023,0.58836,1.43331
493,0.07398,0.40033,1.52438,-0.00871,0.45399,0.07799,0.29372,0.16663,0.16916,0.01005,0.45259,0.4943,0.27579,0.41941,0.49801,0.0255,0.37532,0.92228,0.19623,0.37134,0.92109,-0.08666,0.3687,1.43845,0.25313,0.38286,1.45148,-0.12215,0.50451,1.18154,0.30785,0.51911,1.21417,-0.04855,0.59454,1.42003,0.18915,0.58988,1.43397
494,0.07301,0.40133,1.52443,-0.00874,0.4535,0.07797,0.29364,0.16719,0.16964,0.00918,0.45235,0.49432,0.27586,0.42056,0.49804,0.02503,0.37596,0.92245,0.19577,0.3723,0.92099,-0.08683,0.36927,1.43832,0.25264,0.38432,1.45137,-0.1229,0.50452,1.18119,0.30642,0.52121,1.21422,-0.05025,0.59496,1.41982,0.18812,0.59139,1.43443
495,0.07205,0.40206,1.52445,-0.00888,0.45335,0.07801,0.29336,0.16766,0.16998,0.00831,0.45213,0.49439,0.27584,0.42128,0.4982,0.02465,0.37662,0.92265,0.19539,0.37329,0.92112,-0.0874,0.37007,1.43848,0.25223,0.38553,1.45157,-0.12342,0.50458,1.18096,0.3057,0.5227,1.21451,-0.05082,0.59614,1.41918,0.18721,0.59296,1.43458
496,0.07115,0.40267,1.52438,-0.00898,0.45338,0.07809,0.293,0.16801,0.17005,0.00775,0.45184,0.49448,0.27578,0.42138,0.49848,0.02432,0.37722,0.9229,0.19508,0.37418,0.92144,-0.08855,0.37098,1.43874,0.25193,0.38647,1.45194,-0.12364,0.50488,1.18077,0.30565,0.52376,1.215,-0.05074,0.59791,1.41832,0.18643,0.59456,1.43451
497,0.07029,0.40333,1.52428,-0.00884,0.4534,0.07815,0.29255,0.16819,0.16969,0.00761,0.45162,0.49455,0.27564,0.42084,0.49868,0.02403,0.37775,0.9231,0.19479,0.37489,0.92175,-0.08994,0.37162,1.43884,0.25171,0.38724,1.45223,-0.12368,0.50524,1.18055,0.3059,0.52476,1.21553,-0.05093,0.59965,1.4176,0.18581,0.59611,1.43439
498,0.06959,0.40411,1.52423,-0.00848,0.45342,0.07815,0.29195,0.16814,0.16885,0.00773,0.45167,0.49457,0.27528,0.41983,0.4986,0.02372,0.37821,0.92321,0.19448,0.37545,0.92184,-0.09094,0.37173,1.4386,0.25164,0.38802,1.45233,-0.12365,0.50531,1.18016,0.30612,0.52593,1.21593,-0.05207,0.60074,1.41716,0.18546,0.5976,1.43436
499,0.06912,0.40499,1.52428,-0.00821,0.45352,0.07813,0.29119,0.16789,0.16765,0.00781,0.45197,0.49456,0.27468,0.41861,0.49813,0.0234,0.37869,0.92324,0.19415,0.37597,0.92161,-0.091,0.37139,1.43793,0.25164,0.38886,1.45229,-0.12357,0.505,1.17948,0.30615,0.52729,1.2162,-0.05412,0.60092,1.41691,0.18549,0.59918,1.43456
500,0.06877,0.40588,1.52436,-0.00831,0.45354,0.07815,0.29039,0.16753,0.16625,0.00769,0.45237,0.49458,0.27403,0.41733,0.49745,0.02311,0.37926,0.92329,0.19386,0.37645,0.92117,-0.09007,0.37094,1.43697,0.25149,0.38972,1.45225,-0.12348,0.50447,1.17859,0.30603,0.52863,1.21645,-0.05621,0.60056,1.41658,0.1858,0.60078,1.43497
501,0.06835,0.40667,1.52441,-0.0087,0.45329,0.07823,0.28965,0.16721,0.16473,0.00746,0.45272,0.49465,0.27351,0.41591,0.49676,0.02292,0.3799,0.92342,0.19366,0.37685,0.92072,-0.08874,0.37072,1.43609,0.25105,0.39057,1.45229,-0.12342,0.50385,1.17766,0.30585,0.5297,1.21667,-0.05752,0.60023,1.41592,0.18615,0.60204,1.43542
502,0.06796,0.40725,1.52441,-0.00899,0.45283,0.0783,0.28889,0.16685,0.16304,0.00728,0.45301,0.49472,0.27309,0.41415,0.49613,0.02282,0.38047,0.92353,0.19354,0.37708,0.92032,-0.08776,0.37082,1.43556,0.25045,0.39149,1.45231,-0.12343,0.50305,1.17681,0.30565,0.53053,1.21675,-0.05819,0.60009,1.41498,0.1864,0.60275,1.43578
503,0.06773,0.40752,1.52438,-0.00903,0.45243,0.07831,0.28786,0.16622,0.16113,0.00714,0.45323,0.49473,0.27253,0.41191,0.49543,0.02276,0.38082,0.92356,0.19346,0.37704,0.91989,-0.08741,0.37104,1.4354,0.25017,0.39255,1.45226,-0.12348,0.50197,1.17605,0.3054,0.53138,1.21658,-0.05881,0.59972,1.41409,0.18659,0.60316,1.43599
504,0.06764,0.40747,1.52435,-0.00904,0.45231,0.07829,0.28636,0.16519,0.15904,0.00687,0.4533,0.49471,0.27162,0.40918,0.49462,0.02268,0.38096,0.92355,0.19336,0.37669,0.91942,-0.08731,0.3711,1.43543,0.25052,0.39372,1.45209,-0.12352,0.50067,1.17542,0.30511,0.53245,1.2162,-0.05961,0.59889,1.41347,0.18671,0.60361,1.43603
505,0.06752,0.40726,1.52427,-0.0093,0.45248,0.07828,0.28455,0.16397,0.15685,0.00642,0.4532,0.49472,0.27038,0.40606,0.49383,0.02262,0.38105,0.92357,0.19327,0.37616,0.91903,-0.08702,0.37099,1.43541,0.25128,0.39482,1.45183,-0.12353,0.49933,1.17482,0.30486,0.53367,1.21578,-0.06038,0.59784,1.41295,0.18667,0.60412,1.43596
506,0.06735,0.40728,1.5241,-0.00973,0.4527,0.07831,0.28275,0.1629,0.1546,0.00606,0.45309,0.49474,0.26901,0.40281,0.49314,0.02267,0.38122,0.92362,0.1933,0.37569,0.91878,-0.08652,0.37085,1.43505,0.25194,0.39564,1.45156,-0.12344,0.49809,1.17399,0.30482,0.53485,1.21556,-0.06115,0.59686,1.41225,0.18654,0.60453,1.43593
507,0.06731,0.4078,1.5238,-0.01006,0.4527,0.07834,0.28112,0.16211,0.15227,0.00601,0.45319,0.49476,0.26773,0.39965,0.4925,0.02286,0.38154,0.92367,0.19346,0.37545,0.91857,-0.08598,0.37075,1.43431,0.25231,0.39609,1.45147,-0.12317,0.49694,1.17277,0.30526,0.53567,1.21571,-0.0621,0.59603,1.4112,0.18658,0.60478,1.43604
508,0.06763,0.40866,1.5234,-0.01016,0.45244,0.07837,0.27953,0.16147,0.14982,0.00617,0.45352,0.49478,0.26656,0.39653,0.49178,0.02312,0.38197,0.9237,0.19369,0.37543,0.91826,-0.08551,0.37063,1.43347,0.2526,0.39637,1.45171,-0.12282,0.49558,1.17136,0.30622,0.53602,1.21613,-0.06313,0.5953,1.40988,0.187,0.60497,1.43622
509,0.06833,0.40937,1.523,-0.01007,0.45217,0.07838,0.27781,0.16075,0.14728,0.00637,0.45403,0.49479,0.26538,0.39325,0.491,0.02344,0.38236,0.92368,0.19399,0.37554,0.91788,-0.08498,0.3704,1.43292,0.25302,0.39678,1.45209,-0.12252,0.49385,1.17012,0.30741,0.53621,1.21656,-0.06396,0.59476,1.40843,0.18767,0.60511,1.43639
510,0.06925,0.40946,1.52269,-0.00994,0.45206,0.07834,0.27579,0.15979,0.14478,0.00664,0.45481,0.49473,0.26413,0.38981,0.49019,0.02386,0.38254,0.92352,0.1944,0.37563,0.91748,-0.08421,0.37003,1.43262,0.25365,0.3974,1.45218,-0.12224,0.49193,1.16917,0.30831,0.53685,1.21673,-0.06458,0.59445,1.40701,0.18828,0.60519,1.43658
511,0.07011,0.40901,1.52241,-0.00984,0.45197,0.07825,0.27338,0.15851,0.14249,0.0072,0.45598,0.49462,0.26283,0.38639,0.48936,0.02436,0.38242,0.92319,0.19489,0.37555,0.91703,-0.0831,0.36946,1.43218,0.25458,0.39807,1.45159,-0.1219,0.49014,1.16829,0.30852,0.53843,1.21652,-0.06523,0.59412,1.40573,0.1887,0.60529,1.43693
512,0.07082,0.40837,1.52198,-0.00981,0.45173,0.07817,0.27061,0.15689,0.14044,0.00809,0.45735,0.49448,0.26152,0.38295,0.48853,0.02487,0.38209,0.92277,0.1954,0.3752,0.91656,-0.08162,0.36855,1.43134,0.25587,0.39867,1.45034,-0.12152,0.48848,1.16727,0.30803,0.54077,1.21591,-0.06624,0.59328,1.40467,0.18901,0.60543,1.43741
513,0.07154,0.40784,1.52131,-0.00989,0.4514,0.07808,0.26766,0.15492,0.13848,0.00911,0.45848,0.49432,0.26024,0.37919,0.48778,0.02535,0.38175,0.92237,0.19587,0.37459,0.91611,-0.07975,0.36721,1.43017,0.25735,0.39916,1.4489,-0.12112,0.48669,1.16611,0.30736,0.5431,1.21512,-0.06773,0.59159,1.40391,0.18937,0.60547,1.43783
514,0.07256,0.40743,1.52047,-0.01019,0.4512,0.07795,0.26476,0.15263,0.13647,0.00995,0.45912,0.49412,0.25898,0.37495,0.48703,0.02577,0.38154,0.92204,0.19626,0.37377,0.91564,-0.07761,0.36559,1.42891,0.25876,0.39952,1.44777,-0.12048,0.48474,1.16495,0.3072,0.54473,1.21445,-0.06932,0.58932,1.40338,0.18992,0.60525,1.43804
515,0.07396,0.4071,1.51958,-0.01069,0.45115,0.07785,0.2621,0.15016,0.13436,0.01046,0.45947,0.49396,0.25771,0.37055,0.48617,0.02608,0.38149,0.92182,0.19652,0.37284,0.91498,-0.07542,0.36403,1.42776,0.26007,0.39977,1.44712,-0.11939,0.48298,1.16389,0.30792,0.5456,1.21406,-0.07015,0.58729,1.40284,0.1907,0.6048,1.43804
516,0.07555,0.40671,1.51876,-0.01129,0.45109,0.07792,0.2597,0.14783,0.13219,0.01076,0.45996,0.49398,0.2564,0.3665,0.48507,0.02636,0.38157,0.92175,0.1967,0.37197,0.91407,-0.07339,0.36272,1.42685,0.26137,0.39992,1.44677,-0.11794,0.48156,1.16303,0.3095,0.54597,1.2139,-0.06967,0.58597,1.40213,0.19166,0.60442,1.43775
517,0.07714,0.40613,1.51807,-0.01189,0.45101,0.07815,0.25742,0.14596,0.12995,0.01112,0.46084,0.49413,0.25513,0.3631,0.48378,0.02675,0.38175,0.92178,0.19699,0.3713,0.91295,-0.07144,0.36161,1.42612,0.2627,0.39988,1.4464,-0.11641,0.4802,1.16226,0.31177,0.54607,1.21383,-0.06851,0.58491,1.4013,0.19281,0.60434,1.43713
518,0.07867,0.40548,1.51744,-0.01239,0.45108,0.07838,0.25512,0.14457,0.12759,0.0117,0.46202,0.49427,0.25401,0.36018,0.48237,0.0274,0.38196,0.92174,0.19752,0.37083,0.91171,-0.06944,0.36063,1.42542,0.26407,0.39951,1.44591,-0.11501,0.47851,1.16135,0.31452,0.54589,1.21374,-0.06794,0.58314,1.40059,0.19424,0.60441,1.43627
519,0.08025,0.40505,1.51666,-0.01275,0.45138,0.07847,0.25284,0.14342,0.12509,0.01239,0.46319,0.49428,0.25307,0.35723,0.48096,0.02826,0.38208,0.92154,0.19829,0.3704,0.91045,-0.06733,0.35964,1.42466,0.26545,0.39893,1.44542,-0.11375,0.47641,1.16023,0.31741,0.54535,1.21363,-0.06865,0.58007,1.40028,0.19591,0.60424,1.43539
520,0.08192,0.40479,1.51565,-0.01298,0.45182,0.07839,0.25063,0.14227,0.12248,0.01309,0.46415,0.49412,0.25221,0.35389,0.47965,0.02922,0.38208,0.92119,0.19914,0.36981,0.90926,-0.06511,0.35837,1.42379,0.26674,0.3984,1.4451,-0.11261,0.4741,1.15911,0.31997,0.54463,1.21346,-0.07031,0.5758,1.40049,0.19759,0.60375,1.43469
521,0.08373,0.40429,1.51458,-0.01305,0.45221,0.07823,0.24846,0.14108,0.11985,0.01377,0.46492,0.4939,0.25134,0.35023,0.47847,0.03015,0.38199,0.92079,0.19998,0.36903,0.90817,-0.0627,0.35674,1.42287,0.26791,0.39802,1.44485,-0.11155,0.47177,1.15812,0.32189,0.54403,1.21326,-0.07187,0.5711,1.40094,0.19914,0.60319,1.43426
522,0.08566,0.40333,1.51365,-0.01282,0.45241,0.07819,0.24631,0.13994,0.1173,0.01442,0.46579,0.49381,0.25047,0.34647,0.47741,0.03104,0.38183,0.9205,0.20076,0.36819,0.90717,-0.06013,0.35508,1.42196,0.26911,0.39758,1.44448,-0.11056,0.46949,1.15724,0.32329,0.5437,1.213,-0.07249,0.56693,1.40108,0.20065,0.60269,1.43411
523,0.0877,0.4019,1.51297,-0.01232,0.4524,0.07842,0.24425,0.13892,0.11486,0.01499,0.46705,0.494,0.24971,0.34274,0.4765,0.03188,0.38158,0.92037,0.20148,0.36736,0.90627,-0.05759,0.35386,1.42103,0.27064,0.39675,1.44392,-0.10967,0.46735,1.15623,0.32461,0.54349,1.21278,-0.07207,0.56394,1.40048,0.20227,0.60214,1.43414
524,0.08976,0.40008,1.51241,-0.01182,0.4523,0.07887,0.24232,0.13798,0.11248,0.01551,0.46887,0.49437,0.24914,0.33906,0.47563,0.0327,0.38126,0.92029,0.20218,0.3664,0.90538,-0.05523,0.3532,1.41999,0.2726,0.39537,1.44332,-0.109,0.46535,1.15496,0.32625,0.54306,1.21271,-0.07103,0.56214,1.39907,0.20407,0.60147,1.43423
525,0.09171,0.39808,1.51177,-0.01158,0.45234,0.07934,0.24051,0.1371,0.11005,0.01616,0.47111,0.49473,0.24883,0.33541,0.47468,0.03354,0.38099,0.92012,0.20287,0.36528,0.90437,-0.05302,0.35279,1.41882,0.27484,0.39351,1.4428,-0.10877,0.46335,1.15353,0.32851,0.54207,1.21276,-0.06987,0.5609,1.3972,0.20623,0.60069,1.43417
526,0.09363,0.39621,1.51098,-0.01162,0.45257,0.07966,0.23891,0.13623,0.10758,0.01709,0.47335,0.49488,0.24879,0.33178,0.47367,0.03444,0.38095,0.91979,0.20359,0.36417,0.90326,-0.05085,0.35224,1.41775,0.27717,0.39143,1.44214,-0.10907,0.46111,1.1523,0.33138,0.54052,1.21257,-0.06905,0.55926,1.39554,0.20899,0.59975,1.43376
527,0.09581,0.39465,1.51016,-0.01171,0.45279,0.07974,0.23773,0.13532,0.10519,0.01816,0.47538,0.49479,0.24888,0.32801,0.47275,0.0354,0.38118,0.9193,0.20438,0.36323,0.90219,-0.04861,0.35139,1.4171,0.2796,0.38928,1.44104,-0.10973,0.45845,1.15156,0.33449,0.53881,1.2119,-0.06868,0.55685,1.39453,0.21231,0.59858,1.43306
528,0.09856,0.39327,1.50953,-0.01161,0.45274,0.07963,0.23714,0.13421,0.10293,0.01909,0.47742,0.49449,0.24892,0.3239,0.47204,0.03642,0.38154,0.91863,0.20524,0.36244,0.90127,-0.04614,0.3503,1.41691,0.28234,0.38719,1.43951,-0.11049,0.45534,1.15133,0.33713,0.53742,1.21082,-0.06838,0.55432,1.39388,0.21578,0.59724,1.43242
529,0.10192,0.39185,1.5091,-0.01128,0.45244,0.07942,0.23709,0.13282,0.10078,0.01984,0.47988,0.49409,0.24879,0.31931,0.47151,0.03744,0.38188,0.91772,0.20615,0.36164,0.9005,-0.04344,0.34916,1.41686,0.28547,0.38521,1.43789,-0.11121,0.45201,1.15127,0.33894,0.53651,1.20959,-0.06768,0.55245,1.39297,0.21905,0.59567,1.43215
530,0.1056,0.39022,1.5087,-0.01077,0.45222,0.07928,0.23737,0.1312,0.09867,0.02067,0.48292,0.49369,0.24865,0.31435,0.47107,0.03848,0.38222,0.91669,0.20705,0.36063,0.89975,-0.04068,0.34821,1.41654,0.28873,0.38325,1.43641,-0.11214,0.44893,1.1511,0.34038,0.53563,1.20841,-0.06645,0.55137,1.39156,0.22226,0.59368,1.43221
531,0.10924,0.38839,1.5082,-0.01022,0.45244,0.07938,0.23785,0.1295,0.09656,0.02179,0.48643,0.49349,0.24875,0.30939,0.47057,0.03957,0.38274,0.91576,0.20789,0.35931,0.89891,-0.03791,0.34749,1.41598,0.29176,0.38116,1.43509,-0.11375,0.44656,1.15114,0.34235,0.53401,1.20717,-0.06488,0.55059,1.39028,0.22594,0.5911,1.43212
532,0.11265,0.38654,1.50768,-0.00977,0.45315,0.07988,0.23858,0.12778,0.09452,0.02319,0.49037,0.49363,0.24922,0.30465,0.46997,0.04067,0.38349,0.91512,0.20862,0.35763,0.89796,-0.0351,0.34671,1.41557,0.29455,0.37891,1.43385,-0.11639,0.44494,1.15203,0.34515,0.53131,1.20562,-0.06338,0.54949,1.39006,0.23022,0.588,1.43142
533,0.11597,0.38494,1.50729,-0.00958,0.45412,0.0808,0.23963,0.12593,0.09264,0.02471,0.49485,0.49412,0.2501,0.29991,0.46944,0.04174,0.3843,0.91468,0.20918,0.35565,0.89705,-0.03225,0.34575,1.41563,0.29748,0.37652,1.43262,-0.12008,0.44357,1.15405,0.34812,0.52785,1.20369,-0.06225,0.54782,1.39109,0.2347,0.58486,1.43017
534,0.1194,0.38368,1.50701,-0.00964,0.45518,0.08203,0.24088,0.12385,0.09094,0.02628,0.50002,0.49479,0.25132,0.29468,0.46918,0.04277,0.38506,0.91418,0.20966,0.35351,0.89631,-0.02934,0.34492,1.41614,0.30086,0.37385,1.43145,-0.12466,0.44192,1.15689,0.35054,0.52409,1.2016,-0.0616,0.54584,1.39274,0.23907,0.58207,1.42881
535,0.12317,0.38245,1.50681,-0.0098,0.45634,0.0835,0.24208,0.12158,0.08938,0.02795,0.50601,0.49554,0.25256,0.28874,0.46925,0.04385,0.38577,0.91348,0.21019,0.35134,0.89577,-0.02626,0.34463,1.41692,0.30463,0.37076,1.4304,-0.12999,0.44012,1.16034,0.35252,0.52009,1.19957,-0.06131,0.54392,1.39467,0.24363,0.57953,1.42765
536,0.12743,0.38072,1.5068,-0.01001,0.45772,0.08545,0.24304,0.11923,0.08801,0.02981,0.51296,0.49658,0.25339,0.28248,0.46958,0.04498,0.38641,0.91268,0.21075,0.34912,0.89547,-0.02294,0.34497,1.41797,0.30847,0.36724,1.42938,-0.13596,0.43878,1.16472,0.35484,0.51568,1.19768,-0.06069,0.54239,1.3971,0.24883,0.57684,1.42666
537,0.13216,0.3783,1.50713,-0.01033,0.4595,0.08829,0.24366,0.11698,0.08693,0.03177,0.52108,0.49829,0.2535,0.27647,0.47011,0.04603,0.3869,0.91202,0.21121,0.34677,0.89544,-0.01959,0.34568,1.41964,0.312,0.36331,1.42838,-0.14247,0.43858,1.17069,0.358,0.51068,1.19592,-0.0586,0.54192,1.40023,0.25455,0.57377,1.42554
538,0.13718,0.37563,1.50778,-0.01073,0.46193,0.0923,0.24385,0.11505,0.08613,0.03372,0.5305,0.50094,0.25297,0.27074,0.47088,0.04688,0.38725,0.91166,0.21138,0.34419,0.89575,-0.01658,0.34654,1.42227,0.31507,0.35893,1.42752,-0.14934,0.44002,1.17866,0.36188,0.50497,1.19438,-0.0545,0.54318,1.40397,0.26013,0.57028,1.42415
539,0.14244,0.37336,1.50855,-0.01102,0.46523,0.09744,0.24364,0.1136,0.08542,0.03574,0.54091,0.50457,0.25206,0.26494,0.47192,0.0475,0.3875,0.91165,0.21122,0.34135,0.89633,-0.01426,0.34759,1.42582,0.31778,0.35405,1.42689,-0.15648,0.44325,1.18847,0.36617,0.49849,1.19308,-0.04912,0.54588,1.40833,0.26534,0.56635,1.42251
540,0.14797,0.37188,1.50923,-0.01116,0.46951,0.1034,0.24324,0.11257,0.08469,0.03793,0.55168,0.50899,0.25098,0.25899,0.4731,0.04801,0.38767,0.91195,0.2108,0.33824,0.89706,-0.01274,0.34918,1.43006,0.32033,0.34876,1.42631,-0.16398,0.44804,1.1997,0.37057,0.49132,1.19174,-0.04362,0.54899,1.41353,0.27058,0.56207,1.42067
541,0.15363,0.3711,1.50975,-0.01142,0.47461,0.10976,0.243,0.11178,0.08398,0.04025,0.56233,0.51387,0.24987,0.25321,0.47425,0.04852,0.38781,0.91244,0.21023,0.33488,0.8978,-0.01162,0.35158,1.43478,0.32276,0.34343,1.42558,-0.1719,0.4541,1.21228,0.37466,0.48363,1.18995,-0.03821,0.55172,1.41964,0.27629,0.55757,1.41857
542,0.15906,0.37062,1.51023,-0.01213,0.48025,0.1163,0.24306,0.11113,0.08338,0.04263,0.57281,0.51891,0.24873,0.24796,0.4753,0.04902,0.38804,0.91287,0.2095,0.33139,0.89855,-0.01031,0.35467,1.43974,0.32498,0.33842,1.42466,-0.18007,0.46146,1.22646,0.37808,0.4757,1.18758,-0.03219,0.55369,1.42652,0.28243,0.55271,1.41634
543,0.16402,0.36992,1.51081,-0.0134,0.48603,0.12295,0.24322,0.11071,0.08293,0.04512,0.58307,0.52398,0.24758,0.2434,0.47629,0.04941,0.38845,0.9132,0.20852,0.32797,0.89932,-0.00855,0.35816,1.44463,0.32686,0.33371,1.4237,-0.18799,0.47042,1.24237,0.38075,0.46773,1.18494,-0.0251,0.55469,1.43411,0.28868,0.54714,1.41435
544,0.16848,0.36873,1.51154,-0.01513,0.49165,0.12963,0.24329,0.11058,0.08263,0.04766,0.59264,0.52904,0.24651,0.23953,0.47724,0.04971,0.38904,0.91365,0.20732,0.32467,0.90015,-0.00647,0.36221,1.44932,0.32833,0.32882,1.4228,-0.19513,0.48145,1.25986,0.38281,0.45993,1.18257,-0.01703,0.555,1.44226,0.29467,0.54089,1.41298
545,0.17243,0.36718,1.51233,-0.01709,0.49694,0.13605,0.24322,0.11068,0.08251,0.05003,0.60099,0.53396,0.2456,0.23626,0.47821,0.05005,0.38971,0.91442,0.20599,0.32136,0.90109,-0.00421,0.36727,1.45394,0.32927,0.32336,1.42195,-0.20112,0.49509,1.27902,0.38445,0.4525,1.18081,-0.00767,0.55572,1.4502,0.30025,0.53452,1.41231
546,0.17593,0.36579,1.51308,-0.01911,0.50199,0.14198,0.24307,0.11086,0.08256,0.05215,0.60795,0.53866,0.2448,0.23337,0.47923,0.05041,0.39034,0.91553,0.20449,0.3179,0.90216,-0.00173,0.37343,1.45879,0.32944,0.31725,1.42092,-0.20529,0.51177,1.30026,0.38594,0.44545,1.17958,0.00379,0.55828,1.45686,0.30559,0.52844,1.4121
547,0.17911,0.36499,1.51378,-0.02106,0.50702,0.14738,0.24286,0.11104,0.08276,0.05418,0.61366,0.54314,0.24394,0.23073,0.48029,0.05056,0.39083,0.91693,0.20263,0.3143,0.90331,0.00109,0.38,1.4641,0.32863,0.31067,1.41936,-0.20638,0.53141,1.3236,0.38733,0.43859,1.1784,0.01781,0.56343,1.46185,0.31103,0.52259,1.41192
548,0.18207,0.36474,1.51444,-0.02297,0.51207,0.15236,0.24256,0.11113,0.08302,0.05629,0.61832,0.54745,0.24274,0.22837,0.48129,0.0503,0.39106,0.91852,0.20031,0.31065,0.90445,0.00423,0.38596,1.4699,0.32688,0.3039,1.4172,-0.20289,0.55312,1.34796,0.38846,0.43172,1.1769,0.03416,0.57083,1.46584,0.31664,0.51683,1.41144
549,0.18475,0.3647,1.51495,-0.02496,0.51698,0.15695,0.24216,0.1112,0.0833,0.05834,0.62206,0.55152,0.2411,0.22645,0.48214,0.04966,0.39092,0.92014,0.19775,0.30712,0.90552,0.00732,0.39074,1.47609,0.32445,0.29735,1.4149,-0.19437,0.57557,1.37184,0.38929,0.42459,1.17516,0.0521,0.57922,1.47002,0.3221,0.51124,1.4105
550,0.18701,0.36458,1.51512,-0.02711,0.52176,0.16095,0.24171,0.1113,0.08361,0.06013,0.62495,0.55516,0.2392,0.22513,0.48285,0.04872,0.39034,0.92151,0.19519,0.30379,0.90654,0.00965,0.39472,1.48241,0.32161,0.29128,1.41324,-0.18189,0.59798,1.39461,0.38995,0.41687,1.1736,0.07074,0.58733,1.475,0.32711,0.50592,1.40924
551,0.18868,0.36431,1.51493,-0.02912,0.52663,0.16397,0.24135,0.11143,0.084,0.06168,0.62712,0.55808,0.23745,0.22452,0.48344,0.04751,0.38941,0.92233,0.19266,0.30064,0.90751,0.01096,0.39932,1.4884,0.31843,0.28571,1.41257,-0.16703,0.62041,1.41666,0.39045,0.40851,1.17256,0.08933,0.59478,1.48009,0.33189,0.50061,1.40814
552,0.1897,0.36388,1.51457,-0.03045,0.53179,0.1656,0.24114,0.11159,0.08453,0.063,0.62858,0.56002,0.2362,0.22471,0.48395,0.04611,0.38842,0.92253,0.19006,0.2976,0.90844,0.01196,0.40609,1.49375,0.31483,0.28031,1.41243,-0.15066,0.64317,1.43844,0.3905,0.39989,1.17192,0.10749,0.60224,1.48404,0.33723,0.49482,1.40763
553,0.19034,0.36335,1.51416,-0.03078,0.53736,0.16561,0.24099,0.11197,0.0852,0.06392,0.62923,0.56091,0.2355,0.22571,0.48444,0.04474,0.38767,0.92238,0.18737,0.29463,0.90937,0.0139,0.41581,1.49858,0.31059,0.27464,1.41193,-0.13278,0.66618,1.45973,0.38962,0.39124,1.17104,0.12523,0.61025,1.48626,0.34374,0.48822,1.40748
554,0.19084,0.36283,1.51355,-0.03032,0.54338,0.16419,0.24059,0.11286,0.08588,0.06426,0.62908,0.5609,0.23514,0.22746,0.48487,0.04357,0.38734,0.92217,0.18457,0.29171,0.91025,0.0178,0.42801,1.50316,0.3056,0.26851,1.41056,-0.11275,0.68901,1.47991,0.38752,0.3825,1.16938,0.14278,0.61779,1.48573,0.35097,0.48079,1.4069
555,0.1912,0.36254,1.51246,-0.02957,0.54951,0.16203,0.2397,0.11429,0.08634,0.06421,0.62841,0.56033,0.23492,0.22974,0.4851,0.04254,0.38734,0.922,0.18155,0.28875,0.9109,0.02388,0.44127,1.50745,0.30001,0.26222,1.40852,-0.08933,0.7111,1.49844,0.38439,0.37373,1.16704,0.16011,0.62249,1.48036,0.35745,0.47284,1.40549
556,0.19134,0.3627,1.51077,-0.02901,0.55486,0.15995,0.23839,0.11588,0.08648,0.06428,0.62754,0.55955,0.2348,0.23204,0.48504,0.04141,0.38743,0.92178,0.17822,0.28576,0.91113,0.03148,0.45399,1.51106,0.29402,0.25629,1.40641,-0.06139,0.73161,1.51476,0.38092,0.36526,1.16466,0.17624,0.62255,1.46957,0.36208,0.46516,1.40356
557,0.19144,0.36345,1.50853,-0.02886,0.55849,0.15845,0.23697,0.11713,0.08637,0.06488,0.62663,0.55875,0.2348,0.23389,0.48476,0.04003,0.38739,0.92141,0.17469,0.28287,0.91094,0.03961,0.46516,1.51367,0.2875,0.25116,1.40473,-0.02951,0.74929,1.52807,0.37766,0.35731,1.16292,0.18988,0.61845,1.45629,0.36507,0.45849,1.4017
558,0.19176,0.36474,1.50586,-0.02913,0.56007,0.15745,0.23561,0.11789,0.08607,0.06588,0.62561,0.55788,0.23482,0.23511,0.48433,0.03839,0.38717,0.92089,0.17122,0.28032,0.91042,0.04761,0.47448,1.51524,0.28012,0.24715,1.40365,0.00356,0.76304,1.53768,0.37463,0.34973,1.16195,0.2013,0.61257,1.44462,0.36735,0.4525,1.40027
559,0.1922,0.36645,1.50282,-0.02969,0.55998,0.15652,0.23424,0.11831,0.08557,0.06678,0.62434,0.55679,0.23471,0.23578,0.48376,0.0365,0.38687,0.92021,0.16781,0.27818,0.90962,0.05525,0.48198,1.51571,0.27197,0.24434,1.40298,0.03511,0.77272,1.54344,0.3714,0.34197,1.16121,0.2124,0.60674,1.43659,0.36939,0.44601,1.39909
560,0.19226,0.36839,1.49956,-0.03019,0.55878,0.15525,0.23291,0.11848,0.08486,0.06717,0.62291,0.55535,0.2344,0.23607,0.48302,0.03432,0.38668,0.91935,0.16427,0.27638,0.90857,0.06237,0.48796,1.5148,0.26371,0.24239,1.40226,0.06474,0.7791,1.54548,0.36758,0.33357,1.15983,0.22533,0.60106,1.43184,0.37089,0.43828,1.39739
561,0.19162,0.37023,1.49629,-0.03039,0.55695,0.15367,0.23186,0.11831,0.08403,0.06698,0.62172,0.55366,0.23389,0.23616,0.48211,0.03191,0.38662,0.91818,0.16059,0.27486,0.90727,0.06868,0.4931,1.5124,0.25638,0.24071,1.40102,0.09396,0.78305,1.54397,0.36325,0.32459,1.15727,0.24118,0.59467,1.42891,0.37142,0.42968,1.39454
562,0.19061,0.37162,1.49321,-0.03052,0.55505,0.15224,0.23136,0.11772,0.08313,0.06649,0.6212,0.55209,0.23314,0.23611,0.48104,0.0294,0.38657,0.91672,0.15704,0.27361,0.90582,0.07391,0.49816,1.50896,0.25078,0.23884,1.3992,0.12359,0.78506,1.53939,0.35883,0.31576,1.15368,0.25918,0.58698,1.42635,0.37113,0.42111,1.39066
563,0.19003,0.37254,1.49033,-0.031,0.55379,0.15142,0.23135,0.11675,0.08219,0.06602,0.62154,0.551,0.23199,0.23576,0.47992,0.02692,0.38647,0.91514,0.15372,0.27256,0.90437,0.07817,0.50354,1.50515,0.24696,0.23669,1.39716,0.15241,0.78543,1.53232,0.35449,0.30781,1.14968,0.27704,0.57797,1.42356,0.37081,0.41317,1.38641
564,0.19049,0.3732,1.48754,-0.03179,0.55356,0.15118,0.23142,0.11551,0.0813,0.06568,0.62259,0.55043,0.23045,0.2348,0.47895,0.02455,0.38645,0.91365,0.15047,0.27156,0.90308,0.08203,0.50918,1.50113,0.24412,0.23447,1.39525,0.17837,0.78477,1.523,0.35013,0.30087,1.1458,0.29238,0.5681,1.42075,0.37111,0.40599,1.38227
565,0.19205,0.37377,1.48478,-0.03252,0.5542,0.15111,0.23126,0.11417,0.0806,0.06545,0.62409,0.55009,0.22874,0.23323,0.47831,0.02239,0.38668,0.91225,0.14718,0.27052,0.9021,0.08605,0.51474,1.49669,0.24137,0.23258,1.39355,0.20026,0.7839,1.51148,0.34565,0.2946,1.14225,0.30452,0.55845,1.41818,0.37189,0.39943,1.37833
566,0.1942,0.3743,1.48215,-0.03299,0.55534,0.15102,0.23093,0.11301,0.08017,0.0653,0.62586,0.5498,0.2271,0.23147,0.47805,0.02046,0.38721,0.91093,0.14387,0.26953,0.90144,0.09039,0.51978,1.49197,0.23831,0.23126,1.39199,0.21802,0.78319,1.49822,0.341,0.28872,1.13895,0.31483,0.55033,1.41571,0.37237,0.39339,1.37447
567,0.19619,0.37484,1.47982,-0.03345,0.55686,0.15103,0.23078,0.11222,0.08005,0.06518,0.62781,0.54966,0.22552,0.23001,0.47811,0.01863,0.38802,0.90982,0.14059,0.26878,0.9011,0.09486,0.52398,1.48735,0.23507,0.23048,1.39055,0.23235,0.78243,1.48421,0.33615,0.2831,1.13582,0.32486,0.54417,1.41299,0.37219,0.3878,1.37066
568,0.19764,0.37555,1.47783,-0.03422,0.55887,0.15131,0.23088,0.11181,0.08017,0.06493,0.62988,0.5498,0.22399,0.22903,0.47838,0.01677,0.38902,0.90903,0.13735,0.26833,0.90097,0.09931,0.52737,1.48298,0.23204,0.22996,1.38944,0.24437,0.78136,1.47041,0.33117,0.27769,1.13299,0.33418,0.53917,1.40974,0.37186,0.38259,1.36697
569,0.19872,0.37641,1.47614,-0.03541,0.56134,0.15189,0.23092,0.11173,0.08042,0.06455,0.63203,0.55023,0.22256,0.22853,0.47872,0.01483,0.39,0.90847,0.13414,0.26803,0.90092,0.10369,0.53024,1.47882,0.22966,0.22945,1.38893,0.25481,0.78006,1.45737,0.32634,0.27266,1.13075,0.34129,0.5345,1.40617,0.37217,0.3778,1.36368
570,0.19985,0.37718,1.47477,-0.03688,0.56392,0.15274,0.23064,0.11188,0.08064,0.06419,0.63417,0.55089,0.22133,0.22854,0.47896,0.01288,0.39083,0.90801,0.13097,0.26766,0.90079,0.10776,0.53277,1.47502,0.22821,0.22879,1.38919,0.26342,0.77893,1.44527,0.32193,0.26817,1.12931,0.3457,0.53029,1.40275,0.37314,0.37361,1.36098
571,0.20124,0.37778,1.47367,-0.03835,0.56621,0.15379,0.23015,0.11212,0.08083,0.06399,0.63609,0.55167,0.22023,0.22893,0.4791,0.01111,0.39157,0.90776,0.12784,0.26711,0.90057,0.11112,0.53481,1.47187,0.22751,0.22794,1.39001,0.26974,0.77795,1.43406,0.31802,0.26401,1.12852,0.34766,0.52673,1.39923,0.37411,0.37025,1.35869
572,0.20283,0.37843,1.47269,-0.0396,0.56816,0.15479,0.22973,0.11233,0.08108,0.06388,0.63756,0.55246,0.21916,0.2294,0.47926,0.00961,0.39236,0.90787,0.12482,0.26651,0.9004,0.11349,0.53608,1.46939,0.22701,0.22706,1.39094,0.27425,0.77643,1.42363,0.3145,0.25986,1.12799,0.34697,0.52291,1.39462,0.37459,0.3678,1.35634
573,0.20439,0.37933,1.47161,-0.04053,0.57001,0.15554,0.22947,0.11253,0.08142,0.06366,0.63858,0.55317,0.2182,0.2298,0.47951,0.0083,0.39323,0.90831,0.12194,0.26599,0.90029,0.11497,0.53662,1.46737,0.22637,0.22652,1.39163,0.27804,0.77383,1.41397,0.31127,0.25571,1.12741,0.34339,0.51795,1.38839,0.37483,0.36612,1.35363
574,0.20579,0.38042,1.47037,-0.04118,0.57182,0.15608,0.22933,0.11282,0.08183,0.06327,0.63938,0.55382,0.21758,0.2303,0.47985,0.00701,0.39405,0.90882,0.11926,0.26562,0.90023,0.11618,0.53688,1.46562,0.22587,0.22654,1.3921,0.28154,0.77085,1.4054,0.30833,0.25194,1.12672,0.33825,0.51276,1.3814,0.37522,0.36478,1.35078
575,0.20706,0.38146,1.46907,-0.04154,0.57341,0.15657,0.22929,0.11333,0.08234,0.0628,0.64017,0.55446,0.21733,0.23122,0.48023,0.00568,0.39467,0.90922,0.11685,0.26533,0.9002,0.11784,0.53742,1.46419,0.22599,0.22698,1.39262,0.28413,0.76923,1.39843,0.3058,0.24888,1.12612,0.33435,0.50972,1.37533,0.3758,0.36329,1.34843
576,0.20836,0.38231,1.46787,-0.04155,0.5746,0.15706,0.22929,0.11408,0.08291,0.06233,0.64096,0.55514,0.21717,0.23268,0.48059,0.00438,0.39507,0.90949,0.11481,0.26512,0.90024,0.12023,0.53853,1.46316,0.22677,0.22761,1.39335,0.28514,0.77015,1.39339,0.30386,0.2466,1.12583,0.33379,0.51024,1.37154,0.37637,0.3616,1.34702
577,0.20969,0.38297,1.4669,-0.04134,0.57532,0.15743,0.22909,0.11493,0.08341,0.06175,0.64162,0.55574,0.21682,0.23445,0.4808,0.00321,0.39528,0.90967,0.11325,0.265,0.9003,0.12275,0.54006,1.46243,0.22785,0.2283,1.39417,0.2846,0.77301,1.38999,0.30269,0.24491,1.12585,0.33609,0.51345,1.37058,0.37684,0.36013,1.34638
578,0.21079,0.3836,1.46622,-0.04131,0.57553,0.15757,0.22861,0.11567,0.08369,0.06085,0.64205,0.55608,0.21625,0.23616,0.48078,0.00219,0.39529,0.90971,0.11216,0.26496,0.90027,0.12441,0.54165,1.46172,0.2289,0.22904,1.39479,0.28325,0.77615,1.38765,0.30235,0.24359,1.12597,0.33882,0.5172,1.37165,0.37732,0.35929,1.34598
579,0.21132,0.38439,1.46585,-0.04172,0.57527,0.15748,0.22806,0.11622,0.08372,0.05964,0.64217,0.55613,0.21565,0.23761,0.48054,0.00126,0.39509,0.90957,0.11141,0.26493,0.9001,0.12481,0.54301,1.46082,0.22991,0.22986,1.39502,0.28159,0.77867,1.38602,0.30273,0.24262,1.12593,0.34023,0.52024,1.37267,0.37787,0.359,1.34552
580,0.21125,0.38543,1.46571,-0.04243,0.5748,0.15723,0.22763,0.11662,0.08358,0.05841,0.64201,0.55595,0.21523,0.23879,0.48017,0.00039,0.39476,0.90934,0.11081,0.26482,0.89975,0.12444,0.54405,1.45979,0.23102,0.23071,1.39491,0.27956,0.78079,1.38495,0.30353,0.24207,1.12568,0.34077,0.52295,1.37184,0.37842,0.35895,1.34508
581,0.21107,0.38668,1.46558,-0.04312,0.5744,0.15688,0.22724,0.11687,0.08334,0.05737,0.64174,0.55567,0.21505,0.23978,0.4797,-0.00032,0.39443,0.90907,0.11023,0.26462,0.89926,0.12401,0.5448,1.45889,0.23223,0.23157,1.39465,0.27698,0.78298,1.3842,0.30443,0.24201,1.1253,0.3419,0.52616,1.36916,0.37895,0.35899,1.34479
582,0.21141,0.38797,1.46511,-0.0436,0.57404,0.15661,0.22682,0.11692,0.08303,0.05648,0.64163,0.55546,0.21503,0.24058,0.47916,-0.00081,0.39418,0.90883,0.10972,0.26439,0.89866,0.12392,0.54531,1.45825,0.23342,0.23257,1.39435,0.27405,0.78529,1.38352,0.3055,0.24241,1.12494,0.34397,0.52994,1.36596,0.37947,0.3592,1.34471
583,0.21231,0.38924,1.46411,-0.04387,0.57348,0.15652,0.22649,0.1168,0.0827,0.05557,0.64176,0.55541,0.21501,0.24127,0.4786,-0.00118,0.39389,0.90857,0.10941,0.26417,0.89808,0.12406,0.54573,1.45782,0.23459,0.23383,1.39381,0.27126,0.78744,1.38285,0.30709,0.24327,1.1245,0.34594,0.53356,1.36363,0.37998,0.35962,1.34487
584,0.2132,0.39043,1.46288,-0.04405,0.57271,0.15647,0.22637,0.11657,0.0824,0.05453,0.64194,0.55541,0.2149,0.24191,0.47802,-0.00151,0.39337,0.90819,0.10939,0.26392,0.89757,0.12408,0.54618,1.45751,0.23593,0.2352,1.39287,0.26902,0.78916,1.38225,0.30925,0.24472,1.12379,0.34669,0.53621,1.36259,0.38045,0.36009,1.34521
585,0.21351,0.39135,1.46197,-0.04427,0.5719,0.15618,0.22652,0.11626,0.08209,0.05342,0.64186,0.55522,0.21473,0.24244,0.47744,-0.00169,0.39262,0.90767,0.10968,0.26357,0.89714,0.12385,0.54667,1.45737,0.23743,0.23625,1.39179,0.26727,0.79045,1.38181,0.3115,0.24665,1.12294,0.34609,0.53785,1.3622,0.38098,0.36055,1.34567
586,0.21331,0.39182,1.46168,-0.04457,0.57124,0.1556,0.22697,0.11596,0.08181,0.05242,0.64145,0.55476,0.21467,0.24275,0.47694,-0.0016,0.39184,0.90712,0.11023,0.26317,0.89684,0.12343,0.54705,1.45731,0.23885,0.23675,1.39115,0.26563,0.79148,1.38153,0.3134,0.24858,1.1225,0.34504,0.53911,1.36143,0.38168,0.36116,1.34627
587,0.21312,0.39192,1.46187,-0.04488,0.57072,0.15489,0.22763,0.11576,0.08163,0.05159,0.64077,0.5542,0.21491,0.24285,0.47666,-0.00131,0.39109,0.90668,0.11102,0.26284,0.89671,0.12287,0.54723,1.4571,0.24006,0.23691,1.39125,0.26384,0.79236,1.38131,0.31496,0.25012,1.12276,0.34467,0.54058,1.35958,0.38256,0.36207,1.34706
588,0.21337,0.39195,1.46215,-0.04513,0.57023,0.15421,0.22823,0.11562,0.08165,0.05086,0.63985,0.55372,0.21554,0.24298,0.47658,-0.00105,0.39025,0.9064,0.11199,0.26258,0.89673,0.12211,0.54726,1.45668,0.24145,0.23708,1.3918,0.26194,0.79306,1.38092,0.31648,0.25127,1.12339,0.34506,0.54225,1.35672,0.38348,0.36323,1.34786
589,0.21386,0.39215,1.46228,-0.04525,0.56965,0.15361,0.22857,0.11549,0.08177,0.05019,0.63871,0.55335,0.21647,0.24334,0.47657,-0.00086,0.38923,0.90624,0.11306,0.26235,0.89678,0.12129,0.54716,1.45636,0.2433,0.23728,1.39227,0.25984,0.79353,1.38011,0.31801,0.25223,1.12382,0.34531,0.54372,1.35387,0.38419,0.36448,1.34839
590,0.21387,0.3925,1.46238,-0.04517,0.56891,0.15309,0.22866,0.11534,0.0819,0.04961,0.6375,0.55306,0.2174,0.24391,0.47649,-0.00053,0.38819,0.90621,0.11423,0.26206,0.8968,0.12084,0.54681,1.45649,0.24515,0.23714,1.39228,0.25721,0.79398,1.37894,0.3195,0.253,1.12378,0.34494,0.54497,1.35255,0.38436,0.36575,1.34848
591,0.21293,0.39283,1.46272,-0.04492,0.56801,0.15264,0.2287,0.11517,0.08206,0.04917,0.63638,0.55281,0.21814,0.24457,0.4764,0.00017,0.38722,0.90623,0.11555,0.26165,0.89689,0.12089,0.5462,1.45688,0.24631,0.23641,1.39174,0.25382,0.7948,1.37789,0.32103,0.25354,1.12342,0.3446,0.54667,1.35362,0.38385,0.36713,1.34827
592,0.21148,0.39304,1.46344,-0.04463,0.56694,0.15226,0.22881,0.11498,0.08224,0.04881,0.63535,0.55258,0.21874,0.24516,0.47633,0.00125,0.38622,0.90621,0.11708,0.26105,0.8971,0.12096,0.54548,1.45689,0.24699,0.2354,1.39094,0.24975,0.79602,1.37719,0.32285,0.25412,1.12305,0.34489,0.54924,1.35596,0.38296,0.36876,1.34812
593,0.21053,0.39308,1.46438,-0.04452,0.56574,0.15191,0.22897,0.11485,0.08234,0.04844,0.63428,0.55232,0.21933,0.24561,0.47625,0.00246,0.38502,0.90607,0.11879,0.26028,0.89733,0.1203,0.54472,1.45613,0.24815,0.2348,1.39044,0.24534,0.79715,1.37642,0.32508,0.25529,1.12298,0.34569,0.55229,1.35712,0.38238,0.37061,1.34843
594,0.2106,0.39284,1.46535,-0.04457,0.56449,0.15152,0.22911,0.11487,0.08226,0.04802,0.6331,0.552,0.22003,0.24598,0.47607,0.00352,0.38368,0.90582,0.1205,0.25953,0.89743,0.11853,0.54392,1.45483,0.25022,0.23501,1.39049,0.24081,0.79768,1.37506,0.32761,0.25721,1.1233,0.34694,0.55523,1.3562,0.38249,0.37248,1.34938
595,0.21109,0.39222,1.46635,-0.04455,0.56328,0.1511,0.22933,0.11492,0.08213,0.04776,0.63189,0.55164,0.2209,0.24646,0.47581,0.00442,0.3824,0.90556,0.12213,0.25893,0.89739,0.11607,0.54306,1.45361,0.25254,0.23572,1.39086,0.23604,0.79769,1.37311,0.33013,0.25952,1.12387,0.34807,0.55785,1.355,0.38293,0.37416,1.35075
596,0.21102,0.39138,1.4675,-0.04427,0.56221,0.15073,0.22974,0.11486,0.08211,0.04789,0.63066,0.55134,0.22199,0.24711,0.47557,0.00542,0.38127,0.90543,0.12381,0.25845,0.89731,0.11394,0.54198,1.45303,0.25428,0.23613,1.39117,0.23061,0.79765,1.371,0.33242,0.26181,1.12451,0.34731,0.55986,1.35553,0.38311,0.37566,1.35227
597,0.21011,0.39061,1.46882,-0.04372,0.56129,0.1504,0.2302,0.11478,0.08217,0.04839,0.62918,0.55111,0.22328,0.24764,0.47544,0.00676,0.38019,0.90559,0.12572,0.25793,0.89735,0.11278,0.54049,1.45315,0.25543,0.23565,1.39147,0.22422,0.7978,1.369,0.33446,0.26397,1.12535,0.343,0.56081,1.35768,0.38276,0.37707,1.35401
598,0.20914,0.38994,1.47018,-0.04307,0.56042,0.14998,0.23037,0.11489,0.08215,0.04888,0.62727,0.55091,0.22469,0.24773,0.47544,0.00846,0.37907,0.90608,0.12793,0.25732,0.89755,0.11218,0.53852,1.4534,0.25663,0.23441,1.39212,0.21699,0.79791,1.36714,0.33643,0.26591,1.12658,0.3357,0.56072,1.36004,0.38211,0.37827,1.35614
599,0.209,0.38917,1.47145,-0.04262,0.55948,0.14946,0.23016,0.11517,0.08197,0.04902,0.62503,0.55067,0.2261,0.24743,0.47547,0.01028,0.37791,0.90678,0.13034,0.25678,0.89782,0.11119,0.53609,1.45319,0.25841,0.23301,1.39323,0.20907,0.79769,1.36545,0.33842,0.26743,1.12811,0.32778,0.56042,1.36173,0.38168,0.3792,1.35843
600,0.20973,0.38811,1.47262,-0.0427,0.55851,0.14895,0.22992,0.1154,0.08172,0.04896,0.62284,0.55036,0.22741,0.24699,0.47547,0.01204,0.37683,0.90743,0.13285,0.25647,0.89808,0.10955,0.5333,1.45267,0.26067,0.23184,1.39454,0.20017,0.79717,1.36394,0.34035,0.26846,1.12962,0.32105,0.56097,1.36305,0.38182,0.38021,1.36027
601,0.21062,0.38672,1.4738,-0.04331,0.55773,0.14856,0.22992,0.1154,0.08158,0.04911,0.62091,0.54998,0.22858,0.24651,0.47549,0.01381,0.3759,0.9079,0.13541,0.25635,0.89841,0.10794,0.53044,1.45244,0.26287,0.23079,1.39564,0.18986,0.79674,1.36255,0.34218,0.26926,1.13087,0.31511,0.56285,1.3651,0.38254,0.38178,1.36134
602,0.21114,0.38513,1.47508,-0.04386,0.55716,0.14825,0.23019,0.11524,0.08161,0.04959,0.61919,0.5496,0.22959,0.24595,0.47565,0.01579,0.37505,0.90826,0.13801,0.25613,0.89891,0.10694,0.52795,1.45261,0.26469,0.22959,1.39639,0.17823,0.79673,1.36105,0.34395,0.27005,1.1319,0.3084,0.56565,1.36854,0.38352,0.3838,1.36191
603,0.21141,0.38355,1.47652,-0.04366,0.55653,0.14797,0.23065,0.11501,0.08179,0.05027,0.61749,0.54938,0.23058,0.24538,0.47595,0.01799,0.37407,0.90866,0.14072,0.25566,0.89957,0.10631,0.52605,1.45273,0.26626,0.22817,1.39708,0.16606,0.79692,1.35908,0.34567,0.27066,1.13296,0.30051,0.5686,1.37298,0.38413,0.38578,1.36248
604,0.21182,0.38206,1.47818,-0.04258,0.5556,0.14779,0.23126,0.11474,0.08205,0.05106,0.61577,0.54938,0.23177,0.24492,0.47627,0.02029,0.37279,0.90909,0.14357,0.25492,0.90025,0.10524,0.52466,1.45253,0.26786,0.22659,1.39806,0.1541,0.79675,1.35616,0.34734,0.2708,1.13424,0.2929,0.57165,1.37767,0.38388,0.38762,1.36321
605,0.21242,0.38047,1.48006,-0.04112,0.55435,0.14767,0.23191,0.11444,0.08234,0.05195,0.61403,0.54947,0.2332,0.24452,0.47659,0.02256,0.37127,0.90945,0.14648,0.25406,0.90088,0.10333,0.52352,1.45217,0.26942,0.225,1.39936,0.14241,0.79587,1.35212,0.3491,0.27049,1.13582,0.28695,0.57532,1.38153,0.383,0.3896,1.36402
606,0.2128,0.37851,1.48202,-0.03985,0.55296,0.14745,0.23246,0.1142,0.08253,0.05301,0.61218,0.54936,0.23467,0.24389,0.47691,0.02474,0.36984,0.90971,0.14929,0.25327,0.90147,0.101,0.52224,1.45185,0.27058,0.22363,1.40071,0.1305,0.79415,1.34743,0.35106,0.27019,1.1376,0.28255,0.57973,1.38359,0.38214,0.39179,1.36488
607,0.21248,0.37628,1.48387,-0.03895,0.5516,0.14688,0.23282,0.11407,0.08247,0.05431,0.61011,0.54881,0.23592,0.24278,0.47716,0.02692,0.36871,0.90986,0.15191,0.25259,0.90199,0.09896,0.52035,1.45155,0.27123,0.22278,1.40176,0.11795,0.7915,1.3428,0.35312,0.27023,1.13925,0.27896,0.58475,1.38441,0.38143,0.39363,1.36592
608,0.2115,0.3742,1.48539,-0.03825,0.55026,0.14597,0.23304,0.11391,0.08215,0.05585,0.60782,0.54784,0.23697,0.24128,0.47726,0.02932,0.36781,0.90987,0.1545,0.25188,0.90238,0.09748,0.51754,1.45101,0.27183,0.22249,1.40246,0.10476,0.78774,1.33856,0.3552,0.27036,1.14049,0.2758,0.59041,1.38554,0.38049,0.39437,1.36719
609,0.21042,0.37261,1.4865,-0.03762,0.5488,0.14493,0.23317,0.11356,0.0818,0.05746,0.60543,0.5467,0.23797,0.23986,0.47726,0.032,0.36685,0.90977,0.1573,0.25102,0.9027,0.09615,0.51387,1.45007,0.27287,0.22249,1.40298,0.09142,0.78278,1.33442,0.35739,0.27024,1.14135,0.27334,0.5972,1.38794,0.37944,0.39391,1.36857
610,0.20974,0.37126,1.48743,-0.03707,0.54701,0.14401,0.23321,0.11308,0.08167,0.0589,0.60293,0.54567,0.23898,0.23882,0.47729,0.03473,0.36573,0.90973,0.16035,0.25021,0.90311,0.09451,0.50978,1.44885,0.27445,0.22232,1.40346,0.07852,0.7768,1.32987,0.35988,0.26997,1.14211,0.27221,0.60614,1.3912,0.37892,0.39292,1.36999
611,0.2095,0.36958,1.48868,-0.03659,0.54481,0.14318,0.23317,0.11268,0.08176,0.05999,0.60017,0.54477,0.23984,0.23811,0.47746,0.03729,0.36456,0.90995,0.16352,0.24969,0.9037,0.09266,0.50588,1.44785,0.27643,0.22163,1.40389,0.0665,0.7702,1.32471,0.3627,0.26983,1.14292,0.27263,0.61825,1.39415,0.37936,0.39214,1.37133
612,0.2094,0.36724,1.49052,-0.03609,0.54229,0.14218,0.23315,0.11241,0.08194,0.06068,0.59699,0.54381,0.24045,0.23753,0.47773,0.03971,0.36351,0.91045,0.16665,0.24941,0.9044,0.09102,0.5028,1.44761,0.27851,0.22041,1.40419,0.05559,0.76337,1.31894,0.36565,0.26983,1.14374,0.2734,0.63278,1.39577,0.38068,0.39179,1.37245
613,0.20925,0.36453,1.49258,-0.03563,0.53956,0.14086,0.23327,0.11216,0.0821,0.06103,0.59338,0.54264,0.24087,0.23697,0.47798,0.0421,0.36257,0.91108,0.1696,0.24909,0.90508,0.08979,0.50069,1.44828,0.28038,0.21876,1.40429,0.04579,0.75632,1.31252,0.36836,0.26992,1.14446,0.27224,0.6462,1.39615,0.38265,0.39179,1.37327
614,0.20915,0.362,1.49428,-0.03536,0.53671,0.13927,0.23347,0.11183,0.08217,0.06118,0.58946,0.54122,0.24132,0.23633,0.47814,0.04452,0.36158,0.91159,0.17242,0.24855,0.90562,0.08864,0.49896,1.44944,0.28191,0.21676,1.40432,0.03691,0.74858,1.30548,0.37062,0.27017,1.14519,0.26742,0.65385,1.39654,0.38485,0.39212,1.37396
615,0.20934,0.35992,1.49534,-0.03534,0.53392,0.13753,0.23357,0.11144,0.08212,0.0614,0.5854,0.5396,0.24206,0.23544,0.47824,0.047,0.36042,0.91183,0.17536,0.24791,0.90606,0.08713,0.49654,1.45049,0.28333,0.21469,1.40465,0.02885,0.73963,1.29811,0.37251,0.27059,1.1462,0.25914,0.65329,1.39767,0.3867,0.39282,1.37483
616,0.21004,0.3582,1.49596,-0.03544,0.53135,0.1357,0.23349,0.11117,0.08198,0.06185,0.58139,0.53782,0.24301,0.23433,0.47834,0.0496,0.35921,0.91181,0.1786,0.24742,0.90649,0.08506,0.49283,1.45116,0.28495,0.21309,1.40558,0.02183,0.72932,1.2906,0.37446,0.271,1.1477,0.24932,0.64701,1.39956,0.38794,0.39391,1.376
617,0.21113,0.35669,1.49645,-0.03548,0.52898,0.13387,0.23343,0.11113,0.08184,0.06251,0.5775,0.536,0.24387,0.2332,0.4785,0.05229,0.35816,0.91172,0.182,0.24716,0.90701,0.08255,0.48817,1.45153,0.28687,0.21219,1.40703,0.01597,0.71804,1.28291,0.37694,0.2713,1.14961,0.23981,0.64017,1.40221,0.38887,0.39521,1.37745
618,0.21223,0.35535,1.497,-0.03533,0.52661,0.13217,0.23359,0.11122,0.08176,0.06318,0.5738,0.53433,0.24455,0.23218,0.47875,0.05493,0.35722,0.9117,0.18526,0.24692,0.90759,0.07992,0.48349,1.45168,0.28898,0.21167,1.40856,0.01081,0.70645,1.27498,0.38009,0.27153,1.15168,0.23126,0.63589,1.40469,0.38996,0.39621,1.37921
619,0.21302,0.35399,1.49774,-0.03492,0.52425,0.13072,0.23396,0.11124,0.08173,0.06378,0.57033,0.53297,0.24535,0.23115,0.47903,0.05736,0.35612,0.91172,0.18823,0.24644,0.90815,0.07755,0.47949,1.45146,0.29114,0.21111,1.40976,0.00561,0.69498,1.2668,0.38364,0.2718,1.15357,0.22322,0.6344,1.406,0.39148,0.39624,1.3813
620,0.21351,0.3524,1.49874,-0.03416,0.52213,0.12952,0.23445,0.11109,0.08169,0.06441,0.56704,0.53194,0.24645,0.22992,0.47929,0.05953,0.35462,0.91172,0.19104,0.2457,0.90861,0.07552,0.47593,1.45052,0.29344,0.21048,1.41055,0.00025,0.68364,1.25842,0.38706,0.27213,1.155,0.21505,0.63482,1.40633,0.39324,0.39523,1.38352
621,0.21391,0.35063,1.49992,-0.03289,0.5204,0.12846,0.23499,0.11091,0.08161,0.0652,0.56375,0.53115,0.24761,0.22855,0.47955,0.06157,0.3528,0.91177,0.19387,0.24484,0.90906,0.07361,0.47202,1.44883,0.29608,0.21003,1.41115,-0.0046,0.67212,1.24996,0.38996,0.27236,1.15586,0.20672,0.63614,1.40633,0.39478,0.39387,1.38525
622,0.21435,0.34899,1.50115,-0.03113,0.51884,0.12741,0.23553,0.11084,0.08152,0.06616,0.56035,0.5305,0.24853,0.22726,0.47981,0.06358,0.35087,0.91194,0.19674,0.24396,0.90955,0.07179,0.46752,1.44679,0.29906,0.20981,1.41172,-0.00804,0.66046,1.24158,0.39231,0.27227,1.15623,0.19847,0.63713,1.40654,0.39582,0.39287,1.38613
623,0.2148,0.34769,1.50231,-0.02911,0.517,0.12638,0.23592,0.11084,0.08147,0.06723,0.55687,0.52986,0.24931,0.22621,0.48005,0.06562,0.349,0.91218,0.19957,0.24307,0.91002,0.07022,0.4631,1.44485,0.30212,0.20964,1.41229,-0.00969,0.64907,1.23334,0.39442,0.27196,1.15642,0.1904,0.63677,1.40716,0.39643,0.39235,1.38644
624,0.21524,0.34651,1.50331,-0.02713,0.51464,0.12535,0.23609,0.11067,0.08146,0.06832,0.55341,0.52915,0.25029,0.22533,0.48022,0.06763,0.34719,0.91236,0.20232,0.2422,0.9104,0.06883,0.45931,1.44314,0.30487,0.20952,1.41285,-0.01002,0.63824,1.22524,0.39658,0.27183,1.15677,0.18247,0.63481,1.40782,0.39691,0.39213,1.38684
625,0.21584,0.34509,1.50411,-0.02521,0.51196,0.12424,0.23616,0.11025,0.08147,0.0693,0.55,0.52833,0.25155,0.22441,0.48033,0.06956,0.34543,0.91243,0.20501,0.24142,0.91065,0.06718,0.45606,1.44155,0.30709,0.20957,1.41349,-0.00999,0.62772,1.2173,0.39873,0.27223,1.15747,0.17443,0.6318,1.40802,0.39754,0.39215,1.38774
626,0.21689,0.34327,1.50468,-0.02318,0.50937,0.123,0.23638,0.10974,0.08142,0.07017,0.54669,0.52742,0.25283,0.22341,0.48037,0.07137,0.34373,0.91237,0.20763,0.24078,0.91083,0.0651,0.45289,1.44,0.30893,0.2098,1.41428,-0.01006,0.61725,1.20968,0.40063,0.27319,1.15846,0.16608,0.62828,1.40781,0.39844,0.39252,1.38904
627,0.21829,0.34123,1.5051,-0.02106,0.50713,0.12168,0.23675,0.10934,0.08135,0.07101,0.54348,0.52649,0.25392,0.22248,0.48043,0.07303,0.34208,0.91225,0.21014,0.24026,0.91101,0.06282,0.44956,1.43857,0.31082,0.20999,1.41513,-0.00969,0.60708,1.20269,0.40239,0.27451,1.15955,0.15792,0.6244,1.40764,0.3995,0.39336,1.39036
628,0.21946,0.3394,1.50548,-0.0191,0.50521,0.12044,0.237,0.10913,0.0814,0.0718,0.54029,0.52562,0.255,0.22175,0.48059,0.0746,0.34043,0.91218,0.21262,0.23983,0.9113,0.06069,0.44599,1.43744,0.31303,0.20993,1.4159,-0.00838,0.59754,1.19667,0.40445,0.27598,1.16065,0.15116,0.62022,1.40747,0.40056,0.39478,1.39148
629,0.21983,0.33799,1.50602,-0.01748,0.50362,0.11943,0.23693,0.10909,0.08162,0.07238,0.53707,0.52498,0.25632,0.22118,0.48089,0.07615,0.33867,0.91228,0.21516,0.23944,0.91171,0.05896,0.44218,1.43669,0.31544,0.20969,1.41653,-0.00638,0.58846,1.19165,0.40709,0.27754,1.16184,0.14648,0.61593,1.40678,0.40144,0.39676,1.39241
630,0.21934,0.33679,1.50683,-0.01607,0.50243,0.1188,0.23675,0.10917,0.08187,0.07269,0.53406,0.52474,0.25786,0.22059,0.48124,0.07768,0.33674,0.91258,0.21778,0.23907,0.91215,0.05772,0.43803,1.43615,0.31772,0.20955,1.41717,-0.00423,0.57923,1.18728,0.40997,0.27913,1.16317,0.14299,0.61146,1.40565,0.40207,0.39896,1.39336
631,0.21827,0.33546,1.50782,-0.01459,0.50176,0.11863,0.23692,0.10919,0.08196,0.07291,0.53167,0.52497,0.25936,0.21983,0.48147,0.0791,0.33462,0.91293,0.22031,0.23856,0.91247,0.05697,0.43335,1.43545,0.31969,0.2097,1.41804,-0.00202,0.56961,1.18314,0.41253,0.28057,1.16461,0.13909,0.60635,1.40481,0.40262,0.40084,1.39449
632,0.21707,0.3339,1.50883,-0.01296,0.50158,0.11887,0.23761,0.10899,0.08191,0.07332,0.53012,0.52557,0.26066,0.21899,0.48157,0.08044,0.33239,0.91317,0.22258,0.23771,0.91266,0.05654,0.42821,1.43437,0.32134,0.20998,1.41917,0.00041,0.56008,1.17909,0.41461,0.28169,1.16613,0.13417,0.60031,1.40467,0.40324,0.40215,1.39584
633,0.2163,0.33234,1.50975,-0.01136,0.50166,0.11938,0.23852,0.10863,0.08192,0.07398,0.52923,0.52634,0.26175,0.21837,0.48164,0.0818,0.33018,0.91325,0.22459,0.23648,0.91283,0.05616,0.42299,1.43293,0.32275,0.21029,1.42029,0.00304,0.55129,1.17519,0.41646,0.28277,1.16763,0.12909,0.59394,1.40474,0.40387,0.40307,1.39737
634,0.21624,0.33095,1.51055,-0.00992,0.50176,0.12008,0.23913,0.10839,0.08208,0.07477,0.5287,0.52723,0.26268,0.21809,0.48179,0.08319,0.32802,0.91328,0.2265,0.23513,0.9131,0.05562,0.41793,1.4313,0.32414,0.21067,1.42119,0.00572,0.54335,1.17152,0.41826,0.28428,1.16901,0.12476,0.58831,1.40435,0.40432,0.40392,1.39902
635,0.21648,0.32966,1.51132,-0.00854,0.50179,0.12108,0.23934,0.1084,0.08231,0.07554,0.52835,0.52837,0.26349,0.21787,0.48205,0.08447,0.32576,0.91342,0.22845,0.23392,0.9135,0.05484,0.41282,1.42969,0.3258,0.21121,1.42191,0.00837,0.53596,1.16818,0.42008,0.28639,1.17025,0.12121,0.58384,1.4035,0.40437,0.40506,1.40065
636,0.21642,0.32824,1.51211,-0.00723,0.50191,0.12243,0.23941,0.10853,0.08251,0.07621,0.52822,0.52988,0.26433,0.21731,0.48239,0.08562,0.32329,0.91368,0.23052,0.23291,0.91395,0.05386,0.40746,1.4283,0.32783,0.21191,1.42259,0.01103,0.52895,1.1654,0.42215,0.28898,1.17153,0.11819,0.58005,1.4027,0.40392,0.40683,1.40216
637,0.21587,0.32668,1.51292,-0.00612,0.50232,0.12394,0.23959,0.10861,0.08263,0.07667,0.5283,0.53154,0.26532,0.21642,0.48272,0.08675,0.32077,0.91391,0.23273,0.23212,0.91438,0.05275,0.40201,1.42732,0.32997,0.21279,1.42322,0.01369,0.52238,1.16332,0.42468,0.29201,1.17297,0.11565,0.57646,1.40224,0.40303,0.40944,1.40351
638,0.21516,0.32527,1.5137,-0.00525,0.50303,0.12527,0.23992,0.10856,0.0827,0.07687,0.52846,0.53304,0.26633,0.21555,0.48297,0.08792,0.31848,0.91405,0.23498,0.23165,0.9147,0.05159,0.39676,1.42671,0.33183,0.21387,1.42376,0.016,0.51615,1.16178,0.42743,0.2954,1.17459,0.11341,0.57307,1.40194,0.40195,0.4127,1.40481
639,0.21465,0.32421,1.51439,-0.00437,0.50385,0.12634,0.24028,0.10842,0.08269,0.0769,0.52841,0.53433,0.26704,0.21491,0.48307,0.08901,0.31645,0.91421,0.2371,0.23139,0.91489,0.05046,0.39167,1.42625,0.33328,0.21515,1.42439,0.01739,0.50985,1.16045,0.42978,0.29884,1.17629,0.11101,0.56982,1.40137,0.40089,0.41597,1.4062
640,0.2145,0.32341,1.51488,-0.00316,0.5044,0.1273,0.24053,0.10827,0.08259,0.07685,0.52795,0.5356,0.26733,0.21444,0.48305,0.08992,0.31445,0.91458,0.239,0.23111,0.91497,0.04965,0.38649,1.42576,0.33461,0.2167,1.42536,0.01777,0.50319,1.15916,0.43136,0.30199,1.1779,0.10824,0.56643,1.40044,0.39986,0.41855,1.40776
641,0.21464,0.32276,1.51508,-0.00162,0.50437,0.12826,0.24059,0.10816,0.08243,0.07672,0.5272,0.53692,0.26735,0.21391,0.483,0.09076,0.31245,0.91517,0.24075,0.23077,0.91502,0.04934,0.38112,1.42516,0.33622,0.21857,1.42663,0.01789,0.49658,1.15797,0.43233,0.30485,1.17927,0.10536,0.56279,1.39956,0.39875,0.4202,1.40943
642,0.21469,0.3222,1.515,-0.0001,0.50366,0.12918,0.24046,0.10802,0.08223,0.07649,0.52643,0.53818,0.26734,0.21315,0.48296,0.09167,0.31062,0.91577,0.24246,0.23043,0.91507,0.04933,0.37599,1.42443,0.33819,0.22049,1.42786,0.01864,0.49097,1.15694,0.4331,0.30773,1.18037,0.1029,0.5591,1.39914,0.39731,0.42132,1.41108
643,0.21428,0.32166,1.51486,0.00102,0.50247,0.12997,0.24027,0.10773,0.08204,0.07626,0.52579,0.53919,0.26751,0.2122,0.48291,0.09273,0.30898,0.91616,0.24419,0.23005,0.91508,0.04929,0.37183,1.42361,0.34023,0.22193,1.42881,0.02009,0.48687,1.15599,0.43385,0.31078,1.1814,0.10128,0.55554,1.39908,0.39524,0.42257,1.41253
644,0.21337,0.32096,1.51494,0.00173,0.50112,0.1306,0.24023,0.1073,0.08192,0.07615,0.52515,0.53993,0.2679,0.21129,0.48289,0.09388,0.30731,0.91624,0.24592,0.22952,0.91512,0.04912,0.36887,1.42294,0.34193,0.2228,1.42967,0.02155,0.48382,1.1551,0.43455,0.31374,1.18264,0.10045,0.55223,1.39902,0.3924,0.42436,1.41372
645,0.21218,0.32002,1.5153,0.00236,0.49979,0.13105,0.24047,0.10699,0.08197,0.07607,0.52433,0.54048,0.26831,0.21057,0.48304,0.095,0.30552,0.91617,0.24765,0.22893,0.91533,0.0488,0.36643,1.42273,0.34307,0.22355,1.43076,0.02266,0.4812,1.15468,0.43523,0.31622,1.1842,0.1001,0.54976,1.39902,0.38918,0.42646,1.41471
646,0.21096,0.31902,1.51578,0.00319,0.49841,0.13125,0.24093,0.10699,0.08215,0.07577,0.52323,0.54086,0.26847,0.21,0.48338,0.09597,0.30379,0.91611,0.24932,0.2286,0.91573,0.04833,0.36369,1.42321,0.34381,0.22456,1.43208,0.02361,0.47873,1.15514,0.436,0.31813,1.18588,0.09991,0.54898,1.39936,0.38624,0.4283,1.41565
647,0.21002,0.31821,1.51615,0.00432,0.49681,0.13099,0.24134,0.10723,0.08231,0.07512,0.52174,0.54091,0.26846,0.2095,0.48376,0.09672,0.30242,0.91616,0.25077,0.22868,0.91614,0.04761,0.36066,1.42422,0.34453,0.22558,1.43332,0.02443,0.47635,1.15629,0.43687,0.31968,1.18737,0.0996,0.54958,1.39999,0.38416,0.42944,1.41668
648,0.20951,0.31759,1.51638,0.00565,0.49485,0.1302,0.24142,0.10747,0.08235,0.07424,0.51976,0.54049,0.26857,0.20904,0.48398,0.09732,0.30146,0.91625,0.25197,0.22901,0.91637,0.04646,0.35798,1.42521,0.34529,0.22616,1.43417,0.02484,0.47408,1.15732,0.43776,0.32101,1.18856,0.09853,0.54987,1.40069,0.38298,0.42987,1.41781
649,0.20923,0.31709,1.51658,0.00693,0.49252,0.12908,0.24124,0.10757,0.08234,0.07343,0.51732,0.53973,0.269,0.20867,0.48404,0.09795,0.30067,0.91635,0.25311,0.2293,0.91643,0.04484,0.35592,1.42559,0.34589,0.2262,1.43456,0.02461,0.47215,1.15765,0.43857,0.32226,1.1895,0.09595,0.54816,1.40164,0.38223,0.42996,1.41893
650,0.20866,0.31675,1.51678,0.00792,0.49007,0.12787,0.24112,0.10752,0.08235,0.07297,0.51462,0.53876,0.2696,0.20844,0.48404,0.09879,0.29987,0.91638,0.25441,0.22951,0.91643,0.04307,0.35417,1.42532,0.34624,0.22601,1.43466,0.02384,0.47073,1.15745,0.43923,0.3237,1.19036,0.09187,0.54413,1.40319,0.38134,0.43006,1.42003
651,0.20744,0.31668,1.51692,0.00867,0.48775,0.12657,0.24134,0.10743,0.08231,0.07277,0.51187,0.53764,0.27004,0.20827,0.48402,0.09977,0.29918,0.91634,0.25583,0.22982,0.91641,0.04155,0.35243,1.42498,0.34647,0.22595,1.43462,0.02289,0.46975,1.15741,0.43971,0.32559,1.19121,0.08731,0.53903,1.4053,0.38,0.43036,1.42114
652,0.20562,0.31684,1.517,0.00948,0.48567,0.12506,0.24178,0.10742,0.08217,0.07258,0.50911,0.53632,0.27023,0.20809,0.48393,0.10063,0.29885,0.9163,0.25707,0.23034,0.91633,0.04047,0.35075,1.42517,0.34665,0.22624,1.43459,0.02195,0.46895,1.15798,0.43999,0.32766,1.19195,0.08351,0.53469,1.40755,0.37825,0.4309,1.42204
653,0.20366,0.31699,1.51706,0.01045,0.48368,0.12324,0.24207,0.10752,0.08204,0.07225,0.5062,0.53475,0.2703,0.20794,0.48388,0.10117,0.29896,0.91632,0.25788,0.23106,0.91625,0.03979,0.34935,1.42588,0.34687,0.22697,1.43465,0.02094,0.46798,1.1589,0.44009,0.32939,1.19239,0.08085,0.53204,1.40931,0.37631,0.43175,1.42231
654,0.2021,0.3168,1.5172,0.01139,0.48159,0.12112,0.24201,0.10765,0.08211,0.07183,0.50299,0.53289,0.27039,0.20792,0.48398,0.10145,0.29928,0.91631,0.25839,0.23193,0.91632,0.03923,0.34836,1.42662,0.34725,0.2282,1.43486,0.01965,0.46658,1.15951,0.43999,0.33057,1.1924,0.07875,0.53073,1.41009,0.37436,0.43302,1.42176
655,0.20123,0.31615,1.51752,0.01204,0.47919,0.11874,0.24175,0.10768,0.08236,0.07142,0.49937,0.53073,0.27053,0.20792,0.4842,0.10171,0.29961,0.91617,0.25897,0.23299,0.91649,0.03837,0.34759,1.42705,0.34785,0.2299,1.43526,0.01802,0.46471,1.15951,0.43977,0.33151,1.19216,0.0765,0.53013,1.40991,0.37241,0.43467,1.4207
656,0.20071,0.31535,1.51792,0.01232,0.47643,0.11618,0.2415,0.10755,0.08246,0.07108,0.49544,0.52831,0.27069,0.20764,0.48431,0.10209,0.29992,0.91586,0.25975,0.23427,0.91652,0.03695,0.34672,1.42728,0.34842,0.23185,1.43576,0.0161,0.46256,1.15923,0.43955,0.33252,1.19198,0.07394,0.53002,1.40924,0.37034,0.4365,1.41959
657,0.19986,0.31482,1.5182,0.01241,0.47347,0.1135,0.24129,0.10728,0.0822,0.0708,0.49159,0.52572,0.27088,0.20687,0.48415,0.10255,0.30035,0.91534,0.26058,0.2356,0.91625,0.03511,0.34559,1.42761,0.34852,0.23362,1.43608,0.01386,0.46033,1.15911,0.4393,0.33379,1.19196,0.0714,0.53038,1.40848,0.36801,0.43851,1.41859
658,0.19825,0.31471,1.51834,0.01258,0.47064,0.11081,0.24112,0.10696,0.08169,0.07057,0.48827,0.52311,0.27112,0.20579,0.4838,0.10295,0.30099,0.9146,0.26122,0.23683,0.91574,0.03327,0.34434,1.42816,0.34795,0.23493,1.4359,0.0113,0.45809,1.15929,0.43889,0.33547,1.19199,0.06916,0.53115,1.40772,0.36534,0.44103,1.4175
659,0.19613,0.31489,1.51848,0.01304,0.46812,0.10816,0.24103,0.1067,0.08122,0.07034,0.48544,0.52057,0.27134,0.20483,0.48348,0.10326,0.30184,0.91376,0.26163,0.23793,0.91527,0.03169,0.34325,1.42883,0.34692,0.23588,1.43517,0.00855,0.45576,1.15955,0.43822,0.33761,1.19189,0.06722,0.5322,1.40676,0.36244,0.44422,1.41617
660,0.19406,0.31517,1.51864,0.01381,0.46573,0.10558,0.24106,0.10652,0.08105,0.07005,0.48256,0.51816,0.27142,0.20425,0.4834,0.10351,0.30283,0.91307,0.26196,0.23913,0.91506,0.03037,0.34253,1.42944,0.34581,0.23688,1.43416,0.00581,0.45325,1.15954,0.43722,0.34,1.19151,0.06544,0.5333,1.40538,0.35949,0.44775,1.41458
661,0.19241,0.31545,1.51872,0.01477,0.46325,0.103,0.24114,0.10636,0.08113,0.06975,0.47922,0.51579,0.2714,0.20387,0.48354,0.10369,0.30392,0.91265,0.26233,0.2407,0.91504,0.02928,0.34225,1.42975,0.34485,0.23831,1.43322,0.00318,0.45068,1.15907,0.43586,0.34231,1.19079,0.06365,0.53433,1.4035,0.35663,0.45116,1.41279
662,0.19106,0.3158,1.51861,0.01569,0.46076,0.10042,0.24129,0.10616,0.08127,0.06953,0.47558,0.5134,0.27138,0.2035,0.48373,0.10375,0.30519,0.91237,0.26268,0.24273,0.91503,0.02839,0.34231,1.42959,0.34401,0.24021,1.43258,0.00052,0.44837,1.15814,0.43426,0.34427,1.18989,0.0617,0.53542,1.4012,0.35392,0.45422,1.41094
663,0.18962,0.31641,1.51821,0.01636,0.45855,0.0979,0.24153,0.10591,0.08136,0.06937,0.47212,0.51102,0.27135,0.20321,0.48386,0.10361,0.30668,0.91207,0.26286,0.24506,0.91492,0.02745,0.34251,1.42894,0.3432,0.24219,1.43229,-0.00233,0.44653,1.15691,0.43258,0.34592,1.18913,0.05955,0.53678,1.39863,0.35143,0.45702,1.40931
664,0.18795,0.31735,1.51756,0.01667,0.45696,0.09553,0.24177,0.10566,0.08145,0.06911,0.46919,0.50877,0.27117,0.20316,0.48392,0.10325,0.30833,0.91169,0.26278,0.24744,0.91474,0.02602,0.34246,1.42801,0.34237,0.24385,1.4322,-0.00531,0.44496,1.15558,0.43081,0.3475,1.18868,0.05741,0.53855,1.3958,0.34922,0.45972,1.40814
665,0.18624,0.31844,1.51689,0.0167,0.45615,0.0934,0.24189,0.10555,0.08151,0.06872,0.46687,0.50674,0.2708,0.20342,0.48393,0.10273,0.31,0.91124,0.2625,0.24974,0.91454,0.0239,0.34185,1.42701,0.34152,0.24527,1.43211,-0.00818,0.44332,1.15428,0.42888,0.34921,1.18832,0.05546,0.54076,1.39272,0.34734,0.46228,1.40735
666,0.18474,0.31934,1.51654,0.01673,0.456,0.09151,0.24195,0.10558,0.08149,0.06838,0.46502,0.50493,0.27029,0.20391,0.48384,0.10219,0.31161,0.91077,0.26219,0.25198,0.91426,0.02134,0.34083,1.42607,0.34065,0.24696,1.43188,-0.01071,0.44162,1.15308,0.42678,0.35105,1.18771,0.05364,0.54329,1.38955,0.34564,0.4645,1.4067
667,0.18335,0.31992,1.51665,0.01701,0.45615,0.08974,0.24209,0.10566,0.08139,0.06824,0.46341,0.50325,0.26978,0.20457,0.48365,0.10179,0.31321,0.9103,0.26201,0.25417,0.9139,0.01877,0.34003,1.42526,0.33971,0.24915,1.43158,-0.01282,0.44014,1.15197,0.42454,0.35294,1.18683,0.05179,0.5459,1.38657,0.34382,0.46624,1.40605
668,0.1818,0.32041,1.51703,0.01756,0.45617,0.08802,0.2423,0.10574,0.08129,0.0681,0.46178,0.50164,0.26944,0.20534,0.48341,0.10155,0.31489,0.90992,0.26192,0.25628,0.91351,0.01647,0.34015,1.4246,0.33867,0.25156,1.43136,-0.01467,0.43914,1.15085,0.4222,0.35485,1.18595,0.04992,0.5483,1.3839,0.34167,0.46758,1.40554
669,0.18005,0.32115,1.51739,0.01817,0.45586,0.08644,0.24247,0.10585,0.08133,0.06767,0.46006,0.5002,0.26929,0.20628,0.48326,0.10123,0.31662,0.90969,0.26174,0.25838,0.91322,0.01445,0.34146,1.42397,0.33753,0.25388,1.43126,-0.01636,0.4388,1.14959,0.41976,0.35697,1.18533,0.04803,0.55026,1.38161,0.3391,0.46886,1.40529
670,0.17839,0.32232,1.51755,0.01871,0.45527,0.08505,0.24257,0.106,0.08156,0.06683,0.45843,0.49899,0.26921,0.20751,0.48324,0.10057,0.31829,0.9096,0.26131,0.26068,0.91306,0.01266,0.3434,1.42324,0.33624,0.2562,1.43124,-0.01778,0.43917,1.14827,0.41729,0.35951,1.18501,0.04605,0.55177,1.3799,0.33623,0.47043,1.40532
671,0.17706,0.32395,1.5175,0.01927,0.45465,0.08383,0.24265,0.10619,0.08191,0.06574,0.45697,0.49795,0.26901,0.20909,0.48325,0.09956,0.31993,0.90961,0.26063,0.26325,0.91294,0.01111,0.345,1.42247,0.33467,0.2588,1.43125,-0.01886,0.43999,1.14718,0.41495,0.36241,1.18489,0.0439,0.55296,1.37891,0.33338,0.4724,1.40548
672,0.17592,0.32589,1.51732,0.0199,0.45429,0.08272,0.24266,0.10641,0.08223,0.06475,0.45562,0.49704,0.26864,0.21095,0.48317,0.0984,0.32167,0.90972,0.25979,0.2659,0.91274,0.00977,0.34572,1.42189,0.33283,0.26173,1.43129,-0.01988,0.44079,1.14659,0.41286,0.3654,1.18487,0.04163,0.55398,1.37855,0.33101,0.4746,1.40575
673,0.17446,0.32797,1.51709,0.02054,0.45418,0.08181,0.24251,0.1066,0.08241,0.06424,0.4544,0.49624,0.26815,0.21291,0.48291,0.09726,0.32346,0.90994,0.25888,0.26833,0.91242,0.00843,0.34579,1.42162,0.33095,0.26489,1.4314,-0.02121,0.44151,1.14654,0.41096,0.36831,1.18488,0.0393,0.55485,1.37869,0.32938,0.47666,1.40627
674,0.1723,0.33003,1.5169,0.02106,0.45419,0.08113,0.24225,0.10676,0.08252,0.06432,0.45355,0.49561,0.26762,0.21484,0.48256,0.09617,0.32508,0.91018,0.25795,0.27038,0.91205,0.0069,0.34586,1.42154,0.32923,0.26813,1.43158,-0.02296,0.44272,1.14689,0.40904,0.3713,1.18489,0.03695,0.55555,1.37944,0.32828,0.47831,1.40723
675,0.16957,0.33221,1.51672,0.02136,0.45435,0.08063,0.24213,0.10706,0.08261,0.06461,0.45321,0.49511,0.26708,0.21675,0.48223,0.09506,0.32651,0.91032,0.25694,0.27212,0.91173,0.00516,0.34638,1.42151,0.32761,0.27134,1.43171,-0.02494,0.44493,1.14748,0.40692,0.37475,1.18496,0.03456,0.55612,1.38093,0.32713,0.47971,1.40863
676,0.16674,0.33478,1.51643,0.0214,0.4549,0.08022,0.2423,0.10767,0.08266,0.06456,0.45329,0.4947,0.2666,0.21872,0.48195,0.09383,0.32798,0.91043,0.25579,0.2738,0.91147,0.00329,0.34737,1.42151,0.32592,0.27444,1.43173,-0.02692,0.44798,1.14825,0.40468,0.37889,1.18524,0.03207,0.55653,1.38307,0.32548,0.48127,1.41031
677,0.16416,0.33771,1.51602,0.02127,0.45579,0.0799,0.24258,0.10852,0.08274,0.0641,0.45355,0.49442,0.26626,0.22096,0.48168,0.09248,0.32961,0.91062,0.2545,0.27559,0.91123,0.0014,0.34861,1.42156,0.32411,0.27741,1.43188,-0.02886,0.45138,1.14911,0.40258,0.38339,1.18595,0.02931,0.55657,1.38565,0.32322,0.48317,1.41212
678,0.16186,0.3406,1.51575,0.02113,0.45664,0.07975,0.2427,0.10931,0.08299,0.06351,0.45392,0.49431,0.26608,0.22371,0.48139,0.09114,0.3312,0.91091,0.25324,0.27741,0.91103,-0.00032,0.34992,1.42165,0.32225,0.28027,1.43256,-0.03093,0.45476,1.15002,0.40084,0.38749,1.1872,0.0262,0.55625,1.38843,0.3206,0.48514,1.414
679,0.1597,0.34307,1.51584,0.02115,0.45711,0.07971,0.24261,0.10984,0.08351,0.06301,0.45445,0.49433,0.26591,0.22701,0.48111,0.08991,0.33253,0.91122,0.25214,0.27915,0.91091,-0.00178,0.35121,1.42181,0.32037,0.28313,1.43381,-0.03312,0.45799,1.15102,0.3994,0.39078,1.18878,0.02277,0.55613,1.39112,0.31809,0.48683,1.41588
680,0.15745,0.34513,1.51622,0.02153,0.45722,0.07969,0.2425,0.11015,0.08422,0.06256,0.45515,0.49439,0.26561,0.23071,0.48082,0.08875,0.33357,0.91142,0.2512,0.28087,0.91083,-0.00314,0.35242,1.42208,0.3183,0.28619,1.43518,-0.03519,0.46124,1.15219,0.3981,0.39365,1.19032,0.0194,0.55687,1.39359,0.31601,0.48823,1.41775
681,0.15491,0.34714,1.51656,0.0222,0.45712,0.0796,0.24257,0.11047,0.08505,0.06202,0.45597,0.49442,0.26521,0.23457,0.48058,0.08753,0.33441,0.9115,0.2503,0.2827,0.91081,-0.00464,0.35346,1.42238,0.31592,0.28949,1.43616,-0.03706,0.46499,1.15364,0.39681,0.39694,1.19166,0.01646,0.55852,1.3961,0.31412,0.48967,1.41964
682,0.15217,0.34945,1.5167,0.02291,0.45701,0.07944,0.24276,0.11098,0.08597,0.06136,0.45681,0.4944,0.26483,0.23845,0.48046,0.0862,0.3352,0.9115,0.2493,0.28453,0.91089,-0.00633,0.35444,1.42263,0.31346,0.29282,1.43662,-0.03906,0.46942,1.15539,0.39549,0.4012,1.19291,0.01371,0.56045,1.39897,0.31203,0.49156,1.42156
683,0.14956,0.35213,1.51681,0.02342,0.45693,0.07928,0.24288,0.11169,0.08701,0.06067,0.45761,0.49434,0.26455,0.2425,0.48042,0.08481,0.33612,0.91153,0.24814,0.28622,0.91107,-0.00795,0.35565,1.42282,0.31134,0.29586,1.43679,-0.04162,0.47402,1.15718,0.39409,0.40629,1.19425,0.01035,0.56189,1.40209,0.30962,0.49409,1.42352
684,0.14733,0.35507,1.51707,0.02368,0.45682,0.07916,0.24279,0.11255,0.0882,0.06,0.45836,0.49431,0.26438,0.24707,0.48037,0.0834,0.33719,0.91162,0.24686,0.28772,0.91127,-0.00931,0.3574,1.42303,0.30966,0.29857,1.43705,-0.04473,0.47809,1.15867,0.39261,0.41147,1.19571,0.00592,0.56257,1.40504,0.30712,0.49722,1.42538
685,0.14541,0.35824,1.51737,0.02369,0.45655,0.07908,0.24264,0.11354,0.0895,0.05928,0.45904,0.49429,0.26434,0.25223,0.48021,0.08193,0.33827,0.91176,0.24549,0.28909,0.91139,-0.01064,0.35951,1.42325,0.30808,0.3013,1.43762,-0.0479,0.48166,1.15981,0.39111,0.41611,1.19721,0.00113,0.56298,1.40757,0.3048,0.50089,1.42693
686,0.14348,0.36152,1.51742,0.0235,0.45614,0.07904,0.24268,0.11475,0.09084,0.05847,0.45954,0.49429,0.26442,0.25766,0.48002,0.08031,0.33929,0.91196,0.24398,0.29051,0.91146,-0.01245,0.36142,1.4234,0.30628,0.30443,1.43845,-0.05079,0.4853,1.16093,0.38961,0.42032,1.19866,-0.0028,0.56404,1.40972,0.30268,0.50503,1.42818
687,0.14123,0.36473,1.51718,0.02318,0.4559,0.07907,0.24306,0.11622,0.09223,0.05757,0.45983,0.49436,0.26454,0.26302,0.47997,0.07847,0.34037,0.9123,0.24231,0.29217,0.91159,-0.01493,0.36298,1.4236,0.3042,0.308,1.43946,-0.05366,0.48916,1.16228,0.3881,0.42451,1.20017,-0.00561,0.56615,1.41161,0.30052,0.50935,1.42939
688,0.1386,0.36774,1.51684,0.02281,0.4561,0.07917,0.24374,0.11782,0.09378,0.05657,0.45991,0.49451,0.2646,0.26841,0.4801,0.07644,0.34163,0.91284,0.24045,0.29402,0.91184,-0.01774,0.36463,1.42399,0.30196,0.31169,1.44067,-0.05697,0.49293,1.16378,0.38662,0.42869,1.20189,-0.00832,0.56868,1.41337,0.29807,0.51352,1.43074
689,0.1358,0.37059,1.51659,0.02246,0.45662,0.07927,0.24453,0.11925,0.09552,0.05545,0.45976,0.49468,0.26476,0.274,0.48023,0.07429,0.34289,0.91345,0.23848,0.29588,0.91205,-0.02042,0.36665,1.4244,0.29969,0.31508,1.44209,-0.06071,0.4965,1.16512,0.38509,0.43244,1.20375,-0.01172,0.57072,1.4151,0.29538,0.51739,1.4321
690,0.13309,0.37336,1.51652,0.02221,0.45713,0.07928,0.24528,0.12043,0.09737,0.05424,0.45933,0.49477,0.2653,0.27965,0.48026,0.07213,0.3439,0.91399,0.23655,0.29776,0.9121,-0.02286,0.36871,1.42456,0.2975,0.31788,1.44348,-0.06437,0.49999,1.1662,0.38343,0.43555,1.20548,-0.01552,0.57228,1.41678,0.29266,0.5211,1.43319
691,0.13046,0.376,1.51663,0.0221,0.45743,0.07914,0.24595,0.12152,0.09927,0.05301,0.4586,0.49473,0.26629,0.28511,0.4803,0.07001,0.3447,0.91439,0.23474,0.29969,0.91207,-0.02543,0.37048,1.42461,0.29549,0.3201,1.44451,-0.06761,0.5034,1.16719,0.38175,0.43834,1.20692,-0.019,0.57402,1.41829,0.28997,0.52486,1.43386
692,0.12774,0.37835,1.51695,0.022,0.45747,0.0789,0.24661,0.12278,0.10126,0.05169,0.45771,0.49457,0.26749,0.29044,0.48049,0.06795,0.34549,0.91472,0.23297,0.30156,0.91214,-0.02856,0.3721,1.42489,0.29365,0.32209,1.44505,-0.07048,0.5065,1.16819,0.38024,0.44123,1.20802,-0.02182,0.57648,1.41946,0.28719,0.52885,1.43402
693,0.12482,0.38037,1.51742,0.02173,0.45729,0.07869,0.24738,0.12426,0.10346,0.05017,0.45683,0.49445,0.26854,0.29587,0.4809,0.06596,0.34635,0.91507,0.23121,0.3033,0.91239,-0.0323,0.37379,1.42544,0.29194,0.32445,1.44536,-0.07324,0.50913,1.16909,0.37873,0.4442,1.20872,-0.02416,0.57964,1.42013,0.28431,0.53322,1.43359
694,0.1218,0.38222,1.51794,0.02121,0.45702,0.07863,0.24833,0.12579,0.10592,0.04846,0.4561,0.49447,0.26935,0.30142,0.48151,0.06402,0.34723,0.91553,0.22948,0.305,0.91283,-0.03615,0.37549,1.42593,0.29031,0.32751,1.4459,-0.07605,0.51137,1.1697,0.37692,0.44681,1.20896,-0.02648,0.58312,1.42029,0.28148,0.53802,1.43253
695,0.1189,0.38408,1.51838,0.02059,0.45679,0.07871,0.24945,0.12718,0.10862,0.04673,0.45548,0.49462,0.27013,0.30692,0.48228,0.06206,0.34804,0.91605,0.22779,0.30687,0.91337,-0.03948,0.37703,1.42608,0.28861,0.33097,1.44685,-0.07885,0.51334,1.17,0.37477,0.44866,1.20895,-0.02898,0.58645,1.42013,0.27881,0.54294,1.43101
696,0.11628,0.38594,1.51869,0.02003,0.45659,0.07881,0.25068,0.12841,0.11148,0.04516,0.45487,0.49478,0.27113,0.31229,0.48314,0.06008,0.34874,0.91655,0.22616,0.30899,0.91395,-0.04194,0.37837,1.42599,0.28661,0.33424,1.44799,-0.08157,0.51503,1.17013,0.37255,0.44977,1.20895,-0.0315,0.5893,1.41988,0.27615,0.54744,1.42935
697,0.11393,0.38764,1.51898,0.01957,0.45627,0.07882,0.25203,0.12971,0.11438,0.04376,0.45417,0.49485,0.27242,0.31755,0.48405,0.05814,0.34942,0.91699,0.22459,0.31127,0.91453,-0.04376,0.37964,1.42593,0.2842,0.33694,1.44887,-0.08434,0.51615,1.17015,0.37041,0.45048,1.20898,-0.03381,0.59176,1.41941,0.27342,0.5512,1.42775
698,0.11179,0.38912,1.51937,0.01917,0.45581,0.07873,0.2535,0.13137,0.11716,0.04238,0.4533,0.49481,0.27383,0.3228,0.48499,0.05631,0.3502,0.91737,0.22307,0.31344,0.91507,-0.0455,0.38097,1.42605,0.28165,0.33904,1.44919,-0.0873,0.51641,1.1699,0.36839,0.45118,1.20883,-0.03598,0.59409,1.41836,0.27077,0.55439,1.42616
699,0.10979,0.39055,1.51975,0.01876,0.4554,0.07852,0.2551,0.1334,0.1198,0.04095,0.45217,0.49465,0.27513,0.32814,0.4859,0.05465,0.35094,0.91767,0.22165,0.31522,0.91556,-0.04755,0.38238,1.42624,0.27937,0.34077,1.44902,-0.0904,0.51592,1.16926,0.36646,0.45209,1.2084,-0.03826,0.59637,1.41667,0.26838,0.55737,1.42452
700,0.10787,0.3922,1.51992,0.0184,0.45525,0.07824,0.2568,0.13558,0.12241,0.03959,0.45086,0.49441,0.27627,0.3336,0.48679,0.05318,0.35133,0.91784,0.22036,0.31647,0.91599,-0.04982,0.38382,1.42627,0.27756,0.34236,1.44864,-0.09337,0.51528,1.16833,0.36452,0.45327,1.20779,-0.04079,0.59848,1.41473,0.26615,0.56041,1.42285
701,0.1059,0.394,1.51993,0.01817,0.45531,0.07797,0.25859,0.13768,0.12509,0.03835,0.44969,0.49418,0.27732,0.33903,0.48767,0.05185,0.35128,0.91787,0.21924,0.3174,0.91638,-0.05191,0.38526,1.42603,0.27615,0.34398,1.44838,-0.09596,0.51506,1.16734,0.36239,0.45456,1.20712,-0.04335,0.60042,1.413,0.26377,0.5636,1.42111
702,0.10382,0.3957,1.5201,0.01803,0.45534,0.07779,0.2603,0.13973,0.12767,0.03711,0.44897,0.49403,0.2785,0.34422,0.48852,0.05059,0.3511,0.91785,0.21821,0.31834,0.91669,-0.05365,0.38661,1.42557,0.27485,0.3457,1.44837,-0.09809,0.51529,1.16638,0.36004,0.45571,1.20647,-0.04561,0.6021,1.41156,0.2611,0.56674,1.4193
703,0.10167,0.39729,1.52047,0.01781,0.4553,0.07766,0.26165,0.1419,0.12996,0.03575,0.4486,0.49395,0.27999,0.34911,0.48924,0.04932,0.35117,0.91786,0.21715,0.31953,0.91681,-0.05535,0.38773,1.42496,0.27341,0.34769,1.44862,-0.09986,0.51562,1.1654,0.35763,0.45658,1.20588,-0.04756,0.60334,1.41029,0.25843,0.5694,1.41764
704,0.09954,0.3991,1.52074,0.01743,0.45525,0.07752,0.26263,0.14423,0.13198,0.03438,0.44823,0.49385,0.28188,0.35377,0.48986,0.04801,0.35157,0.91794,0.21602,0.3209,0.91673,-0.05739,0.38862,1.42436,0.27169,0.35004,1.44899,-0.10145,0.51577,1.16435,0.35536,0.45724,1.20532,-0.04945,0.60405,1.4091,0.25609,0.57136,1.41635
705,0.09739,0.40125,1.52071,0.01701,0.45521,0.07738,0.26364,0.14657,0.13393,0.03325,0.44772,0.49373,0.28394,0.35827,0.49048,0.04671,0.35207,0.91806,0.21487,0.32231,0.91659,-0.05968,0.38952,1.42396,0.26969,0.35253,1.44937,-0.10294,0.51576,1.16338,0.35322,0.45773,1.20478,-0.05119,0.6046,1.40798,0.25406,0.57285,1.41531
706,0.09525,0.40353,1.52046,0.01679,0.45516,0.07733,0.26516,0.14872,0.13599,0.03244,0.44721,0.49369,0.28581,0.3627,0.49116,0.04547,0.35252,0.91824,0.21379,0.32362,0.91651,-0.06176,0.39056,1.42388,0.26758,0.35482,1.44974,-0.10417,0.5157,1.16263,0.35108,0.458,1.20428,-0.05227,0.6057,1.40678,0.25211,0.57419,1.41432
707,0.09332,0.40569,1.52014,0.0168,0.45513,0.07737,0.2673,0.15059,0.13821,0.03185,0.44686,0.49375,0.28725,0.36713,0.49186,0.0443,0.3529,0.91848,0.21275,0.32478,0.91647,-0.06341,0.39176,1.42398,0.26554,0.35677,1.45008,-0.10492,0.51569,1.16201,0.34897,0.45816,1.20384,-0.05252,0.60768,1.40531,0.25021,0.57541,1.41339
708,0.09168,0.4077,1.5198,0.01672,0.45518,0.07745,0.26969,0.1522,0.14044,0.03131,0.44662,0.49384,0.28824,0.37149,0.49247,0.04317,0.35324,0.91872,0.21172,0.32582,0.91637,-0.06487,0.39307,1.42396,0.26369,0.35881,1.45027,-0.10524,0.51586,1.16128,0.34706,0.45855,1.20335,-0.0525,0.60983,1.40374,0.2485,0.57635,1.41268
709,0.09008,0.40953,1.51947,0.01631,0.45528,0.07751,0.27186,0.15359,0.14252,0.03067,0.44639,0.4939,0.2889,0.37556,0.49294,0.04205,0.35343,0.91889,0.21073,0.32681,0.91619,-0.06644,0.39442,1.42367,0.26208,0.36129,1.45029,-0.10542,0.51633,1.16037,0.34543,0.45935,1.20268,-0.05301,0.61112,1.4026,0.24699,0.57687,1.41222
710,0.08818,0.41106,1.51926,0.01575,0.45531,0.07757,0.27364,0.1547,0.1444,0.02982,0.44621,0.49397,0.28941,0.37908,0.49335,0.04103,0.35331,0.91897,0.20986,0.32771,0.91604,-0.06803,0.39579,1.42328,0.26062,0.364,1.4503,-0.10576,0.51708,1.1595,0.34387,0.46042,1.20202,-0.05421,0.61131,1.40212,0.24536,0.57702,1.41204
711,0.08607,0.41226,1.51924,0.01541,0.45527,0.07768,0.27527,0.15546,0.1462,0.02882,0.4462,0.4941,0.28986,0.3819,0.49386,0.04021,0.35299,0.91903,0.2092,0.32847,0.91609,-0.06938,0.3971,1.42309,0.25916,0.36635,1.4505,-0.10625,0.51781,1.15893,0.34217,0.46164,1.2017,-0.05538,0.61123,1.40201,0.24337,0.57703,1.41226
712,0.0841,0.41326,1.51937,0.01544,0.45522,0.07781,0.27705,0.15585,0.14801,0.02793,0.44638,0.49426,0.29023,0.38415,0.49451,0.03961,0.35281,0.9191,0.20873,0.32916,0.91638,-0.07045,0.39813,1.42324,0.25776,0.36808,1.45092,-0.10673,0.51829,1.15875,0.34045,0.46315,1.20193,-0.05586,0.61149,1.40191,0.24111,0.57725,1.41293
713,0.08246,0.41432,1.5194,0.01567,0.45518,0.0779,0.27907,0.156,0.14972,0.02739,0.44676,0.49438,0.29034,0.38603,0.49514,0.03915,0.35296,0.91917,0.20836,0.32995,0.91677,-0.07158,0.39866,1.42357,0.25658,0.36936,1.45143,-0.10698,0.5185,1.15881,0.33894,0.46498,1.20254,-0.05569,0.61185,1.40183,0.23881,0.5778,1.41386
714,0.08108,0.41552,1.51917,0.01581,0.45514,0.07794,0.28109,0.15604,0.15115,0.02722,0.4473,0.49444,0.29013,0.38761,0.4956,0.03875,0.3533,0.91919,0.20804,0.33086,0.91712,-0.07304,0.39876,1.42378,0.2557,0.37046,1.45183,-0.1068,0.5187,1.15886,0.33771,0.46684,1.20312,-0.05526,0.61196,1.40185,0.23663,0.57832,1.4147
715,0.07977,0.41684,1.51871,0.01574,0.45509,0.07798,0.28286,0.15601,0.15216,0.02724,0.44798,0.49449,0.28969,0.38877,0.49587,0.03843,0.35362,0.91917,0.20781,0.33182,0.9174,-0.07462,0.39882,1.42376,0.25496,0.37155,1.45209,-0.10617,0.51931,1.15881,0.33671,0.46839,1.20347,-0.05456,0.61236,1.40187,0.23474,0.5784,1.41539
716,0.07841,0.41824,1.51822,0.01555,0.45514,0.07807,0.28428,0.15589,0.15278,0.02726,0.44876,0.49459,0.28922,0.38944,0.49599,0.03824,0.3539,0.91916,0.2077,0.33271,0.91762,-0.07586,0.3992,1.42364,0.25416,0.37254,1.45235,-0.10527,0.52053,1.15883,0.33591,0.46973,1.20387,-0.05323,0.614,1.40164,0.23321,0.57818,1.41625
717,0.07709,0.4197,1.51782,0.01549,0.45538,0.07823,0.28541,0.15563,0.15313,0.02724,0.44955,0.49476,0.28873,0.38971,0.49599,0.03809,0.35419,0.91922,0.20762,0.33354,0.91777,-0.0765,0.39993,1.4236,0.25333,0.37326,1.45284,-0.10448,0.52223,1.15909,0.33521,0.47114,1.20468,-0.05128,0.61696,1.40116,0.23196,0.57813,1.41752
718,0.0759,0.42109,1.51753,0.01567,0.45578,0.07842,0.28628,0.15513,0.15336,0.0272,0.45009,0.49496,0.28817,0.38972,0.49588,0.03792,0.35447,0.91937,0.20752,0.33444,0.91786,-0.07675,0.40073,1.42365,0.25269,0.37376,1.45358,-0.10399,0.52407,1.15954,0.33448,0.47253,1.20574,-0.04943,0.61997,1.40084,0.23079,0.57842,1.41892
719,0.07491,0.42214,1.51737,0.01594,0.45604,0.0786,0.28691,0.15439,0.15357,0.02717,0.45023,0.49514,0.28747,0.38953,0.49571,0.0377,0.35465,0.91956,0.2074,0.33546,0.91797,-0.07706,0.40124,1.42365,0.25243,0.37418,1.45441,-0.10368,0.52562,1.15997,0.33368,0.4737,1.20669,-0.04886,0.6213,1.4013,0.22939,0.57878,1.41998
720,0.07405,0.42252,1.51738,0.01601,0.45592,0.07874,0.28747,0.15353,0.15369,0.02722,0.45012,0.49528,0.28663,0.38906,0.49556,0.03754,0.35459,0.91972,0.20735,0.33639,0.91814,-0.07767,0.40122,1.42354,0.25252,0.37451,1.45513,-0.10338,0.52658,1.16022,0.33288,0.47483,1.20744,-0.05015,0.62023,1.4027,0.22749,0.57899,1.42063
721,0.07331,0.42213,1.51757,0.01581,0.45551,0.0788,0.28817,0.15262,0.15346,0.02739,0.45006,0.49533,0.28564,0.3881,0.49537,0.03753,0.35435,0.91974,0.20742,0.33689,0.91832,-0.07846,0.40066,1.42341,0.25267,0.37469,1.45568,-0.10304,0.52701,1.16046,0.33217,0.47623,1.20821,-0.05222,0.6181,1.40443,0.22515,0.57915,1.4212
722,0.07275,0.42136,1.51783,0.01556,0.45515,0.07874,0.28903,0.15169,0.15266,0.02768,0.4502,0.49527,0.2845,0.38655,0.49497,0.03766,0.35413,0.9196,0.20758,0.33699,0.91836,-0.07905,0.39972,1.42345,0.25256,0.37491,1.45608,-0.10269,0.52736,1.16104,0.33162,0.47805,1.20913,-0.05294,0.6173,1.40565,0.22281,0.57955,1.4219
723,0.07245,0.42078,1.51799,0.01553,0.45504,0.07859,0.28987,0.15073,0.15133,0.02803,0.45039,0.49511,0.28321,0.38453,0.49433,0.03778,0.3541,0.91939,0.20772,0.33717,0.91823,-0.07923,0.39864,1.42373,0.25213,0.37539,1.45628,-0.10222,0.528,1.1621,0.33119,0.48029,1.21007,-0.05142,0.61865,1.40624,0.22084,0.58036,1.42272
724,0.07237,0.4207,1.51789,0.01572,0.45507,0.07841,0.29054,0.1498,0.14977,0.02831,0.4504,0.49493,0.28184,0.38226,0.49364,0.03783,0.35426,0.91925,0.20783,0.33789,0.91813,-0.07915,0.39767,1.42416,0.25165,0.3761,1.45624,-0.10163,0.52886,1.1634,0.33087,0.48283,1.21087,-0.04891,0.62075,1.40667,0.21926,0.58156,1.42348
725,0.07238,0.42095,1.51757,0.01596,0.455,0.07833,0.29112,0.14893,0.1483,0.02849,0.4502,0.49485,0.28053,0.37982,0.49318,0.03794,0.35448,0.91926,0.20802,0.3391,0.91829,-0.07916,0.39689,1.42459,0.25151,0.37676,1.45612,-0.10119,0.52973,1.16464,0.3306,0.48539,1.21154,-0.04704,0.62216,1.40738,0.21784,0.58303,1.42406
726,0.07237,0.42111,1.51717,0.01616,0.45477,0.07841,0.29174,0.14807,0.14701,0.02861,0.45004,0.49493,0.27937,0.37718,0.49301,0.03826,0.35467,0.91942,0.20843,0.34027,0.91873,-0.07935,0.39611,1.42491,0.25181,0.37716,1.45617,-0.10111,0.53048,1.16572,0.3304,0.48768,1.21228,-0.046,0.62278,1.4083,0.21646,0.58469,1.42445
727,0.07243,0.42089,1.51686,0.01635,0.45455,0.0786,0.29234,0.14716,0.14576,0.02871,0.45018,0.49513,0.27826,0.37432,0.49298,0.03882,0.35483,0.91961,0.20904,0.34095,0.91927,-0.07944,0.39513,1.42508,0.25227,0.37726,1.45638,-0.10135,0.531,1.16669,0.33034,0.48968,1.2132,-0.04512,0.62303,1.40911,0.21517,0.58661,1.42473
728,0.07263,0.42035,1.51667,0.01656,0.45453,0.07875,0.29262,0.14621,0.14434,0.02879,0.45055,0.49529,0.27703,0.37126,0.49286,0.03948,0.35494,0.9197,0.20971,0.34106,0.9197,-0.07923,0.39391,1.42517,0.25262,0.37707,1.45648,-0.10179,0.53107,1.16751,0.33042,0.49155,1.21418,-0.04429,0.62289,1.40972,0.21394,0.58879,1.42486
729,0.073,0.4197,1.51655,0.01668,0.45472,0.07877,0.29228,0.14514,0.14267,0.02885,0.45079,0.49531,0.27575,0.36806,0.49251,0.04013,0.35493,0.91965,0.21033,0.34074,0.91984,-0.07876,0.39257,1.4252,0.25299,0.37668,1.45629,-0.10231,0.53057,1.16808,0.33046,0.49348,1.21498,-0.04411,0.62224,1.41018,0.21264,0.59095,1.42481
730,0.07353,0.4189,1.51644,0.01662,0.45496,0.07875,0.29138,0.14382,0.14074,0.02894,0.45063,0.49528,0.27472,0.36467,0.49189,0.04073,0.35481,0.91961,0.21089,0.34018,0.91963,-0.07824,0.39135,1.42513,0.25371,0.37625,1.4559,-0.10275,0.52975,1.16831,0.33032,0.49535,1.21545,-0.04485,0.62134,1.41051,0.21142,0.59264,1.42476
731,0.07408,0.41779,1.51641,0.01657,0.45518,0.07879,0.29032,0.14231,0.13862,0.02915,0.45023,0.49531,0.27404,0.36101,0.49112,0.04132,0.35479,0.91972,0.21143,0.33965,0.91921,-0.0778,0.39038,1.42495,0.25487,0.37585,1.45553,-0.10309,0.52898,1.16831,0.33009,0.49684,1.21557,-0.04587,0.62074,1.4106,0.21073,0.5935,1.4249
732,0.07453,0.41631,1.51653,0.01679,0.45542,0.07887,0.28948,0.14084,0.13642,0.02951,0.44992,0.49537,0.27348,0.35715,0.49041,0.04193,0.3551,0.91991,0.212,0.33946,0.91883,-0.0774,0.38954,1.42471,0.25629,0.37541,1.45529,-0.10354,0.52843,1.16832,0.33001,0.49766,1.21552,-0.04611,0.62076,1.41034,0.21063,0.59374,1.42511
733,0.07484,0.41465,1.51677,0.01725,0.45566,0.0789,0.28889,0.1395,0.13428,0.03001,0.44982,0.49539,0.27268,0.35329,0.48979,0.04254,0.35565,0.92008,0.21257,0.3397,0.91855,-0.07688,0.38855,1.42453,0.25766,0.37487,1.45509,-0.10421,0.52798,1.16855,0.33014,0.49806,1.21542,-0.04515,0.62123,1.40984,0.21067,0.59398,1.42503
734,0.07513,0.41319,1.51693,0.01758,0.45589,0.07889,0.28829,0.13813,0.13229,0.03052,0.44977,0.49538,0.27152,0.34958,0.48918,0.04308,0.35609,0.92017,0.2131,0.34009,0.91828,-0.07625,0.38729,1.42451,0.25875,0.37429,1.45471,-0.10495,0.52736,1.16904,0.33044,0.49843,1.2153,-0.04352,0.62153,1.40937,0.2105,0.59453,1.42456
735,0.07554,0.41222,1.51685,0.01748,0.45606,0.07895,0.28747,0.13654,0.13048,0.03099,0.44971,0.49542,0.27015,0.34592,0.48855,0.04356,0.35619,0.92025,0.21359,0.34032,0.91798,-0.07549,0.38587,1.42476,0.25959,0.37378,1.45411,-0.10556,0.52633,1.16965,0.33087,0.49894,1.2151,-0.0419,0.62119,1.40913,0.21026,0.59502,1.42398
736,0.07612,0.41164,1.51656,0.01705,0.4561,0.07915,0.28637,0.13463,0.12878,0.0314,0.44972,0.49559,0.2688,0.34203,0.48799,0.04404,0.35605,0.92038,0.21407,0.3403,0.91769,-0.07443,0.38449,1.42517,0.26045,0.37335,1.45348,-0.10604,0.52479,1.17017,0.33143,0.4994,1.21485,-0.04076,0.62015,1.40901,0.21025,0.59491,1.42366
737,0.07698,0.41092,1.51625,0.0166,0.45593,0.07945,0.28508,0.13249,0.12706,0.03171,0.4498,0.49586,0.26768,0.33764,0.48757,0.04454,0.35581,0.92058,0.21456,0.34004,0.91746,-0.07302,0.38311,1.42545,0.2616,0.37293,1.45302,-0.10643,0.52279,1.17033,0.33208,0.49961,1.21457,-0.04034,0.61851,1.40881,0.21056,0.59411,1.42365
738,0.0783,0.40971,1.51605,0.01639,0.45566,0.07972,0.28376,0.13027,0.12521,0.0319,0.44988,0.49613,0.26678,0.33282,0.48721,0.04511,0.35555,0.92075,0.21512,0.3396,0.91723,-0.0716,0.38168,1.42539,0.26306,0.37248,1.45274,-0.10664,0.52052,1.17004,0.33275,0.49957,1.21428,-0.0405,0.61659,1.40836,0.21102,0.59284,1.42379
739,0.08012,0.40829,1.51585,0.01649,0.45556,0.07983,0.28257,0.12815,0.12316,0.03208,0.44999,0.49623,0.26599,0.32787,0.48674,0.04588,0.35536,0.92077,0.21583,0.33899,0.91685,-0.07049,0.38028,1.42519,0.26465,0.3719,1.45254,-0.1064,0.51828,1.16951,0.33353,0.49931,1.21402,-0.04055,0.61496,1.40766,0.21155,0.59133,1.42394
740,0.08229,0.4071,1.51554,0.01677,0.45584,0.07977,0.28164,0.12621,0.12095,0.03244,0.45036,0.49617,0.26521,0.3231,0.48608,0.04688,0.35532,0.9206,0.21676,0.33822,0.91627,-0.06963,0.37909,1.42516,0.26619,0.37104,1.45229,-0.10553,0.51635,1.16907,0.33463,0.49871,1.21378,-0.03968,0.61398,1.40684,0.21243,0.58948,1.42411
741,0.0844,0.40611,1.51514,0.017,0.45643,0.07967,0.28094,0.12445,0.11873,0.03308,0.45101,0.49606,0.26454,0.3186,0.48532,0.04801,0.3554,0.92034,0.21777,0.33731,0.91555,-0.06874,0.37806,1.42529,0.26762,0.36993,1.45191,-0.10412,0.51471,1.16881,0.33615,0.49762,1.21343,-0.03778,0.61326,1.40606,0.2141,0.58706,1.42441
742,0.08611,0.40486,1.5147,0.01695,0.45705,0.07968,0.28028,0.12281,0.11662,0.03394,0.45176,0.49603,0.26409,0.3143,0.48462,0.04905,0.35545,0.92015,0.21869,0.3364,0.91484,-0.06759,0.37688,1.42533,0.26889,0.36868,1.45143,-0.10262,0.51309,1.16857,0.33799,0.4961,1.21297,-0.03553,0.6122,1.40538,0.21661,0.58404,1.42497
743,0.08743,0.40311,1.51421,0.01659,0.45749,0.07983,0.27943,0.12122,0.11459,0.0349,0.45247,0.49613,0.26377,0.31,0.48402,0.0499,0.35534,0.92007,0.21944,0.33558,0.91415,-0.06614,0.37532,1.4252,0.26995,0.36733,1.45094,-0.10146,0.51127,1.16834,0.33983,0.49445,1.21255,-0.03365,0.61057,1.40486,0.21946,0.58061,1.42585
744,0.08865,0.40102,1.51372,0.01609,0.45772,0.08006,0.27826,0.11956,0.11254,0.0358,0.45322,0.4963,0.26335,0.3056,0.48339,0.05063,0.35498,0.91999,0.2201,0.33482,0.9134,-0.06443,0.37341,1.42506,0.27091,0.36581,1.45047,-0.10064,0.50922,1.16824,0.3414,0.49286,1.21223,-0.03225,0.60832,1.40469,0.2221,0.57706,1.42691
745,0.09012,0.39874,1.51338,0.0157,0.45773,0.08025,0.27698,0.11783,0.11043,0.03655,0.45413,0.49644,0.2626,0.30114,0.48265,0.05145,0.35433,0.91976,0.22087,0.33399,0.91255,-0.06256,0.37122,1.42497,0.27214,0.364,1.44996,-0.09978,0.50708,1.16833,0.34269,0.49135,1.21189,-0.0309,0.6054,1.40495,0.22428,0.57357,1.42782
746,0.09194,0.39637,1.51317,0.01559,0.45754,0.08026,0.27585,0.11615,0.10836,0.03719,0.45513,0.49642,0.26165,0.29676,0.48191,0.05249,0.35336,0.91926,0.22189,0.33299,0.91172,-0.06068,0.36875,1.42483,0.27397,0.36187,1.4493,-0.09866,0.50499,1.1685,0.3439,0.48992,1.21143,-0.02897,0.60208,1.40539,0.22611,0.57028,1.42841
747,0.09397,0.39399,1.51292,0.01578,0.45733,0.0801,0.27488,0.11475,0.10639,0.03787,0.45608,0.49624,0.26084,0.29253,0.48129,0.05368,0.35212,0.91853,0.22308,0.33173,0.91103,-0.05888,0.36619,1.42468,0.27629,0.35949,1.44848,-0.09733,0.50292,1.16868,0.34521,0.48869,1.21093,-0.02614,0.59894,1.40556,0.22792,0.56738,1.42878
748,0.09602,0.39165,1.51253,0.01623,0.45736,0.07992,0.27385,0.11375,0.1045,0.03869,0.45683,0.49605,0.26047,0.2885,0.48085,0.05488,0.35079,0.9178,0.22426,0.3302,0.91048,-0.05703,0.36392,1.42469,0.27867,0.35697,1.44756,-0.09586,0.50085,1.16886,0.34667,0.48769,1.21058,-0.02268,0.59635,1.40535,0.22986,0.56508,1.42916
749,0.09801,0.38925,1.51211,0.01679,0.4577,0.07985,0.27265,0.11308,0.1027,0.03963,0.45734,0.49596,0.26052,0.28475,0.48051,0.05608,0.34965,0.91728,0.2254,0.32856,0.91003,-0.05498,0.36206,1.42492,0.28083,0.35443,1.44669,-0.09416,0.49887,1.16907,0.3483,0.4867,1.21042,-0.0193,0.59412,1.40514,0.23186,0.56321,1.42951
750,0.10009,0.38666,1.51178,0.01723,0.45805,0.07987,0.27136,0.11253,0.10109,0.04065,0.45766,0.49594,0.26076,0.28126,0.48027,0.05743,0.3488,0.91695,0.22666,0.32697,0.90967,-0.05283,0.36037,1.42519,0.28285,0.35198,1.44601,-0.09216,0.49706,1.1693,0.35012,0.48539,1.21032,-0.01664,0.59173,1.40538,0.23383,0.56131,1.42969
751,0.10237,0.38396,1.51155,0.01746,0.45814,0.07984,0.27014,0.11191,0.09966,0.0417,0.45789,0.49587,0.26097,0.27794,0.48007,0.05899,0.34814,0.91663,0.22811,0.32548,0.90936,-0.05083,0.35852,1.42522,0.28495,0.34961,1.44549,-0.08986,0.49545,1.16941,0.35214,0.48358,1.2101,-0.01473,0.58894,1.40609,0.2358,0.55898,1.42962
752,0.10475,0.3813,1.51131,0.01761,0.458,0.07973,0.26915,0.11111,0.09827,0.04279,0.45811,0.4957,0.26099,0.27458,0.47981,0.06071,0.3475,0.91621,0.2297,0.32393,0.90902,-0.04906,0.35642,1.42491,0.28721,0.34715,1.44501,-0.0873,0.49402,1.16934,0.3543,0.48138,1.20975,-0.013,0.58599,1.40688,0.23779,0.55635,1.42932
753,0.10713,0.37869,1.51107,0.01785,0.4579,0.07957,0.26857,0.11016,0.09676,0.04391,0.4583,0.49548,0.26089,0.271,0.47942,0.06246,0.3468,0.91573,0.2313,0.32214,0.90854,-0.04729,0.35426,1.42436,0.28955,0.34435,1.44448,-0.08455,0.49272,1.16912,0.35652,0.47912,1.20948,-0.01087,0.58334,1.40736,0.23968,0.55395,1.42893
754,0.10954,0.37595,1.51089,0.01809,0.45797,0.07949,0.26838,0.10924,0.09509,0.04512,0.45852,0.49535,0.26087,0.26715,0.47897,0.06418,0.34597,0.91529,0.23285,0.32015,0.90797,-0.0453,0.35223,1.42379,0.2918,0.34121,1.44395,-0.08182,0.49147,1.16886,0.35869,0.47709,1.20957,-0.00817,0.58125,1.40743,0.24137,0.5523,1.42863
755,0.11201,0.37296,1.51074,0.01813,0.45821,0.07957,0.26839,0.10853,0.09338,0.04649,0.4589,0.49534,0.26114,0.26327,0.47856,0.06588,0.34497,0.91489,0.23439,0.3182,0.9074,-0.043,0.35027,1.42339,0.29386,0.33804,1.44352,-0.07921,0.49018,1.16879,0.36072,0.47517,1.20986,-0.00506,0.57951,1.40737,0.2432,0.55123,1.42852
756,0.11444,0.3699,1.51047,0.01794,0.45845,0.07972,0.26841,0.10802,0.0918,0.04798,0.45945,0.49537,0.2617,0.25964,0.47823,0.06757,0.34373,0.91443,0.23599,0.31639,0.90689,-0.04046,0.34815,1.42327,0.29572,0.33508,1.44311,-0.0767,0.48879,1.16907,0.36276,0.47273,1.20981,-0.00157,0.57756,1.40756,0.24582,0.54995,1.42838
757,0.11678,0.36701,1.51003,0.01771,0.45854,0.07978,0.26847,0.10756,0.09043,0.04945,0.46008,0.4953,0.2624,0.25644,0.47793,0.06932,0.34232,0.91378,0.23768,0.31458,0.90647,-0.03781,0.3459,1.42341,0.29753,0.33229,1.44261,-0.07423,0.48741,1.16973,0.3651,0.46936,1.20912,0.00242,0.57502,1.40816,0.2494,0.54792,1.42787
758,0.11909,0.36428,1.50962,0.01767,0.45849,0.07968,0.26855,0.10706,0.08927,0.05077,0.46063,0.49509,0.26306,0.25363,0.47766,0.07116,0.34086,0.91296,0.23946,0.31266,0.90613,-0.03522,0.34377,1.42375,0.29954,0.32948,1.44207,-0.07197,0.48597,1.17049,0.36766,0.46557,1.20817,0.00648,0.5721,1.40888,0.25309,0.54558,1.42699
759,0.1215,0.36147,1.50955,0.01787,0.4584,0.07952,0.26851,0.10656,0.08823,0.05196,0.46096,0.49485,0.26369,0.25096,0.47744,0.07302,0.33932,0.91215,0.24126,0.31059,0.90589,-0.03287,0.34189,1.42418,0.30183,0.32653,1.44167,-0.07007,0.48422,1.17107,0.36997,0.4623,1.20759,0.00971,0.5693,1.40939,0.25585,0.54366,1.42614
760,0.12417,0.35849,1.50978,0.01821,0.45837,0.07951,0.26825,0.10603,0.08722,0.05306,0.46094,0.49477,0.26439,0.24809,0.4773,0.07481,0.33756,0.91153,0.24298,0.30834,0.90572,-0.03071,0.3401,1.4246,0.30416,0.32339,1.44145,-0.0683,0.48207,1.17135,0.37185,0.45975,1.20758,0.01183,0.56687,1.40965,0.2576,0.54211,1.4257
761,0.12714,0.35556,1.51001,0.0185,0.45834,0.0797,0.26787,0.10538,0.08621,0.05409,0.46056,0.49491,0.26528,0.2449,0.47721,0.07651,0.33556,0.91115,0.24462,0.30596,0.90556,-0.02858,0.33812,1.42482,0.30635,0.31999,1.44128,-0.06626,0.47988,1.17146,0.37371,0.45729,1.20786,0.01368,0.56472,1.40981,0.25924,0.54033,1.4256
762,0.13011,0.35286,1.51003,0.01866,0.45822,0.08004,0.26756,0.1045,0.08534,0.05503,0.45997,0.49518,0.26636,0.24167,0.47719,0.07822,0.33353,0.91095,0.24628,0.30366,0.90543,-0.02634,0.3358,1.42482,0.3085,0.31645,1.44103,-0.06387,0.47792,1.17164,0.37608,0.45435,1.20804,0.01609,0.56269,1.41001,0.26148,0.53805,1.42546
763,0.13261,0.35036,1.50997,0.01868,0.45799,0.08048,0.26742,0.10345,0.08475,0.05594,0.45934,0.49554,0.2676,0.23875,0.47725,0.08,0.33172,0.91089,0.24802,0.3016,0.90538,-0.02398,0.33317,1.42493,0.31078,0.31308,1.44076,-0.06152,0.4759,1.17209,0.37896,0.45097,1.20793,0.0191,0.56077,1.4102,0.26425,0.53544,1.42499
764,0.13455,0.34786,1.51001,0.01871,0.45775,0.08093,0.26749,0.1024,0.08436,0.05683,0.45872,0.49591,0.2689,0.23613,0.47738,0.08186,0.33018,0.91092,0.2498,0.29959,0.90545,-0.02162,0.33036,1.42552,0.31308,0.31004,1.44052,-0.05951,0.4733,1.17285,0.38212,0.44731,1.20758,0.02232,0.55888,1.41029,0.26736,0.53243,1.42436
765,0.13635,0.3452,1.51013,0.0189,0.45759,0.08128,0.26787,0.10149,0.0839,0.0576,0.45813,0.49621,0.27009,0.23356,0.47749,0.08377,0.32867,0.91086,0.25156,0.2973,0.90554,-0.01943,0.32764,1.42634,0.31517,0.30721,1.4403,-0.0576,0.47023,1.17352,0.38548,0.44341,1.20711,0.02541,0.55697,1.41013,0.27081,0.52874,1.42386
766,0.1385,0.34245,1.51019,0.01933,0.45758,0.08154,0.26866,0.10079,0.08317,0.05821,0.45774,0.49646,0.27107,0.23085,0.47743,0.08563,0.32685,0.91058,0.25329,0.29467,0.9055,-0.01747,0.32527,1.42663,0.31704,0.30442,1.44003,-0.05527,0.46734,1.17345,0.38894,0.43928,1.20654,0.02814,0.55505,1.40957,0.27452,0.52449,1.42348
767,0.14107,0.33975,1.5101,0.01987,0.45773,0.08191,0.26966,0.10027,0.08221,0.05879,0.45769,0.49682,0.27198,0.22806,0.47721,0.08738,0.32462,0.91017,0.25492,0.29187,0.90531,-0.01561,0.32327,1.42607,0.31888,0.30157,1.43962,-0.05252,0.46477,1.17245,0.3922,0.43501,1.20577,0.03024,0.5531,1.40857,0.27822,0.52001,1.423
768,0.14384,0.33709,1.50995,0.02031,0.45795,0.08258,0.27038,0.09983,0.08127,0.05951,0.45788,0.49746,0.27304,0.22528,0.47701,0.08901,0.32214,0.90988,0.25648,0.28899,0.90515,-0.01356,0.32138,1.42525,0.3209,0.2985,1.43908,-0.04983,0.462,1.17104,0.39497,0.43068,1.20474,0.03165,0.55104,1.40734,0.28172,0.51545,1.42246
769,0.14658,0.33438,1.50988,0.02051,0.45825,0.08353,0.27049,0.09936,0.08064,0.06037,0.45806,0.49835,0.27436,0.22262,0.47706,0.09065,0.3196,0.9098,0.25805,0.28606,0.90525,-0.01104,0.31942,1.42486,0.32319,0.29513,1.43852,-0.0475,0.45886,1.17003,0.39722,0.42641,1.20366,0.03279,0.54904,1.40629,0.28502,0.5108,1.42206
770,0.14914,0.33161,1.50999,0.0205,0.45871,0.08462,0.27016,0.09886,0.08043,0.06121,0.45821,0.49935,0.27577,0.22023,0.47742,0.09235,0.31711,0.90985,0.2597,0.28327,0.90567,-0.00808,0.31745,1.42502,0.32576,0.29165,1.43814,-0.04539,0.45581,1.16973,0.39922,0.42235,1.20278,0.03422,0.54739,1.40569,0.28802,0.50617,1.42191
771,0.15152,0.32898,1.51025,0.02047,0.45947,0.08574,0.26984,0.09841,0.08049,0.06186,0.45854,0.50042,0.27707,0.21825,0.47791,0.0941,0.31473,0.90988,0.26143,0.28074,0.90626,-0.00507,0.31553,1.42544,0.32852,0.28845,1.43806,-0.04332,0.45308,1.16984,0.40125,0.41859,1.20217,0.0359,0.54607,1.40538,0.29065,0.50167,1.42188
772,0.15395,0.32659,1.51064,0.02059,0.46055,0.08695,0.26986,0.09805,0.08059,0.06226,0.45918,0.5016,0.27818,0.2167,0.47834,0.09584,0.31239,0.90989,0.26318,0.27838,0.90684,-0.0024,0.31363,1.42581,0.33121,0.2858,1.43826,-0.04124,0.45029,1.16983,0.4035,0.41509,1.20177,0.03738,0.54471,1.405,0.29302,0.49741,1.42183
773,0.15665,0.32441,1.51115,0.02087,0.46181,0.08833,0.27028,0.09767,0.0807,0.06248,0.45999,0.50297,0.2791,0.21549,0.47869,0.09749,0.3099,0.90995,0.26485,0.27593,0.90738,-5e-05,0.3117,1.42603,0.33358,0.28356,1.43866,-0.03908,0.44734,1.16955,0.40588,0.41168,1.20153,0.03887,0.54326,1.40433,0.29535,0.49355,1.42174
774,0.15946,0.32236,1.51171,0.0212,0.463,0.08993,0.27078,0.09729,0.08086,0.06266,0.46078,0.50459,0.27979,0.21447,0.47903,0.09896,0.30698,0.91006,0.26636,0.27318,0.90799,0.00222,0.3097,1.42616,0.33558,0.28126,1.43916,-0.03675,0.44467,1.1693,0.40808,0.40811,1.20141,0.04113,0.54215,1.40347,0.29772,0.49022,1.42161
775,0.16196,0.32036,1.51224,0.02145,0.46399,0.0918,0.27109,0.09704,0.08105,0.06287,0.4616,0.50647,0.28029,0.2135,0.47943,0.10022,0.30363,0.91024,0.26766,0.27,0.90871,0.00458,0.30765,1.42633,0.33737,0.2785,1.43961,-0.03435,0.44247,1.16939,0.40991,0.40417,1.20125,0.04427,0.54167,1.40259,0.30008,0.48739,1.42129
776,0.16401,0.31834,1.51274,0.02151,0.46484,0.09401,0.27114,0.09691,0.08124,0.06314,0.46262,0.50866,0.28078,0.21241,0.47989,0.10143,0.30014,0.91054,0.26885,0.26645,0.90951,0.00701,0.30553,1.42672,0.3391,0.27534,1.43994,-0.03208,0.44023,1.16974,0.41158,0.39991,1.20098,0.04746,0.54147,1.40175,0.30244,0.4848,1.42074
777,0.16586,0.31623,1.51326,0.02132,0.46571,0.09654,0.27107,0.09672,0.08146,0.06343,0.46392,0.51114,0.28144,0.2111,0.48042,0.10282,0.29689,0.91105,0.27018,0.26287,0.91034,0.00942,0.30337,1.42736,0.34073,0.27219,1.44029,-0.03002,0.43736,1.17007,0.41334,0.39557,1.20076,0.05003,0.54092,1.40086,0.30484,0.48215,1.42017
778,0.16783,0.3141,1.51378,0.02091,0.46683,0.09927,0.27106,0.09645,0.08172,0.06371,0.46544,0.5138,0.28237,0.20963,0.48099,0.10441,0.29401,0.91171,0.2717,0.25966,0.91113,0.0116,0.30116,1.42817,0.34222,0.26933,1.44078,-0.02804,0.43378,1.1702,0.41521,0.39147,1.20072,0.05199,0.5398,1.39989,0.30733,0.47937,1.41992
779,0.1699,0.31203,1.51418,0.0204,0.46831,0.10205,0.27128,0.09623,0.08194,0.06392,0.46713,0.5165,0.28348,0.20814,0.48154,0.10594,0.29135,0.91237,0.27323,0.25695,0.91183,0.01338,0.2988,1.42901,0.34372,0.26671,1.44122,-0.02605,0.42986,1.17021,0.41697,0.38781,1.20072,0.0535,0.53827,1.39894,0.30997,0.47656,1.42
780,0.1718,0.31004,1.51437,0.01984,0.47003,0.10479,0.27178,0.09616,0.08205,0.06407,0.46896,0.51917,0.28454,0.20671,0.48202,0.10722,0.28868,0.91289,0.27455,0.25453,0.91242,0.01481,0.29615,1.42981,0.34555,0.2642,1.44127,-0.02412,0.42592,1.17029,0.41851,0.38471,1.20038,0.05478,0.53655,1.39819,0.3127,0.47375,1.42012
781,0.17341,0.30803,1.51438,0.01926,0.4716,0.10744,0.27234,0.0962,0.08204,0.06416,0.47073,0.52174,0.2854,0.20528,0.4824,0.10826,0.28584,0.91322,0.27568,0.25211,0.91292,0.01611,0.29328,1.43071,0.34784,0.26169,1.44085,-0.02232,0.42208,1.17063,0.41993,0.38212,1.19967,0.0561,0.53474,1.39769,0.31526,0.47086,1.42008
782,0.17493,0.30594,1.51439,0.0187,0.47277,0.10993,0.27262,0.09622,0.08192,0.06423,0.4722,0.52417,0.28611,0.2038,0.48267,0.10923,0.28297,0.91346,0.27671,0.24952,0.91332,0.01754,0.29058,1.43184,0.35031,0.25918,1.44034,-0.02061,0.41828,1.17118,0.42133,0.37981,1.19894,0.05758,0.53281,1.39739,0.31739,0.468,1.41991
783,0.17668,0.30376,1.51456,0.01824,0.47367,0.11216,0.27247,0.09618,0.08177,0.06433,0.47331,0.52633,0.28684,0.20231,0.48288,0.11023,0.28048,0.91375,0.27769,0.24692,0.91365,0.01918,0.28839,1.43302,0.35251,0.25672,1.44018,-0.01892,0.41467,1.17165,0.42274,0.37741,1.19858,0.05913,0.53084,1.39707,0.31917,0.46538,1.41981
784,0.17876,0.30159,1.51495,0.01784,0.47468,0.11405,0.27215,0.0961,0.08165,0.0644,0.47422,0.52818,0.28768,0.20095,0.48305,0.11123,0.27866,0.91411,0.27859,0.24464,0.91391,0.02101,0.28661,1.4339,0.35424,0.25434,1.44047,-0.01736,0.41138,1.17185,0.42417,0.37468,1.1986,0.06067,0.52901,1.39651,0.32096,0.46304,1.41985
785,0.18112,0.29949,1.5155,0.01742,0.47598,0.11574,0.27198,0.09598,0.08151,0.06436,0.47506,0.52982,0.28854,0.19983,0.48313,0.11211,0.27737,0.91455,0.27937,0.24284,0.91406,0.02298,0.28485,1.43447,0.35566,0.25201,1.44093,-0.01606,0.40824,1.17186,0.42564,0.37171,1.19877,0.0621,0.52727,1.39574,0.32298,0.46098,1.41991
786,0.18369,0.29748,1.51604,0.01699,0.47752,0.11748,0.27212,0.09589,0.08128,0.06428,0.47594,0.53152,0.28926,0.199,0.48307,0.11286,0.27612,0.91505,0.28006,0.24132,0.91406,0.02502,0.2829,1.43494,0.35704,0.24962,1.44121,-0.01503,0.40492,1.17185,0.42711,0.36894,1.19887,0.06311,0.52524,1.39505,0.32495,0.45958,1.41968
787,0.18631,0.29563,1.51637,0.01658,0.4791,0.1194,0.27247,0.09586,0.08102,0.06433,0.47693,0.53339,0.28974,0.19832,0.48297,0.11358,0.27464,0.91553,0.28078,0.23986,0.91405,0.02698,0.28088,1.43541,0.35846,0.24729,1.44119,-0.01405,0.40144,1.1718,0.42853,0.36692,1.19901,0.0634,0.52266,1.39474,0.32645,0.45934,1.41911
788,0.18878,0.29401,1.51643,0.01618,0.48042,0.12138,0.27287,0.09587,0.08088,0.06449,0.47804,0.5353,0.29005,0.19762,0.48301,0.1144,0.27298,0.91588,0.28165,0.23847,0.91417,0.02869,0.27895,1.43573,0.3599,0.24529,1.44105,-0.01298,0.39815,1.17159,0.42983,0.36588,1.1993,0.06311,0.51977,1.39479,0.32735,0.46013,1.41845
789,0.19095,0.29244,1.51635,0.01578,0.4812,0.12317,0.27322,0.09585,0.08094,0.06464,0.47903,0.53702,0.29033,0.1968,0.48328,0.11532,0.27147,0.91614,0.28264,0.23731,0.91448,0.03011,0.27712,1.43584,0.36133,0.24374,1.44095,-0.01184,0.39533,1.17131,0.43091,0.36544,1.19966,0.06297,0.51711,1.39486,0.32788,0.46115,1.41791
790,0.19284,0.29061,1.51635,0.01546,0.48145,0.12464,0.27346,0.09573,0.08108,0.0647,0.47976,0.53845,0.29064,0.19589,0.48361,0.11623,0.27033,0.91642,0.28361,0.23645,0.91481,0.03137,0.27525,1.43585,0.36276,0.24243,1.44086,-0.01081,0.39299,1.17114,0.43174,0.36488,1.19978,0.0636,0.51492,1.39474,0.3285,0.46156,1.4175
791,0.19458,0.28844,1.51646,0.01521,0.48148,0.12578,0.27349,0.09548,0.08111,0.06478,0.48031,0.53956,0.29097,0.195,0.48379,0.117,0.26961,0.91673,0.28441,0.23583,0.91498,0.03262,0.27333,1.43586,0.36421,0.24111,1.4406,-0.00993,0.39096,1.17116,0.43242,0.36387,1.19946,0.06485,0.51294,1.39461,0.32956,0.46108,1.41713
792,0.19624,0.28619,1.51664,0.01485,0.48147,0.12662,0.27333,0.09512,0.08103,0.06505,0.48082,0.54032,0.29133,0.1942,0.48379,0.11755,0.26916,0.91691,0.28494,0.23532,0.91495,0.03379,0.27147,1.43595,0.36571,0.23962,1.4401,-0.00903,0.38913,1.17131,0.43305,0.36264,1.19885,0.06604,0.51087,1.3948,0.33094,0.46016,1.41674
