PaulMeinheit/Bachelor_Muay_Thai/processed_Data/E3/teep/sliced/JointPositions/sliced3.csv
Unnamed: 0_level_0,Neck_Joint_Position,Neck_Joint_Position,Neck_Joint_Position,L_ANKLE_POSITION,L_ANKLE_POSITION,L_ANKLE_POSITION,R_ANKLE_POSITION,R_ANKLE_POSITION,R_ANKLE_POSITION,L_KNEE_POSITION,L_KNEE_POSITION,L_KNEE_POSITION,R_KNEE_POSITION,R_KNEE_POSITION,R_KNEE_POSITION,L_HIP_POSITION,L_HIP_POSITION,L_HIP_POSITION,R_HIP_POSITION,R_HIP_POSITION,R_HIP_POSITION,L_SHOULDER_POSITION,L_SHOULDER_POSITION,L_SHOULDER_POSITION,R_SHOULDER_POSITION,R_SHOULDER_POSITION,R_SHOULDER_POSITION,L_ELBOW_POSITION,L_ELBOW_POSITION,L_ELBOW_POSITION,R_ELBOW_POSITION,R_ELBOW_POSITION,R_ELBOW_POSITION,L_WRIST_POSITION,L_WRIST_POSITION,L_WRIST_POSITION,R_WRIST_POSITION,R_WRIST_POSITION,R_WRIST_POSITION
ITEM,X,Y,Z,X,Y,Z,X,Y,Z,X,Y,Z,X,Y,Z,X,Y,Z,X,Y,Z,X,Y,Z,X,Y,Z,X,Y,Z,X,Y,Z,X,Y,Z,X,Y,Z
1175,0.16305,0.32057,1.50869,0.0141,0.4746,0.09608,0.26727,0.10715,0.08054,0.06539,0.4732,0.50964,0.28252,0.2147,0.48124,0.1055,0.29873,0.9063,0.27213,0.26166,0.91173,0.00348,0.30729,1.42531,0.33569,0.27284,1.43434,-0.01879,0.42816,1.1596,0.40489,0.39423,1.19279,0.05163,0.52039,1.39821,0.30136,0.4817,1.41423
1176,0.16471,0.31853,1.50916,0.01419,0.47589,0.09842,0.26732,0.10723,0.08077,0.06581,0.47413,0.51194,0.28305,0.21355,0.48177,0.10691,0.29563,0.9067,0.27355,0.25866,0.91248,0.00499,0.30553,1.42643,0.33786,0.27035,1.43456,-0.01696,0.42514,1.16012,0.40643,0.39065,1.19228,0.05291,0.51783,1.39872,0.30332,0.47892,1.41361
1177,0.16682,0.31632,1.50965,0.01443,0.47711,0.10081,0.26735,0.10725,0.081,0.06627,0.47508,0.5143,0.28369,0.2122,0.48234,0.10831,0.29286,0.90725,0.27494,0.25591,0.91321,0.00647,0.30362,1.42762,0.33997,0.26777,1.43492,-0.01533,0.42248,1.16096,0.40784,0.38734,1.19208,0.05448,0.51573,1.39936,0.30489,0.47639,1.41318
1178,0.16935,0.31402,1.51019,0.01468,0.4781,0.10317,0.26742,0.10718,0.08119,0.06674,0.47586,0.51663,0.28456,0.21055,0.48291,0.10965,0.29044,0.90798,0.27626,0.25337,0.91388,0.0079,0.30166,1.42879,0.34186,0.26506,1.43536,-0.01379,0.42023,1.16199,0.40909,0.38442,1.19224,0.05669,0.51438,1.39983,0.30644,0.47384,1.41332
1179,0.17183,0.31164,1.51079,0.01492,0.47892,0.10538,0.26755,0.107,0.08125,0.06713,0.47642,0.51882,0.28555,0.20873,0.48335,0.11085,0.28831,0.90881,0.27742,0.251,0.91437,0.00934,0.29978,1.4299,0.34352,0.26227,1.43581,-0.01206,0.41829,1.16305,0.41017,0.382,1.19272,0.05964,0.51382,1.39997,0.30821,0.47125,1.41418
1180,0.17392,0.30929,1.51145,0.01528,0.47979,0.10738,0.26772,0.10675,0.08118,0.06741,0.47684,0.52083,0.2865,0.2069,0.48364,0.11182,0.28636,0.90958,0.27835,0.24881,0.9147,0.01098,0.29792,1.43083,0.34518,0.25971,1.43621,-0.01003,0.41644,1.16396,0.41114,0.38016,1.19329,0.06265,0.51327,1.40006,0.31024,0.46885,1.41547
1181,0.17569,0.30722,1.51215,0.01576,0.4808,0.10917,0.26795,0.10648,0.08105,0.06768,0.47725,0.52265,0.28731,0.20516,0.48385,0.11257,0.2844,0.91017,0.2791,0.2468,0.91493,0.01293,0.29587,1.43134,0.34705,0.25775,1.43657,-0.00794,0.41449,1.1645,0.41225,0.37876,1.19372,0.06448,0.51153,1.4006,0.3124,0.46689,1.4166
1182,0.17748,0.30556,1.5128,0.01615,0.48186,0.11081,0.26821,0.10615,0.08095,0.06819,0.47766,0.52426,0.28798,0.2035,0.48405,0.11318,0.2823,0.91052,0.27976,0.24492,0.91515,0.01499,0.29362,1.43136,0.3491,0.2565,1.43692,-0.0061,0.41246,1.16464,0.41378,0.37748,1.19391,0.06466,0.50824,1.40174,0.31448,0.4655,1.41707
1183,0.17938,0.3041,1.51339,0.01628,0.48284,0.11239,0.26839,0.10576,0.08091,0.06904,0.47812,0.52574,0.28855,0.20184,0.48429,0.11382,0.28017,0.9107,0.28048,0.24315,0.91541,0.0169,0.29142,1.43121,0.3511,0.25546,1.43722,-0.00461,0.41048,1.16462,0.41574,0.37598,1.19397,0.06428,0.50443,1.403,0.31627,0.46455,1.41684
1184,0.1811,0.30244,1.51386,0.01619,0.48365,0.11399,0.26844,0.10544,0.08092,0.07,0.47879,0.52721,0.28903,0.20018,0.4846,0.11461,0.27824,0.91084,0.2813,0.2414,0.91574,0.01856,0.28955,1.43135,0.35286,0.25385,1.43738,-0.00335,0.40859,1.16479,0.41775,0.37416,1.1941,0.06482,0.50143,1.40381,0.31772,0.46367,1.41635
1185,0.18243,0.30043,1.51416,0.01601,0.48415,0.11562,0.26841,0.10524,0.08092,0.0708,0.47977,0.52871,0.28941,0.19856,0.48491,0.11559,0.27667,0.91097,0.28222,0.23954,0.91607,0.01996,0.28799,1.43197,0.35427,0.25138,1.4374,-0.00217,0.40676,1.1653,0.41944,0.37215,1.19442,0.06665,0.49962,1.40413,0.31904,0.46229,1.41624
1186,0.18356,0.29826,1.51425,0.01591,0.48429,0.11719,0.26841,0.10513,0.08081,0.07134,0.48091,0.5302,0.2896,0.19706,0.48511,0.11665,0.27544,0.91114,0.28311,0.23762,0.91633,0.02113,0.28653,1.4328,0.35535,0.24866,1.43745,-0.00101,0.40507,1.16602,0.42082,0.37014,1.19491,0.06878,0.49822,1.40446,0.32035,0.4601,1.41677
1187,0.18489,0.29625,1.51422,0.01603,0.4842,0.11862,0.26853,0.10504,0.08063,0.07174,0.48184,0.5316,0.28964,0.19565,0.48523,0.11751,0.2744,0.91141,0.28383,0.23593,0.91649,0.02219,0.28503,1.43349,0.35616,0.24663,1.4377,8e-05,0.40345,1.16667,0.42217,0.36841,1.19545,0.07003,0.49625,1.4052,0.32161,0.45746,1.41763
1188,0.18649,0.29454,1.51425,0.01634,0.48411,0.11985,0.26881,0.10497,0.08045,0.07216,0.48239,0.53282,0.2897,0.19432,0.48534,0.11801,0.27344,0.9118,0.28429,0.23477,0.91659,0.02327,0.28353,1.43397,0.35691,0.2456,1.43793,0.00103,0.40162,1.16701,0.42367,0.36719,1.19579,0.07021,0.49336,1.40617,0.32273,0.45508,1.41827
1189,0.18807,0.29294,1.51442,0.01668,0.48406,0.12087,0.26912,0.10487,0.08032,0.07262,0.4827,0.53383,0.28992,0.1931,0.48547,0.11829,0.27253,0.91214,0.28461,0.234,0.91667,0.02438,0.28216,1.43432,0.35776,0.24491,1.43783,0.00189,0.39947,1.16703,0.42522,0.36645,1.19586,0.07007,0.49007,1.40692,0.32381,0.45326,1.41855
1190,0.1894,0.29121,1.51465,0.0169,0.48365,0.12169,0.26925,0.10466,0.08023,0.07306,0.48302,0.53462,0.29033,0.192,0.48555,0.1186,0.27173,0.91233,0.28492,0.23318,0.91672,0.02543,0.28094,1.43456,0.3587,0.24368,1.43742,0.00275,0.39752,1.16698,0.42655,0.36584,1.19587,0.07039,0.48724,1.40734,0.32493,0.45171,1.41883
1191,0.19044,0.28936,1.51483,0.0169,0.48251,0.12231,0.2691,0.10432,0.08016,0.07355,0.48339,0.53517,0.29082,0.19106,0.48558,0.11904,0.27118,0.91237,0.28523,0.2321,0.91676,0.02632,0.27969,1.43462,0.35962,0.2417,1.43709,0.0036,0.39644,1.16711,0.42749,0.36501,1.19613,0.07134,0.48533,1.40776,0.32605,0.45004,1.4195
1192,0.19138,0.28761,1.51491,0.01664,0.48068,0.1227,0.26884,0.10404,0.0801,0.07421,0.48368,0.53543,0.29129,0.19031,0.48557,0.11954,0.27088,0.91232,0.28555,0.23103,0.91679,0.02699,0.27826,1.43453,0.36052,0.23949,1.43711,0.00439,0.39629,1.16756,0.42825,0.36388,1.19667,0.07273,0.4842,1.4084,0.32717,0.44818,1.42047
1193,0.19241,0.2861,1.51492,0.01628,0.47859,0.12295,0.26868,0.10402,0.08003,0.075,0.48374,0.53549,0.2917,0.1897,0.4856,0.12006,0.27068,0.91227,0.28595,0.23034,0.91682,0.02744,0.27671,1.43444,0.36144,0.23762,1.4374,0.00512,0.39647,1.16823,0.42911,0.36264,1.19727,0.07415,0.4834,1.40922,0.32838,0.44625,1.42148
1194,0.1936,0.28468,1.51496,0.01608,0.4766,0.12316,0.26867,0.10424,0.08001,0.07578,0.48356,0.53553,0.29211,0.18917,0.48571,0.12059,0.27042,0.91229,0.28647,0.23004,0.91691,0.02785,0.27529,1.43456,0.36235,0.23621,1.43765,0.00577,0.39629,1.16889,0.43007,0.36164,1.19775,0.07512,0.48252,1.41004,0.32958,0.44434,1.42241
1195,0.1948,0.2832,1.5151,0.01616,0.47478,0.12336,0.26871,0.10451,0.08006,0.07645,0.48324,0.53562,0.29258,0.1887,0.48589,0.12111,0.27013,0.91241,0.28702,0.22988,0.91706,0.0285,0.27426,1.43493,0.36312,0.23504,1.43771,0.0062,0.39546,1.16937,0.43085,0.36098,1.19808,0.07541,0.48128,1.41071,0.33057,0.44246,1.42328
1196,0.19584,0.28184,1.51533,0.01641,0.47303,0.12348,0.26865,0.10468,0.08016,0.07704,0.48286,0.53566,0.29308,0.18839,0.48606,0.1216,0.26998,0.91259,0.28749,0.22965,0.91722,0.02953,0.27361,1.43539,0.3637,0.23387,1.43757,0.00621,0.39421,1.16964,0.43119,0.3604,1.19818,0.07519,0.47973,1.41116,0.33124,0.44054,1.424
1197,0.19661,0.28084,1.51555,0.01667,0.47127,0.12341,0.2685,0.10468,0.08021,0.07753,0.4824,0.53553,0.29354,0.1883,0.48609,0.12202,0.27,0.91274,0.2878,0.22921,0.91729,0.03063,0.27305,1.43573,0.36416,0.23254,1.43732,0.00594,0.39305,1.16984,0.4311,0.35959,1.19805,0.0749,0.47818,1.4115,0.33161,0.43865,1.42446
1198,0.19712,0.28004,1.51568,0.01676,0.46947,0.12311,0.26831,0.10457,0.08014,0.07789,0.48176,0.53515,0.29386,0.1884,0.48595,0.12234,0.27009,0.91278,0.28795,0.22858,0.91721,0.03124,0.2724,1.43588,0.36454,0.23113,1.43702,0.00568,0.39242,1.17007,0.43088,0.35856,1.19779,0.07489,0.47698,1.41186,0.33183,0.43697,1.42462
1199,0.19735,0.27911,1.51568,0.01657,0.46768,0.12256,0.26813,0.10445,0.08001,0.07823,0.48076,0.5345,0.29407,0.18866,0.48571,0.12258,0.27014,0.91273,0.28803,0.22798,0.91705,0.03122,0.27186,1.43597,0.36479,0.22989,1.43676,0.00551,0.39228,1.17037,0.43088,0.35755,1.19758,0.07526,0.47626,1.4122,0.33211,0.43569,1.42462
1200,0.19732,0.278,1.51557,0.01616,0.466,0.12181,0.26799,0.10444,0.0799,0.07865,0.47935,0.53362,0.29426,0.18904,0.4855,0.1228,0.27011,0.91263,0.28817,0.22766,0.9169,0.031,0.27164,1.4362,0.36491,0.22891,1.43655,0.00518,0.39235,1.17073,0.43112,0.35679,1.19752,0.07605,0.47603,1.41234,0.33249,0.4349,1.42464
1201,0.19708,0.27705,1.51542,0.01576,0.46431,0.12085,0.26789,0.1045,0.0799,0.07911,0.47765,0.53252,0.29448,0.18942,0.48541,0.12305,0.27003,0.91245,0.28844,0.22767,0.91684,0.03101,0.2717,1.43664,0.36502,0.22797,1.43637,0.00472,0.39254,1.17128,0.43126,0.35628,1.19758,0.07737,0.47636,1.41231,0.33285,0.43443,1.42477
1202,0.19672,0.27649,1.51531,0.01561,0.46252,0.11961,0.26785,0.10455,0.07994,0.07954,0.4758,0.53119,0.29464,0.18965,0.4854,0.12332,0.27004,0.91215,0.28875,0.22786,0.91684,0.03117,0.27183,1.43714,0.36513,0.2268,1.43615,0.00458,0.39306,1.17199,0.43111,0.3558,1.19766,0.079,0.47717,1.41238,0.33311,0.43402,1.42501
1203,0.19631,0.27614,1.51528,0.01581,0.46067,0.11802,0.26783,0.10453,0.07991,0.07995,0.47384,0.52957,0.29469,0.18964,0.48537,0.12355,0.2703,0.91174,0.28897,0.22812,0.91678,0.03122,0.2719,1.43742,0.36505,0.2255,1.43582,0.00504,0.39406,1.17266,0.43076,0.35521,1.19764,0.08014,0.47798,1.4129,0.3333,0.43343,1.42523
1204,0.19591,0.27569,1.5153,0.01629,0.45885,0.11615,0.26779,0.10445,0.07974,0.08039,0.47174,0.52772,0.2947,0.18952,0.4852,0.12372,0.27082,0.9113,0.28905,0.22835,0.91659,0.03117,0.27193,1.4374,0.36468,0.22439,1.43538,0.00575,0.39529,1.17313,0.43047,0.35456,1.19748,0.08025,0.47824,1.4139,0.33348,0.43259,1.42532
1205,0.19562,0.275,1.51534,0.01675,0.45708,0.11426,0.26775,0.10431,0.07951,0.08082,0.46956,0.52585,0.2948,0.18942,0.48495,0.1239,0.27152,0.91096,0.28911,0.22857,0.91631,0.03125,0.27193,1.43726,0.36422,0.22362,1.43486,0.00608,0.39627,1.17341,0.43028,0.35404,1.19716,0.07965,0.47796,1.4149,0.33358,0.43169,1.42527
1206,0.19566,0.27428,1.51532,0.01691,0.45545,0.11259,0.26776,0.10413,0.07941,0.08117,0.46744,0.52417,0.29495,0.18949,0.48479,0.12417,0.27227,0.91074,0.28926,0.22887,0.91613,0.03151,0.27184,1.43717,0.36392,0.2231,1.43434,0.0058,0.39683,1.17368,0.43005,0.35372,1.19678,0.07906,0.47768,1.41554,0.33354,0.43101,1.42508
1207,0.19615,0.27386,1.51516,0.01675,0.45413,0.11116,0.26785,0.10397,0.07952,0.08137,0.46546,0.5227,0.29493,0.18977,0.48481,0.12451,0.27293,0.91058,0.28953,0.22927,0.91614,0.03174,0.2716,1.43713,0.36376,0.22283,1.434,0.00524,0.39741,1.17411,0.42968,0.35357,1.19643,0.07882,0.47793,1.41598,0.33329,0.43071,1.42484
1208,0.19681,0.27377,1.51484,0.01648,0.45315,0.10978,0.26794,0.1039,0.07971,0.08134,0.46354,0.5213,0.29465,0.19013,0.48493,0.12484,0.27349,0.91037,0.28983,0.22975,0.91626,0.03158,0.2713,1.437,0.36356,0.2229,1.43393,0.0049,0.39857,1.17471,0.42927,0.35351,1.19624,0.07881,0.47883,1.41657,0.33284,0.43071,1.42461
1209,0.19723,0.27376,1.51447,0.0163,0.45236,0.10822,0.26798,0.10392,0.07979,0.0811,0.46159,0.51978,0.29427,0.19038,0.48499,0.12511,0.27404,0.91,0.29009,0.23035,0.91629,0.03098,0.27117,1.4366,0.36329,0.22311,1.4341,0.00501,0.40033,1.17516,0.42906,0.35341,1.19626,0.07875,0.47995,1.41728,0.33234,0.43079,1.42445
1210,0.19722,0.2736,1.5142,0.01624,0.45157,0.10649,0.26795,0.10398,0.0797,0.08078,0.45965,0.51811,0.29405,0.19047,0.48491,0.12531,0.27472,0.90952,0.2903,0.23112,0.91615,0.03023,0.2715,1.43589,0.36305,0.22301,1.43425,0.00536,0.40227,1.17514,0.42902,0.35315,1.19639,0.07839,0.48075,1.41784,0.33192,0.43078,1.42433
1211,0.1969,0.27337,1.51407,0.01626,0.45077,0.10471,0.2679,0.10406,0.07959,0.08049,0.45778,0.51641,0.29404,0.19057,0.48479,0.12537,0.27561,0.90906,0.29038,0.2321,0.91595,0.02975,0.27237,1.43508,0.36281,0.22246,1.43417,0.00545,0.40392,1.17467,0.42884,0.35267,1.19635,0.07762,0.48106,1.41807,0.33157,0.43079,1.42405
1212,0.19638,0.2734,1.51393,0.01625,0.4501,0.10298,0.26788,0.10414,0.07964,0.08025,0.45599,0.51473,0.29414,0.19086,0.48479,0.12527,0.27668,0.90869,0.29028,0.2332,0.91587,0.02949,0.27354,1.43452,0.36247,0.22201,1.43383,0.00495,0.40507,1.17413,0.42819,0.35222,1.19593,0.07675,0.48117,1.41796,0.33118,0.43114,1.42346
1213,0.19565,0.27385,1.5137,0.0161,0.44966,0.10133,0.26797,0.1042,0.07985,0.07997,0.4543,0.51311,0.29421,0.19128,0.48492,0.1251,0.2778,0.90832,0.29007,0.23428,0.91593,0.02898,0.27473,1.43441,0.36206,0.22226,1.43349,0.00397,0.40592,1.17389,0.427,0.35224,1.19524,0.07643,0.48162,1.41765,0.33063,0.43197,1.42276
1214,0.19473,0.27461,1.51347,0.01584,0.44933,0.0998,0.26818,0.10423,0.08006,0.07954,0.45271,0.51162,0.29419,0.19164,0.48508,0.12489,0.27884,0.90797,0.28983,0.23529,0.91602,0.02792,0.27576,1.43457,0.36162,0.22325,1.43343,0.00298,0.40693,1.17403,0.42559,0.3529,1.19474,0.07687,0.48266,1.41735,0.32993,0.43302,1.42242
1215,0.1937,0.27545,1.51336,0.01567,0.44889,0.09844,0.26846,0.1042,0.0802,0.07897,0.45126,0.51033,0.29402,0.19197,0.48517,0.12463,0.27984,0.90771,0.28957,0.23636,0.91604,0.02671,0.27659,1.43464,0.36108,0.22454,1.43376,0.00228,0.40832,1.17434,0.4244,0.35385,1.19471,0.0774,0.48414,1.41726,0.3292,0.43394,1.4226
1216,0.1927,0.27621,1.51336,0.01568,0.44824,0.09721,0.26871,0.10409,0.08028,0.07831,0.44993,0.5092,0.2936,0.19245,0.48516,0.12426,0.28094,0.90759,0.28927,0.23769,0.91594,0.02596,0.27731,1.43446,0.36035,0.22573,1.43422,0.00178,0.40981,1.17452,0.42367,0.35478,1.19503,0.07718,0.48574,1.41731,0.32852,0.4347,1.423
1217,0.1918,0.27682,1.51342,0.01585,0.44747,0.09604,0.26885,0.1039,0.08035,0.07764,0.44867,0.50817,0.29293,0.19307,0.4851,0.12378,0.28225,0.90761,0.28887,0.2393,0.91578,0.02582,0.27816,1.43419,0.35954,0.22672,1.43438,0.00125,0.41099,1.17445,0.42331,0.35587,1.19537,0.07601,0.48718,1.41737,0.32785,0.43562,1.42327
1218,0.191,0.27734,1.5135,0.01606,0.4467,0.09492,0.26891,0.10365,0.08043,0.07698,0.44746,0.50718,0.29223,0.19353,0.48507,0.12323,0.28365,0.90769,0.2884,0.24093,0.91562,0.02587,0.27931,1.43411,0.35878,0.22758,1.43402,0.00071,0.41172,1.17422,0.42305,0.3575,1.19556,0.07429,0.4883,1.41737,0.32719,0.43692,1.42341
1219,0.19009,0.27798,1.51352,0.01617,0.44597,0.09389,0.26891,0.10339,0.08051,0.0763,0.44637,0.50626,0.29171,0.19363,0.4851,0.12268,0.28491,0.90771,0.2879,0.24239,0.9155,0.02557,0.28068,1.43427,0.3581,0.22864,1.43336,0.00021,0.41223,1.17396,0.42265,0.35965,1.19557,0.07267,0.48925,1.41731,0.32651,0.43858,1.42347
1220,0.18883,0.27883,1.51342,0.01608,0.44531,0.09298,0.26884,0.1032,0.08053,0.07557,0.4455,0.50545,0.29136,0.1935,0.48512,0.12207,0.28595,0.90765,0.28738,0.24375,0.91535,0.02465,0.28202,1.43443,0.35744,0.23016,1.43273,-0.00039,0.41297,1.17379,0.42196,0.36188,1.19533,0.07153,0.4904,1.41717,0.3257,0.44044,1.4233
1221,0.18728,0.27978,1.51319,0.0158,0.44473,0.09221,0.26875,0.10309,0.08046,0.0748,0.44494,0.50475,0.29103,0.19349,0.48505,0.1213,0.28695,0.90756,0.28673,0.2452,0.9151,0.02326,0.28315,1.43439,0.35682,0.2321,1.43233,-0.00132,0.41415,1.17373,0.42103,0.36393,1.1949,0.07081,0.49192,1.41694,0.32463,0.44232,1.42287
1222,0.18581,0.28077,1.51291,0.01553,0.44424,0.09154,0.26881,0.10307,0.08038,0.07397,0.4447,0.50415,0.29062,0.19381,0.48491,0.12035,0.28818,0.90755,0.28588,0.24675,0.91481,0.02176,0.28412,1.43421,0.35622,0.23416,1.43219,-0.00255,0.41559,1.17376,0.42006,0.3658,1.19456,0.07024,0.49363,1.41669,0.32344,0.44415,1.42245
1223,0.18472,0.28191,1.5127,0.0154,0.44386,0.09093,0.26911,0.10314,0.08034,0.07309,0.44472,0.50365,0.29018,0.1944,0.4848,0.11933,0.28974,0.90766,0.28487,0.24831,0.91457,0.02052,0.28519,1.43406,0.35548,0.236,1.4323,-0.00373,0.41709,1.17383,0.41931,0.36753,1.1946,0.06946,0.49514,1.41663,0.32236,0.44594,1.42234
1224,0.18398,0.2833,1.51266,0.0154,0.44357,0.09039,0.26942,0.10328,0.08039,0.07228,0.44484,0.50322,0.28978,0.1951,0.48476,0.11836,0.29149,0.90787,0.28387,0.24986,0.91441,0.01969,0.28654,1.43402,0.35446,0.23744,1.43252,-0.00453,0.41865,1.17389,0.41889,0.369,1.19501,0.06818,0.49634,1.41695,0.32155,0.44767,1.42248
1225,0.18337,0.28493,1.51277,0.01538,0.44326,0.08989,0.26951,0.10344,0.08051,0.07163,0.44484,0.50281,0.28937,0.19581,0.48477,0.11755,0.29324,0.90814,0.28304,0.25148,0.9143,0.01912,0.28804,1.43402,0.35325,0.2385,1.43267,-0.0051,0.42032,1.17397,0.41867,0.37025,1.19553,0.06655,0.49749,1.41751,0.32087,0.44936,1.42265
1226,0.18272,0.28667,1.5129,0.01523,0.44279,0.08937,0.26936,0.10361,0.08062,0.07114,0.44463,0.50233,0.28881,0.19657,0.48478,0.11694,0.29484,0.90834,0.28247,0.2532,0.91418,0.01854,0.28938,1.43397,0.35204,0.23952,1.43272,-0.00589,0.42197,1.1741,0.4183,0.3715,1.19595,0.06499,0.4988,1.41798,0.3201,0.45118,1.4227
1227,0.18181,0.28849,1.51286,0.01503,0.44222,0.08876,0.26915,0.10385,0.08071,0.07069,0.44429,0.50175,0.28811,0.19747,0.48473,0.11643,0.29629,0.90843,0.28207,0.25507,0.91401,0.0176,0.29034,1.43381,0.35099,0.24105,1.43284,-0.00717,0.42345,1.17423,0.41748,0.3731,1.19617,0.06372,0.50028,1.4181,0.3191,0.4533,1.42266
1228,0.18048,0.29031,1.51261,0.015,0.44174,0.08807,0.26901,0.10409,0.08079,0.07013,0.44397,0.50113,0.28748,0.19861,0.48463,0.11581,0.29772,0.90845,0.28162,0.25712,0.91379,0.01614,0.29098,1.43345,0.35021,0.24346,1.43316,-0.00875,0.42474,1.17423,0.41624,0.37524,1.1962,0.0626,0.50197,1.41784,0.31784,0.45564,1.42262
1229,0.17883,0.292,1.5123,0.01517,0.44147,0.0874,0.26903,0.10422,0.08093,0.06946,0.44379,0.50058,0.28705,0.2,0.48448,0.11495,0.29921,0.90851,0.28093,0.2593,0.91353,0.01436,0.29151,1.43288,0.34966,0.24651,1.43355,-0.0103,0.42604,1.17403,0.41488,0.37777,1.19609,0.06134,0.50387,1.41736,0.31634,0.45805,1.42248
1230,0.17716,0.29356,1.51204,0.01537,0.44127,0.08683,0.26919,0.10419,0.08107,0.06879,0.4438,0.50011,0.28671,0.20152,0.48428,0.11378,0.30071,0.90863,0.27993,0.26146,0.91323,0.01254,0.29218,1.43217,0.34901,0.24953,1.4338,-0.01175,0.4275,1.1737,0.41367,0.38026,1.19589,0.05979,0.50579,1.41691,0.31464,0.46043,1.4221
1231,0.17574,0.2953,1.51185,0.01551,0.441,0.08631,0.26936,0.10418,0.08117,0.06824,0.44397,0.49968,0.2862,0.20305,0.48403,0.11234,0.30218,0.90874,0.27867,0.26362,0.91288,0.01078,0.29317,1.43144,0.34799,0.25213,1.43384,-0.01325,0.42909,1.17326,0.41265,0.38243,1.1957,0.05806,0.50752,1.41649,0.31284,0.46279,1.42151
1232,0.17452,0.29741,1.51169,0.01574,0.44072,0.08575,0.26938,0.1043,0.08126,0.06776,0.44427,0.49921,0.28539,0.20457,0.48381,0.11072,0.30366,0.9088,0.27725,0.26595,0.91253,0.00902,0.2945,1.43079,0.34662,0.25448,1.43377,-0.01486,0.43066,1.17272,0.41162,0.38453,1.19558,0.05634,0.509,1.41601,0.3111,0.46516,1.42098
1233,0.17322,0.29961,1.51161,0.01614,0.44056,0.08518,0.26917,0.1046,0.08135,0.06728,0.44475,0.49874,0.28444,0.20628,0.48358,0.10903,0.30519,0.90882,0.27578,0.26843,0.91218,0.00729,0.29606,1.43026,0.34523,0.25702,1.43364,-0.0165,0.43208,1.17211,0.41037,0.38712,1.19551,0.05466,0.51038,1.41543,0.30954,0.46763,1.42082
1234,0.17159,0.30151,1.51161,0.01652,0.44061,0.08475,0.26878,0.10509,0.08142,0.06682,0.44547,0.49841,0.28363,0.20838,0.48325,0.10743,0.3068,0.9089,0.27436,0.27082,0.91179,0.00567,0.2977,1.42987,0.34407,0.26001,1.43345,-0.01824,0.43331,1.17151,0.40886,0.39044,1.19541,0.05295,0.51181,1.41476,0.30815,0.47027,1.42101
1235,0.16975,0.30312,1.51168,0.01669,0.44081,0.08454,0.26837,0.10574,0.0814,0.06643,0.44637,0.49826,0.2831,0.21081,0.48277,0.10604,0.30854,0.90913,0.27304,0.27287,0.91135,0.00428,0.29944,1.42967,0.34313,0.26319,1.43327,-0.02021,0.4344,1.17104,0.40723,0.39414,1.19533,0.05122,0.51333,1.41408,0.30676,0.47302,1.42137
1236,0.16805,0.30487,1.51177,0.01672,0.441,0.0844,0.26811,0.10636,0.08129,0.06613,0.44731,0.49814,0.28274,0.21322,0.4822,0.10491,0.31039,0.9094,0.27187,0.27448,0.91088,0.0032,0.30121,1.42969,0.34221,0.26606,1.43312,-0.02222,0.43556,1.17082,0.40567,0.39768,1.19538,0.0496,0.51492,1.4136,0.30524,0.47577,1.42171
1237,0.16664,0.30701,1.51183,0.01679,0.44101,0.08408,0.26809,0.10676,0.08118,0.06592,0.44811,0.49785,0.28224,0.21536,0.48164,0.10393,0.31225,0.90952,0.27078,0.2758,0.91041,0.0023,0.3029,1.42977,0.34105,0.26843,1.43295,-0.02392,0.43696,1.17083,0.40419,0.40078,1.19553,0.04827,0.51653,1.41344,0.3035,0.4785,1.42187
1238,0.16531,0.3094,1.51186,0.01696,0.44077,0.08352,0.26818,0.10698,0.08116,0.06574,0.44865,0.49732,0.28151,0.21745,0.48113,0.10289,0.314,0.90947,0.26964,0.27707,0.91001,0.0013,0.30447,1.42978,0.33945,0.2707,1.43276,-0.02521,0.43853,1.17087,0.40266,0.40356,1.19565,0.04721,0.51823,1.41336,0.30152,0.48139,1.42175
1239,0.16383,0.31182,1.51193,0.01713,0.44037,0.08287,0.26822,0.10717,0.08126,0.06545,0.449,0.4967,0.28068,0.21989,0.48063,0.10163,0.31553,0.90932,0.26835,0.27846,0.90964,6e-05,0.30604,1.42975,0.33743,0.27327,1.43266,-0.02635,0.43989,1.17072,0.40095,0.40634,1.19575,0.04601,0.51999,1.4131,0.29929,0.48459,1.42147
1240,0.16213,0.3143,1.51202,0.01724,0.43997,0.08228,0.26817,0.10743,0.0814,0.06499,0.44951,0.49616,0.27986,0.2228,0.48003,0.1001,0.31684,0.90914,0.26688,0.28007,0.9092,-0.00132,0.30768,1.42982,0.33532,0.27619,1.43274,-0.02756,0.44081,1.1704,0.39907,0.4092,1.19586,0.04435,0.52164,1.41267,0.29698,0.48798,1.4212
1241,0.16028,0.31695,1.51203,0.01729,0.43973,0.08185,0.26813,0.10775,0.08152,0.06447,0.45047,0.49576,0.27904,0.22591,0.47936,0.09838,0.31817,0.90896,0.26527,0.28191,0.90867,-0.00268,0.30939,1.43001,0.33353,0.27921,1.43298,-0.02883,0.44148,1.17005,0.39714,0.41201,1.19594,0.04242,0.52313,1.41224,0.29475,0.49125,1.421
1242,0.15832,0.31974,1.51187,0.01727,0.43971,0.08157,0.26815,0.10819,0.08166,0.06398,0.45179,0.4955,0.27816,0.2289,0.47876,0.09664,0.31967,0.90885,0.26364,0.28391,0.90818,-0.00396,0.31117,1.43022,0.33214,0.28215,1.43328,-0.03012,0.4422,1.16973,0.39527,0.41461,1.19592,0.04057,0.52463,1.41182,0.29273,0.49413,1.4208
1243,0.15627,0.32259,1.5116,0.01716,0.4397,0.08138,0.26808,0.10884,0.08189,0.06347,0.45307,0.49532,0.27726,0.23175,0.47833,0.09504,0.32127,0.90885,0.26212,0.28588,0.90784,-0.00525,0.31299,1.43036,0.33082,0.28499,1.4335,-0.03154,0.44315,1.16944,0.39351,0.417,1.19577,0.03906,0.52651,1.41124,0.29084,0.49675,1.4205
1244,0.15419,0.3254,1.51136,0.01689,0.43949,0.08121,0.26775,0.10965,0.08223,0.06275,0.45396,0.49516,0.27647,0.23462,0.47804,0.09358,0.32276,0.90894,0.26072,0.28768,0.90765,-0.00667,0.31475,1.43032,0.32918,0.28771,1.43354,-0.03322,0.44447,1.16921,0.39184,0.41933,1.19558,0.03814,0.52914,1.41034,0.28889,0.49943,1.42007
1245,0.15222,0.32799,1.51124,0.0165,0.43909,0.08102,0.26729,0.11053,0.08266,0.06174,0.45445,0.49501,0.27584,0.23762,0.4778,0.09215,0.3241,0.90909,0.25936,0.28934,0.90755,-0.00818,0.31631,1.43005,0.32715,0.29023,1.43346,-0.03499,0.44633,1.16912,0.39026,0.4217,1.19554,0.03791,0.53254,1.40924,0.2867,0.5023,1.41957
1246,0.15046,0.3303,1.51123,0.01609,0.43874,0.08084,0.26703,0.11139,0.0832,0.06058,0.45476,0.49488,0.27529,0.24088,0.47756,0.09063,0.32539,0.9093,0.2579,0.29097,0.90747,-0.00965,0.31774,1.42959,0.32492,0.2927,1.43351,-0.03655,0.44869,1.16913,0.38876,0.42409,1.19574,0.03794,0.53619,1.40828,0.28427,0.50526,1.41913
1247,0.14874,0.33248,1.51123,0.01575,0.4387,0.08065,0.26708,0.11227,0.08388,0.05948,0.45509,0.49476,0.27473,0.24451,0.47734,0.08902,0.32676,0.90953,0.25637,0.29271,0.90743,-0.01101,0.31928,1.42902,0.32273,0.29541,1.43386,-0.03781,0.45116,1.16903,0.38727,0.42654,1.19613,0.0376,0.53944,1.40761,0.28174,0.50821,1.41885
1248,0.14679,0.33478,1.51121,0.01553,0.439,0.08049,0.26726,0.11317,0.08476,0.05849,0.45546,0.49467,0.27411,0.24853,0.47717,0.08741,0.32822,0.90983,0.25483,0.29458,0.90745,-0.01236,0.32103,1.4285,0.3207,0.29855,1.4344,-0.039,0.45334,1.16871,0.38574,0.42914,1.19651,0.03671,0.54223,1.40697,0.27924,0.51114,1.41865
1249,0.14455,0.33726,1.5112,0.0155,0.43951,0.08039,0.26736,0.11408,0.08581,0.05757,0.45572,0.49468,0.27351,0.25276,0.47707,0.08581,0.32964,0.91023,0.25333,0.2965,0.90755,-0.01391,0.32293,1.42827,0.31882,0.30195,1.43482,-0.04043,0.45498,1.16833,0.38406,0.43193,1.19666,0.03569,0.54506,1.40601,0.27678,0.51413,1.41834
1250,0.14232,0.33989,1.51124,0.01557,0.43999,0.08033,0.26732,0.11492,0.08696,0.05657,0.45571,0.49474,0.27305,0.25681,0.47708,0.08421,0.33085,0.91071,0.25184,0.29831,0.90774,-0.01584,0.32493,1.42855,0.31706,0.30536,1.43504,-0.04218,0.45605,1.16813,0.38209,0.43488,1.19656,0.03475,0.54808,1.4048,0.27426,0.51729,1.4179
1251,0.14047,0.34268,1.51136,0.01556,0.44023,0.08019,0.26717,0.11569,0.08814,0.05538,0.45531,0.49474,0.27281,0.26035,0.47724,0.08258,0.33179,0.91113,0.25032,0.29985,0.90802,-0.01811,0.32699,1.42927,0.31529,0.30872,1.43531,-0.04412,0.45684,1.16817,0.37982,0.43788,1.19651,0.03362,0.55085,1.4038,0.27161,0.52067,1.41752
1252,0.13895,0.34561,1.51156,0.0154,0.44025,0.07996,0.26703,0.11646,0.08932,0.05405,0.45465,0.49465,0.27274,0.26354,0.47752,0.08089,0.33263,0.9115,0.24875,0.30131,0.90837,-0.02057,0.32905,1.42997,0.31348,0.31203,1.43584,-0.04607,0.45778,1.16826,0.37747,0.44083,1.19671,0.03181,0.55293,1.40338,0.26892,0.52408,1.41738
1253,0.13739,0.34868,1.51178,0.0152,0.44017,0.07975,0.26693,0.11744,0.09064,0.05279,0.45401,0.49456,0.27274,0.26701,0.47788,0.07915,0.33358,0.91191,0.24715,0.30301,0.90879,-0.02295,0.33102,1.43027,0.31168,0.3152,1.4365,-0.04802,0.45905,1.16818,0.37523,0.44365,1.19706,0.02914,0.55439,1.40346,0.26627,0.52734,1.41736
1254,0.13546,0.35178,1.51192,0.01502,0.43995,0.07967,0.2669,0.11873,0.09226,0.05169,0.45353,0.49457,0.27277,0.27128,0.47834,0.07743,0.33467,0.91241,0.2456,0.305,0.90934,-0.02499,0.33278,1.43021,0.30994,0.31812,1.43699,-0.04999,0.46036,1.1679,0.37313,0.4463,1.1973,0.02605,0.55562,1.40358,0.26371,0.53052,1.41717
1255,0.13309,0.35477,1.51197,0.01482,0.43955,0.07975,0.26696,0.12019,0.09423,0.05069,0.45305,0.49471,0.27284,0.27633,0.47887,0.0758,0.33565,0.91301,0.24414,0.30704,0.90999,-0.02662,0.33424,1.43006,0.30823,0.3208,1.43732,-0.05201,0.4613,1.16753,0.37111,0.44878,1.19745,0.0233,0.55686,1.40332,0.26128,0.53383,1.4168
1256,0.13049,0.35757,1.51208,0.01463,0.43916,0.07993,0.26719,0.12152,0.09636,0.04969,0.45229,0.49498,0.27296,0.28171,0.47933,0.07419,0.33633,0.91371,0.24274,0.30895,0.91059,-0.02813,0.33536,1.42997,0.30652,0.32345,1.43778,-0.05403,0.4618,1.16719,0.3691,0.4512,1.19771,0.02113,0.55819,1.40269,0.259,0.53726,1.41652
1257,0.12792,0.36031,1.51236,0.01461,0.43907,0.0801,0.26765,0.12263,0.09842,0.04867,0.45125,0.49526,0.27309,0.28694,0.47964,0.07259,0.33681,0.91444,0.24134,0.31079,0.91098,-0.02983,0.33638,1.43001,0.30491,0.32631,1.43856,-0.05594,0.46231,1.16701,0.36702,0.45378,1.19822,0.0191,0.55971,1.40214,0.25682,0.54052,1.41671
1258,0.12562,0.36322,1.51274,0.01478,0.43933,0.08015,0.26836,0.12372,0.10036,0.04756,0.45024,0.49545,0.27327,0.29195,0.47988,0.07102,0.33741,0.91509,0.23996,0.31269,0.91127,-0.03175,0.33761,1.4302,0.30339,0.32954,1.43952,-0.05769,0.46329,1.16706,0.36493,0.45675,1.19889,0.01655,0.56149,1.4021,0.25467,0.54335,1.41742
1259,0.12369,0.36631,1.51309,0.01485,0.43972,0.08014,0.2692,0.12502,0.10243,0.04631,0.44948,0.49556,0.27363,0.29703,0.48026,0.06956,0.33818,0.91563,0.23867,0.31464,0.91165,-0.03367,0.33905,1.43054,0.30177,0.33312,1.44034,-0.05933,0.46456,1.16729,0.36305,0.46018,1.19956,0.01345,0.56341,1.40252,0.25253,0.54602,1.41826
1260,0.12204,0.36937,1.51334,0.01459,0.43994,0.08014,0.26991,0.12662,0.10481,0.045,0.44886,0.49566,0.27427,0.30246,0.48087,0.06822,0.33895,0.91609,0.23749,0.3166,0.91224,-0.03545,0.34048,1.43103,0.30002,0.33678,1.44092,-0.06101,0.46556,1.16757,0.36143,0.46381,1.20017,0.01043,0.56518,1.40288,0.2503,0.54914,1.41876
1261,0.12047,0.37208,1.51356,0.01403,0.43989,0.08013,0.27051,0.12843,0.10743,0.04374,0.44811,0.49572,0.2752,0.30822,0.48161,0.06698,0.33967,0.91653,0.23641,0.31853,0.91292,-0.03711,0.34191,1.43161,0.29836,0.34015,1.44138,-0.06281,0.46605,1.16772,0.35984,0.46734,1.20072,0.00786,0.56657,1.40288,0.248,0.55276,1.41891
1262,0.11888,0.37434,1.51385,0.01348,0.43982,0.08004,0.27116,0.13036,0.11007,0.04262,0.44699,0.4957,0.27639,0.31406,0.48234,0.06581,0.3404,0.91698,0.23539,0.32043,0.91352,-0.03878,0.34331,1.4321,0.2971,0.34317,1.44187,-0.06476,0.46629,1.16769,0.35816,0.47053,1.2012,0.0053,0.56756,1.40272,0.24586,0.55597,1.41914
1263,0.11735,0.37621,1.51431,0.01323,0.43995,0.07989,0.2719,0.13249,0.11254,0.04157,0.4455,0.49562,0.2778,0.31983,0.48298,0.06468,0.34107,0.91745,0.23439,0.32225,0.91396,-0.0405,0.3445,1.43233,0.29622,0.34609,1.44258,-0.06681,0.46663,1.16756,0.35657,0.47336,1.20168,0.00213,0.56838,1.40271,0.24405,0.5581,1.41978
1264,0.11586,0.37784,1.51494,0.01328,0.44027,0.07975,0.27256,0.13485,0.11488,0.04052,0.44399,0.49558,0.27928,0.32558,0.48357,0.06357,0.34154,0.9179,0.23341,0.32397,0.9143,-0.0421,0.34553,1.43234,0.29537,0.34912,1.4436,-0.06886,0.46713,1.16738,0.35514,0.47605,1.20238,-0.00152,0.56918,1.40286,0.2423,0.55973,1.42072
1265,0.11425,0.37943,1.51563,0.0134,0.44055,0.07969,0.27305,0.13733,0.11724,0.03943,0.44291,0.4956,0.28065,0.33142,0.48416,0.0625,0.34187,0.91826,0.23247,0.32555,0.9146,-0.04338,0.34664,1.43229,0.29422,0.35225,1.44476,-0.07078,0.46772,1.16715,0.35353,0.47892,1.20329,-0.0049,0.56997,1.40296,0.24032,0.56183,1.42173
1266,0.11251,0.38124,1.51616,0.01335,0.44049,0.07962,0.27342,0.13978,0.11965,0.03843,0.44231,0.4956,0.2818,0.33724,0.48474,0.06149,0.3422,0.91848,0.23154,0.32682,0.91486,-0.0443,0.34773,1.43233,0.29275,0.35537,1.44567,-0.07257,0.46823,1.16702,0.35148,0.48188,1.20397,-0.0074,0.57081,1.40288,0.23832,0.56443,1.42258
1267,0.1109,0.38328,1.51637,0.01316,0.43998,0.07946,0.2738,0.14207,0.12194,0.03759,0.44187,0.49547,0.28273,0.34271,0.48528,0.06051,0.34247,0.91853,0.23061,0.32759,0.91504,-0.045,0.34838,1.43254,0.29127,0.35822,1.44613,-0.07425,0.46848,1.16715,0.34927,0.48444,1.2041,-0.00888,0.57201,1.40254,0.23664,0.56687,1.42303
1268,0.1096,0.3853,1.51631,0.01307,0.43913,0.07918,0.27424,0.14419,0.12398,0.0368,0.44127,0.49523,0.28358,0.34753,0.48581,0.05954,0.34251,0.91845,0.22968,0.32798,0.91517,-0.04567,0.34859,1.43288,0.29005,0.36055,1.44634,-0.07578,0.46831,1.16742,0.34742,0.48637,1.20396,-0.00986,0.57375,1.4018,0.23511,0.56898,1.42298
1269,0.10851,0.38708,1.51615,0.0132,0.43825,0.07888,0.27464,0.14621,0.1257,0.03595,0.44057,0.49499,0.28449,0.35165,0.48633,0.05859,0.34242,0.91835,0.22878,0.32847,0.91527,-0.04652,0.34894,1.43319,0.28913,0.36231,1.44661,-0.07714,0.46782,1.16741,0.34612,0.48801,1.20408,-0.01122,0.57563,1.40072,0.23348,0.5711,1.42275
1270,0.10748,0.38861,1.51605,0.01345,0.43764,0.07871,0.27477,0.14817,0.12713,0.0351,0.44005,0.49487,0.28549,0.35528,0.48678,0.05773,0.34256,0.91839,0.22797,0.32932,0.91533,-0.04755,0.3498,1.43317,0.28841,0.36367,1.44692,-0.0784,0.46738,1.16684,0.34523,0.4898,1.20457,-0.01375,0.57697,1.39967,0.232,0.57311,1.42285
1271,0.1065,0.38993,1.51604,0.01353,0.43737,0.0787,0.27448,0.15003,0.1284,0.03433,0.43971,0.49491,0.28653,0.35868,0.48712,0.05696,0.34311,0.91863,0.22725,0.33048,0.91528,-0.04851,0.35104,1.43265,0.28779,0.36489,1.44703,-0.07978,0.46729,1.16579,0.34454,0.49188,1.20512,-0.01752,0.57743,1.39902,0.23098,0.57458,1.42346
1272,0.10565,0.3911,1.51602,0.01321,0.43735,0.0788,0.27388,0.15177,0.12965,0.03363,0.4393,0.49503,0.28755,0.36199,0.48739,0.05623,0.34401,0.91904,0.22653,0.33175,0.91517,-0.04915,0.35235,1.43182,0.28716,0.36628,1.44695,-0.08138,0.46762,1.16464,0.34384,0.49421,1.20551,-0.0215,0.57736,1.39867,0.23014,0.5758,1.42421
1273,0.1049,0.39223,1.51589,0.01253,0.43746,0.07892,0.27323,0.15336,0.13082,0.03297,0.43869,0.49515,0.28848,0.36504,0.48764,0.05544,0.34502,0.91954,0.22574,0.33298,0.91504,-0.04949,0.35354,1.43104,0.28641,0.36797,1.44693,-0.0831,0.46818,1.16376,0.34294,0.49668,1.20587,-0.02446,0.57747,1.39833,0.2288,0.57781,1.4245
1274,0.10422,0.39341,1.51565,0.01184,0.43759,0.07904,0.27268,0.15472,0.13173,0.03235,0.43802,0.49527,0.28921,0.36756,0.48781,0.05461,0.34592,0.92001,0.22491,0.33402,0.91486,-0.04967,0.35448,1.43055,0.28559,0.3698,1.44721,-0.08462,0.46869,1.16326,0.34188,0.49908,1.2064,-0.02616,0.57814,1.39779,0.22659,0.581,1.42413
1275,0.10372,0.39452,1.51544,0.0115,0.43761,0.07914,0.27223,0.15583,0.13216,0.03181,0.4374,0.49538,0.2896,0.36931,0.4878,0.05387,0.34664,0.92041,0.22415,0.33483,0.9146,-0.04985,0.35521,1.43037,0.28489,0.37148,1.44771,-0.0857,0.46885,1.16295,0.34095,0.50119,1.20708,-0.02714,0.57922,1.39703,0.22396,0.58462,1.42332
1276,0.1034,0.39526,1.51532,0.01162,0.43745,0.07922,0.27178,0.15672,0.13207,0.03138,0.4369,0.49549,0.28961,0.37035,0.4876,0.05334,0.34729,0.92078,0.22359,0.33547,0.91428,-0.05015,0.356,1.43044,0.28451,0.37293,1.44804,-0.0864,0.46864,1.16266,0.34023,0.50309,1.20757,-0.02796,0.58026,1.39617,0.22169,0.58761,1.42255
1277,0.10317,0.39556,1.51525,0.01202,0.43727,0.0793,0.27127,0.15745,0.13166,0.03113,0.43664,0.4956,0.28927,0.37093,0.48727,0.05303,0.34805,0.9211,0.22324,0.33606,0.91396,-0.05054,0.35701,1.43065,0.28447,0.37432,1.44792,-0.08697,0.46837,1.16236,0.33932,0.50514,1.2076,-0.02888,0.58091,1.39552,0.22009,0.58958,1.42223
1278,0.10289,0.39567,1.51512,0.01243,0.43723,0.07936,0.2706,0.15819,0.13113,0.03104,0.43675,0.49568,0.2887,0.37138,0.48691,0.05282,0.349,0.92137,0.22298,0.33666,0.91365,-0.05077,0.35803,1.43077,0.28465,0.37587,1.44747,-0.08758,0.46843,1.16213,0.338,0.50747,1.20724,-0.02994,0.58098,1.39539,0.21893,0.59071,1.42242
1279,0.10251,0.39586,1.51488,0.01264,0.43731,0.07936,0.26956,0.15904,0.1305,0.03099,0.43707,0.49569,0.28804,0.37178,0.48654,0.05257,0.35011,0.92154,0.22268,0.33732,0.91336,-0.05061,0.35873,1.43064,0.28485,0.37759,1.44706,-0.0881,0.46876,1.16195,0.33669,0.50976,1.20682,-0.03123,0.58052,1.39577,0.21797,0.59124,1.42286
1280,0.10217,0.39611,1.5146,0.01262,0.43737,0.07928,0.2681,0.15994,0.12964,0.03088,0.43733,0.49561,0.28735,0.37186,0.48612,0.05227,0.35128,0.92167,0.22232,0.33805,0.91304,-0.05007,0.35892,1.43026,0.28506,0.37927,1.44689,-0.08837,0.46893,1.16167,0.33585,0.51167,1.20655,-0.0329,0.5797,1.39631,0.21716,0.59139,1.42327
1281,0.10217,0.39635,1.51442,0.01241,0.43743,0.0792,0.26644,0.16068,0.12837,0.03068,0.43742,0.49554,0.28656,0.37126,0.48559,0.05199,0.35235,0.92179,0.22199,0.33877,0.91269,-0.04932,0.35865,1.42975,0.28539,0.38069,1.44693,-0.08838,0.46861,1.16124,0.33552,0.51312,1.20648,-0.0347,0.57865,1.39664,0.21652,0.59138,1.42356
1282,0.10256,0.39655,1.51444,0.01213,0.43762,0.07918,0.26486,0.16119,0.12671,0.03047,0.43738,0.49551,0.28562,0.36992,0.48498,0.05183,0.35321,0.92194,0.22178,0.33936,0.91232,-0.04847,0.35804,1.42931,0.28594,0.38175,1.44707,-0.0882,0.46773,1.1608,0.33559,0.51421,1.20653,-0.03587,0.57754,1.3966,0.21608,0.5913,1.42374
1283,0.10299,0.39664,1.51459,0.01187,0.438,0.07918,0.26347,0.16161,0.12484,0.03036,0.43731,0.4955,0.28453,0.36817,0.48435,0.05181,0.35396,0.92209,0.2217,0.33975,0.91199,-0.04758,0.35722,1.42916,0.28661,0.38251,1.44723,-0.08791,0.46647,1.16056,0.33614,0.51501,1.20668,-0.03565,0.57658,1.39625,0.2159,0.59105,1.42387
1284,0.10309,0.39649,1.51476,0.01165,0.43845,0.07911,0.26207,0.16213,0.12287,0.0304,0.43731,0.49542,0.28338,0.36631,0.48373,0.05188,0.35477,0.92216,0.22171,0.34011,0.91168,-0.04669,0.35615,1.42926,0.28724,0.38316,1.4474,-0.08765,0.4652,1.16067,0.33717,0.51572,1.20697,-0.03396,0.57572,1.39583,0.21602,0.59065,1.42404
1285,0.10294,0.39603,1.51486,0.01135,0.43884,0.07891,0.26047,0.16274,0.12074,0.03057,0.43744,0.4952,0.28221,0.36432,0.48302,0.05196,0.35565,0.92209,0.22175,0.34066,0.9113,-0.04567,0.35469,1.42926,0.28781,0.38381,1.44755,-0.08754,0.46424,1.16102,0.33847,0.51647,1.20733,-0.03182,0.57456,1.3958,0.21637,0.5903,1.42424
1286,0.10302,0.39533,1.5149,0.01092,0.43904,0.07862,0.25856,0.16325,0.11843,0.03088,0.43764,0.49487,0.28106,0.36209,0.48218,0.05202,0.35655,0.92191,0.22177,0.34141,0.91077,-0.0444,0.3529,1.42886,0.28856,0.3843,1.44763,-0.08749,0.46363,1.16129,0.33991,0.51708,1.20762,-0.0309,0.57263,1.39649,0.2168,0.59007,1.42425
1287,0.10362,0.39453,1.51486,0.01051,0.43895,0.07836,0.25638,0.16356,0.11606,0.0313,0.43794,0.49457,0.27987,0.35964,0.48124,0.05207,0.3575,0.92175,0.22178,0.34224,0.91015,-0.04301,0.35121,1.42804,0.2897,0.38438,1.44759,-0.08724,0.4632,1.16118,0.34155,0.51715,1.20769,-0.03205,0.56978,1.39781,0.21741,0.58963,1.4239
1288,0.10473,0.39372,1.51464,0.01036,0.43857,0.0782,0.25407,0.16365,0.1138,0.03171,0.43849,0.49439,0.27848,0.35707,0.48035,0.05213,0.35854,0.92167,0.22178,0.34307,0.90956,-0.04176,0.34988,1.42711,0.29119,0.38395,1.44748,-0.08672,0.46271,1.16073,0.34344,0.51656,1.20757,-0.0345,0.56638,1.39932,0.21842,0.58863,1.42341
1289,0.10617,0.39294,1.51413,0.01056,0.4381,0.07814,0.25187,0.16352,0.11175,0.03205,0.4394,0.49432,0.27674,0.35439,0.47958,0.05222,0.35966,0.92166,0.22182,0.34393,0.90913,-0.04055,0.34872,1.42641,0.29291,0.38317,1.44737,-0.08608,0.46198,1.16031,0.34542,0.51573,1.20749,-0.03676,0.56302,1.40064,0.21965,0.58723,1.42309
1290,0.10787,0.39217,1.51342,0.01103,0.43788,0.07816,0.24992,0.16314,0.10986,0.03238,0.44065,0.49434,0.27471,0.35152,0.47899,0.05235,0.36076,0.92166,0.22191,0.34478,0.90887,-0.03896,0.34741,1.42601,0.29477,0.38238,1.44725,-0.08549,0.46087,1.16017,0.34716,0.51534,1.20757,-0.03803,0.55986,1.40173,0.2206,0.58615,1.42293
1291,0.10984,0.39138,1.51273,0.0116,0.43813,0.0782,0.24828,0.16251,0.10809,0.0328,0.44199,0.49438,0.27274,0.34847,0.47846,0.05257,0.36176,0.92164,0.22208,0.34552,0.90865,-0.03678,0.34582,1.42576,0.29674,0.38195,1.44699,-0.08489,0.45943,1.16026,0.34847,0.51571,1.20761,-0.03854,0.55664,1.40276,0.22117,0.58574,1.42278
1292,0.11198,0.3905,1.51217,0.01206,0.43872,0.07826,0.24693,0.16161,0.10636,0.03327,0.44317,0.49443,0.27111,0.34553,0.47777,0.05285,0.36262,0.92164,0.22229,0.34606,0.90818,-0.0343,0.34397,1.42542,0.29876,0.38198,1.44635,-0.08416,0.45786,1.16037,0.34939,0.5168,1.20733,-0.03859,0.55344,1.40366,0.22188,0.58557,1.42279
1293,0.11404,0.38946,1.5117,0.01227,0.43925,0.07835,0.24579,0.16049,0.10461,0.03361,0.44421,0.4945,0.26972,0.34299,0.47674,0.05317,0.36332,0.92165,0.22251,0.34632,0.90732,-0.03183,0.34191,1.42481,0.30074,0.38217,1.44528,-0.08323,0.45629,1.16026,0.35013,0.5184,1.2068,-0.03821,0.55092,1.40402,0.22311,0.585,1.42323
1294,0.11578,0.3882,1.51126,0.01217,0.43953,0.07852,0.24478,0.15934,0.1028,0.03373,0.44539,0.49465,0.26825,0.34074,0.47549,0.05363,0.36379,0.92165,0.22282,0.34635,0.90623,-0.02942,0.33983,1.42381,0.30259,0.3821,1.44414,-0.08215,0.4547,1.15974,0.35103,0.51997,1.20641,-0.03738,0.54943,1.40351,0.22467,0.58397,1.424
1295,0.11729,0.38674,1.51085,0.01187,0.43966,0.07876,0.24387,0.15835,0.10089,0.03371,0.44685,0.49486,0.26652,0.33847,0.47425,0.05428,0.36404,0.92159,0.22335,0.3463,0.90519,-0.02695,0.33802,1.42259,0.30434,0.38155,1.44346,-0.08105,0.45309,1.15889,0.35232,0.52085,1.20646,-0.03625,0.54853,1.40238,0.22609,0.58298,1.42467
1296,0.11897,0.38522,1.51049,0.01144,0.43979,0.07898,0.24307,0.15761,0.09887,0.03372,0.44845,0.49503,0.26477,0.33593,0.47315,0.05501,0.36422,0.92145,0.22398,0.34627,0.90427,-0.02437,0.33661,1.42168,0.30615,0.38063,1.44334,-0.07999,0.45148,1.1582,0.35374,0.52088,1.20684,-0.03479,0.54756,1.40136,0.22721,0.58231,1.42507
1297,0.12112,0.38376,1.5101,0.01099,0.4399,0.07906,0.24232,0.15703,0.09679,0.0339,0.45008,0.49503,0.26337,0.3331,0.47218,0.05567,0.36455,0.92117,0.22453,0.34616,0.9034,-0.02169,0.33542,1.42143,0.30817,0.37959,1.4433,-0.0789,0.44974,1.15805,0.35478,0.52068,1.20709,-0.03289,0.54626,1.40088,0.22816,0.58176,1.42537
1298,0.12367,0.38237,1.50961,0.01063,0.44001,0.07897,0.24164,0.15643,0.09487,0.03429,0.45194,0.49485,0.26252,0.33018,0.47135,0.05631,0.36505,0.9207,0.22504,0.34587,0.90261,-0.01899,0.33405,1.42157,0.31036,0.37871,1.44276,-0.07773,0.44775,1.15827,0.35536,0.52095,1.20693,-0.03073,0.54465,1.40076,0.22911,0.58103,1.42571
1299,0.12636,0.38093,1.50905,0.01055,0.4402,0.07887,0.2412,0.15565,0.09329,0.03489,0.45439,0.49465,0.2621,0.32744,0.47066,0.05712,0.36551,0.92008,0.22575,0.34543,0.90193,-0.01629,0.33223,1.42156,0.31256,0.37804,1.44159,-0.07653,0.4456,1.15844,0.35604,0.52182,1.20641,-0.02871,0.54256,1.40075,0.23021,0.5801,1.42591
1300,0.12905,0.37932,1.50853,0.01077,0.44049,0.07897,0.24115,0.15472,0.092,0.03567,0.45757,0.49461,0.26192,0.32502,0.47005,0.05818,0.36573,0.9194,0.22674,0.34496,0.90133,-0.01367,0.32998,1.42126,0.31468,0.37736,1.44012,-0.07536,0.44341,1.15851,0.35744,0.52274,1.20579,-0.02711,0.53959,1.40104,0.23153,0.579,1.42577
1301,0.1317,0.37757,1.50809,0.01109,0.44082,0.07929,0.24129,0.15381,0.09076,0.03653,0.46127,0.49475,0.26177,0.32278,0.46942,0.05931,0.36576,0.9187,0.22781,0.34453,0.90071,-0.01126,0.32758,1.42102,0.3168,0.37639,1.43886,-0.07424,0.44113,1.15862,0.35963,0.52304,1.20534,-0.02598,0.53574,1.40177,0.23312,0.57772,1.42538
1302,0.13427,0.37587,1.50762,0.01132,0.44117,0.07968,0.24127,0.153,0.08938,0.03739,0.4652,0.49491,0.26154,0.32047,0.46872,0.0603,0.36577,0.91795,0.22876,0.34413,0.9,-0.00913,0.32547,1.42116,0.3191,0.37505,1.43816,-0.07315,0.43865,1.15887,0.36216,0.52252,1.2052,-0.02493,0.5318,1.40258,0.23495,0.57639,1.42503
1303,0.1369,0.37437,1.50703,0.01156,0.4416,0.08004,0.24101,0.15225,0.08793,0.03823,0.46933,0.49499,0.26131,0.31811,0.46798,0.06112,0.36576,0.91705,0.22953,0.3437,0.89922,-0.00716,0.32388,1.42164,0.32163,0.37362,1.43801,-0.07205,0.43613,1.15916,0.3646,0.52148,1.20528,-0.02347,0.52856,1.40308,0.23698,0.57529,1.42488
1304,0.13973,0.37299,1.50643,0.012,0.44218,0.08043,0.24075,0.1514,0.08662,0.03914,0.47377,0.49508,0.26126,0.31591,0.46725,0.06187,0.36563,0.916,0.23026,0.34319,0.89844,-0.00514,0.32263,1.42208,0.32429,0.37252,1.43801,-0.07093,0.43375,1.15934,0.36677,0.52045,1.20523,-0.02168,0.52606,1.40317,0.2393,0.57448,1.42488
1305,0.14273,0.37148,1.50594,0.01264,0.44289,0.08109,0.24075,0.15045,0.08559,0.0402,0.47856,0.49538,0.26157,0.31397,0.46663,0.0627,0.36538,0.91498,0.23108,0.34257,0.89777,-0.00278,0.32139,1.4221,0.32692,0.37183,1.43767,-0.06987,0.43137,1.1592,0.36871,0.51978,1.20479,-0.02,0.52394,1.40281,0.24196,0.57357,1.4249
1306,0.14579,0.3697,1.50554,0.01326,0.44373,0.08217,0.24108,0.14955,0.08487,0.04147,0.48364,0.49603,0.26237,0.31233,0.46619,0.06368,0.36513,0.91418,0.23203,0.34188,0.89728,0.0,0.32016,1.42171,0.32954,0.37133,1.43678,-0.06901,0.42862,1.15868,0.37053,0.51947,1.20388,-0.01858,0.52211,1.40182,0.24484,0.57215,1.42487
1307,0.14885,0.36778,1.50521,0.01373,0.44473,0.08378,0.24171,0.14881,0.08443,0.04296,0.48911,0.49711,0.26366,0.3111,0.46592,0.06473,0.36494,0.91363,0.23303,0.34118,0.89696,0.00306,0.3191,1.42123,0.33233,0.37071,1.43548,-0.06848,0.42526,1.15794,0.37231,0.51919,1.20262,-0.01707,0.52053,1.40018,0.24775,0.57035,1.42461
1308,0.15189,0.36608,1.50492,0.01419,0.44592,0.08594,0.24254,0.14824,0.08418,0.04463,0.49528,0.49861,0.26527,0.3103,0.46572,0.06573,0.36483,0.91325,0.23396,0.34046,0.89671,0.00622,0.31822,1.42094,0.33543,0.36977,1.4341,-0.06835,0.42135,1.15728,0.37414,0.51861,1.20125,-0.01531,0.5187,1.39834,0.25051,0.5687,1.424
1309,0.15496,0.36483,1.50467,0.01481,0.44735,0.08867,0.24337,0.14776,0.08398,0.04642,0.50242,0.50054,0.26693,0.30969,0.46553,0.06666,0.36477,0.91288,0.2348,0.33968,0.89647,0.00943,0.31736,1.42088,0.33872,0.36848,1.43282,-0.06866,0.41706,1.15693,0.37611,0.51764,1.19996,-0.01369,0.51595,1.39693,0.25315,0.56739,1.42315
1310,0.15818,0.3639,1.50445,0.01553,0.44916,0.09198,0.24398,0.14738,0.08372,0.04829,0.51055,0.50287,0.26842,0.30895,0.46537,0.06754,0.36467,0.91241,0.23557,0.33873,0.89626,0.01272,0.31642,1.421,0.34188,0.36691,1.43156,-0.06952,0.41261,1.157,0.37825,0.51643,1.19876,-0.01269,0.51234,1.39622,0.25591,0.56607,1.42233
1311,0.16167,0.36292,1.50435,0.0161,0.45153,0.09586,0.24437,0.14706,0.08339,0.05011,0.51939,0.50563,0.26959,0.30801,0.46525,0.06832,0.36447,0.91189,0.23623,0.33757,0.89612,0.01612,0.31539,1.42131,0.34474,0.36522,1.43028,-0.07098,0.40848,1.15776,0.38047,0.51505,1.19759,-0.01223,0.50867,1.39632,0.25896,0.56444,1.42166
1312,0.16535,0.36157,1.50445,0.01644,0.45453,0.10034,0.24468,0.14674,0.08304,0.05183,0.52862,0.50891,0.27042,0.30703,0.46514,0.06887,0.36414,0.91145,0.23666,0.33627,0.896,0.01956,0.3143,1.42195,0.34738,0.36337,1.42924,-0.07295,0.40515,1.15946,0.38281,0.51333,1.19659,-0.01171,0.50551,1.39732,0.26211,0.56267,1.42111
1313,0.16913,0.35978,1.50473,0.01673,0.45815,0.10548,0.24499,0.14638,0.08275,0.05357,0.53824,0.51278,0.27106,0.3061,0.46506,0.0691,0.36366,0.9111,0.23676,0.33491,0.89591,0.02291,0.31311,1.42291,0.34999,0.36124,1.42878,-0.07521,0.40244,1.16195,0.38526,0.51112,1.19605,-0.01092,0.5027,1.39905,0.26499,0.56102,1.42067
1314,0.17302,0.35787,1.50504,0.01702,0.46235,0.11116,0.24518,0.14603,0.08249,0.05552,0.54833,0.51711,0.2717,0.3051,0.46505,0.06908,0.36308,0.91066,0.23662,0.33342,0.89587,0.02606,0.31167,1.42416,0.35265,0.35897,1.42881,-0.07774,0.39961,1.16492,0.38757,0.50862,1.19588,-0.01017,0.4999,1.40109,0.26751,0.55962,1.42036
1315,0.17702,0.35632,1.50526,0.01719,0.46702,0.11712,0.24516,0.14572,0.08228,0.05774,0.55859,0.52164,0.27237,0.30389,0.46517,0.06898,0.36261,0.91002,0.23637,0.33179,0.89594,0.02892,0.31001,1.42564,0.35534,0.35709,1.42884,-0.08083,0.39639,1.16833,0.38955,0.50625,1.19549,-0.00969,0.4972,1.40323,0.27012,0.55841,1.42004
1316,0.18098,0.35544,1.50539,0.01715,0.47204,0.12303,0.24509,0.14534,0.08217,0.05998,0.56848,0.52618,0.27298,0.30237,0.46547,0.06891,0.36241,0.90937,0.23611,0.33019,0.89617,0.03146,0.30848,1.4272,0.35812,0.35596,1.42844,-0.08482,0.39329,1.17225,0.39131,0.5041,1.19429,-0.00943,0.49479,1.40552,0.27352,0.55715,1.4195
1317,0.18487,0.35521,1.50541,0.01701,0.4774,0.12875,0.24516,0.14481,0.08216,0.06199,0.57772,0.53072,0.27348,0.30053,0.46597,0.06879,0.36255,0.90893,0.23575,0.32882,0.89657,0.03377,0.30736,1.42869,0.36099,0.35544,1.42737,-0.08975,0.39081,1.17672,0.39287,0.50215,1.19214,-0.00929,0.49261,1.40816,0.27795,0.55555,1.41875
1318,0.18884,0.35534,1.50526,0.01687,0.48305,0.13424,0.24538,0.14427,0.0822,0.06381,0.58631,0.53524,0.27386,0.29845,0.46662,0.06846,0.36317,0.90883,0.2351,0.32767,0.89706,0.03612,0.3067,1.43036,0.36385,0.35498,1.42562,-0.09531,0.38895,1.18203,0.39396,0.50046,1.1894,-0.00912,0.49055,1.41149,0.28301,0.55361,1.41804
1319,0.19288,0.35545,1.50498,0.01659,0.48871,0.13942,0.24561,0.14391,0.08221,0.06565,0.59431,0.53956,0.27406,0.2962,0.46738,0.06795,0.36443,0.90906,0.23408,0.32654,0.89764,0.0386,0.30663,1.43277,0.36654,0.3539,1.42366,-0.1013,0.38762,1.18869,0.39458,0.49882,1.18685,-0.00869,0.48897,1.41574,0.2879,0.55168,1.41757
1320,0.19693,0.3553,1.50475,0.01593,0.49404,0.14429,0.24563,0.14383,0.08219,0.06754,0.60169,0.54355,0.27395,0.29386,0.46825,0.06738,0.36622,0.90953,0.23279,0.3252,0.89832,0.04104,0.30743,1.43618,0.36883,0.35179,1.42215,-0.10793,0.38669,1.19695,0.39525,0.49665,1.1851,-0.00773,0.48861,1.42049,0.29209,0.55003,1.4173
1321,0.20111,0.35492,1.50477,0.01483,0.49896,0.14879,0.24535,0.14383,0.08217,0.06925,0.60828,0.54723,0.27351,0.29136,0.46921,0.06683,0.36812,0.91013,0.23135,0.32364,0.89911,0.0434,0.30917,1.44038,0.37072,0.34888,1.42103,-0.11561,0.38583,1.20682,0.39624,0.49392,1.184,-0.00604,0.48974,1.42499,0.29569,0.54871,1.41702
1322,0.20567,0.35451,1.50504,0.01356,0.50371,0.15273,0.24493,0.1436,0.0822,0.07064,0.61393,0.55055,0.27285,0.28854,0.47023,0.06628,0.36991,0.91085,0.22983,0.32196,0.89996,0.04584,0.31169,1.4449,0.37253,0.34566,1.41945,-0.12443,0.38482,1.21826,0.39727,0.49137,1.18275,-0.0037,0.49202,1.42881,0.29934,0.54756,1.41655
1323,0.21054,0.35408,1.50542,0.01251,0.50863,0.15582,0.24478,0.14305,0.08233,0.07179,0.61857,0.5534,0.27204,0.28545,0.47135,0.06568,0.37177,0.91178,0.22818,0.32034,0.90088,0.04834,0.31473,1.44939,0.37451,0.34237,1.41703,-0.13413,0.38399,1.23117,0.39818,0.48921,1.18091,-0.00117,0.49492,1.43222,0.30354,0.54626,1.41586
1324,0.21529,0.3536,1.50585,0.01165,0.51395,0.15812,0.24514,0.1424,0.08254,0.07276,0.62234,0.55584,0.27098,0.28217,0.47261,0.06494,0.37391,0.91305,0.22624,0.31888,0.9019,0.05051,0.31795,1.45378,0.37656,0.33892,1.41454,-0.14426,0.38421,1.2455,0.39939,0.48638,1.17874,0.00114,0.49803,1.43603,0.30837,0.54439,1.41488
1325,0.21964,0.35325,1.50637,0.01057,0.51973,0.15995,0.24584,0.14185,0.08273,0.07352,0.62549,0.55809,0.2695,0.27857,0.47402,0.0639,0.37613,0.91462,0.22389,0.31752,0.90302,0.05213,0.32131,1.45839,0.37849,0.33532,1.41296,-0.15446,0.38646,1.26146,0.40123,0.48182,1.17654,0.00347,0.50101,1.44127,0.31371,0.54171,1.41353
1326,0.22376,0.35338,1.50691,0.00888,0.52594,0.16156,0.24643,0.1415,0.08284,0.07398,0.62819,0.56028,0.26745,0.27453,0.47554,0.06256,0.3781,0.91624,0.22123,0.31608,0.90423,0.05339,0.32534,1.46342,0.38028,0.33186,1.41222,-0.16445,0.39142,1.27933,0.40336,0.47579,1.17426,0.00662,0.50367,1.44826,0.31952,0.53826,1.41191
1327,0.22785,0.35411,1.50735,0.00653,0.53244,0.1629,0.24668,0.1414,0.08288,0.0742,0.6305,0.56224,0.26488,0.27042,0.47706,0.06109,0.37974,0.91767,0.21846,0.3145,0.90547,0.05452,0.33067,1.46864,0.38184,0.32879,1.41145,-0.17402,0.3992,1.29898,0.40499,0.46967,1.17168,0.0112,0.5064,1.45583,0.32574,0.53431,1.41032
1328,0.23181,0.35529,1.50762,0.00372,0.53898,0.16372,0.2467,0.14142,0.0829,0.07426,0.63227,0.5637,0.26207,0.2667,0.47841,0.05979,0.3812,0.91885,0.2158,0.3128,0.90662,0.05555,0.33733,1.47385,0.3828,0.32588,1.41005,-0.18284,0.40941,1.31995,0.40564,0.46447,1.16892,0.01711,0.51026,1.46226,0.33198,0.53036,1.40901
1329,0.23534,0.3569,1.50771,0.0007,0.54536,0.16384,0.24667,0.14131,0.08292,0.07424,0.63326,0.5645,0.25943,0.26344,0.4795,0.05887,0.38262,0.91993,0.21339,0.31094,0.90759,0.05653,0.34471,1.47919,0.38276,0.32262,1.40822,-0.19038,0.42184,1.34209,0.40551,0.45998,1.16638,0.02361,0.51631,1.46733,0.33783,0.52675,1.40798
1330,0.2383,0.35907,1.50768,-0.00225,0.55155,0.16333,0.24652,0.14091,0.08295,0.07415,0.63337,0.56475,0.2571,0.2603,0.48043,0.05837,0.384,0.92104,0.21122,0.30886,0.90842,0.05762,0.35208,1.48485,0.38161,0.31865,1.4065,-0.19598,0.43688,1.36565,0.40523,0.45531,1.16435,0.03045,0.52488,1.47238,0.34307,0.5234,1.40706
1331,0.24079,0.36166,1.50753,-0.00491,0.55752,0.16242,0.24623,0.14034,0.08302,0.07389,0.63284,0.56464,0.25482,0.25703,0.48135,0.05811,0.38518,0.92213,0.2092,0.3066,0.90925,0.05891,0.35911,1.49067,0.37953,0.31408,1.40514,-0.19895,0.45525,1.39081,0.40503,0.4501,1.16281,0.03852,0.53472,1.47852,0.34773,0.52005,1.40619
1332,0.24281,0.3641,1.50733,-0.00729,0.56329,0.1612,0.24597,0.13986,0.08309,0.07316,0.63201,0.56428,0.25236,0.25363,0.4823,0.05773,0.38604,0.92294,0.20715,0.30432,0.91011,0.06045,0.366,1.49634,0.37682,0.30952,1.40414,-0.1986,0.47714,1.41727,0.40459,0.44458,1.16153,0.04906,0.54338,1.48567,0.35187,0.51667,1.40533
1333,0.24419,0.36593,1.50711,-0.00961,0.5689,0.15962,0.24587,0.1397,0.08312,0.07174,0.631,0.56359,0.2498,0.25034,0.48325,0.05692,0.38664,0.92339,0.20482,0.30215,0.91095,0.06247,0.37327,1.50186,0.37377,0.30538,1.40339,-0.19411,0.50196,1.44428,0.40372,0.43898,1.16023,0.06238,0.54975,1.49254,0.35564,0.51345,1.40426
1334,0.24492,0.36729,1.50686,-0.01213,0.57429,0.15774,0.24586,0.13972,0.08321,0.06967,0.62963,0.56261,0.24739,0.24742,0.48415,0.05555,0.38712,0.92367,0.20198,0.30003,0.91171,0.0655,0.38113,1.50731,0.37055,0.30151,1.40278,-0.18473,0.52869,1.47094,0.40281,0.43309,1.15882,0.07788,0.55574,1.49758,0.35933,0.51038,1.40284
1335,0.24528,0.36889,1.50638,-0.01482,0.57921,0.15577,0.24581,0.13947,0.0834,0.06722,0.62776,0.56145,0.24511,0.24502,0.48492,0.0537,0.38746,0.92401,0.19855,0.29774,0.91234,0.06971,0.38963,1.51249,0.36698,0.29743,1.40228,-0.17014,0.55674,1.49651,0.40237,0.42647,1.1574,0.09506,0.56422,1.49991,0.36347,0.50694,1.40117
1336,0.24543,0.37125,1.50557,-0.01742,0.58346,0.1538,0.24572,0.13872,0.08362,0.0646,0.62543,0.56022,0.24281,0.24304,0.48545,0.05149,0.3876,0.92443,0.19472,0.29531,0.91276,0.07444,0.39905,1.51711,0.36256,0.29291,1.40192,-0.15077,0.58608,1.52041,0.40223,0.41881,1.15606,0.11354,0.57643,1.49924,0.36862,0.50245,1.39955
1337,0.24521,0.37421,1.50454,-0.01969,0.58701,0.15177,0.24563,0.13789,0.08365,0.06188,0.62281,0.55887,0.24051,0.24131,0.48569,0.04904,0.38763,0.9248,0.19065,0.29291,0.91287,0.07867,0.40969,1.52096,0.35695,0.28791,1.40159,-0.12749,0.61647,1.54212,0.40158,0.41012,1.15472,0.13262,0.59225,1.49569,0.37493,0.49674,1.39802
1338,0.24444,0.37715,1.50348,-0.02156,0.5899,0.14963,0.24541,0.13754,0.08335,0.0592,0.62017,0.55734,0.23847,0.23974,0.48567,0.04639,0.3877,0.92501,0.18633,0.29058,0.91268,0.08183,0.42136,1.52396,0.35034,0.28257,1.40116,-0.10118,0.64684,1.56106,0.39982,0.40065,1.15321,0.15178,0.61073,1.48959,0.38187,0.4903,1.39621
1339,0.24311,0.3797,1.50238,-0.0232,0.59207,0.14754,0.24486,0.13777,0.08288,0.0567,0.61776,0.55574,0.23688,0.23833,0.4856,0.04359,0.38784,0.92499,0.18165,0.2881,0.91234,0.08426,0.43372,1.5261,0.34309,0.27729,1.40065,-0.07238,0.67582,1.57672,0.39699,0.39088,1.15152,0.17071,0.62921,1.48114,0.38827,0.4839,1.39376
1340,0.24136,0.38215,1.50101,-0.02486,0.59344,0.14569,0.24402,0.13823,0.08259,0.05448,0.61567,0.55419,0.23565,0.23704,0.48573,0.0408,0.38786,0.92473,0.17676,0.28526,0.91216,0.08705,0.44686,1.52746,0.33514,0.27274,1.40023,-0.04144,0.70268,1.58876,0.39344,0.38142,1.1499,0.18882,0.64394,1.47071,0.39293,0.47807,1.39087
1341,0.23931,0.38503,1.49911,-0.02668,0.59392,0.14403,0.24311,0.13858,0.0827,0.05259,0.6137,0.55268,0.23457,0.23586,0.48621,0.03824,0.38755,0.9242,0.17196,0.28197,0.91234,0.09146,0.46098,1.52799,0.32602,0.26935,1.40006,-0.00864,0.72735,1.59682,0.38937,0.37275,1.14873,0.20541,0.65234,1.45914,0.39539,0.47316,1.38808
1342,0.23701,0.38856,1.49656,-0.02855,0.59336,0.14235,0.24227,0.1387,0.08309,0.051,0.61167,0.55101,0.23361,0.23485,0.48687,0.03591,0.38682,0.9233,0.16741,0.27835,0.91274,0.09775,0.47561,1.52725,0.31553,0.26687,1.40004,0.0259,0.74978,1.60056,0.38489,0.36504,1.1482,0.22071,0.65453,1.44766,0.39634,0.46935,1.38568
1343,0.23431,0.39253,1.49346,-0.03019,0.59178,0.14046,0.24151,0.1386,0.08342,0.04961,0.60969,0.54909,0.23283,0.23413,0.48735,0.03361,0.38581,0.92192,0.16316,0.27489,0.91293,0.10457,0.48966,1.52474,0.30434,0.26468,1.39993,0.0618,0.7694,1.59974,0.38018,0.35807,1.14815,0.23601,0.65258,1.43724,0.39711,0.46626,1.38356
1344,0.231,0.39677,1.49004,-0.03145,0.58962,0.13836,0.24089,0.13837,0.08343,0.04832,0.60805,0.54697,0.2321,0.23394,0.48734,0.03107,0.38488,0.92017,0.15926,0.27228,0.91262,0.11012,0.5023,1.52036,0.29372,0.26261,1.39972,0.09749,0.78521,1.59457,0.37551,0.35127,1.14809,0.25237,0.64839,1.42816,0.39843,0.46274,1.38145
1345,0.22734,0.40135,1.48638,-0.03245,0.58752,0.13614,0.24045,0.13813,0.08318,0.04704,0.60687,0.54477,0.23124,0.23434,0.48693,0.02823,0.38444,0.91834,0.15564,0.2709,0.91188,0.11356,0.51329,1.51445,0.28479,0.26128,1.39974,0.13069,0.79673,1.58572,0.37085,0.34393,1.14748,0.26983,0.64252,1.42061,0.39972,0.45768,1.37908
1346,0.22447,0.40631,1.48236,-0.03333,0.58582,0.13382,0.24018,0.1379,0.08297,0.04581,0.60607,0.54247,0.23022,0.23506,0.48648,0.02522,0.38477,0.91662,0.15205,0.27054,0.91105,0.11532,0.52287,1.5077,0.27793,0.2612,1.40019,0.16015,0.80452,1.57381,0.3657,0.33578,1.14601,0.28761,0.63493,1.41446,0.39984,0.45099,1.37617
1347,0.22347,0.41104,1.47799,-0.03409,0.58437,0.13144,0.24005,0.13757,0.08295,0.0448,0.60556,0.54008,0.22912,0.23566,0.4862,0.02214,0.38577,0.915,0.14828,0.27073,0.91032,0.11664,0.5316,1.50092,0.27291,0.26204,1.40076,0.18646,0.80991,1.55905,0.35948,0.32731,1.14363,0.30474,0.6258,1.40901,0.39848,0.44349,1.37252
1348,0.2243,0.41465,1.47356,-0.03459,0.58287,0.12914,0.24001,0.13709,0.08294,0.04427,0.60551,0.53772,0.2279,0.23591,0.48598,0.01899,0.38717,0.91332,0.1443,0.27119,0.90954,0.11871,0.54025,1.49453,0.2692,0.26292,1.40086,0.21093,0.81412,1.54143,0.35205,0.31926,1.14041,0.32044,0.61561,1.40357,0.39634,0.43621,1.36794
1349,0.22603,0.41668,1.46954,-0.03473,0.58121,0.12713,0.23998,0.13653,0.0827,0.04424,0.60624,0.53555,0.22645,0.23587,0.48558,0.0158,0.38893,0.91151,0.14013,0.27188,0.90853,0.12176,0.54916,1.48812,0.26604,0.26342,1.40013,0.23387,0.81756,1.52128,0.34377,0.31186,1.13654,0.3342,0.60519,1.39784,0.394,0.4299,1.36227
1350,0.22766,0.41745,1.46615,-0.03463,0.57952,0.12547,0.23987,0.13595,0.08226,0.04444,0.60783,0.53365,0.22463,0.23577,0.48495,0.01262,0.39103,0.90964,0.1358,0.27276,0.9073,0.12516,0.55768,1.48101,0.26253,0.26391,1.39869,0.25428,0.81977,1.49956,0.33525,0.30495,1.13242,0.34596,0.59549,1.39142,0.39148,0.42471,1.35581
1351,0.22861,0.41778,1.46309,-0.03446,0.57799,0.12412,0.23964,0.13533,0.08179,0.04464,0.60999,0.53202,0.22248,0.23573,0.48426,0.00952,0.39333,0.9078,0.13133,0.27364,0.90603,0.12843,0.56458,1.47317,0.25839,0.26475,1.39684,0.27091,0.82029,1.47746,0.32706,0.29848,1.12848,0.35635,0.58718,1.38386,0.38869,0.42009,1.34944
1352,0.22885,0.41843,1.45983,-0.03441,0.57691,0.12308,0.23929,0.13464,0.08136,0.04485,0.6124,0.53067,0.22021,0.23568,0.48359,0.00653,0.39556,0.90603,0.12681,0.27432,0.9048,0.13169,0.5693,1.46516,0.25443,0.26577,1.39508,0.28334,0.81954,1.45555,0.31967,0.29266,1.12509,0.36681,0.58059,1.37593,0.38587,0.41555,1.34401
1353,0.22892,0.41968,1.45614,-0.03454,0.57653,0.12246,0.23891,0.13396,0.08091,0.04533,0.61504,0.52965,0.21803,0.23563,0.48289,0.00378,0.39755,0.90429,0.12236,0.27465,0.90355,0.13525,0.57257,1.45739,0.25174,0.26649,1.39386,0.29213,0.81866,1.43416,0.31331,0.2877,1.12251,0.37928,0.57641,1.36995,0.38366,0.41122,1.33977
1354,0.22946,0.42135,1.45213,-0.03476,0.57685,0.12238,0.23845,0.13345,0.08044,0.04629,0.61803,0.52907,0.21608,0.23577,0.48217,0.00129,0.39928,0.90258,0.11804,0.27462,0.9023,0.13905,0.57551,1.44995,0.25031,0.26661,1.39331,0.29859,0.81835,1.41411,0.30792,0.2836,1.12079,0.39382,0.57524,1.3669,0.38271,0.40733,1.33644
1355,0.23067,0.42318,1.44805,-0.03476,0.57762,0.12287,0.23789,0.13326,0.08008,0.04782,0.62127,0.529,0.21439,0.23636,0.48154,-0.0011,0.40078,0.90099,0.11365,0.27429,0.90113,0.14239,0.57834,1.44301,0.24933,0.26621,1.39302,0.30459,0.81761,1.39667,0.30334,0.28005,1.11959,0.40498,0.57407,1.36482,0.38301,0.40384,1.33346
1356,0.23214,0.42515,1.44404,-0.0343,0.57849,0.12376,0.23722,0.13335,0.07995,0.04978,0.62443,0.52933,0.21302,0.23742,0.48112,-0.00359,0.40219,0.89965,0.10899,0.27376,0.90004,0.14409,0.5802,1.43696,0.24819,0.26573,1.39245,0.312,0.81372,1.38236,0.29944,0.2766,1.11836,0.40481,0.56605,1.36125,0.38372,0.4007,1.33027
1357,0.23322,0.42741,1.44018,-0.0335,0.57937,0.12472,0.2365,0.13368,0.07995,0.05191,0.62729,0.52978,0.21192,0.23878,0.48083,-0.0061,0.40356,0.89851,0.10415,0.27313,0.89897,0.14334,0.5803,1.4321,0.2467,0.26564,1.39134,0.32133,0.80437,1.37027,0.29623,0.27301,1.11682,0.39001,0.54848,1.356,0.38397,0.39817,1.32669
1358,0.23365,0.42984,1.43655,-0.03275,0.58039,0.12553,0.23584,0.13421,0.07989,0.05407,0.62984,0.53011,0.21106,0.2403,0.4805,-0.00845,0.40485,0.89733,0.09952,0.27252,0.89782,0.14078,0.57913,1.42819,0.2447,0.26601,1.38984,0.33076,0.79091,1.35917,0.29368,0.26952,1.11514,0.36687,0.52815,1.35189,0.38357,0.39644,1.32303
1359,0.23385,0.43199,1.43316,-0.03245,0.58165,0.12632,0.23542,0.13487,0.07974,0.05626,0.63228,0.53034,0.21035,0.24195,0.48007,-0.0106,0.406,0.89601,0.09525,0.27197,0.89658,0.13876,0.57844,1.42445,0.24216,0.26664,1.38821,0.33774,0.77955,1.34915,0.29159,0.26646,1.11357,0.34874,0.51445,1.34891,0.38279,0.3951,1.31983
1360,0.23445,0.43335,1.43,-0.03263,0.58306,0.12741,0.23534,0.13542,0.07972,0.05858,0.63473,0.53074,0.20968,0.24363,0.47971,-0.01261,0.40694,0.89464,0.09133,0.27143,0.89547,0.13981,0.57977,1.42012,0.23958,0.26748,1.38666,0.34126,0.77711,1.34149,0.28964,0.26387,1.11215,0.34454,0.51181,1.34303,0.38177,0.39367,1.31727
1361,0.23565,0.4337,1.42724,-0.03311,0.58448,0.12883,0.23545,0.1357,0.07997,0.06099,0.63709,0.53138,0.20897,0.24506,0.47959,-0.01449,0.40767,0.89338,0.0878,0.27091,0.89467,0.14452,0.58302,1.41533,0.23753,0.26864,1.38522,0.34156,0.78486,1.33695,0.28777,0.26166,1.11082,0.35395,0.51985,1.33313,0.38059,0.39249,1.31497
1362,0.23696,0.43315,1.42515,-0.03371,0.58576,0.13024,0.23542,0.13571,0.08027,0.06329,0.63902,0.53201,0.20817,0.24588,0.47962,-0.01615,0.40831,0.89235,0.08473,0.27052,0.8941,0.15115,0.58676,1.41103,0.23619,0.27009,1.38392,0.33946,0.79761,1.33493,0.2862,0.26005,1.10956,0.37056,0.53438,1.32312,0.37963,0.39235,1.31249
1363,0.23786,0.43224,1.42364,-0.03427,0.5867,0.1312,0.23508,0.13554,0.08031,0.06518,0.64031,0.53232,0.20731,0.24593,0.47956,-0.01759,0.4091,0.89159,0.08209,0.27044,0.89351,0.15709,0.58991,1.40801,0.23548,0.27161,1.38268,0.33682,0.80881,1.33392,0.28493,0.25943,1.10832,0.38536,0.5485,1.31703,0.37921,0.39318,1.30989
1364,0.23831,0.43164,1.42224,-0.0346,0.58716,0.13155,0.23465,0.13537,0.08,0.06646,0.64108,0.53223,0.20638,0.24536,0.47933,-0.0189,0.41014,0.89106,0.07981,0.27078,0.89281,0.16049,0.59249,1.40617,0.23523,0.27299,1.38136,0.33553,0.81543,1.33291,0.2836,0.25972,1.10685,0.39278,0.55707,1.31352,0.37887,0.39398,1.30762
1365,0.23851,0.43173,1.4207,-0.03456,0.58713,0.13136,0.23442,0.13539,0.07957,0.06708,0.64161,0.53182,0.20534,0.24456,0.47906,-0.02012,0.41131,0.89062,0.07796,0.27151,0.8922,0.1611,0.59508,1.40495,0.23507,0.27412,1.37986,0.3358,0.81838,1.33198,0.2819,0.26031,1.10511,0.39431,0.56051,1.3101,0.37781,0.39428,1.30577
1366,0.23847,0.43226,1.4194,-0.03411,0.58661,0.13075,0.23443,0.13557,0.0793,0.06704,0.64201,0.53121,0.2043,0.24396,0.47893,-0.02115,0.41248,0.89027,0.07661,0.27245,0.89187,0.15998,0.5977,1.40399,0.23462,0.27493,1.37836,0.33655,0.81971,1.33158,0.28009,0.26067,1.10341,0.39353,0.56178,1.30656,0.37599,0.39482,1.30395
1367,0.23821,0.43264,1.41885,-0.03332,0.58563,0.12985,0.23461,0.13574,0.07932,0.0665,0.64229,0.53047,0.2034,0.24369,0.47899,-0.02184,0.41357,0.89001,0.07573,0.27342,0.89184,0.15842,0.59964,1.40314,0.23389,0.27539,1.37723,0.33682,0.8205,1.33173,0.27876,0.2609,1.10219,0.39254,0.56266,1.30322,0.37433,0.39628,1.30206
1368,0.23801,0.43238,1.41921,-0.03238,0.58431,0.12885,0.23489,0.13576,0.07956,0.0657,0.64233,0.5297,0.2026,0.24359,0.47917,-0.02223,0.41447,0.88988,0.07528,0.27427,0.89207,0.15708,0.60035,1.40238,0.23334,0.27543,1.37661,0.33624,0.82098,1.33214,0.27813,0.26131,1.10154,0.39201,0.56357,1.30005,0.37348,0.39826,1.30045
1369,0.23804,0.43149,1.42028,-0.03164,0.58298,0.1279,0.23512,0.13574,0.07984,0.06488,0.64195,0.52899,0.20167,0.24338,0.4794,-0.02249,0.41508,0.88993,0.07516,0.27499,0.89248,0.15601,0.60007,1.40189,0.23321,0.27514,1.37629,0.33466,0.82141,1.3326,0.27792,0.26206,1.10115,0.39166,0.5647,1.29725,0.37333,0.40001,1.29934
1370,0.23808,0.43052,1.42171,-0.03132,0.58199,0.12711,0.23513,0.13585,0.08002,0.0641,0.64113,0.52843,0.20042,0.24301,0.4796,-0.0228,0.41549,0.89026,0.07516,0.27562,0.89298,0.15518,0.5994,1.40224,0.2334,0.27489,1.37587,0.33196,0.82228,1.33311,0.27786,0.2633,1.10063,0.39016,0.56618,1.29538,0.37347,0.40135,1.29865
1371,0.2378,0.43002,1.42325,-0.03136,0.5815,0.12654,0.23487,0.13621,0.08011,0.0633,0.64015,0.52812,0.19898,0.24263,0.47979,-0.02313,0.41583,0.89088,0.07509,0.27614,0.89351,0.15475,0.5987,1.40369,0.23381,0.275,1.37521,0.32817,0.82396,1.33375,0.27798,0.26515,1.09985,0.38627,0.56806,1.29449,0.3737,0.4023,1.29844
1372,0.23723,0.43004,1.42476,-0.0315,0.58135,0.1263,0.23448,0.13676,0.0802,0.06251,0.63937,0.52812,0.19779,0.24244,0.48,-0.02323,0.41612,0.8917,0.07509,0.27649,0.89403,0.15486,0.59798,1.40587,0.23467,0.27528,1.37456,0.32356,0.8264,1.33463,0.27837,0.26744,1.09906,0.38036,0.57039,1.29421,0.37402,0.40294,1.29882
1373,0.23671,0.4302,1.42614,-0.03157,0.58127,0.12644,0.23426,0.13722,0.08034,0.0619,0.63897,0.52843,0.19725,0.24244,0.48024,-0.02294,0.41622,0.89253,0.07542,0.27662,0.89451,0.15543,0.59713,1.40817,0.23645,0.27514,1.37437,0.3184,0.8294,1.33604,0.27895,0.26977,1.09862,0.37395,0.57331,1.29441,0.37439,0.40365,1.29957
1374,0.23657,0.43011,1.42729,-0.03163,0.58123,0.12691,0.23429,0.13741,0.08055,0.06154,0.6388,0.52899,0.19722,0.24251,0.48047,-0.02236,0.41606,0.89331,0.07612,0.27653,0.89497,0.15621,0.59612,1.41035,0.2392,0.27443,1.37474,0.31278,0.83278,1.33834,0.2796,0.2718,1.09864,0.368,0.57693,1.29481,0.37455,0.40492,1.30031
1375,0.23671,0.42968,1.42838,-0.03178,0.58145,0.12752,0.23437,0.13747,0.08078,0.06126,0.6386,0.5297,0.19721,0.24257,0.48069,-0.02178,0.41574,0.89415,0.07696,0.2764,0.89545,0.15673,0.59513,1.41237,0.24235,0.27361,1.37536,0.30697,0.83623,1.34161,0.28032,0.27334,1.0989,0.36297,0.58106,1.29518,0.37417,0.40674,1.30091
1376,0.2368,0.42907,1.42976,-0.03202,0.58204,0.12808,0.23424,0.13768,0.08097,0.06074,0.6382,0.53045,0.19699,0.24266,0.4809,-0.02146,0.41548,0.89517,0.07772,0.27644,0.89595,0.15642,0.59433,1.4141,0.24509,0.27319,1.37581,0.30147,0.83917,1.34542,0.28124,0.27437,1.09911,0.35956,0.58505,1.29596,0.37319,0.40866,1.30139
1377,0.23675,0.42838,1.43156,-0.03228,0.58285,0.12843,0.2339,0.13813,0.08107,0.05982,0.63756,0.53116,0.19681,0.24278,0.4811,-0.02133,0.41528,0.89637,0.07851,0.27672,0.89642,0.15512,0.59345,1.41569,0.24706,0.27313,1.37599,0.29649,0.84105,1.34919,0.28236,0.27512,1.09918,0.35805,0.5881,1.29792,0.37193,0.41033,1.30193
1378,0.23677,0.42766,1.43352,-0.03254,0.58363,0.12857,0.23361,0.13853,0.08111,0.05861,0.63674,0.53173,0.19702,0.2428,0.48129,-0.0211,0.41496,0.89757,0.07963,0.27704,0.89684,0.1533,0.59212,1.41762,0.24841,0.27315,1.37614,0.29164,0.84182,1.35264,0.28358,0.27613,1.09933,0.35812,0.59015,1.30121,0.37087,0.4118,1.30276
1379,0.23687,0.42693,1.43539,-0.03289,0.58423,0.12861,0.23357,0.13864,0.08115,0.05731,0.63596,0.53216,0.19765,0.2427,0.48145,-0.02044,0.41439,0.89856,0.0812,0.27715,0.89725,0.15137,0.5904,1.4202,0.24933,0.27321,1.37655,0.28659,0.84196,1.35582,0.28491,0.27778,1.09981,0.35974,0.59198,1.30522,0.37036,0.41347,1.30401
1380,0.23673,0.4263,1.43721,-0.03349,0.58464,0.1287,0.23379,0.13844,0.0812,0.05604,0.6355,0.53251,0.19846,0.24247,0.48156,-0.0193,0.41368,0.89926,0.08306,0.27698,0.89765,0.14934,0.58863,1.42326,0.24982,0.27342,1.3772,0.28143,0.84185,1.35887,0.28649,0.28007,1.10064,0.36303,0.5943,1.30925,0.37047,0.41564,1.30553
1381,0.23609,0.42582,1.4391,-0.03433,0.58492,0.12887,0.23423,0.13804,0.08123,0.05486,0.63526,0.53282,0.19926,0.24209,0.48162,-0.01789,0.41301,0.89983,0.08498,0.2767,0.898,0.14718,0.58675,1.42639,0.25019,0.27356,1.37793,0.27635,0.84143,1.36188,0.28854,0.28278,1.10168,0.36676,0.59677,1.31321,0.37107,0.41818,1.30726
1382,0.23508,0.42536,1.44106,-0.03515,0.5851,0.12902,0.23492,0.13753,0.08126,0.0538,0.63497,0.53308,0.20009,0.24149,0.48168,-0.01649,0.41248,0.90042,0.08685,0.27652,0.89831,0.14498,0.58443,1.42927,0.2512,0.27339,1.37872,0.27144,0.84048,1.36481,0.29128,0.28569,1.10283,0.36816,0.59798,1.31745,0.37179,0.4206,1.30954
1383,0.23412,0.42483,1.44284,-0.03563,0.5851,0.12903,0.23576,0.13698,0.08129,0.05284,0.63446,0.53327,0.20105,0.24082,0.48175,-0.01521,0.41196,0.90103,0.08876,0.27649,0.89859,0.14286,0.58163,1.4318,0.25318,0.27303,1.37955,0.26686,0.83895,1.36762,0.29468,0.28837,1.10402,0.36509,0.5967,1.32215,0.37213,0.42237,1.31248
1384,0.2335,0.42422,1.44422,-0.03563,0.58486,0.12891,0.23657,0.13649,0.08124,0.05191,0.63374,0.5334,0.20216,0.24031,0.48173,-0.01404,0.41124,0.90154,0.09091,0.27653,0.8988,0.14082,0.5787,1.43406,0.25562,0.27264,1.38033,0.26278,0.83714,1.37043,0.29832,0.29035,1.10513,0.35795,0.59334,1.32679,0.37187,0.42336,1.31562
1385,0.23326,0.42347,1.44528,-0.03526,0.5844,0.12876,0.23721,0.13605,0.08103,0.05104,0.63288,0.53357,0.20333,0.24012,0.48151,-0.01296,0.41014,0.9019,0.09335,0.2765,0.8989,0.13866,0.57609,1.43619,0.25789,0.27196,1.38104,0.25909,0.8355,1.37364,0.30169,0.29163,1.10614,0.34948,0.58976,1.33072,0.37127,0.42386,1.31848
1386,0.23335,0.42241,1.44624,-0.03473,0.58379,0.12865,0.23774,0.13562,0.08071,0.05027,0.63183,0.53378,0.20449,0.24021,0.4811,-0.01198,0.40867,0.90216,0.09592,0.27633,0.89888,0.13618,0.57387,1.43822,0.25993,0.27074,1.38179,0.25549,0.83424,1.37756,0.30458,0.29277,1.10721,0.34255,0.58739,1.33413,0.37057,0.42431,1.32111
1387,0.23363,0.42111,1.44725,-0.03418,0.58309,0.12852,0.23819,0.13527,0.08037,0.04962,0.63054,0.53397,0.20567,0.2404,0.48068,-0.01107,0.40709,0.90244,0.09837,0.27603,0.89883,0.13337,0.57172,1.44002,0.26184,0.26922,1.38267,0.25187,0.83307,1.38204,0.30716,0.29425,1.10846,0.33797,0.58614,1.33721,0.36974,0.42513,1.32378
1388,0.23374,0.41982,1.44839,-0.0336,0.58245,0.12829,0.23848,0.13521,0.08012,0.04907,0.62904,0.53408,0.20703,0.24056,0.48046,-0.0101,0.40565,0.90283,0.10054,0.27561,0.89887,0.1304,0.56929,1.44152,0.26343,0.26786,1.38367,0.2484,0.83153,1.3866,0.30994,0.29605,1.10997,0.33467,0.58508,1.3395,0.36898,0.42646,1.32658
1389,0.23342,0.41875,1.44971,-0.03298,0.58205,0.12801,0.23848,0.13552,0.08003,0.04855,0.62755,0.53415,0.20871,0.24082,0.4805,-0.00905,0.40431,0.90324,0.10249,0.27504,0.89905,0.1274,0.56654,1.44281,0.26454,0.26682,1.38463,0.24508,0.82953,1.39088,0.31329,0.29779,1.11162,0.33148,0.5837,1.34087,0.36868,0.42795,1.32934
1390,0.23273,0.41787,1.45104,-0.03243,0.58191,0.12781,0.23832,0.13602,0.08006,0.04799,0.62625,0.5343,0.21064,0.24136,0.48068,-0.008,0.40283,0.90353,0.1044,0.27432,0.89932,0.12466,0.56377,1.44405,0.26522,0.26606,1.38533,0.24179,0.82752,1.39481,0.31695,0.29905,1.11311,0.32789,0.58221,1.34178,0.36884,0.42904,1.33178
1391,0.23203,0.41697,1.4522,-0.03206,0.58184,0.1277,0.23836,0.13647,0.08012,0.0474,0.62504,0.5345,0.21275,0.24218,0.48078,-0.00702,0.40114,0.90367,0.10641,0.27354,0.89952,0.12258,0.56119,1.44546,0.2655,0.26564,1.3857,0.23838,0.82594,1.39851,0.32023,0.29959,1.11418,0.32367,0.58091,1.34297,0.36893,0.42943,1.33368
1392,0.23163,0.41584,1.45313,-0.03182,0.58168,0.12754,0.2387,0.13674,0.08015,0.04685,0.62372,0.53461,0.21493,0.24311,0.48074,-0.00597,0.39938,0.90375,0.10864,0.27283,0.89961,0.12118,0.55887,1.44716,0.26555,0.26568,1.38595,0.2348,0.82491,1.40218,0.32273,0.29948,1.11491,0.31913,0.5799,1.34506,0.36859,0.42922,1.33508
1393,0.23158,0.4145,1.45395,-0.03162,0.58129,0.12714,0.23911,0.13687,0.08013,0.04633,0.62219,0.53447,0.21698,0.24389,0.48064,-0.00466,0.39766,0.90375,0.11113,0.27219,0.89973,0.12011,0.5568,1.44908,0.2658,0.26597,1.38641,0.231,0.8243,1.40602,0.32461,0.29904,1.11564,0.31544,0.57952,1.34813,0.36792,0.42878,1.33632
1394,0.23158,0.41323,1.45474,-0.03141,0.58057,0.12646,0.23932,0.13695,0.08009,0.04589,0.62037,0.53402,0.21869,0.2444,0.48058,-0.00308,0.39601,0.90368,0.11384,0.27158,0.89999,0.11918,0.55491,1.45107,0.26665,0.26596,1.38724,0.2268,0.82407,1.41008,0.32626,0.29879,1.11661,0.31403,0.58033,1.35194,0.36712,0.4286,1.33772
1395,0.23124,0.41222,1.4555,-0.0312,0.57957,0.12561,0.23929,0.13702,0.08005,0.04566,0.61825,0.53337,0.22007,0.2447,0.48054,-0.00133,0.39446,0.90363,0.1166,0.27096,0.90035,0.11841,0.55304,1.45298,0.26795,0.26517,1.38828,0.22197,0.82412,1.41425,0.32793,0.29907,1.11787,0.31521,0.5826,1.35614,0.36621,0.42907,1.33933
1396,0.23038,0.4113,1.45636,-0.03104,0.57855,0.12478,0.23922,0.13701,0.07998,0.04576,0.61591,0.53266,0.22135,0.24496,0.48046,0.00047,0.39302,0.90368,0.11924,0.27033,0.90066,0.11753,0.55117,1.45467,0.26908,0.26359,1.38926,0.21657,0.82426,1.4183,0.32962,0.29981,1.11927,0.31808,0.58615,1.35996,0.36521,0.43016,1.34097
1397,0.22931,0.41013,1.45753,-0.0309,0.57769,0.12403,0.23928,0.13695,0.07988,0.04612,0.61354,0.53202,0.22275,0.24532,0.4803,0.00221,0.39166,0.9038,0.12164,0.26961,0.90081,0.11627,0.54954,1.45602,0.26951,0.26171,1.39,0.21104,0.82443,1.42194,0.33123,0.30064,1.12066,0.32185,0.59058,1.36331,0.36428,0.43129,1.34257
1398,0.22837,0.40858,1.4591,-0.03069,0.57704,0.12337,0.23941,0.13688,0.07976,0.04646,0.6113,0.53146,0.22433,0.24573,0.48011,0.00382,0.39024,0.90388,0.12379,0.26873,0.90082,0.11497,0.54841,1.45709,0.26918,0.25997,1.39054,0.20596,0.82481,1.42494,0.33271,0.30122,1.12196,0.32426,0.59441,1.36734,0.36364,0.43174,1.34426
1399,0.22752,0.40685,1.46086,-0.03042,0.57657,0.12275,0.23951,0.13688,0.07965,0.04656,0.60923,0.53101,0.2259,0.24606,0.47996,0.00541,0.38867,0.90389,0.12588,0.26765,0.90087,0.1142,0.54771,1.45813,0.26853,0.25843,1.39103,0.20148,0.82546,1.42733,0.334,0.30147,1.1232,0.32055,0.595,1.37152,0.36319,0.43137,1.3461
1400,0.22655,0.40516,1.46251,-0.03028,0.57625,0.12214,0.23946,0.13689,0.07959,0.04642,0.60727,0.53058,0.22731,0.24624,0.4799,0.00724,0.3871,0.9039,0.12817,0.26654,0.90109,0.11387,0.54685,1.45932,0.26806,0.25687,1.39152,0.19738,0.82584,1.42934,0.3351,0.30149,1.12434,0.30801,0.591,1.37449,0.36252,0.43077,1.34782
1401,0.22549,0.40356,1.46381,-0.03052,0.57597,0.12144,0.23925,0.13679,0.07956,0.04627,0.60529,0.52998,0.22855,0.24633,0.47987,0.00941,0.3857,0.90389,0.13077,0.26556,0.90142,0.11325,0.54498,1.46049,0.26817,0.25521,1.39196,0.19323,0.82505,1.43092,0.33607,0.30142,1.12526,0.28971,0.58384,1.37701,0.36135,0.43059,1.34906
1402,0.2245,0.40214,1.4647,-0.03124,0.57548,0.12054,0.23883,0.13659,0.07947,0.04625,0.60305,0.52907,0.2298,0.24644,0.47973,0.01173,0.38439,0.90375,0.13361,0.26477,0.90169,0.11188,0.54184,1.46144,0.26905,0.25368,1.39224,0.18872,0.82277,1.4317,0.33697,0.30134,1.1258,0.27255,0.57641,1.37993,0.35981,0.43076,1.34972
1403,0.22357,0.40092,1.4654,-0.03219,0.57467,0.11945,0.23828,0.13639,0.07927,0.0464,0.60042,0.5279,0.23126,0.24664,0.47946,0.0139,0.38293,0.90343,0.13652,0.26407,0.90179,0.10991,0.53811,1.46218,0.27059,0.25251,1.39234,0.18361,0.81979,1.43161,0.3378,0.30117,1.1259,0.26028,0.57051,1.38278,0.35811,0.43069,1.35001
1404,0.22262,0.39956,1.46632,-0.03297,0.57364,0.11833,0.2378,0.13632,0.07912,0.0467,0.59747,0.52668,0.23294,0.24709,0.4792,0.01585,0.38128,0.90311,0.13937,0.26334,0.90182,0.1076,0.53466,1.46283,0.27233,0.2516,1.39227,0.1778,0.8171,1.43099,0.33848,0.30085,1.12568,0.25149,0.56621,1.386,0.35646,0.42982,1.3503
1405,0.22173,0.39769,1.46769,-0.03331,0.57255,0.11731,0.23757,0.1364,0.07918,0.04707,0.59446,0.52563,0.23467,0.24798,0.47905,0.01781,0.3796,0.90294,0.1422,0.26257,0.90198,0.10505,0.53144,1.46347,0.27378,0.2505,1.39212,0.17159,0.81456,1.42997,0.33892,0.30043,1.12541,0.24509,0.56272,1.39029,0.35542,0.42807,1.3509
1406,0.22104,0.39528,1.46934,-0.03335,0.57142,0.11635,0.23769,0.13662,0.07948,0.04727,0.59161,0.52471,0.23623,0.2492,0.47908,0.02008,0.37799,0.90288,0.14515,0.2617,0.90238,0.10245,0.52758,1.46429,0.27476,0.24897,1.39206,0.1658,0.81111,1.42814,0.33916,0.29994,1.12536,0.24292,0.55949,1.39432,0.35591,0.42586,1.35179
1407,0.22056,0.39257,1.471,-0.03352,0.57022,0.11536,0.23808,0.13686,0.07988,0.04714,0.58893,0.52379,0.23755,0.25031,0.47924,0.02263,0.3765,0.9028,0.14816,0.2607,0.90296,0.10018,0.5227,1.46548,0.2755,0.24707,1.39221,0.16084,0.80626,1.42522,0.33941,0.2993,1.12564,0.24609,0.55669,1.39613,0.35815,0.42392,1.35263
1408,0.22012,0.38976,1.47251,-0.03401,0.56908,0.11438,0.23855,0.13709,0.08017,0.04688,0.58628,0.52282,0.23865,0.25093,0.47941,0.02516,0.37513,0.90272,0.15099,0.25966,0.90353,0.09846,0.51743,1.46684,0.27628,0.24495,1.39253,0.15585,0.80091,1.42146,0.33992,0.29852,1.12616,0.2525,0.55517,1.39553,0.36094,0.42286,1.35312
1409,0.2195,0.38715,1.47382,-0.03458,0.56818,0.11351,0.23891,0.13741,0.08022,0.04695,0.58352,0.5219,0.2396,0.25107,0.47951,0.02745,0.3739,0.90277,0.15352,0.25869,0.90397,0.09722,0.5128,1.46788,0.27708,0.24269,1.39279,0.14953,0.79638,1.41734,0.34071,0.29772,1.12672,0.25917,0.55588,1.3942,0.36294,0.42265,1.35324
1410,0.21867,0.38499,1.47498,-0.03479,0.56751,0.11279,0.23908,0.13779,0.08011,0.0476,0.58059,0.52109,0.24065,0.25091,0.47956,0.02969,0.37273,0.903,0.15595,0.25773,0.90431,0.0963,0.50959,1.46825,0.27773,0.2403,1.39282,0.14139,0.79354,1.41303,0.34167,0.29693,1.12716,0.26474,0.55937,1.39441,0.36384,0.42255,1.3533
1411,0.21783,0.38296,1.4762,-0.03438,0.56686,0.11216,0.23907,0.1381,0.07996,0.04868,0.5776,0.52039,0.242,0.25055,0.47958,0.03216,0.37148,0.9033,0.15859,0.25666,0.9046,0.09572,0.508,1.4681,0.27819,0.23776,1.39281,0.13144,0.79234,1.40825,0.34262,0.29611,1.12764,0.26876,0.56558,1.3971,0.36405,0.42183,1.35379
1412,0.21731,0.38031,1.4778,-0.03358,0.56617,0.11165,0.23893,0.13825,0.07985,0.04992,0.57479,0.51985,0.24364,0.25011,0.47962,0.03493,0.37006,0.90357,0.16157,0.25548,0.90491,0.09555,0.50733,1.46771,0.27857,0.23509,1.3932,0.11959,0.79178,1.40272,0.34338,0.29519,1.12852,0.2704,0.57347,1.40112,0.36398,0.42048,1.35499
1413,0.21726,0.37672,1.47981,-0.03279,0.56557,0.11141,0.23877,0.13832,0.0799,0.05129,0.57229,0.51951,0.24537,0.24977,0.47977,0.03784,0.36857,0.90383,0.16477,0.25431,0.90535,0.09558,0.50627,1.46726,0.27907,0.23243,1.39417,0.10618,0.79016,1.39653,0.34385,0.29409,1.12984,0.26927,0.58103,1.40464,0.36404,0.41904,1.35653
1414,0.21748,0.37288,1.48181,-0.03223,0.56519,0.11141,0.23869,0.13841,0.08022,0.0528,0.56999,0.51935,0.24692,0.24966,0.48012,0.04067,0.36704,0.90412,0.16797,0.25319,0.90601,0.09537,0.50376,1.46683,0.28015,0.22998,1.3955,0.09258,0.78624,1.38997,0.34426,0.29272,1.13125,0.26617,0.58628,1.40678,0.3646,0.4179,1.35781
1415,0.21764,0.36971,1.48342,-0.03176,0.56497,0.11148,0.23877,0.1385,0.08065,0.05424,0.56759,0.51924,0.24818,0.24957,0.48057,0.04326,0.36542,0.90445,0.17097,0.25205,0.9068,0.09457,0.49972,1.46638,0.28223,0.22786,1.39694,0.08041,0.78004,1.38312,0.34502,0.29112,1.1325,0.26231,0.58845,1.40778,0.36572,0.4169,1.3587
1416,0.21757,0.36737,1.48468,-0.03111,0.56486,0.11144,0.23904,0.13846,0.08093,0.05541,0.56499,0.51909,0.24923,0.24921,0.48092,0.04564,0.3637,0.9048,0.17387,0.25093,0.90748,0.09323,0.49494,1.46589,0.28505,0.22604,1.39846,0.07026,0.77255,1.3758,0.34632,0.28928,1.13366,0.25833,0.58818,1.408,0.36697,0.41552,1.3596
1417,0.2175,0.36529,1.48596,-0.0301,0.5648,0.11129,0.23951,0.13827,0.08098,0.05646,0.56244,0.51892,0.25031,0.2485,0.4811,0.04806,0.36204,0.90512,0.17687,0.24993,0.90799,0.09181,0.49026,1.46541,0.28776,0.22428,1.40001,0.06157,0.76458,1.36773,0.34796,0.28702,1.13485,0.25462,0.58695,1.4075,0.36775,0.4134,1.36079
1418,0.21781,0.36294,1.48737,-0.02871,0.5647,0.11117,0.24003,0.13803,0.08092,0.05773,0.56027,0.51881,0.25157,0.24747,0.48122,0.0507,0.36055,0.9054,0.18,0.24902,0.90844,0.09081,0.48597,1.46512,0.28974,0.22223,1.40148,0.05315,0.75613,1.3588,0.34966,0.2843,1.1361,0.25167,0.58664,1.40636,0.36776,0.41077,1.36212
1419,0.21858,0.36038,1.48868,-0.02722,0.56445,0.11124,0.24037,0.1379,0.08073,0.05931,0.55846,0.51885,0.25296,0.24608,0.48135,0.0534,0.35913,0.90565,0.18308,0.24804,0.90884,0.09019,0.48205,1.46501,0.2912,0.21974,1.40292,0.04381,0.74686,1.34911,0.35137,0.28142,1.1375,0.24939,0.58856,1.4046,0.36735,0.40845,1.36336
1420,0.21951,0.35791,1.48972,-0.02592,0.56403,0.11156,0.24035,0.13788,0.08032,0.06096,0.55675,0.51907,0.25425,0.24425,0.48138,0.05594,0.35751,0.90593,0.18605,0.24692,0.90914,0.08931,0.47839,1.46488,0.29284,0.21707,1.40452,0.03343,0.73667,1.33887,0.35326,0.27894,1.1392,0.24669,0.59193,1.40187,0.36743,0.40718,1.36451
1421,0.2203,0.35561,1.49069,-0.02493,0.56344,0.11203,0.24015,0.13778,0.07978,0.06248,0.55493,0.51941,0.2553,0.24211,0.48133,0.05835,0.35562,0.90624,0.18902,0.24569,0.90939,0.08761,0.47473,1.46468,0.29525,0.21467,1.40634,0.02349,0.72566,1.32819,0.35549,0.27712,1.14112,0.24258,0.59341,1.39826,0.36881,0.40671,1.3657
1422,0.22076,0.35328,1.4919,-0.02402,0.56274,0.11253,0.24012,0.13744,0.07934,0.06381,0.55306,0.51979,0.25617,0.23992,0.48134,0.06081,0.35365,0.90658,0.19204,0.24439,0.90971,0.08518,0.47064,1.46455,0.29847,0.21275,1.4082,0.01565,0.71391,1.31726,0.35798,0.27565,1.14291,0.237,0.58999,1.39507,0.37145,0.40591,1.3671
1423,0.2209,0.35077,1.49349,-0.02296,0.56208,0.11296,0.24041,0.13695,0.07914,0.06498,0.55132,0.52016,0.257,0.23786,0.48151,0.06326,0.3518,0.90691,0.19491,0.24305,0.91017,0.08259,0.46594,1.46442,0.30216,0.21128,1.40987,0.00991,0.70134,1.30625,0.36044,0.27419,1.14432,0.23062,0.58235,1.39301,0.37432,0.40388,1.36882
1424,0.22087,0.34818,1.49532,-0.0217,0.5617,0.11334,0.24087,0.13648,0.07912,0.06604,0.5498,0.52056,0.2578,0.23595,0.48183,0.06549,0.3501,0.90721,0.1975,0.2418,0.91074,0.08021,0.46088,1.46387,0.30566,0.21007,1.41133,0.00473,0.68797,1.29522,0.36263,0.27283,1.14545,0.2246,0.57455,1.39109,0.37639,0.40087,1.3709
1425,0.22091,0.34574,1.49705,-0.02019,0.56154,0.11374,0.24124,0.136,0.07923,0.06707,0.54841,0.52102,0.25852,0.23403,0.48228,0.06752,0.34846,0.90755,0.19992,0.24064,0.91142,0.07815,0.4558,1.46266,0.30837,0.20893,1.41269,-0.00097,0.67397,1.28419,0.3648,0.27184,1.14674,0.22011,0.57077,1.38846,0.3776,0.3981,1.37324
1426,0.22114,0.3437,1.49836,-0.01829,0.56132,0.11419,0.24148,0.13541,0.07942,0.06817,0.54699,0.5216,0.25921,0.23197,0.48281,0.06964,0.34684,0.90802,0.20243,0.23952,0.91217,0.0765,0.45092,1.46102,0.3103,0.20771,1.41414,-0.00683,0.65951,1.27326,0.36768,0.27111,1.14851,0.2168,0.57114,1.38542,0.37866,0.3965,1.37559
1427,0.22152,0.34201,1.49928,-0.01607,0.5609,0.11473,0.24172,0.13473,0.07964,0.06938,0.54555,0.52232,0.25999,0.22985,0.48335,0.07197,0.34523,0.90864,0.20516,0.23842,0.91295,0.07527,0.44622,1.45934,0.31199,0.20645,1.41569,-0.01203,0.64475,1.26268,0.37176,0.27025,1.15069,0.2134,0.57237,1.38245,0.38003,0.39583,1.37778
1428,0.22207,0.3403,1.50006,-0.01383,0.56054,0.11544,0.24205,0.13417,0.07986,0.07065,0.54429,0.5232,0.26084,0.22785,0.48387,0.07434,0.34359,0.90932,0.20806,0.23744,0.91371,0.07422,0.44151,1.45782,0.3139,0.20534,1.41736,-0.01602,0.62987,1.25267,0.3766,0.26914,1.15303,0.20935,0.57202,1.38021,0.38141,0.39521,1.37995
1429,0.22279,0.33828,1.50089,-0.01175,0.56048,0.11648,0.24238,0.13382,0.08009,0.07198,0.54353,0.52437,0.26166,0.22608,0.48441,0.07647,0.34181,0.90995,0.21093,0.23661,0.91447,0.07314,0.43658,1.45656,0.31605,0.20461,1.41933,-0.0184,0.61512,1.24337,0.38114,0.26795,1.15546,0.20501,0.57003,1.37923,0.38238,0.39414,1.38237
1430,0.22354,0.33617,1.50174,-0.00973,0.56057,0.11795,0.2426,0.13363,0.08033,0.07337,0.54333,0.52595,0.26236,0.22447,0.48495,0.07825,0.33979,0.91057,0.2136,0.23573,0.91522,0.07194,0.43147,1.45555,0.31813,0.20434,1.42172,-0.01904,0.60074,1.23469,0.38461,0.26694,1.15803,0.2009,0.56731,1.3793,0.38287,0.39286,1.38508
1431,0.22421,0.33438,1.5026,-0.0075,0.56045,0.11957,0.2427,0.1335,0.08054,0.07474,0.54331,0.52775,0.26297,0.22297,0.48544,0.07979,0.33756,0.91118,0.21602,0.23467,0.9159,0.07047,0.42652,1.45467,0.31984,0.2043,1.42417,-0.0184,0.58671,1.22631,0.38729,0.26616,1.16055,0.19707,0.56445,1.37954,0.38313,0.39185,1.3877
1432,0.22485,0.33293,1.5036,-0.00491,0.55985,0.12082,0.24283,0.13344,0.08066,0.07589,0.54304,0.5293,0.26358,0.22164,0.48581,0.08117,0.33531,0.91167,0.21825,0.23356,0.91644,0.0685,0.42199,1.45371,0.3211,0.2042,1.42598,-0.0172,0.57296,1.21797,0.3901,0.26564,1.16266,0.19331,0.56139,1.37907,0.38335,0.39128,1.38977
1433,0.22551,0.3314,1.50488,-0.00197,0.55877,0.12149,0.24315,0.13343,0.08072,0.07678,0.54253,0.53039,0.26434,0.2205,0.48609,0.08246,0.33323,0.91189,0.22036,0.2326,0.91685,0.06604,0.4177,1.4524,0.32213,0.20406,1.42694,-0.0158,0.5597,1.20982,0.39359,0.26551,1.16429,0.18954,0.55786,1.37784,0.38362,0.39118,1.39126
1434,0.22595,0.32944,1.50642,0.00118,0.55735,0.12184,0.24365,0.13333,0.08073,0.07747,0.54219,0.53125,0.26528,0.21942,0.48629,0.08376,0.33132,0.91188,0.22245,0.2318,0.91716,0.06344,0.41312,1.4506,0.32333,0.20423,1.4275,-0.01426,0.54734,1.20229,0.39753,0.26602,1.16568,0.1858,0.55406,1.37645,0.38388,0.3916,1.39251
1435,0.22592,0.32724,1.50792,0.00435,0.55566,0.12224,0.24416,0.13305,0.08071,0.07809,0.54218,0.53218,0.26626,0.21841,0.4864,0.08511,0.32945,0.91176,0.22465,0.23113,0.91738,0.06112,0.40781,1.44846,0.32504,0.20492,1.42811,-0.01273,0.53602,1.19584,0.40142,0.26728,1.16705,0.18211,0.55044,1.37537,0.38399,0.39265,1.39374
1436,0.22551,0.32531,1.50902,0.00728,0.55373,0.12283,0.24454,0.13267,0.08065,0.07876,0.54229,0.53323,0.26709,0.21765,0.48639,0.08652,0.32756,0.91167,0.22707,0.23071,0.91751,0.05926,0.4018,1.44639,0.32729,0.20599,1.4289,-0.01134,0.52537,1.19055,0.40512,0.26917,1.16847,0.17856,0.5469,1.3746,0.38394,0.39412,1.39507
1437,0.22492,0.32401,1.50955,0.00968,0.55154,0.12353,0.24479,0.13235,0.08057,0.07959,0.54222,0.53426,0.26773,0.21726,0.4863,0.08793,0.32574,0.91168,0.22968,0.23065,0.91759,0.05763,0.39563,1.44485,0.3298,0.20704,1.42978,-0.00994,0.51473,1.18609,0.4088,0.2713,1.16997,0.1753,0.54292,1.37394,0.38381,0.39551,1.39659
1438,0.22414,0.32328,1.50963,0.01133,0.54896,0.12423,0.2449,0.13221,0.08053,0.08056,0.54187,0.53511,0.2682,0.21715,0.48624,0.08925,0.32404,0.91175,0.23223,0.23083,0.91769,0.05585,0.39015,1.44409,0.33209,0.20774,1.4306,-0.00811,0.50361,1.1819,0.41255,0.27337,1.17159,0.17244,0.53833,1.37319,0.38343,0.39656,1.39827
1439,0.22299,0.32281,1.50956,0.0123,0.54592,0.12484,0.24496,0.1322,0.08055,0.08152,0.54131,0.53576,0.26867,0.21706,0.48625,0.09038,0.32257,0.91186,0.23446,0.23106,0.91784,0.05379,0.38581,1.444,0.33382,0.2082,1.43132,-0.00563,0.49218,1.1778,0.41626,0.2754,1.17333,0.16998,0.53359,1.37234,0.38248,0.39773,1.39984
1440,0.22159,0.32227,1.50961,0.01297,0.54248,0.12531,0.2451,0.13224,0.08058,0.08224,0.54066,0.53624,0.26936,0.21679,0.48632,0.09132,0.32141,0.91204,0.23634,0.2314,0.91798,0.05174,0.38216,1.44416,0.33491,0.20888,1.43195,-0.00255,0.48123,1.17408,0.41966,0.27764,1.17513,0.16781,0.52955,1.37167,0.38079,0.39969,1.40096
1441,0.22037,0.32148,1.50986,0.01373,0.53884,0.12557,0.24529,0.13231,0.0806,0.08259,0.53992,0.53658,0.27036,0.21632,0.48639,0.09222,0.32055,0.91229,0.2381,0.23192,0.91808,0.05006,0.37842,1.44411,0.3355,0.21001,1.43261,0.00102,0.47176,1.17099,0.42254,0.28026,1.17695,0.1658,0.52664,1.37158,0.37855,0.40252,1.40173
1442,0.21957,0.32043,1.51025,0.01459,0.53511,0.12561,0.24527,0.13244,0.08059,0.08261,0.539,0.53673,0.27143,0.21577,0.48646,0.09328,0.3198,0.91252,0.23995,0.23248,0.91816,0.04879,0.37442,1.44361,0.33582,0.21118,1.43343,0.00484,0.46415,1.16842,0.42478,0.28328,1.17895,0.16383,0.52439,1.37212,0.37618,0.40557,1.40276
1443,0.21905,0.31915,1.51071,0.01537,0.53136,0.12543,0.24489,0.13269,0.08056,0.08251,0.53788,0.53667,0.27219,0.21527,0.48651,0.09457,0.31904,0.91263,0.24193,0.2329,0.91826,0.04755,0.37068,1.44273,0.33627,0.21192,1.43452,0.0084,0.45804,1.16606,0.42639,0.28652,1.18117,0.16197,0.52227,1.37268,0.37404,0.4082,1.40447
1444,0.21849,0.31772,1.5112,0.01597,0.52777,0.12512,0.24447,0.13299,0.08051,0.08255,0.53664,0.5364,0.27259,0.21499,0.48652,0.09602,0.31835,0.91263,0.244,0.23327,0.91835,0.04591,0.36774,1.44174,0.33722,0.21242,1.43584,0.01131,0.4531,1.16384,0.42756,0.28944,1.18329,0.16035,0.52073,1.37268,0.3723,0.41026,1.40636
1445,0.21758,0.31644,1.5116,0.01647,0.52446,0.12468,0.24448,0.1332,0.0805,0.08286,0.53535,0.53595,0.27282,0.21512,0.48651,0.09752,0.31784,0.91259,0.24604,0.23373,0.91845,0.04381,0.36581,1.4409,0.33848,0.21329,1.43707,0.01357,0.44938,1.16195,0.42854,0.29152,1.1848,0.15885,0.52046,1.37229,0.37089,0.4119,1.40749
1446,0.2161,0.31566,1.51182,0.017,0.52132,0.12409,0.245,0.13322,0.08058,0.08332,0.53401,0.53531,0.27305,0.21571,0.48649,0.09892,0.31749,0.91249,0.24796,0.23432,0.91853,0.04162,0.36475,1.44033,0.3395,0.21476,1.43787,0.01533,0.44681,1.16053,0.42949,0.29291,1.18555,0.15723,0.52106,1.37208,0.36949,0.41329,1.40762
1447,0.21402,0.31549,1.51187,0.01766,0.51817,0.12321,0.24562,0.13307,0.08067,0.08368,0.53256,0.53443,0.27334,0.2166,0.48639,0.10016,0.31719,0.91223,0.24978,0.23509,0.91852,0.03969,0.36396,1.44002,0.34005,0.21658,1.43821,0.01673,0.44486,1.15959,0.43039,0.29461,1.18598,0.1554,0.52171,1.37235,0.36789,0.41475,1.4075
1448,0.2117,0.31566,1.5119,0.01838,0.51504,0.12202,0.24592,0.13285,0.08066,0.08378,0.531,0.53328,0.27365,0.21753,0.48614,0.1013,0.31693,0.91177,0.25162,0.23614,0.91835,0.03797,0.36271,1.43986,0.34058,0.21845,1.43845,0.01785,0.44309,1.15907,0.43112,0.29747,1.18659,0.1533,0.52219,1.37308,0.36609,0.41655,1.40796
1449,0.2097,0.31578,1.5121,0.01893,0.51211,0.12062,0.24579,0.13272,0.08055,0.08357,0.5293,0.53195,0.27389,0.2183,0.48582,0.1024,0.31676,0.91123,0.25352,0.23749,0.91808,0.03622,0.36081,1.43969,0.34159,0.22019,1.43888,0.01865,0.44159,1.15884,0.4316,0.30122,1.18748,0.15092,0.52287,1.37401,0.36405,0.41846,1.40906
1450,0.2082,0.31563,1.51255,0.01908,0.50941,0.11921,0.24541,0.13281,0.08045,0.08314,0.52739,0.5306,0.27404,0.21888,0.48558,0.10345,0.31671,0.91084,0.25533,0.23892,0.91788,0.0344,0.35868,1.43939,0.34289,0.2216,1.4395,0.01896,0.44074,1.15879,0.43179,0.30479,1.1884,0.14835,0.52393,1.37498,0.36172,0.41989,1.41033
1451,0.20697,0.31525,1.51314,0.01879,0.50677,0.11788,0.245,0.13303,0.08042,0.08268,0.52519,0.52927,0.27424,0.21937,0.48545,0.10436,0.31679,0.91069,0.25679,0.24009,0.91777,0.03281,0.3568,1.43896,0.34388,0.22243,1.44006,0.01868,0.44063,1.15881,0.43174,0.30748,1.18922,0.14552,0.52497,1.37607,0.35933,0.4207,1.41136
1452,0.2057,0.31476,1.51365,0.0182,0.50404,0.11654,0.24468,0.13319,0.08045,0.08229,0.52265,0.52789,0.27465,0.21982,0.48536,0.1051,0.317,0.91074,0.25784,0.2409,0.91769,0.03174,0.35536,1.43826,0.34427,0.2227,1.44041,0.01777,0.44085,1.15861,0.43157,0.30938,1.18993,0.14164,0.52522,1.37756,0.35717,0.42142,1.41202
1453,0.20445,0.31429,1.51391,0.01759,0.50128,0.11505,0.24449,0.13319,0.08046,0.08191,0.5198,0.52638,0.27527,0.22013,0.48525,0.1058,0.31731,0.91084,0.2587,0.24153,0.91757,0.03129,0.3544,1.43709,0.34422,0.22285,1.44063,0.01613,0.44073,1.15776,0.43127,0.31088,1.19054,0.13571,0.52395,1.37951,0.35528,0.42248,1.41231
1454,0.20336,0.31398,1.51391,0.01717,0.49871,0.11336,0.24445,0.13315,0.08041,0.08147,0.51675,0.5247,0.27594,0.22022,0.48511,0.10657,0.3177,0.91088,0.25963,0.24222,0.91741,0.03132,0.35382,1.43547,0.34395,0.22333,1.44083,0.01377,0.43996,1.15622,0.43074,0.31236,1.191,0.12779,0.52119,1.38161,0.35339,0.42377,1.41239
1455,0.20241,0.31385,1.51389,0.01689,0.49637,0.11154,0.24465,0.13316,0.08031,0.08104,0.51373,0.52294,0.27652,0.22028,0.48498,0.10745,0.31819,0.91082,0.26069,0.24307,0.91725,0.03149,0.35345,1.43387,0.34355,0.22422,1.44098,0.011,0.43883,1.15459,0.43001,0.31407,1.19133,0.11921,0.51831,1.38344,0.35131,0.42507,1.41245
1456,0.20134,0.31388,1.51411,0.01651,0.49407,0.10973,0.24513,0.13315,0.08033,0.08061,0.51086,0.52116,0.27694,0.22057,0.48493,0.10834,0.31877,0.91066,0.2618,0.24411,0.91719,0.03135,0.35316,1.43274,0.34313,0.22541,1.44108,0.00814,0.43788,1.15346,0.42925,0.31605,1.1916,0.11138,0.51673,1.38482,0.34907,0.42642,1.41251
1457,0.19995,0.31416,1.51455,0.01598,0.49171,0.10794,0.24573,0.13301,0.08052,0.08005,0.50819,0.51939,0.27717,0.22113,0.48499,0.10904,0.31946,0.91045,0.26279,0.24543,0.91724,0.03068,0.35289,1.43198,0.34269,0.2269,1.4412,0.00533,0.43741,1.15284,0.4285,0.31816,1.19184,0.10483,0.51623,1.38584,0.34672,0.4279,1.41247
1458,0.19836,0.31479,1.51496,0.01546,0.48941,0.10613,0.24617,0.13281,0.08072,0.07931,0.50573,0.51762,0.2772,0.22165,0.48508,0.10945,0.32033,0.91018,0.26358,0.2471,0.91728,0.02965,0.35247,1.4312,0.34207,0.22877,1.44141,0.0026,0.43739,1.15233,0.42762,0.32026,1.19204,0.09925,0.51571,1.38669,0.34433,0.42947,1.41237
1459,0.19686,0.3157,1.51517,0.01511,0.48739,0.10427,0.24634,0.13269,0.08075,0.07856,0.5035,0.51583,0.27709,0.22176,0.48507,0.10972,0.32143,0.90986,0.26423,0.24905,0.91719,0.02853,0.35174,1.43029,0.3411,0.23101,1.44167,3e-05,0.43768,1.15188,0.42645,0.32245,1.19222,0.0945,0.51494,1.38748,0.34204,0.43121,1.41235
1460,0.1955,0.31662,1.5152,0.01489,0.4858,0.10239,0.2464,0.13271,0.08057,0.07795,0.50133,0.51404,0.27688,0.22138,0.485,0.11003,0.32271,0.90957,0.26487,0.25103,0.91698,0.02738,0.35072,1.42957,0.33993,0.23342,1.44181,-0.00237,0.43813,1.15175,0.425,0.32492,1.19228,0.09065,0.5147,1.38815,0.33999,0.43332,1.41236
1461,0.19407,0.31744,1.51516,0.01465,0.48465,0.10054,0.24654,0.13285,0.0803,0.07747,0.4989,0.51227,0.27664,0.22078,0.48492,0.11038,0.32403,0.90941,0.26547,0.25288,0.91676,0.02622,0.34964,1.4293,0.33898,0.23586,1.44179,-0.00471,0.43861,1.1521,0.42342,0.32753,1.19211,0.08753,0.51573,1.38863,0.33814,0.43571,1.41219
1462,0.1924,0.31831,1.51517,0.0144,0.48383,0.09877,0.24672,0.13306,0.08008,0.077,0.4961,0.51059,0.2765,0.22033,0.48486,0.11055,0.32525,0.90942,0.26593,0.25473,0.91653,0.02522,0.34869,1.42949,0.33856,0.23819,1.44172,-0.00709,0.43908,1.15292,0.42194,0.33004,1.19175,0.08478,0.51827,1.3889,0.33632,0.43804,1.41178
1463,0.19058,0.31931,1.51541,0.01427,0.48313,0.09713,0.24679,0.13326,0.07997,0.07647,0.49314,0.50907,0.27656,0.22028,0.48481,0.11035,0.32639,0.90961,0.26618,0.25683,0.91631,0.02452,0.34797,1.43009,0.33868,0.24022,1.44162,-0.00945,0.43959,1.15412,0.42068,0.33261,1.1914,0.08237,0.52221,1.38894,0.3344,0.44019,1.41138
1464,0.18879,0.32036,1.51595,0.01431,0.4824,0.09566,0.24674,0.13346,0.07998,0.07579,0.49035,0.50776,0.27666,0.22061,0.48478,0.10984,0.32755,0.9099,0.26627,0.25929,0.91609,0.02392,0.3476,1.43096,0.33893,0.24199,1.44136,-0.01165,0.4402,1.15552,0.41958,0.33565,1.19118,0.08058,0.52699,1.38868,0.33236,0.44242,1.41118
1465,0.18716,0.3214,1.5166,0.01444,0.48166,0.09433,0.24671,0.13367,0.08007,0.07495,0.48793,0.5066,0.2765,0.22118,0.48481,0.10926,0.32884,0.91021,0.26633,0.26203,0.91593,0.02313,0.34777,1.43186,0.33875,0.24385,1.44084,-0.01364,0.44075,1.1567,0.41852,0.33914,1.19099,0.07919,0.53157,1.38808,0.33026,0.44498,1.41103
1466,0.18574,0.32264,1.51705,0.01458,0.48111,0.09304,0.24676,0.1339,0.08023,0.07398,0.48592,0.50549,0.27595,0.22189,0.48491,0.10884,0.33035,0.91042,0.2665,0.26492,0.91583,0.02208,0.34848,1.43244,0.33784,0.24635,1.44009,-0.0156,0.44094,1.15722,0.41744,0.34266,1.19056,0.07725,0.53472,1.38741,0.32826,0.44787,1.41054
1467,0.18442,0.32432,1.51722,0.01471,0.48087,0.09175,0.24686,0.13409,0.08045,0.07297,0.48423,0.50438,0.27519,0.22274,0.48505,0.10862,0.33205,0.91052,0.26676,0.26778,0.91578,0.02085,0.34929,1.43251,0.33645,0.24976,1.43925,-0.01769,0.4406,1.15704,0.41633,0.346,1.18979,0.07395,0.53587,1.3871,0.32653,0.45094,1.40964
1468,0.183,0.32644,1.51719,0.01481,0.48083,0.09048,0.24691,0.13416,0.08071,0.07191,0.48278,0.50328,0.27453,0.22376,0.48514,0.10848,0.3338,0.91052,0.26699,0.27043,0.91572,0.01948,0.34965,1.43214,0.33511,0.25371,1.43851,-0.01995,0.43985,1.15642,0.41521,0.34927,1.18887,0.06945,0.53582,1.38707,0.32508,0.4541,1.40864
1469,0.18138,0.32882,1.51703,0.01492,0.48075,0.08926,0.24685,0.13416,0.08094,0.07072,0.48164,0.50224,0.27415,0.22498,0.48513,0.10827,0.33554,0.91044,0.26706,0.27286,0.91558,0.01794,0.34959,1.43157,0.33405,0.25754,1.43802,-0.02233,0.43896,1.15571,0.41413,0.35247,1.18813,0.06482,0.53634,1.38663,0.32371,0.45737,1.40774
1470,0.17968,0.3312,1.51671,0.01508,0.48054,0.08807,0.2467,0.13435,0.08107,0.06934,0.48089,0.50126,0.27391,0.22645,0.48497,0.10785,0.33741,0.91029,0.26684,0.27525,0.91532,0.01622,0.34967,1.43113,0.3331,0.26089,1.43781,-0.02477,0.43818,1.1551,0.41312,0.35534,1.18771,0.06091,0.53859,1.38527,0.32224,0.46079,1.40687
1471,0.17796,0.3334,1.51632,0.01523,0.48028,0.0869,0.24648,0.13485,0.08109,0.0679,0.48046,0.50029,0.27363,0.22818,0.48471,0.10708,0.33948,0.91013,0.26624,0.27773,0.91497,0.01444,0.35036,1.43089,0.33212,0.26378,1.43774,-0.02727,0.43756,1.15454,0.41211,0.35795,1.18753,0.05745,0.54198,1.38328,0.3205,0.46446,1.40587
1472,0.17623,0.33535,1.51597,0.01536,0.48013,0.08571,0.24627,0.13544,0.08109,0.06657,0.48004,0.49929,0.27331,0.2301,0.4844,0.10602,0.34171,0.91001,0.2653,0.28026,0.91459,0.01278,0.35161,1.43054,0.33127,0.26638,1.43765,-0.02988,0.43695,1.15377,0.41108,0.36076,1.18746,0.05353,0.54492,1.38133,0.31822,0.46845,1.4047
1473,0.1745,0.33704,1.5157,0.01559,0.48017,0.08453,0.24614,0.13588,0.08117,0.06544,0.47939,0.49827,0.27304,0.23213,0.48412,0.10485,0.34393,0.90995,0.26426,0.28279,0.91422,0.01127,0.35306,1.4298,0.33072,0.26895,1.43759,-0.03265,0.43636,1.1526,0.41005,0.36404,1.18751,0.04875,0.54679,1.37972,0.31531,0.47259,1.4035
1474,0.17269,0.3386,1.51548,0.01607,0.4804,0.08342,0.24609,0.13613,0.08136,0.06465,0.47863,0.49731,0.2728,0.23433,0.48385,0.10367,0.34593,0.90992,0.2633,0.28536,0.9139,0.00971,0.35438,1.42875,0.33023,0.27181,1.43771,-0.03539,0.43611,1.15127,0.40905,0.36734,1.18764,0.04373,0.54845,1.37825,0.31217,0.47646,1.40239
1475,0.17065,0.34024,1.51528,0.01679,0.48069,0.08243,0.24611,0.13628,0.08166,0.0643,0.47809,0.49644,0.27255,0.23685,0.48358,0.10246,0.34765,0.90985,0.26242,0.28794,0.91361,0.00788,0.35546,1.42779,0.32942,0.27511,1.43793,-0.03783,0.43647,1.1502,0.40815,0.37016,1.18765,0.03936,0.55101,1.37675,0.3095,0.47979,1.40133
1476,0.1682,0.34214,1.51515,0.01765,0.48095,0.08155,0.24614,0.1364,0.08201,0.06431,0.47795,0.49565,0.27226,0.23977,0.48324,0.10121,0.3493,0.90974,0.2615,0.29047,0.9133,0.00592,0.35633,1.42719,0.32808,0.27871,1.438,-0.03985,0.43725,1.14958,0.40733,0.37258,1.18744,0.03596,0.55446,1.37523,0.30756,0.48278,1.4003
1477,0.16543,0.34436,1.51511,0.01855,0.48112,0.08076,0.24615,0.13658,0.08235,0.06447,0.47809,0.49494,0.27189,0.24304,0.4828,0.09992,0.35104,0.90965,0.2605,0.29297,0.91293,0.00412,0.35712,1.42679,0.32626,0.28231,1.43788,-0.04161,0.43794,1.14915,0.40646,0.37504,1.18719,0.03312,0.55787,1.37372,0.30604,0.48588,1.39942
1478,0.16276,0.34686,1.51504,0.01937,0.48117,0.08013,0.2461,0.13693,0.08263,0.06467,0.47839,0.49438,0.2714,0.24652,0.48226,0.09858,0.35285,0.90968,0.25942,0.2955,0.91248,0.00253,0.35797,1.42623,0.32414,0.28578,1.43775,-0.04328,0.43828,1.14845,0.40534,0.37783,1.18714,0.03022,0.56045,1.37222,0.30453,0.48929,1.39886
1479,0.16055,0.34944,1.51482,0.02005,0.48105,0.07974,0.24608,0.13741,0.08286,0.06489,0.4789,0.49405,0.27083,0.25002,0.48169,0.09714,0.35462,0.90986,0.25828,0.29808,0.912,0.00095,0.35904,1.42533,0.32209,0.28923,1.43773,-0.04494,0.43863,1.14736,0.40393,0.38104,1.18724,0.02697,0.56231,1.37082,0.30282,0.49279,1.39866
1480,0.15876,0.35193,1.51449,0.02062,0.48085,0.07959,0.24618,0.13799,0.08313,0.06513,0.47977,0.49393,0.27031,0.25343,0.48118,0.09557,0.35637,0.91014,0.25704,0.30075,0.91156,-0.00082,0.36029,1.42433,0.32049,0.29282,1.4378,-0.04673,0.4395,1.14625,0.40243,0.38457,1.18732,0.02349,0.56414,1.36972,0.30098,0.49605,1.39872
1481,0.15703,0.35423,1.51422,0.0211,0.48072,0.07955,0.24645,0.13868,0.08349,0.06522,0.48099,0.49394,0.26998,0.25681,0.48079,0.09395,0.35812,0.91043,0.25576,0.30348,0.9112,-0.00281,0.36148,1.42353,0.31938,0.29653,1.43791,-0.04877,0.44101,1.14555,0.4011,0.38806,1.18728,0.01998,0.56635,1.36908,0.29915,0.49904,1.3987
1482,0.1551,0.35645,1.51416,0.02137,0.48073,0.07949,0.24682,0.13956,0.08395,0.06496,0.48223,0.49394,0.26983,0.26037,0.48047,0.09238,0.35984,0.91065,0.25449,0.3061,0.91095,-0.00499,0.36241,1.423,0.31835,0.30029,1.43818,-0.05106,0.44295,1.14533,0.39997,0.39094,1.18719,0.01646,0.56878,1.36896,0.29743,0.50204,1.39826
1483,0.15287,0.35879,1.5143,0.02133,0.48074,0.07935,0.24715,0.14065,0.0845,0.06433,0.48315,0.49385,0.26981,0.26426,0.48018,0.09092,0.36146,0.91082,0.25327,0.30843,0.91077,-0.00732,0.36321,1.42267,0.31692,0.3041,1.43867,-0.05341,0.44513,1.1454,0.3989,0.39301,1.18718,0.01279,0.57109,1.36935,0.29577,0.50517,1.3974
1484,0.15032,0.36138,1.51451,0.02108,0.48061,0.07911,0.24737,0.14184,0.08515,0.06353,0.48357,0.49366,0.26987,0.2684,0.47991,0.08953,0.36289,0.91097,0.25207,0.31047,0.91067,-0.00968,0.36415,1.42243,0.31506,0.30797,1.43928,-0.05564,0.44751,1.14557,0.39781,0.39488,1.18735,0.009,0.57308,1.3702,0.29391,0.50833,1.3965
1485,0.14749,0.36417,1.51463,0.02091,0.48048,0.07879,0.24753,0.14303,0.08596,0.06269,0.48356,0.49341,0.26989,0.27271,0.47971,0.08815,0.36409,0.9111,0.2509,0.31233,0.91065,-0.01183,0.36534,1.42224,0.31303,0.31177,1.43989,-0.05776,0.45014,1.14582,0.3967,0.39738,1.18781,0.00542,0.5747,1.37142,0.29165,0.51155,1.39599
1486,0.14455,0.36704,1.51466,0.02101,0.48059,0.07851,0.24775,0.14409,0.087,0.06184,0.4834,0.49323,0.26976,0.27725,0.47961,0.08674,0.36502,0.91126,0.24979,0.3142,0.91073,-0.01369,0.36681,1.42207,0.31093,0.31538,1.44053,-0.05989,0.45318,1.14618,0.3955,0.40054,1.18861,0.00235,0.57598,1.373,0.28915,0.51513,1.39589
1487,0.14169,0.36983,1.51478,0.02123,0.48087,0.07838,0.2481,0.14498,0.08829,0.06103,0.48333,0.4932,0.26955,0.28213,0.47956,0.08526,0.36572,0.91149,0.24872,0.31626,0.91088,-0.01542,0.36846,1.42188,0.30867,0.31883,1.44141,-0.06208,0.45659,1.14662,0.39409,0.40373,1.18968,-0.00043,0.57694,1.37491,0.28674,0.51939,1.39586
1488,0.139,0.37241,1.51512,0.02131,0.48102,0.07845,0.24855,0.14573,0.08982,0.06024,0.48343,0.49335,0.26946,0.28731,0.47953,0.08361,0.36625,0.91181,0.24761,0.31861,0.91101,-0.01727,0.37009,1.42167,0.30635,0.3223,1.44266,-0.06418,0.46003,1.14704,0.39237,0.40659,1.19093,-0.00331,0.57767,1.37694,0.28451,0.5243,1.39568
1489,0.13641,0.37483,1.51559,0.02111,0.48091,0.07863,0.24897,0.14634,0.09153,0.0593,0.48355,0.4936,0.26956,0.29258,0.47953,0.08177,0.36682,0.91223,0.24631,0.32106,0.91113,-0.01929,0.37141,1.42154,0.30422,0.3258,1.44417,-0.06602,0.46331,1.14753,0.39032,0.40931,1.1922,-0.00619,0.57846,1.37897,0.28234,0.52937,1.39551
