PaulMeinheit/Bachelor_Muay_Thai/processed_Data/E3/teep/sliced/JointPositions/sliced7.csv
Unnamed: 0_level_0,Neck_Joint_Position,Neck_Joint_Position,Neck_Joint_Position,L_ANKLE_POSITION,L_ANKLE_POSITION,L_ANKLE_POSITION,R_ANKLE_POSITION,R_ANKLE_POSITION,R_ANKLE_POSITION,L_KNEE_POSITION,L_KNEE_POSITION,L_KNEE_POSITION,R_KNEE_POSITION,R_KNEE_POSITION,R_KNEE_POSITION,L_HIP_POSITION,L_HIP_POSITION,L_HIP_POSITION,R_HIP_POSITION,R_HIP_POSITION,R_HIP_POSITION,L_SHOULDER_POSITION,L_SHOULDER_POSITION,L_SHOULDER_POSITION,R_SHOULDER_POSITION,R_SHOULDER_POSITION,R_SHOULDER_POSITION,L_ELBOW_POSITION,L_ELBOW_POSITION,L_ELBOW_POSITION,R_ELBOW_POSITION,R_ELBOW_POSITION,R_ELBOW_POSITION,L_WRIST_POSITION,L_WRIST_POSITION,L_WRIST_POSITION,R_WRIST_POSITION,R_WRIST_POSITION,R_WRIST_POSITION
ITEM,X,Y,Z,X,Y,Z,X,Y,Z,X,Y,Z,X,Y,Z,X,Y,Z,X,Y,Z,X,Y,Z,X,Y,Z,X,Y,Z,X,Y,Z,X,Y,Z,X,Y,Z
2586,0.21043,0.36949,1.46288,-0.07325,0.59205,0.15535,0.24178,0.12813,0.08195,0.03039,0.66274,0.55275,0.19238,0.24199,0.47813,-0.01846,0.41732,0.90879,0.08619,0.28296,0.89607,0.15035,0.53375,1.45794,0.20423,0.21975,1.39267,0.36058,0.72198,1.37994,0.26605,0.22773,1.12067,0.36138,0.45686,1.36924,0.3672,0.33129,1.3362
2587,0.20922,0.36989,1.46368,-0.07431,0.5916,0.15505,0.24139,0.12736,0.08207,0.02974,0.6625,0.55231,0.19188,0.24083,0.47834,-0.01792,0.41739,0.90872,0.08625,0.28262,0.89635,0.15006,0.53473,1.45852,0.20277,0.2197,1.3936,0.3595,0.72388,1.38063,0.26583,0.22756,1.12188,0.36256,0.45875,1.37062,0.36559,0.33198,1.33764
2588,0.20815,0.37031,1.46455,-0.07541,0.59132,0.15472,0.24098,0.12668,0.08232,0.02901,0.66237,0.55185,0.19153,0.23974,0.47871,-0.01719,0.41758,0.90867,0.08642,0.28233,0.89677,0.15014,0.53595,1.45901,0.20143,0.21963,1.39434,0.35789,0.72715,1.3816,0.26567,0.22683,1.12288,0.3644,0.46205,1.37252,0.36437,0.33203,1.33875
2589,0.20702,0.37081,1.46548,-0.07671,0.59121,0.15438,0.24048,0.12613,0.08263,0.02804,0.66205,0.55147,0.19123,0.23864,0.4792,-0.01657,0.41785,0.9089,0.08652,0.28218,0.89726,0.15038,0.53716,1.45923,0.20029,0.21944,1.39494,0.35562,0.73141,1.38272,0.26542,0.22565,1.12367,0.36637,0.46641,1.37498,0.36342,0.33174,1.33943
2590,0.20556,0.3714,1.46649,-0.0783,0.591,0.15403,0.23989,0.12555,0.08287,0.02684,0.6614,0.55109,0.19103,0.23745,0.47967,-0.01614,0.41804,0.9093,0.0865,0.28204,0.89766,0.15043,0.53834,1.45924,0.19944,0.21914,1.3956,0.35255,0.73625,1.38383,0.26522,0.22444,1.12446,0.36944,0.47151,1.37821,0.36255,0.3316,1.33999
2591,0.20366,0.37203,1.4676,-0.08,0.59057,0.15358,0.23943,0.12471,0.08302,0.02564,0.66049,0.55059,0.19098,0.23617,0.47999,-0.01573,0.41806,0.90961,0.0865,0.28175,0.89789,0.15002,0.53971,1.45909,0.19888,0.21878,1.39645,0.34843,0.74181,1.38495,0.26517,0.22365,1.12542,0.37567,0.47789,1.38315,0.36182,0.33183,1.34075
2592,0.20164,0.37248,1.4689,-0.08151,0.59008,0.15306,0.2394,0.1237,0.08315,0.02466,0.65952,0.55002,0.19107,0.23484,0.48022,-0.01515,0.41787,0.90974,0.08672,0.28129,0.89806,0.14892,0.5412,1.45891,0.19846,0.21845,1.39755,0.3436,0.74739,1.38615,0.26526,0.22344,1.12665,0.38371,0.48512,1.38931,0.36143,0.33239,1.34181
2593,0.19983,0.37261,1.47046,-0.08265,0.58975,0.15264,0.23985,0.12284,0.08332,0.0239,0.65865,0.54959,0.19127,0.23353,0.48049,-0.01429,0.41752,0.90983,0.08733,0.28074,0.89834,0.1469,0.54213,1.45909,0.19797,0.21834,1.39886,0.33955,0.75064,1.38756,0.26542,0.22357,1.12813,0.38756,0.48976,1.39371,0.36138,0.33313,1.34307
2594,0.19822,0.37259,1.47224,-0.08356,0.5895,0.15241,0.2405,0.12236,0.08353,0.02319,0.6578,0.54941,0.19155,0.23219,0.4809,-0.01322,0.41709,0.91012,0.08825,0.28017,0.89882,0.144,0.54197,1.45998,0.19723,0.21849,1.40026,0.3376,0.7499,1.38932,0.26566,0.22353,1.12977,0.38284,0.4885,1.39391,0.36139,0.33379,1.34445
2595,0.19662,0.37261,1.47414,-0.08452,0.58913,0.15226,0.24102,0.12215,0.08374,0.02237,0.65673,0.54934,0.1919,0.23074,0.48143,-0.01211,0.41667,0.91068,0.08929,0.27971,0.89941,0.14065,0.54088,1.46153,0.19639,0.21882,1.40172,0.33702,0.74631,1.39118,0.26612,0.22294,1.13155,0.37218,0.48332,1.39168,0.36129,0.33412,1.346
2596,0.19503,0.37263,1.47607,-0.08564,0.58857,0.152,0.24127,0.12187,0.08393,0.0215,0.65534,0.54915,0.19228,0.22926,0.48196,-0.01108,0.41639,0.91139,0.0904,0.2795,0.89997,0.1373,0.5394,1.46333,0.19599,0.21919,1.40326,0.33593,0.74262,1.39293,0.267,0.2219,1.1334,0.36193,0.47858,1.39036,0.36104,0.33424,1.34775
2597,0.19348,0.37255,1.47802,-0.08674,0.58795,0.15156,0.24137,0.12135,0.0841,0.02078,0.65385,0.54876,0.19276,0.22798,0.48238,-0.01006,0.41623,0.91203,0.09165,0.27953,0.90042,0.13413,0.53809,1.46502,0.1963,0.21932,1.4048,0.33386,0.74025,1.39468,0.26835,0.22081,1.13521,0.35476,0.47577,1.39057,0.36073,0.33451,1.34956
2598,0.1918,0.37245,1.47996,-0.08756,0.58744,0.15104,0.24143,0.12067,0.08428,0.02041,0.65246,0.54826,0.19345,0.22699,0.48271,-0.00901,0.41604,0.91243,0.09301,0.27957,0.90078,0.1313,0.53723,1.46645,0.19686,0.2191,1.40616,0.33174,0.73884,1.39654,0.26989,0.21994,1.13683,0.3494,0.47415,1.39125,0.36033,0.33509,1.35123
2599,0.18977,0.37244,1.48185,-0.08803,0.58705,0.15052,0.24153,0.12007,0.08447,0.02043,0.65108,0.54776,0.19437,0.22622,0.48304,-0.00795,0.41556,0.9126,0.09443,0.27934,0.90117,0.12921,0.53688,1.46768,0.19695,0.21867,1.40728,0.3298,0.73867,1.39872,0.27126,0.21939,1.1383,0.34573,0.4739,1.39206,0.35981,0.33575,1.35285
2600,0.18747,0.37253,1.48366,-0.08831,0.58675,0.15007,0.24165,0.11969,0.08469,0.02062,0.64949,0.54739,0.19528,0.22563,0.48342,-0.0069,0.41471,0.91277,0.09599,0.27885,0.90168,0.12822,0.53707,1.46872,0.19642,0.21819,1.40835,0.327,0.74122,1.40149,0.27251,0.21918,1.13987,0.34587,0.47666,1.39423,0.35925,0.33615,1.35482
2601,0.18516,0.37268,1.48538,-0.08862,0.5866,0.14977,0.24185,0.11963,0.08495,0.02076,0.64764,0.54723,0.19597,0.22523,0.48382,-0.00582,0.4137,0.91322,0.09779,0.27837,0.90236,0.12803,0.53807,1.4695,0.19595,0.21769,1.4096,0.32265,0.74695,1.40469,0.27404,0.21935,1.1417,0.35017,0.48311,1.39894,0.35907,0.33621,1.35739
2602,0.18321,0.37278,1.48695,-0.08902,0.58662,0.14969,0.24215,0.11992,0.08513,0.02074,0.64571,0.54734,0.19642,0.22501,0.48416,-0.00472,0.41272,0.91402,0.09979,0.27809,0.90306,0.12768,0.53993,1.4701,0.19633,0.21716,1.41108,0.31741,0.75398,1.40771,0.276,0.21979,1.14365,0.35571,0.49144,1.40525,0.35962,0.33611,1.36019
2603,0.18194,0.37272,1.48829,-0.08931,0.58667,0.14978,0.24244,0.12048,0.08513,0.02066,0.64392,0.54764,0.19688,0.22493,0.48435,-0.00365,0.41183,0.91496,0.10177,0.27794,0.90361,0.1264,0.54205,1.47089,0.19749,0.21673,1.41256,0.31229,0.75992,1.41018,0.27815,0.22022,1.14544,0.35961,0.49884,1.41099,0.36072,0.33609,1.36262
2604,0.18135,0.3725,1.4894,-0.08926,0.58647,0.14989,0.24255,0.12112,0.08494,0.0207,0.64243,0.54794,0.19769,0.22491,0.48441,-0.00254,0.41091,0.91569,0.10359,0.27762,0.90393,0.12409,0.54347,1.47216,0.19863,0.21662,1.41376,0.30729,0.7638,1.41218,0.28032,0.22052,1.14696,0.36154,0.50409,1.41502,0.36178,0.33636,1.36457
2605,0.18099,0.3722,1.49035,-0.08888,0.58591,0.14991,0.24249,0.12171,0.08467,0.02095,0.64126,0.54808,0.19903,0.22492,0.48444,-0.00126,0.40985,0.91596,0.10525,0.27687,0.90413,0.1212,0.54373,1.47362,0.1992,0.21689,1.41459,0.30204,0.76607,1.41387,0.28265,0.2208,1.14833,0.36204,0.50764,1.41777,0.36244,0.337,1.36637
2606,0.18033,0.3719,1.49124,-0.08834,0.58516,0.14976,0.24245,0.12225,0.08439,0.02138,0.64026,0.54799,0.20071,0.2249,0.48449,0.00022,0.40862,0.91579,0.10683,0.27569,0.9043,0.11825,0.54308,1.4748,0.19947,0.21725,1.41516,0.29669,0.76742,1.41531,0.28529,0.22121,1.14966,0.36085,0.51001,1.42001,0.36278,0.33799,1.36822
2607,0.17925,0.37153,1.49215,-0.08784,0.5845,0.14942,0.24256,0.1229,0.08404,0.02183,0.63917,0.54772,0.20235,0.22491,0.48446,0.00179,0.4072,0.91538,0.10845,0.27427,0.90444,0.11549,0.54192,1.47558,0.20006,0.21722,1.41574,0.29144,0.76834,1.41654,0.288,0.22168,1.15094,0.35796,0.51154,1.42211,0.363,0.33907,1.37003
2608,0.17802,0.37097,1.49319,-0.08745,0.58402,0.14895,0.24292,0.12367,0.08356,0.02221,0.63783,0.54738,0.20363,0.22506,0.48423,0.0033,0.40566,0.91497,0.11027,0.27294,0.9045,0.11281,0.54032,1.47621,0.20134,0.21658,1.41656,0.28574,0.76915,1.41752,0.29035,0.22208,1.15215,0.35435,0.51292,1.42393,0.3632,0.33993,1.37172
2609,0.17696,0.37017,1.49435,-0.0871,0.58353,0.14843,0.24352,0.12435,0.083,0.02253,0.63613,0.54703,0.20459,0.22533,0.48381,0.0046,0.40412,0.91477,0.11232,0.27199,0.90445,0.11001,0.53828,1.47688,0.20318,0.21566,1.41766,0.27894,0.77008,1.41821,0.29229,0.22236,1.1533,0.35051,0.51468,1.4251,0.36337,0.34043,1.37335
2610,0.1762,0.36922,1.49551,-0.08658,0.58281,0.14795,0.24424,0.12473,0.0825,0.02294,0.63408,0.54675,0.20551,0.22555,0.48337,0.00564,0.4027,0.91492,0.11453,0.27156,0.90437,0.10707,0.53606,1.47765,0.2053,0.21498,1.41888,0.2712,0.7712,1.41863,0.29406,0.2225,1.15442,0.34591,0.51669,1.42533,0.36343,0.34067,1.37495
2611,0.17574,0.36833,1.49651,-0.08567,0.58187,0.14755,0.24496,0.12481,0.08216,0.02359,0.63185,0.54658,0.20663,0.22564,0.48306,0.00661,0.40137,0.91533,0.11686,0.2714,0.90435,0.1043,0.53405,1.47847,0.20745,0.21454,1.42005,0.26318,0.77258,1.41874,0.29583,0.22242,1.15547,0.34081,0.51894,1.42477,0.36335,0.34082,1.37646
2612,0.17542,0.36767,1.49728,-0.08447,0.58091,0.14719,0.24557,0.12471,0.08198,0.02451,0.62974,0.54644,0.20803,0.22577,0.48289,0.00785,0.40003,0.91568,0.11929,0.2711,0.90445,0.10194,0.53236,1.47921,0.20947,0.21385,1.42106,0.25525,0.77427,1.41852,0.29763,0.22214,1.15643,0.33694,0.5219,1.42437,0.36328,0.34099,1.37773
2613,0.175,0.36716,1.49799,-0.08336,0.58001,0.14678,0.24604,0.12451,0.08187,0.02551,0.62788,0.54618,0.20963,0.22603,0.48278,0.00941,0.39867,0.91576,0.12175,0.27051,0.9046,0.09973,0.53088,1.47956,0.21147,0.21251,1.42189,0.2474,0.77609,1.41813,0.29956,0.22189,1.15727,0.3354,0.52587,1.42497,0.36346,0.34148,1.37868
2614,0.17433,0.36647,1.49882,-0.0827,0.57912,0.1463,0.24644,0.12421,0.08175,0.02628,0.62612,0.54578,0.21131,0.22621,0.48265,0.011,0.39735,0.91566,0.1241,0.26985,0.90469,0.09714,0.52939,1.47924,0.21373,0.21072,1.42255,0.23957,0.77767,1.41779,0.30168,0.22199,1.15796,0.33499,0.53024,1.42638,0.36401,0.34252,1.37931
2615,0.17358,0.36546,1.49975,-0.08247,0.5783,0.14577,0.24691,0.12384,0.08162,0.02671,0.6242,0.54531,0.21291,0.2261,0.48255,0.01241,0.39615,0.91568,0.12627,0.26932,0.90476,0.09389,0.52755,1.47833,0.21632,0.20908,1.42313,0.23155,0.77866,1.41747,0.30397,0.22248,1.15854,0.33359,0.53396,1.42802,0.36479,0.34396,1.37979
2616,0.17302,0.3643,1.50062,-0.08238,0.57756,0.14524,0.24751,0.12354,0.08158,0.02705,0.62207,0.54488,0.21436,0.22582,0.48258,0.01384,0.39505,0.91592,0.12838,0.26885,0.90494,0.09017,0.52515,1.47728,0.21884,0.20797,1.42362,0.22318,0.77886,1.41687,0.30637,0.22294,1.15907,0.33051,0.53653,1.42934,0.36543,0.34537,1.38028
2617,0.17271,0.36316,1.5014,-0.08212,0.57676,0.1448,0.24812,0.12339,0.08166,0.02761,0.6199,0.54451,0.21568,0.22568,0.48271,0.01548,0.39393,0.91623,0.13058,0.26823,0.9053,0.08635,0.52233,1.47666,0.22093,0.20714,1.42399,0.21455,0.77836,1.41566,0.30882,0.22294,1.1596,0.32691,0.5384,1.42949,0.36556,0.34659,1.38074
2618,0.17256,0.36198,1.50228,-0.08161,0.57565,0.14454,0.24858,0.12335,0.08176,0.02846,0.6179,0.54424,0.21689,0.22582,0.48283,0.01724,0.3927,0.91645,0.13291,0.26751,0.90573,0.0827,0.51942,1.47674,0.22272,0.20615,1.42426,0.20576,0.77749,1.41377,0.3113,0.22241,1.16014,0.32395,0.54037,1.42797,0.36511,0.34777,1.38105
2619,0.17248,0.36069,1.50337,-0.08091,0.57423,0.14444,0.24884,0.12326,0.08181,0.02937,0.61617,0.54412,0.21808,0.22606,0.48286,0.01889,0.39138,0.9166,0.1353,0.26685,0.90608,0.07938,0.5166,1.47735,0.22452,0.20493,1.42459,0.1966,0.77657,1.41116,0.3139,0.22186,1.16078,0.32131,0.5428,1.42526,0.36454,0.34901,1.38141
2620,0.17239,0.35927,1.50458,-0.08008,0.57277,0.14438,0.24894,0.1231,0.08174,0.03011,0.61451,0.54411,0.21936,0.22595,0.48287,0.02042,0.38998,0.91677,0.13766,0.26624,0.90635,0.07642,0.51378,1.47817,0.22653,0.20378,1.42508,0.18689,0.77557,1.40766,0.31679,0.2219,1.16165,0.31782,0.54527,1.42255,0.36456,0.35038,1.38216
2621,0.17228,0.35779,1.50568,-0.07922,0.57155,0.14426,0.2489,0.12301,0.08156,0.03068,0.61265,0.54414,0.22073,0.22525,0.48294,0.02197,0.38848,0.91704,0.14004,0.26552,0.90662,0.07392,0.51069,1.47899,0.22879,0.20283,1.42575,0.17672,0.77417,1.40335,0.31993,0.22274,1.16275,0.31299,0.54717,1.42067,0.36551,0.35185,1.38335
2622,0.17233,0.35627,1.5065,-0.07829,0.57068,0.14409,0.24871,0.12312,0.0813,0.03124,0.61047,0.54419,0.22208,0.22418,0.48309,0.02364,0.38689,0.91747,0.14248,0.26469,0.90695,0.07216,0.50711,1.47983,0.23126,0.20189,1.42652,0.16637,0.77214,1.39865,0.32306,0.22413,1.16394,0.30758,0.54848,1.41954,0.36704,0.35328,1.38483
2623,0.17269,0.35471,1.5071,-0.07721,0.57003,0.14395,0.24848,0.12335,0.08107,0.03197,0.60816,0.54432,0.2233,0.22325,0.48325,0.0254,0.38529,0.91804,0.14501,0.26385,0.90734,0.07121,0.50313,1.48072,0.23378,0.20075,1.42736,0.1558,0.76963,1.39394,0.32603,0.2256,1.16517,0.30266,0.55,1.41835,0.36847,0.35449,1.38652
2624,0.17316,0.35317,1.50773,-0.07595,0.5694,0.14385,0.24841,0.12342,0.08097,0.03285,0.6059,0.54447,0.22438,0.2228,0.48334,0.02722,0.38369,0.91861,0.14761,0.26304,0.90775,0.0705,0.49917,1.48146,0.23624,0.19959,1.42826,0.14456,0.76698,1.38925,0.32896,0.22676,1.16646,0.29824,0.55238,1.41627,0.36924,0.35564,1.38822
2625,0.17333,0.35174,1.50857,-0.07469,0.56867,0.14369,0.24868,0.12313,0.08103,0.03378,0.60374,0.54453,0.22548,0.22277,0.48339,0.02911,0.38208,0.919,0.15026,0.26219,0.90815,0.06941,0.49562,1.48173,0.23854,0.19871,1.42903,0.1323,0.76444,1.38429,0.332,0.22752,1.16767,0.29296,0.55529,1.41337,0.36909,0.35711,1.38958
2626,0.17321,0.35045,1.50951,-0.07363,0.5678,0.1434,0.24932,0.12257,0.08122,0.03472,0.60157,0.54439,0.22677,0.22284,0.48346,0.0311,0.38047,0.9192,0.15296,0.26128,0.90856,0.06792,0.49259,1.48142,0.2406,0.19818,1.42947,0.11928,0.7619,1.37875,0.33504,0.22806,1.16859,0.28554,0.55758,1.41055,0.36821,0.35907,1.39027
2627,0.17325,0.34924,1.51025,-0.07286,0.56677,0.14304,0.25013,0.12208,0.08147,0.03567,0.59923,0.54409,0.22825,0.2227,0.48366,0.03316,0.37888,0.91934,0.15569,0.26035,0.90905,0.06638,0.48981,1.48059,0.24256,0.19778,1.42965,0.10588,0.75903,1.37258,0.33791,0.22849,1.1692,0.27647,0.55894,1.40815,0.36723,0.36121,1.39041
2628,0.17378,0.34797,1.51063,-0.07226,0.56568,0.1427,0.25082,0.1219,0.08169,0.03664,0.59671,0.54376,0.22971,0.22229,0.48398,0.03525,0.37732,0.91959,0.15843,0.25943,0.90962,0.0648,0.48677,1.47931,0.24478,0.19741,1.42986,0.0922,0.75534,1.36605,0.34059,0.22866,1.16963,0.268,0.56062,1.40575,0.36675,0.36294,1.3903
2629,0.17466,0.34653,1.51083,-0.07164,0.5647,0.14248,0.25123,0.12204,0.08181,0.03776,0.59419,0.54352,0.231,0.22177,0.4843,0.03733,0.37577,0.91991,0.16113,0.25852,0.91022,0.06296,0.48311,1.47786,0.24744,0.19706,1.43024,0.07841,0.75036,1.35934,0.34307,0.2284,1.16997,0.26224,0.56411,1.40315,0.36687,0.36383,1.3902
2630,0.17568,0.34471,1.51118,-0.07088,0.56385,0.14245,0.25143,0.12224,0.08183,0.03913,0.59186,0.54342,0.23222,0.22127,0.48455,0.03934,0.37417,0.92024,0.16382,0.25762,0.91074,0.06101,0.47911,1.47663,0.25027,0.19665,1.43078,0.06518,0.74408,1.35219,0.34516,0.22774,1.1702,0.25912,0.56959,1.4006,0.36737,0.36383,1.3902
2631,0.17683,0.34242,1.51186,-0.07002,0.56301,0.14247,0.25163,0.12224,0.08185,0.04052,0.58965,0.54339,0.23351,0.22065,0.48477,0.04131,0.37251,0.92052,0.16653,0.25675,0.91121,0.05935,0.47549,1.47563,0.25292,0.19604,1.43133,0.0531,0.73709,1.34434,0.34689,0.22691,1.1704,0.25679,0.57577,1.39807,0.36811,0.36326,1.39032
2632,0.17804,0.33992,1.51268,-0.06905,0.56196,0.14224,0.25195,0.12192,0.08192,0.04151,0.58739,0.54323,0.23486,0.21982,0.48501,0.04338,0.37087,0.92072,0.16933,0.25589,0.91167,0.05795,0.47262,1.47433,0.25529,0.19518,1.43163,0.04209,0.73015,1.336,0.34869,0.22638,1.17052,0.25359,0.58122,1.39506,0.36913,0.36283,1.39046
2633,0.17898,0.33783,1.51333,-0.0679,0.5606,0.14163,0.25231,0.12141,0.08201,0.04205,0.585,0.54286,0.23617,0.21896,0.48522,0.04564,0.36932,0.92081,0.17218,0.25495,0.91212,0.05638,0.4703,1.47261,0.25741,0.1942,1.43137,0.03154,0.72324,1.32731,0.35107,0.22666,1.17052,0.2492,0.58574,1.39148,0.37028,0.36334,1.39042
2634,0.17943,0.33649,1.51367,-0.06651,0.55898,0.14089,0.25262,0.12091,0.08203,0.04258,0.58263,0.5424,0.23746,0.21838,0.4853,0.04799,0.36775,0.92079,0.17496,0.25383,0.91247,0.0545,0.46807,1.47106,0.25932,0.19324,1.43069,0.02121,0.71538,1.31796,0.35407,0.22784,1.1705,0.24428,0.59008,1.38827,0.37128,0.36514,1.39019
2635,0.17961,0.3356,1.51387,-0.06499,0.55726,0.14039,0.25291,0.12056,0.08197,0.04354,0.58047,0.54208,0.23893,0.21804,0.48528,0.05024,0.36595,0.92065,0.17776,0.25262,0.91271,0.0527,0.46545,1.47021,0.26121,0.19239,1.43018,0.01171,0.70565,1.30794,0.35717,0.22948,1.17078,0.23939,0.59446,1.38668,0.37202,0.36781,1.38999
2636,0.18002,0.33458,1.51413,-0.06352,0.55567,0.14025,0.25327,0.12029,0.08187,0.04485,0.57864,0.54199,0.24067,0.21766,0.48525,0.05231,0.3639,0.92043,0.18072,0.25155,0.91291,0.05127,0.46206,1.46987,0.26349,0.19176,1.43034,0.00391,0.69433,1.29805,0.35992,0.23081,1.1714,0.23451,0.59802,1.38722,0.37265,0.37048,1.38989
2637,0.18097,0.33318,1.51447,-0.06223,0.55436,0.1403,0.2537,0.11996,0.08177,0.04617,0.577,0.54206,0.24256,0.2171,0.48525,0.05422,0.36177,0.9202,0.18381,0.25075,0.91309,0.04997,0.45778,1.46935,0.26632,0.1916,1.43107,-0.0021,0.68258,1.28917,0.36231,0.23122,1.17205,0.22937,0.60014,1.38931,0.37339,0.37243,1.38964
2638,0.18234,0.33157,1.51487,-0.0612,0.55333,0.14028,0.25407,0.11963,0.08164,0.04731,0.57518,0.54205,0.24442,0.21647,0.48523,0.05607,0.35975,0.92006,0.18682,0.25009,0.91324,0.04847,0.45296,1.46818,0.26936,0.19209,1.43192,-0.00719,0.67133,1.2813,0.3646,0.2307,1.17248,0.22375,0.60139,1.39164,0.37449,0.37352,1.38908
2639,0.1837,0.33009,1.51525,-0.06041,0.55247,0.13996,0.2542,0.11951,0.08149,0.04829,0.57288,0.54175,0.24612,0.21588,0.48523,0.05797,0.35787,0.91998,0.18971,0.24939,0.9134,0.04674,0.44816,1.46635,0.27214,0.19301,1.43264,-0.0123,0.66057,1.27373,0.36699,0.22995,1.17282,0.21754,0.60278,1.39303,0.37603,0.37424,1.38847
2640,0.18474,0.32886,1.51557,-0.0596,0.55159,0.13927,0.25412,0.11959,0.08144,0.04912,0.57016,0.54114,0.24763,0.21535,0.48535,0.05997,0.35603,0.91984,0.19257,0.24857,0.91372,0.04505,0.44361,1.46416,0.27462,0.19385,1.43321,-0.01768,0.64971,1.26592,0.36947,0.22981,1.17324,0.21071,0.60477,1.39327,0.37773,0.37499,1.38833
2641,0.18543,0.3277,1.51592,-0.0584,0.5505,0.13836,0.25408,0.11969,0.0816,0.04974,0.56743,0.54047,0.24898,0.21484,0.48567,0.06202,0.35401,0.91953,0.19552,0.24763,0.91428,0.04367,0.43924,1.46197,0.27706,0.19434,1.43354,-0.02302,0.63817,1.2578,0.37201,0.23057,1.17364,0.2031,0.60723,1.39311,0.37923,0.37559,1.38888
2642,0.18598,0.32643,1.51634,-0.05664,0.54912,0.13751,0.25433,0.11968,0.08191,0.05023,0.56503,0.53999,0.25025,0.21441,0.4861,0.06401,0.35171,0.91905,0.19852,0.24655,0.91497,0.04266,0.435,1.45998,0.27952,0.19453,1.43348,-0.02789,0.62582,1.24946,0.3747,0.23186,1.17383,0.19455,0.60976,1.3932,0.38058,0.37572,1.38988
2643,0.18654,0.32511,1.51672,-0.05463,0.54761,0.13692,0.25477,0.11962,0.08215,0.05086,0.56305,0.53978,0.25153,0.21412,0.4864,0.0659,0.34923,0.91851,0.2014,0.24531,0.91552,0.04178,0.43098,1.45815,0.28192,0.19448,1.43308,-0.03182,0.61306,1.24104,0.3777,0.2332,1.17385,0.1854,0.61175,1.3934,0.38216,0.3756,1.39091
2644,0.1872,0.32401,1.51686,-0.05277,0.5463,0.13664,0.25506,0.11952,0.08213,0.05185,0.56137,0.53974,0.25294,0.21395,0.4864,0.06772,0.34674,0.91798,0.20409,0.24395,0.91576,0.04073,0.4272,1.45635,0.28434,0.19408,1.43264,-0.03451,0.60072,1.23288,0.38094,0.23448,1.17397,0.17656,0.61268,1.39322,0.38418,0.37582,1.39174
2645,0.18806,0.32325,1.51676,-0.05111,0.54533,0.13663,0.255,0.11929,0.0819,0.0531,0.55988,0.53987,0.25456,0.21382,0.48615,0.06952,0.34433,0.91756,0.20669,0.2426,0.9157,0.03951,0.42339,1.45443,0.28706,0.19348,1.43248,-0.03605,0.5893,1.22536,0.38412,0.23591,1.17431,0.16862,0.6122,1.39265,0.38634,0.37687,1.39234
2646,0.18917,0.32256,1.51659,-0.04933,0.5446,0.13685,0.25477,0.11888,0.08167,0.05442,0.55846,0.54022,0.25629,0.21368,0.48585,0.07124,0.34205,0.9174,0.20925,0.24146,0.91556,0.03841,0.41943,1.45243,0.29021,0.1931,1.43273,-0.03677,0.5786,1.21849,0.38699,0.23766,1.17481,0.1614,0.61014,1.39209,0.38824,0.37878,1.39274
2647,0.19032,0.32159,1.51651,-0.0472,0.54395,0.13719,0.25473,0.11852,0.08155,0.05572,0.55702,0.5408,0.25794,0.21346,0.48569,0.07285,0.33989,0.91756,0.21173,0.24051,0.91554,0.03758,0.41557,1.45048,0.29362,0.19327,1.43331,-0.0369,0.56834,1.21211,0.38955,0.2396,1.17538,0.15445,0.60688,1.39184,0.38973,0.38126,1.39296
2648,0.19107,0.32033,1.51654,-0.04483,0.5434,0.13763,0.25505,0.11844,0.08152,0.05705,0.55559,0.54153,0.25942,0.21309,0.48572,0.07443,0.33763,0.91779,0.21425,0.23957,0.91571,0.03681,0.41201,1.44875,0.29696,0.19402,1.43404,-0.03654,0.55853,1.20614,0.39198,0.24151,1.17599,0.14756,0.60324,1.3919,0.39091,0.38377,1.39319
2649,0.1913,0.31907,1.51664,-0.04239,0.54296,0.13818,0.25547,0.11863,0.08152,0.05844,0.55433,0.54237,0.26085,0.21258,0.48587,0.07614,0.33493,0.91778,0.21704,0.23844,0.91605,0.03576,0.40842,1.44726,0.30006,0.19523,1.43481,-0.03582,0.54895,1.20061,0.39436,0.24336,1.17661,0.14067,0.59983,1.39209,0.39195,0.38579,1.39369
2650,0.19137,0.31797,1.51676,-0.03982,0.54255,0.13888,0.25571,0.11891,0.08152,0.05991,0.55337,0.54336,0.26233,0.21203,0.48604,0.07803,0.33174,0.91743,0.22021,0.23713,0.91643,0.03439,0.40406,1.44588,0.30295,0.19688,1.43547,-0.03488,0.53913,1.19555,0.39681,0.24526,1.17717,0.13363,0.59671,1.39225,0.3929,0.38722,1.39452
2651,0.19164,0.31691,1.51688,-0.03696,0.54203,0.13967,0.25573,0.11912,0.08148,0.06142,0.55271,0.54448,0.26383,0.21153,0.48614,0.07998,0.32832,0.91689,0.22358,0.23588,0.91675,0.03292,0.39846,1.4443,0.30573,0.19902,1.43586,-0.03381,0.52907,1.19093,0.39971,0.24736,1.17759,0.12645,0.59348,1.39234,0.39362,0.38852,1.39542
2652,0.19209,0.31573,1.517,-0.03378,0.54137,0.14045,0.25568,0.11924,0.08141,0.06285,0.5522,0.54568,0.26524,0.21113,0.48616,0.0818,0.32506,0.9164,0.22688,0.23496,0.91697,0.03164,0.39188,1.44225,0.30857,0.20144,1.43591,-0.03261,0.51942,1.18669,0.40326,0.24982,1.17791,0.1193,0.58967,1.39257,0.39396,0.39015,1.39616
2653,0.19254,0.31436,1.51717,-0.03042,0.54062,0.14118,0.25578,0.11936,0.08136,0.06404,0.55161,0.54691,0.26649,0.21088,0.48617,0.08339,0.32209,0.91614,0.22991,0.23435,0.91715,0.03082,0.38509,1.43982,0.31159,0.20377,1.43579,-0.03123,0.51089,1.18285,0.40713,0.25266,1.1782,0.11239,0.58539,1.39315,0.39414,0.39196,1.39691
2654,0.19305,0.31299,1.51734,-0.02699,0.53979,0.14183,0.25617,0.11952,0.0814,0.06497,0.55074,0.54814,0.2676,0.2108,0.48623,0.08481,0.31929,0.91614,0.23262,0.23375,0.91738,0.03055,0.37863,1.4374,0.31476,0.20572,1.43574,-0.02959,0.50359,1.17957,0.41071,0.25574,1.17851,0.10587,0.58139,1.39404,0.3946,0.39344,1.39803
2655,0.1938,0.31191,1.51732,-0.02339,0.53885,0.14239,0.25681,0.11962,0.08149,0.06594,0.54958,0.5493,0.26859,0.21085,0.48633,0.08606,0.31655,0.91628,0.23499,0.23295,0.91762,0.03071,0.37265,1.43547,0.31782,0.20703,1.43588,-0.02766,0.49696,1.17692,0.41374,0.25887,1.179,0.09973,0.57814,1.39505,0.39529,0.39458,1.39957
2656,0.19476,0.31125,1.51705,-0.01951,0.53786,0.14284,0.25747,0.11965,0.08156,0.06724,0.54829,0.55031,0.26945,0.21091,0.48639,0.08719,0.31387,0.91641,0.23709,0.23205,0.91783,0.03099,0.36724,1.43433,0.32054,0.20762,1.43623,-0.02553,0.49024,1.17474,0.41652,0.26205,1.17992,0.09383,0.57513,1.39598,0.39559,0.396,1.40134
2657,0.19567,0.31076,1.51676,-0.01551,0.53689,0.14312,0.25785,0.11968,0.08156,0.06877,0.54711,0.55111,0.27027,0.21084,0.4864,0.08829,0.31139,0.91641,0.23909,0.23122,0.91796,0.0311,0.36243,1.43382,0.32289,0.20788,1.43676,-0.02336,0.48306,1.17268,0.41942,0.26551,1.18136,0.08808,0.57141,1.39668,0.39495,0.39818,1.40319
2658,0.19632,0.31007,1.51664,-0.0117,0.5359,0.14319,0.25784,0.11969,0.08148,0.07007,0.54612,0.55169,0.27126,0.21061,0.48633,0.08956,0.30924,0.91624,0.24114,0.23057,0.91799,0.03101,0.35809,1.43354,0.32506,0.20836,1.4373,-0.02123,0.47575,1.1706,0.42255,0.26941,1.18305,0.08258,0.56675,1.39719,0.39352,0.40091,1.40503
2659,0.19654,0.30911,1.51669,-0.00829,0.5348,0.143,0.25755,0.11969,0.08131,0.07083,0.54513,0.55202,0.27254,0.21032,0.48617,0.09104,0.30747,0.91601,0.24327,0.23007,0.9179,0.03089,0.35428,1.43334,0.32726,0.20921,1.43765,-0.01918,0.46913,1.16874,0.42559,0.27345,1.18451,0.07766,0.56202,1.39764,0.3919,0.40354,1.40667
2660,0.19629,0.30815,1.51683,-0.00533,0.53361,0.14256,0.25726,0.11971,0.0811,0.07109,0.54386,0.55209,0.27398,0.21016,0.48594,0.09261,0.30593,0.91584,0.24545,0.22974,0.91772,0.03086,0.35131,1.43334,0.32961,0.21022,1.43787,-0.01741,0.46364,1.16733,0.42811,0.27708,1.18548,0.07346,0.55812,1.39802,0.39048,0.40567,1.40787
2661,0.1958,0.30741,1.51705,-0.00267,0.53243,0.14195,0.25722,0.1198,0.08094,0.07117,0.54215,0.55197,0.27543,0.21032,0.4857,0.09406,0.30441,0.91576,0.24757,0.22957,0.91754,0.03088,0.34913,1.43352,0.33196,0.2113,1.4382,-0.01609,0.45897,1.16624,0.42997,0.27997,1.18611,0.06949,0.55476,1.3984,0.38918,0.40733,1.40865
2662,0.19542,0.307,1.51725,-0.00023,0.5312,0.14128,0.25751,0.12001,0.08084,0.07131,0.54006,0.55173,0.27674,0.21088,0.48547,0.09522,0.30277,0.91574,0.24952,0.22958,0.91738,0.03097,0.34719,1.43361,0.33404,0.21252,1.43874,-0.01506,0.45462,1.16519,0.43136,0.2822,1.18665,0.06503,0.55086,1.39912,0.38771,0.40872,1.40913
2663,0.19531,0.30689,1.51729,0.00204,0.52967,0.14063,0.2579,0.12025,0.08071,0.07157,0.53788,0.55144,0.27783,0.2117,0.48518,0.09611,0.30101,0.91569,0.2513,0.22973,0.91716,0.03124,0.34494,1.4335,0.33574,0.21383,1.43927,-0.01398,0.45048,1.16419,0.43259,0.284,1.18714,0.06003,0.54592,1.40044,0.38601,0.40994,1.40936
2664,0.19537,0.30691,1.51709,0.00421,0.52775,0.14009,0.25817,0.12035,0.08047,0.07184,0.53588,0.55122,0.27868,0.21238,0.48478,0.09701,0.29912,0.91549,0.25311,0.22985,0.91684,0.03168,0.34218,1.4333,0.33722,0.21503,1.43957,-0.01276,0.44677,1.1635,0.43381,0.28561,1.18746,0.05523,0.5405,1.40223,0.38442,0.41102,1.40936
2665,0.19547,0.30682,1.51675,0.00629,0.52571,0.13968,0.25833,0.12017,0.08013,0.07202,0.53407,0.55111,0.27942,0.21261,0.48432,0.09818,0.29717,0.91522,0.2551,0.22978,0.91647,0.03203,0.33913,1.43325,0.3387,0.21606,1.43959,-0.01167,0.44367,1.1633,0.43516,0.28742,1.18765,0.05134,0.53566,1.40407,0.38334,0.41207,1.40943
2666,0.19551,0.30651,1.51649,0.00809,0.52393,0.1393,0.25854,0.11975,0.07988,0.07208,0.53228,0.55101,0.28013,0.21251,0.48397,0.09958,0.29536,0.915,0.25717,0.22955,0.91619,0.03206,0.33615,1.43346,0.34029,0.21701,1.43949,-0.01097,0.44113,1.16357,0.43663,0.28984,1.18792,0.04831,0.532,1.40571,0.38274,0.4132,1.40993
2667,0.1953,0.30614,1.51645,0.00933,0.52244,0.13876,0.25894,0.11933,0.07985,0.07206,0.53037,0.55067,0.2808,0.21253,0.48382,0.10094,0.29387,0.91484,0.25908,0.2294,0.91612,0.03184,0.33357,1.43386,0.34186,0.21806,1.43942,-0.01078,0.43871,1.16398,0.43795,0.29287,1.18834,0.04549,0.5292,1.40697,0.38231,0.41436,1.41094
2668,0.19475,0.30597,1.51656,0.00992,0.52081,0.13798,0.25948,0.11909,0.08006,0.07202,0.5283,0.54999,0.28136,0.21297,0.48388,0.10206,0.29272,0.91466,0.26071,0.22952,0.91624,0.03158,0.33151,1.43423,0.34313,0.21932,1.4394,-0.01114,0.43596,1.16409,0.4388,0.29609,1.18875,0.04237,0.52654,1.40768,0.38192,0.4155,1.41216
2669,0.19405,0.30615,1.51665,0.01007,0.51866,0.13695,0.26001,0.11905,0.08038,0.07189,0.526,0.549,0.28182,0.21364,0.48403,0.10291,0.29191,0.91455,0.26207,0.23002,0.91644,0.03146,0.32998,1.43435,0.34394,0.22081,1.43931,-0.012,0.43295,1.16376,0.43919,0.299,1.18894,0.03912,0.52371,1.40779,0.38163,0.41671,1.41308
2670,0.19357,0.30659,1.51664,0.00999,0.51602,0.13568,0.26035,0.1191,0.08066,0.07149,0.52327,0.54779,0.2823,0.21411,0.48421,0.10357,0.29142,0.91467,0.26324,0.23083,0.91663,0.0316,0.32888,1.43422,0.34443,0.22247,1.43909,-0.01324,0.43025,1.16326,0.43942,0.30141,1.18886,0.03631,0.52122,1.40753,0.38132,0.41822,1.41333
2671,0.19339,0.30707,1.51651,0.00972,0.51317,0.13417,0.26051,0.11912,0.08082,0.07074,0.52005,0.54636,0.28287,0.21415,0.48434,0.10421,0.29121,0.915,0.2643,0.23175,0.91675,0.03216,0.32807,1.43411,0.34497,0.22414,1.43882,-0.01475,0.42805,1.16298,0.43974,0.30355,1.18865,0.03426,0.51968,1.40712,0.38069,0.42017,1.41298
2672,0.19318,0.30735,1.51633,0.00929,0.51034,0.13242,0.2606,0.11897,0.08088,0.06981,0.51666,0.54469,0.28351,0.2139,0.48439,0.10506,0.29123,0.91525,0.26541,0.23249,0.91678,0.0331,0.32739,1.43431,0.34569,0.22558,1.43859,-0.01642,0.42588,1.1631,0.44014,0.30584,1.18857,0.03284,0.51904,1.40661,0.37951,0.42269,1.41236
2673,0.19266,0.30739,1.5162,0.00887,0.50761,0.13051,0.26068,0.11867,0.08091,0.06896,0.51366,0.54285,0.28406,0.21367,0.48438,0.10622,0.29147,0.91517,0.26665,0.23293,0.91677,0.03403,0.32662,1.43487,0.34645,0.22665,1.43847,-0.01819,0.42332,1.16352,0.44047,0.30845,1.18879,0.03172,0.5188,1.406,0.37772,0.42581,1.41172
2674,0.192,0.30746,1.51617,0.0087,0.50482,0.12855,0.26074,0.11841,0.08093,0.06823,0.51124,0.54096,0.2844,0.2136,0.48434,0.1075,0.29186,0.91474,0.26791,0.23327,0.91675,0.03441,0.32538,1.43537,0.34702,0.22757,1.43844,-0.02003,0.42071,1.16397,0.44062,0.31101,1.18914,0.03064,0.51863,1.40531,0.37555,0.4292,1.41097
2675,0.1915,0.30779,1.51615,0.00882,0.50175,0.12667,0.26084,0.11839,0.08097,0.06752,0.50915,0.53918,0.28454,0.2137,0.48435,0.10852,0.2923,0.91425,0.26896,0.23383,0.91677,0.03393,0.32347,1.43526,0.34734,0.22882,1.43847,-0.02192,0.41867,1.16409,0.44067,0.313,1.18932,0.02947,0.51859,1.40446,0.37348,0.43231,1.40991
2676,0.19125,0.30832,1.51603,0.00905,0.49841,0.12502,0.26102,0.1186,0.08107,0.06681,0.50705,0.53764,0.2846,0.21384,0.48446,0.10915,0.29268,0.91399,0.26979,0.23476,0.91687,0.03277,0.32126,1.43449,0.34749,0.23066,1.43856,-0.0239,0.41722,1.16377,0.44072,0.31434,1.1892,0.02808,0.51882,1.4033,0.37188,0.43487,1.40862
2677,0.19116,0.30888,1.51586,0.00912,0.49498,0.12364,0.2613,0.11891,0.08122,0.06621,0.50487,0.53633,0.28464,0.2139,0.48469,0.10958,0.29302,0.91398,0.27052,0.23596,0.91707,0.03157,0.3197,1.43369,0.34761,0.23277,1.43865,-0.02615,0.41569,1.1632,0.44067,0.31551,1.18891,0.02637,0.5192,1.40179,0.37071,0.43708,1.4074
2678,0.19119,0.30949,1.51571,0.00886,0.49158,0.12239,0.26164,0.11921,0.0814,0.06568,0.5027,0.53508,0.2847,0.21385,0.48497,0.11004,0.29341,0.91404,0.27129,0.23724,0.9173,0.03098,0.31951,1.43345,0.34767,0.23459,1.43861,-0.02883,0.41359,1.16274,0.44025,0.3169,1.18855,0.02446,0.51965,1.40005,0.3696,0.43917,1.40643
2679,0.19124,0.3102,1.51562,0.0083,0.48817,0.12107,0.262,0.11945,0.08158,0.06505,0.5006,0.53374,0.2848,0.21375,0.48525,0.11053,0.2939,0.91398,0.27202,0.23843,0.91752,0.03115,0.32039,1.43371,0.34748,0.236,1.43844,-0.032,0.41105,1.1626,0.43937,0.31845,1.18818,0.0227,0.52043,1.39806,0.36819,0.44122,1.4056
2680,0.19111,0.31099,1.51557,0.0076,0.48466,0.11962,0.26224,0.11957,0.08177,0.06419,0.49852,0.53226,0.28492,0.21375,0.48547,0.11091,0.2944,0.91375,0.27257,0.23948,0.9177,0.03163,0.32137,1.43395,0.347,0.23736,1.43829,-0.03545,0.40832,1.16256,0.43822,0.32001,1.18785,0.0215,0.52178,1.39555,0.36627,0.44323,1.40476
2681,0.19066,0.31177,1.51557,0.0068,0.48115,0.11803,0.26232,0.11951,0.082,0.06315,0.49629,0.53066,0.28511,0.21401,0.48562,0.11106,0.29492,0.91346,0.27289,0.2405,0.91781,0.03174,0.32161,1.43379,0.34656,0.23903,1.4383,-0.03877,0.40535,1.16226,0.43704,0.32163,1.18758,0.02082,0.52344,1.39227,0.36397,0.44535,1.40383
2682,0.18996,0.31255,1.51563,0.00582,0.47782,0.11641,0.26227,0.11936,0.08229,0.06205,0.49382,0.52902,0.28538,0.21451,0.48573,0.11103,0.29555,0.9133,0.27306,0.24176,0.91787,0.03119,0.32089,1.43327,0.34643,0.24106,1.43848,-0.04166,0.40199,1.16157,0.43588,0.3234,1.1873,0.02023,0.52492,1.38841,0.36159,0.44767,1.40282
2683,0.18915,0.31336,1.51569,0.00461,0.47477,0.11487,0.26213,0.11928,0.08258,0.06109,0.4913,0.52743,0.28567,0.21507,0.48585,0.11089,0.29635,0.91329,0.2732,0.2434,0.91791,0.03013,0.31952,1.43263,0.34655,0.24337,1.43875,-0.04407,0.39853,1.16068,0.43466,0.32528,1.18696,0.01932,0.52623,1.38445,0.35927,0.45,1.40183
2684,0.18815,0.3142,1.51571,0.00332,0.47198,0.11344,0.26193,0.11932,0.0828,0.0605,0.48898,0.52588,0.28587,0.21556,0.48594,0.11059,0.2973,0.91335,0.27322,0.24533,0.9179,0.0288,0.31802,1.43202,0.3466,0.24593,1.43899,-0.0461,0.39553,1.15982,0.43335,0.32719,1.18652,0.01813,0.52769,1.38075,0.35699,0.45205,1.40097
2685,0.18694,0.31509,1.51564,0.0021,0.46952,0.11194,0.26171,0.11934,0.08288,0.06038,0.48689,0.52422,0.28593,0.21605,0.48589,0.11007,0.29836,0.91327,0.27303,0.24742,0.91773,0.02733,0.31694,1.43143,0.34634,0.24884,1.43909,-0.04795,0.39327,1.15901,0.43193,0.3292,1.18593,0.01697,0.52938,1.37732,0.35476,0.45366,1.40032
2686,0.18582,0.31609,1.51554,0.00099,0.46749,0.11016,0.26153,0.11925,0.0828,0.0606,0.48487,0.52224,0.28591,0.21667,0.48563,0.10936,0.29945,0.91292,0.27267,0.24965,0.91733,0.02581,0.31665,1.43082,0.34579,0.25207,1.43904,-0.04971,0.39168,1.15811,0.4303,0.33138,1.18519,0.01605,0.53114,1.37404,0.35276,0.45503,1.39992
2687,0.18502,0.31729,1.51553,-1e-05,0.46593,0.10803,0.26145,0.11919,0.0826,0.06081,0.48268,0.51997,0.28579,0.21742,0.48524,0.10858,0.30062,0.91234,0.27223,0.25196,0.91681,0.02438,0.31715,1.43023,0.34505,0.25524,1.43894,-0.05145,0.39057,1.15716,0.42836,0.33381,1.18446,0.01515,0.53285,1.37098,0.35107,0.45651,1.39983
2688,0.18428,0.31881,1.51559,-0.00094,0.46485,0.10571,0.26151,0.11933,0.08244,0.06076,0.48028,0.51756,0.2855,0.2183,0.48491,0.10781,0.30196,0.91173,0.27172,0.2542,0.91637,0.02306,0.3182,1.4297,0.34411,0.25799,1.43891,-0.05325,0.38984,1.15629,0.42615,0.33663,1.18404,0.01394,0.53437,1.36842,0.34944,0.4584,1.40014
2689,0.18301,0.32058,1.51567,-0.00176,0.46425,0.1034,0.26179,0.11962,0.08245,0.06044,0.47785,0.51524,0.28502,0.21934,0.48479,0.10704,0.30349,0.91123,0.2711,0.25627,0.91616,0.0217,0.31951,1.42926,0.3429,0.26041,1.43898,-0.05518,0.38939,1.15555,0.42396,0.33995,1.18408,0.01235,0.53552,1.36647,0.34752,0.46074,1.40082
2690,0.18101,0.32241,1.51573,-0.00238,0.46411,0.10129,0.26222,0.11987,0.0827,0.05999,0.47555,0.51317,0.28452,0.22055,0.48485,0.10618,0.30511,0.91091,0.27031,0.25816,0.91614,0.02004,0.32083,1.42887,0.34145,0.26293,1.43909,-0.05715,0.38905,1.15483,0.42207,0.3436,1.1844,0.01041,0.53626,1.36499,0.34524,0.46322,1.40166
2691,0.17856,0.32407,1.51582,-0.00274,0.46419,0.09946,0.26254,0.11998,0.08302,0.0595,0.47339,0.51142,0.28412,0.22186,0.4849,0.10513,0.30661,0.91077,0.26933,0.25996,0.91614,0.01792,0.32186,1.42851,0.33993,0.26583,1.43917,-0.0589,0.38867,1.15401,0.42041,0.34721,1.18467,0.00795,0.53667,1.36384,0.34281,0.46544,1.4024
2692,0.17603,0.32547,1.51599,-0.00291,0.46411,0.09788,0.26258,0.11993,0.08319,0.05909,0.47136,0.50991,0.28369,0.22319,0.48475,0.10385,0.30791,0.91074,0.26821,0.26181,0.91592,0.01539,0.32255,1.42807,0.33846,0.26889,1.43915,-0.06031,0.38828,1.15302,0.41877,0.35054,1.18468,0.00473,0.53676,1.36307,0.34041,0.46728,1.40295
2693,0.17376,0.32676,1.51628,-0.00297,0.46357,0.09643,0.26242,0.11975,0.08317,0.05878,0.46957,0.50852,0.283,0.2246,0.48434,0.10248,0.30915,0.91069,0.26705,0.26373,0.91544,0.01281,0.32314,1.42745,0.33703,0.27182,1.43904,-0.06158,0.3882,1.15187,0.41706,0.35363,1.18454,0.00096,0.5364,1.36289,0.33804,0.4689,1.40335
2694,0.17193,0.3282,1.51668,-0.00289,0.46261,0.09503,0.26218,0.11958,0.0831,0.05849,0.46812,0.50718,0.28207,0.22613,0.48386,0.1012,0.31048,0.91055,0.26593,0.26563,0.91492,0.01056,0.32385,1.42659,0.33542,0.27467,1.439,-0.06289,0.38888,1.15076,0.41542,0.3566,1.18453,-0.00277,0.53569,1.36344,0.33559,0.47049,1.40377
2695,0.17043,0.32992,1.51702,-0.00253,0.46158,0.09368,0.26193,0.11967,0.08312,0.05816,0.46689,0.50593,0.28108,0.22774,0.48351,0.09999,0.3119,0.91042,0.26485,0.2675,0.91455,0.0088,0.32456,1.42559,0.3335,0.27763,1.43922,-0.06425,0.39053,1.14987,0.41394,0.35936,1.18481,-0.00597,0.53481,1.36478,0.33295,0.47208,1.40423
2696,0.16887,0.33187,1.5171,-0.00177,0.46076,0.09238,0.26169,0.12009,0.08319,0.05777,0.46561,0.50481,0.28017,0.22944,0.48327,0.09872,0.31322,0.91037,0.26375,0.26943,0.91427,0.00738,0.32511,1.4246,0.3314,0.28073,1.43974,-0.06554,0.39288,1.14929,0.41259,0.36186,1.18539,-0.00872,0.53393,1.36673,0.33013,0.47384,1.40464
2697,0.16682,0.33397,1.51691,-0.00063,0.46018,0.09109,0.26151,0.12066,0.08322,0.0573,0.46423,0.50375,0.2792,0.23133,0.48296,0.09733,0.31436,0.91035,0.2626,0.27144,0.91395,0.00592,0.32576,1.42379,0.32937,0.28388,1.44035,-0.06668,0.39553,1.14889,0.41128,0.36468,1.18612,-0.01161,0.53319,1.36893,0.32727,0.47615,1.40504
2698,0.16417,0.33625,1.5166,0.00075,0.45969,0.08974,0.26133,0.12118,0.08318,0.05665,0.46291,0.50269,0.27802,0.23347,0.48252,0.0958,0.31532,0.9102,0.26136,0.27352,0.91351,0.00403,0.3269,1.42313,0.32752,0.2872,1.44068,-0.0677,0.39835,1.14844,0.40996,0.36874,1.18685,-0.01501,0.53269,1.37109,0.32453,0.4794,1.40564
2699,0.16111,0.33872,1.51629,0.00219,0.45917,0.08828,0.26108,0.12161,0.08315,0.05571,0.4618,0.50156,0.27668,0.23575,0.482,0.09413,0.31624,0.90987,0.25996,0.27553,0.91302,0.00155,0.32865,1.42256,0.32578,0.29072,1.44062,-0.06877,0.40149,1.14786,0.40865,0.3742,1.18756,-0.01876,0.53233,1.3732,0.32197,0.48365,1.40647
2700,0.15795,0.34126,1.51596,0.00355,0.45854,0.08678,0.26079,0.122,0.08322,0.05457,0.46081,0.50037,0.27545,0.23806,0.48156,0.09236,0.3173,0.90946,0.25835,0.27724,0.91261,-0.00133,0.33071,1.42206,0.32399,0.294,1.44041,-0.07007,0.40497,1.14734,0.40726,0.38006,1.18836,-0.02244,0.53188,1.37543,0.3195,0.48846,1.40735
2701,0.15493,0.34366,1.51556,0.00469,0.4578,0.08534,0.26063,0.12241,0.08345,0.05356,0.45966,0.4992,0.27449,0.2404,0.48125,0.09056,0.31864,0.90923,0.25655,0.27857,0.91236,-0.00414,0.33269,1.42163,0.32203,0.2965,1.44034,-0.07159,0.40846,1.14701,0.40571,0.38516,1.18933,-0.02569,0.53122,1.37771,0.31687,0.49337,1.40798
2702,0.15211,0.34583,1.51508,0.00562,0.45704,0.08402,0.26068,0.12283,0.08381,0.05295,0.45819,0.49806,0.2738,0.24286,0.48102,0.08874,0.32019,0.90922,0.25465,0.27979,0.91219,-0.0066,0.33435,1.42121,0.31982,0.29841,1.44043,-0.07312,0.41156,1.14676,0.40398,0.38927,1.19037,-0.02858,0.53044,1.37975,0.31388,0.4982,1.40815
2703,0.14932,0.34786,1.51461,0.00644,0.45645,0.08277,0.26084,0.12316,0.08423,0.05269,0.45654,0.49693,0.2732,0.24556,0.48074,0.08691,0.32184,0.90932,0.25278,0.28126,0.91195,-0.00883,0.33578,1.42076,0.31731,0.3005,1.44053,-0.07456,0.41443,1.14652,0.40211,0.3929,1.19124,-0.03152,0.52995,1.38148,0.31067,0.50294,1.4079
2704,0.14638,0.34992,1.51428,0.00713,0.4562,0.08161,0.26102,0.1233,0.08469,0.05252,0.45511,0.49586,0.27255,0.24868,0.48029,0.08507,0.32345,0.90937,0.25099,0.28301,0.91156,-0.0111,0.33723,1.42044,0.31448,0.30331,1.44046,-0.07607,0.41758,1.14652,0.40002,0.39641,1.19169,-0.03454,0.53032,1.38309,0.30775,0.50744,1.40749
2705,0.14327,0.35195,1.51426,0.00753,0.45629,0.08071,0.26133,0.1233,0.08528,0.05223,0.4542,0.49503,0.2718,0.25225,0.47977,0.08319,0.32484,0.90939,0.24919,0.28475,0.91113,-0.01354,0.33887,1.42043,0.31149,0.30672,1.44028,-0.07789,0.42104,1.14691,0.39763,0.39977,1.1917,-0.03732,0.53179,1.38458,0.30544,0.51145,1.4072
2706,0.14012,0.35377,1.51464,0.00767,0.45656,0.08023,0.26191,0.1234,0.08618,0.05175,0.45374,0.49461,0.27097,0.25612,0.47945,0.0811,0.32592,0.90956,0.24722,0.28633,0.91091,-0.01614,0.34072,1.4207,0.30866,0.31025,1.44018,-0.07999,0.4243,1.14748,0.39495,0.40291,1.1915,-0.03982,0.5338,1.38581,0.30333,0.51493,1.40707
2707,0.13704,0.35533,1.51536,0.00781,0.45681,0.08015,0.26265,0.12385,0.08743,0.05109,0.45347,0.49462,0.27013,0.26009,0.47953,0.0787,0.32678,0.91003,0.24499,0.28783,0.91107,-0.01893,0.34284,1.42104,0.30625,0.31351,1.44027,-0.0821,0.42705,1.14786,0.39219,0.40597,1.19139,-0.04237,0.53548,1.38675,0.30064,0.51812,1.40692
2708,0.13405,0.35675,1.51616,0.00808,0.45699,0.08034,0.26325,0.12466,0.08885,0.05015,0.45317,0.49493,0.26929,0.26412,0.47984,0.0761,0.32764,0.9108,0.24255,0.28942,0.91144,-0.02191,0.34518,1.42134,0.30426,0.31633,1.44051,-0.08404,0.4296,1.14798,0.38957,0.40897,1.19149,-0.04496,0.53673,1.38756,0.29713,0.52136,1.40651
2709,0.13111,0.35829,1.51676,0.00834,0.45716,0.08065,0.26356,0.12565,0.09023,0.04878,0.45281,0.49539,0.26849,0.2682,0.48012,0.0735,0.32866,0.91175,0.24011,0.29113,0.91175,-0.02486,0.34753,1.42163,0.30239,0.3187,1.44084,-0.08588,0.43238,1.14815,0.38705,0.41166,1.19171,-0.04715,0.53821,1.38837,0.29325,0.52477,1.40576
2710,0.1283,0.36026,1.51696,0.00837,0.45733,0.0809,0.26363,0.12671,0.09152,0.04697,0.45242,0.49581,0.26771,0.27224,0.48031,0.07114,0.32991,0.91269,0.23788,0.29295,0.91196,-0.02758,0.34967,1.42199,0.30036,0.32079,1.44129,-0.08773,0.43536,1.14858,0.38439,0.41387,1.19199,-0.04874,0.54034,1.38912,0.2895,0.52831,1.40486
2711,0.12566,0.36275,1.51686,0.00808,0.45749,0.08095,0.26361,0.1278,0.09277,0.04502,0.45215,0.496,0.26695,0.27611,0.48053,0.06916,0.33137,0.91339,0.23601,0.29492,0.91218,-0.03014,0.35145,1.42233,0.29812,0.32296,1.44197,-0.08968,0.43818,1.14912,0.38153,0.41594,1.19243,-0.05013,0.54296,1.38966,0.28594,0.53194,1.40413
2712,0.12319,0.36546,1.51676,0.00747,0.45762,0.08077,0.26362,0.12893,0.09409,0.04324,0.45206,0.49592,0.26633,0.27977,0.48087,0.06742,0.33279,0.91374,0.23441,0.29697,0.91252,-0.03282,0.35285,1.42256,0.29578,0.32553,1.44286,-0.09163,0.4407,1.14955,0.37863,0.41832,1.19307,-0.05191,0.54591,1.38987,0.2824,0.53561,1.40376
2713,0.12077,0.36797,1.51686,0.00668,0.45767,0.08049,0.26366,0.13007,0.09556,0.04161,0.45191,0.49572,0.26598,0.2834,0.48136,0.06562,0.33385,0.91389,0.2328,0.29892,0.91297,-0.03575,0.35394,1.42263,0.29341,0.32836,1.44382,-0.09345,0.44303,1.14979,0.37576,0.42097,1.1938,-0.05415,0.54928,1.38973,0.27877,0.53917,1.40363
2714,0.11821,0.37016,1.51712,0.00592,0.45757,0.08028,0.26368,0.13121,0.09718,0.0398,0.45137,0.49559,0.26587,0.28725,0.48189,0.06355,0.33454,0.91412,0.23094,0.30064,0.91344,-0.03876,0.35494,1.42258,0.29093,0.33092,1.4447,-0.09523,0.44522,1.14987,0.37294,0.42329,1.19447,-0.05648,0.55306,1.38919,0.27501,0.54238,1.40337
2715,0.11541,0.37214,1.51744,0.00522,0.45734,0.08018,0.26364,0.13228,0.09889,0.03771,0.45035,0.49559,0.26582,0.29141,0.48234,0.06118,0.33518,0.91459,0.22876,0.30225,0.91378,-0.04161,0.35618,1.42243,0.28824,0.33288,1.44538,-0.09721,0.44718,1.14978,0.37021,0.42489,1.195,-0.05871,0.55696,1.38825,0.27124,0.54497,1.40284
2716,0.11246,0.3741,1.51781,0.00443,0.45706,0.08016,0.26361,0.13333,0.1006,0.03563,0.44911,0.49564,0.26576,0.29581,0.48264,0.05869,0.336,0.91524,0.22644,0.30398,0.91394,-0.04413,0.35786,1.4222,0.28539,0.33453,1.44582,-0.09952,0.44882,1.14949,0.36756,0.42599,1.19531,-0.06098,0.56062,1.38702,0.26781,0.54691,1.40228
2717,0.10951,0.3762,1.51826,0.00349,0.45677,0.0801,0.26366,0.13444,0.10232,0.03388,0.448,0.49563,0.26578,0.30038,0.48286,0.05633,0.33703,0.91583,0.22423,0.30584,0.914,-0.04637,0.35993,1.42193,0.28264,0.33625,1.44618,-0.10203,0.45026,1.14907,0.36492,0.42705,1.19546,-0.06344,0.56381,1.38575,0.26493,0.54836,1.40209
2718,0.10661,0.37851,1.51871,0.00259,0.45653,0.07998,0.26385,0.1357,0.10411,0.03242,0.44716,0.49553,0.26582,0.30508,0.48314,0.05423,0.3381,0.91626,0.22226,0.30763,0.9141,-0.04849,0.36223,1.42175,0.28015,0.33795,1.44667,-0.10456,0.45184,1.14873,0.36222,0.42826,1.19571,-0.06604,0.56675,1.38477,0.26247,0.54956,1.40247
2719,0.1037,0.38093,1.51901,0.00198,0.45645,0.07985,0.26417,0.13704,0.10603,0.031,0.44643,0.49545,0.26577,0.30981,0.48353,0.05234,0.339,0.91662,0.22049,0.30919,0.91432,-0.05064,0.36444,1.42176,0.27776,0.3394,1.44743,-0.10705,0.45382,1.14874,0.35941,0.42948,1.19625,-0.06853,0.56992,1.38419,0.26016,0.55074,1.40326
2720,0.10079,0.38327,1.51916,0.00167,0.4565,0.07979,0.26453,0.13835,0.10808,0.02952,0.44554,0.49545,0.26566,0.31444,0.48405,0.05054,0.33963,0.91702,0.21881,0.31052,0.91466,-0.05286,0.36625,1.42192,0.27516,0.34076,1.44838,-0.10954,0.45602,1.14908,0.35653,0.43037,1.19694,-0.07066,0.57353,1.38377,0.25793,0.55196,1.40407
2721,0.09792,0.3854,1.51933,0.00148,0.4564,0.07974,0.26496,0.13963,0.11027,0.02812,0.44441,0.49545,0.26575,0.31898,0.48469,0.04873,0.34015,0.91745,0.21711,0.31169,0.91506,-0.05509,0.36777,1.42199,0.27214,0.34236,1.44938,-0.11207,0.45795,1.14936,0.35368,0.43062,1.19752,-0.07249,0.57711,1.3831,0.25593,0.55302,1.40458
2722,0.0951,0.3873,1.51962,0.00137,0.45591,0.0795,0.26556,0.141,0.11257,0.02698,0.4432,0.49525,0.26614,0.32352,0.48545,0.04689,0.34082,0.91775,0.21535,0.3128,0.9155,-0.05721,0.36951,1.42182,0.26875,0.34418,1.45029,-0.11467,0.45926,1.14914,0.35098,0.43015,1.19786,-0.07441,0.57991,1.382,0.25416,0.55346,1.40482
2723,0.09249,0.38907,1.51998,0.00148,0.45516,0.079,0.26635,0.14259,0.11492,0.02612,0.44205,0.49479,0.26671,0.32813,0.48631,0.04507,0.34163,0.9178,0.21357,0.31384,0.91597,-0.0592,0.37177,1.42145,0.26535,0.34591,1.45103,-0.11729,0.46005,1.14843,0.3485,0.42927,1.19803,-0.07666,0.58163,1.38074,0.25243,0.55307,1.40504
2724,0.09027,0.39078,1.52036,0.00189,0.45453,0.07837,0.26717,0.14441,0.11721,0.02533,0.44105,0.49423,0.26718,0.33274,0.4872,0.04339,0.34235,0.91768,0.21192,0.31473,0.91645,-0.06111,0.37418,1.42099,0.2624,0.34737,1.45163,-0.11981,0.46084,1.14758,0.34634,0.4286,1.1982,-0.07905,0.58276,1.37969,0.25051,0.55221,1.40543
2725,0.08836,0.39248,1.52074,0.00242,0.45432,0.07788,0.26777,0.14632,0.11938,0.02437,0.44018,0.49379,0.26738,0.33725,0.48803,0.04187,0.34283,0.91758,0.21045,0.31549,0.91689,-0.06308,0.3762,1.4205,0.26008,0.34862,1.45207,-0.12211,0.4622,1.14695,0.34459,0.42874,1.19847,-0.08117,0.58406,1.37906,0.24847,0.55155,1.40605
2726,0.08653,0.3943,1.52107,0.00276,0.45449,0.07762,0.26813,0.14824,0.1214,0.02318,0.43935,0.49358,0.26739,0.34162,0.48877,0.04038,0.34314,0.91764,0.20902,0.31618,0.91724,-0.06516,0.37785,1.42006,0.25828,0.34981,1.45236,-0.12414,0.4643,1.14664,0.34321,0.42974,1.19884,-0.08282,0.58599,1.37877,0.24649,0.55151,1.40676
2727,0.08455,0.39635,1.52126,0.00275,0.45482,0.07758,0.26841,0.15018,0.1233,0.02187,0.43852,0.49355,0.26746,0.34579,0.48949,0.03884,0.34332,0.91785,0.20756,0.31681,0.91751,-0.06726,0.3795,1.41983,0.25676,0.35103,1.45253,-0.12599,0.46687,1.14665,0.34195,0.43121,1.19919,-0.08414,0.58845,1.37875,0.24465,0.5521,1.40734
2728,0.08229,0.39856,1.52123,0.00249,0.45506,0.07764,0.26871,0.15215,0.12511,0.02068,0.43779,0.49361,0.26778,0.34973,0.49024,0.0373,0.34336,0.9181,0.2061,0.31734,0.91777,-0.06938,0.3813,1.41989,0.25519,0.35228,1.45276,-0.12779,0.46963,1.14695,0.34053,0.4325,1.19947,-0.08541,0.59088,1.37913,0.24291,0.55307,1.40766
2729,0.07972,0.40076,1.521,0.00213,0.45526,0.07775,0.26908,0.15413,0.12685,0.01969,0.43736,0.49373,0.26834,0.35346,0.49103,0.03583,0.34331,0.91832,0.2047,0.31779,0.91801,-0.07162,0.38302,1.42018,0.25332,0.35353,1.45326,-0.12963,0.47246,1.14752,0.33889,0.43321,1.19988,-0.08681,0.59279,1.38008,0.2412,0.55409,1.40785
2730,0.07697,0.4028,1.52069,0.00176,0.45555,0.07792,0.26943,0.15615,0.12854,0.01886,0.43727,0.49391,0.26901,0.35715,0.4918,0.0344,0.34325,0.91852,0.20335,0.31825,0.91819,-0.07398,0.3843,1.42056,0.25116,0.35481,1.45408,-0.13154,0.47513,1.14826,0.33723,0.43353,1.20057,-0.08829,0.59417,1.38142,0.23944,0.55501,1.40815
2731,0.07446,0.4046,1.52052,0.00151,0.45587,0.07811,0.26969,0.15819,0.13029,0.01816,0.43732,0.4941,0.26966,0.36097,0.49256,0.03301,0.3432,0.91872,0.20203,0.31868,0.91832,-0.07622,0.38514,1.4209,0.24899,0.35622,1.45498,-0.1334,0.47751,1.14904,0.33579,0.43416,1.20148,-0.08968,0.5954,1.38268,0.23758,0.55606,1.40861
2732,0.07255,0.4061,1.5206,0.00148,0.45604,0.07825,0.26976,0.16017,0.13225,0.01758,0.43723,0.49424,0.27017,0.36493,0.4934,0.03173,0.34311,0.91889,0.2008,0.319,0.91851,-0.07808,0.38606,1.42117,0.24704,0.35775,1.45564,-0.13499,0.4797,1.14968,0.33468,0.43559,1.20239,-0.09083,0.59678,1.38366,0.23567,0.55756,1.40911
2733,0.07115,0.40744,1.52073,0.00164,0.45595,0.0783,0.26965,0.1619,0.13441,0.01703,0.43693,0.49431,0.27048,0.36876,0.49435,0.03063,0.34299,0.91901,0.19976,0.31927,0.91883,-0.07956,0.38756,1.42139,0.24523,0.35928,1.45591,-0.13618,0.48193,1.1501,0.33374,0.43764,1.20313,-0.09174,0.59822,1.38441,0.2338,0.55943,1.4095
2734,0.06991,0.4087,1.52071,0.00184,0.45575,0.07834,0.26955,0.1633,0.13654,0.01637,0.43657,0.49437,0.27065,0.37216,0.49533,0.02974,0.34286,0.91913,0.19893,0.31956,0.91927,-0.08102,0.38947,1.42166,0.24348,0.36068,1.45591,-0.13702,0.48414,1.15035,0.33277,0.43973,1.20361,-0.09243,0.5994,1.38514,0.23203,0.56123,1.40977
2735,0.06859,0.40978,1.52068,0.00187,0.45569,0.07848,0.26968,0.16445,0.1384,0.01549,0.43629,0.49454,0.27077,0.37502,0.4962,0.02896,0.34271,0.91933,0.19821,0.31988,0.91967,-0.08271,0.39128,1.42204,0.24185,0.36184,1.45584,-0.13776,0.48611,1.15059,0.33166,0.44146,1.20392,-0.09301,0.60019,1.38592,0.23038,0.56265,1.40999
2736,0.06715,0.41052,1.52085,0.0017,0.45587,0.07877,0.2701,0.1655,0.13992,0.0144,0.43603,0.49483,0.27081,0.37742,0.49691,0.0282,0.34252,0.91962,0.19751,0.32015,0.91997,-0.08452,0.39279,1.42252,0.24042,0.36275,1.45598,-0.13869,0.4877,1.15092,0.33053,0.44265,1.20425,-0.09363,0.60075,1.38669,0.22878,0.56372,1.41017
2737,0.06564,0.41102,1.52122,0.00152,0.45615,0.07908,0.27067,0.16644,0.1412,0.01319,0.43568,0.49515,0.27072,0.37946,0.49754,0.02749,0.34235,0.91996,0.19685,0.32039,0.92026,-0.08613,0.39412,1.42301,0.23921,0.36339,1.4565,-0.13984,0.48896,1.1513,0.32955,0.4432,1.20482,-0.09443,0.60127,1.38736,0.22706,0.56456,1.41019
2738,0.06419,0.41152,1.52155,0.00151,0.45632,0.07936,0.27128,0.16719,0.14243,0.01201,0.43529,0.49543,0.27045,0.38116,0.4982,0.02687,0.34231,0.9203,0.19628,0.32073,0.92068,-0.08738,0.3952,1.42334,0.23816,0.3638,1.4573,-0.141,0.4902,1.15166,0.3287,0.4433,1.2056,-0.09546,0.6019,1.38799,0.22511,0.5653,1.41005
2739,0.06286,0.4121,1.52165,0.0016,0.45625,0.07963,0.27187,0.16764,0.1437,0.01109,0.43507,0.49572,0.26995,0.38254,0.4989,0.02632,0.34245,0.92065,0.19579,0.32134,0.92127,-0.08838,0.39576,1.42332,0.23716,0.36408,1.45811,-0.1419,0.49192,1.15203,0.32782,0.44343,1.2064,-0.09657,0.6028,1.38878,0.22314,0.56596,1.40997
2740,0.0616,0.41267,1.52154,0.00152,0.45595,0.07988,0.27246,0.16769,0.14492,0.01061,0.43518,0.496,0.26924,0.38359,0.49951,0.0258,0.34274,0.92097,0.19534,0.3222,0.92189,-0.08936,0.39571,1.42296,0.23612,0.36433,1.45867,-0.14249,0.4943,1.15247,0.32683,0.44383,1.20704,-0.09748,0.60397,1.38985,0.22145,0.56644,1.41019
2741,0.06042,0.41305,1.52142,0.00107,0.45552,0.08007,0.27302,0.16721,0.14595,0.01053,0.43548,0.49621,0.26843,0.3842,0.49986,0.0253,0.34305,0.9212,0.19491,0.32308,0.92234,-0.09038,0.39525,1.42255,0.235,0.36455,1.45898,-0.14292,0.49675,1.15302,0.32579,0.44435,1.20746,-0.098,0.60506,1.39104,0.2202,0.5666,1.41072
2742,0.0593,0.41305,1.52149,0.00033,0.45515,0.08018,0.27354,0.16622,0.14673,0.01054,0.43569,0.49633,0.26765,0.38433,0.49993,0.02482,0.34319,0.92133,0.19449,0.32374,0.92256,-0.09132,0.39477,1.42236,0.23389,0.36481,1.45914,-0.1434,0.49846,1.15357,0.32485,0.44473,1.20772,-0.09829,0.60563,1.39207,0.2193,0.56639,1.41136
2743,0.05822,0.41272,1.52178,-0.00046,0.45493,0.08024,0.27407,0.16497,0.14728,0.01035,0.43565,0.49639,0.26697,0.38406,0.49985,0.02436,0.34311,0.92138,0.19409,0.32413,0.92262,-0.09208,0.39463,1.42249,0.23295,0.3651,1.45931,-0.14392,0.49931,1.15404,0.3241,0.44493,1.20793,-0.0986,0.60567,1.39286,0.21847,0.56595,1.41191
2744,0.05716,0.41244,1.52204,-0.00095,0.45485,0.08022,0.27455,0.16375,0.14758,0.00991,0.4355,0.49636,0.26636,0.38354,0.49969,0.02397,0.34294,0.92135,0.19374,0.32439,0.92262,-0.09274,0.39497,1.42281,0.23238,0.36535,1.45953,-0.14419,0.49997,1.15442,0.32355,0.44513,1.20815,-0.09894,0.60557,1.39358,0.2174,0.56549,1.41224
2745,0.05627,0.41264,1.522,-0.00095,0.4548,0.08014,0.27488,0.16262,0.14763,0.00938,0.43541,0.49629,0.26575,0.38279,0.49948,0.02361,0.34295,0.9213,0.19341,0.32463,0.92258,-0.09343,0.39554,1.42317,0.2322,0.36557,1.4598,-0.14406,0.50095,1.15478,0.3231,0.44548,1.20836,-0.09913,0.60576,1.39435,0.21596,0.56514,1.41235
2746,0.05558,0.41321,1.52168,-0.00069,0.4547,0.08007,0.27505,0.16146,0.14747,0.00891,0.43547,0.49624,0.26515,0.38177,0.49921,0.02326,0.34322,0.92129,0.19305,0.32486,0.92253,-0.09423,0.39588,1.42345,0.23218,0.36599,1.46007,-0.1437,0.50223,1.15521,0.32267,0.44594,1.20849,-0.09909,0.60624,1.3952,0.21444,0.56475,1.41241
2747,0.05502,0.41364,1.52132,-0.00057,0.45453,0.0801,0.27514,0.16011,0.14721,0.00857,0.43568,0.4963,0.26455,0.38042,0.49893,0.0229,0.3436,0.92139,0.19268,0.32516,0.92251,-0.09505,0.39575,1.42358,0.23202,0.36665,1.46023,-0.14344,0.50352,1.15572,0.32227,0.4463,1.20847,-0.09881,0.60672,1.39605,0.21339,0.56413,1.41261
2748,0.05453,0.41364,1.52115,-0.00082,0.45434,0.0802,0.2752,0.15856,0.14685,0.00835,0.43597,0.49643,0.26394,0.37883,0.49858,0.02258,0.34396,0.92154,0.19238,0.32574,0.92248,-0.09566,0.39529,1.42354,0.23176,0.36729,1.46022,-0.14337,0.50451,1.15613,0.32186,0.44651,1.20827,-0.09828,0.60696,1.3967,0.21296,0.56329,1.413
2749,0.05422,0.41333,1.52123,-0.00138,0.45415,0.08029,0.27524,0.15692,0.14633,0.00819,0.43628,0.49653,0.26331,0.3771,0.49808,0.02234,0.34431,0.92165,0.19221,0.32669,0.92239,-0.09594,0.39479,1.42336,0.23169,0.3676,1.4601,-0.1433,0.50498,1.15629,0.3213,0.44679,1.20797,-0.09767,0.60681,1.39702,0.21274,0.56248,1.41349
2750,0.05413,0.41298,1.5214,-0.002,0.4539,0.08028,0.27523,0.15534,0.14557,0.00799,0.43658,0.49654,0.26264,0.37527,0.49747,0.02222,0.34464,0.92166,0.19218,0.32785,0.92224,-0.09595,0.39439,1.42317,0.23189,0.36758,1.45996,-0.14306,0.505,1.15623,0.32062,0.44738,1.20771,-0.09727,0.60632,1.39714,0.21232,0.56192,1.41401
2751,0.05413,0.41269,1.52145,-0.00236,0.45357,0.0802,0.2752,0.15392,0.14459,0.00773,0.43683,0.49648,0.26182,0.37322,0.49685,0.02221,0.34491,0.92159,0.19224,0.32889,0.92209,-0.09588,0.39397,1.42303,0.23208,0.36734,1.45984,-0.14273,0.50481,1.15614,0.32011,0.44801,1.20762,-0.09715,0.60561,1.39731,0.21186,0.5615,1.41453
2752,0.05414,0.41242,1.52132,-0.0023,0.45328,0.08011,0.2752,0.15265,0.14337,0.00745,0.43693,0.49641,0.26076,0.37082,0.49629,0.02227,0.34511,0.92153,0.19235,0.32959,0.92203,-0.09581,0.39337,1.4229,0.23199,0.36704,1.45977,-0.14253,0.50456,1.15614,0.31995,0.4482,1.20768,-0.09711,0.60484,1.39755,0.21169,0.56088,1.41503
2753,0.05413,0.41206,1.52119,-0.00202,0.45311,0.08008,0.2752,0.15145,0.14188,0.00722,0.43683,0.49639,0.25946,0.36792,0.49579,0.02239,0.34532,0.92157,0.1925,0.33004,0.92207,-0.09568,0.39259,1.42281,0.23174,0.36678,1.4598,-0.14249,0.50418,1.15623,0.32,0.44789,1.2078,-0.09693,0.6042,1.39773,0.21181,0.55996,1.41552
2754,0.05408,0.41156,1.52124,-0.00186,0.45309,0.08013,0.27506,0.15023,0.1401,0.00711,0.43656,0.49644,0.25809,0.36441,0.49534,0.02257,0.34555,0.92171,0.19267,0.33035,0.92218,-0.09546,0.3916,1.42281,0.23162,0.36655,1.45986,-0.14235,0.50366,1.15645,0.31998,0.44755,1.20786,-0.09642,0.604,1.39774,0.21196,0.55904,1.41598
2755,0.05393,0.41097,1.5214,-0.00191,0.45312,0.08024,0.27475,0.14898,0.13812,0.0071,0.43629,0.49654,0.2568,0.36055,0.49487,0.02277,0.34576,0.92191,0.19286,0.33041,0.92224,-0.09521,0.39037,1.42294,0.23175,0.36621,1.4599,-0.14186,0.50315,1.15683,0.31982,0.44752,1.20791,-0.09537,0.60453,1.39758,0.21199,0.55853,1.41638
2756,0.05367,0.41039,1.52149,-0.00206,0.45306,0.08034,0.27443,0.14782,0.1361,0.00716,0.43618,0.49663,0.2556,0.35684,0.49431,0.02298,0.34591,0.92205,0.19304,0.33019,0.92211,-0.09497,0.38899,1.42316,0.23207,0.36569,1.4599,-0.14107,0.50267,1.15734,0.31966,0.44781,1.20799,-0.09381,0.60556,1.3973,0.212,0.55854,1.41669
2757,0.05345,0.40989,1.52141,-0.00214,0.45288,0.08039,0.27423,0.14678,0.13416,0.00722,0.43626,0.49668,0.25446,0.35362,0.49358,0.02321,0.34602,0.9221,0.19323,0.32993,0.92174,-0.09468,0.38774,1.4234,0.23248,0.36501,1.45981,-0.14019,0.50208,1.15776,0.31967,0.44825,1.20814,-0.09233,0.60614,1.3971,0.21215,0.5589,1.41695
2758,0.05353,0.4094,1.52116,-0.00214,0.45267,0.08034,0.27407,0.14571,0.13232,0.00731,0.43645,0.49665,0.25346,0.3507,0.49275,0.02348,0.34617,0.92206,0.19348,0.32984,0.92124,-0.09427,0.38674,1.4235,0.2329,0.36424,1.45961,-0.13939,0.50121,1.15785,0.31997,0.44866,1.20828,-0.09177,0.60528,1.39722,0.21258,0.55926,1.41719
2759,0.05414,0.4087,1.52078,-0.00219,0.45248,0.08023,0.27373,0.14436,0.13057,0.00748,0.4366,0.49655,0.25263,0.34763,0.49195,0.02382,0.34637,0.92195,0.19381,0.32994,0.92074,-0.09361,0.38574,1.42339,0.23335,0.36332,1.45933,-0.13869,0.49993,1.15761,0.32056,0.44877,1.20841,-0.09217,0.60311,1.39759,0.21339,0.55932,1.41746
2760,0.05525,0.40759,1.52042,-0.0024,0.45231,0.08013,0.27307,0.14266,0.12888,0.00771,0.43661,0.49645,0.25196,0.3442,0.49123,0.02423,0.34652,0.92188,0.19422,0.33008,0.9203,-0.09259,0.38429,1.4232,0.23396,0.36224,1.45922,-0.13808,0.49832,1.15742,0.32126,0.44837,1.20856,-0.09254,0.60106,1.39778,0.21444,0.559,1.41775
2761,0.05653,0.40605,1.52019,-0.00279,0.45218,0.08015,0.27217,0.14079,0.12719,0.00792,0.43656,0.49646,0.25134,0.34044,0.49059,0.02474,0.34654,0.92189,0.19472,0.33013,0.91992,-0.09133,0.38226,1.42311,0.2348,0.36114,1.45943,-0.13754,0.4967,1.15763,0.32187,0.44751,1.20877,-0.09182,0.60052,1.3975,0.21546,0.55847,1.41799
2762,0.05769,0.40433,1.5201,-0.00322,0.45215,0.08031,0.27125,0.13899,0.12542,0.00811,0.43666,0.4966,0.25063,0.33647,0.49002,0.02534,0.34649,0.92198,0.19531,0.33007,0.9196,-0.09011,0.38001,1.42308,0.23584,0.36031,1.45973,-0.13703,0.49535,1.15812,0.32238,0.44677,1.20891,-0.09028,0.60103,1.39697,0.21625,0.55797,1.41815
2763,0.05863,0.40268,1.52008,-0.00348,0.45227,0.08052,0.27047,0.13739,0.12352,0.00835,0.43705,0.4968,0.24976,0.33235,0.48947,0.02605,0.34643,0.92208,0.19602,0.33006,0.91928,-0.08912,0.37804,1.4229,0.23716,0.35993,1.45963,-0.13659,0.49415,1.15838,0.32296,0.44691,1.20875,-0.08921,0.60075,1.39668,0.2167,0.55766,1.41816
2764,0.05942,0.40124,1.52006,-0.0034,0.45247,0.0807,0.26981,0.13591,0.12151,0.00874,0.43769,0.49699,0.24872,0.32821,0.48884,0.02687,0.3464,0.9221,0.19686,0.3302,0.91889,-0.08835,0.37659,1.42255,0.23886,0.35985,1.45898,-0.1362,0.49272,1.15809,0.32383,0.44801,1.20823,-0.08926,0.59868,1.39678,0.21689,0.55759,1.41791
2765,0.0602,0.40005,1.51991,-0.00306,0.45271,0.0808,0.26915,0.13441,0.11954,0.00933,0.4384,0.4971,0.24758,0.3242,0.48815,0.02772,0.34641,0.92205,0.19771,0.3304,0.91839,-0.08767,0.3754,1.42212,0.24071,0.35968,1.45816,-0.13564,0.49096,1.15744,0.32507,0.44917,1.20767,-0.08962,0.59554,1.39691,0.21718,0.55772,1.4174
2766,0.06119,0.39914,1.51949,-0.0028,0.453,0.08082,0.26837,0.1328,0.11782,0.01006,0.43911,0.49712,0.24654,0.32048,0.48749,0.02846,0.34651,0.92193,0.19843,0.33033,0.91786,-0.08684,0.3741,1.42173,0.24224,0.35907,1.45764,-0.13475,0.48911,1.1568,0.32661,0.44948,1.20749,-0.08932,0.59266,1.39683,0.218,0.55789,1.41691
2767,0.0625,0.39843,1.51886,-0.00293,0.45336,0.08076,0.26749,0.13108,0.11636,0.0108,0.43991,0.49705,0.24591,0.31701,0.48693,0.02912,0.34666,0.92172,0.19901,0.32978,0.91736,-0.08554,0.37271,1.42143,0.24322,0.35791,1.45747,-0.13355,0.48744,1.1564,0.32815,0.44899,1.20774,-0.08826,0.59066,1.3966,0.21931,0.55794,1.41678
2768,0.064,0.39766,1.5183,-0.00338,0.45374,0.08065,0.26668,0.12932,0.11496,0.01147,0.4409,0.49692,0.2458,0.31355,0.48642,0.0298,0.34678,0.92141,0.19958,0.32883,0.91684,-0.08371,0.3715,1.42126,0.24403,0.35632,1.45726,-0.13222,0.48601,1.15623,0.32941,0.44852,1.2081,-0.08692,0.58935,1.39637,0.22065,0.55763,1.41708
2769,0.06547,0.3966,1.51798,-0.00368,0.45405,0.08048,0.26604,0.12763,0.11339,0.01208,0.44191,0.49674,0.24596,0.30988,0.48587,0.03061,0.34678,0.92099,0.20027,0.32781,0.91625,-0.08176,0.37052,1.42115,0.24523,0.3547,1.45672,-0.13082,0.48464,1.15605,0.33041,0.4486,1.20812,-0.08568,0.58814,1.39616,0.22166,0.55672,1.41763
2770,0.06679,0.39519,1.51782,-0.0035,0.45418,0.08027,0.2655,0.12622,0.11162,0.01269,0.44267,0.49652,0.24587,0.30608,0.48528,0.03152,0.34661,0.92055,0.2011,0.327,0.91562,-0.08023,0.36945,1.42099,0.24697,0.35352,1.45592,-0.12938,0.48312,1.15571,0.33144,0.44899,1.20768,-0.08448,0.58662,1.39586,0.22236,0.55508,1.41805
2771,0.06802,0.39364,1.51763,-0.00295,0.45415,0.0801,0.26496,0.12519,0.10976,0.01329,0.44308,0.49637,0.24527,0.30234,0.48472,0.03245,0.34627,0.92022,0.202,0.32643,0.91504,-0.07916,0.36797,1.42076,0.24896,0.35289,1.45513,-0.12789,0.48157,1.15537,0.33278,0.44912,1.20697,-0.08291,0.5851,1.3955,0.22304,0.55312,1.41804
2772,0.06943,0.39219,1.51735,-0.00241,0.45411,0.0801,0.26437,0.12439,0.108,0.0139,0.44326,0.49637,0.24435,0.29877,0.48423,0.03342,0.34582,0.92005,0.20296,0.326,0.91455,-0.07806,0.36609,1.42055,0.25085,0.35243,1.45459,-0.12632,0.48034,1.15536,0.3344,0.44878,1.20638,-0.08063,0.58416,1.39523,0.22391,0.55146,1.41771
2773,0.07124,0.39086,1.51701,-0.00213,0.4542,0.0802,0.26371,0.12349,0.1064,0.0146,0.44338,0.49646,0.24349,0.29533,0.48379,0.03444,0.34534,0.91999,0.20397,0.32558,0.91409,-0.07659,0.3641,1.42045,0.25255,0.35168,1.45436,-0.12461,0.47954,1.15573,0.33602,0.44812,1.20616,-0.07777,0.58378,1.39519,0.22497,0.55034,1.41742
2774,0.07342,0.38949,1.51665,-0.00201,0.4544,0.08031,0.26284,0.12239,0.1049,0.01546,0.44351,0.49653,0.24301,0.29192,0.48335,0.03549,0.34489,0.91992,0.20499,0.325,0.91357,-0.07487,0.36227,1.42045,0.25423,0.35053,1.45433,-0.12282,0.47892,1.15625,0.33744,0.44738,1.2062,-0.07477,0.58352,1.39531,0.22612,0.54928,1.41747
2775,0.07573,0.38796,1.51625,-0.00193,0.45456,0.08039,0.26175,0.12127,0.10339,0.01641,0.44374,0.49658,0.24295,0.28847,0.48293,0.0366,0.34451,0.91981,0.20602,0.32404,0.91305,-0.0731,0.36065,1.42054,0.25604,0.34901,1.45422,-0.12107,0.47813,1.15671,0.33868,0.44661,1.2062,-0.07184,0.58328,1.39529,0.22733,0.54772,1.41782
2776,0.07801,0.38636,1.51579,-0.00193,0.45458,0.08047,0.26064,0.12038,0.10192,0.01735,0.44412,0.49662,0.24304,0.28504,0.48262,0.03783,0.34416,0.91967,0.20712,0.32268,0.91266,-0.0713,0.35915,1.42072,0.25798,0.34704,1.45384,-0.11942,0.47699,1.15708,0.33998,0.44573,1.20603,-0.06885,0.58315,1.39493,0.22862,0.54566,1.41822
2777,0.08026,0.38484,1.51532,-0.00206,0.4545,0.08054,0.25975,0.11977,0.10055,0.01828,0.44463,0.49666,0.24311,0.28164,0.4825,0.03919,0.34374,0.91947,0.20833,0.3211,0.91246,-0.06942,0.35768,1.42088,0.25985,0.3446,1.45312,-0.11779,0.4755,1.15727,0.34151,0.4448,1.20581,-0.06568,0.58281,1.39427,0.23009,0.54355,1.41851
2778,0.08246,0.38344,1.51487,-0.00227,0.45449,0.08058,0.25908,0.11926,0.0993,0.01925,0.44513,0.49665,0.24325,0.27826,0.48248,0.04065,0.34325,0.9192,0.20965,0.31961,0.91236,-0.06745,0.3563,1.42091,0.26154,0.34195,1.45217,-0.11598,0.47385,1.15721,0.34337,0.44398,1.20566,-0.06256,0.58194,1.39357,0.2318,0.54173,1.41875
2779,0.08459,0.38208,1.51438,-0.00242,0.45467,0.08058,0.25853,0.11865,0.09809,0.02031,0.44554,0.4966,0.2436,0.27486,0.48245,0.04216,0.34278,0.9189,0.21105,0.3183,0.9122,-0.06529,0.35514,1.42084,0.2632,0.33952,1.45128,-0.11391,0.47227,1.15697,0.3455,0.44328,1.20565,-0.0597,0.58075,1.39296,0.23372,0.54008,1.41907
2780,0.08673,0.38062,1.51382,-0.0023,0.45502,0.08057,0.25798,0.11789,0.09685,0.02152,0.44584,0.49652,0.24406,0.27141,0.48233,0.0437,0.34243,0.91865,0.21245,0.31706,0.91193,-0.06294,0.35422,1.42076,0.2651,0.33751,1.45065,-0.1117,0.47069,1.15662,0.34772,0.44253,1.20566,-0.05723,0.57931,1.39249,0.2358,0.53831,1.41946
2781,0.08905,0.37893,1.51333,-0.00182,0.45537,0.08055,0.25736,0.1171,0.09556,0.02292,0.44602,0.49644,0.24449,0.26795,0.48213,0.04518,0.34203,0.91843,0.21378,0.31571,0.91156,-0.06061,0.35328,1.42074,0.26741,0.33566,1.4502,-0.10941,0.46876,1.15618,0.34972,0.44152,1.20547,-0.05557,0.57687,1.39243,0.23801,0.53642,1.41976
2782,0.09159,0.3771,1.51308,-0.0011,0.45554,0.08053,0.2567,0.11649,0.09422,0.02446,0.44614,0.49637,0.24491,0.26468,0.48185,0.04659,0.34135,0.91816,0.21507,0.31425,0.91114,-0.05849,0.35207,1.42083,0.26998,0.33351,1.44968,-0.10701,0.4663,1.15568,0.35135,0.44014,1.20497,-0.05506,0.57273,1.39311,0.24038,0.53456,1.41987
2783,0.0942,0.37532,1.51299,-0.00048,0.45551,0.0805,0.25601,0.11617,0.09291,0.02601,0.44633,0.49628,0.24544,0.2618,0.48155,0.048,0.34036,0.91779,0.2164,0.31283,0.91072,-0.05644,0.35055,1.42106,0.27252,0.33091,1.44903,-0.10454,0.46362,1.15534,0.35276,0.43845,1.20435,-0.05492,0.56786,1.39423,0.24297,0.53274,1.4199
2784,0.09668,0.37375,1.51285,-0.00016,0.45536,0.08041,0.25532,0.11609,0.09177,0.02746,0.44659,0.49614,0.24608,0.25938,0.48131,0.04949,0.33929,0.9173,0.21786,0.3115,0.91041,-0.05421,0.34881,1.42142,0.27485,0.32827,1.44841,-0.10218,0.46128,1.15541,0.35437,0.43658,1.20384,-0.05343,0.5645,1.39493,0.24571,0.5308,1.42001
2785,0.09908,0.37234,1.51254,-2e-05,0.45515,0.08027,0.25483,0.11603,0.09087,0.02876,0.44683,0.49592,0.24676,0.25721,0.4812,0.05113,0.33827,0.91675,0.21944,0.31008,0.91027,-0.05176,0.34696,1.42177,0.27701,0.32595,1.44793,-0.10003,0.45955,1.15587,0.35644,0.43463,1.20348,-0.04978,0.5637,1.39468,0.24846,0.52868,1.42006
2786,0.10161,0.371,1.51211,0.00013,0.455,0.08012,0.25481,0.11573,0.09013,0.02997,0.44697,0.49571,0.24744,0.25499,0.48117,0.05293,0.33726,0.91621,0.22116,0.30842,0.91023,-0.04936,0.34512,1.42205,0.27902,0.32391,1.44742,-0.09796,0.45822,1.15643,0.35889,0.43258,1.20311,-0.04506,0.56402,1.39393,0.25116,0.52647,1.41988
2787,0.10437,0.3697,1.51161,0.00033,0.45504,0.08006,0.2553,0.11513,0.08941,0.03119,0.44699,0.49557,0.24815,0.25258,0.48109,0.05485,0.33622,0.91575,0.22296,0.30664,0.91013,-0.04721,0.34348,1.4223,0.28084,0.32196,1.4467,-0.09585,0.45685,1.1568,0.36142,0.43047,1.20256,-0.04113,0.56327,1.39362,0.25385,0.52432,1.41943
2788,0.10729,0.36836,1.51111,0.00047,0.45529,0.08011,0.25598,0.1144,0.08864,0.03252,0.44691,0.49552,0.24898,0.25008,0.48093,0.05676,0.3351,0.91539,0.22477,0.3049,0.90994,-0.04524,0.34212,1.42263,0.28253,0.32,1.44582,-0.09367,0.45523,1.15698,0.36379,0.42837,1.20184,-0.03863,0.56087,1.39407,0.25649,0.52233,1.41879
2789,0.11022,0.36677,1.51071,0.00053,0.45561,0.08024,0.25647,0.11368,0.0879,0.0339,0.44674,0.49554,0.25,0.24769,0.48078,0.0586,0.33385,0.9151,0.22653,0.30323,0.90973,-0.04329,0.34079,1.4231,0.28431,0.31802,1.44506,-0.0914,0.45351,1.15723,0.36599,0.42622,1.20115,-0.03664,0.55813,1.39484,0.25906,0.52043,1.41817
2790,0.11296,0.3647,1.51044,0.00058,0.45589,0.08036,0.25672,0.11306,0.08722,0.03523,0.44664,0.49554,0.25117,0.2454,0.48068,0.06034,0.33239,0.91471,0.22823,0.30148,0.90959,-0.04125,0.33915,1.42361,0.28635,0.31594,1.44467,-0.08904,0.45199,1.15773,0.36811,0.42392,1.20069,-0.03406,0.55647,1.39535,0.26161,0.51845,1.41779
2791,0.11529,0.36226,1.51021,0.00067,0.45608,0.0804,0.25692,0.11252,0.08658,0.0364,0.44686,0.4955,0.25231,0.24315,0.48063,0.062,0.33073,0.91412,0.22986,0.2996,0.90951,-0.03905,0.33719,1.42398,0.28856,0.31369,1.44458,-0.08664,0.45065,1.15833,0.37018,0.42158,1.20051,-0.03087,0.55588,1.39543,0.26422,0.51641,1.41775
2792,0.11728,0.35984,1.50991,0.00082,0.45617,0.08044,0.25729,0.11203,0.08593,0.03748,0.44762,0.49547,0.25329,0.24092,0.48055,0.06365,0.32908,0.91337,0.23149,0.29773,0.90943,-0.03663,0.33533,1.42406,0.29086,0.31132,1.44448,-0.08432,0.44923,1.15861,0.37221,0.41939,1.2004,-0.02763,0.55527,1.39514,0.26688,0.51444,1.41785
2793,0.11932,0.35767,1.50953,0.0011,0.45625,0.08058,0.25773,0.11155,0.08523,0.03861,0.44895,0.49556,0.25416,0.23882,0.48039,0.06536,0.32759,0.91262,0.23317,0.296,0.90925,-0.03409,0.33382,1.42382,0.29325,0.30891,1.44412,-0.0823,0.44753,1.15839,0.37425,0.41739,1.20011,-0.02467,0.5537,1.39462,0.26956,0.51257,1.4178
2794,0.1217,0.35565,1.5092,0.00155,0.45653,0.08088,0.25799,0.11105,0.08443,0.03986,0.45054,0.4958,0.25517,0.23685,0.48006,0.06717,0.32624,0.91196,0.23491,0.29429,0.90892,-0.0316,0.33256,1.42335,0.29557,0.30648,1.44343,-0.08063,0.44549,1.15774,0.37643,0.41545,1.19958,-0.02231,0.55075,1.39421,0.27224,0.51069,1.41748
2795,0.12423,0.35356,1.50895,0.00212,0.4571,0.08127,0.25803,0.11046,0.08348,0.04117,0.45194,0.49613,0.25647,0.23482,0.47958,0.06899,0.32481,0.9114,0.23663,0.29232,0.90845,-0.02921,0.33123,1.42274,0.29757,0.30401,1.44247,-0.07909,0.44329,1.15691,0.37878,0.41346,1.19896,-0.02095,0.54646,1.39435,0.27492,0.50864,1.41705
2796,0.12665,0.35136,1.50866,0.00263,0.45781,0.08166,0.25796,0.10973,0.08246,0.04246,0.45288,0.49645,0.25796,0.23257,0.47903,0.0708,0.32317,0.91088,0.2383,0.28998,0.90793,-0.02686,0.32966,1.42216,0.29941,0.30155,1.44148,-0.07738,0.44128,1.15627,0.38125,0.41141,1.19836,-0.02044,0.54162,1.3952,0.2776,0.50637,1.41665
2797,0.129,0.34913,1.50826,0.00306,0.45842,0.08199,0.25784,0.10882,0.08147,0.04377,0.45349,0.4967,0.25942,0.23023,0.47848,0.07262,0.32136,0.91033,0.23998,0.28744,0.90742,-0.02455,0.32782,1.42184,0.30165,0.29924,1.44065,-0.07542,0.4397,1.15612,0.38369,0.40933,1.19771,-0.01989,0.53735,1.3965,0.28019,0.50402,1.41619
2798,0.13147,0.347,1.50786,0.0035,0.45892,0.08225,0.25769,0.10787,0.08068,0.04518,0.45409,0.49687,0.26074,0.22812,0.47803,0.07453,0.31957,0.90969,0.24177,0.28505,0.90702,-0.02234,0.32587,1.42184,0.30456,0.29713,1.44002,-0.07334,0.43847,1.15646,0.38601,0.40722,1.19688,-0.01868,0.53404,1.39787,0.28259,0.50178,1.41545
2799,0.13404,0.34504,1.50761,0.00403,0.45944,0.08254,0.25758,0.1071,0.08017,0.04668,0.45491,0.49706,0.26196,0.2264,0.4778,0.07649,0.31786,0.90902,0.24368,0.28306,0.90685,-0.02026,0.32412,1.42204,0.30768,0.29513,1.43944,-0.07133,0.43736,1.15694,0.38824,0.40508,1.19594,-0.01702,0.53121,1.39911,0.2848,0.49966,1.4145
2800,0.13656,0.34316,1.50754,0.00465,0.46013,0.08293,0.2576,0.10667,0.07994,0.04819,0.45593,0.49736,0.26313,0.22493,0.47786,0.07841,0.31618,0.90838,0.24561,0.28139,0.90698,-0.01833,0.32274,1.4222,0.31027,0.2931,1.43882,-0.0694,0.43636,1.15726,0.39044,0.40302,1.19518,-0.01523,0.52848,1.40012,0.28682,0.49746,1.4137
2801,0.13906,0.34116,1.50754,0.00534,0.4609,0.08344,0.25775,0.1065,0.07986,0.04961,0.45713,0.4978,0.26428,0.22349,0.47815,0.08021,0.31445,0.90779,0.24743,0.27973,0.90732,-0.01646,0.32163,1.42223,0.31207,0.29097,1.43821,-0.0675,0.43571,1.15748,0.39263,0.40119,1.19483,-0.01302,0.52621,1.40088,0.28854,0.49516,1.41334
2802,0.14163,0.33894,1.50751,0.00607,0.46155,0.08414,0.25802,0.10633,0.07977,0.05091,0.45845,0.49844,0.26538,0.22189,0.47845,0.08193,0.31269,0.90731,0.24913,0.27784,0.90769,-0.01453,0.3206,1.42235,0.31351,0.28876,1.43773,-0.06556,0.43535,1.15789,0.3947,0.39952,1.1948,-0.01017,0.52473,1.4015,0.29007,0.49301,1.41326
2803,0.14422,0.33668,1.50751,0.00679,0.46197,0.08509,0.25834,0.10603,0.07959,0.05207,0.4599,0.49935,0.26639,0.22019,0.47867,0.08366,0.31096,0.90703,0.25078,0.27577,0.90797,-0.01241,0.31951,1.42278,0.31522,0.28652,1.4375,-0.06363,0.4347,1.15855,0.39654,0.39773,1.19482,-0.00721,0.52372,1.40206,0.29171,0.49123,1.41317
2804,0.14665,0.33464,1.50768,0.00747,0.46242,0.08639,0.25863,0.10566,0.07941,0.05305,0.46154,0.50062,0.26728,0.21873,0.47878,0.08534,0.30922,0.907,0.25241,0.27378,0.90818,-0.01012,0.31827,1.42348,0.31749,0.28421,1.43754,-0.06176,0.43334,1.15928,0.39818,0.39568,1.19477,-0.00483,0.52252,1.40261,0.2936,0.48968,1.41303
2805,0.14886,0.3328,1.50813,0.00801,0.46323,0.08804,0.2589,0.10534,0.07936,0.05385,0.46343,0.50224,0.26807,0.21787,0.47887,0.08684,0.30743,0.90716,0.25392,0.27204,0.90841,-0.00785,0.31675,1.42421,0.32012,0.28189,1.43779,-0.05985,0.43161,1.15999,0.39974,0.39347,1.19472,-0.00284,0.52089,1.40326,0.29553,0.48796,1.41295
2806,0.15091,0.33088,1.50885,0.00836,0.46445,0.09001,0.25917,0.10514,0.0795,0.05453,0.46544,0.50417,0.26878,0.21753,0.47904,0.08812,0.30566,0.90756,0.25523,0.27043,0.90876,-0.0058,0.31494,1.42482,0.32277,0.27967,1.43814,-0.05776,0.43026,1.16079,0.40132,0.39124,1.19472,-0.00038,0.51907,1.40414,0.29727,0.48586,1.41297
2807,0.15294,0.3287,1.50973,0.00849,0.46584,0.09224,0.25938,0.10505,0.07983,0.05521,0.46722,0.50635,0.26942,0.21723,0.47942,0.08933,0.30396,0.90829,0.25644,0.26874,0.90932,-0.00412,0.31293,1.42538,0.32521,0.27762,1.43853,-0.05551,0.42941,1.16175,0.40295,0.38906,1.19479,0.00286,0.51738,1.40518,0.29879,0.48359,1.41302
2808,0.15505,0.3265,1.51052,0.0084,0.46716,0.09464,0.25951,0.10507,0.08028,0.05585,0.46861,0.50866,0.27004,0.21654,0.48006,0.0907,0.30231,0.9093,0.25776,0.26687,0.91012,-0.00275,0.31096,1.42612,0.32733,0.27568,1.43892,-0.05324,0.42849,1.16278,0.40455,0.38691,1.19492,0.00645,0.51602,1.40604,0.3002,0.48161,1.41298
2809,0.15726,0.32462,1.51108,0.00807,0.46835,0.09704,0.25963,0.10505,0.08079,0.05631,0.4698,0.51097,0.27067,0.2154,0.48086,0.09226,0.30067,0.91033,0.25924,0.26484,0.91105,-0.00139,0.30916,1.42717,0.32925,0.27376,1.43934,-0.05107,0.42703,1.16383,0.40603,0.38464,1.19504,0.00998,0.51496,1.40661,0.30156,0.48012,1.41271
2810,0.1594,0.32313,1.51146,0.0075,0.46942,0.09935,0.25978,0.10486,0.08127,0.05653,0.47118,0.51319,0.27131,0.21407,0.48164,0.09384,0.29893,0.91108,0.26075,0.26274,0.91194,0.00024,0.30743,1.42839,0.33108,0.2717,1.43974,-0.04903,0.42517,1.16492,0.4074,0.38211,1.19509,0.01325,0.51389,1.40709,0.30292,0.47886,1.41219
2811,0.16129,0.32178,1.51179,0.00676,0.47053,0.10154,0.25993,0.10455,0.08166,0.05665,0.47289,0.51527,0.27193,0.21279,0.48228,0.09527,0.29703,0.91146,0.26213,0.26062,0.91269,0.00211,0.30569,1.42944,0.33275,0.26956,1.44007,-0.04719,0.42322,1.16588,0.4088,0.37947,1.19511,0.0159,0.51255,1.40762,0.30432,0.47748,1.41164
2812,0.16292,0.32031,1.51216,0.00596,0.47185,0.10364,0.25997,0.10436,0.0819,0.05675,0.47465,0.51725,0.27258,0.21163,0.48277,0.09653,0.29506,0.91165,0.26335,0.25848,0.9133,0.00383,0.30406,1.43011,0.33416,0.26773,1.44032,-0.04566,0.42118,1.1664,0.41026,0.37723,1.19519,0.01745,0.51088,1.408,0.30577,0.47608,1.41134
2813,0.16453,0.31874,1.51257,0.00521,0.47348,0.10573,0.25993,0.10442,0.08204,0.05681,0.47618,0.51925,0.2733,0.21054,0.48319,0.09767,0.29309,0.91192,0.26444,0.25633,0.91384,0.00515,0.30265,1.43045,0.33536,0.26657,1.44058,-0.04445,0.41899,1.16642,0.41164,0.37565,1.19531,0.01807,0.50903,1.40805,0.30722,0.47496,1.41129
2814,0.16626,0.31726,1.51299,0.00456,0.47533,0.10789,0.25992,0.10464,0.08206,0.05682,0.47745,0.52133,0.27405,0.2094,0.48354,0.09866,0.29116,0.91239,0.2654,0.25427,0.91429,0.00609,0.30131,1.43073,0.33666,0.26593,1.44088,-0.04345,0.41686,1.16633,0.41285,0.37439,1.19532,0.01872,0.50736,1.40788,0.30871,0.47402,1.41127
2815,0.16797,0.31588,1.51338,0.00396,0.47713,0.11007,0.25996,0.10479,0.08196,0.05686,0.47865,0.52342,0.27479,0.20817,0.48377,0.09955,0.28931,0.91292,0.26629,0.25238,0.91459,0.00698,0.2997,1.43112,0.33833,0.26537,1.44113,-0.04255,0.41502,1.16662,0.41403,0.37312,1.1951,0.0202,0.50624,1.40775,0.31027,0.47289,1.41118
2816,0.16939,0.31444,1.51378,0.00331,0.4786,0.11218,0.25999,0.10473,0.0818,0.05706,0.47999,0.52543,0.27554,0.20688,0.4839,0.10046,0.28756,0.91333,0.26722,0.25072,0.91476,0.00816,0.29774,1.43167,0.3405,0.26455,1.44119,-0.04169,0.41342,1.1674,0.41525,0.37203,1.19475,0.02231,0.50573,1.40778,0.31181,0.47155,1.4111
2817,0.17055,0.31296,1.51417,0.0026,0.47954,0.11412,0.26003,0.10447,0.08172,0.05748,0.48148,0.52722,0.27636,0.20565,0.48403,0.10147,0.28601,0.91354,0.26826,0.24931,0.91492,0.00978,0.29578,1.43232,0.34292,0.26347,1.44106,-0.04091,0.41181,1.16836,0.41642,0.37138,1.19444,0.02429,0.50553,1.40787,0.31316,0.47019,1.41119
2818,0.17179,0.3116,1.51449,0.00181,0.48001,0.1158,0.26013,0.10409,0.08174,0.05805,0.48288,0.52871,0.2772,0.20452,0.48421,0.10248,0.28491,0.91369,0.26927,0.24818,0.9151,0.01171,0.29432,1.43297,0.34508,0.26222,1.44088,-0.04022,0.41,1.16909,0.41736,0.37097,1.19426,0.02569,0.50525,1.40781,0.31426,0.46882,1.41153
2819,0.17332,0.31037,1.51471,0.00096,0.48016,0.11714,0.26033,0.10371,0.08178,0.05859,0.484,0.52985,0.27788,0.20345,0.48439,0.10338,0.2844,0.91396,0.27009,0.24731,0.91527,0.01369,0.29344,1.4335,0.34659,0.26072,1.44078,-0.03968,0.40798,1.16942,0.41805,0.37043,1.19435,0.02662,0.50451,1.40751,0.31528,0.46744,1.41214
2820,0.17502,0.30913,1.5149,9e-05,0.48012,0.11824,0.26059,0.10333,0.08175,0.05895,0.48482,0.53077,0.27827,0.20242,0.48452,0.1041,0.28424,0.91432,0.2707,0.24665,0.91536,0.01545,0.29271,1.43385,0.3476,0.259,1.44082,-0.03923,0.40589,1.16944,0.41876,0.36961,1.1947,0.02737,0.50317,1.40714,0.31642,0.46627,1.41286
2821,0.17663,0.30781,1.51513,-0.00067,0.47994,0.11922,0.26075,0.10297,0.08167,0.05906,0.4854,0.53162,0.27849,0.20147,0.48459,0.10463,0.28393,0.91465,0.27119,0.24619,0.91538,0.01689,0.29171,1.4341,0.34841,0.25743,1.44097,-0.03874,0.40392,1.16948,0.41976,0.36863,1.19517,0.02808,0.50159,1.40695,0.3177,0.46539,1.41342
2822,0.178,0.30646,1.51537,-0.00126,0.47973,0.12008,0.26075,0.10274,0.08162,0.05902,0.48573,0.53238,0.27876,0.2006,0.48468,0.10504,0.28327,0.91484,0.27168,0.24588,0.91542,0.01823,0.29037,1.43434,0.34918,0.25641,1.44113,-0.03809,0.40224,1.16973,0.42094,0.3677,1.19549,0.02879,0.50033,1.40701,0.31897,0.46457,1.41373
2823,0.17909,0.30517,1.51558,-0.00173,0.47953,0.12071,0.26067,0.10269,0.08162,0.05902,0.48578,0.53294,0.27919,0.19976,0.48485,0.10543,0.28243,0.91488,0.27221,0.24566,0.91552,0.0197,0.28894,1.43461,0.35,0.25593,1.44119,-0.03737,0.40087,1.17018,0.42188,0.36714,1.19555,0.02955,0.4996,1.40719,0.32005,0.46362,1.41403
2824,0.17997,0.30395,1.5157,-0.00225,0.47933,0.12112,0.26065,0.10273,0.08162,0.05921,0.4856,0.53324,0.27974,0.19895,0.48502,0.10584,0.28169,0.91486,0.27274,0.24545,0.91563,0.02117,0.28762,1.43482,0.35105,0.25564,1.44108,-0.03672,0.39967,1.17062,0.42237,0.36709,1.19539,0.03038,0.49906,1.40731,0.32094,0.46263,1.41446
2825,0.18081,0.30282,1.51572,-0.00293,0.47904,0.12133,0.26068,0.10273,0.08158,0.05955,0.48526,0.53331,0.28025,0.19837,0.4851,0.1062,0.28122,0.91485,0.27316,0.24527,0.91566,0.02228,0.28652,1.43502,0.35236,0.25515,1.44078,-0.03618,0.39852,1.17092,0.42266,0.36736,1.19513,0.03126,0.49841,1.4073,0.32171,0.46182,1.4149
2826,0.18167,0.30181,1.5156,-0.00376,0.47865,0.12135,0.26069,0.10267,0.08154,0.0599,0.48478,0.53314,0.28055,0.19814,0.48509,0.10651,0.28106,0.91486,0.27347,0.24512,0.91564,0.02293,0.28563,1.43538,0.35373,0.25432,1.44037,-0.03561,0.39741,1.17121,0.42306,0.36765,1.19497,0.03222,0.49788,1.40723,0.32234,0.46126,1.41521
2827,0.18241,0.30097,1.51543,-0.00464,0.47816,0.12108,0.26064,0.10258,0.08152,0.06011,0.48415,0.53271,0.28061,0.19814,0.48504,0.1069,0.28123,0.91483,0.2738,0.24499,0.91562,0.02329,0.28491,1.43607,0.35479,0.25335,1.44003,-0.0349,0.39642,1.17171,0.42366,0.36779,1.19502,0.03326,0.49808,1.40712,0.32284,0.46084,1.41544
2828,0.18294,0.30027,1.51532,-0.00548,0.47758,0.12052,0.2606,0.1025,0.08151,0.06017,0.48342,0.53201,0.2806,0.19812,0.48501,0.10743,0.28166,0.91468,0.27422,0.24493,0.9156,0.02354,0.28434,1.43697,0.35536,0.25258,1.43989,-0.0342,0.39566,1.17242,0.42432,0.36768,1.19521,0.03442,0.49909,1.40692,0.32341,0.46045,1.41571
2829,0.18333,0.29961,1.51541,-0.00621,0.47697,0.11976,0.26062,0.10248,0.0815,0.06012,0.48264,0.53115,0.28067,0.19791,0.48504,0.10803,0.28221,0.91444,0.27471,0.245,0.9156,0.0237,0.28397,1.43773,0.3556,0.25212,1.43995,-0.03365,0.3952,1.17306,0.42487,0.36735,1.19542,0.03566,0.50031,1.40662,0.32422,0.46012,1.41604
2830,0.18369,0.29888,1.51569,-0.00678,0.47637,0.11895,0.26067,0.1025,0.08149,0.06003,0.48179,0.53025,0.28087,0.19746,0.48514,0.10859,0.28272,0.91418,0.2752,0.24521,0.91563,0.02381,0.2838,1.43816,0.35585,0.25172,1.44009,-0.03325,0.395,1.17342,0.42518,0.36707,1.19563,0.0369,0.50102,1.40631,0.32505,0.46001,1.41641
2831,0.18401,0.29804,1.51606,-0.00717,0.47573,0.1181,0.26067,0.10253,0.08147,0.05997,0.4808,0.52935,0.28109,0.19688,0.48525,0.10909,0.28313,0.91392,0.27565,0.24542,0.91566,0.02386,0.28374,1.4383,0.35627,0.25118,1.44012,-0.03291,0.39501,1.17353,0.42523,0.36721,1.19589,0.03806,0.50099,1.40619,0.32549,0.46011,1.41686
2832,0.1843,0.29717,1.51638,-0.00748,0.47499,0.11716,0.2606,0.10258,0.08141,0.05997,0.47958,0.52838,0.28117,0.19638,0.48531,0.10948,0.2834,0.91367,0.27602,0.24562,0.91564,0.02381,0.28368,1.4383,0.35669,0.25069,1.43995,-0.03263,0.39518,1.17355,0.42515,0.36786,1.19611,0.03894,0.50035,1.4064,0.32544,0.46009,1.41738
2833,0.18457,0.29648,1.51652,-0.0078,0.4742,0.1161,0.26055,0.10265,0.08132,0.06006,0.47811,0.52726,0.28114,0.19612,0.4853,0.10974,0.28362,0.91337,0.27628,0.24587,0.91557,0.02375,0.28358,1.4382,0.35695,0.25056,1.43965,-0.0324,0.39548,1.17357,0.42516,0.36855,1.19614,0.03928,0.49933,1.40697,0.32517,0.45962,1.41776
2834,0.18485,0.29618,1.51638,-0.00809,0.47348,0.11487,0.26065,0.10266,0.08127,0.06016,0.47644,0.52597,0.28109,0.19616,0.48525,0.1099,0.28392,0.91306,0.27644,0.24616,0.9155,0.02386,0.28356,1.43805,0.35708,0.25082,1.43939,-0.03218,0.39592,1.17358,0.4254,0.36877,1.19589,0.03901,0.49825,1.4078,0.325,0.45877,1.41777
2835,0.18514,0.29633,1.51603,-0.00823,0.47287,0.11345,0.26095,0.10252,0.08125,0.06019,0.47467,0.52453,0.28113,0.19644,0.48514,0.11001,0.28452,0.91278,0.2765,0.24652,0.91538,0.0241,0.2838,1.43789,0.35716,0.25114,1.4392,-0.03193,0.39654,1.17358,0.42579,0.36852,1.19551,0.03849,0.49736,1.40869,0.32506,0.45805,1.41743
2836,0.18537,0.29675,1.51561,-0.0082,0.47217,0.1119,0.26132,0.10228,0.08117,0.06011,0.47297,0.523,0.28127,0.19688,0.48491,0.11002,0.28551,0.91254,0.27641,0.24708,0.91513,0.02422,0.28436,1.43776,0.35715,0.25123,1.43899,-0.03169,0.39748,1.17358,0.42608,0.36826,1.19521,0.03828,0.4968,1.40946,0.32527,0.45793,1.41704
2837,0.18542,0.29726,1.51524,-0.00808,0.47098,0.11027,0.26158,0.10202,0.08098,0.06,0.47158,0.52141,0.28148,0.19742,0.48454,0.10991,0.28677,0.91222,0.27618,0.24784,0.91473,0.024,0.28508,1.43755,0.35693,0.25104,1.43869,-0.03159,0.39881,1.17357,0.42611,0.36833,1.19512,0.03855,0.49658,1.41005,0.32544,0.45837,1.41685
2838,0.18523,0.29766,1.51494,-0.00778,0.46927,0.10859,0.26169,0.10183,0.08079,0.05996,0.47048,0.51978,0.28172,0.19801,0.48416,0.10972,0.28801,0.91171,0.2759,0.24871,0.91431,0.02347,0.28562,1.43717,0.35643,0.25068,1.43831,-0.03175,0.40032,1.17353,0.4259,0.36864,1.19514,0.03895,0.49665,1.41044,0.32551,0.45889,1.41693
2839,0.1849,0.29783,1.51472,-0.00721,0.46746,0.1069,0.26174,0.10174,0.08072,0.06,0.46939,0.51817,0.28194,0.19861,0.48391,0.10952,0.28898,0.91109,0.27568,0.2496,0.91403,0.02278,0.28577,1.43666,0.35579,0.25043,1.43791,-0.03217,0.40164,1.17348,0.42556,0.36903,1.19514,0.03923,0.49708,1.41053,0.32554,0.45916,1.41714
2840,0.18455,0.29789,1.51459,-0.00639,0.46609,0.10525,0.26177,0.10178,0.08082,0.05999,0.46794,0.51666,0.28206,0.19918,0.48388,0.10933,0.2897,0.91059,0.27553,0.25053,0.91395,0.02205,0.28568,1.43622,0.35523,0.2506,1.43756,-0.03275,0.40256,1.17346,0.42517,0.36955,1.19501,0.03938,0.49793,1.41031,0.32557,0.45931,1.41734
2841,0.18421,0.29808,1.51449,-0.00561,0.46526,0.10372,0.26178,0.10191,0.08099,0.05983,0.46609,0.51529,0.28204,0.19967,0.48396,0.1091,0.2904,0.91036,0.27536,0.25151,0.91397,0.02137,0.28581,1.4359,0.35477,0.25128,1.43728,-0.03327,0.40333,1.17339,0.42479,0.37033,1.1948,0.03937,0.49902,1.40996,0.32548,0.4597,1.41742
2842,0.18383,0.29849,1.51444,-0.00511,0.46468,0.10237,0.26171,0.102,0.08104,0.05966,0.46422,0.51404,0.2818,0.20008,0.48394,0.10878,0.29129,0.91035,0.27509,0.2526,0.91386,0.02071,0.28659,1.4356,0.35426,0.25222,1.43696,-0.03352,0.40448,1.17317,0.42441,0.37136,1.19456,0.03918,0.50024,1.4097,0.32518,0.46051,1.41731
2843,0.18333,0.29899,1.51446,-0.0049,0.46416,0.10117,0.26155,0.10195,0.08091,0.05961,0.46276,0.51288,0.28137,0.20048,0.48372,0.10842,0.29241,0.91034,0.27475,0.25379,0.91354,0.01999,0.28802,1.43527,0.35366,0.25297,1.4365,-0.03348,0.40632,1.17286,0.42397,0.37246,1.19433,0.03899,0.50176,1.40959,0.32466,0.46161,1.41704
2844,0.18263,0.29952,1.51446,-0.0048,0.46374,0.10004,0.2613,0.10182,0.08067,0.05962,0.46182,0.51176,0.28085,0.2009,0.48336,0.10805,0.2937,0.91022,0.27437,0.255,0.91308,0.01919,0.28972,1.43504,0.3531,0.25338,1.43598,-0.0334,0.4086,1.17273,0.42335,0.37359,1.19414,0.03901,0.50371,1.4096,0.324,0.46279,1.41681
2845,0.18174,0.30021,1.51433,-0.00463,0.46345,0.09893,0.26101,0.10173,0.08041,0.05954,0.46121,0.51068,0.28045,0.20129,0.48299,0.10764,0.29509,0.91002,0.27391,0.25618,0.91261,0.01845,0.29135,1.4351,0.35263,0.25372,1.43553,-0.03356,0.4108,1.17293,0.42249,0.37499,1.19411,0.03916,0.50587,1.40973,0.32315,0.46395,1.41688
2846,0.18076,0.30114,1.51408,-0.00434,0.46328,0.0978,0.26072,0.10176,0.0802,0.05934,0.46061,0.50963,0.28023,0.20154,0.48272,0.10709,0.2966,0.90989,0.27332,0.25745,0.91221,0.01779,0.29288,1.43537,0.35212,0.25434,1.43526,-0.03397,0.41262,1.17328,0.4215,0.37682,1.19431,0.03911,0.50795,1.40986,0.32197,0.46511,1.41727
2847,0.17983,0.30218,1.51386,-0.00392,0.46317,0.09667,0.26053,0.10195,0.08012,0.05907,0.45987,0.5086,0.28013,0.20173,0.48264,0.10642,0.29828,0.90989,0.27261,0.25897,0.91194,0.017,0.29449,1.4356,0.35136,0.25536,1.43523,-0.03445,0.41424,1.17345,0.42062,0.37878,1.19473,0.03882,0.50999,1.40981,0.32046,0.46643,1.41765
2848,0.17896,0.3032,1.51374,-0.00343,0.46311,0.09554,0.26047,0.10233,0.08021,0.05873,0.4591,0.5076,0.27997,0.20215,0.48272,0.10575,0.30011,0.90995,0.27192,0.2607,0.91184,0.01589,0.29627,1.43564,0.35034,0.25662,1.43539,-0.03491,0.41608,1.17339,0.41996,0.38031,1.19513,0.03875,0.51227,1.40944,0.31901,0.46792,1.41772
2849,0.17805,0.30421,1.51363,-0.00297,0.46305,0.09449,0.26052,0.10276,0.08041,0.05816,0.45852,0.50669,0.27963,0.20299,0.48284,0.10516,0.30192,0.90999,0.27132,0.26247,0.91182,0.01461,0.29806,1.43548,0.34936,0.25792,1.43565,-0.03544,0.41822,1.17325,0.41953,0.38116,1.19532,0.03923,0.51491,1.40878,0.31818,0.46926,1.41753
2850,0.17698,0.30527,1.51345,-0.00262,0.46286,0.09359,0.26057,0.10306,0.08059,0.05731,0.45821,0.50597,0.27906,0.20425,0.48281,0.10455,0.30364,0.91002,0.2707,0.26417,0.91173,0.0134,0.29965,1.43518,0.34866,0.25923,1.43594,-0.03619,0.42044,1.17314,0.41925,0.38162,1.19529,0.03991,0.51771,1.40798,0.31796,0.47011,1.41737
2851,0.17576,0.30639,1.51326,-0.00242,0.46243,0.09284,0.26054,0.10325,0.08067,0.05639,0.45801,0.50538,0.27832,0.20577,0.48258,0.10378,0.30533,0.91013,0.26995,0.26591,0.91147,0.01228,0.30102,1.43474,0.34821,0.26073,1.4362,-0.03721,0.42254,1.17303,0.4189,0.38234,1.19519,0.04015,0.52049,1.40717,0.31767,0.47073,1.41734
2852,0.17454,0.30758,1.51311,-0.00225,0.46185,0.09212,0.2604,0.1035,0.08063,0.05573,0.45781,0.50478,0.27755,0.20739,0.48221,0.10285,0.30703,0.91027,0.26908,0.26782,0.91106,0.01111,0.30225,1.43422,0.34765,0.26263,1.43632,-0.03842,0.42448,1.17284,0.41824,0.38381,1.19507,0.03972,0.5233,1.40636,0.31683,0.47158,1.41738
2853,0.17335,0.30889,1.513,-0.002,0.46124,0.09134,0.26021,0.10384,0.08058,0.05534,0.45771,0.50409,0.27687,0.20912,0.48182,0.10192,0.30876,0.91033,0.2682,0.26979,0.91063,0.00985,0.30343,1.43371,0.34663,0.265,1.43626,-0.03965,0.42629,1.17262,0.41726,0.38583,1.19484,0.03881,0.5261,1.40561,0.3157,0.4728,1.41739
2854,0.17204,0.31047,1.51286,-0.00171,0.46066,0.0905,0.26003,0.10416,0.08062,0.05495,0.4579,0.50336,0.27627,0.21103,0.48146,0.10102,0.31058,0.91024,0.26731,0.27163,0.91027,0.00862,0.30462,1.43333,0.34509,0.26746,1.43608,-0.04071,0.42805,1.17248,0.41622,0.38782,1.19456,0.03762,0.52873,1.40514,0.31485,0.47432,1.41739
2855,0.17044,0.31232,1.51267,-0.00162,0.46015,0.08966,0.25999,0.10431,0.08075,0.05437,0.45833,0.50261,0.27567,0.21304,0.48111,0.10002,0.31248,0.91008,0.26628,0.27342,0.90995,0.00758,0.30597,1.43322,0.34336,0.26953,1.43595,-0.04155,0.42981,1.17253,0.41526,0.38942,1.19443,0.0363,0.53119,1.40504,0.31447,0.47606,1.41747
2856,0.16857,0.31428,1.51247,-0.00187,0.45974,0.08885,0.26011,0.10438,0.0809,0.05363,0.45877,0.50186,0.27502,0.21491,0.48079,0.09889,0.31438,0.90989,0.26514,0.27528,0.90962,0.00664,0.30753,1.43334,0.34176,0.2711,1.43597,-0.0423,0.43161,1.17273,0.41429,0.39083,1.19457,0.03502,0.53369,1.40511,0.3142,0.47806,1.41769
2857,0.16662,0.31617,1.51228,-0.00233,0.45947,0.08803,0.26026,0.1046,0.08099,0.05291,0.45899,0.50109,0.27441,0.21662,0.4805,0.09781,0.31618,0.90971,0.2641,0.27724,0.90929,0.00544,0.30917,1.43348,0.34021,0.27244,1.43609,-0.04308,0.43347,1.17289,0.41319,0.39245,1.19496,0.03376,0.53628,1.40511,0.31358,0.48047,1.41798
2858,0.16479,0.31797,1.51206,-0.00271,0.45937,0.08724,0.26023,0.1051,0.08101,0.05242,0.45898,0.50031,0.27392,0.21835,0.48019,0.09686,0.31795,0.9096,0.2632,0.27925,0.90892,0.0037,0.31073,1.43343,0.3385,0.27395,1.43616,-0.04401,0.43536,1.17285,0.41199,0.39457,1.19549,0.03246,0.53871,1.40495,0.31244,0.48327,1.41827
2859,0.16312,0.31975,1.51183,-0.00285,0.45935,0.0865,0.25999,0.10573,0.08095,0.05225,0.45897,0.49957,0.2735,0.22026,0.47977,0.09586,0.31979,0.90958,0.26225,0.28131,0.90847,0.00155,0.31217,1.43324,0.33677,0.27582,1.43608,-0.04508,0.43711,1.17262,0.4107,0.39721,1.19593,0.03118,0.54081,1.40463,0.31096,0.48612,1.41854
2860,0.16154,0.32158,1.51161,-0.00276,0.45926,0.08583,0.25966,0.10631,0.08083,0.05236,0.45929,0.4989,0.27305,0.22217,0.47927,0.09462,0.32168,0.90959,0.26105,0.2834,0.90792,-0.00055,0.31352,1.43303,0.33536,0.27811,1.43596,-0.04619,0.43858,1.17228,0.4093,0.40018,1.19616,0.0299,0.54263,1.4042,0.30935,0.48862,1.41886
2861,0.15993,0.32342,1.51147,-0.00258,0.45896,0.08526,0.25941,0.10672,0.08079,0.05252,0.45995,0.49833,0.27247,0.22382,0.47888,0.09316,0.32341,0.90953,0.25964,0.28537,0.90746,-0.00235,0.31483,1.43278,0.33425,0.28069,1.43598,-0.04716,0.43993,1.1719,0.40778,0.4033,1.19634,0.02844,0.54433,1.40382,0.30767,0.49081,1.41933
2862,0.1582,0.3252,1.51148,-0.00248,0.45858,0.08481,0.25932,0.10704,0.08099,0.05249,0.46069,0.49789,0.27167,0.2252,0.47879,0.0917,0.32496,0.9095,0.25823,0.28716,0.90729,-0.00392,0.31617,1.43236,0.33296,0.28329,1.43634,-0.04796,0.44152,1.17148,0.40631,0.40647,1.19693,0.02672,0.54606,1.40363,0.30579,0.49319,1.42005
2863,0.15641,0.32686,1.51167,-0.00248,0.45841,0.08449,0.25932,0.10741,0.08144,0.05219,0.46144,0.49761,0.2707,0.22658,0.47897,0.09044,0.3266,0.9096,0.25699,0.28888,0.90742,-0.00548,0.31766,1.43175,0.33126,0.28567,1.43715,-0.0488,0.44367,1.17107,0.40497,0.40963,1.19825,0.02509,0.548,1.40358,0.30349,0.4963,1.42096
2864,0.15471,0.32845,1.51198,-0.00243,0.45861,0.08422,0.25933,0.10791,0.08199,0.05167,0.46236,0.49741,0.26983,0.22828,0.47917,0.08937,0.32851,0.90977,0.2559,0.29072,0.90759,-0.00719,0.31945,1.43113,0.3294,0.28784,1.43828,-0.05007,0.44626,1.17076,0.40374,0.41261,1.2,0.02394,0.55018,1.40341,0.30073,0.50004,1.42171
2865,0.15307,0.33013,1.51226,-0.00209,0.45904,0.08385,0.25936,0.10843,0.08246,0.05107,0.46342,0.49715,0.26926,0.23038,0.47918,0.08831,0.3305,0.90986,0.25485,0.29272,0.9076,-0.00909,0.32158,1.43068,0.32777,0.28999,1.43919,-0.0519,0.44874,1.17048,0.40256,0.41524,1.2013,0.02319,0.55224,1.40296,0.29814,0.50345,1.42203
2866,0.15125,0.33197,1.51238,-0.00142,0.45945,0.08336,0.2595,0.10882,0.0829,0.05054,0.46439,0.49681,0.26893,0.23259,0.47906,0.08711,0.33229,0.90984,0.25369,0.29469,0.90749,-0.01106,0.32393,1.43051,0.32642,0.29224,1.43939,-0.05395,0.45059,1.17008,0.40136,0.41741,1.20151,0.02234,0.55378,1.40231,0.29654,0.50548,1.42212
2867,0.14919,0.33393,1.5124,-0.00062,0.45966,0.0829,0.25974,0.10912,0.0834,0.05022,0.46519,0.49648,0.26857,0.23463,0.47903,0.08576,0.33383,0.90984,0.25238,0.2964,0.90746,-0.01302,0.32618,1.43053,0.32501,0.29464,1.43901,-0.05568,0.45185,1.16958,0.39994,0.41933,1.20087,0.02114,0.55487,1.40172,0.2959,0.5061,1.42236
2868,0.14712,0.33599,1.51243,6e-05,0.45965,0.0826,0.25996,0.10946,0.08404,0.05015,0.46591,0.49627,0.26804,0.2365,0.4792,0.08433,0.33526,0.90996,0.25097,0.29792,0.90766,-0.01496,0.32796,1.43054,0.32324,0.29727,1.43862,-0.05685,0.45308,1.1692,0.39819,0.42141,1.2002,0.01986,0.55588,1.40147,0.29527,0.50628,1.42294
2869,0.14529,0.33822,1.51254,0.0005,0.45945,0.08242,0.26006,0.10989,0.08484,0.05023,0.46662,0.49612,0.26747,0.23855,0.47949,0.0829,0.33662,0.91014,0.24958,0.29947,0.90798,-0.01691,0.32921,1.43039,0.32122,0.30007,1.43854,-0.05759,0.45479,1.16908,0.39639,0.42399,1.20007,0.01893,0.55691,1.40171,0.29392,0.507,1.42372
2870,0.14362,0.34071,1.51272,0.00076,0.45916,0.08224,0.26008,0.11034,0.08571,0.05023,0.46732,0.49595,0.26702,0.24104,0.4797,0.08143,0.3379,0.91027,0.2482,0.30116,0.90827,-0.0189,0.33033,1.43015,0.31923,0.30278,1.43868,-0.0582,0.45691,1.16911,0.3949,0.42701,1.20054,0.01837,0.55778,1.40226,0.29183,0.50861,1.42443
2871,0.14179,0.34333,1.51298,0.00093,0.45892,0.08199,0.26008,0.11084,0.08654,0.05,0.46805,0.49573,0.26671,0.24387,0.47975,0.07988,0.33923,0.91033,0.24675,0.30295,0.90841,-0.02093,0.33178,1.42998,0.31732,0.30523,1.43886,-0.05894,0.45891,1.16901,0.39381,0.43017,1.20135,0.01789,0.55855,1.40261,0.28934,0.51096,1.42489
2872,0.13966,0.34586,1.51325,0.00092,0.45875,0.08169,0.26013,0.1115,0.08727,0.04949,0.46888,0.49546,0.26633,0.24672,0.47974,0.07833,0.34081,0.91037,0.24527,0.30479,0.90848,-0.023,0.33362,1.42999,0.3153,0.3076,1.43906,-0.05999,0.46048,1.16874,0.3928,0.43312,1.20218,0.01723,0.55963,1.40242,0.28685,0.51368,1.42511
2873,0.13726,0.34825,1.51337,0.00058,0.4586,0.08141,0.26028,0.11239,0.088,0.04875,0.46974,0.4952,0.26575,0.24948,0.47984,0.07689,0.34268,0.91047,0.24382,0.30661,0.90866,-0.02501,0.33568,1.43018,0.31305,0.31024,1.43932,-0.06144,0.46188,1.16853,0.39148,0.43579,1.20277,0.01636,0.56119,1.40195,0.28472,0.51658,1.42522
2874,0.13465,0.35073,1.51325,-7e-05,0.45849,0.08126,0.2605,0.11349,0.08889,0.04787,0.47052,0.49505,0.26504,0.2523,0.48013,0.07552,0.34461,0.9107,0.24241,0.30836,0.90906,-0.02684,0.33785,1.43044,0.31075,0.31324,1.43969,-0.06309,0.46362,1.16857,0.38976,0.43836,1.20311,0.01538,0.56291,1.40178,0.283,0.5196,1.42539
2875,0.13192,0.35339,1.51307,-0.00087,0.4585,0.08121,0.26074,0.11463,0.09002,0.04688,0.47108,0.49501,0.26431,0.25543,0.48056,0.07414,0.34632,0.91103,0.24103,0.31006,0.90964,-0.02853,0.34007,1.43065,0.30856,0.31629,1.44012,-0.06459,0.46592,1.16878,0.38774,0.44103,1.20339,0.01453,0.56452,1.40206,0.28133,0.52263,1.42572
2876,0.12917,0.35608,1.51307,-0.00162,0.45865,0.08122,0.26092,0.11563,0.09133,0.04584,0.47132,0.49505,0.26365,0.25897,0.48095,0.0727,0.34761,0.91141,0.23968,0.3118,0.91022,-0.03026,0.34217,1.43077,0.30635,0.31917,1.44054,-0.06569,0.46849,1.16905,0.38552,0.44388,1.20378,0.0143,0.56632,1.40236,0.27926,0.52552,1.42617
2877,0.12637,0.35869,1.51331,-0.00226,0.45883,0.08128,0.26099,0.11639,0.09268,0.04476,0.47125,0.49517,0.26311,0.26281,0.48116,0.07116,0.34857,0.91186,0.23833,0.31363,0.91062,-0.03218,0.34392,1.43095,0.30393,0.32198,1.44103,-0.06659,0.47097,1.16945,0.38325,0.44675,1.20436,0.01502,0.56873,1.40222,0.2766,0.5283,1.4266
2878,0.12331,0.36127,1.51363,-0.00281,0.45897,0.08143,0.26103,0.117,0.09398,0.04355,0.47095,0.4954,0.26267,0.26669,0.48122,0.06955,0.34946,0.91247,0.23693,0.31555,0.91085,-0.03439,0.34545,1.43134,0.30129,0.32485,1.4417,-0.06768,0.47311,1.16999,0.38111,0.44938,1.20507,0.01601,0.57148,1.40177,0.27361,0.53107,1.42684
2879,0.11999,0.36387,1.51389,-0.00327,0.45905,0.08162,0.26115,0.11768,0.09524,0.04222,0.47051,0.4957,0.26228,0.27042,0.48128,0.0679,0.3506,0.91325,0.23545,0.31756,0.91104,-0.03695,0.34712,1.43196,0.2986,0.32774,1.44241,-0.0692,0.47481,1.17049,0.37915,0.4517,1.20574,0.0158,0.5739,1.40149,0.27066,0.5338,1.42687
2880,0.1168,0.36646,1.51409,-0.00363,0.45896,0.08169,0.26132,0.11856,0.09653,0.04088,0.46999,0.4959,0.26185,0.27416,0.48143,0.06627,0.352,0.91401,0.23394,0.31963,0.9113,-0.03979,0.34905,1.43261,0.29602,0.33054,1.44297,-0.07104,0.47616,1.17074,0.3772,0.45403,1.20626,0.01371,0.57578,1.4016,0.26789,0.53657,1.42682
2881,0.11411,0.3691,1.51429,-0.00386,0.45861,0.08154,0.26141,0.11961,0.09793,0.03968,0.46939,0.49585,0.26129,0.27822,0.4816,0.0647,0.35338,0.91454,0.23249,0.32167,0.91162,-0.04263,0.35097,1.43308,0.29375,0.33337,1.44347,-0.073,0.47722,1.17069,0.37503,0.45664,1.20668,0.01046,0.5774,1.40178,0.26518,0.53961,1.42681
2882,0.11182,0.3719,1.51455,-0.00398,0.45808,0.08119,0.26138,0.12074,0.09942,0.03866,0.46863,0.4956,0.26068,0.28265,0.48171,0.0632,0.35446,0.91482,0.23113,0.32354,0.91193,-0.0452,0.3527,1.43329,0.29188,0.33639,1.44419,-0.07496,0.47805,1.1704,0.37269,0.45943,1.20712,0.00726,0.57906,1.40156,0.26239,0.54296,1.42682
2883,0.10952,0.37486,1.51477,-0.00404,0.4576,0.0808,0.26126,0.12189,0.10096,0.03772,0.46767,0.49531,0.26018,0.28721,0.48179,0.06181,0.35522,0.91502,0.22991,0.32516,0.91223,-0.04749,0.35443,1.43335,0.29021,0.33963,1.44516,-0.0768,0.47885,1.16997,0.37038,0.46221,1.20763,0.00464,0.58084,1.40098,0.25955,0.54629,1.42685
2884,0.10704,0.37776,1.51485,-0.00412,0.45734,0.08048,0.26108,0.1231,0.10254,0.0368,0.46659,0.4951,0.25998,0.29177,0.48189,0.06051,0.35574,0.91526,0.22876,0.32653,0.91253,-0.04973,0.35638,1.43348,0.28832,0.34297,1.44607,-0.07845,0.47989,1.1696,0.36813,0.46512,1.2082,0.00226,0.58267,1.40052,0.25684,0.54941,1.4271
2885,0.1045,0.38051,1.51477,-0.00424,0.45731,0.08027,0.2609,0.12445,0.10424,0.03583,0.46563,0.49499,0.26018,0.29646,0.48209,0.05916,0.35611,0.91552,0.22755,0.32768,0.9129,-0.05202,0.35842,1.43379,0.28606,0.34627,1.44667,-0.08007,0.48112,1.16946,0.36582,0.46843,1.20879,-0.00034,0.58438,1.4005,0.25433,0.55254,1.42766
2886,0.10204,0.38321,1.51458,-0.00437,0.45743,0.08013,0.26079,0.12599,0.10616,0.03477,0.465,0.49495,0.26078,0.30139,0.48245,0.05766,0.35645,0.91575,0.22617,0.32877,0.91337,-0.05418,0.36022,1.43419,0.28372,0.34945,1.44703,-0.08195,0.48232,1.16956,0.36347,0.47206,1.20938,-0.0032,0.58586,1.40082,0.25196,0.55599,1.42832
2887,0.09969,0.38597,1.51445,-0.00441,0.45761,0.08002,0.26082,0.12778,0.10833,0.03364,0.4646,0.49495,0.26159,0.30656,0.48302,0.05609,0.35685,0.91598,0.22475,0.33007,0.91398,-0.05614,0.36165,1.43453,0.28163,0.35245,1.44746,-0.08398,0.48345,1.16977,0.36124,0.47564,1.21006,-0.00609,0.5873,1.40118,0.24963,0.5598,1.42886
2888,0.09736,0.38862,1.51452,-0.00433,0.45777,0.07995,0.26111,0.12981,0.11068,0.03251,0.46424,0.495,0.26232,0.31191,0.48377,0.05467,0.35729,0.91625,0.22352,0.33168,0.91474,-0.0581,0.36283,1.43468,0.27975,0.35532,1.44812,-0.08584,0.48472,1.16995,0.35902,0.47906,1.21089,-0.00877,0.58888,1.40149,0.24726,0.56377,1.4294
2889,0.09486,0.39102,1.51473,-0.00416,0.45793,0.07994,0.26171,0.13194,0.11315,0.03141,0.46384,0.49511,0.26286,0.31745,0.48455,0.05348,0.35766,0.91656,0.22254,0.33346,0.91554,-0.06024,0.36396,1.43461,0.2778,0.3582,1.4489,-0.08748,0.48619,1.16999,0.35665,0.48255,1.21185,-0.0111,0.59045,1.40171,0.24477,0.56771,1.43012
2890,0.09206,0.3933,1.51494,-0.00403,0.45812,0.08003,0.2625,0.13403,0.11565,0.03032,0.46333,0.49532,0.26337,0.32314,0.48523,0.05241,0.35783,0.91694,0.22169,0.33521,0.91622,-0.06246,0.36519,1.43445,0.27561,0.36123,1.4496,-0.08929,0.48755,1.16984,0.35424,0.48616,1.21279,-0.01291,0.59174,1.4016,0.24219,0.57152,1.4309
2891,0.08916,0.39562,1.51504,-0.00396,0.45831,0.08018,0.26334,0.13609,0.11809,0.0293,0.46253,0.49556,0.26417,0.32887,0.48578,0.05133,0.35776,0.91737,0.22083,0.33683,0.9167,-0.06452,0.36659,1.43445,0.2733,0.36444,1.45016,-0.09164,0.48835,1.1696,0.35209,0.48963,1.21353,-0.01412,0.59282,1.40085,0.23977,0.57505,1.43147
2892,0.08655,0.39789,1.51511,-0.00385,0.45845,0.08023,0.26412,0.13821,0.12045,0.02841,0.46129,0.49571,0.26539,0.33449,0.48628,0.05025,0.35748,0.91776,0.21995,0.33824,0.91704,-0.06633,0.36801,1.43475,0.27115,0.36764,1.4506,-0.09435,0.48847,1.1694,0.35036,0.49257,1.21398,-0.01497,0.59391,1.39958,0.23774,0.5781,1.43172
2893,0.08444,0.3998,1.51526,-0.0036,0.45851,0.08011,0.26489,0.14042,0.12279,0.02768,0.45977,0.49567,0.26689,0.33997,0.48684,0.04921,0.35711,0.91802,0.21906,0.33924,0.91736,-0.0681,0.3692,1.43519,0.26934,0.37053,1.45107,-0.09689,0.48822,1.16927,0.34892,0.49485,1.21425,-0.01613,0.59481,1.39844,0.2361,0.58068,1.43177
2894,0.0827,0.40134,1.51546,-0.00336,0.4585,0.07994,0.26576,0.14271,0.12523,0.02708,0.45842,0.49556,0.26847,0.34541,0.48753,0.04821,0.35673,0.91816,0.21814,0.33969,0.91773,-0.06994,0.3701,1.43545,0.26785,0.3731,1.45169,-0.09893,0.48801,1.16905,0.34759,0.49673,1.21456,-0.01846,0.59499,1.39814,0.23461,0.58312,1.43178
2895,0.08107,0.40281,1.51555,-0.00339,0.45843,0.07988,0.26686,0.14505,0.12783,0.02653,0.45756,0.49554,0.27002,0.35083,0.48839,0.04724,0.35632,0.91827,0.21722,0.33968,0.91819,-0.07162,0.37091,1.43526,0.26663,0.37558,1.45247,-0.10065,0.48814,1.16857,0.34624,0.49873,1.21505,-0.02224,0.59429,1.39875,0.23302,0.58578,1.43187
2896,0.07937,0.40449,1.51546,-0.00374,0.45831,0.07995,0.26825,0.14735,0.13051,0.02596,0.45713,0.49562,0.27148,0.35613,0.48934,0.04636,0.35589,0.91837,0.21637,0.33959,0.91867,-0.07287,0.37182,1.43466,0.26558,0.37818,1.45324,-0.10228,0.48871,1.16786,0.34485,0.50115,1.21561,-0.02646,0.59334,1.39961,0.23132,0.58867,1.43208
2897,0.07755,0.40642,1.51523,-0.00415,0.45802,0.07999,0.2698,0.14945,0.13307,0.02525,0.45683,0.49569,0.27289,0.36102,0.49026,0.04554,0.35559,0.91844,0.21559,0.33973,0.91909,-0.07382,0.3729,1.43394,0.2645,0.38087,1.45381,-0.1039,0.48954,1.16711,0.34339,0.50399,1.21614,-0.02985,0.59298,1.39996,0.22971,0.59154,1.43252
2898,0.07564,0.40843,1.51504,-0.00437,0.4574,0.07994,0.27126,0.15134,0.1353,0.02438,0.45649,0.49568,0.27435,0.36521,0.49112,0.04468,0.35546,0.91848,0.21478,0.34017,0.91944,-0.07482,0.37413,1.43342,0.26324,0.38355,1.45417,-0.10551,0.49011,1.16637,0.34181,0.50721,1.21667,-0.03231,0.59325,1.39962,0.22812,0.59427,1.43325
2899,0.07376,0.41031,1.51499,-0.00437,0.45657,0.07982,0.27249,0.15311,0.13709,0.02351,0.45613,0.49562,0.27584,0.36862,0.49191,0.04381,0.35543,0.9185,0.21396,0.34078,0.91974,-0.07606,0.37538,1.43321,0.26195,0.38606,1.45435,-0.1071,0.49,1.16561,0.34,0.51088,1.21728,-0.03466,0.59345,1.39896,0.2263,0.59695,1.43424
