PaulMeinheit/Bachelor_Muay_Thai/processed_Data/E3/teep/sliced/JointPositions/sliced5.csv
Unnamed: 0_level_0,Neck_Joint_Position,Neck_Joint_Position,Neck_Joint_Position,L_ANKLE_POSITION,L_ANKLE_POSITION,L_ANKLE_POSITION,R_ANKLE_POSITION,R_ANKLE_POSITION,R_ANKLE_POSITION,L_KNEE_POSITION,L_KNEE_POSITION,L_KNEE_POSITION,R_KNEE_POSITION,R_KNEE_POSITION,R_KNEE_POSITION,L_HIP_POSITION,L_HIP_POSITION,L_HIP_POSITION,R_HIP_POSITION,R_HIP_POSITION,R_HIP_POSITION,L_SHOULDER_POSITION,L_SHOULDER_POSITION,L_SHOULDER_POSITION,R_SHOULDER_POSITION,R_SHOULDER_POSITION,R_SHOULDER_POSITION,L_ELBOW_POSITION,L_ELBOW_POSITION,L_ELBOW_POSITION,R_ELBOW_POSITION,R_ELBOW_POSITION,R_ELBOW_POSITION,L_WRIST_POSITION,L_WRIST_POSITION,L_WRIST_POSITION,R_WRIST_POSITION,R_WRIST_POSITION,R_WRIST_POSITION
ITEM,X,Y,Z,X,Y,Z,X,Y,Z,X,Y,Z,X,Y,Z,X,Y,Z,X,Y,Z,X,Y,Z,X,Y,Z,X,Y,Z,X,Y,Z,X,Y,Z,X,Y,Z
1849,0.20327,0.36597,1.51805,-0.00319,0.55189,0.12742,0.22241,0.16123,0.08297,0.06294,0.56591,0.53864,0.25737,0.26111,0.48441,0.08194,0.35433,0.91844,0.23267,0.27405,0.91668,0.0347,0.41371,1.43708,0.33567,0.26753,1.43953,-0.01677,0.47983,1.15657,0.43151,0.32908,1.18478,0.08835,0.62898,1.34919,0.38684,0.4688,1.39901
1850,0.20326,0.36582,1.51831,-0.00292,0.54778,0.12681,0.22251,0.16115,0.08295,0.06251,0.56342,0.53808,0.25759,0.26042,0.48453,0.08313,0.35345,0.9187,0.23436,0.27412,0.91686,0.03439,0.41082,1.43735,0.33615,0.26886,1.43974,-0.01746,0.47664,1.15684,0.43284,0.33068,1.18538,0.08498,0.62451,1.35188,0.38522,0.46915,1.39978
1851,0.20314,0.36573,1.51857,-0.00264,0.54343,0.12616,0.22262,0.16113,0.08286,0.06225,0.56098,0.53744,0.25777,0.25987,0.48457,0.08425,0.35254,0.91882,0.23606,0.27431,0.91695,0.03443,0.4086,1.43774,0.33683,0.26992,1.43993,-0.01797,0.47373,1.15716,0.43412,0.33228,1.18593,0.08208,0.61973,1.35483,0.38307,0.46952,1.40033
1852,0.20303,0.36581,1.51873,-0.00236,0.53871,0.12544,0.22271,0.16119,0.08271,0.06215,0.55861,0.53667,0.25784,0.25933,0.48458,0.08527,0.35171,0.91883,0.2376,0.2745,0.91701,0.03465,0.40709,1.43811,0.33762,0.27095,1.44004,-0.01834,0.47099,1.15737,0.43459,0.33417,1.18613,0.07924,0.61455,1.35804,0.38104,0.46975,1.40097
1853,0.20289,0.36608,1.51887,-0.00216,0.53363,0.12466,0.22271,0.16128,0.08262,0.06195,0.5562,0.53581,0.2578,0.25855,0.48469,0.08618,0.35105,0.91883,0.23894,0.2747,0.91715,0.03475,0.40604,1.43817,0.3383,0.2721,1.44012,-0.01857,0.46835,1.15713,0.43417,0.33619,1.186,0.07608,0.60884,1.36135,0.37952,0.4697,1.40187
1854,0.20258,0.36656,1.51903,-0.00215,0.52842,0.12367,0.22258,0.16131,0.08267,0.06139,0.55353,0.53477,0.25765,0.25752,0.485,0.08702,0.35058,0.91887,0.24018,0.27503,0.91747,0.03455,0.405,1.43767,0.33884,0.27352,1.44022,-0.01873,0.46576,1.15628,0.4334,0.3383,1.1858,0.07243,0.60273,1.36445,0.3785,0.46938,1.40308
1855,0.20207,0.36737,1.51915,-0.00231,0.5233,0.12228,0.22239,0.16123,0.0828,0.06044,0.5504,0.53337,0.25746,0.25648,0.48536,0.08773,0.35043,0.91892,0.24131,0.27572,0.9178,0.0342,0.4037,1.43674,0.33932,0.27528,1.44022,-0.01892,0.46334,1.15508,0.4329,0.34108,1.18569,0.06841,0.59669,1.36719,0.37744,0.46916,1.40462
1856,0.20142,0.36864,1.5191,-0.00251,0.51829,0.12046,0.22226,0.16107,0.08279,0.05942,0.54672,0.53158,0.25739,0.25573,0.48549,0.08819,0.35065,0.91902,0.2422,0.27684,0.91787,0.0339,0.40245,1.43592,0.33975,0.27727,1.44006,-0.01925,0.46133,1.15411,0.43271,0.34502,1.18582,0.06445,0.5912,1.36981,0.37569,0.46938,1.40649
1857,0.20065,0.37023,1.51884,-0.00276,0.51335,0.11847,0.22226,0.16089,0.0826,0.0587,0.54266,0.52961,0.25752,0.25541,0.48531,0.08832,0.35095,0.91916,0.24277,0.27807,0.91764,0.03365,0.40169,1.43568,0.34013,0.27928,1.44003,-0.01969,0.46007,1.1538,0.43237,0.34977,1.18627,0.06102,0.58639,1.37273,0.37307,0.47004,1.4086
1858,0.19968,0.37169,1.51855,-0.00329,0.50844,0.11667,0.22242,0.16069,0.08239,0.05837,0.53865,0.52771,0.25773,0.25543,0.48505,0.0883,0.35096,0.91919,0.24319,0.27904,0.91733,0.0333,0.40147,1.43598,0.34045,0.28134,1.44044,-0.0201,0.45978,1.1541,0.43153,0.3545,1.18702,0.05819,0.58214,1.37613,0.37012,0.47095,1.41081
1859,0.19852,0.37258,1.51852,-0.00418,0.50362,0.11514,0.22273,0.16046,0.08234,0.05822,0.53517,0.52596,0.25787,0.25556,0.48493,0.08837,0.35067,0.91894,0.2437,0.27969,0.91719,0.03275,0.40139,1.43643,0.34065,0.2836,1.44126,-0.0204,0.4603,1.15463,0.43028,0.35864,1.18786,0.0555,0.57835,1.3798,0.36753,0.47201,1.41285
1860,0.19733,0.37284,1.51879,-0.00516,0.49903,0.11375,0.22307,0.1603,0.08242,0.05796,0.5323,0.52433,0.25787,0.25563,0.48499,0.08858,0.35051,0.91854,0.24425,0.28028,0.91724,0.03194,0.40095,1.43674,0.34068,0.28592,1.44204,-0.02066,0.46106,1.15509,0.42895,0.36218,1.18854,0.05264,0.57515,1.38315,0.36543,0.47325,1.41445
1861,0.1962,0.37272,1.51924,-0.00582,0.49475,0.11233,0.22325,0.16029,0.0825,0.05758,0.5296,0.52274,0.25778,0.25562,0.48509,0.08874,0.35076,0.91825,0.24464,0.28104,0.91731,0.03081,0.40007,1.43692,0.34047,0.2879,1.44236,-0.02105,0.46166,1.15545,0.42775,0.36544,1.18891,0.04975,0.57274,1.38578,0.36347,0.47464,1.41552
1862,0.19496,0.3726,1.51975,-0.00596,0.49084,0.11069,0.22324,0.16034,0.08254,0.05723,0.52644,0.52106,0.25764,0.25558,0.48516,0.08873,0.35129,0.91819,0.24479,0.28192,0.91733,0.02951,0.39908,1.4371,0.34003,0.28932,1.44223,-0.02171,0.4623,1.15588,0.4266,0.36858,1.18906,0.04716,0.57123,1.38781,0.36138,0.47621,1.41615
1863,0.19341,0.37267,1.52032,-0.00576,0.48741,0.10873,0.22312,0.16033,0.08263,0.05702,0.52255,0.5192,0.25747,0.25562,0.48524,0.08865,0.35194,0.91829,0.24479,0.28274,0.91737,0.02832,0.39839,1.43736,0.33941,0.29045,1.44199,-0.02265,0.46349,1.15652,0.42535,0.3715,1.18918,0.04508,0.57055,1.38965,0.35923,0.47822,1.41644
1864,0.19162,0.37302,1.52087,-0.00541,0.48455,0.10656,0.22295,0.16038,0.08279,0.05678,0.51828,0.51724,0.25731,0.25593,0.48534,0.0886,0.35279,0.91847,0.24472,0.28354,0.91744,0.02731,0.39807,1.43777,0.33876,0.2916,1.44191,-0.02378,0.46528,1.15745,0.42388,0.37429,1.18935,0.04352,0.5706,1.3915,0.35713,0.48093,1.41646
1865,0.18978,0.37363,1.52125,-0.00498,0.48228,0.10442,0.2228,0.16057,0.08295,0.05634,0.51421,0.51538,0.25721,0.25673,0.48535,0.08841,0.35387,0.91867,0.24454,0.28467,0.91743,0.02624,0.39782,1.43836,0.33819,0.29287,1.44187,-0.0251,0.46725,1.15862,0.42215,0.37733,1.1895,0.04232,0.57145,1.39314,0.35509,0.48432,1.41636
1866,0.18799,0.37456,1.52137,-0.00451,0.48063,0.10237,0.22275,0.16089,0.08302,0.05573,0.51064,0.51363,0.25707,0.258,0.4852,0.08791,0.35498,0.91874,0.24429,0.28635,0.91725,0.02484,0.39743,1.43905,0.33758,0.29425,1.44166,-0.02672,0.46891,1.15987,0.42037,0.38077,1.1896,0.0411,0.57332,1.39418,0.35302,0.48793,1.41629
1867,0.18631,0.37575,1.52123,-0.00413,0.47966,0.10028,0.22284,0.16128,0.083,0.05507,0.50754,0.51185,0.2568,0.25947,0.48495,0.08722,0.35598,0.91851,0.24408,0.28845,0.91696,0.0232,0.39708,1.43964,0.33676,0.29573,1.44129,-0.02878,0.47012,1.16094,0.41892,0.38411,1.18968,0.03961,0.57626,1.3943,0.3509,0.49129,1.41616
1868,0.18483,0.3769,1.52101,-0.00399,0.47921,0.09812,0.22299,0.16174,0.08292,0.05435,0.50486,0.50995,0.25635,0.26084,0.48469,0.0866,0.35699,0.91796,0.24395,0.29059,0.91666,0.02169,0.39712,1.43996,0.33561,0.29719,1.44095,-0.03115,0.47112,1.16168,0.41795,0.38673,1.1898,0.03798,0.57995,1.39358,0.34878,0.49437,1.41572
1869,0.18352,0.37754,1.52099,-0.00406,0.47878,0.09606,0.22306,0.16221,0.08279,0.05358,0.50257,0.5081,0.25573,0.26197,0.48445,0.08608,0.35812,0.91732,0.24378,0.29255,0.91638,0.02048,0.39763,1.44002,0.33418,0.2985,1.44067,-0.03351,0.47229,1.16213,0.41709,0.38863,1.18992,0.03656,0.58387,1.39244,0.34672,0.49753,1.41486
1870,0.18221,0.37766,1.52118,-0.00408,0.478,0.09431,0.22291,0.16253,0.08266,0.05277,0.50063,0.50652,0.25502,0.26297,0.4842,0.08549,0.35937,0.91684,0.24341,0.29435,0.91608,0.01942,0.39844,1.43994,0.33258,0.29969,1.44021,-0.0357,0.47371,1.16244,0.41581,0.39064,1.18986,0.03533,0.58778,1.39123,0.3447,0.50114,1.41379
1871,0.1808,0.37777,1.52133,-0.00385,0.47695,0.09285,0.2226,0.16265,0.08255,0.05193,0.49892,0.50525,0.25431,0.26411,0.48387,0.08469,0.36067,0.91659,0.24281,0.29614,0.9157,0.01823,0.39931,1.43978,0.33097,0.30092,1.43947,-0.03784,0.47521,1.16264,0.41405,0.3934,1.18963,0.03389,0.59165,1.39001,0.3426,0.50529,1.41276
1872,0.17925,0.37828,1.52127,-0.00331,0.47608,0.09151,0.22232,0.16266,0.08238,0.05103,0.49731,0.50414,0.25372,0.26555,0.48336,0.08371,0.362,0.91646,0.24206,0.29804,0.91515,0.01679,0.40001,1.43953,0.32938,0.30233,1.43866,-0.04012,0.47662,1.16276,0.41222,0.39661,1.18942,0.032,0.59545,1.38876,0.34037,0.50968,1.41183
1873,0.17757,0.37901,1.52114,-0.0026,0.47561,0.09007,0.2222,0.16265,0.08213,0.05009,0.49559,0.50297,0.25328,0.26723,0.4827,0.08264,0.36336,0.9163,0.24124,0.30003,0.91446,0.01506,0.40035,1.43911,0.32779,0.304,1.4381,-0.04253,0.4779,1.16275,0.41072,0.3995,1.18935,0.0299,0.59899,1.38745,0.33806,0.51386,1.41083
1874,0.17579,0.37965,1.52109,-0.00187,0.47531,0.08839,0.22219,0.16268,0.08184,0.04913,0.4936,0.50159,0.2529,0.269,0.48198,0.08155,0.36475,0.91599,0.24036,0.30196,0.91371,0.01296,0.40026,1.4385,0.3263,0.30604,1.43789,-0.0449,0.47902,1.16253,0.40942,0.40177,1.1893,0.02793,0.60215,1.386,0.33566,0.51766,1.40961
1875,0.17391,0.38037,1.52106,-0.00122,0.47486,0.08654,0.22212,0.16282,0.0816,0.04814,0.49132,0.50001,0.25244,0.27083,0.48131,0.08052,0.36618,0.91555,0.2395,0.30383,0.91303,0.0105,0.39993,1.43777,0.32504,0.30846,1.43791,-0.04715,0.47992,1.16211,0.408,0.40378,1.1891,0.02597,0.60504,1.38437,0.33308,0.52116,1.40823
1876,0.17185,0.38147,1.52093,-0.00072,0.47434,0.08469,0.2219,0.16309,0.08146,0.04721,0.48902,0.4984,0.25188,0.2727,0.48077,0.07956,0.36766,0.91506,0.23874,0.30582,0.91247,0.00803,0.39963,1.43705,0.32397,0.31102,1.43791,-0.04927,0.48062,1.16161,0.40632,0.40593,1.18875,0.02367,0.60785,1.38272,0.33035,0.52445,1.4069
1877,0.16958,0.38285,1.52069,-0.00041,0.47407,0.08307,0.22157,0.1635,0.08141,0.0465,0.48704,0.49696,0.25135,0.27447,0.48036,0.07862,0.3692,0.91464,0.23803,0.30799,0.91202,0.00591,0.39958,1.43633,0.32282,0.3133,1.43776,-0.05113,0.48129,1.16105,0.40448,0.40818,1.18836,0.02109,0.6105,1.38126,0.32762,0.52745,1.40579
1878,0.16724,0.38412,1.52046,-0.00024,0.47411,0.08182,0.22132,0.16397,0.08139,0.04609,0.48553,0.49581,0.251,0.27602,0.48004,0.07751,0.37076,0.91441,0.23714,0.31011,0.91164,0.00424,0.4,1.43548,0.32131,0.3152,1.43747,-0.05262,0.48212,1.16029,0.4026,0.41027,1.18802,0.01857,0.61257,1.38009,0.325,0.53004,1.40492
1879,0.16501,0.3852,1.5203,-0.00012,0.47417,0.08096,0.22134,0.16431,0.08136,0.04601,0.4845,0.495,0.25078,0.27739,0.47974,0.07615,0.37229,0.91438,0.23593,0.31204,0.91126,0.00278,0.40113,1.43458,0.31942,0.31716,1.43718,-0.05393,0.483,1.15928,0.40071,0.41223,1.18773,0.01631,0.61375,1.37922,0.32254,0.5322,1.40431
1880,0.16288,0.38642,1.52022,9e-05,0.47406,0.08044,0.22158,0.16442,0.08139,0.04618,0.48391,0.4945,0.25045,0.27878,0.47944,0.07461,0.37364,0.91452,0.23453,0.31381,0.9109,0.0013,0.403,1.4339,0.31733,0.3197,1.43696,-0.05542,0.48371,1.15826,0.39882,0.41425,1.18738,0.01412,0.61414,1.37861,0.32023,0.53403,1.40391
1881,0.1607,0.38815,1.52021,0.00043,0.47393,0.08021,0.22186,0.16437,0.08159,0.04639,0.48374,0.49429,0.24975,0.28041,0.47923,0.07304,0.37473,0.91475,0.23315,0.31545,0.91066,-0.0002,0.40523,1.43348,0.31521,0.32279,1.43684,-0.0572,0.48426,1.15741,0.39685,0.41643,1.18696,0.01165,0.61408,1.37833,0.31806,0.53557,1.40377
1882,0.15834,0.39044,1.52027,0.00081,0.47406,0.08023,0.22206,0.16436,0.082,0.04636,0.48393,0.49434,0.2487,0.28238,0.47913,0.07156,0.37562,0.91508,0.23191,0.31701,0.91059,-0.00175,0.4073,1.4331,0.3132,0.32603,1.43687,-0.05906,0.48493,1.1567,0.39469,0.41863,1.18656,0.00878,0.61383,1.37848,0.31597,0.5368,1.40393
1883,0.15594,0.39298,1.52036,0.00108,0.47446,0.08041,0.22222,0.16453,0.08257,0.04597,0.48441,0.4946,0.24761,0.28473,0.47914,0.07022,0.37652,0.9155,0.23081,0.31858,0.91066,-0.00349,0.40904,1.43271,0.31133,0.32917,1.43712,-0.06071,0.4859,1.15607,0.3925,0.42053,1.18625,0.00576,0.61351,1.379,0.31391,0.53762,1.40424
1884,0.15373,0.39538,1.52051,0.00122,0.47483,0.08064,0.22238,0.16489,0.08333,0.04527,0.48506,0.49491,0.24689,0.28746,0.47922,0.06897,0.37763,0.91596,0.22973,0.32023,0.91081,-0.00553,0.41066,1.43242,0.30937,0.33232,1.43756,-0.06209,0.48704,1.15552,0.39062,0.42179,1.18603,0.0028,0.61303,1.37983,0.31182,0.53796,1.40445
1885,0.15166,0.39757,1.52072,0.00132,0.47495,0.08074,0.22258,0.16529,0.08434,0.04437,0.48575,0.49511,0.24673,0.29047,0.47944,0.06768,0.37896,0.91634,0.22859,0.32195,0.91108,-0.00777,0.41243,1.43229,0.30705,0.33557,1.43811,-0.06345,0.48812,1.15502,0.38923,0.42244,1.18598,-0.00031,0.61209,1.38095,0.3096,0.53793,1.40445
1886,0.14948,0.39982,1.52092,0.00132,0.47487,0.08063,0.22286,0.16564,0.08564,0.04334,0.48633,0.49508,0.247,0.2936,0.47985,0.06631,0.3803,0.91652,0.22735,0.32365,0.91152,-0.00995,0.41426,1.43216,0.3044,0.33877,1.43871,-0.06495,0.48906,1.15451,0.38801,0.42306,1.18617,-0.00387,0.61053,1.38236,0.30712,0.53802,1.40446
1887,0.14705,0.4023,1.52107,0.00106,0.47484,0.08039,0.22324,0.1659,0.08708,0.04228,0.48674,0.49491,0.24752,0.29673,0.48033,0.06484,0.38148,0.91657,0.22604,0.32527,0.91203,-0.01197,0.41587,1.43191,0.30188,0.34162,1.43939,-0.0665,0.49019,1.15404,0.3864,0.42433,1.18663,-0.00771,0.6088,1.38398,0.3043,0.53878,1.40474
1888,0.14453,0.40485,1.52124,0.00048,0.47499,0.08019,0.22375,0.1662,0.08848,0.04125,0.48702,0.49475,0.24813,0.29985,0.48078,0.06321,0.38252,0.91663,0.22464,0.32691,0.91246,-0.01405,0.417,1.43159,0.29989,0.344,1.44022,-0.06789,0.49181,1.15371,0.3842,0.42637,1.18728,-0.01131,0.60757,1.38566,0.30113,0.54031,1.40528
1889,0.1421,0.40712,1.52147,-0.00014,0.47532,0.08014,0.22446,0.16666,0.08981,0.04029,0.48731,0.49473,0.24877,0.30294,0.48121,0.06144,0.38343,0.9168,0.22316,0.32867,0.91285,-0.0165,0.41771,1.4314,0.29836,0.34618,1.4412,-0.06911,0.49386,1.15366,0.38169,0.42867,1.18798,-0.0144,0.60701,1.38733,0.29782,0.54208,1.40595
1890,0.13979,0.40895,1.52177,-0.00048,0.47569,0.08019,0.22549,0.16721,0.09116,0.03941,0.48767,0.49484,0.24937,0.30595,0.48172,0.05967,0.38421,0.91705,0.22174,0.33045,0.91331,-0.01917,0.41825,1.43152,0.29682,0.34842,1.44215,-0.07036,0.49598,1.15394,0.37931,0.43068,1.18857,-0.01704,0.60679,1.38906,0.29494,0.54346,1.40668
1891,0.13754,0.41038,1.52214,-0.00047,0.47591,0.08026,0.22681,0.16757,0.09261,0.03856,0.48801,0.49499,0.24997,0.30881,0.48232,0.05817,0.38495,0.91733,0.2205,0.332,0.91386,-0.02157,0.41885,1.43187,0.29492,0.3507,1.44276,-0.07177,0.49798,1.15451,0.37714,0.43257,1.18897,-0.01946,0.60665,1.39085,0.29289,0.54437,1.40763
1892,0.13542,0.41148,1.52272,-0.00032,0.47589,0.08031,0.22826,0.16759,0.09414,0.03771,0.48821,0.49513,0.25061,0.3116,0.48288,0.05695,0.38577,0.91764,0.21943,0.33329,0.91438,-0.02361,0.4196,1.43224,0.29273,0.35274,1.44295,-0.07334,0.49995,1.15515,0.37486,0.43502,1.18926,-0.02195,0.60676,1.39253,0.29132,0.54524,1.409
1893,0.13346,0.41239,1.52355,-0.00027,0.47584,0.08034,0.2298,0.16745,0.09571,0.03682,0.48822,0.49524,0.25132,0.31448,0.48336,0.05581,0.38677,0.918,0.21839,0.33457,0.91481,-0.02573,0.42038,1.43251,0.29062,0.35441,1.44298,-0.0752,0.50199,1.15574,0.37226,0.43828,1.18965,-0.02465,0.60753,1.39387,0.28947,0.54646,1.41068
1894,0.13145,0.41339,1.5244,-0.00039,0.47601,0.08035,0.23147,0.16743,0.09735,0.03584,0.48797,0.49533,0.25212,0.3176,0.48384,0.05458,0.38795,0.91845,0.21726,0.33606,0.91521,-0.02823,0.42099,1.43279,0.28887,0.35597,1.44321,-0.0776,0.50404,1.15643,0.36948,0.4418,1.19021,-0.02734,0.60915,1.39481,0.28696,0.54802,1.41229
1895,0.12905,0.41476,1.52494,-0.00064,0.47633,0.08033,0.23321,0.16762,0.09909,0.03475,0.48744,0.49541,0.25303,0.32096,0.48438,0.05321,0.38926,0.91896,0.21598,0.33766,0.91564,-0.03095,0.42138,1.43325,0.28737,0.35781,1.44382,-0.08054,0.50607,1.15742,0.36687,0.44498,1.19093,-0.02977,0.61142,1.39559,0.28399,0.54977,1.41355
1896,0.1262,0.41651,1.52507,-0.00093,0.47654,0.0803,0.23488,0.16796,0.10084,0.03368,0.48669,0.49547,0.25405,0.32446,0.4849,0.05169,0.39052,0.91951,0.21454,0.33918,0.91601,-0.03362,0.42178,1.434,0.2858,0.36007,1.4447,-0.0836,0.50812,1.15877,0.36466,0.44771,1.19177,-0.03184,0.61402,1.39648,0.28099,0.55179,1.41443
1897,0.12319,0.41835,1.52497,-0.00113,0.47645,0.08025,0.23636,0.16841,0.1025,0.03278,0.48583,0.4955,0.25521,0.32796,0.48531,0.05,0.39152,0.91999,0.21298,0.34062,0.91623,-0.03619,0.42245,1.435,0.28381,0.36243,1.44553,-0.08632,0.51028,1.16026,0.36285,0.45017,1.1927,-0.03374,0.6167,1.39756,0.27813,0.55428,1.41494
1898,0.12024,0.42002,1.52494,-0.00117,0.47617,0.08014,0.2377,0.16905,0.10403,0.03209,0.48504,0.49545,0.25652,0.33133,0.48569,0.0482,0.39214,0.92029,0.21143,0.34208,0.91637,-0.03879,0.4234,1.43596,0.28127,0.3645,1.44608,-0.08861,0.51246,1.16156,0.36132,0.45253,1.19366,-0.0358,0.61929,1.39862,0.27526,0.55745,1.41501
1899,0.11732,0.42144,1.52511,-0.00103,0.47585,0.07995,0.23899,0.16983,0.10556,0.03133,0.4845,0.49533,0.25797,0.33451,0.48619,0.04641,0.39249,0.9204,0.21001,0.34362,0.9166,-0.04148,0.42435,1.43663,0.27834,0.36627,1.4464,-0.09073,0.51438,1.16244,0.35978,0.45495,1.19465,-0.0382,0.62169,1.39935,0.27221,0.56121,1.41476
1900,0.11434,0.42265,1.52544,-0.0008,0.47551,0.0797,0.24031,0.1705,0.1073,0.03014,0.48426,0.49519,0.25947,0.33767,0.48683,0.04472,0.39287,0.92041,0.2087,0.34527,0.91695,-0.04419,0.42512,1.437,0.27547,0.36794,1.44674,-0.0929,0.51597,1.16299,0.35791,0.4575,1.19564,-0.04083,0.62416,1.3996,0.26901,0.56522,1.4145
1901,0.11139,0.42371,1.52583,-0.00072,0.4751,0.07945,0.24175,0.17094,0.10935,0.02855,0.48419,0.49505,0.26093,0.34111,0.48754,0.0432,0.39358,0.92044,0.20749,0.347,0.91736,-0.04676,0.42582,1.43724,0.27315,0.36954,1.44728,-0.0952,0.51745,1.16344,0.35559,0.45998,1.19648,-0.0433,0.62716,1.39939,0.2659,0.56904,1.41436
1902,0.1087,0.42469,1.52627,-0.00101,0.47471,0.07927,0.24329,0.17136,0.11163,0.02691,0.48414,0.49496,0.26221,0.34503,0.48824,0.04191,0.39459,0.92056,0.20639,0.3487,0.91778,-0.0491,0.42657,1.43746,0.27153,0.37086,1.44784,-0.09759,0.51897,1.16393,0.35305,0.46221,1.19708,-0.04548,0.63075,1.39886,0.26307,0.57253,1.4142
1903,0.10646,0.4257,1.52673,-0.00168,0.47457,0.07918,0.24481,0.17208,0.11398,0.02558,0.48401,0.49491,0.26324,0.34931,0.48896,0.04083,0.3956,0.92074,0.20546,0.35025,0.91826,-0.0513,0.42731,1.43756,0.27015,0.37188,1.44818,-0.10001,0.52037,1.16429,0.35066,0.46421,1.19745,-0.0478,0.63428,1.39817,0.26063,0.57585,1.41387
1904,0.10461,0.42691,1.52699,-0.00249,0.4748,0.07913,0.24622,0.17322,0.11631,0.02456,0.48372,0.49489,0.26411,0.35365,0.48978,0.03981,0.3963,0.92093,0.20465,0.35166,0.91884,-0.05351,0.42794,1.43744,0.26854,0.37283,1.44827,-0.10244,0.52131,1.16431,0.34869,0.46596,1.19772,-0.05071,0.63714,1.39736,0.2585,0.57907,1.41332
1905,0.10281,0.42839,1.52692,-0.00314,0.47516,0.07906,0.24751,0.17464,0.11853,0.02371,0.4832,0.49485,0.26502,0.35788,0.49065,0.0387,0.39659,0.92106,0.20383,0.35306,0.91945,-0.05579,0.42856,1.43717,0.26668,0.37386,1.44828,-0.10486,0.52169,1.16399,0.34715,0.46732,1.19795,-0.05412,0.63928,1.39637,0.25653,0.58194,1.41257
1906,0.10071,0.42988,1.52665,-0.00345,0.47528,0.07899,0.24887,0.1761,0.12059,0.0229,0.48254,0.49482,0.26608,0.36193,0.49144,0.03743,0.3966,0.92119,0.20296,0.35457,0.91992,-0.05805,0.42928,1.43694,0.26484,0.37491,1.44835,-0.10721,0.52177,1.16356,0.34579,0.46823,1.19812,-0.05736,0.64108,1.39525,0.25464,0.58418,1.4118
1907,0.09822,0.43097,1.52655,-0.00345,0.47508,0.07898,0.25051,0.17735,0.12248,0.02206,0.48197,0.49487,0.26727,0.36575,0.49204,0.03614,0.39655,0.92135,0.20209,0.35623,0.92018,-0.06032,0.42995,1.43674,0.26313,0.37607,1.4485,-0.10939,0.52209,1.16322,0.34427,0.46887,1.19815,-0.0599,0.64289,1.39422,0.25275,0.58569,1.4112
1908,0.09554,0.43153,1.52682,-0.00334,0.47475,0.07898,0.25251,0.17824,0.12426,0.02119,0.48169,0.49493,0.26853,0.36938,0.49245,0.03498,0.39658,0.92148,0.20134,0.35797,0.92023,-0.06265,0.43033,1.43641,0.2616,0.37757,1.44873,-0.11137,0.52292,1.16298,0.34244,0.46947,1.19796,-0.0617,0.64482,1.39336,0.25083,0.58659,1.41079
1909,0.09295,0.43187,1.52732,-0.0032,0.47454,0.07888,0.25473,0.17886,0.12601,0.02034,0.48176,0.49489,0.26985,0.37288,0.49273,0.03404,0.39664,0.92145,0.20076,0.35963,0.92015,-0.06492,0.43044,1.43587,0.2602,0.3794,1.449,-0.11322,0.52404,1.16271,0.34051,0.47013,1.19762,-0.06318,0.64683,1.39253,0.24888,0.58711,1.41053
1910,0.09074,0.43234,1.52778,-0.00306,0.47451,0.07875,0.2569,0.17943,0.12773,0.01963,0.48201,0.49479,0.27108,0.3762,0.49302,0.03322,0.39665,0.92131,0.20024,0.36103,0.92009,-0.06684,0.43068,1.43529,0.25877,0.38116,1.44922,-0.11496,0.52505,1.16237,0.33878,0.47095,1.19741,-0.06456,0.64899,1.39149,0.24689,0.58752,1.41043
1911,0.08893,0.43302,1.52798,-0.00305,0.47454,0.07871,0.25877,0.18008,0.12939,0.0191,0.48224,0.49478,0.27196,0.37915,0.49347,0.03245,0.3966,0.92124,0.1997,0.36201,0.92023,-0.06834,0.43128,1.43492,0.25702,0.38251,1.44932,-0.11654,0.52585,1.16208,0.33729,0.47193,1.19746,-0.06555,0.65154,1.39011,0.24485,0.58806,1.41048
1912,0.08725,0.4338,1.52796,-0.00327,0.47454,0.0788,0.26039,0.18071,0.13096,0.01871,0.48229,0.49488,0.27249,0.38164,0.49406,0.03177,0.39656,0.92133,0.19915,0.36261,0.92055,-0.06963,0.43196,1.4347,0.25497,0.38359,1.44934,-0.11793,0.52662,1.16191,0.33585,0.47282,1.19761,-0.06582,0.6544,1.38853,0.24278,0.58872,1.41048
1913,0.08538,0.43466,1.52785,-0.00357,0.47456,0.0789,0.26198,0.1811,0.13247,0.01838,0.48213,0.49499,0.27298,0.38382,0.4946,0.03123,0.39664,0.92149,0.19868,0.36307,0.92085,-0.07088,0.43227,1.43439,0.25303,0.38473,1.44942,-0.11918,0.52726,1.16171,0.33442,0.47339,1.19765,-0.0657,0.65672,1.38706,0.24085,0.5892,1.41035
1914,0.08334,0.43564,1.52769,-0.00363,0.47467,0.07893,0.26378,0.18117,0.13397,0.01801,0.48189,0.49504,0.27361,0.38599,0.49495,0.0308,0.39681,0.92163,0.19835,0.36374,0.92095,-0.07204,0.43207,1.43385,0.25163,0.38599,1.44964,-0.1203,0.52733,1.16126,0.33314,0.47362,1.19755,-0.06606,0.65746,1.38603,0.23923,0.5891,1.41028
1915,0.08142,0.43659,1.52751,-0.00333,0.47489,0.0789,0.26582,0.181,0.13551,0.01755,0.48168,0.49505,0.27423,0.38822,0.49516,0.03039,0.39688,0.9217,0.19812,0.36473,0.92095,-0.07309,0.4315,1.43321,0.25078,0.38714,1.44999,-0.12118,0.52668,1.16056,0.332,0.4736,1.1974,-0.06737,0.65638,1.38569,0.23785,0.58829,1.41046
1916,0.07984,0.43722,1.52734,-0.00291,0.47513,0.07882,0.26799,0.18074,0.13705,0.01702,0.48143,0.49503,0.27455,0.3903,0.49538,0.02988,0.39668,0.92168,0.19787,0.3659,0.92101,-0.07417,0.43085,1.43265,0.2501,0.3881,1.4504,-0.12169,0.52577,1.15981,0.33084,0.47345,1.19729,-0.06938,0.65405,1.3861,0.23648,0.58704,1.41084
1917,0.07851,0.43751,1.52715,-0.0027,0.47527,0.07872,0.27015,0.18048,0.13846,0.0165,0.48103,0.49497,0.27454,0.39196,0.49569,0.02927,0.3963,0.92163,0.19753,0.36703,0.92123,-0.07538,0.43037,1.4321,0.24926,0.38901,1.45083,-0.12186,0.5252,1.15905,0.3296,0.47337,1.19725,-0.07159,0.65111,1.38713,0.23495,0.5859,1.41124
1918,0.0772,0.43781,1.52684,-0.00282,0.47524,0.07863,0.27218,0.18017,0.13966,0.01609,0.4806,0.4949,0.27438,0.39308,0.49606,0.02868,0.396,0.92159,0.19716,0.36801,0.92156,-0.07661,0.43014,1.43147,0.24824,0.39001,1.4512,-0.12184,0.52514,1.15827,0.32846,0.47361,1.19733,-0.07359,0.64797,1.38845,0.23339,0.58532,1.41156
1919,0.07593,0.43837,1.52642,-0.00317,0.4751,0.07862,0.27401,0.17954,0.14075,0.01591,0.48038,0.49489,0.27422,0.3938,0.49635,0.02828,0.39582,0.92159,0.19692,0.36883,0.92183,-0.07756,0.43001,1.43087,0.24728,0.39103,1.45146,-0.12181,0.52534,1.15762,0.32748,0.4743,1.19748,-0.07497,0.64497,1.38977,0.23211,0.58539,1.41189
1920,0.07497,0.4389,1.5261,-0.00351,0.47491,0.07877,0.27566,0.17838,0.14186,0.01583,0.48044,0.49502,0.2741,0.3944,0.49639,0.02802,0.39558,0.92167,0.1968,0.36945,0.92187,-0.07815,0.42967,1.43049,0.2466,0.39191,1.45164,-0.12188,0.52548,1.15733,0.3266,0.47533,1.19764,-0.07552,0.64232,1.39099,0.23117,0.58576,1.41237
1921,0.07446,0.43903,1.52601,-0.00369,0.47463,0.07901,0.27712,0.17685,0.14297,0.01562,0.48067,0.49526,0.27394,0.39496,0.49621,0.02776,0.39515,0.92178,0.19667,0.36987,0.92169,-0.07862,0.42893,1.43035,0.24617,0.39265,1.4518,-0.12204,0.52544,1.15738,0.32583,0.47634,1.19779,-0.07558,0.6399,1.39221,0.2304,0.5859,1.41297
1922,0.07423,0.43882,1.52605,-0.00367,0.4744,0.07927,0.27846,0.17521,0.14392,0.01518,0.48096,0.49552,0.27364,0.39514,0.49601,0.0275,0.39472,0.9219,0.19651,0.37018,0.92152,-0.07922,0.42794,1.43033,0.24576,0.39338,1.45201,-0.12221,0.52529,1.1576,0.32527,0.47715,1.19797,-0.07578,0.63747,1.39352,0.22961,0.58569,1.41356
1923,0.07394,0.43857,1.52605,-0.00348,0.47442,0.0795,0.27978,0.17359,0.14458,0.01479,0.48124,0.49577,0.27317,0.39472,0.49589,0.02731,0.39448,0.92203,0.19642,0.37056,0.92152,-0.07999,0.427,1.43038,0.24524,0.39405,1.45228,-0.12226,0.52514,1.15782,0.32488,0.47795,1.19834,-0.07641,0.63506,1.39491,0.22867,0.58565,1.41411
1924,0.07334,0.43831,1.52606,-0.00317,0.47474,0.0797,0.28103,0.17209,0.14495,0.01471,0.48132,0.49599,0.27261,0.39387,0.4958,0.02722,0.3944,0.92222,0.19641,0.37115,0.92161,-0.08091,0.42626,1.43053,0.24473,0.39437,1.45264,-0.12208,0.525,1.15801,0.32442,0.47907,1.19898,-0.07715,0.63278,1.39627,0.22748,0.58635,1.41462
1925,0.07239,0.43782,1.52618,-0.00286,0.47506,0.07984,0.28208,0.17075,0.14506,0.01489,0.48114,0.49615,0.27198,0.39288,0.49565,0.02721,0.39437,0.92242,0.1965,0.37185,0.92168,-0.08197,0.42556,1.43073,0.2444,0.39421,1.45307,-0.12164,0.52472,1.15814,0.32385,0.48041,1.19984,-0.0776,0.63046,1.39747,0.22617,0.58791,1.41504
1926,0.07128,0.43706,1.52638,-0.00273,0.47513,0.07985,0.28293,0.16952,0.14492,0.01508,0.48078,0.49616,0.27126,0.39171,0.49543,0.02732,0.39432,0.92249,0.19669,0.37241,0.9217,-0.083,0.42462,1.43081,0.24421,0.39385,1.45352,-0.12109,0.52405,1.1581,0.32353,0.48164,1.20079,-0.07782,0.6279,1.39841,0.2251,0.58991,1.41526
1927,0.07028,0.43617,1.52655,-0.0029,0.47499,0.07969,0.2837,0.16825,0.14456,0.01515,0.48041,0.496,0.27033,0.39025,0.49512,0.02758,0.39414,0.92236,0.19701,0.37269,0.92168,-0.08371,0.42329,1.43071,0.24408,0.3936,1.45396,-0.1206,0.52301,1.15794,0.3238,0.48256,1.20176,-0.07816,0.62535,1.39903,0.2245,0.59193,1.41527
1928,0.06966,0.43523,1.52663,-0.00331,0.47496,0.07943,0.28448,0.16693,0.14399,0.01517,0.48007,0.49572,0.2691,0.38853,0.49472,0.02794,0.39369,0.92205,0.19744,0.37273,0.92163,-0.08395,0.42176,1.43061,0.24415,0.39353,1.45435,-0.12015,0.52191,1.1579,0.32455,0.48336,1.20268,-0.0786,0.62343,1.3995,0.22419,0.59371,1.4152
1929,0.06951,0.43426,1.52666,-0.00373,0.47513,0.07926,0.2852,0.16566,0.14324,0.01519,0.47971,0.49554,0.26767,0.38667,0.49425,0.02835,0.39298,0.92178,0.19793,0.37272,0.92153,-0.0838,0.42029,1.43075,0.24472,0.39347,1.45465,-0.11958,0.52105,1.15821,0.3252,0.48439,1.20339,-0.07875,0.62241,1.39999,0.2237,0.5951,1.41517
1930,0.06967,0.43333,1.5266,-0.00401,0.47534,0.07931,0.28579,0.16446,0.14229,0.01519,0.47925,0.49558,0.26636,0.38465,0.49371,0.02875,0.39224,0.92176,0.19843,0.37284,0.92135,-0.08347,0.41888,1.4311,0.24583,0.39327,1.45479,-0.11892,0.52016,1.15871,0.32533,0.48587,1.20384,-0.07828,0.62192,1.40036,0.2226,0.5962,1.41522
1931,0.06994,0.4326,1.52644,-0.00406,0.47549,0.07955,0.28621,0.16337,0.14107,0.0152,0.47872,0.49583,0.26538,0.38233,0.49318,0.02914,0.39168,0.92199,0.19892,0.37315,0.92112,-0.08321,0.41723,1.43145,0.247,0.39292,1.45484,-0.11838,0.51863,1.15907,0.32504,0.48768,1.20424,-0.07748,0.62137,1.40026,0.22088,0.59746,1.41521
1932,0.07024,0.43209,1.52619,-0.00387,0.47571,0.07979,0.28641,0.16245,0.1395,0.01532,0.47816,0.49608,0.26469,0.37949,0.49275,0.02951,0.39132,0.92227,0.19936,0.37349,0.92092,-0.08298,0.41529,1.43164,0.24769,0.39257,1.45489,-0.11825,0.51607,1.15904,0.32484,0.48946,1.20483,-0.077,0.62041,1.39948,0.21892,0.59938,1.41485
1933,0.07056,0.43162,1.52588,-0.00353,0.47609,0.07988,0.28633,0.16167,0.13759,0.0156,0.47762,0.49617,0.26413,0.37607,0.49241,0.02981,0.39103,0.92241,0.1997,0.37356,0.92075,-0.08253,0.41343,1.43161,0.24783,0.39244,1.45501,-0.11857,0.51289,1.15863,0.32517,0.49084,1.20559,-0.07734,0.61913,1.39824,0.21716,0.60172,1.41404
1934,0.07085,0.43101,1.52545,-0.00317,0.47642,0.07983,0.28598,0.16095,0.13548,0.01599,0.47715,0.49612,0.26357,0.37241,0.49204,0.03007,0.39069,0.92239,0.19996,0.37327,0.92051,-0.08165,0.4119,1.4314,0.24778,0.3925,1.45514,-0.11907,0.5099,1.15808,0.32604,0.49162,1.2063,-0.07833,0.6179,1.39699,0.21593,0.60351,1.41309
1935,0.07115,0.43018,1.52484,-0.00292,0.47645,0.07975,0.28534,0.16017,0.13344,0.01633,0.47682,0.49603,0.2629,0.36907,0.49152,0.03042,0.39022,0.92228,0.2003,0.37279,0.92012,-0.08046,0.41048,1.43104,0.24793,0.39252,1.45515,-0.11936,0.50759,1.15761,0.32711,0.49181,1.20667,-0.07931,0.61705,1.39596,0.21537,0.6041,1.41238
1936,0.07157,0.42913,1.52416,-0.00287,0.47616,0.0797,0.28449,0.15923,0.13169,0.01648,0.47662,0.49598,0.26199,0.36628,0.49083,0.031,0.38964,0.92214,0.20089,0.3723,0.91962,-0.07922,0.40876,1.43052,0.24839,0.39227,1.45492,-0.11932,0.50567,1.15719,0.328,0.49161,1.20659,-0.0798,0.6166,1.39495,0.21542,0.60374,1.41192
1937,0.07216,0.42782,1.52359,-0.00299,0.47574,0.07971,0.2835,0.15798,0.1302,0.01645,0.47653,0.49599,0.26086,0.36372,0.49009,0.03187,0.38904,0.922,0.20175,0.37174,0.91913,-0.07822,0.40654,1.42993,0.24919,0.39175,1.45451,-0.11907,0.50371,1.1568,0.32858,0.4912,1.20616,-0.07973,0.61646,1.39374,0.21587,0.60311,1.41153
1938,0.0728,0.42628,1.52321,-0.00316,0.47539,0.07974,0.28232,0.15638,0.12879,0.0164,0.47653,0.49602,0.25971,0.36081,0.48943,0.03289,0.3884,0.92186,0.20276,0.37094,0.91871,-0.07752,0.40381,1.42943,0.25038,0.39107,1.45413,-0.11875,0.50169,1.15662,0.32893,0.49069,1.20558,-0.07925,0.6167,1.39244,0.21638,0.60253,1.4111
1939,0.07337,0.42466,1.52292,-0.00328,0.47519,0.07977,0.28086,0.15449,0.12729,0.01652,0.47655,0.49603,0.2587,0.3572,0.48891,0.03382,0.38759,0.92167,0.20365,0.36991,0.91838,-0.07686,0.40069,1.42913,0.25188,0.39025,1.45383,-0.11841,0.49968,1.15677,0.32928,0.49026,1.20508,-0.07852,0.61724,1.39127,0.21658,0.60182,1.41066
1940,0.0741,0.42326,1.52248,-0.00342,0.47513,0.07975,0.27912,0.15255,0.1256,0.01684,0.47655,0.49599,0.25786,0.35297,0.48855,0.03454,0.38652,0.92139,0.20437,0.36879,0.91812,-0.07578,0.39757,1.42899,0.2534,0.38929,1.45347,-0.11803,0.49733,1.15701,0.32991,0.49005,1.20474,-0.07769,0.61769,1.39001,0.21632,0.60061,1.41036
1941,0.0753,0.42227,1.52181,-0.00364,0.47513,0.07972,0.27734,0.15079,0.12377,0.01734,0.4766,0.49593,0.25714,0.34848,0.48828,0.03522,0.38529,0.92104,0.20507,0.36778,0.91787,-0.07404,0.39488,1.42884,0.25469,0.38823,1.45292,-0.11762,0.49416,1.1569,0.33086,0.49004,1.20452,-0.0769,0.61774,1.38814,0.21581,0.59875,1.41033
1942,0.07686,0.42158,1.52099,-0.00383,0.47512,0.07977,0.27578,0.14926,0.12186,0.01802,0.47683,0.49593,0.25649,0.34412,0.48794,0.03605,0.38406,0.92072,0.20595,0.36697,0.91755,-0.07189,0.39269,1.42859,0.25593,0.38709,1.45226,-0.11716,0.49013,1.15626,0.33192,0.49008,1.20428,-0.07629,0.61729,1.38552,0.21547,0.59643,1.41054
1943,0.0784,0.42082,1.52016,-0.00382,0.475,0.0799,0.27444,0.14775,0.11993,0.01889,0.4772,0.49601,0.25591,0.33997,0.48745,0.03708,0.38291,0.92046,0.20702,0.36622,0.91705,-0.06982,0.39065,1.42827,0.2575,0.38579,1.45158,-0.11647,0.48577,1.15535,0.33295,0.49003,1.20397,-0.07582,0.61639,1.38269,0.21548,0.59404,1.41083
1944,0.07984,0.41972,1.51938,-0.00355,0.47482,0.08004,0.27315,0.14604,0.11799,0.01988,0.47754,0.4961,0.25538,0.33587,0.48678,0.03825,0.38188,0.92024,0.20818,0.36525,0.91637,-0.06806,0.38855,1.42793,0.25944,0.3843,1.45093,-0.11534,0.48184,1.15449,0.33404,0.4898,1.20359,-0.07511,0.61515,1.38034,0.21578,0.59182,1.411
1945,0.08139,0.41823,1.51874,-0.00315,0.47472,0.08008,0.27166,0.14419,0.11599,0.02084,0.4777,0.49611,0.25489,0.33167,0.48603,0.0395,0.38103,0.92,0.20937,0.36394,0.91559,-0.06648,0.38652,1.42753,0.2615,0.38279,1.45029,-0.11381,0.47866,1.1537,0.33528,0.48932,1.20315,-0.07379,0.61367,1.37859,0.21625,0.58967,1.41092
1946,0.08311,0.41647,1.51831,-0.00277,0.47482,0.08002,0.26995,0.1425,0.11395,0.02166,0.47771,0.49603,0.25442,0.32743,0.48532,0.04083,0.38033,0.91974,0.21062,0.36252,0.91484,-0.06497,0.3847,1.42697,0.26342,0.3815,1.44971,-0.11225,0.47596,1.15284,0.33668,0.48856,1.20264,-0.0719,0.61202,1.37703,0.21687,0.58739,1.4107
1947,0.0849,0.41458,1.51809,-0.00257,0.47508,0.07992,0.26817,0.14124,0.11192,0.02235,0.47769,0.4959,0.25402,0.32328,0.48477,0.04227,0.37971,0.91944,0.21197,0.36124,0.91422,-0.06356,0.38294,1.42624,0.26517,0.38044,1.44916,-0.11097,0.47331,1.15184,0.33828,0.48756,1.20207,-0.06987,0.61031,1.37531,0.21783,0.58462,1.41059
1948,0.08673,0.41265,1.5179,-0.00263,0.4754,0.07983,0.26649,0.14031,0.11004,0.02304,0.4778,0.49577,0.25385,0.31931,0.48441,0.0438,0.37905,0.91909,0.21345,0.36012,0.91376,-0.06225,0.38083,1.42538,0.26688,0.37941,1.44858,-0.10985,0.47055,1.1508,0.3401,0.48628,1.20142,-0.06816,0.60856,1.37354,0.21943,0.58109,1.41085
1949,0.08867,0.41069,1.51757,-0.00286,0.47564,0.07981,0.26496,0.13948,0.10836,0.02385,0.47808,0.49568,0.25389,0.31554,0.48418,0.04541,0.37833,0.91872,0.21502,0.35902,0.9134,-0.0609,0.37814,1.4245,0.26867,0.37822,1.44791,-0.1085,0.46778,1.14989,0.34193,0.48481,1.20064,-0.06682,0.60654,1.37218,0.22163,0.57698,1.41145
1950,0.09071,0.40865,1.51713,-0.00305,0.47575,0.07988,0.26356,0.1386,0.10685,0.02482,0.47856,0.49567,0.25383,0.31192,0.48398,0.04702,0.37757,0.91839,0.21658,0.35784,0.91309,-0.05932,0.37515,1.42381,0.27057,0.37681,1.44722,-0.10664,0.46508,1.14925,0.34348,0.48337,1.19983,-0.06545,0.60393,1.37157,0.22393,0.57303,1.41215
1951,0.09279,0.40658,1.51668,-0.00307,0.47578,0.08002,0.26227,0.13772,0.10542,0.02586,0.4792,0.49574,0.25333,0.30841,0.48376,0.04863,0.37676,0.91807,0.21813,0.35647,0.91281,-0.0575,0.3724,1.42344,0.27261,0.37521,1.44667,-0.10437,0.46245,1.14885,0.34476,0.48201,1.19916,-0.06369,0.60074,1.3716,0.2259,0.56978,1.41265
1952,0.09487,0.40455,1.51625,-0.00296,0.47579,0.08014,0.26115,0.13691,0.10398,0.02689,0.47989,0.49578,0.2525,0.30487,0.48355,0.05031,0.3758,0.91768,0.21973,0.35486,0.91258,-0.05559,0.37015,1.42334,0.27478,0.37337,1.44634,-0.10207,0.45978,1.14854,0.34614,0.48045,1.19873,-0.06146,0.59743,1.37171,0.22756,0.5671,1.41283
1953,0.09695,0.40251,1.51584,-0.00277,0.47595,0.08011,0.26027,0.13617,0.10254,0.02794,0.48048,0.49568,0.25188,0.3012,0.4834,0.05209,0.37465,0.91711,0.22144,0.35306,0.91237,-0.05371,0.36831,1.42338,0.27698,0.37113,1.44621,-0.10005,0.45707,1.14828,0.34787,0.47848,1.19858,-0.05855,0.59458,1.37137,0.22911,0.56467,1.41277
1954,0.09903,0.40036,1.51552,-0.00258,0.47633,0.07995,0.2597,0.13537,0.10108,0.02914,0.48087,0.49545,0.25192,0.29742,0.48323,0.05383,0.37331,0.9164,0.22312,0.35112,0.91209,-0.05186,0.3667,1.4235,0.27902,0.36845,1.44617,-0.0983,0.45444,1.14808,0.34979,0.47623,1.19869,-0.05478,0.59226,1.37059,0.23066,0.56259,1.41261
1955,0.10115,0.39818,1.51524,-0.00248,0.47677,0.07988,0.25936,0.13437,0.09958,0.03045,0.48109,0.49528,0.25251,0.29354,0.48295,0.05536,0.37183,0.91579,0.22458,0.34913,0.91163,-0.05009,0.36525,1.42359,0.28086,0.36554,1.44609,-0.09654,0.45179,1.1478,0.35168,0.47395,1.1989,-0.05074,0.58957,1.36988,0.23232,0.56102,1.4124
1956,0.10331,0.39619,1.51483,-0.00253,0.47706,0.08003,0.25903,0.13317,0.098,0.03174,0.48122,0.49533,0.2532,0.28952,0.48254,0.05664,0.37029,0.9154,0.2258,0.34718,0.91098,-0.0484,0.36392,1.42346,0.28265,0.36271,1.44588,-0.09462,0.44885,1.14712,0.35349,0.47164,1.19892,-0.04774,0.58535,1.36977,0.23434,0.55968,1.41215
1957,0.10533,0.39444,1.51418,-0.00263,0.47716,0.08033,0.25857,0.13201,0.09637,0.03287,0.48131,0.49553,0.25371,0.28536,0.48215,0.05786,0.36885,0.91518,0.22694,0.34526,0.91032,-0.0467,0.36258,1.42297,0.28448,0.36008,1.4456,-0.09247,0.44578,1.14604,0.35524,0.4693,1.19875,-0.04643,0.57986,1.37032,0.23661,0.55812,1.41193
1958,0.10706,0.39269,1.51335,-0.00265,0.47722,0.08054,0.25807,0.13111,0.09482,0.03383,0.48141,0.49566,0.25413,0.2812,0.48188,0.05924,0.36762,0.91493,0.22821,0.34328,0.9098,-0.04498,0.36101,1.42235,0.28623,0.35759,1.44553,-0.09007,0.44317,1.145,0.35692,0.46695,1.19872,-0.04581,0.57468,1.37115,0.23863,0.55656,1.41177
1959,0.10872,0.3906,1.51255,-0.00254,0.47731,0.08055,0.25784,0.13041,0.09346,0.03475,0.48155,0.49559,0.25476,0.2773,0.48175,0.06083,0.3665,0.91448,0.22965,0.34111,0.90946,-0.04336,0.35918,1.42207,0.28782,0.35502,1.44579,-0.08751,0.44138,1.14458,0.35858,0.46465,1.19912,-0.0442,0.57118,1.3719,0.24004,0.55559,1.41146
1960,0.11073,0.38798,1.51196,-0.00235,0.47736,0.08042,0.25804,0.12973,0.09225,0.03582,0.48167,0.49538,0.25579,0.27378,0.48161,0.06252,0.36529,0.91386,0.23116,0.33871,0.90918,-0.04187,0.35715,1.42236,0.2895,0.35209,1.4461,-0.08504,0.44016,1.14495,0.36036,0.46241,1.19977,-0.04094,0.56929,1.37251,0.24108,0.5553,1.41085
1961,0.1133,0.38493,1.51163,-0.0021,0.47733,0.0803,0.25848,0.12903,0.09109,0.03707,0.48162,0.49517,0.257,0.27058,0.48137,0.06417,0.36386,0.91323,0.23263,0.33612,0.90886,-0.04025,0.35503,1.42287,0.29151,0.34881,1.44606,-0.08275,0.43901,1.14565,0.36234,0.46015,1.20018,-0.03692,0.56767,1.37314,0.2424,0.55489,1.41006
1962,0.11611,0.38188,1.5114,-0.00177,0.47732,0.08027,0.25879,0.12835,0.08992,0.03834,0.48135,0.49504,0.25804,0.26758,0.48104,0.0658,0.36228,0.91272,0.23408,0.33347,0.90849,-0.03831,0.35299,1.42305,0.29374,0.34543,1.44554,-0.08064,0.43756,1.14598,0.36448,0.45775,1.20007,-0.03357,0.56487,1.37396,0.24438,0.55356,1.40937
1963,0.11867,0.37923,1.51108,-0.00141,0.47742,0.08027,0.25879,0.12764,0.08882,0.03951,0.48104,0.49498,0.25879,0.26467,0.48071,0.06748,0.36068,0.91224,0.2356,0.33089,0.90816,-0.03615,0.35116,1.42265,0.29581,0.34223,1.44475,-0.0787,0.43571,1.14562,0.36675,0.45514,1.19962,-0.03166,0.56061,1.37494,0.24689,0.55141,1.40884
1964,0.12078,0.37695,1.51067,-0.00111,0.47759,0.08026,0.25865,0.12682,0.08779,0.04057,0.48091,0.49489,0.25945,0.26169,0.48043,0.06924,0.35904,0.91167,0.23723,0.32846,0.90784,-0.03397,0.3494,1.42191,0.29758,0.33934,1.44399,-0.07684,0.43358,1.14481,0.36915,0.45242,1.19912,-0.03083,0.55582,1.37577,0.24959,0.54916,1.4083
1965,0.12271,0.37458,1.51028,-0.00088,0.47774,0.08026,0.25861,0.12596,0.08676,0.04157,0.4811,0.49482,0.26018,0.25849,0.48019,0.07104,0.35721,0.91095,0.23894,0.32616,0.90752,-0.03185,0.34742,1.42113,0.29935,0.33675,1.4433,-0.07488,0.43135,1.14398,0.37161,0.44981,1.19862,-0.03022,0.55154,1.37628,0.25228,0.54722,1.40763
1966,0.12485,0.37182,1.50997,-0.0006,0.47784,0.08037,0.25869,0.12519,0.08565,0.04248,0.48164,0.49486,0.26094,0.25505,0.47997,0.07278,0.35507,0.91012,0.24065,0.32378,0.90717,-0.02976,0.34507,1.42054,0.30142,0.33428,1.44258,-0.07266,0.42919,1.14342,0.37397,0.44738,1.198,-0.02914,0.54805,1.37662,0.25505,0.54526,1.40702
1967,0.12737,0.3688,1.50962,-0.00024,0.47793,0.08069,0.2588,0.1246,0.0845,0.04331,0.48248,0.49512,0.2617,0.2517,0.47972,0.07445,0.35267,0.90932,0.2423,0.32122,0.90683,-0.02765,0.34258,1.42018,0.3038,0.33164,1.44182,-0.07028,0.42725,1.1432,0.37617,0.44496,1.19729,-0.02731,0.54512,1.37699,0.25794,0.54277,1.40673
1968,0.12996,0.36584,1.50911,0.00013,0.47804,0.08124,0.25894,0.12416,0.08343,0.04425,0.48335,0.4956,0.26264,0.24877,0.47943,0.07614,0.35013,0.90866,0.24397,0.31855,0.90653,-0.02536,0.3403,1.41997,0.30625,0.32863,1.44113,-0.06801,0.42552,1.14315,0.37835,0.44232,1.1967,-0.02487,0.54256,1.37733,0.26072,0.53967,1.40668
1969,0.13222,0.36313,1.50838,0.00047,0.4782,0.08195,0.25922,0.1237,0.08246,0.04543,0.48396,0.49621,0.26391,0.24628,0.47908,0.07793,0.34754,0.90817,0.24574,0.31584,0.90624,-0.02281,0.33845,1.41977,0.30854,0.32524,1.44048,-0.06594,0.42375,1.14305,0.38075,0.43933,1.19626,-0.02221,0.54026,1.37739,0.26315,0.53629,1.40646
1970,0.13408,0.36066,1.50756,0.00087,0.47837,0.08273,0.25958,0.12306,0.08159,0.0468,0.48429,0.49688,0.26546,0.24402,0.4787,0.07982,0.34489,0.9078,0.2476,0.31307,0.90595,-0.02025,0.33688,1.41957,0.31054,0.32164,1.43967,-0.06401,0.42164,1.14278,0.38336,0.43597,1.19575,-0.01961,0.53808,1.37703,0.26544,0.53269,1.40588
1971,0.1359,0.35831,1.50691,0.00138,0.47851,0.08358,0.25995,0.12225,0.08084,0.04819,0.48464,0.49763,0.26701,0.2419,0.47832,0.08174,0.34208,0.90742,0.24951,0.31016,0.90571,-0.01807,0.33521,1.41942,0.31225,0.31812,1.43865,-0.06228,0.41916,1.14246,0.38603,0.43227,1.19494,-0.01715,0.53601,1.37636,0.26812,0.5286,1.40524
1972,0.1381,0.35592,1.50665,0.00198,0.4786,0.08453,0.2603,0.12136,0.08028,0.04947,0.48519,0.4985,0.26833,0.23987,0.47808,0.08361,0.33902,0.90697,0.25138,0.30713,0.90566,-0.01628,0.33303,1.41936,0.31388,0.31489,1.43765,-0.06084,0.41659,1.14234,0.38859,0.4284,1.19391,-0.01458,0.53443,1.37553,0.27133,0.52401,1.4049
1973,0.14068,0.35336,1.50679,0.00253,0.47871,0.08562,0.26065,0.12051,0.07997,0.05058,0.48592,0.49951,0.26944,0.23787,0.4781,0.08534,0.33582,0.90651,0.25315,0.30407,0.90587,-0.01454,0.33022,1.41945,0.31576,0.31196,1.43703,-0.05955,0.41421,1.14263,0.39095,0.42463,1.19305,-0.01139,0.5338,1.37454,0.27455,0.51939,1.4049
1974,0.14334,0.35063,1.50715,0.00303,0.47906,0.08685,0.26095,0.11976,0.07986,0.05152,0.48675,0.50068,0.27054,0.2359,0.47832,0.08691,0.33268,0.90613,0.25475,0.30109,0.90627,-0.01266,0.32715,1.41981,0.31802,0.3092,1.43697,-0.05817,0.41206,1.14336,0.39307,0.42118,1.19263,-0.0074,0.53409,1.37343,0.27722,0.51513,1.40514
1975,0.14572,0.34777,1.50759,0.00354,0.47984,0.0882,0.26118,0.11917,0.07977,0.05233,0.48768,0.50199,0.27169,0.23412,0.47856,0.08835,0.32975,0.9059,0.25619,0.29819,0.90669,-0.01072,0.32434,1.4205,0.32043,0.30644,1.43737,-0.0566,0.41007,1.14436,0.39501,0.41802,1.1927,-0.00321,0.5347,1.37244,0.27929,0.5113,1.40558
1976,0.1478,0.34491,1.50801,0.00406,0.48108,0.08963,0.26138,0.11878,0.07966,0.0531,0.48872,0.5034,0.27276,0.23256,0.47877,0.0898,0.32694,0.90572,0.25762,0.29531,0.9071,-0.00884,0.32196,1.42134,0.32274,0.30374,1.43801,-0.05485,0.4082,1.14538,0.39676,0.41509,1.19308,0.00031,0.53484,1.37192,0.28107,0.50794,1.40616
1977,0.14987,0.34226,1.50837,0.00453,0.48258,0.09115,0.26164,0.11849,0.07963,0.05386,0.48986,0.50489,0.27364,0.23104,0.47907,0.0914,0.3241,0.90551,0.25922,0.2925,0.90761,-0.00703,0.31981,1.42206,0.32501,0.30127,1.43868,-0.05288,0.40627,1.14614,0.39835,0.4124,1.19344,0.00275,0.53387,1.37202,0.28302,0.50498,1.40684
1978,0.15215,0.33992,1.50864,0.0049,0.48407,0.09281,0.26193,0.11825,0.07981,0.05455,0.491,0.50652,0.27446,0.22946,0.4796,0.09308,0.32123,0.90536,0.26094,0.28989,0.90832,-0.00528,0.31756,1.42255,0.32733,0.29912,1.43912,-0.05078,0.40404,1.14658,0.39982,0.40987,1.19345,0.00433,0.53176,1.37253,0.28562,0.50181,1.40774
1979,0.15455,0.33774,1.5089,0.00519,0.48535,0.09462,0.26213,0.11808,0.08018,0.05514,0.49192,0.50829,0.27527,0.22794,0.48032,0.09461,0.31855,0.90549,0.26252,0.28755,0.90918,-0.00353,0.3151,1.42298,0.32953,0.29711,1.43918,-0.04869,0.40145,1.14691,0.40126,0.40724,1.19302,0.00564,0.5292,1.37303,0.28909,0.4977,1.40899
1980,0.15683,0.33547,1.50924,0.00548,0.48646,0.09652,0.26212,0.11801,0.08056,0.05573,0.49255,0.51017,0.27597,0.22665,0.48101,0.09584,0.31626,0.90601,0.26376,0.28536,0.91001,-0.00173,0.3127,1.42353,0.33141,0.29505,1.43904,-0.04674,0.39884,1.14738,0.40272,0.40436,1.19238,0.00723,0.52696,1.37337,0.29294,0.4929,1.41038
1981,0.1589,0.33302,1.50972,0.0058,0.48755,0.09849,0.26199,0.11799,0.08085,0.05635,0.49314,0.51211,0.27644,0.22559,0.48156,0.09691,0.31435,0.90679,0.26478,0.28318,0.91073,0.00012,0.31062,1.42412,0.333,0.29294,1.439,-0.0451,0.39643,1.1479,0.4042,0.40125,1.19188,0.00912,0.52487,1.37365,0.29634,0.48851,1.41133
1982,0.16085,0.33055,1.51025,0.00617,0.48872,0.1005,0.26195,0.11795,0.08102,0.057,0.494,0.51409,0.27681,0.22455,0.48198,0.09796,0.31251,0.90749,0.26575,0.28087,0.91133,0.00196,0.30877,1.42451,0.33451,0.29075,1.43914,-0.04401,0.39405,1.14824,0.40573,0.39803,1.19157,0.01083,0.52217,1.37403,0.29889,0.48527,1.41153
1983,0.16278,0.32838,1.51066,0.00659,0.48995,0.10246,0.26205,0.11788,0.08101,0.05766,0.49521,0.51602,0.27731,0.22329,0.48228,0.09901,0.31035,0.90782,0.26672,0.27834,0.9118,0.00381,0.30695,1.42475,0.33595,0.28843,1.4393,-0.04344,0.39146,1.14847,0.40729,0.39487,1.1914,0.01204,0.5188,1.37454,0.30081,0.48303,1.41117
1984,0.16481,0.32671,1.51091,0.00696,0.49121,0.10434,0.2622,0.11785,0.08083,0.05827,0.49655,0.51787,0.27792,0.2218,0.48246,0.1,0.30786,0.90779,0.26767,0.27564,0.91214,0.00575,0.30526,1.42523,0.33724,0.28603,1.43942,-0.0429,0.38877,1.14888,0.40884,0.39198,1.19139,0.01289,0.51546,1.37523,0.30243,0.48134,1.41071
1985,0.16693,0.32539,1.51112,0.0071,0.49241,0.10619,0.26234,0.1178,0.08057,0.05869,0.49775,0.51969,0.2784,0.22033,0.48255,0.10097,0.30538,0.90774,0.26858,0.27291,0.9124,0.00756,0.30391,1.42613,0.33841,0.28368,1.43957,-0.04198,0.38627,1.1496,0.41035,0.38941,1.19154,0.01369,0.51266,1.37615,0.30399,0.47984,1.41044
1986,0.16903,0.32402,1.51143,0.00695,0.49348,0.10809,0.2624,0.11762,0.08038,0.05889,0.49866,0.52154,0.27868,0.21899,0.48265,0.10196,0.30314,0.90793,0.2695,0.27033,0.91267,0.00893,0.30273,1.42726,0.33962,0.28151,1.4397,-0.04076,0.38416,1.15048,0.41185,0.3871,1.1917,0.01473,0.51024,1.37725,0.30574,0.47825,1.41043
1987,0.17095,0.32226,1.51189,0.00666,0.49446,0.11002,0.2623,0.11733,0.08031,0.05903,0.49926,0.52342,0.2789,0.21751,0.48286,0.10292,0.30112,0.90838,0.27039,0.26794,0.913,0.00986,0.30128,1.42833,0.34092,0.27948,1.43987,-0.03953,0.3826,1.15146,0.41325,0.38515,1.19193,0.01632,0.5079,1.37857,0.30755,0.47678,1.41065
1988,0.17264,0.32016,1.51245,0.00647,0.49542,0.11188,0.26207,0.11717,0.08028,0.05925,0.4997,0.52524,0.27921,0.21566,0.48323,0.10378,0.29928,0.90894,0.2712,0.26579,0.91341,0.01075,0.29944,1.42927,0.34223,0.27741,1.44024,-0.03838,0.38161,1.15261,0.41442,0.3837,1.19253,0.01847,0.50547,1.38026,0.30898,0.47621,1.41102
1989,0.17407,0.31809,1.51301,0.0064,0.49626,0.11353,0.26189,0.11716,0.08028,0.05953,0.50008,0.52685,0.27959,0.21362,0.48369,0.10455,0.29764,0.90943,0.27193,0.26397,0.91386,0.01187,0.29746,1.4301,0.34347,0.27523,1.44079,-0.03725,0.38089,1.15381,0.41551,0.3824,1.19341,0.02068,0.50277,1.38226,0.31007,0.47656,1.41119
1990,0.17523,0.31633,1.51341,0.00637,0.49683,0.11496,0.26191,0.11711,0.08034,0.05986,0.50043,0.52823,0.28,0.21184,0.48414,0.10533,0.29621,0.90981,0.27269,0.26246,0.91428,0.01319,0.2956,1.43081,0.34459,0.27305,1.44113,-0.03611,0.37995,1.15483,0.41682,0.38061,1.19397,0.02241,0.49985,1.38418,0.31141,0.47691,1.41083
1991,0.17622,0.31484,1.51361,0.00633,0.49708,0.11619,0.26205,0.11696,0.08048,0.06023,0.50069,0.5294,0.28046,0.21053,0.48454,0.10621,0.29495,0.91011,0.27354,0.26109,0.91469,0.01456,0.29388,1.43145,0.34558,0.27101,1.44105,-0.03511,0.3786,1.15565,0.41834,0.37837,1.19396,0.02355,0.49687,1.38581,0.31315,0.47662,1.41005
1992,0.17723,0.31331,1.51377,0.0062,0.49707,0.11723,0.26208,0.11686,0.08064,0.06053,0.50077,0.53039,0.28101,0.20953,0.48488,0.10711,0.29382,0.91037,0.27438,0.25969,0.91509,0.01589,0.29224,1.43199,0.34656,0.26917,1.4408,-0.0344,0.37727,1.1564,0.41962,0.37636,1.19373,0.02445,0.49378,1.3874,0.31479,0.47591,1.40939
1993,0.17837,0.31159,1.51398,0.00581,0.49674,0.11809,0.26193,0.11687,0.08074,0.06062,0.50054,0.53119,0.28157,0.2086,0.48516,0.10783,0.29279,0.91065,0.27502,0.25827,0.91543,0.01709,0.29074,1.43227,0.34765,0.26756,1.44064,-0.03395,0.3765,1.15705,0.42039,0.37494,1.19356,0.02546,0.49043,1.38919,0.31607,0.47505,1.40921
1994,0.17962,0.3098,1.51423,0.00508,0.49603,0.11881,0.26172,0.11679,0.08077,0.06057,0.5,0.53181,0.28203,0.20763,0.48535,0.10831,0.29176,0.91094,0.27543,0.25691,0.91566,0.01804,0.28946,1.43226,0.34886,0.26606,1.44049,-0.03344,0.37642,1.15749,0.42092,0.37379,1.19335,0.02671,0.487,1.39106,0.31739,0.47382,1.40942
1995,0.18086,0.30817,1.51445,0.00418,0.49503,0.11944,0.26159,0.11642,0.08075,0.06057,0.49928,0.53232,0.2824,0.20668,0.48544,0.10867,0.29075,0.91125,0.27575,0.25565,0.91578,0.01873,0.28841,1.43228,0.35019,0.26443,1.44016,-0.03268,0.3766,1.15789,0.42161,0.37245,1.19298,0.02817,0.48399,1.39276,0.31905,0.47205,1.4097
1996,0.18194,0.30685,1.51462,0.00348,0.49404,0.11999,0.26156,0.1158,0.08068,0.06083,0.49854,0.53274,0.28275,0.20591,0.48539,0.10903,0.2899,0.91159,0.27607,0.25458,0.91577,0.01932,0.28756,1.4327,0.35155,0.26252,1.43971,-0.03186,0.37647,1.1585,0.42254,0.3709,1.19256,0.0297,0.48165,1.39419,0.32084,0.47,1.40992
1997,0.1829,0.30584,1.51474,0.00311,0.49325,0.12044,0.26155,0.11511,0.08058,0.06131,0.4979,0.53306,0.28307,0.20544,0.48523,0.10932,0.28924,0.91192,0.27634,0.2538,0.91563,0.02005,0.28674,1.43345,0.35278,0.26054,1.43931,-0.03138,0.37577,1.15934,0.42347,0.36939,1.19227,0.03107,0.47973,1.39533,0.32243,0.46795,1.41018
1998,0.18396,0.3049,1.51486,0.00283,0.49261,0.12078,0.26154,0.1146,0.08049,0.06186,0.49745,0.53328,0.28323,0.20516,0.48507,0.10947,0.28868,0.91214,0.27652,0.25329,0.91551,0.02103,0.28577,1.43413,0.35379,0.25889,1.43904,-0.0314,0.37465,1.16015,0.42426,0.3681,1.1921,0.03205,0.47795,1.39617,0.32374,0.46586,1.41061
1999,0.18528,0.30373,1.51506,0.00232,0.49187,0.1211,0.26156,0.11446,0.08048,0.06233,0.49719,0.53345,0.2832,0.20492,0.48508,0.10959,0.28814,0.9122,0.27667,0.2529,0.91554,0.02215,0.28472,1.43438,0.35466,0.25774,1.43885,-0.03174,0.37358,1.16068,0.42483,0.36715,1.19191,0.03283,0.47639,1.3966,0.32481,0.46363,1.41122
2000,0.18657,0.30225,1.51532,0.00153,0.49085,0.12132,0.26167,0.11458,0.08057,0.06268,0.49694,0.5335,0.28315,0.20466,0.48527,0.10982,0.28769,0.91215,0.27689,0.25247,0.91575,0.02318,0.28403,1.43423,0.35538,0.2568,1.43857,-0.03214,0.373,1.16086,0.42516,0.3666,1.1917,0.03392,0.4754,1.39655,0.32569,0.46139,1.412
2001,0.18739,0.30071,1.51555,0.00075,0.48947,0.12124,0.26188,0.11463,0.08073,0.06291,0.49638,0.53326,0.2832,0.20438,0.48551,0.11019,0.28742,0.91205,0.2772,0.25193,0.91602,0.024,0.28402,1.43405,0.35594,0.25557,1.43806,-0.03251,0.37292,1.1609,0.42524,0.36635,1.19149,0.03566,0.47535,1.39597,0.32631,0.45925,1.41283
2002,0.18764,0.29951,1.51567,0.00015,0.48783,0.12075,0.26213,0.11445,0.08084,0.06305,0.49535,0.53264,0.2833,0.20406,0.48567,0.11058,0.28732,0.91191,0.27749,0.25138,0.9162,0.02464,0.28447,1.43424,0.35646,0.25389,1.43738,-0.03277,0.37306,1.16117,0.42513,0.3661,1.19128,0.03786,0.47655,1.39506,0.32669,0.45722,1.41358
2003,0.18765,0.29892,1.51566,-0.00033,0.48609,0.11995,0.26233,0.11427,0.08085,0.0631,0.49392,0.53175,0.28336,0.20371,0.48571,0.11087,0.28731,0.91176,0.27768,0.25092,0.91626,0.02509,0.28476,1.43498,0.35704,0.25228,1.43685,-0.03272,0.3734,1.16202,0.42492,0.36559,1.19103,0.04016,0.4791,1.39422,0.32697,0.4552,1.41416
2004,0.18781,0.29881,1.51557,-0.00079,0.4844,0.11896,0.26245,0.1143,0.08074,0.06306,0.49231,0.5307,0.28339,0.20343,0.48568,0.11104,0.28733,0.91157,0.27775,0.25054,0.91624,0.02534,0.28449,1.43608,0.35759,0.25136,1.43668,-0.03232,0.37427,1.16346,0.42463,0.36491,1.19074,0.04244,0.4828,1.39374,0.32723,0.45323,1.41462
2005,0.1882,0.29872,1.5155,-0.0012,0.48286,0.11783,0.26247,0.11446,0.08056,0.06294,0.49077,0.52952,0.28343,0.2033,0.48556,0.11109,0.2874,0.91123,0.2777,0.25015,0.91615,0.02544,0.28384,1.43718,0.35794,0.25115,1.43671,-0.03186,0.37569,1.16516,0.42429,0.36442,1.19045,0.04463,0.48693,1.39358,0.32748,0.45146,1.41509
2006,0.18872,0.29824,1.51554,-0.00155,0.48139,0.11655,0.26244,0.1145,0.08037,0.06288,0.48931,0.52819,0.28351,0.20339,0.48536,0.11109,0.28753,0.91074,0.27755,0.2497,0.916,0.02549,0.28326,1.43795,0.35806,0.25108,1.43664,-0.03169,0.37708,1.16659,0.42395,0.3642,1.1902,0.04633,0.49045,1.39344,0.32777,0.45001,1.41558
2007,0.18916,0.29745,1.51562,-0.00189,0.47994,0.1152,0.26247,0.11438,0.08022,0.06296,0.48772,0.52678,0.28357,0.20372,0.48511,0.11112,0.28772,0.91027,0.27743,0.24931,0.91583,0.02555,0.2829,1.43824,0.358,0.25079,1.43647,-0.03185,0.37787,1.16732,0.42379,0.364,1.19004,0.04712,0.4925,1.39321,0.32821,0.4489,1.41602
2008,0.18936,0.29684,1.51557,-0.00222,0.47855,0.11382,0.26257,0.11435,0.08007,0.06316,0.48579,0.52533,0.28351,0.20425,0.48484,0.1112,0.28798,0.90997,0.27743,0.2492,0.91563,0.02563,0.28269,1.438,0.35776,0.25043,1.43632,-0.03217,0.37825,1.16738,0.42379,0.36384,1.19005,0.04709,0.49304,1.39308,0.32868,0.44814,1.41645
2009,0.18926,0.29676,1.51534,-0.00249,0.47721,0.1124,0.26267,0.11454,0.07989,0.06335,0.48357,0.52385,0.28334,0.20484,0.48459,0.11129,0.28839,0.90984,0.2775,0.24952,0.9154,0.0257,0.28271,1.43745,0.3573,0.25007,1.43619,-0.0325,0.3789,1.16714,0.42372,0.36406,1.19029,0.0468,0.49288,1.39323,0.32885,0.44788,1.41697
2010,0.18905,0.29704,1.51505,-0.00276,0.47571,0.11089,0.26267,0.11482,0.07975,0.06346,0.48133,0.52229,0.28322,0.20538,0.4844,0.11135,0.28904,0.90973,0.27756,0.25013,0.91521,0.02554,0.28322,1.43698,0.35676,0.2495,1.43589,-0.03285,0.38012,1.16696,0.42333,0.36469,1.19059,0.04678,0.49299,1.3935,0.32864,0.44816,1.41748
2011,0.18891,0.29727,1.51487,-0.00312,0.47385,0.10924,0.26265,0.11493,0.07976,0.06353,0.47929,0.52057,0.28327,0.20588,0.48431,0.11142,0.28992,0.90946,0.27757,0.25081,0.91511,0.02488,0.28417,1.43685,0.35641,0.24851,1.43536,-0.0333,0.3816,1.16698,0.42265,0.36527,1.19072,0.04709,0.49377,1.3936,0.32828,0.44877,1.41772
2012,0.18881,0.29724,1.51483,-0.00352,0.47168,0.10747,0.2627,0.11475,0.0799,0.06369,0.47745,0.51871,0.28349,0.20627,0.48431,0.11145,0.29095,0.90899,0.2775,0.2515,0.91507,0.02377,0.28515,1.437,0.35649,0.24736,1.43477,-0.03387,0.38298,1.16716,0.422,0.36543,1.19056,0.04754,0.49505,1.39346,0.32796,0.44942,1.41753
2013,0.18851,0.29695,1.51484,-0.00382,0.46957,0.10569,0.26278,0.11444,0.08002,0.06402,0.47568,0.51682,0.28371,0.20648,0.48431,0.11139,0.292,0.90849,0.27734,0.25217,0.91502,0.02264,0.28593,1.43719,0.35679,0.24656,1.43434,-0.03438,0.38426,1.16739,0.42165,0.3653,1.19028,0.04801,0.49645,1.39329,0.32758,0.44996,1.41698
2014,0.18789,0.29669,1.51476,-0.00398,0.46796,0.10404,0.26278,0.11426,0.08004,0.06444,0.47388,0.51508,0.28375,0.20663,0.48425,0.11124,0.29307,0.90814,0.27707,0.25281,0.9149,0.02186,0.2867,1.4373,0.35685,0.2465,1.43407,-0.03466,0.38562,1.16761,0.42149,0.36533,1.18999,0.0484,0.49772,1.3933,0.32696,0.4505,1.41631
2015,0.18705,0.2968,1.51456,-0.00412,0.46705,0.10261,0.26262,0.11433,0.07995,0.06471,0.47202,0.51359,0.28355,0.20698,0.4841,0.11098,0.29417,0.90806,0.27673,0.25354,0.9147,0.02143,0.2876,1.43736,0.35633,0.24707,1.43374,-0.0348,0.38711,1.16783,0.42123,0.36589,1.18973,0.04871,0.49881,1.39355,0.32616,0.45132,1.41573
2016,0.18624,0.29743,1.51426,-0.00425,0.46671,0.1013,0.26235,0.1145,0.07984,0.06467,0.47016,0.51228,0.28321,0.20762,0.48389,0.11058,0.29536,0.90816,0.27633,0.25466,0.91444,0.02114,0.28844,1.43737,0.35527,0.2478,1.43323,-0.035,0.38866,1.16809,0.42075,0.36701,1.18956,0.0492,0.49995,1.39375,0.32538,0.4526,1.41537
2017,0.18555,0.29844,1.51395,-0.00421,0.46664,0.09993,0.26208,0.11462,0.07975,0.0643,0.46835,0.51099,0.28284,0.2083,0.48367,0.11004,0.29668,0.90826,0.27586,0.25623,0.91412,0.02075,0.28904,1.43728,0.35395,0.24835,1.43267,-0.03541,0.39016,1.16834,0.4202,0.36839,1.18962,0.05002,0.50136,1.39359,0.32477,0.45421,1.41531
2018,0.18475,0.29952,1.51366,-0.00389,0.46653,0.09837,0.26191,0.11467,0.07963,0.06369,0.46661,0.50958,0.28255,0.2088,0.48345,0.10943,0.29821,0.90824,0.27532,0.25795,0.91376,0.02008,0.28975,1.43705,0.35256,0.24877,1.43231,-0.03601,0.39169,1.1684,0.41972,0.3696,1.1899,0.05079,0.50287,1.39313,0.32439,0.45574,1.41551
2019,0.18372,0.30045,1.51343,-0.00346,0.46622,0.09666,0.26185,0.11471,0.07949,0.06299,0.465,0.50806,0.28235,0.20918,0.48324,0.10891,0.29994,0.9081,0.27475,0.25949,0.91341,0.019,0.29109,1.43666,0.35114,0.24937,1.43218,-0.03671,0.39344,1.16809,0.41934,0.37042,1.19017,0.05077,0.504,1.39287,0.32418,0.45699,1.41569
2020,0.18273,0.30118,1.51328,-0.00323,0.46579,0.09506,0.26193,0.11478,0.07939,0.06231,0.46363,0.5066,0.28216,0.20961,0.48307,0.10852,0.30174,0.9079,0.27425,0.26083,0.91313,0.01761,0.29312,1.43621,0.34981,0.25031,1.43211,-0.03743,0.39551,1.16751,0.41898,0.37106,1.19022,0.04956,0.50448,1.39325,0.32384,0.45828,1.4155
2021,0.18208,0.3018,1.51317,-0.00322,0.46527,0.09375,0.26214,0.11485,0.07941,0.06169,0.4626,0.50539,0.28192,0.21006,0.48302,0.10811,0.30342,0.90774,0.27376,0.26219,0.91297,0.0162,0.2954,1.43574,0.34874,0.25161,1.43194,-0.03816,0.39788,1.16695,0.41851,0.37201,1.19005,0.04752,0.50458,1.39427,0.32302,0.45999,1.41488
2022,0.18168,0.30256,1.51305,-0.00328,0.46459,0.09274,0.26229,0.11487,0.07951,0.06116,0.46187,0.50445,0.28153,0.2104,0.48308,0.10749,0.3049,0.90768,0.27314,0.26366,0.91288,0.01503,0.29755,1.43528,0.34792,0.25306,1.43167,-0.03901,0.40056,1.16662,0.41777,0.37358,1.18987,0.04538,0.50464,1.39563,0.32161,0.46213,1.4142
2023,0.18109,0.30373,1.51289,-0.00328,0.46381,0.09192,0.26221,0.11486,0.07962,0.06069,0.46141,0.50371,0.28092,0.21068,0.48313,0.10662,0.30629,0.9077,0.27232,0.26524,0.91277,0.01407,0.29951,1.43485,0.34718,0.25444,1.43137,-0.03999,0.40339,1.16653,0.41676,0.37562,1.18982,0.04366,0.50492,1.39696,0.31998,0.46443,1.41378
2024,0.17999,0.30535,1.51272,-0.00325,0.46315,0.09124,0.26191,0.11481,0.07968,0.06026,0.46117,0.50311,0.28017,0.21109,0.48311,0.10556,0.30772,0.90781,0.27135,0.26698,0.91257,0.01307,0.30135,1.43456,0.34631,0.25582,1.43112,-0.04089,0.40617,1.16659,0.41561,0.37761,1.1898,0.0426,0.50594,1.39784,0.31856,0.46663,1.41355
2025,0.17837,0.30711,1.5126,-0.00329,0.46272,0.09072,0.26159,0.11477,0.07975,0.05975,0.46118,0.50266,0.27947,0.2118,0.48302,0.10444,0.30924,0.908,0.27033,0.2689,0.91231,0.01189,0.30305,1.43448,0.34523,0.25753,1.43108,-0.04145,0.4088,1.16675,0.41459,0.37919,1.18971,0.04217,0.50812,1.39814,0.31742,0.46867,1.41323
2026,0.17646,0.30873,1.51258,-0.00346,0.46242,0.09035,0.26143,0.11487,0.07988,0.05904,0.46141,0.50236,0.27893,0.21284,0.48293,0.1034,0.3108,0.90823,0.26939,0.27082,0.9121,0.01059,0.30459,1.43452,0.34393,0.25965,1.43138,-0.04172,0.41142,1.16702,0.41381,0.3805,1.18975,0.04199,0.51111,1.39822,0.31632,0.4706,1.41288
2027,0.17451,0.31021,1.51266,-0.00373,0.46211,0.09005,0.26141,0.11523,0.08004,0.05806,0.46182,0.50218,0.27846,0.21405,0.48291,0.10253,0.31239,0.90847,0.26858,0.27259,0.91199,0.00934,0.30601,1.43459,0.34242,0.2619,1.43185,-0.04201,0.41409,1.16739,0.41303,0.38197,1.19004,0.0415,0.51388,1.39862,0.31526,0.47257,1.41285
2028,0.17274,0.31166,1.5128,-0.00404,0.46178,0.08977,0.2614,0.11576,0.08017,0.05687,0.46238,0.50202,0.27802,0.21528,0.48289,0.10178,0.3141,0.90869,0.26783,0.27428,0.9119,0.00819,0.30739,1.43462,0.34087,0.2641,1.43216,-0.04263,0.41678,1.16786,0.41188,0.38397,1.19037,0.04041,0.51581,1.39959,0.31444,0.47466,1.41328
2029,0.17119,0.31314,1.513,-0.00436,0.46158,0.0895,0.26128,0.11624,0.08025,0.05574,0.46307,0.50187,0.27766,0.21645,0.48279,0.10099,0.31597,0.90893,0.26702,0.27604,0.91171,0.00708,0.3088,1.43459,0.33948,0.26644,1.43223,-0.0436,0.41968,1.16841,0.41034,0.38647,1.19048,0.03882,0.5172,1.401,0.31384,0.47686,1.41392
2030,0.16966,0.31477,1.51321,-0.00459,0.46167,0.08928,0.26115,0.11647,0.0803,0.05489,0.46389,0.50174,0.27736,0.21769,0.4826,0.10006,0.3179,0.9092,0.26607,0.27786,0.91142,0.0059,0.3103,1.43448,0.33825,0.26902,1.43223,-0.04482,0.42306,1.16911,0.40874,0.38915,1.19042,0.03708,0.51874,1.40264,0.31307,0.47901,1.41443
2031,0.16783,0.31661,1.51344,-0.00464,0.46206,0.08912,0.26117,0.11653,0.08033,0.05425,0.46484,0.50166,0.27693,0.21915,0.4823,0.09898,0.31961,0.90944,0.265,0.27959,0.91107,0.00459,0.31182,1.4343,0.33705,0.27159,1.43231,-0.04616,0.42693,1.16994,0.40728,0.39175,1.19044,0.03548,0.52077,1.40431,0.31174,0.48098,1.41476
2032,0.16561,0.31862,1.51365,-0.0045,0.46256,0.08896,0.2613,0.11663,0.08029,0.05359,0.46596,0.50161,0.27619,0.22087,0.48187,0.09778,0.3208,0.90948,0.26391,0.28121,0.91064,0.00318,0.31324,1.43414,0.33582,0.27382,1.43251,-0.04743,0.43084,1.17086,0.40586,0.39417,1.19068,0.03407,0.52326,1.40584,0.30989,0.48288,1.41502
2033,0.16335,0.32066,1.5138,-0.00425,0.46296,0.08866,0.26137,0.11688,0.08013,0.05279,0.4671,0.50145,0.27525,0.22264,0.48136,0.09651,0.32163,0.90926,0.26283,0.28284,0.91014,0.00185,0.31452,1.43417,0.33461,0.27583,1.43282,-0.04851,0.43423,1.17179,0.40445,0.39637,1.19102,0.03273,0.52602,1.40711,0.30787,0.48479,1.41522
2034,0.16146,0.32267,1.51375,-0.00393,0.46318,0.08816,0.2613,0.11721,0.07997,0.05194,0.46802,0.5011,0.27435,0.22425,0.48088,0.09527,0.32258,0.90896,0.26176,0.28455,0.90964,0.00072,0.31582,1.4344,0.33351,0.27805,1.4332,-0.04942,0.437,1.17265,0.40323,0.39831,1.19123,0.03134,0.52887,1.4081,0.30609,0.48662,1.41523
2035,0.15999,0.32461,1.51348,-0.00353,0.46333,0.08756,0.26129,0.11753,0.07991,0.05117,0.46859,0.50065,0.27353,0.22578,0.48052,0.09408,0.32389,0.90882,0.26068,0.28631,0.90925,-0.00038,0.31729,1.43465,0.33251,0.28065,1.43363,-0.05035,0.43948,1.17334,0.40236,0.40011,1.1913,0.02985,0.53156,1.40891,0.30469,0.48831,1.41511
2036,0.15868,0.32654,1.51308,-0.00313,0.46348,0.08706,0.26151,0.11789,0.07998,0.05049,0.469,0.50029,0.27271,0.22747,0.48026,0.0929,0.32538,0.9089,0.25957,0.28814,0.90896,-0.00174,0.31887,1.43476,0.33141,0.28343,1.43407,-0.05153,0.44196,1.17384,0.4016,0.40205,1.19143,0.02809,0.53379,1.40969,0.30361,0.49005,1.41518
2037,0.15728,0.32864,1.51265,-0.00282,0.46359,0.08673,0.26186,0.11833,0.08009,0.04992,0.46951,0.50007,0.27185,0.22948,0.47997,0.09171,0.32675,0.90904,0.25849,0.28999,0.90869,-0.00347,0.32047,1.43467,0.32995,0.28608,1.43445,-0.05313,0.44447,1.17416,0.40058,0.4044,1.1918,0.0259,0.53538,1.41057,0.3026,0.49206,1.41568
2038,0.15567,0.33104,1.51227,-0.00267,0.46356,0.08648,0.2621,0.11883,0.08021,0.04941,0.47031,0.49989,0.27095,0.23172,0.47963,0.0906,0.32796,0.90906,0.25753,0.29184,0.9084,-0.00534,0.3221,1.43439,0.32799,0.28846,1.4347,-0.05498,0.44703,1.17432,0.39924,0.4072,1.19242,0.0235,0.53656,1.41144,0.30128,0.49431,1.41653
2039,0.15378,0.3336,1.51195,-0.00257,0.46343,0.0862,0.26214,0.1193,0.08035,0.0489,0.47142,0.49967,0.27002,0.23402,0.47927,0.08962,0.32918,0.90892,0.25667,0.29369,0.9081,-0.00721,0.32366,1.43384,0.3258,0.2907,1.43477,-0.05672,0.44987,1.17436,0.39775,0.41039,1.19317,0.02146,0.53793,1.41213,0.29941,0.49667,1.41744
2040,0.15165,0.33599,1.51162,-0.0023,0.46339,0.08587,0.26201,0.11973,0.08051,0.0483,0.47267,0.49941,0.26908,0.23622,0.47893,0.0886,0.33055,0.90875,0.25576,0.29559,0.90781,-0.00914,0.32503,1.433,0.32393,0.29306,1.43482,-0.05815,0.45313,1.17436,0.3962,0.41387,1.19388,0.02001,0.53986,1.41262,0.29705,0.49905,1.41821
2041,0.14933,0.33805,1.51127,-0.00173,0.46354,0.08544,0.26181,0.12014,0.08069,0.04771,0.47382,0.49911,0.26818,0.23829,0.47863,0.08736,0.33206,0.90864,0.25461,0.29747,0.90752,-0.01132,0.32634,1.43207,0.32262,0.29575,1.43496,-0.05933,0.4567,1.17437,0.39448,0.4175,1.19437,0.01879,0.54222,1.41308,0.29454,0.50142,1.41882
2042,0.14697,0.33995,1.51101,-0.00097,0.46377,0.08492,0.26152,0.1205,0.08091,0.04726,0.47465,0.49871,0.26742,0.24036,0.47834,0.08592,0.3336,0.90858,0.25321,0.29926,0.90725,-0.0137,0.32778,1.43135,0.32156,0.29877,1.43508,-0.06046,0.4601,1.17442,0.39253,0.42106,1.1945,0.01749,0.54471,1.41351,0.29223,0.50375,1.41925
2043,0.14467,0.34201,1.51086,-0.00032,0.46389,0.08433,0.26114,0.1208,0.0812,0.04703,0.47513,0.49822,0.26681,0.24271,0.47802,0.0844,0.33509,0.90855,0.25174,0.30098,0.90698,-0.01603,0.32928,1.43101,0.32026,0.3019,1.43498,-0.06169,0.46294,1.17457,0.39054,0.42441,1.19431,0.01632,0.54727,1.41374,0.29027,0.50606,1.41946
2044,0.14247,0.34441,1.51074,6e-05,0.46376,0.08373,0.26068,0.12111,0.08158,0.04687,0.47541,0.49766,0.26633,0.24548,0.47764,0.08292,0.33662,0.90854,0.2503,0.30276,0.9067,-0.01814,0.33074,1.43094,0.31847,0.30488,1.43473,-0.06315,0.46523,1.17483,0.38881,0.42741,1.19408,0.01564,0.54989,1.41362,0.28861,0.50841,1.41949
2045,0.1403,0.34697,1.51051,0.00016,0.46333,0.08307,0.26023,0.12148,0.08208,0.04652,0.47561,0.49703,0.2659,0.24856,0.47727,0.08149,0.33832,0.90851,0.24891,0.30462,0.90646,-0.01998,0.33218,1.43094,0.31631,0.30755,1.43454,-0.06492,0.46725,1.17512,0.38749,0.43002,1.19411,0.01563,0.5526,1.41308,0.28709,0.51085,1.41949
2046,0.13794,0.34941,1.5102,0.0001,0.46267,0.08227,0.25995,0.12196,0.08272,0.0458,0.47568,0.49629,0.26553,0.25179,0.47701,0.08004,0.34009,0.90838,0.24749,0.30654,0.90633,-0.02169,0.33371,1.431,0.31401,0.30995,1.43453,-0.0669,0.46906,1.17537,0.38647,0.43252,1.19454,0.01602,0.55551,1.41212,0.28547,0.51347,1.41961
2047,0.1353,0.35161,1.50991,-4e-05,0.46192,0.0814,0.2599,0.12266,0.08346,0.04486,0.47557,0.49548,0.26529,0.25515,0.47687,0.0785,0.34172,0.9082,0.24602,0.30851,0.90631,-0.02354,0.33536,1.43118,0.31173,0.31232,1.4348,-0.06887,0.47065,1.17554,0.38549,0.43529,1.1954,0.01626,0.55865,1.41094,0.28345,0.51629,1.41999
2048,0.13253,0.3536,1.5097,-0.00035,0.46125,0.08067,0.25999,0.12361,0.08425,0.044,0.47543,0.49479,0.26516,0.25859,0.47682,0.07687,0.34306,0.90805,0.24452,0.31055,0.90636,-0.0257,0.33714,1.43141,0.30949,0.31498,1.43546,-0.07056,0.47231,1.17563,0.38426,0.43843,1.19663,0.01618,0.56201,1.40979,0.2808,0.51939,1.42057
2049,0.12996,0.35552,1.50959,-0.00099,0.46077,0.08023,0.26011,0.12469,0.08504,0.04338,0.47544,0.49434,0.2649,0.26197,0.47682,0.07523,0.34422,0.90804,0.24305,0.31259,0.90646,-0.02812,0.33903,1.43146,0.30721,0.31801,1.43642,-0.07182,0.47439,1.17558,0.3827,0.44172,1.19795,0.01601,0.5655,1.40878,0.27768,0.52289,1.42109
2050,0.12767,0.3575,1.50957,-0.00185,0.4605,0.08009,0.26024,0.12563,0.08584,0.04296,0.47559,0.49413,0.26424,0.26516,0.47683,0.07364,0.34541,0.90825,0.24159,0.31447,0.90659,-0.03051,0.34091,1.43121,0.30487,0.32119,1.43732,-0.07287,0.47658,1.17527,0.38082,0.4449,1.199,0.01559,0.56882,1.40779,0.27452,0.52675,1.42129
2051,0.12552,0.35958,1.50969,-0.00252,0.46042,0.08013,0.26046,0.12633,0.0867,0.04251,0.47574,0.49414,0.26323,0.26827,0.47683,0.0721,0.34671,0.9087,0.2401,0.31608,0.90673,-0.03261,0.34267,1.43083,0.30256,0.32416,1.43789,-0.07404,0.47806,1.17458,0.37868,0.44776,1.19956,0.01446,0.57158,1.40658,0.2717,0.53053,1.42117
2052,0.12336,0.36178,1.50994,-0.00276,0.46047,0.08025,0.26072,0.12683,0.08771,0.04187,0.47583,0.4943,0.26221,0.27152,0.47684,0.07062,0.34804,0.9093,0.23865,0.31757,0.90691,-0.03439,0.34423,1.43055,0.30028,0.32674,1.43816,-0.07542,0.47845,1.17362,0.3764,0.45014,1.19972,0.01284,0.57378,1.40497,0.26931,0.53389,1.42092
2053,0.12119,0.36417,1.51021,-0.00283,0.46049,0.08037,0.26091,0.12733,0.08893,0.04103,0.47587,0.4945,0.26146,0.27501,0.47694,0.06925,0.34939,0.90994,0.23732,0.31916,0.90717,-0.0361,0.34568,1.43045,0.29798,0.32904,1.43836,-0.07693,0.47829,1.17266,0.37413,0.45213,1.19978,0.01142,0.5757,1.40311,0.26725,0.53703,1.42064
2054,0.11898,0.36691,1.51037,-0.00306,0.46043,0.08043,0.26103,0.12808,0.09026,0.0401,0.47578,0.49464,0.26106,0.27866,0.47715,0.06797,0.3508,0.91055,0.23609,0.32089,0.90753,-0.03792,0.34705,1.43036,0.2957,0.33138,1.43867,-0.07851,0.47838,1.17187,0.37201,0.45409,1.19995,0.01027,0.57761,1.40138,0.26536,0.54034,1.42039
2055,0.1166,0.37,1.5104,-0.00337,0.46039,0.08036,0.2612,0.12911,0.0916,0.03917,0.47561,0.49464,0.26091,0.28238,0.47744,0.06667,0.35213,0.91103,0.23486,0.32262,0.90794,-0.03991,0.34838,1.43017,0.29353,0.33398,1.43913,-0.08015,0.47893,1.17123,0.37007,0.45631,1.20028,0.00867,0.57977,1.40002,0.26349,0.54382,1.42026
2056,0.11394,0.37326,1.51042,-0.00344,0.46047,0.08019,0.26148,0.13019,0.09302,0.03829,0.47557,0.49456,0.26085,0.28618,0.47776,0.06533,0.35315,0.91129,0.23362,0.32425,0.90839,-0.04212,0.34977,1.42995,0.29162,0.3369,1.43982,-0.08176,0.47963,1.17058,0.3683,0.45885,1.20082,0.00611,0.58239,1.39888,0.2614,0.54724,1.4203
2057,0.11104,0.37647,1.51052,-0.00319,0.46063,0.08001,0.2618,0.13111,0.09468,0.03749,0.47573,0.49448,0.26079,0.29027,0.47812,0.06393,0.3539,0.91142,0.23238,0.32588,0.90888,-0.04448,0.3514,1.42983,0.28994,0.33998,1.44083,-0.08333,0.48015,1.16978,0.36659,0.46156,1.20163,0.00296,0.58524,1.39762,0.2589,0.55053,1.42048
2058,0.1081,0.37941,1.51067,-0.00285,0.46068,0.0799,0.26198,0.1319,0.09666,0.03679,0.47582,0.49447,0.26085,0.29484,0.47851,0.06246,0.35468,0.91166,0.23107,0.32757,0.90941,-0.04674,0.35329,1.42976,0.28827,0.34293,1.442,-0.08495,0.48047,1.16885,0.36489,0.46423,1.20266,0.00011,0.58769,1.39616,0.25604,0.55387,1.42066
2059,0.10523,0.38193,1.51081,-0.00268,0.46058,0.0799,0.26211,0.13276,0.0988,0.03619,0.47553,0.49455,0.26119,0.29974,0.47889,0.06088,0.35574,0.91218,0.22957,0.3292,0.9099,-0.04864,0.35531,1.42969,0.28641,0.34547,1.44306,-0.08663,0.4806,1.16784,0.36317,0.46675,1.20375,-0.00199,0.58926,1.39462,0.2531,0.55742,1.42072
2060,0.10251,0.38413,1.51098,-0.00271,0.46048,0.08,0.26242,0.13386,0.1009,0.03561,0.4748,0.49472,0.26173,0.30468,0.47929,0.05919,0.35697,0.91298,0.22794,0.33079,0.91035,-0.05033,0.35728,1.42966,0.2844,0.34763,1.44389,-0.08831,0.48041,1.16677,0.36141,0.46917,1.20479,-0.00378,0.59007,1.39312,0.25026,0.56112,1.42066
2061,0.09998,0.38623,1.51126,-0.00278,0.46057,0.08019,0.263,0.13527,0.10291,0.03498,0.47377,0.495,0.26219,0.30951,0.47974,0.05748,0.3581,0.91392,0.2263,0.33245,0.91081,-0.05212,0.35909,1.42978,0.2823,0.34978,1.4446,-0.08992,0.47972,1.16572,0.35949,0.4716,1.2057,-0.00591,0.59056,1.39167,0.24764,0.56455,1.42079
2062,0.09769,0.38836,1.51164,-0.00279,0.46079,0.08043,0.26367,0.13691,0.10492,0.03428,0.47271,0.49534,0.26238,0.31439,0.48023,0.05581,0.3589,0.91482,0.22475,0.33408,0.91131,-0.05408,0.36074,1.4301,0.28019,0.35228,1.44528,-0.09157,0.47869,1.16478,0.35742,0.47411,1.2064,-0.0086,0.5911,1.39035,0.24554,0.56718,1.42141
2063,0.09567,0.39057,1.51205,-0.00274,0.46095,0.08062,0.26426,0.1387,0.10699,0.03345,0.4718,0.49564,0.26236,0.31947,0.48073,0.05426,0.35936,0.91553,0.22334,0.33553,0.91183,-0.05608,0.36238,1.43055,0.27812,0.35513,1.44596,-0.09335,0.47789,1.16413,0.35544,0.47665,1.20695,-0.01156,0.59181,1.38937,0.24399,0.56913,1.42244
2064,0.09393,0.3929,1.51236,-0.0027,0.46094,0.08063,0.26477,0.14062,0.10914,0.03235,0.47115,0.49576,0.26243,0.32471,0.48125,0.05292,0.35967,0.91592,0.22213,0.33678,0.91237,-0.05809,0.36404,1.43101,0.2761,0.35811,1.44672,-0.09517,0.47782,1.16382,0.35389,0.47912,1.2076,-0.01431,0.5928,1.38886,0.24252,0.57112,1.42334
2065,0.09242,0.39532,1.51257,-0.00274,0.46076,0.08041,0.26531,0.14277,0.11139,0.03093,0.47075,0.49566,0.26288,0.32998,0.48194,0.0518,0.36005,0.91601,0.22113,0.33799,0.91302,-0.06014,0.36563,1.43137,0.27408,0.36117,1.4476,-0.09693,0.47838,1.1637,0.35287,0.48147,1.20846,-0.01666,0.59395,1.38865,0.24062,0.57362,1.42367
2066,0.091,0.39771,1.51274,-0.00288,0.46048,0.08009,0.2659,0.14514,0.11369,0.02935,0.47051,0.49546,0.26384,0.33516,0.48281,0.05078,0.3605,0.91596,0.22023,0.33925,0.91376,-0.06222,0.36719,1.43153,0.27211,0.36427,1.44847,-0.09866,0.47903,1.16345,0.35208,0.48388,1.20937,-0.01892,0.59492,1.38842,0.23828,0.57637,1.42363
2067,0.08956,0.39994,1.51291,-0.00308,0.46026,0.0798,0.26651,0.14754,0.11595,0.02785,0.47028,0.49526,0.26512,0.3402,0.4837,0.04976,0.36087,0.91589,0.21932,0.34052,0.91444,-0.06428,0.36875,1.43151,0.27034,0.3672,1.44909,-0.10038,0.47943,1.16289,0.35107,0.48665,1.21016,-0.02142,0.59547,1.38807,0.23601,0.57879,1.42389
2068,0.08798,0.40189,1.51313,-0.00325,0.46021,0.07956,0.26714,0.14975,0.11817,0.02666,0.46983,0.49511,0.26633,0.34518,0.48446,0.04879,0.36098,0.91587,0.21848,0.34171,0.91496,-0.06621,0.37021,1.43146,0.26882,0.36966,1.44931,-0.10204,0.47969,1.16232,0.34964,0.48984,1.21078,-0.02403,0.59577,1.3878,0.23436,0.58049,1.42503
2069,0.08621,0.40348,1.51349,-0.00328,0.46028,0.07934,0.26779,0.15176,0.12045,0.02579,0.46906,0.49497,0.26719,0.35027,0.48507,0.04795,0.36083,0.91589,0.21779,0.34286,0.91535,-0.06792,0.37137,1.43166,0.26745,0.37167,1.44931,-0.10364,0.48005,1.16217,0.34797,0.49307,1.21129,-0.02639,0.59618,1.38788,0.23329,0.58153,1.42678
2070,0.08433,0.40473,1.51405,-0.0031,0.46029,0.07918,0.26849,0.15374,0.12285,0.02507,0.46808,0.49489,0.26789,0.35562,0.48562,0.04717,0.36062,0.91601,0.21714,0.34404,0.91565,-0.06941,0.37224,1.43219,0.26629,0.37361,1.44946,-0.10527,0.48049,1.16254,0.34636,0.49584,1.21173,-0.0286,0.59678,1.38837,0.23217,0.58251,1.4282
2071,0.08257,0.40577,1.51472,-0.00287,0.46016,0.07911,0.26921,0.15589,0.12536,0.02427,0.46716,0.4949,0.2688,0.3611,0.48625,0.04625,0.36056,0.91625,0.21635,0.34528,0.91594,-0.07066,0.37312,1.43285,0.26544,0.37578,1.45007,-0.10701,0.48074,1.16303,0.34498,0.49805,1.21217,-0.03131,0.59728,1.38905,0.23073,0.58408,1.42887
2072,0.08093,0.40684,1.51529,-0.00279,0.45989,0.07908,0.26995,0.15819,0.12792,0.02335,0.4664,0.49494,0.27,0.36643,0.48708,0.04511,0.36076,0.91654,0.2153,0.34655,0.91632,-0.07166,0.37435,1.43332,0.26484,0.37809,1.45102,-0.10889,0.48064,1.16309,0.34374,0.50003,1.21274,-0.0351,0.59718,1.38974,0.22936,0.58639,1.42924
2073,0.07926,0.40817,1.51563,-0.00286,0.4596,0.079,0.27074,0.16046,0.13041,0.02246,0.46557,0.49492,0.27131,0.37133,0.48803,0.04382,0.36116,0.91685,0.21408,0.34776,0.91676,-0.07254,0.37603,1.43335,0.26422,0.38012,1.45194,-0.11088,0.4804,1.16253,0.34254,0.50214,1.21351,-0.04002,0.59599,1.3906,0.22835,0.58907,1.42988
2074,0.07765,0.40978,1.51581,-0.00286,0.45941,0.0789,0.27161,0.16257,0.13262,0.02171,0.4645,0.49488,0.27246,0.37564,0.48894,0.04258,0.36157,0.91719,0.21289,0.34881,0.91715,-0.07351,0.37794,1.43302,0.26351,0.38178,1.45261,-0.11289,0.48038,1.16161,0.34139,0.50456,1.21442,-0.0455,0.59384,1.3918,0.22743,0.59167,1.43084
2075,0.07633,0.41144,1.516,-0.00275,0.45943,0.07888,0.27253,0.16455,0.13441,0.02106,0.46333,0.49492,0.27342,0.37931,0.4897,0.04156,0.36187,0.91761,0.21191,0.34967,0.91746,-0.07463,0.37967,1.43277,0.26277,0.38341,1.45305,-0.11472,0.48069,1.16093,0.3404,0.50726,1.21534,-0.05,0.59195,1.39295,0.22629,0.59404,1.43181
2076,0.07536,0.41291,1.51623,-0.00274,0.45965,0.07895,0.27333,0.16642,0.13588,0.02037,0.46239,0.49504,0.27434,0.38255,0.49034,0.04077,0.36209,0.91801,0.21116,0.35041,0.91767,-0.07584,0.38078,1.43296,0.26204,0.38532,1.45338,-0.11622,0.48137,1.161,0.33949,0.51004,1.21607,-0.05186,0.59179,1.39352,0.22503,0.59626,1.43257
2077,0.0745,0.41408,1.51646,-0.00292,0.45993,0.07902,0.27388,0.16812,0.13724,0.01959,0.46178,0.49514,0.2754,0.38568,0.49083,0.04008,0.36234,0.91831,0.21049,0.35107,0.9177,-0.07709,0.38118,1.43349,0.26133,0.38735,1.45373,-0.11744,0.48239,1.16176,0.33844,0.5126,1.21658,-0.05145,0.59304,1.39371,0.22385,0.59842,1.43318
2078,0.07359,0.41501,1.5167,-0.00312,0.46012,0.07904,0.27425,0.16953,0.13865,0.01877,0.46128,0.49519,0.27651,0.38887,0.49113,0.03935,0.36263,0.91855,0.20978,0.35169,0.91751,-0.07834,0.38133,1.4339,0.26069,0.38909,1.45425,-0.11857,0.48347,1.16251,0.33711,0.51475,1.2171,-0.05157,0.59377,1.39434,0.22261,0.60063,1.43372
2079,0.07271,0.41586,1.51686,-0.00319,0.46019,0.07899,0.27458,0.17061,0.14009,0.01801,0.46061,0.49518,0.2774,0.39189,0.49135,0.03858,0.36297,0.91877,0.20903,0.3523,0.91725,-0.07937,0.38175,1.43398,0.26009,0.39034,1.45491,-0.11974,0.48418,1.16271,0.33573,0.51664,1.21785,-0.05413,0.5929,1.39568,0.22101,0.60295,1.43418
2080,0.07209,0.41675,1.51682,-0.00313,0.4601,0.07888,0.27494,0.1715,0.14135,0.0173,0.45966,0.49511,0.27792,0.39431,0.49165,0.03786,0.36341,0.91901,0.20831,0.35287,0.91717,-0.07995,0.38247,1.4339,0.25938,0.3913,1.45543,-0.12085,0.48445,1.16253,0.33473,0.51853,1.21877,-0.05755,0.59154,1.39689,0.21927,0.6051,1.43461
2081,0.0718,0.41768,1.51661,-0.00295,0.45983,0.07872,0.27526,0.17235,0.14225,0.01661,0.45856,0.49499,0.27818,0.39589,0.49208,0.03728,0.364,0.91927,0.20772,0.3534,0.91737,-0.08,0.38307,1.43395,0.25847,0.39224,1.45559,-0.12179,0.48472,1.1626,0.33437,0.52047,1.21965,-0.05874,0.59177,1.39705,0.21802,0.60656,1.4352
2082,0.07162,0.41848,1.51644,-0.00266,0.45943,0.07861,0.27536,0.1732,0.14271,0.01592,0.4576,0.49493,0.27836,0.39676,0.49253,0.03681,0.36472,0.91957,0.20725,0.35402,0.91768,-0.07966,0.38318,1.4342,0.25753,0.39328,1.45547,-0.1226,0.48537,1.16324,0.33446,0.52236,1.22033,-0.05686,0.59409,1.39617,0.21757,0.60711,1.43612
2083,0.07129,0.41906,1.51649,-0.00242,0.45907,0.07861,0.27522,0.17404,0.14277,0.01528,0.45704,0.49497,0.27846,0.3972,0.49284,0.03632,0.36542,0.91987,0.20677,0.35481,0.91792,-0.07917,0.38287,1.43444,0.25687,0.39438,1.45536,-0.12339,0.48629,1.16414,0.33466,0.5241,1.22086,-0.05398,0.59696,1.39508,0.21753,0.60723,1.43714
2084,0.07086,0.41945,1.5167,-0.00248,0.45892,0.07867,0.27494,0.1748,0.14255,0.0148,0.4569,0.49504,0.27846,0.39743,0.49294,0.0357,0.366,0.92011,0.20616,0.35569,0.91799,-0.07882,0.38256,1.43452,0.25662,0.39552,1.45546,-0.12422,0.4871,1.16485,0.33484,0.52569,1.22135,-0.0523,0.59886,1.3945,0.21732,0.60756,1.43791
2085,0.07053,0.41979,1.51693,-0.00296,0.45901,0.07869,0.27458,0.17537,0.14215,0.0145,0.457,0.49505,0.27837,0.39746,0.49289,0.03503,0.36649,0.92022,0.20551,0.35646,0.91792,-0.0788,0.38266,1.43458,0.25666,0.39676,1.45577,-0.12505,0.48759,1.16521,0.33495,0.52733,1.22191,-0.05211,0.59958,1.39442,0.2166,0.60845,1.4383
2086,0.07045,0.42015,1.51705,-0.00366,0.45921,0.07867,0.27395,0.17571,0.14161,0.01436,0.4571,0.49501,0.27819,0.39718,0.49274,0.03451,0.36706,0.9203,0.20498,0.35698,0.91778,-0.07912,0.38316,1.43475,0.25686,0.39805,1.4562,-0.1258,0.4878,1.16534,0.33479,0.52926,1.22257,-0.05257,0.59957,1.39457,0.21534,0.60995,1.43851
2087,0.07069,0.42052,1.517,-0.00422,0.45938,0.07871,0.27294,0.17576,0.14093,0.01434,0.45712,0.49503,0.27788,0.39651,0.49251,0.03421,0.3678,0.92048,0.20464,0.35724,0.91763,-0.07944,0.3836,1.43489,0.25723,0.39913,1.45656,-0.12645,0.48773,1.16534,0.33428,0.53138,1.22323,-0.05334,0.59888,1.39491,0.21388,0.61172,1.43878
2088,0.07121,0.42087,1.51679,-0.00443,0.45948,0.07885,0.2716,0.17557,0.14008,0.01435,0.45717,0.49515,0.27741,0.39541,0.49221,0.03412,0.36866,0.92078,0.20451,0.3574,0.9175,-0.07932,0.38355,1.43478,0.25788,0.39975,1.45667,-0.127,0.48726,1.16519,0.33356,0.53345,1.22371,-0.05479,0.59721,1.39562,0.2127,0.61314,1.43924
2089,0.07179,0.42103,1.51659,-0.00434,0.45956,0.07898,0.27009,0.17518,0.13899,0.01429,0.45739,0.49529,0.2767,0.39393,0.49178,0.03425,0.36956,0.92104,0.20459,0.3577,0.91737,-0.0785,0.38298,1.43447,0.25885,0.39994,1.45639,-0.12745,0.48637,1.16498,0.3329,0.53536,1.22391,-0.05722,0.59443,1.39691,0.212,0.6138,1.43987
2090,0.07225,0.42086,1.51654,-0.00416,0.45969,0.07893,0.26853,0.17469,0.13757,0.01415,0.4578,0.49526,0.27574,0.39218,0.49113,0.03452,0.37047,0.9211,0.20483,0.35829,0.91711,-0.0772,0.38222,1.43419,0.26002,0.39995,1.45585,-0.12777,0.4853,1.16489,0.33258,0.53707,1.22388,-0.06025,0.59092,1.39874,0.21172,0.61373,1.44051
2091,0.07256,0.42043,1.51656,-0.00414,0.45984,0.07872,0.26692,0.17414,0.13582,0.01401,0.45826,0.49505,0.2746,0.39022,0.49023,0.03473,0.37139,0.92097,0.20501,0.35899,0.91663,-0.07605,0.38149,1.43405,0.26106,0.40003,1.45525,-0.12792,0.48438,1.16492,0.33288,0.53834,1.22378,-0.06264,0.58786,1.40036,0.21187,0.61319,1.44095
2092,0.07275,0.41987,1.51648,-0.00445,0.45991,0.0785,0.26522,0.17351,0.13378,0.01404,0.45864,0.49482,0.27343,0.38799,0.48915,0.03466,0.37219,0.92083,0.20491,0.35953,0.91592,-0.07547,0.3808,1.43396,0.26174,0.4003,1.45484,-0.12799,0.48369,1.16496,0.33384,0.53908,1.22373,-0.06306,0.58653,1.40077,0.21246,0.61243,1.44121
2093,0.0729,0.41916,1.51631,-0.00497,0.45985,0.07844,0.26339,0.17285,0.13154,0.01431,0.45894,0.49472,0.27232,0.3854,0.48805,0.03434,0.37285,0.92083,0.20454,0.35991,0.91512,-0.07523,0.38019,1.43391,0.26218,0.4008,1.45471,-0.12803,0.48298,1.16492,0.33504,0.53957,1.22382,-0.06135,0.58697,1.39974,0.21331,0.61161,1.44154
2094,0.07316,0.41815,1.51626,-0.00533,0.45974,0.0785,0.26144,0.17221,0.12922,0.01466,0.45923,0.49476,0.27121,0.38253,0.48703,0.03408,0.37356,0.92098,0.20423,0.36034,0.91441,-0.07467,0.37982,1.43404,0.26277,0.40145,1.45478,-0.12787,0.48197,1.16489,0.33584,0.54021,1.22396,-0.05888,0.58768,1.39827,0.21398,0.61091,1.44204
2095,0.07377,0.41693,1.51642,-0.00533,0.45968,0.07854,0.25934,0.1715,0.12695,0.01484,0.45951,0.49479,0.26992,0.37946,0.48611,0.03411,0.3745,0.92115,0.2042,0.36099,0.91386,-0.07348,0.37961,1.43434,0.26381,0.40194,1.45487,-0.12735,0.48058,1.16488,0.33599,0.54109,1.22401,-0.05712,0.58732,1.39742,0.21416,0.61066,1.44247
2096,0.0749,0.41573,1.51663,-0.00524,0.45969,0.07848,0.25705,0.1706,0.12474,0.01472,0.45975,0.49474,0.26834,0.37623,0.48522,0.03432,0.37568,0.92127,0.20436,0.36175,0.91339,-0.07199,0.3792,1.43455,0.26526,0.40193,1.45481,-0.12661,0.47899,1.1648,0.33582,0.54201,1.224,-0.05648,0.58584,1.39732,0.21391,0.61092,1.44263
2097,0.0766,0.41468,1.51669,-0.00535,0.45978,0.07844,0.25458,0.16957,0.12249,0.01457,0.45993,0.49469,0.26662,0.37288,0.48426,0.03449,0.37682,0.9214,0.20444,0.36231,0.91282,-0.07068,0.37842,1.43445,0.26688,0.40146,1.45451,-0.12602,0.47747,1.16457,0.33596,0.54281,1.22403,-0.05659,0.58399,1.39746,0.21354,0.61125,1.44253
2098,0.07872,0.41369,1.51653,-0.00561,0.46003,0.07853,0.25193,0.16863,0.12012,0.01466,0.46015,0.49477,0.26507,0.36954,0.48318,0.03458,0.37761,0.92158,0.20443,0.36248,0.91203,-0.06956,0.37747,1.43408,0.26844,0.40103,1.45403,-0.12573,0.47623,1.16426,0.33664,0.54358,1.22403,-0.05698,0.58222,1.39758,0.21338,0.61107,1.44235
2099,0.081,0.41271,1.51619,-0.00575,0.46046,0.07869,0.24923,0.16789,0.11769,0.01497,0.46053,0.49491,0.26385,0.36634,0.48205,0.03478,0.37798,0.92173,0.20452,0.36241,0.91112,-0.06828,0.37658,1.43352,0.26997,0.401,1.45345,-0.12551,0.47519,1.16387,0.33778,0.54442,1.22387,-0.05714,0.58056,1.39759,0.21375,0.6103,1.44224
2100,0.08313,0.41177,1.51576,-0.00576,0.46091,0.07875,0.24673,0.16736,0.11527,0.0152,0.46106,0.49496,0.2628,0.36328,0.48094,0.03522,0.37829,0.92173,0.20489,0.3625,0.91022,-0.06653,0.37571,1.43282,0.27154,0.40118,1.45274,-0.12513,0.4741,1.16338,0.33918,0.54538,1.2236,-0.05653,0.57896,1.39726,0.21489,0.60939,1.44239
2101,0.08491,0.41077,1.51535,-0.0058,0.46118,0.07864,0.24464,0.1669,0.11291,0.01521,0.46164,0.49484,0.26164,0.36033,0.47986,0.03579,0.37894,0.9216,0.20538,0.36293,0.90935,-0.06419,0.37453,1.43213,0.27313,0.40114,1.45195,-0.12469,0.4728,1.16307,0.34055,0.54643,1.22344,-0.05499,0.57756,1.39667,0.2166,0.60869,1.44291
2102,0.08648,0.40953,1.51505,-0.006,0.46116,0.07851,0.24282,0.1663,0.11067,0.01522,0.46224,0.4947,0.26028,0.35746,0.47878,0.03627,0.37984,0.92149,0.20577,0.36342,0.90847,-0.0614,0.37274,1.4317,0.2748,0.40075,1.4513,-0.12447,0.4715,1.16342,0.34156,0.54747,1.22351,-0.05311,0.57656,1.39638,0.21827,0.60804,1.44383
2103,0.08822,0.40809,1.51484,-0.00632,0.46087,0.07852,0.241,0.16558,0.1085,0.01542,0.46292,0.49468,0.25884,0.35453,0.47774,0.03663,0.38062,0.92148,0.20599,0.36355,0.90758,-0.05854,0.37044,1.43165,0.27672,0.40023,1.45099,-0.12456,0.47035,1.1645,0.34212,0.54829,1.22367,-0.05148,0.57594,1.39669,0.21959,0.60699,1.44492
2104,0.09032,0.40665,1.51459,-0.0065,0.46049,0.07861,0.23909,0.16498,0.10632,0.01576,0.46375,0.49474,0.25742,0.35148,0.47678,0.03702,0.38112,0.92147,0.20624,0.36332,0.90675,-0.05596,0.36809,1.43177,0.279,0.39974,1.45094,-0.12471,0.46922,1.16577,0.34268,0.54855,1.22363,-0.04998,0.57535,1.39718,0.22093,0.60526,1.44582
2105,0.09276,0.40525,1.5142,-0.0063,0.46022,0.07866,0.2372,0.1647,0.10407,0.01612,0.46481,0.49477,0.25604,0.34836,0.47592,0.0376,0.38153,0.92137,0.20669,0.36305,0.90602,-0.05367,0.36595,1.43179,0.28161,0.39911,1.45089,-0.1246,0.46782,1.16665,0.34403,0.54792,1.22322,-0.04812,0.57431,1.39733,0.22298,0.60299,1.44621
2106,0.09547,0.4038,1.51365,-0.00583,0.46017,0.07868,0.23545,0.16467,0.10179,0.01662,0.46623,0.49476,0.25467,0.34532,0.47509,0.03838,0.38209,0.92118,0.20735,0.36297,0.90531,-0.0514,0.36389,1.4316,0.28447,0.39799,1.45057,-0.12424,0.46606,1.16709,0.34641,0.54644,1.22254,-0.04578,0.57247,1.39714,0.22589,0.60059,1.44604
2107,0.09845,0.4024,1.51304,-0.00543,0.46027,0.07878,0.23382,0.16467,0.09962,0.0175,0.46823,0.49481,0.25332,0.34239,0.4743,0.03929,0.38292,0.92099,0.20812,0.363,0.90461,-0.04895,0.36182,1.43129,0.28738,0.39637,1.44985,-0.12386,0.46408,1.1674,0.34911,0.54485,1.22179,-0.04342,0.56988,1.39704,0.22906,0.59851,1.44565
2108,0.10159,0.40118,1.51244,-0.00537,0.46042,0.07902,0.23242,0.16451,0.09763,0.01871,0.4708,0.49493,0.25199,0.33934,0.47367,0.04019,0.38389,0.9208,0.20885,0.36294,0.90404,-0.04635,0.35979,1.43098,0.2901,0.39476,1.44875,-0.12362,0.46215,1.1678,0.35117,0.54409,1.22106,-0.0416,0.56708,1.39729,0.23183,0.59697,1.44549
2109,0.10469,0.4,1.51189,-0.00564,0.46057,0.07929,0.23135,0.1641,0.09574,0.01992,0.47365,0.49503,0.25063,0.33595,0.47317,0.04102,0.38477,0.92052,0.20952,0.3627,0.90355,-0.04361,0.35769,1.43066,0.29248,0.39359,1.44747,-0.12349,0.46042,1.16841,0.35248,0.54426,1.22038,-0.04036,0.56476,1.39777,0.23412,0.59583,1.44564
2110,0.10751,0.39861,1.51141,-0.0059,0.46071,0.07942,0.23061,0.16337,0.09381,0.02097,0.47658,0.49498,0.24926,0.33228,0.47259,0.04182,0.38544,0.92,0.21017,0.36231,0.90294,-0.04054,0.35538,1.4303,0.29461,0.39276,1.4464,-0.12346,0.45881,1.16927,0.35388,0.54461,1.2199,-0.03919,0.56328,1.39815,0.23621,0.59499,1.44579
2111,0.11014,0.39709,1.51097,-0.00582,0.46093,0.07941,0.23011,0.16227,0.0918,0.02193,0.4797,0.4948,0.24814,0.32859,0.47176,0.04264,0.38592,0.91925,0.21084,0.36181,0.90204,-0.03705,0.35295,1.42988,0.29677,0.39188,1.44574,-0.12359,0.4572,1.17036,0.3562,0.54445,1.21977,-0.03759,0.56227,1.39832,0.23838,0.59437,1.44568
2112,0.11294,0.39568,1.51049,-0.00542,0.46132,0.0795,0.22987,0.16077,0.08989,0.023,0.48319,0.49469,0.24754,0.32502,0.47077,0.04358,0.38622,0.91843,0.2116,0.36113,0.90093,-0.03329,0.35071,1.42947,0.29921,0.39072,1.44532,-0.1239,0.45541,1.17152,0.3595,0.54371,1.21986,-0.03549,0.56104,1.3983,0.24079,0.59376,1.44528
2113,0.1162,0.39442,1.50987,-0.00494,0.46188,0.07989,0.22996,0.15896,0.08826,0.02435,0.48715,0.49483,0.24754,0.32165,0.46981,0.04465,0.38638,0.91769,0.21247,0.36021,0.89983,-0.02957,0.3489,1.42911,0.30204,0.38928,1.44475,-0.12445,0.45327,1.17257,0.36308,0.5427,1.21979,-0.03333,0.55902,1.39822,0.24346,0.59284,1.44471
2114,0.11965,0.39317,1.50907,-0.00448,0.4625,0.08058,0.23042,0.15704,0.08699,0.02605,0.4916,0.49518,0.24795,0.31865,0.46901,0.04582,0.38654,0.91702,0.21342,0.35917,0.89889,-0.02613,0.34775,1.42885,0.30505,0.38767,1.44377,-0.12535,0.45081,1.17342,0.36637,0.5416,1.21923,-0.03169,0.55588,1.39834,0.2464,0.59144,1.44402
2115,0.12275,0.39175,1.50813,-0.00388,0.46303,0.0814,0.23111,0.15526,0.08606,0.028,0.49638,0.49558,0.24859,0.3161,0.4684,0.04702,0.3868,0.91631,0.21441,0.35818,0.89816,-0.02295,0.34721,1.42864,0.30793,0.38598,1.44243,-0.12673,0.44808,1.17415,0.36941,0.54029,1.2182,-0.03067,0.55173,1.39872,0.24971,0.58961,1.44326
2116,0.12547,0.3902,1.50724,-0.00305,0.46344,0.08228,0.23171,0.15381,0.08534,0.03001,0.50127,0.49597,0.24937,0.31395,0.46796,0.04814,0.38706,0.9155,0.21535,0.35721,0.89762,-0.01967,0.34676,1.42839,0.3106,0.38425,1.441,-0.1286,0.44497,1.17502,0.37239,0.53877,1.217,-0.02973,0.54768,1.3988,0.2535,0.58765,1.44257
2117,0.12831,0.38871,1.50651,-0.00221,0.46407,0.08332,0.23201,0.15282,0.08467,0.03194,0.50632,0.49649,0.2503,0.31223,0.46757,0.04897,0.38721,0.91471,0.21598,0.35607,0.89714,-0.01591,0.34566,1.4281,0.3133,0.38253,1.43977,-0.13072,0.44139,1.17638,0.37511,0.53719,1.21586,-0.02816,0.54539,1.39788,0.25771,0.58581,1.44228
2118,0.13171,0.3873,1.5061,-0.00175,0.4653,0.08475,0.23211,0.15236,0.08399,0.03387,0.51196,0.49733,0.25143,0.31112,0.4671,0.04944,0.38738,0.914,0.21617,0.3547,0.89663,-0.01179,0.34372,1.42799,0.31626,0.38087,1.43893,-0.13268,0.43767,1.17845,0.37737,0.53563,1.2149,-0.02588,0.54541,1.39613,0.26218,0.58411,1.44248
2119,0.13573,0.38568,1.50613,-0.0019,0.46709,0.08682,0.2322,0.15235,0.0834,0.03607,0.51874,0.49859,0.25286,0.31064,0.46664,0.04969,0.38776,0.91337,0.21604,0.35316,0.89614,-0.00789,0.34148,1.42841,0.31949,0.37921,1.43852,-0.13426,0.43448,1.18124,0.37945,0.53374,1.21402,-0.02343,0.54639,1.39477,0.26667,0.58226,1.44279
2120,0.14018,0.38374,1.50661,-0.00263,0.46909,0.08978,0.23236,0.15257,0.08304,0.03887,0.52689,0.50039,0.25447,0.31046,0.46637,0.04992,0.38825,0.91275,0.21582,0.3514,0.89586,-0.00463,0.33975,1.42955,0.32292,0.37741,1.43843,-0.13566,0.43228,1.18464,0.38177,0.53099,1.21299,-0.02136,0.54654,1.39507,0.27095,0.57999,1.44261
2121,0.14479,0.3817,1.50739,-0.00362,0.47138,0.09382,0.23258,0.15277,0.08293,0.04234,0.53624,0.5029,0.25586,0.31016,0.46639,0.05019,0.38865,0.91221,0.2156,0.34934,0.8959,-0.00186,0.33886,1.4313,0.32643,0.37531,1.43833,-0.13728,0.43095,1.18862,0.38438,0.52735,1.21163,-0.0197,0.54508,1.39731,0.27505,0.57729,1.44176
2122,0.14935,0.3799,1.50823,-0.00438,0.47444,0.0989,0.23284,0.15281,0.0829,0.04614,0.54633,0.50627,0.25665,0.30934,0.46669,0.05051,0.38882,0.91192,0.21535,0.34698,0.89624,0.00083,0.33842,1.43325,0.32989,0.37279,1.43779,-0.13958,0.42986,1.19319,0.38705,0.52343,1.20995,-0.01813,0.54234,1.40055,0.27912,0.57443,1.44051
2123,0.15389,0.3784,1.50894,-0.00462,0.47848,0.10465,0.23313,0.15259,0.08285,0.0498,0.55647,0.51039,0.25676,0.30781,0.46717,0.05091,0.38878,0.91196,0.21511,0.34434,0.89678,0.00361,0.33783,1.43503,0.33318,0.36985,1.43655,-0.14282,0.42846,1.19828,0.38961,0.51979,1.20807,-0.01642,0.53918,1.40362,0.28307,0.57176,1.43906
2124,0.15859,0.37715,1.50945,-0.00454,0.48317,0.11066,0.23334,0.15213,0.08274,0.05318,0.56624,0.51493,0.25646,0.3057,0.46775,0.05136,0.38853,0.91216,0.21491,0.34157,0.89743,0.00631,0.33716,1.43668,0.33638,0.36647,1.43485,-0.1469,0.42677,1.20385,0.39211,0.51629,1.20612,-0.01466,0.53664,1.40595,0.28674,0.56948,1.43737
2125,0.16345,0.37599,1.50985,-0.00454,0.48798,0.11675,0.2333,0.15157,0.08262,0.05649,0.57564,0.51955,0.25616,0.30336,0.46836,0.05183,0.38823,0.91228,0.21471,0.33888,0.89807,0.00879,0.33703,1.43859,0.3397,0.36267,1.43331,-0.15153,0.42526,1.21007,0.39469,0.51236,1.20431,-0.01297,0.53543,1.40772,0.29032,0.56741,1.43558
2126,0.16812,0.37476,1.51024,-0.00474,0.49268,0.12291,0.23309,0.15106,0.08255,0.05985,0.58491,0.52414,0.25609,0.30101,0.469,0.05224,0.38824,0.91228,0.21439,0.33639,0.89871,0.01112,0.33774,1.44098,0.34322,0.35859,1.43243,-0.15653,0.42453,1.21721,0.3974,0.5076,1.20279,-0.01122,0.53544,1.40952,0.29454,0.56499,1.43417
2127,0.17221,0.37334,1.51065,-0.00502,0.49746,0.12903,0.23293,0.15069,0.08257,0.06306,0.59405,0.52866,0.25623,0.29865,0.46977,0.05262,0.38894,0.91233,0.21387,0.33415,0.8994,0.01337,0.33892,1.44365,0.34661,0.35458,1.43218,-0.16181,0.42502,1.22545,0.40021,0.50209,1.20145,-0.00925,0.53588,1.4121,0.29994,0.56161,1.43343
2128,0.17586,0.37183,1.51097,-0.00543,0.50261,0.13483,0.23291,0.15053,0.08266,0.06583,0.60275,0.53302,0.25641,0.2963,0.47067,0.05308,0.39041,0.91267,0.21317,0.33225,0.90017,0.01548,0.34021,1.44635,0.34951,0.351,1.432,-0.16733,0.4269,1.23475,0.4029,0.4963,1.19981,-0.00709,0.53608,1.41587,0.30623,0.55717,1.43297
2129,0.17968,0.37037,1.51116,-0.0062,0.5082,0.14004,0.23289,0.15064,0.08277,0.06798,0.61053,0.53715,0.25647,0.29414,0.47163,0.05364,0.39242,0.91345,0.21241,0.33073,0.901,0.01741,0.34187,1.44921,0.35185,0.34786,1.43124,-0.17308,0.42991,1.24507,0.4051,0.49083,1.19758,-0.00466,0.53595,1.42055,0.31242,0.55244,1.43216
2130,0.18393,0.36894,1.51131,-0.00746,0.51403,0.14465,0.23278,0.15099,0.08291,0.06956,0.61713,0.54101,0.25634,0.2923,0.47257,0.05419,0.39459,0.91467,0.21152,0.32941,0.90181,0.01925,0.34446,1.45241,0.35369,0.34474,1.42975,-0.1791,0.43371,1.25646,0.40653,0.48595,1.19493,-0.00175,0.53581,1.42535,0.31781,0.54832,1.43083
2131,0.18822,0.3675,1.51159,-0.00895,0.51982,0.14885,0.2327,0.15139,0.08307,0.07083,0.6227,0.54473,0.25593,0.29067,0.47348,0.05451,0.39668,0.91625,0.2103,0.32806,0.90261,0.02113,0.34824,1.45582,0.35501,0.34117,1.42784,-0.18545,0.43844,1.26901,0.40734,0.48136,1.19231,0.0017,0.53639,1.42958,0.32252,0.54465,1.42939
2132,0.19217,0.36611,1.51207,-0.01032,0.52539,0.15285,0.23283,0.15164,0.08323,0.07204,0.62769,0.54835,0.25511,0.28894,0.4744,0.05455,0.39858,0.91792,0.20875,0.32661,0.90343,0.02299,0.3531,1.45913,0.35581,0.33684,1.42592,-0.19188,0.44482,1.2827,0.40804,0.47662,1.19011,0.00545,0.53858,1.43327,0.32697,0.54061,1.42832
2133,0.19589,0.36486,1.51279,-0.01157,0.5306,0.15668,0.2332,0.15155,0.0834,0.07327,0.63238,0.55179,0.25382,0.28681,0.47536,0.05448,0.40014,0.91934,0.20719,0.32516,0.90431,0.02452,0.35852,1.46231,0.35622,0.33172,1.42424,-0.19783,0.45375,1.29739,0.40887,0.47153,1.18854,0.0096,0.54245,1.43705,0.33105,0.53595,1.42772
2134,0.19962,0.36372,1.51372,-0.01301,0.53543,0.16019,0.23364,0.15119,0.08357,0.07424,0.63666,0.55491,0.25223,0.28425,0.47639,0.05447,0.40124,0.92038,0.20592,0.32376,0.90526,0.02555,0.36388,1.46545,0.35613,0.32603,1.42299,-0.20256,0.46597,1.31296,0.40955,0.4661,1.18762,0.01494,0.54676,1.44168,0.33435,0.53108,1.42748
2135,0.20317,0.36281,1.51475,-0.01476,0.54013,0.16319,0.23391,0.15082,0.08376,0.07465,0.64023,0.55772,0.25058,0.28143,0.47749,0.05456,0.40193,0.9213,0.2049,0.32231,0.9063,0.02653,0.36895,1.46845,0.35525,0.32014,1.42222,-0.20531,0.48168,1.32971,0.40957,0.46035,1.18713,0.0224,0.5501,1.44747,0.33702,0.52633,1.42754
2136,0.20621,0.36243,1.51559,-0.01658,0.54503,0.16564,0.23392,0.15062,0.08396,0.0745,0.64295,0.56034,0.24901,0.27853,0.47864,0.05461,0.40237,0.92243,0.20375,0.32054,0.90738,0.02828,0.37402,1.47132,0.35364,0.31431,1.4216,-0.20532,0.5003,1.34804,0.40885,0.45429,1.18659,0.03218,0.55264,1.45414,0.33966,0.52159,1.42762
2137,0.20872,0.36272,1.51604,-0.01834,0.5502,0.16751,0.23386,0.15042,0.08411,0.07408,0.64482,0.56269,0.24741,0.27558,0.47972,0.05442,0.40268,0.92375,0.20218,0.31843,0.90838,0.03107,0.3795,1.47449,0.35173,0.30865,1.42074,-0.20182,0.52128,1.36785,0.40789,0.44784,1.18549,0.0441,0.55614,1.46117,0.34256,0.51676,1.42714
2138,0.2108,0.36341,1.51616,-0.02037,0.55535,0.16874,0.23395,0.14992,0.08414,0.07358,0.64589,0.56452,0.24574,0.27264,0.48057,0.05386,0.40287,0.92499,0.20017,0.31622,0.90913,0.03414,0.38534,1.47861,0.34982,0.30328,1.41974,-0.19424,0.54471,1.38832,0.40726,0.44075,1.18379,0.05818,0.56223,1.46818,0.34549,0.51197,1.4257
2139,0.21244,0.36416,1.51619,-0.02292,0.56014,0.16934,0.23422,0.1492,0.08415,0.07299,0.64632,0.56562,0.24411,0.26994,0.48124,0.053,0.403,0.92587,0.19799,0.3142,0.90966,0.03624,0.39099,1.48389,0.34781,0.29819,1.41896,-0.18253,0.57038,1.40861,0.40704,0.43285,1.18184,0.07449,0.57095,1.47448,0.34808,0.50741,1.42345
2140,0.21374,0.36488,1.51621,-0.02579,0.56436,0.16937,0.23453,0.14867,0.08429,0.07212,0.64632,0.56605,0.24265,0.26765,0.48195,0.05217,0.40312,0.92638,0.19598,0.31241,0.91027,0.03674,0.39612,1.48971,0.3454,0.29317,1.41857,-0.16719,0.59699,1.42828,0.40691,0.42449,1.18015,0.09271,0.58115,1.47926,0.35028,0.50302,1.42106
2141,0.21491,0.36566,1.51615,-0.02848,0.56814,0.16884,0.23467,0.14865,0.08461,0.07071,0.64596,0.56604,0.24136,0.26578,0.48285,0.05152,0.40322,0.92672,0.19418,0.31063,0.9111,0.03626,0.40165,1.49507,0.3423,0.28794,1.41847,-0.14896,0.62329,1.44734,0.40653,0.4162,1.17911,0.11217,0.59191,1.48234,0.35226,0.49851,1.4193
2142,0.21586,0.36646,1.51594,-0.03069,0.57196,0.16777,0.23453,0.14908,0.08494,0.06872,0.64518,0.56579,0.24025,0.26416,0.48378,0.05089,0.40329,0.9271,0.19223,0.30862,0.91198,0.03632,0.40964,1.49952,0.33833,0.28219,1.41852,-0.12853,0.64923,1.4659,0.40574,0.40794,1.1787,0.1321,0.60292,1.48397,0.35434,0.49351,1.41838
2143,0.21613,0.36707,1.5156,-0.03242,0.57619,0.16613,0.23431,0.14954,0.08521,0.06639,0.64389,0.56528,0.23937,0.2627,0.48462,0.05006,0.40337,0.92759,0.18979,0.30629,0.91273,0.0382,0.42148,1.50337,0.33345,0.27587,1.41852,-0.10608,0.67547,1.48378,0.40436,0.39901,1.17836,0.15187,0.61332,1.48307,0.35689,0.48761,1.41774
2144,0.2154,0.3675,1.5151,-0.03382,0.58074,0.16394,0.23425,0.14966,0.08548,0.06402,0.64208,0.56435,0.23865,0.26135,0.48531,0.04909,0.4035,0.928,0.18692,0.30372,0.91328,0.04214,0.43629,1.50709,0.32788,0.2693,1.4182,-0.08085,0.70188,1.50046,0.40216,0.38904,1.17733,0.17096,0.62135,1.47788,0.36014,0.48072,1.41657
2145,0.21391,0.36812,1.51434,-0.03502,0.58508,0.16124,0.23434,0.14936,0.08571,0.06172,0.63979,0.56288,0.23793,0.26016,0.4858,0.04806,0.40361,0.92814,0.18385,0.30105,0.91363,0.04758,0.45158,1.51071,0.32158,0.26307,1.41741,-0.05195,0.72687,1.51527,0.39902,0.37874,1.17555,0.1886,0.62493,1.46892,0.36378,0.47347,1.41471
2146,0.21229,0.36929,1.5132,-0.03613,0.5886,0.15824,0.23439,0.14889,0.08582,0.05951,0.63711,0.56094,0.23717,0.25919,0.48605,0.04681,0.40356,0.92792,0.18068,0.29847,0.91372,0.05388,0.4653,1.51379,0.31411,0.2577,1.41633,-0.01988,0.74828,1.52759,0.39509,0.3693,1.17372,0.20382,0.62289,1.4595,0.36696,0.4669,1.41267
2147,0.21094,0.371,1.51168,-0.03721,0.59083,0.15528,0.2342,0.14854,0.08582,0.05752,0.63421,0.55878,0.23642,0.25851,0.48614,0.04503,0.40311,0.92732,0.17742,0.29608,0.91363,0.06063,0.47683,1.51567,0.30508,0.25356,1.41515,0.01355,0.76498,1.53704,0.39063,0.36124,1.17234,0.21655,0.61632,1.45284,0.36891,0.46145,1.41086
2148,0.20993,0.37312,1.50974,-0.0383,0.59161,0.15261,0.23382,0.14852,0.08576,0.056,0.63133,0.55658,0.2356,0.25809,0.4862,0.04268,0.40233,0.9264,0.17406,0.29398,0.91347,0.0677,0.48687,1.51587,0.2948,0.25076,1.41388,0.04694,0.77758,1.5435,0.38579,0.35393,1.17108,0.22832,0.6086,1.4489,0.36952,0.45653,1.40903
2149,0.20907,0.37569,1.50724,-0.03944,0.59101,0.15022,0.23339,0.14885,0.0856,0.0551,0.62872,0.55433,0.23472,0.2578,0.4862,0.04001,0.40169,0.92529,0.17056,0.29225,0.91321,0.07521,0.49672,1.51466,0.28418,0.24904,1.4125,0.08009,0.78761,1.54732,0.38057,0.34634,1.16936,0.24145,0.60298,1.44597,0.36915,0.45105,1.40667
2150,0.20823,0.37867,1.50413,-0.04076,0.58918,0.14791,0.23307,0.14927,0.08522,0.0546,0.62642,0.55188,0.23387,0.25743,0.48604,0.03729,0.40163,0.9241,0.1669,0.291,0.91269,0.08313,0.507,1.51285,0.27434,0.24799,1.4112,0.11301,0.79596,1.54912,0.37497,0.33816,1.16704,0.25759,0.60002,1.44375,0.36808,0.44453,1.40379
2151,0.20742,0.38163,1.50068,-0.04231,0.58639,0.1455,0.23288,0.1495,0.08457,0.05409,0.62421,0.54916,0.23295,0.25685,0.48561,0.03455,0.40201,0.92283,0.16317,0.29018,0.91182,0.09081,0.51697,1.51105,0.26616,0.2474,1.41034,0.14513,0.80213,1.54905,0.36911,0.33016,1.16452,0.27628,0.59763,1.44238,0.36657,0.43758,1.40088
2152,0.2067,0.38411,1.49733,-0.04402,0.58319,0.14289,0.23273,0.14934,0.08375,0.05334,0.62193,0.54623,0.23173,0.25608,0.48496,0.03174,0.40246,0.9214,0.15949,0.28962,0.91074,0.09735,0.52558,1.50914,0.2598,0.24734,1.40995,0.17556,0.80522,1.54653,0.36319,0.32329,1.16214,0.29566,0.59368,1.44057,0.3652,0.43118,1.39829
2153,0.20616,0.3863,1.49433,-0.04567,0.58015,0.14019,0.23259,0.14867,0.08305,0.05253,0.61987,0.54323,0.2302,0.2552,0.4843,0.02891,0.40292,0.91974,0.15587,0.28913,0.9097,0.10251,0.53277,1.50658,0.25452,0.2479,1.40975,0.20379,0.8053,1.54088,0.35709,0.31759,1.15976,0.31421,0.58765,1.43677,0.36445,0.42541,1.39583
2154,0.206,0.3887,1.49165,-0.04688,0.57761,0.13765,0.23243,0.14746,0.08267,0.05199,0.61858,0.54041,0.2285,0.25427,0.48384,0.02622,0.40366,0.91793,0.1521,0.28859,0.90883,0.10678,0.53921,1.50311,0.24933,0.24886,1.40943,0.22965,0.80336,1.53196,0.35032,0.31224,1.15713,0.33174,0.58008,1.43134,0.36414,0.41944,1.3932
2155,0.20647,0.39141,1.4891,-0.04736,0.57572,0.1356,0.23211,0.14601,0.08256,0.05194,0.61845,0.53807,0.22669,0.25316,0.48361,0.02372,0.40491,0.9162,0.14798,0.28802,0.90814,0.11086,0.54522,1.49894,0.24385,0.24958,1.40896,0.25277,0.8004,1.52031,0.34266,0.3067,1.15431,0.34807,0.57127,1.4264,0.36364,0.41273,1.39038
2156,0.20756,0.39403,1.48651,-0.04728,0.57467,0.13425,0.23149,0.1448,0.08251,0.05241,0.61951,0.53639,0.22466,0.25172,0.48361,0.02136,0.40672,0.91473,0.14353,0.28759,0.90759,0.11526,0.55049,1.49454,0.23846,0.24966,1.40853,0.27264,0.79703,1.50706,0.33466,0.30117,1.1517,0.36149,0.56153,1.42312,0.36265,0.40591,1.38761
2157,0.20898,0.39604,1.48389,-0.04722,0.57453,0.13349,0.23058,0.14416,0.08236,0.0532,0.62132,0.53523,0.22234,0.25002,0.48371,0.01908,0.40897,0.91355,0.13901,0.28756,0.90713,0.12036,0.55463,1.49019,0.23404,0.24934,1.40826,0.28911,0.79385,1.49347,0.32728,0.29623,1.14946,0.37061,0.55199,1.42093,0.36153,0.39999,1.38498
2158,0.21037,0.39711,1.48144,-0.04764,0.57507,0.13297,0.22956,0.14407,0.08206,0.05403,0.62323,0.53423,0.2199,0.24842,0.48378,0.0169,0.41148,0.9126,0.13471,0.28797,0.90664,0.12619,0.55771,1.48596,0.23125,0.24904,1.40802,0.30235,0.79148,1.48044,0.32119,0.2922,1.1474,0.37616,0.54396,1.41969,0.36085,0.39546,1.3823
2159,0.21152,0.39724,1.47937,-0.04845,0.57589,0.13235,0.22852,0.14433,0.08164,0.05469,0.62487,0.53314,0.2175,0.24728,0.48368,0.01486,0.41415,0.91181,0.1306,0.2887,0.90601,0.13221,0.55995,1.48192,0.22979,0.24882,1.40755,0.3125,0.7902,1.46821,0.31657,0.28904,1.1454,0.38094,0.5385,1.41961,0.36085,0.39207,1.37957
2160,0.21244,0.39684,1.47761,-0.04925,0.57667,0.13165,0.22747,0.14472,0.08118,0.05521,0.62641,0.532,0.21511,0.24675,0.48342,0.01293,0.41697,0.91112,0.12648,0.28953,0.90526,0.13757,0.56159,1.47818,0.22841,0.24846,1.40676,0.31991,0.78964,1.4568,0.31324,0.28646,1.14364,0.38735,0.53572,1.41969,0.36121,0.38914,1.37723
2161,0.2133,0.39644,1.47586,-0.04969,0.57725,0.13121,0.22649,0.14518,0.08082,0.05589,0.62825,0.53111,0.21265,0.24673,0.48313,0.01113,0.41977,0.91047,0.12226,0.29022,0.90452,0.14178,0.56293,1.47482,0.22608,0.24791,1.4058,0.32561,0.78902,1.44653,0.31058,0.28397,1.1423,0.39491,0.53439,1.41885,0.36135,0.38596,1.3756
2162,0.21427,0.39633,1.47397,-0.04959,0.57772,0.13134,0.22574,0.14562,0.08061,0.05702,0.63052,0.53073,0.21015,0.24703,0.48289,0.00939,0.42223,0.90984,0.11807,0.29062,0.90391,0.14494,0.56449,1.47191,0.22296,0.24741,1.40489,0.33107,0.78789,1.43789,0.30787,0.28123,1.14123,0.40104,0.53281,1.41693,0.36098,0.3824,1.37437
