PaulMeinheit/Bachelor_Muay_Thai/processed_Data/E3/teep/sliced/JointPositions/sliced4.csv
Unnamed: 0_level_0,Neck_Joint_Position,Neck_Joint_Position,Neck_Joint_Position,L_ANKLE_POSITION,L_ANKLE_POSITION,L_ANKLE_POSITION,R_ANKLE_POSITION,R_ANKLE_POSITION,R_ANKLE_POSITION,L_KNEE_POSITION,L_KNEE_POSITION,L_KNEE_POSITION,R_KNEE_POSITION,R_KNEE_POSITION,R_KNEE_POSITION,L_HIP_POSITION,L_HIP_POSITION,L_HIP_POSITION,R_HIP_POSITION,R_HIP_POSITION,R_HIP_POSITION,L_SHOULDER_POSITION,L_SHOULDER_POSITION,L_SHOULDER_POSITION,R_SHOULDER_POSITION,R_SHOULDER_POSITION,R_SHOULDER_POSITION,L_ELBOW_POSITION,L_ELBOW_POSITION,L_ELBOW_POSITION,R_ELBOW_POSITION,R_ELBOW_POSITION,R_ELBOW_POSITION,L_WRIST_POSITION,L_WRIST_POSITION,L_WRIST_POSITION,R_WRIST_POSITION,R_WRIST_POSITION,R_WRIST_POSITION
ITEM,X,Y,Z,X,Y,Z,X,Y,Z,X,Y,Z,X,Y,Z,X,Y,Z,X,Y,Z,X,Y,Z,X,Y,Z,X,Y,Z,X,Y,Z,X,Y,Z,X,Y,Z
1502,0.10451,0.40702,1.51758,0.01722,0.48048,0.07843,0.26285,0.15825,0.11617,0.04537,0.48112,0.49421,0.2793,0.34907,0.48452,0.06038,0.37626,0.9163,0.22835,0.34545,0.91466,-0.04865,0.38684,1.4251,0.28017,0.36477,1.45054,-0.09584,0.50845,1.16301,0.36402,0.4581,1.20128,-0.04016,0.60101,1.40535,0.24828,0.57572,1.40173
1503,0.10196,0.4094,1.51766,0.01708,0.48024,0.07826,0.26382,0.1593,0.11818,0.04401,0.48058,0.49412,0.28069,0.35238,0.48532,0.05912,0.37708,0.91654,0.22724,0.34707,0.91515,-0.05086,0.38857,1.42543,0.27841,0.3678,1.45102,-0.0988,0.51033,1.16354,0.36245,0.46038,1.20154,-0.0432,0.60316,1.4058,0.24614,0.57741,1.402
1504,0.09986,0.41178,1.51764,0.01698,0.48007,0.07818,0.26478,0.16022,0.12014,0.04285,0.48001,0.49411,0.28179,0.35546,0.48614,0.05778,0.37775,0.91684,0.22601,0.34837,0.91564,-0.05307,0.38996,1.42558,0.27606,0.37025,1.45159,-0.10162,0.51246,1.16415,0.36018,0.46289,1.20216,-0.04567,0.60554,1.40624,0.24356,0.58048,1.40212
1505,0.09803,0.41376,1.51773,0.01689,0.47998,0.07821,0.26563,0.161,0.12193,0.04198,0.47949,0.49419,0.28247,0.35822,0.48687,0.05636,0.37838,0.91721,0.22469,0.34956,0.91608,-0.0552,0.39113,1.42555,0.27345,0.37194,1.45203,-0.10425,0.51444,1.16459,0.35723,0.4659,1.20298,-0.04819,0.60807,1.40644,0.24064,0.58442,1.40241
1506,0.09614,0.41531,1.518,0.01688,0.47993,0.07832,0.26641,0.16178,0.12351,0.04139,0.47921,0.49433,0.28301,0.36066,0.48755,0.05489,0.37915,0.91764,0.22332,0.35087,0.91648,-0.05709,0.3924,1.42551,0.2708,0.37324,1.45222,-0.10682,0.51573,1.16469,0.35404,0.46883,1.20361,-0.05127,0.61068,1.40615,0.23812,0.58799,1.40305
1507,0.09412,0.41675,1.5184,0.01698,0.47989,0.07846,0.26736,0.16275,0.12498,0.04099,0.47927,0.4945,0.2837,0.36299,0.48829,0.05346,0.38,0.91802,0.22199,0.35232,0.91691,-0.05866,0.39393,1.42559,0.26817,0.37457,1.45228,-0.10951,0.51628,1.16452,0.35109,0.47086,1.20384,-0.05476,0.61338,1.40531,0.23641,0.59029,1.40383
1508,0.09214,0.41837,1.51881,0.01697,0.47982,0.07854,0.26866,0.16398,0.12651,0.04056,0.47955,0.4946,0.28455,0.36553,0.48912,0.05221,0.3807,0.91825,0.22085,0.35368,0.91741,-0.06012,0.39557,1.42576,0.26571,0.37604,1.45237,-0.11236,0.51658,1.16435,0.34863,0.47199,1.2038,-0.05775,0.61638,1.40406,0.23516,0.59134,1.40452
1509,0.09023,0.42031,1.5191,0.01662,0.4797,0.07853,0.27021,0.16528,0.12817,0.03994,0.47982,0.49461,0.28522,0.3684,0.48994,0.05128,0.38108,0.91829,0.22003,0.35475,0.91796,-0.06184,0.39702,1.42598,0.26373,0.37766,1.45251,-0.11519,0.51702,1.16433,0.34657,0.47309,1.2037,-0.05951,0.62,1.40244,0.23361,0.59188,1.40505
1510,0.08821,0.42255,1.51918,0.01594,0.47952,0.07848,0.27168,0.16643,0.12984,0.03912,0.4799,0.49456,0.28552,0.37137,0.49062,0.05059,0.3812,0.91825,0.21946,0.35566,0.91843,-0.06396,0.39823,1.4262,0.26245,0.3796,1.45276,-0.11776,0.51739,1.16425,0.34464,0.47488,1.20369,-0.06018,0.62437,1.40014,0.23138,0.5927,1.40543
1511,0.086,0.42502,1.51901,0.01521,0.47936,0.07845,0.27284,0.16734,0.13132,0.03818,0.47975,0.49455,0.28561,0.37415,0.49107,0.04985,0.38127,0.91828,0.21885,0.35662,0.91871,-0.06635,0.39934,1.42635,0.26169,0.38185,1.45321,-0.11999,0.51723,1.1638,0.34266,0.4772,1.20376,-0.0605,0.62923,1.39686,0.22872,0.59405,1.40569
1512,0.0837,0.42754,1.51866,0.01471,0.47941,0.07846,0.27385,0.1681,0.1326,0.03719,0.47941,0.49459,0.28583,0.37659,0.49141,0.04881,0.38145,0.91844,0.21793,0.35764,0.9188,-0.06872,0.40045,1.42644,0.26091,0.38405,1.45378,-0.12207,0.51655,1.16303,0.34072,0.47932,1.20394,-0.06102,0.63404,1.39296,0.22621,0.59563,1.40585
1513,0.08153,0.42979,1.51829,0.01442,0.47975,0.07848,0.27509,0.1687,0.13388,0.03619,0.47901,0.49465,0.28624,0.37873,0.49182,0.04751,0.38178,0.91867,0.2167,0.35848,0.91889,-0.07077,0.40159,1.4265,0.25971,0.38574,1.45433,-0.12418,0.5159,1.16232,0.33883,0.48091,1.20422,-0.06194,0.63814,1.38945,0.22404,0.59725,1.40596
1514,0.07967,0.43148,1.5181,0.01419,0.48013,0.07849,0.27667,0.16901,0.13533,0.03521,0.47863,0.49469,0.2866,0.38069,0.49233,0.04621,0.38215,0.9189,0.21542,0.35906,0.91907,-0.07237,0.40278,1.4265,0.25822,0.38685,1.45479,-0.12617,0.51568,1.16179,0.33677,0.48228,1.2046,-0.0633,0.64121,1.38694,0.22192,0.59893,1.40613
1515,0.07809,0.43262,1.51819,0.01403,0.48032,0.07851,0.27832,0.16907,0.13691,0.03426,0.47825,0.49475,0.28665,0.38254,0.49289,0.04517,0.38246,0.91911,0.21442,0.35955,0.91937,-0.07371,0.40397,1.42631,0.2568,0.38774,1.45524,-0.12779,0.51569,1.16117,0.33442,0.48377,1.20499,-0.06489,0.64359,1.38496,0.21966,0.60051,1.40651
1516,0.07652,0.43347,1.51839,0.01408,0.48036,0.07853,0.27979,0.16907,0.13844,0.03333,0.47782,0.49481,0.28635,0.38422,0.49344,0.04445,0.38268,0.91932,0.21374,0.36018,0.9198,-0.07515,0.40503,1.42593,0.25562,0.38878,1.45569,-0.12898,0.51548,1.1602,0.3321,0.48523,1.20525,-0.06634,0.64584,1.38265,0.21747,0.60164,1.40704
1517,0.07478,0.43432,1.51847,0.01436,0.48036,0.07854,0.28107,0.16907,0.1398,0.03253,0.47749,0.49487,0.28583,0.38567,0.49395,0.04379,0.38288,0.91949,0.21316,0.36094,0.92026,-0.07679,0.40602,1.4255,0.25457,0.39004,1.45605,-0.12993,0.51485,1.15896,0.33026,0.48648,1.20537,-0.06772,0.64795,1.3799,0.21557,0.6022,1.40752
1518,0.07313,0.43534,1.5183,0.01468,0.48038,0.07853,0.28226,0.16889,0.14102,0.03203,0.47744,0.49489,0.28524,0.38691,0.49431,0.043,0.38318,0.9196,0.21243,0.36177,0.92057,-0.07837,0.40711,1.42503,0.25352,0.39131,1.45623,-0.13093,0.514,1.15759,0.32898,0.48761,1.20542,-0.06939,0.64946,1.37728,0.21389,0.60239,1.40788
1519,0.07191,0.43647,1.51794,0.01484,0.4805,0.07853,0.28332,0.16836,0.1422,0.03184,0.47764,0.49491,0.28471,0.38805,0.49447,0.04209,0.38375,0.91971,0.21156,0.36262,0.92066,-0.07957,0.40824,1.42444,0.25256,0.39233,1.4562,-0.13202,0.51324,1.15624,0.32805,0.48872,1.20544,-0.07128,0.65033,1.37513,0.21227,0.60247,1.40809
1520,0.07107,0.43761,1.51747,0.01484,0.48069,0.07853,0.28418,0.16756,0.14337,0.03178,0.47782,0.49491,0.28425,0.38904,0.49452,0.0413,0.38461,0.91988,0.21077,0.3635,0.92065,-0.0803,0.40912,1.42379,0.25176,0.39301,1.45607,-0.13307,0.5127,1.1551,0.32727,0.48982,1.20547,-0.07286,0.65112,1.37331,0.21071,0.60261,1.4082
1521,0.07018,0.43867,1.51694,0.01488,0.48072,0.0785,0.28491,0.16656,0.14446,0.03165,0.47773,0.49488,0.28377,0.38971,0.49454,0.04072,0.38551,0.92008,0.21019,0.36432,0.92066,-0.08072,0.4097,1.4233,0.25102,0.39351,1.45598,-0.1339,0.51234,1.15433,0.32664,0.49099,1.20567,-0.07347,0.65241,1.37142,0.20925,0.60295,1.40839
1522,0.06899,0.43956,1.51648,0.01509,0.48045,0.07843,0.2857,0.16532,0.14542,0.03137,0.47742,0.49484,0.28317,0.38996,0.49454,0.04024,0.38604,0.92022,0.20972,0.36499,0.92071,-0.08112,0.41018,1.42309,0.25017,0.39409,1.45606,-0.13443,0.51221,1.15391,0.32615,0.49239,1.20619,-0.07257,0.65443,1.3692,0.20787,0.60346,1.40888
1523,0.06759,0.44017,1.51619,0.01542,0.48005,0.07835,0.28663,0.16378,0.14631,0.03097,0.47716,0.49478,0.28238,0.38979,0.49453,0.03975,0.38604,0.92022,0.2093,0.36552,0.9208,-0.08171,0.41061,1.4231,0.24926,0.39478,1.45637,-0.13462,0.51242,1.15377,0.32568,0.49384,1.20693,-0.07034,0.65686,1.36686,0.20656,0.60396,1.40965
1524,0.06606,0.44052,1.51598,0.01566,0.47981,0.07826,0.28756,0.16209,0.14714,0.03047,0.47711,0.49472,0.28143,0.38922,0.4946,0.03929,0.38573,0.92011,0.20894,0.36607,0.92103,-0.0824,0.41078,1.42312,0.24839,0.39544,1.45682,-0.13455,0.51296,1.15377,0.32515,0.49485,1.20763,-0.06828,0.65868,1.36537,0.20547,0.60432,1.41037
1525,0.0644,0.44078,1.51571,0.01565,0.47978,0.07816,0.28827,0.16046,0.14784,0.02994,0.47723,0.49464,0.28039,0.3883,0.49481,0.03886,0.38547,0.91994,0.20861,0.36672,0.92144,-0.083,0.41053,1.4229,0.24745,0.39599,1.45734,-0.1344,0.51353,1.15372,0.32464,0.49514,1.20818,-0.06807,0.65878,1.36562,0.20476,0.60462,1.41079
1526,0.06284,0.44107,1.51537,0.01544,0.47984,0.07806,0.28877,0.15891,0.14833,0.02953,0.47741,0.49454,0.2793,0.38712,0.49501,0.03835,0.38537,0.91979,0.20817,0.36739,0.92185,-0.08343,0.40992,1.42246,0.2463,0.39641,1.45785,-0.13426,0.51384,1.15352,0.32432,0.49494,1.2087,-0.06975,0.65712,1.36732,0.20441,0.60489,1.41104
1527,0.0618,0.4414,1.5151,0.01512,0.47991,0.07809,0.2892,0.15738,0.14858,0.0293,0.47761,0.49457,0.27812,0.38596,0.49498,0.03774,0.38527,0.91976,0.20763,0.36789,0.92199,-0.08387,0.40918,1.422,0.24508,0.3966,1.45828,-0.134,0.51405,1.1533,0.32424,0.49471,1.20932,-0.07157,0.65497,1.36927,0.20414,0.605,1.41136
1528,0.06144,0.44177,1.51499,0.01475,0.47993,0.07837,0.28967,0.15583,0.14866,0.0291,0.47786,0.49485,0.27683,0.385,0.49459,0.03725,0.38496,0.91992,0.20719,0.36809,0.92179,-0.08446,0.4085,1.42176,0.24402,0.39655,1.45858,-0.13342,0.51448,1.15328,0.32422,0.49476,1.20999,-0.07211,0.65352,1.37079,0.20353,0.60482,1.41181
1529,0.06151,0.44218,1.51501,0.01441,0.47985,0.07881,0.2901,0.15428,0.14859,0.02873,0.47813,0.49529,0.2754,0.38413,0.494,0.03707,0.3845,0.9202,0.20706,0.36809,0.92144,-0.08506,0.40807,1.42171,0.24332,0.39646,1.45885,-0.13255,0.51505,1.15337,0.32403,0.49517,1.21063,-0.0719,0.65259,1.37201,0.20231,0.60441,1.41227
1530,0.0617,0.44254,1.51502,0.01417,0.47972,0.07914,0.29029,0.15279,0.14834,0.02827,0.47818,0.49564,0.27387,0.38303,0.49342,0.03715,0.38402,0.92042,0.20718,0.36804,0.92116,-0.08554,0.40796,1.42169,0.24301,0.39653,1.45923,-0.13164,0.51533,1.15326,0.3237,0.49592,1.21127,-0.07236,0.65105,1.37342,0.20069,0.60388,1.41283
1531,0.06185,0.44267,1.51495,0.01393,0.47976,0.07921,0.28996,0.15143,0.1478,0.02794,0.47782,0.4957,0.27232,0.38146,0.49296,0.03724,0.38358,0.92045,0.20733,0.36809,0.92101,-0.0859,0.40802,1.42165,0.24308,0.39677,1.45968,-0.13089,0.51519,1.15295,0.32339,0.49697,1.21192,-0.07397,0.64826,1.37533,0.1993,0.60333,1.41366
1532,0.06198,0.44238,1.51492,0.01362,0.48006,0.07907,0.2891,0.15021,0.14691,0.02781,0.47719,0.49555,0.27093,0.37943,0.49257,0.03721,0.38313,0.92034,0.20734,0.36826,0.9209,-0.08611,0.40795,1.42164,0.24342,0.39702,1.46004,-0.13027,0.51491,1.15272,0.32317,0.49826,1.21253,-0.07586,0.64479,1.3776,0.19859,0.60303,1.4148
1533,0.06216,0.4416,1.51505,0.01329,0.48049,0.07891,0.28804,0.14906,0.1458,0.02778,0.47665,0.49537,0.26981,0.37711,0.49223,0.03707,0.38273,0.92019,0.20726,0.36847,0.92077,-0.08597,0.40763,1.4217,0.24379,0.39715,1.46024,-0.12959,0.51498,1.15284,0.32306,0.49973,1.21313,-0.07659,0.64221,1.37957,0.19844,0.6032,1.41604
1534,0.06258,0.44051,1.51531,0.01312,0.4808,0.07887,0.28718,0.14793,0.1447,0.02777,0.47632,0.49532,0.26883,0.37465,0.492,0.03696,0.3824,0.92014,0.20719,0.36859,0.92072,-0.08538,0.40708,1.42181,0.24403,0.39711,1.46028,-0.12866,0.51566,1.1534,0.32318,0.50122,1.21377,-0.07534,0.6417,1.38071,0.19842,0.60367,1.41711
1535,0.06329,0.43938,1.51558,0.01324,0.48082,0.07895,0.28664,0.14685,0.14366,0.02773,0.47595,0.49541,0.26769,0.37204,0.49193,0.03701,0.38211,0.92025,0.20725,0.36856,0.92084,-0.08454,0.40641,1.422,0.2442,0.397,1.4602,-0.12747,0.51672,1.15424,0.32364,0.50253,1.21438,-0.07287,0.6425,1.3814,0.19838,0.60389,1.41797
1536,0.06404,0.43836,1.51577,0.01345,0.48062,0.07908,0.2862,0.14585,0.14256,0.02761,0.4753,0.49554,0.26629,0.36927,0.49191,0.0372,0.38181,0.92045,0.20746,0.36839,0.92106,-0.08367,0.40569,1.42226,0.24452,0.39692,1.46007,-0.12626,0.51767,1.15513,0.32424,0.50349,1.21479,-0.07096,0.64268,1.38254,0.19845,0.60344,1.41874
1537,0.06445,0.43749,1.51584,0.01344,0.48046,0.07914,0.28554,0.14489,0.14122,0.02746,0.47444,0.4956,0.26479,0.3664,0.49174,0.03749,0.3815,0.92062,0.20775,0.36807,0.92113,-0.08292,0.40494,1.42253,0.24506,0.39689,1.45985,-0.12521,0.51827,1.15593,0.32468,0.50424,1.21488,-0.07026,0.6413,1.3845,0.19866,0.60244,1.41954
1538,0.06445,0.43668,1.51581,0.01316,0.48053,0.0791,0.28461,0.14394,0.13963,0.02739,0.47362,0.49553,0.26331,0.3635,0.49134,0.03785,0.38124,0.92066,0.2081,0.36762,0.92095,-0.08238,0.40411,1.42284,0.24576,0.39668,1.45948,-0.12435,0.51861,1.15669,0.32496,0.505,1.2148,-0.07007,0.63911,1.38676,0.19883,0.60126,1.42032
1539,0.06446,0.43584,1.51578,0.01295,0.48071,0.07901,0.28354,0.14305,0.13787,0.02751,0.47307,0.49542,0.26185,0.36053,0.49084,0.03827,0.38097,0.92061,0.20849,0.36713,0.92066,-0.08201,0.40319,1.42323,0.24653,0.39599,1.459,-0.12359,0.51886,1.15753,0.32535,0.50573,1.21484,-0.06969,0.63733,1.38875,0.19897,0.60016,1.42105
1540,0.06488,0.43488,1.51579,0.01308,0.48083,0.07901,0.28249,0.14225,0.13601,0.02773,0.47281,0.49541,0.26037,0.35737,0.4904,0.03867,0.38054,0.92056,0.20889,0.36665,0.92039,-0.08159,0.40221,1.4237,0.24737,0.39485,1.45861,-0.12291,0.51918,1.15852,0.32598,0.50627,1.21514,-0.06885,0.63645,1.3903,0.19928,0.59925,1.42181
1541,0.06583,0.43368,1.51589,0.01337,0.48086,0.07914,0.28149,0.1415,0.13407,0.02787,0.47275,0.49554,0.25898,0.35408,0.48996,0.039,0.37992,0.92056,0.20922,0.36608,0.9201,-0.08093,0.4012,1.42418,0.24837,0.39358,1.45841,-0.12231,0.5196,1.15965,0.32665,0.50667,1.21561,-0.06748,0.63609,1.39165,0.19977,0.59862,1.42262
1542,0.06718,0.43217,1.51609,0.01346,0.4808,0.07927,0.28042,0.14072,0.13202,0.02779,0.47274,0.49568,0.25792,0.35079,0.4894,0.03928,0.37923,0.92054,0.20949,0.36523,0.91961,-0.07995,0.40014,1.42464,0.24958,0.39241,1.45834,-0.1217,0.51993,1.1608,0.3272,0.50696,1.21601,-0.06585,0.63537,1.39308,0.20029,0.59833,1.42326
1543,0.06866,0.43043,1.51632,0.01329,0.48067,0.0793,0.27914,0.13991,0.12988,0.02758,0.47269,0.49571,0.25736,0.3475,0.48874,0.03964,0.37858,0.92042,0.20981,0.36414,0.91897,-0.07861,0.39894,1.42501,0.25095,0.39133,1.45826,-0.12112,0.51984,1.16179,0.32778,0.50699,1.2162,-0.06452,0.63371,1.39467,0.20081,0.59823,1.42348
1544,0.06998,0.4287,1.51643,0.01316,0.48058,0.07924,0.27759,0.139,0.12775,0.02751,0.47263,0.49565,0.25713,0.34402,0.48818,0.04014,0.37803,0.92023,0.21026,0.36306,0.91838,-0.0771,0.3975,1.42517,0.25229,0.39021,1.4581,-0.12064,0.51922,1.16249,0.32867,0.5066,1.21625,-0.0637,0.63142,1.3961,0.20152,0.59808,1.42332
1545,0.07107,0.42708,1.51634,0.01337,0.4807,0.07918,0.27582,0.13791,0.12568,0.02768,0.4726,0.49559,0.25684,0.34017,0.48774,0.04075,0.37756,0.92006,0.21082,0.36211,0.9179,-0.07574,0.39591,1.42503,0.25353,0.38889,1.4578,-0.12027,0.51831,1.16284,0.33003,0.50585,1.21627,-0.06307,0.62925,1.39698,0.20263,0.59762,1.42304
1546,0.07203,0.42552,1.51605,0.01389,0.48099,0.07916,0.27392,0.13666,0.12356,0.02798,0.47254,0.49557,0.25615,0.33602,0.48729,0.04137,0.37708,0.91994,0.21139,0.36112,0.91741,-0.07467,0.39447,1.42476,0.25479,0.38725,1.45732,-0.11995,0.51737,1.16293,0.3317,0.50495,1.21628,-0.06207,0.62763,1.39723,0.20414,0.59676,1.42294
1547,0.07309,0.42385,1.51563,0.01437,0.48126,0.07921,0.27185,0.13541,0.12137,0.0283,0.4724,0.49561,0.25511,0.33187,0.48672,0.04198,0.37655,0.91988,0.21192,0.35984,0.91682,-0.07372,0.39321,1.42458,0.25626,0.38532,1.45671,-0.11969,0.51643,1.16302,0.33338,0.50403,1.21622,-0.06031,0.6265,1.39702,0.20587,0.59555,1.42304
1548,0.07443,0.42199,1.51513,0.01447,0.48139,0.07928,0.2696,0.13417,0.11923,0.02879,0.47218,0.49566,0.2541,0.32794,0.48607,0.04254,0.37593,0.91984,0.21237,0.35823,0.91616,-0.07264,0.39174,1.42457,0.25799,0.38322,1.45608,-0.11955,0.51536,1.16337,0.33493,0.50296,1.21605,-0.0578,0.62577,1.3966,0.20756,0.59409,1.42313
1549,0.07615,0.42003,1.51464,0.01416,0.48143,0.07932,0.26727,0.13278,0.11731,0.02964,0.47197,0.49566,0.25347,0.32425,0.48542,0.04308,0.37525,0.91975,0.21278,0.35645,0.91547,-0.07135,0.38976,1.42464,0.25981,0.38114,1.45548,-0.11936,0.51408,1.16397,0.3364,0.50163,1.21571,-0.05519,0.62521,1.3962,0.20912,0.59252,1.42295
1550,0.07809,0.41808,1.51423,0.01372,0.48143,0.07928,0.26499,0.1312,0.1156,0.03075,0.47182,0.49556,0.25315,0.32067,0.48481,0.04363,0.37461,0.91954,0.21319,0.35466,0.91479,-0.06985,0.38743,1.42458,0.26162,0.37912,1.45478,-0.11888,0.51251,1.16447,0.33769,0.50018,1.21513,-0.05331,0.62444,1.39593,0.21057,0.59099,1.4225
1551,0.07995,0.41616,1.51389,0.01349,0.48134,0.07916,0.2628,0.12963,0.11393,0.03184,0.47166,0.49538,0.25276,0.31701,0.48426,0.04426,0.37409,0.9193,0.21366,0.35297,0.91416,-0.06812,0.38519,1.42433,0.26346,0.37707,1.45391,-0.11801,0.51063,1.16455,0.33864,0.49878,1.21431,-0.0522,0.62325,1.39561,0.21193,0.58951,1.42197
1552,0.08163,0.41421,1.51357,0.01358,0.48106,0.079,0.26074,0.1283,0.11212,0.03268,0.47137,0.49518,0.25208,0.31316,0.48375,0.04498,0.37365,0.91907,0.21423,0.35147,0.91356,-0.06618,0.38344,1.42398,0.26542,0.37484,1.45295,-0.11689,0.50849,1.16418,0.33936,0.49748,1.21344,-0.05112,0.62185,1.39488,0.21323,0.58798,1.42156
1553,0.08332,0.41224,1.51321,0.01385,0.48058,0.0788,0.25885,0.12721,0.11008,0.03331,0.47098,0.49497,0.25122,0.30915,0.48317,0.04579,0.37313,0.91883,0.2149,0.35004,0.91287,-0.06424,0.3821,1.4237,0.26738,0.3725,1.45202,-0.11573,0.50619,1.16358,0.34036,0.49615,1.21274,-0.04949,0.62042,1.39372,0.21458,0.58621,1.42126
1554,0.08527,0.41031,1.51279,0.01415,0.4802,0.07857,0.25709,0.12625,0.10783,0.03384,0.47072,0.49473,0.25046,0.30505,0.48246,0.04673,0.37239,0.91846,0.21572,0.3485,0.91204,-0.06258,0.38061,1.42353,0.26908,0.37038,1.45123,-0.11456,0.50368,1.16303,0.34213,0.49459,1.21226,-0.04742,0.61883,1.39245,0.2162,0.58409,1.42092
1555,0.08744,0.40831,1.51235,0.01446,0.48022,0.07837,0.25533,0.12546,0.10549,0.03441,0.47082,0.49452,0.2499,0.30079,0.48178,0.04784,0.37153,0.91801,0.2167,0.34687,0.91121,-0.06125,0.37846,1.42345,0.27037,0.36857,1.45061,-0.11327,0.50083,1.16263,0.34454,0.49251,1.21185,-0.04536,0.61708,1.39128,0.21826,0.58164,1.42046
1556,0.08955,0.40606,1.51206,0.01482,0.48061,0.07832,0.25349,0.12483,0.10332,0.03512,0.47126,0.49445,0.24952,0.29635,0.48137,0.04902,0.37081,0.91765,0.21773,0.34522,0.91059,-0.05998,0.37588,1.42342,0.27147,0.36683,1.45013,-0.11175,0.49767,1.16228,0.34697,0.48986,1.21131,-0.04356,0.61543,1.39005,0.22064,0.57894,1.41991
1557,0.09145,0.40356,1.51204,0.01511,0.48104,0.07836,0.25172,0.12424,0.10152,0.03598,0.47187,0.49447,0.24925,0.29202,0.48126,0.05012,0.37023,0.91738,0.21866,0.34352,0.91026,-0.05846,0.37363,1.42339,0.27288,0.36484,1.44966,-0.10996,0.4944,1.16172,0.349,0.48686,1.21051,-0.04197,0.61401,1.38859,0.22294,0.57605,1.41923
1558,0.09332,0.401,1.51224,0.01518,0.48127,0.07832,0.25027,0.1236,0.10004,0.03691,0.47246,0.49439,0.24907,0.28815,0.48119,0.05113,0.36958,0.917,0.21948,0.3417,0.91002,-0.05657,0.37221,1.42337,0.27489,0.3625,1.44915,-0.1079,0.49127,1.16088,0.35062,0.48375,1.20949,-0.04035,0.6127,1.38692,0.22484,0.5731,1.41831
1559,0.09555,0.39857,1.51239,0.01508,0.48135,0.07807,0.24927,0.12296,0.0986,0.03783,0.47298,0.4941,0.24894,0.28471,0.48096,0.05218,0.36873,0.91637,0.22038,0.33985,0.90965,-0.0544,0.37132,1.42336,0.2773,0.36,1.44876,-0.10566,0.48834,1.15994,0.35207,0.48056,1.20846,-0.03829,0.6114,1.38515,0.22652,0.57036,1.41722
1560,0.09834,0.39628,1.51224,0.01505,0.48138,0.07772,0.24859,0.12235,0.09709,0.03884,0.47345,0.49369,0.24887,0.28142,0.48056,0.05338,0.36772,0.91559,0.22144,0.33807,0.90914,-0.05215,0.37021,1.42325,0.27964,0.35758,1.44863,-0.10345,0.48552,1.15908,0.35354,0.47725,1.20761,-0.03564,0.61011,1.38331,0.2285,0.56783,1.41634
1561,0.10147,0.39404,1.51178,0.01522,0.48136,0.07747,0.24805,0.1217,0.0956,0.04005,0.47395,0.4934,0.2488,0.2781,0.48017,0.05469,0.36661,0.91488,0.22265,0.33634,0.90861,-0.05001,0.36841,1.42293,0.28168,0.3554,1.44866,-0.10143,0.48265,1.15833,0.3551,0.47386,1.2069,-0.03274,0.60871,1.38146,0.23114,0.56498,1.41604
1562,0.10446,0.39186,1.5112,0.01546,0.48125,0.07748,0.24759,0.12092,0.0943,0.04135,0.47454,0.49336,0.24867,0.27482,0.47988,0.056,0.36542,0.91438,0.22386,0.33457,0.90819,-0.04796,0.36611,1.42251,0.28354,0.35338,1.44857,-0.09956,0.47962,1.15763,0.35674,0.47041,1.20605,-0.03003,0.60702,1.37975,0.23444,0.5612,1.41631
1563,0.10708,0.3898,1.51066,0.01559,0.48106,0.07768,0.24729,0.12006,0.09321,0.04242,0.47518,0.49351,0.24854,0.27162,0.47971,0.05721,0.3642,0.91404,0.22497,0.3328,0.90789,-0.04584,0.36383,1.42226,0.28551,0.35121,1.44816,-0.09759,0.47639,1.157,0.3584,0.46694,1.20493,-0.02754,0.60493,1.3783,0.23796,0.55683,1.41664
1564,0.10958,0.3879,1.5102,0.01564,0.48089,0.07793,0.24729,0.11918,0.09222,0.04322,0.4757,0.49372,0.24864,0.26843,0.47962,0.05832,0.363,0.91378,0.22598,0.33107,0.90763,-0.04364,0.36191,1.42232,0.28774,0.34843,1.44754,-0.09528,0.47309,1.15645,0.36007,0.4636,1.20387,-0.02501,0.6026,1.37711,0.241,0.55308,1.41653
1565,0.11228,0.38598,1.50983,0.01573,0.4809,0.07813,0.24763,0.11834,0.09123,0.04401,0.47595,0.49387,0.24917,0.26521,0.47954,0.05947,0.3619,0.91356,0.227,0.32932,0.90737,-0.04151,0.36026,1.42253,0.29015,0.34497,1.44693,-0.09257,0.46996,1.15594,0.36181,0.46062,1.20329,-0.02225,0.60028,1.3761,0.24325,0.55074,1.41596
1566,0.11508,0.38378,1.5095,0.0159,0.4812,0.07825,0.24824,0.11752,0.09023,0.04512,0.47592,0.49392,0.25015,0.2619,0.47947,0.06077,0.36079,0.9133,0.22814,0.3274,0.9071,-0.0396,0.35867,1.42263,0.2925,0.3413,1.44638,-0.08961,0.46715,1.15535,0.36377,0.45806,1.20316,-0.01926,0.59805,1.37516,0.24513,0.54917,1.41536
1567,0.11759,0.38125,1.50913,0.01601,0.48169,0.07827,0.24901,0.11668,0.08921,0.04652,0.47581,0.49385,0.25145,0.25852,0.47938,0.06223,0.3594,0.91287,0.22945,0.32517,0.90683,-0.03784,0.35705,1.42256,0.29457,0.33797,1.44569,-0.08664,0.46452,1.15465,0.36598,0.45563,1.20294,-0.01617,0.59575,1.37422,0.24743,0.54703,1.41507
1568,0.11979,0.37852,1.50866,0.01593,0.48202,0.07822,0.24985,0.1158,0.08817,0.04793,0.47589,0.49368,0.2528,0.25523,0.4792,0.06383,0.35757,0.91216,0.23091,0.32264,0.90653,-0.03602,0.35539,1.42241,0.29638,0.33506,1.44473,-0.08367,0.46194,1.15392,0.36829,0.45288,1.2022,-0.01309,0.59327,1.37341,0.25061,0.54363,1.4151
1569,0.12215,0.37577,1.5082,0.01569,0.48199,0.07817,0.25058,0.11491,0.08711,0.04908,0.47632,0.49353,0.25397,0.25234,0.47885,0.06552,0.35542,0.91125,0.23252,0.32003,0.90616,-0.03393,0.35361,1.42223,0.29818,0.33229,1.44372,-0.08061,0.45942,1.15328,0.37054,0.44967,1.20111,-0.01004,0.59063,1.37283,0.25423,0.53961,1.4151
1570,0.12492,0.37308,1.5079,0.01554,0.48171,0.07822,0.25102,0.11404,0.08606,0.04998,0.47715,0.4935,0.25484,0.24985,0.47835,0.0673,0.35323,0.91031,0.23424,0.31749,0.90571,-0.03161,0.3516,1.42203,0.30025,0.32943,1.44288,-0.07753,0.45688,1.15274,0.37279,0.44638,1.20012,-0.00709,0.58787,1.37247,0.25723,0.53614,1.41459
1571,0.12783,0.37052,1.50769,0.01566,0.48143,0.07842,0.25121,0.11315,0.08506,0.05085,0.47823,0.49365,0.25555,0.24747,0.47787,0.0691,0.35111,0.90945,0.23595,0.3149,0.90531,-0.0292,0.34949,1.42188,0.30255,0.32653,1.44217,-0.07471,0.45418,1.1523,0.37514,0.44358,1.19947,-0.00441,0.58492,1.37222,0.25909,0.53375,1.4135
1572,0.13052,0.36812,1.50733,0.01605,0.48141,0.07876,0.25132,0.1123,0.08418,0.05184,0.47923,0.49395,0.25636,0.24488,0.47757,0.07081,0.34886,0.90871,0.23756,0.31216,0.90507,-0.0268,0.34745,1.42181,0.30485,0.32381,1.44144,-0.07232,0.45132,1.15191,0.37762,0.44131,1.19902,-0.00199,0.58179,1.37199,0.26039,0.53188,1.41224
1573,0.13299,0.36573,1.50675,0.01659,0.48169,0.07918,0.25145,0.11158,0.08339,0.05285,0.47999,0.49433,0.25744,0.24197,0.4775,0.07245,0.34631,0.90801,0.23914,0.30927,0.90501,-0.02446,0.34551,1.42174,0.30696,0.32126,1.44074,-0.07017,0.44856,1.15155,0.38012,0.43909,1.1986,0.00055,0.57865,1.37172,0.26187,0.52985,1.41118
1574,0.13539,0.36319,1.50626,0.01718,0.48212,0.07966,0.25157,0.11103,0.08263,0.05379,0.48066,0.49478,0.25874,0.23885,0.47755,0.0741,0.34365,0.90733,0.24074,0.30632,0.90506,-0.02223,0.34361,1.42159,0.30884,0.31859,1.44016,-0.06793,0.44613,1.1512,0.38248,0.43653,1.19821,0.00347,0.57567,1.37148,0.26362,0.52781,1.41023
1575,0.1378,0.36045,1.50609,0.01778,0.48253,0.0802,0.25163,0.11052,0.08193,0.05476,0.48143,0.49529,0.26004,0.23571,0.47767,0.07578,0.34124,0.90673,0.24233,0.30345,0.90515,-0.02016,0.34174,1.42146,0.31053,0.31555,1.4397,-0.06551,0.44403,1.15093,0.38453,0.43348,1.19786,0.00646,0.57296,1.37138,0.26543,0.52609,1.40916
1576,0.14018,0.35764,1.50624,0.01834,0.4829,0.08083,0.25164,0.10995,0.08137,0.05595,0.48232,0.49586,0.26116,0.23271,0.47785,0.0775,0.33921,0.90627,0.2439,0.30077,0.90529,-0.01826,0.33997,1.42159,0.31215,0.31216,1.43936,-0.06312,0.44197,1.15087,0.38629,0.42987,1.19745,0.00905,0.57045,1.37151,0.2674,0.52432,1.40805
1577,0.14239,0.35473,1.50651,0.01877,0.48322,0.08158,0.2517,0.10928,0.08098,0.05736,0.48323,0.49652,0.26205,0.23002,0.47806,0.07925,0.33736,0.90594,0.24551,0.29833,0.90549,-0.01647,0.33831,1.42216,0.31381,0.3086,1.4391,-0.06094,0.43964,1.15112,0.388,0.42578,1.19694,0.01117,0.568,1.37186,0.2697,0.52187,1.40714
1578,0.14429,0.35177,1.5068,0.01905,0.48352,0.08242,0.25187,0.10858,0.08074,0.05874,0.48403,0.49725,0.26279,0.22768,0.47829,0.08097,0.33537,0.90565,0.24717,0.29604,0.90575,-0.0148,0.33668,1.42307,0.31557,0.30508,1.43884,-0.0589,0.4371,1.15163,0.38989,0.42159,1.19641,0.01327,0.56556,1.37229,0.2722,0.51882,1.40642
1579,0.14594,0.34901,1.50708,0.01918,0.48391,0.08332,0.25217,0.108,0.08055,0.05985,0.48462,0.49806,0.26352,0.22553,0.47857,0.08247,0.33305,0.90537,0.24868,0.29377,0.90607,-0.01325,0.33488,1.42398,0.31741,0.3018,1.43855,-0.05681,0.4347,1.15223,0.39198,0.41776,1.19593,0.01586,0.56328,1.37266,0.2747,0.51572,1.40583
1580,0.1477,0.34674,1.50733,0.01911,0.48445,0.08433,0.2526,0.10765,0.08034,0.0606,0.48498,0.499,0.26432,0.22332,0.47889,0.08365,0.33037,0.90513,0.24989,0.29126,0.90645,-0.01177,0.33277,1.42464,0.31919,0.29893,1.43826,-0.05464,0.43271,1.15282,0.39404,0.41438,1.19548,0.01895,0.56127,1.37296,0.27726,0.51272,1.40549
1581,0.1498,0.34493,1.50756,0.01888,0.48508,0.08555,0.25311,0.10744,0.08006,0.06103,0.48523,0.50014,0.26515,0.22105,0.47919,0.08468,0.32756,0.90507,0.25089,0.28835,0.90686,-0.01014,0.33034,1.42509,0.32084,0.29638,1.438,-0.05249,0.43108,1.15349,0.39581,0.41117,1.19495,0.02204,0.55951,1.37338,0.28009,0.50936,1.4056
1582,0.15204,0.34326,1.50782,0.01879,0.48582,0.08698,0.25364,0.1072,0.0798,0.06124,0.48566,0.50154,0.2659,0.2189,0.47947,0.08581,0.32493,0.90521,0.25191,0.28524,0.9073,-0.00829,0.32792,1.42559,0.32244,0.2939,1.43784,-0.05051,0.42956,1.15431,0.39724,0.40782,1.19432,0.02478,0.55785,1.37402,0.28308,0.5054,1.40611
1583,0.1541,0.3415,1.5082,0.01917,0.48679,0.08858,0.25402,0.10695,0.07966,0.06145,0.48653,0.50317,0.26652,0.21703,0.47977,0.08714,0.32256,0.90545,0.2531,0.28232,0.90778,-0.0065,0.326,1.42631,0.3242,0.29145,1.43794,-0.04861,0.42812,1.15519,0.39845,0.4044,1.19381,0.02722,0.55619,1.37484,0.28575,0.50135,1.40667
1584,0.15595,0.33958,1.50871,0.01982,0.48799,0.09037,0.25425,0.10684,0.07961,0.0618,0.48791,0.50499,0.26707,0.21542,0.48012,0.0885,0.32017,0.90565,0.25441,0.27974,0.9083,-0.00514,0.32475,1.42718,0.32627,0.28912,1.43835,-0.04658,0.42694,1.15598,0.39953,0.40126,1.19355,0.02961,0.55445,1.37585,0.28776,0.49801,1.40699
1585,0.15788,0.33751,1.50929,0.02013,0.48921,0.09238,0.25453,0.10685,0.07957,0.06229,0.48951,0.50697,0.26765,0.2139,0.48048,0.08976,0.31752,0.90578,0.25571,0.27731,0.90882,-0.00425,0.32369,1.42803,0.32858,0.28693,1.43883,-0.0443,0.42601,1.15667,0.40058,0.39865,1.19346,0.03194,0.55255,1.37707,0.28942,0.49546,1.40719
1586,0.16002,0.33528,1.50981,0.01979,0.4903,0.09453,0.25495,0.10676,0.07961,0.06276,0.49092,0.50904,0.26823,0.21225,0.48092,0.09087,0.31471,0.90595,0.25691,0.27486,0.9094,-0.00345,0.32209,1.42876,0.33077,0.2847,1.43913,-0.04205,0.42488,1.15737,0.40173,0.39638,1.19344,0.03405,0.5503,1.37846,0.29129,0.49328,1.4075
1587,0.16214,0.33303,1.51028,0.01912,0.49132,0.09667,0.25527,0.10644,0.07984,0.06298,0.4919,0.51109,0.26873,0.21036,0.48156,0.09191,0.31196,0.90627,0.25799,0.27232,0.91014,-0.00229,0.31969,1.42938,0.33247,0.28232,1.43936,-0.04022,0.42319,1.15816,0.40302,0.39391,1.19351,0.03581,0.54763,1.37983,0.29354,0.49103,1.40797
1588,0.16405,0.33096,1.51076,0.01862,0.4923,0.09874,0.25516,0.10597,0.08024,0.06286,0.49248,0.51312,0.26913,0.20837,0.48233,0.0929,0.30935,0.90675,0.25896,0.26966,0.91102,-0.00066,0.31698,1.42993,0.33374,0.27979,1.43978,-0.03902,0.42111,1.15902,0.40434,0.39074,1.19365,0.03734,0.54476,1.38102,0.29598,0.48825,1.4085
1589,0.16578,0.32914,1.51128,0.01847,0.49314,0.10078,0.25467,0.10549,0.08062,0.06251,0.49286,0.51518,0.26961,0.20655,0.48302,0.09387,0.30689,0.90737,0.25987,0.267,0.91184,0.00123,0.3147,1.43056,0.33506,0.27722,1.44033,-0.03839,0.41915,1.15995,0.40563,0.38704,1.19369,0.03898,0.54205,1.382,0.29837,0.48466,1.40904
1590,0.16749,0.32738,1.51175,0.01851,0.49381,0.10278,0.25416,0.10502,0.08086,0.0622,0.49327,0.51721,0.27028,0.20499,0.48348,0.09488,0.30473,0.90807,0.26082,0.26458,0.91242,0.00304,0.31329,1.43139,0.33684,0.27477,1.44074,-0.03801,0.41766,1.16096,0.40695,0.38358,1.19352,0.0409,0.53963,1.38299,0.30054,0.48068,1.40952
1591,0.16917,0.32548,1.51213,0.01859,0.49456,0.10466,0.254,0.10455,0.08097,0.06217,0.49393,0.51911,0.27104,0.20353,0.4838,0.09601,0.30299,0.9087,0.26187,0.26246,0.91284,0.00456,0.31252,1.43243,0.33896,0.27257,1.44082,-0.03745,0.41658,1.16203,0.40837,0.38104,1.19325,0.04262,0.53724,1.38436,0.30249,0.47717,1.40995
1592,0.17071,0.3235,1.51247,0.01865,0.49567,0.10646,0.25424,0.10413,0.08107,0.0625,0.4949,0.52088,0.27167,0.20208,0.48413,0.09719,0.30154,0.9092,0.26293,0.26049,0.91326,0.00574,0.31173,1.43353,0.3409,0.27064,1.44066,-0.03659,0.41553,1.16308,0.40984,0.37942,1.1931,0.04341,0.53454,1.38632,0.3043,0.47458,1.4104
1593,0.17214,0.32172,1.51278,0.01859,0.49708,0.1083,0.25461,0.10385,0.08118,0.06305,0.49598,0.52266,0.2721,0.20073,0.4845,0.09818,0.30006,0.90965,0.26377,0.25843,0.91373,0.00672,0.31041,1.43458,0.3423,0.26879,1.44036,-0.03557,0.41423,1.16413,0.41137,0.3782,1.19311,0.04339,0.53164,1.38859,0.30622,0.47264,1.41091
1594,0.17362,0.32025,1.51301,0.01831,0.49851,0.11023,0.25489,0.1037,0.08124,0.06356,0.49688,0.5245,0.27246,0.19964,0.48478,0.09888,0.29841,0.91018,0.26433,0.25625,0.91416,0.00783,0.30859,1.43561,0.34333,0.2669,1.43994,-0.03455,0.41274,1.1653,0.41295,0.3769,1.19311,0.04364,0.52907,1.39059,0.30845,0.47087,1.41142
1595,0.17527,0.31885,1.51309,0.0178,0.4998,0.11215,0.25502,0.10361,0.08124,0.06387,0.49748,0.52632,0.27293,0.19881,0.48494,0.09946,0.29664,0.91074,0.26483,0.25413,0.91449,0.00928,0.30665,1.43665,0.34447,0.265,1.43945,-0.03356,0.41136,1.16663,0.41448,0.37557,1.19299,0.04484,0.52714,1.39213,0.3109,0.46896,1.41198
1596,0.17702,0.31719,1.51307,0.01701,0.50086,0.11392,0.25506,0.10355,0.08123,0.06402,0.49791,0.52799,0.27358,0.19815,0.48504,0.10006,0.29486,0.9112,0.26542,0.25232,0.91473,0.01096,0.30486,1.43756,0.34594,0.26318,1.43902,-0.03268,0.41038,1.16799,0.4158,0.37449,1.19285,0.04646,0.52545,1.39359,0.31325,0.46697,1.41271
1597,0.17874,0.31524,1.51308,0.01592,0.50161,0.11555,0.25501,0.10358,0.08121,0.06411,0.49832,0.52948,0.27435,0.19753,0.48514,0.10059,0.29323,0.91156,0.26602,0.25093,0.91492,0.01256,0.30324,1.43823,0.34746,0.26138,1.43868,-0.03201,0.40976,1.1692,0.41691,0.37362,1.19281,0.04764,0.5235,1.3953,0.31526,0.46512,1.41351
1598,0.18029,0.31325,1.51322,0.01459,0.50203,0.11707,0.25487,0.10373,0.08119,0.06426,0.49876,0.53082,0.27506,0.19688,0.48526,0.10097,0.29186,0.91191,0.26647,0.24982,0.91509,0.01392,0.30183,1.43869,0.34865,0.25956,1.43834,-0.03161,0.40937,1.17022,0.41795,0.3728,1.19289,0.04834,0.52137,1.39708,0.31691,0.46367,1.41412
1599,0.18159,0.31151,1.51347,0.01323,0.50217,0.11845,0.25464,0.10387,0.08116,0.06445,0.49921,0.53201,0.2755,0.19623,0.48537,0.1013,0.29076,0.91224,0.26679,0.24866,0.91527,0.01515,0.30076,1.43906,0.34949,0.25784,1.43791,-0.03133,0.40917,1.17111,0.41903,0.37225,1.19307,0.04904,0.51943,1.39868,0.31823,0.46271,1.41458
1600,0.18261,0.31015,1.51373,0.01205,0.50204,0.11961,0.25439,0.10388,0.08113,0.06456,0.49961,0.53301,0.27568,0.19557,0.48547,0.10172,0.28987,0.9125,0.26711,0.24739,0.91545,0.01642,0.30001,1.43939,0.35029,0.25636,1.43754,-0.03094,0.40925,1.17193,0.4201,0.37211,1.19341,0.04986,0.51789,1.40012,0.31928,0.46223,1.41505
1601,0.18342,0.30911,1.51396,0.01108,0.50164,0.12054,0.25421,0.1038,0.0811,0.06452,0.49997,0.53383,0.27584,0.19488,0.48557,0.10218,0.28915,0.91266,0.26747,0.24625,0.9156,0.01765,0.29931,1.43967,0.35132,0.25498,1.43741,-0.03036,0.4096,1.17276,0.4211,0.37194,1.19385,0.05062,0.51657,1.40167,0.32015,0.46202,1.41544
1602,0.18422,0.30811,1.5142,0.01021,0.50099,0.12123,0.25408,0.10371,0.08113,0.0643,0.50026,0.53444,0.27619,0.19415,0.48571,0.10258,0.28865,0.91277,0.26781,0.24554,0.91574,0.01862,0.29837,1.43991,0.35247,0.25336,1.43753,-0.02971,0.41002,1.17362,0.422,0.37106,1.19425,0.05115,0.51509,1.40345,0.32094,0.46169,1.41557
1603,0.18519,0.30682,1.51445,0.00925,0.50029,0.12167,0.25399,0.10366,0.08123,0.06398,0.5004,0.53479,0.27661,0.19346,0.48593,0.10292,0.28843,0.91286,0.26813,0.24523,0.91591,0.01939,0.29731,1.44009,0.35339,0.25147,1.43764,-0.02917,0.41021,1.17437,0.42278,0.3695,1.19448,0.05144,0.51321,1.40523,0.32173,0.46082,1.41552
1604,0.18624,0.30513,1.51466,0.00803,0.49971,0.12189,0.25387,0.10362,0.08136,0.06373,0.50029,0.53488,0.27679,0.19298,0.48614,0.10332,0.28841,0.91293,0.26849,0.2451,0.91608,0.02023,0.29647,1.4402,0.35397,0.24972,1.4376,-0.02885,0.41006,1.17487,0.42341,0.36797,1.19456,0.05159,0.51104,1.40667,0.32252,0.45932,1.41566
1605,0.18712,0.30335,1.51478,0.00653,0.4993,0.12196,0.25376,0.1036,0.0814,0.06365,0.49997,0.53476,0.27665,0.19282,0.48622,0.10377,0.28852,0.913,0.26889,0.24499,0.91616,0.02123,0.29593,1.44027,0.3545,0.24858,1.43751,-0.02869,0.40977,1.17521,0.42392,0.36702,1.19456,0.05185,0.50921,1.40765,0.32327,0.45751,1.41613
1606,0.18772,0.30197,1.5148,0.00492,0.49888,0.12197,0.25377,0.10354,0.08129,0.06364,0.49949,0.53454,0.27636,0.19284,0.48611,0.10408,0.28876,0.91314,0.26914,0.24499,0.91606,0.02218,0.29537,1.44046,0.35519,0.24811,1.43749,-0.02852,0.40969,1.17575,0.42434,0.36679,1.19458,0.05259,0.50842,1.40829,0.32395,0.45592,1.41681
1607,0.18811,0.30122,1.51483,0.00338,0.49818,0.12191,0.25397,0.10336,0.08109,0.06359,0.49884,0.53427,0.27612,0.19282,0.4859,0.10414,0.2891,0.91341,0.26916,0.24519,0.91583,0.02293,0.29463,1.44083,0.35591,0.24797,1.43748,-0.02824,0.40985,1.17661,0.42465,0.36709,1.19467,0.05376,0.50874,1.40876,0.32454,0.45486,1.41757
1608,0.18846,0.301,1.51493,0.00192,0.49696,0.12166,0.25426,0.10304,0.08098,0.06345,0.49794,0.53383,0.276,0.19266,0.48576,0.10414,0.28952,0.91368,0.26914,0.24551,0.91564,0.02345,0.29391,1.44127,0.35627,0.24776,1.43738,-0.02792,0.40994,1.17744,0.42469,0.36754,1.1948,0.05477,0.50943,1.4091,0.32492,0.45418,1.41829
1609,0.18883,0.30098,1.51509,0.00052,0.49526,0.12104,0.25456,0.10264,0.08103,0.0632,0.49674,0.53303,0.27591,0.19243,0.4858,0.10434,0.28993,0.91371,0.26933,0.24585,0.91561,0.02371,0.29339,1.44151,0.35616,0.24736,1.43726,-0.02772,0.40973,1.17783,0.42443,0.36755,1.19484,0.05524,0.50984,1.40912,0.32504,0.45348,1.41878
1610,0.18914,0.30078,1.51522,-0.00076,0.49346,0.11994,0.25482,0.10229,0.08115,0.0628,0.49512,0.53179,0.27579,0.19218,0.48592,0.10473,0.29029,0.91346,0.26971,0.24619,0.91567,0.02379,0.29309,1.4415,0.35592,0.24673,1.43729,-0.02773,0.40934,1.1778,0.42407,0.36676,1.19475,0.05547,0.51005,1.40874,0.32508,0.45263,1.41889
1611,0.18931,0.30032,1.51525,-0.00176,0.49193,0.11849,0.25496,0.10211,0.08118,0.06227,0.49303,0.53027,0.27568,0.19187,0.48599,0.10508,0.29061,0.91312,0.27008,0.24658,0.91565,0.02392,0.29298,1.44146,0.35591,0.2459,1.4375,-0.02795,0.40912,1.17778,0.42393,0.36548,1.19471,0.05585,0.51047,1.40823,0.32529,0.45187,1.4188
1612,0.1894,0.29983,1.51515,-0.00239,0.49075,0.11693,0.25489,0.10222,0.08101,0.06169,0.49074,0.52871,0.2757,0.19158,0.48591,0.10526,0.29098,0.91287,0.27028,0.24704,0.91548,0.02425,0.29314,1.4416,0.35611,0.24509,1.43774,-0.0283,0.40931,1.17806,0.42402,0.36466,1.19492,0.05627,0.51123,1.40798,0.3257,0.4516,1.41894
1613,0.1895,0.29966,1.515,-0.00262,0.48976,0.11544,0.25471,0.10259,0.08071,0.06117,0.48874,0.52726,0.27586,0.19155,0.48568,0.10532,0.29152,0.91267,0.27034,0.24757,0.91517,0.0246,0.29359,1.44184,0.3562,0.24473,1.43778,-0.02862,0.40994,1.17852,0.42413,0.36501,1.19532,0.05649,0.51227,1.40805,0.32601,0.45197,1.41942
1614,0.18971,0.29998,1.51483,-0.00255,0.48882,0.11401,0.25462,0.10309,0.08037,0.06081,0.48723,0.52589,0.276,0.19193,0.48535,0.10542,0.29224,0.91238,0.27041,0.24819,0.91481,0.02473,0.29419,1.44195,0.35608,0.24494,1.43754,-0.02884,0.41095,1.17888,0.42411,0.36623,1.1956,0.05667,0.51354,1.40815,0.32593,0.45269,1.41987
1615,0.18997,0.30047,1.51472,-0.00239,0.48782,0.11251,0.25473,0.10343,0.08012,0.06062,0.48588,0.52445,0.27607,0.19269,0.48501,0.10557,0.29312,0.91202,0.27051,0.24891,0.91448,0.02454,0.29472,1.44182,0.35597,0.24541,1.43722,-0.02896,0.41226,1.17908,0.42397,0.36728,1.19557,0.05705,0.515,1.4081,0.32548,0.45326,1.41988
1616,0.19013,0.3006,1.51472,-0.00243,0.4867,0.11091,0.255,0.10343,0.08002,0.06052,0.48434,0.52285,0.27616,0.19372,0.48468,0.10561,0.29411,0.91165,0.27051,0.24971,0.91418,0.02417,0.29518,1.4415,0.356,0.2458,1.43716,-0.02909,0.41376,1.17917,0.42374,0.3674,1.1953,0.05737,0.51639,1.40807,0.32499,0.45347,1.41946
1617,0.18997,0.30026,1.5148,-0.00276,0.48568,0.10923,0.2552,0.10314,0.08001,0.06036,0.48269,0.52114,0.27631,0.19492,0.48434,0.10544,0.29511,0.91122,0.27029,0.25055,0.91388,0.02377,0.2958,1.44108,0.356,0.24611,1.43731,-0.02937,0.41515,1.17909,0.42346,0.36692,1.19498,0.05718,0.51744,1.4081,0.32477,0.45353,1.41896
1618,0.18942,0.29988,1.51484,-0.00315,0.48502,0.1076,0.25519,0.10286,0.08001,0.06005,0.4812,0.5195,0.27645,0.1962,0.48399,0.1051,0.29601,0.91072,0.26996,0.2515,0.91356,0.02331,0.29672,1.44063,0.35569,0.24652,1.43731,-0.02976,0.41621,1.17869,0.42317,0.36674,1.19468,0.05654,0.51831,1.40788,0.32483,0.45385,1.41862
1619,0.1886,0.2999,1.51475,-0.00325,0.48471,0.10616,0.25501,0.10282,0.08003,0.05957,0.47995,0.5181,0.2765,0.1975,0.48368,0.10477,0.29681,0.91028,0.26972,0.25267,0.91327,0.02268,0.29776,1.44014,0.3551,0.24703,1.437,-0.03013,0.41698,1.17802,0.42287,0.36721,1.19443,0.05577,0.51931,1.40727,0.32487,0.45462,1.41841
1620,0.18784,0.3004,1.51451,-0.00292,0.48447,0.10493,0.25492,0.10297,0.08008,0.05905,0.47886,0.51699,0.27649,0.19873,0.48347,0.10456,0.29762,0.91,0.26966,0.25401,0.91305,0.02193,0.29863,1.43961,0.3544,0.24748,1.43666,-0.03044,0.41772,1.17734,0.42252,0.36795,1.19434,0.055,0.52046,1.40657,0.32458,0.45564,1.41823
1621,0.18743,0.30127,1.51416,-0.00226,0.48403,0.10378,0.25505,0.10318,0.08012,0.05859,0.47785,0.516,0.27644,0.19976,0.48332,0.10449,0.29857,0.90987,0.26969,0.25534,0.91286,0.02131,0.29939,1.43912,0.35369,0.24787,1.43663,-0.03077,0.41862,1.17686,0.42206,0.36863,1.19452,0.0543,0.52165,1.4061,0.32387,0.4567,1.41816
1622,0.18731,0.30238,1.51378,-0.00154,0.4834,0.10255,0.25526,0.10344,0.08007,0.05822,0.47689,0.51492,0.27631,0.20061,0.48315,0.10444,0.29984,0.90976,0.26964,0.2566,0.91263,0.02089,0.30036,1.43877,0.35294,0.2484,1.43689,-0.03118,0.41966,1.17654,0.42148,0.36947,1.19498,0.05395,0.52305,1.40559,0.32282,0.45785,1.41829
1623,0.18705,0.30347,1.51343,-0.00099,0.48264,0.10115,0.25531,0.10374,0.08,0.0579,0.47594,0.51365,0.27603,0.20144,0.48296,0.10428,0.30153,0.90964,0.26938,0.25793,0.91238,0.02048,0.30178,1.43855,0.35208,0.24924,1.43714,-0.03163,0.42069,1.17615,0.42081,0.37085,1.19557,0.05418,0.52499,1.40454,0.32162,0.4594,1.41857
1624,0.18623,0.30432,1.51321,-0.00063,0.48178,0.09961,0.25516,0.10404,0.07999,0.05754,0.47491,0.51221,0.27563,0.20249,0.48279,0.10396,0.30355,0.90953,0.26896,0.25955,0.91213,0.01995,0.30353,1.43833,0.35105,0.25037,1.43709,-0.03208,0.42167,1.17557,0.42014,0.3728,1.19603,0.05469,0.5274,1.40293,0.32043,0.46152,1.41874
1625,0.18481,0.30502,1.51313,-0.00028,0.48084,0.09796,0.25499,0.10426,0.08005,0.05715,0.47368,0.51066,0.27529,0.20383,0.48258,0.10353,0.30562,0.90939,0.26849,0.26149,0.91184,0.01938,0.30524,1.43795,0.34995,0.25169,1.43671,-0.03248,0.42274,1.17486,0.41953,0.37501,1.19625,0.05467,0.52959,1.40155,0.3193,0.46418,1.41853
1626,0.18323,0.30585,1.51313,0.00021,0.47991,0.09629,0.25494,0.10441,0.08009,0.0568,0.47233,0.50909,0.27507,0.20537,0.48228,0.10307,0.30756,0.9092,0.26809,0.26363,0.91146,0.01882,0.30661,1.43735,0.3489,0.25315,1.43624,-0.03273,0.42415,1.17422,0.41892,0.37727,1.19632,0.05352,0.531,1.40126,0.31805,0.46727,1.41798
1627,0.18195,0.3069,1.51314,0.00076,0.47912,0.0947,0.25496,0.1046,0.08012,0.05648,0.47106,0.50761,0.27491,0.20696,0.48196,0.10264,0.30942,0.90901,0.26774,0.26579,0.91106,0.01814,0.3076,1.4367,0.34787,0.2547,1.43589,-0.03286,0.42594,1.17383,0.41811,0.37968,1.19648,0.0516,0.53185,1.40197,0.31647,0.47066,1.41739
1628,0.18107,0.30803,1.51315,0.00123,0.4785,0.09332,0.25487,0.1049,0.08017,0.0561,0.47005,0.50634,0.27466,0.20853,0.4817,0.1022,0.3113,0.9089,0.26735,0.26781,0.91073,0.0173,0.30841,1.4362,0.34672,0.25634,1.4357,-0.03298,0.42788,1.17369,0.41695,0.38228,1.19679,0.04997,0.53293,1.40279,0.31461,0.47404,1.41706
1629,0.18029,0.30922,1.5131,0.00152,0.47807,0.09222,0.25462,0.10528,0.08027,0.05563,0.46941,0.50534,0.27431,0.21012,0.48149,0.10167,0.31322,0.9089,0.26681,0.26969,0.91048,0.01633,0.30936,1.43589,0.34548,0.25806,1.43564,-0.03316,0.42971,1.17364,0.41548,0.38488,1.19713,0.04933,0.53479,1.40288,0.31274,0.4771,1.41702
1630,0.17925,0.31066,1.51295,0.00164,0.47786,0.09141,0.25435,0.10572,0.08037,0.05507,0.46913,0.50461,0.27391,0.21168,0.4813,0.101,0.31516,0.90904,0.26614,0.27161,0.91024,0.01528,0.31065,1.4356,0.34443,0.25989,1.43571,-0.03341,0.43144,1.1734,0.41377,0.38736,1.19735,0.04949,0.53729,1.40215,0.31102,0.47979,1.41714
1631,0.17786,0.31243,1.51276,0.00167,0.47779,0.09083,0.25423,0.10617,0.08051,0.05442,0.46914,0.50412,0.27351,0.21318,0.48117,0.10023,0.31717,0.90932,0.2654,0.27374,0.91001,0.0141,0.31219,1.43514,0.34378,0.26186,1.43587,-0.03377,0.43317,1.17288,0.41198,0.38982,1.19744,0.04962,0.53984,1.40107,0.30933,0.48234,1.41725
1632,0.17627,0.31438,1.51264,0.0017,0.47769,0.0904,0.25423,0.10659,0.08077,0.05369,0.46925,0.50379,0.27302,0.21469,0.48117,0.09946,0.31916,0.90969,0.26469,0.27594,0.9099,0.01278,0.31385,1.4346,0.3434,0.264,1.43608,-0.03432,0.43487,1.17221,0.41037,0.39225,1.19746,0.04888,0.54195,1.40027,0.30762,0.48486,1.41718
1633,0.17468,0.31632,1.5126,0.00185,0.47753,0.08997,0.25414,0.10697,0.08115,0.05303,0.4693,0.50346,0.27234,0.21638,0.48122,0.09869,0.32098,0.91003,0.26398,0.278,0.9099,0.01132,0.31561,1.43425,0.34287,0.26615,1.43631,-0.03506,0.43642,1.17164,0.40922,0.3943,1.19747,0.0471,0.54365,1.40001,0.30608,0.48707,1.41694
1634,0.17313,0.31813,1.5126,0.0021,0.47735,0.08949,0.25386,0.10736,0.08148,0.05252,0.46931,0.50309,0.27147,0.21836,0.48114,0.09783,0.32249,0.91024,0.26321,0.27986,0.90984,0.00988,0.31742,1.43425,0.34196,0.26824,1.43647,-0.03591,0.43785,1.17137,0.40846,0.39591,1.1974,0.04483,0.54527,1.40016,0.30508,0.48858,1.4168
1635,0.17161,0.31972,1.51263,0.00232,0.47717,0.089,0.25345,0.10786,0.08159,0.05213,0.46933,0.50267,0.27057,0.22049,0.48081,0.09679,0.32362,0.91029,0.26234,0.28167,0.90956,0.0086,0.31898,1.43443,0.34078,0.27038,1.43639,-0.03682,0.43919,1.17138,0.40769,0.39763,1.19722,0.04267,0.54698,1.40043,0.30459,0.48956,1.41706
1636,0.17014,0.32121,1.51266,0.0024,0.47691,0.08849,0.2531,0.10853,0.08143,0.05176,0.46942,0.50222,0.26992,0.22249,0.48029,0.09566,0.32462,0.91025,0.26145,0.28362,0.90904,0.00746,0.32015,1.43444,0.33958,0.27272,1.43614,-0.03777,0.44038,1.17137,0.40655,0.40001,1.19701,0.04074,0.54862,1.40055,0.30407,0.49075,1.41764
1637,0.16869,0.32303,1.51264,0.00252,0.47664,0.08791,0.25298,0.10928,0.08117,0.0514,0.4695,0.50171,0.26961,0.22433,0.47972,0.0946,0.32582,0.91021,0.26061,0.28576,0.90842,0.00629,0.32114,1.43406,0.33844,0.27524,1.43598,-0.03883,0.44143,1.171,0.40507,0.403,1.19701,0.03878,0.54999,1.40033,0.3031,0.49248,1.41838
1638,0.16717,0.32544,1.51254,0.00283,0.47646,0.08719,0.2531,0.10987,0.08107,0.05104,0.4695,0.50106,0.26944,0.22623,0.47926,0.09364,0.32734,0.91016,0.25982,0.28799,0.90789,0.00498,0.3223,1.43337,0.33723,0.27789,1.436,-0.04005,0.44256,1.17028,0.40351,0.40615,1.19719,0.03668,0.55129,1.39983,0.30191,0.49426,1.41927
1639,0.16555,0.32824,1.51231,0.00331,0.47626,0.08624,0.25328,0.11009,0.08126,0.05071,0.46939,0.50021,0.2692,0.22833,0.47891,0.0927,0.32902,0.90998,0.25899,0.29018,0.90752,0.0035,0.3237,1.4327,0.33588,0.28065,1.43602,-0.0413,0.44399,1.16957,0.40213,0.40907,1.19729,0.03467,0.55282,1.39933,0.30093,0.49571,1.42014
1640,0.16383,0.33098,1.51196,0.00377,0.47586,0.0851,0.25342,0.11004,0.08164,0.05043,0.4692,0.49916,0.26881,0.23056,0.47863,0.09169,0.33075,0.90965,0.25807,0.29226,0.90724,0.00184,0.32525,1.43226,0.33444,0.2834,1.43598,-0.04236,0.44574,1.16913,0.40099,0.41153,1.19718,0.03295,0.55462,1.39908,0.30008,0.49723,1.42052
1641,0.16206,0.33335,1.51156,0.00412,0.47529,0.08391,0.25357,0.11008,0.08203,0.05018,0.469,0.49805,0.26835,0.23273,0.47839,0.09063,0.3326,0.90931,0.25705,0.29434,0.907,3e-05,0.32672,1.43199,0.33299,0.28594,1.43599,-0.04328,0.44761,1.16889,0.39999,0.41351,1.19702,0.03125,0.55639,1.39914,0.29881,0.49949,1.42013
1642,0.16021,0.33524,1.51127,0.00434,0.47474,0.08283,0.25371,0.11054,0.08235,0.04987,0.46883,0.49702,0.2679,0.23473,0.47825,0.08952,0.33462,0.90909,0.25598,0.29652,0.90682,-0.00189,0.32793,1.4316,0.33155,0.28821,1.43613,-0.04436,0.44949,1.16867,0.39898,0.41541,1.19707,0.02914,0.5579,1.39942,0.29682,0.5027,1.41923
1643,0.15821,0.33672,1.51118,0.00443,0.47433,0.08191,0.25384,0.11125,0.0827,0.04946,0.46875,0.49617,0.26754,0.23655,0.47826,0.08838,0.3366,0.90897,0.2549,0.29873,0.90675,-0.00379,0.32888,1.43091,0.32998,0.29058,1.43622,-0.04581,0.45153,1.16842,0.39798,0.41785,1.19737,0.02665,0.55925,1.39982,0.29454,0.50621,1.4185
1644,0.15617,0.33802,1.51125,0.00443,0.47405,0.08125,0.25394,0.11173,0.08314,0.04894,0.46885,0.49557,0.26727,0.23841,0.47827,0.08725,0.33835,0.90895,0.25384,0.30079,0.90672,-0.00544,0.32978,1.43004,0.32821,0.29332,1.436,-0.04745,0.45385,1.16822,0.39713,0.42107,1.19767,0.02421,0.56069,1.40027,0.29268,0.50892,1.41854
1645,0.15431,0.33943,1.51145,0.00451,0.47383,0.08089,0.25401,0.11172,0.08368,0.04849,0.46917,0.49527,0.26693,0.24055,0.47813,0.08618,0.33986,0.90908,0.25285,0.30267,0.90659,-0.00665,0.33087,1.42928,0.32643,0.29629,1.43543,-0.04897,0.45625,1.16813,0.39628,0.42491,1.19784,0.02217,0.56222,1.40075,0.29138,0.51043,1.41941
1646,0.15266,0.34103,1.51179,0.00484,0.47366,0.0807,0.25419,0.11144,0.0843,0.04826,0.46963,0.49514,0.26644,0.24314,0.47783,0.08519,0.34128,0.90932,0.25196,0.30458,0.90637,-0.00763,0.33217,1.42883,0.32482,0.2992,1.43485,-0.05026,0.45838,1.16813,0.39502,0.42891,1.19796,0.02044,0.56357,1.40124,0.29018,0.51143,1.42069
1647,0.15087,0.34281,1.51223,0.00539,0.47369,0.08051,0.25462,0.11137,0.085,0.04828,0.47008,0.49501,0.26588,0.24611,0.47752,0.08417,0.34264,0.90956,0.2511,0.30669,0.90618,-0.00884,0.33349,1.42869,0.32327,0.30203,1.43472,-0.05155,0.46011,1.1682,0.39316,0.43261,1.19821,0.01873,0.56469,1.40171,0.28861,0.51273,1.42195
1648,0.14862,0.34477,1.51266,0.00596,0.47408,0.0803,0.25516,0.11183,0.08576,0.04836,0.47042,0.49485,0.26542,0.2492,0.4774,0.08301,0.34393,0.9098,0.25013,0.30892,0.90616,-0.01057,0.33469,1.42885,0.32155,0.30478,1.43512,-0.05313,0.46149,1.16843,0.39099,0.43579,1.19871,0.01698,0.56591,1.40205,0.28666,0.51452,1.42305
1649,0.14604,0.34694,1.51297,0.00625,0.47473,0.08017,0.25546,0.11271,0.08662,0.04831,0.47062,0.49475,0.26515,0.25207,0.47757,0.08167,0.34511,0.9101,0.24899,0.31109,0.9064,-0.01262,0.33586,1.42926,0.31968,0.30733,1.43575,-0.05515,0.46255,1.16878,0.38896,0.4386,1.19945,0.01531,0.56736,1.40213,0.28458,0.5167,1.42398
1650,0.14363,0.34934,1.51313,0.00619,0.47519,0.08012,0.25545,0.11369,0.08767,0.04795,0.47061,0.49473,0.26499,0.25464,0.47805,0.08031,0.34618,0.91048,0.24781,0.31305,0.90692,-0.01455,0.33711,1.42971,0.3178,0.30969,1.43641,-0.05755,0.46327,1.16905,0.38727,0.44123,1.20031,0.01361,0.56869,1.4019,0.28251,0.5192,1.42471
1651,0.14171,0.352,1.51324,0.006,0.47515,0.08009,0.25536,0.11458,0.08889,0.04728,0.47031,0.49475,0.26474,0.25727,0.47865,0.07902,0.34724,0.91095,0.24666,0.31478,0.9076,-0.01614,0.33844,1.42997,0.31598,0.31216,1.43717,-0.06013,0.46377,1.16907,0.38581,0.44382,1.20124,0.01164,0.56953,1.40159,0.28036,0.52198,1.42525
1652,0.14013,0.35483,1.51349,0.00587,0.47474,0.08012,0.25547,0.11542,0.09022,0.04641,0.46978,0.49484,0.26428,0.26045,0.47913,0.07777,0.34833,0.91156,0.24552,0.31641,0.90826,-0.01767,0.33991,1.43011,0.31421,0.31491,1.43817,-0.06257,0.46441,1.16897,0.38427,0.44658,1.20232,0.00952,0.57013,1.40141,0.27786,0.5251,1.42576
1653,0.13851,0.35764,1.51396,0.00581,0.47435,0.0802,0.25584,0.11632,0.09162,0.04547,0.46914,0.49501,0.26363,0.26437,0.4794,0.07648,0.34945,0.91225,0.24433,0.3181,0.90879,-0.01947,0.34175,1.43042,0.31245,0.31787,1.43933,-0.06471,0.46553,1.169,0.38239,0.44977,1.20357,0.00776,0.57123,1.40133,0.27479,0.52874,1.42626
1654,0.13648,0.36038,1.51453,0.00561,0.47422,0.08023,0.25631,0.1173,0.09308,0.04447,0.46853,0.49511,0.2629,0.26875,0.47958,0.07515,0.35059,0.91288,0.24313,0.31995,0.90925,-0.02151,0.34407,1.43101,0.31065,0.32082,1.44033,-0.06664,0.46711,1.16922,0.38017,0.45328,1.20476,0.00678,0.5732,1.40107,0.27126,0.53275,1.42665
1655,0.13405,0.36307,1.51498,0.00519,0.47437,0.08016,0.25676,0.11834,0.09466,0.04346,0.46793,0.49508,0.26223,0.27308,0.47987,0.07387,0.35181,0.91338,0.24197,0.32186,0.9098,-0.02358,0.34652,1.43168,0.30885,0.32366,1.44102,-0.06862,0.4687,1.16947,0.37787,0.45665,1.20559,0.00633,0.57558,1.40047,0.26791,0.53647,1.42684
1656,0.13154,0.36565,1.51529,0.00467,0.47456,0.08007,0.25723,0.11946,0.09638,0.04249,0.46721,0.49502,0.26185,0.27707,0.48043,0.07267,0.35312,0.91389,0.24088,0.32373,0.91056,-0.02566,0.34847,1.43224,0.30721,0.32642,1.44157,-0.07067,0.46989,1.16967,0.37585,0.45953,1.20611,0.00578,0.57762,1.39978,0.26533,0.53932,1.42708
1657,0.12918,0.36803,1.51561,0.00425,0.47459,0.08009,0.25784,0.12064,0.09819,0.04161,0.46628,0.49506,0.26184,0.28077,0.48121,0.07146,0.35439,0.91455,0.23976,0.32553,0.91149,-0.02777,0.34966,1.43267,0.30564,0.32922,1.44231,-0.07268,0.47072,1.16993,0.37425,0.46204,1.20667,0.00465,0.57912,1.39942,0.26344,0.54132,1.42768
1658,0.1269,0.37031,1.51601,0.00397,0.47446,0.08021,0.25847,0.12182,0.10002,0.04072,0.46521,0.49522,0.26201,0.28452,0.48196,0.07011,0.35544,0.9153,0.23852,0.32724,0.91238,-0.02981,0.35038,1.43309,0.30376,0.33221,1.44328,-0.07467,0.47148,1.17035,0.37285,0.46458,1.20753,0.00297,0.5804,1.3995,0.26161,0.54312,1.42859
1659,0.12451,0.37258,1.51642,0.00373,0.47429,0.08037,0.25893,0.12299,0.10184,0.03978,0.46416,0.49541,0.26215,0.28862,0.48251,0.06864,0.35624,0.91601,0.23719,0.32884,0.91309,-0.03172,0.35123,1.43357,0.30135,0.33527,1.44428,-0.07679,0.47228,1.17085,0.37142,0.46741,1.20869,0.00099,0.58173,1.3997,0.2593,0.54541,1.42949
1660,0.12202,0.37483,1.51676,0.00336,0.47413,0.08048,0.25918,0.12415,0.10373,0.03883,0.46322,0.49556,0.2623,0.2932,0.4829,0.06714,0.35702,0.91663,0.23582,0.33041,0.91365,-0.03351,0.35249,1.43408,0.29876,0.33814,1.44502,-0.07905,0.47304,1.17121,0.36998,0.47036,1.20983,-0.00097,0.58305,1.39969,0.25681,0.54811,1.43019
1661,0.11966,0.37699,1.51705,0.00283,0.47396,0.08052,0.2594,0.12531,0.10575,0.03796,0.4624,0.49561,0.26262,0.29811,0.48322,0.06564,0.35803,0.91718,0.23442,0.33213,0.91413,-0.03521,0.35393,1.43455,0.2965,0.34076,1.44543,-0.08119,0.47368,1.17138,0.36872,0.47314,1.21063,-0.00283,0.5842,1.39951,0.25491,0.55046,1.43081
1662,0.11768,0.37905,1.51736,0.00225,0.47381,0.0805,0.2598,0.12645,0.10785,0.03713,0.46169,0.49559,0.26319,0.30315,0.48351,0.06409,0.35921,0.91767,0.233,0.33416,0.91452,-0.037,0.3552,1.43501,0.29472,0.34342,1.44571,-0.08315,0.47412,1.1715,0.36757,0.47585,1.21113,-0.0049,0.58503,1.39949,0.25364,0.55233,1.43154
1663,0.11603,0.38103,1.51773,0.00178,0.47372,0.0804,0.26041,0.12773,0.10987,0.03623,0.46115,0.49552,0.26397,0.30818,0.48375,0.06252,0.36017,0.918,0.23161,0.33636,0.91479,-0.03905,0.35629,1.43546,0.29328,0.3463,1.44628,-0.08525,0.4744,1.1716,0.36603,0.4789,1.21176,-0.00765,0.58541,1.39975,0.25204,0.5548,1.43234
1664,0.11435,0.38292,1.51803,0.00144,0.47377,0.08017,0.26114,0.12926,0.11176,0.03512,0.46067,0.49534,0.26475,0.31315,0.48395,0.06102,0.36064,0.91807,0.23032,0.33839,0.91501,-0.04129,0.35747,1.43575,0.29192,0.34919,1.44724,-0.08777,0.47463,1.17152,0.36383,0.48235,1.21278,-0.01092,0.58548,1.40001,0.2494,0.55874,1.43296
1665,0.11242,0.38483,1.51814,0.00122,0.474,0.07984,0.262,0.13101,0.11361,0.03378,0.45995,0.49507,0.26539,0.31807,0.48422,0.05968,0.3608,0.91801,0.22918,0.34007,0.91531,-0.04338,0.35881,1.43581,0.29055,0.35173,1.44833,-0.09046,0.47505,1.17127,0.3614,0.48581,1.21408,-0.01389,0.58568,1.39996,0.24616,0.56371,1.4333
1666,0.11041,0.38701,1.51811,0.00115,0.47438,0.07959,0.26298,0.13287,0.11558,0.0324,0.45895,0.49486,0.26592,0.32303,0.48461,0.05848,0.36107,0.91808,0.22812,0.34149,0.91573,-0.04505,0.36013,1.43576,0.28924,0.3539,1.44929,-0.09291,0.47576,1.17109,0.35935,0.48889,1.21534,-0.01624,0.58626,1.39981,0.24315,0.56837,1.43349
1667,0.10858,0.38949,1.51818,0.00116,0.47478,0.07952,0.26389,0.13487,0.1177,0.03117,0.45808,0.49484,0.2665,0.32814,0.48512,0.05729,0.36166,0.9184,0.22702,0.34286,0.91623,-0.04642,0.36132,1.43583,0.288,0.35602,1.45008,-0.09502,0.47667,1.17118,0.35763,0.49171,1.21639,-0.01843,0.58704,1.39999,0.24064,0.57203,1.43381
1668,0.10698,0.39203,1.51849,0.00118,0.47508,0.07956,0.26447,0.13701,0.11983,0.03012,0.45773,0.49493,0.26715,0.33332,0.48564,0.05605,0.36243,0.91875,0.22585,0.34424,0.91669,-0.04785,0.3625,1.43616,0.28661,0.35827,1.45075,-0.09697,0.47752,1.17146,0.35565,0.49465,1.21728,-0.02071,0.58797,1.40034,0.2383,0.57494,1.43452
1669,0.10554,0.39431,1.51888,0.00127,0.47523,0.07959,0.26477,0.13921,0.12182,0.02919,0.45777,0.49502,0.26782,0.3384,0.48606,0.05479,0.36307,0.919,0.22466,0.34553,0.91702,-0.04955,0.36371,1.43673,0.28499,0.36054,1.45133,-0.0989,0.47803,1.17176,0.3532,0.4977,1.21807,-0.02278,0.58923,1.40033,0.23594,0.57751,1.43554
1670,0.10416,0.39614,1.51912,0.00148,0.47518,0.07964,0.26507,0.14131,0.12372,0.02843,0.45778,0.49513,0.26849,0.34334,0.48639,0.05359,0.36343,0.91922,0.22353,0.34659,0.91721,-0.05133,0.36473,1.43729,0.28334,0.36274,1.45181,-0.10077,0.47819,1.17197,0.35085,0.50038,1.21864,-0.0245,0.59071,1.39984,0.2338,0.5797,1.43639
1671,0.10267,0.39757,1.51912,0.00174,0.47491,0.07975,0.26563,0.14329,0.12565,0.0279,0.45756,0.4953,0.26929,0.34815,0.48673,0.05253,0.36364,0.91951,0.22254,0.34743,0.91737,-0.05293,0.36541,1.43755,0.28184,0.36489,1.45213,-0.1025,0.47835,1.17204,0.34912,0.5025,1.21887,-0.02588,0.59209,1.39918,0.23208,0.58147,1.43675
1672,0.10098,0.39877,1.51905,0.00191,0.47444,0.07986,0.2664,0.14525,0.12765,0.02751,0.45735,0.49546,0.27042,0.35289,0.48714,0.05158,0.36394,0.91981,0.22162,0.34812,0.91752,-0.0544,0.36601,1.43745,0.28041,0.36702,1.45227,-0.10403,0.47879,1.17188,0.34782,0.50447,1.21896,-0.02681,0.59334,1.39841,0.23063,0.58314,1.43688
1673,0.09915,0.39999,1.51905,0.00193,0.47384,0.07984,0.26708,0.14726,0.12963,0.02709,0.45744,0.49549,0.27195,0.35762,0.48752,0.05068,0.36443,0.91996,0.22074,0.34882,0.91756,-0.05591,0.36684,1.43713,0.27886,0.36915,1.45243,-0.10551,0.47939,1.17146,0.34631,0.50682,1.21926,-0.0275,0.59452,1.39743,0.22904,0.5851,1.43728
1674,0.09731,0.40133,1.51904,0.00181,0.47323,0.07965,0.26748,0.14927,0.13153,0.02651,0.45786,0.49536,0.2736,0.36233,0.48779,0.04982,0.36501,0.91989,0.2199,0.34968,0.91743,-0.05755,0.36784,1.43678,0.27728,0.37135,1.45283,-0.10714,0.47982,1.17087,0.34427,0.50961,1.21987,-0.02845,0.59536,1.39639,0.22706,0.58739,1.43809
1675,0.09555,0.40265,1.51897,0.0016,0.47275,0.07935,0.26767,0.15111,0.1334,0.02579,0.45835,0.49513,0.27496,0.36693,0.48798,0.04906,0.36558,0.91967,0.21919,0.3508,0.91724,-0.05928,0.36877,1.43657,0.27599,0.37368,1.45341,-0.10884,0.47998,1.17033,0.34201,0.5125,1.22051,-0.02988,0.59556,1.39574,0.22487,0.58963,1.439
1676,0.09394,0.40377,1.51884,0.00141,0.47241,0.07906,0.26781,0.15277,0.13529,0.02505,0.45859,0.49489,0.27582,0.37131,0.48818,0.04842,0.36603,0.91947,0.21862,0.35203,0.91712,-0.06101,0.36953,1.43654,0.27517,0.37599,1.45392,-0.1103,0.48005,1.16996,0.34008,0.51516,1.22092,-0.03177,0.59516,1.39575,0.22289,0.59143,1.43968
1677,0.0926,0.40472,1.51872,0.00137,0.47217,0.07883,0.26796,0.15441,0.13705,0.02438,0.45848,0.49471,0.27624,0.37539,0.48841,0.04783,0.36635,0.91937,0.21809,0.35312,0.91708,-0.06245,0.37021,1.43656,0.27466,0.37805,1.45418,-0.11137,0.48019,1.16969,0.33882,0.51744,1.2211,-0.03418,0.59439,1.3964,0.22135,0.59278,1.44004
1678,0.09155,0.40565,1.51859,0.00139,0.472,0.0787,0.26811,0.15616,0.13846,0.02379,0.45818,0.4946,0.27642,0.379,0.48865,0.04719,0.36656,0.91938,0.21749,0.35391,0.91706,-0.06328,0.37086,1.43647,0.2741,0.37978,1.45418,-0.11228,0.48032,1.1694,0.33813,0.51934,1.22116,-0.03698,0.59343,1.3973,0.22017,0.59395,1.44009
1679,0.09063,0.40668,1.51845,0.00133,0.47196,0.07865,0.26817,0.15791,0.13948,0.02321,0.45795,0.49457,0.27657,0.38193,0.48891,0.04647,0.3668,0.91947,0.21679,0.35442,0.91705,-0.06349,0.37162,1.43625,0.27334,0.38126,1.454,-0.11335,0.48015,1.16896,0.33763,0.52087,1.2211,-0.03953,0.59246,1.39773,0.21918,0.59521,1.43985
1680,0.08965,0.40779,1.51833,0.00118,0.47211,0.07866,0.268,0.15944,0.14023,0.02257,0.45797,0.4946,0.27684,0.38412,0.48922,0.04577,0.36722,0.91958,0.21609,0.35486,0.91711,-0.06342,0.37261,1.43593,0.27251,0.38267,1.45376,-0.11453,0.47947,1.16821,0.33702,0.52221,1.22087,-0.0413,0.59147,1.39732,0.21833,0.59666,1.43945
1681,0.0886,0.40881,1.51831,0.00116,0.47236,0.07868,0.26757,0.16068,0.14082,0.02184,0.45834,0.49467,0.27723,0.38572,0.48957,0.04519,0.36786,0.91969,0.21551,0.35546,0.91725,-0.06346,0.37375,1.43554,0.27181,0.38422,1.45357,-0.11561,0.47845,1.16716,0.33617,0.52367,1.22058,-0.04251,0.5902,1.39644,0.21751,0.59821,1.43915
1682,0.08763,0.4095,1.51839,0.00131,0.47256,0.07868,0.26704,0.16167,0.14118,0.02113,0.459,0.49472,0.27749,0.38688,0.48979,0.04476,0.36853,0.91974,0.21509,0.3563,0.91735,-0.06381,0.37462,1.43507,0.27131,0.3859,1.45356,-0.11642,0.47751,1.16608,0.33503,0.52547,1.22047,-0.04359,0.58861,1.39576,0.2164,0.59966,1.43917
1683,0.08692,0.4099,1.51843,0.00144,0.47263,0.07863,0.2666,0.16248,0.14113,0.02063,0.4597,0.49473,0.27739,0.38771,0.48972,0.04441,0.36902,0.91969,0.21477,0.35722,0.91725,-0.06431,0.37481,1.43452,0.27096,0.38749,1.4537,-0.11689,0.47702,1.16527,0.33378,0.52756,1.22066,-0.04437,0.58754,1.39532,0.21482,0.60081,1.43951
1684,0.08646,0.41019,1.51834,0.00134,0.47258,0.07851,0.26638,0.16333,0.14057,0.02041,0.46024,0.49462,0.27692,0.38826,0.48936,0.04406,0.36936,0.91955,0.21445,0.35795,0.91693,-0.06472,0.37436,1.43395,0.27075,0.38876,1.45382,-0.11698,0.47692,1.16477,0.3327,0.52964,1.22103,-0.04446,0.58777,1.39467,0.21305,0.60158,1.43994
1685,0.08613,0.41037,1.51823,0.00109,0.47252,0.07827,0.2663,0.16445,0.13952,0.02045,0.46065,0.49439,0.2763,0.38853,0.48887,0.04377,0.36974,0.91933,0.21416,0.35835,0.91649,-0.06483,0.37384,1.43332,0.2707,0.38967,1.45381,-0.11689,0.47659,1.16417,0.33197,0.53131,1.22131,-0.04437,0.58846,1.39357,0.21167,0.6021,1.44023
1686,0.08594,0.4104,1.51827,0.00094,0.4725,0.07797,0.26611,0.16585,0.13807,0.02063,0.46113,0.49409,0.27578,0.38845,0.48837,0.04358,0.37027,0.91906,0.21394,0.35857,0.91606,-0.06469,0.37388,1.43256,0.27088,0.39032,1.45362,-0.117,0.47543,1.163,0.33155,0.53245,1.22126,-0.04523,0.58795,1.39232,0.21117,0.60246,1.44038
1687,0.08599,0.41043,1.51841,0.00101,0.47245,0.07773,0.26559,0.16733,0.13633,0.02081,0.46191,0.49386,0.27537,0.38788,0.48792,0.04339,0.37092,0.91883,0.21372,0.35887,0.9157,-0.06447,0.37458,1.43182,0.27127,0.39094,1.45324,-0.11722,0.47368,1.16143,0.33139,0.53332,1.22089,-0.04731,0.58603,1.39142,0.21155,0.60263,1.44054
1688,0.08621,0.41075,1.51838,0.00112,0.47228,0.07763,0.26466,0.16868,0.13442,0.02097,0.46304,0.49378,0.27489,0.38676,0.48755,0.04307,0.37171,0.9187,0.21338,0.35938,0.91545,-0.06431,0.37551,1.43135,0.27163,0.3917,1.45274,-0.11711,0.47227,1.16013,0.33155,0.53425,1.22045,-0.04981,0.5841,1.39114,0.21237,0.60254,1.44077
1689,0.08637,0.4113,1.51801,0.00111,0.47207,0.07763,0.2634,0.16988,0.13248,0.02111,0.46438,0.49381,0.27413,0.38522,0.48727,0.04267,0.37264,0.91867,0.21295,0.35996,0.91535,-0.06415,0.37609,1.43111,0.27175,0.39262,1.45241,-0.11662,0.47163,1.1594,0.33204,0.53524,1.22026,-0.05165,0.58326,1.39117,0.21295,0.60253,1.44094
1690,0.08637,0.41173,1.51745,0.00102,0.47203,0.07771,0.26191,0.17106,0.13049,0.02124,0.46564,0.4939,0.27307,0.38342,0.48705,0.04241,0.37366,0.91872,0.21266,0.36046,0.91537,-0.06385,0.37599,1.43072,0.27177,0.39359,1.45254,-0.11617,0.47126,1.15889,0.33252,0.53617,1.22048,-0.05238,0.58324,1.39082,0.21279,0.60312,1.44091
1691,0.08639,0.4118,1.51704,0.00101,0.47225,0.07787,0.26032,0.17238,0.12824,0.02134,0.46653,0.49407,0.2718,0.38147,0.48672,0.04243,0.37468,0.91892,0.21261,0.36086,0.91533,-0.06337,0.37514,1.42989,0.27212,0.39448,1.45303,-0.11606,0.47051,1.15816,0.33256,0.53712,1.22092,-0.05239,0.58318,1.38979,0.21203,0.60432,1.44084
1692,0.08668,0.4116,1.51691,0.0011,0.47259,0.07808,0.25869,0.17385,0.12558,0.02133,0.46687,0.49428,0.2704,0.37931,0.48614,0.04259,0.3756,0.91925,0.21272,0.3612,0.91507,-0.06275,0.37383,1.42876,0.27302,0.39515,1.45343,-0.11608,0.46928,1.15718,0.33211,0.53831,1.2213,-0.05241,0.58261,1.38849,0.21122,0.60549,1.44103
1693,0.0873,0.41129,1.51688,0.00124,0.4729,0.07821,0.25702,0.17529,0.12256,0.02129,0.46671,0.49442,0.26895,0.37685,0.48531,0.04273,0.37634,0.91957,0.21279,0.36143,0.91455,-0.06198,0.37242,1.42769,0.27431,0.39545,1.45341,-0.11588,0.46786,1.15622,0.33166,0.53981,1.22158,-0.0528,0.58162,1.38748,0.21072,0.60617,1.44154
1694,0.08823,0.41086,1.51676,0.00144,0.47316,0.07823,0.2551,0.1765,0.11938,0.02136,0.46629,0.49443,0.26764,0.37411,0.48428,0.0428,0.37679,0.91977,0.21279,0.36149,0.91378,-0.06098,0.37103,1.42685,0.27573,0.39541,1.45298,-0.11547,0.46652,1.15552,0.33168,0.5415,1.2219,-0.0532,0.58057,1.38685,0.21059,0.60642,1.44219
1695,0.08947,0.41019,1.51652,0.00174,0.4734,0.0782,0.25263,0.17741,0.11633,0.02159,0.46597,0.4944,0.26658,0.37138,0.48312,0.04288,0.37702,0.91986,0.21281,0.3615,0.91283,-0.05961,0.36968,1.42625,0.27719,0.39523,1.4524,-0.11514,0.46535,1.15519,0.33228,0.54304,1.22221,-0.05312,0.57964,1.38647,0.21095,0.60638,1.44284
1696,0.09091,0.40927,1.51622,0.00203,0.47361,0.0782,0.24956,0.17796,0.11375,0.02191,0.46587,0.49439,0.26574,0.36896,0.482,0.04299,0.37729,0.91994,0.21287,0.36169,0.91187,-0.05781,0.3684,1.42572,0.2787,0.39512,1.45188,-0.11506,0.46428,1.15509,0.33324,0.54418,1.22236,-0.05244,0.57864,1.38618,0.21187,0.60605,1.44338
1697,0.09231,0.40833,1.51583,0.00214,0.47378,0.07824,0.24616,0.17808,0.11183,0.0222,0.46595,0.49442,0.26489,0.36691,0.48108,0.04311,0.37787,0.92008,0.21292,0.36209,0.9111,-0.0557,0.36712,1.42508,0.28025,0.39514,1.45145,-0.11511,0.46308,1.15495,0.3344,0.54493,1.22231,-0.05154,0.57734,1.38583,0.2132,0.60551,1.44379
1698,0.09355,0.40772,1.51528,0.00197,0.47387,0.0783,0.2427,0.17775,0.11043,0.02243,0.46616,0.49446,0.26369,0.36501,0.48036,0.04331,0.37871,0.92025,0.21304,0.36245,0.91055,-0.05355,0.36558,1.42427,0.28186,0.3952,1.45109,-0.11527,0.46149,1.15464,0.33573,0.5455,1.22222,-0.0509,0.57572,1.38531,0.21468,0.60491,1.4441
1699,0.09469,0.40762,1.5146,0.00153,0.4738,0.07838,0.23925,0.17717,0.10912,0.02267,0.46649,0.49451,0.26206,0.363,0.47966,0.04367,0.37954,0.9204,0.21329,0.36256,0.91007,-0.05162,0.3637,1.42343,0.28345,0.39518,1.45076,-0.11556,0.45954,1.15429,0.33732,0.54602,1.22225,-0.05074,0.57386,1.38479,0.21619,0.60437,1.44436
1700,0.09583,0.40777,1.51393,0.00089,0.47363,0.07849,0.23575,0.17671,0.10748,0.023,0.46692,0.49458,0.26019,0.36076,0.47881,0.04411,0.38019,0.92051,0.21362,0.3625,0.90947,-0.04995,0.36178,1.42277,0.28493,0.39503,1.4505,-0.11596,0.45752,1.1541,0.33919,0.54641,1.22243,-0.05103,0.57173,1.38462,0.21774,0.60385,1.4446
1701,0.09716,0.40771,1.51345,0.00026,0.47347,0.07861,0.23217,0.17669,0.10538,0.02341,0.46741,0.49465,0.25829,0.35825,0.47782,0.04454,0.38076,0.92059,0.21392,0.36248,0.90869,-0.04817,0.36021,1.42231,0.28635,0.39492,1.4503,-0.11647,0.45568,1.15411,0.3412,0.54662,1.22259,-0.05158,0.56925,1.38496,0.21938,0.60326,1.44477
1702,0.0988,0.40717,1.51319,-9e-05,0.47335,0.07868,0.2288,0.17716,0.10297,0.0238,0.46801,0.49469,0.25645,0.3555,0.47685,0.04495,0.38147,0.92066,0.2142,0.36253,0.9079,-0.04582,0.35899,1.42193,0.28787,0.39504,1.45016,-0.11727,0.45387,1.15435,0.34321,0.54666,1.22252,-0.05196,0.56658,1.38551,0.22118,0.60257,1.44476
1703,0.1008,0.40625,1.51302,-6e-05,0.47329,0.07872,0.22604,0.17786,0.10051,0.02409,0.46882,0.49473,0.25469,0.35255,0.47604,0.04543,0.38236,0.9207,0.21452,0.36251,0.90722,-0.04279,0.35779,1.42159,0.28965,0.39532,1.45011,-0.1185,0.4518,1.15487,0.34521,0.54646,1.2222,-0.05166,0.56407,1.3858,0.22319,0.60177,1.4446
1704,0.10307,0.40515,1.51282,0.00015,0.47329,0.07875,0.22406,0.17846,0.09817,0.02437,0.46993,0.49477,0.25311,0.34954,0.47532,0.04599,0.38329,0.92069,0.2149,0.36232,0.90661,-0.03946,0.35638,1.42139,0.29168,0.39536,1.45015,-0.11991,0.44937,1.15571,0.3472,0.54605,1.22193,-0.05067,0.56189,1.3858,0.2253,0.60079,1.44454
1705,0.10545,0.40404,1.5125,0.00028,0.47334,0.07881,0.22262,0.17875,0.09603,0.02471,0.47138,0.49483,0.2518,0.34656,0.47464,0.04666,0.3841,0.9206,0.21539,0.36202,0.906,-0.03636,0.35487,1.42147,0.2939,0.3948,1.45013,-0.12118,0.44659,1.1567,0.34934,0.5455,1.2219,-0.04944,0.55969,1.38574,0.22747,0.59954,1.4447
1706,0.10772,0.40302,1.51199,0.00031,0.47334,0.07889,0.22139,0.17866,0.09412,0.02512,0.47309,0.49489,0.2507,0.34358,0.47399,0.04746,0.38475,0.92042,0.21602,0.36168,0.90539,-0.03369,0.35353,1.42175,0.29622,0.39364,1.4499,-0.12233,0.44344,1.15761,0.35203,0.54471,1.22201,-0.04843,0.55711,1.38568,0.22989,0.59811,1.44481
1707,0.10986,0.40207,1.51138,0.00042,0.47322,0.07898,0.22029,0.17826,0.09236,0.02561,0.47494,0.49494,0.24976,0.34051,0.47336,0.04832,0.3853,0.92019,0.21671,0.36131,0.90477,-0.03123,0.35251,1.42205,0.29866,0.39228,1.44943,-0.12365,0.44008,1.15842,0.35531,0.54366,1.22196,-0.04761,0.55446,1.38544,0.23272,0.59673,1.44459
1708,0.11212,0.40105,1.5108,0.00066,0.47305,0.07904,0.21937,0.17761,0.09061,0.02633,0.47701,0.49496,0.24902,0.33727,0.4727,0.0491,0.38582,0.91987,0.21731,0.36085,0.90406,-0.02865,0.35171,1.42225,0.3013,0.39115,1.44882,-0.12542,0.43704,1.15945,0.35847,0.54261,1.22153,-0.04661,0.55256,1.38493,0.23591,0.5956,1.44419
1709,0.11476,0.39995,1.51032,0.00085,0.47307,0.07906,0.21872,0.17672,0.08885,0.02739,0.47951,0.4949,0.24852,0.33383,0.47197,0.04975,0.38628,0.91939,0.21776,0.36023,0.90324,-0.02579,0.35092,1.42239,0.30416,0.39037,1.44811,-0.12762,0.43456,1.16096,0.36102,0.54183,1.22074,-0.04515,0.5518,1.38424,0.23934,0.59466,1.44393
1710,0.11799,0.39883,1.50984,0.00091,0.47339,0.07905,0.21843,0.17545,0.08723,0.02872,0.48266,0.49476,0.24828,0.33022,0.4713,0.05033,0.38671,0.91868,0.21813,0.3594,0.90244,-0.02272,0.34998,1.42256,0.3071,0.38976,1.44725,-0.13001,0.43228,1.1629,0.36328,0.5413,1.21976,-0.0434,0.55163,1.38348,0.24292,0.5936,1.44379
1711,0.1219,0.39773,1.50925,0.00092,0.47393,0.07909,0.21857,0.1738,0.08594,0.03016,0.4865,0.49461,0.24832,0.3267,0.47077,0.05097,0.3872,0.9178,0.21856,0.35851,0.90174,-0.01951,0.34885,1.42282,0.31,0.38909,1.44616,-0.13233,0.42969,1.16504,0.36573,0.54089,1.21873,-0.0418,0.55104,1.38294,0.24638,0.59238,1.44348
1712,0.12628,0.39662,1.50855,0.00103,0.47457,0.07928,0.21913,0.17201,0.08497,0.03159,0.49105,0.49456,0.24874,0.32361,0.47033,0.05166,0.3879,0.91686,0.21904,0.35786,0.90112,-0.01621,0.34749,1.42305,0.31291,0.38815,1.44491,-0.13457,0.42675,1.16728,0.36818,0.54046,1.21771,-0.04058,0.54932,1.38302,0.24925,0.59136,1.44282
1713,0.13067,0.39553,1.50782,0.00134,0.47532,0.0797,0.21991,0.1705,0.08417,0.03302,0.49636,0.4947,0.24962,0.32112,0.4699,0.05226,0.38883,0.91595,0.21944,0.3575,0.90048,-0.0129,0.34594,1.42316,0.31594,0.3868,1.44369,-0.13699,0.42388,1.16971,0.3702,0.53974,1.21667,-0.03957,0.54643,1.38393,0.2515,0.59086,1.44186
1714,0.13463,0.39448,1.50719,0.00194,0.47624,0.08048,0.22072,0.16949,0.08344,0.03456,0.5024,0.49511,0.25094,0.31916,0.4695,0.05272,0.38974,0.91507,0.21966,0.35703,0.89988,-0.00979,0.34444,1.42322,0.31905,0.38505,1.44257,-0.13991,0.42134,1.17248,0.37207,0.53821,1.21541,-0.03854,0.54316,1.38529,0.25392,0.59052,1.44061
1715,0.13807,0.39339,1.50682,0.00275,0.47734,0.08172,0.22146,0.16896,0.08284,0.0364,0.50896,0.49588,0.25251,0.31766,0.46921,0.053,0.39033,0.91425,0.21965,0.35603,0.89942,-0.00708,0.34324,1.42346,0.32201,0.38314,1.44157,-0.14348,0.41915,1.17579,0.37459,0.53554,1.21379,-0.03743,0.54058,1.38652,0.25739,0.58961,1.43907
1716,0.14129,0.39226,1.50685,0.00346,0.47869,0.08349,0.22212,0.16876,0.08237,0.03857,0.51591,0.49707,0.25408,0.31667,0.46897,0.05306,0.39067,0.91358,0.21935,0.35454,0.89908,-0.00474,0.34243,1.42422,0.32467,0.38133,1.4406,-0.14751,0.4174,1.17986,0.37772,0.53222,1.21193,-0.036,0.53896,1.38768,0.26195,0.58783,1.43757
1717,0.14477,0.39117,1.50721,0.00377,0.4805,0.0859,0.22267,0.16881,0.08199,0.04097,0.5235,0.49874,0.25547,0.31608,0.46876,0.05291,0.39119,0.91314,0.21872,0.35287,0.8988,-0.00252,0.34204,1.42574,0.3272,0.37957,1.43942,-0.15165,0.41609,1.18493,0.38036,0.52931,1.21003,-0.03408,0.53748,1.38948,0.26662,0.58562,1.43653
1718,0.14894,0.39015,1.50767,0.0036,0.48276,0.08909,0.22307,0.16896,0.08167,0.04356,0.53215,0.50095,0.25662,0.31538,0.4687,0.05267,0.39211,0.91288,0.21785,0.3511,0.89864,-0.00017,0.34214,1.42799,0.32998,0.37756,1.43789,-0.15587,0.41497,1.191,0.38173,0.52733,1.20819,-0.03203,0.53551,1.39233,0.2704,0.58362,1.43588
1719,0.15381,0.38904,1.50805,0.00305,0.48521,0.09321,0.22325,0.16897,0.08143,0.04649,0.54191,0.50378,0.2575,0.31411,0.46888,0.05237,0.39313,0.91269,0.21678,0.34908,0.89871,0.00229,0.34269,1.4307,0.33327,0.37505,1.4361,-0.16041,0.41389,1.19796,0.3822,0.52572,1.20636,-0.03025,0.53364,1.39574,0.27314,0.58197,1.43517
1720,0.15886,0.38769,1.50833,0.00223,0.48767,0.09824,0.22315,0.16867,0.08127,0.0498,0.55231,0.50718,0.258,0.31214,0.46929,0.05199,0.39394,0.91251,0.21557,0.34677,0.89899,0.00468,0.34351,1.43352,0.3369,0.37216,1.4343,-0.1655,0.41325,1.20574,0.38265,0.52351,1.20436,-0.02874,0.53272,1.39919,0.27562,0.58037,1.43398
1721,0.1636,0.38614,1.50866,0.00119,0.49044,0.10384,0.22288,0.16807,0.08122,0.0532,0.56272,0.51095,0.25798,0.30971,0.46989,0.05163,0.39468,0.91238,0.21434,0.34442,0.89945,0.00693,0.34464,1.43633,0.34037,0.36906,1.43274,-0.17116,0.41354,1.21441,0.38384,0.52003,1.20211,-0.02727,0.53276,1.40278,0.27888,0.57845,1.43229
1722,0.16813,0.38459,1.50918,9e-05,0.49392,0.10954,0.22268,0.16744,0.08128,0.05629,0.57276,0.51488,0.25736,0.30716,0.47068,0.0514,0.39579,0.91242,0.21315,0.34237,0.90015,0.00908,0.34631,1.43924,0.34325,0.36575,1.43166,-0.1773,0.41486,1.22413,0.38603,0.51511,1.19986,-0.02556,0.53315,1.40684,0.28344,0.57621,1.43041
1723,0.17289,0.38317,1.50979,-0.00104,0.49807,0.11512,0.22268,0.16702,0.08147,0.05887,0.58233,0.51882,0.25618,0.30475,0.47168,0.0512,0.39747,0.91272,0.21184,0.34066,0.90107,0.01131,0.34871,1.4425,0.34555,0.3621,1.43103,-0.18375,0.41717,1.2352,0.38892,0.50916,1.19786,-0.02326,0.53365,1.41148,0.28892,0.57378,1.42859
1724,0.17799,0.38194,1.51031,-0.00242,0.5026,0.1206,0.22276,0.16678,0.0818,0.06099,0.59141,0.52279,0.25469,0.30253,0.47284,0.05084,0.39955,0.91326,0.21015,0.33899,0.90217,0.0138,0.35179,1.44633,0.34759,0.35824,1.43022,-0.19016,0.42086,1.248,0.39188,0.50306,1.19584,-0.02004,0.53449,1.41696,0.29482,0.57079,1.42693
1725,0.18314,0.38094,1.51069,-0.00433,0.50742,0.12602,0.22287,0.16663,0.08227,0.06284,0.59998,0.52675,0.25313,0.30037,0.47413,0.05023,0.4018,0.91399,0.20793,0.33711,0.90336,0.01665,0.35527,1.45073,0.34955,0.35448,1.42855,-0.19622,0.42644,1.26276,0.39431,0.4976,1.19322,-0.01592,0.53608,1.42361,0.30102,0.56652,1.4255
1726,0.18823,0.38022,1.511,-0.00678,0.51253,0.13124,0.22307,0.16644,0.08278,0.0646,0.6079,0.53059,0.25159,0.29799,0.47552,0.04947,0.40419,0.91485,0.20536,0.33518,0.9046,0.01977,0.35892,1.45543,0.3513,0.35095,1.42617,-0.20186,0.43394,1.27947,0.39583,0.49273,1.18997,-0.01111,0.53866,1.43129,0.30736,0.56095,1.42434
1727,0.19334,0.37986,1.51133,-0.00957,0.5178,0.13605,0.22339,0.16611,0.08322,0.06642,0.61496,0.53411,0.25003,0.29508,0.47694,0.04875,0.40679,0.91587,0.20266,0.33347,0.9058,0.02301,0.3628,1.46,0.35259,0.34749,1.42399,-0.20723,0.4431,1.29799,0.39659,0.4877,1.18677,-0.00571,0.54216,1.43933,0.31341,0.5551,1.42331
1728,0.1984,0.37992,1.51166,-0.01242,0.52307,0.14038,0.22369,0.16564,0.08345,0.06833,0.62103,0.5373,0.24828,0.29158,0.47828,0.04807,0.40958,0.91712,0.1999,0.33205,0.90683,0.02622,0.36728,1.4642,0.35332,0.34375,1.42272,-0.21229,0.45383,1.31815,0.3972,0.48181,1.18421,0.00046,0.5461,1.4471,0.31895,0.54995,1.42221
1729,0.20308,0.38038,1.512,-0.01521,0.52831,0.14432,0.22383,0.16523,0.08344,0.07014,0.62614,0.54031,0.2462,0.28794,0.47942,0.04731,0.41223,0.9186,0.19703,0.3308,0.90764,0.02911,0.37261,1.46824,0.35346,0.33944,1.42206,-0.21665,0.46655,1.33983,0.39813,0.47504,1.18229,0.00766,0.54984,1.45451,0.3242,0.54562,1.42096
1730,0.2071,0.38095,1.51241,-0.01798,0.53361,0.14791,0.22381,0.16503,0.08335,0.07164,0.63041,0.54321,0.24374,0.2847,0.48039,0.04635,0.41437,0.92013,0.19411,0.32954,0.90836,0.03131,0.37847,1.4726,0.35288,0.33432,1.4212,-0.21972,0.48185,1.36303,0.39913,0.46802,1.18067,0.01605,0.55288,1.46187,0.32914,0.54159,1.41962
1731,0.2104,0.38123,1.51287,-0.02091,0.53916,0.151,0.22364,0.16498,0.0834,0.07261,0.63393,0.54589,0.24096,0.28191,0.48137,0.04522,0.41595,0.92154,0.19119,0.32814,0.90918,0.03286,0.38438,1.47764,0.35147,0.32833,1.41971,-0.22079,0.49983,1.38794,0.39963,0.46124,1.17911,0.02559,0.55516,1.46943,0.33343,0.53751,1.41829
1732,0.21315,0.381,1.51327,-0.02425,0.54515,0.1534,0.22324,0.16487,0.08361,0.073,0.63678,0.54813,0.23804,0.27913,0.48246,0.04402,0.41727,0.92276,0.18818,0.32657,0.91012,0.03439,0.38999,1.48341,0.34943,0.3218,1.41777,-0.21878,0.51997,1.41472,0.39946,0.45464,1.17752,0.03641,0.55738,1.47699,0.33697,0.53352,1.41686
1733,0.21557,0.38046,1.51347,-0.02805,0.55159,0.15508,0.2227,0.16458,0.08383,0.07297,0.63904,0.54981,0.23511,0.27611,0.48354,0.04278,0.41855,0.92378,0.18502,0.32488,0.91103,0.03678,0.39521,1.48973,0.34725,0.31531,1.41577,-0.21236,0.54167,1.44294,0.399,0.44796,1.17577,0.04906,0.56113,1.484,0.34029,0.52981,1.41507
1734,0.21793,0.38009,1.5134,-0.03201,0.55828,0.15612,0.22232,0.16418,0.08386,0.07281,0.64079,0.55092,0.23216,0.27295,0.4844,0.04146,0.41978,0.92449,0.18166,0.32309,0.91168,0.04023,0.40036,1.4963,0.34509,0.30944,1.41382,-0.2008,0.56468,1.47158,0.39865,0.44107,1.17366,0.06387,0.5677,1.49,0.34404,0.52594,1.41288
1735,0.22018,0.38045,1.51298,-0.03552,0.56503,0.15649,0.22227,0.1639,0.08364,0.07267,0.64206,0.55149,0.22911,0.26996,0.48496,0.04001,0.42097,0.9249,0.17806,0.32126,0.91205,0.04422,0.40655,1.50292,0.34254,0.30433,1.41185,-0.18477,0.58893,1.49957,0.39828,0.43377,1.17099,0.08023,0.57657,1.49488,0.34856,0.52088,1.41047
1736,0.22194,0.38177,1.51223,-0.03816,0.57192,0.1561,0.22232,0.16388,0.08335,0.07248,0.64281,0.55158,0.22591,0.26733,0.48539,0.03844,0.42225,0.92518,0.17424,0.31947,0.9123,0.04846,0.41495,1.50958,0.3389,0.29975,1.40986,-0.16536,0.61423,1.52622,0.39738,0.42554,1.16772,0.09692,0.58555,1.49816,0.35409,0.51387,1.40801
1737,0.22287,0.38382,1.51133,-0.03993,0.57926,0.15495,0.22207,0.164,0.08326,0.07207,0.64294,0.55127,0.22259,0.26501,0.48594,0.03689,0.42363,0.9255,0.17027,0.31774,0.91269,0.05324,0.42555,1.51627,0.33385,0.29546,1.40807,-0.14294,0.64007,1.55096,0.39548,0.41615,1.16413,0.1131,0.59293,1.49976,0.36063,0.5051,1.40555
1738,0.22306,0.38607,1.5104,-0.04111,0.58708,0.15327,0.22137,0.16419,0.08346,0.07134,0.64257,0.55069,0.21927,0.26294,0.48669,0.03544,0.42499,0.92586,0.16626,0.31593,0.91333,0.0585,0.43728,1.52268,0.32758,0.29147,1.40664,-0.11756,0.66562,1.57337,0.39255,0.40631,1.16075,0.12888,0.59905,1.50103,0.36742,0.49587,1.40315
1739,0.22283,0.38822,1.50929,-0.042,0.5949,0.1514,0.2203,0.16456,0.08372,0.07035,0.64201,0.54992,0.2162,0.26112,0.48747,0.03408,0.42617,0.92606,0.16228,0.31398,0.91401,0.06364,0.44922,1.52825,0.32042,0.28784,1.40541,-0.08968,0.68997,1.59337,0.38899,0.39729,1.15804,0.14513,0.60562,1.50308,0.37331,0.48781,1.40088
1740,0.22236,0.3902,1.50773,-0.04287,0.60189,0.1496,0.21916,0.16517,0.08375,0.06926,0.64146,0.54901,0.21354,0.25959,0.48799,0.03266,0.42712,0.92597,0.1583,0.31202,0.91441,0.06838,0.46104,1.53251,0.31242,0.28451,1.40403,-0.05981,0.7123,1.61089,0.38526,0.3898,1.15608,0.16251,0.61371,1.50481,0.37754,0.48184,1.39873
1741,0.22163,0.39195,1.50569,-0.04392,0.60739,0.14808,0.21822,0.16577,0.08348,0.06832,0.64099,0.54801,0.21124,0.25826,0.48815,0.03099,0.42788,0.9256,0.15419,0.31013,0.9144,0.0731,0.47253,1.53508,0.30351,0.28131,1.40234,-0.02803,0.73203,1.62532,0.38148,0.38363,1.1547,0.18081,0.62269,1.50352,0.38016,0.47763,1.39672
1742,0.22052,0.39353,1.50331,-0.04521,0.6112,0.14695,0.21766,0.16594,0.08311,0.06773,0.64058,0.54701,0.20908,0.25692,0.48809,0.02891,0.4284,0.92498,0.14976,0.30821,0.9141,0.07818,0.48351,1.53555,0.29381,0.27825,1.40051,0.00589,0.74898,1.6356,0.37736,0.37815,1.15371,0.19894,0.63086,1.49711,0.38174,0.47427,1.39485
1743,0.21878,0.39534,1.50058,-0.04669,0.61348,0.14622,0.21751,0.1655,0.08285,0.06763,0.64014,0.54608,0.207,0.25547,0.48801,0.0263,0.42862,0.92414,0.14496,0.30624,0.9137,0.08361,0.49402,1.53389,0.28382,0.27549,1.39884,0.0418,0.76329,1.64092,0.37272,0.3728,1.15288,0.21601,0.63645,1.48611,0.3829,0.47106,1.39298
1744,0.21626,0.39783,1.49737,-0.04825,0.61445,0.14577,0.21759,0.16457,0.0828,0.06799,0.63964,0.54517,0.20515,0.2541,0.488,0.02305,0.42867,0.92314,0.13986,0.30448,0.91324,0.08936,0.50429,1.53088,0.2744,0.2731,1.39741,0.07867,0.77524,1.64126,0.3678,0.36715,1.15185,0.23217,0.63841,1.47358,0.384,0.46754,1.39074
1745,0.21333,0.40097,1.4937,-0.04976,0.61451,0.14548,0.21757,0.1636,0.08291,0.06861,0.6392,0.54429,0.20373,0.25328,0.48804,0.01922,0.42885,0.92204,0.13461,0.30329,0.91272,0.09535,0.51445,1.5276,0.26609,0.27112,1.39605,0.1146,0.78509,1.63758,0.36285,0.36093,1.1502,0.2478,0.63663,1.46259,0.38508,0.46326,1.38777
1746,0.21074,0.4042,1.49002,-0.05108,0.61419,0.14516,0.21721,0.16307,0.08313,0.0692,0.63904,0.54338,0.2027,0.25331,0.4881,0.01517,0.4295,0.92094,0.12942,0.30286,0.91214,0.10125,0.5241,1.5245,0.25872,0.26977,1.39465,0.14804,0.79282,1.63084,0.35756,0.3541,1.14769,0.26305,0.63191,1.45397,0.3859,0.45781,1.38402
1747,0.20888,0.40696,1.48697,-0.05208,0.61381,0.14459,0.21646,0.16316,0.0833,0.0695,0.63926,0.54238,0.20178,0.25401,0.48814,0.01142,0.4308,0.91994,0.12446,0.30306,0.91152,0.10682,0.53248,1.52132,0.25181,0.26943,1.39326,0.17869,0.79825,1.62088,0.35138,0.34716,1.14443,0.27859,0.62535,1.44616,0.38613,0.45109,1.3798
1748,0.20759,0.40916,1.48477,-0.05269,0.61338,0.14372,0.21547,0.16354,0.08333,0.06949,0.63976,0.54127,0.20061,0.25489,0.48804,0.00818,0.4326,0.91904,0.11978,0.30359,0.91081,0.112,0.5393,1.51776,0.24549,0.27011,1.39198,0.20677,0.80159,1.60681,0.34412,0.3409,1.14072,0.29515,0.61744,1.43746,0.38566,0.44354,1.37556
1749,0.20682,0.41111,1.4829,-0.05288,0.61266,0.1427,0.21438,0.16368,0.0832,0.06927,0.64048,0.54015,0.19904,0.25569,0.48774,0.00532,0.43469,0.91823,0.11534,0.30433,0.90996,0.11645,0.54512,1.51369,0.24034,0.2713,1.39087,0.23184,0.80356,1.58854,0.33617,0.33584,1.13685,0.31176,0.6082,1.42778,0.38471,0.43597,1.37143
1750,0.20712,0.41307,1.48048,-0.05275,0.61159,0.14169,0.21338,0.16345,0.08298,0.06899,0.64152,0.53912,0.19709,0.25652,0.48724,0.00255,0.43699,0.91746,0.11112,0.30543,0.90897,0.11977,0.55068,1.50892,0.23663,0.27236,1.38988,0.25307,0.80474,1.56716,0.32817,0.33165,1.13302,0.32616,0.59782,1.41802,0.38351,0.42915,1.3672
1751,0.20907,0.41481,1.47699,-0.05255,0.61045,0.14074,0.2126,0.16325,0.08273,0.0687,0.64297,0.53812,0.19481,0.25751,0.48666,-0.00028,0.43957,0.91661,0.10707,0.30702,0.90795,0.12216,0.55617,1.5032,0.23418,0.27306,1.38888,0.27053,0.80522,1.54405,0.3206,0.32759,1.1292,0.33749,0.58673,1.40923,0.38194,0.42312,1.3627
1752,0.21248,0.41578,1.47271,-0.05264,0.60971,0.13982,0.21215,0.16344,0.08252,0.06841,0.64483,0.53704,0.19233,0.25862,0.48613,-0.00323,0.4424,0.91555,0.10304,0.30897,0.907,0.12433,0.56145,1.49652,0.23275,0.27345,1.38757,0.28508,0.80497,1.52037,0.31369,0.32351,1.12525,0.34713,0.57593,1.40165,0.37966,0.41746,1.35813
1753,0.21619,0.41568,1.46842,-0.05324,0.60959,0.139,0.21205,0.16386,0.08237,0.06817,0.64703,0.5359,0.18996,0.25974,0.4857,-0.00637,0.44531,0.91423,0.0989,0.31108,0.90607,0.12706,0.56643,1.48937,0.23199,0.2736,1.38578,0.29737,0.80444,1.49712,0.30755,0.31979,1.12115,0.35656,0.56697,1.39462,0.37662,0.41208,1.35379
1754,0.21896,0.41485,1.46473,-0.05417,0.60992,0.13844,0.21215,0.16411,0.08224,0.06809,0.6495,0.53486,0.18794,0.26078,0.48526,-0.00963,0.44816,0.91275,0.09471,0.31317,0.90502,0.13083,0.57102,1.48237,0.23134,0.27343,1.38367,0.30749,0.80437,1.47509,0.30217,0.31644,1.11721,0.36566,0.56076,1.38749,0.37318,0.4076,1.34971
1755,0.22051,0.41403,1.46169,-0.05499,0.61029,0.13814,0.21227,0.16398,0.082,0.06828,0.65212,0.53402,0.18639,0.26174,0.48466,-0.01272,0.45081,0.91125,0.09056,0.315,0.90372,0.13553,0.57511,1.47577,0.23026,0.27297,1.38172,0.31551,0.80502,1.45442,0.29744,0.31301,1.11385,0.37316,0.55678,1.38057,0.37007,0.40448,1.34573
1756,0.22142,0.41373,1.45893,-0.05546,0.61043,0.13798,0.21236,0.1636,0.08167,0.06863,0.65468,0.53334,0.18538,0.26278,0.48391,-0.01538,0.4532,0.90981,0.08644,0.31629,0.90221,0.14058,0.57872,1.46951,0.22848,0.27247,1.38015,0.32171,0.80611,1.43488,0.2933,0.30924,1.11123,0.37839,0.55406,1.37439,0.36802,0.40241,1.34176
1757,0.22232,0.41398,1.45608,-0.05559,0.61036,0.13784,0.21252,0.16319,0.08139,0.06891,0.65709,0.53278,0.18497,0.26416,0.48314,-0.0177,0.45526,0.90848,0.08227,0.31701,0.90063,0.14532,0.58209,1.46356,0.22594,0.27231,1.37882,0.32634,0.80729,1.41633,0.28982,0.30529,1.10918,0.382,0.55225,1.36882,0.36721,0.40085,1.33785
1758,0.22335,0.41468,1.45301,-0.05554,0.61037,0.13769,0.21284,0.1629,0.08131,0.06895,0.6594,0.53236,0.185,0.26608,0.48248,-0.01996,0.45701,0.90722,0.07804,0.31738,0.89909,0.14934,0.58531,1.45798,0.22291,0.27272,1.37742,0.32966,0.80829,1.39903,0.28707,0.30139,1.10736,0.38481,0.55124,1.36323,0.36702,0.39954,1.33404
1759,0.22435,0.41591,1.44977,-0.05546,0.61072,0.13761,0.21326,0.16285,0.08143,0.06878,0.66181,0.5321,0.18519,0.26849,0.48194,-0.02233,0.45862,0.90599,0.07385,0.31774,0.89765,0.15254,0.58838,1.453,0.22002,0.27357,1.3758,0.33207,0.80895,1.38352,0.28496,0.29767,1.10548,0.387,0.5507,1.3572,0.36659,0.39868,1.3303
1760,0.22512,0.41772,1.44656,-0.05546,0.6115,0.13771,0.21356,0.16318,0.08162,0.06861,0.66442,0.53201,0.18526,0.27116,0.48149,-0.02482,0.46023,0.90479,0.06992,0.31838,0.89635,0.15522,0.59127,1.44898,0.21784,0.27456,1.37398,0.33403,0.80933,1.37033,0.28313,0.29425,1.10339,0.38868,0.5504,1.35108,0.36555,0.39837,1.3265
1761,0.22554,0.41981,1.44358,-0.05562,0.6126,0.13806,0.21357,0.16384,0.08175,0.06868,0.66715,0.53207,0.18504,0.27379,0.48107,-0.02733,0.46182,0.90356,0.06638,0.31928,0.89517,0.15779,0.59381,1.44597,0.21635,0.27536,1.3723,0.33586,0.8095,1.35949,0.28119,0.29106,1.10134,0.39064,0.55025,1.34567,0.36429,0.39839,1.32266
1762,0.2256,0.42163,1.44097,-0.0559,0.61372,0.13861,0.21327,0.16456,0.08171,0.06899,0.66982,0.53221,0.18456,0.27602,0.4806,-0.0298,0.46325,0.90227,0.06313,0.3202,0.89405,0.16024,0.59565,1.44338,0.21497,0.27587,1.37113,0.33775,0.80914,1.35053,0.27908,0.28797,1.09981,0.39316,0.54982,1.34128,0.36352,0.39825,1.31917
1763,0.22536,0.4229,1.43872,-0.05624,0.61464,0.13921,0.21272,0.16508,0.08149,0.06935,0.67232,0.53236,0.18402,0.27761,0.48007,-0.03215,0.46444,0.90096,0.06014,0.32097,0.89288,0.16218,0.59669,1.44045,0.21328,0.27627,1.37049,0.33971,0.80801,1.3428,0.27709,0.28509,1.09897,0.39505,0.54857,1.33768,0.36346,0.39752,1.31647
1764,0.22493,0.42398,1.43677,-0.05654,0.61535,0.13977,0.21209,0.16535,0.08115,0.06947,0.67465,0.53254,0.18354,0.27869,0.47951,-0.03419,0.46542,0.89977,0.05758,0.3216,0.89174,0.16352,0.59743,1.43701,0.21138,0.27675,1.36993,0.3417,0.80663,1.33603,0.2754,0.28276,1.09838,0.3948,0.54667,1.33459,0.3636,0.39607,1.3147
1765,0.22446,0.42541,1.43502,-0.05675,0.61595,0.14024,0.21158,0.1655,0.08083,0.06922,0.67682,0.53278,0.18303,0.27964,0.47897,-0.03588,0.46622,0.89882,0.05558,0.32221,0.89077,0.16467,0.59844,1.43363,0.20973,0.27736,1.3691,0.34363,0.80587,1.3304,0.27392,0.28118,1.09755,0.39227,0.54504,1.33128,0.36334,0.3942,1.31352
1766,0.22421,0.42724,1.43336,-0.05694,0.61644,0.14062,0.21135,0.1656,0.08062,0.0686,0.6788,0.53307,0.18228,0.28059,0.47848,-0.03727,0.46693,0.89816,0.05399,0.3228,0.89006,0.16593,0.6,1.43097,0.20858,0.27819,1.36814,0.34534,0.80625,1.32618,0.27245,0.28039,1.0965,0.38917,0.54457,1.32693,0.36265,0.39256,1.31258
1767,0.22422,0.42902,1.43184,-0.05717,0.61679,0.14093,0.21135,0.16566,0.08051,0.06773,0.68048,0.53337,0.1813,0.28132,0.4781,-0.0385,0.46762,0.89777,0.05257,0.32338,0.88956,0.1672,0.60197,1.42912,0.20767,0.27946,1.36741,0.34678,0.80758,1.32335,0.27093,0.28035,1.09562,0.3873,0.54536,1.32236,0.36187,0.39179,1.31178
1768,0.22428,0.43042,1.43054,-0.05745,0.61713,0.14117,0.21148,0.16573,0.08046,0.0668,0.68181,0.53365,0.18029,0.28163,0.47789,-0.03961,0.46832,0.89763,0.0513,0.32398,0.88924,0.16817,0.60412,1.4277,0.20653,0.28125,1.36698,0.34807,0.80925,1.32157,0.26945,0.28094,1.09511,0.38678,0.54677,1.3188,0.36114,0.39196,1.31116
1769,0.22419,0.4315,1.42942,-0.05779,0.61757,0.14129,0.21165,0.16587,0.08046,0.06586,0.68282,0.53387,0.17939,0.28161,0.47785,-0.04053,0.46907,0.8977,0.05032,0.32471,0.88909,0.16876,0.60621,1.42639,0.20519,0.28326,1.36665,0.34931,0.81088,1.32047,0.26814,0.28189,1.09479,0.38676,0.54823,1.3166,0.36043,0.39265,1.31072
1770,0.22398,0.43262,1.42848,-0.05822,0.61799,0.14124,0.21187,0.16609,0.08051,0.06478,0.68362,0.53397,0.17859,0.28151,0.47792,-0.04127,0.46987,0.8979,0.04964,0.32556,0.88909,0.16907,0.60805,1.42522,0.2041,0.28495,1.36638,0.35049,0.81232,1.32001,0.26695,0.283,1.0945,0.3869,0.54953,1.31548,0.35972,0.39342,1.3104
1771,0.2237,0.43397,1.42792,-0.05874,0.61819,0.14106,0.21206,0.16632,0.0806,0.06344,0.68431,0.53396,0.17777,0.2815,0.47798,-0.04191,0.47065,0.89814,0.04911,0.32641,0.88916,0.16925,0.60947,1.42445,0.20362,0.28598,1.36633,0.35165,0.81347,1.32041,0.26582,0.28429,1.0943,0.3877,0.55065,1.31525,0.35912,0.39419,1.31023
1772,0.22336,0.43542,1.42793,-0.05925,0.61812,0.14085,0.21202,0.16642,0.0807,0.06198,0.68488,0.53393,0.17698,0.28161,0.47801,-0.04249,0.47129,0.8984,0.04857,0.32709,0.8892,0.16938,0.61039,1.42424,0.20365,0.28647,1.3667,0.35283,0.81423,1.32174,0.26476,0.28579,1.09442,0.39009,0.55159,1.31597,0.35879,0.39516,1.3103
1773,0.22286,0.43672,1.42856,-0.05966,0.6179,0.1407,0.21163,0.16645,0.08079,0.06066,0.68525,0.53396,0.17627,0.28179,0.47803,-0.04297,0.47172,0.89871,0.04801,0.3275,0.88924,0.16944,0.61095,1.42451,0.20388,0.28693,1.36746,0.35387,0.81475,1.32371,0.26375,0.28743,1.0949,0.39443,0.55261,1.31751,0.35859,0.39637,1.31065
1774,0.22201,0.43787,1.4297,-0.05997,0.61761,0.14066,0.21102,0.16651,0.08085,0.05953,0.6855,0.53408,0.17553,0.28198,0.47805,-0.04329,0.47193,0.89904,0.04758,0.32765,0.88936,0.16936,0.6115,1.42504,0.20398,0.28768,1.36836,0.35464,0.81527,1.32575,0.26252,0.28908,1.09552,0.39986,0.55388,1.32012,0.3581,0.39763,1.31114
1775,0.22073,0.43907,1.43114,-0.06024,0.61735,0.14075,0.21049,0.16663,0.0809,0.05846,0.68583,0.53431,0.17451,0.28213,0.47804,-0.04346,0.47194,0.89934,0.04745,0.32769,0.88964,0.16917,0.61228,1.42579,0.2037,0.28862,1.36911,0.35519,0.81586,1.32752,0.26083,0.29067,1.09598,0.40535,0.55533,1.32454,0.35699,0.39882,1.31153
1776,0.21914,0.4404,1.43264,-0.06055,0.61727,0.14099,0.2101,0.16683,0.08095,0.05739,0.68627,0.53468,0.17323,0.2822,0.47805,-0.04356,0.47188,0.89969,0.04758,0.32777,0.89008,0.16892,0.6133,1.42682,0.20317,0.28951,1.36963,0.35549,0.81661,1.32902,0.25884,0.29225,1.0962,0.40978,0.55689,1.32991,0.35557,0.4,1.31171
1777,0.21763,0.44174,1.43403,-0.06103,0.61753,0.14131,0.20973,0.16715,0.08102,0.05644,0.68663,0.53513,0.17203,0.28216,0.47814,-0.04365,0.47187,0.90015,0.04779,0.32794,0.89058,0.16867,0.61442,1.42806,0.20288,0.29025,1.37017,0.35528,0.81779,1.33047,0.25705,0.29397,1.09645,0.41099,0.55839,1.33368,0.3546,0.40127,1.31181
1778,0.21656,0.44297,1.43521,-0.06171,0.61807,0.14158,0.20921,0.16759,0.08105,0.05566,0.68674,0.5355,0.17121,0.282,0.47832,-0.04372,0.47194,0.9007,0.04797,0.32818,0.89101,0.16828,0.61536,1.42938,0.20319,0.29086,1.37095,0.35438,0.81935,1.3321,0.25576,0.29602,1.09694,0.40737,0.55937,1.3342,0.35442,0.40266,1.31212
1779,0.21583,0.44406,1.43632,-0.06247,0.61862,0.1417,0.2086,0.168,0.08101,0.05495,0.68664,0.53572,0.17072,0.28179,0.47847,-0.04368,0.47208,0.90126,0.04818,0.32845,0.89131,0.16735,0.61595,1.4308,0.20401,0.29125,1.37188,0.35294,0.82061,1.33394,0.25486,0.29842,1.09759,0.40016,0.55952,1.33239,0.35459,0.40419,1.31271
1780,0.21496,0.44503,1.4377,-0.0632,0.61905,0.14172,0.20811,0.16826,0.08093,0.05412,0.68657,0.53585,0.17026,0.28166,0.47851,-0.04332,0.47223,0.90184,0.04863,0.32867,0.89158,0.16566,0.61615,1.43231,0.20504,0.29132,1.37278,0.35123,0.82094,1.33569,0.25412,0.30081,1.09824,0.39286,0.55894,1.33051,0.35459,0.40579,1.3134
1781,0.21375,0.44572,1.43957,-0.06383,0.61948,0.14183,0.20789,0.16835,0.08097,0.05311,0.68674,0.53613,0.16979,0.28162,0.47856,-0.0425,0.4723,0.90254,0.04948,0.32878,0.892,0.16347,0.61604,1.43377,0.20617,0.29116,1.37376,0.3492,0.82065,1.33707,0.2534,0.30276,1.09897,0.38845,0.55832,1.33032,0.35449,0.40726,1.31408
1782,0.21267,0.446,1.44168,-0.06432,0.6201,0.14219,0.20793,0.16834,0.08124,0.05199,0.68712,0.53672,0.16953,0.28159,0.4788,-0.04138,0.47226,0.90345,0.05071,0.32884,0.89267,0.16131,0.61573,1.43505,0.20742,0.29105,1.37508,0.34648,0.8208,1.33826,0.25287,0.30405,1.10006,0.38794,0.5588,1.33223,0.35473,0.40854,1.3148
1783,0.21213,0.446,1.44359,-0.0647,0.62089,0.14273,0.20807,0.1683,0.08168,0.05089,0.68749,0.53753,0.16968,0.28143,0.47928,-0.04028,0.47213,0.90453,0.05214,0.32893,0.89348,0.1594,0.61546,1.43613,0.20875,0.29111,1.37676,0.34285,0.8222,1.33961,0.25287,0.30491,1.10157,0.39055,0.56122,1.33564,0.3555,0.40987,1.31571
1784,0.21193,0.44604,1.44517,-0.06505,0.62163,0.14317,0.20818,0.16817,0.08216,0.04981,0.68761,0.53829,0.17017,0.28112,0.47985,-0.03936,0.47191,0.90558,0.05352,0.32904,0.89425,0.1575,0.61543,1.43705,0.20996,0.29126,1.37843,0.33852,0.82462,1.34123,0.25369,0.3057,1.1032,0.39417,0.5652,1.33975,0.35661,0.41147,1.31681
1785,0.21156,0.44626,1.4466,-0.0654,0.6221,0.14334,0.20829,0.16788,0.08256,0.04873,0.6874,0.53878,0.1708,0.28071,0.48032,-0.03858,0.47153,0.90642,0.05476,0.32897,0.89486,0.15528,0.61565,1.43782,0.21076,0.2914,1.37967,0.33395,0.82724,1.34287,0.25529,0.30673,1.10462,0.39671,0.56945,1.34394,0.3578,0.41308,1.31814
1786,0.21078,0.44644,1.44815,-0.06562,0.62223,0.14326,0.20852,0.16748,0.08286,0.04769,0.68696,0.53903,0.17139,0.28032,0.48066,-0.03781,0.47092,0.90699,0.05594,0.32864,0.89535,0.15277,0.61585,1.43855,0.21118,0.2914,1.38046,0.32942,0.82937,1.34412,0.25738,0.30818,1.10577,0.39763,0.57298,1.34767,0.35907,0.41421,1.31985
1787,0.20976,0.44635,1.44999,-0.06557,0.62211,0.14306,0.20886,0.16715,0.08308,0.04683,0.68645,0.53916,0.17191,0.28,0.48089,-0.03696,0.47019,0.90738,0.05722,0.32819,0.89581,0.15031,0.61566,1.43947,0.21158,0.29118,1.38116,0.3247,0.83082,1.34459,0.25966,0.30996,1.10692,0.39748,0.57574,1.35049,0.36046,0.41489,1.32196
1788,0.2088,0.44577,1.45213,-0.06532,0.62196,0.14285,0.20914,0.16699,0.08321,0.04619,0.68597,0.53925,0.17242,0.27972,0.48108,-0.03603,0.46953,0.90772,0.05866,0.32786,0.89627,0.14802,0.61493,1.44068,0.21235,0.2909,1.38215,0.31935,0.83186,1.34427,0.26205,0.31148,1.10833,0.39632,0.57807,1.35251,0.36184,0.41563,1.32421
1789,0.20823,0.44459,1.45441,-0.06504,0.62189,0.14269,0.20924,0.16692,0.08326,0.04571,0.6856,0.53935,0.17302,0.27936,0.48126,-0.03506,0.46896,0.90803,0.06028,0.32771,0.89669,0.14576,0.61377,1.44192,0.21357,0.29075,1.38353,0.31332,0.83276,1.34354,0.26449,0.31214,1.11,0.39354,0.58009,1.35465,0.36303,0.4166,1.3263
1790,0.20817,0.44289,1.45653,-0.06488,0.62182,0.14262,0.20919,0.16689,0.08318,0.0453,0.68531,0.53947,0.17374,0.27875,0.48141,-0.03398,0.46835,0.90829,0.06208,0.32759,0.89708,0.14328,0.61236,1.4428,0.21523,0.29052,1.38521,0.30689,0.83361,1.34284,0.26683,0.31192,1.1118,0.38898,0.58172,1.35751,0.36393,0.41744,1.32825
1791,0.20833,0.44111,1.45832,-0.06482,0.62163,0.14262,0.20912,0.16691,0.08294,0.04499,0.68493,0.53961,0.17456,0.27789,0.48149,-0.03269,0.46759,0.90854,0.06409,0.32731,0.89741,0.1404,0.61083,1.44335,0.21717,0.28975,1.38703,0.30018,0.83437,1.3423,0.2689,0.31118,1.11365,0.38358,0.58315,1.36055,0.36435,0.41786,1.33025
1792,0.20801,0.43974,1.45998,-0.06482,0.6214,0.14266,0.20904,0.16691,0.08261,0.04487,0.68423,0.53976,0.17551,0.27698,0.4815,-0.03122,0.46669,0.90891,0.06614,0.32682,0.89767,0.13713,0.60944,1.44407,0.21906,0.28845,1.38883,0.29289,0.83517,1.34162,0.27079,0.31031,1.11548,0.37813,0.5848,1.36277,0.36429,0.41804,1.33242
1793,0.20664,0.43884,1.46202,-0.06486,0.62118,0.14268,0.20894,0.16686,0.08235,0.04495,0.68311,0.53989,0.17667,0.27635,0.4815,-0.02968,0.46579,0.90946,0.06808,0.32624,0.89786,0.1337,0.60853,1.44532,0.22056,0.28722,1.39039,0.28463,0.83645,1.34052,0.27272,0.30958,1.11717,0.37183,0.58688,1.36307,0.36394,0.41826,1.3346
1794,0.20432,0.43808,1.46467,-0.06497,0.62079,0.14263,0.20886,0.16679,0.08222,0.04517,0.68175,0.53989,0.17799,0.27611,0.48154,-0.02808,0.46499,0.91007,0.06998,0.32567,0.89809,0.13071,0.60805,1.44694,0.22145,0.28654,1.39151,0.2753,0.83864,1.33908,0.27474,0.30893,1.1185,0.36338,0.58935,1.36144,0.36351,0.41858,1.33646
1795,0.2018,0.43724,1.46763,-0.0652,0.62012,0.14248,0.20889,0.16679,0.08216,0.04554,0.68038,0.53968,0.17932,0.27612,0.48157,-0.02622,0.4642,0.91049,0.07213,0.3251,0.8984,0.12874,0.60748,1.44849,0.22171,0.28628,1.39215,0.26539,0.84139,1.33748,0.2767,0.30789,1.11942,0.35307,0.59192,1.35943,0.36299,0.41874,1.33777
1796,0.2,0.43636,1.47021,-0.06546,0.61942,0.14228,0.20907,0.16694,0.08204,0.04612,0.67921,0.53932,0.18067,0.27623,0.48155,-0.02398,0.46333,0.91063,0.07474,0.32448,0.89879,0.12771,0.60634,1.44967,0.22167,0.28579,1.3926,0.25554,0.84374,1.3356,0.27847,0.30612,1.12015,0.34312,0.59432,1.35848,0.36227,0.41853,1.33866
1797,0.19941,0.43551,1.47195,-0.06558,0.61903,0.14208,0.20932,0.16733,0.08187,0.04677,0.67821,0.539,0.18224,0.27652,0.4815,-0.02147,0.46232,0.91064,0.07774,0.32377,0.89921,0.12682,0.60456,1.45035,0.22198,0.28469,1.39333,0.24556,0.84511,1.33312,0.28018,0.30393,1.12109,0.33574,0.59692,1.35892,0.36139,0.41806,1.33969
1798,0.19961,0.43471,1.47301,-0.06548,0.61899,0.14179,0.20949,0.16788,0.08172,0.04731,0.67711,0.53874,0.18413,0.27712,0.48144,-0.01889,0.46116,0.91071,0.08084,0.32296,0.89961,0.12525,0.60236,1.45051,0.22309,0.28312,1.39451,0.23455,0.84574,1.32998,0.2822,0.30198,1.12244,0.33126,0.60052,1.36022,0.36057,0.4175,1.34136
1799,0.19958,0.43386,1.47407,-0.06527,0.61889,0.14122,0.20952,0.16827,0.08158,0.04775,0.67556,0.53832,0.18615,0.27788,0.48133,-0.01638,0.45989,0.91081,0.08379,0.322,0.89991,0.12285,0.59996,1.45037,0.22469,0.28142,1.39584,0.22216,0.84593,1.32649,0.28474,0.30044,1.12399,0.32839,0.60535,1.36163,0.36008,0.4168,1.34352
1800,0.1987,0.43271,1.47573,-0.0651,0.61829,0.14037,0.20958,0.16811,0.08146,0.04831,0.6735,0.53756,0.18807,0.27845,0.48111,-0.01393,0.4586,0.91082,0.08651,0.32088,0.90006,0.11998,0.59747,1.4503,0.22603,0.2798,1.39692,0.20905,0.84556,1.32291,0.2875,0.29898,1.1254,0.32588,0.61069,1.36276,0.36004,0.41589,1.34558
1801,0.19738,0.43104,1.47804,-0.06499,0.61724,0.13951,0.20985,0.16742,0.08135,0.04915,0.67118,0.53666,0.18981,0.27856,0.48086,-0.01151,0.45733,0.91079,0.08913,0.31975,0.90015,0.11715,0.59496,1.45053,0.22685,0.27824,1.39776,0.19601,0.8444,1.31912,0.29002,0.29738,1.12663,0.32321,0.61581,1.36346,0.36045,0.41503,1.3471
1802,0.1965,0.42894,1.48053,-0.06495,0.6162,0.13896,0.21032,0.16662,0.08131,0.05016,0.66891,0.536,0.19145,0.27829,0.48073,-0.0091,0.45611,0.91094,0.09184,0.31875,0.90034,0.11464,0.59255,1.45098,0.22765,0.27648,1.39864,0.18321,0.8425,1.31483,0.29232,0.29602,1.12789,0.32019,0.62055,1.36358,0.36124,0.41491,1.34818
1803,0.19642,0.42671,1.4827,-0.06497,0.61551,0.13871,0.21079,0.16612,0.08138,0.05107,0.66675,0.53567,0.19306,0.27799,0.48079,-0.00668,0.45494,0.91141,0.09471,0.31792,0.90075,0.1124,0.5905,1.4515,0.22886,0.27431,1.39971,0.17033,0.84005,1.30981,0.29481,0.29557,1.1294,0.31647,0.62514,1.3633,0.36215,0.41631,1.34916
1804,0.19686,0.42461,1.48442,-0.06491,0.615,0.13845,0.21108,0.16603,0.08151,0.05176,0.66455,0.53544,0.19469,0.27791,0.48097,-0.00423,0.45389,0.9121,0.0976,0.31721,0.90129,0.11034,0.58892,1.45221,0.23018,0.27195,1.40093,0.15705,0.83709,1.30409,0.29773,0.296,1.13124,0.31162,0.62977,1.36347,0.36271,0.41919,1.35036
1805,0.19746,0.42268,1.48588,-0.06468,0.61434,0.13799,0.21117,0.16621,0.08156,0.05245,0.66219,0.53506,0.19639,0.27793,0.48114,-0.00175,0.45296,0.91277,0.10039,0.31652,0.90176,0.10855,0.58747,1.45323,0.23113,0.27006,1.40227,0.14328,0.83323,1.29798,0.30086,0.29651,1.13337,0.30587,0.63445,1.3647,0.36266,0.42205,1.35207
1806,0.19801,0.42101,1.48726,-0.06435,0.61347,0.13742,0.21111,0.16654,0.08143,0.05345,0.65971,0.53447,0.1981,0.27777,0.4812,0.00072,0.45207,0.91327,0.10304,0.31578,0.9021,0.10704,0.58546,1.45427,0.23181,0.26905,1.40377,0.1293,0.82792,1.29172,0.30388,0.29629,1.13557,0.2999,0.63879,1.36604,0.36225,0.42328,1.35437
1807,0.19839,0.41973,1.48859,-0.06406,0.61261,0.13688,0.211,0.16692,0.08116,0.05471,0.65725,0.53383,0.19968,0.2774,0.48119,0.00316,0.45102,0.91356,0.1057,0.3149,0.90238,0.10544,0.58243,1.45474,0.23289,0.26875,1.40538,0.1154,0.82085,1.28513,0.30672,0.29532,1.13759,0.29409,0.64199,1.36564,0.36183,0.42287,1.35691
1808,0.19869,0.41879,1.48977,-0.06376,0.61196,0.13654,0.21091,0.16725,0.08093,0.05595,0.65495,0.53339,0.20113,0.27702,0.48119,0.00552,0.44967,0.91378,0.1085,0.31387,0.90273,0.10322,0.57853,1.45427,0.23476,0.26861,1.40693,0.10179,0.8121,1.27776,0.30943,0.29408,1.13926,0.28855,0.64406,1.36314,0.36145,0.42212,1.35905
1809,0.19919,0.41784,1.49067,-0.06331,0.6115,0.13649,0.21084,0.16733,0.08084,0.05707,0.65278,0.53332,0.20251,0.2767,0.48125,0.00779,0.448,0.91413,0.11142,0.31269,0.9032,0.10029,0.57432,1.45314,0.23723,0.26806,1.40825,0.08886,0.80194,1.26938,0.31209,0.29302,1.14059,0.28364,0.64632,1.36017,0.36101,0.42188,1.36061
1810,0.19997,0.41657,1.49133,-0.06273,0.61108,0.13672,0.21082,0.1671,0.0809,0.0582,0.65059,0.53356,0.20384,0.27626,0.48139,0.01,0.44614,0.91469,0.11442,0.31143,0.90377,0.09706,0.57034,1.45209,0.2398,0.26678,1.40939,0.07734,0.79069,1.26035,0.31468,0.29226,1.14178,0.27983,0.65003,1.35838,0.36063,0.42176,1.36207
1811,0.20071,0.41503,1.49207,-0.0622,0.6106,0.137,0.21091,0.16666,0.08104,0.05942,0.64824,0.53381,0.20515,0.27562,0.48161,0.01222,0.44433,0.91535,0.11748,0.31028,0.90439,0.09388,0.56675,1.45172,0.24229,0.26504,1.41051,0.06755,0.77869,1.25147,0.31714,0.29183,1.14302,0.27693,0.65526,1.35789,0.36083,0.42083,1.36406
1812,0.20104,0.41347,1.4932,-0.0619,0.61001,0.13708,0.21113,0.16626,0.08117,0.06063,0.64574,0.53378,0.20661,0.2749,0.48184,0.01449,0.44272,0.91593,0.12063,0.30937,0.90499,0.09093,0.56349,1.45211,0.24481,0.26338,1.41171,0.05902,0.76626,1.24337,0.31946,0.29167,1.14432,0.27407,0.66117,1.35788,0.36224,0.41846,1.36681
1813,0.20097,0.41213,1.49468,-0.06178,0.6092,0.13686,0.21142,0.16611,0.08126,0.06156,0.64323,0.53347,0.20832,0.2744,0.48204,0.01687,0.44127,0.91635,0.12391,0.30864,0.90552,0.08833,0.56038,1.45276,0.24744,0.26222,1.41288,0.05114,0.75374,1.23611,0.32192,0.29162,1.14556,0.2703,0.66673,1.35776,0.36486,0.41529,1.36978
1814,0.20079,0.41107,1.49619,-0.06155,0.60806,0.1364,0.21177,0.1662,0.08134,0.06211,0.64083,0.53301,0.21007,0.27429,0.48218,0.01943,0.43975,0.91658,0.1274,0.30784,0.90606,0.08607,0.55729,1.45302,0.25002,0.26163,1.41382,0.04374,0.74135,1.22932,0.32502,0.29161,1.14671,0.26508,0.67129,1.35777,0.3679,0.41316,1.3721
1815,0.20086,0.4101,1.49752,-0.0611,0.60667,0.13583,0.21221,0.16635,0.08143,0.06245,0.63845,0.53256,0.21165,0.27443,0.48227,0.02209,0.43801,0.91672,0.13109,0.30692,0.90664,0.08387,0.55412,1.45248,0.25255,0.26143,1.41444,0.03701,0.72916,1.22254,0.3291,0.29183,1.14782,0.25821,0.67477,1.3586,0.37062,0.41351,1.37339
1816,0.20127,0.40887,1.49873,-0.06059,0.60537,0.13526,0.21267,0.16635,0.08146,0.06274,0.63585,0.53216,0.21318,0.2745,0.48228,0.02461,0.43611,0.91691,0.13486,0.30604,0.90714,0.08138,0.5508,1.45118,0.25546,0.26133,1.41489,0.03117,0.71693,1.21541,0.33394,0.29252,1.14892,0.24976,0.67715,1.36046,0.37287,0.41605,1.37393
