PaulMeinheit/Bachelor_Muay_Thai/processed_Data/E3/teep/sliced/JointPositions/sliced0.csv
Unnamed: 0_level_0,Neck_Joint_Position,Neck_Joint_Position,Neck_Joint_Position,L_ANKLE_POSITION,L_ANKLE_POSITION,L_ANKLE_POSITION,R_ANKLE_POSITION,R_ANKLE_POSITION,R_ANKLE_POSITION,L_KNEE_POSITION,L_KNEE_POSITION,L_KNEE_POSITION,R_KNEE_POSITION,R_KNEE_POSITION,R_KNEE_POSITION,L_HIP_POSITION,L_HIP_POSITION,L_HIP_POSITION,R_HIP_POSITION,R_HIP_POSITION,R_HIP_POSITION,L_SHOULDER_POSITION,L_SHOULDER_POSITION,L_SHOULDER_POSITION,R_SHOULDER_POSITION,R_SHOULDER_POSITION,R_SHOULDER_POSITION,L_ELBOW_POSITION,L_ELBOW_POSITION,L_ELBOW_POSITION,R_ELBOW_POSITION,R_ELBOW_POSITION,R_ELBOW_POSITION,L_WRIST_POSITION,L_WRIST_POSITION,L_WRIST_POSITION,R_WRIST_POSITION,R_WRIST_POSITION,R_WRIST_POSITION
ITEM,X,Y,Z,X,Y,Z,X,Y,Z,X,Y,Z,X,Y,Z,X,Y,Z,X,Y,Z,X,Y,Z,X,Y,Z,X,Y,Z,X,Y,Z,X,Y,Z,X,Y,Z
132,0.11067,0.35213,1.5093,-0.01881,0.44292,0.07758,0.24366,0.13878,0.11385,0.00341,0.46299,0.49324,0.24847,0.35649,0.46732,0.03265,0.36064,0.9152,0.20257,0.36232,0.89801,-0.03211,0.29385,1.41441,0.29026,0.38241,1.43109,-0.14807,0.38976,1.16329,0.31984,0.54092,1.20334,-0.08136,0.49837,1.39599,0.21328,0.58333,1.43627
133,0.11395,0.35206,1.50942,-0.01832,0.44318,0.07772,0.24239,0.13765,0.11156,0.00365,0.4653,0.49328,0.24816,0.35179,0.46718,0.03263,0.3627,0.9152,0.20253,0.36172,0.89782,-0.03073,0.29475,1.41525,0.29288,0.38033,1.43087,-0.15243,0.3899,1.16656,0.322,0.5388,1.20303,-0.08084,0.49881,1.39768,0.21702,0.58129,1.43666
134,0.11747,0.35191,1.50969,-0.01769,0.44373,0.07792,0.24172,0.13637,0.10927,0.00417,0.46803,0.49337,0.24774,0.34655,0.46725,0.03262,0.36513,0.91525,0.20246,0.36109,0.8978,-0.02925,0.2962,1.41646,0.29544,0.37761,1.43053,-0.15706,0.39085,1.17066,0.3247,0.5358,1.20252,-0.07927,0.49955,1.39986,0.22096,0.57894,1.43658
135,0.1206,0.3516,1.50988,-0.01727,0.44455,0.07808,0.2416,0.13478,0.10717,0.00489,0.47083,0.49339,0.24737,0.34089,0.46751,0.03265,0.36765,0.91525,0.2024,0.36054,0.89789,-0.02806,0.29812,1.41801,0.29781,0.37429,1.42995,-0.16201,0.39241,1.17537,0.32783,0.53199,1.20169,-0.07701,0.50057,1.40226,0.22505,0.57629,1.43596
136,0.12315,0.35109,1.50993,-0.0172,0.44537,0.07817,0.24199,0.13273,0.10529,0.00574,0.47329,0.49334,0.24714,0.33497,0.46782,0.0327,0.37002,0.91522,0.2023,0.35993,0.89794,-0.02718,0.30029,1.41978,0.30003,0.37067,1.42915,-0.16739,0.39459,1.1807,0.33094,0.52784,1.20065,-0.07434,0.50214,1.40469,0.2293,0.57326,1.4352
137,0.12543,0.35045,1.50992,-0.01738,0.4459,0.07825,0.2427,0.13039,0.10348,0.00666,0.47529,0.49325,0.2472,0.32879,0.46814,0.03279,0.37232,0.91526,0.20218,0.35907,0.89789,-0.02643,0.30266,1.42158,0.30222,0.36677,1.42825,-0.17328,0.39762,1.18679,0.33374,0.52373,1.19969,-0.07119,0.50451,1.40714,0.23363,0.56979,1.43478
138,0.1279,0.34976,1.50993,-0.01767,0.44614,0.07845,0.24354,0.12811,0.10162,0.00757,0.47717,0.49325,0.24766,0.32229,0.46855,0.03304,0.37471,0.91544,0.20208,0.35789,0.89784,-0.02571,0.30546,1.4234,0.30454,0.36239,1.42737,-0.17967,0.40162,1.1937,0.33632,0.51957,1.199,-0.06754,0.50725,1.40974,0.23789,0.56605,1.43471
139,0.13098,0.34902,1.50995,-0.01804,0.44633,0.07891,0.2445,0.12596,0.09981,0.0084,0.4795,0.49348,0.24849,0.3156,0.4691,0.03339,0.37714,0.91571,0.20197,0.35643,0.89782,-0.02511,0.30893,1.42544,0.3071,0.35748,1.42653,-0.18654,0.40648,1.20154,0.33901,0.51507,1.19845,-0.06367,0.50967,1.41287,0.24203,0.56241,1.4346
140,0.13476,0.3481,1.51003,-0.01846,0.44667,0.07974,0.24581,0.12368,0.09817,0.00924,0.4826,0.494,0.24949,0.30892,0.4697,0.03371,0.37932,0.91604,0.20173,0.35477,0.89778,-0.02461,0.31296,1.42807,0.31,0.35219,1.42558,-0.1938,0.41211,1.21069,0.342,0.51021,1.19781,-0.05984,0.51184,1.41687,0.2462,0.55912,1.43411
141,0.13892,0.34693,1.51025,-0.01873,0.44726,0.08087,0.24746,0.12116,0.09674,0.0102,0.48633,0.49476,0.2504,0.30229,0.47029,0.03398,0.38107,0.91635,0.20139,0.3529,0.89769,-0.0239,0.31716,1.43135,0.3131,0.34677,1.42434,-0.20114,0.41864,1.2216,0.34515,0.50528,1.19692,-0.05576,0.51463,1.42173,0.2507,0.55601,1.43339
142,0.14294,0.34557,1.5107,-0.01873,0.4481,0.08217,0.24913,0.11859,0.09538,0.01126,0.49032,0.49567,0.25113,0.29564,0.47089,0.03438,0.38235,0.91661,0.20114,0.35076,0.89762,-0.02265,0.32124,1.43509,0.31601,0.34128,1.42275,-0.20798,0.42649,1.23437,0.34806,0.50047,1.19581,-0.0506,0.51837,1.42722,0.25568,0.55252,1.4328
143,0.14655,0.34415,1.5114,-0.01859,0.44917,0.0836,0.25053,0.11632,0.09402,0.01231,0.49434,0.49673,0.25174,0.28898,0.47157,0.03503,0.38319,0.91686,0.20108,0.34814,0.89768,-0.02091,0.32538,1.4392,0.31822,0.3355,1.42094,-0.21374,0.43602,1.24871,0.35053,0.4954,1.19453,-0.04374,0.52238,1.43322,0.26097,0.54812,1.43245
144,0.14986,0.3428,1.51229,-0.01861,0.45048,0.08533,0.25163,0.11453,0.09276,0.01328,0.49848,0.49806,0.25223,0.2825,0.47242,0.03585,0.38358,0.91719,0.20107,0.34483,0.89802,-0.01908,0.32983,1.44369,0.31942,0.32927,1.41927,-0.21817,0.44747,1.26415,0.35275,0.48938,1.19316,-0.03537,0.52605,1.43968,0.26626,0.54271,1.43209
145,0.15315,0.34163,1.51327,-0.01888,0.452,0.08759,0.25245,0.11319,0.0917,0.01427,0.50298,0.49987,0.25234,0.27631,0.47347,0.03661,0.38352,0.91773,0.20088,0.34086,0.8987,-0.01756,0.33468,1.44827,0.31978,0.32286,1.41832,-0.22145,0.46104,1.28043,0.35521,0.48206,1.19189,-0.02606,0.52986,1.44622,0.27138,0.53673,1.43146
146,0.1565,0.34072,1.51428,-0.01938,0.45373,0.09059,0.25269,0.11224,0.09088,0.01533,0.50808,0.5023,0.25189,0.27037,0.47474,0.03718,0.38309,0.91858,0.20039,0.33644,0.89973,-0.01647,0.33984,1.45253,0.31992,0.31653,1.41849,-0.22358,0.47715,1.29773,0.35833,0.47362,1.19108,-0.01567,0.53467,1.45222,0.27628,0.53078,1.43068
147,0.15975,0.3401,1.51539,-0.0201,0.45583,0.0943,0.25199,0.11172,0.09026,0.01641,0.51371,0.50538,0.2509,0.2647,0.4762,0.03768,0.38252,0.91977,0.19969,0.3318,0.90107,-0.01556,0.34526,1.45652,0.3202,0.31014,1.41956,-0.22381,0.49593,1.31639,0.36198,0.46469,1.19099,-0.00346,0.54033,1.45736,0.28108,0.52508,1.43019
148,0.16257,0.3396,1.51672,-0.02107,0.45857,0.09842,0.25047,0.1116,0.08986,0.01737,0.51955,0.50888,0.24958,0.2595,0.47779,0.03828,0.38198,0.92121,0.19895,0.32711,0.90264,-0.01452,0.35092,1.46071,0.32036,0.30351,1.42076,-0.22125,0.51664,1.33618,0.36547,0.45597,1.19143,0.01054,0.54584,1.46196,0.28606,0.51927,1.43038
149,0.16481,0.33907,1.51826,-0.02236,0.46207,0.10261,0.24863,0.11183,0.08969,0.01816,0.52549,0.51249,0.24812,0.25482,0.47945,0.0391,0.38146,0.92261,0.19834,0.32246,0.9044,-0.01343,0.35691,1.46547,0.31988,0.2969,1.42147,-0.21577,0.53811,1.35624,0.36797,0.44782,1.19173,0.02508,0.55107,1.46679,0.29124,0.51282,1.4311
150,0.1667,0.33862,1.51976,-0.02388,0.46618,0.10678,0.24695,0.11239,0.08967,0.01891,0.53177,0.51608,0.2466,0.25061,0.48115,0.0401,0.38065,0.92363,0.19793,0.31772,0.90631,-0.01264,0.3633,1.47082,0.31856,0.29082,1.42162,-0.20775,0.55983,1.37587,0.36937,0.43998,1.19131,0.03941,0.55703,1.47234,0.29626,0.50578,1.43159
151,0.16855,0.33863,1.52083,-0.02532,0.47059,0.11113,0.24563,0.11317,0.08965,0.01996,0.53854,0.51979,0.24511,0.24678,0.48272,0.04114,0.37928,0.92422,0.19762,0.31275,0.9082,-0.01217,0.37008,1.47665,0.31658,0.28538,1.42158,-0.19693,0.58205,1.39515,0.37044,0.43176,1.19019,0.05438,0.56405,1.47835,0.3007,0.49872,1.43115
152,0.17028,0.33928,1.52127,-0.02645,0.475,0.11582,0.24464,0.11392,0.08954,0.02166,0.54553,0.52371,0.24375,0.2433,0.48402,0.042,0.37742,0.9246,0.1972,0.30769,0.90984,-0.01167,0.37715,1.48267,0.31413,0.28014,1.42184,-0.18279,0.60472,1.41457,0.37204,0.42275,1.18907,0.07114,0.5712,1.48383,0.30444,0.49201,1.42999
153,0.17163,0.34031,1.52117,-0.02746,0.47924,0.12056,0.24389,0.11435,0.08939,0.02396,0.55212,0.52763,0.24252,0.24013,0.48504,0.04255,0.37545,0.9249,0.19651,0.3028,0.91117,-0.01071,0.38485,1.48843,0.31125,0.27449,1.42258,-0.16566,0.62725,1.43417,0.37417,0.4132,1.18876,0.08945,0.57802,1.48799,0.30803,0.48544,1.42921
154,0.17251,0.34136,1.52079,-0.02865,0.4835,0.12479,0.24334,0.11439,0.08933,0.02633,0.55772,0.53116,0.24142,0.23728,0.48588,0.04277,0.37361,0.92513,0.1954,0.29806,0.91229,-0.00884,0.39411,1.49373,0.30783,0.26786,1.42358,-0.14662,0.64925,1.45338,0.37612,0.40349,1.18946,0.10811,0.58522,1.49099,0.31237,0.47863,1.42966
155,0.17291,0.34238,1.52029,-0.02999,0.48818,0.12803,0.24291,0.11413,0.08935,0.02822,0.56201,0.53401,0.24051,0.23467,0.48662,0.04277,0.37191,0.92521,0.19385,0.29317,0.91328,-0.00545,0.40547,1.49866,0.30363,0.26007,1.42434,-0.12626,0.67075,1.47147,0.37742,0.39351,1.19062,0.12642,0.59281,1.49334,0.31786,0.47164,1.43095
156,0.17273,0.34357,1.51971,-0.03118,0.49365,0.13008,0.24232,0.11371,0.08923,0.02957,0.565,0.53614,0.23983,0.23209,0.48715,0.04267,0.37016,0.92505,0.19197,0.28798,0.91402,-0.00036,0.41825,1.50315,0.29841,0.25177,1.42439,-0.10423,0.69154,1.4879,0.37805,0.38301,1.19135,0.14412,0.59838,1.49445,0.32407,0.46467,1.43183
157,0.17202,0.34497,1.519,-0.03205,0.49983,0.13108,0.24137,0.11331,0.08876,0.03062,0.56695,0.53757,0.23934,0.22938,0.48736,0.04255,0.36822,0.92455,0.18998,0.28261,0.9144,0.00583,0.43074,1.50674,0.29223,0.24424,1.42367,-0.07975,0.71068,1.50233,0.37796,0.37225,1.191,0.16046,0.59843,1.49233,0.33031,0.45738,1.43161
158,0.17114,0.34621,1.51812,-0.03273,0.5061,0.13142,0.24029,0.11304,0.08796,0.03166,0.56826,0.53843,0.23905,0.22665,0.48727,0.04243,0.36603,0.92361,0.18807,0.2773,0.91444,0.01217,0.4414,1.50903,0.28548,0.23828,1.42257,-0.05246,0.72689,1.51456,0.37688,0.36181,1.18964,0.17402,0.5917,1.48579,0.33612,0.44913,1.43073
159,0.17054,0.34702,1.51698,-0.03336,0.51146,0.13161,0.23953,0.11286,0.08699,0.03294,0.56927,0.53895,0.23891,0.22421,0.48694,0.04219,0.36359,0.92235,0.18624,0.2722,0.91421,0.01806,0.44972,1.5101,0.2785,0.23368,1.4216,-0.02318,0.73921,1.52433,0.37474,0.35216,1.188,0.18419,0.58071,1.4766,0.34093,0.4402,1.4299
160,0.17032,0.34785,1.51534,-0.03396,0.51507,0.13196,0.23927,0.11254,0.08602,0.03462,0.57002,0.53932,0.23895,0.22234,0.48639,0.04169,0.36108,0.921,0.1843,0.26739,0.91373,0.0236,0.45614,1.51033,0.27132,0.22999,1.42087,0.00654,0.74766,1.53126,0.372,0.34348,1.18666,0.19283,0.56962,1.46801,0.34421,0.43204,1.42913
161,0.16999,0.34946,1.51302,-0.03459,0.51678,0.13247,0.23927,0.11192,0.08511,0.03667,0.57045,0.53954,0.2392,0.22111,0.48566,0.04089,0.35884,0.91979,0.18207,0.26297,0.913,0.02938,0.46185,1.51008,0.2637,0.22713,1.42017,0.03583,0.75347,1.53506,0.36918,0.33546,1.18563,0.20333,0.5612,1.46174,0.34617,0.4256,1.42802
162,0.16906,0.35202,1.51007,-0.03537,0.51722,0.13295,0.23921,0.1112,0.08427,0.03894,0.57066,0.53951,0.23966,0.2203,0.48484,0.03987,0.35724,0.91876,0.17947,0.2591,0.91205,0.03574,0.46812,1.50931,0.25551,0.22504,1.41937,0.0652,0.7582,1.53575,0.36633,0.3273,1.18457,0.21811,0.55571,1.45818,0.34762,0.42,1.42637
163,0.1678,0.35483,1.50691,-0.03615,0.5173,0.13322,0.23908,0.1107,0.08343,0.04127,0.57091,0.53917,0.24022,0.21969,0.48402,0.0387,0.35629,0.91774,0.17662,0.2558,0.91097,0.04225,0.4755,1.50764,0.24737,0.22331,1.4186,0.09495,0.7623,1.53373,0.36325,0.31824,1.18315,0.23687,0.55161,1.45711,0.34919,0.41351,1.42427
164,0.16706,0.35716,1.50387,-0.03662,0.51763,0.13324,0.23909,0.11044,0.08259,0.04344,0.57135,0.53866,0.24068,0.21927,0.48323,0.0374,0.35557,0.91653,0.17377,0.25297,0.90987,0.04823,0.48363,1.50488,0.24052,0.2214,1.41796,0.12355,0.76547,1.52947,0.35995,0.30829,1.18119,0.25589,0.54722,1.457,0.35103,0.40536,1.42183
165,0.16745,0.35908,1.50097,-0.03668,0.51831,0.13312,0.23918,0.1102,0.08186,0.04537,0.57196,0.53815,0.2409,0.2191,0.48248,0.03594,0.3547,0.9151,0.17102,0.2504,0.90882,0.0536,0.49173,1.50134,0.23574,0.21929,1.41751,0.14872,0.76776,1.523,0.35669,0.29823,1.17875,0.27095,0.54208,1.45574,0.353,0.3963,1.41912
166,0.16886,0.36111,1.49796,-0.03647,0.5191,0.13303,0.23902,0.1097,0.08125,0.0472,0.57275,0.53774,0.24084,0.21903,0.48175,0.03433,0.35377,0.91359,0.1683,0.24801,0.90782,0.05889,0.49899,1.49735,0.23258,0.21732,1.41723,0.16981,0.76942,1.51394,0.35346,0.28893,1.17612,0.28089,0.53642,1.4525,0.35499,0.38769,1.41623
167,0.17062,0.36328,1.49478,-0.03607,0.51982,0.13307,0.2385,0.1088,0.08077,0.04907,0.57378,0.53743,0.24053,0.21874,0.4811,0.0327,0.35309,0.91214,0.16547,0.2458,0.90686,0.06434,0.50484,1.49289,0.22993,0.21562,1.41695,0.18805,0.77002,1.50212,0.34996,0.28063,1.17356,0.28777,0.53015,1.44807,0.35691,0.38026,1.41322
168,0.17207,0.36496,1.49174,-0.03544,0.52052,0.13322,0.23797,0.10751,0.08046,0.05095,0.57519,0.53721,0.24002,0.21813,0.48061,0.03123,0.35278,0.91075,0.1626,0.24374,0.90603,0.06945,0.50922,1.48784,0.22709,0.21393,1.4165,0.20474,0.76884,1.48783,0.346,0.27283,1.17102,0.29472,0.52315,1.44381,0.3586,0.37381,1.40988
169,0.1731,0.36574,1.48911,-0.03463,0.52135,0.13344,0.23779,0.10614,0.08041,0.05267,0.57695,0.53711,0.23937,0.2175,0.48035,0.03003,0.35265,0.90935,0.15989,0.24178,0.90547,0.07352,0.51259,1.48238,0.22434,0.21208,1.41585,0.22,0.76585,1.47186,0.34179,0.26483,1.16827,0.30369,0.51606,1.44022,0.3597,0.36778,1.40595
170,0.17406,0.36585,1.48686,-0.03392,0.52239,0.1338,0.23786,0.10505,0.0806,0.05414,0.57891,0.53719,0.23862,0.21718,0.48033,0.02897,0.35248,0.90796,0.15741,0.23995,0.90521,0.07646,0.51557,1.47699,0.22246,0.21014,1.41513,0.23339,0.76177,1.45538,0.33791,0.25657,1.16536,0.31375,0.50964,1.43605,0.35981,0.36208,1.40157
171,0.17527,0.3659,1.48481,-0.03352,0.52358,0.13444,0.23792,0.10444,0.08089,0.05544,0.58092,0.53751,0.23784,0.21727,0.48043,0.02778,0.35232,0.90677,0.15504,0.23843,0.90508,0.07878,0.51846,1.4721,0.22185,0.20819,1.41453,0.24484,0.75737,1.43957,0.3348,0.24868,1.16259,0.32152,0.50352,1.43036,0.35902,0.35694,1.39733
172,0.17665,0.36629,1.48287,-0.03348,0.52482,0.13541,0.23792,0.10425,0.08111,0.0568,0.58297,0.53807,0.2372,0.21759,0.4805,0.02637,0.35233,0.90585,0.15265,0.23735,0.90488,0.08105,0.52096,1.46799,0.22226,0.20635,1.41417,0.25439,0.75299,1.42533,0.33237,0.24176,1.16021,0.3241,0.49698,1.42373,0.35787,0.35245,1.39368
173,0.17808,0.36699,1.48101,-0.03375,0.52604,0.13665,0.2379,0.1043,0.08118,0.05832,0.58517,0.53876,0.23678,0.21793,0.48048,0.02493,0.35255,0.90504,0.1503,0.23658,0.90452,0.08354,0.52252,1.46463,0.22313,0.20496,1.41406,0.26159,0.74915,1.41316,0.33013,0.23574,1.15818,0.32168,0.49074,1.4168,0.35677,0.34859,1.39048
174,0.17961,0.36778,1.47913,-0.03428,0.52728,0.13804,0.23779,0.10451,0.08111,0.05988,0.58759,0.53949,0.2365,0.21812,0.48042,0.02371,0.35279,0.9041,0.14813,0.2358,0.90411,0.0864,0.52329,1.4617,0.224,0.20435,1.41408,0.26578,0.74714,1.4032,0.32778,0.23018,1.15633,0.31817,0.48714,1.4107,0.35593,0.34532,1.38733
175,0.18128,0.36858,1.47718,-0.03499,0.52866,0.13942,0.23748,0.10482,0.08095,0.06128,0.59003,0.54021,0.23634,0.21813,0.48034,0.02276,0.35282,0.90302,0.14618,0.23476,0.9037,0.08957,0.52407,1.4587,0.22464,0.20441,1.41399,0.26698,0.74811,1.39513,0.32553,0.22504,1.15463,0.31805,0.488,1.40665,0.35556,0.34248,1.38423
176,0.18295,0.36926,1.47524,-0.03578,0.53024,0.14072,0.23699,0.10513,0.08075,0.06235,0.59211,0.54098,0.2364,0.21811,0.48024,0.022,0.35254,0.90203,0.14433,0.23336,0.90323,0.09266,0.52539,1.45548,0.22509,0.20452,1.41368,0.26612,0.75149,1.38841,0.32387,0.22068,1.15319,0.32254,0.49269,1.40389,0.3557,0.33994,1.38161
177,0.18452,0.36955,1.47341,-0.03649,0.53182,0.14188,0.23653,0.10531,0.08058,0.06299,0.59358,0.54183,0.2367,0.21832,0.48006,0.02131,0.35202,0.90141,0.14253,0.23173,0.90266,0.09519,0.52691,1.45246,0.22547,0.20429,1.41327,0.26446,0.75536,1.3827,0.32306,0.21719,1.15216,0.32941,0.49873,1.40071,0.356,0.33778,1.37972
178,0.18605,0.36928,1.47174,-0.03708,0.53311,0.1429,0.23631,0.10538,0.08055,0.06322,0.59453,0.54269,0.23707,0.21903,0.47984,0.02057,0.35138,0.90108,0.14087,0.23016,0.90205,0.09714,0.52793,1.45016,0.22592,0.20393,1.4129,0.26278,0.75833,1.37811,0.32292,0.21418,1.15145,0.33529,0.5038,1.39699,0.35608,0.33611,1.37826
179,0.18766,0.36864,1.47017,-0.03765,0.53407,0.14371,0.23633,0.10546,0.08066,0.06315,0.59529,0.54341,0.23745,0.22035,0.47961,0.01969,0.3507,0.90072,0.1394,0.2289,0.90145,0.09887,0.52817,1.4486,0.22644,0.20398,1.4125,0.26119,0.76034,1.37475,0.32298,0.21124,1.15078,0.33783,0.50703,1.39374,0.35589,0.33481,1.37674
180,0.18932,0.36802,1.46862,-0.03834,0.53495,0.14426,0.2365,0.1056,0.08084,0.06291,0.59602,0.54387,0.23799,0.22215,0.4793,0.01866,0.35004,0.90013,0.13808,0.22795,0.90075,0.10066,0.52791,1.44751,0.22673,0.20456,1.41187,0.2596,0.76203,1.37243,0.32296,0.20849,1.14996,0.33681,0.50888,1.39129,0.3558,0.33377,1.37499
181,0.19075,0.36758,1.46711,-0.03917,0.53579,0.14457,0.23676,0.10573,0.08094,0.06266,0.59663,0.54407,0.23884,0.22411,0.47886,0.01756,0.3494,0.89935,0.13681,0.22714,0.89983,0.10243,0.52759,1.44673,0.22651,0.20523,1.41079,0.25771,0.76391,1.3709,0.32298,0.2065,1.14894,0.33375,0.51036,1.38904,0.35621,0.33301,1.37322
182,0.19166,0.36739,1.46578,-0.03991,0.53629,0.14473,0.23703,0.10568,0.08086,0.0625,0.59699,0.5441,0.23988,0.2258,0.47824,0.0165,0.34871,0.89853,0.13554,0.22624,0.89866,0.10381,0.52746,1.44615,0.22596,0.20545,1.40927,0.25506,0.76629,1.37006,0.32336,0.20556,1.14777,0.33033,0.5124,1.38665,0.35708,0.33251,1.37172
183,0.19205,0.36761,1.4646,-0.04033,0.53617,0.14476,0.23715,0.10535,0.08058,0.06232,0.59717,0.54402,0.24085,0.227,0.47749,0.01561,0.34787,0.89764,0.13437,0.22513,0.89737,0.10452,0.5274,1.44549,0.22577,0.20523,1.40759,0.25137,0.76905,1.36967,0.32424,0.20539,1.14649,0.32724,0.51522,1.38429,0.35793,0.33212,1.37057
184,0.19224,0.36821,1.46349,-0.0404,0.53556,0.1446,0.23699,0.10486,0.08018,0.06187,0.59738,0.54383,0.2415,0.22782,0.47669,0.01504,0.34695,0.89663,0.13349,0.22392,0.89615,0.10467,0.52716,1.44457,0.22635,0.20485,1.40606,0.24696,0.77167,1.36922,0.32539,0.20552,1.14518,0.32453,0.51823,1.3817,0.35843,0.3319,1.36955
185,0.19238,0.36873,1.46244,-0.04019,0.53486,0.14424,0.23668,0.10457,0.07978,0.06113,0.59779,0.54354,0.24191,0.22867,0.47593,0.01479,0.34619,0.89558,0.13305,0.22298,0.89516,0.10457,0.52663,1.44362,0.22739,0.20442,1.4047,0.24238,0.77369,1.36823,0.32646,0.206,1.14382,0.32238,0.52091,1.3785,0.35873,0.33229,1.36837
186,0.19238,0.36864,1.46162,-0.03971,0.53421,0.14381,0.23651,0.1048,0.07949,0.06042,0.59834,0.54322,0.24241,0.22993,0.4753,0.01475,0.34578,0.89466,0.13309,0.22264,0.89438,0.10453,0.5259,1.4431,0.2283,0.20396,1.4032,0.23768,0.77515,1.36658,0.32726,0.20721,1.1423,0.32124,0.52347,1.37529,0.35915,0.33347,1.36691
187,0.19212,0.36787,1.46112,-0.03905,0.53354,0.14332,0.23663,0.10554,0.07932,0.05989,0.59887,0.54283,0.24335,0.23178,0.47477,0.01484,0.34567,0.89389,0.13356,0.2229,0.8937,0.10457,0.52511,1.44309,0.22893,0.20373,1.40135,0.23251,0.77639,1.36434,0.32785,0.20926,1.14048,0.3211,0.52644,1.37332,0.35977,0.33499,1.36539
188,0.19183,0.36686,1.46083,-0.03843,0.53284,0.14267,0.2369,0.10641,0.07922,0.05921,0.59931,0.54231,0.2446,0.23405,0.4742,0.01505,0.34564,0.89314,0.13438,0.22347,0.89297,0.10456,0.52426,1.44321,0.22962,0.20385,1.39929,0.22681,0.77744,1.36158,0.32835,0.21182,1.13841,0.32106,0.52967,1.37295,0.36053,0.33628,1.36398
189,0.19187,0.36613,1.46049,-0.03805,0.53208,0.14183,0.23709,0.10692,0.07913,0.05799,0.59971,0.54167,0.24574,0.2364,0.47348,0.01541,0.34549,0.8923,0.13543,0.22399,0.89219,0.10432,0.52302,1.44301,0.23072,0.2041,1.39733,0.22094,0.77782,1.35825,0.32889,0.21444,1.13632,0.31987,0.53209,1.37341,0.36133,0.33733,1.36271
190,0.19228,0.3658,1.46005,-0.03786,0.53117,0.14097,0.23708,0.10694,0.07902,0.05629,0.60013,0.54103,0.24652,0.23856,0.47265,0.01597,0.34517,0.89139,0.13667,0.22433,0.89142,0.10361,0.52091,1.44241,0.23232,0.20428,1.39563,0.21519,0.77683,1.3543,0.32956,0.21691,1.13437,0.31684,0.53254,1.3742,0.36191,0.33852,1.36147
191,0.19268,0.36571,1.4597,-0.03772,0.53012,0.14024,0.23692,0.10672,0.07897,0.05458,0.60051,0.54048,0.24703,0.24054,0.47184,0.01675,0.34471,0.89051,0.13809,0.22453,0.89078,0.10206,0.51779,1.44162,0.23427,0.20451,1.39413,0.20953,0.77416,1.34977,0.3304,0.21935,1.13258,0.31221,0.53083,1.37528,0.36175,0.34019,1.36023
192,0.19277,0.36555,1.45967,-0.03754,0.52917,0.13961,0.23671,0.10667,0.07905,0.05321,0.60074,0.54,0.24755,0.24252,0.4712,0.01763,0.34427,0.88977,0.13957,0.2247,0.89032,0.09963,0.51428,1.44079,0.23627,0.20485,1.39273,0.20362,0.77054,1.34473,0.33137,0.22204,1.13094,0.307,0.52823,1.37639,0.3607,0.34247,1.35907
193,0.19258,0.3651,1.45994,-0.03744,0.52866,0.13905,0.23645,0.10706,0.07924,0.05215,0.60079,0.53959,0.24826,0.2446,0.47078,0.01851,0.34397,0.8893,0.141,0.22496,0.89,0.09703,0.5114,1.4399,0.23821,0.20485,1.39138,0.19693,0.76745,1.33906,0.33244,0.22523,1.12951,0.30253,0.52709,1.37745,0.35942,0.34529,1.35813
194,0.19236,0.36431,1.46035,-0.03755,0.52867,0.13862,0.23612,0.1078,0.07948,0.05119,0.60077,0.53936,0.24912,0.24658,0.47054,0.0194,0.3438,0.88913,0.14243,0.22535,0.88983,0.09519,0.50983,1.43884,0.24026,0.20399,1.39019,0.18888,0.76595,1.33237,0.3335,0.22903,1.12837,0.29986,0.52945,1.37878,0.35885,0.34852,1.35747
195,0.19235,0.36326,1.46074,-0.03779,0.52889,0.13843,0.2358,0.10859,0.0797,0.05027,0.60078,0.53936,0.24997,0.24813,0.47045,0.02048,0.34363,0.88917,0.14404,0.22573,0.88987,0.09442,0.5094,1.43751,0.24254,0.20241,1.38927,0.1793,0.76568,1.32425,0.33441,0.23331,1.12759,0.29817,0.53521,1.38044,0.35924,0.35196,1.35719
196,0.19269,0.36196,1.46107,-0.03796,0.52894,0.13853,0.23568,0.10914,0.07987,0.0496,0.60082,0.53957,0.25069,0.24918,0.47041,0.02184,0.34329,0.88927,0.14587,0.22589,0.89006,0.09419,0.50942,1.43586,0.24488,0.20081,1.38865,0.16861,0.76529,1.31461,0.33514,0.23773,1.12719,0.29502,0.54184,1.38162,0.36005,0.35528,1.35735
197,0.1934,0.3603,1.4615,-0.03799,0.52882,0.13891,0.2358,0.10937,0.07999,0.04942,0.6009,0.53994,0.25129,0.24997,0.4703,0.02336,0.34283,0.88937,0.14782,0.22588,0.89024,0.09361,0.50921,1.4339,0.24712,0.19972,1.38822,0.15775,0.76352,1.30382,0.33575,0.24186,1.12698,0.28911,0.54637,1.38123,0.36054,0.35814,1.35779
198,0.19435,0.35826,1.46224,-0.03803,0.5289,0.13947,0.23599,0.10941,0.08001,0.04965,0.60105,0.54043,0.25184,0.25076,0.47004,0.02487,0.34252,0.88962,0.14974,0.22601,0.89028,0.09214,0.50832,1.4319,0.24932,0.19919,1.38786,0.14774,0.75972,1.29255,0.33629,0.24536,1.12675,0.28174,0.54781,1.37937,0.36057,0.36039,1.35825
199,0.19545,0.356,1.46341,-0.03817,0.5293,0.13998,0.23622,0.10939,0.07991,0.04991,0.60122,0.54089,0.25235,0.25149,0.46966,0.02634,0.34264,0.89012,0.15162,0.22657,0.89021,0.08987,0.50665,1.43011,0.25164,0.19899,1.38763,0.1391,0.75384,1.28117,0.3368,0.24821,1.12648,0.27499,0.54732,1.37752,0.36051,0.36214,1.35858
200,0.19671,0.35376,1.46491,-0.03827,0.52972,0.14016,0.23662,0.10931,0.07979,0.04998,0.60123,0.54112,0.25278,0.25196,0.46933,0.02788,0.34316,0.89082,0.15354,0.2275,0.89027,0.08733,0.50434,1.42836,0.25417,0.19887,1.38763,0.13155,0.7463,1.26959,0.33732,0.25056,1.12631,0.26966,0.54657,1.37651,0.3607,0.36349,1.35893
201,0.19802,0.35167,1.46658,-0.03811,0.52984,0.14002,0.23723,0.10909,0.0798,0.0499,0.60093,0.5411,0.25301,0.25208,0.46924,0.02958,0.34368,0.89152,0.15565,0.22847,0.89067,0.08494,0.50177,1.42625,0.25686,0.1986,1.38785,0.12447,0.7377,1.25747,0.33789,0.25258,1.12633,0.26545,0.54669,1.37596,0.36108,0.36444,1.35948
202,0.19898,0.34973,1.46835,-0.03769,0.52957,0.1398,0.23787,0.10886,0.08003,0.04981,0.60035,0.54105,0.25298,0.25193,0.46946,0.03139,0.34383,0.89211,0.15797,0.22918,0.89147,0.08262,0.49947,1.42357,0.25939,0.19809,1.3882,0.11748,0.72844,1.2445,0.33848,0.25432,1.12656,0.26188,0.54836,1.37534,0.36138,0.36533,1.36015
203,0.19946,0.34791,1.47019,-0.03717,0.52908,0.13979,0.23836,0.10892,0.08037,0.04981,0.5997,0.54118,0.25284,0.25166,0.46995,0.03321,0.34367,0.89268,0.16036,0.22964,0.89256,0.07999,0.49774,1.42046,0.26134,0.19743,1.38859,0.11064,0.71851,1.23064,0.33907,0.25591,1.12704,0.25869,0.55171,1.37438,0.3616,0.36688,1.36068
204,0.19984,0.34621,1.47203,-0.03666,0.52862,0.14,0.23867,0.10936,0.08068,0.04998,0.59915,0.54148,0.25289,0.25125,0.47058,0.03498,0.34357,0.89338,0.16264,0.23012,0.89371,0.07687,0.49621,1.41727,0.26275,0.19675,1.38902,0.10425,0.70762,1.2166,0.33961,0.25748,1.12772,0.25564,0.55585,1.37297,0.36201,0.36926,1.36099
205,0.20058,0.34466,1.47377,-0.03621,0.52832,0.14029,0.23898,0.10976,0.08089,0.05046,0.59861,0.5418,0.25325,0.25049,0.47121,0.0367,0.34381,0.89432,0.16484,0.2309,0.8948,0.07347,0.49416,1.41445,0.26421,0.1961,1.38962,0.09875,0.69575,1.20366,0.3403,0.25897,1.1286,0.25232,0.55924,1.37155,0.36293,0.37166,1.3614
206,0.20158,0.34325,1.47545,-0.03585,0.52803,0.14051,0.23946,0.1096,0.08104,0.05127,0.59775,0.54203,0.25379,0.24922,0.47175,0.03834,0.34421,0.89549,0.16709,0.23199,0.89581,0.07021,0.49128,1.41238,0.26635,0.19562,1.39056,0.09447,0.68321,1.19264,0.34167,0.26036,1.12978,0.24848,0.56115,1.37092,0.36446,0.37323,1.36249
207,0.20244,0.34198,1.47712,-0.03554,0.52756,0.14065,0.24006,0.10888,0.08116,0.05223,0.59634,0.54218,0.25431,0.2476,0.4722,0.03987,0.34442,0.89681,0.16943,0.23314,0.89672,0.06732,0.48778,1.41105,0.26922,0.19561,1.39177,0.09134,0.67004,1.18321,0.34409,0.26203,1.13128,0.2443,0.56227,1.37133,0.36643,0.37398,1.36447
208,0.20299,0.34088,1.47882,-0.03518,0.52677,0.14068,0.24051,0.1082,0.08123,0.05299,0.5945,0.54231,0.25471,0.24598,0.4726,0.04126,0.34423,0.89813,0.17182,0.23413,0.8976,0.06465,0.48371,1.41014,0.27227,0.19627,1.39291,0.08888,0.65582,1.17456,0.34721,0.26425,1.13285,0.23977,0.56351,1.37232,0.36851,0.37451,1.36694
209,0.20343,0.33995,1.4806,-0.03469,0.52574,0.14052,0.24069,0.10802,0.08124,0.05332,0.5925,0.54235,0.25488,0.24451,0.47307,0.04254,0.34376,0.89927,0.17417,0.23495,0.89854,0.06176,0.47891,1.40934,0.27499,0.19724,1.39387,0.08679,0.64028,1.16635,0.35026,0.26672,1.13429,0.23453,0.56497,1.37349,0.37037,0.37548,1.36919
210,0.20387,0.3392,1.4825,-0.03415,0.52457,0.14,0.24078,0.10821,0.08125,0.05329,0.59032,0.54211,0.25478,0.24309,0.47364,0.04376,0.34329,0.90025,0.17643,0.23574,0.8996,0.05849,0.47349,1.40856,0.27752,0.19812,1.39491,0.08544,0.62396,1.15887,0.35284,0.26888,1.13569,0.22839,0.56639,1.37486,0.37165,0.37726,1.37087
211,0.20414,0.33863,1.48448,-0.03359,0.52321,0.13898,0.24101,0.10826,0.08135,0.05319,0.58762,0.54145,0.25454,0.24154,0.47431,0.04499,0.34289,0.9012,0.1786,0.2365,0.90074,0.05526,0.46805,1.4079,0.28026,0.19892,1.39634,0.08522,0.60813,1.15258,0.35506,0.27059,1.13723,0.22178,0.56768,1.37645,0.37229,0.37972,1.37218
212,0.20395,0.33816,1.48644,-0.03294,0.52148,0.13743,0.24133,0.10795,0.08154,0.05322,0.58415,0.54031,0.2544,0.23981,0.47499,0.0463,0.34244,0.90213,0.18073,0.2371,0.90184,0.05251,0.46307,1.40748,0.28331,0.19989,1.39819,0.08559,0.59374,1.1476,0.35712,0.27218,1.13897,0.21531,0.56878,1.37771,0.37257,0.38235,1.37356
213,0.20333,0.33768,1.48825,-0.03221,0.51929,0.13543,0.24154,0.10746,0.08171,0.05329,0.57994,0.53876,0.25443,0.23795,0.47562,0.04771,0.34172,0.90291,0.18294,0.23741,0.90285,0.05026,0.45861,1.40724,0.28637,0.20102,1.40018,0.08552,0.58079,1.14354,0.35922,0.27391,1.14086,0.20926,0.56952,1.37798,0.37284,0.38471,1.37527
214,0.20259,0.33709,1.48983,-0.03149,0.5167,0.13318,0.24155,0.10707,0.08178,0.05322,0.57531,0.53698,0.25443,0.23593,0.47622,0.04924,0.34065,0.90346,0.18535,0.2375,0.90385,0.04837,0.45461,1.40713,0.28908,0.20204,1.402,0.08487,0.56855,1.13994,0.36155,0.27556,1.14274,0.20376,0.56975,1.37714,0.37317,0.3866,1.37714
215,0.20198,0.33636,1.49127,-0.03074,0.51385,0.131,0.24154,0.1068,0.08182,0.05304,0.57063,0.53525,0.25422,0.23379,0.47687,0.05089,0.33937,0.9039,0.188,0.23754,0.90493,0.0469,0.45114,1.40739,0.29114,0.20271,1.40345,0.08447,0.55663,1.13689,0.36429,0.27674,1.14453,0.1992,0.56939,1.37579,0.37355,0.38808,1.37889
216,0.20149,0.33551,1.49276,-0.02979,0.51086,0.1291,0.24171,0.10642,0.08193,0.05295,0.56607,0.53379,0.25377,0.23173,0.47754,0.05256,0.33812,0.90449,0.1907,0.23772,0.90605,0.04601,0.44815,1.40833,0.29254,0.20301,1.4046,0.08485,0.54531,1.13491,0.36747,0.27742,1.1463,0.19579,0.56839,1.37483,0.374,0.38933,1.38048
217,0.20096,0.33453,1.49444,-0.02872,0.50795,0.12742,0.242,0.10588,0.08211,0.05301,0.56154,0.53253,0.25327,0.22996,0.47813,0.05412,0.33704,0.90532,0.19329,0.23806,0.90705,0.04548,0.44516,1.40993,0.29369,0.20304,1.40578,0.08572,0.53512,1.13425,0.3709,0.27798,1.1483,0.19292,0.56708,1.37485,0.37459,0.39048,1.38227
218,0.20023,0.33342,1.49625,-0.0278,0.50549,0.12578,0.24211,0.10542,0.08226,0.05322,0.5569,0.53131,0.25288,0.22845,0.47862,0.05554,0.33601,0.90626,0.19564,0.23835,0.90788,0.04476,0.44165,1.41179,0.29495,0.20302,1.4073,0.08652,0.52617,1.13462,0.37417,0.2789,1.15071,0.18957,0.56604,1.37585,0.37526,0.39165,1.38458
219,0.19925,0.33214,1.49804,-0.02705,0.50375,0.12411,0.24186,0.10525,0.08231,0.05355,0.55218,0.5301,0.25267,0.22701,0.47907,0.05682,0.33484,0.9071,0.19768,0.23828,0.90859,0.04341,0.43758,1.41359,0.29626,0.20313,1.40914,0.08698,0.5184,1.1356,0.37696,0.28025,1.15338,0.18537,0.5655,1.37747,0.37582,0.39299,1.38726
220,0.19821,0.33072,1.49969,-0.02621,0.50257,0.1225,0.24137,0.10534,0.08228,0.05387,0.54765,0.52897,0.25258,0.22553,0.4795,0.05796,0.33344,0.90776,0.19943,0.23777,0.90923,0.04147,0.43338,1.41532,0.29749,0.20337,1.411,0.08714,0.51198,1.13703,0.37941,0.2818,1.15603,0.18072,0.56526,1.37953,0.37615,0.39465,1.38983
221,0.19732,0.32925,1.50119,-0.02504,0.50142,0.12099,0.2409,0.10549,0.08215,0.05405,0.54352,0.52798,0.25253,0.22406,0.47984,0.05909,0.33189,0.9082,0.20106,0.23697,0.90975,0.03944,0.42962,1.41696,0.29884,0.2035,1.41261,0.08728,0.5071,1.13872,0.38196,0.28341,1.15849,0.17605,0.56506,1.38195,0.37638,0.39665,1.39206
222,0.19654,0.32785,1.50264,-0.02361,0.49984,0.11953,0.24064,0.10549,0.0819,0.05403,0.53977,0.52702,0.25253,0.22262,0.48002,0.06037,0.33028,0.9084,0.20282,0.23608,0.91011,0.03785,0.42651,1.41827,0.30049,0.20329,1.41399,0.08753,0.50341,1.14019,0.38474,0.28512,1.16086,0.17159,0.56485,1.38423,0.37669,0.39877,1.39415
223,0.19565,0.32659,1.50398,-0.0221,0.49782,0.11794,0.24065,0.10523,0.0816,0.05378,0.53608,0.52592,0.25263,0.22107,0.48009,0.06181,0.32861,0.90837,0.20474,0.23515,0.91038,0.03688,0.42376,1.41901,0.30223,0.2028,1.4153,0.08759,0.50031,1.14102,0.38757,0.28678,1.16324,0.16773,0.56465,1.38564,0.37707,0.40062,1.39634
224,0.19463,0.32547,1.50501,-0.02068,0.49559,0.11615,0.24086,0.10484,0.08136,0.05331,0.53215,0.52463,0.25283,0.21932,0.48024,0.06326,0.32686,0.90822,0.20671,0.23422,0.91069,0.0363,0.4209,1.41927,0.30362,0.20241,1.41654,0.08714,0.49776,1.14139,0.39035,0.28807,1.16552,0.1651,0.56443,1.38609,0.37736,0.40177,1.39857
225,0.19376,0.32436,1.50557,-0.01948,0.49341,0.11432,0.24104,0.10448,0.08125,0.05271,0.52794,0.5233,0.25309,0.21751,0.48055,0.06463,0.32506,0.90811,0.20861,0.23327,0.91114,0.03575,0.41774,1.41949,0.30465,0.2024,1.41766,0.08633,0.49625,1.14202,0.39308,0.2889,1.16752,0.16358,0.56423,1.38659,0.37731,0.40204,1.40067
226,0.19332,0.32303,1.50585,-0.01856,0.49151,0.11274,0.24103,0.10418,0.08134,0.05226,0.52367,0.52215,0.25341,0.21589,0.481,0.06595,0.32323,0.90818,0.21049,0.23232,0.91172,0.03489,0.41431,1.42011,0.30581,0.20277,1.41879,0.08532,0.49607,1.14355,0.3956,0.28962,1.16926,0.16218,0.56399,1.38826,0.37674,0.4018,1.40264
227,0.19329,0.32144,1.50625,-0.01792,0.4901,0.11155,0.24092,0.10391,0.08154,0.05216,0.5196,0.52128,0.25382,0.21459,0.48146,0.06736,0.32145,0.90843,0.21242,0.23138,0.91232,0.03361,0.4108,1.42115,0.30753,0.20331,1.4202,0.0837,0.49675,1.14581,0.39778,0.29051,1.17096,0.16027,0.56335,1.39097,0.37582,0.40166,1.40457
228,0.19342,0.31984,1.5069,-0.01749,0.48921,0.11057,0.24098,0.10366,0.08166,0.05228,0.51583,0.52056,0.25436,0.21349,0.4818,0.06889,0.31983,0.90875,0.21436,0.23044,0.91279,0.03205,0.4075,1.42213,0.30956,0.20378,1.42186,0.08108,0.49739,1.14786,0.39976,0.29145,1.17276,0.1582,0.56202,1.39337,0.37496,0.40183,1.40646
229,0.19341,0.3185,1.50768,-0.01718,0.48861,0.10963,0.24127,0.10347,0.08158,0.05228,0.51232,0.51985,0.25493,0.21241,0.48196,0.07045,0.31838,0.909,0.21619,0.22942,0.91306,0.03062,0.40459,1.42246,0.31125,0.20397,1.42342,0.07802,0.49729,1.14884,0.40169,0.29211,1.17457,0.15622,0.56018,1.39446,0.37437,0.40208,1.40817
230,0.19305,0.31736,1.50851,-0.01693,0.4881,0.10882,0.24163,0.10331,0.08138,0.05209,0.5091,0.51926,0.25535,0.21124,0.48203,0.07192,0.31686,0.90918,0.21789,0.22829,0.91324,0.02957,0.40214,1.42201,0.31231,0.20383,1.42462,0.07564,0.49651,1.14873,0.40349,0.29239,1.1762,0.1539,0.55841,1.39459,0.37381,0.40216,1.40961
231,0.19245,0.31612,1.50948,-0.01681,0.48776,0.10847,0.24189,0.10322,0.08119,0.05196,0.50636,0.51907,0.25558,0.20997,0.48216,0.07322,0.31509,0.90938,0.21956,0.22713,0.91348,0.02878,0.40016,1.42126,0.31299,0.20356,1.42554,0.07448,0.49559,1.14829,0.40493,0.29252,1.17754,0.151,0.55718,1.39477,0.37306,0.40213,1.41074
232,0.19194,0.31465,1.51068,-0.01687,0.48774,0.10877,0.24204,0.10326,0.08108,0.05221,0.5042,0.51941,0.25581,0.20862,0.48241,0.07439,0.31309,0.90975,0.22132,0.22613,0.91385,0.02796,0.39853,1.42083,0.31378,0.20339,1.42635,0.07394,0.49489,1.14823,0.40592,0.2929,1.17862,0.14788,0.5566,1.39546,0.37219,0.40228,1.41166
233,0.19169,0.31316,1.51199,-0.01709,0.48794,0.10968,0.24218,0.1034,0.08102,0.05288,0.50255,0.52024,0.25619,0.20726,0.48273,0.07545,0.31094,0.91031,0.22317,0.2253,0.91426,0.02702,0.39678,1.4209,0.31496,0.20342,1.42729,0.07323,0.49424,1.14873,0.40655,0.29376,1.17966,0.14487,0.55625,1.39657,0.37124,0.40287,1.41259
234,0.19151,0.31195,1.51321,-0.01731,0.48823,0.11106,0.24241,0.10346,0.08094,0.05376,0.50128,0.52148,0.25673,0.20594,0.483,0.07639,0.30866,0.91106,0.22495,0.2245,0.9146,0.0261,0.39425,1.42127,0.31641,0.20359,1.42845,0.07218,0.49338,1.14969,0.40713,0.29501,1.18089,0.14201,0.5555,1.39801,0.37015,0.40387,1.41368
235,0.19108,0.31097,1.51426,-0.01742,0.48865,0.11275,0.24275,0.10329,0.0808,0.05447,0.5004,0.52306,0.25744,0.20458,0.48315,0.07721,0.30634,0.91191,0.22654,0.22352,0.9148,0.02532,0.39073,1.42186,0.31779,0.20392,1.4297,0.07112,0.49227,1.15112,0.40788,0.29644,1.18233,0.1395,0.55416,1.3999,0.3689,0.40506,1.41491
236,0.19029,0.31003,1.51518,-0.01749,0.48935,0.11453,0.24304,0.10297,0.08059,0.05468,0.49985,0.52483,0.25827,0.203,0.48323,0.07802,0.3041,0.91281,0.22796,0.22236,0.9149,0.02463,0.3868,1.42271,0.31884,0.20442,1.43077,0.07028,0.491,1.15295,0.40879,0.29794,1.18372,0.13762,0.55267,1.40207,0.36761,0.40632,1.41603
237,0.18929,0.30914,1.51596,-0.01763,0.49034,0.11617,0.24312,0.10266,0.08042,0.05438,0.49947,0.52653,0.25907,0.20114,0.48341,0.07898,0.30205,0.91357,0.22937,0.22113,0.9151,0.0239,0.38317,1.42374,0.31976,0.20516,1.43164,0.06959,0.48959,1.15486,0.40956,0.29941,1.18481,0.13615,0.55156,1.40412,0.3664,0.40777,1.41677
238,0.18828,0.30842,1.5165,-0.01781,0.49146,0.11754,0.24306,0.1024,0.08048,0.05389,0.49925,0.52799,0.25959,0.19918,0.48386,0.08015,0.30014,0.91406,0.23092,0.21994,0.91558,0.02316,0.37996,1.42474,0.32093,0.20618,1.43253,0.06889,0.48783,1.15644,0.41004,0.30084,1.18561,0.13442,0.5508,1.40572,0.36513,0.4095,1.4171
239,0.18737,0.3079,1.51684,-0.01793,0.4925,0.11879,0.24305,0.10214,0.08079,0.05355,0.49925,0.52929,0.25972,0.19733,0.48455,0.08151,0.29831,0.91429,0.2327,0.21889,0.91633,0.02264,0.37686,1.42556,0.32242,0.20762,1.43349,0.06805,0.48529,1.15743,0.41041,0.30253,1.18626,0.13223,0.54994,1.40664,0.36352,0.4115,1.41721
240,0.18649,0.30748,1.51718,-0.01786,0.49326,0.12011,0.24321,0.10186,0.08122,0.05335,0.49949,0.53066,0.25964,0.19565,0.48532,0.08297,0.29659,0.91451,0.23466,0.21817,0.91718,0.02238,0.37365,1.42619,0.32391,0.20947,1.43425,0.06696,0.48174,1.15779,0.41109,0.30475,1.18688,0.12984,0.54862,1.40673,0.3616,0.41362,1.41734
241,0.18567,0.30702,1.51766,-0.01752,0.49368,0.12153,0.24344,0.10156,0.08155,0.0531,0.49991,0.53219,0.25972,0.19392,0.48598,0.08429,0.29508,0.91488,0.2366,0.21786,0.91786,0.02217,0.37024,1.42666,0.32509,0.21136,1.4346,0.06574,0.47747,1.15775,0.41212,0.30732,1.18744,0.12726,0.54698,1.40631,0.35948,0.41577,1.41739
242,0.18509,0.30635,1.51819,-0.01698,0.4938,0.12289,0.24371,0.10122,0.08161,0.0527,0.50041,0.53371,0.26015,0.1919,0.48641,0.08529,0.29377,0.91531,0.23826,0.21787,0.91825,0.02177,0.36664,1.42697,0.32599,0.21274,1.43463,0.06463,0.47307,1.15763,0.41307,0.30964,1.18785,0.12428,0.5455,1.40581,0.35729,0.41781,1.41719
243,0.18477,0.30546,1.51858,-0.01648,0.49368,0.12395,0.24403,0.10086,0.08148,0.05222,0.50079,0.53492,0.26078,0.18968,0.48668,0.08602,0.29264,0.9156,0.23962,0.21802,0.91841,0.02116,0.36298,1.42713,0.32682,0.21342,1.43466,0.06354,0.4688,1.15748,0.41356,0.31118,1.1881,0.12098,0.54461,1.40517,0.35537,0.41961,1.41671
244,0.18434,0.30465,1.5187,-0.01618,0.49332,0.12456,0.24435,0.10063,0.08136,0.05173,0.50082,0.53565,0.26125,0.18765,0.48695,0.0867,0.29177,0.91573,0.24085,0.21829,0.91855,0.02049,0.35951,1.42722,0.32767,0.21364,1.43491,0.06193,0.46467,1.15715,0.41357,0.31197,1.18828,0.11763,0.54428,1.40406,0.35424,0.42119,1.41623
245,0.18348,0.30421,1.5186,-0.016,0.49263,0.12477,0.24462,0.1006,0.08141,0.05129,0.50041,0.53596,0.26137,0.18607,0.48733,0.08746,0.29124,0.91585,0.2421,0.21881,0.91883,0.01989,0.35642,1.42715,0.32855,0.2138,1.43535,0.05942,0.4607,1.15646,0.41325,0.31253,1.18847,0.11407,0.54402,1.40237,0.35397,0.42276,1.41595
246,0.1824,0.30414,1.51838,-0.01574,0.49147,0.12471,0.24477,0.10063,0.08154,0.05091,0.49971,0.53599,0.26127,0.18478,0.48775,0.08829,0.29095,0.916,0.2434,0.21954,0.91915,0.01938,0.35351,1.42667,0.32938,0.21417,1.4358,0.05632,0.45683,1.15525,0.41271,0.31325,1.18859,0.11003,0.54324,1.4003,0.35403,0.42438,1.41579
247,0.18162,0.30412,1.51815,-0.0153,0.48981,0.12443,0.24484,0.10053,0.08156,0.0506,0.49889,0.53582,0.26119,0.18329,0.48805,0.08907,0.29062,0.91599,0.24465,0.22025,0.91933,0.01897,0.35046,1.42569,0.33003,0.21479,1.43606,0.05328,0.45295,1.15361,0.4121,0.31395,1.18847,0.10582,0.54189,1.398,0.35375,0.42589,1.41535
248,0.18129,0.30395,1.51793,-0.01463,0.48793,0.12387,0.24487,0.10027,0.08134,0.05028,0.49785,0.53539,0.26136,0.1812,0.4882,0.08971,0.2901,0.91574,0.24576,0.2208,0.91928,0.01875,0.34732,1.42447,0.33025,0.2156,1.4361,0.05066,0.44916,1.15186,0.41161,0.3142,1.18805,0.1024,0.54063,1.39549,0.35279,0.42722,1.41427
249,0.18107,0.30369,1.51774,-0.01365,0.48621,0.12297,0.24483,0.09998,0.08104,0.04995,0.49643,0.53469,0.2618,0.17865,0.48833,0.09015,0.28951,0.91542,0.24669,0.22133,0.91912,0.01875,0.34439,1.42334,0.32995,0.21655,1.43605,0.04821,0.4458,1.15029,0.41139,0.31399,1.18757,0.10026,0.5402,1.39274,0.35122,0.42855,1.41266
250,0.18053,0.3035,1.5176,-0.01236,0.4848,0.12179,0.24468,0.0997,0.08083,0.04971,0.49475,0.53375,0.26236,0.17631,0.48848,0.09046,0.28916,0.91514,0.24748,0.22209,0.91896,0.01879,0.342,1.42232,0.32942,0.21755,1.43613,0.04552,0.44302,1.14884,0.41142,0.31374,1.18734,0.09874,0.54079,1.38969,0.34943,0.43001,1.41105
251,0.17964,0.30345,1.51752,-0.01094,0.48338,0.12039,0.24459,0.09938,0.08073,0.04957,0.49311,0.53259,0.26278,0.17472,0.48859,0.0908,0.28922,0.91483,0.24823,0.22313,0.9188,0.01858,0.34038,1.42142,0.32914,0.21851,1.43643,0.0423,0.44066,1.14739,0.4115,0.31384,1.18742,0.0967,0.54212,1.38645,0.3478,0.43142,1.40997
252,0.17875,0.30339,1.51753,-0.00955,0.48162,0.11874,0.2448,0.099,0.08069,0.04942,0.49167,0.53115,0.26297,0.17387,0.48864,0.0913,0.28969,0.91434,0.24903,0.22432,0.91864,0.01795,0.33956,1.42086,0.32937,0.21941,1.43687,0.03856,0.43854,1.14611,0.41135,0.31449,1.18765,0.09357,0.54381,1.38337,0.34635,0.43265,1.40951
253,0.17815,0.30314,1.51757,-0.00821,0.47945,0.11677,0.24534,0.0986,0.08068,0.04918,0.49021,0.52939,0.26307,0.17341,0.48866,0.09195,0.29038,0.91361,0.24989,0.22557,0.91848,0.01701,0.33918,1.42062,0.32985,0.2202,1.4373,0.03459,0.43664,1.14512,0.41084,0.31551,1.18784,0.08949,0.54538,1.38083,0.34485,0.43392,1.40928
254,0.17787,0.30273,1.5175,-0.00693,0.47702,0.11451,0.24596,0.0982,0.08063,0.04901,0.48833,0.52731,0.26319,0.17303,0.48863,0.09249,0.29112,0.9128,0.25063,0.22687,0.91825,0.01602,0.33872,1.42026,0.33009,0.22086,1.43756,0.03082,0.4351,1.14421,0.41003,0.31648,1.18788,0.0848,0.54637,1.37896,0.3432,0.43548,1.40875
255,0.17778,0.30248,1.51717,-0.00587,0.4745,0.11206,0.24638,0.09775,0.08045,0.04906,0.48585,0.525,0.26339,0.17266,0.48844,0.09266,0.29182,0.91208,0.25107,0.22825,0.91785,0.01515,0.33787,1.41933,0.32989,0.22151,1.43752,0.02741,0.43417,1.14313,0.40918,0.31717,1.18765,0.07972,0.54656,1.37772,0.34157,0.43712,1.40777
256,0.17771,0.3027,1.51665,-0.00525,0.47213,0.10955,0.24652,0.09733,0.08016,0.04928,0.48298,0.52256,0.26362,0.17235,0.48813,0.09249,0.2925,0.91145,0.25122,0.22975,0.9173,0.0143,0.33682,1.41799,0.32934,0.22246,1.43722,0.02415,0.434,1.14201,0.40853,0.31777,1.18718,0.07442,0.54613,1.37716,0.34013,0.43833,1.40671
257,0.17737,0.30337,1.51608,-0.00507,0.47012,0.10702,0.24646,0.09709,0.07991,0.04945,0.48007,0.52006,0.26378,0.17233,0.48782,0.09225,0.29326,0.91076,0.2513,0.23135,0.91677,0.01316,0.33594,1.41681,0.32859,0.22388,1.4369,0.02075,0.43447,1.14123,0.40808,0.31847,1.18668,0.06922,0.54541,1.37733,0.33877,0.43876,1.40608
258,0.17652,0.30425,1.51559,-0.00509,0.46853,0.10444,0.24626,0.09709,0.07981,0.04947,0.4773,0.51749,0.26372,0.17285,0.48762,0.09219,0.29421,0.90996,0.25149,0.23297,0.91642,0.01154,0.33537,1.41615,0.32764,0.22557,1.4368,0.01722,0.43526,1.14101,0.40764,0.31918,1.18639,0.06447,0.54466,1.37808,0.33732,0.43845,1.40602
259,0.17523,0.30509,1.51521,-0.00507,0.46725,0.10186,0.24595,0.09727,0.07988,0.04948,0.47462,0.51494,0.26346,0.17392,0.48753,0.09233,0.29529,0.90913,0.25176,0.23447,0.91629,0.00965,0.33513,1.41599,0.32648,0.22713,1.43686,0.01374,0.4361,1.14122,0.40711,0.31976,1.18628,0.06028,0.54396,1.37913,0.33574,0.43787,1.4062
260,0.17368,0.30588,1.51491,-0.00499,0.46603,0.0994,0.24561,0.09761,0.08008,0.04956,0.47197,0.5125,0.26329,0.17534,0.48751,0.09251,0.29644,0.90839,0.25197,0.23579,0.91629,0.00783,0.33532,1.41614,0.32525,0.22845,1.43671,0.01047,0.43684,1.14156,0.40663,0.32069,1.18623,0.05636,0.54313,1.3803,0.33394,0.43776,1.40628
261,0.17199,0.30678,1.51467,-0.00502,0.46465,0.09711,0.24536,0.09801,0.08028,0.04957,0.46936,0.51022,0.26338,0.1769,0.48748,0.09258,0.29769,0.90779,0.25203,0.2371,0.9163,0.00614,0.33603,1.41637,0.3241,0.22984,1.43607,0.00747,0.43758,1.14179,0.40641,0.32298,1.18623,0.05231,0.54201,1.38155,0.33184,0.43846,1.40649
262,0.17024,0.30792,1.51448,-0.00523,0.46317,0.09494,0.24537,0.0983,0.08043,0.04945,0.46682,0.50806,0.26359,0.17852,0.48736,0.0924,0.29912,0.90732,0.25191,0.23874,0.91617,0.00453,0.3371,1.41638,0.32296,0.23181,1.435,0.00491,0.43876,1.14183,0.40643,0.32716,1.18638,0.04799,0.54089,1.3829,0.3295,0.43943,1.40748
263,0.16859,0.30921,1.51438,-0.00548,0.46191,0.09282,0.24571,0.09846,0.0805,0.04934,0.4643,0.50593,0.26366,0.18024,0.48713,0.09194,0.30071,0.90693,0.25166,0.24091,0.91586,0.00299,0.33817,1.416,0.32162,0.23455,1.43384,0.00279,0.44097,1.14188,0.40643,0.33256,1.18672,0.04374,0.5405,1.3844,0.32726,0.43972,1.40956
264,0.16707,0.3106,1.51438,-0.00557,0.46116,0.09074,0.24626,0.09863,0.08048,0.04937,0.46184,0.50383,0.26351,0.18214,0.48678,0.09127,0.30243,0.90659,0.25131,0.24346,0.91542,0.0015,0.339,1.41552,0.32004,0.23769,1.43291,0.00065,0.44434,1.14237,0.40615,0.33803,1.18716,0.03998,0.54129,1.3862,0.32535,0.43911,1.41225
265,0.16558,0.31205,1.51444,-0.00546,0.46081,0.08874,0.24663,0.09892,0.08036,0.04934,0.45956,0.50185,0.2632,0.18416,0.48634,0.09048,0.30422,0.90627,0.25083,0.24607,0.91488,-1e-05,0.33965,1.41542,0.31845,0.24062,1.4323,-0.0021,0.44826,1.14356,0.40545,0.343,1.18772,0.03653,0.54241,1.3886,0.32352,0.43857,1.41479
266,0.16398,0.31349,1.51457,-0.0052,0.46055,0.08695,0.2465,0.09927,0.08025,0.04899,0.45757,0.50014,0.26271,0.18622,0.48588,0.08965,0.30598,0.90603,0.25025,0.24847,0.91437,-0.00155,0.34027,1.41572,0.31698,0.24294,1.43199,-0.00549,0.45205,1.14517,0.40434,0.34763,1.18851,0.03276,0.54226,1.39175,0.32135,0.43913,1.41687
267,0.16224,0.31486,1.51476,-0.00482,0.46024,0.08548,0.24592,0.09968,0.08029,0.04823,0.4559,0.4988,0.26207,0.18834,0.48555,0.08881,0.30765,0.90594,0.24959,0.25062,0.91404,-0.00297,0.34084,1.41603,0.31556,0.24477,1.43189,-0.00893,0.45557,1.14675,0.40295,0.35205,1.18956,0.02829,0.54035,1.3954,0.31884,0.44074,1.41862
268,0.16031,0.31628,1.51488,-0.00432,0.45996,0.08435,0.24528,0.10017,0.0805,0.04718,0.45452,0.49785,0.26142,0.19066,0.48536,0.08797,0.30932,0.90606,0.2489,0.25268,0.91388,-0.00417,0.34135,1.4161,0.31425,0.24646,1.43196,-0.0119,0.45903,1.14814,0.40159,0.35613,1.19069,0.02369,0.53801,1.39893,0.31641,0.44261,1.4202
269,0.15833,0.31787,1.51483,-0.00373,0.45974,0.0835,0.24493,0.10066,0.08077,0.04601,0.45327,0.4972,0.26084,0.19319,0.48517,0.0871,0.31102,0.90642,0.24822,0.25487,0.91374,-0.00516,0.34185,1.41616,0.31323,0.24831,1.43212,-0.0145,0.46259,1.14962,0.40044,0.3598,1.19163,0.0197,0.5368,1.40205,0.31433,0.44432,1.42152
270,0.15653,0.31959,1.51468,-0.00306,0.45952,0.08287,0.24485,0.10104,0.08096,0.04492,0.45205,0.49677,0.26028,0.19582,0.48485,0.08618,0.3127,0.90697,0.24758,0.25724,0.91346,-0.00609,0.34236,1.41655,0.31244,0.25035,1.43225,-0.01725,0.46599,1.1514,0.39933,0.36316,1.19225,0.01618,0.53653,1.40499,0.31252,0.44616,1.42244
271,0.15503,0.32146,1.51454,-0.0023,0.45933,0.08241,0.24482,0.10137,0.08104,0.04408,0.45097,0.49647,0.25964,0.19848,0.48441,0.08523,0.31439,0.90761,0.24691,0.25962,0.91305,-0.00727,0.34274,1.41725,0.31157,0.25254,1.43231,-0.02047,0.46883,1.15337,0.39802,0.36643,1.19267,0.0122,0.53575,1.40803,0.31074,0.44857,1.42299
272,0.15363,0.32361,1.51436,-0.00151,0.45922,0.08203,0.24467,0.10186,0.08105,0.04359,0.4503,0.49622,0.25894,0.2012,0.48389,0.08419,0.31618,0.90822,0.24605,0.26185,0.9126,-0.0089,0.34296,1.41806,0.31037,0.2549,1.43239,-0.02401,0.47102,1.15523,0.39641,0.36975,1.19306,0.00749,0.53384,1.41108,0.30891,0.45166,1.42337
273,0.15202,0.32602,1.51413,-0.00078,0.45911,0.08165,0.24436,0.1026,0.08104,0.04339,0.45022,0.49594,0.25829,0.20417,0.48334,0.08299,0.31815,0.9087,0.24491,0.26395,0.91216,-0.01087,0.34327,1.41881,0.30879,0.25759,1.43263,-0.02743,0.47296,1.15687,0.39454,0.37307,1.19351,0.003,0.53198,1.41375,0.3071,0.45515,1.42378
274,0.15014,0.32833,1.51399,-0.00027,0.45886,0.08125,0.24403,0.1034,0.08107,0.04334,0.45065,0.49561,0.25776,0.20749,0.48273,0.08167,0.32012,0.90898,0.24363,0.26599,0.9117,-0.01292,0.34392,1.41952,0.30683,0.26059,1.43302,-0.03049,0.475,1.15833,0.39259,0.37632,1.19401,-0.00021,0.53174,1.41575,0.30532,0.45881,1.42421
275,0.14807,0.33028,1.51397,-0.00015,0.45853,0.08087,0.24382,0.10406,0.08116,0.04331,0.45138,0.49527,0.25737,0.21115,0.48204,0.08032,0.32181,0.90906,0.2424,0.26801,0.9112,-0.015,0.34485,1.42024,0.30477,0.26379,1.43332,-0.03345,0.477,1.15965,0.39082,0.37952,1.19442,-0.00209,0.53343,1.41701,0.3036,0.46256,1.42443
276,0.146,0.33207,1.51397,-0.00044,0.45836,0.08052,0.24381,0.10462,0.08134,0.04334,0.45219,0.4949,0.25721,0.21507,0.48131,0.07899,0.32316,0.90898,0.24132,0.27011,0.91068,-0.01712,0.34575,1.42094,0.30312,0.26711,1.43343,-0.03676,0.47857,1.16078,0.38945,0.38259,1.19451,-0.00353,0.53611,1.41766,0.30198,0.46639,1.42415
277,0.14413,0.33402,1.51386,-0.00094,0.45851,0.08018,0.24397,0.10526,0.0816,0.04344,0.45307,0.49451,0.25727,0.21916,0.48061,0.07766,0.32435,0.9088,0.24034,0.27236,0.91017,-0.01905,0.34658,1.42144,0.30215,0.27047,1.43357,-0.04057,0.47968,1.16157,0.38827,0.38538,1.1943,-0.00533,0.53884,1.41781,0.30036,0.47046,1.4233
278,0.14257,0.33621,1.51364,-0.00135,0.45894,0.07987,0.24418,0.10602,0.08199,0.04357,0.45408,0.49415,0.25738,0.22331,0.48002,0.0763,0.32558,0.90863,0.23931,0.27464,0.90976,-0.02053,0.34762,1.42159,0.30158,0.27356,1.43396,-0.04459,0.48062,1.1619,0.38682,0.38786,1.19408,-0.00769,0.54147,1.41751,0.29847,0.47506,1.42212
279,0.14114,0.33843,1.51339,-0.0014,0.45936,0.0796,0.24427,0.10675,0.08254,0.04355,0.45517,0.49388,0.25729,0.22757,0.47951,0.07486,0.32692,0.90856,0.23812,0.27677,0.90945,-0.02149,0.34912,1.42142,0.30089,0.27609,1.43432,-0.04842,0.4816,1.16174,0.3849,0.39041,1.19401,-0.01028,0.54429,1.41673,0.29611,0.48021,1.42087
280,0.13951,0.3404,1.51321,-0.00108,0.45952,0.07937,0.24414,0.10727,0.08324,0.04319,0.45628,0.49374,0.25688,0.23205,0.479,0.0733,0.32834,0.9086,0.2367,0.27867,0.90918,-0.02219,0.35096,1.42109,0.29972,0.27825,1.43413,-0.05179,0.48239,1.16117,0.38275,0.39331,1.19384,-0.01282,0.54725,1.41549,0.29344,0.48536,1.41958
281,0.1374,0.34208,1.51315,-0.00067,0.4594,0.0792,0.24393,0.10764,0.08411,0.04242,0.45737,0.4937,0.25639,0.23682,0.47847,0.07158,0.32978,0.90873,0.23508,0.28045,0.90891,-0.02301,0.35275,1.42073,0.29803,0.28077,1.4333,-0.05473,0.48278,1.16035,0.38075,0.39645,1.19321,-0.01519,0.55014,1.41393,0.29077,0.48993,1.4181
282,0.13488,0.34379,1.51312,-0.00056,0.45919,0.07909,0.24392,0.10805,0.08517,0.04126,0.45837,0.49372,0.25613,0.24176,0.47802,0.06975,0.33122,0.90894,0.23337,0.2823,0.90868,-0.02427,0.35411,1.42032,0.29606,0.28437,1.43231,-0.05742,0.48282,1.15947,0.37905,0.39969,1.19213,-0.01735,0.5531,1.41217,0.28826,0.49389,1.41638
283,0.13231,0.34591,1.51298,-0.00082,0.4591,0.079,0.24426,0.10871,0.08632,0.03982,0.45913,0.49375,0.25611,0.24669,0.47771,0.06785,0.33266,0.90921,0.23169,0.28447,0.90853,-0.02606,0.3549,1.41981,0.2942,0.2889,1.43174,-0.06006,0.48275,1.15865,0.3775,0.40297,1.19107,-0.01932,0.55641,1.41027,0.2858,0.49781,1.41469
284,0.12996,0.34846,1.51276,-0.00118,0.45914,0.07889,0.24478,0.10969,0.08744,0.03827,0.45963,0.49375,0.25604,0.25155,0.47745,0.06589,0.33402,0.90949,0.23009,0.28706,0.90838,-0.02822,0.35527,1.41927,0.29264,0.29347,1.43188,-0.0627,0.48257,1.1579,0.37585,0.40613,1.19051,-0.02128,0.56002,1.40827,0.28315,0.50218,1.4132
285,0.12784,0.35116,1.51265,-0.00144,0.45918,0.0787,0.24521,0.11092,0.08854,0.03686,0.46008,0.49367,0.25569,0.25646,0.47721,0.06397,0.33522,0.90967,0.2286,0.28982,0.90824,-0.03053,0.35549,1.41884,0.29129,0.29738,1.43247,-0.06524,0.48215,1.15718,0.37396,0.40889,1.19039,-0.02344,0.56362,1.40621,0.28022,0.50692,1.41178
286,0.12578,0.35381,1.51274,-0.00161,0.45915,0.07843,0.24547,0.11227,0.08979,0.03565,0.46058,0.49349,0.25526,0.26162,0.47703,0.06215,0.33625,0.90969,0.2272,0.2924,0.90819,-0.03291,0.3558,1.41858,0.28984,0.30068,1.43301,-0.06765,0.48153,1.15648,0.37179,0.4113,1.19028,-0.02577,0.56703,1.40414,0.27725,0.51152,1.41034
287,0.12373,0.35645,1.5129,-0.00171,0.45914,0.07816,0.24564,0.11357,0.09131,0.03447,0.46104,0.49332,0.25519,0.26707,0.47694,0.06039,0.33728,0.90972,0.22579,0.29473,0.90822,-0.0353,0.35637,1.41846,0.28824,0.30375,1.43326,-0.06997,0.48104,1.15585,0.36935,0.41367,1.18993,-0.02799,0.57024,1.40218,0.27453,0.51557,1.4091
288,0.12176,0.35905,1.513,-0.00174,0.45928,0.07797,0.24582,0.11476,0.09305,0.03312,0.46125,0.49324,0.25566,0.27258,0.47691,0.05858,0.3385,0.90997,0.22423,0.29694,0.90825,-0.03758,0.35729,1.41841,0.2867,0.30678,1.43344,-0.07232,0.48089,1.1553,0.3667,0.41611,1.18948,-0.02999,0.57328,1.4004,0.27212,0.51916,1.40822
289,0.11997,0.36149,1.51308,-0.00183,0.45951,0.0779,0.24614,0.11586,0.09487,0.03166,0.46111,0.49328,0.25638,0.278,0.47692,0.05667,0.33988,0.91048,0.22251,0.29911,0.90825,-0.03967,0.35852,1.4183,0.2853,0.3097,1.43384,-0.07479,0.48085,1.15465,0.36398,0.41849,1.18921,-0.03201,0.57599,1.39861,0.2698,0.52262,1.4076
290,0.11826,0.3638,1.51325,-0.00221,0.45965,0.07792,0.2467,0.11701,0.09678,0.03024,0.46081,0.49339,0.257,0.28346,0.47698,0.05468,0.34111,0.91107,0.2207,0.30114,0.90826,-0.04162,0.35989,1.418,0.28374,0.3125,1.43442,-0.07728,0.48057,1.15366,0.36136,0.42074,1.18921,-0.03429,0.57817,1.39661,0.26727,0.52599,1.40711
291,0.1163,0.36606,1.51355,-0.00285,0.45957,0.07802,0.24754,0.11834,0.09884,0.02896,0.46069,0.49354,0.2575,0.28915,0.4771,0.05263,0.34203,0.91156,0.21887,0.30302,0.90832,-0.04354,0.36113,1.41761,0.28176,0.31539,1.43497,-0.07958,0.48003,1.15252,0.35896,0.42302,1.18936,-0.03675,0.57973,1.39465,0.26452,0.52887,1.40682
292,0.11392,0.36831,1.51395,-0.00344,0.45929,0.07817,0.24868,0.11983,0.10107,0.02779,0.46092,0.49372,0.25814,0.29507,0.47732,0.05053,0.34281,0.91195,0.21702,0.30489,0.90842,-0.04551,0.36209,1.41749,0.27956,0.31854,1.43536,-0.08159,0.47951,1.15175,0.35687,0.42545,1.18946,-0.03898,0.58067,1.39331,0.26184,0.53077,1.40692
293,0.11132,0.37053,1.51437,-0.0037,0.45895,0.07827,0.25013,0.12143,0.10344,0.0267,0.46125,0.49389,0.25904,0.301,0.47766,0.04845,0.34377,0.91235,0.21516,0.30687,0.90856,-0.04745,0.36294,1.41788,0.27758,0.32191,1.43563,-0.08341,0.47929,1.15165,0.35511,0.42792,1.18942,-0.04057,0.58114,1.39288,0.25954,0.53165,1.4074
294,0.10891,0.3728,1.5147,-0.00356,0.45878,0.07831,0.25184,0.12302,0.10591,0.02566,0.46121,0.49401,0.26019,0.30671,0.47813,0.04649,0.34493,0.91286,0.21338,0.30891,0.90876,-0.0492,0.36405,1.41852,0.27599,0.32527,1.43585,-0.08515,0.47967,1.15197,0.35355,0.43033,1.18924,-0.04151,0.58138,1.39311,0.25777,0.53203,1.40808
295,0.10688,0.37524,1.51492,-0.00319,0.4589,0.07834,0.25366,0.12455,0.10848,0.02459,0.46056,0.49414,0.26152,0.31217,0.47874,0.04475,0.34598,0.91348,0.21182,0.31083,0.90905,-0.05072,0.36559,1.41896,0.27461,0.32845,1.43609,-0.08682,0.48095,1.15232,0.35192,0.43263,1.18902,-0.0423,0.58157,1.39376,0.25644,0.53254,1.40882
296,0.10512,0.37774,1.51517,-0.00285,0.45919,0.07839,0.25531,0.12608,0.1112,0.02338,0.45957,0.4943,0.26301,0.31764,0.47945,0.04323,0.34664,0.9141,0.2105,0.31252,0.90939,-0.05212,0.36722,1.41906,0.27314,0.33151,1.43663,-0.08842,0.48315,1.15269,0.34999,0.4348,1.18905,-0.04345,0.58176,1.39488,0.25526,0.53352,1.40971
297,0.10333,0.38012,1.51567,-0.00284,0.45934,0.07845,0.25666,0.12779,0.11411,0.02202,0.45869,0.49444,0.2645,0.32345,0.48018,0.04184,0.34692,0.91455,0.2094,0.3142,0.90973,-0.05359,0.36845,1.41906,0.27147,0.33459,1.43778,-0.09021,0.48586,1.15338,0.34787,0.43681,1.18961,-0.04514,0.58198,1.39655,0.25388,0.53485,1.41089
298,0.10131,0.38224,1.51647,-0.00328,0.45915,0.07843,0.25779,0.12979,0.11715,0.02068,0.45799,0.49447,0.26591,0.32971,0.48091,0.04048,0.34704,0.91481,0.20837,0.3161,0.91002,-0.05521,0.36925,1.41917,0.26975,0.3377,1.43949,-0.0925,0.48857,1.15443,0.34593,0.43866,1.19074,-0.04717,0.58241,1.39844,0.25207,0.53616,1.41231
299,0.09919,0.38421,1.51738,-0.00393,0.45865,0.07833,0.25898,0.1321,0.12025,0.01952,0.45726,0.4944,0.26726,0.33622,0.48167,0.03907,0.3472,0.91498,0.2073,0.31816,0.91029,-0.05693,0.37009,1.41942,0.26813,0.34066,1.44124,-0.09528,0.491,1.15556,0.34443,0.44048,1.19207,-0.04931,0.58341,1.4,0.24997,0.53725,1.41371
300,0.09723,0.38625,1.51805,-0.0044,0.45812,0.0782,0.26042,0.13465,0.12334,0.01856,0.45638,0.4943,0.26865,0.34273,0.4825,0.0376,0.34738,0.91518,0.20614,0.32012,0.91054,-0.05867,0.37125,1.41971,0.26666,0.34328,1.4424,-0.09817,0.49321,1.15651,0.34325,0.44266,1.19314,-0.05156,0.58484,1.40112,0.24783,0.53828,1.41486
301,0.09565,0.38838,1.5183,-0.00461,0.45796,0.07815,0.26203,0.13736,0.1263,0.01769,0.45551,0.49428,0.27005,0.34899,0.48338,0.03615,0.34747,0.91544,0.20493,0.3218,0.91076,-0.06036,0.37261,1.41988,0.26539,0.34555,1.44276,-0.10079,0.49552,1.15726,0.3421,0.44571,1.19386,-0.05396,0.58615,1.4022,0.24565,0.53964,1.41585
302,0.09446,0.39053,1.51818,-0.00476,0.45833,0.07824,0.26354,0.14012,0.12899,0.01683,0.45484,0.4944,0.27145,0.3548,0.48425,0.03477,0.34754,0.91577,0.20374,0.32318,0.91093,-0.06183,0.37396,1.41982,0.26436,0.3475,1.44267,-0.103,0.49834,1.15802,0.34074,0.44967,1.19447,-0.05609,0.58727,1.40356,0.24337,0.5414,1.41699
303,0.09347,0.39262,1.51792,-0.00498,0.45898,0.07839,0.26483,0.14288,0.13136,0.01599,0.45439,0.49457,0.27291,0.36004,0.48511,0.03357,0.34782,0.91614,0.20265,0.32433,0.91105,-0.06309,0.37534,1.41973,0.26356,0.34923,1.44269,-0.10494,0.50165,1.15896,0.33916,0.4538,1.19526,-0.05742,0.58865,1.40507,0.24118,0.54327,1.41843
304,0.09225,0.39457,1.51773,-0.00511,0.45942,0.07847,0.26606,0.14552,0.13348,0.01521,0.45413,0.49467,0.27446,0.36473,0.48595,0.03259,0.34836,0.91645,0.20173,0.32535,0.91115,-0.06445,0.37683,1.41996,0.26279,0.35081,1.44307,-0.10683,0.50482,1.16009,0.33761,0.45738,1.19626,-0.05821,0.59017,1.40657,0.23932,0.54512,1.41998
305,0.09051,0.39625,1.51769,-0.00494,0.45942,0.07842,0.26749,0.1479,0.13549,0.01451,0.45404,0.49467,0.27601,0.36906,0.48674,0.03179,0.34901,0.91663,0.20098,0.32634,0.91122,-0.06617,0.37833,1.42058,0.26189,0.35213,1.44352,-0.10886,0.50728,1.16124,0.33629,0.46031,1.19729,-0.05932,0.5911,1.40807,0.23773,0.54711,1.42125
306,0.08838,0.39773,1.51766,-0.00449,0.45919,0.0783,0.26912,0.15,0.13758,0.01395,0.45406,0.49459,0.27742,0.37332,0.48746,0.03106,0.34959,0.9167,0.2003,0.32734,0.91122,-0.06803,0.37971,1.4213,0.26085,0.35308,1.44367,-0.11109,0.50921,1.16229,0.33531,0.46294,1.19819,-0.06113,0.59138,1.40958,0.23623,0.5494,1.42207
307,0.0863,0.3992,1.51745,-0.00407,0.4591,0.07815,0.27064,0.152,0.13981,0.01345,0.45405,0.49448,0.27863,0.37768,0.48818,0.03025,0.35005,0.91672,0.19957,0.32841,0.91121,-0.06974,0.38099,1.42176,0.25976,0.35381,1.44348,-0.11345,0.51126,1.16324,0.33453,0.46544,1.1989,-0.06295,0.59208,1.41087,0.23473,0.55186,1.42247
308,0.0846,0.4008,1.51702,-0.00399,0.45927,0.07803,0.27178,0.15412,0.14213,0.01289,0.45396,0.49438,0.27966,0.38204,0.48904,0.02933,0.35056,0.91678,0.19873,0.32955,0.91133,-0.07126,0.38218,1.42186,0.25856,0.35459,1.44329,-0.1157,0.51388,1.1642,0.33382,0.46771,1.19955,-0.06387,0.59417,1.41173,0.23319,0.55434,1.42266
309,0.0833,0.40253,1.51642,-0.00424,0.45963,0.07801,0.2726,0.15634,0.14436,0.01224,0.45382,0.49437,0.28051,0.38605,0.49009,0.02839,0.3513,0.917,0.19785,0.33072,0.91168,-0.07276,0.38321,1.42179,0.25714,0.35559,1.44335,-0.11759,0.51693,1.16524,0.33311,0.46967,1.20027,-0.06382,0.59721,1.41235,0.23168,0.55676,1.42285
310,0.08221,0.40426,1.5158,-0.00453,0.45999,0.07807,0.27339,0.15844,0.1464,0.01166,0.45366,0.49444,0.2812,0.38951,0.49122,0.02753,0.35222,0.91734,0.19702,0.33185,0.91221,-0.07431,0.38402,1.42177,0.25537,0.35683,1.44359,-0.11913,0.51979,1.1663,0.33252,0.47128,1.20107,-0.06337,0.5999,1.41303,0.23035,0.55919,1.42298
311,0.08118,0.4057,1.51538,-0.0046,0.46023,0.07811,0.27437,0.16018,0.14821,0.01129,0.45354,0.49448,0.28173,0.39235,0.4923,0.02677,0.35302,0.91761,0.19628,0.33278,0.91276,-0.07577,0.38466,1.42195,0.25336,0.35811,1.44396,-0.12051,0.5219,1.16725,0.33208,0.47232,1.20182,-0.06272,0.60188,1.41355,0.22929,0.56174,1.42284
312,0.08025,0.40655,1.51541,-0.00445,0.46038,0.07804,0.27552,0.1614,0.14985,0.0111,0.45344,0.49442,0.2821,0.39464,0.49323,0.02613,0.35343,0.91769,0.19567,0.33328,0.91323,-0.0769,0.38522,1.42239,0.25154,0.35918,1.44458,-0.12189,0.52308,1.16807,0.33163,0.47253,1.20248,-0.06152,0.60429,1.41335,0.22842,0.56442,1.42229
313,0.07954,0.4069,1.51592,-0.0043,0.4605,0.07795,0.27667,0.16205,0.15132,0.01097,0.45331,0.49434,0.28229,0.39642,0.49395,0.02561,0.35351,0.91767,0.19517,0.33355,0.91359,-0.07758,0.38579,1.42314,0.25046,0.36009,1.44547,-0.12319,0.52356,1.16888,0.33095,0.47217,1.20292,-0.05984,0.60799,1.41231,0.22754,0.56691,1.42141
314,0.079,0.40716,1.51667,-0.00433,0.46054,0.07798,0.27774,0.16217,0.15259,0.01086,0.45322,0.49437,0.2824,0.39769,0.49445,0.02516,0.35364,0.91777,0.19479,0.33413,0.91388,-0.07796,0.38636,1.42406,0.25029,0.36123,1.44635,-0.12421,0.5237,1.16968,0.32998,0.47203,1.20295,-0.05857,0.61216,1.41107,0.22641,0.56876,1.42049
315,0.07841,0.40754,1.51729,-0.00444,0.4605,0.07813,0.27887,0.16187,0.15359,0.01082,0.45324,0.49452,0.28255,0.39836,0.49479,0.0248,0.35411,0.91803,0.1945,0.33528,0.9142,-0.07828,0.38677,1.42483,0.25058,0.36259,1.44686,-0.12495,0.52368,1.1703,0.32889,0.47252,1.20261,-0.05833,0.61528,1.41023,0.22505,0.56986,1.41976
316,0.07763,0.4078,1.51764,-0.0045,0.46045,0.07828,0.28021,0.16127,0.15433,0.01084,0.4534,0.49468,0.28286,0.39838,0.4951,0.02459,0.35491,0.91834,0.19435,0.33657,0.9146,-0.07874,0.38691,1.42515,0.25075,0.3635,1.447,-0.12564,0.5235,1.17049,0.32784,0.47319,1.20226,-0.05878,0.61659,1.40979,0.22366,0.57072,1.41915
317,0.07671,0.40755,1.51792,-0.00444,0.46039,0.0784,0.28167,0.1605,0.15485,0.01084,0.45364,0.4948,0.28325,0.39793,0.49541,0.02456,0.35575,0.9186,0.19433,0.33756,0.91504,-0.07938,0.38679,1.42508,0.25071,0.36348,1.44711,-0.12641,0.523,1.17023,0.3268,0.47342,1.20217,-0.05951,0.61636,1.40942,0.22224,0.57203,1.41839
318,0.07585,0.40674,1.51845,-0.00437,0.46026,0.07851,0.28293,0.15959,0.15519,0.01071,0.45389,0.49493,0.28346,0.39721,0.49562,0.02458,0.35646,0.91883,0.19436,0.33829,0.91541,-0.0801,0.38653,1.42491,0.25062,0.36289,1.4474,-0.12709,0.52204,1.16968,0.32573,0.47315,1.2023,-0.06042,0.61542,1.40892,0.22059,0.57386,1.41727
319,0.07523,0.40577,1.51917,-0.00443,0.46007,0.07869,0.28376,0.1584,0.15536,0.01045,0.45415,0.49511,0.28327,0.3963,0.4956,0.02451,0.35707,0.91909,0.19431,0.33906,0.91565,-0.08066,0.38621,1.42493,0.25048,0.36249,1.44776,-0.12748,0.52057,1.16907,0.32481,0.47269,1.2024,-0.06127,0.61467,1.40816,0.21878,0.57557,1.4159
320,0.07493,0.40517,1.51977,-0.00468,0.45993,0.07888,0.28413,0.15673,0.15544,0.01018,0.45452,0.49532,0.28258,0.3951,0.49535,0.02445,0.35768,0.91934,0.19428,0.3399,0.91582,-0.08092,0.38581,1.42525,0.25018,0.36262,1.448,-0.12761,0.5187,1.16859,0.32433,0.47213,1.20228,-0.06147,0.61463,1.40697,0.21722,0.57636,1.41458
321,0.07482,0.40511,1.52005,-0.00504,0.45987,0.079,0.28423,0.15464,0.15547,0.01002,0.45498,0.49543,0.28144,0.39355,0.49498,0.02463,0.35827,0.91948,0.19447,0.34067,0.91602,-0.08091,0.38537,1.42569,0.2498,0.36307,1.44809,-0.12762,0.51672,1.16825,0.32429,0.47137,1.20194,-0.06082,0.61519,1.40541,0.21612,0.5759,1.41355
322,0.07463,0.40531,1.52019,-0.00532,0.45994,0.07903,0.28424,0.15235,0.15543,0.00996,0.45535,0.49546,0.28004,0.39169,0.49463,0.02506,0.35889,0.91954,0.19491,0.34132,0.91635,-0.08084,0.38497,1.42594,0.24949,0.36341,1.44816,-0.12752,0.51505,1.16785,0.32437,0.47035,1.20152,-0.05987,0.61583,1.40379,0.21534,0.57453,1.41288
323,0.07417,0.40538,1.52042,-0.00532,0.4602,0.07903,0.28421,0.15006,0.15524,0.00999,0.45557,0.49546,0.27872,0.38952,0.49433,0.02556,0.35962,0.91964,0.19541,0.34196,0.91675,-0.08092,0.38469,1.42584,0.24929,0.36343,1.44828,-0.12726,0.51374,1.16717,0.32419,0.46928,1.20118,-0.05938,0.61602,1.4024,0.21479,0.57295,1.41259
324,0.07356,0.40524,1.5207,-0.005,0.46065,0.07902,0.28411,0.1478,0.15481,0.01012,0.45573,0.49545,0.2777,0.38705,0.49404,0.02599,0.3605,0.91978,0.19582,0.34271,0.91708,-0.08126,0.3846,1.4257,0.24924,0.36318,1.44842,-0.1269,0.5124,1.16629,0.32364,0.46842,1.20091,-0.05953,0.61553,1.40129,0.21443,0.57164,1.41264
325,0.07314,0.40494,1.52088,-0.0046,0.46105,0.07894,0.28394,0.14546,0.1541,0.01038,0.45582,0.49537,0.27698,0.38424,0.49365,0.02634,0.36134,0.91987,0.19618,0.3435,0.91726,-0.08172,0.38464,1.42591,0.24946,0.36274,1.44846,-0.12651,0.51059,1.16546,0.32296,0.46783,1.20062,-0.05976,0.61451,1.40029,0.2142,0.57057,1.41281
326,0.0731,0.40438,1.52095,-0.00437,0.46113,0.07879,0.28368,0.14299,0.15306,0.0107,0.45574,0.49521,0.2763,0.38108,0.49308,0.02667,0.36193,0.91986,0.19651,0.34419,0.91724,-0.08204,0.38462,1.4265,0.24993,0.36209,1.44831,-0.12597,0.50815,1.16474,0.32248,0.46732,1.20025,-0.05936,0.61327,1.39908,0.21402,0.56942,1.4129
327,0.07339,0.40345,1.521,-0.00429,0.4609,0.07863,0.28327,0.14039,0.15174,0.01108,0.45561,0.49505,0.27542,0.37762,0.49235,0.027,0.36219,0.91979,0.19686,0.34464,0.91706,-0.08203,0.38431,1.42705,0.2504,0.36125,1.448,-0.12507,0.50529,1.16395,0.32236,0.46664,1.19983,-0.05829,0.61204,1.3975,0.21396,0.56803,1.41285
328,0.07391,0.40229,1.52104,-0.00413,0.46067,0.07856,0.28269,0.13769,0.15025,0.0116,0.45571,0.49496,0.27431,0.37399,0.49149,0.02739,0.36222,0.91969,0.19726,0.34482,0.91676,-0.08172,0.38365,1.42717,0.25073,0.36047,1.44764,-0.12371,0.50242,1.16289,0.32263,0.46572,1.19939,-0.05719,0.61067,1.39582,0.21413,0.56647,1.41267
329,0.07468,0.40122,1.52096,-0.00387,0.46063,0.07853,0.28201,0.13505,0.14869,0.01222,0.45621,0.49493,0.27312,0.37041,0.49057,0.02793,0.36215,0.91953,0.1978,0.34483,0.91637,-0.08128,0.38282,1.42686,0.25104,0.36,1.44734,-0.12208,0.49998,1.16168,0.32309,0.46474,1.19892,-0.05653,0.60894,1.39456,0.21448,0.56499,1.41238
330,0.0757,0.40043,1.52076,-0.00371,0.46068,0.07849,0.28137,0.13266,0.14707,0.01282,0.457,0.49488,0.27189,0.36699,0.48964,0.02862,0.36205,0.91928,0.1985,0.34476,0.91597,-0.08078,0.38192,1.42635,0.25158,0.35979,1.44717,-0.12043,0.49817,1.1606,0.3235,0.46386,1.19844,-0.05608,0.60688,1.39393,0.21485,0.5637,1.41206
331,0.07689,0.39986,1.52053,-0.00377,0.46054,0.07844,0.28093,0.13065,0.14519,0.01329,0.4578,0.49482,0.27051,0.36351,0.48874,0.0294,0.36198,0.91901,0.19928,0.34466,0.91559,-0.08004,0.38076,1.4258,0.25231,0.35946,1.44716,-0.11893,0.49671,1.1598,0.32383,0.46301,1.1981,-0.05538,0.60475,1.39366,0.21521,0.56241,1.41195
332,0.0781,0.39924,1.52024,-0.00397,0.4602,0.07844,0.28069,0.12887,0.14291,0.01368,0.45837,0.49479,0.26886,0.35955,0.48788,0.03016,0.36197,0.91884,0.20001,0.34454,0.91528,-0.07893,0.37907,1.42513,0.25303,0.35877,1.4472,-0.11761,0.49519,1.15918,0.32425,0.46218,1.19799,-0.05448,0.60267,1.39341,0.21572,0.56083,1.41223
333,0.07918,0.39853,1.51975,-0.00418,0.45988,0.07853,0.28052,0.12711,0.14035,0.0141,0.45862,0.49486,0.26703,0.35498,0.48712,0.0308,0.36191,0.91883,0.20064,0.34438,0.91504,-0.07775,0.37701,1.42434,0.25369,0.35783,1.44715,-0.11645,0.49351,1.15856,0.32486,0.46156,1.19806,-0.05372,0.60045,1.39315,0.21641,0.55906,1.41286
334,0.0802,0.39784,1.51896,-0.00432,0.45979,0.07873,0.28037,0.12523,0.13783,0.01454,0.45872,0.49504,0.2653,0.35012,0.48648,0.03137,0.36164,0.91892,0.20121,0.3442,0.91484,-0.07692,0.37515,1.4236,0.25442,0.35684,1.44693,-0.11528,0.49191,1.15789,0.32563,0.46135,1.19818,-0.05317,0.59806,1.393,0.21712,0.55751,1.41356
335,0.08123,0.39717,1.51806,-0.00444,0.45998,0.07902,0.28013,0.12321,0.1356,0.01503,0.459,0.4953,0.2639,0.34544,0.4859,0.03196,0.36115,0.919,0.20183,0.34407,0.91459,-0.07643,0.37378,1.42308,0.25542,0.35588,1.44656,-0.11394,0.49064,1.15729,0.32657,0.46149,1.19825,-0.05245,0.59596,1.39293,0.21778,0.55638,1.41405
336,0.08219,0.39626,1.51737,-0.00457,0.46037,0.07932,0.27958,0.12098,0.13362,0.01557,0.45963,0.49556,0.26281,0.3411,0.48522,0.0326,0.36066,0.919,0.2025,0.34395,0.91416,-0.07595,0.37266,1.4227,0.2567,0.35491,1.44612,-0.11235,0.48981,1.15688,0.32776,0.46168,1.19829,-0.05116,0.59456,1.39285,0.21845,0.55554,1.41428
337,0.08296,0.39494,1.51694,-0.00473,0.46088,0.07959,0.27853,0.11851,0.13172,0.01614,0.46041,0.4958,0.26185,0.33688,0.48441,0.0333,0.36034,0.91897,0.20318,0.34366,0.91354,-0.07524,0.3714,1.42231,0.25805,0.3539,1.44578,-0.1105,0.48939,1.15671,0.32913,0.46172,1.1984,-0.0492,0.5937,1.39285,0.21924,0.55487,1.4144
338,0.08362,0.39333,1.5165,-0.00485,0.46134,0.07981,0.27697,0.11593,0.12978,0.01667,0.46097,0.49599,0.26079,0.33246,0.48363,0.03415,0.36022,0.91899,0.20396,0.34298,0.91292,-0.07431,0.36989,1.42193,0.25935,0.35281,1.44558,-0.10841,0.48924,1.15679,0.33047,0.46167,1.19867,-0.04674,0.5928,1.39317,0.22007,0.55447,1.41456
339,0.0845,0.39168,1.5158,-0.00489,0.4616,0.07996,0.27516,0.11348,0.12778,0.01718,0.46122,0.49611,0.25957,0.3277,0.48306,0.03531,0.36021,0.91902,0.205,0.34197,0.91254,-0.07319,0.3682,1.42178,0.26068,0.3515,1.44544,-0.10616,0.48901,1.15715,0.33165,0.4617,1.19908,-0.04412,0.59151,1.39389,0.22071,0.55437,1.41475
340,0.08571,0.39007,1.51491,-0.00489,0.46171,0.08001,0.2734,0.11129,0.1257,0.01782,0.46134,0.49612,0.25835,0.32263,0.48272,0.03676,0.3602,0.91896,0.20631,0.3408,0.91237,-0.07174,0.36637,1.42192,0.26216,0.34994,1.44523,-0.10394,0.4883,1.15772,0.33285,0.46178,1.19954,-0.04174,0.58983,1.39483,0.22115,0.55431,1.41488
341,0.08707,0.38858,1.51402,-0.0049,0.46185,0.07993,0.27187,0.10931,0.12353,0.01873,0.46149,0.496,0.25733,0.3174,0.48248,0.03827,0.36,0.91872,0.2077,0.33952,0.91223,-0.06988,0.36435,1.42215,0.26379,0.3483,1.44491,-0.10197,0.48698,1.15825,0.33441,0.46171,1.19991,-0.0398,0.58795,1.39561,0.22166,0.55396,1.41482
342,0.08837,0.38728,1.51319,-0.00492,0.46205,0.0798,0.27053,0.10747,0.12125,0.01986,0.46168,0.49579,0.25659,0.31218,0.48216,0.03965,0.35944,0.91833,0.20897,0.33809,0.91193,-0.06778,0.36224,1.42221,0.26548,0.34673,1.44451,-0.10022,0.48524,1.15853,0.33646,0.46135,1.20018,-0.03799,0.5862,1.39588,0.22245,0.55328,1.41457
343,0.08964,0.38604,1.51245,-0.00491,0.46213,0.0797,0.26914,0.10577,0.11891,0.02099,0.46189,0.49563,0.25596,0.30723,0.48168,0.04086,0.35862,0.91791,0.21009,0.33658,0.91141,-0.06576,0.36021,1.42219,0.26721,0.34516,1.44416,-0.09837,0.48341,1.15862,0.33871,0.46081,1.20047,-0.03579,0.5848,1.3957,0.2235,0.55262,1.41427
344,0.0911,0.38456,1.5119,-0.0049,0.46195,0.07969,0.26737,0.10426,0.11654,0.02197,0.46212,0.49555,0.25523,0.30266,0.48102,0.04204,0.35775,0.91756,0.21118,0.33511,0.91072,-0.06399,0.3584,1.42231,0.269,0.34339,1.44396,-0.09621,0.48168,1.15873,0.34083,0.46033,1.20099,-0.03314,0.58351,1.39548,0.22465,0.55239,1.41415
345,0.09281,0.38274,1.51165,-0.00502,0.46159,0.07969,0.26507,0.10284,0.11418,0.02284,0.46231,0.49549,0.25444,0.29829,0.4803,0.04334,0.35692,0.91722,0.21238,0.33366,0.90997,-0.0623,0.35674,1.4226,0.27096,0.34134,1.44388,-0.09397,0.48,1.15894,0.34281,0.45994,1.20172,-0.03032,0.58182,1.39555,0.22592,0.55235,1.41433
346,0.09463,0.38063,1.51164,-0.00523,0.46126,0.07965,0.26248,0.10143,0.11192,0.02368,0.46229,0.49537,0.2537,0.2938,0.47971,0.04477,0.35596,0.91684,0.21371,0.33205,0.90933,-0.06044,0.35506,1.42279,0.27321,0.3392,1.44376,-0.092,0.4784,1.15916,0.34491,0.45946,1.20237,-0.02754,0.57956,1.39583,0.22751,0.55161,1.41482
347,0.09643,0.37825,1.51173,-0.0053,0.46119,0.07956,0.26006,0.10003,0.10974,0.02457,0.46196,0.49522,0.25304,0.28909,0.47929,0.04628,0.35471,0.91642,0.21513,0.33017,0.90884,-0.05834,0.35315,1.42269,0.27565,0.33714,1.44348,-0.09033,0.4769,1.15931,0.34724,0.45876,1.20274,-0.0248,0.57715,1.39607,0.22955,0.54968,1.41555
348,0.09831,0.37556,1.51177,-0.00514,0.4614,0.07949,0.25799,0.09875,0.10758,0.02555,0.46143,0.49509,0.25245,0.28429,0.47893,0.04784,0.35328,0.91602,0.21659,0.32811,0.90838,-0.05614,0.3509,1.42245,0.27789,0.33499,1.44303,-0.0888,0.47533,1.15946,0.34968,0.45788,1.20299,-0.02218,0.57508,1.39614,0.23183,0.54716,1.41642
349,0.10049,0.37273,1.5117,-0.00485,0.46166,0.07947,0.2562,0.09766,0.10536,0.02667,0.46092,0.49501,0.25204,0.27957,0.47852,0.04947,0.35187,0.91569,0.21811,0.32604,0.90786,-0.05402,0.3484,1.42228,0.27974,0.33245,1.4424,-0.08734,0.47343,1.15966,0.35204,0.45701,1.20339,-0.01979,0.57329,1.39602,0.23408,0.54483,1.41736
350,0.10304,0.37004,1.51147,-0.00462,0.46163,0.07953,0.25445,0.09676,0.10321,0.0279,0.46061,0.49499,0.25189,0.27504,0.47813,0.0512,0.35056,0.91538,0.21972,0.32401,0.90732,-0.05205,0.34598,1.42218,0.2815,0.32957,1.44165,-0.08583,0.47127,1.15975,0.35431,0.45618,1.20387,-0.01753,0.57158,1.3957,0.23646,0.54254,1.4185
351,0.10567,0.36772,1.51104,-0.00453,0.4612,0.07965,0.25258,0.09597,0.10123,0.02915,0.46056,0.49502,0.25188,0.27062,0.47787,0.053,0.34922,0.91504,0.2214,0.32193,0.9069,-0.05025,0.34388,1.42201,0.28356,0.3268,1.44091,-0.08407,0.46928,1.15964,0.35654,0.45512,1.2041,-0.01513,0.56998,1.39524,0.23934,0.53965,1.41981
352,0.10799,0.36578,1.51037,-0.00455,0.46057,0.07976,0.25073,0.0952,0.09941,0.03037,0.46083,0.49503,0.25179,0.26614,0.47774,0.05477,0.34777,0.91456,0.22305,0.3197,0.90663,-0.04849,0.34206,1.42177,0.28595,0.32448,1.44031,-0.0821,0.46767,1.15948,0.3588,0.45352,1.20385,-0.0124,0.56858,1.39476,0.24281,0.5362,1.42092
353,0.10991,0.36398,1.50959,-0.00455,0.46004,0.07976,0.24929,0.09433,0.09767,0.03163,0.46138,0.49492,0.25162,0.26147,0.47769,0.0565,0.34626,0.91385,0.22464,0.31728,0.9064,-0.0466,0.34024,1.42153,0.2885,0.3225,1.43985,-0.08013,0.46619,1.15938,0.36112,0.45138,1.20323,-0.00942,0.56703,1.3944,0.2464,0.53263,1.42152
354,0.11182,0.36179,1.50897,-0.00444,0.45971,0.07962,0.24855,0.09336,0.09598,0.033,0.46204,0.49466,0.25152,0.25669,0.47765,0.05825,0.34473,0.91297,0.22626,0.31484,0.90616,-0.04447,0.33815,1.42131,0.29105,0.32055,1.43938,-0.07833,0.46441,1.15936,0.36348,0.44917,1.20257,-0.00651,0.5649,1.39419,0.24952,0.52913,1.42172
355,0.11407,0.35891,1.5087,-0.0042,0.45953,0.07946,0.24845,0.09239,0.09441,0.03454,0.46254,0.49438,0.25164,0.2521,0.47761,0.0601,0.34309,0.91206,0.22802,0.31256,0.90589,-0.04217,0.33571,1.42121,0.29349,0.31851,1.4388,-0.07661,0.46207,1.15937,0.36581,0.44745,1.20212,-0.00389,0.56214,1.39411,0.25197,0.52557,1.422
356,0.11673,0.35563,1.50866,-0.00384,0.45935,0.07937,0.24875,0.09155,0.09304,0.03619,0.4627,0.49416,0.2521,0.2481,0.47754,0.06204,0.34113,0.91122,0.22997,0.31049,0.90562,-0.03983,0.33316,1.42134,0.29581,0.31636,1.43803,-0.07489,0.45921,1.15944,0.36807,0.44631,1.20189,-0.00149,0.55909,1.39405,0.25415,0.52191,1.42261
357,0.11962,0.35266,1.50864,-0.0033,0.45916,0.07937,0.24917,0.09079,0.09187,0.0379,0.46259,0.49405,0.25283,0.2448,0.47739,0.06405,0.33881,0.91043,0.23205,0.30848,0.90535,-0.03754,0.33078,1.42167,0.29814,0.31404,1.43703,-0.07314,0.45625,1.15957,0.37027,0.44533,1.20159,0.00081,0.55625,1.39394,0.25658,0.51832,1.4233
358,0.12258,0.35032,1.50857,-0.00268,0.45909,0.0794,0.24953,0.08998,0.09083,0.03952,0.46245,0.49398,0.25363,0.24192,0.47717,0.06608,0.33633,0.90964,0.23417,0.30644,0.90506,-0.03526,0.32867,1.42186,0.30061,0.31149,1.4359,-0.07137,0.45385,1.15969,0.37238,0.44397,1.20101,0.003,0.55411,1.39382,0.25929,0.5151,1.42363
359,0.12554,0.34836,1.50847,-0.0022,0.45933,0.07947,0.24979,0.08911,0.08983,0.04084,0.46241,0.49397,0.25433,0.23906,0.47694,0.06812,0.33398,0.90887,0.23628,0.30445,0.90477,-0.03281,0.32665,1.4216,0.30315,0.30894,1.43492,-0.06954,0.45221,1.15969,0.3744,0.44203,1.20022,0.00503,0.55281,1.39361,0.26191,0.51229,1.42342
360,0.12852,0.34627,1.50832,-0.00204,0.45992,0.07962,0.25013,0.08827,0.08885,0.0418,0.46232,0.49403,0.25499,0.23594,0.47683,0.07018,0.33185,0.90822,0.2384,0.30258,0.90452,-0.03011,0.32451,1.42093,0.30561,0.30663,1.43435,-0.06758,0.45075,1.15945,0.37648,0.43956,1.19944,0.00703,0.55194,1.39311,0.26426,0.50969,1.42282
361,0.1315,0.34376,1.50802,-0.00205,0.46065,0.07982,0.25077,0.08743,0.08796,0.04256,0.46193,0.49416,0.25593,0.23248,0.47692,0.07228,0.32978,0.90772,0.24055,0.30072,0.9044,-0.0273,0.32229,1.42032,0.30807,0.30446,1.43415,-0.06546,0.44861,1.15898,0.37877,0.43663,1.19877,0.00918,0.55071,1.39223,0.26659,0.50712,1.42205
362,0.13438,0.34094,1.50761,-0.002,0.46125,0.08002,0.25168,0.0865,0.08716,0.04337,0.46122,0.49427,0.25743,0.22876,0.47714,0.07441,0.32766,0.90729,0.24268,0.29859,0.90439,-0.02466,0.32013,1.42025,0.31063,0.30208,1.43401,-0.06328,0.44536,1.15845,0.38115,0.43348,1.19815,0.0115,0.54871,1.39111,0.26918,0.50472,1.4213
363,0.13701,0.33798,1.50729,-0.00179,0.46151,0.0802,0.25257,0.08554,0.08635,0.04439,0.46042,0.49436,0.25937,0.22489,0.47737,0.0765,0.32542,0.90683,0.24473,0.29605,0.9044,-0.02233,0.31795,1.42074,0.3132,0.29939,1.43369,-0.06118,0.44129,1.15809,0.38325,0.43057,1.19756,0.01389,0.54625,1.38993,0.27197,0.50266,1.42079
364,0.13935,0.33492,1.50723,-0.00149,0.46144,0.08044,0.25318,0.08465,0.08543,0.04563,0.45976,0.49449,0.26134,0.22096,0.47749,0.07851,0.32306,0.90633,0.24664,0.2931,0.90435,-0.02017,0.31557,1.4214,0.31556,0.29668,1.43317,-0.05915,0.4371,1.15792,0.38492,0.42818,1.19702,0.01622,0.54396,1.38879,0.27479,0.50089,1.42061
365,0.14151,0.33183,1.50736,-0.00117,0.46129,0.0808,0.2536,0.08378,0.08444,0.04707,0.45927,0.49472,0.26289,0.21727,0.47745,0.08044,0.32058,0.90586,0.24845,0.28994,0.90423,-0.01795,0.31306,1.42175,0.31772,0.29428,1.43265,-0.05708,0.43342,1.15776,0.38649,0.42605,1.19647,0.01825,0.54202,1.38784,0.27763,0.49914,1.42057
366,0.14371,0.32901,1.50743,-0.00083,0.46134,0.08128,0.25395,0.08289,0.08352,0.04861,0.45885,0.49506,0.26393,0.21417,0.47725,0.08227,0.31802,0.90545,0.25017,0.28678,0.90407,-0.01551,0.31069,1.42172,0.31988,0.29213,1.43236,-0.05491,0.43042,1.15748,0.38837,0.42358,1.19592,0.01998,0.54009,1.38719,0.28057,0.49724,1.42034
367,0.14619,0.32664,1.50735,-0.00047,0.46166,0.08187,0.25424,0.08197,0.08273,0.0501,0.45844,0.49551,0.26477,0.21166,0.47697,0.08402,0.31546,0.90513,0.25183,0.28373,0.90391,-0.01292,0.30868,1.42157,0.32214,0.28977,1.43226,-0.05275,0.42789,1.15716,0.39068,0.42042,1.19539,0.02184,0.53789,1.38681,0.28355,0.49519,1.41977
368,0.149,0.32454,1.50724,-7e-05,0.4622,0.0826,0.25435,0.08106,0.08205,0.05151,0.45806,0.4961,0.26574,0.20933,0.47673,0.0857,0.31294,0.90494,0.25342,0.2807,0.9038,-0.01037,0.30701,1.4216,0.3244,0.28678,1.43205,-0.05076,0.42551,1.15696,0.39311,0.41673,1.19485,0.02411,0.53547,1.38654,0.28644,0.4931,1.41889
369,0.15197,0.32235,1.50724,0.00029,0.46282,0.08344,0.25431,0.08023,0.08144,0.05292,0.45762,0.4968,0.26694,0.20687,0.47661,0.0874,0.31031,0.90484,0.25501,0.27751,0.90381,-0.0081,0.30549,1.42186,0.32655,0.28337,1.43152,-0.04898,0.42307,1.15689,0.39524,0.41304,1.19416,0.02647,0.53295,1.38631,0.28913,0.49109,1.4179
370,0.15488,0.31993,1.50733,0.00054,0.46346,0.08435,0.25423,0.07958,0.08092,0.05433,0.45706,0.49755,0.26822,0.2043,0.47665,0.08919,0.3074,0.90469,0.25671,0.27412,0.904,-0.00624,0.30393,1.42218,0.32859,0.28012,1.43084,-0.04724,0.42056,1.15681,0.39687,0.40982,1.19338,0.02842,0.53046,1.38615,0.29159,0.48937,1.41698
371,0.15753,0.31746,1.50744,0.00067,0.46406,0.08529,0.25417,0.07918,0.08053,0.05556,0.45649,0.49832,0.26937,0.20178,0.47689,0.09105,0.3043,0.90448,0.25849,0.2707,0.9044,-0.00471,0.3022,1.42246,0.33068,0.27736,1.43035,-0.04525,0.41811,1.1567,0.39826,0.40705,1.19269,0.03027,0.52822,1.38599,0.29375,0.48818,1.41609
372,0.15996,0.31509,1.50753,0.00081,0.46459,0.08631,0.25412,0.07895,0.0803,0.05643,0.45603,0.49922,0.2703,0.19936,0.47728,0.09288,0.30125,0.90431,0.26027,0.26739,0.90496,-0.00319,0.30022,1.42281,0.33298,0.27491,1.43032,-0.04289,0.41575,1.15675,0.39975,0.40422,1.19221,0.03263,0.5262,1.38588,0.29556,0.48744,1.41499
373,0.16234,0.31288,1.50768,0.00109,0.46517,0.08751,0.25406,0.07876,0.08022,0.05699,0.45558,0.50036,0.27114,0.19704,0.47781,0.0947,0.29833,0.90439,0.26204,0.26422,0.90564,-0.00124,0.29794,1.42333,0.33546,0.27248,1.4307,-0.0403,0.41333,1.15712,0.40147,0.4008,1.19186,0.03529,0.52381,1.3862,0.29715,0.48657,1.4136
374,0.16477,0.31078,1.50799,0.00166,0.46596,0.08894,0.25409,0.07858,0.0803,0.05749,0.45499,0.50178,0.2721,0.19484,0.47844,0.09659,0.29541,0.90475,0.26391,0.2612,0.90642,0.00114,0.29538,1.42394,0.33786,0.26997,1.43122,-0.03777,0.41069,1.15767,0.4035,0.39665,1.1914,0.03751,0.52057,1.38715,0.29897,0.48478,1.41212
375,0.1671,0.3088,1.50836,0.00262,0.46693,0.09054,0.25432,0.07842,0.08049,0.05817,0.45422,0.50336,0.27329,0.19275,0.47915,0.09854,0.29232,0.90528,0.26589,0.25832,0.90726,0.00359,0.29263,1.42447,0.34006,0.26747,1.43152,-0.03556,0.40779,1.15817,0.4059,0.39197,1.19061,0.03919,0.51679,1.38824,0.30151,0.48178,1.41072
376,0.16917,0.30684,1.5087,0.00383,0.46779,0.09218,0.2548,0.07829,0.08067,0.05902,0.45335,0.50499,0.27453,0.19078,0.47981,0.10041,0.28904,0.90582,0.26786,0.25548,0.90806,0.00579,0.28979,1.42486,0.34219,0.26516,1.43152,-0.03375,0.40475,1.15853,0.4085,0.38725,1.18951,0.04093,0.51328,1.38884,0.30469,0.47807,1.40948
377,0.17109,0.30476,1.50903,0.00497,0.4683,0.09378,0.25541,0.07817,0.08072,0.05991,0.45248,0.50658,0.2756,0.18897,0.48031,0.10207,0.28572,0.90632,0.26961,0.25264,0.90874,0.00772,0.28706,1.42524,0.34442,0.26312,1.43144,-0.03228,0.40193,1.15895,0.41083,0.38324,1.18847,0.04321,0.51064,1.38891,0.30781,0.47466,1.40856
378,0.17315,0.30259,1.50947,0.00586,0.46853,0.09536,0.25594,0.07802,0.0807,0.06069,0.45164,0.50812,0.27646,0.18728,0.48069,0.10344,0.28269,0.90688,0.27102,0.24988,0.90928,0.00951,0.28477,1.42576,0.34664,0.26114,1.43153,-0.03089,0.39962,1.15951,0.41262,0.38035,1.188,0.04575,0.50858,1.38898,0.31017,0.47221,1.40817
379,0.17549,0.30051,1.51008,0.00666,0.46869,0.09687,0.25624,0.07776,0.08071,0.06133,0.45086,0.50962,0.27715,0.18556,0.48109,0.10458,0.28012,0.90756,0.27216,0.24722,0.90982,0.01123,0.28313,1.42636,0.34872,0.25888,1.43182,-0.02931,0.39768,1.16001,0.41409,0.37814,1.18815,0.04774,0.50611,1.38958,0.31181,0.47036,1.40824
380,0.17795,0.29867,1.51073,0.00764,0.46889,0.09834,0.25627,0.07739,0.08086,0.06188,0.45025,0.51111,0.27771,0.18377,0.48159,0.10567,0.27791,0.9083,0.27319,0.24469,0.91043,0.01299,0.282,1.42699,0.35066,0.25622,1.43219,-0.02745,0.39558,1.16021,0.41567,0.37582,1.18858,0.04877,0.50256,1.39074,0.31342,0.46826,1.4086
381,0.18018,0.29696,1.51129,0.00877,0.46904,0.09983,0.2561,0.07709,0.08112,0.06252,0.44997,0.51264,0.27819,0.18205,0.48218,0.10682,0.27584,0.909,0.27428,0.24234,0.91112,0.0149,0.28104,1.42766,0.35253,0.25344,1.43266,-0.02544,0.39318,1.16026,0.41755,0.37324,1.18916,0.04948,0.49837,1.39204,0.31538,0.46559,1.40926
382,0.18205,0.29513,1.51181,0.00976,0.469,0.10136,0.25582,0.077,0.08132,0.06337,0.44995,0.51419,0.27869,0.18033,0.48276,0.10799,0.27377,0.90961,0.27543,0.24019,0.91176,0.01706,0.27992,1.42836,0.35441,0.25092,1.43331,-0.02354,0.39093,1.16052,0.41954,0.37086,1.18991,0.05099,0.49456,1.39313,0.31745,0.46265,1.41028
383,0.18367,0.29302,1.51235,0.01041,0.4687,0.10283,0.2556,0.07703,0.08136,0.06442,0.44984,0.51562,0.27926,0.17847,0.48324,0.10906,0.27167,0.91014,0.27652,0.23822,0.91226,0.01929,0.27849,1.429,0.35637,0.24883,1.43395,-0.02196,0.38924,1.16115,0.42133,0.36902,1.19062,0.05339,0.49163,1.39404,0.3193,0.45977,1.41145
384,0.18517,0.29077,1.51289,0.01085,0.46826,0.10411,0.25555,0.077,0.08128,0.06548,0.44933,0.51681,0.27982,0.17648,0.48361,0.11001,0.26968,0.91067,0.27753,0.23646,0.9126,0.02122,0.27683,1.42953,0.35846,0.24714,1.43426,-0.02081,0.38804,1.16199,0.42275,0.36759,1.19089,0.05572,0.48933,1.39499,0.32097,0.45695,1.4124
385,0.18664,0.28862,1.51336,0.01136,0.46775,0.10515,0.25569,0.07685,0.08119,0.06637,0.44849,0.51779,0.28032,0.17465,0.48391,0.11097,0.26802,0.91126,0.27852,0.23499,0.91286,0.02253,0.27506,1.43006,0.36055,0.24565,1.4343,-0.01996,0.38704,1.16292,0.4239,0.36627,1.19076,0.05755,0.48744,1.39597,0.32265,0.45426,1.41306
386,0.18819,0.28663,1.51377,0.01211,0.46707,0.10596,0.25592,0.07667,0.08119,0.06706,0.44766,0.5186,0.28081,0.17318,0.48421,0.11199,0.26674,0.91183,0.27955,0.23377,0.91312,0.02336,0.27318,1.43069,0.36232,0.24418,1.43442,-0.01915,0.38608,1.16394,0.42493,0.36492,1.19076,0.05948,0.48608,1.39679,0.32431,0.45189,1.41374
387,0.18987,0.28464,1.51415,0.01305,0.466,0.10657,0.2561,0.07654,0.08126,0.0677,0.44707,0.51927,0.28138,0.172,0.48451,0.11301,0.26563,0.91222,0.28055,0.23251,0.91343,0.02416,0.27116,1.43142,0.36363,0.24262,1.4349,-0.01818,0.38497,1.16503,0.42595,0.36349,1.19123,0.06175,0.48503,1.39741,0.32587,0.44986,1.41469
388,0.1916,0.28253,1.5145,0.01405,0.46445,0.10707,0.25615,0.07652,0.08129,0.06852,0.44668,0.51984,0.28195,0.17088,0.48476,0.11391,0.2644,0.91239,0.2814,0.23103,0.91373,0.02537,0.26905,1.43214,0.36462,0.24099,1.43561,-0.01707,0.38344,1.16602,0.427,0.36189,1.19196,0.06351,0.48356,1.39814,0.32736,0.44784,1.41577
389,0.19336,0.28043,1.51484,0.01498,0.46248,0.10756,0.25618,0.07648,0.0812,0.06963,0.4463,0.52038,0.28235,0.1697,0.48491,0.11464,0.263,0.9125,0.28208,0.22938,0.91395,0.02701,0.26701,1.43279,0.36564,0.2393,1.43625,-0.01594,0.38147,1.16677,0.4281,0.36012,1.19259,0.06389,0.48117,1.39934,0.32879,0.44557,1.41674
390,0.19517,0.27847,1.51521,0.01575,0.46022,0.10803,0.25631,0.07627,0.08104,0.07091,0.44582,0.52085,0.28251,0.16852,0.48497,0.11523,0.26164,0.91263,0.28261,0.22776,0.91407,0.02884,0.26512,1.43329,0.36683,0.23744,1.43664,-0.01488,0.37942,1.16733,0.42923,0.35841,1.19303,0.06319,0.47822,1.40088,0.33016,0.44315,1.41756
391,0.19682,0.27673,1.51551,0.01627,0.45778,0.10836,0.25649,0.07587,0.08091,0.0721,0.44533,0.52115,0.28259,0.16748,0.48499,0.11578,0.26057,0.91273,0.28311,0.22638,0.91414,0.03054,0.2634,1.43366,0.3681,0.23538,1.43671,-0.01391,0.37777,1.16785,0.43031,0.35704,1.1934,0.06257,0.47569,1.4023,0.33151,0.44086,1.41839
392,0.19801,0.27518,1.51557,0.01643,0.45532,0.10843,0.25656,0.07551,0.08085,0.07295,0.44487,0.52118,0.28283,0.16669,0.48502,0.11644,0.2599,0.91268,0.28369,0.22534,0.9142,0.03195,0.26179,1.43399,0.3692,0.23336,1.4365,-0.01305,0.37678,1.16854,0.43126,0.35614,1.19371,0.06292,0.47432,1.40331,0.3329,0.43887,1.4193
393,0.19872,0.27371,1.5154,0.0163,0.4531,0.10823,0.2565,0.0754,0.08087,0.07348,0.44428,0.52093,0.28335,0.16628,0.48507,0.11718,0.25953,0.91251,0.28435,0.2246,0.91429,0.0331,0.26026,1.43437,0.37008,0.23156,1.43605,-0.01236,0.37645,1.16952,0.4321,0.35566,1.19392,0.06432,0.47401,1.40405,0.33429,0.4372,1.42019
394,0.19937,0.27208,1.5152,0.01614,0.45123,0.10786,0.25654,0.07548,0.08096,0.0739,0.44333,0.52049,0.2841,0.16626,0.48514,0.11787,0.25929,0.91239,0.28496,0.22401,0.91444,0.03402,0.25885,1.43476,0.371,0.22979,1.43555,-0.01185,0.37657,1.17066,0.43299,0.3553,1.19415,0.06614,0.47406,1.40479,0.33551,0.43575,1.42095
395,0.20028,0.27017,1.51515,0.01618,0.44962,0.10743,0.25685,0.07552,0.08107,0.07442,0.44199,0.52,0.28481,0.16647,0.48518,0.11839,0.25901,0.91238,0.28541,0.22338,0.9146,0.03476,0.25771,1.43507,0.37212,0.22787,1.43524,-0.01146,0.37673,1.17162,0.43397,0.35491,1.1946,0.06729,0.47378,1.40567,0.3363,0.43464,1.42157
396,0.20134,0.26823,1.51523,0.01635,0.44833,0.10699,0.25728,0.07548,0.08111,0.07501,0.44044,0.51949,0.28519,0.16668,0.48516,0.11878,0.25864,0.91245,0.28571,0.22262,0.91471,0.03548,0.25692,1.43525,0.37325,0.22589,1.43519,-0.01111,0.37656,1.17215,0.43476,0.3546,1.19535,0.0672,0.47301,1.40659,0.3365,0.4343,1.42208
397,0.20228,0.26671,1.51531,0.01641,0.44754,0.10653,0.25751,0.07545,0.08105,0.07551,0.43886,0.51896,0.2852,0.16688,0.48507,0.11916,0.25832,0.9125,0.286,0.22186,0.91474,0.0363,0.25639,1.43526,0.37408,0.22406,1.43534,-0.01074,0.37602,1.17223,0.43506,0.35453,1.19632,0.06633,0.47212,1.40724,0.3362,0.43498,1.42251
398,0.20307,0.26572,1.51532,0.0162,0.44724,0.10605,0.2574,0.07547,0.08096,0.07583,0.43739,0.51837,0.28515,0.16712,0.48493,0.11969,0.25821,0.91252,0.28642,0.22128,0.9147,0.03717,0.25592,1.43516,0.37451,0.22253,1.43558,-0.01029,0.3754,1.17214,0.43517,0.35452,1.19731,0.06569,0.47148,1.40751,0.33579,0.43611,1.42287
399,0.20386,0.26478,1.51529,0.01559,0.44715,0.1056,0.25703,0.07552,0.08087,0.07602,0.43614,0.51778,0.28532,0.16736,0.48475,0.1204,0.2583,0.91248,0.28704,0.22097,0.91459,0.03785,0.25533,1.43514,0.37467,0.2213,1.43587,-0.00984,0.37503,1.17226,0.43573,0.35419,1.1982,0.066,0.47118,1.40764,0.33577,0.43662,1.4232
400,0.20463,0.26344,1.51522,0.01459,0.44703,0.10522,0.25656,0.07555,0.08074,0.07614,0.43518,0.51721,0.28572,0.1675,0.48453,0.12114,0.25843,0.91233,0.28774,0.2209,0.91439,0.03822,0.25452,1.4354,0.37481,0.22023,1.43608,-0.00952,0.37489,1.17283,0.43688,0.35345,1.19886,0.06719,0.47104,1.40793,0.33622,0.43612,1.42346
401,0.20521,0.26182,1.51503,0.01332,0.44684,0.10488,0.25616,0.07561,0.08056,0.07609,0.43442,0.51667,0.28625,0.16757,0.48429,0.12183,0.25843,0.91204,0.28843,0.22095,0.91415,0.03839,0.25354,1.43589,0.37506,0.21935,1.43609,-0.00929,0.37467,1.17366,0.4381,0.35264,1.19917,0.06859,0.47084,1.40837,0.33683,0.43522,1.42353
402,0.20547,0.2605,1.51464,0.01196,0.44663,0.10452,0.25587,0.07578,0.0804,0.07575,0.43373,0.51614,0.28677,0.16773,0.48407,0.12249,0.25828,0.91164,0.28913,0.22095,0.91395,0.03856,0.2525,1.43629,0.37538,0.21883,1.43595,-0.009,0.37415,1.17428,0.43889,0.35207,1.19913,0.0695,0.47049,1.40871,0.33739,0.43453,1.42342
403,0.20552,0.25974,1.51417,0.0106,0.44641,0.10413,0.25569,0.076,0.08029,0.07515,0.43305,0.51561,0.28726,0.16813,0.48386,0.12319,0.25813,0.91118,0.28985,0.2209,0.9138,0.03883,0.25151,1.4363,0.37566,0.21868,1.43587,-0.00868,0.3734,1.1744,0.43924,0.35172,1.19896,0.0697,0.47,1.40876,0.33783,0.43416,1.4233
404,0.20556,0.2593,1.51383,0.00926,0.44618,0.1037,0.25557,0.07611,0.08017,0.07443,0.43245,0.51507,0.2877,0.16874,0.48359,0.12389,0.25816,0.91075,0.29056,0.22101,0.91358,0.03919,0.25061,1.43596,0.37586,0.21864,1.43599,-0.00849,0.37263,1.17414,0.43939,0.35151,1.19896,0.06944,0.46932,1.40862,0.33793,0.4342,1.42319
405,0.2056,0.25875,1.51374,0.00796,0.44598,0.10327,0.25547,0.07607,0.08002,0.07366,0.43201,0.51455,0.2881,0.16946,0.48322,0.12442,0.25844,0.91038,0.29114,0.2215,0.91324,0.03945,0.2498,1.43558,0.37595,0.21854,1.4361,-0.00846,0.37191,1.17385,0.43947,0.35147,1.1991,0.06902,0.46842,1.40855,0.33771,0.43472,1.42299
406,0.20545,0.25799,1.51372,0.00664,0.44586,0.10293,0.25542,0.07599,0.07988,0.07288,0.43184,0.51412,0.2884,0.17026,0.48285,0.12469,0.2589,0.91009,0.2915,0.22235,0.91286,0.03936,0.24889,1.43536,0.37593,0.2185,1.43588,-0.00844,0.3712,1.17371,0.43957,0.35169,1.19907,0.06871,0.46747,1.40861,0.33753,0.4354,1.42266
407,0.20501,0.2573,1.51348,0.00514,0.44574,0.10273,0.2554,0.076,0.07984,0.07217,0.43184,0.5138,0.28852,0.17109,0.4826,0.12483,0.25946,0.9099,0.29173,0.22335,0.91259,0.03882,0.24773,1.43515,0.37582,0.21866,1.43535,-0.00834,0.37046,1.17357,0.43972,0.35228,1.19885,0.06861,0.46647,1.40865,0.33754,0.43592,1.4224
408,0.20439,0.257,1.51294,0.00339,0.44547,0.10257,0.25537,0.07608,0.0799,0.07152,0.43174,0.51347,0.28851,0.17185,0.4825,0.12505,0.26014,0.90979,0.29202,0.22434,0.91247,0.03806,0.24641,1.43463,0.37568,0.21901,1.4348,-0.00825,0.36966,1.17315,0.43983,0.3533,1.19874,0.06841,0.46503,1.40858,0.33746,0.43643,1.42239
409,0.20389,0.25696,1.51233,0.0016,0.44503,0.10228,0.25533,0.07614,0.08001,0.0708,0.43133,0.513,0.28852,0.17255,0.48245,0.12543,0.26108,0.90975,0.29242,0.22538,0.91237,0.03753,0.24528,1.43373,0.37553,0.21954,1.43452,-0.00834,0.36885,1.17232,0.43986,0.35465,1.19897,0.06758,0.46284,1.40854,0.33701,0.43706,1.42267
410,0.20371,0.25685,1.51189,-1e-05,0.44457,0.10177,0.25535,0.07616,0.08007,0.0699,0.43068,0.51237,0.28866,0.17328,0.48233,0.12586,0.26235,0.90976,0.29286,0.22667,0.91218,0.03749,0.2445,1.43272,0.3756,0.22031,1.43454,-0.00869,0.36808,1.17137,0.43979,0.35615,1.19939,0.06615,0.46032,1.40863,0.33629,0.43759,1.42314
411,0.20385,0.2565,1.51169,-0.00142,0.44422,0.10115,0.25547,0.07616,0.08009,0.06889,0.43002,0.51166,0.28892,0.17406,0.48216,0.12624,0.26381,0.90974,0.29328,0.22827,0.9119,0.03774,0.24375,1.43187,0.37613,0.22126,1.43479,-0.0092,0.36731,1.17064,0.43958,0.3577,1.19978,0.06477,0.45825,1.40868,0.33538,0.43809,1.42359
412,0.20401,0.25597,1.51161,-0.00275,0.44403,0.10045,0.25565,0.07617,0.08011,0.06789,0.42943,0.5109,0.28921,0.17489,0.48196,0.12656,0.26509,0.90956,0.29369,0.23002,0.91158,0.03781,0.24267,1.43119,0.37702,0.22215,1.43505,-0.00973,0.36636,1.17013,0.43921,0.35938,1.20016,0.06401,0.45669,1.40847,0.33426,0.43899,1.4239
413,0.20388,0.25541,1.51154,-0.00408,0.44404,0.09961,0.25578,0.0762,0.08017,0.06696,0.42877,0.50997,0.28946,0.17577,0.4818,0.12683,0.26597,0.90908,0.29413,0.23172,0.91132,0.03761,0.24144,1.4306,0.37775,0.22281,1.43502,-0.01022,0.36498,1.16952,0.43885,0.36126,1.20056,0.06358,0.45495,1.40798,0.33316,0.44017,1.4242
414,0.20331,0.25492,1.51144,-0.00536,0.44421,0.09855,0.25584,0.07624,0.08029,0.06613,0.42789,0.50879,0.28966,0.17655,0.48172,0.12709,0.2666,0.90835,0.29456,0.23327,0.91113,0.03751,0.2406,1.43008,0.37795,0.22342,1.43459,-0.01074,0.36323,1.16866,0.43866,0.36329,1.20088,0.06272,0.4527,1.40741,0.33247,0.44103,1.42469
415,0.20235,0.25461,1.5113,-0.00657,0.44453,0.09737,0.25587,0.07633,0.08038,0.0655,0.42678,0.50744,0.28981,0.17706,0.4817,0.1273,0.26728,0.90759,0.29493,0.23478,0.91098,0.03763,0.24031,1.42962,0.37761,0.22429,1.43391,-0.01132,0.36163,1.16772,0.43835,0.36568,1.20111,0.0611,0.45064,1.40695,0.33198,0.44177,1.4254
416,0.20123,0.25451,1.51111,-0.00768,0.44503,0.09627,0.25591,0.07647,0.08036,0.06507,0.42555,0.50614,0.2899,0.1774,0.48163,0.12741,0.26826,0.90708,0.29518,0.2365,0.91072,0.03745,0.24022,1.42918,0.37694,0.22563,1.43323,-0.01192,0.36077,1.167,0.43731,0.36891,1.2015,0.05912,0.44957,1.40672,0.33079,0.44315,1.42634
417,0.2001,0.25449,1.51094,-0.00861,0.44572,0.09539,0.25601,0.07661,0.08028,0.06474,0.42437,0.50506,0.28989,0.17786,0.48147,0.12742,0.26963,0.90695,0.29533,0.2386,0.91033,0.03646,0.23985,1.42871,0.37619,0.22737,1.4328,-0.01236,0.36074,1.16658,0.43535,0.37304,1.20225,0.05711,0.4492,1.40689,0.32851,0.44516,1.42762
418,0.19895,0.25441,1.51087,-0.00926,0.44656,0.0946,0.25611,0.07672,0.08025,0.06435,0.42339,0.50413,0.28974,0.17866,0.48129,0.12739,0.2713,0.90696,0.29544,0.24101,0.90991,0.03486,0.23915,1.42821,0.37558,0.22936,1.43276,-0.01249,0.36109,1.1663,0.43304,0.37728,1.20321,0.05506,0.44867,1.40747,0.32584,0.44695,1.42919
419,0.19774,0.25438,1.5108,-0.00964,0.44742,0.09367,0.25608,0.07685,0.08031,0.06386,0.42278,0.50313,0.28946,0.17969,0.48115,0.12737,0.27303,0.90677,0.29556,0.24348,0.90955,0.03337,0.23833,1.4277,0.37523,0.23144,1.433,-0.0124,0.36114,1.16591,0.431,0.38091,1.20405,0.05304,0.44774,1.40802,0.32366,0.44813,1.43069
420,0.19659,0.25474,1.51058,-0.00991,0.44827,0.09256,0.25591,0.0771,0.0804,0.06334,0.42248,0.50199,0.28911,0.18082,0.48102,0.12735,0.27467,0.90626,0.29565,0.2458,0.90924,0.03249,0.23773,1.4271,0.375,0.23358,1.43321,-0.01245,0.36053,1.16516,0.42932,0.38421,1.20466,0.05119,0.4467,1.40791,0.32197,0.44927,1.43194
421,0.19556,0.25563,1.51017,-0.01018,0.44913,0.09134,0.25572,0.07747,0.08045,0.06277,0.42226,0.50076,0.28878,0.18196,0.48088,0.12726,0.27618,0.90559,0.29564,0.24786,0.90896,0.03209,0.23758,1.4263,0.37467,0.23581,1.4331,-0.01289,0.35936,1.16389,0.42781,0.38796,1.20529,0.04949,0.44572,1.40689,0.32026,0.451,1.43304
422,0.1945,0.25679,1.50969,-0.01036,0.44986,0.09012,0.25558,0.07779,0.08049,0.06204,0.42187,0.49956,0.28855,0.18308,0.48072,0.12702,0.27755,0.90493,0.29548,0.24968,0.90868,0.03171,0.2379,1.42536,0.37414,0.23804,1.43268,-0.01363,0.3582,1.16234,0.42656,0.39232,1.20613,0.04815,0.44493,1.40537,0.31827,0.45326,1.4341
423,0.19333,0.25776,1.50926,-0.0103,0.45021,0.08889,0.25557,0.07784,0.08054,0.06113,0.42132,0.49843,0.28848,0.18406,0.48052,0.12667,0.27883,0.90437,0.29519,0.25142,0.90837,0.03106,0.23825,1.42455,0.37342,0.2401,1.43215,-0.01442,0.35756,1.1611,0.4257,0.39663,1.20712,0.04747,0.44461,1.40398,0.31611,0.45549,1.43501
424,0.19215,0.25846,1.50889,-0.01,0.45004,0.08766,0.25579,0.07762,0.08055,0.06022,0.4208,0.49739,0.28848,0.18476,0.48031,0.12624,0.28013,0.90388,0.29485,0.25329,0.90798,0.03019,0.23816,1.42392,0.37254,0.24189,1.43173,-0.01523,0.35735,1.16041,0.42512,0.40022,1.20804,0.04703,0.44451,1.40316,0.31405,0.45702,1.43574
425,0.19113,0.25916,1.50848,-0.00959,0.44947,0.0865,0.2563,0.07735,0.08055,0.05947,0.42054,0.49645,0.28836,0.18525,0.48016,0.12575,0.28157,0.90348,0.29449,0.25549,0.90756,0.02932,0.23774,1.42325,0.37142,0.24363,1.4316,-0.01627,0.357,1.15979,0.42469,0.40287,1.20872,0.04589,0.44384,1.40268,0.31236,0.45765,1.43629
426,0.19036,0.26017,1.50802,-0.00911,0.44875,0.0855,0.25697,0.07726,0.08064,0.05882,0.4206,0.49569,0.28796,0.18588,0.48014,0.1252,0.28315,0.90322,0.29407,0.25797,0.90723,0.02851,0.23764,1.42234,0.37003,0.24557,1.43184,-0.01768,0.3564,1.15876,0.42434,0.40487,1.20925,0.04372,0.44251,1.4021,0.311,0.45802,1.43672
427,0.1897,0.26159,1.50767,-0.00848,0.44808,0.08468,0.2576,0.07744,0.08093,0.05816,0.42087,0.49515,0.28728,0.18702,0.48027,0.12458,0.28471,0.90311,0.29359,0.26047,0.90712,0.02763,0.23833,1.4214,0.3686,0.24778,1.43222,-0.01932,0.35613,1.15753,0.42377,0.40706,1.20983,0.0411,0.4416,1.40134,0.30954,0.45912,1.4371
428,0.1888,0.26329,1.50753,-0.00769,0.4476,0.08403,0.2581,0.07782,0.08138,0.05763,0.42124,0.49476,0.28654,0.18859,0.48048,0.12397,0.28605,0.90306,0.29311,0.26277,0.9072,0.02651,0.2396,1.4207,0.36736,0.25026,1.43226,-0.0209,0.35665,1.15658,0.42249,0.4103,1.21041,0.03866,0.44188,1.40069,0.30767,0.46132,1.43762
429,0.18743,0.2651,1.5075,-0.00691,0.44743,0.08346,0.25843,0.07829,0.08186,0.05748,0.42159,0.49438,0.28597,0.19025,0.48069,0.12338,0.2871,0.90297,0.29265,0.26486,0.90733,0.02523,0.24091,1.42014,0.36626,0.25298,1.43179,-0.02228,0.35765,1.1559,0.42044,0.41459,1.21084,0.03633,0.44277,1.40027,0.30548,0.46411,1.43831
430,0.1857,0.26691,1.50736,-0.00634,0.44756,0.08292,0.25861,0.07878,0.08226,0.05766,0.42173,0.4939,0.28562,0.1917,0.48085,0.12274,0.28815,0.90293,0.29214,0.26693,0.90738,0.02406,0.2419,1.41944,0.36512,0.25575,1.43116,-0.02359,0.35851,1.15517,0.41824,0.41899,1.21116,0.03382,0.44341,1.3999,0.30311,0.46681,1.4389
431,0.18396,0.2687,1.50703,-0.00607,0.44784,0.08251,0.25874,0.07923,0.08263,0.05783,0.42165,0.49348,0.28535,0.193,0.48101,0.12195,0.28946,0.90311,0.29147,0.26914,0.90739,0.02312,0.24262,1.41876,0.36394,0.25843,1.43073,-0.02495,0.3591,1.1545,0.41623,0.42288,1.21143,0.03126,0.44408,1.39949,0.30048,0.46934,1.43914
432,0.18253,0.27041,1.50669,-0.0061,0.44809,0.08235,0.25895,0.07959,0.0831,0.05769,0.42171,0.49332,0.28497,0.19436,0.48123,0.12096,0.29106,0.90358,0.29058,0.27154,0.90743,0.02227,0.24329,1.4186,0.36293,0.2611,1.43055,-0.02625,0.35974,1.15441,0.41419,0.42641,1.21165,0.02927,0.44562,1.39925,0.2976,0.47198,1.43912
433,0.18136,0.27192,1.50664,-0.00641,0.44818,0.08242,0.25923,0.07979,0.08373,0.05716,0.42227,0.49346,0.28439,0.19593,0.48151,0.11983,0.29286,0.9042,0.28954,0.27406,0.90755,0.02129,0.24403,1.41915,0.36211,0.26377,1.43058,-0.0273,0.36077,1.1551,0.41197,0.42971,1.21183,0.02818,0.44805,1.39945,0.29472,0.47482,1.43905
434,0.18004,0.27327,1.50699,-0.00696,0.44802,0.08256,0.25945,0.07993,0.08441,0.05627,0.42325,0.49373,0.28374,0.19769,0.48178,0.11861,0.29488,0.90484,0.28838,0.27658,0.90768,0.02007,0.2448,1.41998,0.36106,0.26632,1.43095,-0.02819,0.36229,1.15621,0.40999,0.43245,1.21215,0.0276,0.45055,1.40013,0.29198,0.47766,1.43895
435,0.17827,0.27472,1.50761,-0.00767,0.44763,0.08261,0.25957,0.08019,0.08505,0.05515,0.42434,0.49392,0.2832,0.19944,0.48201,0.11724,0.29705,0.90542,0.28705,0.27895,0.90781,0.01859,0.24559,1.42059,0.35935,0.26878,1.43177,-0.02923,0.36411,1.1572,0.40851,0.43454,1.21273,0.02693,0.45251,1.40099,0.28924,0.48035,1.43875
436,0.17622,0.27655,1.50825,-0.00842,0.44722,0.08255,0.25981,0.0806,0.08559,0.05403,0.42532,0.49399,0.28288,0.20104,0.48223,0.11578,0.29919,0.90589,0.28559,0.28111,0.90792,0.017,0.24664,1.42083,0.35704,0.27144,1.43287,-0.03057,0.36593,1.15774,0.40718,0.43638,1.21344,0.02582,0.45398,1.4016,0.28626,0.4828,1.43845
437,0.17419,0.27878,1.50881,-0.00903,0.44707,0.08243,0.26036,0.08097,0.08609,0.05315,0.42623,0.49397,0.28278,0.20256,0.48241,0.11438,0.30105,0.90623,0.28421,0.28312,0.90802,0.01551,0.24818,1.42092,0.35465,0.2745,1.43395,-0.03218,0.36749,1.15787,0.40554,0.43844,1.21393,0.02416,0.45524,1.40185,0.28304,0.48505,1.43806
438,0.1722,0.28122,1.50933,-0.00943,0.4473,0.08229,0.26115,0.08121,0.08666,0.05265,0.42723,0.49389,0.28276,0.20425,0.48258,0.11317,0.30267,0.90644,0.28305,0.28514,0.90813,0.01425,0.2501,1.4211,0.3526,0.2778,1.43474,-0.03394,0.36875,1.15784,0.40355,0.44077,1.21403,0.02197,0.45654,1.4019,0.27977,0.48723,1.43748
439,0.1701,0.28366,1.50982,-0.00965,0.44786,0.08215,0.26189,0.08146,0.08735,0.05238,0.4284,0.49378,0.28259,0.20623,0.48277,0.11201,0.30436,0.90662,0.28195,0.28741,0.90826,0.0131,0.25193,1.4214,0.3509,0.28098,1.43529,-0.03571,0.36987,1.15793,0.40147,0.44308,1.21384,0.01953,0.45825,1.40193,0.27664,0.4894,1.43674
440,0.16793,0.28597,1.51028,-0.0097,0.44855,0.08201,0.26243,0.08182,0.08812,0.05211,0.42966,0.4937,0.28206,0.20842,0.48302,0.11066,0.30638,0.90693,0.28065,0.28998,0.90844,0.01182,0.25338,1.4218,0.34929,0.28381,1.43588,-0.03734,0.37116,1.15832,0.39952,0.44499,1.21369,0.01743,0.46083,1.40196,0.27371,0.49151,1.43599
441,0.16584,0.28817,1.5107,-0.00943,0.44919,0.08193,0.26285,0.08233,0.08894,0.05176,0.43081,0.49373,0.2812,0.21061,0.48336,0.10902,0.30851,0.90743,0.27906,0.29261,0.90869,0.01026,0.25463,1.42243,0.34763,0.28629,1.43684,-0.03883,0.37285,1.15914,0.39766,0.44643,1.21385,0.01616,0.46426,1.40208,0.2708,0.49385,1.43536
442,0.16388,0.2904,1.51114,-0.00879,0.44963,0.08187,0.26329,0.08297,0.08973,0.05141,0.43162,0.49384,0.28023,0.2127,0.48374,0.10719,0.31041,0.90806,0.27728,0.29502,0.909,0.00845,0.25611,1.42345,0.34596,0.28865,1.43809,-0.04026,0.37497,1.16038,0.39569,0.44785,1.21436,0.01554,0.46788,1.40257,0.26784,0.49671,1.43499
443,0.16198,0.29271,1.51168,-0.00795,0.44981,0.08176,0.26373,0.0837,0.09047,0.05111,0.43204,0.49391,0.27938,0.2147,0.48411,0.10537,0.31213,0.90871,0.27549,0.29711,0.90935,0.00648,0.25802,1.42484,0.3443,0.29108,1.43921,-0.0418,0.37737,1.16191,0.39365,0.44969,1.21499,0.01485,0.47105,1.4036,0.26512,0.49979,1.43494
444,0.16009,0.29498,1.51234,-0.00714,0.44981,0.08155,0.2641,0.08441,0.09122,0.05081,0.43226,0.49386,0.27879,0.21667,0.48447,0.10369,0.31403,0.90933,0.27381,0.29904,0.90971,0.00448,0.2601,1.42632,0.34256,0.29351,1.43992,-0.04364,0.37973,1.16349,0.39175,0.45179,1.21541,0.01362,0.47384,1.40487,0.2629,0.50243,1.43506
445,0.15823,0.29714,1.51302,-0.00648,0.44969,0.08134,0.26428,0.08502,0.09208,0.05043,0.43258,0.49381,0.27843,0.21883,0.48483,0.1021,0.31623,0.90995,0.27221,0.30097,0.9101,0.00264,0.26194,1.42748,0.3406,0.29573,1.4403,-0.04587,0.38183,1.16483,0.38995,0.45366,1.2156,0.01186,0.47667,1.40581,0.26098,0.50444,1.43514
446,0.15636,0.29932,1.51361,-0.00594,0.44946,0.08126,0.2643,0.08554,0.09312,0.04993,0.43309,0.4939,0.27819,0.22141,0.48517,0.10045,0.31846,0.91066,0.27052,0.30291,0.91053,0.001,0.26346,1.42809,0.33837,0.29779,1.44066,-0.04831,0.38374,1.16577,0.38792,0.45522,1.21565,0.00986,0.47967,1.40621,0.259,0.50631,1.43514
447,0.15443,0.30158,1.51413,-0.0055,0.4491,0.08139,0.26427,0.08599,0.09428,0.04938,0.43353,0.4942,0.27791,0.22441,0.48544,0.0986,0.32046,0.91154,0.26865,0.30474,0.911,-0.00073,0.26493,1.42841,0.33606,0.29992,1.44112,-0.0506,0.38581,1.16647,0.38543,0.45676,1.21566,0.00795,0.48265,1.40646,0.25678,0.50859,1.43514
