PaulMeinheit/Bachelor_Muay_Thai/processed_Data/E3/teep/sliced/JointPositions/sliced2.csv
Unnamed: 0_level_0,Neck_Joint_Position,Neck_Joint_Position,Neck_Joint_Position,L_ANKLE_POSITION,L_ANKLE_POSITION,L_ANKLE_POSITION,R_ANKLE_POSITION,R_ANKLE_POSITION,R_ANKLE_POSITION,L_KNEE_POSITION,L_KNEE_POSITION,L_KNEE_POSITION,R_KNEE_POSITION,R_KNEE_POSITION,R_KNEE_POSITION,L_HIP_POSITION,L_HIP_POSITION,L_HIP_POSITION,R_HIP_POSITION,R_HIP_POSITION,R_HIP_POSITION,L_SHOULDER_POSITION,L_SHOULDER_POSITION,L_SHOULDER_POSITION,R_SHOULDER_POSITION,R_SHOULDER_POSITION,R_SHOULDER_POSITION,L_ELBOW_POSITION,L_ELBOW_POSITION,L_ELBOW_POSITION,R_ELBOW_POSITION,R_ELBOW_POSITION,R_ELBOW_POSITION,L_WRIST_POSITION,L_WRIST_POSITION,L_WRIST_POSITION,R_WRIST_POSITION,R_WRIST_POSITION,R_WRIST_POSITION
ITEM,X,Y,Z,X,Y,Z,X,Y,Z,X,Y,Z,X,Y,Z,X,Y,Z,X,Y,Z,X,Y,Z,X,Y,Z,X,Y,Z,X,Y,Z,X,Y,Z,X,Y,Z
817,0.20213,0.26765,1.51204,0.00317,0.46435,0.09651,0.27303,0.09414,0.07956,0.06807,0.44574,0.50774,0.29521,0.19418,0.48187,0.12468,0.28156,0.90677,0.29133,0.24458,0.91208,0.0379,0.26066,1.43256,0.36875,0.22369,1.42754,-0.00965,0.37765,1.16844,0.43174,0.3598,1.19221,0.05963,0.49028,1.39848,0.3362,0.4487,1.41666
818,0.20113,0.26809,1.51172,0.00365,0.46272,0.09484,0.27306,0.0941,0.07962,0.06794,0.44512,0.50621,0.29513,0.19486,0.48176,0.12417,0.28316,0.90619,0.29091,0.24665,0.9118,0.03719,0.26176,1.43219,0.36774,0.22447,1.42715,-0.00997,0.37889,1.16806,0.43091,0.36091,1.19206,0.05931,0.49252,1.3976,0.33566,0.4503,1.41644
819,0.20001,0.26882,1.51138,0.00422,0.46131,0.09324,0.27302,0.09409,0.07972,0.06777,0.44447,0.50476,0.29498,0.19547,0.48172,0.12359,0.28478,0.90571,0.29044,0.24881,0.91156,0.03666,0.26282,1.43145,0.36685,0.22538,1.42678,-0.01042,0.37991,1.16728,0.43012,0.36236,1.19203,0.05863,0.49423,1.39655,0.33511,0.45172,1.41652
820,0.19891,0.26968,1.51107,0.00498,0.46017,0.09175,0.27294,0.09413,0.07983,0.06748,0.44345,0.50343,0.29477,0.196,0.48171,0.12311,0.28636,0.90543,0.29007,0.25089,0.91136,0.03614,0.26343,1.43047,0.36614,0.22644,1.42645,-0.01088,0.38079,1.16642,0.42944,0.36397,1.19203,0.05764,0.4957,1.39555,0.33455,0.4533,1.41659
821,0.19791,0.27057,1.51081,0.00603,0.45934,0.09038,0.27288,0.09421,0.07991,0.06696,0.4419,0.50226,0.29457,0.19661,0.48166,0.12275,0.28783,0.90541,0.28981,0.25283,0.91114,0.03531,0.26362,1.42956,0.3655,0.22785,1.42628,-0.01135,0.38162,1.16573,0.42889,0.36547,1.19195,0.05664,0.49721,1.39468,0.33385,0.45522,1.41627
822,0.19695,0.27148,1.51056,0.00738,0.4588,0.08915,0.27286,0.09427,0.07995,0.06621,0.4401,0.50129,0.29438,0.19747,0.4815,0.12231,0.28913,0.90557,0.28951,0.2547,0.91084,0.03408,0.26391,1.42887,0.36484,0.22973,1.42629,-0.012,0.38234,1.16512,0.42841,0.36674,1.19165,0.05581,0.49866,1.39375,0.33299,0.45727,1.4155
823,0.19604,0.27245,1.51023,0.00877,0.45848,0.08801,0.2729,0.09426,0.07992,0.06543,0.43861,0.50039,0.29409,0.19854,0.48121,0.12169,0.29031,0.90564,0.28904,0.25657,0.91045,0.03271,0.26468,1.42832,0.3641,0.23198,1.4264,-0.01293,0.38313,1.16451,0.42784,0.36792,1.19118,0.05514,0.50004,1.39276,0.33205,0.45907,1.41462
824,0.19524,0.27352,1.50979,0.00986,0.45828,0.08681,0.27293,0.09424,0.07984,0.0648,0.43778,0.4994,0.29354,0.19961,0.48088,0.12097,0.29158,0.90542,0.28845,0.25847,0.91,0.03151,0.26587,1.42772,0.36316,0.23435,1.42648,-0.01397,0.38454,1.16398,0.427,0.36927,1.1907,0.05438,0.50169,1.39203,0.33102,0.46061,1.41398
825,0.19444,0.27481,1.50933,0.01061,0.45816,0.08555,0.27288,0.09435,0.07977,0.06439,0.43747,0.49828,0.29282,0.20049,0.48063,0.12025,0.29308,0.90499,0.28782,0.26046,0.9096,0.03046,0.26722,1.42699,0.36184,0.2367,1.42638,-0.01483,0.38673,1.1636,0.42591,0.371,1.19031,0.0534,0.50372,1.39176,0.32977,0.46222,1.41357
826,0.19342,0.2764,1.50898,0.01125,0.45813,0.08432,0.27277,0.0946,0.07974,0.06418,0.43723,0.49715,0.29213,0.20119,0.48052,0.11952,0.29465,0.90457,0.28718,0.26244,0.90931,0.0293,0.26869,1.42622,0.36024,0.23903,1.42613,-0.0155,0.38923,1.16321,0.42479,0.3731,1.19006,0.05231,0.50568,1.39178,0.32847,0.46392,1.41341
827,0.19202,0.27831,1.50878,0.01197,0.45816,0.08327,0.2727,0.09482,0.0798,0.06405,0.43682,0.49618,0.29149,0.20203,0.48043,0.11869,0.29599,0.9043,0.28643,0.26425,0.90908,0.02788,0.27033,1.42558,0.35867,0.24139,1.42589,-0.01617,0.39148,1.16273,0.42379,0.3754,1.18993,0.0513,0.50716,1.39178,0.32752,0.46522,1.41371
828,0.19029,0.28044,1.50866,0.01269,0.45821,0.08246,0.27268,0.0949,0.07994,0.06388,0.43649,0.49547,0.29081,0.20335,0.48028,0.11765,0.29708,0.9042,0.28551,0.26594,0.90887,0.0263,0.27205,1.42525,0.35734,0.24381,1.42576,-0.01702,0.39332,1.16233,0.42279,0.37784,1.18991,0.05045,0.50831,1.39173,0.32698,0.46591,1.41457
829,0.18845,0.28264,1.50857,0.01321,0.45831,0.08193,0.27263,0.09503,0.08021,0.06365,0.43652,0.49503,0.29005,0.20528,0.48008,0.1164,0.29826,0.90427,0.28439,0.2678,0.90868,0.02483,0.27365,1.42526,0.35614,0.24631,1.42566,-0.01805,0.39482,1.16222,0.42163,0.38049,1.1899,0.04977,0.50953,1.39166,0.32635,0.46664,1.41554
830,0.1867,0.28482,1.50851,0.01338,0.45848,0.08163,0.27248,0.09543,0.0806,0.06338,0.43697,0.4948,0.28928,0.20759,0.47997,0.11507,0.29978,0.90454,0.28319,0.26999,0.90858,0.02361,0.275,1.42543,0.35487,0.24884,1.42552,-0.01913,0.39603,1.16231,0.42028,0.38327,1.18989,0.04923,0.51086,1.39153,0.32517,0.46817,1.41607
831,0.185,0.28704,1.50854,0.01328,0.45868,0.08143,0.27229,0.09606,0.08102,0.06307,0.43768,0.49464,0.28849,0.20991,0.47993,0.1138,0.30164,0.90489,0.28202,0.27237,0.90852,0.02257,0.27634,1.42552,0.35348,0.2513,1.42534,-0.02025,0.39704,1.16225,0.41884,0.38602,1.18986,0.04846,0.51174,1.39143,0.32369,0.47018,1.4163
832,0.18319,0.2895,1.50859,0.01311,0.45889,0.08117,0.2722,0.09664,0.0813,0.06279,0.43858,0.49443,0.28766,0.2121,0.47978,0.11259,0.30369,0.90517,0.28087,0.27469,0.90835,0.02151,0.27799,1.42542,0.35207,0.25365,1.42518,-0.02147,0.39796,1.16185,0.41739,0.38871,1.18988,0.04702,0.51173,1.39156,0.32252,0.47169,1.41687
833,0.18132,0.29222,1.50858,0.01294,0.45907,0.08087,0.27227,0.09702,0.08138,0.06268,0.43976,0.49417,0.28683,0.21426,0.47938,0.11129,0.30575,0.90534,0.27959,0.27683,0.90794,0.02019,0.27996,1.42514,0.35065,0.25601,1.42516,-0.02284,0.39908,1.16119,0.41602,0.39144,1.19009,0.04496,0.51116,1.39193,0.32176,0.4723,1.4181
834,0.17959,0.29489,1.50856,0.01271,0.45915,0.08067,0.27239,0.09733,0.08137,0.06278,0.44135,0.49401,0.28603,0.21668,0.47878,0.10981,0.30768,0.90547,0.27812,0.27873,0.90741,0.01836,0.28204,1.42476,0.34915,0.25857,1.42543,-0.02432,0.40084,1.16061,0.41474,0.39421,1.19054,0.04283,0.51092,1.39251,0.32086,0.4725,1.4196
835,0.17798,0.29722,1.50863,0.01231,0.45913,0.08075,0.27233,0.0979,0.08148,0.06289,0.44321,0.49409,0.28519,0.21961,0.47819,0.10827,0.30935,0.90568,0.27656,0.28034,0.90699,0.01599,0.28416,1.42448,0.34751,0.26146,1.42596,-0.02589,0.40354,1.16047,0.4135,0.39705,1.19115,0.04116,0.51177,1.39326,0.31938,0.47301,1.4209
836,0.17624,0.29932,1.50878,0.01189,0.4592,0.08102,0.27192,0.09887,0.0818,0.06275,0.44501,0.49439,0.28428,0.22298,0.47778,0.10681,0.31074,0.90599,0.27511,0.28174,0.90685,0.01339,0.28635,1.42454,0.34574,0.26461,1.42651,-0.02749,0.40697,1.16093,0.41213,0.40014,1.19178,0.04036,0.51397,1.39406,0.31739,0.47418,1.4219
837,0.17412,0.3015,1.50892,0.0117,0.45955,0.08123,0.27133,0.09998,0.08229,0.06226,0.44646,0.49468,0.2834,0.22644,0.47754,0.10549,0.31198,0.9063,0.27381,0.28307,0.90688,0.01105,0.28848,1.42497,0.34395,0.26785,1.42679,-0.029,0.41044,1.16185,0.41071,0.40353,1.19226,0.04018,0.51703,1.39477,0.31543,0.4758,1.42271
838,0.17168,0.30389,1.50906,0.01187,0.4601,0.08123,0.27096,0.10086,0.08287,0.06157,0.44758,0.49479,0.28264,0.22983,0.47731,0.10425,0.31335,0.90655,0.27258,0.28446,0.90691,0.00925,0.29044,1.42549,0.34224,0.27109,1.42681,-0.03034,0.41337,1.16275,0.40954,0.40698,1.19255,0.03955,0.51996,1.39547,0.31387,0.47754,1.42338
839,0.16916,0.30636,1.50924,0.01213,0.46053,0.08107,0.27101,0.10136,0.08346,0.06087,0.44868,0.49477,0.28199,0.23324,0.47696,0.10297,0.31494,0.90674,0.27128,0.28593,0.90678,0.00783,0.29236,1.42567,0.34051,0.27426,1.4268,-0.03174,0.41579,1.16317,0.40875,0.41026,1.19288,0.03748,0.52212,1.3962,0.31249,0.47931,1.42392
840,0.16684,0.30874,1.50942,0.01217,0.46061,0.08094,0.27119,0.10163,0.08397,0.06027,0.45005,0.49475,0.28143,0.23664,0.47643,0.1016,0.31656,0.90688,0.26989,0.28745,0.90645,0.00643,0.29445,1.42539,0.33857,0.27723,1.42702,-0.03351,0.41803,1.16301,0.40804,0.41336,1.19354,0.03422,0.52366,1.39679,0.31078,0.48132,1.42447
841,0.16477,0.31101,1.50953,0.01201,0.46046,0.08095,0.27116,0.10194,0.08435,0.05977,0.45158,0.49484,0.28091,0.23986,0.47581,0.1001,0.31801,0.90704,0.2684,0.28901,0.906,0.00494,0.29682,1.4249,0.33642,0.27995,1.42752,-0.03576,0.42043,1.16265,0.40696,0.41635,1.19451,0.03084,0.52516,1.39716,0.30857,0.48373,1.42514
842,0.16284,0.31332,1.50953,0.01192,0.46038,0.08102,0.27091,0.10249,0.08466,0.05928,0.45295,0.49499,0.28026,0.24292,0.47524,0.09845,0.31933,0.90729,0.2668,0.2906,0.90556,0.00345,0.29933,1.4246,0.33425,0.28256,1.42812,-0.03836,0.42311,1.16261,0.40533,0.41927,1.19546,0.02836,0.52703,1.39745,0.30618,0.4864,1.42583
843,0.16093,0.31592,1.50947,0.01191,0.46047,0.08098,0.27066,0.10327,0.08508,0.05868,0.45399,0.49503,0.27944,0.24619,0.47477,0.09674,0.32063,0.90752,0.26513,0.2922,0.90525,0.00195,0.30171,1.42466,0.3323,0.28526,1.42859,-0.04107,0.42585,1.16303,0.40342,0.42207,1.19601,0.02707,0.52937,1.39764,0.30396,0.48911,1.42627
844,0.15893,0.31895,1.50937,0.01177,0.46065,0.0807,0.27049,0.10413,0.08571,0.05791,0.45479,0.49483,0.27854,0.24992,0.47435,0.09505,0.32199,0.90758,0.26347,0.29379,0.90503,0.00039,0.30377,1.42492,0.33067,0.28804,1.42888,-0.04369,0.42831,1.16366,0.40158,0.42474,1.19617,0.02638,0.53194,1.39765,0.30196,0.4918,1.42636
845,0.15682,0.32228,1.50927,0.01152,0.46082,0.08021,0.27037,0.10496,0.08655,0.05704,0.4554,0.49442,0.27769,0.25386,0.47402,0.09341,0.32346,0.90752,0.26185,0.29539,0.9049,-0.00123,0.30571,1.42511,0.32934,0.29083,1.42913,-0.04611,0.43047,1.1641,0.39989,0.42748,1.19627,0.0252,0.53431,1.39762,0.29996,0.49478,1.42625
846,0.15468,0.32553,1.50926,0.0113,0.46093,0.07976,0.27023,0.10583,0.08752,0.05621,0.45592,0.49404,0.27694,0.25761,0.47388,0.09175,0.32496,0.90752,0.26021,0.297,0.90493,-0.00291,0.30798,1.42519,0.32811,0.29362,1.42946,-0.04824,0.43272,1.16424,0.39826,0.43058,1.19667,0.02306,0.53659,1.39776,0.29769,0.49859,1.42617
847,0.15259,0.32844,1.50936,0.01109,0.46092,0.07954,0.27007,0.10678,0.08857,0.05547,0.45651,0.49388,0.27631,0.26114,0.47392,0.09008,0.32627,0.90767,0.2586,0.29868,0.9051,-0.0047,0.31077,1.42531,0.32664,0.29654,1.42994,-0.05006,0.43542,1.16432,0.39658,0.43422,1.19751,0.02062,0.53937,1.39799,0.29503,0.50344,1.42621
848,0.15049,0.33111,1.50951,0.01073,0.46063,0.0796,0.26996,0.10779,0.0898,0.05473,0.45731,0.49399,0.27579,0.26477,0.47409,0.08846,0.32732,0.90793,0.25711,0.30051,0.90538,-0.00667,0.3138,1.42556,0.32482,0.29972,1.43055,-0.05178,0.43851,1.16456,0.39474,0.43821,1.19859,0.01844,0.54267,1.39827,0.2922,0.50877,1.42645
849,0.14833,0.33385,1.50963,0.01027,0.46005,0.07977,0.27004,0.10876,0.09126,0.05395,0.45819,0.4942,0.27531,0.26861,0.47437,0.08696,0.32834,0.90824,0.25575,0.30244,0.90578,-0.00887,0.31667,1.42578,0.3229,0.30302,1.43117,-0.05358,0.44162,1.16483,0.39268,0.44205,1.1995,0.01613,0.54553,1.39881,0.28968,0.51353,1.42685
850,0.14621,0.33689,1.50977,0.00979,0.45935,0.07986,0.27046,0.10965,0.09287,0.05319,0.45883,0.49433,0.2749,0.27253,0.47472,0.0855,0.32968,0.90865,0.25437,0.30428,0.90624,-0.0112,0.31929,1.42581,0.32119,0.30609,1.43175,-0.05548,0.4445,1.1649,0.39059,0.44507,1.19993,0.01338,0.54712,1.3997,0.28772,0.51713,1.42716
851,0.14425,0.34014,1.50997,0.00929,0.45876,0.07974,0.27109,0.1105,0.09447,0.05246,0.459,0.49423,0.2747,0.27653,0.47497,0.08401,0.33137,0.90908,0.25287,0.30593,0.90659,-0.01348,0.32174,1.42574,0.31968,0.30886,1.43236,-0.0573,0.44724,1.1649,0.38874,0.447,1.19994,0.01075,0.54784,1.4008,0.28607,0.51998,1.42697
852,0.14237,0.34342,1.51017,0.00877,0.45845,0.07941,0.27155,0.11138,0.09603,0.05163,0.45883,0.49393,0.27478,0.28079,0.47503,0.08246,0.33307,0.9094,0.25129,0.30747,0.90674,-0.01554,0.32395,1.42573,0.31808,0.31159,1.43303,-0.05896,0.45014,1.16516,0.38719,0.44828,1.19977,0.00902,0.54891,1.40185,0.28424,0.52292,1.42613
853,0.14038,0.34665,1.51026,0.00838,0.45848,0.07903,0.27162,0.11235,0.0977,0.05063,0.45866,0.49362,0.27505,0.28548,0.47502,0.08085,0.33451,0.90962,0.2497,0.30904,0.9068,-0.0173,0.32588,1.42578,0.31614,0.31453,1.43371,-0.06056,0.45335,1.1658,0.38567,0.44966,1.19967,0.00818,0.5512,1.40266,0.28198,0.52642,1.42498
854,0.13817,0.3499,1.51027,0.00825,0.45874,0.0788,0.27148,0.11347,0.09963,0.04952,0.45859,0.49348,0.27538,0.29053,0.47512,0.07917,0.33576,0.90992,0.24809,0.31076,0.90695,-0.01889,0.32775,1.42581,0.31389,0.31758,1.43435,-0.06224,0.45672,1.16658,0.3839,0.45161,1.19981,0.00779,0.55458,1.40305,0.27935,0.53043,1.42402
855,0.13582,0.35308,1.51038,0.00847,0.45909,0.07871,0.27156,0.11484,0.10176,0.04836,0.45841,0.49353,0.27576,0.2957,0.47543,0.07747,0.33701,0.91042,0.24647,0.31257,0.90728,-0.02059,0.3298,1.42591,0.31161,0.32053,1.43499,-0.06399,0.45992,1.16726,0.38191,0.45401,1.20023,0.0077,0.55836,1.403,0.27669,0.53461,1.42349
856,0.13347,0.35599,1.51069,0.00893,0.45943,0.07867,0.27214,0.1165,0.10391,0.04722,0.45792,0.49363,0.27627,0.30069,0.47595,0.0759,0.33831,0.91107,0.24496,0.31431,0.90777,-0.02262,0.33195,1.42622,0.3095,0.32341,1.43575,-0.06571,0.4628,1.1679,0.37987,0.45651,1.20079,0.00785,0.56192,1.40277,0.27422,0.53861,1.42329
857,0.1311,0.35859,1.5111,0.00936,0.45964,0.07867,0.27325,0.11828,0.10602,0.04615,0.45725,0.49377,0.2769,0.30528,0.47666,0.07454,0.33952,0.91176,0.24365,0.31587,0.90842,-0.02498,0.33396,1.42672,0.30757,0.32649,1.43666,-0.06736,0.46544,1.1686,0.37786,0.4589,1.20129,0.00749,0.56489,1.40292,0.27183,0.54232,1.42312
858,0.12865,0.36103,1.51141,0.00958,0.45966,0.07877,0.27477,0.11999,0.10813,0.04521,0.45669,0.49396,0.27755,0.30956,0.47747,0.07329,0.34047,0.9124,0.24246,0.31727,0.90915,-0.02745,0.33588,1.42724,0.30563,0.32979,1.43761,-0.069,0.46796,1.16929,0.37585,0.46117,1.20164,0.00597,0.56714,1.40369,0.26934,0.54582,1.42277
859,0.12621,0.36356,1.51153,0.00962,0.45959,0.07895,0.2764,0.12152,0.1103,0.04439,0.45637,0.49422,0.2782,0.3138,0.47824,0.07202,0.34117,0.91296,0.24128,0.3186,0.9098,-0.0298,0.33794,1.42765,0.3035,0.33294,1.43841,-0.07069,0.47042,1.1698,0.37387,0.46328,1.20191,0.00387,0.56903,1.40458,0.2668,0.54918,1.42229
860,0.12401,0.36625,1.51156,0.00959,0.45963,0.07915,0.27782,0.12292,0.11252,0.04368,0.45616,0.49447,0.27892,0.31823,0.47887,0.07065,0.34178,0.91348,0.24002,0.32003,0.91029,-0.03199,0.34023,1.42798,0.30128,0.33558,1.43896,-0.07247,0.47301,1.17022,0.37204,0.46529,1.20223,0.00252,0.57119,1.40503,0.26434,0.55235,1.42184
861,0.12215,0.36911,1.5116,0.00944,0.45985,0.07928,0.27886,0.12434,0.1148,0.04304,0.45582,0.49464,0.27972,0.32284,0.47943,0.06921,0.34246,0.91398,0.2387,0.3217,0.91065,-0.03401,0.34247,1.42827,0.2992,0.33768,1.43933,-0.07431,0.47574,1.17073,0.37029,0.46729,1.20265,0.00217,0.57379,1.40512,0.26191,0.55537,1.42152
862,0.12049,0.37204,1.51173,0.00915,0.46012,0.07929,0.27958,0.12587,0.11712,0.04239,0.45532,0.49466,0.28049,0.32749,0.48003,0.06775,0.3432,0.91439,0.23737,0.32356,0.91103,-0.03587,0.34437,1.42853,0.29735,0.33961,1.43967,-0.07612,0.47835,1.17136,0.36848,0.46935,1.20307,0.00178,0.57628,1.40533,0.25941,0.55835,1.42123
863,0.11886,0.37483,1.51202,0.00896,0.46038,0.07917,0.28016,0.12749,0.11947,0.04169,0.45478,0.49458,0.28117,0.33212,0.48069,0.0663,0.34391,0.91468,0.23604,0.32534,0.91144,-0.0377,0.34607,1.42882,0.2956,0.34179,1.4401,-0.07779,0.48058,1.1719,0.36656,0.47148,1.20342,0.00028,0.57805,1.406,0.25694,0.56128,1.42098
864,0.1172,0.37724,1.51248,0.00907,0.46066,0.07899,0.28075,0.12914,0.12176,0.041,0.45425,0.49445,0.28183,0.33671,0.4813,0.06484,0.34462,0.91492,0.23467,0.32687,0.91178,-0.03967,0.34799,1.42921,0.29392,0.34431,1.44068,-0.07928,0.48255,1.17224,0.36455,0.47362,1.20369,-0.00255,0.57907,1.40718,0.25484,0.56378,1.42105
865,0.11548,0.37931,1.51309,0.00938,0.46102,0.07882,0.28147,0.13091,0.12388,0.04035,0.45378,0.49433,0.28256,0.3411,0.48189,0.06339,0.34543,0.91518,0.23328,0.32818,0.91205,-0.04176,0.35035,1.42963,0.2923,0.34697,1.44123,-0.0806,0.48455,1.17236,0.3626,0.47578,1.20387,-0.00598,0.57989,1.40846,0.25353,0.56534,1.4218
866,0.11367,0.38142,1.51367,0.0096,0.46149,0.07868,0.28239,0.13296,0.12578,0.03975,0.45352,0.49424,0.28336,0.3452,0.48258,0.06203,0.34635,0.91543,0.23194,0.3294,0.9124,-0.04375,0.35282,1.42994,0.29055,0.34954,1.44153,-0.08182,0.48653,1.17229,0.36079,0.47797,1.20395,-0.00887,0.58112,1.40921,0.25316,0.56579,1.4233
867,0.11182,0.38385,1.51406,0.00967,0.46194,0.07858,0.28347,0.13533,0.12756,0.03915,0.45352,0.49419,0.28415,0.34916,0.48341,0.06076,0.34728,0.91564,0.23071,0.3307,0.91287,-0.04555,0.35502,1.43016,0.28848,0.35201,1.44163,-0.08313,0.48824,1.17218,0.3591,0.48022,1.20405,-0.01103,0.58291,1.40933,0.25314,0.56573,1.42511
868,0.11008,0.38648,1.51426,0.00978,0.46217,0.07851,0.28467,0.13791,0.12935,0.03848,0.45372,0.49417,0.28482,0.35331,0.48426,0.05959,0.34821,0.91584,0.22961,0.33223,0.91337,-0.04732,0.35685,1.43051,0.28636,0.35452,1.44187,-0.08465,0.48971,1.17232,0.35735,0.48262,1.20434,-0.01352,0.58477,1.40961,0.25236,0.56623,1.42659
869,0.10855,0.389,1.51439,0.00995,0.46203,0.07846,0.28599,0.14055,0.13123,0.03767,0.45396,0.49419,0.28533,0.35771,0.48506,0.05858,0.34921,0.91606,0.22867,0.33395,0.91385,-0.04919,0.35843,1.4311,0.28474,0.3571,1.44243,-0.08628,0.49127,1.17287,0.35543,0.48523,1.20482,-0.01684,0.58617,1.41072,0.25028,0.56793,1.42733
870,0.10713,0.39127,1.51449,0.01,0.46166,0.07847,0.28739,0.14307,0.13322,0.0368,0.45418,0.49428,0.28581,0.36206,0.48593,0.05777,0.35028,0.91635,0.22792,0.33565,0.9144,-0.0511,0.35996,1.4318,0.28376,0.35955,1.44314,-0.08786,0.49305,1.17365,0.35348,0.48779,1.2053,-0.01993,0.58726,1.41221,0.24753,0.57045,1.42745
871,0.10573,0.39323,1.51457,0.00987,0.46135,0.07857,0.2887,0.1453,0.13535,0.03605,0.45435,0.49442,0.28649,0.36607,0.48694,0.05711,0.35131,0.9167,0.22729,0.33708,0.91507,-0.05291,0.36158,1.43242,0.28299,0.36156,1.44375,-0.08929,0.4947,1.17422,0.35194,0.48981,1.2057,-0.0218,0.58835,1.41313,0.24524,0.57283,1.42735
872,0.10437,0.39481,1.51475,0.00975,0.46121,0.07864,0.28982,0.14715,0.13762,0.03556,0.45441,0.49452,0.28748,0.36978,0.48803,0.05645,0.35214,0.91699,0.22666,0.33818,0.91574,-0.05449,0.3632,1.43289,0.28195,0.36309,1.44424,-0.09063,0.49587,1.17443,0.35098,0.49116,1.20612,-0.02291,0.58917,1.41341,0.244,0.57462,1.42747
873,0.10309,0.39615,1.51515,0.00975,0.46115,0.07861,0.29079,0.14872,0.13998,0.03525,0.4543,0.49451,0.28864,0.37351,0.48901,0.05572,0.35268,0.91716,0.22597,0.33907,0.91623,-0.05575,0.36458,1.43322,0.28051,0.36453,1.44473,-0.09193,0.49662,1.17444,0.35033,0.49229,1.20667,-0.02427,0.5893,1.41368,0.24345,0.57612,1.42794
874,0.10173,0.39761,1.51569,0.0098,0.4612,0.07855,0.29179,0.15027,0.14231,0.03496,0.454,0.49446,0.2898,0.37745,0.48979,0.05495,0.35305,0.9173,0.22523,0.33992,0.91647,-0.05664,0.36568,1.43338,0.27875,0.36626,1.44522,-0.09327,0.49726,1.17444,0.34961,0.49363,1.20725,-0.02617,0.58906,1.41417,0.24299,0.57769,1.42856
875,0.10019,0.39942,1.51616,0.00987,0.46147,0.07856,0.29292,0.15206,0.14444,0.03465,0.45358,0.49448,0.29095,0.38146,0.49045,0.05426,0.35354,0.91755,0.22457,0.34081,0.91657,-0.05715,0.36678,1.43332,0.27679,0.36824,1.44551,-0.09469,0.49802,1.17433,0.34868,0.49519,1.20763,-0.02822,0.58922,1.41446,0.24241,0.57934,1.42907
876,0.09853,0.40139,1.51641,0.01008,0.46184,0.0786,0.29407,0.15408,0.1463,0.03434,0.45314,0.49453,0.29216,0.38529,0.49111,0.05367,0.35427,0.91789,0.224,0.34176,0.91667,-0.05743,0.36809,1.43312,0.27494,0.37006,1.44552,-0.09607,0.49897,1.17411,0.34758,0.49689,1.2078,-0.02981,0.59042,1.41421,0.24163,0.58101,1.42941
877,0.09689,0.40318,1.51638,0.01047,0.46208,0.07858,0.29502,0.15615,0.14802,0.03399,0.45266,0.49455,0.29338,0.38881,0.49185,0.05312,0.3552,0.91824,0.22345,0.34274,0.91685,-0.05779,0.36946,1.43303,0.27367,0.37155,1.44539,-0.09722,0.5002,1.17406,0.34625,0.49888,1.20792,-0.02991,0.593,1.41335,0.24042,0.58277,1.42967
878,0.09535,0.40474,1.51611,0.01093,0.46217,0.07852,0.29553,0.15814,0.1497,0.03353,0.45204,0.49452,0.29445,0.39205,0.49269,0.05253,0.35617,0.91858,0.22286,0.34373,0.91716,-0.0585,0.37063,1.43323,0.27308,0.37298,1.4453,-0.09805,0.5017,1.17446,0.34471,0.50132,1.20808,-0.0277,0.59683,1.41195,0.23869,0.58471,1.42993
879,0.09404,0.40629,1.5157,0.01124,0.46217,0.07849,0.29568,0.16002,0.15135,0.03294,0.45116,0.49451,0.29526,0.395,0.4936,0.05191,0.35707,0.91898,0.22225,0.3448,0.91761,-0.05963,0.37149,1.43369,0.27276,0.37473,1.44531,-0.09873,0.50314,1.17514,0.34319,0.50413,1.20831,-0.02413,0.6008,1.41029,0.23675,0.58689,1.43019
880,0.093,0.40788,1.51537,0.01134,0.46209,0.07856,0.29585,0.16165,0.1529,0.03215,0.45012,0.4946,0.29583,0.39762,0.49448,0.05133,0.35781,0.91944,0.2217,0.34596,0.91812,-0.06097,0.37211,1.43413,0.27232,0.3768,1.44553,-0.09943,0.50412,1.17566,0.34195,0.5069,1.20869,-0.02175,0.60354,1.40908,0.23486,0.58919,1.43043
881,0.09212,0.4092,1.51544,0.01133,0.46183,0.07869,0.29634,0.16282,0.15429,0.03122,0.44923,0.49475,0.29626,0.39984,0.49514,0.05085,0.35833,0.91988,0.22126,0.34714,0.9185,-0.06221,0.3727,1.43438,0.27178,0.37884,1.44615,-0.10021,0.50449,1.17574,0.34114,0.50912,1.20932,-0.02246,0.60452,1.40886,0.2332,0.59128,1.4307
882,0.0913,0.40986,1.51601,0.01128,0.46133,0.07878,0.29713,0.16346,0.15541,0.0303,0.44863,0.49488,0.29666,0.4016,0.49547,0.05048,0.35864,0.92018,0.22094,0.34818,0.91861,-0.06318,0.37343,1.43447,0.27139,0.38051,1.44715,-0.10102,0.50432,1.17534,0.34077,0.51054,1.21019,-0.02609,0.60406,1.40952,0.232,0.59275,1.43115
883,0.09052,0.40979,1.51688,0.01115,0.46072,0.07879,0.29789,0.16375,0.15617,0.02956,0.44817,0.49493,0.29708,0.40286,0.49556,0.05017,0.35884,0.92035,0.22066,0.34894,0.91851,-0.06393,0.37432,1.43452,0.27123,0.38169,1.44828,-0.10178,0.50379,1.17468,0.34068,0.51136,1.21115,-0.03099,0.60293,1.4104,0.23142,0.59358,1.43185
884,0.08983,0.4094,1.51767,0.01088,0.46024,0.07882,0.29821,0.16394,0.15667,0.02911,0.4476,0.49496,0.29739,0.40357,0.49568,0.04985,0.35901,0.92053,0.22035,0.34938,0.91849,-0.06442,0.37513,1.43462,0.2711,0.38248,1.44922,-0.10245,0.5032,1.17412,0.34059,0.51198,1.21201,-0.03487,0.60208,1.41089,0.23111,0.5944,1.43253
885,0.08925,0.40924,1.51812,0.0105,0.46002,0.07891,0.29787,0.16413,0.15701,0.02892,0.4469,0.49503,0.29744,0.40385,0.49597,0.04954,0.35922,0.92078,0.22005,0.3497,0.91872,-0.06459,0.37556,1.43479,0.27087,0.38307,1.44988,-0.10299,0.50297,1.17402,0.34033,0.51266,1.2127,-0.03603,0.60223,1.4108,0.23038,0.59576,1.43274
886,0.08875,0.40955,1.51824,0.0101,0.46,0.07898,0.29706,0.16428,0.15718,0.02888,0.4463,0.49507,0.29727,0.40386,0.49623,0.04933,0.3595,0.92101,0.21985,0.35009,0.91902,-0.06453,0.37561,1.43499,0.2708,0.38361,1.45033,-0.10337,0.50324,1.1744,0.34003,0.51347,1.21323,-0.03493,0.60322,1.41045,0.22894,0.59733,1.4324
887,0.08836,0.41013,1.51826,0.00978,0.45994,0.07892,0.29628,0.16433,0.15702,0.02883,0.44593,0.49499,0.29708,0.40375,0.49618,0.04922,0.35984,0.92108,0.21975,0.35063,0.91907,-0.06435,0.37556,1.43514,0.27111,0.38427,1.45064,-0.10357,0.50371,1.17486,0.33992,0.51444,1.21359,-0.03372,0.60424,1.41026,0.22737,0.5982,1.43205
888,0.08815,0.4106,1.51841,0.0096,0.45972,0.07871,0.29589,0.16434,0.15647,0.02866,0.44574,0.49477,0.29696,0.40352,0.4958,0.04915,0.36026,0.92098,0.21968,0.3512,0.9188,-0.06403,0.37568,1.43518,0.27166,0.38517,1.45094,-0.10366,0.50385,1.17497,0.33985,0.51568,1.21389,-0.03411,0.60471,1.41032,0.22638,0.59816,1.43237
889,0.08817,0.41079,1.51873,0.00961,0.45944,0.07846,0.29565,0.16441,0.15559,0.02839,0.44561,0.49454,0.29679,0.4031,0.49527,0.0491,0.36076,0.92087,0.21963,0.35169,0.9184,-0.06355,0.37584,1.43508,0.2721,0.38623,1.45135,-0.10375,0.50331,1.17461,0.33952,0.51728,1.21439,-0.03616,0.60456,1.41037,0.22591,0.59796,1.43346
890,0.08836,0.41078,1.51901,0.00978,0.45925,0.07832,0.29507,0.16453,0.15448,0.02812,0.44552,0.49442,0.29644,0.40238,0.49475,0.04912,0.36129,0.92086,0.21964,0.3521,0.91808,-0.06313,0.37561,1.43489,0.27237,0.38716,1.45193,-0.10394,0.50221,1.17409,0.33902,0.51902,1.21519,-0.03858,0.604,1.41024,0.22547,0.59819,1.43485
891,0.08857,0.41079,1.51902,0.01001,0.45916,0.07828,0.29396,0.16461,0.15313,0.02792,0.44556,0.4944,0.29588,0.40125,0.49424,0.04921,0.36181,0.92092,0.21972,0.35263,0.91789,-0.06285,0.37471,1.43465,0.27257,0.38779,1.45245,-0.10413,0.50098,1.17376,0.33886,0.5204,1.21604,-0.04006,0.60337,1.41001,0.22514,0.59844,1.43601
892,0.08878,0.41096,1.51873,0.01022,0.45909,0.07821,0.29256,0.16452,0.15153,0.02783,0.44586,0.49436,0.29517,0.39958,0.49373,0.04931,0.36235,0.92091,0.21983,0.35338,0.91778,-0.0624,0.37338,1.43438,0.27273,0.38818,1.45262,-0.10411,0.4999,1.17368,0.33932,0.52119,1.21652,-0.04021,0.60286,1.40973,0.22543,0.59812,1.4368
893,0.08908,0.41119,1.5183,0.01037,0.4591,0.07806,0.29113,0.16426,0.14969,0.02791,0.44639,0.49423,0.29436,0.39746,0.49315,0.04941,0.36292,0.92079,0.21995,0.35413,0.91767,-0.06146,0.37211,1.43406,0.27289,0.3886,1.45238,-0.1038,0.49883,1.17356,0.34011,0.5218,1.21656,-0.03953,0.60237,1.40925,0.2263,0.59753,1.4373
894,0.08961,0.41119,1.51795,0.01044,0.45929,0.0779,0.28966,0.16389,0.14767,0.02821,0.44704,0.49407,0.29342,0.39515,0.49244,0.04957,0.36343,0.92061,0.22009,0.3545,0.91741,-0.06012,0.3712,1.43364,0.27325,0.38914,1.45194,-0.10331,0.49759,1.17312,0.34069,0.52293,1.21651,-0.03888,0.60168,1.40853,0.22704,0.59745,1.43774
895,0.09033,0.41073,1.51773,0.01036,0.45961,0.07783,0.28799,0.1635,0.14551,0.02869,0.44783,0.49399,0.29227,0.39284,0.49156,0.0499,0.3638,0.92045,0.22038,0.3543,0.91698,-0.05888,0.3706,1.43314,0.27392,0.38967,1.45154,-0.10282,0.49623,1.17238,0.34083,0.52486,1.21677,-0.03889,0.60071,1.40775,0.22702,0.59835,1.43826
896,0.09109,0.40993,1.51754,0.01004,0.45989,0.07792,0.28603,0.16315,0.14312,0.02925,0.44888,0.49407,0.29077,0.39037,0.49055,0.05045,0.36405,0.92037,0.22088,0.35376,0.91647,-0.05803,0.37016,1.43273,0.27473,0.39006,1.45132,-0.1024,0.4948,1.17157,0.34077,0.52724,1.21746,-0.03945,0.5996,1.40706,0.22629,0.60009,1.43881
897,0.09167,0.40909,1.5172,0.00955,0.46004,0.07811,0.28375,0.16288,0.14033,0.0298,0.4502,0.49423,0.28897,0.38738,0.48951,0.05108,0.36431,0.92032,0.22146,0.35328,0.91603,-0.05741,0.36969,1.43255,0.2755,0.39041,1.45124,-0.10206,0.49326,1.17092,0.34086,0.52939,1.21825,-0.0396,0.59854,1.40633,0.22548,0.60198,1.43922
898,0.09214,0.40833,1.5167,0.00908,0.46007,0.07826,0.2812,0.16262,0.13712,0.03031,0.45161,0.49436,0.28716,0.38367,0.48848,0.05162,0.36465,0.92023,0.22196,0.35319,0.91563,-0.05669,0.36883,1.43256,0.27626,0.39086,1.45117,-0.10165,0.49174,1.17068,0.34118,0.53091,1.2187,-0.03815,0.59763,1.40553,0.22521,0.60327,1.43944
899,0.09287,0.40762,1.51613,0.00876,0.46004,0.07827,0.2784,0.16213,0.13374,0.03079,0.45293,0.49436,0.28571,0.37945,0.4874,0.05204,0.36505,0.92004,0.22236,0.35353,0.91513,-0.05564,0.3674,1.43266,0.2773,0.39128,1.45103,-0.10096,0.49053,1.17095,0.34154,0.53201,1.21878,-0.03479,0.59683,1.40488,0.22555,0.6038,1.4397
900,0.09428,0.4069,1.51561,0.00865,0.45996,0.07814,0.27541,0.16123,0.13054,0.0313,0.45409,0.49422,0.28459,0.37518,0.48621,0.05243,0.36552,0.91977,0.22274,0.35401,0.91442,-0.05425,0.36567,1.43269,0.27886,0.39142,1.4508,-0.09991,0.4897,1.17146,0.34179,0.5332,1.21883,-0.03064,0.59592,1.40453,0.22618,0.60397,1.44027
901,0.09633,0.40618,1.51511,0.00874,0.45983,0.07795,0.27223,0.15997,0.12773,0.0319,0.45519,0.49402,0.2835,0.3712,0.48496,0.05286,0.3661,0.91946,0.22313,0.35419,0.91356,-0.05265,0.36402,1.43248,0.28091,0.39116,1.45049,-0.09872,0.48875,1.17166,0.34215,0.5347,1.21915,-0.02766,0.59465,1.40433,0.22686,0.60411,1.44118
902,0.0986,0.40541,1.51454,0.00889,0.4597,0.07782,0.26893,0.15852,0.12524,0.03267,0.45638,0.49386,0.28217,0.36743,0.48376,0.05332,0.36671,0.9192,0.22351,0.35393,0.91273,-0.05104,0.36258,1.43187,0.28318,0.39055,1.45008,-0.0978,0.48708,1.17106,0.343,0.53616,1.21967,-0.02713,0.59265,1.404,0.22754,0.60406,1.44208
903,0.10069,0.40441,1.51392,0.00885,0.45964,0.07781,0.26565,0.15704,0.12291,0.0336,0.45775,0.4938,0.28051,0.36369,0.48268,0.05376,0.36718,0.91897,0.22386,0.35351,0.912,-0.04954,0.36127,1.43086,0.2853,0.38965,1.44957,-0.09735,0.48453,1.16965,0.34453,0.53708,1.22017,-0.02894,0.58943,1.40356,0.22831,0.60362,1.44259
904,0.10252,0.40308,1.51331,0.00847,0.45971,0.07787,0.26253,0.15563,0.12055,0.03449,0.45931,0.49379,0.27861,0.3599,0.48162,0.05422,0.3675,0.91872,0.22426,0.35329,0.91131,-0.04804,0.35993,1.42951,0.28717,0.38859,1.44901,-0.09714,0.48148,1.16774,0.3465,0.53736,1.2205,-0.03211,0.58484,1.4033,0.22931,0.60281,1.44274
905,0.10418,0.40148,1.51273,0.00791,0.4599,0.07797,0.25957,0.15439,0.11803,0.0351,0.4609,0.49382,0.27665,0.35607,0.48051,0.05482,0.36788,0.91848,0.2248,0.35332,0.91055,-0.04626,0.35841,1.42799,0.28894,0.38762,1.44845,-0.09675,0.47836,1.16575,0.34855,0.53734,1.22063,-0.03551,0.57954,1.40326,0.23066,0.6018,1.44279
906,0.10575,0.3998,1.51218,0.00759,0.46017,0.07813,0.25665,0.1534,0.11533,0.03548,0.4624,0.49392,0.27483,0.35216,0.47937,0.05559,0.36845,0.91836,0.2255,0.35347,0.90971,-0.04389,0.35653,1.42647,0.29075,0.3869,1.44791,-0.09606,0.47528,1.16401,0.35061,0.53738,1.22066,-0.03797,0.57475,1.40303,0.23236,0.60072,1.44295
907,0.10729,0.39816,1.51167,0.00779,0.46051,0.07837,0.25378,0.15255,0.11261,0.03601,0.46399,0.49413,0.27322,0.34818,0.47827,0.05647,0.36909,0.91834,0.22628,0.35357,0.90886,-0.04092,0.3543,1.42508,0.29265,0.38616,1.44735,-0.09538,0.47213,1.16268,0.35285,0.53751,1.22077,-0.03861,0.57144,1.40208,0.23432,0.59952,1.44329
908,0.10883,0.3965,1.51125,0.00849,0.46085,0.07867,0.25109,0.15171,0.11001,0.03699,0.46593,0.4944,0.27179,0.34426,0.47724,0.05732,0.36965,0.91831,0.22702,0.35347,0.90799,-0.03768,0.35197,1.42389,0.29475,0.38492,1.44663,-0.095,0.46879,1.16164,0.35511,0.53763,1.22101,-0.03781,0.56934,1.40042,0.23642,0.59801,1.44389
909,0.11048,0.3946,1.51093,0.00932,0.46106,0.07898,0.24875,0.15086,0.10757,0.03825,0.46828,0.49465,0.2705,0.34054,0.47623,0.05809,0.37012,0.91815,0.22766,0.35299,0.90709,-0.03458,0.34994,1.42294,0.29713,0.38299,1.44566,-0.09487,0.4653,1.1607,0.35697,0.5377,1.22126,-0.03717,0.56696,1.3989,0.23852,0.59608,1.4448
910,0.11239,0.39242,1.51067,0.00981,0.4611,0.07923,0.24674,0.1501,0.10517,0.03932,0.47089,0.4948,0.26943,0.337,0.47519,0.05884,0.37058,0.91781,0.22822,0.35211,0.90612,-0.03185,0.3484,1.42223,0.29969,0.38077,1.44452,-0.09485,0.46187,1.1598,0.35836,0.53769,1.22135,-0.03805,0.56305,1.39842,0.24053,0.59387,1.44578
911,0.11467,0.39019,1.51038,0.00973,0.4611,0.07935,0.24498,0.14944,0.10268,0.03994,0.47373,0.49479,0.26869,0.33338,0.47411,0.05966,0.37103,0.91722,0.22884,0.35106,0.90508,-0.02939,0.34723,1.42165,0.30227,0.37869,1.44338,-0.09482,0.45877,1.159,0.35976,0.53747,1.22122,-0.04006,0.55808,1.39887,0.24246,0.59168,1.44642
912,0.11726,0.38812,1.50997,0.00931,0.46119,0.07935,0.24353,0.14867,0.10014,0.04035,0.47683,0.49463,0.26823,0.3294,0.47308,0.06064,0.37142,0.91636,0.22965,0.35015,0.90403,-0.02676,0.34614,1.42102,0.30492,0.37686,1.44234,-0.0948,0.45613,1.15838,0.3615,0.53687,1.22083,-0.04139,0.5537,1.39926,0.24451,0.58954,1.44655
913,0.12006,0.38618,1.50944,0.00902,0.46138,0.07935,0.24258,0.14752,0.09784,0.04098,0.48024,0.49443,0.26789,0.32511,0.47224,0.06185,0.3717,0.91534,0.23074,0.34951,0.90313,-0.02368,0.34489,1.42025,0.30766,0.37529,1.44144,-0.09501,0.45371,1.15799,0.36344,0.5359,1.22016,-0.04093,0.55076,1.39894,0.24685,0.5874,1.44636
914,0.12307,0.38417,1.5089,0.00907,0.46168,0.07951,0.24226,0.14589,0.09599,0.04195,0.48394,0.49435,0.26761,0.32092,0.47159,0.06319,0.37188,0.91432,0.23203,0.34906,0.90238,-0.02035,0.34336,1.41939,0.31036,0.37404,1.44065,-0.09575,0.45127,1.15789,0.36531,0.5348,1.21927,-0.03935,0.54851,1.39824,0.24938,0.58526,1.44604
915,0.12649,0.38205,1.50842,0.0094,0.46202,0.07998,0.24254,0.14396,0.09454,0.0431,0.48795,0.49454,0.26747,0.31716,0.47102,0.0645,0.372,0.91345,0.23325,0.34848,0.9017,-0.01729,0.34157,1.41862,0.31289,0.37293,1.43984,-0.09716,0.44886,1.1582,0.36708,0.53371,1.21829,-0.03785,0.54601,1.39788,0.25196,0.58316,1.44569
916,0.1303,0.3799,1.50795,0.00977,0.46239,0.0808,0.24333,0.14196,0.09321,0.04426,0.49229,0.49503,0.26767,0.31368,0.47041,0.06554,0.37208,0.91274,0.23414,0.34751,0.90095,-0.01483,0.33959,1.41803,0.31533,0.37147,1.43886,-0.09911,0.44663,1.1589,0.36906,0.53235,1.21727,-0.03702,0.54317,1.39812,0.2547,0.58107,1.44522
917,0.13411,0.37777,1.50736,0.01005,0.46296,0.0819,0.24465,0.1399,0.0918,0.04551,0.49713,0.49571,0.26842,0.31008,0.46972,0.06628,0.37212,0.91204,0.23467,0.34622,0.90006,-0.01279,0.33752,1.41753,0.31782,0.36928,1.43761,-0.10138,0.44455,1.15984,0.37155,0.53033,1.21614,-0.03698,0.54019,1.39881,0.25782,0.57889,1.44443
918,0.13764,0.37561,1.50662,0.01026,0.46394,0.0832,0.24648,0.13768,0.09023,0.04694,0.50264,0.49651,0.26966,0.30608,0.46899,0.06691,0.37213,0.91118,0.23507,0.34488,0.89903,-0.0107,0.33537,1.41698,0.32043,0.36638,1.43609,-0.10393,0.44238,1.16092,0.37463,0.52761,1.21486,-0.03747,0.53701,1.39972,0.26133,0.57665,1.44326
919,0.14113,0.37335,1.50583,0.01042,0.46529,0.08472,0.24859,0.13529,0.08858,0.04855,0.5089,0.49741,0.27113,0.30165,0.46828,0.06767,0.37228,0.91015,0.23559,0.34365,0.89795,-0.00818,0.3332,1.41647,0.32312,0.363,1.43449,-0.10705,0.43987,1.16239,0.37813,0.52445,1.21362,-0.03785,0.53373,1.40072,0.2651,0.57425,1.442
920,0.14502,0.37107,1.50514,0.01049,0.46676,0.08663,0.25055,0.13293,0.08696,0.05025,0.51589,0.49855,0.27248,0.297,0.4677,0.06863,0.37274,0.90909,0.23626,0.3424,0.89696,-0.00516,0.33135,1.41636,0.32577,0.35934,1.43299,-0.11096,0.43707,1.16469,0.38179,0.52111,1.21262,-0.03743,0.53084,1.40175,0.26906,0.57145,1.44102
921,0.14942,0.36891,1.50467,0.01044,0.4683,0.08921,0.25183,0.13089,0.08546,0.05208,0.52369,0.50014,0.27353,0.29238,0.46731,0.06967,0.37324,0.90811,0.23692,0.34078,0.89621,-0.00192,0.33014,1.41692,0.32835,0.3557,1.43165,-0.11536,0.43462,1.16807,0.38515,0.51771,1.21165,-0.03593,0.52881,1.40306,0.27312,0.56817,1.44038
922,0.15401,0.36684,1.50454,0.01022,0.4703,0.09271,0.2522,0.12937,0.08411,0.05413,0.5325,0.50243,0.27422,0.28799,0.46715,0.07059,0.37335,0.90713,0.23741,0.33856,0.89578,0.0011,0.32952,1.41812,0.33091,0.35231,1.43052,-0.11975,0.4333,1.17248,0.38775,0.51416,1.21042,-0.0336,0.52749,1.4051,0.27711,0.56479,1.43978
923,0.15841,0.36464,1.5048,0.00979,0.47322,0.0972,0.25188,0.12831,0.08296,0.05641,0.5423,0.50552,0.27462,0.28384,0.46721,0.07126,0.37303,0.90616,0.23764,0.33596,0.89564,0.0037,0.32917,1.41959,0.33353,0.34901,1.42956,-0.12412,0.43326,1.17765,0.38966,0.51031,1.20887,-0.03109,0.52637,1.40803,0.28103,0.56182,1.43899
924,0.16248,0.36217,1.5054,0.00919,0.47716,0.10249,0.25143,0.12748,0.08202,0.05874,0.55266,0.50932,0.27479,0.27993,0.46747,0.07171,0.37273,0.90535,0.23765,0.3335,0.89571,0.00599,0.32883,1.42109,0.33637,0.34547,1.42861,-0.12886,0.43396,1.18345,0.39133,0.50613,1.20716,-0.02876,0.52542,1.41152,0.28506,0.55938,1.43799
925,0.16637,0.35959,1.50618,0.00843,0.48173,0.10823,0.25128,0.1267,0.08129,0.06094,0.56297,0.51358,0.27474,0.27642,0.4678,0.07208,0.37288,0.90489,0.23753,0.3315,0.89584,0.00817,0.3285,1.42282,0.33957,0.34161,1.4275,-0.13425,0.43488,1.19021,0.39315,0.5017,1.20531,-0.02623,0.5254,1.41502,0.28916,0.55712,1.43666
926,0.17038,0.35713,1.50693,0.0074,0.48655,0.1141,0.25146,0.12594,0.08072,0.06293,0.57288,0.518,0.27449,0.27349,0.46809,0.07248,0.37359,0.90475,0.23729,0.3297,0.89598,0.01029,0.3283,1.42522,0.34309,0.33768,1.42634,-0.14024,0.436,1.19839,0.39537,0.49699,1.20327,-0.02311,0.52685,1.41845,0.29322,0.5545,1.43493
927,0.17467,0.35497,1.50752,0.00595,0.49148,0.11987,0.25181,0.12536,0.0803,0.06475,0.58221,0.52233,0.27421,0.271,0.46843,0.07294,0.37483,0.90483,0.23686,0.32764,0.89625,0.01229,0.32856,1.42846,0.34658,0.33388,1.42533,-0.1467,0.43738,1.20804,0.39813,0.49181,1.20112,-0.01976,0.52886,1.42232,0.29755,0.55105,1.43303
928,0.17907,0.35314,1.508,0.00409,0.49656,0.12541,0.25216,0.12504,0.08011,0.06651,0.59074,0.52653,0.27407,0.26862,0.46904,0.07343,0.37645,0.90523,0.23609,0.3251,0.89683,0.01418,0.32983,1.43235,0.34963,0.33007,1.4245,-0.15362,0.43884,1.21865,0.4014,0.48608,1.199,-0.01682,0.52969,1.42706,0.30272,0.54644,1.43144
929,0.18332,0.35154,1.50851,0.002,0.50181,0.13063,0.25241,0.12485,0.08024,0.06822,0.59821,0.53062,0.274,0.26616,0.47002,0.07372,0.37835,0.90614,0.23489,0.32246,0.89772,0.016,0.33249,1.43669,0.35208,0.32598,1.42358,-0.16098,0.44037,1.22994,0.40473,0.47994,1.19688,-0.01432,0.5288,1.4326,0.30889,0.54079,1.43038
930,0.18735,0.35004,1.50917,-0.00018,0.50719,0.1354,0.25251,0.12461,0.08068,0.06972,0.60452,0.53453,0.2738,0.26361,0.4713,0.07365,0.38059,0.90766,0.23321,0.32033,0.89881,0.0177,0.33634,1.44145,0.35396,0.32146,1.42234,-0.16852,0.44264,1.24213,0.40748,0.47361,1.19462,-0.0116,0.5274,1.43858,0.31541,0.53485,1.42952
931,0.19134,0.34856,1.50998,-0.00248,0.51259,0.1396,0.25244,0.12441,0.08131,0.07097,0.60979,0.53812,0.27323,0.26099,0.47281,0.07327,0.38316,0.90963,0.2312,0.31885,0.90003,0.01931,0.34072,1.44657,0.35537,0.31669,1.42087,-0.17574,0.44664,1.25565,0.40936,0.46727,1.19222,-0.00779,0.52715,1.44463,0.32134,0.52953,1.42841
932,0.19544,0.34718,1.51088,-0.00492,0.51782,0.14329,0.25227,0.12442,0.08197,0.07214,0.61416,0.54134,0.27212,0.25829,0.47445,0.07276,0.38573,0.91175,0.22904,0.31764,0.90137,0.02095,0.3449,1.45185,0.35627,0.31208,1.41961,-0.18211,0.45301,1.27078,0.41059,0.461,1.18995,-0.00233,0.52871,1.45064,0.3262,0.5252,1.42694
933,0.19956,0.34593,1.51178,-0.00736,0.52269,0.14657,0.25214,0.1246,0.0825,0.07331,0.61766,0.54424,0.27037,0.25556,0.47604,0.07217,0.38787,0.9138,0.22685,0.31633,0.90272,0.02275,0.3485,1.45695,0.35651,0.3078,1.41894,-0.18751,0.46173,1.28761,0.41151,0.4547,1.18814,0.0047,0.53158,1.45665,0.33017,0.52144,1.4255
934,0.20346,0.34472,1.51266,-0.00986,0.52727,0.14949,0.25213,0.12483,0.08289,0.0743,0.62034,0.54689,0.26804,0.25292,0.47748,0.0714,0.38938,0.91571,0.22463,0.31486,0.90399,0.02466,0.35196,1.4616,0.35609,0.30345,1.41871,-0.19222,0.47219,1.30597,0.41202,0.44829,1.18683,0.0127,0.5348,1.46246,0.33369,0.51753,1.42448
935,0.20697,0.34358,1.51356,-0.0126,0.53186,0.15205,0.25214,0.12502,0.08324,0.0749,0.62236,0.54932,0.26537,0.25044,0.47878,0.07042,0.3904,0.91749,0.22227,0.31321,0.90521,0.02663,0.35629,1.46592,0.3553,0.29856,1.41823,-0.19636,0.4839,1.32556,0.41188,0.44195,1.18562,0.02107,0.53801,1.46767,0.33712,0.5131,1.42386
936,0.21015,0.34276,1.51445,-0.01553,0.5366,0.15424,0.25199,0.12505,0.08363,0.07514,0.62393,0.5515,0.26258,0.24803,0.48002,0.06929,0.39108,0.91909,0.21977,0.3113,0.9064,0.02867,0.362,1.47052,0.35457,0.29324,1.41702,-0.1992,0.49728,1.34609,0.4112,0.43592,1.18398,0.03002,0.54181,1.47209,0.34079,0.50823,1.42319
937,0.21321,0.34245,1.51523,-0.01836,0.54138,0.15605,0.25165,0.1248,0.08404,0.07529,0.62517,0.55338,0.25974,0.24554,0.48117,0.06808,0.3915,0.92044,0.21716,0.3092,0.90752,0.03086,0.3685,1.47601,0.3541,0.28802,1.41534,-0.19933,0.51318,1.36743,0.41059,0.42987,1.18177,0.04045,0.54706,1.47586,0.34497,0.50318,1.42204
938,0.21628,0.34251,1.51572,-0.02094,0.54622,0.15742,0.25116,0.12436,0.08438,0.07546,0.62612,0.5549,0.2569,0.24301,0.48218,0.06677,0.39176,0.92148,0.2145,0.30705,0.90849,0.03331,0.37469,1.48244,0.35336,0.28301,1.41383,-0.19562,0.53171,1.38946,0.41049,0.42308,1.17933,0.05299,0.554,1.47945,0.34947,0.49817,1.42027
939,0.21919,0.34261,1.51582,-0.02329,0.55114,0.15821,0.25066,0.12404,0.08456,0.07546,0.62676,0.55595,0.2543,0.24072,0.48296,0.06539,0.39195,0.92221,0.21178,0.30495,0.90923,0.03596,0.38005,1.48913,0.35156,0.27801,1.41267,-0.18808,0.55203,1.41206,0.41074,0.41529,1.17703,0.06724,0.56251,1.48349,0.35384,0.49341,1.41801
940,0.22153,0.34272,1.51555,-0.02541,0.55591,0.15832,0.2503,0.12402,0.08453,0.07491,0.62698,0.5565,0.25216,0.23879,0.4835,0.06392,0.39213,0.92271,0.20896,0.3029,0.90972,0.03843,0.38511,1.49513,0.34854,0.27311,1.41154,-0.1774,0.57356,1.43499,0.41084,0.40716,1.17485,0.08252,0.57253,1.4883,0.35801,0.48891,1.41555
941,0.22292,0.3432,1.51502,-0.02724,0.56006,0.15773,0.25017,0.12416,0.08435,0.07366,0.62662,0.55655,0.25035,0.23713,0.48384,0.06235,0.39232,0.9231,0.20594,0.3008,0.91,0.04059,0.39108,1.50008,0.3449,0.26856,1.41021,-0.16343,0.59676,1.45791,0.41043,0.3994,1.1726,0.09921,0.58346,1.49317,0.3625,0.4841,1.4133
942,0.22325,0.34438,1.51431,-0.02883,0.56342,0.15657,0.25021,0.12424,0.08413,0.07183,0.62573,0.55614,0.24856,0.23566,0.48406,0.06067,0.39258,0.92342,0.20255,0.29843,0.91018,0.0431,0.39897,1.50454,0.34098,0.26407,1.40879,-0.14488,0.62211,1.48047,0.40934,0.39183,1.1703,0.1184,0.59326,1.49634,0.36756,0.47824,1.41154
943,0.22277,0.34608,1.51344,-0.03041,0.56636,0.15506,0.25014,0.1242,0.08399,0.06985,0.62449,0.55535,0.2467,0.23439,0.48425,0.05886,0.39292,0.92364,0.19869,0.29577,0.91035,0.0469,0.40875,1.50926,0.33637,0.25913,1.40741,-0.12094,0.64852,1.50218,0.40742,0.38376,1.16805,0.13979,0.59972,1.49599,0.37267,0.47142,1.40995
944,0.22197,0.34763,1.51239,-0.03211,0.5691,0.15346,0.24965,0.12407,0.08391,0.06813,0.62309,0.55434,0.24491,0.23326,0.48443,0.0569,0.39324,0.92369,0.19451,0.29295,0.91049,0.05219,0.41947,1.51431,0.33068,0.25377,1.40605,-0.09281,0.67368,1.52218,0.40462,0.3749,1.16577,0.16094,0.60256,1.49125,0.37726,0.46466,1.40786
945,0.2211,0.34868,1.51113,-0.03376,0.57142,0.15191,0.24869,0.12389,0.08378,0.06679,0.62164,0.5532,0.24333,0.23218,0.48453,0.05483,0.39333,0.92349,0.19025,0.29007,0.91052,0.05841,0.43033,1.51894,0.32407,0.24862,1.40457,-0.06255,0.69613,1.53973,0.40095,0.36595,1.16333,0.17935,0.60307,1.48293,0.38111,0.45888,1.40495
946,0.21993,0.34964,1.50965,-0.03506,0.57291,0.15045,0.24757,0.12373,0.08354,0.06565,0.62027,0.55205,0.24203,0.23119,0.48451,0.05259,0.39306,0.92298,0.18598,0.28716,0.91038,0.06502,0.4412,1.52226,0.31675,0.24418,1.40293,-0.03089,0.71594,1.55432,0.39641,0.35789,1.16087,0.19474,0.60222,1.47331,0.38403,0.45421,1.40166
947,0.21813,0.35132,1.50783,-0.03592,0.5735,0.14909,0.24672,0.12363,0.0833,0.06452,0.61901,0.55097,0.24095,0.23059,0.4844,0.05005,0.39253,0.92229,0.18165,0.28436,0.91011,0.07195,0.452,1.52401,0.30854,0.24055,1.40132,0.00256,0.73337,1.56558,0.39128,0.35091,1.15874,0.20892,0.60046,1.46482,0.38592,0.45023,1.39856
948,0.21579,0.35409,1.5054,-0.03656,0.57343,0.14788,0.24624,0.12357,0.08324,0.06353,0.61781,0.54997,0.24005,0.23072,0.48428,0.04717,0.3919,0.92156,0.17723,0.28184,0.90981,0.07939,0.46248,1.52442,0.29932,0.23798,1.40001,0.03769,0.74808,1.57343,0.38607,0.34424,1.157,0.22426,0.59857,1.45837,0.38716,0.44615,1.39579
949,0.21307,0.35783,1.50224,-0.03732,0.57305,0.14679,0.24599,0.12358,0.08339,0.06277,0.61652,0.54898,0.23936,0.23163,0.48419,0.04398,0.39129,0.92087,0.17278,0.27973,0.9095,0.08728,0.4724,1.52385,0.28968,0.23658,1.39906,0.07374,0.75978,1.57804,0.38103,0.33718,1.15533,0.24201,0.597,1.45319,0.38822,0.44109,1.39316
950,0.21021,0.36217,1.49861,-0.03834,0.57251,0.1457,0.24574,0.12368,0.08357,0.06209,0.61508,0.5479,0.23879,0.23296,0.48403,0.04054,0.39076,0.92019,0.16848,0.27817,0.90905,0.095,0.48154,1.52245,0.28087,0.23586,1.39828,0.11001,0.76835,1.57923,0.37601,0.32981,1.15335,0.26145,0.59431,1.44817,0.38919,0.43466,1.39051
951,0.2079,0.36643,1.49507,-0.03942,0.57179,0.14449,0.24537,0.12385,0.08348,0.06132,0.61365,0.54669,0.23803,0.2342,0.48363,0.03689,0.39037,0.91943,0.16441,0.27731,0.90832,0.10172,0.48966,1.52021,0.2738,0.23506,1.3974,0.14558,0.7736,1.57646,0.37081,0.32265,1.15084,0.28064,0.58844,1.44277,0.38983,0.42743,1.38763
952,0.20711,0.36989,1.49199,-0.0403,0.57094,0.14322,0.24485,0.12403,0.08302,0.06048,0.61262,0.54543,0.23678,0.23497,0.483,0.03321,0.39016,0.91846,0.16056,0.27691,0.90734,0.10705,0.49678,1.51706,0.2682,0.23421,1.39647,0.17901,0.77566,1.56955,0.36534,0.31591,1.14795,0.29843,0.57937,1.43686,0.3901,0.42042,1.38433
953,0.20817,0.37247,1.4893,-0.04103,0.57014,0.14218,0.24419,0.12422,0.0824,0.05969,0.61249,0.54434,0.23507,0.23519,0.48235,0.02978,0.39012,0.91722,0.15684,0.27651,0.90638,0.11133,0.50341,1.51297,0.263,0.23407,1.39575,0.20891,0.77554,1.55911,0.35946,0.30943,1.14498,0.31522,0.5692,1.43059,0.39024,0.41412,1.38057
954,0.21043,0.37473,1.48669,-0.04177,0.56961,0.14167,0.24347,0.12433,0.08193,0.05898,0.61352,0.54365,0.23322,0.23506,0.48192,0.02688,0.39031,0.91584,0.15317,0.27579,0.90567,0.11504,0.5101,1.50818,0.25763,0.23501,1.39522,0.23479,0.77458,1.54585,0.35292,0.30304,1.14192,0.3314,0.55932,1.42448,0.39017,0.4082,1.37636
955,0.21286,0.37706,1.48404,-0.04259,0.56941,0.14164,0.24281,0.12412,0.08171,0.05836,0.61545,0.54333,0.23144,0.23468,0.48172,0.02447,0.39086,0.91454,0.1495,0.2749,0.90516,0.11831,0.51682,1.50305,0.25274,0.23636,1.39455,0.25698,0.77324,1.53006,0.34568,0.29668,1.13844,0.34563,0.54916,1.41902,0.38909,0.40238,1.37158
956,0.21494,0.37912,1.48141,-0.04355,0.56944,0.14173,0.24228,0.12342,0.08158,0.05785,0.61758,0.54306,0.2296,0.23389,0.48157,0.02224,0.39177,0.91337,0.1458,0.27419,0.90465,0.12122,0.52312,1.49763,0.24927,0.23703,1.39345,0.27552,0.77149,1.51209,0.33809,0.29043,1.13436,0.35622,0.53829,1.41459,0.38642,0.39692,1.36617
957,0.21665,0.38043,1.47885,-0.04468,0.56956,0.14162,0.24184,0.12232,0.0814,0.05738,0.61949,0.54256,0.22744,0.23259,0.48138,0.01995,0.39295,0.91224,0.14207,0.27384,0.90405,0.1244,0.52882,1.49171,0.24726,0.23664,1.39191,0.28959,0.77051,1.49306,0.33073,0.28445,1.12996,0.36386,0.52886,1.41251,0.38261,0.39214,1.36044
958,0.21817,0.38104,1.47625,-0.04592,0.56981,0.14131,0.24148,0.12119,0.08121,0.05685,0.62129,0.54187,0.22495,0.23099,0.48125,0.0177,0.39428,0.91108,0.13842,0.27371,0.90353,0.12862,0.53437,1.48538,0.2459,0.23569,1.39016,0.29869,0.77242,1.47433,0.32418,0.27899,1.12583,0.37111,0.52441,1.41394,0.37895,0.38796,1.35504
959,0.21968,0.38157,1.47349,-0.04711,0.57039,0.14108,0.24121,0.12039,0.0812,0.05632,0.62338,0.54127,0.22244,0.22958,0.4813,0.01585,0.39576,0.90996,0.13496,0.27355,0.90326,0.13382,0.54008,1.47916,0.24449,0.23484,1.38856,0.30381,0.77736,1.45651,0.31883,0.27422,1.12249,0.3792,0.52592,1.41783,0.37657,0.38423,1.35047
960,0.22135,0.38254,1.47063,-0.048,0.57135,0.14119,0.24109,0.12004,0.08133,0.05606,0.62599,0.541,0.22029,0.22873,0.48147,0.01443,0.39734,0.90893,0.13166,0.27327,0.90312,0.13886,0.54532,1.47353,0.243,0.23437,1.38738,0.30687,0.7827,1.43992,0.31487,0.26998,1.1201,0.38722,0.53051,1.42129,0.37588,0.3808,1.34683
961,0.22314,0.38394,1.46782,-0.04829,0.57243,0.14165,0.24117,0.11994,0.0814,0.05627,0.62899,0.54107,0.21873,0.22855,0.48148,0.01304,0.39892,0.90792,0.12837,0.27305,0.90277,0.14276,0.54904,1.46863,0.2418,0.23423,1.38657,0.30915,0.786,1.42531,0.3122,0.266,1.11841,0.39396,0.53462,1.42164,0.37654,0.37747,1.3439
962,0.22471,0.38535,1.46525,-0.04793,0.57322,0.14228,0.24137,0.11989,0.08129,0.05685,0.63196,0.54133,0.21772,0.22889,0.48119,0.01126,0.40023,0.90684,0.12505,0.27297,0.90203,0.14559,0.55117,1.4643,0.24122,0.23437,1.3859,0.31098,0.78726,1.41314,0.3104,0.26224,1.117,0.39862,0.53688,1.41832,0.37775,0.37428,1.34132
963,0.22565,0.38652,1.46303,-0.04716,0.57369,0.14293,0.24149,0.11988,0.08106,0.05751,0.63454,0.54168,0.21709,0.22954,0.48074,0.00907,0.40104,0.9057,0.1218,0.27283,0.90107,0.14799,0.55265,1.4604,0.24132,0.23477,1.38529,0.31252,0.78792,1.40307,0.30887,0.25873,1.1156,0.4009,0.53794,1.41314,0.37858,0.37152,1.33882
964,0.22582,0.38759,1.46112,-0.04627,0.5741,0.14357,0.24144,0.12003,0.08091,0.05806,0.63658,0.54217,0.21672,0.23043,0.48036,0.00674,0.40135,0.90468,0.11865,0.27241,0.90019,0.15019,0.55432,1.45689,0.24168,0.23541,1.38481,0.31392,0.78888,1.39457,0.30721,0.25529,1.11428,0.40121,0.53866,1.40772,0.37864,0.36957,1.3362
965,0.22563,0.38874,1.45936,-0.04539,0.57469,0.14423,0.24127,0.12041,0.08092,0.05847,0.63811,0.5428,0.21655,0.23157,0.48015,0.00451,0.40139,0.90395,0.1156,0.27175,0.89948,0.1518,0.55602,1.45378,0.24166,0.2363,1.38445,0.31526,0.78974,1.38767,0.30558,0.25167,1.11325,0.3997,0.53855,1.40085,0.37797,0.3687,1.33342
966,0.22578,0.38985,1.45768,-0.04459,0.57544,0.14485,0.24107,0.12093,0.08103,0.05877,0.63931,0.54347,0.21648,0.23288,0.48006,0.00247,0.40145,0.90352,0.1127,0.27108,0.89887,0.15226,0.557,1.45114,0.24092,0.23734,1.38401,0.31707,0.78907,1.38265,0.30446,0.24805,1.1125,0.39499,0.53554,1.39006,0.37665,0.36898,1.33061
967,0.22659,0.39073,1.45603,-0.0439,0.57622,0.14532,0.24087,0.12147,0.08117,0.05904,0.64036,0.54401,0.21641,0.23422,0.47998,0.00061,0.40173,0.90321,0.10996,0.27063,0.89828,0.15128,0.55672,1.44922,0.23987,0.23819,1.38341,0.32029,0.78524,1.37905,0.30409,0.24505,1.11193,0.38511,0.52798,1.37481,0.37495,0.36999,1.32822
968,0.22772,0.3914,1.45447,-0.04339,0.57686,0.14561,0.24067,0.12185,0.08131,0.05935,0.64137,0.54429,0.21629,0.23556,0.47985,-0.00106,0.40218,0.90279,0.10745,0.2704,0.89767,0.14927,0.55543,1.44833,0.23929,0.23845,1.3829,0.32467,0.77827,1.3756,0.30427,0.24324,1.11155,0.37055,0.51752,1.35819,0.37353,0.37102,1.32669
969,0.22856,0.39201,1.45306,-0.0431,0.57718,0.14574,0.24052,0.122,0.08144,0.05974,0.64226,0.54431,0.21609,0.23688,0.47964,-0.00244,0.40255,0.90216,0.10542,0.27023,0.89711,0.14731,0.55413,1.4482,0.23957,0.23823,1.38266,0.32839,0.7711,1.37177,0.30478,0.24252,1.11137,0.35599,0.50852,1.34551,0.37295,0.37167,1.32604
970,0.22893,0.39255,1.45179,-0.04302,0.57717,0.14571,0.2404,0.12198,0.08151,0.06002,0.6429,0.54412,0.21587,0.23808,0.47935,-0.00328,0.40262,0.90139,0.10416,0.26994,0.89665,0.14647,0.5538,1.44793,0.2405,0.23801,1.38259,0.3298,0.76782,1.3686,0.30554,0.24234,1.11125,0.34744,0.50467,1.33955,0.37312,0.37219,1.32568
971,0.22906,0.3929,1.45064,-0.04309,0.57689,0.14546,0.24024,0.12199,0.08139,0.05995,0.64322,0.54377,0.21574,0.23915,0.47892,-0.0036,0.40241,0.90064,0.10373,0.26963,0.89625,0.14727,0.55497,1.44673,0.24158,0.23816,1.38242,0.3284,0.77082,1.3673,0.30648,0.24227,1.11105,0.34788,0.50769,1.33929,0.37363,0.37309,1.32503
972,0.22917,0.39319,1.44967,-0.04334,0.57634,0.14497,0.24001,0.1221,0.08111,0.0595,0.64321,0.54325,0.2158,0.24026,0.47836,-0.00361,0.40215,0.90003,0.10387,0.26949,0.8958,0.14941,0.55751,1.44465,0.24228,0.23859,1.38207,0.32437,0.77928,1.36773,0.30748,0.24224,1.11076,0.3558,0.51702,1.34256,0.37421,0.37447,1.324
973,0.2292,0.39376,1.44895,-0.04376,0.57562,0.1443,0.2398,0.12218,0.08093,0.0588,0.64289,0.54257,0.21606,0.24154,0.47785,-0.00352,0.40201,0.89961,0.10419,0.26954,0.89538,0.15192,0.56054,1.44265,0.24247,0.23914,1.38162,0.31891,0.78932,1.36859,0.30835,0.24242,1.11047,0.3663,0.52914,1.34714,0.37483,0.37595,1.32298
974,0.22902,0.39475,1.44858,-0.04422,0.57496,0.14354,0.23969,0.12217,0.08103,0.058,0.64247,0.54187,0.2165,0.24281,0.4776,-0.0034,0.40199,0.89933,0.10441,0.2696,0.89515,0.15364,0.5629,1.44161,0.24241,0.23974,1.38123,0.31415,0.79664,1.36874,0.30905,0.24293,1.11027,0.3746,0.53893,1.35055,0.37544,0.37715,1.32237
975,0.22857,0.39586,1.44857,-0.04453,0.57449,0.1428,0.23969,0.12222,0.08131,0.05709,0.64211,0.54126,0.21703,0.24385,0.47761,-0.00321,0.40199,0.89916,0.10455,0.26956,0.89513,0.15387,0.56394,1.44149,0.24234,0.24047,1.38103,0.31153,0.79944,1.36803,0.30962,0.24383,1.11022,0.37844,0.54324,1.35118,0.37581,0.37825,1.32226
976,0.22794,0.39648,1.44888,-0.04463,0.5741,0.14214,0.23969,0.1225,0.08146,0.05606,0.64182,0.54082,0.21756,0.24462,0.47764,-0.0029,0.40194,0.89909,0.10481,0.26947,0.89513,0.15245,0.56372,1.44172,0.24227,0.24131,1.38099,0.31099,0.79813,1.36673,0.31,0.24495,1.1103,0.37686,0.54174,1.34866,0.37577,0.37962,1.32231
977,0.22713,0.3964,1.44953,-0.04467,0.57363,0.14155,0.23957,0.12294,0.08133,0.05492,0.64155,0.54047,0.21805,0.2453,0.47747,-0.00246,0.40179,0.89908,0.10537,0.26941,0.89503,0.14966,0.56256,1.44201,0.2422,0.24218,1.38095,0.31185,0.79375,1.36487,0.31002,0.24611,1.11029,0.3697,0.53571,1.34325,0.37546,0.38116,1.32217
978,0.22601,0.39601,1.45054,-0.0448,0.57308,0.14105,0.23932,0.12333,0.08105,0.05374,0.64129,0.54018,0.21857,0.24614,0.47709,-0.00192,0.40146,0.89902,0.10629,0.26939,0.89481,0.14622,0.56088,1.44233,0.2423,0.24289,1.38079,0.313,0.78778,1.36228,0.30957,0.24732,1.11,0.35908,0.52776,1.33643,0.37523,0.38243,1.32177
979,0.2246,0.39589,1.45174,-0.04504,0.57256,0.14069,0.23909,0.12363,0.08081,0.05273,0.64103,0.53996,0.21929,0.24736,0.47661,-0.00124,0.40091,0.89887,0.10757,0.26935,0.89455,0.14301,0.55929,1.44263,0.24282,0.24323,1.38056,0.31294,0.7826,1.35918,0.30879,0.24871,1.10947,0.34909,0.52128,1.33083,0.37527,0.38334,1.32129
980,0.22326,0.39619,1.45285,-0.04534,0.57208,0.14052,0.23897,0.12402,0.08067,0.05212,0.64071,0.53985,0.2204,0.2491,0.4761,-0.00028,0.40016,0.89869,0.10925,0.2692,0.89428,0.14042,0.5584,1.44263,0.24393,0.24315,1.38037,0.31064,0.78042,1.35638,0.30811,0.25036,1.10889,0.34286,0.51854,1.32839,0.37552,0.3841,1.32097
981,0.22216,0.39661,1.45381,-0.0457,0.57163,0.1405,0.23889,0.12459,0.0806,0.0519,0.64029,0.53978,0.22181,0.2512,0.47561,0.00109,0.39925,0.89853,0.11132,0.26888,0.89408,0.13836,0.55825,1.4423,0.24555,0.24282,1.38036,0.30619,0.78141,1.35434,0.30794,0.25224,1.10854,0.34045,0.51949,1.32932,0.3758,0.38481,1.32121
982,0.22117,0.39674,1.45478,-0.04609,0.57128,0.14044,0.23881,0.12513,0.08065,0.05181,0.63973,0.53969,0.2233,0.2533,0.47522,0.00281,0.39824,0.89839,0.11369,0.26842,0.89402,0.13676,0.55829,1.44208,0.24729,0.24251,1.38063,0.30031,0.78412,1.35284,0.30841,0.25424,1.1086,0.34039,0.52262,1.33258,0.37599,0.38534,1.32227
983,0.22028,0.39632,1.45589,-0.04642,0.57112,0.14023,0.23868,0.12537,0.08082,0.05163,0.63891,0.53955,0.2247,0.25512,0.47494,0.00463,0.39713,0.89832,0.11621,0.2679,0.89411,0.13561,0.55801,1.4425,0.24877,0.2423,1.38107,0.29347,0.78718,1.35154,0.30924,0.25609,1.10899,0.34219,0.52675,1.33713,0.37589,0.38585,1.32377
984,0.21965,0.39534,1.45716,-0.04667,0.57109,0.1399,0.23852,0.12536,0.08098,0.0514,0.63772,0.53942,0.22606,0.25667,0.47463,0.00629,0.39592,0.89842,0.11883,0.26753,0.89418,0.13472,0.55723,1.44358,0.24994,0.24207,1.38151,0.28589,0.78991,1.35022,0.31013,0.25768,1.10947,0.34574,0.53154,1.34233,0.37548,0.38669,1.3251
985,0.21936,0.39398,1.45863,-0.04688,0.57105,0.13961,0.23836,0.12535,0.081,0.05124,0.63628,0.53934,0.22751,0.2581,0.47422,0.00775,0.39472,0.89871,0.12153,0.26744,0.89412,0.13383,0.5558,1.44484,0.25106,0.24165,1.38205,0.27804,0.79175,1.34872,0.31123,0.2593,1.11013,0.34914,0.53613,1.34732,0.37519,0.38778,1.3265
986,0.21934,0.39247,1.46031,-0.04706,0.57088,0.13945,0.23829,0.12553,0.08093,0.05124,0.63493,0.53933,0.22913,0.25945,0.47379,0.00921,0.39366,0.89906,0.1242,0.26748,0.89398,0.13271,0.55352,1.44575,0.25234,0.24082,1.38295,0.2706,0.79209,1.34684,0.31295,0.26135,1.11133,0.34938,0.53875,1.35102,0.37557,0.38849,1.32887
987,0.21937,0.39085,1.46204,-0.04717,0.57058,0.13938,0.2384,0.12583,0.08092,0.05131,0.63385,0.53934,0.23092,0.26075,0.47347,0.01091,0.39267,0.89931,0.12678,0.26732,0.89388,0.13104,0.55041,1.44616,0.25378,0.23954,1.38431,0.26363,0.79078,1.34443,0.31547,0.26365,1.11323,0.34508,0.5384,1.35287,0.37672,0.38855,1.33245
988,0.21909,0.3892,1.46363,-0.04713,0.57015,0.13929,0.23876,0.12608,0.08106,0.05129,0.63288,0.53935,0.23289,0.26206,0.47328,0.01278,0.39155,0.89943,0.12933,0.26683,0.89386,0.12849,0.54682,1.44626,0.25516,0.23796,1.38577,0.25645,0.78838,1.34145,0.31844,0.26562,1.11539,0.33793,0.53615,1.3534,0.37815,0.38847,1.33619
989,0.2182,0.38768,1.46504,-0.04695,0.56967,0.13923,0.23934,0.1262,0.08132,0.05133,0.63181,0.53941,0.23499,0.26332,0.47316,0.01462,0.39018,0.89948,0.13192,0.26618,0.89388,0.12526,0.54321,1.44618,0.25639,0.23628,1.38686,0.2484,0.78578,1.33799,0.32147,0.26697,1.11725,0.33134,0.53425,1.35388,0.37923,0.38903,1.339
990,0.21679,0.3864,1.46635,-0.0466,0.56917,0.13927,0.24002,0.12622,0.08159,0.05173,0.63067,0.53954,0.23718,0.26439,0.47307,0.01638,0.3887,0.89951,0.13459,0.26557,0.89391,0.12195,0.53998,1.44595,0.2577,0.23451,1.38741,0.2396,0.78364,1.33414,0.32463,0.268,1.11858,0.32791,0.53434,1.35545,0.37981,0.39024,1.34089
991,0.21527,0.38526,1.46769,-0.04601,0.56864,0.1394,0.24066,0.12627,0.08178,0.0526,0.62952,0.53969,0.23943,0.26525,0.47299,0.01817,0.38727,0.89957,0.13735,0.26508,0.89396,0.11886,0.53726,1.44581,0.25949,0.23263,1.38764,0.2307,0.78173,1.32991,0.32825,0.26898,1.11964,0.3284,0.5367,1.35846,0.38031,0.39111,1.34276
992,0.21403,0.38402,1.46921,-0.04515,0.56816,0.13949,0.24123,0.12635,0.08191,0.05382,0.6283,0.53981,0.24177,0.26602,0.47287,0.02011,0.38602,0.89973,0.14019,0.26471,0.89396,0.11594,0.53468,1.44618,0.26171,0.23078,1.38784,0.22218,0.77924,1.3253,0.33225,0.26979,1.12068,0.33188,0.54048,1.36215,0.3811,0.39052,1.34529
993,0.21324,0.38245,1.47091,-0.04415,0.56784,0.1395,0.24174,0.12638,0.08198,0.05529,0.6269,0.53986,0.24411,0.26678,0.47267,0.02222,0.38497,0.90008,0.14308,0.26447,0.89388,0.11329,0.53172,1.44701,0.26386,0.22917,1.3882,0.21393,0.77567,1.32024,0.33602,0.27011,1.12176,0.33581,0.54442,1.36571,0.38215,0.38836,1.34826
994,0.21277,0.38047,1.47272,-0.04321,0.56775,0.13941,0.24219,0.12633,0.08194,0.05693,0.6252,0.53983,0.24631,0.26747,0.47235,0.02443,0.38406,0.90063,0.14597,0.26427,0.89372,0.11119,0.5281,1.44763,0.26576,0.22787,1.38882,0.20516,0.7714,1.31466,0.33917,0.26992,1.1229,0.33736,0.54792,1.36926,0.38321,0.38578,1.35104
995,0.21227,0.37829,1.47451,-0.04248,0.56767,0.13919,0.24259,0.12631,0.08178,0.05846,0.62315,0.53968,0.24829,0.26796,0.47199,0.02673,0.38311,0.90128,0.14889,0.264,0.89358,0.10958,0.52396,1.44747,0.26793,0.2268,1.38985,0.19504,0.76706,1.30851,0.34195,0.26946,1.1242,0.3348,0.55074,1.37233,0.38418,0.38408,1.3533
996,0.21158,0.37626,1.47623,-0.04192,0.56732,0.13888,0.24299,0.1264,0.08162,0.05967,0.62102,0.53945,0.25003,0.26816,0.47177,0.02922,0.38208,0.90189,0.15196,0.26362,0.89366,0.10816,0.5198,1.44661,0.27072,0.22591,1.39125,0.18364,0.76274,1.30173,0.34488,0.26895,1.1257,0.32829,0.55236,1.37396,0.38512,0.38366,1.35511
997,0.21083,0.37446,1.47788,-0.04142,0.56655,0.13858,0.24347,0.12655,0.08162,0.06066,0.61907,0.53919,0.25155,0.26816,0.4718,0.03201,0.38103,0.90237,0.15525,0.26308,0.8941,0.10673,0.51615,1.44563,0.27369,0.22507,1.39272,0.17189,0.75805,1.29413,0.34814,0.26852,1.12731,0.31936,0.55267,1.37457,0.3862,0.38397,1.35673
998,0.21027,0.37267,1.47943,-0.04088,0.5653,0.13827,0.24403,0.12659,0.08189,0.06165,0.61721,0.53885,0.25295,0.26813,0.47208,0.03504,0.37992,0.90267,0.15867,0.26235,0.89482,0.10535,0.51328,1.44493,0.27619,0.22392,1.39396,0.16046,0.75265,1.28564,0.35145,0.26822,1.12892,0.30925,0.5521,1.37533,0.38747,0.38404,1.35848
999,0.21,0.37055,1.4809,-0.04028,0.56367,0.13771,0.24456,0.12647,0.08234,0.06273,0.61502,0.53823,0.25432,0.26817,0.47244,0.03803,0.37864,0.90278,0.16208,0.26147,0.89562,0.10404,0.51084,1.44456,0.27806,0.22206,1.39478,0.14936,0.74628,1.27656,0.35452,0.26795,1.13036,0.29914,0.55137,1.37643,0.38871,0.38331,1.36043
1000,0.20987,0.3681,1.48227,-0.03969,0.56178,0.13673,0.24496,0.12629,0.08272,0.06382,0.61217,0.53724,0.25575,0.26821,0.47272,0.04074,0.37719,0.9028,0.16535,0.26057,0.89629,0.10269,0.50819,1.44423,0.27953,0.21957,1.39519,0.13856,0.73861,1.26724,0.35747,0.2674,1.13154,0.29064,0.55102,1.37714,0.38983,0.38203,1.36224
1001,0.20989,0.36566,1.48344,-0.03931,0.55972,0.13547,0.24519,0.1262,0.08289,0.06478,0.60873,0.536,0.25721,0.26806,0.47288,0.04317,0.37573,0.90291,0.16848,0.25984,0.89678,0.10108,0.50499,1.44346,0.28059,0.21698,1.3954,0.12853,0.72954,1.25763,0.36058,0.26639,1.13266,0.28482,0.55144,1.37702,0.39112,0.38096,1.36364
1002,0.21037,0.36342,1.48436,-0.0392,0.5575,0.13418,0.24529,0.12618,0.08292,0.0656,0.60497,0.53471,0.25852,0.2676,0.47303,0.04547,0.37435,0.90321,0.17154,0.25928,0.89729,0.09905,0.50153,1.44185,0.28127,0.21483,1.39576,0.11962,0.71939,1.24737,0.36388,0.26516,1.13401,0.28117,0.553,1.37627,0.39304,0.38064,1.36471
1003,0.21131,0.36118,1.4853,-0.03905,0.55503,0.13285,0.24533,0.1261,0.08299,0.06625,0.60107,0.53342,0.25948,0.26684,0.47331,0.04788,0.37299,0.90359,0.17461,0.25864,0.89801,0.09658,0.49826,1.43936,0.28213,0.21329,1.39647,0.11133,0.70869,1.23636,0.36714,0.26411,1.13558,0.27816,0.55609,1.37523,0.39567,0.38107,1.36562
1004,0.21211,0.35863,1.48666,-0.03844,0.55235,0.13129,0.2454,0.12594,0.08314,0.0667,0.59705,0.53206,0.26009,0.26579,0.47376,0.05049,0.37151,0.90388,0.17774,0.2577,0.89895,0.09387,0.49516,1.43653,0.28388,0.21218,1.39745,0.10266,0.69761,1.22522,0.37012,0.26345,1.13706,0.27465,0.56085,1.37395,0.39856,0.38183,1.36638
1005,0.21221,0.3558,1.48851,-0.0374,0.54967,0.1295,0.24561,0.12575,0.08328,0.06708,0.59293,0.5306,0.26058,0.26449,0.47429,0.05326,0.36981,0.90397,0.18095,0.25646,0.9,0.09116,0.49172,1.4343,0.28647,0.2112,1.39849,0.09328,0.68563,1.21498,0.37279,0.26311,1.13824,0.27045,0.56644,1.37248,0.40118,0.38251,1.36704
1006,0.21177,0.35303,1.49049,-0.03627,0.5472,0.12775,0.24605,0.12549,0.08337,0.0676,0.58875,0.52918,0.26114,0.26301,0.4748,0.05598,0.368,0.90403,0.18418,0.25519,0.901,0.08855,0.48738,1.43342,0.28916,0.20999,1.39941,0.08412,0.67207,1.20631,0.37538,0.26274,1.1393,0.26591,0.5713,1.37123,0.40346,0.38285,1.36776
1007,0.21138,0.35057,1.49217,-0.03514,0.54507,0.12627,0.24663,0.12497,0.08341,0.06836,0.58462,0.52801,0.26174,0.26134,0.47524,0.05855,0.36621,0.90428,0.18738,0.2541,0.90192,0.08587,0.48208,1.43366,0.29149,0.20849,1.40028,0.07657,0.65691,1.19902,0.3781,0.26198,1.14046,0.26124,0.57456,1.37082,0.40572,0.38282,1.3686
1008,0.21152,0.34828,1.49342,-0.03385,0.54327,0.12511,0.24729,0.12414,0.08337,0.06915,0.58057,0.52719,0.26222,0.2594,0.47559,0.06095,0.36432,0.90475,0.19057,0.25314,0.90275,0.08288,0.47623,1.43394,0.29368,0.20697,1.4013,0.07151,0.64103,1.19224,0.38092,0.26077,1.14175,0.2563,0.57667,1.37143,0.40805,0.38252,1.36946
1009,0.21223,0.3458,1.49446,-0.03243,0.54166,0.1242,0.24797,0.12319,0.08315,0.06963,0.5766,0.52673,0.26253,0.25717,0.47583,0.06313,0.36208,0.90531,0.19382,0.25215,0.90348,0.07941,0.47003,1.43323,0.29628,0.20588,1.40253,0.06884,0.62541,1.18533,0.38359,0.25946,1.14296,0.25092,0.57853,1.37255,0.41009,0.38218,1.37022
1010,0.21322,0.34295,1.49553,-0.03109,0.54018,0.12352,0.24855,0.12243,0.0827,0.06961,0.57283,0.52659,0.26279,0.25472,0.47596,0.06501,0.35937,0.90579,0.19711,0.25113,0.90411,0.07572,0.46358,1.43144,0.29963,0.20551,1.4038,0.06773,0.61055,1.17837,0.38601,0.25848,1.14379,0.24516,0.58065,1.37336,0.41141,0.38196,1.37076
1011,0.21413,0.34001,1.49674,-0.02994,0.539,0.12311,0.24893,0.12194,0.08215,0.06919,0.5695,0.52673,0.26314,0.25219,0.47609,0.0667,0.35634,0.90612,0.20039,0.25008,0.90469,0.07241,0.45727,1.42936,0.30367,0.20574,1.40507,0.06715,0.59645,1.17185,0.38833,0.25791,1.14433,0.23928,0.5829,1.37332,0.41205,0.38198,1.37117
1012,0.21488,0.3374,1.498,-0.02877,0.53832,0.123,0.24913,0.12159,0.08172,0.06867,0.5668,0.52718,0.26359,0.24971,0.47635,0.06838,0.35328,0.90638,0.20358,0.24892,0.90534,0.06997,0.45181,1.4279,0.30773,0.2061,1.40651,0.06646,0.58292,1.16616,0.39075,0.25761,1.14512,0.23362,0.58488,1.3722,0.41248,0.38243,1.37174
1013,0.21555,0.33532,1.49922,-0.02731,0.53822,0.12329,0.24925,0.12129,0.08152,0.06828,0.56467,0.52804,0.26405,0.24735,0.4768,0.07022,0.35024,0.90672,0.20663,0.24748,0.90615,0.06834,0.44753,1.42732,0.311,0.20611,1.40832,0.06559,0.56981,1.16133,0.39321,0.2573,1.14661,0.22828,0.58622,1.37029,0.41295,0.38344,1.37268
1014,0.21621,0.33358,1.50044,-0.02556,0.53858,0.12398,0.24933,0.12109,0.08151,0.06801,0.5629,0.52934,0.26453,0.24519,0.4774,0.07218,0.34712,0.90724,0.20957,0.24568,0.90707,0.06702,0.44407,1.42729,0.31338,0.20565,1.4105,0.06489,0.55718,1.15727,0.39538,0.25675,1.1487,0.22297,0.5868,1.3683,0.41341,0.38482,1.37383
1015,0.21676,0.33186,1.5017,-0.02379,0.53911,0.12502,0.24932,0.12093,0.08164,0.06777,0.56129,0.53096,0.26509,0.24326,0.47806,0.0741,0.34381,0.90786,0.21241,0.24362,0.90801,0.06581,0.44067,1.4273,0.31542,0.20485,1.41272,0.06475,0.54522,1.15385,0.39704,0.25611,1.15084,0.21723,0.58669,1.36699,0.41382,0.38616,1.37492
1016,0.21707,0.33008,1.50296,-0.02219,0.53967,0.12636,0.24914,0.12067,0.08181,0.06759,0.55986,0.53281,0.26568,0.24148,0.47866,0.07585,0.34042,0.90852,0.21506,0.24148,0.90886,0.06486,0.43672,1.42705,0.31759,0.204,1.41461,0.06527,0.53399,1.15092,0.39832,0.25574,1.15255,0.21076,0.5861,1.3666,0.41427,0.38731,1.37581
1017,0.21713,0.32832,1.50413,-0.02076,0.54046,0.12795,0.24889,0.12028,0.08191,0.06751,0.55869,0.53482,0.26621,0.23964,0.47916,0.07736,0.33709,0.90922,0.21745,0.2394,0.90958,0.0642,0.43204,1.4264,0.31986,0.20349,1.41598,0.06633,0.52335,1.14825,0.39964,0.25568,1.15371,0.20358,0.58542,1.36668,0.41481,0.38825,1.37643
1018,0.21698,0.32666,1.5052,-0.01935,0.54165,0.12961,0.24877,0.12,0.08189,0.06738,0.55767,0.5369,0.26676,0.23768,0.47961,0.07871,0.3339,0.90997,0.21961,0.23737,0.91021,0.0634,0.42695,1.42542,0.32207,0.20357,1.41695,0.06783,0.51331,1.14572,0.4013,0.25554,1.15447,0.19593,0.58508,1.36672,0.41528,0.38898,1.37676
1019,0.21669,0.32505,1.50626,-0.01785,0.54304,0.13115,0.24885,0.12003,0.08183,0.06692,0.55658,0.53895,0.26749,0.23573,0.4801,0.07998,0.33075,0.91071,0.22166,0.23538,0.91084,0.06214,0.4219,1.42425,0.32436,0.20393,1.41786,0.06975,0.50416,1.14338,0.40336,0.25517,1.15517,0.18829,0.58511,1.36654,0.41535,0.38973,1.37689
1020,0.21628,0.32338,1.50732,-0.01632,0.54407,0.13259,0.24893,0.12028,0.08186,0.06612,0.55534,0.54093,0.26846,0.23394,0.48068,0.08114,0.32758,0.91144,0.22364,0.23344,0.91152,0.06056,0.41715,1.4231,0.32686,0.20396,1.41893,0.07199,0.49596,1.14137,0.40574,0.25499,1.15617,0.18125,0.58485,1.36624,0.41493,0.39088,1.37721
1021,0.21582,0.32161,1.5083,-0.01494,0.54444,0.13414,0.24891,0.12046,0.08203,0.06534,0.55412,0.54295,0.26946,0.23233,0.4813,0.08216,0.32438,0.91217,0.22554,0.23158,0.91224,0.05894,0.41265,1.42213,0.32941,0.20332,1.42013,0.07423,0.4886,1.13981,0.40829,0.2555,1.15759,0.17529,0.58377,1.36593,0.41434,0.39231,1.37817
1022,0.21541,0.31976,1.50913,-0.01374,0.54439,0.1359,0.24895,0.12038,0.08225,0.0649,0.5531,0.54506,0.27026,0.23087,0.48188,0.08312,0.3212,0.91285,0.2274,0.22981,0.91292,0.05733,0.40819,1.42158,0.33166,0.20226,1.42127,0.07592,0.48218,1.13893,0.4108,0.2567,1.15927,0.17052,0.58218,1.36575,0.41408,0.39345,1.37994
1023,0.21515,0.31787,1.50983,-0.01254,0.54436,0.13761,0.24924,0.12014,0.08239,0.06475,0.55218,0.54704,0.27068,0.22956,0.4823,0.08412,0.31808,0.91338,0.22934,0.2282,0.91349,0.05559,0.40373,1.42158,0.3335,0.2012,1.42227,0.07656,0.47712,1.13895,0.41305,0.25813,1.16093,0.16674,0.58072,1.36596,0.41427,0.39392,1.38222
1024,0.21505,0.31602,1.51049,-0.01119,0.54451,0.13896,0.24968,0.11992,0.08233,0.06461,0.55099,0.54869,0.27078,0.22835,0.48253,0.08508,0.31504,0.91378,0.2313,0.2268,0.91389,0.0538,0.39944,1.42204,0.33506,0.20049,1.42315,0.07613,0.47348,1.13967,0.41501,0.25947,1.16238,0.16379,0.57928,1.36665,0.41453,0.39391,1.38449
1025,0.21502,0.31428,1.5111,-0.00968,0.54468,0.13991,0.24998,0.11977,0.08214,0.06426,0.54925,0.55001,0.27079,0.22711,0.48264,0.08589,0.31204,0.91421,0.23319,0.2256,0.91417,0.05223,0.39546,1.42257,0.33647,0.20023,1.42396,0.07509,0.47067,1.14056,0.41688,0.2606,1.16365,0.16141,0.5774,1.36762,0.41435,0.3939,1.38644
1026,0.21495,0.31268,1.51158,-0.00813,0.54461,0.14066,0.25003,0.11966,0.08204,0.06375,0.54703,0.55115,0.271,0.22588,0.48283,0.08663,0.30912,0.91482,0.23496,0.22448,0.9145,0.05099,0.3916,1.42295,0.33774,0.20019,1.42474,0.07394,0.46801,1.14127,0.41895,0.26153,1.16491,0.15885,0.57513,1.36868,0.41344,0.39426,1.38798
1027,0.21477,0.31118,1.51199,-0.00666,0.54413,0.14136,0.24992,0.11959,0.08221,0.06326,0.54468,0.55219,0.27149,0.22484,0.48323,0.08748,0.30651,0.9156,0.23669,0.22342,0.915,0.05011,0.38759,1.4233,0.33898,0.19997,1.42547,0.07291,0.46549,1.14202,0.4213,0.26244,1.16626,0.15531,0.57305,1.37015,0.41184,0.39509,1.38925
1028,0.21454,0.30975,1.51247,-0.00531,0.54326,0.14198,0.24987,0.1196,0.08251,0.06299,0.54255,0.55307,0.27203,0.22402,0.48371,0.08854,0.30439,0.91641,0.23838,0.22244,0.91557,0.04965,0.38348,1.42383,0.34043,0.19942,1.42616,0.07218,0.46369,1.14317,0.42375,0.26348,1.16765,0.15073,0.57157,1.3725,0.40991,0.39617,1.39039
1029,0.2143,0.30839,1.513,-0.00401,0.54202,0.14238,0.25002,0.11957,0.0827,0.06296,0.54067,0.55369,0.27234,0.22326,0.48408,0.08969,0.30261,0.917,0.23997,0.22146,0.91603,0.04957,0.3795,1.42451,0.34214,0.19892,1.42688,0.07194,0.4629,1.14477,0.42605,0.26456,1.16896,0.14586,0.5706,1.37572,0.40803,0.39707,1.3915
1030,0.21411,0.30713,1.51343,-0.00275,0.54027,0.14251,0.2504,0.11931,0.08272,0.06299,0.53893,0.55402,0.27235,0.22243,0.48427,0.09082,0.30079,0.9172,0.24148,0.22037,0.91634,0.04951,0.37569,1.42514,0.34382,0.19901,1.42773,0.07199,0.46267,1.1465,0.42817,0.26548,1.17017,0.14164,0.56975,1.37907,0.40642,0.39754,1.39265
1031,0.21391,0.30588,1.51375,-0.00159,0.53791,0.14241,0.25093,0.11877,0.0827,0.06285,0.53712,0.55413,0.27228,0.22163,0.48435,0.09189,0.29877,0.91707,0.24302,0.21922,0.91653,0.04912,0.37191,1.4255,0.34518,0.19965,1.42867,0.07185,0.46233,1.14798,0.4302,0.26639,1.1714,0.13861,0.5687,1.38171,0.40492,0.39775,1.39392
1032,0.21345,0.30442,1.51413,-0.00058,0.53506,0.14213,0.2515,0.11809,0.08266,0.06252,0.53503,0.55406,0.27238,0.22094,0.48434,0.09291,0.29671,0.91691,0.24458,0.2182,0.9166,0.04849,0.36819,1.42546,0.3462,0.20017,1.42956,0.07131,0.46174,1.14899,0.43204,0.26763,1.17275,0.13658,0.56717,1.38356,0.40328,0.39813,1.39536
1033,0.21257,0.30268,1.51477,0.00031,0.53198,0.14168,0.25195,0.11749,0.08251,0.06212,0.53254,0.55381,0.27273,0.2203,0.4842,0.09377,0.2948,0.91693,0.246,0.21737,0.91654,0.048,0.36472,1.42507,0.34705,0.19992,1.43033,0.07056,0.46115,1.14956,0.43339,0.26927,1.17419,0.1348,0.56493,1.38515,0.40137,0.3988,1.39691
1034,0.21155,0.30081,1.51573,0.00109,0.52886,0.14108,0.25216,0.11714,0.08226,0.06185,0.52975,0.55335,0.27323,0.21955,0.48404,0.09447,0.2931,0.91711,0.2472,0.21668,0.91642,0.0478,0.36143,1.42461,0.34784,0.19914,1.43103,0.06977,0.46055,1.15002,0.43408,0.27094,1.17553,0.13252,0.56202,1.38701,0.3994,0.39945,1.39845
1035,0.21087,0.29907,1.51679,0.00166,0.52578,0.14023,0.25213,0.11711,0.08201,0.06178,0.52687,0.5526,0.27377,0.2186,0.48399,0.09511,0.29169,0.91724,0.24829,0.21616,0.91641,0.04769,0.35798,1.42451,0.34861,0.1987,1.43174,0.06878,0.45959,1.15076,0.43429,0.27236,1.17658,0.12943,0.55878,1.38926,0.39772,0.39977,1.39983
1036,0.21057,0.29767,1.51766,0.00194,0.52262,0.13905,0.25192,0.11736,0.08185,0.06177,0.52399,0.55146,0.27425,0.21758,0.48412,0.09586,0.29064,0.91721,0.24942,0.21589,0.91657,0.04744,0.35423,1.42503,0.34941,0.19918,1.43242,0.06738,0.45795,1.15198,0.43434,0.27367,1.17725,0.12589,0.55555,1.39168,0.39646,0.39984,1.40098
1037,0.21028,0.29664,1.51818,0.00206,0.5191,0.13754,0.25169,0.11768,0.08173,0.0616,0.52096,0.54999,0.27462,0.21675,0.48424,0.09671,0.28986,0.91707,0.25064,0.21588,0.91675,0.04698,0.35042,1.42596,0.35018,0.20031,1.43299,0.06575,0.45572,1.15343,0.43457,0.27518,1.17775,0.12235,0.5523,1.39399,0.39539,0.40004,1.40199
1038,0.20977,0.29585,1.51843,0.00232,0.51526,0.13578,0.2516,0.11785,0.08156,0.06121,0.51766,0.54832,0.27496,0.21642,0.48417,0.09753,0.28913,0.91688,0.25185,0.21596,0.91672,0.0464,0.34691,1.4267,0.35083,0.20148,1.43346,0.06425,0.4533,1.15454,0.43508,0.2769,1.17834,0.11886,0.54871,1.39602,0.39414,0.40062,1.4029
1039,0.209,0.29521,1.5186,0.00287,0.51142,0.13385,0.25172,0.11777,0.08136,0.06083,0.51411,0.54653,0.27537,0.21659,0.48389,0.09821,0.28831,0.91666,0.25294,0.21601,0.91648,0.04583,0.34406,1.42689,0.3512,0.20228,1.43383,0.06284,0.45102,1.1549,0.43566,0.27865,1.17906,0.11532,0.5447,1.39754,0.39259,0.40149,1.40371
1040,0.20798,0.29467,1.51881,0.00346,0.50786,0.13178,0.25196,0.11757,0.08116,0.06065,0.51035,0.54456,0.2758,0.21692,0.48355,0.09875,0.28755,0.91644,0.25388,0.21612,0.91617,0.04533,0.34205,1.42682,0.35123,0.2027,1.43398,0.06107,0.44886,1.15469,0.43591,0.28035,1.17967,0.11202,0.54084,1.3983,0.39086,0.40237,1.40437
1041,0.20677,0.29418,1.51903,0.00371,0.5046,0.12948,0.2521,0.11739,0.08095,0.06055,0.50635,0.54232,0.27607,0.21699,0.48328,0.09924,0.28705,0.9162,0.25479,0.21653,0.91592,0.04485,0.34075,1.42692,0.35101,0.20291,1.43377,0.05871,0.44656,1.1543,0.43562,0.28199,1.17988,0.10913,0.53767,1.39834,0.38906,0.40308,1.40477
1042,0.20559,0.29369,1.51919,0.00352,0.50148,0.12696,0.25207,0.11727,0.08071,0.06036,0.50215,0.5398,0.27615,0.21659,0.48309,0.09979,0.28687,0.91594,0.25574,0.21725,0.91578,0.04427,0.33987,1.42715,0.35075,0.20315,1.43345,0.05603,0.44414,1.15383,0.43483,0.28321,1.1797,0.10617,0.53487,1.39808,0.38718,0.40379,1.40464
1043,0.20457,0.29327,1.51922,0.00311,0.4982,0.12438,0.25194,0.11713,0.08047,0.06017,0.49791,0.53719,0.27619,0.21586,0.48299,0.10041,0.2869,0.91566,0.25669,0.21804,0.91572,0.04348,0.33916,1.42721,0.35057,0.20354,1.43338,0.05339,0.44183,1.15323,0.43377,0.28363,1.17934,0.10264,0.53178,1.39794,0.38521,0.40491,1.40371
1044,0.20369,0.29308,1.51909,0.00276,0.49451,0.12191,0.25177,0.11702,0.08032,0.06019,0.49385,0.53467,0.27637,0.2151,0.48297,0.10102,0.287,0.91536,0.25754,0.21867,0.91572,0.04247,0.33847,1.42698,0.3504,0.20406,1.43351,0.05083,0.43982,1.15245,0.43269,0.28354,1.17899,0.0988,0.52835,1.39793,0.38329,0.40652,1.40225
1045,0.20274,0.29322,1.51881,0.00272,0.49034,0.11953,0.25152,0.11701,0.08026,0.06039,0.49001,0.53225,0.27665,0.2145,0.48303,0.10154,0.28712,0.91504,0.25824,0.21921,0.91578,0.04128,0.33773,1.42641,0.35007,0.20462,1.43357,0.04814,0.43787,1.1514,0.43174,0.28369,1.17872,0.0953,0.52505,1.39752,0.38142,0.40818,1.40094
1046,0.20155,0.29353,1.51847,0.00305,0.48603,0.11704,0.25115,0.11709,0.08028,0.06055,0.48623,0.52979,0.27687,0.21401,0.48314,0.10194,0.28734,0.91464,0.2588,0.21982,0.9159,0.04005,0.33694,1.42551,0.34944,0.20534,1.43349,0.04518,0.43561,1.14993,0.43086,0.28437,1.17854,0.0924,0.52224,1.39624,0.37946,0.40951,1.40014
1047,0.20003,0.2937,1.51833,0.00358,0.4821,0.11441,0.25083,0.11713,0.08032,0.06066,0.48247,0.52721,0.27696,0.21357,0.48327,0.10223,0.28772,0.91415,0.25928,0.22064,0.91602,0.0389,0.33621,1.4245,0.34866,0.20647,1.43354,0.04209,0.43301,1.14823,0.42988,0.28513,1.17842,0.08988,0.52008,1.39427,0.37733,0.41064,1.39954
1048,0.19838,0.29346,1.51853,0.00398,0.47884,0.11186,0.25076,0.11706,0.08029,0.06094,0.47896,0.52468,0.27691,0.2132,0.48331,0.10239,0.28823,0.91364,0.25971,0.22181,0.91605,0.03767,0.33579,1.42388,0.34802,0.208,1.4338,0.03918,0.43049,1.14686,0.42875,0.28574,1.17824,0.08754,0.51865,1.3924,0.37516,0.41192,1.39872
1049,0.19702,0.29276,1.519,0.00414,0.47614,0.10957,0.25103,0.11686,0.08012,0.06143,0.4759,0.52235,0.27667,0.21288,0.4832,0.10235,0.2888,0.91312,0.26008,0.22337,0.91593,0.0361,0.33575,1.42398,0.34767,0.20957,1.43392,0.03665,0.42842,1.14628,0.42756,0.28657,1.17788,0.08548,0.51826,1.39111,0.37307,0.4135,1.39772
1050,0.1963,0.29188,1.5195,0.00429,0.47379,0.10747,0.25151,0.11658,0.07981,0.06185,0.4732,0.52021,0.27632,0.21242,0.483,0.10216,0.28944,0.91262,0.26039,0.22521,0.91568,0.03415,0.33573,1.42462,0.34739,0.21094,1.43359,0.03439,0.42678,1.14638,0.42646,0.28794,1.17729,0.08399,0.51931,1.39006,0.37109,0.41516,1.39674
1051,0.19608,0.29127,1.51989,0.00467,0.47179,0.10529,0.25197,0.11637,0.07946,0.06194,0.47044,0.51806,0.27602,0.21164,0.48282,0.102,0.29027,0.91216,0.26063,0.22706,0.91544,0.03202,0.33513,1.4252,0.34691,0.21215,1.433,0.03206,0.42519,1.14664,0.42542,0.28932,1.17657,0.08306,0.52157,1.38853,0.36919,0.41664,1.39575
1052,0.19581,0.29109,1.52021,0.00532,0.47028,0.10293,0.25221,0.11637,0.07916,0.0618,0.46735,0.51581,0.27591,0.2106,0.48278,0.10205,0.29141,0.9118,0.26088,0.22875,0.91531,0.03005,0.33384,1.42523,0.3462,0.21318,1.43258,0.02928,0.42323,1.14645,0.42422,0.28999,1.1759,0.08217,0.52366,1.38628,0.36735,0.41797,1.39452
1053,0.19501,0.29132,1.52051,0.00612,0.4693,0.10058,0.2522,0.11651,0.07897,0.06182,0.4641,0.51354,0.27587,0.20959,0.48287,0.10226,0.29284,0.91156,0.26117,0.23039,0.91529,0.02857,0.33237,1.42477,0.34537,0.21402,1.43256,0.02594,0.42083,1.14571,0.42272,0.28992,1.17541,0.08082,0.5244,1.38374,0.36552,0.41957,1.39296
1054,0.19367,0.29192,1.52074,0.0069,0.46881,0.09843,0.25208,0.11656,0.07893,0.06216,0.46114,0.51141,0.27573,0.20901,0.48298,0.10243,0.29439,0.91135,0.26146,0.23224,0.91529,0.02772,0.33132,1.4243,0.34452,0.21495,1.43283,0.02232,0.41834,1.14482,0.42104,0.2898,1.17512,0.07904,0.5242,1.38142,0.36354,0.42182,1.39116
1055,0.19216,0.29297,1.52078,0.00752,0.46871,0.0965,0.25204,0.11638,0.07903,0.06243,0.45874,0.50948,0.27545,0.20897,0.48306,0.10247,0.29595,0.91107,0.26167,0.23427,0.91527,0.02718,0.33094,1.42413,0.34359,0.21642,1.43312,0.01886,0.41624,1.1442,0.41949,0.29018,1.17491,0.07705,0.5244,1.37939,0.36135,0.42467,1.38925
1056,0.19078,0.29444,1.52058,0.00786,0.46885,0.0947,0.2521,0.11613,0.07924,0.06224,0.4567,0.50769,0.27519,0.20921,0.48317,0.10247,0.29754,0.91072,0.26179,0.23617,0.91529,0.02633,0.33113,1.424,0.34256,0.21861,1.43324,0.0158,0.41473,1.14362,0.41825,0.29124,1.17465,0.07479,0.52562,1.37734,0.35904,0.42772,1.38744
1057,0.18954,0.29608,1.5202,0.00793,0.46894,0.09302,0.25216,0.11607,0.07949,0.06173,0.45477,0.50602,0.27504,0.20935,0.48339,0.10255,0.29914,0.91037,0.26186,0.2378,0.91542,0.02485,0.33175,1.42351,0.34147,0.22125,1.43308,0.01315,0.41365,1.14268,0.41717,0.29302,1.17426,0.07203,0.52732,1.37508,0.35674,0.43066,1.38595
1058,0.18833,0.29765,1.5198,0.0079,0.46871,0.09148,0.25214,0.11628,0.07969,0.06138,0.45297,0.50447,0.27492,0.20928,0.48366,0.10262,0.3007,0.91005,0.26191,0.23936,0.91559,0.02288,0.33271,1.42265,0.34043,0.22389,1.43255,0.01074,0.41279,1.14131,0.416,0.29543,1.17362,0.06892,0.52864,1.37282,0.35446,0.43343,1.38476
1059,0.18698,0.29904,1.51951,0.008,0.46806,0.09005,0.25208,0.11665,0.07975,0.06137,0.45148,0.50302,0.27463,0.20909,0.48386,0.10246,0.30224,0.90974,0.26185,0.2412,0.91565,0.02075,0.3339,1.4217,0.33947,0.22626,1.43173,0.00839,0.41213,1.13986,0.41463,0.2981,1.17276,0.06579,0.52924,1.37092,0.35224,0.43619,1.38359
1060,0.18536,0.30034,1.51934,0.00838,0.46719,0.08861,0.25213,0.11702,0.07966,0.06143,0.4503,0.50161,0.27412,0.20895,0.48392,0.1019,0.30382,0.9094,0.26154,0.24344,0.91553,0.01879,0.33509,1.42088,0.33844,0.22842,1.43096,0.00595,0.41179,1.13863,0.41322,0.30056,1.17197,0.06274,0.52941,1.36959,0.35012,0.43903,1.38233
1061,0.18348,0.3018,1.51917,0.00914,0.46636,0.08709,0.25235,0.11718,0.07957,0.06124,0.44918,0.5002,0.2735,0.20897,0.48391,0.10099,0.3055,0.90905,0.26095,0.24598,0.91531,0.01726,0.33606,1.42028,0.3372,0.23071,1.43065,0.00351,0.41179,1.13781,0.41202,0.30258,1.1716,0.05968,0.52968,1.36878,0.34819,0.44182,1.38123
1062,0.18154,0.30368,1.51888,0.01029,0.46562,0.08555,0.25266,0.11704,0.07961,0.06081,0.448,0.49884,0.27285,0.20929,0.48389,0.09998,0.30726,0.90876,0.26028,0.24867,0.91508,0.01614,0.33656,1.41994,0.33578,0.23336,1.43085,0.00137,0.41203,1.13746,0.41107,0.30441,1.17171,0.05669,0.53038,1.3684,0.3465,0.44441,1.38061
1063,0.1796,0.30595,1.51842,0.01159,0.4649,0.08413,0.25294,0.11672,0.07975,0.06029,0.4468,0.49761,0.27227,0.20996,0.48384,0.09914,0.30899,0.90856,0.25978,0.25135,0.91484,0.01506,0.33648,1.41981,0.33439,0.23631,1.43119,-0.00027,0.41257,1.13752,0.41018,0.30658,1.17198,0.05403,0.5316,1.36836,0.34502,0.44686,1.38052
1064,0.17758,0.3083,1.5179,0.01263,0.46418,0.08289,0.2531,0.11647,0.07981,0.0599,0.44564,0.49652,0.27175,0.21095,0.48364,0.09847,0.3106,0.90842,0.25944,0.25384,0.9145,0.01367,0.33606,1.41964,0.33313,0.23925,1.43124,-0.00174,0.41375,1.1378,0.40905,0.30945,1.17205,0.05171,0.53326,1.36858,0.34358,0.44933,1.38075
1065,0.17557,0.31043,1.51747,0.01319,0.46358,0.08188,0.2531,0.1165,0.07971,0.05966,0.44447,0.49558,0.27114,0.21224,0.48328,0.09776,0.31219,0.90841,0.25898,0.25611,0.91405,0.01195,0.33592,1.41927,0.33183,0.24203,1.43089,-0.0035,0.41582,1.13804,0.40763,0.31294,1.17186,0.04933,0.53513,1.36907,0.34194,0.45182,1.38116
1066,0.17375,0.31238,1.51719,0.01335,0.46332,0.0811,0.253,0.11675,0.07958,0.05943,0.44338,0.4948,0.27034,0.21379,0.48286,0.09678,0.31393,0.9086,0.25816,0.25828,0.91357,0.0101,0.33654,1.41875,0.33027,0.24478,1.43039,-0.00575,0.41868,1.13819,0.40617,0.31665,1.17166,0.0464,0.53676,1.37001,0.34004,0.45421,1.38169
1067,0.17204,0.31442,1.51702,0.01338,0.4635,0.08052,0.25285,0.11701,0.07961,0.05906,0.44255,0.49421,0.26951,0.21554,0.48256,0.09557,0.31588,0.90895,0.25706,0.26048,0.91322,0.00814,0.33778,1.41831,0.32839,0.24763,1.43012,-0.00821,0.42201,1.13841,0.40497,0.32026,1.17179,0.0427,0.53775,1.37167,0.33785,0.45646,1.3824
1068,0.17014,0.31668,1.51697,0.0135,0.46392,0.08013,0.25276,0.11712,0.07987,0.05867,0.44205,0.49383,0.26883,0.21742,0.48241,0.09439,0.31784,0.90937,0.25597,0.26266,0.91302,0.00606,0.33918,1.41819,0.32639,0.25058,1.43029,-0.01059,0.42544,1.13892,0.40402,0.32389,1.17247,0.03838,0.538,1.37415,0.33542,0.45868,1.38351
1069,0.16797,0.31898,1.51714,0.01368,0.4643,0.07994,0.25276,0.11712,0.08024,0.0584,0.44187,0.49366,0.26822,0.21937,0.48231,0.09336,0.31954,0.90983,0.25507,0.26468,0.91291,0.00401,0.34053,1.41847,0.32454,0.2535,1.43083,-0.01277,0.42871,1.13981,0.40294,0.32804,1.17359,0.03379,0.53777,1.37717,0.33297,0.46094,1.38538
1070,0.16579,0.3211,1.51765,0.01379,0.46449,0.07995,0.25283,0.11725,0.0806,0.05825,0.44209,0.4937,0.26748,0.22152,0.48219,0.09235,0.32095,0.91029,0.25423,0.26659,0.9128,0.00226,0.3419,1.41906,0.32302,0.25638,1.43143,-0.01483,0.43194,1.14101,0.40139,0.33323,1.17487,0.02933,0.53745,1.38043,0.33073,0.46326,1.38819
1071,0.16376,0.32306,1.51835,0.01378,0.4646,0.08009,0.25283,0.11772,0.08091,0.05808,0.44281,0.49389,0.26664,0.22407,0.48198,0.09121,0.32227,0.91073,0.25331,0.26854,0.91265,0.00089,0.34331,1.41971,0.32176,0.25937,1.43186,-0.01678,0.43553,1.14241,0.39945,0.33952,1.1761,0.02531,0.53745,1.38375,0.32876,0.46566,1.39174
1072,0.16175,0.32502,1.51896,0.01381,0.46475,0.08023,0.25263,0.1185,0.08121,0.05781,0.44388,0.49411,0.26593,0.22713,0.48168,0.08999,0.32378,0.91115,0.25227,0.27056,0.91245,-0.00029,0.34461,1.42022,0.32055,0.26263,1.43216,-0.01874,0.43961,1.14391,0.39752,0.34633,1.17732,0.02181,0.53788,1.38702,0.32693,0.46815,1.39546
1073,0.1595,0.3271,1.51924,0.01396,0.46487,0.08033,0.25222,0.11936,0.08155,0.05741,0.445,0.49431,0.26543,0.23063,0.4813,0.08879,0.3255,0.91159,0.25116,0.27256,0.9122,-0.00153,0.34568,1.42051,0.31927,0.26617,1.43256,-0.02088,0.44381,1.14537,0.39593,0.35273,1.17859,0.01867,0.53848,1.39005,0.32508,0.47062,1.3988
1074,0.15699,0.32939,1.51914,0.01405,0.46486,0.08035,0.25175,0.12013,0.08201,0.05687,0.44595,0.49445,0.26504,0.23438,0.48091,0.08761,0.32721,0.91199,0.25004,0.27446,0.91196,-0.00304,0.34658,1.42068,0.31787,0.26979,1.43314,-0.02329,0.44772,1.14669,0.39482,0.35824,1.17991,0.01564,0.539,1.39277,0.32312,0.47291,1.40153
1075,0.1543,0.33197,1.51877,0.01396,0.46473,0.08027,0.25137,0.12076,0.08258,0.05617,0.44671,0.49447,0.26467,0.23821,0.48056,0.08639,0.32882,0.91229,0.24889,0.27627,0.91176,-0.00486,0.34754,1.42084,0.31627,0.27323,1.43376,-0.02583,0.45149,1.14795,0.39417,0.36298,1.18128,0.01257,0.53954,1.39528,0.32108,0.47502,1.4038
1076,0.15156,0.3348,1.5184,0.01374,0.46457,0.08012,0.25106,0.12136,0.08319,0.05537,0.44732,0.49441,0.26433,0.24191,0.48024,0.08506,0.33038,0.91253,0.24759,0.27792,0.91158,-0.00689,0.34884,1.42106,0.31448,0.27634,1.43435,-0.02837,0.45547,1.14926,0.3937,0.36738,1.18274,0.00949,0.54054,1.39772,0.31902,0.47713,1.40588
1077,0.14898,0.33766,1.51831,0.01358,0.46444,0.08,0.25078,0.12194,0.08372,0.0546,0.4478,0.49438,0.26398,0.24543,0.47987,0.0836,0.33182,0.91282,0.24613,0.27938,0.91134,-0.009,0.35058,1.4214,0.31259,0.27925,1.43498,-0.03084,0.45972,1.15062,0.39306,0.37189,1.18434,0.00657,0.54221,1.40001,0.31681,0.47957,1.40795
1078,0.14679,0.34035,1.51862,0.01362,0.46439,0.07998,0.2506,0.12249,0.08419,0.05389,0.44823,0.49445,0.2636,0.24893,0.47942,0.08207,0.333,0.91315,0.24466,0.28075,0.911,-0.01104,0.35244,1.4218,0.3108,0.28234,1.43572,-0.03313,0.46392,1.152,0.39207,0.37667,1.18598,0.00392,0.5444,1.4021,0.31425,0.48248,1.40994
1079,0.14508,0.34282,1.51915,0.01383,0.4644,0.07999,0.25064,0.12316,0.0847,0.05317,0.44867,0.49456,0.26321,0.25268,0.47894,0.08056,0.33397,0.91346,0.2433,0.28226,0.91064,-0.01293,0.35383,1.42214,0.30924,0.28601,1.43658,-0.03519,0.46775,1.15337,0.39099,0.38147,1.18743,0.00152,0.5468,1.40398,0.31146,0.48553,1.4116
1080,0.14368,0.34532,1.51956,0.01401,0.46447,0.07988,0.25095,0.12414,0.08538,0.0523,0.44912,0.49457,0.26288,0.25679,0.4786,0.07908,0.33491,0.91364,0.24207,0.28398,0.91041,-0.01471,0.35455,1.42231,0.30796,0.29036,1.43737,-0.03723,0.47101,1.15465,0.39016,0.38608,1.18847,-0.00079,0.54922,1.40556,0.30888,0.48826,1.41288
1081,0.14223,0.34814,1.51953,0.01394,0.46463,0.07963,0.25145,0.1254,0.08631,0.05116,0.44952,0.49442,0.26265,0.26116,0.47849,0.07762,0.33596,0.91369,0.24086,0.28585,0.9104,-0.01651,0.35515,1.42228,0.30686,0.29492,1.4379,-0.03963,0.47368,1.15559,0.38952,0.39065,1.18915,-0.00328,0.55159,1.4066,0.30656,0.49068,1.41393
1082,0.14037,0.35129,1.51904,0.01369,0.46479,0.07923,0.25192,0.12666,0.08754,0.04972,0.44975,0.49413,0.26251,0.26575,0.47856,0.07606,0.3371,0.91365,0.23954,0.28779,0.91056,-0.01834,0.35628,1.42215,0.30568,0.29896,1.43814,-0.04262,0.47592,1.15606,0.38866,0.39537,1.18976,-0.00604,0.55393,1.40701,0.30415,0.49336,1.41485
1083,0.13808,0.35445,1.51845,0.01349,0.46477,0.07876,0.25223,0.12774,0.08901,0.0482,0.44986,0.49378,0.26246,0.27053,0.4787,0.07431,0.33828,0.9136,0.23806,0.28986,0.91075,-0.02013,0.35807,1.42213,0.30415,0.3021,1.43826,-0.04598,0.47795,1.15629,0.38732,0.40008,1.19057,-0.00877,0.55642,1.40701,0.30146,0.49682,1.41569
1084,0.13572,0.35718,1.51827,0.01343,0.46451,0.07832,0.25243,0.1287,0.09057,0.04693,0.45,0.49346,0.26259,0.27545,0.4788,0.07239,0.33946,0.91359,0.23646,0.29211,0.91085,-0.0219,0.36008,1.42231,0.30226,0.30454,1.43848,-0.04925,0.4799,1.1566,0.38561,0.40451,1.19164,-0.01103,0.55928,1.40688,0.29863,0.50103,1.41643
1085,0.13361,0.35929,1.51873,0.01336,0.46422,0.07803,0.25278,0.12968,0.09212,0.04597,0.45032,0.49325,0.26303,0.28047,0.4788,0.07038,0.34059,0.91367,0.23479,0.29445,0.91082,-0.0238,0.36188,1.42253,0.30023,0.30682,1.43879,-0.05213,0.48174,1.15694,0.38385,0.40856,1.19277,-0.01289,0.56257,1.4066,0.29596,0.50542,1.41705
1086,0.13165,0.36095,1.51958,0.01319,0.46405,0.07792,0.25333,0.13069,0.0937,0.0451,0.45089,0.49322,0.26377,0.28558,0.47874,0.06834,0.34168,0.91383,0.23307,0.29672,0.91068,-0.02595,0.36329,1.42253,0.29821,0.30932,1.43907,-0.05462,0.48343,1.15709,0.38218,0.41222,1.19364,-0.0148,0.56612,1.40605,0.29355,0.50941,1.41749
1087,0.12953,0.36252,1.52037,0.01294,0.4639,0.07797,0.25402,0.13172,0.09541,0.04408,0.45154,0.49335,0.2646,0.29073,0.47876,0.06624,0.34279,0.91414,0.23125,0.2989,0.91057,-0.02839,0.36446,1.42227,0.29622,0.31203,1.43933,-0.05689,0.48486,1.15694,0.38053,0.41544,1.19424,-0.01699,0.56964,1.40517,0.29116,0.51285,1.4177
1088,0.12711,0.36431,1.52072,0.01258,0.46367,0.0781,0.25477,0.13282,0.09733,0.04288,0.45192,0.49357,0.26526,0.29587,0.47898,0.06412,0.34403,0.91462,0.22936,0.30106,0.91063,-0.03111,0.36573,1.42205,0.29427,0.31463,1.43964,-0.0592,0.48577,1.15652,0.37873,0.41827,1.1947,-0.01939,0.57282,1.40398,0.28845,0.51608,1.41761
1089,0.12455,0.36642,1.52065,0.01209,0.46348,0.07825,0.25553,0.13403,0.09948,0.04154,0.45178,0.49378,0.26569,0.30112,0.4794,0.06209,0.34546,0.91527,0.22753,0.30331,0.91087,-0.034,0.36731,1.4221,0.2925,0.31703,1.43997,-0.06168,0.48593,1.15588,0.3767,0.42089,1.19503,-0.02192,0.57539,1.40249,0.28534,0.51957,1.41713
1090,0.12211,0.36862,1.52055,0.01156,0.46339,0.0784,0.25627,0.13539,0.10187,0.04012,0.45126,0.49398,0.26607,0.30661,0.47996,0.06023,0.34705,0.91602,0.22586,0.30565,0.91125,-0.03675,0.36905,1.4223,0.29097,0.3195,1.44029,-0.06428,0.48547,1.1551,0.37448,0.42326,1.19507,-0.02452,0.57739,1.4008,0.28214,0.52339,1.41611
1091,0.11988,0.37062,1.52077,0.01118,0.46334,0.07854,0.257,0.13687,0.10448,0.03869,0.45079,0.49418,0.26658,0.31222,0.48067,0.05851,0.34849,0.9167,0.22432,0.30789,0.91175,-0.03902,0.3708,1.42238,0.28945,0.32223,1.44062,-0.06681,0.48492,1.15421,0.37232,0.42498,1.19476,-0.02704,0.57931,1.39898,0.27918,0.52713,1.41453
1092,0.11779,0.37247,1.5212,0.01101,0.46331,0.07862,0.25785,0.13841,0.10721,0.03732,0.45064,0.49433,0.26726,0.31777,0.48151,0.05677,0.34951,0.91715,0.22281,0.30982,0.91232,-0.04081,0.37268,1.42224,0.28768,0.32491,1.44095,-0.06912,0.48466,1.15323,0.37039,0.42582,1.19428,-0.02942,0.58159,1.39701,0.27651,0.53042,1.41258
1093,0.11575,0.37451,1.52149,0.0109,0.46337,0.07858,0.25889,0.13999,0.10992,0.03608,0.45069,0.49436,0.26808,0.32315,0.48238,0.05495,0.35025,0.91737,0.2212,0.31143,0.91284,-0.04247,0.37472,1.42205,0.28557,0.32722,1.44114,-0.0712,0.48462,1.15223,0.36858,0.4262,1.19379,-0.03172,0.58419,1.39498,0.27393,0.5334,1.41049
1094,0.11375,0.37695,1.5215,0.01071,0.46354,0.07847,0.26003,0.14166,0.11249,0.03505,0.45071,0.4943,0.26907,0.32846,0.48314,0.05313,0.35104,0.91752,0.21958,0.31306,0.91319,-0.04432,0.37659,1.42195,0.2834,0.32928,1.44109,-0.07316,0.48458,1.15137,0.36666,0.42677,1.19323,-0.03393,0.58674,1.39308,0.27133,0.53629,1.40846
1095,0.11179,0.37969,1.52131,0.01036,0.46376,0.07832,0.26118,0.1435,0.1149,0.0342,0.4506,0.49416,0.27022,0.33383,0.48375,0.05147,0.35204,0.91768,0.21812,0.31495,0.91336,-0.04635,0.37799,1.42183,0.28139,0.33142,1.44084,-0.07498,0.48439,1.1506,0.36454,0.42774,1.19249,-0.03587,0.58894,1.39131,0.26883,0.53911,1.40661
1096,0.10986,0.38239,1.52109,0.00988,0.46403,0.0781,0.26232,0.14552,0.11724,0.0334,0.45043,0.49394,0.27137,0.33925,0.48432,0.05005,0.35312,0.91778,0.21691,0.31697,0.91347,-0.04835,0.37909,1.4215,0.27949,0.33372,1.44061,-0.07648,0.48401,1.14963,0.3623,0.42888,1.1917,-0.0375,0.59056,1.38948,0.26656,0.54171,1.40504
1097,0.10791,0.38469,1.52107,0.00928,0.46444,0.07781,0.26346,0.14761,0.11958,0.03246,0.45049,0.49366,0.27241,0.34457,0.48493,0.04885,0.35412,0.91772,0.2159,0.31881,0.91363,-0.05023,0.3803,1.42093,0.27755,0.33604,1.44057,-0.07752,0.48357,1.14834,0.35995,0.42995,1.19105,-0.03911,0.59156,1.38764,0.26444,0.54406,1.40381
1098,0.1058,0.38644,1.52137,0.00872,0.46495,0.07754,0.26466,0.14968,0.12191,0.03133,0.45106,0.49342,0.27346,0.34978,0.48556,0.0478,0.355,0.91755,0.215,0.3204,0.91376,-0.05215,0.38183,1.42034,0.2755,0.33835,1.4408,-0.07829,0.48339,1.14701,0.35734,0.43088,1.19057,-0.04092,0.59221,1.38609,0.26222,0.54621,1.40285
1099,0.10346,0.3878,1.52184,0.00844,0.46539,0.07739,0.26593,0.15183,0.12417,0.03018,0.45201,0.49334,0.27472,0.35501,0.48611,0.04679,0.35575,0.91742,0.21415,0.32193,0.91375,-0.05422,0.38354,1.41998,0.27339,0.34075,1.44127,-0.07912,0.4836,1.14598,0.35447,0.43163,1.1902,-0.04275,0.59291,1.385,0.25975,0.54829,1.40193
1100,0.10104,0.38917,1.52216,0.00849,0.46564,0.07739,0.26729,0.15416,0.12632,0.02923,0.45296,0.49342,0.27628,0.36025,0.48661,0.04575,0.35634,0.91742,0.21332,0.3236,0.91361,-0.05635,0.38512,1.41991,0.2713,0.34322,1.4419,-0.08019,0.48392,1.14536,0.35166,0.43216,1.1899,-0.04436,0.59379,1.3842,0.25712,0.55034,1.40087
1101,0.09883,0.39087,1.52211,0.00866,0.46571,0.07748,0.26871,0.15665,0.12841,0.02859,0.45366,0.49356,0.27806,0.36534,0.48718,0.04462,0.35676,0.91751,0.21245,0.32538,0.91348,-0.05827,0.38641,1.41998,0.26931,0.34554,1.44244,-0.08126,0.48405,1.14494,0.34927,0.43266,1.18968,-0.04565,0.59464,1.38348,0.2545,0.55218,1.39979
1102,0.09702,0.39293,1.52181,0.00872,0.4657,0.07759,0.27016,0.15913,0.13056,0.02818,0.45414,0.49371,0.27995,0.37022,0.48791,0.0434,0.35708,0.91766,0.21148,0.32709,0.91346,-0.05994,0.38743,1.42002,0.26744,0.34752,1.44271,-0.08208,0.48414,1.14458,0.34727,0.43346,1.1895,-0.04671,0.59539,1.38285,0.2521,0.55356,1.39909
1103,0.09547,0.39515,1.5215,0.00869,0.46575,0.07773,0.27155,0.16146,0.13288,0.02788,0.45439,0.49387,0.28177,0.37497,0.48878,0.0421,0.35736,0.91786,0.21037,0.32846,0.91349,-0.06156,0.38826,1.41998,0.26569,0.34923,1.44274,-0.08275,0.48459,1.14433,0.34528,0.4348,1.18934,-0.04768,0.59616,1.3825,0.25012,0.55453,1.39914
1104,0.09386,0.39731,1.52119,0.00873,0.46596,0.07789,0.27281,0.16362,0.13537,0.02756,0.45433,0.49404,0.2834,0.37973,0.48968,0.04083,0.35765,0.91813,0.20919,0.32937,0.91347,-0.06329,0.38893,1.4199,0.26403,0.35089,1.44278,-0.0836,0.4856,1.14431,0.34317,0.43656,1.18927,-0.04856,0.59714,1.38249,0.24869,0.55539,1.39989
1105,0.09207,0.39942,1.52075,0.00894,0.46632,0.07803,0.27398,0.16562,0.13796,0.02715,0.45403,0.49418,0.28488,0.3845,0.49057,0.03972,0.35795,0.91844,0.20813,0.33002,0.91339,-0.06507,0.38942,1.41978,0.26242,0.3526,1.44295,-0.08474,0.48706,1.14448,0.34122,0.43837,1.18937,-0.04928,0.59846,1.38267,0.24779,0.55623,1.401
1106,0.09029,0.40154,1.52016,0.00925,0.46671,0.07809,0.27515,0.16748,0.14058,0.02657,0.45373,0.49426,0.28634,0.38901,0.49152,0.03886,0.35836,0.91868,0.20732,0.33075,0.91342,-0.0667,0.3899,1.41953,0.26086,0.35432,1.44317,-0.08606,0.48885,1.14467,0.33975,0.44001,1.18959,-0.05003,0.59985,1.38296,0.24718,0.55684,1.40217
1107,0.08878,0.40355,1.51968,0.00945,0.46699,0.07806,0.27641,0.16929,0.14305,0.02587,0.45369,0.49426,0.28777,0.39296,0.49262,0.03823,0.35895,0.91883,0.20676,0.33175,0.91373,-0.06803,0.39066,1.41913,0.25944,0.35597,1.44336,-0.08742,0.49082,1.14472,0.33866,0.44153,1.18983,-0.05141,0.60062,1.38357,0.24663,0.55708,1.40335
1108,0.08757,0.40515,1.51949,0.00942,0.46713,0.07802,0.27777,0.1711,0.14519,0.0252,0.45398,0.49424,0.28908,0.39625,0.49382,0.03779,0.35958,0.91887,0.20642,0.3329,0.91428,-0.069,0.39184,1.41871,0.2582,0.35743,1.44358,-0.08873,0.49288,1.14465,0.33767,0.44314,1.19018,-0.05364,0.60033,1.3847,0.24596,0.5571,1.40469
1109,0.08647,0.40626,1.51947,0.00929,0.46712,0.07803,0.27922,0.17281,0.14699,0.02465,0.45445,0.49429,0.2902,0.39902,0.49493,0.03748,0.35993,0.91889,0.20623,0.33399,0.91488,-0.06967,0.39321,1.41845,0.25713,0.35856,1.44406,-0.08984,0.49521,1.14477,0.33669,0.44495,1.19092,-0.05612,0.59949,1.38641,0.24501,0.55727,1.4063
1110,0.08531,0.40708,1.51932,0.0092,0.46701,0.07817,0.28061,0.17422,0.14856,0.02419,0.45482,0.49445,0.29112,0.40142,0.49588,0.03716,0.35991,0.91896,0.20607,0.33493,0.91538,-0.07013,0.3944,1.41844,0.25611,0.3593,1.44493,-0.0907,0.49801,1.1454,0.33578,0.44685,1.19223,-0.05828,0.59877,1.38871,0.24378,0.55783,1.40817
1111,0.084,0.40783,1.51893,0.00912,0.46681,0.07841,0.28176,0.17528,0.15003,0.02374,0.45493,0.49471,0.29187,0.4035,0.49669,0.03669,0.35974,0.91916,0.20576,0.3358,0.91578,-0.07062,0.39523,1.41859,0.25512,0.35979,1.44606,-0.09148,0.50106,1.14643,0.33498,0.4486,1.19386,-0.06,0.59828,1.39129,0.24259,0.5586,1.41013
1112,0.08258,0.40861,1.51856,0.00898,0.46653,0.07866,0.28263,0.17608,0.15138,0.02331,0.45489,0.49499,0.29245,0.40521,0.49744,0.03609,0.35976,0.91945,0.20528,0.3367,0.91618,-0.07131,0.39576,1.41878,0.25424,0.36037,1.44719,-0.09249,0.50386,1.14753,0.33436,0.45012,1.1954,-0.06121,0.59798,1.39362,0.24165,0.55921,1.41199
1113,0.08113,0.40943,1.51845,0.00878,0.46633,0.0788,0.28335,0.17669,0.15251,0.02297,0.45494,0.49513,0.29289,0.40646,0.49816,0.0355,0.36009,0.91967,0.20477,0.3376,0.91664,-0.07223,0.39607,1.41903,0.25346,0.36117,1.44813,-0.09395,0.50625,1.14867,0.33401,0.45169,1.19675,-0.06175,0.59827,1.39544,0.24074,0.55971,1.41364
1114,0.07984,0.41032,1.51862,0.00857,0.46631,0.07872,0.28412,0.17708,0.15338,0.0228,0.45521,0.49506,0.29323,0.40723,0.49879,0.03513,0.36065,0.91966,0.20444,0.33836,0.91713,-0.07336,0.39618,1.41949,0.25256,0.36197,1.44884,-0.09578,0.50849,1.15006,0.3339,0.45368,1.19815,-0.06164,0.59955,1.39692,0.23952,0.56049,1.41516
1115,0.07896,0.4111,1.51891,0.00841,0.46644,0.07851,0.285,0.17717,0.154,0.02281,0.45563,0.49485,0.29351,0.40759,0.49924,0.0351,0.36124,0.91949,0.2044,0.33882,0.91753,-0.07448,0.39609,1.42008,0.25159,0.3625,1.44937,-0.09764,0.5106,1.15164,0.33384,0.45611,1.19968,-0.06133,0.60156,1.39823,0.23815,0.56159,1.41677
1116,0.0785,0.41146,1.51921,0.00835,0.46652,0.07837,0.28589,0.17688,0.15445,0.02289,0.45605,0.49472,0.29373,0.40767,0.49946,0.03533,0.36167,0.91936,0.20461,0.33902,0.91777,-0.07524,0.39579,1.42058,0.25095,0.36267,1.44985,-0.0993,0.51236,1.15311,0.33364,0.45868,1.20122,-0.06135,0.60334,1.39945,0.23712,0.56257,1.41871
1117,0.07819,0.41133,1.51944,0.00837,0.46653,0.0784,0.28668,0.1762,0.15475,0.02297,0.4564,0.49475,0.29393,0.40749,0.49944,0.0356,0.36197,0.91938,0.20485,0.33915,0.91781,-0.07568,0.39543,1.42084,0.25082,0.36254,1.45042,-0.10072,0.51386,1.15427,0.33328,0.46104,1.20269,-0.06183,0.60422,1.40069,0.23651,0.56315,1.42091
1118,0.0777,0.41102,1.51961,0.00845,0.46661,0.0785,0.2874,0.17524,0.15485,0.02308,0.45675,0.49486,0.2941,0.40691,0.49929,0.03564,0.36237,0.91949,0.20487,0.33943,0.91776,-0.07632,0.39529,1.42098,0.25084,0.36222,1.45111,-0.10191,0.51562,1.15532,0.33301,0.46293,1.20417,-0.06222,0.6048,1.40204,0.2359,0.5636,1.42291
1119,0.07682,0.41081,1.51981,0.00858,0.46685,0.07851,0.28801,0.17413,0.15475,0.02325,0.45708,0.49487,0.29419,0.40591,0.49913,0.0354,0.36303,0.91959,0.20462,0.34007,0.91779,-0.07747,0.39549,1.42123,0.25056,0.36184,1.45184,-0.1029,0.51796,1.15653,0.33302,0.46425,1.2057,-0.06159,0.60624,1.40331,0.23485,0.56427,1.42426
1120,0.07562,0.41072,1.52011,0.00872,0.4671,0.0784,0.28841,0.17291,0.15449,0.02341,0.45721,0.49476,0.29414,0.40456,0.49897,0.03506,0.36383,0.91964,0.20431,0.34103,0.91793,-0.07869,0.39573,1.42164,0.24994,0.3616,1.45247,-0.10379,0.52044,1.15796,0.33324,0.46517,1.2071,-0.05982,0.60865,1.40431,0.23345,0.56514,1.42495
1121,0.07442,0.41066,1.52036,0.00877,0.46714,0.07828,0.28855,0.1716,0.15406,0.02351,0.45706,0.49463,0.2939,0.40297,0.49873,0.03488,0.36447,0.9197,0.20418,0.34206,0.91811,-0.07943,0.39563,1.42212,0.24926,0.36159,1.45291,-0.10467,0.52226,1.15937,0.33338,0.46598,1.20817,-0.05812,0.61074,1.40514,0.23214,0.566,1.42533
1122,0.07351,0.41059,1.52039,0.00863,0.46699,0.07825,0.28853,0.17015,0.15339,0.02355,0.45683,0.49459,0.29345,0.40104,0.49839,0.03497,0.3647,0.91975,0.20434,0.34279,0.91827,-0.07975,0.39514,1.4226,0.24866,0.36171,1.45315,-0.10564,0.52293,1.16047,0.3333,0.46674,1.20887,-0.05779,0.61112,1.4061,0.23127,0.5668,1.42564
1123,0.07294,0.41044,1.52026,0.00836,0.4668,0.07832,0.28849,0.16851,0.15247,0.02351,0.4568,0.49466,0.29276,0.39869,0.49795,0.03527,0.36461,0.9198,0.2047,0.34317,0.91842,-0.08012,0.39447,1.42306,0.24809,0.36186,1.45331,-0.10669,0.52254,1.16115,0.3331,0.46733,1.20934,-0.05914,0.60954,1.40726,0.23079,0.56758,1.42589
1124,0.07258,0.41011,1.52019,0.0081,0.46663,0.07846,0.2885,0.16667,0.15134,0.02335,0.45711,0.49481,0.29178,0.39603,0.49738,0.03567,0.36459,0.91986,0.20514,0.34346,0.91852,-0.08069,0.39374,1.42349,0.2476,0.362,1.45353,-0.10758,0.52164,1.16151,0.33299,0.46769,1.20978,-0.06115,0.60711,1.40838,0.23046,0.56828,1.42606
1125,0.07227,0.40958,1.52029,0.00791,0.46645,0.07859,0.28864,0.16473,0.15004,0.02319,0.45769,0.49495,0.29056,0.39321,0.49667,0.03606,0.36484,0.91991,0.20555,0.34383,0.91853,-0.08118,0.393,1.42385,0.2474,0.36207,1.4538,-0.10807,0.52083,1.16184,0.33315,0.46791,1.21026,-0.06253,0.60526,1.40923,0.23004,0.56876,1.42614
1126,0.07191,0.40895,1.52044,0.00786,0.46627,0.07864,0.28881,0.16274,0.14854,0.02315,0.45838,0.49502,0.28924,0.39009,0.49591,0.03646,0.36528,0.91992,0.20592,0.34411,0.9185,-0.08126,0.39226,1.42416,0.24761,0.36196,1.45401,-0.1082,0.52045,1.16234,0.33356,0.46813,1.21068,-0.06273,0.60471,1.40979,0.22945,0.56905,1.42606
1127,0.0715,0.40835,1.52049,0.00806,0.46615,0.07864,0.28877,0.16074,0.14683,0.02329,0.45892,0.49503,0.28797,0.38652,0.49523,0.03692,0.36568,0.91989,0.20633,0.34414,0.91852,-0.081,0.39147,1.42444,0.24816,0.36166,1.45396,-0.10821,0.52045,1.16304,0.33393,0.46856,1.21088,-0.06196,0.60522,1.41017,0.22882,0.56941,1.4258
1128,0.0712,0.40782,1.52036,0.00846,0.46608,0.07867,0.28842,0.15877,0.14498,0.02344,0.45912,0.49508,0.28682,0.38265,0.4946,0.03747,0.36589,0.91992,0.20686,0.34411,0.91857,-0.08078,0.39041,1.42468,0.24894,0.3613,1.45352,-0.10825,0.52044,1.16383,0.33401,0.46937,1.21071,-0.06052,0.60609,1.41038,0.22829,0.5699,1.42548
1129,0.07131,0.40726,1.52011,0.00878,0.46605,0.0788,0.28803,0.15691,0.14302,0.0235,0.45911,0.49521,0.28563,0.37888,0.49384,0.03807,0.36596,0.92006,0.20746,0.34426,0.91849,-0.08083,0.38902,1.42489,0.24982,0.36102,1.4528,-0.10826,0.51979,1.1644,0.33383,0.47036,1.21019,-0.05861,0.60653,1.41019,0.22789,0.5702,1.42518
1130,0.07204,0.40659,1.51981,0.00886,0.46606,0.07899,0.28796,0.15517,0.14093,0.02355,0.45916,0.4954,0.28422,0.37537,0.49286,0.03863,0.36601,0.92023,0.20805,0.34458,0.91817,-0.08098,0.3876,1.42509,0.25079,0.3608,1.45219,-0.10805,0.51817,1.16446,0.3336,0.47096,1.20954,-0.05644,0.60609,1.40942,0.22754,0.57001,1.42483
1131,0.07321,0.4058,1.51943,0.00885,0.46614,0.0791,0.28826,0.15347,0.13867,0.02371,0.45933,0.49551,0.28251,0.37181,0.49173,0.03917,0.36609,0.9203,0.20861,0.34481,0.91769,-0.08087,0.38661,1.42527,0.25187,0.36049,1.45196,-0.10744,0.51593,1.16397,0.33353,0.47081,1.20899,-0.05399,0.6051,1.40809,0.22718,0.56946,1.42432
1132,0.07445,0.40503,1.51897,0.00898,0.4663,0.07904,0.28851,0.15169,0.13624,0.02404,0.45942,0.49544,0.2806,0.3678,0.49063,0.03977,0.36618,0.92023,0.20918,0.34476,0.91725,-0.08034,0.38618,1.42546,0.25307,0.36007,1.452,-0.10644,0.51361,1.16319,0.33367,0.4702,1.20859,-0.05113,0.60431,1.40632,0.22683,0.56881,1.4237
