PaulMeinheit/Bachelor_Muay_Thai/processed_Data/E_01/E_01_Teep/scaled/JointPositions.txt/scaled3.csv
Neck_Joint_Position,Neck_Joint_Position,Neck_Joint_Position,L_ANKLE_POSITION,L_ANKLE_POSITION,L_ANKLE_POSITION,R_ANKLE_POSITION,R_ANKLE_POSITION,R_ANKLE_POSITION,L_KNEE_POSITION,L_KNEE_POSITION,L_KNEE_POSITION,R_KNEE_POSITION,R_KNEE_POSITION,R_KNEE_POSITION,L_HIP_POSITION,L_HIP_POSITION,L_HIP_POSITION,R_HIP_POSITION,R_HIP_POSITION,R_HIP_POSITION,L_SHOULDER_POSITION,L_SHOULDER_POSITION,L_SHOULDER_POSITION,R_SHOULDER_POSITION,R_SHOULDER_POSITION,R_SHOULDER_POSITION,L_ELBOW_POSITION,L_ELBOW_POSITION,L_ELBOW_POSITION,R_ELBOW_POSITION,R_ELBOW_POSITION,R_ELBOW_POSITION,L_WRIST_POSITION,L_WRIST_POSITION,L_WRIST_POSITION,R_WRIST_POSITION,R_WRIST_POSITION,R_WRIST_POSITION
X,Y,Z,X,Y,Z,X,Y,Z,X,Y,Z,X,Y,Z,X,Y,Z,X,Y,Z,X,Y,Z,X,Y,Z,X,Y,Z,X,Y,Z,X,Y,Z,X,Y,Z
0.11043,0.44920000000000004,1.52794,0.0026700000000000005,0.6010500000000001,0.08229999999999998,0.07628,0.24594000000000002,0.10026000000000002,0.038630000000000005,0.5877000000000001,0.5014900000000001,0.20099999999999998,0.34477,0.48619,-0.012340000000000002,0.47113,0.9054800000000001,0.12477000000000005,0.32748000000000005,0.9001800000000001,-0.051680000000000004,0.5248300000000001,1.47378,0.21552000000000007,0.3005800000000001,1.4760500000000003,-0.04802000000000001,0.6814100000000001,1.2339000000000004,0.36512000000000006,0.42999000000000004,1.2613600000000003,0.08297,0.7015300000000001,1.455,0.29468,0.5950600000000001,1.4528400000000004
0.11100302725033624,0.4442162048894413,1.5269297383953093,0.0027715136314406456,0.6005753881177731,0.08197002054871894,0.07385260324815227,0.24758567426128847,0.09711314380640257,0.04004910308431648,0.5880160539625284,0.5010709268401962,0.19862672313832233,0.3427459634345042,0.4839365640824783,-0.010264422232693539,0.4690957194873076,0.9044611166098284,0.12648479269339544,0.32511314435703026,0.8986395617720936,-0.0509397828553854,0.519453597908391,1.4731612525570612,0.21794118137232124,0.2970298249675618,1.4752372730806798,-0.04649257241029953,0.6787754728689595,1.235101233388111,0.3676730941415617,0.428454064364265,1.2618738633098718,0.08379566104298113,0.6949409061178674,1.4569387347304392,0.2930864001296893,0.5922014478649201,1.4529222505911772
0.11122910889094181,0.4389484236067009,1.5255869154189874,0.0025276082721143772,0.6005108001927792,0.08193607449924148,0.07164208831552311,0.24935635554075472,0.09436014156121572,0.042634487853428896,0.5888875012703458,0.5008051616365066,0.19611105867989675,0.34110107410817875,0.482108117235583,-0.007591752767630907,0.46623149716991263,0.9030790094957345,0.12872000509366346,0.3218248109804865,0.8975359663255629,-0.05007035681045636,0.5129435857681356,1.4721582428314022,0.2203274457375684,0.29235241340689866,1.473737110440211,-0.04498354285573405,0.6747930943544354,1.2358227740224492,0.3711895539455506,0.4258268423034789,1.2624523497512241,0.08447116452232228,0.6873006645518517,1.4583816603481201,0.29177445457871565,0.5877441813763908,1.4531157437422557
0.11133270731809414,0.4328852251908284,1.5238626178411547,0.0024513756636926364,0.6010186207320899,0.08212604892030596,0.07037252555363335,0.25076808186464095,0.09173989843451796,0.0462781545135447,0.5910205778928251,0.5006601834222517,0.19360045729107242,0.33971249497421563,0.4805418672368275,-0.004257158791744031,0.462611150172127,0.9011016341049036,0.13165881904973156,0.3178030200709179,0.8966865956651643,-0.04881347832858922,0.5051435419761398,1.4708848960232985,0.22266810270306953,0.28631351113787035,1.4715386113323197,-0.043864695353272386,0.6696200070354422,1.2363652489789279,0.3745226012221103,0.4229887233818807,1.2630233601246221,0.08368148311671536,0.6797739121378988,1.460149043258759,0.29083120972174337,0.5822776350312826,1.454073231842829
0.11192484462522016,0.4251493871862951,1.5217447710826117,0.003114525484311457,0.6017086315567735,0.08281781115757944,0.06951913974835222,0.25078667997581766,0.08896754371744091,0.051705392652035845,0.5954369211480962,0.5008935920266085,0.19163205011048928,0.33752211930956305,0.4786199032227543,-0.0002721280763004046,0.45849382344250167,0.8983122427958494,0.13521894557379044,0.31324618257775483,0.8954246908281259,-0.0472296719692873,0.4961478206768403,1.4698777896810127,0.22475760205551645,0.2791574255912182,1.4688166713938982,-0.043547953146566246,0.6633367229590827,1.2372714945916492,0.3773841501721863,0.4194364874428973,1.2632768445566895,0.08273345161668497,0.6723043301702153,1.461821297161975,0.2904158362566818,0.5752718345096977,1.455700057053154
0.11314353885232845,0.41585027026630966,1.5192447574288355,0.00550336881951079,0.60302549384094,0.08645696837891056,0.06877713380219894,0.24923592290550842,0.08656318476094646,0.06028997666701975,0.603976694976013,0.5038182065452401,0.19075362595509596,0.3348337230902741,0.4765132899556758,0.003463181661229709,0.4536429262700641,0.8956831644742149,0.13883106581423477,0.3082693394364336,0.8937573780127586,-0.046091347123802806,0.4849109256782911,1.4687479034173265,0.22697372710400168,0.27150942438993536,1.465832419711323,-0.04359782371469999,0.6558998937872944,1.2389027016091863,0.38050247368159296,0.41450191646675777,1.2628669174140221,0.08332435626043441,0.6629448388183696,1.463154990872455,0.2906225292106914,0.5661630656672519,1.4572803752137
0.11500388039816833,0.4052968069129967,1.5168398923526827,0.010325104877543099,0.6063470921230878,0.09644247790399506,0.06795592197439809,0.24737259423864,0.08504732585981302,0.07249315531036585,0.618790297211678,0.5125819258348286,0.19123039648282378,0.33251135299712736,0.4746928847752191,0.005709306126812886,0.4481849174334649,0.8944493210693627,0.1415488516418119,0.3032550808481489,0.8920319499476628,-0.04574403441479271,0.4720580256284374,1.4672587744884644,0.2296847991171324,0.2630348453787005,1.4625764440733648,-0.0435144538803281,0.6477781859781425,1.2409956731198852,0.38413049192986454,0.4087926274224757,1.262296490617435,0.0847189228437898,0.6518042274783554,1.464571114361626,0.29152183237488266,0.5557355296839454,1.459035260691625
0.11716158316589775,0.3942305848009023,1.5147070753849488,0.016975883715514402,0.6120132818651408,0.11448823633283628,0.06739129744075657,0.24647488523581,0.08427034010814838,0.08718613044771302,0.6407245700865929,0.5285348117250287,0.19312382823464425,0.3306866046374157,0.4733252193691971,0.00687471136660155,0.4431400136906221,0.8944624309505398,0.14328190676147676,0.2987884738419644,0.8904533205485033,-0.045608007562837734,0.459923241207328,1.4660920183198207,0.23242205327715135,0.2538713640139439,1.459070726680238,-0.04353686412007128,0.639742153921475,1.2430786205636428,0.3880435743773921,0.40243843611635416,1.2617634823973776,0.08556860359701539,0.6403875378532169,1.4661977119624696,0.29296000161386543,0.5447557863277072,1.4607105436195418
0.11898206056687245,0.38336411035667195,1.5121076137856433,0.023833249823569796,0.617085424687396,0.14052152426213008,0.06770251982987285,0.2464245020176251,0.08396713060569384,0.10295861632341928,0.6678786119911153,0.5508263189547165,0.19670452696628407,0.3299098576056919,0.47209981543887086,0.008112404203633327,0.43990255107636467,0.8949527375691532,0.14463837725498238,0.295734840618227,0.8887682095889663,-0.04491058341099859,0.4488812552456644,1.4652882769094862,0.2352103632226625,0.24454053998761552,1.455527152210521,-0.04358741641210413,0.6325180508104841,1.2454120318440225,0.3918971948762187,0.395594261982371,1.2609802143244413,0.08602552156188056,0.6288451574858109,1.4682048522783178,0.29403282773332634,0.534279491052757,1.4611482627715988
0.12012225408567687,0.37215679950338554,1.5088992695268617,0.028847959412077562,0.6187921838874408,0.1741683037725957,0.0684178356204151,0.2466546274397996,0.08397220836188395,0.11894268072196015,0.6962382693235807,0.5779985699445124,0.20163907522526048,0.330660038387284,0.4705708917326297,0.009128936968790625,0.43872090482493314,0.8958301633303574,0.14579620409191157,0.2948528959642143,0.886605990646282,-0.04419402449879835,0.43761795185190533,1.4643302747946405,0.23783435973472677,0.23530544635551473,1.4518223777522852,-0.04362562572024328,0.6259873479772065,1.2484760547571636,0.39496818314505533,0.38912880449862336,1.2598288135411082,0.08705567398680208,0.6169712620820312,1.4704869625253478,0.2944995067140205,0.5250031682697914,1.460636813676155
0.12064817107955689,0.36053276652038624,1.5053674472042364,0.03180430374688673,0.6195041491646937,0.21482752835978064,0.06861399972836377,0.24727800837253125,0.08435126780348151,0.13410589714273763,0.7232340070839761,0.60974908532565,0.2073652648796171,0.3326659172380534,0.4686964182488588,0.00900582779115557,0.4388267101884327,0.8975902755885453,0.14664146581707369,0.2962224763557024,0.8839983663067595,-0.0442614166264858,0.4257242641807689,1.4625933110267169,0.23977787116268084,0.22661086866311184,1.447341934918275,-0.0438021285997616,0.6197917776277232,1.2518497836975144,0.3976677435265377,0.3829800040786646,1.2580348515830353,0.08837329616983047,0.6043448687633447,1.4726210476105486,0.2951831616280227,0.5150917392881622,1.4603260136212648
0.12094962505548529,0.3487828635925948,1.5017577876850883,0.035271043850475726,0.623729357124648,0.26018894929073755,0.06849239762503992,0.2477577716477217,0.08494803276510073,0.14755381764996464,0.7487962173861625,0.6461130470095219,0.21320025835583475,0.3358076466631385,0.4664790098879507,0.007928565165819065,0.4399904915172844,0.900154964595127,0.14714258594469365,0.29957187826073345,0.8809917495419434,-0.04460138499866792,0.4144478991668923,1.4601801179156197,0.24104510666914022,0.21809494553971767,1.442264673469136,-0.04374493557828048,0.6142548482827955,1.2548726240758417,0.4000055512803641,0.3763185695537975,1.2554159489919965,0.0896135615422938,0.5915483518220636,1.4743000696089357,0.29615716539634945,0.5039766284080971,1.459861117250635
0.12125086051999234,0.33788613512804605,1.4980462055470827,0.04197227869838116,0.6346135797932964,0.30686397734354365,0.0688713844491567,0.24794884058704875,0.08520939023300461,0.15877358310010384,0.7735728222221178,0.6866558514520937,0.21806743834568268,0.3402060038616354,0.4640152247563637,0.006968120397028976,0.44244262187947514,0.902747132321883,0.14743159171129275,0.3042060612684643,0.8777909107059401,-0.04407106666065414,0.405481604935306,1.4582646055793682,0.24192047235156935,0.2093010452368742,1.4369541179888625,-0.042983221746712104,0.60955584106225,1.2572032009411918,0.4014172960043282,0.36900735400122253,1.2518245885214065,0.0906824308890286,0.5797384669643255,1.47558658143959,0.2973731445078552,0.4930395081763692,1.4583868736086119
0.12190329551242927,0.32966707969440634,1.4936435078442099,0.05249150345181665,0.6545148885721201,0.35225100724447383,0.06915986726595999,0.24864371120912285,0.08503904732774858,0.16786768833826596,0.7977401302042293,0.7308870086904111,0.22128869829303316,0.3459519295810974,0.4614107151569879,0.0069111859680935535,0.44641654330825403,0.9042434797959548,0.1472277117903579,0.3089762633759535,0.8744982204617044,-0.04262449257015955,0.3982163085141726,1.4565531881767702,0.2427532906350096,0.20072210481759087,1.43085812572071,-0.042449543272357046,0.6057386701542711,1.2590562355614179,0.40216188454643376,0.3618664717529386,1.246910667741181,0.09069846153926031,0.5683012649774618,1.476582799572605,0.2989058263595793,0.482815957489848,1.4556786412023166
0.12301507563917109,0.323874503366989,1.4885760997579043,0.06596118305486534,0.6847536618452198,0.3951493683464214,0.06866952042135595,0.2502207976132883,0.08463137287703273,0.17481991664963706,0.8199104295546633,0.7786535668392521,0.22340117374805876,0.3530538985998137,0.45845737599118713,0.007376069761356502,0.4521263094302097,0.9054920969553831,0.14610892366032951,0.31424144573912677,0.8707898939454135,-0.041020341393430935,0.3916029318399204,1.4542409087021826,0.2437968154725873,0.19313312044875694,1.424501831227762,-0.04257095232152156,0.6031329382870217,1.2610468645259687,0.40239665064546615,0.35486778136608976,1.2403753086215692,0.09041523678192954,0.5576636507464742,1.4771279099981092,0.30092248693183854,0.47299516431741095,1.4516318867850104
0.12381721978976484,0.31868372858557487,1.483467706949544,0.0819516869691354,0.7267988708042415,0.4357474688584057,0.0675318889706911,0.2526032885479411,0.08398870124767435,0.17885606868929915,0.8388091140467109,0.8297717782204777,0.2247334834725494,0.36135017241969547,0.4551040512085625,0.00802609302711109,0.45920854660678867,0.9079522563111497,0.14477304341015174,0.3211205377295704,0.8667864617792199,-0.03962128456473967,0.3862481185133559,1.4516414657309906,0.2447527777607587,0.1865493760353784,1.4185219219789078,-0.04256100653501274,0.6020250963960689,1.2632112163699667,0.4015209577717964,0.34735276296628365,1.2320355005577446,0.09149649508202487,0.549070404809107,1.4769274952524691,0.3031093824086145,0.46377452221243964,1.4456606444512348
0.12403266356381017,0.3130799832688064,1.4784456803461532,0.10106106083940088,0.780819528959015,0.47636940321801974,0.0665882673920154,0.2546898118729417,0.08333998886192606,0.17954250549620562,0.8533479675038271,0.8835186766280458,0.22549975051027732,0.37014548907390227,0.45169074638776985,0.009263284131632563,0.46648368482102276,0.9106192177317303,0.14476811405895018,0.329189710137499,0.8631555203875785,-0.03887697420072228,0.38172358010597185,1.448959853085967,0.2458591670592822,0.18063529662250735,1.4124228394589775,-0.04174557325015557,0.6015344822837185,1.2652590639067485,0.3998893807796188,0.3390486581356806,1.2216365367401434,0.09400694910990218,0.5416430992830512,1.4760462626810884,0.3046970597648291,0.455506162736521,1.436701473679515
0.12390075917811096,0.3064581155118407,1.473340804686585,0.12198691053352073,0.8447918979770931,0.5206338721261509,0.06624564308020453,0.25579329474599144,0.08274542554146562,0.1770451209782582,0.8628200364901848,0.9375620605786701,0.22655287802720606,0.37787188416931,0.44834133580186886,0.01119590833396357,0.4738790411340268,0.91274862553614,0.14582691083579155,0.33771650778602696,0.8598849083726308,-0.038708738007634094,0.37714885028799994,1.4455076205128525,0.2463266618052108,0.17546637626310427,1.4056496765960134,-0.0407894958176815,0.6010713678687899,1.266817020321044,0.39851101482858015,0.32850009109161604,1.209100755245237,0.09657797301330288,0.5343927247164241,1.4745039494560594,0.30680461711433826,0.44677446428411893,1.4246812658524433
0.12383605403237616,0.2996734265375009,1.4681161135834284,0.14144751354170557,0.9151738932153183,0.5704794864952941,0.06609461350702626,0.25621079796021135,0.08208499489796954,0.1722689495542809,0.8682039875307326,0.987657182677829,0.22896247945643783,0.38421401459831983,0.4445066986346536,0.013272113333454872,0.48240978934438916,0.9150483027381187,0.14688780432800286,0.3477364190520085,0.856128675024548,-0.038396742473508334,0.3728601769248064,1.4405246134871121,0.244992196275031,0.17112446817173146,1.3978916001026778,-0.040757040271652556,0.6012483178900219,1.2675906026600017,0.39690428192611404,0.315246239611639,1.1945019331183035,0.0981679256210831,0.5280597261048928,1.4720077652676637,0.30973167680727604,0.4373450077413698,1.40983795147879
0.12391098908090645,0.29440570806456084,1.4627478536536602,0.15869097467550175,0.9883702717944792,0.6261097948606033,0.06568525849663105,0.25634502872238796,0.08131821826440351,0.1664670417811297,0.8706623744784074,1.0301904246845122,0.23247474058455833,0.39029645386093237,0.43979420777443895,0.015099479771231052,0.49137322826893615,0.9178516684948386,0.14862005348675408,0.3600717070243029,0.8515556952959731,-0.03759280959506444,0.36859759457837166,1.4351917059335064,0.24328266055759104,0.16751171569120596,1.3891946329684548,-0.0410357632454951,0.6016459883773208,1.2686076845155725,0.395531410769077,0.29954840146626044,1.1780026801763859,0.09895807817476676,0.5230760916463502,1.4702959683275372,0.3131563320914398,0.4272696189713493,1.3919642616375207
0.12375534654751738,0.2905195585499091,1.456965429071111,0.1737608366068358,1.0608948409025039,0.6869827234092346,0.06567623668463383,0.25678112665975744,0.08096074306879814,0.16086681755972673,0.8726499466973807,1.0632705195770114,0.23646864885038898,0.3967026169722014,0.43524666529396727,0.017429669030682757,0.5005584662510691,0.9205552611384009,0.15120373219040978,0.37335508350360913,0.8471687152429717,-0.036507243312934035,0.3645438307806353,1.4303480906840722,0.24225156091079278,0.1638128814741056,1.3802584248653755,-0.041147505518405195,0.6022000019197193,1.2704307715504533,0.3953010238874118,0.281076575740688,1.161085101908767,0.09967663770260786,0.5191904032411,1.469744064826883,0.31742370928823377,0.4160337327174684,1.3722648668066706
0.12299589489220422,0.2873049337302208,1.450365069628419,0.1854591549507682,1.129479549747845,0.7511467216152421,0.06648972677226508,0.25829336068119335,0.08139162450780664,0.15576085322970945,0.8779179107987838,1.0873443849407713,0.24075513793485176,0.40369498014006205,0.43174149556732255,0.021102352425224135,0.5116779380106946,0.9226375748611766,0.15318787465983189,0.38617754340358207,0.8434707952309067,-0.03575689315808319,0.3621382599951366,1.4252166501435195,0.23979014250567343,0.15961128646827363,1.371451311993206,-0.04105309443400991,0.6040214034441049,1.2717919566203875,0.3968048682978625,0.2589293258320827,1.1462868218702662,0.10106443409385628,0.5161622200984166,1.4680841884659341,0.3227218461571614,0.4031958726275473,1.3526314981895373
0.12131559588442764,0.283990926485714,1.443564174136171,0.1938259865933942,1.1920769032898528,0.8148775610627438,0.06700723690263266,0.2607400329603943,0.08195806005683254,0.1512672488052413,0.8885244208274554,1.1033934002744152,0.24443094807798116,0.41089746568456487,0.42870431223641936,0.026473777395055433,0.5251899648590475,0.9250457311612335,0.15411165587428322,0.3989199361284062,0.8400327099306986,-0.035837681455734835,0.3610502702576133,1.4202043297294504,0.2357951419909122,0.15473700967700818,1.3628778836148687,-0.04076278734876504,0.6066801542316965,1.2728513204977936,0.4009742932095217,0.2322313968878333,1.1350002748286683,0.10216475811479206,0.5134019350663972,1.4660248703011773,0.33000105950114295,0.3874654228903792,1.3343653172223282
0.1191661986196055,0.27933855595144585,1.4374901927443418,0.19965062421113627,1.24891138963501,0.8728717265507933,0.0667697224001222,0.2629450289390111,0.08211415993063094,0.14686638041457145,0.9054686530245484,1.1104667981787661,0.24678424875939764,0.41693169173550193,0.42583061012178197,0.033652771468347935,0.5402086929996247,0.9283719927079002,0.15525510919325525,0.4123959559051465,0.8370465694967117,-0.036350195233842794,0.35945172097149475,1.4160860414615188,0.2317410090063454,0.14938095828327924,1.354586052495536,-0.04178967796492224,0.6090227802612886,1.2755152062049189,0.4088823297416928,0.2003420117376703,1.1282167384759985,0.10136961393937283,0.5094159358159579,1.4653385775236947,0.34056513749251766,0.3678041527641492,1.318390044048765
0.1165285806489351,0.27284840497048346,1.4319208721866301,0.20034399974789235,1.3020696326115326,0.9206064512236711,0.0665783514801302,0.26451863722116126,0.08202563076026156,0.14201644524840668,0.9293358461609604,1.1073127815674806,0.24807900068734073,0.4212391310941509,0.42373149272575567,0.042658607678972255,0.5568751345847089,0.9318212214681304,0.15747844943918726,0.4267629846312956,0.8351415159492104,-0.03668345623954514,0.35649023530797525,1.412856752730582,0.22790000612855804,0.14349941809248784,1.3460677868542674,-0.044071177311741594,0.610562651486728,1.2807020006916527,0.41941722166343176,0.16262726825730248,1.12659235652685,0.09938519183846496,0.5029909165913518,1.465894692828374,0.3540034393636255,0.34281243992646576,1.305831360100898
0.11334402912665867,0.2642407839555881,1.4259394019194878,0.19271142216421352,1.3493331854901625,0.9520594556854668,0.06651141052597569,0.265525862317372,0.08198023759458031,0.1377512887091572,0.9576361615249769,1.0960822369025087,0.24802629116631472,0.4238824772914251,0.4229244893674467,0.05282463939931045,0.5753872984167412,0.9346301336901853,0.1603080786824321,0.4415667681883911,0.8346101539718822,-0.036274228201234576,0.3528707113246821,1.410580268454952,0.22429775639246843,0.13500140899124902,1.3379001439882992,-0.04550633200865715,0.6113622978133167,1.287418903736527,0.4288135963567062,0.12078564654115195,1.1300836344770044,0.09747421585751657,0.4940344464969255,1.4669760025189384,0.36689093827298186,0.31348154089983427,1.2971502696444444
0.11028024850415644,0.25361981704367503,1.419073382386174,0.18011824406871366,1.386545621838084,0.9617656490069234,0.06627883625907892,0.26616396392800823,0.0821512727869485,0.13569457282371156,0.9847590797423932,1.079185341652928,0.24609150350588757,0.42567114488356234,0.42345707519514736,0.06193309390544074,0.5929163451349437,0.9363270915669364,0.16293591616896866,0.45476763996044384,0.8354392846607043,-0.0352045738468766,0.3489095085864432,1.4085748527828148,0.22034970679998364,0.12217002310234058,1.3312207768069053,-0.04595279734906625,0.6115480894791558,1.2946413249374489,0.43502057960552043,0.07903455092432499,1.1381776000483865,0.09558806794611287,0.48338425918604433,1.4678141838745247,0.3757735607027577,0.28378340150363074,1.2912872541292761
0.10740586300074384,0.2408152265032682,1.4131162575422347,0.17152926514688163,1.4127126305617692,0.953627226447691,0.06613913801180335,0.2668109182942906,0.08217879971290067,0.1362617773768214,1.0060016913794825,1.0562684514797778,0.242844009228777,0.4271635185843899,0.42470561375585714,0.06811832180552513,0.605388427344216,0.9368456084179259,0.1648633810057898,0.4634017505852748,0.837134080111364,-0.03534013084155808,0.3437092283412541,1.4062052475973845,0.21529571402988898,0.10694038084080164,1.3264366617749213,-0.04629852534158118,0.6104243509490692,1.302202749055678,0.4377450225843977,0.04127238296699267,1.1491804114351074,0.09415233682212541,0.4721599600046768,1.4683487102984163,0.3795301549014057,0.25669366831662827,1.287320797350697
0.10415178081848081,0.227359021973067,1.409597357361144,0.17056998999972134,1.4301021769406521,0.9383089270201911,0.0655132915155017,0.26754573072035986,0.08171491759425396,0.13996980399470632,1.019745504933604,1.0269596192342032,0.23885762427298457,0.4279379167496246,0.4259420406731675,0.07208221531708206,0.6115088207499242,0.9368132996202688,0.16583498648471034,0.4661599407554025,0.8391018805049761,-0.03673172391230611,0.3373054526749337,1.404856586813489,0.2092871055369999,0.09263775160852958,1.32302072986929,-0.04538818330778019,0.6069369752932628,1.3084488241042256,0.43719612361839527,0.010314417880776307,1.1602328711402239,0.09354029871834699,0.4609367018774444,1.469172355161247,0.3789151350907957,0.23405143146045732,1.2844222386662927
0.10083026032856197,0.21516450351095723,1.407870256212169,0.1748088823492871,1.441576087978105,0.9261101943074658,0.06455156899873157,0.2677440217232943,0.08106349353407032,0.14450284864679935,1.0271099919635849,0.9931406131637572,0.23516825026095053,0.4267787162916771,0.4272784306145006,0.07607328036356634,0.612983125883432,0.9365077286882916,0.1666334080825729,0.46399345498821776,0.8412934303438415,-0.037193729024711054,0.3298893295565185,1.405534439306342,0.20328413300800716,0.07999744349424358,1.3203725330245808,-0.04235430713522178,0.6007889748998299,1.3124760379844582,0.43455960210562883,-0.012828380226216246,1.1683482441367736,0.09429027166222956,0.4501567661697551,1.4708748861238543,0.37533834374206365,0.2161566107667359,1.282091318630291
0.09793312161382588,0.20391439139421236,1.4071119751358971,0.18375854106369183,1.4452184102774404,0.9182695121865089,0.06421031769337225,0.266780339229178,0.08044436411783502,0.14417935416616168,1.02824889625012,0.9601759875402813,0.2328323446749737,0.42197525720106105,0.42935916307442024,0.07999806199580684,0.610318829928509,0.9355120983521035,0.168105746617449,0.4574946581303403,0.8441422395110749,-0.03682933967867201,0.322093881301323,1.4075213095614212,0.1973469823023389,0.06752934862892435,1.3183784939343715,-0.03820763198255285,0.5929505467008911,1.3142031556139178,0.4310652443029009,-0.029095606363522264,1.1725921826149435,0.09617999560477004,0.4410926024527665,1.4733537454800654,0.3698319285406465,0.20217966726498549,1.2804605347912956
0.09491598048078205,0.19254016757625045,1.4075983788804403,0.19428262992708428,1.4386087485592114,0.9058069232562491,0.06432387805929941,0.26453166383820403,0.07975844070325107,0.140449833509402,1.0221120765711977,0.9345440909690159,0.23150316494284645,0.4130877635117674,0.43224286493956765,0.08158688097030359,0.6026756539763642,0.933819678278736,0.16976192562822398,0.4469228809847385,0.8476300231256636,-0.03664366807134323,0.3147795745509329,1.41001310821087,0.19033672311533073,0.05461264287881618,1.3171169830358629,-0.03419245041029929,0.5845329717670185,1.3135661245775168,0.42596093184083805,-0.04044811434463991,1.1733884578801121,0.09789626213500359,0.4338399731273281,1.475718661299436,0.3635101575158797,0.19136095329775712,1.2794100184212758
0.09121986690331728,0.18215635626405913,1.4097682179338422,0.1991756138045013,1.4265417575154289,0.8819627844586089,0.06451284844836294,0.2614568158984681,0.07919092177909726,0.13956051985183313,1.011467169958794,0.9186901634895899,0.23088237163434683,0.40160160171746256,0.4354792838410756,0.08104389984393538,0.5922209996439747,0.9327809262889845,0.1707640651775787,0.4349028897074718,0.8511429911616459,-0.03681283384018747,0.30749588025011854,1.4126576354571794,0.1824440733308216,0.04271910233856272,1.3165223381919307,-0.030353709382327256,0.5758641741534829,1.3125942793485237,0.41888504353350875,-0.04738962490747339,1.1709579406302129,0.09954854349221988,0.4272425320255796,1.4783805912063452,0.35678155979226245,0.1835808730273674,1.2789857602549743
0.08808773724885431,0.1744200807992253,1.413473828591953,0.19533820587686135,1.4132344751690065,0.8443675286688663,0.06445862883920034,0.25855000307673626,0.0790851584120694,0.14129216832517913,1.0010002230970216,0.9101521640352885,0.23058784596909096,0.3898708253441629,0.438831767735384,0.0804683624451628,0.5824770759057232,0.9332244302514616,0.1703222904166298,0.42379941161509416,0.8544181429089951,-0.03709610360523009,0.2999110469387443,1.4160568782423097,0.175506230885329,0.03364618513199548,1.3166667735564692,-0.02666596134374135,0.5670550060316334,1.313099687479981,0.4108398359128599,-0.050447158402600834,1.1657961382818829,0.10236038430400096,0.4211183331427392,1.4819299541443507,0.3499384320643597,0.17813214900810337,1.2794652384768221
0.08649403144749356,0.16795654972827626,1.4183622478432973,0.18334559651940305,1.3949554986414405,0.7933576238276256,0.0641477537887811,0.25629415734113836,0.07944936364407601,0.14360850099968142,0.9908817032614071,0.9044459966900329,0.22944669538900267,0.37925661328820925,0.44252082582227054,0.08054750882629237,0.5731798188432173,0.9350462748761846,0.16859033780917423,0.41260075972589205,0.8580716596155508,-0.03679358884652556,0.2934203201831692,1.4213291767116163,0.17045850849707528,0.02689576761166456,1.318252813872306,-0.02335219000523423,0.5591347648667152,1.31510421465858,0.4027577579420762,-0.05033270201678112,1.159228745779837,0.10544166773991143,0.41570921495732693,1.4862344375009175,0.34322303744634874,0.17435483194094648,1.281084779308753
0.08502416088720607,0.16103244369282135,1.4245128064348869,0.16798452559875082,1.3645644684440896,0.7336658266867608,0.06395818374896825,0.25460292543207447,0.07998833014652676,0.14699016247565638,0.978132373908346,0.8992665750173463,0.22704927015169618,0.3696539768160216,0.44663385336855455,0.08061280819089081,0.5616056998558756,0.9379032965461415,0.16677482955212966,0.39924632193140336,0.8625532897344026,-0.03547252836127717,0.2888832134501475,1.4281654569524211,0.1664515982039506,0.020107427476650126,1.3216673335855305,-0.020526329057917212,0.5528831214535757,1.3179241267846278,0.39495816649648485,-0.04792549633058911,1.1532373734966916,0.10790709549918874,0.4115753746437796,1.4910827291546542,0.33711249006369537,0.1720446209884401,1.2841762417053886
0.08311143178351087,0.15369154692114967,1.431715819614483,0.15278722027698852,1.3207280693303574,0.6727544968540057,0.06412336378279525,0.2527889926864561,0.08043916014712618,0.15170316441805068,0.962680784744429,0.8941099778998047,0.2235380487068755,0.3604459795128808,0.45092232405669774,0.07999376254678515,0.5479547651587378,0.9415330120440766,0.1651563270076281,0.3844797132571502,0.8674633805926563,-0.034045489490281175,0.285233948702596,1.4359244471960526,0.16203103714633404,0.013286095000383323,1.3264926933518653,-0.018387868201831196,0.5474279047435856,1.321548184915549,0.3863212760148966,-0.044405216747027784,1.148775300798925,0.11078865290379465,0.4083763966670413,1.4959847481012465,0.3316126911420439,0.17071587376500433,1.2887892298145736
0.08207456358746178,0.14685558979814203,1.4392022869705217,0.13976681308872146,1.2683107190337306,0.6158900557469656,0.06429069087200874,0.25068274962912046,0.08070776810389872,0.15751819584617335,0.9469584176026974,0.8871988590155339,0.2188983945194215,0.35093317755954556,0.45528894612985477,0.07791801885395558,0.5349986179783844,0.9450433060958633,0.16264195671975445,0.3706880851797227,0.8723461245661944,-0.03347625434914593,0.282062715534495,1.4440183438700187,0.15731534327797378,0.007442106692928011,1.3320289605770634,-0.01672395590895418,0.542380144529422,1.3255928223063531,0.3768555542623842,-0.04061727863660738,1.1457234327355847,0.11424102671224085,0.4060413605767021,1.5008217047653147,0.32690214363924597,0.17006747101658035,1.2940331894270913
0.08278676335429537,0.14154936892424796,1.4464304062110493,0.12914361185053658,1.2122663488122698,0.5646445306947326,0.06411712232086486,0.24860705134125027,0.08086036408195767,0.16510639652860182,0.9316464275404641,0.8763338070464178,0.21332850836515266,0.3413152541287144,0.4595438396955186,0.0749685291480086,0.5239421818984387,0.947382762353873,0.1592088890568992,0.358372080664329,0.8770017118296691,-0.03292229048681753,0.28019170135403815,1.4518587620293986,0.15317458258219457,0.0025631014971250195,1.3375003385852477,-0.015206725582537285,0.5382771722525753,1.3287626226522073,0.3677328148883538,-0.03613622038336731,1.1433763609034382,0.11752621934694457,0.40498896444034066,1.5050163396043506,0.3229708339464959,0.1702909299813902,1.2991483255272662
0.08390810188580844,0.13796025778883564,1.4535333338154846,0.12021421967151416,1.1548219801769153,0.5188673909870045,0.06364418762448912,0.24692614098480037,0.0809301296467475,0.17366415392857792,0.9159055536668428,0.8612868599363926,0.20746081129986763,0.3323640867539373,0.4633863556043198,0.07254991214014123,0.513970545077571,0.9485562335806896,0.15629453788808842,0.3468437174004958,0.8813215689080631,-0.0317862872503747,0.27934589811134114,1.4593446527296665,0.1493116631601327,-0.0014762475031241614,1.3431712885693616,-0.013965665520766082,0.5351637906046607,1.3316102285490834,0.35858554834373085,-0.03126454413677487,1.141840855254738,0.12077434473255878,0.40452790289475127,1.5083328646192766,0.3203840725744076,0.17123826231669953,1.3043457050261702
0.08438511995350417,0.1356167640119394,1.460771951043875,0.11222527523612481,1.0981748155156805,0.4779577302174052,0.06312779835995744,0.24592566722481018,0.0808907162134614,0.18083288422094065,0.8994122727649844,0.8426219880238963,0.2020204472589033,0.3246836635018733,0.4665971805590804,0.07085326951387796,0.5043649016913251,0.9485930458251115,0.1538785124806995,0.33546681596258415,0.8849988148100677,-0.03034360409790145,0.27960312952791117,1.466415269302673,0.14609088578919985,-0.004269581752869851,1.349503153190013,-0.012043419732158651,0.5332117431582432,1.3344481400652726,0.3495706118823959,-0.027426945261413527,1.1414743311943811,0.12418524743419929,0.40482107224334685,1.5116565410180542,0.31980508028688165,0.17128189067362545,1.3103153197556017
0.08493338037789819,0.1339960170756211,1.4678399185083228,0.10464630054659621,1.0438640253373797,0.4410762012233848,0.06299846932297212,0.24513803973936815,0.08080327347958503,0.18623712636888537,0.8814773814704219,0.8207646051506088,0.1975134670748194,0.31810581586441955,0.469183520105223,0.06918605168988079,0.49475680022094587,0.9478032365126758,0.15103445834892626,0.32395618121364705,0.8878701517731842,-0.028869784200753465,0.2808883498259885,1.4728967169313003,0.14398855509393468,-0.005624358752630259,1.3561750433252753,-0.009574717571765212,0.5320214738860697,1.3363922142244704,0.3410112232497272,-0.02368549296033863,1.1415254497410234,0.1274940391938085,0.4060196039380551,1.5146717680111796,0.3201261977316455,0.17037384754794185,1.316975243694796
0.08584028129533566,0.13339299397907523,1.474320638715378,0.09702770459064977,0.9923381502618299,0.4079003500126941,0.06301330362050585,0.24425453635508995,0.08048196419368828,0.19133719893938578,0.8617479952909721,0.796803795377344,0.19354675779610278,0.31241958171939155,0.4710883999262362,0.06742898767567809,0.48533192118227775,0.946295547572204,0.147740717806228,0.31261394237609635,0.8898927308492264,-0.027287573670527986,0.28258264749349105,1.4784203047613043,0.14190008228427417,-0.0060339922827652446,1.3624256360382463,-0.007860324706213078,0.531126448762187,1.3372767207723906,0.3329591347216541,-0.01919845654751322,1.1421058122620202,0.13061719082761925,0.4076799160492125,1.5162583167680765,0.31981038092680564,0.1703212720906101,1.3231781245273013
0.08680588589575847,0.13465052635525165,1.4798943314469908,0.09056871603626483,0.9439599330403065,0.3783604813829866,0.06272643953239118,0.24367945959506074,0.07999865136298184,0.19674289330301709,0.8408122436344624,0.7724133648220277,0.18969445365239096,0.3074779178791992,0.4725181374201744,0.0655357982570786,0.47661087996639684,0.9442810067779233,0.1445002329108126,0.3021809235133617,0.891358356855142,-0.024938626543651716,0.28489598651841574,1.4827910353508549,0.13930156491413362,-0.005802577152094799,1.3677734873979945,-0.0060883029135002445,0.530917865624628,1.337227171885673,0.3258484010491911,-0.014899234757477718,1.14341350662681,0.13376667668894254,0.4099145254869914,1.5167986770985618,0.3184026308732583,0.17100511386129474,1.328508218050476
0.08858353829927179,0.13659879272709646,1.4844432448431384,0.08640193654951103,0.8993464048547946,0.35182599307042495,0.06259274112846738,0.24336809353064381,0.07985850617894012,0.20177929760280117,0.8193658590278841,0.7486681100419065,0.18654874586300382,0.3024738933217239,0.47407182389301067,0.0633854304969584,0.46882574196994536,0.9419563278816525,0.1415404916149312,0.2929144429359169,0.8928598282364937,-0.022425088860164696,0.28823332086104425,1.4860615259909935,0.13714144165363779,-0.004733483115074194,1.3722332842164358,-0.003615885007315474,0.5313827192043752,1.335737303724044,0.32007929557826714,-0.01121891014956748,1.1448463512728766,0.1367045937711828,0.4129576613196053,1.5166583951449275,0.3172536528982639,0.17165452424650693,1.3330626698293342
0.09102525580328805,0.1384139010993619,1.4883704113807261,0.0837942039323924,0.8586025384412137,0.32716099127637144,0.06291251639801124,0.24294872907595835,0.08001768057477049,0.20523054915346967,0.7979497369931762,0.7256181988621135,0.1841966584713142,0.29699126475856685,0.47578637522350214,0.06143881609817255,0.46171736099119254,0.9393096004894023,0.1392548607635785,0.28452037059783053,0.8945001827737837,-0.020962810598797475,0.2927042118177885,1.4891178582385787,0.13611487457768773,-0.003005032660122329,1.3766825207075883,-0.002308192138183717,0.5320062650248858,1.3327103393343283,0.31481550838805256,-0.007623316816135655,1.1459063474788937,0.13864985530855575,0.4173272637840867,1.5155405312182404,0.31750604054102016,0.17257658103763107,1.3366863035358205
0.09312154607286038,0.14111270649939736,1.4920559653090328,0.08154472121134516,0.821263185620607,0.3041659902901414,0.06307630723515535,0.24222258226799565,0.08009754231942104,0.20670305589300816,0.7768878807200472,0.7036226019948086,0.182039960859418,0.2911817499520043,0.477227946556934,0.0599808513182608,0.4548894559365083,0.936394696353631,0.13776960296606722,0.2766287873956964,0.8959500355618323,-0.02018237654746705,0.2977086604457818,1.491966319713651,0.1358411782636875,-0.000862432133431311,1.3815099274583822,-0.0023019726506101523,0.5327352428454653,1.3291274076779196,0.30955684148558954,-0.004180725715217137,1.1469326152929815,0.14004161066203188,0.4226873305102057,1.5137292294044882,0.31822780901283937,0.17393102989875076,1.3394955634021128
0.09464017061436232,0.14482611696100764,1.4958029625720468,0.07918878464276036,0.787555731862614,0.28301271880316575,0.06293041923930165,0.2414104472963015,0.08031243838237001,0.2069020672301809,0.7560797425211655,0.682878993598035,0.1797939546240032,0.2858504105403213,0.47859180758243913,0.058973095500141674,0.4483370846072902,0.9334790121982811,0.13635075743380953,0.2689881385266659,0.8973068854272129,-0.018909467847825094,0.3024359196238598,1.4939763683504863,0.13579277556173888,0.0022512300447290225,1.3860721488732037,-0.0019289158933784535,0.5336625565478756,1.3256962485838852,0.3054681337376431,-0.0009026942267410583,1.1485548035073718,0.14177282107581748,0.4272934636691597,1.511386877619273,0.3186033602804521,0.1759311573258802,1.34203216032786
0.09597107711716352,0.14902522994704598,1.4997453210064349,0.07714183151126941,0.7575263826648614,0.26330023001540626,0.06296285491280136,0.24069831086621124,0.08084388248157313,0.20589641959602298,0.7357276170561016,0.6634782155243185,0.17755204195299326,0.2817351701607916,0.4801479181407229,0.05823199644538646,0.44239227022322736,0.9309574434563838,0.13460473144556384,0.26185352038278403,0.8987895033145652,-0.016656588030798006,0.3074119328429109,1.495624002837548,0.13582639739906494,0.005753899154063287,1.3903765642848305,-0.0009988801197476419,0.5346826012521338,1.3219100560723083,0.3023746047205008,0.002673395388387035,1.1506416166213294,0.14396308339861877,0.4317002969682256,1.508532792954092,0.319321081843456,0.178342328843343,1.3448881348892867
0.09746623766992016,0.15344325288758762,1.5034855471538522,0.07590466975764476,0.7303590974189851,0.24475275306089306,0.06315722999991683,0.24012110371692919,0.08138162412318334,0.20325027228182302,0.7165804736789276,0.6457410829914311,0.17529495681950136,0.2785943283694909,0.4816367131445152,0.05780133342711509,0.43724858933061694,0.9289539912249661,0.1330769569073945,0.25568034558478314,0.9001925608244873,-0.01410118588184303,0.3126923407144132,1.4976325963721984,0.13650941373193806,0.009166048630240554,1.3949914442450533,-0.00012943392239100402,0.5350595581846571,1.3175473441023582,0.30015896765402256,0.006511754356836408,1.1532775390518215,0.1462375884562346,0.4372195618932904,1.50583106919293,0.32060984680297555,0.18146431887263148,1.3478250908710476
0.09936346540332992,0.15816209551414742,1.5067575702122677,0.07528776578850359,0.7054126186661348,0.22759108516150975,0.06327437612693046,0.23990445443643768,0.08186177746992856,0.19969549317970742,0.6982958281469002,0.6296696631735236,0.17305233209110327,0.2756542925656447,0.4830307004037571,0.05791741430061619,0.4327966886419648,0.9276601951043786,0.13246052873067865,0.2505102514451891,0.9016144009110018,-0.01199126796258719,0.31790592002169704,1.4994417201844927,0.1379578013485954,0.013186139292259933,1.4000686249477707,0.0006254025837858063,0.5353532578911688,1.3133514017734165,0.29893637030540576,0.010208824799041578,1.1565663975550748,0.1480532087019444,0.4430600322255061,1.503601681066272,0.3216022098223778,0.18594871954975994,1.3501533235036824
0.10162192697276946,0.16366932455505664,1.5097478547631087,0.07472044386240599,0.683143230583023,0.21186977989712755,0.06338134297431101,0.2397501330958121,0.08227232710775784,0.1957611612372964,0.6803587364227957,0.6150270767517746,0.17077374204658993,0.27250039195830816,0.48434386935804674,0.05848395833777079,0.4289844704180227,0.9270477094671139,0.13246857275298227,0.24618929997417766,0.9030735949697698,-0.010653272987708632,0.3235539783923929,1.5002376020718406,0.13928138804131393,0.017968268570244316,1.4052131661573786,0.0006454035676048746,0.5366970956188578,1.3091543170635112,0.29772445061148156,0.013815342105904025,1.1600709872037682,0.14884275342476797,0.44911965547696614,1.5010322212846547,0.3222168063846798,0.19086005673454778,1.3522484947676336
0.10402466524616516,0.16996819659041693,1.512546610316783,0.07399087681079052,0.6643053570995481,0.19743200478165482,0.06358321441306984,0.23928073931409496,0.08255277055562849,0.19120382745037534,0.6634310005891585,0.6017288473437299,0.16816252062248835,0.26974775568467585,0.4855353548212257,0.059076847124307975,0.4255338319376988,0.9262853693643985,0.1328288358438854,0.24237062072522542,0.9044579994376015,-0.009982559708005663,0.3295089181127851,1.5001979240718444,0.1404890719644378,0.02311945004811944,1.4104214405514097,-0.0005834191656486142,0.5384000045048932,1.3043730921309244,0.29563842289279696,0.01778848774292499,1.1631994953066,0.14835820944664732,0.45551903022364315,1.4977541673740589,0.322892217354868,0.19551409306799417,1.3543781801755252
0.10678889388417612,0.17619501402143894,1.5151413425171616,0.07372666261336532,0.6484904341211499,0.1843652760145527,0.06370309079398667,0.23851392646030445,0.08272802104492175,0.18610708010959287,0.6485272005394669,0.5900244484710142,0.16543163015826154,0.26768309224107134,0.48654618077544803,0.05950890323133845,0.42229511900166716,0.9249657257196441,0.1338862738845573,0.23910559709181214,0.9056861149295374,-0.009174717237423125,0.33481539715004,1.5001563302313095,0.1423528608847306,0.027888944549516795,1.4155373063114276,-0.0024672071816216365,0.5394587420859225,1.299792963237785,0.2936615179414575,0.022560155691296935,1.1659454444353337,0.14770975230588954,0.46232751823157975,1.4945871475263657,0.32422546033722127,0.20052150766572183,1.3563962429286387
0.10937301195153923,0.18180500754342532,1.5180743324969477,0.07444223181606109,0.6348950093401885,0.17258997861027014,0.06350401834163098,0.23780156728673718,0.08293673079723227,0.18060706047216002,0.6357253311362296,0.5799299764616127,0.1630366863289534,0.2656859489654945,0.48738708879856635,0.05972052413853374,0.4195230956902277,0.9234937778530651,0.13515570127093654,0.23652039160533714,0.906753817262703,-0.007427347757877324,0.3394196392592238,1.5004152456802464,0.1451878479772199,0.032583336452182324,1.4203982310121053,-0.003969919776644393,0.5402910388402138,1.2961866408901446,0.2930000045498006,0.028305308737345707,1.1686993448445677,0.14843723952751506,0.4695855622820403,1.4916820009933844,0.32600335719281603,0.2066522997933955,1.358396155925811
0.11120258924036201,0.18778708536016847,1.5214461973769609,0.07544032906147467,0.623339701644011,0.16200871148217774,0.06343887456004658,0.23707122126711985,0.08304326984130286,0.1746722288875957,0.6242116793073683,0.5710848713134505,0.16117082429136764,0.263637106785349,0.4880162278626293,0.059330339724369484,0.417182768099336,0.9221182914850955,0.1352129068221775,0.234176731275188,0.9074907214557938,-0.005122765128395433,0.3446445054432446,1.500495370752822,0.14805243052564043,0.03814359526580138,1.4251054778446592,-0.0051554222325101064,0.541850200827589,1.2926904931259962,0.29333684802372745,0.03469257454574653,1.1719282553794472,0.14971686246206453,0.4768505941562571,1.4882342530259027,0.3274035856508499,0.214103024330479,1.360417366822068
0.11292835377198232,0.19482526971240344,1.5243741437233005,0.07610606625683927,0.6139364720186928,0.15250364828176266,0.06354793992390485,0.23644146874440047,0.08301790807366302,0.16821013875993274,0.613748629139824,0.5632459588811782,0.15993604674673711,0.26230716817389493,0.4883664288670668,0.058271428388118315,0.41505745202453187,0.9207812411390619,0.1343633364413709,0.23201093555648422,0.9077985693442563,-0.0032878832053009678,0.3508749175286959,1.5000385604366087,0.15065721179081876,0.044145885608964215,1.429452860651343,-0.0067279592714867865,0.5440520066280325,1.2885052071797127,0.29413978937130325,0.04168621055791367,1.1752402187075477,0.1500800158915866,0.4842348794882668,1.4841558785570452,0.3293598565227899,0.22173358774645224,1.3629059714196048
0.11492832855189228,0.20232918015892293,1.5268679099698534,0.0764270542583277,0.6065320131154208,0.14425611482612774,0.0634582286298901,0.23616379968152532,0.08316497885428713,0.16134233646147278,0.6047343834284764,0.5565403591223521,0.15909912294515607,0.26186141585864864,0.4887027681535273,0.05698661149253148,0.41305618328887456,0.9195307459554519,0.13408636555838654,0.23032978304010335,0.9080749050322494,-0.0025640573220073134,0.35776939702421434,1.499478846802824,0.15377482237894227,0.0500437105351961,1.4334994655568352,-0.008347844385035044,0.5461742219874203,1.2837469679602656,0.29540010431816943,0.04944079706274759,1.1782309834113163,0.14940440649735218,0.49163294269915436,1.4801837489951513,0.3320565043748682,0.22931365838900292,1.3658000798040317
0.11715876518542952,0.20978322315818965,1.5290538062373178,0.07618125133511808,0.6008245664231868,0.1370186784941703,0.06324421956695225,0.2361967798174063,0.08343312500187916,0.15425983385982153,0.5974237979598159,0.5506437462366176,0.1585080893449964,0.2618795138542781,0.4890450297248037,0.05585214049264918,0.4112995596856076,0.918157338263563,0.13425174324168657,0.2290331281538225,0.9083703556652081,-0.0021570670848645944,0.3649146814455228,1.499140523068224,0.15763282333736406,0.05614300223797793,1.4378733886080202,-0.00988203349895158,0.5478393749506575,1.27879657980981,0.2968480807431931,0.0575429252464252,1.1813003176767387,0.14820740155321852,0.49909834282160914,1.476480696093804,0.3343228658880941,0.23767121215167047,1.368454847204117
0.11972468782462786,0.2174602038484096,1.530627212947659,0.07516499443204619,0.5965974345960591,0.13046460892107486,0.06343046309405476,0.2364274782042882,0.08362099326754632,0.14718211502003758,0.5912035559510626,0.5451604537430564,0.15807398014375612,0.26236586872137396,0.4893687380516151,0.05443499603787187,0.40998421591050127,0.9165727055988996,0.13431347629589013,0.22827522188064714,0.908612206637481,-0.00183777074432702,0.37114301247307674,1.49853634227925,0.16195069121535666,0.06301480092390091,1.4428995602523262,-0.011128332891055045,0.5491390239927756,1.2742472291278344,0.29829836836360213,0.06579983090920068,1.1848054087144604,0.14741421260832632,0.506960276884614,1.4730757870521172,0.33612202515203904,0.24703495106707393,1.370818323357431
0.12206088614764503,0.22582814517410735,1.531843894715811,0.07366591541604275,0.5937930115079525,0.12457774482156359,0.06381346905992857,0.2366139306938786,0.08385395435387703,0.14040729597909118,0.585257062956828,0.5401066447270867,0.15772688939503782,0.26313338257836416,0.48973551796401915,0.05253999789294679,0.40899196376554914,0.9150817922268045,0.1349489880053468,0.22834446681998188,0.9089789431350243,-0.002047357804646074,0.3767008646278215,1.497486875181105,0.16627239192283982,0.07075383221794819,1.447634463362524,-0.011652478848177505,0.5507751336999582,1.2701615633984331,0.3000614945631494,0.07509734865707496,1.1882200423251623,0.1474447012916934,0.5152610896283208,1.4698473745458187,0.3382282659586405,0.25762799756643795,1.3728946026258682
0.12396147211916485,0.23464661664439337,1.5329732187807057,0.0720825703730253,0.5919645079448946,0.11942978319033634,0.0638838143554875,0.2366214493280313,0.08404833081488113,0.13395005479419142,0.5796378894684543,0.5356140829627386,0.1578058910910935,0.26392299390117313,0.48987594092792053,0.0508241908729612,0.4083323143068393,0.9139453012760477,0.13674688171285831,0.22928116771894338,0.909219065613987,-0.0026272014575050304,0.38278699907915326,1.4961848919374687,0.17065782020333684,0.07898795587557565,1.4513637620558797,-0.012350091406577774,0.5536916533362929,1.2664731641638964,0.3022012163845422,0.08616405606658963,1.1908635363842148,0.147498914619224,0.5240732632042544,1.4665198661030223,0.3405638032254939,0.26963600584828695,1.3745490814736436
0.12624267690238064,0.24359763124642253,1.5339550615515736,0.06989222732734841,0.590523916259456,0.11482273500728309,0.06378765434633235,0.23678433661122916,0.08409490715637416,0.12732731856927917,0.5745133019080684,0.531519381636814,0.15825115879394325,0.2649046872529728,0.4897449805377408,0.0496806213171673,0.4080676270893433,0.9131700224377595,0.13925957887336263,0.23079298266089274,0.9092261026583848,-0.003220177589867887,0.38913133616236056,1.4944375779259824,0.17525718170159682,0.08702689682198914,1.4545922440367494,-0.01343772652558999,0.5577318854233477,1.2630456009091395,0.3046827169029129,0.09826574126604876,1.193172289673362,0.14668673475174715,0.5327713137959885,1.463514586960839,0.34288166613300863,0.2821025925308352,1.3765348611143677
0.12903078389671696,0.2526433054383043,1.5347735876510127,0.06706125166526113,0.5897127181106783,0.1104788931013259,0.06393405882063732,0.23715640934917756,0.08420888042891486,0.12002727824072242,0.5700341139659498,0.5276183846801522,0.15854860950104085,0.2663947438180171,0.489745585659998,0.04891675541456894,0.4081959679294341,0.9125056566606059,0.14175275617317998,0.2325919504405495,0.9093497356767144,-0.003935285478894656,0.3952265393236285,1.4926361229583818,0.17955074005277166,0.09498084316374077,1.4576170460333977,-0.014004605051208428,0.5618656344732095,1.2598220177345094,0.30756635961104445,0.11054873249896825,1.195733088536019,0.14536050663396485,0.5406570331293911,1.4613065675520278,0.3450464199457893,0.29432867790258166,1.379302373756239
0.13201661747050022,0.26192155718037863,1.5352788371391417,0.06441823283065969,0.5898472030861502,0.10648880867784316,0.06432944887688807,0.23737629649020378,0.08436251866046277,0.11315783309531734,0.5662613465945394,0.5239327659832177,0.15862092796765181,0.26835836011913783,0.489842242404275,0.04808669451350887,0.4088467478975713,0.9117235267055385,0.1439255809953776,0.2348569413324663,0.9095537071092552,-0.004542218142096102,0.4013501578573029,1.4915482624710277,0.18392859946686924,0.10357440308454757,1.4603473092468855,-0.014407367706499913,0.5653748018988851,1.256868907098777,0.31076160334208325,0.12281604895626916,1.1981219384695858,0.144331147194839,0.5485527572291858,1.4592756565928666,0.34682580932765356,0.3063239365248105,1.3822484902846395
0.13455301052638222,0.2717936008308909,1.5357308070738058,0.0625837547921355,0.5903159398500722,0.10288185055846236,0.06470534039479515,0.2371937970479477,0.084298018472655,0.10734535398885298,0.5629691732752777,0.5205453259373891,0.15856811665542395,0.27020882140784985,0.489717166562822,0.04688957603214801,0.4101764739022581,0.9109272027884772,0.14590417304717815,0.23795796176780454,0.9095902736857319,-0.004771932799984387,0.40792525100135807,1.4911652533109714,0.1888068375261583,0.1129353648399578,1.462930804775783,-0.015402209625580228,0.5684739245036975,1.2541245999385133,0.3141716891226461,0.1352195697186164,1.2002436028379138,0.14321609996883836,0.5574227145469053,1.4570217949441802,0.3480237580366066,0.3185863291891098,1.3849361340685384
0.13569846035315203,0.28215184925621567,1.5366446173974408,0.06099021525922569,0.5904670903477394,0.09972778037064432,0.06487913928611186,0.2368676549123697,0.08431944810460985,0.10191434015565215,0.5604821266455238,0.5175999548156025,0.15851986002147542,0.2719224159539149,0.4896101959762564,0.04585637726027414,0.41183326228445244,0.9102288775002108,0.14796998077066376,0.24144059179063201,0.9096768664769769,-0.0051606132993921,0.4146683437646051,1.4906549522252834,0.19408044360055376,0.1229880121399443,1.4649098638136377,-0.01697351246612145,0.5720944776430091,1.251598485000883,0.3180848083180777,0.14887763079820476,1.2019114380031843,0.14142477276249715,0.567561702063179,1.4549161724113675,0.34846451477528806,0.33156531227397024,1.3878726580833358
0.13583914503208067,0.2925881567502258,1.5379309046442442,0.05909614037310852,0.5905372570648143,0.09707342507529705,0.06490782848086371,0.23702440692022184,0.0846533893328962,0.09706937110216882,0.5589164862490121,0.5151120061565342,0.1589302375678214,0.2739003523554054,0.48969730521280086,0.04490440716363541,0.4138179979053321,0.9095881063495984,0.1496828355361972,0.24503843381772267,0.9099058704351176,-0.006632506230266226,0.421481658980417,1.4894409156186248,0.19928324504176448,0.13371939404523212,1.4664080313767107,-0.018990077863461907,0.5769374334764454,1.2491170666603084,0.3220599576019163,0.16305122068261077,1.2031918471075185,0.13901552440464993,0.5778673404419246,1.4527733884809306,0.3489862233220446,0.34421437972221347,1.3911542740806808
0.136126215598507,0.3029557989248506,1.5394046506321588,0.05744483268426596,0.5908216676306164,0.09478064880696081,0.06529328515860813,0.23739804955367325,0.08523424767671504,0.09316048280215866,0.5580028811959866,0.5129230732992436,0.15974866434811894,0.2763089704590407,0.48998078318353777,0.04381039715555052,0.41656688574323664,0.9090912012242715,0.15053711351032223,0.2490226875797443,0.9103000303944203,-0.008887237428103932,0.42924282114174683,1.4878401350217196,0.20373732529172384,0.14497342298354646,1.4682768601851073,-0.021445946453965137,0.5822993704146731,1.245993407540212,0.3256799904275262,0.1764952295704752,1.2049250392933948,0.13618368945638182,0.5869003787689644,1.4499073346572564,0.35040658257027024,0.3561508115918108,1.3946299411315513
0.13708633875621967,0.31347425013833874,1.540601701929421,0.05641695846531374,0.5909330055128816,0.09278137837698942,0.06572863447172154,0.23742370521143616,0.08592762245553462,0.08986625940961805,0.5576255339224321,0.511063369114512,0.1603951278164393,0.2792506165751529,0.49034684496473735,0.04296602392376538,0.4199054665964085,0.9088451932466052,0.15119958136661307,0.25333203188006187,0.9107530496613904,-0.010921806120837223,0.43736546288014727,1.4865811292436257,0.20740594871455265,0.15647697460810653,1.4703222143303816,-0.024365542385700916,0.587321591349786,1.2428552760819513,0.3304981417329249,0.18989120337505708,1.2077533800237605,0.1329295850855736,0.5955738819118855,1.4469103054954842,0.35110595672679,0.3692704417998093,1.3982129326288155
0.13822387942584582,0.3243945695585514,1.5412592949075528,0.05545857275399832,0.5909629926667954,0.0911447610515091,0.06582088185989492,0.23747497200937076,0.08665156363236401,0.08704195308891227,0.5575976142603541,0.509578326446465,0.161101208126011,0.28248684918750827,0.4905782577641985,0.04247914030846975,0.4235693407867806,0.9088791387938093,0.15228862684633607,0.25803921688170184,0.9110795950704034,-0.011934443629440954,0.44466667795698633,1.485948295244604,0.21102538401826357,0.1681277054531218,1.4722627657794702,-0.026769508496213464,0.5922821518820264,1.2408735851820507,0.3363409740826472,0.20475303561852956,1.2111677876635238,0.13008268980211515,0.605331664222359,1.4450146011276421,0.3494020318673437,0.3847858704495521,1.4016809479395584
0.13894886619667066,0.33556836216516717,1.541876465212392,0.054160975696330466,0.5913883452190943,0.09000206622264204,0.06597156780782736,0.23801531760157502,0.08744030096419966,0.08477315346604497,0.5577801929869747,0.5084888132533207,0.16209840500980743,0.28608253630637337,0.49081181167446886,0.041735654416591855,0.4276618755910162,0.9092457336205242,0.15328392999580084,0.2633007421945008,0.9114077834423101,-0.012527260836282183,0.4514581788576499,1.4857630811834208,0.21497756580622085,0.1797955589037754,1.474084910283562,-0.02883361683846847,0.5971241958236657,1.239616479101019,0.34152766067196605,0.2210544434300064,1.2142791367569452,0.12747230055739212,0.6157121833200065,1.4437584514563966,0.3471106917651105,0.4013643314535307,1.4048944525399287
0.1394170632784464,0.34722823800025676,1.5422393082758956,0.05341540306058932,0.5918658366128011,0.08907429432550773,0.0666002832608815,0.2387838205229056,0.08850812106241898,0.08283152517526088,0.5584132431853137,0.5076514208314835,0.16336000726233116,0.29031174641100954,0.4913041442431816,0.04058897931589811,0.43188360932799236,0.909645372061412,0.1539249160320302,0.2687482962166605,0.9119480422411358,-0.013397538982463264,0.4585566836164458,1.4857526447476896,0.21863316196897967,0.19152827046778337,1.475683152224425,-0.03102956359712529,0.6020097413649914,1.2384048127867775,0.34591356270411905,0.23688257763235057,1.2169195640366983,0.12480957743465117,0.6260217906146204,1.4423317012022911,0.34577509750397384,0.41753402247582483,1.4073003814708558
0.13993863004314125,0.3597804877959976,1.5419502634309241,0.053945988545827904,0.5917917616389847,0.08814457983208422,0.06753410603372277,0.23940990636573403,0.08978532459766937,0.08115019838722307,0.5593764619822118,0.5069548396533535,0.16531060195670702,0.29490387100404225,0.49180899716198,0.03936131630748738,0.43581490389591204,0.9099135424926501,0.1546009201213473,0.27402413655344354,0.9124511599989896,-0.014374569163513269,0.4663548907949789,1.4856013646342672,0.22174009116907675,0.203587016882989,1.477550499171384,-0.03268714820863338,0.6076131374529267,1.2370367688186634,0.3497344961816366,0.25156285711340026,1.2196214000537222,0.12241154059295858,0.6366148994196955,1.4408834059964428,0.3446597114031613,0.4333575848905229,1.4088324719563041
0.1409298382849183,0.37254576130013906,1.54131853909907,0.0550579829601099,0.5910244396215909,0.08738087837376023,0.06853529538282714,0.239811024313861,0.09104284259049546,0.08003299110436075,0.5605120373915737,0.5064721219728829,0.16783988434254662,0.2992990034280077,0.4921206140818911,0.03828526549605815,0.43940241946397945,0.9101826927776214,0.15559221456893002,0.27909926392084905,0.9127609650945797,-0.015523233169846697,0.4748674202880533,1.4854646065592254,0.22443098289651095,0.2155545068311133,1.4797755325035429,-0.034232939037756566,0.6142207650859212,1.2358662934407907,0.3530510894085602,0.2657235498347985,1.2225736082775447,0.12005720719541901,0.6476654600850069,1.4396377297533514,0.34383489938685763,0.44908728491051475,1.4101063397487057
0.14144964348878414,0.3844134617968912,1.540982188316463,0.055474410174185834,0.5903311150478515,0.08697327390424413,0.06927381158623262,0.2402633483000296,0.09229341833637975,0.07929413218441658,0.5618548393202022,0.5062714138057327,0.17068213426009646,0.3030682751405983,0.4923393658090532,0.037310872339023186,0.4427298764887388,0.9105472481297949,0.15665971075475432,0.28393719286425106,0.9129681692890508,-0.01714454773822361,0.4840383901362824,1.485422977496342,0.2270066682797669,0.22709643246140465,1.4815216123178088,-0.03637886418254991,0.6217298833837506,1.2349370446830963,0.3556754128424374,0.2801843790746605,1.224919814772951,0.11726431068191227,0.6583887585327983,1.4386476286372365,0.3429607042599646,0.4643625356011425,1.4114511267470027
0.14045570261872295,0.39469635997403313,1.5414935720042686,0.05518299923205874,0.5904209430471068,0.08674715807047172,0.07000591239810111,0.24075913143711294,0.09351519641288666,0.07819801607427775,0.563050348695269,0.506163149238348,0.1738439062052138,0.30639960525156584,0.492478018627266,0.03631370589796624,0.4460907080527336,0.9110827907502949,0.1575175103117267,0.2887219555586345,0.9130854252517239,-0.01875110161291072,0.49327570000319815,1.485222368871016,0.22954341722106708,0.23847455681442437,1.482534965864244,-0.03949258721337337,0.6294855099531234,1.2340530581588094,0.35742406766630785,0.2947124149066397,1.2262098997001742,0.1137770875210308,0.6680097368064475,1.4377001174736612,0.34140655287892946,0.4787025699332632,1.4126777255005232
0.13907778745121455,0.4042778926338287,1.5422742556446531,0.055041542335389736,0.5907917171109802,0.08644497512767496,0.0710491181632716,0.2410096057423018,0.09499746834045077,0.07658915231945733,0.563827809308213,0.5059737028079901,0.17752040369813835,0.3099075155809604,0.4927114787172449,0.034891051985774246,0.44987638645880584,0.9117609457371895,0.1579043326632696,0.2938915605058145,0.9132506895006389,-0.01982670950526995,0.5020873946052032,1.4846112222570953,0.2315396123391908,0.24995034621876328,1.4834870196490546,-0.04345411252164121,0.6372915894608546,1.2331443013888652,0.35878206807311264,0.30808181967068765,1.2272670863672857,0.10999195526833148,0.6763228114476356,1.4365629942977454,0.340113081165538,0.49171738163253004,1.4138392443404184
0.13808101593125635,0.41411295536256404,1.5424166759756042,0.0551319570617789,0.5907568532301827,0.08601035108705911,0.07211083853104114,0.24134859573465212,0.09688087155739056,0.07501062318098216,0.5647446543296966,0.5056733556803903,0.18165894095764548,0.3138317814449862,0.493118795927794,0.03279421157854303,0.4539745432765225,0.9122979805760166,0.15739289660637396,0.2992677157086362,0.9134733878775678,-0.02031790783911968,0.5099473416186532,1.4833902341262872,0.23234636977843917,0.26117192798239347,1.484458012484691,-0.04798784174611075,0.6454349551713165,1.2324885196826196,0.36026172742808676,0.32065910586555946,1.2288889449912284,0.10682710158244729,0.6841214386259945,1.4349324851126735,0.33899073491412546,0.5041380135988983,1.415323976000933
0.13700931898049104,0.4239213244030193,1.542187361115669,0.05511646632876065,0.5907367391018726,0.08555050263319712,0.0732272665731449,0.24170108443627306,0.09884830567318878,0.07373417974302883,0.566339531318943,0.5053729023739609,0.18622690988951188,0.31766882827476384,0.49347273199495534,0.030803190849237636,0.45793634531471117,0.9125551534142171,0.15656231102327287,0.3041563543682525,0.9135063941406041,-0.020844313796483212,0.5166556019986686,1.481940353204945,0.23243828411908143,0.2714331957614258,1.4853014958079958,-0.05095041156941656,0.652740051814707,1.2316490312908448,0.36166136803682153,0.3334534780217149,1.2309952328879155,0.10493794566793893,0.6920625017120358,1.4331435879216718,0.3371510493707746,0.5169904591063401,1.4169724900662153
0.13591921130943824,0.43323730980782993,1.5422180348148895,0.05478517077997637,0.59094704108625,0.08516337354505335,0.07473263897759622,0.2418876869150799,0.10063303518574356,0.07293483923509587,0.5683799410774922,0.5051024970572433,0.19067819943295397,0.32099866324545123,0.49377602027720724,0.029589102118760476,0.4613576195432773,0.9126096618293493,0.15612215037467242,0.30821153529871165,0.9134592613499699,-0.021984937898639055,0.523171996033915,1.4808384183881378,0.23225427729651238,0.2805615312588088,1.48634724528414,-0.050458513261180726,0.6581432696865468,1.2297437533839024,0.36230891403407095,0.34567167893847567,1.2332369207634446,0.10397856958850155,0.6997041698432788,1.4319091356719853,0.3349233955812187,0.5296062768542197,1.4184260346205855
0.13515463665366126,0.4421200494887852,1.5424404629705255,0.05416423628987406,0.5913546508143571,0.08498887669197058,0.07646766785187485,0.24233930133754764,0.10220972746084422,0.07266797041471412,0.5699605023290393,0.5049812172877322,0.19428307896518393,0.3238685270548488,0.49429754502914897,0.028809817477192037,0.4644047923659486,0.912816306257067,0.15601916250000752,0.31182538420164474,0.9136819607744688,-0.023396018486813174,0.5297799246785194,1.4802461901495543,0.231747605795139,0.28888656941835467,1.4876500086931082,-0.04889668524932704,0.6623876606075465,1.2275866749297133,0.362004506859138,0.35668964723310764,1.2353582921737232,0.1029355625853399,0.7069532432199236,1.4310830813619853,0.3325367590587132,0.541042652280906,1.4198152148428551
0.1340766112508755,0.4504313355214312,1.5423794140063327,0.05360712160028124,0.5920044241958162,0.08517159239639953,0.077969197768287,0.24309310140925025,0.103636000100597,0.07254084566685015,0.5708070700682034,0.5051508321342622,0.1973107042649813,0.32648774927360635,0.494863408814829,0.02830664629709913,0.46719473700336533,0.9134352992889646,0.15613449471257385,0.31513575760522317,0.9139937200455206,-0.023863846096544322,0.5361089014787067,1.479787444866489,0.23172485429293507,0.2965904095049205,1.4886618005087717,-0.050022471899950134,0.6667365880241363,1.2261602578987625,0.36156176907902793,0.3672962902110477,1.2369382821411106,0.10104645234111731,0.7142289360711946,1.4295565067874647,0.3298902419162353,0.5515581861207626,1.42111371680306
0.1325443922183499,0.45759089055417707,1.5420157058278394,0.05340668024179512,0.592432301338911,0.08528974956452134,0.0789489234981474,0.24355834555869532,0.10479656924494973,0.07273292739617572,0.5719299775463822,0.5052843247205951,0.20009205896057694,0.32891353028287773,0.4950490524494341,0.027785304530434488,0.469529408828575,0.91380558802127,0.15610493608713608,0.3178786380361646,0.9139057386087126,-0.023722681416851438,0.5420098383458793,1.4788355428464828,0.23218754985854534,0.30358650865864517,1.4890894985411407,-0.05293129882469945,0.6712098037820361,1.224809334008379,0.36139982307907437,0.37775084351842203,1.2380506975043943,0.09869071607360219,0.7213811914864456,1.427148893658915,0.3272727103040989,0.5615819517461923,1.422217076009241
0.1308049394968496,0.46366582420908636,1.5412185868182997,0.05373981919043419,0.5923916560836157,0.08510518083327642,0.07941786004999775,0.24382914706790326,0.10552088393410183,0.07321502941163856,0.5735675086014541,0.5051689073860565,0.20214113227686464,0.33115898020644785,0.4948454650280288,0.026956816015708103,0.4713818622967577,0.9135926909302231,0.1558494058333075,0.32023132071645155,0.9134593661367216,-0.024404234508259914,0.5472229920483065,1.4775465879152363,0.23218378855565397,0.3101673143722177,1.4893016778081474,-0.054138602065077104,0.6753919911692737,1.2230624172643134,0.3614529574252009,0.38732140041541824,1.2391910661891437,0.09748020106339911,0.7275025040550449,1.4249234068832841,0.324925717107469,0.570487584763284,1.4235610393052724
0.12886740802875873,0.46892475039719367,1.5399869087895643,0.053965430041586986,0.5922882218772518,0.08464397815384253,0.07956693279093983,0.24380892853193636,0.1055981149568162,0.07359440415472374,0.5753231725408022,0.5047809037423925,0.20280689224318055,0.33300938380977496,0.4943343665363352,0.026086393094745527,0.47294789883594957,0.9130198419848247,0.1555913366362145,0.32231657932759805,0.9128414362568945,-0.026169643810756555,0.551445804240132,1.4760332670274214,0.23128072960866453,0.3158696713929992,1.489678436893176,-0.05324276704462943,0.6788915527232627,1.2208946186823715,0.36179918880224676,0.3952336016063099,1.2409073404528244,0.09725965935668612,0.7323781027272195,1.423215838161355,0.3224482635129561,0.5779751358594499,1.425122554573975
0.12717131102225265,0.47324190125713966,1.5386682524245539,0.053926905299663916,0.5924312143114121,0.0839410400366432,0.07932418308346322,0.24350700640368722,0.10490674120166622,0.07387627479875415,0.5774114404508601,0.5041374318372868,0.20196592067207317,0.3341116381704328,0.49350861079911246,0.025697428513011718,0.4745445466242884,0.9121699425849024,0.1553748914342145,0.32406315451898715,0.9121123486929547,-0.02852496617592392,0.5547413573076971,1.4741723872380474,0.22974929278322884,0.31985578623913263,1.4904395929162002,-0.051842181818606364,0.6810918898660663,1.218119520496615,0.36179852905865056,0.40149068884191275,1.2432201436586627,0.09664623582937293,0.7364264935882765,1.4214273839833247,0.3195736585973935,0.5844419039623168,1.4265813591533667
0.12593754745909647,0.47657697816538913,1.537484900935548,0.05395834413981653,0.5927128720339429,0.08312506973191058,0.07856890114182345,0.2430412121671247,0.10365677404793432,0.07453954014018017,0.5798280888633564,0.5033651932963572,0.1999710782940696,0.33442504877165213,0.4924662659915126,0.02570089476343606,0.47600825628700255,0.9110809752306643,0.15529942585856307,0.3254595266337023,0.9112909913711771,-0.031213129970885857,0.5573439043272223,1.4723655676116891,0.22841420579682462,0.32273025248728,1.4914125950119164,-0.050023702138997136,0.6812868058320375,1.2147661556693046,0.3614958656885388,0.4069730928857006,1.245625113565397,0.09558457786251946,0.739341566044477,1.4193974635180304,0.31663045152545444,0.5903589450148264,1.4279275410421919
0.12446554477843612,0.478927905821943,1.536434287018641,0.05369367742051314,0.5924950306492879,0.08255976399201244,0.07744318719025188,0.24232120233999072,0.10199341278698955,0.07571397379107973,0.5820949594380663,0.5027942035460257,0.19690626680354056,0.33391252990095355,0.49135334611311915,0.02553724413839038,0.4769311395312964,0.910003235293731,0.1553503902373635,0.326560992639088,0.9105326879618972,-0.03385969289016958,0.5587085960175208,1.470757958879064,0.227884648960777,0.3252375850901208,1.4918581604895984,-0.04901168810985278,0.6803671904268733,1.2118303024152282,0.3620098317594403,0.41222401620315696,1.2476020012077447,0.09451853796525375,0.7408523261648738,1.4172256191867736,0.31368124823384086,0.5952965105821405,1.4293395334030268
0.12246853165092275,0.4802252250855267,1.535574199199348,0.0531161849346301,0.5918098439780904,0.08241458030060529,0.07615985244955947,0.24140508205786365,0.09997372865888458,0.0772077221344058,0.5838033877612263,0.5025907194833716,0.1926234756567423,0.33277649838079754,0.4902945189926494,0.025222292143242727,0.47720265677244994,0.9091905954409107,0.15522690616946747,0.3269990941464908,0.9098875447009812,-0.03633047762043486,0.5587781466517859,1.469251336641137,0.22793716570183817,0.32696007721608095,1.4915248047042589,-0.04845629529204456,0.678839018445221,1.209423703690357,0.36310849839125053,0.4166217221154127,1.2488194576941714,0.09340415906085384,0.741130536480053,1.4154409577239322,0.31091035433105635,0.5986506207374164,1.4305221011078906
0.12053024140646483,0.47992569752864034,1.5351881447911646,0.05312122237057898,0.5917316353096008,0.0821531517477939,0.07497071627099655,0.2403284698037243,0.09778613129142152,0.07893726816279471,0.5846743441675517,0.5022452518609727,0.18780243565504498,0.33109822519208215,0.48931013435300824,0.025538526493579943,0.4771168184761954,0.9084095915927365,0.15495208891949716,0.326398855915718,0.9093073036883811,-0.038425284927937904,0.5584627682917856,1.467896852182204,0.227867550133843,0.3274057598610135,1.4907832589504397,-0.04850198792712092,0.6765982714972357,1.2071005530905385,0.36397538572380517,0.4197963270724392,1.249622270179647,0.09205364055784149,0.7400671281839423,1.413650863746699,0.30853534975268987,0.6003853096799995,1.4318194777936009
0.11870687076770525,0.47827318277663394,1.534911158322128,0.05374574139663352,0.5923976828643196,0.08174289519769341,0.07398647179823385,0.23945703017858205,0.09549404015978917,0.08080279859723742,0.5847345445051128,0.5017404563690199,0.18313059255859027,0.32846553616334706,0.4884718007271544,0.02647396059771742,0.4764117844901174,0.9075820857762377,0.15518518621170294,0.32510468987361985,0.908830877918131,-0.03974262049106292,0.5572211578117772,1.4666314341118019,0.22740160754931554,0.3268647539131574,1.490500634241858,-0.04973884135894348,0.6735023078180894,1.2049947306873043,0.3644068242560362,0.4212542762745965,1.2506254955599785,0.09041635443845833,0.7381678960982787,1.4114466934491645,0.30614990882789217,0.6006640352857262,1.4330940211575887
0.1170526756401371,0.47610051686316834,1.5346383282437097,0.054074840735626864,0.592917587019703,0.08163397703887344,0.07284167296422067,0.23937649104535638,0.09313133961730705,0.08226844108056505,0.5842235385789714,0.5015438212102565,0.17852788674008013,0.32503652941194233,0.48779483555778275,0.027467686361603908,0.4748303071656446,0.9070349168210947,0.15604195205254512,0.32341016438856823,0.9084869654779605,-0.04052486944577091,0.554516228675591,1.465528433980262,0.2274848192088525,0.3249714356370892,1.490624396674064,-0.051275429446903345,0.6691760085295881,1.203212227575168,0.3646162604449017,0.42116436676676017,1.2515391972167307,0.08840450037636984,0.7353949159767413,1.4094974022911517,0.3036168886915486,0.6000529170282384,1.4336233993094971
0.11608391756661882,0.4729265364129818,1.5348566801370556,0.05372349696320107,0.5929900447141446,0.08181808457690184,0.07133085004106075,0.24005400539020058,0.09095360326047286,0.08310537742839405,0.5831981722701792,0.5016188345500954,0.17381258435789568,0.32124640804932053,0.4874013508721332,0.028433622974209042,0.4726469354438613,0.9068109869375736,0.15697380910240497,0.3211968833759492,0.9083597386804322,-0.041275395635667365,0.5510172160980902,1.4645461619538518,0.22841176395982027,0.3214776613679899,1.4906305818939038,-0.05221525372632315,0.663740296987225,1.2014017856176935,0.36481827202681005,0.41981385286870665,1.2520086813534688,0.08633323418392969,0.7308460244707742,1.408157384935951,0.3011856887078434,0.5985553540072857,1.4333432783581084
0.11559422865831655,0.46850121472259953,1.535392882150086,0.053272547094697364,0.5930085925861828,0.08216017988745329,0.06980841435066874,0.24081528407340122,0.08920929452804893,0.08365612013408671,0.5819706702286335,0.5018550630840302,0.16907576394382764,0.31734878148811924,0.48739619259555395,0.029363896807515704,0.469823253254836,0.9066666208278006,0.15790461423817273,0.31837670589250316,0.9085422904465719,-0.041804073103169206,0.5463048144562973,1.463979518592117,0.22957550649254385,0.3171864217339071,1.490572428642016,-0.05277106167761218,0.6573242720661757,1.2001076812456049,0.36517034279162064,0.41699042870573055,1.2520933859395609,0.0844847404065694,0.7254421493669999,1.407396151023589,0.2991190698272824,0.5953192288633163,1.4329596461534166
0.11485485802312569,0.4635492208332226,1.5357711925399695,0.05305263525435755,0.5930060185079856,0.08243338343963512,0.06867857112890215,0.24083068191584442,0.08792156668362583,0.0837748269292791,0.580420545125973,0.5020651643817988,0.1646402582393348,0.3131957054774684,0.48769337943968394,0.030383480860462154,0.46619273912550413,0.9064026879997382,0.15895119838550315,0.3147703126428597,0.9089510995012348,-0.04233783714548562,0.540284932522142,1.4641942334959972,0.22988169300141428,0.31255886348418327,1.4908400143450524,-0.0530608902211979,0.6498280387594622,1.1996969220380291,0.36568075561912866,0.41238563980744863,1.252493686549197,0.08270384540640216,0.7197624045944808,1.4073542909137347,0.297717713161596,0.5904142525095435,1.4329560093422407
0.11388483023667283,0.4584775683236725,1.5358244126057203,0.05305856771400665,0.5926578495944522,0.0825121955055107,0.06831436451608074,0.2398168504881264,0.08690605987574125,0.0834701485888854,0.5782306032612224,0.5021094076971093,0.16044940978702155,0.3084919761313006,0.4882249575843709,0.03112859654205465,0.46180626590415413,0.9059593115729215,0.15987228542079818,0.3105468773094182,0.9095205306218378,-0.04280040176782465,0.5333692012499669,1.4645372995595336,0.22926497204778912,0.30769605131708355,1.4915066277626723,-0.05347319868504502,0.6417129834095207,1.1995414097097206,0.3660197048316744,0.4063792482051409,1.2532348297867595,0.08136725844615955,0.7129836310962928,1.4073553050310579,0.29710903277019046,0.5847450530341621,1.4329957419213422
0.11353025822947449,0.4529903439638625,1.5355529238250978,0.0531795131404593,0.5922284684714968,0.08251373701347552,0.0685669523675453,0.23820624896698997,0.08592681635038335,0.08315842048678795,0.5758430191259599,0.5020675106080917,0.15650014285560648,0.30343224679333913,0.4887602731048589,0.0314044143946802,0.4569518265573891,0.9052814683151834,0.16062018350229096,0.3061425930923713,0.910031704198815,-0.043037003083784345,0.5260609146274486,1.4646619255823763,0.2289767606422828,0.3024788484929196,1.492067316886232,-0.054009159930531014,0.6336927611361423,1.1993933404636488,0.3659156366327986,0.3998891536667618,1.2533809366189788,0.08075923010271031,0.7057489854140457,1.4069966246739982,0.2972351138002287,0.57858425751607,1.4328905275474868
0.114254546558482,0.44636421325581815,1.5353714161987484,0.053275778650727953,0.5921633542901783,0.08279978533978674,0.06880007749507104,0.23659031391954394,0.08499397644361943,0.08329452297050173,0.5738174962184512,0.5022662927412312,0.1530774307787834,0.298322421247266,0.48916498481592297,0.03141868591395221,0.4518669466087151,0.9045505621662666,0.1613316320750152,0.3016922445160263,0.9103646810543293,-0.04355963238005588,0.518628809262308,1.4644957526384195,0.22930770498989533,0.29646926254972866,1.492124540402128,-0.054511313867977376,0.6259850580446229,1.1991096335754203,0.3658291024450912,0.3932485141843531,1.2529268866155272,0.07945902808173261,0.6985359935943928,1.4070387920253409,0.2976542242385611,0.571836284775386,1.4327429181580327
0.11495342308391875,0.43887063558184697,1.5356603596958869,0.05303559683697601,0.592295994084224,0.08353737478349364,0.0686637807607296,0.2353066915993907,0.08421818138521837,0.08390253632982088,0.5720774225196921,0.5028630240109212,0.14983854515903902,0.2935522760276602,0.4895423621153186,0.031421353530188795,0.4466548926721199,0.9039940975973249,0.16193161735158448,0.2970406191566173,0.9106543325863763,-0.04422550646683279,0.5110885100273008,1.4644074837455923,0.22913098851388355,0.2895210079786269,1.491644409942253,-0.05548481754592288,0.6185446198822916,1.199078416692457,0.36603592765419807,0.3863755205180514,1.2527026859901609,0.07753433011200467,0.6912434458537948,1.4075736385145903,0.29824179606912804,0.5649553676905354,1.432674531600702
0.1149505731655569,0.43136132004621147,1.5359329614794899,0.05280778644953099,0.5922285067295918,0.08451693417124995,0.06820983872705744,0.23439397230276443,0.0835853134101429,0.08449245474167912,0.5704344872264085,0.5036977862685692,0.1468043783815727,0.28926030126806906,0.4898844846342048,0.031360837256607745,0.44118899940900574,0.9035343401017651,0.16237140249789375,0.2920400316842461,0.9108842685320829,-0.044668538145952584,0.5036399579867317,1.4648314630578392,0.22814887769924144,0.28221604777556386,1.4909462964474176,-0.05666137270919686,0.6120092535064371,1.1999081412538815,0.3662334406905726,0.37896110505657,1.2526428699219485,0.07610080301970833,0.6844651497560753,1.4086527875324477,0.2990993298919058,0.5578398171412442,1.4325714567847532
0.1147562256328446,0.4240672849409679,1.5356725933734594,0.053015468256379226,0.5921068974547598,0.08552387557854436,0.06755836424959286,0.23382161938758012,0.082962974095873,0.08491421429413357,0.5692909640825996,0.5046373665743177,0.14457098080237946,0.28520402995896765,0.4900101629092285,0.0312238097438451,0.43534057133992116,0.902840645791654,0.16263986980464698,0.28658096905710745,0.9109227366029945,-0.04492588598040861,0.4957219284813892,1.4650769438385847,0.22750479846082136,0.2750101614532465,1.490214969540816,-0.05784324458853967,0.6060509681926716,1.2010036689154546,0.3662815396978105,0.37139597559565585,1.252173482764368,0.074418415503384,0.6782148457567997,1.4101702777927452,0.299972793017376,0.5504308798726679,1.432240125010447
0.1150396592250556,0.4167889918572132,1.5353862800162283,0.05356661454004274,0.59190587113312,0.08661672035575385,0.06693602705955563,0.2335973087999806,0.0823705320227467,0.0855409207747171,0.5688210282094196,0.5057073805595429,0.14329201835413982,0.2813544042070851,0.48999021089787037,0.031158654653341125,0.42930307977501586,0.9019061483641307,0.16300790020727457,0.2809815996321332,0.9108259327144026,-0.04510918557511054,0.4873973686082216,1.4648836553422309,0.22749716756113011,0.26757746424690115,1.4892758196237432,-0.059237562257612134,0.599726161452548,1.2017216706868137,0.36623940072909544,0.36448312960788654,1.251418699758615,0.07190937975703116,0.671989945940043,1.4115381700271876,0.3009862694778983,0.5433974598413644,1.431987139065161
0.11554029812856101,0.40909215329598625,1.5355295095727068,0.05411200989035105,0.5919002863054844,0.0879454000453513,0.06635448546819933,0.2336388945827267,0.0819459130519314,0.08612295586158406,0.5686163984914879,0.5070255879186462,0.1423257510976331,0.2778577808177889,0.4900376654088183,0.031166473734565752,0.42355742198845636,0.9011363335004644,0.16335345820788172,0.2755806202033728,0.9108047963123838,-0.04524093273112077,0.4792661850519213,1.4646563976095004,0.22770203512255122,0.2597149457355599,1.4879989037896524,-0.06074191258151864,0.5937433180988357,1.2024970850535093,0.36629809416954684,0.35840140897207845,1.2507814278099787,0.0692935641754595,0.6656021907878051,1.4131465787187132,0.30211914665225875,0.5367333256994617,1.4323315660237768
0.1156156910322276,0.4011746414317834,1.5357352912485687,0.05425860371701821,0.5926351705838184,0.08961882817237826,0.06588925138163673,0.2335863106067612,0.0816639564905983,0.08611002211860448,0.5689474322352017,0.5086894006715965,0.14155842371993047,0.2748970043074624,0.4901114487635926,0.031053071257887584,0.4183556913584669,0.9007108851590035,0.16309466874647555,0.2702888986045276,0.9108307133081808,-0.04541903560793392,0.4717025476140312,1.4650113318722071,0.22817631103021216,0.2517887172399599,1.4865847927230287,-0.06200026636435208,0.5892096861842873,1.2042615613187424,0.3663615650092858,0.35256404347645287,1.2500149760382908,0.06793206647779454,0.6596200042338057,1.415470942919452,0.3031694047715898,0.5294979007596684,1.4332591858041683
0.11544233047854296,0.3932607408394915,1.5360190595370324,0.05425307909697186,0.593485239020335,0.09150494982556805,0.06560528238430142,0.23333928698160494,0.08150282082742659,0.08552603564385021,0.5698303501614861,0.5106149592719358,0.1415895235934833,0.27249710385582243,0.4901002254567703,0.03061931508913577,0.41372383821936565,0.9004971351245679,0.16233007510812072,0.26537916691726066,0.9108289195847048,-0.045885370740648856,0.4648068430562844,1.4661623596935518,0.2287165214757979,0.24438260119358246,1.485625003642508,-0.06311082120424781,0.5849722689493356,1.2066749788187054,0.36633023514898305,0.34609300437460233,1.2491191127741998,0.0674452739474368,0.6534900746276329,1.4181108904344937,0.3041854162839249,0.5214253066615274,1.434258900742498
0.11557875268625445,0.38514757317722714,1.5366973363201417,0.05452902744511533,0.5944254820354132,0.0938704405047967,0.06563952160955812,0.23290171796710657,0.08142997878018406,0.0849514826194113,0.5711642490324444,0.5130701730186191,0.14210837128331788,0.2707148297343867,0.49006991520434073,0.02963440213617074,0.4094642910780557,0.900609005502944,0.16122429351964807,0.2609941144328417,0.910819878673006,-0.046179868559359086,0.4580438533841029,1.4675950408741332,0.22855190487327443,0.23730414582460077,1.4852407817385669,-0.06453490276488993,0.5797691290225478,1.2089025623024705,0.3660111625650069,0.33916379957594095,1.2487202614822945,0.06650406155400829,0.6466142859404098,1.420591580458711,0.30454010623348554,0.513585682781164,1.434938155682354
0.11610430030505832,0.3773626819654172,1.5373846702340728,0.05465120247137794,0.5962986771516009,0.09715296335907432,0.06580976203865276,0.23245431362023058,0.08147095566115078,0.0845898628109096,0.5732861390484386,0.5163986227319725,0.1424434021487678,0.2695506435546519,0.4901502158349378,0.02804761845926569,0.4053458915563662,0.9010996743792148,0.15989798497711033,0.2570824130317686,0.910898697914318,-0.046110219986224076,0.45089353780568386,1.4690969891411099,0.22791184460311453,0.23018218081520347,1.4849995345715552,-0.06569254668133971,0.5742278616476744,1.211271084150601,0.365983200270494,0.3323429764687097,1.248959340634517,0.06542836055445991,0.6395244974622095,1.4233814348607667,0.3044307158644778,0.5063703531418813,1.4355117151939676
0.11662709975603625,0.37017648716826473,1.5378835767275785,0.054525242846084745,0.5987856002186197,0.10099948429774246,0.06606731498697732,0.23227270468286776,0.0814343145834,0.08404832623245131,0.5758336476692276,0.5202773636916666,0.14269901773821303,0.26878774744541467,0.4901624725139131,0.026076178791600117,0.40162591657266017,0.9019552479317404,0.15837230622666068,0.2536959488100442,0.9109037871449923,-0.046177173168168176,0.4440208607232636,1.4708487776898789,0.2272449879810536,0.22290214590942348,1.4845977424400154,-0.06585413657045736,0.5694691962780088,1.2140443833777377,0.3665965835873857,0.32600736611779757,1.2497096929711968,0.0647806126899327,0.6327440197732196,1.4270570298051448,0.3043153798880956,0.49969763313906457,1.4363390717826823
0.11686451561492502,0.36359020941129444,1.538345851326088,0.054281297223067654,0.6010496013990957,0.10465188198117019,0.06646228253790364,0.23221501448783466,0.08129355604102455,0.08298524931886726,0.5782860454740223,0.5239991941202918,0.14314964622842735,0.2684809886879936,0.4900392655502058,0.02440941900852358,0.3984879422446539,0.9029942569964308,0.1569996078231893,0.25076144160287944,0.9107316195062773,-0.04608907498557481,0.43786327954473797,1.4724971608991926,0.2267131309668627,0.21549232821825598,1.4840506509223186,-0.0657661124977116,0.5653285774986169,1.2166942637342617,0.36716628240935617,0.32016561306910907,1.2505333110261316,0.06411338047812265,0.6264873469461683,1.4307976584221607,0.30412408753059555,0.4935051033204812,1.4372320779237382
0.1171855298049432,0.35765843606433284,1.538760317828268,0.05338562695732403,0.6027983284213572,0.10806377021124013,0.06654038448457351,0.23240348005057143,0.0813540882963546,0.08164539358665107,0.5805792831145106,0.5274618578570031,0.143891641441053,0.2683802999482114,0.4899932611564462,0.02314958766241905,0.3954691337895215,0.9039061150337094,0.15592813231028307,0.24786307047035763,0.9106288509787176,-0.04584057892918737,0.43185778131542546,1.4737674761661819,0.22690854908374417,0.20861756008025642,1.4836935474257102,-0.06582672407462076,0.5615277609986971,1.2190946838055643,0.36767060675942215,0.314645641425878,1.2509666795535965,0.06365044212385704,0.6206463843184876,1.4340128500685432,0.3040149348013594,0.48741620154645143,1.4379906414028296
0.11777858975370323,0.35169449735743136,1.5393407064503495,0.0514930456106839,0.6038325644772943,0.11123662374310282,0.06636514535626259,0.2328590634606412,0.08173526557160857,0.08007857907106977,0.5824525123394222,0.5306564872405033,0.14487740236188948,0.26815365823663306,0.49021598936076666,0.021861142697557723,0.39241111187181216,0.904681543415936,0.15479157440641064,0.244918160218213,0.9107565516550631,-0.04624088402258051,0.4256184241517171,1.4748223045861117,0.22685818222393733,0.20287826117733757,1.4834443425178396,-0.06576576810090215,0.5580472182384951,1.2215355271355761,0.36793508180944245,0.30924810377311523,1.2510582768984848,0.06378948480363521,0.6147429318823019,1.4370595770770798,0.30383636261930574,0.48138852117824843,1.4385163526886602
0.11801227771153075,0.3459235565701086,1.539925009240645,0.04922399783169183,0.6040869905327623,0.11378255232489998,0.06641734128931488,0.23302557353660205,0.08220229499778477,0.07857601179588503,0.5831163267540507,0.5331779627869605,0.14588890677606303,0.26821962767804675,0.490499813406914,0.020336130156324177,0.3896381413534284,0.9054200313501756,0.1535461924186483,0.24236277664355774,0.9109426084907013,-0.04705833081713064,0.419546794484928,1.4756680686451633,0.22594762858328907,0.1979892904263953,1.4827792645651676,-0.06524062265960809,0.5551914620769125,1.223993585676217,0.36763753675929284,0.3045580446456379,1.2508632772910184,0.0645569766997587,0.6088359681481943,1.4401455807215415,0.303505240457912,0.4756153695293226,1.439286402344299
0.11758180130826001,0.34115193937643157,1.5400137405869962,0.04714632890434849,0.6035070053857216,0.11535778335433487,0.06646851969095524,0.23289988811652523,0.08253219785154758,0.07742372902176341,0.5823894368459172,0.53467176234128,0.14690144038388447,0.26918725772034663,0.49053763580025056,0.018791862442032087,0.3874547699541115,0.9061036360942355,0.15247617094689891,0.24059330626496897,0.9108333450566468,-0.04764912257487538,0.41422815798757595,1.4764588021282516,0.2250475948302514,0.1937314432858023,1.4817203336687572,-0.06427692613731126,0.552646021902527,1.2261874910878163,0.36682291693404123,0.30120398934625314,1.2502739490807029,0.06558672389591164,0.603780595606658,1.4429068419967495,0.3034807886375542,0.47087157528910195,1.4402134616478806
0.11657318350879087,0.33713475561270656,1.5396194902663694,0.04546203678304723,0.602069196093363,0.11583559055842585,0.06612836063207564,0.23302101701371566,0.08275872915240429,0.07637863045738595,0.5808612138331883,0.5351090130447166,0.14819903593932354,0.2709171229809638,0.4902999058524845,0.017695175711967395,0.3857763923842953,0.906444331106685,0.1517396212558386,0.2392039889889579,0.9103893310268288,-0.04791397261977407,0.4096121157211679,1.4773602016958363,0.22428413837095373,0.1895505290794713,1.4808631085438597,-0.06338031753313958,0.5500171611550337,1.228114453955101,0.3659785713324753,0.29831072152854843,1.2499673854665685,0.0661873002771731,0.5999046324777396,1.445306999439667,0.3039349184287585,0.46740717619533934,1.4408559056936865
0.11552096984162945,0.3334558080805957,1.5390734837231002,0.04404498357371697,0.6001752755045142,0.11526701895829669,0.06548547318172941,0.23339466009437515,0.08301609602516895,0.075356650088853,0.5787278697903492,0.5344924720278414,0.14995748137757073,0.2731586110786519,0.4898870219928652,0.01694353371337604,0.3844010287643354,0.9062675490419396,0.15107591585682256,0.23791262938829014,0.9097099582907189,-0.04833925969815875,0.40559430300995136,1.4779626174285896,0.22340302407149593,0.1853322790928425,1.4803482074590215,-0.06255203755140167,0.5481620082712079,1.2298857690555414,0.3655682255160568,0.29457669366904954,1.2499686054657824,0.06699427126445848,0.5962321604488593,1.4474941283120517,0.3044811368940596,0.463331385085473,1.4414683710000264
0.11447786570153438,0.3296187417868516,1.5389436529073932,0.04336628062454451,0.5980841454713329,0.11378295250924447,0.06474917720206502,0.23401804621041253,0.08324479990838567,0.07476501966641982,0.5757418213373109,0.5329554175041722,0.15245415801179257,0.27622748018936105,0.4891904799421369,0.016026416280753367,0.38363375697061236,0.9058330683751313,0.15033857100562303,0.2372819997737984,0.9086792439528262,-0.04949675287651399,0.40277573585542104,1.478051554375897,0.2225079652409872,0.18167813944610298,1.479622401569784,-0.06144959063652626,0.5474140844259059,1.2310486829367835,0.36557436251161685,0.28982383118431554,1.249288839128731,0.06804472748356451,0.592751037958036,1.4492771972950251,0.30555571196237535,0.4576609936126064,1.4419191449904276
0.11353438391779484,0.3256621579150149,1.5390470056138368,0.044231915238457986,0.596358911382316,0.11171034612543145,0.06418820677239745,0.23524481561097782,0.08352097648037132,0.0745871529575321,0.5717536257758808,0.5308287191437691,0.1554744622893134,0.2803434344631515,0.48836577798502884,0.014904121410891891,0.3832379829246826,0.9053859397015979,0.1499266911803838,0.23753708146268213,0.9074418026476109,-0.050463345108981775,0.4004337811841265,1.4779409288674092,0.22172615513767843,0.17864337189371007,1.478342753038101,-0.06053240427068428,0.5468028834004894,1.2318788032844552,0.3659988794790698,0.2847492392080425,1.2478103871420176,0.0689301230259167,0.590185111044836,1.450519613058978,0.3073393844464461,0.4517151128462595,1.4416054063466124
0.11372209917940937,0.3220951062014098,1.538618214340184,0.04658483773067072,0.5953293335954356,0.10923793211738436,0.06393677249749144,0.2366464486815966,0.08399056232933642,0.07453527738534721,0.5670458250986595,0.5282965520865915,0.158489257858085,0.2856079539205367,0.4876360048739553,0.013689951222663711,0.382814125897873,0.9047919299583053,0.1499680047247317,0.23828006754076406,0.9061789153549052,-0.05019115827496411,0.397951812045502,1.478180324517865,0.22080627509490536,0.17601913627213842,1.476706073026721,-0.06023997277867615,0.5457421447637032,1.2329701834185804,0.3668373178605813,0.2800446802013479,1.2463351067062514,0.07017817921843333,0.588233591071025,1.451217726513523,0.3092827810467836,0.4471345874201024,1.4403684338735292
0.1142,0.31901,1.53771,0.04933,0.59368,0.10635,0.06374,0.23747,0.0846,0.07476,0.56242,0.52536,0.16133,0.29187,0.48681,0.01256,0.38263,0.90377,0.14999,0.23919,0.90465,-0.0491,0.39647,1.47869,0.21959,0.1737,1.47496,-0.05983,0.54498,1.23394,0.3681,0.27503,1.24497,0.07184,0.5862,1.45168,0.31147,0.44297,1.43854
,,,,,,,,,,,,,,,,,,,,,,,,,,,,,,,,,,,,,,
,,,,,,,,,,,,,,,,,,,,,,,,,,,,,,,,,,,,,,
,,,,,,,,,,,,,,,,,,,,,,,,,,,,,,,,,,,,,,
,,,,,,,,,,,,,,,,,,,,,,,,,,,,,,,,,,,,,,
,,,,,,,,,,,,,,,,,,,,,,,,,,,,,,,,,,,,,,
,,,,,,,,,,,,,,,,,,,,,,,,,,,,,,,,,,,,,,
,,,,,,,,,,,,,,,,,,,,,,,,,,,,,,,,,,,,,,
,,,,,,,,,,,,,,,,,,,,,,,,,,,,,,,,,,,,,,
,,,,,,,,,,,,,,,,,,,,,,,,,,,,,,,,,,,,,,
,,,,,,,,,,,,,,,,,,,,,,,,,,,,,,,,,,,,,,
,,,,,,,,,,,,,,,,,,,,,,,,,,,,,,,,,,,,,,
,,,,,,,,,,,,,,,,,,,,,,,,,,,,,,,,,,,,,,
,,,,,,,,,,,,,,,,,,,,,,,,,,,,,,,,,,,,,,
,,,,,,,,,,,,,,,,,,,,,,,,,,,,,,,,,,,,,,
,,,,,,,,,,,,,,,,,,,,,,,,,,,,,,,,,,,,,,
,,,,,,,,,,,,,,,,,,,,,,,,,,,,,,,,,,,,,,
,,,,,,,,,,,,,,,,,,,,,,,,,,,,,,,,,,,,,,
,,,,,,,,,,,,,,,,,,,,,,,,,,,,,,,,,,,,,,
,,,,,,,,,,,,,,,,,,,,,,,,,,,,,,,,,,,,,,
,,,,,,,,,,,,,,,,,,,,,,,,,,,,,,,,,,,,,,
,,,,,,,,,,,,,,,,,,,,,,,,,,,,,,,,,,,,,,
,,,,,,,,,,,,,,,,,,,,,,,,,,,,,,,,,,,,,,
,,,,,,,,,,,,,,,,,,,,,,,,,,,,,,,,,,,,,,
,,,,,,,,,,,,,,,,,,,,,,,,,,,,,,,,,,,,,,
,,,,,,,,,,,,,,,,,,,,,,,,,,,,,,,,,,,,,,
,,,,,,,,,,,,,,,,,,,,,,,,,,,,,,,,,,,,,,
,,,,,,,,,,,,,,,,,,,,,,,,,,,,,,,,,,,,,,
,,,,,,,,,,,,,,,,,,,,,,,,,,,,,,,,,,,,,,
,,,,,,,,,,,,,,,,,,,,,,,,,,,,,,,,,,,,,,
,,,,,,,,,,,,,,,,,,,,,,,,,,,,,,,,,,,,,,
,,,,,,,,,,,,,,,,,,,,,,,,,,,,,,,,,,,,,,
,,,,,,,,,,,,,,,,,,,,,,,,,,,,,,,,,,,,,,
,,,,,,,,,,,,,,,,,,,,,,,,,,,,,,,,,,,,,,
,,,,,,,,,,,,,,,,,,,,,,,,,,,,,,,,,,,,,,
,,,,,,,,,,,,,,,,,,,,,,,,,,,,,,,,,,,,,,
,,,,,,,,,,,,,,,,,,,,,,,,,,,,,,,,,,,,,,
,,,,,,,,,,,,,,,,,,,,,,,,,,,,,,,,,,,,,,
,,,,,,,,,,,,,,,,,,,,,,,,,,,,,,,,,,,,,,
,,,,,,,,,,,,,,,,,,,,,,,,,,,,,,,,,,,,,,
,,,,,,,,,,,,,,,,,,,,,,,,,,,,,,,,,,,,,,
,,,,,,,,,,,,,,,,,,,,,,,,,,,,,,,,,,,,,,
,,,,,,,,,,,,,,,,,,,,,,,,,,,,,,,,,,,,,,
,,,,,,,,,,,,,,,,,,,,,,,,,,,,,,,,,,,,,,
,,,,,,,,,,,,,,,,,,,,,,,,,,,,,,,,,,,,,,
,,,,,,,,,,,,,,,,,,,,,,,,,,,,,,,,,,,,,,
,,,,,,,,,,,,,,,,,,,,,,,,,,,,,,,,,,,,,,
,,,,,,,,,,,,,,,,,,,,,,,,,,,,,,,,,,,,,,
,,,,,,,,,,,,,,,,,,,,,,,,,,,,,,,,,,,,,,
,,,,,,,,,,,,,,,,,,,,,,,,,,,,,,,,,,,,,,
,,,,,,,,,,,,,,,,,,,,,,,,,,,,,,,,,,,,,,
,,,,,,,,,,,,,,,,,,,,,,,,,,,,,,,,,,,,,,
,,,,,,,,,,,,,,,,,,,,,,,,,,,,,,,,,,,,,,
,,,,,,,,,,,,,,,,,,,,,,,,,,,,,,,,,,,,,,
,,,,,,,,,,,,,,,,,,,,,,,,,,,,,,,,,,,,,,
,,,,,,,,,,,,,,,,,,,,,,,,,,,,,,,,,,,,,,
,,,,,,,,,,,,,,,,,,,,,,,,,,,,,,,,,,,,,,
,,,,,,,,,,,,,,,,,,,,,,,,,,,,,,,,,,,,,,
,,,,,,,,,,,,,,,,,,,,,,,,,,,,,,,,,,,,,,
,,,,,,,,,,,,,,,,,,,,,,,,,,,,,,,,,,,,,,
,,,,,,,,,,,,,,,,,,,,,,,,,,,,,,,,,,,,,,
,,,,,,,,,,,,,,,,,,,,,,,,,,,,,,,,,,,,,,
,,,,,,,,,,,,,,,,,,,,,,,,,,,,,,,,,,,,,,
,,,,,,,,,,,,,,,,,,,,,,,,,,,,,,,,,,,,,,
,,,,,,,,,,,,,,,,,,,,,,,,,,,,,,,,,,,,,,
,,,,,,,,,,,,,,,,,,,,,,,,,,,,,,,,,,,,,,
,,,,,,,,,,,,,,,,,,,,,,,,,,,,,,,,,,,,,,
,,,,,,,,,,,,,,,,,,,,,,,,,,,,,,,,,,,,,,
,,,,,,,,,,,,,,,,,,,,,,,,,,,,,,,,,,,,,,
,,,,,,,,,,,,,,,,,,,,,,,,,,,,,,,,,,,,,,
,,,,,,,,,,,,,,,,,,,,,,,,,,,,,,,,,,,,,,
,,,,,,,,,,,,,,,,,,,,,,,,,,,,,,,,,,,,,,
,,,,,,,,,,,,,,,,,,,,,,,,,,,,,,,,,,,,,,
,,,,,,,,,,,,,,,,,,,,,,,,,,,,,,,,,,,,,,
,,,,,,,,,,,,,,,,,,,,,,,,,,,,,,,,,,,,,,
,,,,,,,,,,,,,,,,,,,,,,,,,,,,,,,,,,,,,,
,,,,,,,,,,,,,,,,,,,,,,,,,,,,,,,,,,,,,,
,,,,,,,,,,,,,,,,,,,,,,,,,,,,,,,,,,,,,,
,,,,,,,,,,,,,,,,,,,,,,,,,,,,,,,,,,,,,,
,,,,,,,,,,,,,,,,,,,,,,,,,,,,,,,,,,,,,,
,,,,,,,,,,,,,,,,,,,,,,,,,,,,,,,,,,,,,,
,,,,,,,,,,,,,,,,,,,,,,,,,,,,,,,,,,,,,,
,,,,,,,,,,,,,,,,,,,,,,,,,,,,,,,,,,,,,,
,,,,,,,,,,,,,,,,,,,,,,,,,,,,,,,,,,,,,,
,,,,,,,,,,,,,,,,,,,,,,,,,,,,,,,,,,,,,,
,,,,,,,,,,,,,,,,,,,,,,,,,,,,,,,,,,,,,,
,,,,,,,,,,,,,,,,,,,,,,,,,,,,,,,,,,,,,,
,,,,,,,,,,,,,,,,,,,,,,,,,,,,,,,,,,,,,,
,,,,,,,,,,,,,,,,,,,,,,,,,,,,,,,,,,,,,,
,,,,,,,,,,,,,,,,,,,,,,,,,,,,,,,,,,,,,,
,,,,,,,,,,,,,,,,,,,,,,,,,,,,,,,,,,,,,,
,,,,,,,,,,,,,,,,,,,,,,,,,,,,,,,,,,,,,,
,,,,,,,,,,,,,,,,,,,,,,,,,,,,,,,,,,,,,,
,,,,,,,,,,,,,,,,,,,,,,,,,,,,,,,,,,,,,,
,,,,,,,,,,,,,,,,,,,,,,,,,,,,,,,,,,,,,,
,,,,,,,,,,,,,,,,,,,,,,,,,,,,,,,,,,,,,,
,,,,,,,,,,,,,,,,,,,,,,,,,,,,,,,,,,,,,,
,,,,,,,,,,,,,,,,,,,,,,,,,,,,,,,,,,,,,,
,,,,,,,,,,,,,,,,,,,,,,,,,,,,,,,,,,,,,,
,,,,,,,,,,,,,,,,,,,,,,,,,,,,,,,,,,,,,,
,,,,,,,,,,,,,,,,,,,,,,,,,,,,,,,,,,,,,,
,,,,,,,,,,,,,,,,,,,,,,,,,,,,,,,,,,,,,,
,,,,,,,,,,,,,,,,,,,,,,,,,,,,,,,,,,,,,,
,,,,,,,,,,,,,,,,,,,,,,,,,,,,,,,,,,,,,,
,,,,,,,,,,,,,,,,,,,,,,,,,,,,,,,,,,,,,,
,,,,,,,,,,,,,,,,,,,,,,,,,,,,,,,,,,,,,,
,,,,,,,,,,,,,,,,,,,,,,,,,,,,,,,,,,,,,,
,,,,,,,,,,,,,,,,,,,,,,,,,,,,,,,,,,,,,,
,,,,,,,,,,,,,,,,,,,,,,,,,,,,,,,,,,,,,,
,,,,,,,,,,,,,,,,,,,,,,,,,,,,,,,,,,,,,,
,,,,,,,,,,,,,,,,,,,,,,,,,,,,,,,,,,,,,,
,,,,,,,,,,,,,,,,,,,,,,,,,,,,,,,,,,,,,,
,,,,,,,,,,,,,,,,,,,,,,,,,,,,,,,,,,,,,,
,,,,,,,,,,,,,,,,,,,,,,,,,,,,,,,,,,,,,,
,,,,,,,,,,,,,,,,,,,,,,,,,,,,,,,,,,,,,,
,,,,,,,,,,,,,,,,,,,,,,,,,,,,,,,,,,,,,,
,,,,,,,,,,,,,,,,,,,,,,,,,,,,,,,,,,,,,,
,,,,,,,,,,,,,,,,,,,,,,,,,,,,,,,,,,,,,,
,,,,,,,,,,,,,,,,,,,,,,,,,,,,,,,,,,,,,,
,,,,,,,,,,,,,,,,,,,,,,,,,,,,,,,,,,,,,,
,,,,,,,,,,,,,,,,,,,,,,,,,,,,,,,,,,,,,,
,,,,,,,,,,,,,,,,,,,,,,,,,,,,,,,,,,,,,,
,,,,,,,,,,,,,,,,,,,,,,,,,,,,,,,,,,,,,,
,,,,,,,,,,,,,,,,,,,,,,,,,,,,,,,,,,,,,,
,,,,,,,,,,,,,,,,,,,,,,,,,,,,,,,,,,,,,,
,,,,,,,,,,,,,,,,,,,,,,,,,,,,,,,,,,,,,,
,,,,,,,,,,,,,,,,,,,,,,,,,,,,,,,,,,,,,,
,,,,,,,,,,,,,,,,,,,,,,,,,,,,,,,,,,,,,,
,,,,,,,,,,,,,,,,,,,,,,,,,,,,,,,,,,,,,,
,,,,,,,,,,,,,,,,,,,,,,,,,,,,,,,,,,,,,,
,,,,,,,,,,,,,,,,,,,,,,,,,,,,,,,,,,,,,,
,,,,,,,,,,,,,,,,,,,,,,,,,,,,,,,,,,,,,,
,,,,,,,,,,,,,,,,,,,,,,,,,,,,,,,,,,,,,,
,,,,,,,,,,,,,,,,,,,,,,,,,,,,,,,,,,,,,,
,,,,,,,,,,,,,,,,,,,,,,,,,,,,,,,,,,,,,,
,,,,,,,,,,,,,,,,,,,,,,,,,,,,,,,,,,,,,,
,,,,,,,,,,,,,,,,,,,,,,,,,,,,,,,,,,,,,,
,,,,,,,,,,,,,,,,,,,,,,,,,,,,,,,,,,,,,,
,,,,,,,,,,,,,,,,,,,,,,,,,,,,,,,,,,,,,,
,,,,,,,,,,,,,,,,,,,,,,,,,,,,,,,,,,,,,,
,,,,,,,,,,,,,,,,,,,,,,,,,,,,,,,,,,,,,,
,,,,,,,,,,,,,,,,,,,,,,,,,,,,,,,,,,,,,,
,,,,,,,,,,,,,,,,,,,,,,,,,,,,,,,,,,,,,,
,,,,,,,,,,,,,,,,,,,,,,,,,,,,,,,,,,,,,,
,,,,,,,,,,,,,,,,,,,,,,,,,,,,,,,,,,,,,,
,,,,,,,,,,,,,,,,,,,,,,,,,,,,,,,,,,,,,,
,,,,,,,,,,,,,,,,,,,,,,,,,,,,,,,,,,,,,,
,,,,,,,,,,,,,,,,,,,,,,,,,,,,,,,,,,,,,,
,,,,,,,,,,,,,,,,,,,,,,,,,,,,,,,,,,,,,,
,,,,,,,,,,,,,,,,,,,,,,,,,,,,,,,,,,,,,,
,,,,,,,,,,,,,,,,,,,,,,,,,,,,,,,,,,,,,,
,,,,,,,,,,,,,,,,,,,,,,,,,,,,,,,,,,,,,,
,,,,,,,,,,,,,,,,,,,,,,,,,,,,,,,,,,,,,,
,,,,,,,,,,,,,,,,,,,,,,,,,,,,,,,,,,,,,,
,,,,,,,,,,,,,,,,,,,,,,,,,,,,,,,,,,,,,,
,,,,,,,,,,,,,,,,,,,,,,,,,,,,,,,,,,,,,,
,,,,,,,,,,,,,,,,,,,,,,,,,,,,,,,,,,,,,,
,,,,,,,,,,,,,,,,,,,,,,,,,,,,,,,,,,,,,,
,,,,,,,,,,,,,,,,,,,,,,,,,,,,,,,,,,,,,,
,,,,,,,,,,,,,,,,,,,,,,,,,,,,,,,,,,,,,,
,,,,,,,,,,,,,,,,,,,,,,,,,,,,,,,,,,,,,,
,,,,,,,,,,,,,,,,,,,,,,,,,,,,,,,,,,,,,,
,,,,,,,,,,,,,,,,,,,,,,,,,,,,,,,,,,,,,,
,,,,,,,,,,,,,,,,,,,,,,,,,,,,,,,,,,,,,,
,,,,,,,,,,,,,,,,,,,,,,,,,,,,,,,,,,,,,,
,,,,,,,,,,,,,,,,,,,,,,,,,,,,,,,,,,,,,,
,,,,,,,,,,,,,,,,,,,,,,,,,,,,,,,,,,,,,,
,,,,,,,,,,,,,,,,,,,,,,,,,,,,,,,,,,,,,,
,,,,,,,,,,,,,,,,,,,,,,,,,,,,,,,,,,,,,,
,,,,,,,,,,,,,,,,,,,,,,,,,,,,,,,,,,,,,,
,,,,,,,,,,,,,,,,,,,,,,,,,,,,,,,,,,,,,,
,,,,,,,,,,,,,,,,,,,,,,,,,,,,,,,,,,,,,,
,,,,,,,,,,,,,,,,,,,,,,,,,,,,,,,,,,,,,,
,,,,,,,,,,,,,,,,,,,,,,,,,,,,,,,,,,,,,,
,,,,,,,,,,,,,,,,,,,,,,,,,,,,,,,,,,,,,,
,,,,,,,,,,,,,,,,,,,,,,,,,,,,,,,,,,,,,,
,,,,,,,,,,,,,,,,,,,,,,,,,,,,,,,,,,,,,,
,,,,,,,,,,,,,,,,,,,,,,,,,,,,,,,,,,,,,,
,,,,,,,,,,,,,,,,,,,,,,,,,,,,,,,,,,,,,,
,,,,,,,,,,,,,,,,,,,,,,,,,,,,,,,,,,,,,,
,,,,,,,,,,,,,,,,,,,,,,,,,,,,,,,,,,,,,,
,,,,,,,,,,,,,,,,,,,,,,,,,,,,,,,,,,,,,,
,,,,,,,,,,,,,,,,,,,,,,,,,,,,,,,,,,,,,,
,,,,,,,,,,,,,,,,,,,,,,,,,,,,,,,,,,,,,,
,,,,,,,,,,,,,,,,,,,,,,,,,,,,,,,,,,,,,,
,,,,,,,,,,,,,,,,,,,,,,,,,,,,,,,,,,,,,,
,,,,,,,,,,,,,,,,,,,,,,,,,,,,,,,,,,,,,,
,,,,,,,,,,,,,,,,,,,,,,,,,,,,,,,,,,,,,,
,,,,,,,,,,,,,,,,,,,,,,,,,,,,,,,,,,,,,,
,,,,,,,,,,,,,,,,,,,,,,,,,,,,,,,,,,,,,,
,,,,,,,,,,,,,,,,,,,,,,,,,,,,,,,,,,,,,,
,,,,,,,,,,,,,,,,,,,,,,,,,,,,,,,,,,,,,,
,,,,,,,,,,,,,,,,,,,,,,,,,,,,,,,,,,,,,,
,,,,,,,,,,,,,,,,,,,,,,,,,,,,,,,,,,,,,,
,,,,,,,,,,,,,,,,,,,,,,,,,,,,,,,,,,,,,,
,,,,,,,,,,,,,,,,,,,,,,,,,,,,,,,,,,,,,,
,,,,,,,,,,,,,,,,,,,,,,,,,,,,,,,,,,,,,,
,,,,,,,,,,,,,,,,,,,,,,,,,,,,,,,,,,,,,,
,,,,,,,,,,,,,,,,,,,,,,,,,,,,,,,,,,,,,,
,,,,,,,,,,,,,,,,,,,,,,,,,,,,,,,,,,,,,,
,,,,,,,,,,,,,,,,,,,,,,,,,,,,,,,,,,,,,,
,,,,,,,,,,,,,,,,,,,,,,,,,,,,,,,,,,,,,,
,,,,,,,,,,,,,,,,,,,,,,,,,,,,,,,,,,,,,,
,,,,,,,,,,,,,,,,,,,,,,,,,,,,,,,,,,,,,,
,,,,,,,,,,,,,,,,,,,,,,,,,,,,,,,,,,,,,,
,,,,,,,,,,,,,,,,,,,,,,,,,,,,,,,,,,,,,,
,,,,,,,,,,,,,,,,,,,,,,,,,,,,,,,,,,,,,,
,,,,,,,,,,,,,,,,,,,,,,,,,,,,,,,,,,,,,,
,,,,,,,,,,,,,,,,,,,,,,,,,,,,,,,,,,,,,,
,,,,,,,,,,,,,,,,,,,,,,,,,,,,,,,,,,,,,,
,,,,,,,,,,,,,,,,,,,,,,,,,,,,,,,,,,,,,,
,,,,,,,,,,,,,,,,,,,,,,,,,,,,,,,,,,,,,,
,,,,,,,,,,,,,,,,,,,,,,,,,,,,,,,,,,,,,,
,,,,,,,,,,,,,,,,,,,,,,,,,,,,,,,,,,,,,,
,,,,,,,,,,,,,,,,,,,,,,,,,,,,,,,,,,,,,,
,,,,,,,,,,,,,,,,,,,,,,,,,,,,,,,,,,,,,,
,,,,,,,,,,,,,,,,,,,,,,,,,,,,,,,,,,,,,,
,,,,,,,,,,,,,,,,,,,,,,,,,,,,,,,,,,,,,,
,,,,,,,,,,,,,,,,,,,,,,,,,,,,,,,,,,,,,,
,,,,,,,,,,,,,,,,,,,,,,,,,,,,,,,,,,,,,,
,,,,,,,,,,,,,,,,,,,,,,,,,,,,,,,,,,,,,,
,,,,,,,,,,,,,,,,,,,,,,,,,,,,,,,,,,,,,,
,,,,,,,,,,,,,,,,,,,,,,,,,,,,,,,,,,,,,,
,,,,,,,,,,,,,,,,,,,,,,,,,,,,,,,,,,,,,,
,,,,,,,,,,,,,,,,,,,,,,,,,,,,,,,,,,,,,,
,,,,,,,,,,,,,,,,,,,,,,,,,,,,,,,,,,,,,,
,,,,,,,,,,,,,,,,,,,,,,,,,,,,,,,,,,,,,,
