PaulMeinheit/Bachelor_Muay_Thai/processed_Data/E1/roundhouse/sliced/JointAngles/sliced4.csv
Unnamed: 0_level_0,L_MTP_ANGLE,L_MTP_ANGLE,L_MTP_ANGLE,R_MTP_ANGLE,R_MTP_ANGLE,R_MTP_ANGLE,L_ANKLE_ANGLE,L_ANKLE_ANGLE,L_ANKLE_ANGLE,R_ANKLE_ANGLE,R_ANKLE_ANGLE,R_ANKLE_ANGLE,L_KNEE_ANGLE,L_KNEE_ANGLE,L_KNEE_ANGLE,R_KNEE_ANGLE,R_KNEE_ANGLE,R_KNEE_ANGLE,L_HIP_ANGLE,L_HIP_ANGLE,L_HIP_ANGLE,R_HIP_ANGLE,R_HIP_ANGLE,R_HIP_ANGLE,L_SHOULDER_ANGLE,L_SHOULDER_ANGLE,L_SHOULDER_ANGLE,R_SHOULDER_ANGLE,R_SHOULDER_ANGLE,R_SHOULDER_ANGLE,L_ELBOW_ANGLE,L_ELBOW_ANGLE,L_ELBOW_ANGLE,R_ELBOW_ANGLE,R_ELBOW_ANGLE,R_ELBOW_ANGLE,L_WRIST_ANGLE,L_WRIST_ANGLE,L_WRIST_ANGLE,R_WRIST_ANGLE,R_WRIST_ANGLE,R_WRIST_ANGLE,NECK_ANGLE,NECK_ANGLE,NECK_ANGLE,NECK_ANGLE_SHADOW,NECK_ANGLE_SHADOW,NECK_ANGLE_SHADOW,Trunk_Joint_Angle,Trunk_Joint_Angle,Trunk_Joint_Angle
ITEM,X,Y,Z,X,Y,Z,X,Y,Z,X,Y,Z,X,Y,Z,X,Y,Z,X,Y,Z,X,Y,Z,X,Y,Z,X,Y,Z,X,Y,Z,X,Y,Z,X,Y,Z,X,Y,Z,X,Y,Z,X,Y,Z,X,Y,Z
1781,-1.82416,0.0,-0.0,-8.3511,0.0,0.0,-3.36364,-6.88074,14.65311,6.01594,7.65131,-14.6232,-22.89323,-4.63492,-6e-05,-9.13859,-0.55225,0.00022,28.06136,12.62089,16.84554,10.14713,-5.42562,-12.67565,15.72684,18.18326,-3.49641,35.04331,-8.64833,36.82996,124.76974,-0.00192,-98.3254,118.35081,0.00013,96.64768,-10.88022,-1.74966,-0.00029,-15.35725,6.18826,0.00085,-15.64333,-11.90695,14.77998,-37.47482,-16.48929,9.35922,-1.71229,-1.86959,7.57506
1782,-1.98827,0.0,0.0,-9.22146,-0.0,-0.0,-3.26983,-6.83457,15.06311,6.17048,7.66364,-14.47285,-22.81607,-4.71408,0.0001,-9.22432,-0.46478,0.00019,28.05266,12.5167,16.65895,10.29874,-5.64898,-12.48405,15.53251,18.17247,-3.367,35.40505,-8.36733,37.14013,124.95793,-0.00413,-96.10016,118.16352,0.00225,97.0422,-11.26868,-1.40329,2e-05,-15.42365,6.15356,0.00092,-15.41372,-11.78148,15.32845,-37.19603,-16.5722,9.92771,-1.82972,-2.04821,7.56578
1783,-1.9566,0.0,-0.0,-9.37556,0.0,-0.0,-3.18409,-6.66295,15.13178,6.32185,7.80036,-14.09359,-22.89025,-4.62637,-0.00032,-9.41134,-0.42467,0.00013,28.18334,12.42396,16.60512,10.4939,-5.81279,-12.60933,15.33741,18.19536,-3.3311,35.66099,-8.15776,37.45897,125.2088,-0.00352,-94.25244,118.01402,0.00143,97.96091,-11.52802,-0.96862,0.00298,-15.43143,5.94915,-0.00126,-15.32714,-11.57846,15.55124,-37.07214,-16.46455,10.21758,-1.8927,-2.2056,7.54476
1784,-1.53037,0.0,0.0,-8.47686,-0.0,-0.0,-3.14307,-6.57537,14.89565,6.37161,7.98496,-13.4463,-23.07398,-4.37005,-0.00078,-9.64576,-0.39925,4e-05,28.40858,12.34131,16.71218,10.66226,-5.92214,-13.07242,15.16138,18.19105,-3.33372,35.76622,-8.1183,37.63739,125.52283,3e-05,-93.4603,117.90839,-0.00053,98.84305,-11.57304,-0.76342,0.00668,-15.28538,5.4279,-0.00442,-15.39445,-11.43551,15.35058,-37.1375,-16.25893,10.08242,-1.92675,-2.30064,7.54564
1785,-0.86495,0.0,-0.0,-7.0107,-0.0,0.0,-3.18208,-6.57467,14.57028,6.41798,8.16117,-12.87308,-23.24071,-4.06824,-0.0005,-9.81305,-0.35157,-1e-05,28.60312,12.24568,16.86163,10.68815,-5.99459,-13.56521,15.01974,18.1506,-3.36344,35.76273,-8.15734,37.61604,125.88963,0.00212,-94.01328,117.85461,-0.00187,99.74193,-11.16299,-1.16171,0.00324,-15.04367,4.93888,-0.00434,-15.49102,-11.36007,15.00973,-37.24854,-16.06505,9.78841,-1.97493,-2.37024,7.5402
1786,-0.25516,0.0,-0.0,-5.99304,-0.0,-0.0,-3.25455,-6.59275,14.45042,6.72248,8.3921,-12.76638,-23.30328,-3.90445,-7e-05,-9.90029,-0.30026,0.0001,28.67814,12.14684,16.84052,10.56813,-6.03252,-13.71157,14.83645,18.13954,-3.29886,35.7713,-8.11486,37.54767,126.31901,-0.00189,-95.3076,117.83479,-0.00176,100.87192,-10.11387,-2.21205,-0.00971,-14.88594,4.96201,-0.00187,-15.45741,-11.34999,14.94201,-37.21826,-16.03106,9.72814,-2.03911,-2.45806,7.49466
1787,0.12054,-0.0,-0.0,-5.83973,0.0,-0.0,-3.26794,-6.64625,14.60354,7.34126,8.67898,-13.09169,-23.28114,-3.91623,-1e-05,-10.01373,-0.29969,0.00031,28.65093,12.0852,16.62996,10.41776,-6.02186,-13.48944,14.46748,18.20305,-2.96071,35.90873,-7.97397,37.61914,126.89565,-0.00558,-96.46748,117.7653,-0.00055,101.96786,-8.67175,-3.86405,-0.02089,-14.84068,5.41566,-9e-05,-15.22654,-11.4577,15.26935,-36.97742,-16.25005,9.99683,-2.0842,-2.53156,7.43995
1788,0.19216,0.0,0.0,-6.02457,-0.0,0.0,-3.19848,-6.71701,14.80418,8.02017,8.86281,-13.45409,-23.24623,-3.94409,-5e-05,-10.26325,-0.3443,0.00026,28.61301,12.05579,16.47232,10.34843,-5.98124,-13.23205,13.89128,18.30262,-2.37067,36.17602,-7.86231,37.81438,127.6624,0.00284,-97.5977,117.5827,-0.0005,102.54465,-7.44203,-6.19831,-0.01357,-14.7353,5.71519,0.00031,-14.87585,-11.65236,15.69888,-36.61885,-16.58677,10.32912,-2.08326,-2.54093,7.44477
1789,-0.01322,0.0,0.0,-6.1146,0.0,0.0,-3.10615,-6.70718,14.89874,8.57929,8.84409,-13.63876,-23.24029,-3.86302,-0.00014,-10.6924,-0.35264,-0.00041,28.64332,11.99543,16.52716,10.40022,-5.98195,-13.14461,13.29607,18.37026,-1.77406,36.46459,-7.87286,37.98748,128.45277,0.01358,-99.47294,117.36291,-0.00099,102.48443,-6.91492,-8.92086,0.00995,-14.47564,5.55841,-0.00039,-14.5455,-11.79443,15.86963,-36.29242,-16.78066,10.4363,-2.03214,-2.51842,7.53497
1790,-0.34648,0.0,0.0,-6.17372,-0.0,0.0,-3.04066,-6.56757,14.94353,9.07248,8.72925,-13.69704,-23.27025,-3.71167,-0.00023,-11.28118,-0.29367,-0.00073,28.74419,11.8557,16.71924,10.54278,-6.08367,-13.17114,12.88892,18.38596,-1.33815,36.68289,-7.95344,38.1068,128.99081,0.00677,-101.77838,117.25272,-0.00031,102.04134,-7.16495,-11.10048,0.02043,-14.26247,5.25316,-0.00039,-14.30987,-11.79898,15.74034,-36.06628,-16.738,10.31177,-1.94948,-2.54663,7.64841
1791,-0.6912,0.0,0.0,-6.24715,-0.0,0.0,-2.97194,-6.31914,15.00539,9.57916,8.6672,-13.68879,-23.34667,-3.60189,-0.00013,-11.95961,-0.24225,5e-05,28.85012,11.67319,16.89628,10.68765,-6.25217,-13.24266,12.68873,18.38924,-1.01468,36.83971,-7.9682,38.28153,129.16232,-0.00632,-103.15271,117.29271,0.00024,101.49284,-7.99055,-12.00714,0.00931,-14.35012,5.26112,-0.00131,-14.13777,-11.7144,15.57275,-35.89626,-16.59862,10.18544,-1.87765,-2.64808,7.68966
1792,-1.05465,0.0,-0.0,-6.34378,0.0,-0.0,-2.83702,-6.00553,15.13662,10.12259,8.65129,-13.75937,-23.47869,-3.64495,0.00031,-12.63844,-0.24625,0.00071,28.89966,11.55654,16.89561,10.73899,-6.37628,-13.27398,12.61367,18.42731,-0.77675,36.98301,-7.83454,38.55704,129.02657,-0.01197,-103.21423,117.40732,-0.00025,100.95988,-9.11154,-11.77448,-0.00417,-14.62993,5.76316,-0.00188,-13.97837,-11.62127,15.5897,-35.72544,-16.51828,10.23752,-1.84542,-2.76482,7.6462
1793,-1.37326,0.0,-0.0,-6.44504,-0.0,0.0,-2.65573,-5.752,15.39493,10.64874,8.59181,-14.11814,-23.64103,-3.85588,0.00056,-13.26803,-0.24892,0.00031,28.9018,11.55368,16.64715,10.67204,-6.39587,-13.16051,12.71375,18.48602,-0.79121,37.10154,-7.61171,38.82098,128.58025,-0.00665,-102.69316,117.54211,-0.0011,100.56068,-10.25319,-10.73852,-0.0139,-14.80907,6.57142,0.00014,-13.86734,-11.51478,15.7199,-35.59377,-16.4666,10.40222,-1.82871,-2.84484,7.60379
1794,-1.45551,0.0,0.0,-6.39294,0.0,-0.0,-2.54281,-5.68715,15.7481,11.02441,8.48594,-14.74062,-23.77777,-4.08788,0.00025,-13.87253,-0.19491,-0.00034,28.92377,11.57806,16.28916,10.55305,-6.35834,-12.96786,13.133,18.49382,-1.20102,37.1559,-7.43801,38.95029,127.76553,0.01536,-101.62096,117.69839,-0.00131,100.38794,-11.20971,-8.79913,-0.01926,-14.86931,7.24249,0.00182,-13.87839,-11.34328,15.72832,-35.58557,-16.31032,10.47636,-1.78188,-2.8879,7.63319
1795,-1.21348,0.0,-0.0,-6.09111,-0.0,0.0,-2.58566,-5.75098,16.065,11.17644,8.37537,-15.36871,-23.84425,-4.15575,-5e-05,-14.50808,-0.1121,-0.00036,29.01,11.5241,16.05958,10.46768,-6.32337,-12.9008,13.79919,18.42036,-1.83524,37.17867,-7.35353,38.95738,126.762,0.03379,-99.38373,117.84731,-0.00052,100.19308,-11.81349,-6.11061,-0.00948,-14.97083,7.42067,0.00263,-13.96027,-11.14159,15.56517,-35.65714,-16.06376,10.39921,-1.69783,-2.91259,7.70845
1796,-0.78246,0.0,0.0,-5.52355,0.0,-0.0,-2.7455,-5.7895,16.18349,11.16381,8.2264,-15.79445,-23.83722,-3.99713,4e-05,-15.18727,-0.05113,-2e-05,29.13307,11.38581,16.11897,10.43807,-6.29674,-13.05908,14.36042,18.34343,-2.31009,37.26085,-7.25823,38.94733,126.00368,0.0189,-96.21416,117.91764,0.00019,99.73264,-11.99542,-3.61811,0.00504,-15.07789,7.15516,0.00223,-13.94589,-11.03931,15.43405,-35.64097,-15.92115,10.31417,-1.60763,-2.93625,7.75199
1797,-0.41854,-0.0,-0.0,-4.78242,0.0,0.0,-2.89221,-5.7437,16.02145,11.11529,7.97951,-16.01618,-23.7843,-3.72455,0.00015,-15.86124,-0.01372,1e-05,29.23309,11.23241,16.41295,10.42452,-6.26823,-13.34039,14.54575,18.35407,-2.40846,37.44521,-7.07685,38.98534,125.78082,-0.0095,-92.96746,117.88211,0.00074,99.25189,-11.9755,-2.13332,0.00656,-14.97518,6.73971,7e-05,-13.74784,-11.1273,15.50701,-35.44721,-16.02938,10.34953,-1.52956,-2.97112,7.73263
1798,-0.28914,0.0,-0.0,-4.19075,-0.0,0.0,-2.93662,-5.63856,15.70417,11.12581,7.68057,-16.15944,-23.71757,-3.54511,2e-05,-16.47365,0.01873,-0.00012,29.28522,11.12789,16.66783,10.3917,-6.23631,-13.57524,14.4312,18.42237,-2.24096,37.66565,-6.86572,39.05335,125.97507,-0.01925,-90.06113,117.81007,0.00135,99.01472,-12.06937,-1.46229,0.00241,-14.6062,6.35451,-0.00167,-13.43107,-11.3685,15.75653,-35.13901,-16.34399,10.49342,-1.44442,-3.007,7.6977
1799,-0.29692,0.0,0.0,-3.99709,0.0,-0.0,-2.92153,-5.49412,15.49357,11.15784,7.48289,-16.30212,-23.66444,-3.58052,-0.00012,-17.00444,0.02773,6e-05,29.31264,11.08411,16.63437,10.33562,-6.19106,-13.71196,14.2696,18.43846,-2.05758,37.78176,-6.7197,39.11484,126.24591,-0.01004,-87.67181,117.83405,0.00072,99.03887,-12.24923,-0.92248,0.00414,-14.21976,6.11314,-0.00169,-13.09495,-11.62822,16.0741,-34.80892,-16.70039,10.69478,-1.32946,-3.01944,7.71463
1800,-0.18874,-0.0,0.0,-4.04255,0.0,0.0,-2.96833,-5.25862,15.5131,11.05589,7.4714,-16.38414,-23.65108,-3.76451,-4e-05,-17.43617,-0.02136,0.00031,29.35038,11.06063,16.32993,10.24759,-6.11905,-13.86093,14.18759,18.35199,-1.98847,37.7002,-6.65447,39.16568,126.38944,1e-05,-86.07054,118.03741,-0.00247,99.5335,-12.21622,-0.30944,0.01144,-14.13413,6.19266,-0.00192,-12.78685,-11.76408,16.36845,-34.49475,-16.93324,10.92203,-1.20165,-3.00716,7.80285
1801,0.13091,-0.0,0.0,-3.98824,0.0,0.0,-3.13145,-4.87925,15.63528,10.6817,7.52469,-16.30115,-23.6917,-3.92644,2e-05,-17.69687,-0.11683,0.00023,29.41078,11.01133,16.00167,10.0923,-6.0168,-14.12904,14.10542,18.21349,-1.94296,37.47858,-6.62122,39.21163,126.49885,0.00225,-85.25259,118.35097,-0.00505,100.74297,-11.74473,-0.05787,0.00962,-14.41481,6.56615,-0.00165,-12.52964,-11.72115,16.53583,-34.22038,-16.95395,11.0978,-1.10605,-2.99958,7.93498
1802,0.51367,0.0,-0.0,-3.77603,-0.0,0.0,-3.33708,-4.48611,15.68592,10.0622,7.45926,-16.08886,-23.76565,-3.95171,-7e-05,-17.68855,-0.19673,0.00015,29.47845,10.92475,15.87024,9.83925,-5.89026,-14.42518,13.86273,18.09917,-1.69006,37.26379,-6.59142,39.25774,126.8244,0.00232,-84.99068,118.60217,-0.0023,102.3503,-10.66455,-0.65476,-0.01303,-14.85456,6.8459,0.0014,-12.32712,-11.56363,16.49791,-34.00302,-16.79385,11.12255,-1.06416,-3.02456,8.08171
1803,0.79641,0.0,0.0,-3.66998,0.0,0.0,-3.47896,-4.38342,15.6598,9.42005,7.28621,-15.93888,-23.82468,-3.87236,-9e-05,-17.38882,-0.21602,0.00046,29.53984,10.81423,15.91071,9.51319,-5.7596,-14.53963,13.41261,18.03651,-1.08747,37.13769,-6.58029,39.3356,127.48391,0.00466,-85.17185,118.6781,0.00159,103.5477,-8.91696,-2.0599,-0.03681,-15.14933,6.62587,0.00137,-12.11251,-11.40915,16.30612,-33.78548,-16.58088,10.99978,-1.04434,-3.0821,8.2317
1804,0.98133,0.0,0.0,-3.85053,0.0,-0.0,-3.52254,-4.76031,15.68176,8.99584,7.16102,-16.0102,-23.84165,-3.82631,-4e-05,-16.88325,-0.20371,0.00057,29.6058,10.71095,15.90102,9.19082,-5.63655,-14.41182,12.95827,18.00904,-0.32335,37.08855,-6.59137,39.47098,128.25644,0.005,-85.75118,118.60719,0.00121,103.6315,-7.00627,-3.60786,-0.02778,-14.96961,5.88366,-0.00587,-11.78378,-11.33874,16.11699,-33.46282,-16.44696,10.84718,-0.99442,-3.14401,8.38265
1805,1.16081,-0.0,-0.0,-4.15575,0.0,0.0,-3.51046,-5.45063,15.79401,8.82468,7.09621,-16.31129,-23.8375,-3.91583,1e-05,-16.27341,-0.23205,4e-05,29.68007,10.66531,15.68955,8.91033,-5.48646,-14.21297,12.85241,17.98776,0.14126,37.1084,-6.58587,39.62195,128.66992,-0.00149,-86.66118,118.48899,-0.00083,102.46752,-5.96613,-4.42782,-0.00819,-14.15522,5.04806,-0.00832,-11.34084,-11.36601,16.0606,-33.02692,-16.45188,10.78311,-0.90744,-3.17342,8.52333
1806,1.38003,0.0,0.0,-4.30158,0.0,-0.0,-3.53589,-6.07015,15.86864,8.76734,6.95103,-16.74813,-23.84716,-4.1128,7e-05,-15.60491,-0.33301,-0.00053,29.73215,10.70014,15.35595,8.61555,-5.27229,-14.17275,13.27021,17.92382,0.00058,37.21114,-6.5326,39.72473,128.4001,-0.00765,-87.64462,118.39179,-0.00069,100.72472,-6.39135,-4.10522,-0.01787,-13.02184,4.68263,0.00015,-10.92192,-11.46486,16.17711,-32.61042,-16.58593,10.8557,-0.82696,-3.1577,8.63076
1807,1.63214,0.0,0.0,-4.20979,0.0,-0.0,-3.693,-6.36128,15.74657,8.74467,6.71579,-17.17913,-23.8861,-4.30477,4e-05,-14.90969,-0.47798,-0.00068,29.73422,10.77374,15.11174,8.23557,-5.02712,-14.39525,13.99176,17.76579,-0.5535,37.35035,-6.44918,39.79873,127.63209,-0.00355,-88.2915,118.33167,0.0009,99.71577,-7.66727,-3.10596,-0.02663,-12.21223,5.05388,0.00276,-10.661,-11.59193,16.42282,-32.34562,-16.79297,11.04023,-0.78454,-3.12452,8.70628
1808,1.89281,-0.0,0.0,-3.99966,0.0,-0.0,-3.9833,-6.33244,15.3769,8.80048,6.56905,-17.45329,-23.95765,-4.38649,-0.00013,-14.244,-0.63554,-0.00062,29.6967,10.8335,15.12251,7.77922,-4.81264,-14.82508,14.58213,17.52435,-1.03208,37.41986,-6.36247,39.90664,126.93762,0.00419,-88.65997,118.30918,0.00107,100.54997,-8.61208,-2.42572,-0.01361,-12.00672,5.99074,-0.00377,-10.5437,-11.68149,16.6889,-32.21852,-16.97248,11.25873,-0.76675,-3.11277,8.80139
1809,2.09884,0.0,-0.0,-3.84088,-0.0,0.0,-4.29137,-6.17386,14.86971,8.96371,6.59636,-17.55714,-24.05405,-4.33435,-0.00026,-13.64442,-0.78136,-0.0003,29.65862,10.87916,15.37318,7.32482,-4.63724,-15.27925,14.80839,17.27785,-1.20041,37.34982,-6.26428,39.99517,126.71696,0.00992,-89.46404,118.33801,-0.00083,102.97112,-8.9172,-2.5714,-0.0022,-11.95763,6.99576,-0.0057,-10.4151,-11.67472,16.87611,-32.07495,-17.03388,11.43951,-0.7267,-3.13736,8.97137
1810,2.16312,0.0,0.0,-3.89781,-0.0,-0.0,-4.48606,-6.13194,14.46837,9.19788,6.64296,-17.69288,-24.16086,-4.24054,-0.00015,-13.09289,-0.86111,0.00055,29.66637,10.94463,15.64365,6.94089,-4.46718,-15.53096,14.81944,17.11618,-1.3024,37.15752,-6.13585,39.92255,126.83408,0.00844,-91.21377,118.43581,-0.00099,105.25844,-9.46634,-3.06649,-0.00097,-11.54518,7.56645,-0.00522,-10.11828,-11.58203,16.97034,-31.76042,-16.98178,11.56498,-0.6109,-3.18877,9.2171
1811,2.0429,0.0,0.0,-4.16352,0.0,-0.0,-4.5215,-6.34917,14.34322,9.44395,6.55299,-18.02171,-24.29159,-4.21687,7e-05,-12.55466,-0.84577,0.00119,29.74772,11.04729,15.71234,6.62506,-4.27306,-15.52678,14.89321,17.08268,-1.6686,36.92363,-5.99147,39.68456,126.88893,-0.00358,-93.44347,118.58179,0.00193,105.83159,-11.02752,-3.14728,-0.01367,-10.9108,7.63119,-0.00493,-9.65182,-11.4945,17.00805,-31.28121,-16.91403,11.63462,-0.41344,-3.23931,9.49405
1812,1.78163,-0.0,0.0,-4.37974,0.0,-0.0,-4.46491,-6.71503,14.39685,9.63948,6.40931,-18.41505,-24.47746,-4.26471,8e-05,-12.03055,-0.81308,0.00067,29.89437,11.17442,15.57791,6.32846,-4.03239,-15.49294,15.07174,17.13138,-2.21239,36.73432,-5.88136,39.46779,126.77647,-0.01145,-95.1765,118.70305,0.00289,104.62627,-13.12794,-2.72233,-0.01997,-10.57805,7.43985,-0.00119,-9.19984,-11.53674,17.01218,-30.83365,-16.9548,11.62228,-0.1984,-3.24129,9.74589
1813,1.49833,0.0,0.0,-4.3997,-0.0,-0.0,-4.46695,-6.94561,14.39431,9.76251,6.39028,-18.66931,-24.71032,-4.31879,-0.00011,-11.54742,-0.88024,-0.00058,30.08442,11.31492,15.37818,6.03106,-3.71809,-15.65518,15.1141,17.16703,-2.46365,36.62616,-5.8561,39.4435,126.83406,-0.0064,-96.14984,118.73504,0.00122,102.78742,-14.5638,-2.52114,-0.01238,-10.79019,7.13328,0.00366,-8.94987,-11.79338,17.00377,-30.61341,-17.19029,11.51523,-0.03729,-3.14455,9.92574
1814,1.31386,0.0,0.0,-4.49358,0.0,0.0,-4.63655,-6.88671,14.26486,9.87677,6.49787,-18.84756,-24.94804,-4.37757,-8e-05,-11.10853,-1.05056,-0.00116,30.30986,11.47829,15.16511,5.75828,-3.33066,-15.90211,14.83581,17.12496,-2.1181,36.58368,-5.92739,39.60365,127.39833,0.01088,-97.16451,118.70754,0.00055,101.64341,-14.73655,-3.39182,-0.0174,-11.34579,6.82499,0.00487,-8.86463,-12.22833,17.02312,-30.57705,-17.60145,11.36522,0.04675,-2.9378,10.03184
1815,1.24562,0.0,0.0,-4.95277,0.0,0.0,-4.92683,-6.64419,14.11943,10.0532,6.56252,-19.11713,-25.17105,-4.48702,0.00024,-10.67519,-1.19601,-0.00054,30.55836,11.66559,14.90111,5.51865,-2.93919,-15.96145,14.40946,16.97979,-1.40475,36.58578,-6.0446,39.82677,128.34352,0.02472,-98.98566,118.74755,-0.0014,101.88046,-14.15577,-5.42394,-0.01998,-11.88555,6.76474,0.00224,-8.72043,-12.67389,17.10623,-30.47957,-18.04539,11.27108,0.05932,-2.67241,10.11777
1816,1.20783,-0.0,-0.0,-5.60227,0.0,0.0,-5.22888,-6.42612,14.02418,10.25315,6.44097,-19.38625,-25.38711,-4.63507,0.00049,-10.19581,-1.20661,0.00057,30.79773,11.84731,14.59797,5.27137,-2.63961,-15.83767,14.18419,16.74124,-0.7881,36.63477,-6.1097,40.04245,129.20969,0.01554,-101.35241,118.95271,-0.00537,103.255,-13.69246,-7.7531,-0.0017,-12.27657,7.09648,-0.0012,-8.39555,-12.94499,17.24414,-30.17727,-18.34702,11.2967,0.01863,-2.43796,10.22944
1817,1.13862,0.0,-0.0,-5.98599,0.0,-0.0,-5.53987,-6.41696,13.96113,10.36969,6.12267,-19.43319,-25.59984,-4.7398,0.00037,-9.65077,-1.09604,0.00116,31.01463,11.97663,14.33365,4.97659,-2.47196,-15.79018,14.27374,16.46629,-0.46328,36.71592,-6.07516,40.25705,129.70029,-0.00204,-103.43391,119.26497,-0.00526,105.06977,-13.76567,-9.28087,0.00982,-12.69968,7.68048,-0.00453,-8.00319,-12.98892,17.35022,-29.78223,-18.42617,11.38069,-0.02431,-2.31059,10.35348
1818,1.03827,0.0,-0.0,-5.73517,-0.0,0.0,-5.91674,-6.71714,13.88082,10.32212,5.69711,-19.19089,-25.81801,-4.70051,-0.00027,-9.07129,-0.96057,0.00076,31.23037,12.03261,14.23055,4.63857,-2.39015,-16.00282,14.50754,16.23012,-0.3298,36.75265,-6.0272,40.42689,129.87773,-0.00858,-104.64734,119.50421,-1e-05,106.80462,-14.40256,-9.51483,-0.00086,-13.26687,8.13978,-0.00499,-7.69125,-12.91558,17.30693,-29.46457,-18.34241,11.36807,-0.02129,-2.29809,10.4691
1819,0.89806,0.0,0.0,-4.86527,0.0,-0.0,-6.30821,-7.23587,13.68646,10.11909,5.29378,-18.726,-26.07059,-4.47549,-0.00113,-8.52012,-0.88719,-9e-05,31.46125,12.06888,14.39555,4.30099,-2.29423,-16.44556,14.72588,16.07732,-0.28971,36.69328,-6.0697,40.42971,129.94414,-0.00639,-104.75546,119.53313,0.00336,107.98199,-15.51558,-8.7867,-0.01434,-13.70993,8.04652,-0.0045,-7.43263,-12.87741,17.11401,-29.21592,-18.2372,11.19907,0.01353,-2.3238,10.61983
1820,0.715,0.0,0.0,-3.98619,-0.0,-0.0,-6.57907,-7.76251,13.37709,9.91894,5.05913,-18.18949,-26.3705,-4.17461,-0.00122,-8.05543,-0.89331,-0.00053,31.702,12.18474,14.74359,4.0243,-2.11239,-16.90788,14.93157,16.02222,-0.31798,36.64292,-6.14057,40.24078,129.98779,-0.0029,-104.01861,119.39568,0.00109,107.88264,-16.74454,-7.83913,-0.0101,-13.68961,7.399,-0.0064,-7.09514,-12.9229,16.96223,-28.89536,-18.22452,11.03665,0.04181,-2.2948,10.86667
1821,0.50012,0.0,-0.0,-3.7867,-0.0,0.0,-6.69485,-8.14134,13.13632,9.91324,5.12225,-17.77066,-26.67686,-4.01483,-0.00025,-7.69635,-0.93557,-0.00044,31.93517,12.42573,15.01474,3.84216,-1.86734,-17.16774,15.16552,16.06463,-0.31569,36.78307,-6.08178,40.03981,129.9606,-0.00158,-103.39996,119.27525,5e-05,106.41003,-17.45644,-7.23978,0.00149,-13.2358,6.81603,-0.00313,-6.63104,-12.96776,17.06635,-28.42899,-18.30385,11.11832,0.07013,-2.18767,11.18133
1822,0.18476,0.0,-0.0,-4.29212,0.0,-0.0,-6.77604,-8.21883,13.08296,10.11075,5.46466,-17.5426,-26.92338,-4.1385,0.00062,-7.40601,-0.9712,-0.00026,32.13363,12.7525,15.04073,3.7249,-1.6298,-17.19968,15.38133,16.15175,-0.1199,37.1314,-5.85751,40.03448,129.85674,-0.00228,-103.89709,119.29581,0.00097,104.81586,-17.25878,-7.19856,0.00092,-12.64825,6.80432,0.00375,-6.09719,-12.91457,17.43301,-27.86067,-18.38705,11.48872,0.12597,-2.04035,11.45307
1823,-0.29169,0.0,0.0,-4.96886,0.0,-0.0,-6.96589,-7.88727,13.10292,10.33937,5.84096,-17.44139,-27.08389,-4.48941,0.00061,-7.11334,-0.98295,-0.00014,32.27391,13.09401,14.86964,3.59814,-1.42823,-17.14514,15.48045,16.18275,0.32659,37.50377,-5.56782,40.24193,129.81921,-0.00021,-105.49389,119.41068,-0.0001,104.4974,-16.35971,-7.6667,-0.00654,-12.10409,7.13728,0.00571,-5.54553,-12.77889,17.87634,-27.25727,-18.4211,11.96482,0.19754,-1.88759,11.59953
1824,-0.75031,0.0,0.0,-5.36393,0.0,-0.0,-7.31183,-7.3214,13.03631,10.44926,5.9744,-17.41403,-27.18463,-4.86027,0.0002,-6.76796,-0.95314,0.00014,32.36682,13.38499,14.6484,3.41159,-1.25084,-17.11969,15.41496,16.11592,0.93025,37.74969,-5.31074,40.50341,130.00609,0.00093,-107.07461,119.49995,-0.00012,105.54073,-15.25068,-8.30387,-0.00492,-11.53448,7.3569,0.00348,-5.01919,-12.65616,18.20602,-26.68886,-18.42592,12.3276,0.25492,-1.74438,11.63288
1825,-0.90597,-0.0,0.0,-5.54556,-0.0,-0.0,-7.74885,-6.83356,12.87557,10.47185,5.80825,-17.50386,-27.26206,-5.10012,-2e-05,-6.37385,-0.86571,0.00052,32.46569,13.60975,14.44307,3.19141,-1.07513,-17.09696,15.23981,16.00503,1.5508,37.91249,-5.13923,40.64787,130.40871,-0.0026,-107.68871,119.50573,0.00062,106.83893,-14.09117,-8.68749,0.00261,-10.93254,7.38446,0.00092,-4.63349,-12.58552,18.31607,-26.2853,-18.39991,12.46026,0.31209,-1.61057,11.64016
1826,-0.72638,-0.0,0.0,-5.8232,-0.0,0.0,-8.16924,-6.54271,12.70042,10.52142,5.4831,-17.70647,-27.32962,-5.23929,5e-05,-5.97385,-0.74557,0.00055,32.60204,13.83046,14.22412,2.99252,-0.86405,-17.00013,15.07872,15.89804,2.08782,38.12248,-5.08114,40.62386,130.85931,-0.00293,-107.60336,119.45232,-0.00014,107.25751,-12.73763,-8.80677,0.00366,-10.60315,7.39596,-0.00108,-4.51294,-12.51093,18.19087,-26.16608,-18.28549,12.36959,0.39299,-1.46042,11.7107
1827,-0.43948,0.0,0.0,-6.02384,0.0,0.0,-8.54439,-6.44033,12.51412,10.5657,5.18706,-17.81879,-27.36993,-5.34274,0.00012,-5.61404,-0.66426,6e-05,32.72189,14.08739,14.03225,2.8091,-0.60357,-16.90326,15.01915,15.78035,2.5128,38.42073,-5.11238,40.51536,131.19763,-0.00049,-107.48802,119.39783,-0.00052,106.60426,-11.40542,-9.00811,-0.00077,-10.83679,7.51946,-0.00326,-4.61239,-12.38926,17.9173,-26.27334,-18.07382,12.15553,0.44942,-1.26691,11.8476
1828,-0.28134,-0.0,0.0,-5.69474,0.0,0.0,-8.92745,-6.55027,12.26781,10.48883,5.07222,-17.6942,-27.3699,-5.38445,7e-05,-5.31046,-0.67765,-0.00049,32.76233,14.31707,13.96729,2.59145,-0.33047,-16.95119,15.02452,15.6412,2.86905,38.73851,-5.14674,40.43481,131.4091,-0.00172,-107.08923,119.39344,0.00092,105.35825,-10.6159,-9.41372,-0.00053,-11.47362,7.70141,-0.0038,-4.71579,-12.2725,17.63877,-26.3853,-17.86485,11.935,0.40809,-1.04045,11.95957
1829,-0.32739,-0.0,0.0,-4.9247,0.0,0.0,-9.33136,-6.83001,11.95146,10.31093,5.1354,-17.48367,-27.36302,-5.32372,-6e-05,-5.03386,-0.7518,-0.00054,32.75763,14.44076,14.05544,2.32954,-0.0927,-17.13855,14.98827,15.53297,3.20872,39.0009,-5.09522,40.41608,131.57233,-0.00509,-105.66022,119.45148,0.00231,104.02499,-10.40674,-9.71037,0.00255,-12.00859,7.79666,-0.00205,-4.66483,-12.23734,17.47159,-26.34346,-17.77184,11.78917,0.29286,-0.82985,11.96004
1830,-0.47402,0.0,-0.0,-4.28441,-0.0,-0.0,-9.72113,-7.10031,11.56535,10.15371,5.1417,-17.36906,-27.38732,-5.17564,-0.00019,-4.74111,-0.77512,5e-05,32.79699,14.45907,14.27477,2.07453,0.07948,-17.38168,14.88903,15.51923,3.49687,39.17721,-4.94445,40.43106,131.69572,-0.00411,-103.33635,119.55553,0.00144,103.20808,-10.32878,-9.51671,0.00515,-12.03519,7.84761,0.00072,-4.50868,-12.28644,17.45628,-26.19435,-17.81194,11.75552,0.23193,-0.68629,11.84892
1831,-0.5403,0.0,-0.0,-4.23714,0.0,-0.0,-10.09812,-7.1766,11.14762,10.11399,4.85483,-17.33784,-27.41932,-5.01864,-0.00015,-4.4324,-0.67316,0.00064,32.92895,14.43731,14.53675,1.89804,0.19233,-17.64217,14.84092,15.57968,3.60888,39.22795,-4.79061,40.45274,131.71127,9e-05,-101.20538,119.71057,-0.00126,103.37891,-10.17875,-8.8369,0.00588,-11.52927,8.03415,0.00368,-4.40485,-12.36647,17.51595,-26.09534,-17.90785,11.78136,0.34807,-0.6007,11.70238
1832,-0.40569,0.0,0.0,-4.78821,0.0,-0.0,-10.48453,-7.0402,10.82372,10.22021,4.37933,-17.34291,-27.39758,-4.94289,-1e-05,-4.15295,-0.49975,0.00055,33.12206,14.4412,14.67224,1.8253,0.29977,-17.873,14.96243,15.61663,3.45092,39.10603,-4.76326,40.46231,131.6076,0.00123,-100.10392,119.91985,-0.00284,104.32285,-10.23139,-8.06373,0.002,-10.84882,8.31929,0.00307,-4.45019,-12.44629,17.46832,-26.15399,-17.96482,11.70491,0.64599,-0.49469,11.61686
1833,-0.12443,0.0,-0.0,-5.4419,-0.0,-0.0,-10.86813,-6.84562,10.68417,10.39439,4.06566,-17.42628,-27.28692,-4.9446,0.00015,-3.93243,-0.38173,-0.0,33.27755,14.48808,14.62815,1.79689,0.46076,-18.00387,15.21057,15.5803,3.08546,38.86655,-4.88432,40.44428,131.45181,0.00018,-99.94473,120.12094,-0.00151,105.46552,-10.82935,-7.49361,-0.00337,-10.50271,8.48921,1e-05,-4.60966,-12.53693,17.1918,-26.3458,-17.94911,11.406,0.99112,-0.30635,11.64121
1834,0.08112,0.0,0.0,-5.77395,0.0,-0.0,-11.21819,-6.71024,10.70535,10.54066,4.05845,-17.65793,-27.10064,-4.96654,0.0002,-3.76908,-0.38338,-0.00034,33.31964,14.57317,14.48646,1.74132,0.69762,-17.98318,15.38501,15.55252,2.73215,38.66823,-5.03767,40.39424,131.31512,-0.00022,-100.2363,120.2333,0.00063,106.47446,-11.90387,-7.10516,-0.00561,-10.74092,8.45946,-0.0007,-4.7458,-12.6431,16.80865,-26.52352,-17.90911,10.99961,1.23037,-0.04661,11.72923
1835,0.00775,0.0,0.0,-6.0334,0.0,-0.0,-11.50744,-6.5775,10.85967,10.69441,4.15974,-18.05778,-26.8861,-5.04567,-0.00011,-3.67731,-0.45918,-0.00025,33.27982,14.71622,14.2284,1.67598,0.99124,-17.77394,15.34749,15.64417,2.61064,38.60286,-5.10364,40.31295,131.23514,0.00011,-100.74919,120.2479,0.00121,107.18335,-12.95445,-6.87887,-0.00304,-11.33009,8.22403,0.00101,-4.74038,-12.73131,16.58657,-26.54493,-17.91059,10.75378,1.33605,0.23542,11.7835
1836,-0.36262,-0.0,0.0,-6.6245,-0.0,0.0,-11.705,-6.37356,11.11492,10.91065,4.15614,-18.52222,-26.69498,-5.24542,-0.00038,-3.67603,-0.52908,-3e-05,33.22999,14.92875,13.80678,1.6543,1.29186,-17.40994,15.18592,15.82917,2.76118,38.6218,-5.0941,40.20089,131.19984,0.00041,-101.44418,120.21343,0.00021,107.37949,-13.5858,-6.90012,3e-05,-11.81935,7.68102,0.00221,-4.61541,-12.75833,16.6146,-26.42117,-17.94583,10.76991,1.38121,0.50104,11.76415
1837,-0.86088,-0.0,0.0,-7.31317,-0.0,-0.0,-11.80411,-6.17935,11.33538,11.09135,4.06745,-18.85562,-26.53978,-5.48259,-0.00019,-3.72611,-0.55211,6e-05,33.16621,15.16133,13.39893,1.64885,1.54659,-17.05979,15.07798,15.97305,3.02851,38.65746,-5.11467,40.05886,131.16814,0.00053,-102.02413,120.18542,-0.00095,107.04961,-13.87688,-7.09517,0.00054,-11.91506,6.85844,0.00153,-4.48015,-12.70558,16.71359,-26.27237,-17.93271,10.88473,1.41357,0.73379,11.72706
1838,-1.23545,0.0,0.0,-7.55832,0.0,0.0,-11.86639,-6.1443,11.39333,11.11079,4.00473,-18.95293,-26.37626,-5.60368,0.0002,-3.76381,-0.52788,8e-05,33.04006,15.33084,13.23955,1.59641,1.72548,-16.91147,15.07129,16.00221,3.22205,38.70135,-5.21581,39.8866,131.147,7e-05,-101.91185,120.21825,-0.00165,106.65433,-14.05567,-7.26642,-0.00046,-11.55957,6.16067,0.00264,-4.38559,-12.58443,16.68681,-26.16527,-17.81051,10.90647,1.43492,0.9292,11.75354
1839,-1.33186,-0.0,0.0,-7.26033,-0.0,0.0,-11.98276,-6.29109,11.31723,11.00401,3.96464,-18.89277,-26.15811,-5.57762,0.00043,-3.78732,-0.47412,6e-05,32.87809,15.39413,13.28404,1.51894,1.83485,-16.99403,15.08558,15.96057,3.28374,38.74964,-5.3402,39.70117,131.20927,-0.00178,-100.88985,120.33407,-0.00187,106.64576,-14.04338,-7.38069,-0.00204,-10.91739,5.96322,0.00517,-4.32836,-12.42646,16.4885,-26.10378,-17.59199,10.77927,1.46624,1.09779,11.86455
1840,-1.20974,0.0,-0.0,-6.77897,-0.0,0.0,-12.19346,-6.4734,11.19023,10.92405,3.87255,-18.85736,-25.89354,-5.48702,0.00033,-3.83989,-0.40534,-0.0,32.78025,15.37704,13.30129,1.5023,1.91127,-17.16519,15.04494,15.93789,3.30134,38.78754,-5.39017,39.5535,131.39116,-0.00213,-99.56285,120.47834,-0.00079,106.83133,-13.62988,-7.51754,-0.0032,-10.3064,6.13077,0.0036,-4.32194,-12.2544,16.17103,-26.09999,-17.31715,10.54428,1.55292,1.26024,11.99734
1841,-1.08635,0.0,0.0,-6.48958,-0.0,-0.0,-12.48125,-6.53229,11.0191,10.99098,3.71533,-19.00596,-25.61888,-5.39684,0.00014,-3.93159,-0.3236,-6e-05,32.79639,15.34284,13.20615,1.58714,1.99182,-17.25175,14.96076,15.98949,3.37232,38.84057,-5.29986,39.49062,131.59738,0.00012,-98.74918,120.57859,0.00063,106.78574,-13.01047,-7.59199,-0.00248,-9.92204,6.36555,0.00023,-4.3338,-12.08086,15.84718,-26.11456,-17.03853,10.30398,1.70665,1.41641,12.05852
1842,-1.19598,-0.0,-0.0,-6.45994,0.0,0.0,-12.78104,-6.48891,10.8281,11.21175,3.5572,-19.36634,-25.34811,-5.32977,-7e-05,-4.04131,-0.23913,-7e-05,32.86047,15.34724,13.09818,1.74031,2.08338,-17.17136,14.93148,16.09832,3.50719,38.95796,-5.08717,39.50338,131.65707,-2e-05,-98.68961,120.65107,0.00075,106.57958,-12.70673,-7.42795,-0.00205,-9.70774,6.75601,-0.0008,-4.23385,-11.94436,15.68689,-26.01019,-16.85361,10.20472,1.87757,1.54907,12.01859
1843,-1.61013,-0.0,0.0,-6.39595,0.0,-0.0,-13.00272,-6.54397,10.72546,11.48994,3.47151,-19.7893,-25.07049,-5.30247,-0.00028,-4.17354,-0.17627,-4e-05,32.84525,15.40464,13.06827,1.89024,2.15715,-16.96887,15.01596,16.21189,3.70655,39.14565,-4.85973,39.54779,131.51654,-0.00296,-99.18882,120.7692,-0.00078,106.72295,-12.82199,-7.11063,-0.00253,-9.53493,7.54544,-0.00022,-3.93428,-11.8657,15.82723,-25.69213,-16.83148,10.36844,1.98398,1.66353,11.94006
1844,-2.10864,0.0,-0.0,-5.97857,0.0,0.0,-13.14265,-6.81772,10.73741,11.70154,3.4805,-20.03489,-24.77407,-5.30013,-0.00022,-4.35173,-0.15163,3e-05,32.66507,15.48228,13.13165,1.95664,2.19022,-16.79567,15.09619,16.3045,4.03399,39.3536,-4.72711,39.61081,131.3616,-0.00309,-99.99203,120.92711,-0.00188,107.61967,-12.81761,-7.02025,-0.00453,-9.38466,8.51376,-0.0001,-3.54325,-11.77994,16.24631,-25.2618,-16.90375,10.79978,1.97099,1.78931,11.88848
1845,-2.33884,-0.0,0.0,-5.23527,-0.0,0.0,-13.31739,-7.15253,10.73161,11.77862,3.54186,-19.96483,-24.45733,-5.26228,0.00018,-4.56629,-0.16511,0.0001,32.33191,15.52764,13.29212,1.89344,2.19888,-16.80498,14.97266,16.37569,4.49548,39.50479,-4.71304,39.70586,131.45786,0.00052,-100.83204,121.03214,-0.00044,108.997,-12.29617,-7.43105,-0.0092,-9.40013,8.9884,0.00224,-3.27776,-11.61259,16.73181,-24.9416,-16.92396,11.32616,1.86015,1.93915,11.86448
1846,-2.24535,-0.0,-0.0,-4.50924,0.0,-0.0,-13.59191,-7.2925,10.63583,11.75896,3.56841,-19.71682,-24.12371,-5.16453,0.00036,-4.77634,-0.1933,5e-05,31.93944,15.50703,13.50024,1.74134,2.21051,-16.96218,14.61107,16.42669,4.94752,39.54092,-4.78035,39.81326,131.85196,0.00301,-101.54653,121.04929,0.00086,109.88326,-11.59569,-8.18718,-0.00757,-9.75431,8.58352,0.00921,-3.22248,-11.40226,17.02257,-24.84043,-16.83353,11.68397,1.74206,2.09721,11.84332
1847,-2.15934,0.0,-0.0,-4.16016,0.0,-0.0,-13.87791,-7.18669,10.57053,11.74892,3.47891,-19.59561,-23.77827,-5.07463,-8e-05,-4.95485,-0.20195,-7e-05,31.60239,15.43866,13.60005,1.61026,2.23696,-17.04962,14.20973,16.4599,5.26349,39.4829,-4.88596,39.89115,132.31743,0.00207,-102.09306,121.05988,0.00121,109.65096,-11.26742,-8.84747,-0.0007,-10.39657,7.70032,0.0109,-3.27998,-11.27411,17.05572,-24.8811,-16.72636,11.76482,1.69839,2.25299,11.81375
1848,-2.24845,-0.0,-0.0,-4.16294,0.0,-0.0,-14.10172,-6.99945,10.59496,11.77435,3.27902,-19.64427,-23.44304,-5.0386,-0.00047,-5.10351,-0.19598,-8e-05,31.36353,15.37065,13.54052,1.56159,2.27767,-17.02616,14.01021,16.47293,5.49427,39.42745,-4.96734,39.93657,132.60298,0.00023,-102.3422,121.14115,0.00128,108.86149,-11.30216,-9.12518,0.00192,-11.06361,7.1307,0.00324,-3.3569,-11.30347,17.0519,-24.96158,-16.75227,11.7499,1.7172,2.40904,11.7585
1849,-2.26194,-0.0,0.0,-4.12973,0.0,-0.0,-14.32071,-6.92419,10.55377,11.76735,3.09666,-19.57882,-23.16154,-4.98265,-0.00026,-5.23796,-0.21664,3e-05,31.16625,15.32244,13.50513,1.54386,2.32031,-17.1272,14.08768,16.46756,5.75383,39.4543,-4.94854,39.96958,132.65631,0.0002,-102.20614,121.25352,0.00025,108.44662,-11.21853,-9.11992,0.00092,-11.57613,7.26891,-0.00322,-3.45254,-11.45045,17.23636,-25.05907,-16.95552,11.86904,1.71094,2.55441,11.66069
1850,-2.07455,-0.0,0.0,-3.94851,-0.0,-0.0,-14.59199,-7.06553,10.37485,11.75412,3.10062,-19.30269,-22.95986,-4.84521,4e-05,-5.36962,-0.26959,9e-05,30.958,15.28792,13.61561,1.48986,2.35168,-17.4169,14.33434,16.47639,6.03314,39.56604,-4.82639,39.98526,132.59303,0.00062,-102.02986,121.29148,-0.0007,108.47527,-10.76334,-9.09275,-0.00096,-11.99088,7.78467,-0.00278,-3.57131,-11.60632,17.50271,-25.17415,-17.19653,12.06282,1.63664,2.66504,11.54438
1851,-1.95584,-0.0,-0.0,-3.9517,-0.0,0.0,-14.89098,-7.39063,10.21681,11.85164,3.32518,-19.09628,-22.82297,-4.69428,6e-05,-5.4806,-0.30557,4e-05,30.76786,15.2753,13.74514,1.39878,2.38067,-17.62439,14.59781,16.5605,6.21533,39.73213,-4.70752,39.98953,132.51633,0.00031,-102.34753,121.21539,-0.00139,108.37157,-10.25779,-9.1102,-0.00217,-12.46124,8.06876,0.00211,-3.68299,-11.65432,17.54897,-25.28759,-17.25783,12.08842,1.54271,2.73585,11.44511
1852,-2.105,0.0,0.0,-4.3026,0.0,-0.0,-15.19351,-7.79197,10.20114,12.05475,3.57908,-19.20916,-22.72716,-4.61436,-3e-05,-5.53178,-0.2758,2e-05,30.65177,15.29752,13.76647,1.29853,2.42543,-17.52762,14.78895,16.7543,6.22321,39.93132,-4.70896,40.02953,132.43117,-6e-05,-103.1065,121.10059,-0.00149,107.99859,-10.16363,-9.02647,-0.00282,-12.98094,7.96976,0.0058,-3.7665,-11.55416,17.30547,-25.37923,-17.07688,11.89493,1.48681,2.79628,11.35758
1853,-2.42579,-0.0,0.0,-4.75186,0.0,0.0,-15.50029,-8.2092,10.27944,12.22107,3.62444,-19.59623,-22.65957,-4.5959,-4e-05,-5.52341,-0.17644,0.0,30.63878,15.3381,13.72392,1.23076,2.48011,-17.18603,14.89479,16.98754,6.09006,40.11472,-4.83862,40.1205,132.31009,2e-05,-103.76457,121.06133,-0.00148,107.83971,-10.437,-8.74909,-0.00219,-13.32047,7.87593,0.00593,-3.83073,-11.41887,16.97876,-25.45395,-16.83315,11.63587,1.49881,2.87942,11.27404
1854,-2.78068,0.0,0.0,-5.01658,0.0,0.0,-15.80164,-8.55832,10.30851,12.24607,3.43959,-20.00661,-22.60949,-4.58221,-1e-05,-5.51217,-0.05984,-7e-05,30.73853,15.37175,13.7146,1.25685,2.5365,-16.86417,14.97685,17.11137,5.91885,40.20713,-4.98452,40.21203,132.15659,4e-05,-104.13618,121.12577,-0.00176,108.30251,-10.58501,-8.38241,0.00068,-13.37249,8.08858,0.00465,-3.88388,-11.40378,16.72508,-25.52493,-16.72745,11.40024,1.60697,2.98617,11.22314
1855,-3.06162,-0.0,-0.0,-5.03679,0.0,0.0,-16.11637,-8.62431,10.11003,12.14328,3.21202,-20.14987,-22.5657,-4.54947,2e-05,-5.54827,-0.0147,-3e-05,30.92544,15.41243,13.78453,1.39788,2.61765,-16.8528,15.15605,17.05908,5.82573,40.21647,-5.00626,40.28212,132.00508,-8e-05,-104.34789,121.18784,0.00017,109.42426,-10.32433,-8.16246,0.00163,-13.45579,8.52696,0.00066,-3.89577,-11.50838,16.53287,-25.56292,-16.75516,11.1771,1.80733,3.08659,11.22733
1856,-3.12178,-0.0,0.0,-4.95224,0.0,-0.0,-16.49797,-8.27931,9.66697,12.01343,3.11353,-19.93894,-22.50409,-4.53454,-4e-05,-5.63777,-0.09359,0.00017,31.1191,15.48818,13.90795,1.60488,2.72767,-17.1872,15.49881,16.93432,5.90085,40.27197,-4.85364,40.38401,131.91466,-0.0006,-104.13264,121.11543,0.00368,110.93427,-9.85824,-8.29042,-0.00018,-13.93072,9.05751,-0.0044,-3.84929,-11.59877,16.38106,-25.53774,-16.78421,10.99788,2.03723,3.13859,11.26365
1857,-2.93312,0.0,-0.0,-4.98243,-0.0,-0.0,-16.95049,-7.73509,9.23658,11.97947,3.14443,-19.62524,-22.39367,-4.59282,-0.00022,-5.76164,-0.24046,0.00021,31.23827,15.58303,13.99852,1.80643,2.81264,-17.56051,15.8929,16.89781,6.15813,40.46986,-4.60715,40.55036,131.93158,-0.00253,-103.01149,120.90815,0.00333,112.18001,-9.57084,-8.65059,-0.00123,-14.61077,9.62187,-0.00462,-3.83161,-11.57501,16.2833,-25.52458,-16.72674,10.91411,2.23581,3.12548,11.27721
1858,-2.76936,0.0,-0.0,-5.29905,-0.0,0.0,-17.38665,-7.35265,9.07023,12.0946,3.16464,-19.5564,-22.24491,-4.73105,-0.00034,-5.88048,-0.32222,3e-05,31.28296,15.66483,13.97302,1.95423,2.8344,-17.63826,16.12898,17.00782,6.50739,40.73932,-4.38973,40.7185,132.02858,-0.0034,-101.15003,120.6991,0.00023,112.40269,-9.68784,-8.74561,-0.0039,-14.99587,10.02186,-0.0009,-3.96633,-11.4214,16.16887,-25.65066,-16.54256,10.86462,2.40663,3.09624,11.22953
1859,-3.01047,0.0,-0.0,-5.87542,0.0,0.0,-17.69021,-7.24554,9.13494,12.27269,3.08234,-19.79132,-22.12325,-4.90787,-0.00018,-5.93558,-0.26507,-3e-05,31.31682,15.74961,13.81365,2.02533,2.83562,-17.40891,16.14213,17.20168,6.81614,40.931,-4.26314,40.79917,132.12946,-0.00136,-99.44991,120.61143,0.00054,111.40542,-10.09272,-8.26973,-0.00714,-14.98766,10.0486,0.00083,-4.23487,-11.18352,15.90232,-25.91252,-16.22495,10.70306,2.57289,3.13248,11.14566
1860,-3.70335,-0.0,-0.0,-6.41484,0.0,0.0,-17.8307,-7.23093,9.20705,12.36548,2.98757,-20.04821,-22.09234,-5.08599,0.00015,-5.89802,-0.13318,6e-05,31.37246,15.88404,13.57114,2.00796,2.88617,-17.1718,16.09703,17.38629,7.01505,40.99105,-4.21949,40.79253,132.19716,0.00095,-98.75262,120.67296,0.00237,109.87348,-10.37855,-7.66222,-0.00606,-14.97046,9.8465,0.00101,-4.48339,-10.97311,15.48992,-26.16766,-15.87991,10.3926,2.69866,3.25916,11.09017
1861,-4.47554,-0.0,-0.0,-6.61218,0.0,-0.0,-17.90076,-7.16394,9.10762,12.3382,2.99825,-20.06424,-22.15747,-5.23932,0.00029,-5.8119,-0.03169,3e-05,31.42766,16.07409,13.3379,1.91816,2.99257,-17.18566,16.20539,17.49106,7.11686,40.99301,-4.22809,40.79139,132.23984,0.00159,-99.23813,120.83982,4e-05,109.02587,-10.25602,-7.632,-0.00639,-15.23756,9.86729,-2e-05,-4.62817,-10.919,15.13141,-26.33118,-15.69952,10.0735,2.72718,3.41844,11.10085
1862,-4.86665,0.0,-0.0,-6.36246,0.0,0.0,-18.0528,-7.135,8.74112,12.2605,3.06543,-19.84564,-22.26416,-5.30507,0.00011,-5.75358,0.01275,-4e-05,31.43796,16.26731,13.2783,1.80158,3.08792,-17.42184,16.52163,17.47505,7.15382,41.02596,-4.25957,40.86236,132.24551,0.00049,-100.44885,121.03278,-0.00377,109.57735,-9.8822,-8.23602,-0.00678,-15.61178,10.4174,0.00041,-4.733,-11.05477,14.98289,-26.46002,-15.77171,9.88059,2.66092,3.53697,11.17586
1863,-4.76124,-0.0,0.0,-5.73377,-0.0,0.0,-18.38027,-7.2695,8.11957,12.17387,3.06023,-19.57599,-22.33869,-5.23322,-6e-05,-5.7567,0.02835,-5e-05,31.37441,16.4075,13.52128,1.70208,3.10671,-17.6485,16.95069,17.37302,7.15569,41.10921,-4.27755,40.9685,132.1799,-0.00066,-101.64422,121.17316,-0.00324,110.71072,-9.6509,-8.93826,-0.00266,-15.70673,11.21146,0.00288,-4.85915,-11.27462,14.99393,-26.60861,-15.97993,9.80639,2.55862,3.58582,11.28906
1864,-4.60505,-0.0,0.0,-5.05923,0.0,-0.0,-18.80021,-7.51133,7.52129,12.11275,2.93986,-19.48788,-22.34103,-5.12121,-8e-05,-5.8016,0.03292,-3e-05,31.28428,16.48441,13.86735,1.66,3.04898,-17.63646,17.40245,17.32324,7.14507,41.21946,-4.24645,41.02464,132.04471,-0.00028,-102.28329,121.24266,-0.00048,110.80112,-9.80777,-9.45735,0.00247,-15.37827,11.53671,-0.00091,-4.94299,-11.41375,15.04517,-26.70395,-16.12778,9.80128,2.49788,3.56533,11.38812
1865,-4.89134,0.0,-0.0,-4.73773,-0.0,0.0,-19.14987,-7.70801,7.2833,12.13551,2.77949,-19.6908,-22.29598,-5.13345,-9e-05,-5.85273,0.03519,-1e-05,31.25186,16.52791,13.93009,1.68267,2.96149,-17.36571,17.84924,17.45524,7.10596,41.34592,-4.16194,40.99517,131.89029,0.00047,-102.33053,121.29669,0.001,109.57264,-10.3396,-9.95076,0.00571,-14.804,11.15799,-0.00686,-4.87783,-11.3912,15.09683,-26.63298,-16.12561,9.85895,2.51559,3.47881,11.42608
1866,-5.46301,0.0,-0.0,-4.77338,0.0,-0.0,-19.42549,-7.81183,7.33678,12.23895,2.72806,-20.01082,-22.25504,-5.27186,-3e-05,-5.87706,0.04548,-0.0,31.26204,16.56698,13.67983,1.69297,2.8759,-17.06831,18.23722,17.73624,7.02918,41.48564,-4.04691,40.92645,131.77486,0.00036,-102.11848,121.38261,6e-05,108.39604,-11.04127,-10.45386,0.0041,-14.30964,10.64684,-0.00596,-4.67441,-11.26984,15.14171,-26.41363,-16.02919,9.94827,2.55605,3.34706,11.4054
1867,-5.87243,0.0,0.0,-4.97663,0.0,-0.0,-19.73755,-7.8934,7.32327,12.37576,2.87637,-20.19403,-22.22692,-5.40599,3e-05,-5.85777,0.06808,2e-05,31.22787,16.61796,13.44608,1.61371,2.79602,-16.95173,18.46813,17.99611,6.98766,41.61076,-3.91682,40.90268,131.73059,7e-05,-101.98483,121.46817,-0.00118,108.11925,-11.67308,-10.78208,-0.00035,-14.16648,10.52582,-0.00318,-4.46502,-11.15303,15.14952,-26.19134,-15.92352,10.00067,2.55163,3.22094,11.35644
1868,-6.11775,0.0,0.0,-5.40506,0.0,0.0,-20.07739,-7.98516,7.08294,12.53703,3.10163,-20.20262,-22.18096,-5.47879,-1e-05,-5.81715,0.10479,2e-05,31.14646,16.71146,13.4271,1.4969,2.73479,-16.95617,18.52794,18.10922,7.06487,41.68082,-3.77874,40.98368,131.74791,0.00032,-102.03384,121.47987,-0.00037,108.29369,-12.09658,-10.95658,-0.00251,-14.45071,10.71173,-0.002,-4.35834,-11.07631,15.11075,-26.07917,-15.83817,9.99345,2.53439,3.15495,11.30595
1869,-6.39004,0.0,0.0,-6.0801,0.0,0.0,-20.34899,-8.04085,6.72829,12.69465,3.14759,-20.13585,-22.11067,-5.52385,-6e-05,-5.80423,0.15382,-1e-05,31.09012,16.87271,13.56622,1.45954,2.70867,-16.91635,18.5347,18.09568,7.23088,41.69873,-3.65693,41.14552,131.77705,0.00087,-102.10437,121.39606,0.00133,108.54035,-12.22763,-11.19068,-0.0026,-15.03099,10.8708,0.00022,-4.36378,-11.03542,15.05712,-26.08388,-15.7807,9.95835,2.57121,3.16323,11.2828
1870,-6.57743,-0.0,-0.0,-6.68883,0.0,0.0,-20.54744,-8.02819,6.43474,12.76706,2.91472,-20.03736,-22.05598,-5.56926,-4e-05,-5.84872,0.19666,-3e-05,31.09091,17.06468,13.75158,1.53206,2.69934,-16.82689,18.58291,18.03201,7.38352,41.73413,-3.58857,41.26135,131.77592,0.0011,-101.9185,121.27214,0.00206,108.78178,-11.99834,-11.45701,-0.00122,-15.59376,10.81645,0.00232,-4.43069,-11.02219,15.01355,-26.15229,-15.75259,9.92216,2.65241,3.21325,11.301
1871,-6.51909,-0.0,0.0,-6.98034,0.0,0.0,-20.73674,-7.98186,6.33632,12.73949,2.59472,-19.93225,-22.05545,-5.63539,7e-05,-5.92982,0.20504,-0.0,31.13162,17.21779,13.88853,1.65598,2.67115,-16.77203,18.60972,17.93922,7.51127,41.8573,-3.586,41.22363,131.77435,-0.00033,-101.24004,121.16242,0.00207,108.77351,-11.47817,-11.46394,0.00242,-15.87109,10.60848,0.00175,-4.48646,-10.99245,14.98383,-26.20693,-15.71416,9.90544,2.73107,3.27126,11.33607
1872,-6.28251,-0.0,0.0,-6.98745,0.0,0.0,-20.9422,-7.99735,6.41625,12.67113,2.45355,-19.85013,-22.09475,-5.73342,0.00017,-5.98397,0.17167,-1e-05,31.18091,17.31936,13.9612,1.76923,2.61961,-16.75747,18.49634,17.8306,7.72795,42.04861,-3.61047,41.09554,131.85049,-0.00364,-99.97285,121.07096,0.00249,108.55563,-10.95754,-11.10534,0.00377,-16.00619,10.43333,-0.00067,-4.47256,-10.90985,14.99338,-26.18381,-15.64089,9.94623,2.79455,3.33125,11.34423
1873,-6.05873,-0.0,0.0,-6.77824,0.0,0.0,-21.12856,-8.11532,6.49394,12.56659,2.50216,-19.7208,-22.1248,-5.83176,0.00014,-5.95646,0.1314,-3e-05,31.21681,17.40522,14.05312,1.84858,2.56768,-16.78893,18.27421,17.78889,8.07761,42.2177,-3.5987,41.02628,132.01944,-0.00471,-98.48099,121.0228,0.00217,108.51481,-10.75074,-10.66069,0.00129,-16.3274,10.43817,-0.00426,-4.39539,-10.82916,15.07727,-26.09272,-15.59639,10.0567,2.85704,3.384,11.29291
1874,-6.12905,-0.0,-0.0,-6.49947,0.0,0.0,-21.21211,-8.20577,6.51957,12.4122,2.51469,-19.46789,-22.12138,-5.91205,3e-05,-5.85375,0.13389,1e-05,31.26707,17.48439,14.1399,1.91237,2.53415,-16.912,18.13353,17.88075,8.39557,42.31836,-3.53234,41.0322,132.19897,-0.00193,-97.50303,121.08218,-0.0009,109.08178,-10.8612,-10.45891,-0.00017,-16.66967,10.67198,-0.00566,-4.31938,-10.8289,15.20588,-26.00803,-15.64284,10.17867,2.94229,3.39751,11.18353
1875,-6.62979,0.0,0.0,-6.40497,0.0,-0.0,-21.16182,-8.11957,6.68245,12.26511,2.39877,-19.17786,-22.09328,-6.0009,-9e-05,-5.72199,0.18444,1e-05,31.35822,17.54067,14.08976,1.96856,2.53001,-17.10335,18.20031,18.04023,8.48068,42.38574,-3.46344,41.00864,132.30963,0.0004,-97.26844,121.24088,-0.0044,110.6198,-11.005,-10.54294,-2e-05,-16.49816,11.10879,-0.00144,-4.31211,-10.90219,15.2811,-26.00327,-15.73824,10.22183,3.05584,3.36432,11.06769
1876,-7.17911,-0.0,0.0,-6.46812,0.0,0.0,-21.11544,-7.9219,7.06336,12.15989,2.31024,-18.98889,-22.03997,-6.0749,-5e-05,-5.57743,0.24795,-2e-05,31.42046,17.56822,13.97453,1.9598,2.5513,-17.30626,18.39034,18.12875,8.33648,42.44846,-3.44187,40.9468,132.35089,0.00086,-97.38024,121.3959,-0.00343,112.69499,-11.00014,-10.75708,0.0006,-15.79446,11.69708,0.00305,-4.40115,-11.0056,15.24847,-26.10533,-15.82248,10.15117,3.15106,3.33099,10.99896
1877,-7.18218,0.0,0.0,-6.35174,0.0,-0.0,-21.24797,-7.82691,7.48686,12.04503,2.353,-18.93957,-21.94034,-6.04905,0.00027,-5.39627,0.31418,6e-05,31.34055,17.56008,14.0547,1.81626,2.56018,-17.48753,18.54154,18.08709,8.13241,42.47764,-3.4303,40.96144,132.36823,0.00076,-97.62285,121.46902,-0.00053,113.75639,-10.99121,-10.96491,0.00118,-15.12826,12.28024,0.00196,-4.53889,-11.14823,15.19047,-26.26198,-15.93394,10.04133,3.16637,3.33488,10.96543
1878,-6.52885,0.0,-0.0,-5.91104,0.0,0.0,-21.54263,-7.96064,7.83343,11.88918,2.45016,-19.02422,-21.78354,-5.92056,0.00051,-5.171,0.3997,0.0002,31.08405,17.50684,14.4123,1.54847,2.50838,-17.55352,18.61513,17.97477,7.96071,42.45422,-3.33223,41.09137,132.37819,0.00045,-98.05335,121.47052,0.00024,112.7416,-11.34248,-11.05222,-0.00114,-14.84769,12.65215,-0.00128,-4.61846,-11.33696,15.24542,-26.35795,-16.1292,10.02072,3.09483,3.34086,10.93129
1879,-5.76652,0.0,0.0,-5.44363,-0.0,-0.0,-21.79745,-8.28054,8.24139,11.74834,2.54477,-19.27317,-21.59114,-5.83002,0.00015,-4.93812,0.48922,0.00017,30.74392,17.43545,14.77948,1.26391,2.40664,-17.36669,18.66609,17.89423,7.76386,42.43991,-3.1178,41.24165,132.34633,-0.00046,-98.61378,121.43697,0.00045,110.63618,-12.29738,-10.88915,-0.00712,-14.85938,12.85851,-0.00356,-4.57128,-11.4756,15.42678,-26.31353,-16.32384,10.13921,3.00424,3.30135,10.89509
1880,-5.57744,0.0,-0.0,-5.33444,0.0,-0.0,-21.83997,-8.62384,8.85147,11.68876,2.69061,-19.68439,-21.403,-5.90659,-0.00049,-4.75075,0.53307,-1e-05,30.49031,17.41244,14.8135,1.10467,2.34308,-16.92047,18.68947,17.89614,7.56193,42.53907,-2.87805,41.33815,132.28745,-0.00228,-99.00271,121.37283,0.00143,109.38818,-13.48566,-10.50447,-0.00786,-14.97059,13.15316,-0.0031,-4.44004,-11.43245,15.57818,-26.16728,-16.3387,10.2995,2.98812,3.25354,10.86702
1881,-6.08174,0.0,-0.0,-5.58378,0.0,0.0,-21.72566,-8.77242,9.45839,11.69439,2.9234,-20.07783,-21.24002,-6.08445,-0.00066,-4.64313,0.50162,-9e-05,30.42112,17.46982,14.5419,1.13369,2.39022,-16.44601,18.64089,17.92666,7.57275,42.77041,-2.72121,41.40374,132.32878,-0.00658,-98.66908,121.29766,0.00163,109.70964,-13.97888,-10.21285,-0.00306,-14.91003,13.67809,0.00372,-4.34281,-11.22063,15.52657,-26.05078,-16.12319,10.33217,3.07404,3.2818,10.85161
1882,-6.80103,0.0,0.0,-5.89581,-0.0,0.0,-21.66999,-8.63004,9.68257,11.69415,3.17913,-20.15694,-21.08715,-6.16151,-0.00028,-4.61079,0.41497,-5e-05,30.46648,17.54752,14.33896,1.27641,2.5142,-16.27432,18.56805,17.88841,7.91118,43.00721,-2.64932,41.46762,132.5307,-0.01019,-97.49901,121.29562,0.00029,110.67608,-13.29472,-10.37769,-0.00629,-14.44141,14.31914,0.01186,-4.38041,-11.0125,15.25841,-26.08464,-15.8325,10.15794,3.20269,3.40017,10.83946
1883,-7.30291,0.0,0.0,-6.13213,-0.0,0.0,-21.74543,-8.41399,9.51305,11.66816,3.356,-19.82489,-20.91167,-6.02546,0.00034,-4.61608,0.3312,-2e-05,30.48407,17.54347,14.43522,1.408,2.61001,-16.50917,18.60008,17.76809,8.3453,43.10992,-2.57786,41.50767,132.72984,-0.00787,-96.5174,121.42872,0.00063,111.13094,-11.98237,-11.07455,-0.01131,-13.78327,14.76208,0.01094,-4.55382,-10.95195,14.92334,-26.27405,-15.65455,9.86371,3.31217,3.53296,10.80078
1884,-7.49718,-0.0,-0.0,-6.32589,0.0,-0.0,-21.8139,-8.49549,9.30814,11.64987,3.40981,-19.31007,-20.69479,-5.72059,0.00085,-4.61194,0.31348,2e-05,30.39554,17.41233,14.74752,1.45497,2.60909,-16.91125,18.81218,17.65017,8.55789,43.09021,-2.46359,41.51074,132.71658,-0.00589,-96.7232,121.66149,0.00217,110.90303,-10.86691,-11.99025,-0.0062,-13.45786,14.84757,0.00466,-4.75102,-11.02336,14.67976,-26.49443,-15.63236,9.60558,3.38013,3.60962,10.73129
1885,-7.48467,0.0,0.0,-6.46061,0.0,0.0,-21.76227,-8.96677,9.2985,11.64497,3.38254,-18.93617,-20.44767,-5.36776,0.00079,-4.56324,0.38199,0.00013,30.21795,17.20281,15.09579,1.4097,2.53268,-17.15616,19.14271,17.60392,8.48828,43.06894,-2.36174,41.50914,132.48616,-0.00366,-97.56597,121.94357,0.00343,110.38882,-10.28106,-12.60691,0.00272,-13.70296,14.79943,-0.00058,-4.85906,-11.11359,14.58737,-26.61771,-15.68257,9.48339,3.40049,3.63819,10.67334
1886,-7.59783,0.0,0.0,-6.63341,0.0,0.0,-21.60599,-9.53917,9.47471,11.66307,3.35039,-18.90473,-20.19297,-5.1262,-1e-05,-4.47047,0.486,0.00019,30.04075,17.00726,15.27432,1.33266,2.45947,-17.08527,19.43273,17.6216,8.32145,43.11204,-2.32836,41.5395,132.22131,0.0016,-97.67591,122.26318,0.00382,109.77029,-10.15326,-12.60003,0.00864,-14.33829,14.86438,-0.00351,-4.87541,-11.15156,14.61885,-26.63602,-15.72928,9.49858,3.40506,3.6721,10.65507
1887,-8.1782,0.0,0.0,-7.07294,0.0,-0.0,-21.42643,-9.87134,9.74672,11.75335,3.35545,-19.20765,-19.93773,-5.097,-0.00085,-4.37579,0.53996,0.00011,29.96132,16.88138,15.13944,1.31966,2.4597,-16.77384,19.54727,17.66295,8.25517,43.18732,-2.32836,41.61324,132.08443,0.00407,-96.50658,122.57963,0.00165,109.33438,-10.29913,-12.06701,0.01217,-14.93011,15.05277,-0.00247,-4.85769,-11.16471,14.67297,-26.61625,-15.76117,9.54474,3.47069,3.73722,10.64543
1888,-8.95436,0.0,-0.0,-7.68201,0.0,-0.0,-21.35691,-9.79372,9.9196,11.88224,3.37856,-19.5759,-19.669,-5.18487,-0.00077,-4.30947,0.49582,2e-05,29.98749,16.80231,14.83787,1.39045,2.55123,-16.51381,19.46924,17.71041,8.25515,43.24906,-2.30158,41.70672,132.0457,0.00203,-94.8288,122.81513,-0.00079,109.51323,-10.7538,-11.2616,0.00493,-15.04095,15.32007,0.00154,-4.84313,-11.2087,14.59778,-26.61105,-15.77468,9.45662,3.63817,3.81571,10.58598
1889,-9.1929,0.0,0.0,-7.9972,-0.0,0.0,-21.51506,-9.33487,9.80871,11.89205,3.36939,-19.65264,-19.3715,-5.18719,0.0001,-4.23647,0.37863,-9e-05,30.01962,16.70841,14.6925,1.44538,2.6995,-16.59681,19.29585,17.76926,8.02898,43.28717,-2.24791,41.74709,131.88683,-0.01049,-94.23232,122.94304,-0.00123,110.25996,-11.99636,-10.23984,-0.02417,-14.68109,15.61917,0.00404,-4.88768,-11.27533,14.31208,-26.68029,-15.73258,9.16056,3.84825,3.88139,10.45486
1890,-8.61936,-0.0,-0.0,-7.80121,0.0,-0.0,-21.85284,-8.7602,9.52809,11.69906,3.30661,-19.36977,-19.05341,-5.03485,0.00061,-4.11523,0.2554,-0.00012,29.95172,16.58073,14.8115,1.38777,2.84853,-16.97703,19.15461,17.83685,7.41816,43.31112,-2.18999,41.66431,131.44942,-0.03213,-95.82095,123.01799,-0.00113,111.09919,-14.19859,-9.02395,-0.05009,-14.35834,15.77408,0.00339,-5.05916,-11.30857,13.91093,-26.87917,-15.61731,8.7684,3.98142,3.92932,10.2954
1891,-7.55418,0.0,0.0,-7.27433,0.0,-0.0,-22.22615,-8.40997,9.35536,11.3968,3.20802,-18.96979,-18.75246,-4.81706,0.00034,-3.99918,0.16708,2e-05,29.77012,16.46137,15.06786,1.25277,2.95328,-17.31875,19.08577,17.90144,6.79405,43.33346,-2.12735,41.49874,130.92113,-0.03177,-98.8251,123.10404,-0.00074,111.49777,-16.22078,-8.00973,-0.04044,-14.43949,15.52523,0.00362,-5.30245,-11.29705,13.60865,-27.13862,-15.4964,8.4872,3.96028,3.97504,10.17112
1892,-6.2909,0.0,-0.0,-6.56182,0.0,-0.0,-22.57461,-8.38962,9.3302,11.09982,3.06193,-18.63796,-18.50423,-4.58598,9e-05,-3.99116,0.10176,0.00018,29.54198,16.38425,15.39384,1.15878,3.00202,-17.41837,19.01759,17.96684,6.71713,43.34254,-2.06866,41.37942,130.67789,-0.01087,-101.22855,123.21935,0.00041,111.05398,-16.53937,-7.70807,-0.02668,-14.76132,14.74617,0.00428,-5.45388,-11.29073,13.55485,-27.29244,-15.47091,8.43884,3.82161,4.03427,10.09718
1893,-5.09961,0.0,-0.0,-5.87118,0.0,-0.0,-22.84787,-8.56069,9.33141,10.873,2.79855,-18.39905,-18.30869,-4.31008,0.00026,-4.10123,0.04234,0.00019,29.35238,16.32075,15.75447,1.17129,3.02251,-17.34839,18.8951,18.03421,7.18099,43.28487,-2.06494,41.36043,130.77112,-0.00038,-102.09434,123.36912,0.00086,110.01346,-15.27433,-8.00543,-0.02166,-14.97476,13.69513,0.00279,-5.46246,-11.32907,13.67836,-27.298,-15.55155,8.5407,3.69597,4.11389,10.04345
1894,-4.47752,0.0,-0.0,-5.70987,0.0,-0.0,-22.91701,-8.74044,9.40222,10.80695,2.39883,-18.28518,-18.14517,-4.02779,0.00034,-4.24247,3e-05,7e-05,29.27004,16.22396,15.93711,1.27535,3.04843,-17.23681,18.76799,18.07058,7.63174,43.14318,-2.17788,41.37028,130.88013,-0.00072,-102.30956,123.57711,-2e-05,109.19281,-13.96269,-8.26872,-0.00786,-14.91072,12.90577,0.00198,-5.45545,-11.40749,13.74624,-27.29527,-15.64909,8.57455,3.69964,4.2148,9.99043
1895,-4.78806,0.0,-0.0,-6.36713,-0.0,0.0,-22.71789,-8.83221,9.6684,10.95777,1.99231,-18.35324,-18.00043,-3.87743,1e-05,-4.3439,-0.01315,-2e-05,29.30644,16.10827,15.71553,1.42742,3.08665,-17.11352,18.70706,18.04177,7.74479,43.02949,-2.38601,41.34319,130.80383,-0.00306,-102.96406,123.83883,-0.00074,108.98036,-13.40868,-8.27805,0.0016,-14.62361,12.59001,0.00246,-5.56003,-11.49099,13.60553,-27.41651,-15.67528,8.40934,3.83193,4.3257,9.93697
1896,-5.9293,-0.0,0.0,-7.54125,0.0,-0.0,-22.33953,-8.86251,10.11856,11.24467,1.75204,-18.62244,-17.85255,-3.94777,-0.00056,-4.38395,-0.00032,-2e-05,29.39219,16.0421,15.11241,1.57937,3.12987,-16.91699,18.72272,17.95886,7.71906,43.08843,-2.54458,41.29898,130.66933,-0.00159,-103.98738,124.07867,-0.00064,109.33923,-13.05732,-8.47157,-0.00216,-14.31222,12.4688,0.00179,-5.77935,-11.5326,13.2822,-27.65794,-15.59588,8.08791,3.99956,4.42675,9.87296
1897,-7.305,0.0,0.0,-8.616,-0.0,0.0,-21.97711,-8.89263,10.59097,11.49203,1.73882,-18.99918,-17.66471,-4.16175,-0.0008,-4.35678,0.02953,3e-05,29.43211,16.05894,14.39542,1.68632,3.17205,-16.62598,18.79664,17.86198,7.82219,43.28265,-2.51356,41.27143,130.66083,0.00102,-104.58849,124.20942,0.00061,110.19839,-12.25253,-9.20759,-0.01419,-14.17369,12.21608,0.00105,-6.02322,-11.52676,12.86854,-27.92295,-15.43936,7.69986,4.11943,4.51151,9.80121
1898,-8.00004,0.0,-0.0,-8.93515,-0.0,-0.0,-21.86046,-8.90132,10.82505,11.52747,1.93136,-19.21557,-17.42885,-4.31832,-0.00023,-4.28085,0.06148,4e-05,29.3745,16.12293,13.95169,1.72941,3.20201,-16.39754,18.89658,17.78154,8.07244,43.41493,-2.30401,41.25779,130.82387,-0.00072,-104.24956,124.23109,0.00215,110.77382,-11.04759,-10.21506,-0.01611,-14.26969,11.64836,0.00145,-6.16544,-11.53397,12.48785,-28.08496,-15.30686,7.33816,4.16032,4.59692,9.76785
1899,-7.61756,0.0,-0.0,-8.2455,0.0,0.0,-22.04925,-8.83257,10.68213,11.30838,2.28045,-19.09062,-17.18034,-4.28702,0.00053,-4.21313,0.09196,1e-05,29.24168,16.18045,13.97762,1.74071,3.20157,-16.38761,18.95021,17.7323,8.37193,43.40331,-2.05887,41.25912,131.1095,-0.00465,-102.9295,124.22241,0.00311,109.90865,-9.8941,-10.85472,-0.00404,-14.49012,10.68703,0.00105,-6.10444,-11.59214,12.32389,-28.03782,-15.30085,7.16115,4.1426,4.70384,9.81114
1900,-6.87404,-0.0,0.0,-7.13666,0.0,-0.0,-22.30992,-8.68176,10.37455,11.01043,2.65331,-18.83069,-16.9595,-4.14416,0.00055,-4.2114,0.14148,-7e-05,29.11574,16.19571,14.1945,1.77731,3.16057,-16.48801,18.87497,17.72326,8.65327,43.3687,-1.93843,41.29757,131.40773,-0.00372,-100.97042,124.2274,0.00335,107.97556,-9.10306,-10.78245,0.00508,-14.72322,9.48786,-0.00026,-5.86309,-11.6306,12.47128,-27.79332,-15.39044,7.28513,4.1337,4.83151,9.87982
1901,-6.72583,-0.0,-0.0,-6.54806,-0.0,-0.0,-22.36953,-8.48099,10.24836,10.90178,2.88925,-18.77196,-16.78661,-4.05706,6e-05,-4.29215,0.21037,-0.00012,29.05706,16.16325,14.14957,1.85403,3.09831,-16.47013,18.64615,17.76459,8.86559,43.43157,-2.01734,41.39978,131.56129,0.00102,-99.31222,124.21532,0.00312,106.90083,-8.62773,-10.27621,0.00485,-15.1373,8.46172,-0.00059,-5.62579,-11.54492,12.78346,-27.53172,-15.42511,7.61259,4.1902,4.95538,9.87117
1902,-7.29669,-0.0,-0.0,-6.86731,0.0,-0.0,-22.17989,-8.29548,10.41169,11.09289,2.96799,-18.94405,-16.66029,-4.09254,-0.00023,-4.42197,0.24833,-1e-05,29.03427,16.13048,13.75573,1.93335,3.06703,-16.28662,18.34672,17.85642,8.95259,43.58159,-2.21888,41.58411,131.47458,-0.00229,-99.28307,124.17395,0.00306,107.56089,-8.23272,-9.89497,0.00123,-16.02357,7.9622,-0.00328,-5.58864,-11.35398,13.02147,-27.4627,-15.33491,7.91091,4.29371,5.05047,9.76329
1903,-7.99136,-0.0,0.0,-7.65707,0.0,-0.0,-21.88867,-8.1665,10.65317,11.40928,3.00172,-19.05369,-16.55345,-4.17626,-0.0001,-4.52802,0.21593,8e-05,28.96238,16.15875,13.34605,1.96611,3.10348,-16.14143,18.12906,17.96299,8.88677,43.74814,-2.36641,41.82721,131.2106,-0.01088,-101.47773,124.17732,0.00211,108.78727,-7.82479,-9.90689,-0.00102,-17.2008,8.0137,-0.00613,-5.75456,-11.20953,13.07444,-27.61111,-15.2202,8.01666,4.36823,5.11354,9.62749
1904,-8.27643,-0.0,0.0,-8.16072,0.0,0.0,-21.67424,-8.07689,10.67905,11.5451,3.0426,-18.83777,-16.42245,-4.19385,0.00023,-4.54118,0.15022,4e-05,28.78169,16.23425,13.28025,1.91842,3.16596,-16.25197,18.05526,18.0303,8.72723,43.90008,-2.3486,42.07172,130.9344,-0.00925,-104.81915,124.31654,0.00122,109.43315,-7.60465,-10.09307,-0.00174,-18.03236,8.42681,-0.00258,-5.94247,-11.22549,12.94503,-27.80749,-15.18774,7.88841,4.35559,5.15186,9.52639
1905,-8.13405,-0.0,0.0,-8.10183,0.0,-0.0,-21.59225,-8.08445,10.47151,11.38621,3.04195,-18.40995,-16.24904,-4.1264,0.00036,-4.44934,0.11382,-0.0,28.5061,16.29787,13.56031,1.79949,3.1833,-16.51543,18.02871,18.0508,8.60923,44.06794,-2.20916,42.3143,130.7634,-0.00035,-107.15421,124.57784,-0.00034,109.72057,-7.8998,-10.03264,-0.00625,-18.24652,9.0458,0.00279,-6.00268,-11.35405,12.68216,-27.89424,-15.21098,7.59089,4.27865,5.17301,9.48575
1906,-7.66464,-0.0,0.0,-7.70342,0.0,-0.0,-21.60178,-8.29122,10.25622,11.0772,3.03396,-18.12341,-16.06952,-4.05145,0.00015,-4.29313,0.10801,-5e-05,28.22202,16.35209,13.89988,1.66353,3.1644,-16.6243,17.96629,18.07194,8.60066,44.27827,-2.07768,42.58539,130.68869,0.00422,-107.17141,124.83717,-0.00195,110.39164,-8.76943,-9.59101,-0.01154,-18.17776,9.81034,0.00368,-5.94685,-11.45473,12.39305,-27.86291,-15.19867,7.27949,4.2206,5.19759,9.52194
1907,-6.88118,-0.0,0.0,-7.25094,-0.0,0.0,-21.65636,-8.64093,10.16777,10.83056,3.1425,-18.14575,-15.93466,-4.02012,-7e-05,-4.12948,0.10489,-8e-05,28.02237,16.43452,14.093,1.55974,3.17118,-16.48204,17.93693,18.12785,8.58805,44.47775,-2.05591,42.79988,130.62508,0.00333,-105.72009,124.98904,-0.00129,111.74094,-9.85592,-9.1252,-0.00693,-18.11279,10.60982,0.00245,-5.85336,-11.43335,12.16576,-27.7781,-15.09568,7.07364,4.2316,5.24175,9.61945
1908,-6.17425,0.0,-0.0,-7.06996,0.0,0.0,-21.68508,-8.91324,10.18634,10.78843,3.35023,-18.37719,-15.84782,-4.01786,-0.0001,-4.01035,0.11615,-5e-05,27.9353,16.52054,14.12788,1.49897,3.21141,-16.24323,18.04277,18.19949,8.41208,44.58156,-2.12879,42.81948,130.49895,-0.00114,-104.80418,125.03191,0.00036,113.22485,-10.76867,-9.0574,0.00198,-18.09468,11.08021,0.00333,-5.74467,-11.31103,11.98083,-27.6658,-14.91451,6.9468,4.28552,5.28541,9.69825
1909,-5.96407,-0.0,-0.0,-7.24686,0.0,0.0,-21.66571,-8.91233,10.2116,10.90778,3.49143,-18.60468,-15.76544,-4.0055,2e-05,-3.95529,0.15832,-2e-05,27.89923,16.54247,14.12335,1.45969,3.23317,-16.07819,18.24964,18.24178,8.12319,44.59272,-2.15362,42.71225,130.30791,-0.00497,-105.26434,125.02621,0.00116,113.82229,-11.3469,-9.33159,0.00431,-18.29601,10.84436,0.00886,-5.60973,-11.19826,11.80067,-27.52795,-14.74393,6.82079,4.32,5.28852,9.66102
1910,-6.02471,0.0,-0.0,-7.41372,0.0,-0.0,-21.67905,-8.66846,10.11931,10.9866,3.49331,-18.63136,-15.65365,-3.95783,0.00016,-3.94113,0.20725,-2e-05,27.82202,16.49194,14.24002,1.42032,3.20417,-16.04264,18.41875,18.23612,7.97789,44.57479,-2.00465,42.72433,130.13342,-0.00389,-106.1466,125.02708,0.00165,113.48978,-11.40964,-9.57941,0.00156,-18.81475,10.15955,0.01214,-5.48173,-11.18791,11.66002,-27.40524,-14.68282,6.69244,4.29915,5.23927,9.50121
1911,-5.91338,-0.0,0.0,-7.31043,0.0,-0.0,-21.76927,-8.4137,9.9169,10.91261,3.44384,-18.42938,-15.52153,-3.91279,0.0001,-3.94049,0.23707,-2e-05,27.70419,16.44607,14.46066,1.41298,3.15087,-16.07392,18.46011,18.21507,8.137,44.53429,-1.74454,42.94788,130.06952,-0.00162,-106.37314,125.06955,0.00182,113.44456,-10.72743,-9.66383,-0.00116,-19.29734,9.80388,0.00672,-5.43227,-11.26865,11.59672,-27.36649,-14.73453,6.60171,4.26034,5.17318,9.33297
1912,-5.57992,-0.0,-0.0,-7.08085,0.0,0.0,-21.88522,-8.33175,9.75371,10.76521,3.44549,-18.1591,-15.398,-3.94532,-8e-05,-3.951,0.25692,-2e-05,27.64047,16.47236,14.56372,1.49755,3.11319,-16.08872,18.38904,18.21435,8.47448,44.4598,-1.58203,43.21674,130.11383,-0.00073,-106.17632,125.18013,0.00184,114.27809,-9.48021,-9.70725,-0.00291,-19.36318,10.06156,0.00056,-5.49759,-11.35552,11.59486,-27.44045,-14.81443,6.5664,4.28014,5.13903,9.27966
1913,-5.21748,0.0,-0.0,-6.917,0.0,-0.0,-21.96204,-8.46069,9.74042,10.65529,3.50899,-17.99412,-15.30691,-4.05682,-0.00012,-3.97331,0.28677,-0.0,27.67778,16.54984,14.42008,1.657,3.09524,-16.07449,18.27617,18.21922,8.74207,44.40882,-1.62814,43.36777,130.16809,-0.00055,-106.449,125.35584,0.0019,115.49812,-8.31837,-9.78028,-0.00273,-19.04262,10.51466,-0.00268,-5.64664,-11.382,11.61601,-27.5912,-14.84674,6.57606,4.37921,5.15392,9.34701
1914,-4.99314,-0.0,-0.0,-6.94011,0.0,-0.0,-21.94281,-8.74321,9.88182,10.62024,3.5614,-17.99627,-15.26756,-4.17671,0.0,-3.98517,0.3292,6e-05,27.7775,16.62564,14.11225,1.80389,3.09418,-16.05191,18.19115,18.20971,8.84177,44.43264,-1.76418,43.45415,130.16875,-0.00089,-107.23848,125.54099,0.00046,117.20204,-7.79566,-9.88832,-0.00078,-18.40589,10.95746,0.00236,-5.81719,-11.35981,11.61782,-27.75947,-14.82682,6.58635,4.51445,5.20529,9.41479
1915,-5.04629,-0.0,-0.0,-7.23883,-0.0,0.0,-21.79307,-9.03359,10.09897,10.65212,3.55145,-18.10853,-15.27707,-4.26694,7e-05,-3.95535,0.36326,0.0001,27.89096,16.69611,13.80071,1.88448,3.13459,-16.03627,18.15438,18.22035,8.85052,44.49725,-1.81806,43.63478,130.16556,-0.00128,-107.67188,125.68162,-0.00148,119.87331,-8.01685,-10.09326,0.00251,-17.34719,11.64863,0.01555,-5.94423,-11.34971,11.58627,-27.88689,-14.8059,6.56057,4.64427,5.27134,9.36845
1916,-5.35187,0.0,0.0,-7.61472,0.0,-0.0,-21.58558,-9.21533,10.23046,10.69223,3.55699,-18.18779,-15.28441,-4.32124,6e-05,-3.87473,0.34796,1e-05,27.95664,16.77264,13.67385,1.89093,3.22324,-16.06366,18.13042,18.28992,8.83723,44.54576,-1.79452,43.9381,130.2243,-0.00221,-107.18156,125.78489,-0.00177,122.52291,-8.75094,-10.40841,0.00502,-16.18994,12.57138,0.01953,-5.97812,-11.36481,11.58212,-27.92246,-14.81838,6.55082,4.73324,5.31579,9.24666
1917,-5.54084,0.0,0.0,-7.61,0.0,0.0,-21.47964,-9.30066,10.12938,10.64117,3.69759,-18.11007,-15.23573,-4.30711,0.00013,-3.75839,0.2575,-0.00015,27.89507,16.82971,13.87991,1.80795,3.31974,-16.16477,18.09449,18.3985,8.80302,44.55832,-1.83153,44.22697,130.30365,-0.00226,-106.10926,125.8764,3e-05,123.10427,-9.5734,-10.6853,0.00401,-15.82711,13.14322,0.01626,-5.9271,-11.35062,11.68786,-27.8654,-14.84395,6.65579,4.73365,5.30969,9.1849
1918,-5.22525,0.0,-0.0,-7.08472,0.0,-0.0,-21.5397,-9.33126,9.81721,10.47955,3.94997,-17.91246,-15.15425,-4.20329,0.00018,-3.63065,0.12302,-0.00019,27.7026,16.84154,14.34371,1.63116,3.38824,-16.29611,18.08524,18.50343,8.76076,44.531,-1.98841,44.38506,130.28986,-0.00143,-105.17804,125.95322,0.00178,120.85619,-10.08692,-10.74165,0.00116,-16.68252,12.88208,0.0228,-5.85502,-11.28493,11.88102,-27.77814,-14.85376,6.86294,4.62825,5.27524,9.21696
1919,-4.57513,-0.0,-0.0,-6.52042,-0.0,0.0,-21.64323,-9.33789,9.5098,10.32778,4.16903,-17.79709,-15.11379,-4.06716,0.0001,-3.52309,0.01659,-5e-05,27.48862,16.82714,14.75473,1.42403,3.43029,-16.33732,18.17333,18.57439,8.70439,44.45264,-2.19344,44.44448,130.10437,-0.00023,-104.68507,126.01571,0.0027,116.90611,-10.34944,-10.48612,-0.00392,-18.02131,11.9774,0.01914,-5.79258,-11.22983,12.00943,-27.70432,-14.84965,7.00509,4.47152,5.26708,9.24629
1920,-4.2321,-0.0,0.0,-6.49019,0.0,-0.0,-21.64128,-9.32309,9.43638,10.28853,4.22328,-17.90693,-15.12748,-4.00876,-0.0,-3.45794,-0.00607,9e-05,27.37464,16.82353,14.84372,1.29131,3.45914,-16.21905,18.38738,18.56605,8.56066,44.2971,-2.37724,44.49298,129.75995,0.00309,-104.21089,126.07258,0.0024,112.84607,-10.8002,-9.91672,-0.01162,-18.71926,10.94747,-0.00273,-5.68241,-11.24009,11.9357,-27.59858,-14.83218,6.93172,4.35032,5.31506,9.19388
1921,-4.64302,-0.0,0.0,-7.09982,0.0,-0.0,-21.5073,-9.2365,9.6723,10.34219,4.05342,-18.17453,-15.12879,-4.09614,-0.00017,-3.43658,0.0484,0.00011,27.38586,16.8437,14.60137,1.28476,3.48582,-16.005,18.65126,18.42894,8.31935,44.04483,-2.5427,44.55136,129.38957,0.00505,-103.34411,126.09707,0.00041,109.85028,-11.47007,-9.25472,-0.01291,-18.49871,10.01915,-0.01708,-5.4774,-11.2792,11.67345,-27.40928,-14.77243,6.66983,4.30548,5.41127,9.08479
1922,-5.62782,0.0,0.0,-8.01657,0.0,-0.0,-21.29625,-9.10371,10.13803,10.44331,3.74418,-18.42867,-15.07186,-4.29103,-0.00031,-3.46519,0.11539,7e-05,27.43743,16.88097,14.2203,1.35621,3.51485,-15.80551,18.79902,18.18247,8.1197,43.72596,-2.69489,44.60846,129.17723,0.00288,-102.54688,126.04958,-0.00061,108.49249,-11.83244,-8.94128,-0.00783,-18.22791,9.05906,-0.00642,-5.25056,-11.2874,11.36329,-27.19667,-14.66638,6.37494,4.3062,5.53055,8.99721
1923,-6.4161,0.0,0.0,-8.58857,0.0,0.0,-21.13302,-8.98894,10.5936,10.52751,3.51469,-18.50125,-14.98726,-4.46463,-0.00018,-3.54343,0.14829,5e-05,27.42078,16.91609,13.96261,1.40579,3.51726,-15.72331,18.69502,17.94521,8.1119,43.39629,-2.81116,44.69792,129.18156,0.00156,-102.55226,125.93936,-1e-05,108.53169,-11.64487,-9.13786,-0.00474,-18.96643,7.96493,0.01872,-5.12206,-11.26921,11.17001,-27.07447,-14.57866,6.20028,4.30452,5.63201,8.96829
1924,-6.30911,0.0,-0.0,-8.27341,0.0,-0.0,-21.16167,-8.83118,10.75739,10.49114,3.49398,-18.35567,-14.93038,-4.50015,2e-05,-3.61566,0.17486,6e-05,27.33035,16.91029,13.99367,1.38392,3.45072,-15.80524,18.35889,17.85866,8.30396,43.09668,-2.90349,44.85723,129.29468,0.00109,-103.11948,125.80508,0.00077,109.33236,-11.23454,-9.48468,-0.00149,-20.82551,6.95454,0.02556,-5.12982,-11.24688,11.16595,-27.08023,-14.55647,6.20509,4.30532,5.66437,8.96712
1925,-5.46296,-0.0,0.0,-7.29407,0.0,-0.0,-21.34546,-8.54953,10.57662,10.31182,3.56879,-18.17103,-14.92551,-4.39762,5e-05,-3.5972,0.23234,0.00012,27.27224,16.83427,14.23929,1.32888,3.33429,-15.97678,17.97301,17.9682,8.56789,42.87696,-3.01408,45.04348,129.3885,1e-05,-103.28642,125.65359,0.00153,110.47267,-10.96708,-9.63478,0.00171,-22.90943,6.35269,0.00794,-5.20994,-11.19451,11.26934,-27.15097,-14.54579,6.32249,4.34793,5.60504,8.94138
1926,-4.57392,0.0,-0.0,-6.32109,0.0,-0.0,-21.49197,-8.19964,10.20707,10.06941,3.55407,-18.09992,-14.95729,-4.25541,5e-05,-3.47028,0.29257,9e-05,27.29786,16.71623,14.5349,1.28396,3.24248,-16.14468,17.73726,18.17933,8.75967,42.77956,-3.12597,45.15124,129.41794,-0.00039,-102.69228,125.47484,0.00124,111.58667,-11.03444,-9.65598,0.00299,-24.26527,6.18452,-0.00741,-5.239,-11.08079,11.38021,-27.16433,-14.48094,6.4706,4.41558,5.48333,8.86726
1927,-4.03966,-0.0,0.0,-5.77349,0.0,0.0,-21.49855,-7.95764,9.83348,9.8755,3.42765,-18.11567,-14.98117,-4.1758,7e-05,-3.32002,0.31547,-3e-05,27.32026,16.6341,14.79665,1.24593,3.21105,-16.24752,17.69687,18.32923,8.82506,42.76281,-3.15263,45.12426,129.39313,-0.00036,-101.91956,125.29885,-0.00036,112.18136,-11.5587,-9.68865,0.00168,-24.67421,6.31311,-0.00956,-5.12369,-10.92688,11.52442,-27.02795,-14.39099,6.66553,4.43929,5.35525,8.7695
1928,-3.98847,0.0,-0.0,-6.00265,0.0,0.0,-21.37914,-7.99227,9.7073,9.89557,3.30154,-18.24413,-14.9556,-4.22501,-6e-05,-3.25958,0.32093,-0.0001,27.28294,16.64259,14.8648,1.24264,3.20932,-16.15742,17.76399,18.31823,8.78998,42.72668,-3.04365,45.02549,129.32454,3e-05,-101.47009,125.17263,-0.00106,112.13337,-12.45239,-9.62236,-0.00275,-24.468,6.8438,-0.00281,-4.91812,-10.77247,11.73999,-26.79793,-14.32665,6.92775,4.41862,5.26856,8.70092
1929,-4.48112,0.0,-0.0,-7.25858,0.0,-0.0,-21.17593,-8.27314,10.01864,10.24674,3.26162,-18.57182,-14.87678,-4.40597,-0.00024,-3.33487,0.34462,-0.00012,27.25555,16.71255,14.53089,1.33639,3.19801,-15.81391,17.87339,18.19172,8.69692,42.62349,-2.86689,44.98218,129.21864,0.0013,-101.01155,125.09428,-0.00026,111.97385,-13.30546,-9.3815,-0.00529,-23.89481,7.89709,0.00698,-4.78941,-10.6358,11.96727,-26.64561,-14.283,7.19416,4.4225,5.24481,8.69609
1930,-5.22563,0.0,-0.0,-8.98788,-0.0,0.0,-20.9764,-8.5947,10.576,10.77779,3.31432,-18.97077,-14.77097,-4.61498,-0.00017,-3.499,0.37812,-9e-05,27.26033,16.76328,13.92057,1.48459,3.16282,-15.40887,17.98385,18.08358,8.597,42.45654,-2.77021,45.0635,129.11029,0.00182,-100.03666,125.0272,0.00067,112.23746,-13.69282,-9.15526,-0.00375,-22.88314,9.10129,0.00821,-4.81427,-10.5503,12.16743,-26.65269,-14.27685,7.41543,4.44194,5.28186,8.75082
1931,-5.67937,0.0,0.0,-10.01908,0.0,-0.0,-20.88554,-8.79395,10.91927,11.11459,3.39519,-19.13253,-14.67144,-4.70421,8e-05,-3.64944,0.39794,-1e-05,27.20722,16.75645,13.48544,1.54952,3.11014,-15.22569,17.99305,18.07327,8.55785,42.20756,-2.85472,45.22057,129.06488,3e-05,-98.69223,124.94917,0.00056,112.67262,-13.57227,-9.04473,-0.00088,-21.30296,9.78059,-0.00743,-4.88275,-10.56495,12.37025,-26.71246,-14.36461,7.60084,4.3922,5.36523,8.83397
1932,-5.51742,0.0,0.0,-9.61917,-0.0,-0.0,-20.9447,-8.81288,10.76596,10.97506,3.41558,-18.85441,-14.61292,-4.61531,0.00014,-3.69479,0.40733,4e-05,27.06695,16.72413,13.54157,1.48388,3.05588,-15.3953,17.83497,18.11003,8.6323,41.8789,-3.06666,45.36649,129.12364,-0.00169,-97.52594,124.8484,0.0,112.69505,-13.17529,-8.87038,0.00281,-19.36678,9.75167,-0.01984,-4.83604,-10.66268,12.52963,-26.66703,-14.51358,7.71347,4.26195,5.46363,8.91325
1933,-4.91561,-0.0,0.0,-8.23094,0.0,-0.0,-21.07121,-8.72601,10.297,10.4634,3.36316,-18.28174,-14.62052,-4.43115,2e-05,-3.61892,0.42464,8e-05,26.94546,16.7172,13.94636,1.38825,3.01672,-15.77379,17.61459,18.07877,8.81443,41.53993,-3.24221,45.47702,129.25099,-0.00113,-97.04337,124.7152,0.00044,112.48021,-12.59168,-8.6205,0.00336,-17.61022,9.55648,-0.01081,-4.65132,-10.76126,12.49116,-26.49378,-14.59103,7.63933,4.14285,5.54202,8.97886
1934,-4.4233,0.0,0.0,-7.12917,0.0,0.0,-21.11021,-8.74065,9.99393,10.01487,3.32505,-17.82029,-14.68361,-4.2946,3e-05,-3.48282,0.45116,7e-05,26.95467,16.7516,14.24932,1.36996,3.00634,-16.05694,17.5178,17.93629,9.01114,41.20687,-3.28374,45.53698,129.35768,-0.00031,-97.52974,124.56445,0.00095,112.63181,-11.76451,-8.67104,-0.00354,-16.4146,9.66296,0.00169,-4.48177,-10.82574,12.18139,-26.34584,-14.53761,7.32273,4.12674,5.58908,9.03708
1935,-4.20551,0.0,-0.0,-6.98493,0.0,0.0,-21.08054,-8.93735,10.0284,9.92854,3.38929,-17.61121,-14.74736,-4.25495,0.00014,-3.35779,0.46724,1e-05,27.05473,16.78117,14.27333,1.39105,3.01252,-16.20365,17.61937,17.77002,9.08195,40.74602,-3.22518,45.45524,129.39571,-0.0007,-98.6851,124.42532,0.00012,113.16851,-10.80734,-9.27999,-0.01043,-15.78165,9.88916,0.00456,-4.5192,-10.86924,11.74782,-26.4079,-14.41931,6.89787,4.20532,5.5846,9.09337
1936,-3.81555,0.0,-0.0,-7.3649,0.0,0.0,-21.19422,-9.10315,10.07111,10.12143,3.54806,-17.40678,-14.76295,-4.24781,0.00017,-3.27817,0.46288,-3e-05,27.10186,16.75392,14.2816,1.33121,3.00075,-16.47083,17.82932,17.70492,8.96019,40.04731,-3.12659,45.16166,129.40436,-0.00092,-99.74158,124.28771,-0.00025,113.74746,-10.07401,-10.18672,-0.00701,-15.55479,9.84551,0.00444,-4.79933,-10.83578,11.45669,-26.69789,-14.28165,6.63691,4.29414,5.48986,9.14884
1937,-3.14378,-0.0,-0.0,-7.8636,0.0,0.0,-21.48509,-9.02974,9.88008,10.40126,3.71161,-17.10725,-14.74921,-4.22072,0.00012,-3.25788,0.45317,-4e-05,27.05555,16.69287,14.43483,1.19175,2.96643,-16.88008,18.00165,17.76688,8.73322,39.25827,-3.02382,44.75668,129.42459,-0.00063,-100.12419,124.10342,0.00182,114.36967,-9.93084,-10.90555,0.00029,-15.53657,9.54801,0.00588,-5.15184,-10.64912,11.51151,-27.03036,-14.12852,6.76025,4.35131,5.33115,9.20177
1938,-2.77041,0.0,-0.0,-8.554,0.0,-0.0,-21.69652,-8.824,9.60711,10.67175,3.78685,-16.89516,-14.76904,-4.16744,2e-05,-3.29607,0.45439,-3e-05,27.00937,16.6543,14.56189,1.09391,2.93911,-17.15392,18.06178,17.86625,8.57159,38.68227,-2.9797,44.46683,129.42239,0.0008,-99.60643,123.85851,0.00398,115.17252,-10.41716,-11.21481,0.00146,-15.51669,9.37565,0.00699,-5.3696,-10.39007,11.93982,-27.20403,-14.04486,7.26263,4.40083,5.21465,9.23834
1939,-3.1836,0.0,-0.0,-9.48561,0.0,0.0,-21.61042,-8.76326,9.48805,10.89279,3.72713,-16.87728,-14.85141,-4.09835,-3e-05,-3.34806,0.46446,-1e-05,27.05951,16.64465,14.45675,1.10719,2.94303,-17.1912,18.02875,17.9027,8.56851,38.47385,-3.06079,44.43853,129.35211,0.00282,-98.28227,123.59261,0.00183,115.69894,-11.07621,-11.26301,-0.00104,-15.52641,9.5635,0.00454,-5.4058,-10.25776,12.53182,-27.19825,-14.13845,7.87082,4.47289,5.21345,9.22336
1940,-4.22126,-0.0,-0.0,-10.44134,-0.0,-0.0,-21.2826,-8.97081,9.55615,11.0287,3.563,-16.96711,-14.96417,-4.03311,0.0,-3.34374,0.47545,1e-05,27.21235,16.6338,14.14696,1.18794,2.97727,-17.17826,17.96178,17.85925,8.66098,38.56935,-3.26078,44.60464,129.23262,0.00234,-96.88626,123.33073,-0.00279,115.25931,-11.30036,-11.32546,-0.00349,-15.74393,10.01729,-0.00111,-5.37749,-10.34543,12.93281,-27.15686,-14.36628,8.21522,4.56505,5.29454,9.14824
1941,-5.20179,0.0,-0.0,-10.88117,0.0,0.0,-20.97607,-9.2854,9.61004,10.98447,3.40865,-16.96045,-15.05106,-3.97198,3e-05,-3.26146,0.48563,3e-05,27.36864,16.62115,13.92788,1.25012,3.01942,-17.31334,17.922,17.81165,8.71585,38.83496,-3.51552,44.76132,129.11105,0.00013,-96.28311,123.05299,-0.00396,114.12905,-10.94246,-11.49268,-0.00445,-15.98612,10.54696,-0.00371,-5.41352,-10.55183,12.90138,-27.21435,-14.54646,8.10646,4.62828,5.38301,9.08811
1942,-5.51213,0.0,0.0,-10.42168,0.0,-0.0,-20.90056,-9.42146,9.50953,10.68481,3.35275,-16.70602,-15.07194,-3.92923,-1e-05,-3.15505,0.48834,1e-05,27.42592,16.65171,14.01705,1.27414,3.05148,-17.57747,17.93744,17.85868,8.6865,39.16082,-3.76817,44.7821,129.01103,-0.00058,-96.33634,122.76904,-0.0006,113.37762,-10.4304,-11.60002,-0.00249,-15.77175,11.00495,-0.00131,-5.52478,-10.69212,12.49146,-27.36055,-14.52696,7.6662,4.62303,5.45037,9.14327
1943,-5.13503,-0.0,-0.0,-9.45753,0.0,-0.0,-21.01006,-9.30807,9.43311,10.23748,3.34827,-16.32797,-15.02364,-3.96889,-0.00014,-3.0771,0.4707,-1e-05,27.39266,16.75773,14.26179,1.32102,3.07461,-17.75175,17.96866,18.01348,8.66637,39.4755,-3.97176,44.73615,128.94746,-8e-05,-96.30499,122.56414,0.00187,113.50219,-10.18269,-11.52931,-0.0006,-14.93119,11.36955,0.00269,-5.60839,-10.65785,12.00588,-27.46484,-14.31759,7.22203,4.58372,5.50602,9.31339
1944,-4.51093,0.0,-0.0,-8.71124,0.0,-0.0,-21.11729,-9.17294,9.56546,9.85724,3.3182,-16.12086,-14.95123,-4.10184,-0.0002,-3.007,0.44272,1e-05,27.35012,16.90564,14.41877,1.41011,3.09247,-17.68914,17.96765,18.17661,8.75832,39.74514,-4.05345,44.76142,128.92958,-1e-05,-96.15663,122.49561,0.00141,113.95156,-10.14111,-11.45589,-0.00052,-13.90314,11.73371,0.00416,-5.58661,-10.50651,11.76941,-27.43998,-14.09059,7.0576,4.57301,5.54699,9.48842
1945,-4.03047,0.0,0.0,-8.3718,0.0,0.0,-21.14482,-9.20464,9.70296,9.65851,3.33723,-16.17952,-14.92232,-4.2119,-0.00018,-2.90298,0.4401,8e-05,27.33882,17.01889,14.52415,1.46256,3.09252,-17.50746,17.96193,18.2452,8.92395,39.96626,-3.96038,44.87473,128.93126,-0.00073,-96.55785,122.4959,0.00013,113.94428,-10.00415,-11.63367,-0.00194,-13.42919,12.07874,0.0018,-5.52034,-10.41559,11.87926,-27.36005,-14.0464,7.19585,4.60048,5.55391,9.58567
1946,-3.80986,0.0,-0.0,-8.09981,0.0,0.0,-21.1691,-9.31347,9.4997,9.60163,3.55608,-16.31167,-14.95939,-4.1779,-0.00028,-2.78574,0.47382,0.0001,27.32578,17.04855,14.76434,1.41034,3.05794,-17.42019,17.99524,18.22088,9.05175,40.16663,-3.76722,44.97044,128.91412,-0.00177,-97.76949,122.45849,-0.00142,113.33939,-9.65683,-12.00978,-0.00229,-13.82723,12.26084,0.00073,-5.53315,-10.51476,12.1523,-27.36895,-14.23833,7.41483,4.61877,5.5208,9.63192
1947,-3.81419,0.0,-0.0,-7.782,0.0,-0.0,-21.25153,-9.35341,9.05555,9.61772,3.92298,-16.36463,-15.00525,-4.03399,-0.00031,-2.71409,0.51694,3e-05,27.27323,17.00403,15.08197,1.29602,2.99177,-17.42891,18.04595,18.18713,9.13465,40.37936,-3.63684,44.9573,128.87967,-0.00157,-99.06847,122.35153,-0.00172,112.69477,-9.2409,-12.22765,-0.00017,-14.54117,12.23526,0.00064,-5.66423,-10.73988,12.33244,-27.5126,-14.51316,7.49802,4.594,5.46278,9.67831
1948,-3.94499,0.0,0.0,-7.80112,0.0,-0.0,-21.34358,-9.3576,8.88873,9.69559,4.1358,-16.41282,-14.99465,-3.92886,-0.00024,-2.69961,0.5512,-3e-05,27.20701,16.92452,15.1698,1.21569,2.92143,-17.36214,18.09084,18.20183,9.25149,40.59638,-3.62736,44.85031,128.84634,7e-05,-99.39559,122.19872,8e-05,112.66894,-8.98768,-12.00268,-0.00035,-14.73028,12.12888,-0.00091,-5.83959,-10.90012,12.35321,-27.70246,-14.66948,7.45594,4.55597,5.40101,9.69847
1949,-3.98676,0.0,0.0,-8.33763,0.0,0.0,-21.38254,-9.41803,9.22173,9.80246,3.98034,-16.52637,-14.95061,-3.93337,-0.00019,-2.6912,0.57876,-2e-05,27.18834,16.85301,14.90655,1.19406,2.89269,-17.20683,18.15812,18.24612,9.40589,40.78303,-3.64947,44.7432,128.79518,0.00189,-98.42533,122.03371,0.00236,113.53632,-9.06107,-11.34238,-0.0047,-14.23833,12.19817,-0.00049,-5.94336,-10.90639,12.35881,-27.80656,-14.67734,7.45881,4.54611,5.36711,9.62724
1950,-3.76364,-0.0,0.0,-9.02274,0.0,0.0,-21.36528,-9.54239,9.72896,9.85806,3.62597,-16.60725,-14.93793,-3.99142,-8e-05,-2.65398,0.5916,1e-05,27.23284,16.82384,14.51456,1.19063,2.93188,-17.13032,18.25066,18.28284,9.50662,40.94329,-3.64808,44.70496,128.70503,0.0016,-97.06473,121.90393,0.00274,115.12535,-9.40615,-10.52504,-0.0064,-13.63195,12.64811,-0.00044,-5.90663,-10.84213,12.45576,-27.75873,-14.65315,7.57488,4.55553,5.39323,9.48017
1951,-3.36241,0.0,0.0,-9.44594,0.0,0.0,-21.324,-9.66959,10.041,9.81979,3.44471,-16.52437,-14.9496,-4.04979,-5e-05,-2.62296,0.56681,6e-05,27.3,16.8514,14.23699,1.21703,3.00579,-17.19443,18.29031,18.32483,9.51062,41.16869,-3.69049,44.731,128.62366,0.00014,-96.85712,121.86201,0.00126,116.72486,-9.78885,-9.98689,-0.00231,-13.41257,13.29012,-0.00317,-5.75219,-10.8043,12.56022,-27.59532,-14.65621,7.68786,4.5603,5.47089,9.36875
1952,-3.01585,0.0,-0.0,-9.48533,0.0,-0.0,-21.29005,-9.72457,10.08356,9.69125,3.58762,-16.27178,-14.93276,-4.10893,-8e-05,-2.6395,0.50103,0.00011,27.34549,16.92835,14.14241,1.32873,3.05302,-17.28038,18.20991,18.4176,9.49754,41.57349,-3.82301,44.78896,128.63553,0.00209,-98.44698,121.91618,0.0006,117.49056,-10.08101,-9.99678,0.00204,-13.55719,13.70144,-0.00376,-5.5648,-10.79853,12.53541,-27.40864,-14.6418,7.6667,4.55859,5.54842,9.38849
1953,-2.87117,0.0,-0.0,-9.19465,0.0,-0.0,-21.27781,-9.69311,9.93948,9.50305,3.87952,-15.97908,-14.88538,-4.15449,-8e-05,-2.67728,0.43364,8e-05,27.33239,17.02936,14.25922,1.48581,3.04566,-17.2718,18.07819,18.5543,9.55438,42.11041,-3.96909,44.83249,128.75877,0.00417,-100.95694,121.99498,0.00038,117.31908,-10.28599,-10.41736,0.00285,-13.82749,13.78377,-0.00282,-5.44044,-10.7992,12.35097,-27.29362,-14.57499,7.49267,4.53401,5.57774,9.54642
1954,-2.88567,0.0,-0.0,-8.64382,0.0,-0.0,-21.30715,-9.60545,9.6704,9.30326,4.06923,-15.75737,-14.84334,-4.14442,-4e-05,-2.67995,0.41207,4e-05,27.22121,17.11759,14.63942,1.54831,2.99947,-17.19335,18.04615,18.65672,9.65244,42.54889,-4.03414,44.7834,128.9176,0.00208,-103.2047,122.00665,-0.0005,116.69575,-10.33135,-10.93987,0.0007,-14.07416,13.67856,-0.00285,-5.45297,-10.80066,12.08218,-27.31941,-14.47804,7.23896,4.45158,5.54689,9.77851
1955,-2.96022,0.0,0.0,-8.01326,0.0,0.0,-21.37793,-9.47331,9.37123,9.14085,4.04114,-15.62345,-14.81531,-4.08686,-5e-05,-2.64031,0.44757,2e-05,27.03508,17.1533,15.1395,1.46582,2.93081,-17.11445,18.15963,18.69111,9.72381,42.76258,-4.02129,44.62377,129.02467,-0.00081,-104.82045,121.95154,-0.00061,115.9422,-10.13896,-11.41246,-0.00131,-14.17216,13.45049,-0.00397,-5.60785,-10.78647,11.846,-27.4841,-14.37845,7.02211,4.33437,5.46924,9.97347
1956,-3.22282,0.0,-0.0,-7.76022,0.0,0.0,-21.38154,-9.35499,9.2433,9.08538,3.84997,-15.61872,-14.79628,-4.06186,-7e-05,-2.61195,0.51764,-5e-05,26.90367,17.12245,15.35364,1.37267,2.84397,-16.99739,18.32308,18.74012,9.78765,42.92091,-4.01265,44.48159,129.05792,-0.0013,-105.92846,121.9231,0.00066,115.15163,-9.79431,-11.7968,-0.00092,-14.14772,13.33076,-0.00513,-5.82622,-10.72887,11.72855,-27.70242,-14.282,6.93375,4.27301,5.37417,10.0229
1957,-3.84898,-0.0,-0.0,-8.19419,-0.0,0.0,-21.18465,-9.36423,9.36822,9.17305,3.66814,-15.78927,-14.80666,-4.10891,-4e-05,-2.64537,0.57908,-8e-05,26.9303,17.06905,15.07492,1.40833,2.77561,-16.79812,18.44337,18.88787,9.89587,43.23095,-4.07783,44.49103,129.04832,-0.00021,-106.52405,121.98656,0.00139,114.52391,-9.4993,-11.9854,0.00072,-14.3125,13.62744,-0.0059,-6.01642,-10.64123,11.72358,-27.88455,-14.19885,6.96275,4.30542,5.31738,9.91751
1958,-4.63666,0.0,-0.0,-9.00117,0.0,-0.0,-20.81415,-9.55658,9.55178,9.33413,3.65211,-16.04968,-14.86723,-4.16251,-2e-05,-2.72747,0.58296,-1e-05,27.05716,17.0633,14.60223,1.53893,2.78434,-16.59055,18.48063,19.08773,10.03509,43.62803,-4.20109,44.61427,129.05484,-0.00032,-106.46745,122.11311,1e-05,114.46335,-9.49091,-11.86621,-3e-05,-14.94481,14.08834,-0.00126,-6.1291,-10.57858,11.75471,-27.98991,-14.1521,7.0161,4.35679,5.35002,9.76611
1959,-5.18199,0.0,-0.0,-9.64438,0.0,0.0,-20.43031,-9.92134,9.60266,9.46508,3.80114,-16.22269,-14.96159,-4.15487,-6e-05,-2.80775,0.5168,5e-05,27.1494,17.14126,14.34208,1.64527,2.87357,-16.44943,18.37813,19.22215,10.17249,43.92773,-4.30084,44.71353,129.16315,-0.00308,-105.74529,122.23815,-0.00206,115.27873,-9.93141,-11.48801,-0.00304,-15.89956,14.05853,0.00872,-6.13232,-10.57923,11.76211,-27.99284,-14.15541,7.02282,4.33706,5.46489,9.69223
1960,-5.27602,-0.0,-0.0,-9.87053,0.0,0.0,-20.1903,-10.37353,9.53366,9.49809,3.96712,-16.15662,-15.04766,-4.09534,-6e-05,-2.85849,0.42912,2e-05,27.15062,17.28453,14.40323,1.68028,2.98474,-16.39147,18.11029,19.26783,10.3035,44.12595,-4.30585,44.72647,129.39589,-0.00458,-104.702,122.33576,-0.00231,116.61015,-10.67911,-11.01688,-0.00337,-16.60064,13.29765,0.00685,-6.02213,-10.63409,11.73962,-27.88885,-14.1981,6.98059,4.24594,5.60289,9.72964
1961,-4.97107,0.0,0.0,-9.75342,-0.0,-0.0,-20.16637,-10.74157,9.45837,9.42759,4.02524,-15.87678,-15.08903,-4.03005,-1e-05,-2.87745,0.39196,-0.0,27.11571,17.43238,14.627,1.68224,3.06161,-16.41319,17.80409,19.31689,10.406,44.33104,-4.20081,44.69755,129.61905,-0.00166,-103.8456,122.42735,0.00106,117.1813,-11.29734,-10.56119,0.00021,-16.63401,12.07977,-0.0037,-5.86548,-10.70628,11.69904,-27.74088,-14.25023,6.91467,4.17411,5.69912,9.80939
1962,-4.54936,0.0,-0.0,-9.63498,0.0,-0.0,-20.28748,-10.91453,9.50966,9.34513,3.99715,-15.65248,-15.08079,-4.00712,2e-05,-2.86648,0.43528,3e-05,27.13816,17.52894,14.74387,1.71525,3.09043,-16.42348,17.67058,19.42613,10.45888,44.56479,-4.0308,44.69831,129.67078,0.00192,-103.32055,122.54395,0.00666,115.88752,-11.41249,-10.17775,0.00323,-16.37755,10.78438,-0.00186,-5.74238,-10.77424,11.65104,-27.62641,-14.29573,6.84338,4.20921,5.72189,9.84042
1963,-4.3506,0.0,0.0,-9.79758,0.0,0.0,-20.40779,-10.92056,9.73939,9.34828,3.96014,-15.7061,-15.05877,-4.0663,5e-05,-2.83675,0.52711,6e-05,27.24569,17.57644,14.58838,1.80667,3.08697,-16.29677,17.81431,19.53601,10.48837,44.80189,-3.88602,44.741,129.55145,0.00243,-103.1228,122.68559,0.0079,113.61479,-10.97417,-10.03658,0.00058,-16.53123,9.89764,0.00461,-5.67323,-10.85581,11.61801,-27.56653,-14.35931,6.78092,4.33176,5.68641,9.8184
1964,-4.41684,-0.0,0.0,-10.09418,0.0,0.0,-20.48195,-10.82567,9.98805,9.43053,3.90782,-15.93069,-15.0686,-4.1891,0.00013,-2.81386,0.62551,3e-05,27.3659,17.59755,14.28879,1.90273,3.05289,-16.09865,18.17435,19.56445,10.50146,45.02977,-3.84099,44.7461,129.38269,0.00025,-103.59207,122.81926,0.00299,112.87078,-10.22772,-10.31495,-0.0048,-17.13707,9.95648,0.0009,-5.67594,-10.97077,11.63061,-27.57969,-14.4706,6.7485,4.4356,5.6218,9.81231
1965,-4.429,0.0,0.0,-10.20705,-0.0,0.0,-20.5944,-10.64893,9.99207,9.54715,3.78777,-16.0807,-15.12176,-4.27841,9e-05,-2.82162,0.72287,-4e-05,27.42742,17.5639,14.1416,1.92015,2.96969,-16.06866,18.60642,19.50038,10.46159,45.14161,-3.85609,44.61811,129.2491,-0.00138,-104.81252,122.93283,-0.00249,114.94502,-9.552,-10.89005,-0.00461,-17.69859,10.93903,-0.00088,-5.8169,-11.10285,11.73223,-27.72887,-14.63035,6.79319,4.46706,5.53921,9.8089
1966,-4.13156,0.0,-0.0,-10.14976,-0.0,-0.0,-20.7902,-10.41196,9.69166,9.70617,3.60383,-16.11745,-15.19823,-4.25435,-5e-05,-2.86667,0.8187,-7e-05,27.45857,17.4451,14.28188,1.86169,2.85038,-16.27491,18.97178,19.38594,10.3914,44.97316,-3.79021,44.36028,129.16733,-0.00165,-105.91178,123.05243,-0.00509,118.51848,-9.21358,-11.41172,-0.0004,-17.96063,12.06573,0.00276,-6.11961,-11.22554,11.96159,-28.03315,-14.82816,6.96171,4.49022,5.45086,9.6914
1967,-3.65011,0.0,-0.0,-10.08978,-0.0,-0.0,-20.97877,-10.22138,9.30217,9.88336,3.40801,-16.1475,-15.28724,-4.14624,-0.00015,-2.9325,0.88563,-4e-05,27.52092,17.30057,14.59371,1.81207,2.74841,-16.51324,19.19256,19.2654,10.37654,44.58804,-3.57548,44.08549,129.13922,-0.00195,-105.80206,123.15846,-0.00432,121.18722,-9.17911,-11.64357,0.00144,-17.99894,12.508,0.00387,-6.47682,-11.31994,12.26995,-28.38523,-15.02859,7.21562,4.57298,5.38067,9.44124
1968,-3.26819,0.0,-0.0,-9.88867,-0.0,0.0,-21.05157,-10.18594,9.02806,9.95,3.26583,-16.13358,-15.39946,-4.04557,-0.00013,-2.9838,0.89322,1e-05,27.59237,17.23526,14.90914,1.80315,2.7014,-16.64683,19.28088,19.17793,10.44355,44.34023,-3.32954,43.92711,129.1299,-0.00131,-104.45025,123.16678,-0.00492,121.53786,-9.25178,-11.53513,0.00043,-17.88394,12.04033,0.00121,-6.73011,-11.35712,12.51363,-28.6304,-15.15221,7.43084,4.66281,5.34732,9.20057
1969,-3.16415,-0.0,-0.0,-9.42269,0.0,0.0,-20.98348,-10.27637,8.91494,9.84023,3.27665,-15.98542,-15.5389,-4.02355,2e-05,-2.99577,0.84151,1e-05,27.61134,17.29342,15.11849,1.78922,2.70981,-16.73199,19.2918,19.16364,10.54547,44.51169,-3.24833,43.95672,129.05962,0.0006,-102.93192,123.08801,-0.00563,120.08071,-9.32676,-11.14952,-0.00144,-17.64075,11.0942,-0.00124,-6.8154,-11.33125,12.59436,-28.70906,-15.15773,7.51693,4.66005,5.37074,9.08744
1970,-3.39435,0.0,-0.0,-8.98677,-0.0,0.0,-20.8166,-10.36624,8.95761,9.66611,3.52137,-15.79529,-15.68786,-4.09804,8e-05,-2.98541,0.7538,1e-05,27.59452,17.43255,15.18632,1.77463,2.74544,-16.79142,19.23679,19.21656,10.64127,45.01078,-3.41163,44.14194,128.93263,0.00157,-102.42626,123.09428,-0.00406,118.62425,-9.35348,-10.75268,-0.00304,-17.37751,10.37064,-0.00106,-6.77161,-11.30979,12.54979,-28.66533,-15.12152,7.48322,4.58042,5.45412,9.10819
1971,-3.81152,0.0,-0.0,-8.73088,-0.0,0.0,-20.65357,-10.37871,9.06563,9.52318,3.92548,-15.65987,-15.83437,-4.20065,-0.00011,-2.98327,0.6591,3e-05,27.606,17.5587,15.26089,1.81527,2.7514,-16.81987,19.10753,19.26003,10.70571,45.50927,-3.69586,44.3666,128.86618,0.0033,-103.35204,123.30608,-0.00547,118.4511,-9.26511,-10.71533,-0.00426,-17.2985,10.24125,-0.00199,-6.65364,-11.37365,12.482,-28.55715,-15.15598,7.39465,4.52869,5.53892,9.22104
1972,-4.21945,-0.0,0.0,-8.45792,0.0,-0.0,-20.562,-10.35342,9.11728,9.38308,4.27091,-15.53943,-15.99819,-4.2525,-0.00024,-2.97843,0.58557,1e-05,27.66208,17.6194,15.47113,1.89158,2.70789,-16.86959,18.94877,19.25147,10.73549,45.79851,-3.88762,44.54852,128.89859,0.00404,-105.03339,123.61361,-0.00511,119.15868,-9.12761,-11.03823,-0.00363,-17.56469,10.50879,-0.0045,-6.51412,-11.50292,12.44855,-28.43239,-15.26368,7.31314,4.53526,5.56982,9.34018
1973,-4.76486,-0.0,-0.0,-8.4021,0.0,0.0,-20.43129,-10.39523,9.25901,9.28772,4.41517,-15.52233,-16.19741,-4.31745,0.00011,-2.94381,0.55078,-3e-05,27.74175,17.67787,15.54495,1.92734,2.68909,-16.84697,18.82918,19.2573,10.78862,45.93553,-3.89769,44.70053,128.92148,0.00236,-106.14823,123.8024,-0.00207,119.46674,-9.07656,-11.2751,-0.00141,-18.15354,10.67961,-0.00196,-6.41018,-11.58275,12.41744,-28.3381,-15.32636,7.25292,4.53463,5.59085,9.36074
1974,-5.61029,0.0,-0.0,-8.98997,0.0,0.0,-20.16607,-10.49781,9.65756,9.35855,4.39985,-15.77717,-16.40917,-4.48698,0.00037,-2.88616,0.55511,-4e-05,27.82427,17.79609,15.23635,1.88395,2.75541,-16.60249,18.80009,19.33615,10.90631,46.03704,-3.80959,44.8161,128.85545,0.00202,-105.90206,123.78722,-0.00213,118.77497,-9.1012,-11.16818,0.00025,-18.8953,10.33626,0.00668,-6.35892,-11.54132,12.32962,-28.28684,-15.2558,7.18622,4.48239,5.65572,9.2518
1975,-6.39494,-0.0,0.0,-9.87069,0.0,0.0,-19.93608,-10.43916,9.9825,9.57003,4.30618,-16.17479,-16.60915,-4.65964,-9e-05,-2.81491,0.58833,-1e-05,27.90298,17.90294,14.93185,1.75511,2.85687,-16.32852,18.8991,19.43173,10.99536,46.06678,-3.72617,44.81612,128.7478,0.00168,-104.74034,123.67896,-0.00275,117.69727,-9.16999,-11.02425,0.00159,-19.59018,9.54259,0.01163,-6.33364,-11.451,12.22263,-28.25748,-15.13286,7.12039,4.41719,5.71654,9.05027
1976,-6.70743,0.0,0.0,-10.36314,0.0,-0.0,-19.92169,-10.05633,9.84546,9.76615,4.15926,-16.44616,-16.81827,-4.69677,-0.00058,-2.71788,0.64532,6e-05,27.99713,17.92426,15.10324,1.56652,2.92443,-16.33357,19.09665,19.46629,10.91949,45.95462,-3.67927,44.69283,128.67979,0.00026,-103.71378,123.65534,-0.00297,117.28801,-9.36609,-11.24785,0.0032,-20.04881,8.96468,0.00825,-6.31356,-11.44637,12.21245,-28.23743,-15.12484,7.11258,4.41033,5.72008,8.82459
1977,-6.63941,0.0,0.0,-10.36671,0.0,0.0,-20.03165,-9.50998,9.48174,9.82731,3.99177,-16.57274,-17.06489,-4.68069,-0.0002,-2.60277,0.72845,0.00012,28.12949,17.94097,15.54928,1.40229,2.96122,-16.51172,19.25236,19.46492,10.68956,45.80948,-3.67867,44.58363,128.67148,-0.0002,-103.41812,123.78391,-0.00368,117.83253,-9.68,-11.79366,0.00273,-20.15809,9.19672,0.00469,-6.28612,-11.53676,12.32277,-28.21389,-15.24906,7.18153,4.48149,5.71461,8.68769
1978,-6.38681,0.0,0.0,-10.12484,0.0,-0.0,-20.12422,-9.07825,9.36223,9.71192,3.86748,-16.66093,-17.32556,-4.78002,0.00058,-2.51568,0.82381,8e-05,28.28165,18.06851,15.7546,1.34432,2.99768,-16.52252,19.23609,19.50947,10.45148,45.83807,-3.73508,44.60215,128.67268,0.00014,-103.82269,123.97578,-0.00228,118.59686,-9.93373,-12.30432,-0.00039,-19.90815,10.05263,0.00411,-6.22419,-11.56741,12.42929,-28.14997,-15.31647,7.27002,4.57549,5.77194,8.71254
1979,-5.89244,0.0,0.0,-9.7324,-0.0,0.0,-20.21424,-8.87535,9.51437,9.47192,3.82633,-16.67781,-17.54001,-4.97178,0.00058,-2.50656,0.89831,1e-05,28.39135,18.26888,15.61776,1.37568,3.02973,-16.31775,19.08097,19.61173,10.33723,46.0905,-3.82653,44.67233,128.61201,0.00032,-104.52967,124.1113,-0.00016,118.66413,-10.01429,-12.54887,-0.00242,-19.35341,10.79961,0.00129,-6.11238,-11.40373,12.40579,-28.02266,-15.15602,7.31121,4.60872,5.87921,8.82629
1980,-5.19645,-0.0,0.0,-9.19123,0.0,-0.0,-20.33799,-8.84695,9.6224,9.22669,3.84028,-16.51894,-17.69071,-5.08136,-6e-05,-2.57711,0.94074,-1e-05,28.41589,18.40381,15.44756,1.40176,3.02673,-16.16357,18.92493,19.70792,10.39917,46.41359,-3.91738,44.63243,128.47708,0.00055,-105.03994,124.16604,0.00059,117.63622,-9.90988,-12.58846,-0.00264,-18.76609,10.90689,-0.00188,-5.99117,-11.1036,12.24298,-27.87938,-14.81799,7.27371,4.54587,5.96484,8.89019
1981,-4.69537,0.0,0.0,-8.61051,0.0,0.0,-20.42146,-8.8739,9.52589,9.06017,3.84489,-16.19904,-17.83996,-5.04166,-0.00051,-2.66545,0.97475,2e-05,28.40403,18.42402,15.47009,1.37441,2.97864,-16.23782,18.84124,19.74903,10.60506,46.64837,-4.01194,44.4397,128.3416,0.00041,-105.07514,124.18852,0.00051,115.96098,-9.60492,-12.65849,-0.00284,-18.53658,10.47951,0.00038,-5.929,-10.8685,11.99766,-27.80601,-14.51007,7.13329,4.44044,5.99109,8.87225
1982,-4.82903,-0.0,0.0,-8.30175,0.0,0.0,-20.34991,-8.88627,9.3822,9.02139,3.82821,-15.9103,-18.06248,-4.97723,-0.00026,-2.71413,1.01765,4e-05,28.46358,18.41914,15.59671,1.34653,2.91605,-16.39637,18.81266,19.72808,10.83829,46.76423,-4.1314,44.1841,128.2809,-0.0005,-104.493,124.21332,-0.00026,114.81557,-9.24067,-12.89416,-0.00222,-18.58869,10.09126,0.00233,-5.92268,-10.8471,11.72638,-27.81024,-14.39092,6.88623,4.38408,5.98128,8.86508
1983,-5.58995,0.0,-0.0,-8.5407,0.0,0.0,-20.12645,-8.89049,9.38911,9.14879,3.83433,-15.86456,-18.35805,-5.0335,0.0004,-2.73527,1.06313,1e-05,28.64547,18.48607,15.62238,1.38917,2.87022,-16.40166,18.79703,19.65743,10.96214,46.79077,-4.24062,43.98241,128.28593,-0.00117,-103.43608,124.23803,-0.00107,115.13746,-9.16119,-13.20756,0.00011,-18.38196,10.22186,0.00374,-5.88804,-11.00734,11.51997,-27.80021,-14.464,6.63034,4.43231,5.97098,8.92688
1984,-6.454,0.0,0.0,-9.13742,0.0,0.0,-19.91266,-8.89285,9.51969,9.37816,3.87628,-16.07693,-18.65618,-5.2197,0.00057,-2.76508,1.10697,-2e-05,28.88369,18.61366,15.49204,1.48047,2.83076,-16.23724,18.74171,19.56916,10.93325,46.74265,-4.26681,43.90916,128.2852,-0.00083,-102.55441,124.24177,-0.00037,116.8267,-9.5826,-13.44222,0.0013,-17.62201,10.86588,0.00629,-5.76935,-11.19105,11.50807,-27.69985,-14.63006,6.5483,4.56905,5.96686,8.98672
1985,-6.8794,0.0,-0.0,-9.56965,0.0,0.0,-19.86312,-8.89058,9.61707,9.54342,3.9225,-16.37312,-18.90925,-5.44471,0.00013,-2.78749,1.15542,-0.0,29.05111,18.72744,15.33042,1.50749,2.76428,-16.05051,18.62455,19.49692,10.8394,46.6542,-4.20992,43.95428,128.22421,-0.0002,-102.21522,124.20426,0.00143,119.19122,-10.34911,-13.52086,0.00038,-16.46912,11.71042,0.00622,-5.57371,-11.27886,11.74024,-27.50258,-14.79657,6.7328,4.69524,5.95905,8.95242
1986,-6.66865,-0.0,0.0,-9.51027,0.0,-0.0,-19.98587,-8.89885,9.59249,9.5316,3.95637,-16.52771,-19.15093,-5.62385,-0.00038,-2.76333,1.20697,4e-05,29.07955,18.79611,15.30944,1.39448,2.66217,-15.96478,18.51745,19.4301,10.80928,46.60265,-4.16396,44.03497,128.11841,0.00057,-102.02804,124.13657,0.00189,121.65351,-11.01203,-13.49849,-0.00036,-15.22146,12.55936,0.00428,-5.32119,-11.2836,12.09439,-27.23431,-14.93063,7.06432,4.69096,5.94746,8.84202
1987,-5.98284,-0.0,0.0,-9.19507,0.0,-0.0,-20.17363,-8.9295,9.50595,9.42307,3.99033,-16.4311,-19.43471,-5.74467,-0.00052,-2.72019,1.24258,3e-05,29.03626,18.85813,15.46465,1.21997,2.55844,-16.00344,18.52484,19.31937,10.89003,46.64734,-4.19952,44.06625,128.03436,0.00081,-101.74337,124.08154,0.00053,123.74042,-11.09278,-13.52955,-0.00152,-14.16466,13.37834,0.00114,-5.04734,-11.28589,12.36212,-26.94789,-15.03072,7.3156,4.55777,5.94379,8.75304
1988,-5.38907,-0.0,0.0,-9.331,0.0,0.0,-20.2724,-8.96932,9.55244,9.45416,4.03999,-16.26761,-19.7574,-5.8718,-0.0002,-2.73968,1.2404,4e-05,29.05727,18.96908,15.61063,1.14621,2.50645,-16.02919,18.654,19.15605,11.00717,46.77447,-4.29135,44.00462,128.00124,-0.0,-101.91175,124.05435,-0.00044,125.0022,-10.4078,-13.70138,-0.00376,-13.50531,14.00054,-0.00255,-4.8206,-11.31577,12.41775,-26.72144,-15.07878,7.35647,4.43541,5.95947,8.74944
1989,-5.38226,0.0,-0.0,-10.07059,-0.0,-0.0,-20.20955,-8.97464,9.79544,9.69806,4.12563,-16.31552,-20.08727,-6.02837,-2e-05,-2.84315,1.19732,8e-05,29.17241,19.13455,15.62919,1.19451,2.53125,-15.91311,18.79015,19.02908,11.04729,46.92453,-4.3882,43.86428,127.97164,-0.00196,-103.1555,124.00774,-0.00034,125.34129,-9.27122,-13.92787,-0.00331,-13.32146,14.16714,-0.00252,-4.71029,-11.30729,12.28755,-26.61659,-15.02329,7.23708,4.40138,5.99335,8.80997
1990,-5.71033,0.0,-0.0,-10.54808,0.0,0.0,-20.08775,-8.95444,10.02957,9.92648,4.27575,-16.57025,-20.40532,-6.13998,-0.00023,-2.96311,1.13054,7e-05,29.2641,19.29468,15.66899,1.21183,2.59295,-15.76105,18.79559,19.0445,11.00448,47.0523,-4.48579,43.71267,127.91007,-0.00329,-105.13162,123.89242,-0.00012,125.11829,-8.2997,-14.07768,-0.00044,-13.57782,13.89424,0.00122,-4.73954,-11.17163,12.06959,-26.64272,-14.81767,7.08419,4.37268,6.02546,8.86317
1991,-5.78665,0.0,0.0,-10.16979,0.0,-0.0,-20.04893,-8.98155,10.10297,9.95157,4.46078,-16.80402,-20.68308,-6.17754,-0.00027,-3.04118,1.07387,-2e-05,29.25126,19.37619,15.83031,1.11695,2.60199,-15.73978,18.64064,19.17171,11.01563,47.13979,-4.59872,43.60683,127.85666,-0.00259,-106.685,123.73734,-0.00017,124.65273,-7.89081,-14.14211,0.0009,-14.04157,13.43347,0.00303,-4.86139,-10.93404,11.83055,-26.75252,-14.50973,6.95078,4.28072,6.03293,8.86269
1992,-5.46699,0.0,-0.0,-9.35254,-0.0,0.0,-20.13033,-8.97976,10.04766,9.82791,4.5431,-16.84137,-20.90088,-6.19866,-3e-05,-3.08832,1.07189,-0.00011,29.2175,19.35722,15.99482,1.01229,2.50238,-15.85122,18.4424,19.24842,11.19119,47.17457,-4.70485,43.53926,127.84518,-0.00187,-107.07983,123.62508,-8e-05,124.04552,-7.94722,-14.21739,0.00032,-14.31876,12.98378,0.00129,-4.98548,-10.74932,11.61179,-26.86893,-14.25822,6.81605,4.19507,6.02287,8.81913
1993,-5.04741,0.0,0.0,-8.74364,0.0,0.0,-20.27044,-8.77952,9.8869,9.68402,4.42213,-16.70635,-21.10791,-6.22713,4e-05,-3.13995,1.13117,-0.00015,29.29673,19.30134,16.05342,1.00366,2.35513,-15.981,18.33959,19.18359,11.4513,47.14685,-4.74767,43.46987,127.82418,-0.00075,-106.57812,123.58253,0.0003,123.62534,-8.1842,-14.34951,-0.00098,-14.24935,12.72075,-0.00034,-5.04408,-10.73305,11.47546,-26.9321,-14.1932,6.69408,4.20183,6.03828,8.75976
1994,-4.8161,0.0,0.0,-8.53066,0.0,0.0,-20.38778,-8.43624,9.59256,9.56846,4.19407,-16.55718,-21.3948,-6.22437,-0.00033,-3.20483,1.18389,-9e-05,29.50326,19.31006,16.05839,1.0531,2.29047,-16.04625,18.33537,19.07295,11.60746,47.06798,-4.68272,43.38358,127.72798,0.0016,-105.59915,123.55412,0.00117,123.88811,-8.56078,-14.44388,-0.0023,-14.10188,12.86281,-0.00161,-5.03913,-10.84441,11.46902,-26.93797,-14.29417,6.64519,4.26667,6.11018,8.69139
1995,-4.75942,0.0,-0.0,-8.49319,0.0,0.0,-20.48169,-8.17724,9.20492,9.46638,4.04142,-16.48007,-21.78417,-6.17445,-0.00071,-3.27689,1.16157,1e-05,29.74369,19.40924,16.11962,1.07095,2.34567,-16.06179,18.33328,19.05069,11.56468,46.97838,-4.52632,43.29715,127.58001,0.00282,-104.2009,123.50068,0.00235,124.78246,-9.20054,-14.4044,-0.00287,-14.20488,13.45356,-0.00411,-5.03008,-10.96937,11.55841,-26.93691,-14.44286,6.68113,4.29564,6.2095,8.61574
1996,-4.67111,0.0,-0.0,-8.47777,0.0,0.0,-20.62605,-8.1256,8.91241,9.40603,4.04254,-16.45993,-22.18978,-6.1451,-0.00047,-3.36268,1.07976,4e-05,29.95229,19.52686,16.20115,1.0613,2.42125,-16.05825,18.29235,19.11019,11.39041,46.93158,-4.37172,43.22605,127.46355,0.00132,-102.63365,123.45267,0.00284,125.25649,-10.02159,-14.28056,-0.0019,-14.62969,14.14747,-0.0027,-5.06605,-11.02847,11.64505,-26.97472,-14.52942,6.73985,4.27412,6.27785,8.56078
1997,-4.44144,-0.0,0.0,-8.59475,0.0,-0.0,-20.8589,-8.25893,8.90503,9.45455,4.16611,-16.47239,-22.5149,-6.22864,2e-05,-3.47357,0.99867,1e-05,30.12727,19.60786,16.15706,1.09241,2.41721,-16.02772,18.2409,19.1577,11.23105,46.96941,-4.31993,43.1638,127.42274,-0.00031,-101.34392,123.43738,0.00262,124.08231,-10.73772,-14.16488,-0.00034,-15.19316,14.4657,0.00333,-5.1112,-10.97494,11.66699,-27.01372,-14.48779,6.78112,4.25987,6.29339,8.58152
1998,-4.14927,0.0,-0.0,-8.85776,0.0,0.0,-21.1465,-8.48533,9.11696,9.60143,4.33754,-16.46131,-22.76542,-6.42555,0.00025,-3.61389,0.93896,4e-05,30.2745,19.69042,15.99238,1.18457,2.33874,-15.99021,18.20496,19.17519,11.18738,47.10091,-4.36979,43.08991,127.42828,-0.0003,-100.40043,123.4135,0.00054,121.48917,-11.17545,-14.12665,0.00074,-15.47809,14.28956,0.00403,-5.06834,-10.80156,11.6705,-26.95409,-14.3282,6.85118,4.27947,6.27853,8.7155
1999,-3.92208,0.0,-0.0,-8.99598,0.0,0.0,-21.44511,-8.66659,9.25388,9.74858,4.45531,-16.34434,-23.03323,-6.64573,0.00027,-3.78302,0.88103,0.00015,30.40784,19.83812,15.87769,1.30143,2.25406,-15.99844,18.2216,19.22869,11.22973,47.28455,-4.4237,42.98324,127.40195,-0.00057,-99.78659,123.3195,-0.00137,119.01855,-11.39172,-14.30294,0.00107,-15.07363,13.84383,-0.00256,-4.92632,-10.58963,11.75042,-26.78836,-14.16079,7.00783,4.31256,6.25945,8.92692
2000,-3.74831,0.0,-0.0,-8.8288,0.0,0.0,-21.74686,-8.72835,9.12239,9.83414,4.44529,-16.16374,-23.37992,-6.81224,8e-05,-3.9751,0.82993,0.00015,30.56059,20.03032,15.89421,1.40681,2.18537,-16.02984,18.33298,19.34274,11.23433,47.44529,-4.41695,42.84662,127.27197,-0.00374,-99.95966,123.16,-0.00036,117.74305,-11.48455,-14.80378,-0.00013,-14.04468,13.38838,-0.00572,-4.81067,-10.46562,11.92376,-26.65293,-14.10912,7.21854,4.34131,6.23593,9.12249
2001,-3.46501,-0.0,0.0,-8.57489,0.0,-0.0,-22.09568,-8.72942,8.80569,9.90285,4.34214,-16.09838,-23.77828,-6.91121,-0.00021,-4.18459,0.83054,-6e-05,30.73778,20.17773,15.96001,1.47969,2.08342,-15.98893,18.50376,19.44886,11.13892,47.55175,-4.39303,42.73336,127.04893,-0.006,-101.06559,123.00931,0.00113,117.65865,-11.47319,-15.44023,-0.00244,-12.94425,13.18189,-0.00168,-4.8027,-10.49245,12.11528,-26.63821,-14.20408,7.38853,4.347,6.19946,9.23778
2002,-2.98149,0.0,0.0,-8.56011,0.0,0.0,-22.57424,-8.68262,8.48365,10.01712,4.24226,-16.21583,-24.1771,-6.97131,-0.00032,-4.40291,0.90676,-0.00027,30.904,20.24264,16.00538,1.50254,1.91076,-15.86867,18.62956,19.47415,11.0328,47.65704,-4.43266,42.71182,126.82883,-0.00243,-102.00033,122.93827,0.00078,118.25664,-11.42461,-15.73847,-0.00374,-12.32182,13.38136,8e-05,-4.8195,-10.62989,12.27077,-26.66038,-14.38852,7.4822,4.296,6.15724,9.27079
2003,-2.48521,-0.0,0.0,-8.84295,0.0,0.0,-23.19727,-8.52781,8.22846,10.16357,4.1793,-16.37197,-24.56904,-7.03064,-0.00012,-4.60141,1.02443,-0.00024,31.03957,20.27637,16.05687,1.47225,1.69709,-15.78183,18.65082,19.43072,11.04887,47.81557,-4.54134,42.78549,126.69573,0.00099,-101.68303,122.95069,-0.00018,118.89984,-11.44264,-15.42692,-0.00364,-12.36681,13.78855,-0.00219,-4.76637,-10.76808,12.41261,-26.61345,-14.56865,7.56271,4.18734,6.11216,9.23087
2004,-2.30668,0.0,-0.0,-9.34921,0.0,-0.0,-23.84921,-8.35789,8.01377,10.30429,4.13144,-16.41008,-24.97176,-7.11887,0.00031,-4.7513,1.11587,-2e-05,31.17642,20.35606,16.12796,1.42245,1.51593,-15.80717,18.61201,19.39437,11.19975,47.99788,-4.64478,42.87379,126.63715,-0.00014,-100.75378,122.9851,-0.00085,118.91198,-11.49634,-14.79852,-0.00203,-12.89985,13.91563,-0.00026,-4.68377,-10.79594,12.55192,-26.52651,-14.64542,7.68325,4.08031,6.06445,9.12633
2005,-2.43044,-0.0,-0.0,-9.88844,-0.0,0.0,-24.45485,-8.35483,7.77311,10.40427,4.11598,-16.28589,-25.39472,-7.23997,0.00049,-4.86011,1.12821,0.00016,31.37351,20.51693,16.19322,1.40979,1.41633,-15.92932,18.61336,19.42723,11.36438,48.14337,-4.6871,42.89178,126.55206,-0.00334,-100.55612,122.97794,-0.00197,117.87682,-11.53512,-14.35045,-0.00055,-13.55845,13.45715,0.00341,-4.63984,-10.70056,12.60751,-26.47049,-14.57721,7.77231,4.03135,6.03048,9.01398
