PaulMeinheit/Bachelor_Muay_Thai/processed_Data/E1/roundhouse/sliced/JointAngles/sliced1.csv
Unnamed: 0_level_0,L_MTP_ANGLE,L_MTP_ANGLE,L_MTP_ANGLE,R_MTP_ANGLE,R_MTP_ANGLE,R_MTP_ANGLE,L_ANKLE_ANGLE,L_ANKLE_ANGLE,L_ANKLE_ANGLE,R_ANKLE_ANGLE,R_ANKLE_ANGLE,R_ANKLE_ANGLE,L_KNEE_ANGLE,L_KNEE_ANGLE,L_KNEE_ANGLE,R_KNEE_ANGLE,R_KNEE_ANGLE,R_KNEE_ANGLE,L_HIP_ANGLE,L_HIP_ANGLE,L_HIP_ANGLE,R_HIP_ANGLE,R_HIP_ANGLE,R_HIP_ANGLE,L_SHOULDER_ANGLE,L_SHOULDER_ANGLE,L_SHOULDER_ANGLE,R_SHOULDER_ANGLE,R_SHOULDER_ANGLE,R_SHOULDER_ANGLE,L_ELBOW_ANGLE,L_ELBOW_ANGLE,L_ELBOW_ANGLE,R_ELBOW_ANGLE,R_ELBOW_ANGLE,R_ELBOW_ANGLE,L_WRIST_ANGLE,L_WRIST_ANGLE,L_WRIST_ANGLE,R_WRIST_ANGLE,R_WRIST_ANGLE,R_WRIST_ANGLE,NECK_ANGLE,NECK_ANGLE,NECK_ANGLE,NECK_ANGLE_SHADOW,NECK_ANGLE_SHADOW,NECK_ANGLE_SHADOW,Trunk_Joint_Angle,Trunk_Joint_Angle,Trunk_Joint_Angle
ITEM,X,Y,Z,X,Y,Z,X,Y,Z,X,Y,Z,X,Y,Z,X,Y,Z,X,Y,Z,X,Y,Z,X,Y,Z,X,Y,Z,X,Y,Z,X,Y,Z,X,Y,Z,X,Y,Z,X,Y,Z,X,Y,Z,X,Y,Z
915,-3.90744,0.0,0.0,-7.4686,0.0,0.0,-19.06264,-9.11139,23.55217,11.33988,3.12053,-20.05237,-17.62531,-5.83148,0.00011,-6.11502,-0.21972,-6e-05,29.79478,18.11642,22.18702,1.48545,4.62733,-14.02607,22.09348,18.70308,11.09362,45.00185,-4.64025,40.68821,130.41354,-0.00071,-110.54971,124.00858,-0.0026,121.32011,-16.22123,-16.772,0.00041,-25.33718,10.75909,0.0039,-1.64514,-10.32727,7.10258,-23.63398,-12.20996,2.75374,1.30757,5.87373,6.83039
916,-4.02854,0.0,0.0,-7.58632,0.0,-0.0,-19.12797,-9.0439,23.61311,11.49321,3.19683,-20.29897,-17.48286,-5.86275,-8e-05,-6.15976,-0.07042,-0.0001,29.80207,18.08409,22.04607,1.58082,4.51897,-13.88596,21.89805,18.71497,11.24697,44.95985,-4.62174,40.77799,130.5585,-0.00177,-109.74209,124.04105,-0.00175,121.72807,-16.69335,-16.717,-0.00422,-24.72592,10.90555,-0.00151,-1.89462,-10.34275,6.84283,-23.8892,-12.12863,2.50542,1.47457,5.86444,6.81967
917,-4.12665,0.0,0.0,-7.79962,0.0,0.0,-19.11862,-8.87936,23.77705,11.65655,3.42834,-20.41593,-17.44687,-5.924,-0.00012,-6.22566,0.00249,-4e-05,29.94719,18.09725,21.87758,1.77594,4.46288,-13.81039,21.67249,18.74727,11.41694,44.86227,-4.58114,40.84957,130.61502,-0.00051,-108.44877,124.0997,-0.00056,121.70426,-17.21189,-16.16759,-0.00684,-24.10094,10.87432,-0.00477,-2.15037,-10.40029,6.76592,-24.15083,-12.15364,2.41162,1.73932,5.88656,6.8173
918,-4.27223,0.0,-0.0,-7.76478,-0.0,-0.0,-19.07615,-8.62664,23.81483,11.65528,3.6047,-20.26245,-17.54775,-5.92654,-0.0002,-6.25236,-0.01655,-1e-05,30.10953,18.14161,21.90031,1.91578,4.47264,-13.88787,21.57652,18.77302,11.52413,44.78832,-4.54773,40.87394,130.52534,-0.00011,-107.60159,124.21558,0.00062,121.43003,-17.5679,-15.58308,-0.00354,-23.38871,10.79459,-0.00546,-2.22677,-10.52917,6.87742,-24.23591,-12.31422,2.46623,1.91897,5.93018,6.82418
919,-4.4788,-0.0,0.0,-7.47704,0.0,0.0,-19.0623,-8.33003,23.69701,11.47331,3.56967,-19.98777,-17.71952,-5.8802,-0.0002,-6.21421,-0.05358,-0.0,30.18194,18.21544,22.03811,1.89699,4.53239,-14.02961,21.63147,18.78938,11.53677,44.79593,-4.5291,40.85353,130.37495,-0.00083,-107.78011,124.36003,0.00109,120.86549,-17.69328,-15.5262,-0.00074,-22.69676,10.66092,-0.00283,-2.13256,-10.66562,7.03908,-24.15028,-12.50028,2.56471,1.91123,5.98844,6.80571
920,-4.64072,0.0,0.0,-7.27797,-0.0,0.0,-19.06579,-8.20234,23.65014,11.25451,3.35848,-19.87528,-17.86946,-5.86378,-5e-05,-6.14218,-0.03378,4e-05,30.14173,18.30662,22.04562,1.73718,4.60425,-14.04979,21.72664,18.80221,11.4409,44.87774,-4.54344,40.81796,130.30307,0.00041,-108.77013,124.46938,0.0005,119.99897,-17.68264,-16.11459,-0.00049,-22.5274,10.48296,0.00276,-2.00454,-10.69008,7.1283,-24.02276,-12.55582,2.63857,1.76433,6.03463,6.76122
921,-4.63676,0.0,0.0,-7.35987,0.0,-0.0,-19.05902,-8.38988,23.82168,11.12883,3.10912,-20.04388,-17.95332,-5.92106,2e-05,-6.08095,0.04804,5e-05,30.0579,18.36669,21.85021,1.55167,4.63205,-13.89755,21.77237,18.82359,11.25903,44.96975,-4.60224,40.79868,130.34813,0.00158,-109.85403,124.52242,-0.00041,119.10648,-17.7187,-16.91108,-0.00053,-23.05663,10.3612,0.00612,-1.92751,-10.54875,7.16045,-23.93342,-12.43664,2.72283,1.61549,6.02357,6.72412
922,-4.44432,-0.0,-0.0,-7.52605,0.0,0.0,-19.07729,-8.73583,24.05999,11.11234,2.92252,-20.35652,-17.98976,-6.02655,1e-05,-6.04015,0.13414,1e-05,30.0108,18.37045,21.62051,1.44092,4.59779,-13.71042,21.78009,18.86625,11.0859,45.00551,-4.66434,40.80803,130.41547,0.00102,-110.33414,124.55384,-0.00122,118.87488,-17.86317,-17.28783,-0.00116,-23.64104,10.51417,0.00721,-1.9079,-10.30333,7.2215,-23.89259,-12.23157,2.87391,1.55452,5.94766,6.71383
923,-4.1735,0.0,0.0,-7.51547,-0.0,0.0,-19.13187,-8.98659,24.1467,11.14854,2.8508,-20.5487,-18.02065,-6.13521,1e-05,-6.0092,0.15393,-2e-05,30.01079,18.37239,21.54234,1.42045,4.55406,-13.65014,21.79896,18.9307,11.02093,44.99007,-4.67527,40.83241,130.39867,0.00081,-110.05988,124.58926,-0.00168,119.54122,-17.94982,-17.04582,-0.0005,-23.55687,10.95273,0.00871,-1.97028,-10.08355,7.31141,-23.93552,-12.06087,3.04198,1.56849,5.85729,6.73971
924,-4.03385,0.0,-0.0,-7.4014,0.0,-0.0,-19.11204,-9.11506,24.12369,11.197,2.91226,-20.46677,-18.06479,-6.23802,4e-05,-5.99512,0.08181,1e-05,30.02493,18.44729,21.59418,1.46169,4.56743,-13.74366,21.82999,19.00801,11.08766,44.99696,-4.63502,40.8604,130.30304,0.00082,-109.45556,124.60425,-0.00134,120.26525,-17.77412,-16.57377,0.00075,-23.01062,11.27867,0.00435,-2.17004,-9.97797,7.32635,-24.12658,-11.96845,3.09629,1.61514,5.81267,6.79733
925,-4.15055,-0.0,-0.0,-7.42064,0.0,0.0,-18.95007,-9.23981,24.18167,11.2487,3.03869,-20.2093,-18.09831,-6.34892,1e-05,-6.01196,-0.02757,5e-05,30.03941,18.59404,21.6131,1.53995,4.64358,-13.8932,21.83184,19.07872,11.25678,45.0625,-4.58291,40.90602,130.23114,0.00053,-109.05971,124.56786,-0.00088,120.42632,-17.27268,-16.35058,-0.00124,-22.84716,11.25753,-0.00105,-2.47719,-9.97738,7.23184,-24.43558,-11.93311,3.00829,1.68426,5.83173,6.84455
926,-4.35861,-0.0,0.0,-7.53081,0.0,-0.0,-18.80626,-9.35361,24.30001,11.28769,3.10082,-19.99874,-18.08811,-6.44155,-3e-05,-6.04642,-0.07681,4e-05,30.05433,18.7303,21.55838,1.6167,4.7208,-14.00617,21.78564,19.11259,11.48105,45.14022,-4.54987,40.9649,130.2619,0.00087,-109.16126,124.49595,-0.00063,120.30659,-16.51958,-16.49301,-0.0041,-23.34819,11.05227,-0.0023,-2.73039,-10.03256,7.13942,-24.69493,-11.95023,2.90092,1.76414,5.87525,6.83579
927,-4.36566,-0.0,-0.0,-7.53055,0.0,-0.0,-18.89103,-9.34746,24.26544,11.30721,3.05155,-19.93103,-18.05004,-6.45393,-4e-05,-6.0616,-0.02872,3e-05,30.0654,18.77538,21.53442,1.63294,4.74406,-14.09813,21.72199,19.09869,11.68067,45.2007,-4.54213,40.99458,130.37086,0.00103,-109.56297,124.43894,-0.00052,120.07399,-15.77896,-16.77984,-0.00341,-23.95389,10.79233,-0.00199,-2.78317,-10.11789,7.13022,-24.75467,-12.02598,2.85969,1.80842,5.88665,6.76512
928,-4.09566,-0.0,-0.0,-7.46686,-0.0,-0.0,-19.17428,-9.23366,24.03642,11.33771,2.96791,-19.92,-18.04036,-6.3816,-7e-05,-6.03888,0.0479,3e-05,30.08316,18.73149,21.55808,1.57307,4.72964,-14.24295,21.68304,19.06467,11.76928,45.28162,-4.52853,40.96812,130.4686,0.00043,-109.68193,124.44862,0.00031,119.51262,-15.47794,-16.93752,-0.00171,-24.06908,10.54616,-0.00141,-2.65341,-10.22577,7.13712,-24.63342,-12.12857,2.82485,1.78867,5.85679,6.65917
929,-3.67855,0.0,-0.0,-7.56251,0.0,0.0,-19.42412,-9.20222,23.83606,11.40415,2.90281,-19.89757,-18.08405,-6.30785,-2e-05,-5.99589,0.07529,-0.0,30.11915,18.67061,21.50943,1.48687,4.72617,-14.40501,21.67692,19.04191,11.72432,45.38094,-4.46551,40.89108,130.4895,0.00027,-109.23648,124.55474,0.00178,118.61877,-15.82768,-16.8643,-0.00239,-23.67783,10.47528,0.00092,-2.4847,-10.33359,7.07151,-24.4746,-12.20438,2.72232,1.74085,5.82328,6.55844
930,-3.23339,-0.0,0.0,-7.83433,0.0,-0.0,-19.5068,-9.38535,23.8057,11.47067,2.79857,-19.90568,-18.14395,-6.29684,0.0001,-5.95583,0.06992,0.0,30.14131,18.64182,21.36569,1.40826,4.73666,-14.45203,21.6894,19.02664,11.60426,45.42365,-4.37348,40.77453,130.42921,0.00033,-108.59206,124.72435,0.00191,117.75867,-16.48063,-16.64891,-0.00224,-23.23097,10.61539,0.00259,-2.4042,-10.38012,6.95072,-24.39999,-12.20302,2.59177,1.70683,5.80888,6.50594
931,-2.8336,0.0,0.0,-8.00486,0.0,-0.0,-19.52417,-9.6314,23.7961,11.46641,2.62614,-19.93629,-18.15707,-6.31868,0.00014,-5.92487,0.09362,3e-05,30.0982,18.64507,21.31563,1.3283,4.73127,-14.36009,21.71462,19.0024,11.5036,45.38878,-4.31739,40.64658,130.3221,0.00023,-108.12064,124.86729,0.00068,117.43018,-16.84401,-16.4079,0.00013,-23.04788,10.81213,0.00245,-2.44577,-10.29495,6.88341,-24.43583,-12.09925,2.56159,1.68208,5.80668,6.54065
932,-2.58911,0.0,-0.0,-7.92113,0.0,-0.0,-19.59167,-9.69015,23.66425,11.3937,2.48188,-19.91636,-18.10491,-6.32486,0.00011,-5.90642,0.15572,2e-05,30.01306,18.69157,21.49164,1.27344,4.71912,-14.22152,21.73152,18.97913,11.49292,45.34602,-4.28717,40.55963,130.21667,0.00017,-107.767,124.92645,1e-05,117.79124,-16.74692,-16.192,0.00182,-22.92628,10.96638,0.00243,-2.56584,-10.09434,6.99782,-24.53791,-11.95537,2.74513,1.67439,5.82271,6.66456
933,-2.59416,0.0,0.0,-7.8435,0.0,-0.0,-19.61342,-9.59543,23.53077,11.35529,2.42847,-19.87981,-18.05854,-6.30718,1e-05,-5.91007,0.22615,-0.0,29.9912,18.7955,21.74899,1.30306,4.73797,-14.07976,21.69524,18.97216,11.56321,45.34234,-4.20509,40.53333,130.15781,2e-05,-107.53552,124.92438,-0.0003,118.33167,-16.51499,-16.09926,0.00161,-22.5512,11.04353,0.00191,-2.70095,-9.92379,7.31115,-24.65351,-11.9126,3.10281,1.73111,5.87515,6.80604
934,-2.775,0.0,0.0,-8.0107,0.0,0.0,-19.44414,-9.63682,23.54578,11.40274,2.3761,-19.909,-18.10628,-6.25926,-0.00014,-5.93541,0.28298,-2e-05,30.08695,18.91714,21.88674,1.41633,4.78621,-13.93715,21.6082,18.97276,11.62719,45.35618,-4.05173,40.51894,130.15163,-9e-05,-107.76122,124.91382,-0.00078,118.45361,-16.41963,-16.29045,0.00073,-22.01687,11.01443,0.00106,-2.82632,-9.93876,7.62584,-24.77335,-12.04235,3.39099,1.8547,5.95105,6.89197
935,-2.90776,-0.0,-0.0,-8.18271,-0.0,-0.0,-19.16389,-9.91538,23.60432,11.43518,2.24398,-19.918,-18.23819,-6.16758,-0.00023,-5.95847,0.29608,-2e-05,30.23335,19.00287,21.92014,1.54647,4.83776,-13.87086,21.54799,18.97711,11.61982,45.37157,-3.87607,40.45541,130.15332,-0.0003,-108.53703,124.93768,-0.00078,118.18354,-16.37636,-16.75377,-0.00074,-21.51372,10.99213,0.00132,-2.95479,-10.14962,7.69598,-24.91724,-12.26375,3.37588,1.96923,6.01347,6.94042
936,-2.80701,0.0,0.0,-7.89225,0.0,-0.0,-19.03374,-10.16391,23.41596,11.3224,2.09672,-19.71079,-18.37399,-6.02412,-0.00019,-5.94628,0.238,-7e-05,30.33765,19.04636,22.03949,1.62872,4.88807,-13.99979,21.57553,19.00579,11.57862,45.41314,-3.71482,40.31131,130.11717,-0.0,-109.2055,125.02595,0.00028,117.73151,-16.23983,-17.16496,-0.00179,-20.81919,11.04044,0.00012,-3.09308,-10.42338,7.52973,-25.08153,-12.4564,3.11571,2.00176,6.03552,6.99498
937,-2.50708,0.0,0.0,-7.07426,0.0,-0.0,-19.18106,-10.11561,22.87568,11.07884,2.02859,-19.28109,-18.47301,-5.83963,-9e-05,-5.89598,0.1422,-0.0001,30.37955,19.06312,22.36096,1.64392,4.93184,-14.3077,21.64512,19.06367,11.57826,45.4851,-3.59404,40.07156,130.05084,0.00101,-108.921,125.18146,0.00187,117.00674,-16.10135,-17.13576,-0.00198,-19.65215,10.93791,-0.00503,-3.25245,-10.61049,7.37171,-25.25958,-12.5717,2.89635,1.96363,6.00536,7.03697
938,-2.29829,0.0,0.0,-6.32455,0.0,0.0,-19.4253,-9.84086,22.32861,10.87315,2.04452,-18.91245,-18.54869,-5.69169,6e-05,-5.84961,0.08574,-6e-05,30.40399,19.06425,22.70527,1.628,4.95313,-14.57087,21.64642,19.11648,11.63398,45.53515,-3.54852,39.77525,129.99684,0.00096,-107.72622,125.37141,0.00204,116.08105,-16.06436,-16.61185,-0.00237,-18.37148,10.5685,-0.00674,-3.46934,-10.64483,7.38105,-25.47917,-12.60697,2.89189,1.94161,5.94561,7.02991
939,-2.41635,0.0,-0.0,-6.26201,-0.0,0.0,-19.53353,-9.55075,22.17776,10.85173,2.09929,-18.86418,-18.61855,-5.67358,0.0002,-5.85049,0.10147,-6e-05,30.45036,19.06286,22.78091,1.62418,4.95522,-14.60042,21.544,19.13936,11.70577,45.52322,-3.56874,39.549,129.96175,-0.00043,-106.63048,125.54516,0.00024,115.50044,-15.9295,-15.95151,-0.00289,-17.74468,10.30023,-0.00477,-3.74043,-10.56076,7.47757,-25.74135,-12.56458,3.0143,1.99652,5.91445,6.97874
940,-2.68791,0.0,0.0,-6.74732,0.0,0.0,-19.52281,-9.31812,22.35048,10.98911,2.17187,-19.05615,-18.67671,-5.75997,0.00018,-5.89813,0.14285,-5e-05,30.49616,19.05329,22.6112,1.62817,4.94281,-14.4818,21.43885,19.16306,11.74222,45.50362,-3.59743,39.50005,129.90305,-0.0025,-106.62608,125.65627,-0.00105,115.84681,-15.43302,-15.61417,-0.00615,-17.99581,10.59842,-0.0087,-3.96391,-10.45576,7.4971,-25.9557,-12.47441,3.07282,2.08149,5.92645,6.92795
941,-2.77905,0.0,0.0,-7.22979,0.0,-0.0,-19.53232,-9.18575,22.53978,11.18079,2.27646,-19.24091,-18.70842,-5.84058,6e-05,-5.96415,0.13902,2e-05,30.50431,19.01694,22.45275,1.62464,4.90875,-14.39143,21.4535,19.22593,11.72179,45.59282,-3.60477,39.59587,129.80659,-0.00333,-107.73502,125.67587,-7e-05,117.04107,-14.72486,-15.75868,-0.00825,-18.53746,11.33528,-0.009,-4.01303,-10.42407,7.38144,-26.00451,-12.40243,2.97697,2.10203,5.93,6.92309
942,-2.66734,0.0,0.0,-7.49484,-0.0,0.0,-19.57123,-9.22883,22.66372,11.37626,2.40753,-19.34863,-18.72699,-5.86104,-1e-05,-6.03127,0.07311,8e-05,30.49755,18.97275,22.40512,1.63485,4.87236,-14.32674,21.57899,19.3027,11.67691,45.82943,-3.60001,39.70719,129.72778,-0.00144,-109.05,125.613,0.00099,118.38744,-14.28079,-16.1724,-0.00384,-18.62485,11.93089,-0.00281,-3.88162,-10.47945,7.20366,-25.88104,-12.3883,2.78976,2.04195,5.89789,6.97073
943,-2.54357,0.0,0.0,-7.57028,0.0,0.0,-19.58242,-9.37009,22.74491,11.52781,2.48983,-19.47762,-18.75993,-5.83296,-4e-05,-6.09114,0.00467,6e-05,30.5165,18.96082,22.42136,1.6751,4.86592,-14.19083,21.68336,19.34061,11.64073,46.08633,-3.59385,39.73485,129.71481,0.0004,-109.79887,125.53838,0.0004,119.37745,-14.3293,-16.59612,0.00127,-18.02319,12.19251,0.00126,-3.70707,-10.53787,7.05661,-25.71392,-12.3883,2.63009,1.98041,5.85674,7.04932
944,-2.4806,-0.0,-0.0,-7.45955,-0.0,-0.0,-19.58932,-9.42295,22.72006,11.55877,2.42816,-19.6742,-18.79637,-5.78071,-3e-05,-6.12567,0.0012,3e-05,30.54861,18.98643,22.47835,1.71874,4.88987,-13.99118,21.66216,19.33394,11.60688,46.18394,-3.59762,39.68228,129.75043,0.00072,-109.99455,125.54635,-0.00016,119.86629,-14.64272,-16.94647,0.00217,-17.11699,12.3638,0.00195,-3.60821,-10.52001,6.97504,-25.61498,-12.34169,2.56083,1.98343,5.83381,7.13219
945,-2.45315,-0.0,-0.0,-7.28239,-0.0,0.0,-19.62585,-9.38797,22.61674,11.46427,2.24,-19.85426,-18.79528,-5.75039,-4e-05,-6.13159,0.05322,3e-05,30.54745,19.03535,22.55206,1.74118,4.92136,-13.82121,21.53803,19.30811,11.59301,46.09709,-3.61695,39.63432,129.81261,0.00027,-109.9868,125.65145,0.00061,119.78746,-14.86742,-17.24681,0.00052,-16.39466,12.50882,-4e-05,-3.55802,-10.45531,6.96862,-25.55961,-12.27934,2.57965,2.02397,5.8344,7.19381
946,-2.46559,0.0,0.0,-7.22938,0.0,0.0,-19.64462,-9.43393,22.62979,11.33996,2.0893,-19.90077,-18.74595,-5.80506,-0.00012,-6.14381,0.09803,3e-05,30.50514,19.1036,22.56013,1.76373,4.93937,-13.74611,21.41426,19.27732,11.64208,45.97293,-3.64006,39.6531,129.91145,-0.0005,-109.87913,125.76643,0.0011,119.41172,-14.88086,-17.49384,-0.0008,-15.86328,12.54681,-0.00082,-3.48377,-10.42656,7.02145,-25.48211,-12.27214,2.63997,2.04212,5.85009,7.22502
947,-2.52106,0.0,0.0,-7.37468,-0.0,0.0,-19.58088,-9.58277,22.90107,11.28598,2.12605,-19.80521,-18.68512,-5.96925,-0.00015,-6.19076,0.10794,2e-05,30.46729,19.18582,22.38413,1.80712,4.94452,-13.76112,21.36086,19.25939,11.71369,45.94414,-3.66159,39.70754,130.02962,-0.00088,-109.58997,125.81609,0.00092,119.38288,-14.85408,-17.60228,-0.00102,-15.22294,12.57748,0.00115,-3.41553,-10.44384,7.05431,-25.41471,-12.30027,2.66401,2.02416,5.87362,7.23866
948,-2.60943,0.0,0.0,-7.72317,-0.0,-0.0,-19.43803,-9.66812,23.32919,11.32538,2.31709,-19.6704,-18.66228,-6.19344,-5e-05,-6.24586,0.09581,-1e-05,30.45753,19.27649,22.01555,1.83171,4.96946,-13.81525,21.36366,19.27951,11.69815,46.01587,-3.6896,39.74164,130.11389,-0.00037,-109.22386,125.81979,0.00065,119.92957,-15.01782,-17.5272,-0.00105,-14.55358,12.69346,0.00277,-3.42908,-10.44934,7.01073,-25.42946,-12.28931,2.62123,1.97052,5.91181,7.26012
949,-2.74239,-0.0,-0.0,-8.16227,0.0,0.0,-19.29135,-9.56799,23.6048,11.3972,2.49569,-19.5585,-18.7148,-6.37334,1e-05,-6.26078,0.06443,-5e-05,30.46502,19.37204,21.66477,1.79627,5.04202,-13.89198,21.37583,19.32865,11.56688,46.12605,-3.7134,39.76691,130.13828,0.00044,-108.98097,125.82797,0.00023,120.58124,-15.40409,-17.39062,-0.00078,-14.41209,12.81968,0.00241,-3.50074,-10.42656,6.96369,-25.50008,-12.25086,2.58607,1.88195,5.97083,7.30134
950,-2.90243,0.0,0.0,-8.42192,0.0,-0.0,-19.21182,-9.35595,23.52929,11.43925,2.55866,-19.45381,-18.84641,-6.43214,-0.00012,-6.2338,0.01474,-6e-05,30.51142,19.45,21.53405,1.74268,5.13516,-14.01749,21.376,19.35612,11.41989,46.22191,-3.71542,39.84437,130.12166,0.00104,-108.90562,125.8344,-0.00026,120.89153,-15.79118,-17.36828,-0.0011,-15.20358,12.90002,0.00199,-3.53048,-10.43636,7.0386,-25.52932,-12.28755,2.65222,1.81134,6.03469,7.33382
951,-2.98781,0.0,0.0,-8.37449,0.0,-0.0,-19.21295,-9.20705,23.26882,11.46641,2.51809,-19.36435,-18.99809,-6.38793,-0.0002,-6.21206,-0.0171,-5e-05,30.60365,19.47565,21.57549,1.72779,5.17994,-14.16005,21.36592,19.31993,11.386,46.26824,-3.72821,40.01693,130.10155,0.0014,-109.09038,125.81595,-0.00072,120.86513,-15.82265,-17.54549,-0.00395,-16.73518,12.96442,0.00193,-3.47547,-10.53623,7.25159,-25.47868,-12.4586,2.81271,1.81124,6.07516,7.31672
952,-2.89644,-0.0,-0.0,-8.22566,0.0,-0.0,-19.2732,-9.20917,23.14403,11.52005,2.39385,-19.36144,-19.08074,-6.31064,-8e-05,-6.2242,0.01941,-5e-05,30.66087,19.43959,21.62212,1.72107,5.13565,-14.19957,21.35528,19.22673,11.51506,46.24817,-3.80915,40.27005,130.09544,0.00139,-109.65034,125.8152,-0.00053,120.71383,-15.3206,-17.85504,-0.00632,-18.29968,13.07248,0.00155,-3.37396,-10.69986,7.4912,-25.38629,-12.69856,2.97361,1.84073,6.0794,7.2516
953,-2.65068,0.0,0.0,-8.19754,0.0,-0.0,-19.36777,-9.33698,23.24047,11.56891,2.21447,-19.48845,-19.06897,-6.23575,3e-05,-6.23787,0.11824,-3e-05,30.60616,19.37379,21.61628,1.65386,5.03866,-14.06121,21.3576,19.12195,11.74,46.18593,-3.95159,40.53163,130.07625,0.00083,-110.34121,125.88744,0.0002,120.61775,-14.54807,-18.07205,-0.00373,-19.12634,13.30733,0.00262,-3.26207,-10.82918,7.6448,-25.28234,-12.87501,3.06734,1.81634,6.06274,7.18776
954,-2.35979,0.0,0.0,-8.09242,-0.0,-0.0,-19.51291,-9.47085,23.30488,11.50243,2.09519,-19.60874,-19.03375,-6.14444,-1e-05,-6.20243,0.19263,-6e-05,30.47326,19.32116,21.66445,1.51797,4.96408,-13.89019,21.37753,19.04832,11.92249,46.12692,-4.09876,40.72635,130.0265,0.00015,-110.81519,125.99407,0.00065,120.77157,-13.96233,-18.06566,-0.0002,-19.03393,13.70014,0.00484,-3.13414,-10.84684,7.67546,-25.1553,-12.90268,3.08919,1.7142,6.05017,7.18103
955,-2.12714,-0.0,-0.0,-7.58906,-0.0,-0.0,-19.71153,-9.45559,23.09604,11.28632,2.14606,-19.5356,-19.07029,-6.03366,-0.0001,-6.12371,0.16963,-0.00016,30.3784,19.29987,21.85109,1.38204,4.95031,-13.92142,21.41184,19.0131,11.96561,46.07753,-4.22463,40.84311,129.99338,-0.0004,-111.01347,126.04359,0.0009,121.31543,-13.77057,-17.9825,0.00074,-18.6235,14.12584,0.00337,-2.97751,-10.78549,7.59615,-24.99502,-12.81659,3.03871,1.58885,6.05175,7.23729
956,-2.05499,0.0,-0.0,-6.92403,-0.0,-0.0,-19.83295,-9.30483,22.74839,11.08062,2.32718,-19.3393,-19.21346,-5.96535,3e-05,-6.0739,0.08082,-0.00012,30.41753,19.32077,22.05196,1.33952,4.98974,-14.1468,21.46289,19.00581,11.90529,46.00082,-4.31888,40.9329,130.02344,-0.00085,-111.0151,126.01305,0.00075,121.92124,-13.83573,-18.01658,0.00036,-18.56292,14.28261,0.00036,-2.80337,-10.75321,7.47882,-24.82045,-12.74346,2.94155,1.52971,6.06666,7.29406
957,-2.16973,0.0,0.0,-6.60271,-0.0,0.0,-19.75106,-9.18428,22.53111,11.05207,2.50156,-19.2175,-19.41166,-5.98868,0.00024,-6.11278,0.00342,-3e-05,30.56264,19.40742,22.14271,1.42237,5.06079,-14.35756,21.5159,19.04481,11.87983,45.86665,-4.34521,41.0444,130.08554,-0.00091,-110.91429,125.96561,0.00044,121.88689,-13.87216,-18.17758,-0.00096,-18.79748,13.89413,-0.00216,-2.63833,-10.80034,7.47567,-24.65948,-12.78599,2.92049,1.59182,6.08849,7.29046
958,-2.30195,0.0,0.0,-6.60963,0.0,0.0,-19.58445,-9.11557,22.43367,11.14747,2.57679,-19.16005,-19.56921,-6.07121,0.00017,-6.20964,-0.04274,-2e-05,30.67863,19.55883,22.21098,1.55827,5.13814,-14.46065,21.51663,19.1672,11.9916,45.67473,-4.29589,41.17261,130.10849,-6e-05,-110.61893,125.96885,0.00107,120.96059,-13.75625,-18.2428,-0.00258,-18.84111,13.12036,-0.00622,-2.51172,-10.88281,7.68515,-24.53577,-12.93959,3.0844,1.74577,6.09981,7.24172
959,-2.24679,0.0,0.0,-6.55021,0.0,0.0,-19.57405,-8.97566,22.29861,11.19986,2.56572,-19.03271,-19.63034,-6.15669,-0.0,-6.27689,-0.08789,-5e-05,30.68012,19.72179,22.32697,1.64175,5.19708,-14.52498,21.42501,19.35913,12.2008,45.44307,-4.23091,41.26206,130.05304,0.00167,-109.7957,126.02525,0.00129,119.69591,-13.65161,-17.87874,-0.00439,-18.63993,12.56833,-0.0064,-2.44994,-10.9529,7.9892,-24.47363,-13.11652,3.3415,1.89967,6.089,7.21618
960,-2.05883,0.0,0.0,-6.35114,0.0,0.0,-19.74162,-8.80077,22.16353,11.16215,2.55629,-18.84707,-19.62218,-6.23014,-5e-05,-6.27478,-0.13408,-7e-05,30.61189,19.83355,22.35113,1.63258,5.22357,-14.59352,21.27956,19.53718,12.3824,45.21077,-4.20923,41.26236,129.93555,0.00225,-108.55997,126.0768,0.0002,118.70265,-13.70884,-17.03807,-0.00512,-18.60665,12.56499,-0.00365,-2.42955,-11.0016,8.14078,-24.4541,-13.21747,3.46442,1.96627,6.07242,7.25343
961,-1.98686,0.0,0.0,-6.33072,-0.0,0.0,-19.87204,-8.78183,22.18601,11.13214,2.61645,-18.75144,-19.61261,-6.30234,0.0,-6.23733,-0.13356,-2e-05,30.55136,19.87542,22.14677,1.55373,5.21173,-14.59956,21.16469,19.61833,12.47669,45.05279,-4.23681,41.18642,129.82501,0.00089,-107.64951,126.06508,-0.0007,117.98638,-13.82875,-16.14314,-0.00244,-18.98629,12.7105,0.00051,-2.33064,-11.01924,7.98653,-24.3602,-13.17703,3.31346,1.90164,6.07505,7.32312
962,-2.12165,-0.0,-0.0,-6.61998,0.0,0.0,-19.83429,-8.94646,22.33771,11.19169,2.71421,-18.82722,-19.64743,-6.36469,-0.0,-6.20914,-0.05144,-0.0,30.51031,19.8667,21.83214,1.43577,5.1548,-14.45948,21.13236,19.58461,12.5224,45.03228,-4.30463,41.1068,129.80357,0.00023,-107.50335,125.9828,-0.00017,117.53222,-13.86323,-15.706,0.00037,-19.61619,12.56831,0.00383,-2.03674,-10.99278,7.56796,-24.07262,-12.99837,2.93263,1.71883,6.08779,7.3675
963,-2.32365,0.0,0.0,-6.89296,0.0,-0.0,-19.73202,-9.0937,22.40657,11.28869,2.7489,-19.00544,-19.73611,-6.38613,-0.00016,-6.20189,0.08266,-2e-05,30.47701,19.83486,21.66695,1.31438,5.06117,-14.20597,21.17674,19.47888,12.5726,45.10852,-4.41743,41.09459,129.88603,0.00038,-107.79954,125.87051,0.00073,117.61282,-13.79901,-15.88334,0.00078,-20.20625,12.2622,0.00199,-1.62235,-10.93976,7.11703,-23.66181,-12.78313,2.53208,1.50858,6.0788,7.35412
964,-2.49206,0.0,0.0,-6.87695,-0.0,0.0,-19.69215,-9.09861,22.32066,11.33472,2.68893,-19.19692,-19.86665,-6.37178,-0.00027,-6.20343,0.19841,-3e-05,30.47907,19.80928,21.70539,1.23519,4.97569,-13.96696,21.25406,19.36034,12.65186,45.16537,-4.56519,41.17296,129.99062,-2e-05,-107.99949,125.75481,-0.00014,118.04453,-13.66434,-16.4143,0.00017,-20.63702,11.98553,-0.00131,-1.32594,-10.89725,6.91981,-23.36499,-12.67106,2.3644,1.39536,6.05004,7.27991
965,-2.6706,-0.0,-0.0,-6.84571,0.0,-0.0,-19.67474,-9.10246,22.30165,11.37449,2.63674,-19.40038,-20.00546,-6.40322,-0.00015,-6.21053,0.24273,-2e-05,30.54096,19.82523,21.7175,1.2302,4.94498,-13.79495,21.31961,19.27689,12.74979,45.15511,-4.70818,41.31958,130.01974,-0.0003,-107.95354,125.59852,-0.00201,118.33884,-13.48769,-16.92635,-9e-05,-20.96573,11.59363,-0.00343,-1.28351,-10.87524,7.04357,-23.31872,-12.69624,2.48834,1.42817,6.03675,7.19063
966,-2.84928,0.0,0.0,-7.16936,0.0,-0.0,-19.60978,-9.26589,22.52191,11.50617,2.68773,-19.5797,-20.11432,-6.54408,1e-05,-6.24445,0.21326,1e-05,30.63812,19.89918,21.52688,1.30225,4.96502,-13.67527,21.35396,19.26579,12.83493,45.12133,-4.80678,41.49276,129.94653,0.00014,-107.78112,125.34579,-0.00203,118.56465,-13.41895,-17.20203,-0.00079,-21.22231,10.97454,-0.00585,-1.39969,-10.83983,7.28747,-23.4277,-12.75328,2.72959,1.5509,6.05651,7.15138
967,-2.86487,0.0,-0.0,-7.56141,0.0,-0.0,-19.57465,-9.49646,22.75198,11.66319,2.81612,-19.56467,-20.19677,-6.71233,-3e-05,-6.31745,0.13929,5e-05,30.72079,19.99529,21.28534,1.40161,4.99488,-13.70174,21.34629,19.33511,12.91932,45.07632,-4.85136,41.66377,129.8069,0.00103,-107.4613,125.01024,0.00068,119.24523,-13.66209,-17.14531,-0.0037,-21.36002,10.4555,-0.00698,-1.50082,-10.75201,7.48329,-23.51772,-12.74399,2.94618,1.6682,6.09298,7.1338
968,-2.61759,0.0,0.0,-7.41163,0.0,-0.0,-19.67402,-9.61065,22.66375,11.67864,2.97083,-19.27211,-20.2948,-6.77025,-0.00021,-6.40271,0.04426,3e-05,30.75239,20.06374,21.25522,1.44831,5.00807,-13.96827,21.27938,19.43445,13.05442,44.9668,-4.8641,41.80814,129.66374,0.0012,-107.05745,124.67422,0.00326,120.68723,-14.13548,-16.8082,-0.00568,-21.33145,10.61072,-0.00175,-1.5069,-10.61886,7.6675,-23.50882,-12.68839,3.16938,1.71847,6.11596,7.05812
969,-2.2742,0.0,0.0,-6.74412,0.0,-0.0,-19.84918,-9.591,22.31321,11.53281,3.11142,-18.90283,-20.43384,-6.7141,-0.0003,-6.45517,-0.03756,-1e-05,30.74305,20.10616,21.44131,1.41417,5.00776,-14.33903,21.15524,19.49667,13.22481,44.77391,-4.87616,41.86662,129.59122,0.00073,-106.93951,124.39408,0.00452,122.73341,-14.46002,-16.47656,-0.00375,-21.03955,11.60161,0.01027,-1.43029,-10.50115,7.90091,-23.41722,-12.66518,3.43264,1.7071,6.10774,6.9408
970,-2.13371,-0.0,-0.0,-6.23051,-0.0,-0.0,-19.94448,-9.56685,22.0226,11.36323,3.12426,-18.73724,-20.59789,-6.66128,-0.00012,-6.44219,-0.04028,8e-05,30.73094,20.15891,21.6346,1.32686,5.00075,-14.56692,21.00637,19.52694,13.33755,44.55828,-4.91169,41.78867,129.61971,0.00057,-107.20361,124.15616,0.00454,124.80928,-14.50129,-16.39742,-0.00129,-20.37889,12.84529,0.01673,-1.292,-10.46006,8.12735,-23.27017,-12.71042,3.66004,1.67014,6.07703,6.85556
971,-2.36202,-0.0,0.0,-6.39543,0.0,0.0,-19.87944,-9.66192,21.98079,11.30436,2.92294,-18.85566,-20.75316,-6.70305,0.00012,-6.36458,0.06436,0.00026,30.73387,20.23083,21.68355,1.21786,4.98062,-14.54117,20.88387,19.5943,13.34075,44.38388,-4.99524,41.60957,129.68231,0.00079,-107.34554,123.93582,0.00162,125.96468,-14.61834,-16.49375,0.00023,-19.40526,13.4641,0.00617,-1.13758,-10.47761,8.2878,-23.11329,-12.78574,3.80332,1.63472,6.04178,6.81299
972,-2.86178,-0.0,-0.0,-7.13252,0.0,-0.0,-19.72755,-9.84666,22.0911,11.40335,2.62064,-19.11239,-20.88333,-6.82706,0.00018,-6.27628,0.1999,0.00022,30.75938,20.28684,21.58475,1.12595,4.93976,-14.34403,20.85814,19.71361,13.27447,44.26534,-5.13392,41.42033,129.668,0.00209,-106.94375,123.72559,-0.00297,125.48035,-15.08404,-16.52272,0.00037,-18.30896,13.10661,-0.0087,-1.10459,-10.46152,8.42453,-23.07544,-12.82113,3.93736,1.62673,6.00052,6.77832
973,-3.26408,-0.0,-0.0,-7.81945,0.0,-0.0,-19.68146,-9.93609,22.09455,11.58712,2.42738,-19.26002,-20.99141,-6.949,4e-05,-6.25445,0.25407,0.00011,30.79376,20.29533,21.44462,1.0761,4.88132,-14.17066,20.97516,19.80558,13.2116,44.20974,-5.29486,41.27696,129.53352,0.00249,-106.33533,123.49494,-0.00552,123.70457,-15.50498,-16.37362,0.00065,-17.25385,12.22854,-0.01062,-1.31833,-10.36073,8.59351,-23.27611,-12.78982,4.13409,1.64395,5.93837,6.7547
974,-3.2072,0.0,0.0,-7.98646,0.0,0.0,-19.85093,-9.82947,21.88235,11.72799,2.43146,-19.1548,-21.06975,-7.0089,-9e-05,-6.32064,0.20047,0.00012,30.7818,20.26943,21.36023,1.03634,4.82069,-14.1678,21.18272,19.80789,13.19018,44.22935,-5.44456,41.17479,129.33351,-0.00021,-106.347,123.20898,-0.00293,121.86404,-15.27921,-16.21105,0.00094,-16.30855,11.51334,-0.0019,-1.69204,-10.22378,8.75896,-23.6336,-12.72364,4.34139,1.64484,5.86862,6.77501
975,-2.82702,0.0,-0.0,-7.94814,0.0,-0.0,-20.09316,-9.6613,21.66735,11.82325,2.58744,-18.90848,-21.10041,-7.0273,-7e-05,-6.42557,0.0947,0.00011,30.72056,20.23393,21.27196,0.98591,4.77975,-14.30769,21.36588,19.75065,13.17903,44.29369,-5.58853,41.09146,129.14241,-0.00291,-107.36363,122.89785,0.00189,120.88107,-14.5822,-16.34685,0.00067,-15.44208,11.28243,0.00625,-1.96058,-10.12083,8.8471,-23.89093,-12.66056,4.4633,1.63383,5.84065,6.82873
976,-2.63059,0.0,0.0,-8.2338,0.0,0.0,-20.20208,-9.60205,21.6753,11.96052,2.81386,-18.7156,-21.10108,-7.04268,4e-05,-6.50951,-0.02061,5e-05,30.69475,20.18707,21.08783,0.96326,4.76802,-14.48191,21.46473,19.69325,13.12595,44.34829,-5.73812,41.01849,128.97946,-0.00247,-108.75045,122.63035,0.00169,120.43388,-14.28903,-16.79871,0.0041,-14.65089,11.40439,0.00738,-1.95056,-10.08119,8.85717,-23.87729,-12.62749,4.4879,1.65881,5.88288,6.86268
977,-2.71301,-0.0,-0.0,-8.57506,0.0,0.0,-20.18973,-9.67116,21.79486,12.08153,3.00344,-18.61306,-21.14082,-7.03315,3e-05,-6.53406,-0.12122,1e-05,30.74468,20.13105,20.90674,0.96517,4.77218,-14.64632,21.51049,19.66352,13.05733,44.3811,-5.85117,40.95102,128.81749,0.00082,-109.36235,122.41062,-0.00136,119.77906,-14.82311,-17.09726,0.00266,-14.05948,11.54791,0.00327,-1.74037,-10.10917,8.83807,-23.67,-12.64642,4.45931,1.68892,5.96184,6.83779
978,-2.64128,0.0,-0.0,-8.32268,0.0,-0.0,-20.21136,-9.80251,21.73624,12.02603,3.05333,-18.55034,-21.28868,-6.95417,-0.00028,-6.48856,-0.15524,7e-05,30.83707,20.09618,20.88119,0.9287,4.77779,-14.80921,21.5572,19.68009,13.05223,44.4109,-5.85552,40.87423,128.63878,0.00385,-108.70509,122.1749,0.00056,119.36687,-15.70529,-16.82363,-0.00336,-13.7461,11.61133,-0.00045,-1.54059,-10.17349,8.79014,-23.47702,-12.68847,4.38982,1.65424,6.0199,6.74235
979,-2.25678,-0.0,-0.0,-7.5351,0.0,-0.0,-20.30087,-9.90335,21.41042,11.80704,2.98264,-18.52132,-21.55662,-6.82056,-0.00052,-6.41282,-0.09651,0.00013,30.97959,20.10875,20.98017,0.86596,4.7897,-14.97565,21.61796,19.76283,13.1068,44.44325,-5.76912,40.7651,128.46852,0.00334,-107.47359,121.90127,0.00631,120.25907,-16.3213,-16.19812,-0.00282,-13.64015,11.77735,-0.00238,-1.46223,-10.20157,8.68585,-23.40401,-12.67616,4.28147,1.60144,6.03597,6.59751
980,-1.97009,-0.0,-0.0,-6.88762,0.0,0.0,-20.3239,-9.91549,21.03395,11.6309,2.92098,-18.55639,-21.88386,-6.70786,-0.00028,-6.37842,-0.00204,7e-05,31.1967,20.17144,21.07465,0.87199,4.81552,-15.08657,21.67036,19.88544,13.13551,44.4776,-5.71643,40.60706,128.35638,0.00107,-106.80779,121.64691,0.00678,122.25006,-16.50482,-15.80167,-0.00053,-13.63349,12.07055,-0.003,-1.42389,-10.16492,8.55408,-23.36626,-12.59369,4.17222,1.63889,6.03189,6.48319
981,-2.09869,0.0,-0.0,-6.78168,-0.0,-0.0,-20.19637,-9.86183,20.86512,11.64581,2.9308,-18.67001,-22.17085,-6.67785,0.00012,-6.41687,0.05292,2e-05,31.41875,20.26861,21.13602,0.97719,4.8381,-15.04068,21.68878,19.96529,13.10924,44.51567,-5.76006,40.42751,128.31776,0.00026,-107.11214,121.45366,0.00191,123.92413,-16.37386,-15.81287,-0.00117,-13.67844,12.18113,-0.00221,-1.29993,-10.13118,8.46578,-23.24191,-12.52993,4.10254,1.76564,6.03378,6.48221
982,-2.43481,0.0,0.0,-7.05331,0.0,0.0,-20.04046,-9.73621,20.91748,11.81241,2.96411,-18.82397,-22.34161,-6.73261,0.00016,-6.49498,0.05579,3e-05,31.5289,20.35996,21.20639,1.10232,4.81986,-14.8449,21.65706,19.94546,13.08757,44.56398,-5.81777,40.30433,128.3056,0.00027,-107.86387,121.28043,-0.00263,124.26302,-16.13332,-15.91194,-0.00209,-13.79592,11.79337,8e-05,-1.1187,-10.18078,8.47286,-23.06461,-12.57854,4.09018,1.88408,6.04563,6.57732
983,-2.60116,0.0,0.0,-7.39771,0.0,-0.0,-20.02461,-9.51387,21.03564,12.00656,3.01463,-18.96102,-22.38127,-6.84623,-4e-05,-6.56138,0.03836,2e-05,31.48169,20.41107,21.25289,1.15277,4.75145,-14.62568,21.5784,19.85771,13.12832,44.65742,-5.7957,40.2837,128.27275,0.00021,-108.53852,121.06538,-0.0047,123.44589,-15.92252,-15.91852,-0.00264,-13.99645,10.91876,0.00267,-1.01642,-10.30354,8.56901,-22.97002,-12.72777,4.1331,1.92112,6.06063,6.68087
984,-2.42741,-0.0,-0.0,-7.56769,0.0,-0.0,-20.15621,-9.26559,21.05378,12.09655,3.16059,-18.99346,-22.34888,-6.96815,-0.00014,-6.58063,0.0035,-3e-05,31.31899,20.44738,21.25597,1.08832,4.68943,-14.52955,21.47773,19.77065,13.22416,44.8291,-5.70269,40.29543,128.23758,0.00022,-109.10023,120.8167,-0.00363,122.31425,-15.69618,-15.99538,-0.00314,-14.21,9.90496,0.00301,-1.03055,-10.38477,8.64868,-22.98886,-12.83241,4.17649,1.86175,6.08169,6.75775
985,-1.91438,0.0,0.0,-7.24844,0.0,0.0,-20.33955,-9.09996,20.79811,11.96613,3.43039,-18.76889,-22.35217,-6.99422,-0.00025,-6.54497,-0.09013,-0.00011,31.10804,20.51688,21.39249,0.9266,4.6905,-14.67547,21.38019,19.70019,13.30528,45.03864,-5.60595,40.1973,128.24448,6e-05,-109.48641,120.6013,-0.00076,121.62375,-15.45437,-16.16276,-0.00259,-14.27345,9.18975,0.00138,-1.07724,-10.30074,8.56138,-23.03081,-12.72236,4.12703,1.72477,6.10319,6.86277
986,-1.20599,0.0,0.0,-6.3671,-0.0,-0.0,-20.51909,-9.05028,20.23652,11.64041,3.72053,-18.24707,-22.45439,-6.85298,-0.00055,-6.49154,-0.25036,-6e-05,30.90935,20.60486,21.84201,0.73971,4.72268,-15.05388,21.29629,19.60932,13.30325,45.20376,-5.55022,39.93227,128.28938,-0.00047,-109.48416,120.45251,0.00145,121.75169,-15.38854,-16.20744,-0.00141,-14.08619,9.03265,0.00109,-1.10097,-10.06291,8.29693,-23.04179,-12.40448,3.97075,1.56876,6.09146,7.05155
987,-0.6656,0.0,0.0,-5.47614,0.0,-0.0,-20.66373,-9.05241,19.64491,11.34046,3.8646,-17.67118,-22.61338,-6.62385,-0.00051,-6.48819,-0.39438,2e-05,30.79844,20.64985,22.43173,0.63838,4.7088,-15.45848,21.23494,19.48889,13.22869,45.29831,-5.53639,39.598,128.31297,-0.00071,-109.20636,120.34003,0.00201,122.52726,-15.63332,-16.10717,-0.00039,-13.75607,9.29986,0.00074,-1.11532,-9.83565,8.05988,-23.04379,-12.10646,3.83599,1.49268,6.02585,7.27533
988,-0.69787,0.0,0.0,-5.33566,0.0,-0.0,-20.68446,-9.06632,19.4045,11.2992,3.77804,-17.39145,-22.74235,-6.48294,-9e-05,-6.58251,-0.4161,-0.00019,30.83888,20.63242,22.72736,0.70777,4.62584,-15.6198,21.2047,19.39035,13.18273,45.35145,-5.53413,39.3279,128.26505,-0.00066,-108.93019,120.24661,0.00105,123.28762,-16.07089,-16.04085,0.00094,-13.38973,9.50102,-0.00193,-1.13571,-9.76929,8.09088,-23.05809,-12.05631,3.89031,1.56209,5.93646,7.41487
989,-1.36866,0.0,-0.0,-6.08866,-0.0,-0.0,-20.49863,-9.1543,19.62313,11.53778,3.5458,-17.50212,-22.79898,-6.53859,0.0001,-6.76639,-0.31014,-0.00045,31.00298,20.60281,22.49072,0.94313,4.51602,-15.46082,21.17862,19.37087,13.30404,45.39068,-5.49407,39.18565,128.17818,-0.0008,-108.52366,120.20999,6e-05,123.50249,-16.40146,-16.02292,0.0017,-12.99248,9.32035,-0.00406,-1.16383,-9.85472,8.44181,-23.08376,-12.26465,4.18584,1.73677,5.87205,7.41253
990,-2.26923,0.0,0.0,-7.11245,-0.0,0.0,-20.16026,-9.33236,20.07206,11.86956,3.35682,-17.77243,-22.79821,-6.75634,-0.0,-6.98014,-0.19131,-0.00026,31.1827,20.62516,21.89545,1.25209,4.44114,-15.1746,21.10765,19.43415,13.66067,45.44608,-5.37442,39.20053,128.13191,-0.0014,-107.62237,120.25174,-7e-05,123.25462,-16.42671,-15.8818,0.00198,-12.72142,8.97997,-0.00253,-1.20077,-9.99069,8.93141,-23.11773,-12.57082,4.592,1.91195,5.85911,7.31335
991,-2.82858,0.0,-0.0,-7.70905,-0.0,0.0,-19.82132,-9.50294,20.45608,12.10489,3.34031,-17.97219,-22.78886,-7.00256,-0.00012,-7.15125,-0.16795,9e-05,31.28529,20.71854,21.31295,1.4993,4.44879,-14.97871,21.0042,19.52287,14.14031,45.56426,-5.19425,39.37428,128.13329,-0.00123,-106.27852,120.32513,-7e-05,122.89859,-16.32282,-15.57328,0.00143,-12.80498,8.85877,-0.00098,-1.24407,-10.13795,9.28877,-23.16228,-12.83878,4.87028,2.00009,5.9075,7.19745
992,-2.76093,-0.0,-0.0,-7.61615,0.0,0.0,-19.59583,-9.58073,20.58062,12.15767,3.47235,-18.05543,-22.83491,-7.12568,-0.00033,-7.24723,-0.23135,0.00016,31.27282,20.85555,21.06194,1.56922,4.53734,-14.91246,20.9333,19.57075,14.52813,45.76904,-5.03667,39.62103,128.11845,6e-05,-105.00095,120.3712,-0.00015,122.57664,-16.42294,-15.28328,0.00063,-13.17198,9.0873,-0.00205,-1.29493,-10.29521,9.3685,-23.22405,-13.01397,4.88472,1.95662,6.00774,7.12972
993,-2.26757,-0.0,-0.0,-7.00733,0.0,-0.0,-19.48786,-9.58934,20.4323,12.0267,3.62648,-18.06656,-22.96617,-7.08623,-0.00056,-7.29589,-0.29071,6e-05,31.16162,21.00204,21.22216,1.46926,4.63557,-14.87607,20.8929,19.5696,14.74715,46.02557,-4.954,39.81253,128.06798,0.00068,-104.24554,120.38164,-0.00013,122.21161,-16.72611,-15.14819,0.00082,-13.48427,9.52053,-0.00298,-1.34536,-10.38442,9.27554,-23.28515,-13.06255,4.76344,1.8061,6.1059,7.14685
994,-1.89181,-0.0,-0.0,-6.46603,0.0,-0.0,-19.40188,-9.60131,20.28242,11.83326,3.67331,-18.09466,-23.14219,-7.04024,-0.00028,-7.3489,-0.27859,-5e-05,31.05322,21.13478,21.47154,1.36683,4.65943,-14.75306,20.81633,19.57161,14.90337,46.26855,-4.9201,39.89785,128.01727,0.00037,-104.15508,120.38314,5e-05,121.79842,-16.91986,-15.07846,0.00105,-13.52222,9.82797,-0.00307,-1.3684,-10.33895,9.24617,-23.30519,-13.00958,4.75337,1.66566,6.14088,7.22832
995,-2.00127,0.0,0.0,-6.54106,-0.0,0.0,-19.27432,-9.58985,20.39881,11.76398,3.56528,-18.17579,-23.30114,-7.15087,0.00015,-7.43465,-0.20417,-0.0001,31.06628,21.22695,21.40152,1.41546,4.59018,-14.58406,20.7067,19.61781,15.07105,46.46567,-4.91585,39.92108,127.96387,-0.00049,-104.64131,120.39013,0.00029,121.60834,-16.86368,-14.98074,0.00101,-13.4565,9.79597,-0.00199,-1.37193,-10.26453,9.37925,-23.29806,-12.98945,4.90655,1.64238,6.11667,7.30425
996,-2.33824,0.0,-0.0,-7.05337,0.0,0.0,-19.18377,-9.50235,20.64994,11.87148,3.37415,-18.20996,-23.42096,-7.34896,0.00013,-7.55025,-0.1202,-6e-05,31.17447,21.25831,21.066,1.56321,4.4738,-14.551,20.63628,19.67987,15.2053,46.63548,-4.97907,39.94244,127.86723,-0.00127,-105.43416,120.39352,0.00048,121.78122,-16.74973,-14.91815,0.00086,-13.63202,9.51395,0.00115,-1.41364,-10.33576,9.5684,-23.33971,-13.12503,5.05647,1.69977,6.09576,7.33193
997,-2.35892,0.0,0.0,-7.38246,0.0,0.0,-19.22754,-9.44266,20.76577,12.0432,3.21305,-18.15137,-23.4974,-7.46581,-0.00011,-7.67934,-0.05724,-1e-05,31.22965,21.25427,20.82916,1.65091,4.36613,-14.66272,20.61702,19.70071,15.29136,46.81126,-5.14103,39.98855,127.73907,-0.00082,-106.15588,120.39072,0.00045,121.87508,-16.71465,-14.97565,0.00078,-14.11389,9.13267,0.00362,-1.52198,-10.55801,9.68727,-23.46363,-13.37486,5.08258,1.72415,6.12341,7.33762
998,-1.97623,0.0,0.0,-7.34163,0.0,-0.0,-19.35415,-9.52634,20.78085,12.16703,3.12387,-18.11699,-23.50877,-7.49651,-0.0002,-7.80314,-0.0079,-2e-05,31.14925,21.26481,20.81057,1.63076,4.29074,-14.68417,20.59579,19.68413,15.39302,47.01731,-5.38584,40.05155,127.64423,0.00024,-106.58101,120.40236,0.00013,121.61508,-16.56899,-15.14756,4e-05,-14.69998,8.81965,0.00217,-1.65404,-10.76015,9.70666,-23.61313,-13.56946,5.02306,1.67891,6.1749,7.37452
999,-1.61843,0.0,0.0,-7.22054,0.0,-0.0,-19.43163,-9.66633,20.86506,12.22033,3.09733,-18.18102,-23.46721,-7.54105,-0.00016,-7.89893,0.03079,-2e-05,30.98283,21.31045,20.87204,1.56782,4.23944,-14.47663,20.5603,19.69516,15.52042,47.27092,-5.66045,40.08706,127.60928,0.00064,-106.80602,120.43929,-0.0004,121.69535,-16.10151,-15.37523,-0.00109,-15.19785,8.92336,-0.00159,-1.74491,-10.79948,9.66892,-23.70881,-13.59208,4.97256,1.5996,6.18487,7.46938
1000,-1.60216,0.0,-0.0,-7.16878,0.0,-0.0,-19.42978,-9.68948,20.95461,12.20667,3.13829,-18.24614,-23.4609,-7.59595,-0.00012,-7.94387,0.04169,-2e-05,30.83489,21.38476,20.97089,1.51338,4.20348,-14.18339,20.55085,19.76551,15.61099,47.56494,-5.87571,40.04305,127.59243,0.00012,-107.10685,120.47331,-0.00026,122.74886,-15.43396,-15.6284,-0.00135,-15.46752,9.58713,-0.00174,-1.7631,-10.69028,9.65926,-23.71748,-13.48725,5.0055,1.50849,6.13224,7.60494
1001,-1.77841,-0.0,-0.0,-7.0209,0.0,-0.0,-19.44516,-9.52496,20.82574,12.10755,3.21167,-18.18329,-23.57902,-7.5731,-0.00038,-7.93399,0.03121,-1e-05,30.78874,21.47539,21.18981,1.47151,4.18283,-14.03675,20.58524,19.8591,15.6546,47.84822,-5.93616,39.93278,127.53705,-0.00099,-107.64027,120.46903,0.0004,124.08745,-14.89425,-15.9286,-0.00037,-15.4016,10.32355,-0.00014,-1.70457,-10.55694,9.74682,-23.64411,-13.39573,5.13882,1.41176,6.07178,7.71718
1002,-1.82897,0.0,0.0,-6.60579,0.0,-0.0,-19.56545,-9.19801,20.39926,11.92049,3.20797,-17.94942,-23.82853,-7.45783,-0.00072,-7.89237,0.04049,1e-05,30.86537,21.56629,21.52941,1.43182,4.16772,-14.14923,20.63974,19.94448,15.7071,48.06532,-5.80347,39.84519,127.41337,-0.00135,-108.20495,120.43027,0.00017,124.42393,-14.70232,-16.25538,0.00095,-15.01085,10.5023,-0.00269,-1.55915,-10.51633,9.914,-23.4893,-13.41947,5.31114,1.32703,6.05795,7.72774
1003,-1.68307,-0.0,-0.0,-6.0844,0.0,-0.0,-19.75321,-8.85333,19.9013,11.72404,3.06171,-17.60406,-24.1451,-7.34943,-0.00049,-7.85149,0.09111,2e-05,31.01771,21.64611,21.83642,1.39428,4.13609,-14.4441,20.6919,20.02901,15.79012,48.21745,-5.54004,39.84215,127.23122,0.00011,-108.30628,120.38885,-0.00016,123.46751,-14.84895,-16.44592,0.00069,-14.47905,10.0983,-0.00464,-1.33977,-10.59301,10.08662,-23.27065,-13.55397,5.44358,1.27426,6.06829,7.64098
1004,-1.49672,0.0,0.0,-5.97144,-0.0,0.0,-19.87825,-8.78594,19.73851,11.66365,2.83901,-17.32628,-24.45464,-7.36398,0.00014,-7.83133,0.16042,-1e-05,31.19668,21.7215,21.88565,1.3861,4.083,-14.68392,20.74172,20.10772,15.86735,48.34698,-5.30953,39.86892,127.0419,0.00156,-107.61048,120.35989,-4e-05,122.20007,-15.13763,-16.2888,-0.00067,-14.05673,9.60672,-0.00183,-1.15802,-10.70761,10.1974,-23.09527,-13.70095,5.50345,1.27365,6.04566,7.57814
1005,-1.28109,0.0,0.0,-6.44123,0.0,-0.0,-19.90915,-9.12468,20.023,11.76788,2.66429,-17.22567,-24.72184,-7.48254,0.00026,-7.83448,0.21514,-3e-05,31.39464,21.79599,21.64172,1.43198,4.02302,-14.73332,20.7985,20.15544,15.90471,48.46668,-5.27802,39.79893,126.89501,0.0011,-106.35803,120.33009,-0.0,121.57352,-15.34034,-15.75286,-0.00045,-13.83977,9.31669,0.00045,-1.17213,-10.74242,10.19906,-23.1125,-13.73384,5.49161,1.33672,5.97515,7.64576
1006,-0.8248,0.0,-0.0,-6.94577,-0.0,-0.0,-20.00054,-9.58867,20.39183,11.87891,2.62263,-17.18366,-24.93797,-7.5635,-0.00013,-7.85909,0.24879,-3e-05,31.58319,21.85049,21.36964,1.50409,3.94926,-14.71513,20.8628,20.17756,15.92034,48.5634,-5.4489,39.57565,126.78757,-9e-05,-105.22129,120.28369,8e-05,121.61641,-15.3896,-15.07528,0.00061,-13.6766,9.05752,-0.00112,-1.38753,-10.65074,10.09212,-23.32343,-13.60954,5.42654,1.42512,5.87832,7.81244
1007,-0.09985,0.0,0.0,-7.06744,0.0,0.0,-20.29479,-9.81294,20.52604,11.89402,2.73126,-17.11233,-25.09716,-7.56457,-0.00031,-7.90045,0.28981,-4e-05,31.71176,21.88027,21.26592,1.55347,3.83819,-14.72744,20.92098,20.20101,15.96667,48.67609,-5.65455,39.31253,126.69079,-0.0007,-104.69834,120.21838,0.00064,122.04846,-15.41558,-14.58256,0.00067,-13.43893,8.72403,-0.00392,-1.58573,-10.51381,9.96416,-23.51389,-13.43554,5.35915,1.46855,5.77734,7.95989
1008,0.51684,0.0,0.0,-7.02243,-0.0,0.0,-20.73671,-9.68219,20.45384,11.87868,2.91752,-17.08122,-25.2394,-7.58287,-0.00018,-7.93572,0.36586,-2e-05,31.80085,21.91631,21.25003,1.56885,3.69659,-14.70792,20.95631,20.22386,16.05115,48.87902,-5.74981,39.20307,126.60281,-0.00064,-104.77548,120.13956,0.00143,122.76295,-15.61176,-14.41949,0.0005,-13.28353,8.51221,-0.00497,-1.53287,-10.46574,9.96809,-23.4566,-13.39239,5.38128,1.44414,5.68175,8.00561
1009,0.58156,0.0,-0.0,-6.99932,0.0,-0.0,-21.15051,-9.2943,20.24091,11.87346,3.02352,-17.05828,-25.4652,-7.6556,-0.00018,-7.93665,0.46439,3e-05,31.90514,21.99109,21.26735,1.54713,3.55657,-14.66199,20.9585,20.23334,16.12006,49.16386,-5.73311,39.29909,126.53204,-0.0006,-105.18069,120.06003,0.00149,123.33713,-16.06026,-14.49063,0.00014,-13.38032,8.48223,-0.00439,-1.22868,-10.55187,10.23864,-23.15031,-13.57161,5.60199,1.37507,5.58371,7.95205
1010,0.053,-0.0,0.0,-6.89088,-0.0,-0.0,-21.42492,-8.82719,19.85623,11.83371,2.93669,-16.91586,-25.84311,-7.72863,-0.00028,-7.90318,0.55207,6e-05,32.02943,22.11389,21.37894,1.47094,3.44386,-14.69487,20.933,20.24187,16.139,49.4275,-5.68161,39.45589,126.45132,-0.00107,-105.67298,119.99775,0.0008,122.89699,-16.61814,-14.66107,-0.00127,-13.6528,8.38509,-0.00198,-0.89474,-10.68637,10.76046,-22.80854,-13.88784,6.04011,1.27946,5.48046,7.84755
1011,-0.6369,0.0,0.0,-6.78048,0.0,-0.0,-21.61184,-8.46636,19.38018,11.78762,2.75141,-16.71455,-26.33546,-7.80117,-1e-05,-7.86794,0.62336,3e-05,32.1861,22.28134,21.50004,1.37026,3.37216,-14.80999,20.92114,20.2558,16.12872,49.58625,-5.66943,39.51316,126.29594,-0.00098,-106.04745,119.95333,-0.0003,120.90212,-17.00579,-14.9099,-0.00282,-14.0374,8.01256,0.00158,-0.731,-10.75685,11.29703,-22.62906,-14.14992,6.51716,1.18568,5.40332,7.74295
1012,-1.01524,0.0,0.0,-6.92874,0.0,0.0,-21.8244,-8.38764,19.0048,11.83439,2.70209,-16.63797,-26.84656,-7.91753,0.0004,-7.86393,0.70515,-3e-05,32.41215,22.48244,21.47111,1.31383,3.32759,-14.89963,20.97543,20.25826,16.13175,49.64249,-5.73132,39.43772,126.01187,0.00151,-106.05278,119.90355,-0.00194,117.77388,-17.10831,-15.19961,-0.00257,-14.53877,7.44164,0.00385,-0.74592,-10.72519,11.56696,-22.62911,-14.21942,6.78315,1.13823,5.38646,7.68638
1013,-1.05332,0.0,0.0,-7.35253,0.0,-0.0,-22.07436,-8.67094,18.82662,11.98767,2.89883,-16.6916,-27.31275,-8.06299,0.00034,-7.89302,0.82071,-9e-05,32.70161,22.67882,21.32328,1.33406,3.2502,-14.92125,21.07776,20.2584,16.20283,49.66642,-5.82269,39.30031,125.62627,0.00442,-105.54588,119.83176,-0.00255,114.67461,-17.04025,-15.40789,-0.0004,-14.88894,7.01654,0.00499,-0.82228,-10.62556,11.52815,-22.69784,-14.11275,6.78494,1.16886,5.40671,7.69002
1014,-1.07,0.0,0.0,-7.82292,0.0,-0.0,-22.32154,-9.17679,18.77966,12.1514,3.22569,-16.71006,-27.72181,-8.18699,-7e-05,-7.92737,0.96664,-6e-05,33.02,22.81686,21.20659,1.42872,3.07359,-14.93345,21.13877,20.30997,16.39753,49.74449,-5.86083,39.18754,125.25406,0.00349,-104.81602,119.75127,-0.00115,112.80764,-16.81053,-15.57065,0.00031,-14.71669,7.11982,0.01034,-0.85477,-10.53288,11.37637,-22.72845,-13.97116,6.67781,1.28962,5.38656,7.7092
1015,-1.18275,0.0,0.0,-8.06101,0.0,0.0,-22.63667,-9.64831,18.69802,12.21818,3.48973,-16.5831,-28.083,-8.26871,-0.00046,-7.93489,1.12107,3e-05,33.33419,22.89525,21.21888,1.57252,2.79716,-14.98611,21.11613,20.45005,16.71378,49.90317,-5.85707,39.12082,124.99741,0.00024,-104.45271,119.68154,0.0001,112.48106,-16.24338,-15.89604,-0.00277,-14.15249,7.64045,0.01352,-0.79447,-10.51893,11.27475,-22.67133,-13.92099,6.58764,1.46491,5.26635,7.71245
1016,-1.19323,-0.0,-0.0,-7.9396,0.0,0.0,-23.15422,-9.962,18.45653,12.1697,3.57074,-16.34338,-28.41784,-8.33842,-0.00046,-7.90662,1.2563,8e-05,33.59694,22.98995,21.37551,1.69736,2.49728,-15.06504,21.06663,20.64635,17.07914,50.08395,-5.91325,39.04678,124.86275,-0.00156,-104.80285,119.61551,-5e-05,112.77645,-15.31238,-16.43917,-0.00587,-13.7516,7.90573,0.00936,-0.65383,-10.57266,11.22954,-22.53761,-13.95428,6.52451,1.60073,5.0583,7.71846
1017,-1.02652,0.0,0.0,-7.64081,-0.0,-0.0,-23.86997,-10.18469,18.10326,12.09072,3.47873,-16.09656,-28.76831,-8.45928,-4e-05,-7.85967,1.33883,4e-05,33.76405,23.17738,21.6331,1.71964,2.26121,-15.12546,21.06806,20.82826,17.42415,50.22584,-6.06631,38.92154,124.78637,-0.00181,-105.64555,119.54473,-0.00047,112.68005,-14.23603,-17.02938,-0.00458,-13.80952,7.56172,0.00533,-0.51503,-10.60842,11.20073,-22.40337,-13.9769,6.48369,1.6086,4.82421,7.73323
1018,-0.88094,0.0,0.0,-7.42388,0.0,0.0,-24.62618,-10.39462,17.75842,12.04406,3.33894,-15.93308,-29.1914,-8.63469,0.00017,-7.80815,1.34649,-4e-05,33.85192,23.44497,21.92942,1.59366,2.12912,-15.16723,21.16044,20.95395,17.70749,50.33865,-6.26503,38.76509,124.68365,-0.00119,-106.35654,119.4856,-0.00016,112.12824,-13.26665,-17.49025,-0.00088,-14.2209,6.94006,0.00209,-0.47711,-10.59806,11.17503,-22.3656,-13.95788,6.46352,1.46195,4.62618,7.71586
1019,-0.88507,0.0,0.0,-7.34793,-0.0,-0.0,-25.29246,-10.5368,17.46722,11.9983,3.26951,-15.8987,-29.71691,-8.78984,-0.00023,-7.74909,1.30189,-6e-05,33.95757,23.70537,22.1627,1.35289,2.09039,-15.25114,21.34692,21.03946,17.87579,50.4712,-6.49004,38.61134,124.47426,0.00078,-106.43362,119.42506,9e-05,111.64538,-12.59546,-17.75787,0.00157,-14.82612,6.30471,0.0001,-0.55963,-10.60817,11.15418,-22.44994,-13.95962,6.44004,1.21344,4.49907,7.6339
1020,-0.89517,0.0,-0.0,-7.34693,0.0,0.0,-25.86392,-10.48035,17.2365,11.91966,3.29009,-15.96085,-30.29704,-8.89835,-0.0005,-7.67847,1.2505,-3e-05,34.14962,23.90909,22.25656,1.09807,2.10049,-15.42335,21.58159,21.12339,17.89913,50.64443,-6.76684,38.45055,124.1264,0.00258,-105.87578,119.28483,-0.00027,111.52016,-12.30785,-17.84429,0.0015,-15.44292,5.48835,-0.00121,-0.689,-10.68004,11.16064,-22.58571,-14.02867,6.4185,0.97476,4.43388,7.53825
1021,-0.72765,0.0,0.0,-7.35318,0.0,0.0,-26.39074,-10.16633,17.07601,11.83117,3.37811,-15.98717,-30.83677,-9.03116,-9e-05,-7.60178,1.2081,-1e-05,34.36049,24.10271,22.31855,0.9119,2.09912,-15.67589,21.78258,21.20502,17.82538,50.83812,-7.0729,38.25923,123.68388,0.00175,-105.10403,119.00668,-0.00071,111.60192,-12.28912,-17.8193,-0.00019,-15.89226,4.40844,-0.00371,-0.79883,-10.75947,11.20165,-22.70123,-14.1174,6.42651,0.84167,4.38217,7.54286
1022,-0.41683,0.0,0.0,-7.33781,0.0,0.0,-26.89562,-9.68503,16.9721,11.7753,3.4863,-15.87287,-31.29475,-9.24958,0.00038,-7.5439,1.17907,-2e-05,34.49362,24.34567,22.52778,0.81405,2.03516,-15.96134,21.90932,21.25661,17.72607,51.02603,-7.32228,38.05872,123.21404,0.00143,-104.44684,118.65424,-0.00023,111.78905,-12.36943,-17.76713,-0.00213,-16.23051,3.43599,-0.00528,-0.8714,-10.75256,11.22223,-22.77227,-14.11853,6.4485,0.83646,4.2921,7.69752
1023,-0.11441,0.0,0.0,-7.31299,0.0,-0.0,-27.38395,-9.22366,16.87506,11.78775,3.50825,-15.6948,-31.72762,-9.49266,4e-05,-7.54424,1.19993,-0.0001,34.56968,24.61418,22.92739,0.78272,1.88479,-16.20201,21.99998,21.29198,17.64144,51.20152,-7.45937,37.89832,122.74642,0.00472,-103.73378,118.37392,0.00026,112.25091,-12.53194,-17.68034,-0.00323,-16.55731,3.01738,-0.00524,-0.85968,-10.62472,11.17644,-22.75057,-13.98313,6.45461,0.9104,4.14141,7.91291
1024,0.11452,0.0,0.0,-7.30375,-0.0,-0.0,-27.8549,-8.90999,16.76127,11.8931,3.40036,-15.67462,-32.21376,-9.64168,-0.00084,-7.60521,1.30249,-0.0002,34.68074,24.83166,23.42524,0.77248,1.66253,-16.31086,22.09954,21.34648,17.60973,51.37657,-7.53931,37.81448,122.28559,0.00483,-102.9216,118.24497,-0.00023,113.10942,-12.7489,-17.5387,-0.00248,-16.71156,3.17275,-0.00292,-0.70256,-10.45125,11.1126,-22.5802,-13.79877,6.46122,0.99516,3.95305,8.03458
1025,0.26944,-0.0,0.0,-7.3125,0.0,-0.0,-28.2618,-8.70637,16.71455,12.06858,3.27808,-15.96649,-32.753,-9.70258,-0.00083,-7.66424,1.44776,-0.00012,34.88671,24.96924,23.85523,0.75638,1.43082,-16.24996,22.19978,21.40613,17.66972,51.59031,-7.68404,37.83894,121.8339,-0.00254,-102.6601,118.2168,-4e-05,114.2011,-12.90236,-17.45201,-0.00087,-16.51758,3.61162,0.00026,-0.44122,-10.34867,11.11709,-22.30931,-13.70521,6.50478,1.07855,3.7914,7.97429
1026,0.33464,-0.0,-0.0,-7.22449,0.0,-0.0,-28.51875,-8.47971,16.84043,12.21239,3.25043,-16.4662,-33.28702,-9.78178,0.0001,-7.65752,1.54682,-4e-05,35.18484,25.07994,24.12599,0.7617,1.2717,-16.09264,22.2787,21.4418,17.81123,51.89421,-7.93994,37.97885,121.36976,-0.00763,-103.23181,118.19987,0.00119,114.97153,-13.11483,-17.45687,-0.00176,-15.99847,4.07138,0.00193,-0.19084,-10.37004,11.21193,-22.05677,-13.7598,6.58571,1.20242,3.71102,7.77403
1027,0.33188,0.0,0.0,-6.88917,0.0,-0.0,-28.5705,-8.18617,17.15648,12.22094,3.27647,-16.88927,-33.79361,-9.90128,0.00053,-7.59913,1.55074,-0.00011,35.51641,25.23425,24.36382,0.82826,1.21203,-15.98251,22.32599,21.48446,17.99165,52.27369,-8.20838,38.17596,120.86301,-0.00213,-103.77238,118.1507,0.00179,114.82682,-13.67659,-17.34235,-0.00633,-15.18866,4.40428,0.00298,-0.00761,-10.48866,11.34553,-21.87857,-13.91882,6.66579,1.38515,3.69377,7.55851
1028,0.35014,0.0,0.0,-6.42726,0.0,-0.0,-28.44314,-8.00989,17.65752,12.11425,3.27526,-17.08052,-34.30085,-9.9867,0.0,-7.56695,1.48882,-0.00017,35.82751,25.42892,24.70471,0.9555,1.19796,-16.01637,22.32064,21.57574,18.18913,52.61854,-8.37635,38.3439,120.32318,0.00638,-103.49282,118.06112,0.00088,113.7907,-14.46535,-16.96211,-0.00807,-14.18645,4.53235,0.00403,0.12329,-10.62112,11.44178,-21.75571,-14.077,6.70543,1.60379,3.67204,7.41206
1029,0.42336,0.0,-0.0,-6.19268,-0.0,-0.0,-28.23213,-8.2287,18.32081,12.01915,3.26575,-17.13398,-34.82652,-9.99415,-0.00075,-7.62679,1.40729,-0.00012,36.12546,25.5885,25.04466,1.11393,1.16864,-16.19377,22.25128,21.65945,18.37808,52.82057,-8.47011,38.41932,119.77467,0.00741,-102.75143,117.94418,-0.00079,112.28027,-14.95929,-16.42577,-0.00226,-13.37111,4.38421,0.005,0.21098,-10.64699,11.44612,-21.67025,-14.10259,6.69957,1.83576,3.61321,7.33216
1030,0.47878,0.0,0.0,-6.32636,0.0,-0.0,-28.06951,-8.80945,18.98696,12.03881,3.33606,-17.16684,-35.33467,-9.97434,-0.00083,-7.80126,1.30505,0.0001,36.41919,25.66428,25.20979,1.29399,1.10631,-16.448,22.14006,21.62286,18.50087,52.88297,-8.57073,38.37267,119.19833,0.00221,-102.32844,117.82629,-0.00105,110.72391,-14.95675,-15.85617,0.0037,-13.11146,4.03648,0.00486,0.25213,-10.49968,11.38611,-21.61805,-13.94391,6.69972,2.07935,3.53137,7.31725
1031,0.49793,0.0,0.0,-6.60204,0.0,0.0,-28.11883,-9.2701,19.40862,12.19077,3.50972,-17.15501,-35.7587,-10.03883,-0.00028,-8.07891,1.1635,0.00034,36.67759,25.66901,25.17673,1.51292,1.00525,-16.72943,22.0174,21.45975,18.52155,52.9308,-8.65618,38.26275,118.54078,-0.00423,-102.49635,117.69093,0.00185,109.87337,-14.84055,-15.3616,0.00429,-13.40087,3.86704,-0.00039,0.27549,-10.27245,11.37406,-21.57439,-13.72861,6.77552,2.35063,3.43789,7.37374
1032,0.57652,0.0,0.0,-6.73629,0.0,-0.0,-28.4845,-9.18893,19.47013,12.42246,3.68943,-17.07182,-36.07579,-10.25128,0.00013,-8.41391,1.00222,0.00027,36.89262,25.62523,25.01467,1.76069,0.86621,-17.04552,21.90401,21.29389,18.4595,53.09699,-8.66807,38.22989,117.75876,-0.0093,-103.08019,117.48577,0.00616,110.28547,-14.98464,-15.10629,0.0032,-13.96052,4.16164,-0.00691,0.33461,-10.15415,11.46504,-21.50043,-13.65212,6.90637,2.65397,3.33789,7.43261
1033,0.7326,-0.0,0.0,-6.64941,0.0,-0.0,-29.03424,-8.73582,19.29003,12.64782,3.77565,-17.01578,-36.33558,-10.55076,0.00013,-8.74308,0.85579,-3e-05,37.09052,25.55022,24.80067,1.9872,0.72461,-17.36659,21.82307,21.21936,18.33218,53.37245,-8.64061,38.31763,116.81947,-0.00888,-103.71444,117.21507,0.00563,111.36623,-15.27022,-15.00885,0.0029,-14.42858,4.66873,-0.00634,0.45278,-10.24339,11.56525,-21.38577,-13.77164,6.96644,2.95612,3.24854,7.42532
1034,0.79549,0.0,0.0,-6.44866,0.0,-0.0,-29.43042,-8.41341,19.0922,12.81169,3.79176,-17.07153,-36.61228,-10.82944,0.00023,-9.02673,0.7213,-0.00015,37.27882,25.47864,24.59683,2.15825,0.63237,-17.60482,21.78974,21.22387,18.10302,53.62804,-8.64607,38.41886,115.68882,-0.00019,-103.9314,116.92645,-0.00063,111.94317,-15.41991,-14.7406,0.00324,-14.63309,4.87457,-0.00137,0.5819,-10.47137,11.56645,-21.27755,-13.98368,6.88017,3.21634,3.18628,7.40522
1035,0.58039,0.0,-0.0,-6.32851,-0.0,-0.0,-29.41673,-8.4069,19.0165,12.94764,3.80536,-17.17629,-36.95773,-11.05199,0.00077,-9.27532,0.57423,-1e-05,37.4501,25.45021,24.40926,2.27858,0.61195,-17.75224,21.7502,21.27853,17.72166,53.79627,-8.68032,38.47039,114.38811,0.00908,-103.44874,116.61425,-0.00564,111.60842,-15.52872,-14.26059,0.00413,-14.79378,4.58985,0.00297,0.63824,-10.67579,11.46938,-21.24466,-14.13784,6.71037,3.42563,3.15419,7.45836
1036,0.12583,-0.0,0.0,-6.45964,0.0,0.0,-29.03346,-8.49618,19.03088,13.14258,3.78491,-17.25919,-37.38396,-11.22049,0.00102,-9.54102,0.42327,0.00018,37.62399,25.46904,24.22756,2.37352,0.64215,-17.88028,21.58046,21.38555,17.185,53.9516,-8.67304,38.5273,113.02992,0.00612,-102.42451,116.24219,-0.003,111.09721,-15.94911,-13.85965,0.00661,-15.10021,4.13386,0.00395,0.61981,-10.71803,11.31337,-21.2739,-14.11989,6.54745,3.60026,3.14208,7.57792
1037,-0.30483,-0.0,0.0,-6.77532,-0.0,-0.0,-28.55985,-8.46728,18.94949,13.40094,3.64016,-17.35237,-37.86431,-11.24774,-0.00024,-9.86425,0.31015,0.00013,37.82722,25.49147,24.15878,2.46371,0.67665,-18.01433,21.22507,21.53837,16.50936,54.18847,-8.58851,38.60898,111.68855,-0.00829,-101.26466,115.85091,0.00402,111.42869,-16.78218,-13.58433,0.00898,-15.34767,4.00382,0.00236,0.63598,-10.56329,11.10669,-21.2522,-13.90057,6.41266,3.75335,3.12205,7.72311
1038,-0.44383,0.0,0.0,-6.96253,0.0,0.0,-28.26404,-8.35264,18.62271,13.61744,3.35893,-17.48069,-38.34515,-11.02994,-0.00191,-10.22769,0.26377,-0.00013,38.03899,25.46471,24.34597,2.5424,0.66893,-18.13534,20.75736,21.72652,15.67362,54.47426,-8.47464,38.64602,110.2765,-0.01747,-100.14074,115.56546,0.00452,112.62778,-17.78213,-13.04432,0.00515,-15.30108,4.33943,0.00226,0.75116,-10.28171,10.83844,-21.12264,-13.54095,6.26867,3.89702,3.05426,7.91058
1039,-0.22396,0.0,0.0,-6.82718,-0.0,0.0,-28.18842,-8.3148,18.16392,13.74181,3.03099,-17.61019,-38.75647,-10.66525,-0.00176,-10.5834,0.28153,-0.00035,38.21304,25.35921,24.67803,2.5934,0.58664,-18.25554,20.22671,21.96151,14.63629,54.68591,-8.3996,38.62888,108.65896,-0.00633,-98.74323,115.46645,0.00021,113.8078,-18.74266,-11.80591,-0.00658,-15.02262,4.84511,0.00263,0.87327,-9.98131,10.44422,-20.99,-13.11762,6.01354,4.07117,2.90911,8.17567
1040,0.19591,0.0,0.0,-6.43713,-0.0,-0.0,-28.19831,-8.36396,17.81507,13.83755,2.77686,-17.6841,-39.04559,-10.39559,-0.00048,-10.90245,0.32708,-0.00023,38.33331,25.1668,24.83878,2.60695,0.43038,-18.46944,19.5772,22.22841,13.37777,54.77445,-8.34062,38.68406,106.81189,0.01907,-96.71275,115.46718,0.00113,114.76943,-19.68346,-9.81254,-0.01931,-14.63432,5.29662,0.00349,0.86239,-9.74293,9.81084,-21.00463,-12.66399,5.51051,4.30876,2.69111,8.50662
1041,0.63534,0.0,0.0,-5.94185,0.0,-0.0,-28.1994,-8.2924,17.64619,13.95455,2.65647,-17.66224,-39.22726,-10.34814,0.00021,-11.1857,0.34028,0.00019,38.41402,24.92125,24.64888,2.56631,0.25934,-18.87698,18.77093,22.43012,11.94162,54.83026,-8.14866,38.94582,104.77369,0.0405,-94.32604,115.35126,0.00925,116.11062,-20.56258,-7.48078,-0.01769,-14.14849,5.71452,0.00501,0.69482,-9.60723,8.95669,-21.18992,-12.22433,4.76212,4.56288,2.45259,8.86127
1042,1.14187,-0.0,0.0,-5.51821,-0.0,0.0,-28.20433,-8.00743,17.5809,14.08708,2.58819,-17.64477,-39.38199,-10.48902,0.00051,-11.45576,0.30437,0.00042,38.49191,24.69977,24.13713,2.4777,0.15453,-19.36239,17.85707,22.45345,10.49389,55.00283,-7.6641,39.42207,102.51321,0.05665,-92.36446,114.95142,0.01186,117.53374,-21.11091,-5.31198,-0.00091,-13.6613,6.01568,0.00487,0.49773,-9.56357,8.14676,-21.40692,-11.88601,4.02104,4.74561,2.26068,9.20404
1043,1.9686,0.0,0.0,-5.35776,-0.0,-0.0,-28.23397,-7.73803,17.56598,14.24992,2.40942,-17.87411,-39.60881,-10.73323,0.00123,-11.74049,0.28932,7e-05,38.62545,24.56086,23.40078,2.39136,0.13755,-19.59509,16.91461,22.28649,9.25906,55.39446,-6.89005,40.01099,99.91442,0.06011,-91.44189,114.27975,-0.0015,117.80679,-21.15989,-3.48382,0.01239,-13.2832,5.94428,0.00193,0.44569,-9.52337,7.65953,-21.46799,-11.66943,3.58099,4.8392,2.13612,9.53199
1044,3.26247,0.0,-0.0,-5.5401,0.0,-0.0,-28.26912,-7.72071,17.55416,14.48671,2.09517,-18.4596,-39.98259,-10.97304,0.00175,-12.0438,0.3691,-0.00052,38.86087,24.49936,22.58711,2.33638,0.16481,-19.40622,16.01272,21.99458,8.31544,55.99205,-6.00441,40.59697,96.87622,0.00435,-92.09632,113.49635,-0.01503,116.41052,-20.84064,-2.1272,0.01125,-12.83941,5.36938,-0.00518,0.61677,-9.38835,7.45278,-21.29136,-11.46805,3.43929,4.91409,2.04684,9.90052
1045,4.72259,0.0,0.0,-5.90491,0.0,-0.0,-28.2626,-7.85632,17.4356,14.79022,1.84436,-19.17702,-40.51999,-11.06513,0.00073,-12.33953,0.5105,-0.00061,39.19064,24.45394,21.91877,2.27869,0.18338,-19.05071,15.14379,21.60756,7.5383,56.66617,-5.18111,41.12515,93.41548,-0.11032,-94.90755,112.80063,-0.0136,113.87,-20.28529,-1.60203,0.00019,-12.07613,4.48488,-0.01166,0.92815,-9.20082,7.19987,-20.97154,-11.20095,3.27446,5.04695,1.94683,10.37727
1046,5.63435,0.0,0.0,-6.10875,0.0,0.0,-28.14065,-7.88451,17.11386,15.07868,1.85203,-19.65625,-41.17765,-10.91193,-0.00128,-12.60654,0.59379,-9e-05,39.53892,24.35538,21.57245,2.15986,0.16184,-18.94991,14.12566,21.11815,6.77929,57.26884,-4.43702,41.6434,89.7173,-0.17091,-99.43598,112.31518,-0.00337,110.9368,-19.50299,-2.01883,-0.00975,-11.10671,3.7475,-0.00807,1.19072,-9.12424,6.70548,-20.71329,-10.94783,2.84212,5.23472,1.80092,10.94685
1047,5.45331,0.0,0.0,-5.90625,0.0,-0.0,-27.84323,-7.76541,16.61894,15.2741,2.07664,-19.72736,-41.89382,-10.56264,-0.00235,-12.85909,0.54807,0.00044,39.80525,24.18365,21.53511,1.94677,0.0859,-19.26114,12.71577,20.54195,6.02413,57.75911,-3.6418,42.30211,86.04894,-0.10574,-103.73777,112.00631,0.00536,108.5778,-18.58344,-2.93662,-0.00986,-10.27084,3.60948,0.00133,1.26722,-9.20529,6.1793,-20.6515,-10.82918,2.32055,5.39452,1.58832,11.5115
1048,4.31558,-0.0,0.0,-5.29342,0.0,0.0,-27.39072,-7.67011,16.06706,15.37276,2.34982,-19.51357,-42.63553,-10.15732,-0.00212,-13.1365,0.42444,0.00047,39.97323,23.97633,21.65679,1.67197,-0.04767,-19.82743,10.90123,19.89254,5.39676,58.22438,-2.66019,43.27164,82.46735,0.00628,-105.82903,111.74461,0.01003,107.81329,-17.59482,-3.75565,-0.00266,-9.68376,4.19067,0.00674,1.22723,-9.29117,5.98357,-20.70046,-10.83672,2.10543,5.47326,1.31474,11.99497
1049,2.89827,0.0,0.0,-4.44876,0.0,-0.0,-26.90287,-7.68827,15.57199,15.44806,2.60693,-19.28599,-43.41549,-9.8161,-0.0009,-13.47474,0.32669,-4e-05,40.18349,23.79452,21.74126,1.45308,-0.21181,-20.40295,8.93075,19.13039,5.08344,58.78673,-1.49775,44.63272,78.67855,0.05726,-105.30402,111.44115,0.00943,108.44354,-16.43134,-4.14638,0.00479,-9.27651,5.14456,0.00556,1.26517,-9.26261,6.19334,-20.65744,-10.88753,2.31184,5.54806,1.0473,12.40214
1050,1.92687,-0.0,-0.0,-3.72111,0.0,-0.0,-26.55809,-7.7018,15.23518,15.61351,2.88094,-19.29239,-44.25967,-9.62475,0.0014,-13.87856,0.30219,-0.00055,40.63106,23.67463,21.56442,1.41884,-0.34806,-20.81777,7.03917,18.19932,5.2196,59.50358,-0.27525,46.35875,74.32205,0.03734,-103.20162,111.05756,0.00473,109.13464,-15.14563,-4.10901,0.00835,-9.15113,5.93891,0.00014,1.47022,-9.20385,6.54137,-20.4425,-10.96124,2.65875,5.76455,0.88653,12.79004
1051,1.76689,0.0,0.0,-3.43067,0.0,-0.0,-26.462,-7.55714,15.08633,15.9261,3.17721,-19.56156,-45.17176,-9.59262,0.00308,-14.29598,0.30114,-0.00045,41.34371,23.5964,21.0301,1.5477,-0.41249,-21.10866,5.29201,17.12082,5.82465,60.35029,0.95415,48.38068,69.30132,0.039,-100.42334,110.52145,0.00202,109.27287,-14.1552,-3.66379,0.00533,-9.50858,6.30774,-0.00309,1.76886,-9.25561,6.75745,-20.14373,-11.08886,2.84068,6.15684,0.84706,13.22306
1052,2.26999,0.0,-0.0,-3.50645,0.0,-0.0,-26.50195,-7.34525,15.01414,16.29793,3.45277,-19.8355,-46.14058,-9.59652,0.00166,-14.64226,0.2359,3e-05,42.11855,23.51287,20.32369,1.63911,-0.41903,-21.51224,3.68579,16.02863,6.84481,61.27663,2.29893,50.65827,63.79026,0.10232,-97.01137,109.73068,-0.00253,109.21102,-13.86978,-2.76848,-0.00628,-10.3054,6.27092,-6e-05,2.00141,-9.41082,6.85181,-19.92085,-11.26761,2.86967,6.59812,0.81506,13.74316
1053,2.91944,0.0,-0.0,-3.48925,-0.0,-0.0,-26.41135,-7.337,14.82609,16.55645,3.65639,-19.82692,-47.14892,-9.4671,-0.00236,-14.87154,0.08028,0.00023,42.70954,23.39561,19.77429,1.5077,-0.43659,-22.20794,2.25137,15.08484,8.22059,62.25615,3.90724,53.19818,58.03132,0.12791,-93.25013,108.62625,-0.01623,108.9963,-14.38372,-1.7821,-0.01746,-11.32215,5.82408,0.00762,2.03812,-9.54371,7.0044,-19.89119,-11.44708,2.96147,6.95378,0.65507,14.36733
1054,3.30572,-0.0,-0.0,-3.00131,0.0,-0.0,-26.05748,-7.56524,14.40326,16.59935,3.73585,-19.55802,-48.1543,-9.17401,-0.00443,-14.99349,-0.10249,0.00014,43.03582,23.22606,19.50852,1.13409,-0.51488,-23.11014,1.00762,14.35489,9.99919,63.28172,5.76697,55.95491,52.19257,0.05388,-90.25594,107.22523,-0.01986,108.59477,-15.53051,-1.44951,-0.0167,-12.33757,5.03345,0.01066,1.95465,-9.56732,7.20864,-19.97236,-11.5442,3.14313,7.20041,0.33153,15.11486
1055,3.75366,-0.0,-0.0,-2.23575,-0.0,-0.0,-25.62801,-7.7828,13.88317,16.4894,3.6355,-19.41221,-49.08748,-8.92375,-0.00117,-15.03204,-0.2034,0.00013,43.23217,22.97023,19.20734,0.62721,-0.61107,-23.89869,-0.12607,13.77477,12.46607,64.35133,7.6322,58.7439,46.41251,-0.04145,-88.92131,105.63496,0.00836,108.76814,-17.04668,-2.1557,-0.00758,-13.01659,4.31502,0.00479,2.03523,-9.48695,7.18078,-19.88626,-11.45938,3.14774,7.39401,-0.06759,15.99386
1056,5.04307,-0.0,0.0,-1.80185,0.0,0.0,-25.42291,-7.90729,13.63256,16.39062,3.34808,-19.74827,-49.91105,-8.92002,0.00299,-15.02567,-0.13259,0.00023,43.50621,22.58412,18.45576,0.11211,-0.65851,-24.28401,-1.29848,13.26123,15.99807,65.46755,9.17656,61.36854,40.92275,-0.07483,-89.15451,104.05235,0.03579,110.18124,-18.94888,-3.69571,0.01653,-13.05214,4.10949,0.00086,2.49613,-9.35736,6.71417,-19.42472,-11.16731,2.76159,7.58692,-0.42679,16.95034
1057,7.0807,-0.0,0.0,-2.02967,0.0,0.0,-25.47706,-8.10392,13.8833,16.41727,2.9886,-20.44779,-50.6629,-9.01586,0.00215,-15.05104,0.10124,0.0001,43.92226,22.06031,17.42288,-0.33619,-0.69353,-24.32533,-2.61715,12.8484,20.74678,66.63084,10.2439,63.79326,35.97086,-0.06115,-90.38775,102.66514,0.01765,111.98904,-21.69353,-5.65899,0.05617,-12.56426,4.33407,0.0014,3.27905,-9.24815,5.96943,-18.64578,-10.7916,2.10861,7.79573,-0.72494,17.91628
1058,8.81358,-0.0,0.0,-2.7159,0.0,0.0,-25.56164,-8.39137,14.47917,16.61047,2.75331,-21.10031,-51.39376,-8.90355,-0.00162,-15.17786,0.39376,-0.00012,44.41171,21.45345,16.67372,-0.66834,-0.81815,-24.34367,-4.10112,12.67257,26.69204,67.84759,10.91873,66.08823,31.65459,-0.05348,-92.24797,101.47375,-0.02115,112.70128,-25.33677,-7.52285,0.06104,-12.09098,4.47474,0.00268,4.15169,-9.18477,5.24506,-17.77715,-10.4658,1.45781,8.05213,-1.0328,18.90259
1059,9.85395,0.0,-0.0,-3.4382,0.0,0.0,-25.52784,-8.63201,15.08116,16.96471,2.72868,-21.51192,-52.09917,-8.57275,-0.00261,-15.39939,0.6651,-2e-05,44.93166,20.81021,16.32492,-0.87435,-1.06577,-24.55651,-5.71088,12.84414,33.82905,69.11205,11.372,68.25771,27.99372,-0.05087,-94.45048,100.26161,-0.02125,112.44827,-28.77272,-8.6345,0.01515,-12.12582,4.15884,0.00794,4.93086,-9.10216,4.59747,-16.99734,-10.15039,0.88634,8.41459,-1.41223,19.96757
1060,10.89259,0.0,0.0,-3.82335,0.0,0.0,-25.3895,-8.86193,15.49958,17.3505,2.7771,-21.70121,-52.75623,-8.25343,-0.00066,-15.65365,0.92527,0.00028,45.44089,20.13589,16.02132,-1.05133,-1.38412,-24.97159,-7.42866,13.42247,41.91211,70.33275,11.73916,70.18481,25.04618,-0.02057,-96.22195,98.81564,0.02434,112.7822,-30.68024,-8.57976,-0.01304,-12.59949,3.48491,0.01046,5.60648,-8.91823,3.90048,-16.3124,-9.72274,0.30773,8.89776,-1.86277,21.14852
1061,12.25621,-0.0,0.0,-3.70945,0.0,-0.0,-25.10289,-9.16673,15.79014,17.55536,2.72719,-21.71297,-53.36949,-8.04983,0.0006,-15.92226,1.21734,0.00033,45.83004,19.47683,15.63025,-1.3103,-1.7191,-25.42402,-9.32798,14.46838,50.31187,71.33978,12.14333,71.70549,22.78844,0.02398,-96.48499,97.10465,0.05143,114.06133,-30.98372,-7.53309,-0.00333,-12.86934,2.84007,0.0036,6.36216,-8.6362,3.16736,-15.5393,-9.19072,-0.26705,9.48324,-2.34577,22.47827
1062,13.33335,-0.0,0.0,-3.21857,0.0,0.0,-24.53677,-9.40871,16.12862,17.48263,2.65664,-21.70372,-53.92899,-7.87076,4e-05,-16.28627,1.54505,5e-05,45.99956,18.92972,15.4179,-1.61197,-2.06374,-25.59911,-11.48578,15.99212,58.5931,71.99552,12.64553,72.72073,21.02953,0.04641,-94.95121,95.21368,0.02086,114.86564,-30.64396,-6.11144,0.0036,-12.50847,2.47504,-0.00533,7.46331,-8.34262,2.56603,-14.41899,-8.69656,-0.71489,10.17598,-2.81169,24.02345
1063,13.69552,-0.0,0.0,-2.60402,-0.0,0.0,-23.70905,-9.41674,16.63176,17.19326,2.8159,-21.90335,-54.36272,-7.65708,-0.00046,-16.86778,1.85813,0.0002,45.94123,18.52581,15.53409,-1.81205,-2.42568,-25.2766,-13.81386,17.88032,66.94961,72.26151,13.06871,73.25124,19.61233,0.04318,-92.33157,93.18639,-0.03048,114.12621,-30.36963,-4.85662,-0.00029,-12.00033,2.26802,-0.0123,8.94437,-8.16444,2.14108,-12.92554,-8.37451,-1.04239,10.97009,-3.19337,25.85625
1064,13.78766,0.0,0.0,-2.0482,-0.0,0.0,-22.87478,-9.24834,17.27777,16.75825,3.26029,-22.38005,-54.59475,-7.52565,-0.0001,-17.73366,2.1143,0.00095,45.73395,18.16626,15.671,-1.83473,-2.79231,-24.59377,-16.09911,19.96193,75.5502,72.19566,13.03266,73.37727,18.62175,0.02624,-89.06407,90.97523,-0.0583,112.22055,-30.16462,-3.89945,-0.00205,-12.33878,1.85531,-0.01204,10.40518,-8.22209,1.72319,-11.46448,-8.27393,-1.45204,11.82353,-3.42327,27.94611
1065,14.22315,-0.0,-0.0,-1.56973,-0.0,0.0,-22.29864,-9.06258,17.95819,16.1215,3.77885,-22.96,-54.64035,-7.60814,0.00018,-18.89047,2.34231,0.00125,45.47983,17.69522,15.40602,-1.72796,-3.16727,-23.91791,-18.21787,22.1403,83.72208,71.90152,12.29297,73.12806,18.29177,-0.01335,-84.6582,88.47507,-0.04236,110.24346,-29.77248,-3.12144,0.00192,-13.98186,0.92254,-0.00154,11.32611,-8.49913,1.1328,-10.55177,-8.31341,-2.10413,12.69347,-3.49177,30.09595
1066,14.95304,0.0,-0.0,-1.04261,-0.0,-0.0,-22.04632,-8.84524,18.54542,15.07184,4.23642,-23.32906,-54.58878,-7.85842,0.00029,-20.35004,2.59121,0.0008,45.21214,17.03788,14.67549,-1.57455,-3.58938,-23.53794,-20.20241,24.40346,90.48027,71.43136,10.95964,72.4173,18.74952,-0.06772,-78.95332,85.53677,0.0141,109.1622,-28.9238,-2.4398,0.00717,-16.42885,-0.72785,0.01013,11.56673,-8.78776,0.32632,-10.31355,-8.28412,-2.96055,13.54601,-3.44718,32.06199
1067,15.31625,0.0,0.0,-0.33932,0.0,0.0,-21.98234,-8.4559,18.94296,13.35028,4.74894,-23.24882,-54.48885,-8.14347,0.00016,-22.1465,2.86195,-0.00084,44.87112,16.25425,13.72267,-1.39859,-4.09188,-23.53995,-22.09177,26.73234,95.57117,70.75654,9.32217,71.06845,19.9164,-0.07562,-73.48704,81.98804,0.07153,109.19222,-27.33244,-1.96764,0.00209,-18.89058,-3.31047,0.0215,11.3665,-8.90181,-0.65871,-10.49787,-8.02735,-3.91595,14.35433,-3.3331,33.74515
1068,14.86,0.0,0.0,0.48888,0.0,-0.0,-21.87782,-7.90775,19.13579,10.77929,5.46122,-22.76341,-54.28896,-8.41385,-0.00063,-24.29707,3.14405,-0.00501,44.35912,15.45335,12.74989,-1.17368,-4.6758,-23.84051,-23.7936,29.11432,99.35278,69.85902,7.5694,68.95669,21.61072,-0.01422,-70.54098,77.75921,0.07936,109.63571,-24.91297,-1.91111,-0.01306,-21.05537,-6.83728,0.03172,10.95603,-8.86127,-1.76158,-10.87464,-7.58421,-4.92157,15.10409,-3.16098,35.21076
1069,14.02271,-0.0,-0.0,1.07752,-0.0,-0.0,-21.58322,-7.41079,19.14497,7.28091,6.34323,-22.08978,-53.90531,-8.66386,-0.00155,-26.78554,3.42804,-0.00901,43.58415,14.70312,11.79565,-0.90223,-5.29693,-24.29617,-25.08847,31.64043,102.10596,68.81277,5.73159,66.1558,23.66236,0.04641,-70.80883,72.9968,0.03342,109.48978,-22.03361,-2.16874,-0.01505,-23.00633,-10.69789,0.0273,10.39444,-8.77324,-2.87741,-11.39282,-7.09284,-5.92077,15.74462,-2.92975,36.54679
1070,13.73511,-0.0,0.0,0.73027,0.0,-0.0,-21.16556,-7.14321,18.90952,2.85334,7.24035,-21.28122,-53.31975,-8.82035,-0.0013,-29.58132,3.63522,-0.00465,42.51104,14.02972,10.8392,-0.61266,-5.85882,-24.79387,-25.75578,34.44757,103.84325,67.73419,3.75607,62.84727,25.94591,0.04644,-72.99599,67.95021,-0.01445,108.24551,-19.39585,-2.38337,-0.00176,-24.8076,-13.99384,0.00858,9.72434,-8.64489,-3.91936,-12.01421,-6.59176,-6.83622,16.16146,-2.64268,37.7802
1071,14.40221,-0.0,0.0,-1.34876,0.0,0.0,-20.85149,-7.05449,18.30788,-2.41759,8.01261,-20.10942,-52.58527,-8.79086,-1e-05,-32.64796,3.64149,0.01124,41.22855,13.44133,9.86428,-0.26898,-6.24179,-25.23665,-25.74554,37.51468,104.41481,66.65211,1.55575,59.03045,28.4195,0.01273,-75.5478,62.77768,-0.04013,106.06493,-17.5485,-2.45676,0.00572,-26.27913,-16.45133,-0.01109,9.07695,-8.40726,-4.94958,-12.60355,-5.99411,-7.7001,16.27533,-2.2965,38.86755
1072,15.6204,-0.0,-0.0,-5.64341,0.0,0.0,-20.79422,-6.93609,17.37157,-8.35708,8.56422,-18.26156,-51.76358,-8.57845,0.00078,-35.95183,3.46961,0.02731,39.91945,12.91392,8.82312,0.21549,-6.36402,-25.51592,-25.25043,40.61886,103.71803,65.468,-0.91002,54.48505,31.13073,0.00175,-77.9341,57.54544,-0.07649,103.23905,-16.50187,-2.58627,0.00372,-26.93765,-18.48552,-0.03073,8.57038,-8.06021,-6.1023,-13.03683,-5.25074,-8.63701,16.13914,-1.87103,39.61918
1073,16.82335,-0.0,0.0,-11.8338,0.0,0.0,-20.91623,-6.69737,16.37175,-14.72801,8.78962,-15.53747,-50.89965,-8.25212,0.00096,-39.52026,3.39607,0.02927,38.73875,12.3879,7.63359,0.87303,-6.23086,-25.56333,-24.55564,43.58255,101.96946,64.07003,-3.54163,49.13472,34.11281,0.01932,-80.29858,52.32965,-0.11378,100.01939,-15.85396,-2.88433,-0.00027,-26.53408,-20.33763,-0.03428,8.1871,-7.70693,-7.34404,-13.33602,-4.47008,-9.65471,15.8916,-1.35307,39.69106
1074,17.77913,0.0,-0.0,-18.49357,-0.0,-0.0,-21.0288,-6.48777,15.56162,-21.19631,8.62968,-11.88202,-50.04377,-7.83928,0.00137,-43.49746,3.7492,0.01458,37.72324,11.83257,6.25672,1.67333,-5.94409,-25.43016,-23.73047,46.50049,99.57848,62.45723,-6.17628,43.26047,37.29652,0.03233,-82.5516,47.20813,-0.08533,97.12468,-15.27882,-3.24155,-0.00191,-25.83333,-21.86737,0.00162,7.79158,-7.44598,-8.52536,-13.64764,-3.79843,-10.65142,15.63155,-0.77683,38.86835
1075,18.39506,0.0,0.0,-23.80798,-0.0,-0.0,-21.0561,-6.46365,14.90872,-27.19422,8.20575,-7.48975,-49.25375,-7.35334,0.00144,-48.08779,4.65658,-0.01269,36.79068,11.32123,4.76379,2.61269,-5.68272,-25.21434,-22.50557,49.59997,96.65215,60.73252,-8.7738,37.24107,40.56952,0.02939,-84.29222,42.20353,0.02388,95.65067,-14.77496,-3.50695,-0.00054,-26.30918,-22.99622,0.04326,7.244,-7.25436,-9.72034,-14.10542,-3.18768,-11.68694,15.34039,-0.22804,37.3774
1076,18.48198,-0.0,0.0,-26.91333,0.0,-0.0,-21.08463,-6.47221,14.18746,-31.99789,7.7413,-2.91929,-48.55301,-6.86005,0.00054,-53.3772,6.0299,-0.04552,35.83206,11.0233,3.36164,3.76206,-5.61925,-24.89174,-20.5359,52.90632,92.89997,58.98483,-11.45266,31.28621,43.90181,0.01125,-85.19426,37.36405,0.13561,96.13512,-14.37297,-3.56317,0.00322,-28.77416,-23.45747,0.0158,6.50454,-6.98232,-11.25961,-14.71853,-2.37968,-13.01294,14.92307,0.23249,35.74431
1077,18.11164,0.0,0.0,-28.23124,0.0,-0.0,-21.25651,-6.1379,13.33667,-35.15503,7.29817,1.07348,-47.86274,-6.45712,-0.0015,-59.18647,7.65388,-0.06723,34.8269,11.10312,2.25632,5.2347,-5.76761,-24.35168,-17.73046,56.18987,88.08865,57.15323,-14.3784,25.53199,47.35428,-0.02926,-84.98502,32.93412,0.15092,97.8476,-13.94484,-3.24856,0.00774,-32.36259,-22.58403,-0.06069,5.67759,-6.49278,-13.32806,-15.35688,-1.18255,-14.75338,14.3425,0.64948,34.30126
1078,17.98639,-0.0,-0.0,-28.78628,-0.0,0.0,-21.67341,-5.33918,12.55823,-36.79539,6.88312,3.79628,-47.00888,-6.22798,-0.00466,-65.16207,9.18926,-0.05339,33.84297,11.61497,1.4266,7.1206,-5.95272,-23.62205,-14.25381,59.26976,82.29862,54.97964,-17.65735,20.15941,50.92826,-0.06194,-83.60097,29.29964,0.0685,99.00843,-13.60346,-2.55914,0.00682,-34.94667,-20.3356,-0.0463,4.96125,-5.81521,-15.68774,-15.83545,0.28795,-16.70304,13.67498,1.13146,32.95671
1079,18.73318,-0.0,0.0,-29.47621,-0.0,0.0,-22.30611,-4.4309,11.89909,-37.5116,6.77257,4.82802,-45.89912,-6.11922,-0.00566,-71.05839,10.18732,0.00369,32.92836,12.47258,0.77374,9.42302,-6.0407,-22.96156,-10.15216,62.21682,75.62769,52.15115,-21.24948,15.09839,54.42827,-0.03845,-81.67764,26.62708,-0.01601,97.94577,-13.84224,-1.87923,0.00234,-34.82646,-18.06194,0.01103,4.50047,-5.10682,-17.87344,-16.05691,1.71902,-18.4888,13.00506,1.73029,31.47119
1080,19.89754,-0.0,0.0,-30.60296,0.0,0.0,-22.93181,-3.85585,10.95816,-37.86967,7.1085,4.26308,-44.67012,-5.8632,-0.00109,-76.8703,10.36194,0.06743,32.052,13.50195,0.46511,12.02141,-6.15918,-22.63136,-5.04872,65.17272,67.82017,48.55146,-24.90548,9.68486,57.58414,0.00413,-80.04103,24.64143,-0.05405,94.25838,-14.84577,-1.61798,0.00383,-32.1418,-17.32107,-0.03192,4.2648,-4.4651,-19.60163,-16.09207,2.9222,-19.87921,12.32138,2.39267,29.7771
1081,20.42227,0.0,0.0,-31.7947,0.0,0.0,-23.30473,-3.68072,9.27625,-38.02221,7.31718,2.76962,-43.54649,-5.2123,0.00462,-82.66854,9.95567,0.07722,31.15612,14.55961,0.77191,14.70289,-6.57708,-22.54391,1.78084,68.06452,58.18761,44.35832,-28.27533,3.16917,60.33732,-0.00458,-78.59711,22.86776,-0.06649,88.87972,-15.92116,-1.68852,0.00515,-28.92929,-18.02404,-0.08058,4.06252,-3.87363,-20.96499,-16.13095,3.94821,-20.95168,11.54033,3.05292,27.96772
1082,19.93991,0.0,-0.0,-32.49525,0.0,0.0,-23.3836,-3.65273,6.9219,-37.88353,6.79309,1.20301,-42.59848,-4.27846,0.00557,-88.41313,9.65343,0.01626,30.27315,15.62338,1.57102,17.32563,-7.424,-22.17395,11.28088,70.54255,45.7666,39.8621,-31.20781,-4.26375,62.84037,-0.03384,-76.93817,21.0461,-0.05823,83.27394,-15.92359,-1.69753,0.00472,-27.69448,-18.4925,-0.08167,3.66285,-3.31232,-22.27739,-16.3679,4.9257,-21.99173,10.63781,3.74347,26.16077
1083,18.99832,0.0,-0.0,-32.63286,-0.0,-0.0,-23.27956,-3.49305,4.44132,-37.48661,5.92686,0.13091,-41.71956,-3.46139,0.00279,-93.959,9.93993,-0.05332,29.55099,16.75908,2.33569,19.94634,-8.6266,-20.96542,24.23397,72.10186,29.91594,35.16179,-33.8365,-11.65718,65.1506,-0.01835,-75.737,19.24598,-0.02007,78.83334,-14.38704,-1.50895,0.00502,-29.14096,-17.58942,-0.0952,2.94031,-2.76796,-23.75108,-16.89836,5.9392,-23.19498,9.72967,4.55586,24.42612
1084,18.33238,0.0,-0.0,-32.76469,-0.0,0.0,-23.10069,-3.03048,2.24287,-37.05867,5.63443,-0.33397,-40.75467,-3.04126,-5e-05,-99.12878,10.57934,-0.06059,29.06915,18.02538,2.65561,22.65719,-10.04397,-18.89704,39.83986,72.288,11.68159,30.10283,-36.24162,-18.58183,67.13322,0.01672,-76.01587,17.67302,0.02693,76.6096,-12.11123,-1.27763,0.00108,-31.52902,-15.91716,-0.06293,1.9413,-2.16212,-25.26433,-17.69389,7.02001,-24.42125,8.94563,5.53854,22.71288
1085,18.36076,0.0,-0.0,-33.6966,0.0,-0.0,-22.9632,-2.31833,0.29993,-36.76211,6.17222,-0.45657,-39.58885,-3.0187,-0.00186,-103.7523,10.91435,-0.01513,28.67122,19.41846,2.54606,25.36541,-11.5792,-16.41784,55.1285,71.04865,-5.86483,24.5754,-38.23137,-25.36126,68.68691,0.02299,-77.71539,16.48715,0.04224,76.63847,-10.18572,-1.11538,-0.00292,-32.94783,-14.68787,-0.00245,0.78715,-1.44946,-26.44076,-18.69568,8.08519,-25.29827,8.26798,6.67687,20.84572
1086,19.02477,-0.0,0.0,-35.81234,0.0,0.0,-23.06178,-1.67826,-1.55547,-36.42009,6.84059,-0.67004,-38.18861,-3.27089,-0.00364,-107.71123,10.55618,0.02547,28.07423,20.85728,2.28753,27.83768,-13.21238,-13.91009,67.53183,68.87605,-20.22293,18.7647,-39.58633,-32.01664,69.88679,0.01057,-80.07503,15.71551,0.02237,77.64232,-8.69156,-0.98156,-0.00166,-33.21201,-14.32888,0.02042,-0.4743,-0.75084,-27.00576,-19.90141,8.93207,-25.60157,7.56026,7.89584,18.65212
1087,19.50839,0.0,0.0,-38.50741,0.0,0.0,-23.53206,-1.43316,-3.31884,-35.7561,6.54078,-1.24645,-36.63328,-3.70642,-0.00602,-110.96568,9.61387,0.03273,27.15256,22.23576,2.09299,29.88901,-14.99004,-11.4881,76.73287,66.37343,-31.18079,13.07916,-40.33076,-37.98161,70.89307,0.00477,-82.60522,15.22634,-0.00179,78.18665,-7.01452,-0.78906,0.00349,-32.9765,-14.58751,0.01208,-1.83368,-0.23999,-27.0103,-21.28752,9.41531,-25.43369,6.6942,9.08074,16.06139
1088,18.48466,0.0,0.0,-40.6208,0.0,0.0,-24.23733,-1.57275,-4.8985,-34.89077,4.58657,-1.92992,-35.11596,-4.24726,-0.00593,-113.51388,8.48995,0.01807,26.10604,23.53544,1.986,31.50929,-16.96659,-9.03464,83.6672,63.75077,-39.68677,7.8997,-40.64686,-42.94033,71.78483,0.00726,-85.21187,14.87714,-0.01238,77.76205,-5.00157,-0.51603,0.00714,-32.3882,-15.32033,-0.00808,-3.16345,0.06539,-26.72006,-22.68064,9.60638,-25.05297,5.61023,10.18809,13.09723
1089,15.54724,0.0,-0.0,-41.51477,-0.0,-0.0,-24.94688,-1.73286,-6.36507,-34.30165,1.3663,-2.01274,-33.83054,-4.70517,-0.00107,-115.29645,7.46719,0.00795,25.28459,24.83096,2.03599,32.86147,-19.12735,-6.30232,89.1986,60.80238,-46.45621,3.35491,-40.61566,-47.26777,72.51278,0.00444,-87.5859,14.71919,-0.00763,76.51423,-3.13513,-0.25522,0.00475,-31.38337,-16.53357,-0.02181,-4.22521,0.32796,-26.41187,-23.80586,9.75069,-24.66923,4.30944,11.31172,9.87237
1090,12.09761,0.0,-0.0,-41.34311,-0.0,0.0,-25.71816,-1.51348,-7.82717,-34.38641,-1.69488,-1.14051,-32.78121,-4.9002,0.0033,-116.16002,6.34017,0.00872,24.83256,26.17022,2.46118,34.22668,-21.38011,-3.20369,93.73824,57.31989,-51.7291,-0.71768,-40.14959,-51.46371,73.03009,-0.00613,-88.66262,14.90393,0.00528,74.68322,-1.83452,-0.20356,-0.00199,-30.3468,-17.93289,-0.01269,-4.85356,0.74721,-26.27279,-24.48044,10.09898,-24.39342,2.87129,12.55473,6.62105
1091,10.03859,0.0,0.0,-40.57113,0.0,0.0,-26.83348,-0.86683,-9.12761,-35.29398,-3.12314,0.06931,-31.76703,-4.90916,0.00244,-115.97645,4.60093,4e-05,24.58693,27.54207,3.40958,35.9515,-23.58881,0.07437,97.43871,53.37252,-55.68945,-4.56847,-39.1899,-55.46116,73.36991,-0.01164,-87.44554,15.37991,0.0118,72.43654,-0.99603,-0.49129,-0.00731,-29.68251,-19.12242,0.00443,-5.0661,1.41148,-26.40225,-24.71408,10.76812,-24.29039,1.45832,13.89504,3.66598
1092,10.05509,0.0,0.0,-39.72006,0.0,0.0,-28.42893,-0.11863,-10.03853,-36.72126,-2.63775,0.62662,-30.60308,-4.92333,-0.00094,-114.77572,1.99732,-0.02361,24.29521,28.94706,4.89365,38.25218,-25.61437,3.25344,100.32635,49.14625,-58.58548,-8.34801,-37.89769,-58.71038,73.5132,-0.00644,-84.80312,15.84416,0.00481,69.75324,-0.16544,-0.89779,-0.00505,-29.22663,-20.1466,0.01122,-5.01695,2.23074,-26.8438,-24.65111,11.68805,-24.4334,0.21102,15.27669,1.27025
1093,11.46299,0.0,0.0,-39.22475,0.0,0.0,-30.30297,0.46318,-10.60184,-37.60997,-1.44851,0.25782,-29.29988,-4.96804,-0.00221,-112.73495,-1.17606,-0.03306,23.8834,30.37731,6.8012,40.96675,-27.4362,6.11998,102.40434,44.73703,-60.60069,-12.07607,-36.54531,-60.93764,73.33878,-0.01062,-83.43288,16.03182,-0.00664,66.81652,0.99849,-0.93635,0.00739,-28.71934,-21.15226,0.01133,-4.89816,2.98474,-27.56627,-24.47316,12.64049,-24.87011,-0.83787,16.72339,-0.54503
1094,12.99216,0.0,0.0,-39.20679,0.0,0.0,-31.99578,0.90056,-10.94455,-36.73286,-1.00434,-0.60405,-28.02341,-4.94918,-0.00082,-110.0662,-4.29687,-0.00403,23.52078,31.70678,8.79643,43.61499,-29.26529,8.55857,103.82116,40.22076,-61.8865,-15.60219,-35.22366,-62.58463,72.8262,-0.0292,-84.9874,15.96293,-0.00815,64.85289,2.41538,-0.44458,0.01599,-28.58037,-21.52092,-0.00959,-4.82017,3.48293,-28.4283,-24.29474,13.39768,-25.53178,-1.74193,18.23873,-2.06804
1095,13.49177,0.0,0.0,-39.57907,0.0,0.0,-33.04952,1.18403,-11.02724,-33.96881,-1.33912,-1.67017,-26.93559,-4.79751,0.00143,-106.85135,-6.95007,0.04241,23.36625,32.73118,10.50448,45.75368,-31.39202,10.51984,104.84968,35.77243,-62.65551,-18.66503,-33.82492,-64.25269,72.17665,-0.02922,-88.20752,15.86954,-0.00666,65.33277,3.64073,0.13117,0.00885,-29.58815,-20.24483,-0.08046,-4.74554,3.70633,-29.20512,-24.10951,13.86615,-26.20774,-2.61604,19.73748,-3.7007
1096,12.55313,-0.0,0.0,-40.41363,-0.0,-0.0,-33.28164,1.10719,-10.79237,-30.7601,-1.32085,-3.04671,-26.05824,-4.52211,0.00292,-102.85618,-9.23202,0.05599,23.26933,33.38038,11.84403,47.25773,-33.88483,11.97888,105.67226,31.63175,-63.1286,-21.17878,-32.32349,-65.95307,71.67441,-0.00934,-91.01331,15.92389,-0.01295,67.78031,4.24315,0.29976,-0.00021,-31.6674,-17.49297,-0.12098,-4.59546,3.782,-29.64662,-23.89103,14.08338,-26.61032,-3.58629,21.19158,-5.64098
1097,10.97868,0.0,0.0,-41.37326,0.0,0.0,-32.86487,0.5876,-10.33828,-29.07563,-0.41617,-4.45829,-25.25173,-4.24634,0.00215,-97.51499,-11.49957,0.00784,22.85297,33.79726,12.96881,48.27403,-36.61742,12.89345,106.26582,28.04201,-63.38058,-23.38623,-30.90508,-67.20527,71.56093,0.01056,-93.15377,16.03865,-0.0171,69.9688,4.18476,0.08801,-0.00172,-33.69569,-14.91174,-0.06142,-4.38323,3.8367,-29.55713,-23.69855,14.10548,-26.50479,-4.66673,22.70779,-7.8265
1098,10.05954,-0.0,-0.0,-40.63179,-0.0,0.0,-32.07887,-0.16272,-9.83696,-30.03907,0.87745,-4.88532,-24.33724,-4.15246,-0.00185,-90.23782,-13.89747,-0.07338,21.87225,34.1921,14.00304,48.96204,-39.51995,13.16024,106.52126,25.21129,-63.31607,-25.57802,-29.81951,-67.70879,72.02437,0.02274,-95.29277,15.9126,-0.01,70.93562,3.8257,-0.21598,-0.00124,-34.84444,-13.78857,0.0029,-4.1476,3.91026,-28.94373,-23.57195,13.97189,-25.88452,-5.72918,24.39253,-10.12699
1099,10.07558,-0.0,0.0,-37.54025,-0.0,0.0,-31.01929,-0.82929,-9.40729,-33.46717,2.12325,-3.96242,-23.23387,-4.30502,-0.00629,-80.83875,-16.19054,-0.12926,20.38506,34.69888,15.03927,49.40178,-42.50281,12.61847,106.44219,23.19249,-62.87877,-27.72399,-29.17542,-67.69283,73.06812,0.01158,-97.00286,15.31217,0.02039,72.15064,3.52049,-0.54625,-0.00092,-35.38133,-13.77338,0.01407,-3.83491,4.00646,-28.04953,-23.41308,13.76477,-24.98529,-6.65804,26.22917,-12.42259
1100,10.404,-0.0,0.0,-37.71088,0.0,0.0,-29.74233,-1.21212,-9.12721,-37.88633,3.84974,-3.66024,-21.95661,-4.53179,-0.00558,-69.75806,-18.03485,-0.139,18.60995,35.30257,16.28718,49.79039,-45.23872,11.08649,106.19676,21.77383,-62.19411,-29.53181,-28.83542,-67.75468,74.37512,-0.01187,-97.51768,14.35436,0.05342,75.17902,3.29059,-0.98937,0.0002,-35.78941,-13.90965,0.00242,-3.3935,4.14539,-27.09093,-23.13389,13.57391,-24.0105,-7.51952,28.08876,-14.50742
1101,10.73146,0.0,0.0,-52.7691,0.0,-0.0,-28.50174,-1.34369,-9.02158,-40.25682,7.45627,-7.55855,-20.54689,-4.55323,0.00076,-57.86489,-19.18657,-0.08793,16.73895,35.85141,17.90566,50.39737,-47.37378,8.39332,105.98453,20.55713,-61.40023,-30.80727,-28.45945,-68.58103,75.50391,-0.01626,-97.18345,13.52715,0.03774,79.75908,2.98057,-1.47666,0.00104,-35.88749,-13.83649,-0.00281,-2.89183,4.31379,-26.06165,-22.80146,13.38419,-22.95878,-8.54923,29.8457,-16.10396
1102,10.89918,-0.0,0.0,-103.83706,0.0,-0.0,-27.5168,-1.45845,-8.98186,-35.11959,13.1492,-17.65575,-19.07628,-4.25658,0.00592,-46.05495,-19.29469,0.06039,14.89337,36.2409,19.6303,50.97226,-48.95522,4.44428,105.88023,19.16838,-60.48162,-31.62473,-27.70053,-70.48592,76.23397,-0.00582,-96.94118,13.36137,-0.00985,84.28899,2.5638,-1.82554,0.0001,-35.53451,-13.476,-0.00146,-2.40325,4.47184,-24.93959,-22.48758,13.15012,-21.8231,-9.94216,31.50403,-17.11823
1103,10.40323,0.0,0.0,151.59033,0.0,0.0,-26.72439,-1.78989,-8.82135,-16.48805,17.12615,-31.93599,-17.65054,-3.77988,0.00486,-35.38017,-17.93509,0.2129,13.12625,36.55301,20.92673,50.78047,-50.30897,-0.23724,105.83296,17.45378,-59.41878,-32.21651,-26.46274,-72.98815,76.64297,0.0015,-97.28703,13.96476,-0.02805,87.10854,2.15972,-1.98088,-0.00111,-35.41763,-12.6049,-0.01116,-1.90321,4.65405,-23.87715,-22.14807,12.95607,-20.73811,-11.64811,33.13784,-17.74003
1104,9.14612,0.0,0.0,71.57938,0.0,-0.0,-25.99175,-2.38811,-8.39772,13.01089,15.46087,-43.17094,-16.34311,-3.31806,0.00055,-27.31621,-15.27702,0.18105,11.4903,36.92108,21.58808,49.94333,-51.46469,-3.96116,105.75314,15.53787,-58.33729,-32.81257,-24.98488,-75.22775,76.93703,0.001,-98.08083,14.85552,-0.02904,87.59872,1.84485,-2.08386,-0.00046,-36.19319,-11.2993,-0.02453,-1.35502,4.91846,-23.00828,-21.73487,12.90347,-19.81081,-13.36034,34.69215,-18.12967
1105,7.8506,-0.0,0.0,30.12383,-0.0,-0.0,-25.37385,-3.0785,-7.68107,39.20032,12.31214,-46.10588,-15.17304,-2.92947,-0.00204,-22.95648,-12.42291,0.00975,10.20179,37.37421,21.8233,49.98822,-52.05972,-5.19199,105.51231,13.62014,-57.34972,-33.52206,-23.64872,-76.94655,77.2683,-0.00592,-98.94281,15.28252,-0.04354,86.6347,1.53696,-2.34092,0.00188,-37.4247,-10.17052,-0.01508,-0.78491,5.21367,-22.28494,-21.27936,12.9285,-19.01237,-14.69105,35.99481,-18.20739
1106,7.19581,-0.0,0.0,12.79076,0.0,0.0,-25.02898,-3.5631,-6.8069,50.1316,11.39056,-44.44308,-14.15904,-2.53457,-0.0017,-22.04417,-10.67535,-0.07844,9.59744,37.84394,21.80078,52.20433,-51.71276,-4.43928,104.95322,11.7237,-56.40569,-34.24491,-22.67903,-79.10845,77.65011,-0.01423,-99.80402,14.79844,0.00103,86.1197,1.22011,-2.82012,0.00278,-38.0433,-9.77551,-0.00307,-0.29303,5.4593,-21.61741,-20.88803,12.92526,-18.28538,-15.40355,36.96331,-17.88821
1107,7.15227,0.0,-0.0,16.40457,0.0,0.0,-24.98503,-3.68443,-5.97461,44.51314,11.34352,-41.99077,-13.34107,-2.01193,-4e-05,-23.33917,-10.52112,-0.03578,9.80524,38.17226,21.467,56.21866,-50.44188,-3.15253,103.9805,9.78218,-55.39785,-34.70066,-21.95804,-83.49902,78.04485,-0.00955,-101.07053,13.67146,0.18118,87.8881,1.28336,-3.33578,0.00142,-37.50518,-10.07408,-0.01146,-0.02197,5.68644,-20.96506,-20.71133,12.90893,-17.57987,-15.53482,37.60719,-17.37359
1108,7.63303,0.0,-0.0,30.52294,0.0,0.0,-25.1691,-3.54574,-5.19416,29.1877,12.96249,-40.93478,-12.72265,-1.32065,0.00111,-25.65682,-11.46959,0.02581,10.44943,38.20659,20.80581,60.52951,-48.6825,-1.54873,102.54144,7.84323,-54.27724,-34.61427,-21.21,-90.81505,78.49343,0.02772,-103.14451,12.66352,0.41317,92.30949,2.26441,-3.58116,0.00463,-36.28355,-10.47026,-0.02007,-0.08374,5.99863,-20.28773,-20.87428,12.96227,-16.81988,-15.39494,37.90142,-17.04319
1109,9.35946,0.0,-0.0,36.0276,0.0,0.0,-25.68037,-3.30689,-4.275,13.20238,17.95925,-40.84209,-12.23523,-0.59805,0.00102,-28.18638,-12.64432,0.03093,10.82526,38.07009,20.01337,63.61482,-46.8007,0.72679,100.57721,5.96539,-53.06611,-33.99002,-20.52384,-97.93352,79.05931,0.09741,-105.72532,12.04266,0.37868,96.92303,4.05963,-3.46579,0.00876,-35.42262,-10.31751,-0.01564,-0.55478,6.46409,-19.63763,-21.45335,13.1673,-16.02984,-15.423,37.86782,-16.98978
1110,12.91499,-0.0,-0.0,19.0987,0.0,0.0,-26.67252,-3.05606,-3.12656,0.74677,22.90135,-39.02111,-11.83346,-0.07794,-4e-05,-30.26519,-13.44264,-0.00425,10.57446,38.14981,19.35977,64.8389,-44.90847,3.15725,98.15595,4.10538,-51.9206,-33.37611,-20.47756,-96.89494,79.73502,0.13978,-107.46854,10.70368,-0.64346,95.04055,5.65988,-3.2766,0.00479,-35.67897,-9.96905,0.01316,-1.46407,7.06186,-19.22209,-22.45612,13.57807,-15.41407,-15.82677,37.64856,-16.81101
1111,17.02009,0.0,-0.0,-15.33822,0.0,0.0,-27.83902,-2.85025,-1.89868,-8.74556,22.94715,-34.04911,-11.59319,0.11909,-0.00063,-31.59632,-13.93486,-0.03461,10.01742,38.60737,19.01363,64.90004,-43.03234,4.92929,95.51235,2.37603,-51.12891,-33.24753,-21.59083,-79.28963,80.56073,0.00694,-105.62012,6.51629,-2.69991,78.15855,5.94904,-3.38873,0.00553,-36.9508,-10.75132,0.06725,-2.66259,7.69269,-19.10248,-23.72239,14.12433,-15.06692,-16.33253,37.28128,-16.09722
1112,19.40203,0.0,-0.0,-42.30062,-0.0,-0.0,-28.45626,-2.69563,-0.81449,-15.49748,18.22539,-26.95205,-11.62228,0.08574,-7e-05,-32.60822,-14.65201,-0.03871,9.68772,39.0706,18.94343,65.13412,-41.29617,6.02392,92.79739,1.20866,-50.87389,-32.85221,-23.4395,-48.96422,81.81136,-0.41413,-96.17623,-0.38419,-2.67308,49.33674,4.69882,-3.86175,0.01341,-38.40372,-12.6346,0.07529,-3.82829,8.27604,-18.94214,-24.95755,14.61144,-14.69727,-16.42383,36.54848,-15.08724
1113,19.59737,-0.0,0.0,-51.62421,0.0,0.0,-28.14655,-2.54431,-0.08581,-18.87266,12.99707,-19.98936,-11.90877,0.02402,0.00028,-34.10069,-16.04948,-0.0033,9.75244,39.02827,18.82412,66.1153,-39.97251,6.89402,89.92459,0.87248,-51.0376,-32.21496,-24.27509,-27.65448,83.83404,-0.71327,-79.81393,-4.75636,-0.5159,30.43971,2.78696,-4.42717,0.01041,-39.30199,-13.60177,0.04861,-4.72544,8.85904,-18.35574,-25.96556,14.9455,-13.9202,-15.89499,35.27961,-14.56142
1114,19.29706,0.0,0.0,-51.0451,0.0,0.0,-27.24441,-2.32344,0.0704,-19.49827,10.74318,-14.90265,-12.33065,0.05812,-1e-05,-36.5128,-18.27153,0.06429,9.93733,38.41011,18.17781,67.21191,-39.24157,7.62117,86.72938,0.97333,-51.26427,-32.64295,-23.39989,-29.31411,86.17801,-0.30708,-69.28273,-4.82306,-0.8267,34.3404,1.48666,-4.83713,-0.00079,-39.36172,-12.58974,0.07092,-5.35467,9.50502,-17.36956,-26.74484,15.1934,-12.73778,-15.12158,33.7149,-15.04383
1115,19.56321,0.0,0.0,-48.90479,0.0,0.0,-26.21668,-2.04455,-0.31854,-18.88336,11.41759,-12.39516,-12.75076,0.20971,-0.00038,-39.68188,-21.00569,0.10684,9.87004,37.52877,16.89548,67.54774,-39.00876,8.05094,83.15093,0.8487,-51.04909,-33.71473,-20.40949,-54.25491,88.0854,0.17644,-74.85323,-0.02322,-3.38155,58.34153,1.27966,-5.05308,-0.00629,-38.11657,-10.81974,0.10493,-5.81074,10.00978,-16.30179,-27.337,15.2782,-11.53135,-14.60126,32.40097,-16.41843
1116,19.20641,-0.0,0.0,-48.49457,0.0,0.0,-25.07695,-1.9774,-0.70117,-17.72606,13.08381,-12.42929,-13.05313,0.49284,-0.00029,-43.15748,-23.2926,0.06215,9.47001,36.62573,15.39693,66.95852,-39.03453,8.5703,79.23418,0.27902,-49.93567,-33.05822,-16.42884,-89.31995,89.40089,0.18778,-88.73563,7.70597,-3.18208,86.75098,1.54835,-5.06922,-0.00582,-35.35743,-10.11946,0.04409,-6.17483,10.01497,-15.40852,-27.76733,14.95977,-10.68192,-14.30879,31.72886,-18.26687
1117,16.91298,0.0,0.0,-48.52864,0.0,0.0,-23.66766,-2.44947,-0.35258,-15.87464,14.51199,-14.66045,-13.17555,0.86948,0.00027,-46.5604,-23.95735,-0.04317,9.04299,35.73612,14.02824,66.00433,-39.11443,10.12945,75.06747,-0.50266,-47.93966,-31.47468,-14.51015,-111.43449,90.42541,0.05437,-99.88219,12.35653,-0.79345,99.60311,1.67109,-4.79116,-0.00381,-32.21388,-11.29696,-0.04577,-6.59763,9.49311,-14.75473,-28.1854,14.23743,-10.26123,-13.75862,31.59105,-20.17377
1118,13.66871,-0.0,-0.0,-44.24849,-0.0,0.0,-22.19782,-3.41768,0.81447,-14.04421,15.56739,-17.93263,-13.15108,1.20631,0.00044,-49.63286,-22.72792,-0.1024,8.95331,34.80595,12.80684,65.41564,-39.09232,13.10617,70.77993,-1.19708,-45.61078,-31.01269,-14.28086,-116.17538,91.59283,-0.00365,-106.44508,13.51803,0.2986,96.16029,1.78737,-4.17506,0.00122,-30.20046,-13.38561,-0.04472,-7.21767,8.79788,-14.20877,-28.77906,13.39271,-10.0083,-12.63687,31.49578,-21.726
1119,11.80883,0.0,-0.0,-30.20652,0.0,-0.0,-21.17531,-4.46848,2.004,-14.31848,16.27581,-20.0945,-13.08768,1.40477,1e-05,-52.14338,-20.72121,-0.06462,9.22902,33.8029,11.88979,65.46966,-38.80866,16.44143,66.58566,-1.6119,-43.57665,-31.31835,-14.62933,-112.07786,92.98429,-0.0234,-109.77367,12.97368,0.29103,87.0243,2.23856,-3.34847,0.00711,-29.58133,-14.84042,-0.01616,-7.896,8.21952,-13.58626,-29.44849,12.6286,-9.63872,-11.17004,31.04504,-22.5781
1120,12.48911,0.0,0.0,-8.03048,0.0,0.0,-20.88795,-5.12797,2.34387,-17.69728,16.08086,-19.78268,-13.10136,1.45378,-0.00023,-54.03084,-19.39761,0.00714,9.62784,32.83746,11.60365,65.78763,-38.18608,18.49118,62.72619,-1.65945,-42.18945,-31.65456,-15.07124,-105.96406,94.40385,-0.03899,-110.39225,11.9633,0.09173,79.32759,2.88941,-2.58425,0.00639,-29.47013,-15.68491,-0.01924,-8.30359,7.76191,-12.90009,-29.86176,11.95334,-9.16398,-9.84146,30.24645,-22.68678
1121,14.7579,0.0,0.0,9.43086,0.0,0.0,-21.06571,-5.15073,1.85327,-22.00487,14.21383,-18.09419,-13.24353,1.33599,0.00022,-55.58561,-19.17625,0.04377,9.99146,32.09293,11.93263,65.85533,-37.30065,18.6997,59.26029,-1.34389,-41.42118,-31.78426,-15.39233,-99.94112,95.68638,-0.03907,-109.03711,11.08987,-0.01478,73.9164,3.35087,-2.16834,0.00182,-29.16661,-16.82241,-0.03065,-8.37611,7.34007,-12.36266,-29.93391,11.36525,-8.8163,-8.8799,29.32559,-22.35476
1122,16.87154,0.0,0.0,9.94464,0.0,0.0,-21.18135,-4.65178,1.30074,-23.83949,11.27863,-17.30586,-13.47695,1.05026,0.00072,-57.21804,-19.29862,0.03187,10.32908,31.55143,12.49219,65.53796,-36.30227,18.03111,55.9536,-0.78678,-40.8433,-31.7072,-15.50188,-94.15179,96.84294,-0.01639,-107.2144,10.67001,-0.02193,70.18066,3.64103,-2.12935,0.00071,-28.88186,-17.99119,-0.02397,-8.40843,6.97942,-12.18515,-29.9503,10.96512,-8.78435,-8.15609,28.38935,-21.91391
1123,18.04915,-0.0,-0.0,-7.4776,-0.0,-0.0,-20.99192,-3.94809,1.21538,-22.17405,8.88296,-18.37768,-13.74161,0.71442,0.00039,-59.04441,-18.74915,-0.00762,10.64226,30.93264,12.94311,64.92856,-35.39545,17.87832,52.49578,-0.21539,-39.88389,-31.44699,-15.36604,-88.90082,97.93081,0.01338,-106.36998,10.82633,0.00484,67.72713,4.14197,-2.13461,0.00357,-29.01785,-18.40489,-0.01073,-8.61784,6.74065,-12.46807,-30.12627,10.84606,-9.13968,-7.50664,27.36392,-21.45803
1124,18.40908,0.0,-0.0,-29.6366,0.0,0.0,-20.53168,-3.34985,1.46247,-18.92592,7.65314,-20.56127,-14.01492,0.4788,-0.00043,-60.8525,-17.18404,-0.03345,10.82094,29.9877,13.15844,63.99605,-34.80725,18.71794,48.85385,0.20434,-38.36102,-31.0565,-15.09408,-84.4776,98.87566,0.02405,-106.64386,11.29154,0.01715,65.75305,4.76657,-1.90639,0.00524,-29.37616,-18.22565,-0.00242,-8.91767,6.56873,-13.11085,-30.37427,10.9199,-9.80877,-6.95972,26.16125,-20.94426
1125,18.11267,-0.0,-0.0,-40.40154,0.0,0.0,-19.86421,-3.01997,1.65729,-16.51679,7.05682,-22.45129,-14.28903,0.345,-0.00078,-62.40327,-15.21744,-0.02328,10.74548,28.80859,13.17575,62.61885,-34.57581,19.68475,45.29924,0.55076,-36.69777,-30.60728,-14.92019,-80.70888,99.50735,0.01402,-106.88351,11.58354,-0.00238,63.47194,4.73938,-1.61697,0.00442,-29.3535,-18.09164,-0.00493,-9.18989,6.35798,-13.74293,-30.58979,10.95317,-10.48266,-6.59651,24.8351,-20.37587
1126,17.40781,0.0,0.0,-38.33243,0.0,0.0,-19.10085,-2.95705,1.65076,-15.63332,6.57438,-23.33295,-14.55822,0.18643,-0.00026,-63.61079,-13.78591,0.00188,10.47008,27.77103,13.1182,60.8134,-34.38186,19.52004,42.01719,1.0434,-35.44337,-30.1729,-15.0071,-77.11252,99.79842,0.00205,-106.07791,11.42882,-0.04214,59.97135,3.55001,-1.60363,0.00906,-28.36854,-18.42475,-0.02727,-9.4767,6.10943,-13.92711,-30.84645,10.7885,-10.74854,-6.3551,23.58099,-19.75686
1127,16.58055,-0.0,0.0,-31.62782,0.0,0.0,-18.35326,-3.16111,1.65847,-15.5558,6.18623,-23.67908,-14.84442,-0.0802,0.00069,-64.50916,-13.17809,0.01368,10.22132,27.14112,13.03547,58.81082,-33.78178,17.94946,38.87437,1.76899,-34.66881,-29.77946,-15.3124,-73.17312,99.95125,-0.0074,-104.21924,11.02919,-0.04791,54.28507,1.65311,-1.86901,0.01162,-26.38379,-19.31176,-0.04973,-9.81679,5.91202,-13.53875,-31.19986,10.46389,-10.45582,-6.0907,22.57725,-19.02226
1128,15.57814,0.0,-0.0,-27.05331,-0.0,0.0,-17.60053,-3.55009,1.95259,-15.52615,5.97967,-24.29219,-15.15806,-0.40933,0.00109,-65.17846,-12.91453,0.00949,10.15031,26.77592,12.92225,56.90377,-32.70174,15.79706,35.71389,2.66941,-33.98451,-29.33771,-15.63725,-68.82178,100.12014,-0.01135,-101.84367,11.03617,0.00553,47.44069,-0.09828,-2.0796,0.00424,-24.44987,-20.04697,-0.04593,-10.10301,5.81199,-12.88645,-31.5226,10.13398,-9.87888,-5.76904,21.80591,-18.14373
1129,14.32151,0.0,0.0,-25.69091,-0.0,-0.0,-16.81319,-3.77209,2.46584,-15.25975,5.8366,-25.39888,-15.44429,-0.66615,0.00043,-65.68191,-12.43238,0.00147,10.16115,26.24577,12.92098,55.19767,-31.5415,13.93,32.66095,3.73469,-33.0518,-28.72104,-15.81074,-64.64909,100.17558,-0.00367,-99.46049,12.04187,0.0058,42.78325,-1.40294,-1.97305,-0.00328,-23.93558,-19.46363,-0.05826,-10.1928,5.77026,-12.44383,-31.63756,9.93423,-9.47808,-5.49899,21.03788,-17.18808
1130,13.17739,0.0,0.0,-25.42193,-0.0,-0.0,-16.08824,-3.54443,2.94106,-14.75654,5.7645,-26.78145,-15.65277,-0.73811,-0.00047,-66.04539,-11.48048,-0.00326,10.102,25.25342,13.15678,53.63072,-30.7237,12.65236,29.92892,5.04219,-31.85019,-27.92635,-15.85048,-61.08309,99.92361,0.0071,-97.3569,13.9808,-0.07529,42.40853,-2.60833,-1.65136,-0.00268,-24.81754,-17.45014,-0.07117,-10.08526,5.7236,-12.48076,-31.52476,9.90423,-9.53013,-5.35315,20.04107,-16.23491
1131,12.50179,-0.0,0.0,-24.65907,0.0,0.0,-15.46257,-3.06131,3.35464,-13.96564,6.1317,-28.32843,-15.85372,-0.65095,-0.00078,-66.2793,-10.04756,-0.0042,10.05605,23.93837,13.42409,52.15518,-30.26276,11.84937,27.49126,6.6002,-30.48559,-27.09886,-15.87427,-57.84803,99.41323,0.00829,-95.67643,16.27398,-0.09975,44.91637,-3.92539,-1.42761,0.00432,-25.59862,-15.353,-0.03334,-9.92877,5.659,-12.888,-31.33834,9.99211,-9.93707,-5.21851,18.82279,-15.32207
1132,11.98729,0.0,0.0,-23.3133,0.0,0.0,-14.77509,-2.75147,3.89532,-12.85861,7.14025,-29.86691,-16.19474,-0.56727,5e-05,-66.3487,-8.37579,-0.00209,10.27556,22.75024,13.39288,50.73199,-29.81122,11.13811,25.1666,8.24624,-28.99926,-26.39213,-15.89876,-54.77227,98.8385,0.00142,-94.59324,18.49743,-0.03799,47.54868,-4.81128,-1.50005,0.00501,-25.09662,-14.42727,-0.00595,-9.84981,5.62624,-13.2961,-31.23038,10.10976,-10.33323,-4.87852,17.62656,-14.44423
1133,11.19194,0.0,-0.0,-21.91713,0.0,0.0,-13.92724,-2.80065,4.702,-11.68758,8.29751,-30.81541,-16.69686,-0.63298,0.00147,-66.13604,-6.93805,-0.00056,10.85661,21.9476,12.97521,49.30152,-29.08225,10.03835,22.90701,9.78148,-27.38813,-25.80435,-15.91127,-52.15102,98.29012,-0.00341,-94.09094,20.7017,0.04263,48.7786,-4.44814,-1.91221,-0.00993,-23.57243,-14.68084,-0.01044,-9.81669,5.65864,-13.38799,-31.19317,10.17327,-10.40775,-4.23514,16.64944,-13.57628
1134,10.31908,-0.0,0.0,-20.85951,0.0,0.0,-13.08988,-3.09209,5.7492,-10.78263,8.82861,-30.78794,-17.18204,-0.81443,0.00145,-65.54592,-6.04648,-0.00326,11.59468,21.31611,12.38141,47.88163,-28.11824,8.36472,20.7903,11.16026,-25.66101,-25.16303,-16.05323,-49.99992,97.77852,-0.00316,-93.75717,23.11332,0.08983,48.69574,-2.91768,-2.61707,-0.02443,-22.0307,-15.33954,-0.01096,-9.71164,5.69713,-13.10665,-31.10942,10.10701,-10.12866,-3.42198,15.82456,-12.70549
1135,9.936,0.0,0.0,-20.27582,0.0,0.0,-12.49841,-3.45452,6.89987,-10.07833,8.48461,-30.35553,-17.47964,-0.94856,0.00031,-64.64596,-5.50798,-0.00538,12.21458,20.51855,11.89699,46.53134,-27.11031,6.37039,18.80607,12.47991,-23.8445,-24.30042,-16.50916,-47.85385,97.38275,-0.00271,-93.30177,25.797,0.06536,48.57571,-1.4871,-3.41824,-0.01778,-21.05445,-15.60374,-0.00511,-9.52116,5.64442,-12.5835,-30.94921,9.86788,-9.65609,-2.66111,14.9692,-11.842
1136,10.39657,0.0,0.0,-20.51554,0.0,-0.0,-12.22985,-3.80656,8.07794,-9.21183,7.66665,-30.41554,-17.6068,-0.96071,-0.00028,-63.59625,-4.86421,-0.00201,12.63954,19.51486,11.56588,45.17891,-26.14903,4.40988,16.82522,13.81411,-21.91239,-23.21656,-17.2863,-45.37659,97.23151,-0.00147,-93.22723,28.62197,-0.01192,50.00836,-1.29618,-4.12479,-0.00295,-20.53755,-15.02527,-0.002,-9.40003,5.48283,-12.00704,-30.85328,9.50775,-9.17425,-2.05937,14.03999,-11.02001
1137,11.50976,0.0,-0.0,-21.72386,0.0,0.0,-12.18462,-4.13315,9.28951,-8.20625,6.91893,-30.98174,-17.68392,-0.92949,-0.00019,-62.43846,-3.90594,0.00455,12.89606,18.47382,11.25316,43.64544,-25.22996,2.65346,14.76956,15.09765,-19.71807,-22.01349,-18.24447,-42.65701,97.36514,0.00735,-94.46478,31.39177,-0.06536,53.52637,-2.1415,-4.82292,0.00226,-20.06204,-13.73271,0.00218,-9.50108,5.29478,-11.5919,-30.96731,9.18153,-8.85414,-1.6496,13.10747,-10.22255
