PaulMeinheit/Bachelor_Muay_Thai/processed_Data/E1/roundhouse/sliced/JointAngles/sliced4.csv
Unnamed: 0_level_0,L_MTP_ANGLE,L_MTP_ANGLE,L_MTP_ANGLE,R_MTP_ANGLE,R_MTP_ANGLE,R_MTP_ANGLE,L_ANKLE_ANGLE,L_ANKLE_ANGLE,L_ANKLE_ANGLE,R_ANKLE_ANGLE,R_ANKLE_ANGLE,R_ANKLE_ANGLE,L_KNEE_ANGLE,L_KNEE_ANGLE,L_KNEE_ANGLE,R_KNEE_ANGLE,R_KNEE_ANGLE,R_KNEE_ANGLE,L_HIP_ANGLE,L_HIP_ANGLE,L_HIP_ANGLE,R_HIP_ANGLE,R_HIP_ANGLE,R_HIP_ANGLE,L_SHOULDER_ANGLE,L_SHOULDER_ANGLE,L_SHOULDER_ANGLE,R_SHOULDER_ANGLE,R_SHOULDER_ANGLE,R_SHOULDER_ANGLE,L_ELBOW_ANGLE,L_ELBOW_ANGLE,L_ELBOW_ANGLE,R_ELBOW_ANGLE,R_ELBOW_ANGLE,R_ELBOW_ANGLE,L_WRIST_ANGLE,L_WRIST_ANGLE,L_WRIST_ANGLE,R_WRIST_ANGLE,R_WRIST_ANGLE,R_WRIST_ANGLE,NECK_ANGLE,NECK_ANGLE,NECK_ANGLE,NECK_ANGLE_SHADOW,NECK_ANGLE_SHADOW,NECK_ANGLE_SHADOW,Trunk_Joint_Angle,Trunk_Joint_Angle,Trunk_Joint_Angle
ITEM,X,Y,Z,X,Y,Z,X,Y,Z,X,Y,Z,X,Y,Z,X,Y,Z,X,Y,Z,X,Y,Z,X,Y,Z,X,Y,Z,X,Y,Z,X,Y,Z,X,Y,Z,X,Y,Z,X,Y,Z,X,Y,Z,X,Y,Z
2593,-3.88707,0.0,0.0,-6.87363,0.0,-0.0,-20.93206,-5.49879,17.55351,11.84306,0.58597,-19.00094,-34.68948,-8.04226,0.00093,-7.29892,1.41898,-7e-05,36.63902,18.00334,23.03992,2.21228,4.47581,-19.42627,24.81598,15.65225,-0.28307,40.60802,-5.80769,36.38016,130.05759,-0.00035,-107.70802,119.80199,0.00047,99.1673,-15.55283,-16.91663,-0.00414,-7.77559,7.01817,-0.00377,-1.21282,-11.45722,9.09111,-23.25471,-13.9895,4.17756,2.23611,1.80797,7.20214
2594,-4.55889,0.0,0.0,-7.02635,0.0,0.0,-21.49203,-5.02951,17.45385,11.95722,0.5688,-19.10839,-35.52535,-8.32977,0.00264,-7.38533,1.41739,3e-05,36.9407,18.26908,23.1316,2.21798,4.3238,-19.39517,24.9424,15.62997,-0.28298,40.81797,-6.05233,36.38376,130.02086,0.00038,-108.31948,119.75476,2e-05,99.95547,-15.77344,-17.41971,-0.01008,-7.25511,6.90924,-0.00175,-1.69006,-11.28089,8.3898,-23.73376,-13.56802,3.58952,2.39262,1.67632,7.19804
2595,-5.29961,-0.0,0.0,-7.34299,-0.0,0.0,-21.87885,-4.85505,17.53402,12.1323,0.71476,-19.26903,-36.33185,-8.61457,0.0008,-7.48024,1.36662,0.0001,37.18277,18.65677,23.20443,2.19066,4.28186,-19.21281,24.98107,15.61023,-0.21657,41.16671,-6.22135,36.49422,130.10155,0.00083,-109.24476,119.75063,-0.00023,101.04044,-15.40237,-18.21938,-0.01361,-6.74569,7.08696,0.0011,-1.94443,-11.01415,7.87691,-23.9759,-13.13196,3.21299,2.4676,1.67742,7.2902
2596,-5.62989,-0.0,0.0,-7.43691,0.0,-0.0,-22.20455,-5.14175,17.66734,12.26363,0.95045,-19.41449,-37.07123,-8.76546,-0.00168,-7.56427,1.31166,6e-05,37.38857,19.05622,23.35241,2.12767,4.27576,-18.98828,24.99684,15.58113,-0.06447,41.64874,-6.32439,36.67266,130.22743,-0.00063,-109.6013,119.77741,4e-05,101.52872,-14.92107,-18.93629,-0.00789,-6.57222,7.51861,0.00092,-2.00096,-10.75066,7.65849,-24.01424,-12.80727,3.11033,2.50184,1.74224,7.36507
2597,-5.43244,0.0,-0.0,-7.25146,0.0,0.0,-22.65252,-5.69695,17.76428,12.34947,1.15304,-19.57364,-37.71443,-8.85082,-0.00189,-7.6214,1.32805,-2e-05,37.60284,19.37558,23.49035,2.04071,4.20576,-18.81048,25.10518,15.47545,0.14263,42.137,-6.42376,36.83747,130.26064,-0.00023,-109.06014,119.8303,0.00052,100.86606,-14.741,-19.16939,-0.00133,-6.76164,7.88865,7e-05,-1.95548,-10.59401,7.65943,-23.95548,-12.66237,3.17138,2.56724,1.77992,7.32024
2598,-4.94038,0.0,-0.0,-7.0539,-0.0,0.0,-23.21803,-6.23611,17.83767,12.42869,1.2454,-19.85345,-38.25975,-9.05306,-9e-05,-7.64618,1.42752,-2e-05,37.853,19.68602,23.44276,1.97397,4.10281,-18.60262,25.20147,15.35254,0.37138,42.61013,-6.54869,37.00727,130.11038,0.00289,-108.00594,119.92776,0.00038,99.6773,-14.77814,-18.70461,0.00037,-7.12501,8.19626,-0.00057,-1.8121,-10.57563,7.76614,-23.80828,-12.68463,3.27812,2.71727,1.79155,7.20065
2599,-4.39774,0.0,0.0,-7.05236,-0.0,-0.0,-23.72926,-6.58402,17.93206,12.48024,1.25212,-20.26499,-38.7042,-9.47032,0.00135,-7.6398,1.53444,-1e-05,38.12155,20.11996,23.13899,1.97767,4.08222,-18.26577,25.03033,15.4084,0.59361,43.16949,-6.66975,37.22947,129.79634,0.00439,-106.97083,120.09284,-0.00061,98.89851,-14.82397,-17.51197,-0.00044,-7.42472,8.74337,-0.00067,-1.63088,-10.59898,7.86855,-23.62679,-12.74397,3.36485,2.96104,1.83331,7.15915
2600,-3.81219,-0.0,-0.0,-7.14269,0.0,0.0,-24.17132,-6.64701,17.95499,12.45174,1.2539,-20.52647,-39.07824,-9.95138,0.00082,-7.61361,1.57006,-5e-05,38.34439,20.66946,22.85083,2.00852,4.14578,-18.01843,24.65719,15.68326,0.80025,43.74827,-6.73047,37.42451,129.42252,0.002,-106.4016,120.26382,-0.00056,98.89436,-14.84846,-16.0437,-0.0015,-7.47582,9.47272,0.00021,-1.60921,-10.51592,7.91948,-23.59696,-12.68571,3.44432,3.22861,1.87828,7.23847
2601,-3.20676,0.0,-0.0,-7.1035,-0.0,-0.0,-24.69803,-6.41441,17.76588,12.34299,1.28429,-20.29384,-39.46051,-10.21398,-0.00115,-7.58292,1.54823,-0.0001,38.47888,21.17258,22.98063,1.94529,4.15281,-18.23778,24.53138,15.94819,0.97802,44.06879,-6.71747,37.44135,129.07533,-0.00124,-106.5864,120.29541,0.00126,99.38636,-14.91972,-15.13173,-0.00089,-7.26806,9.75116,-0.001,-1.8086,-10.27936,7.98422,-23.77508,-12.49017,3.59554,3.4165,1.81576,7.29406
2602,-2.88567,0.0,-0.0,-6.90251,0.0,-0.0,-25.28071,-6.04215,17.46119,12.21128,1.31149,-19.64741,-39.86533,-10.1877,-0.00243,-7.54303,1.55339,-6e-05,38.55977,21.49849,23.48879,1.74031,4.01991,-18.87295,24.89881,15.99757,1.07119,44.0265,-6.70711,37.27146,128.75514,-0.00219,-107.37837,120.14209,0.00108,99.74272,-15.14529,-15.15416,0.00193,-7.04559,9.18816,-0.00093,-2.00621,-9.9671,8.10731,-23.94408,-12.24585,3.83011,3.49752,1.61446,7.20772
2603,-3.09179,0.0,0.0,-6.72104,0.0,0.0,-25.65206,-5.84859,17.34535,12.11666,1.30569,-19.06511,-40.18922,-10.09443,-0.00179,-7.45929,1.63106,8e-05,38.65757,21.68269,23.85299,1.4792,3.83851,-19.3964,25.49204,15.84583,1.04322,43.88236,-6.79085,37.09386,128.42484,-0.00152,-108.34453,119.96063,-0.00054,99.61616,-15.58954,-15.70327,0.00368,-7.08035,8.37823,0.0015,-2.04064,-9.66949,8.15467,-23.95343,-11.98719,3.98804,3.55302,1.39212,7.05284
2604,-3.71055,0.0,-0.0,-6.75393,0.0,0.0,-25.63626,-6.11752,17.57922,12.09315,1.28705,-18.86799,-40.36393,-10.1385,-0.00064,-7.30099,1.74726,0.00021,38.81566,21.86412,23.71749,1.26494,3.75062,-19.45421,25.98205,15.54476,0.95069,43.93416,-6.94894,37.07114,128.08351,-0.0012,-109.27784,119.9333,-0.00138,99.46754,-16.14629,-16.23146,0.00202,-7.35602,8.23751,0.00057,-2.09103,-9.43373,7.93592,-23.99104,-11.68797,3.87342,3.68056,1.28489,6.95688
2605,-4.60264,-0.0,0.0,-7.06657,-0.0,0.0,-25.36045,-6.751,18.0083,12.15679,1.31628,-18.91362,-40.4653,-10.30525,0.00012,-7.08899,1.84426,0.00015,39.03162,22.14577,23.28457,1.09681,3.7935,-19.27472,26.38445,15.05621,0.92705,44.17491,-7.07203,37.19097,127.79449,-0.00105,-110.20596,120.06592,-0.00234,99.93588,-16.59241,-16.63811,-0.00052,-7.69794,8.78928,-0.00034,-2.38432,-9.29875,7.48629,-24.28494,-11.39726,3.50469,3.87839,1.32071,6.92237
2606,-5.74336,0.0,0.0,-7.59637,0.0,-0.0,-25.14561,-7.26468,18.37817,12.29295,1.42273,-18.87581,-40.57424,-10.50055,0.00045,-6.88969,1.88898,1e-05,39.25864,22.52858,22.96544,0.92316,3.89087,-19.28255,26.8259,14.42747,1.09876,44.41576,-7.11449,37.34624,127.67389,-0.00108,-110.91015,120.23325,-0.00172,100.89856,-16.76102,-17.1231,-0.00279,-8.04058,9.25947,0.00104,-2.82741,-9.29583,7.06591,-24.73693,-11.23977,3.11326,4.06455,1.43292,6.88983
2607,-6.80269,-0.0,0.0,-8.04829,0.0,-0.0,-25.24767,-7.35225,18.58173,12.40578,1.56218,-18.63077,-40.63771,-10.65712,0.00025,-6.75006,1.87311,-7e-05,39.43108,22.92792,22.96006,0.75447,3.93957,-19.55464,27.24878,13.86837,1.46897,44.61808,-7.14304,37.48352,127.77305,-0.00311,-110.8324,120.34029,2e-05,101.74891,-16.68699,-17.71268,-0.0036,-8.35411,9.22779,0.00133,-3.13578,-9.40118,6.82917,-25.05775,-11.25032,2.85221,4.20042,1.52661,6.88211
2608,-7.32051,0.0,0.0,-8.0362,0.0,0.0,-25.65271,-7.22322,18.65483,12.39964,1.69809,-18.35359,-40.55819,-10.7355,-0.00013,-6.6527,1.81258,-9e-05,39.49973,23.25722,23.21017,0.63039,3.88673,-19.80195,27.56071,13.54041,1.88196,44.92457,-7.22948,37.62292,127.92603,-0.00266,-109.76378,120.38567,0.00058,102.27937,-16.60742,-18.14452,-0.00204,-8.61735,9.06921,-0.00067,-3.18432,-9.53203,6.66855,-25.11894,-11.31254,2.65251,4.32723,1.52756,6.97369
2609,-7.3455,-0.0,-0.0,-7.52597,0.0,0.0,-26.16346,-7.21103,18.5908,12.33162,1.85282,-18.31352,-40.3489,-10.73834,-0.00027,-6.53926,1.74786,-7e-05,39.43182,23.496,23.60697,0.49566,3.73853,-19.76325,27.84076,13.42307,2.18909,45.37418,-7.35419,37.7684,127.84003,0.00037,-108.4185,120.42419,-0.00018,102.77814,-16.63473,-18.25616,-0.00114,-8.91205,9.20691,-0.00191,-3.09985,-9.6324,6.44359,-25.04571,-11.32276,2.40443,4.47491,1.40481,7.14428
2610,-7.2517,-0.0,0.0,-6.82905,0.0,0.0,-26.70375,-7.35202,18.26989,12.33348,1.98644,-18.53738,-40.13065,-10.64092,-0.00012,-6.36637,1.71973,3e-05,39.22727,23.65154,24.20208,0.21701,3.51466,-19.53074,28.22726,13.41121,2.42492,45.75381,-7.4288,37.84321,127.40794,-0.00334,-107.82381,120.4949,-0.00098,103.3472,-16.49885,-18.28916,-0.0035,-9.27322,9.39041,-0.00052,-3.08754,-9.73035,6.18694,-25.04455,-11.31904,2.12778,4.60752,1.16329,7.23843
2611,-7.28363,-0.0,-0.0,-6.31942,0.0,0.0,-27.33856,-7.50082,17.67883,12.45523,1.95587,-18.77599,-39.99831,-10.40159,-7e-05,-6.15619,1.74893,0.00016,38.9865,23.72554,25.02938,-0.22112,3.24058,-19.41336,28.71041,13.42038,2.72486,45.83215,-7.38863,37.77859,126.83454,-0.00714,-108.1271,120.58246,-0.00125,103.73717,-15.94677,-18.58512,-0.00815,-9.54002,9.08826,-0.00056,-3.22291,-9.86585,6.01955,-25.19231,-11.38301,1.92006,4.697,0.84591,7.11188
2612,-7.53301,0.0,0.0,-6.24232,0.0,-0.0,-28.02449,-7.58956,17.02431,12.67784,1.74749,-18.83162,-39.93643,-10.08957,-0.00016,-5.99704,1.82987,0.0001,38.8751,23.75226,25.82609,-0.6404,2.97139,-19.54343,29.14561,13.39348,3.11361,45.65488,-7.2508,37.66433,126.4107,-0.0038,-108.51381,120.64611,-0.00137,104.07697,-15.23017,-19.12791,-0.00774,-9.5762,8.32857,-0.00357,-3.39176,-10.01709,5.96991,-25.37323,-11.50496,1.81606,4.78419,0.53349,6.80124
2613,-7.89511,0.0,-0.0,-6.59025,0.0,-0.0,-28.59602,-7.63955,16.51868,12.95391,1.58872,-18.77505,-39.85691,-9.87314,-0.00036,-5.95771,1.92612,-9e-05,38.95716,23.79324,26.20504,-0.86048,2.76337,-19.75974,29.44604,13.28766,3.47158,45.51529,-7.09602,37.69693,126.23556,-0.00054,-108.47007,120.6464,-0.00018,104.98518,-14.799,-19.66473,-0.00258,-9.60269,7.63069,-0.0036,-3.43104,-10.12976,5.92985,-25.4216,-11.59468,1.73568,4.92347,0.2952,6.50793
2614,-8.03563,-0.0,0.0,-7.14488,0.0,0.0,-28.96727,-7.70378,16.2129,13.19106,1.67737,-18.81896,-39.69365,-9.85795,-0.00072,-6.01276,1.97844,-0.00014,39.12123,23.89279,26.08074,-0.87683,2.62895,-19.8105,29.6601,13.09944,3.68979,45.65779,-6.98135,37.94995,126.19456,-0.00046,-108.51711,120.54987,0.00254,106.61608,-14.75323,-20.09114,0.00059,-10.05729,7.25866,-0.00032,-3.32163,-10.16322,5.78643,-25.31632,-11.57283,1.58925,5.11256,0.13787,6.42356
2615,-7.66835,-0.0,0.0,-7.52084,0.0,-0.0,-29.20762,-7.80392,15.99113,13.29206,1.93853,-19.01803,-39.47195,-9.96246,-0.00053,-6.08566,1.93437,-9e-05,39.19188,24.0631,25.84092,-0.82414,2.53508,-19.63828,29.82532,12.88268,3.80826,46.04937,-6.8754,38.30532,126.15524,-0.00156,-109.33426,120.37505,0.00328,108.31872,-14.94088,-20.45537,0.00128,-11.04699,7.04029,0.00383,-3.22803,-10.12412,5.57466,-25.22183,-11.4585,1.40694,5.29885,0.0133,6.55413
2616,-6.8728,0.0,0.0,-7.33993,0.0,-0.0,-29.41258,-7.8229,15.66581,13.24898,2.12808,-19.18364,-39.28015,-10.01683,0.00035,-6.14602,1.79496,-8e-05,39.09875,24.27086,25.94461,-0.83015,2.43611,-19.4726,29.87694,12.71098,4.00326,46.47152,-6.72906,38.61051,126.11062,-0.00131,-110.6918,120.22713,0.00147,109.35601,-15.20039,-20.79236,0.00103,-12.10273,6.87734,0.00576,-3.32462,-10.08883,5.43484,-25.31698,-11.37423,1.29021,5.44175,-0.12376,6.6954
2617,-5.89868,0.0,-0.0,-6.64625,0.0,-0.0,-29.55594,-7.70255,15.21681,13.14683,2.07698,-19.16852,-39.14224,-9.98947,0.00099,-6.23829,1.63052,-0.00012,38.92501,24.46076,26.34473,-0.89172,2.31896,-19.50542,29.79296,12.61756,4.41486,46.82785,-6.58191,38.79259,126.10972,0.0001,-111.5615,120.22772,0.00071,109.58364,-15.29565,-21.10854,0.00012,-12.56791,6.94914,0.0068,-3.58972,-10.10305,5.41786,-25.5833,-11.38116,1.26897,5.56379,-0.25685,6.66544
2618,-4.75039,-0.0,0.0,-6.01291,0.0,-0.0,-29.54692,-7.70563,14.89781,13.07421,1.82132,-19.09924,-38.95068,-10.03223,0.00018,-6.41443,1.51196,-0.00024,38.80188,24.63586,26.49928,-0.87812,2.23534,-19.54873,29.70438,12.5676,4.97715,47.23637,-6.52025,38.85227,126.12057,0.00202,-111.18527,120.40878,0.00064,109.49707,-15.05095,-21.39951,-0.00029,-12.23549,7.26163,0.00719,-3.84992,-10.05821,5.43362,-25.83999,-11.34539,1.30077,5.73734,-0.30647,6.53763
2619,-3.28733,0.0,0.0,-6.0642,0.0,-0.0,-29.41818,-8.09181,14.97129,13.09421,1.57133,-19.21336,-38.58384,-10.30179,-0.00217,-6.67217,1.42987,-0.00027,38.78758,24.85221,25.96411,-0.69196,2.26169,-19.25369,29.76179,12.49292,5.47868,47.78519,-6.56214,38.84769,126.03806,0.00347,-110.06462,120.69503,-0.00088,109.73232,-14.56189,-21.65,0.00045,-11.49298,7.48858,0.00305,-3.98835,-9.82983,5.42479,-25.96151,-11.13036,1.37971,6.01034,-0.21171,6.51969
2620,-1.48396,0.0,-0.0,-6.81865,0.0,-0.0,-29.36186,-8.70374,15.36212,13.25328,1.53507,-19.56165,-38.06345,-10.75244,-0.00322,-6.98475,1.32327,-6e-05,38.82058,25.11119,24.90598,-0.4163,2.39626,-18.60781,29.98661,12.36942,5.78405,48.37214,-6.65683,38.85213,125.79457,-0.00064,-109.55897,120.97714,-0.00234,110.58326,-13.99402,-21.88234,0.00044,-10.79843,7.46294,-0.00079,-3.97124,-9.48968,5.47148,-25.91927,-10.8321,1.55277,6.32438,-0.01904,6.6806
2621,0.52706,0.0,0.0,-7.6113,-0.0,0.0,-29.53714,-9.18934,15.69228,13.52536,1.71174,-19.98271,-37.55246,-11.13914,-0.00132,-7.34787,1.16661,0.00024,38.79192,25.35199,23.94649,-0.23054,2.55863,-17.98764,30.31111,12.23946,5.90968,48.85853,-6.75796,38.88784,125.41404,-0.00765,-110.35455,121.18425,-0.00153,111.78447,-13.42862,-22.23365,-0.00068,-10.28752,7.33615,-0.00125,-3.76843,-9.19603,5.65116,-25.69368,-10.62595,1.83181,6.54346,0.16866,6.91329
2622,2.31202,0.0,-0.0,-7.77153,0.0,-0.0,-29.85066,-9.43062,15.68711,13.79114,1.90586,-20.30397,-37.21729,-11.2484,0.0006,-7.77164,0.9833,0.0005,38.69622,25.53936,23.53725,-0.1809,2.69255,-17.73806,30.67302,12.12942,5.9194,49.24579,-6.83975,38.94131,124.98042,-0.0083,-111.84892,121.293,0.00044,112.77492,-13.06398,-22.85367,0.00107,-9.91485,7.24738,-0.00037,-3.41909,-8.99074,5.89934,-25.32681,-10.52696,2.14105,6.61337,0.3143,7.09476
2623,3.20259,-0.0,-0.0,-7.18061,0.0,0.0,-30.04384,-9.54253,15.39817,13.94291,1.96909,-20.44923,-37.10205,-11.04517,0.00051,-8.2522,0.80863,0.00055,38.63016,25.66504,23.70511,-0.14715,2.76728,-17.87388,31.02172,12.001,5.86827,49.62764,-6.87559,39.01252,124.57362,-0.00197,-112.9885,121.2987,0.00179,113.43721,-13.20393,-23.58367,0.00361,-9.61944,7.18812,8e-05,-3.09393,-8.853,6.08783,-24.98934,-10.46863,2.36901,6.62505,0.4308,7.18454
2624,2.89267,-0.0,0.0,-6.25672,-0.0,-0.0,-30.00498,-9.63234,15.06884,14.01182,1.94928,-20.47095,-37.10778,-10.66433,-0.00019,-8.7466,0.68124,0.00018,38.63031,25.72356,24.21693,-0.04854,2.74169,-18.13611,31.30767,11.83415,5.82567,50.06216,-6.84999,39.10804,124.21673,0.00504,-113.16227,121.22379,0.00225,114.1503,-13.93223,-23.94151,-0.0026,-9.40297,7.12787,-0.00059,-2.96374,-8.80294,6.1715,-24.85439,-10.453,2.466,6.6747,0.50806,7.1894
2625,1.83152,0.0,0.0,-5.64293,0.0,0.0,-29.8576,-9.72108,14.93349,14.14891,1.98831,-20.56899,-37.0852,-10.36796,-0.00051,-9.1835,0.63429,-0.00036,38.62,25.74658,24.70948,0.04319,2.62561,-18.21872,31.52041,11.69354,5.85148,50.54038,-6.77501,39.23431,123.86893,0.00738,-112.53142,121.14556,0.00115,115.17385,-14.93439,-23.63806,-0.01081,-9.41823,7.19466,-0.00277,-3.02765,-8.85816,6.19677,-24.92169,-10.51355,2.46862,6.74789,0.5342,7.11222
2626,0.85259,0.0,0.0,-5.67098,0.0,0.0,-29.80692,-9.78109,15.02386,14.44298,2.13456,-20.87669,-36.96239,-10.34169,-0.00075,-9.54141,0.65659,-0.00055,38.51673,25.78092,24.92317,0.02857,2.48663,-18.05556,31.70971,11.65967,5.94061,51.00304,-6.66831,39.39851,123.46136,0.00206,-111.93758,121.14592,-0.00112,116.49404,-15.67447,-22.94842,-0.00785,-9.7656,7.56584,-0.00516,-3.12645,-8.98002,6.19433,-25.02901,-10.62572,2.42012,6.7868,0.51767,6.96138
2627,0.56192,-0.0,0.0,-6.06094,0.0,-0.0,-29.97557,-9.8384,15.15987,14.81941,2.29967,-21.23298,-36.76698,-10.48853,-0.00052,-9.89966,0.68158,-0.0002,38.33876,25.81517,24.89175,-0.06051,2.37035,-17.88831,31.94293,11.74044,6.02248,51.37213,-6.53987,39.58918,122.95721,-0.00714,-112.15695,121.22771,-0.00245,117.99842,-15.82087,-22.43609,-0.00161,-10.24478,8.17108,-0.00374,-3.12145,-9.06908,6.10458,-25.03165,-10.67528,2.30263,6.80962,0.46972,6.79398
2628,1.03748,0.0,-0.0,-6.36823,0.0,-0.0,-30.28684,-10.06797,15.23292,15.15519,2.36978,-21.39953,-36.53342,-10.59941,0.0001,-10.35926,0.64508,0.00043,38.18837,25.79754,24.71309,-0.07595,2.2852,-17.92168,32.2397,11.88256,6.02032,51.6283,-6.41795,39.79217,122.40419,-0.00952,-113.03094,121.31828,-0.00168,119.58665,-15.54255,-22.39618,-0.00083,-10.59545,8.79495,4e-05,-3.00565,-8.99351,5.83312,-24.91448,-10.50513,2.07828,6.90548,0.41176,6.71952
2629,1.81225,0.0,-0.0,-6.46939,-0.0,-0.0,-30.52868,-10.56425,15.2974,15.40155,2.28587,-21.38463,-36.26482,-10.63921,0.00026,-10.92338,0.54945,0.00059,38.1233,25.72436,24.3976,0.07272,2.22605,-18.05177,32.55328,12.03328,5.91917,51.84794,-6.34876,40.01067,121.90474,-0.0029,-113.6664,121.34163,0.00016,121.12045,-15.31471,-22.60863,-0.0018,-10.83296,9.27009,0.0021,-2.84955,-8.71101,5.39281,-24.74479,-10.08074,1.77511,7.11682,0.36552,6.81423
2630,2.1986,0.0,0.0,-6.41297,0.0,0.0,-30.5881,-11.1042,15.3528,15.57563,2.07687,-21.37886,-35.9884,-10.70582,-9e-05,-11.49835,0.44784,2e-05,38.0788,25.65696,24.05412,0.30667,2.17371,-18.05616,32.82339,12.16677,5.77847,52.12687,-6.34501,40.2237,121.51495,0.00368,-113.50821,121.28536,0.00098,122.3806,-15.36509,-22.64597,-0.00296,-11.06839,9.47313,0.00263,-2.71755,-8.37471,4.96268,-24.59563,-9.61011,1.50174,7.37364,0.32206,7.03978
2631,1.85245,-0.0,0.0,-6.18992,-0.0,0.0,-30.53508,-11.44045,15.32129,15.73087,1.87819,-21.52705,-35.76974,-10.83183,-0.00026,-12.00928,0.36839,-0.00048,37.95385,25.65233,23.86644,0.477,2.11509,-17.88255,33.03066,12.28106,5.66636,52.49704,-6.36542,40.37862,121.19746,0.00565,-112.82448,121.215,0.00051,123.24905,-15.45656,-22.37034,-0.00271,-11.21288,9.46258,0.00248,-2.62801,-8.21272,4.75677,-24.49793,-9.38387,1.37123,7.56698,0.26829,7.29305
2632,1.06328,0.0,-0.0,-5.78069,0.0,0.0,-30.5338,-11.55211,15.17843,15.93537,1.8322,-21.80573,-35.66221,-10.93657,-0.00021,-12.47828,0.27495,-0.00011,37.72934,25.71253,23.89964,0.52495,2.0677,-17.68829,33.19298,12.40537,5.57491,52.93521,-6.36132,40.45598,120.86002,0.00399,-112.18271,121.20141,0.00039,123.60211,-15.33457,-22.00035,-0.00107,-11.13493,9.46039,0.00205,-2.54458,-8.29884,4.82146,-24.41924,-9.48764,1.39892,7.65007,0.23007,7.51252
2633,0.53826,0.0,-0.0,-5.22083,0.0,0.0,-30.77035,-11.4953,14.90679,16.2323,1.95558,-22.0659,-35.67488,-10.90607,-0.00038,-12.98455,0.12338,0.0008,37.47157,25.78969,24.12227,0.50433,2.04654,-17.66484,33.3289,12.58584,5.40163,53.39688,-6.32635,40.45995,120.42507,-0.00211,-111.97834,121.23492,0.0008,123.16573,-15.08335,-21.80929,0.00022,-10.82267,9.51949,0.00027,-2.41996,-8.4899,4.99826,-24.305,-9.73011,1.49132,7.65,0.2388,7.70439
2634,0.81976,-0.0,-0.0,-4.65919,0.0,0.0,-31.29886,-11.39279,14.5053,16.63937,2.15195,-22.25793,-35.7809,-10.72809,-0.00048,-13.57938,-0.05152,0.00101,37.28228,25.81335,24.40437,0.50571,2.02172,-17.81577,33.42336,12.83237,5.03812,53.81244,-6.30719,40.3496,119.88663,-0.01123,-112.34849,121.23808,-4e-05,121.97202,-14.91494,-21.87637,0.00312,-10.21361,9.47407,-0.00437,-2.24341,-8.56021,5.1003,-24.13196,-9.83298,1.55975,7.63733,0.27222,7.88358
2635,1.77012,0.0,-0.0,-4.23287,-0.0,-0.0,-31.88123,-11.4306,14.08545,17.13285,2.30959,-22.4865,-35.95217,-10.53878,1e-05,-14.24808,-0.15699,7e-05,37.23553,25.73629,24.49922,0.57617,1.94639,-17.983,33.44412,13.11123,4.48519,54.1128,-6.38491,40.10698,119.27995,-0.01452,-112.89355,121.1524,-0.00156,120.5231,-14.98774,-21.96479,0.00696,-9.33752,9.27734,-0.00827,-2.04716,-8.39202,5.06133,-23.92534,-9.66254,1.58706,7.68428,0.27179,8.02261
2636,2.72175,0.0,0.0,-3.85218,0.0,-0.0,-32.1218,-11.66506,13.77832,17.61005,2.35779,-22.79765,-36.18897,-10.45364,0.00077,-14.9357,-0.14222,-0.00102,37.3023,25.58329,24.30297,0.68218,1.81571,-18.05587,33.41211,13.3979,3.82645,54.30486,-6.63071,39.84586,118.58614,-0.00423,-112.70955,120.98545,-0.00122,119.2349,-15.44583,-21.63902,0.00482,-8.66463,9.15748,-0.00772,-1.88938,-8.06506,4.8917,-23.74897,-9.29657,1.55257,7.79841,0.22044,8.11064
2637,3.21458,-0.0,0.0,-3.44353,0.0,0.0,-31.81856,-11.96888,13.61103,17.97733,2.29063,-23.1376,-36.50307,-10.43931,0.00073,-15.60403,-0.04264,-0.00095,37.40078,25.44329,23.96592,0.7757,1.69149,-18.01635,33.3843,13.69623,3.07746,54.47733,-7.04185,39.71252,117.73225,0.01592,-111.19817,120.77615,0.00249,118.3678,-16.32817,-20.59827,-0.00642,-8.66695,9.31718,-0.00627,-1.80348,-7.75116,4.57557,-23.64738,-8.88868,1.37658,7.92763,0.18415,8.23216
2638,3.44351,0.0,0.0,-3.15581,0.0,0.0,-31.14129,-12.07697,13.47234,18.24425,2.18378,-23.42717,-36.90041,-10.35762,-0.00113,-16.26815,0.03656,0.0007,37.52313,25.36507,23.70517,0.87087,1.64776,-17.96722,33.3154,14.01325,2.15048,54.68224,-7.52529,39.72186,116.68523,0.02852,-108.68262,120.5388,0.00633,118.13444,-17.48838,-18.8222,-0.01801,-9.19353,9.60102,-0.00309,-1.77822,-7.5176,4.07542,-23.61271,-8.48747,0.99899,8.04044,0.23746,8.47634
2639,4.11058,0.0,-0.0,-3.10152,-0.0,-0.0,-30.43904,-11.77011,13.23326,18.47936,2.09265,-23.59793,-37.39454,-10.10887,-0.00338,-16.96594,0.02849,0.00213,37.74806,25.27548,23.59534,1.00992,1.67227,-18.12337,33.02491,14.34602,0.98496,54.84013,-7.99679,39.79038,115.47582,0.01604,-106.18697,120.25734,0.00175,117.90028,-18.66787,-16.49529,-0.01602,-9.82751,9.59138,0.00288,-1.7855,-7.28669,3.43112,-23.61064,-8.03554,0.48642,8.15705,0.35675,8.78396
2640,5.95559,0.0,-0.0,-3.27426,-0.0,-0.0,-29.92276,-11.11345,13.01245,18.75322,1.90126,-23.72142,-37.9968,-9.83359,-0.00231,-17.69678,0.03539,0.00091,38.16001,25.08256,23.36369,1.19453,1.68377,-18.52852,32.35963,14.68244,-0.37613,54.83675,-8.472,39.87853,114.13605,-0.01777,-104.67404,119.91236,-0.01122,116.53522,-19.61158,-13.93656,0.00256,-10.43206,9.07594,0.00686,-1.7238,-6.99847,2.78716,-23.5353,-7.53048,-0.00417,8.30161,0.46647,8.99464
2641,8.86509,0.0,-0.0,-3.56056,0.0,-0.0,-29.53379,-10.3258,13.05693,19.08588,1.47758,-23.91293,-38.70792,-9.77528,0.00126,-18.43958,0.20514,-0.00167,38.72435,24.81788,22.69161,1.3677,1.63607,-18.99655,31.33117,14.99425,-1.82671,54.72346,-8.97972,40.04904,112.65237,-0.04391,-104.20701,119.44784,-0.01822,114.42786,-20.24641,-11.4052,0.02057,-11.0124,8.34469,0.0054,-1.40365,-6.70819,2.25826,-23.20068,-7.06592,-0.38701,8.42318,0.55803,9.05845
2642,11.68299,-0.0,0.0,-3.71063,0.0,0.0,-29.05265,-9.6185,13.36759,19.41364,0.97475,-24.07389,-39.51453,-9.90348,0.00224,-19.22523,0.49068,-0.00224,39.2424,24.59397,21.76616,1.46298,1.52809,-19.4212,30.04201,15.24917,-3.2302,54.74514,-9.42659,40.40876,110.9907,-0.03239,-103.78302,118.70205,-0.00767,113.27385,-20.78417,-8.8345,0.01783,-11.48478,7.9049,0.00093,-0.7564,-6.48324,1.86495,-22.54199,-6.712,-0.66831,8.405,0.67843,9.1076
2643,13.67051,0.0,0.0,-3.64212,0.0,-0.0,-28.3549,-9.29243,13.76483,19.66738,0.73194,-24.0251,-40.35571,-9.99016,-0.0002,-20.11062,0.7017,4e-05,39.52592,24.47591,21.01554,1.47924,1.36398,-19.83061,28.49338,15.45767,-4.46369,55.1175,-9.63784,41.02744,109.16837,0.01657,-102.19865,117.46382,0.01515,113.74437,-21.59729,-6.00657,-0.00891,-11.80033,8.05373,-0.00312,0.02506,-6.32406,1.70194,-21.75293,-6.50407,-0.76029,8.20594,0.85494,9.29497
2644,14.99775,-0.0,-0.0,-3.49151,0.0,-0.0,-27.47023,-9.50986,14.15058,19.82616,0.90729,-23.7987,-41.16313,-9.9536,-0.00224,-21.08078,0.74992,0.00248,39.60003,24.44925,20.54414,1.49187,1.15894,-20.18566,26.54761,15.68062,-5.51852,55.82531,-9.48334,41.92471,107.24372,0.06946,-99.15592,115.65041,0.0362,115.06164,-22.99388,-3.09521,-0.03418,-12.06179,8.71953,-0.00709,0.64765,-6.2452,1.9729,-21.12809,-6.53076,-0.4791,7.95236,1.08464,9.6466
2645,15.38073,-0.0,-0.0,-3.23222,0.0,-0.0,-26.39118,-9.90273,14.53641,19.88294,1.35885,-23.61709,-41.94421,-9.91544,-0.0013,-22.04919,0.734,0.00233,39.66415,24.46953,20.17616,1.59202,0.92545,-20.34233,24.12469,15.94059,-6.46619,56.69391,-8.8805,43.12017,105.18376,0.08266,-95.70274,113.37981,0.05267,116.33133,-24.85234,-0.8045,-0.02083,-12.28725,9.56402,-0.00818,0.94548,-6.32562,2.66822,-20.83453,-6.86187,0.13708,7.83931,1.34176,10.08776
2646,14.343,-0.0,0.0,-2.76295,0.0,-0.0,-25.1294,-9.93478,14.96767,19.85477,1.81952,-23.64573,-42.73433,-10.02393,0.00185,-22.93743,0.81671,0.00019,39.84978,24.48085,19.74667,1.78551,0.63677,-20.23571,21.36217,16.12128,-7.21927,57.61037,-7.74301,44.66289,102.79808,0.02801,-93.61675,110.84428,0.04979,116.98248,-26.2697,0.16257,0.00887,-12.1914,10.35795,-0.00088,0.97756,-6.57044,3.43551,-20.81157,-7.37216,0.759,7.93585,1.56532,10.53097
2647,12.88758,0.0,-0.0,-2.27236,0.0,0.0,-23.95641,-9.58016,15.43126,19.80765,2.11468,-23.84161,-43.5171,-10.28262,0.00436,-23.69775,1.08561,-0.0016,40.10316,24.41982,19.19305,1.93984,0.25891,-20.03207,18.51801,16.00108,-7.4725,58.61724,-6.06487,46.57342,99.85532,-0.07391,-93.92339,108.16235,-0.00318,116.26488,-25.99945,-0.23217,-0.00293,-11.45357,11.14996,0.0158,0.97986,-6.78919,3.9621,-20.81676,-7.76945,1.16698,8.12466,1.69719,10.92578
2648,12.82736,0.0,0.0,-2.0314,0.0,-0.0,-23.25637,-9.25013,15.79616,19.7951,2.2676,-24.02622,-44.2812,-10.51612,0.00382,-24.29643,1.51472,-0.00171,40.33123,24.26176,18.53764,1.87937,-0.17757,-20.01665,15.75672,15.45924,-7.08958,59.83553,-4.04737,48.77096,96.24545,-0.15542,-95.98431,105.36951,-0.08773,113.54661,-23.56651,-1.30459,-0.03126,-10.06035,11.94386,0.03092,1.18913,-6.76591,4.2509,-20.60386,-7.8543,1.44448,8.23396,1.752,11.29488
2649,14.47554,-0.0,0.0,-1.97099,0.0,-0.0,-23.09784,-9.25311,15.87817,19.78012,2.44243,-24.00352,-45.09549,-10.47862,-0.00064,-24.72423,1.99382,-0.00059,40.5488,24.03076,17.88741,1.53428,-0.58782,-20.36943,13.04719,14.65806,-6.44529,61.33774,-2.02366,51.10128,92.01279,-0.15883,-98.13478,102.51801,-0.12523,109.34879,-19.70267,-2.26875,-0.02364,-8.12759,12.3994,0.0212,1.68272,-6.50867,4.4139,-20.09559,-7.67553,1.69257,8.18009,1.79598,11.74173
2650,16.25471,-0.0,-0.0,-1.76337,0.0,-0.0,-23.12224,-9.52349,15.6119,19.67143,2.78186,-23.62977,-46.03956,-10.04876,-0.00636,-25.00678,2.39997,0.00062,40.85035,23.73862,17.37756,1.00933,-0.93605,-21.06211,10.24932,13.92535,-6.10806,63.04139,-0.2253,53.43128,87.23433,-0.066,-98.78877,99.7996,-0.06105,105.59639,-15.72932,-2.76192,0.00425,-5.53602,12.0227,-0.02489,2.39253,-6.19454,4.42723,-19.37023,-7.38871,1.82251,8.03645,1.84243,12.3816
2651,16.6504,0.0,-0.0,-1.26131,-0.0,0.0,-22.91582,-9.73496,15.16132,19.45596,3.2974,-22.88622,-47.07206,-9.37466,-0.0074,-25.20521,2.68672,0.0013,41.28669,23.34833,17.04051,0.51697,-1.30856,-21.91008,7.33815,13.40482,-6.20717,64.7046,1.3376,55.68879,81.87421,0.0907,-97.14045,97.59662,0.03966,104.60355,-12.82229,-2.80544,0.01527,-2.00695,10.79216,-0.06926,3.21911,-5.95067,4.151,-18.5353,-7.06039,1.65648,7.99629,1.81232,13.24881
2652,15.73106,0.0,0.0,-0.74464,0.0,0.0,-22.39104,-9.61155,14.7795,19.2305,3.87868,-21.85638,-48.03838,-8.77337,-0.00271,-25.41743,2.90617,0.00146,41.76552,22.81421,16.75989,0.17431,-1.84972,-22.77154,4.51905,12.91,-6.32817,66.07426,2.77527,57.83991,75.76727,0.23071,-93.54756,96.35118,0.05094,107.16373,-11.61698,-2.55625,0.00258,2.47413,9.45524,-0.04858,4.06955,-5.79951,3.47335,-17.68414,-6.67017,1.0823,8.1765,1.62064,14.27706
2653,14.38652,0.0,0.0,-0.6414,0.0,0.0,-21.69331,-9.19362,14.60714,19.03812,4.34816,-20.66136,-48.82027,-8.47209,0.00212,-25.74615,3.15926,0.0011,42.11489,22.14657,16.36681,-0.08824,-2.61909,-23.63207,2.11102,12.21034,-5.93488,67.06272,4.15242,59.91716,68.74854,0.24897,-89.32608,96.26951,-0.00528,111.3647,-11.97424,-2.24841,-0.0142,7.24174,8.88269,0.01896,4.86744,-5.68645,2.43036,-16.8857,-6.18055,0.15452,8.5007,1.26617,15.37913
2654,13.06151,0.0,0.0,-0.98697,0.0,0.0,-20.92673,-8.81472,14.66473,18.74447,4.58144,-19.49395,-49.42151,-8.46302,0.00321,-26.24483,3.53265,0.00027,42.26252,21.41808,15.80019,-0.3585,-3.54367,-24.41465,0.36057,11.35476,-4.63821,67.78021,5.44522,62.03716,60.83871,0.0732,-86.1452,97.07161,-0.01186,114.1529,-13.13259,-2.25639,-0.01534,11.02771,9.14344,0.03995,5.61449,-5.47472,1.20007,-16.1276,-5.53019,-0.90989,8.85027,0.8095,16.55822
2655,11.80437,0.0,-0.0,-1.33274,-0.0,-0.0,-20.17131,-8.69232,14.87916,18.14689,4.66956,-18.57505,-49.90704,-8.56226,0.00148,-26.90056,4.05136,-0.00063,42.27588,20.69385,15.1834,-0.62477,-4.5041,-24.93816,-0.75181,10.60701,-2.11571,68.38797,6.59203,64.23615,52.44115,-0.16627,-85.10276,98.10712,0.01787,114.28781,-14.5233,-2.88844,0.00092,12.83695,9.37062,0.00497,6.33837,-5.03924,-0.06419,-15.37778,-4.65956,-1.92215,9.22143,0.30246,17.91303
2656,10.81957,0.0,0.0,-1.23194,0.0,0.0,-19.59081,-8.67436,15.10242,17.15159,4.86766,-17.99837,-50.30312,-8.61988,-0.00028,-27.67222,4.69049,-0.00152,42.24917,19.96074,14.62975,-0.86002,-5.43351,-25.15199,-1.62903,10.19464,2.04,68.92191,7.53412,66.29746,44.44475,-0.22152,-85.74215,98.7586,0.01779,112.75288,-16.44356,-3.97347,0.02327,12.6538,8.58205,-0.01882,6.96462,-4.39682,-1.36905,-14.71415,-3.58188,-2.89547,9.69317,-0.25016,19.49498
2657,10.72406,0.0,-0.0,-0.6184,-0.0,0.0,-19.35981,-8.58244,15.25423,15.7813,5.33665,-17.6884,-50.5722,-8.66866,-0.00071,-28.54921,5.3975,-0.00212,42.22455,19.16622,14.00072,-1.06634,-6.31278,-25.21181,-2.84747,10.2274,8.282,69.26413,8.25929,67.87739,37.95673,-0.09902,-86.6073,98.79697,-0.00597,110.42374,-19.47925,-4.92405,0.02493,11.01262,6.58547,-0.01815,7.41442,-3.67267,-2.78914,-14.21912,-2.38607,-3.94624,10.33371,-0.8776,21.20955
2658,12.17547,0.0,0.0,0.37466,0.0,0.0,-19.48801,-8.48295,15.39372,14.01134,6.03404,-17.47395,-50.68999,-8.80396,-0.00052,-29.55614,6.07137,-0.00105,42.19992,18.33452,13.06796,-1.2149,-7.09775,-25.30112,-4.69651,10.75968,16.67327,69.2523,8.79597,68.79723,33.66365,0.02265,-86.51299,98.45468,-0.01907,107.16084,-23.41899,-5.25536,-0.00447,8.08589,3.94683,-0.00912,7.78816,-2.98281,-4.30833,-13.79324,-1.1862,-5.10282,11.17346,-1.57497,22.9173
2659,15.09268,0.0,0.0,1.77078,0.0,0.0,-19.77937,-8.44916,15.55259,11.65502,6.83091,-17.16111,-50.71729,-8.99424,-0.0003,-30.69839,6.59709,0.00164,42.15855,17.57483,11.85404,-1.25039,-7.72776,-25.49139,-6.97234,11.83672,26.42421,68.81123,9.10195,69.1142,31.45561,0.06642,-84.4178,98.14067,-0.00798,103.39726,-27.35069,-4.85862,-0.03459,3.54275,1.23375,0.00842,8.257,-2.39088,-5.88857,-13.26387,-0.0558,-6.35361,12.2112,-2.25565,24.59825
2660,18.44344,-0.0,-0.0,3.59745,0.0,-0.0,-19.97536,-8.37829,15.59583,8.4658,7.60263,-16.61198,-50.75509,-9.10262,-8e-05,-31.96161,6.95438,0.00204,42.06781,16.95581,10.62593,-1.17435,-8.21873,-25.76937,-9.28197,13.47311,36.31457,68.00055,9.04588,68.93214,30.71823,0.03837,-79.55825,98.03963,0.00056,100.40387,-30.49513,-3.96506,-0.03514,-2.66865,-1.42031,0.03445,8.81658,-1.90364,-7.62087,-12.62718,1.03156,-7.78605,13.38978,-2.79976,26.32871
2661,20.61493,0.0,-0.0,5.28368,-0.0,0.0,-19.82154,-8.12744,15.39938,4.39038,8.24999,-15.84061,-50.82413,-9.04142,0.00031,-33.38226,7.25374,-0.00332,41.85521,16.42117,9.63671,-1.05052,-8.69416,-26.07093,-11.45845,15.55023,45.70855,66.91328,8.57801,68.26557,30.9359,-0.02786,-72.73702,97.97408,-0.01489,98.6471,-32.25165,-2.98579,-0.00788,-9.66537,-4.24846,0.0622,9.32048,-1.48335,-9.54845,-12.0211,2.12573,-9.42735,14.60947,-3.14449,28.0842
2662,20.43238,-0.0,0.0,5.61152,0.0,0.0,-19.13392,-7.65812,15.11521,-0.3001,8.77048,-14.9531,-50.79592,-8.86979,0.00083,-35.05333,7.58268,-0.00925,41.39734,15.86066,8.94456,-0.9301,-9.2686,-26.28897,-13.60769,17.81055,54.66028,65.56451,7.80366,67.07492,31.94671,-0.08319,-66.12296,97.5887,-0.03548,97.7719,-31.94349,-2.202,0.02046,-16.10069,-7.50321,0.06983,9.73932,-1.13209,-11.40937,-11.48608,3.12838,-11.03508,15.77982,-3.29709,29.69094
2663,18.49778,-0.0,0.0,3.55333,-0.0,0.0,-18.04256,-7.03472,15.04596,-5.23898,9.19457,-13.87243,-50.47775,-8.75191,-0.00028,-37.03451,7.81787,-0.00407,40.56351,15.23515,8.35403,-0.84905,-9.88683,-26.42285,-15.84879,20.05073,63.06539,63.93737,6.82657,65.29998,33.733,-0.08068,-61.57872,96.61086,-0.01606,98.159,-29.35108,-1.67615,0.02509,-21.25947,-10.94802,0.0432,10.22313,-0.96054,-12.84379,-10.89879,3.80639,-12.31282,16.79825,-3.27602,30.96997
2664,16.83404,0.0,0.0,-1.11052,0.0,-0.0,-16.99818,-6.3823,15.26151,-10.31081,9.36051,-12.27773,-49.78839,-8.80603,-0.00387,-39.29905,7.74704,0.01297,39.34345,14.58996,7.51942,-0.84014,-10.33861,-26.62973,-18.09298,22.27229,70.34214,62.05659,5.63148,62.85356,36.16118,-0.00992,-60.01834,95.01823,0.04976,100.73543,-25.33864,-1.46986,0.00374,-25.2223,-13.83806,-0.0003,10.87126,-1.07577,-13.78061,-10.17127,4.0358,-13.23038,17.54813,-3.10781,31.79863
2665,16.72263,-0.0,-0.0,-7.7856,0.0,0.0,-16.36415,-5.81896,15.50241,-15.63689,8.97696,-9.93106,-48.82904,-8.95868,-0.006,-41.79469,7.42455,0.02539,37.94157,13.98433,6.27541,-0.84471,-10.44985,-26.93081,-20.04845,24.63048,75.95825,59.9574,4.14269,59.66386,38.96596,0.0793,-61.50219,93.04215,0.09412,105.1163,-21.47792,-1.62175,-0.01494,-28.13428,-15.49016,-0.0367,11.56401,-1.41752,-14.48771,-9.40838,3.9702,-14.01476,18.00594,-2.86612,32.1339
2666,17.57858,0.0,0.0,-15.05363,-0.0,-0.0,-16.14811,-5.32239,15.4194,-21.2068,7.96936,-6.90574,-47.79079,-8.92174,-0.00277,-44.53722,7.23973,0.01896,36.64243,13.44712,4.90121,-0.70926,-10.2088,-27.05079,-21.39065,27.28086,79.80693,57.63848,2.31812,55.73021,41.92984,0.11703,-65.04084,90.99664,0.08561,109.38023,-18.99318,-1.9325,-0.01138,-30.10099,-15.60218,-0.05663,12.06494,-1.81027,-15.35722,-8.81735,3.91382,-14.96912,18.25188,-2.63524,32.10232
2667,18.07845,0.0,0.0,-21.17758,-0.0,-0.0,-16.17287,-4.80992,14.85581,-26.57177,6.64288,-3.53729,-46.80763,-8.41873,0.00231,-47.63239,7.56182,-0.00301,35.55119,13.00872,3.85247,-0.32859,-9.70856,-26.69158,-21.95699,30.24442,82.12638,55.05485,0.22217,51.12095,45.02916,0.07898,-68.83572,89.02354,0.06393,111.71904,-18.045,-2.06205,-0.00193,-31.64499,-14.43755,-0.05958,12.18659,-2.13917,-16.64717,-8.55906,4.06449,-16.29425,18.33928,-2.42393,31.93978
2668,17.64984,-0.0,0.0,-25.31238,-0.0,-0.0,-16.32643,-4.41158,13.9812,-30.95263,5.54376,-0.32021,-45.87042,-7.50786,0.00348,-51.21659,8.41644,-0.0259,34.55221,12.76304,3.21668,0.32075,-9.03927,-25.8207,-21.84278,33.36385,83.26049,52.12716,-1.96339,45.94412,48.40697,-0.00805,-71.30165,86.9915,0.02783,111.1137,-17.87065,-1.83876,-9e-05,-33.3753,-13.25751,-0.02217,11.86258,-2.37822,-18.3305,-8.6935,4.43404,-17.95707,18.2721,-2.14685,31.77423
2669,16.91014,-0.0,-0.0,-27.7545,-0.0,0.0,-16.66284,-4.35174,13.09416,-33.75318,5.10199,2.28305,-44.85601,-6.51274,0.00114,-55.34947,9.51876,-0.03708,33.49326,12.81771,2.70355,1.22862,-8.26031,-24.72104,-21.27025,36.43823,83.38488,48.78378,-4.07533,40.31617,52.19431,-0.08961,-71.93795,84.66598,-0.0593,107.00429,-17.65676,-1.38621,-0.00398,-35.21101,-13.81557,0.04091,11.19642,-2.49292,-20.17867,-9.13548,4.97158,-19.7333,18.07719,-1.70521,31.53618
2670,17.0771,-0.0,-0.0,-28.99434,-0.0,-0.0,-17.36903,-4.50059,12.26784,-34.95284,5.31558,4.01182,-43.6396,-5.6374,-0.00094,-59.95378,10.52248,-0.03373,32.32312,13.17662,2.10505,2.35516,-7.41956,-23.80539,-20.24483,39.44057,82.4114,45.04551,-6.09094,34.29391,56.31122,-0.10009,-71.42802,81.92916,-0.16467,99.76111,-17.33644,-1.09502,-0.00692,-36.45803,-16.69263,0.04049,10.43213,-2.41806,-21.9932,-9.666,5.66831,-21.41586,17.78178,-1.08157,31.08347
2671,18.6391,-0.0,0.0,-29.334,-0.0,-0.0,-18.54937,-4.37751,11.33366,-35.03231,5.91132,4.71132,-42.20172,-4.85731,-0.00153,-64.90788,11.18528,-0.01377,31.09275,13.71594,1.46476,3.70698,-6.58637,-23.30931,-18.41851,42.50718,80.14715,41.06382,-8.06246,27.83592,60.46086,-0.02281,-71.10265,78.80515,-0.19509,91.2979,-17.52648,-1.50551,0.00992,-36.55218,-20.64813,-0.02342,9.76755,-2.14831,-23.73,-10.09715,6.51487,-22.96338,17.36165,-0.36402,30.35987
2672,20.63306,-0.0,0.0,-29.15184,0.0,0.0,-20.02631,-3.70628,10.14982,-34.71695,6.63749,4.29318,-40.64743,-4.07732,-0.00093,-70.16195,11.34426,0.02999,29.88036,14.26218,0.91187,5.39783,-5.89543,-23.2487,-15.47308,45.68042,76.46521,37.0228,-10.00123,20.93675,64.33723,0.06005,-71.84785,75.35868,-0.0998,84.32856,-18.75447,-2.80814,0.04357,-35.56459,-23.82964,-0.05174,9.19452,-1.79776,-25.41645,-10.43279,7.41427,-24.4422,16.77217,0.32312,29.40764
2673,21.54239,0.0,0.0,-28.79261,0.0,0.0,-21.42117,-2.7694,8.72597,-34.70137,7.20475,3.02125,-39.1077,-3.20567,0.00196,-75.6983,10.96418,0.07611,28.70319,14.71295,0.60097,7.5266,-5.55191,-23.53389,-11.50957,48.81216,71.42332,33.04163,-11.86365,13.88857,67.75775,0.06474,-73.2423,71.62267,0.07655,80.75354,-20.61022,-4.33102,0.04536,-34.25389,-25.11999,-0.02667,8.57143,-1.48772,-27.00671,-10.81855,8.23738,-25.85012,16.01912,0.92516,28.29707
2674,20.77598,0.0,0.0,-28.60652,0.0,-0.0,-22.43186,-2.08553,7.18704,-35.22887,7.34492,1.57336,-37.62354,-2.20255,0.00622,-81.44084,10.4286,0.0623,27.5379,15.08677,0.70212,10.05577,-5.77638,-23.76696,-6.81247,51.74724,65.27307,29.21841,-13.62311,7.32631,70.644,0.01611,-74.20795,67.53831,0.21165,80.53889,-21.7511,-5.07546,0.0216,-33.31339,-24.59507,-0.00995,7.83273,-1.20612,-28.36321,-11.34597,8.95106,-27.05063,15.20014,1.4569,27.09574
2675,18.93184,0.0,0.0,-29.10499,0.0,-0.0,-22.99458,-1.85044,5.7347,-35.92929,7.08595,0.58756,-36.15784,-1.20475,0.00674,-87.23902,10.48251,-0.02277,26.4537,15.44218,1.17406,12.8667,-6.68883,-23.22552,-1.41272,54.40056,58.23616,25.65686,-15.3308,1.85935,73.05486,-0.02416,-74.25244,62.93984,0.18885,81.71396,-21.28284,-4.87159,0.01447,-32.2802,-23.43849,-0.01866,7.04862,-0.88302,-29.38198,-11.97164,9.58967,-27.91878,14.4644,1.92031,25.77919
2676,16.77825,0.0,0.0,-30.34443,0.0,0.0,-23.19928,-1.88771,4.53574,-36.37206,6.65836,0.30661,-34.67789,-0.49072,0.00204,-92.87562,11.429,-0.08747,25.57177,15.83855,1.67137,15.83612,-8.18823,-21.56855,4.71891,56.65005,50.43504,22.38858,-17.06163,-2.32264,75.22107,-0.04391,-73.51105,57.6939,0.0273,81.85137,-19.78559,-4.4516,0.00739,-30.18204,-23.01463,-0.04583,6.2636,-0.51976,-30.08455,-12.65295,10.16157,-28.47329,13.87203,2.33788,24.14867
2677,14.71144,0.0,-0.0,-31.58226,0.0,-0.0,-23.16126,-2.00073,3.55117,-36.599,6.17109,0.62386,-33.16073,-0.20868,-0.00208,-98.12261,12.67209,-0.06523,24.83365,16.38175,1.95969,18.81834,-10.00633,-19.22461,11.31403,58.39909,42.01713,19.34515,-18.80819,-5.47006,77.33002,-0.03747,-72.47128,51.8996,-0.12005,79.9787,-18.38085,-4.43552,-0.00362,-27.42732,-23.38667,-0.04543,5.37778,-0.10412,-30.56729,-13.4768,10.71108,-28.80092,13.30678,2.8216,22.04739
2678,13.02459,-0.0,0.0,-32.28357,0.0,-0.0,-22.95578,-2.11863,2.60206,-36.83585,5.66919,1.20487,-31.56519,-0.27444,-0.0028,-102.83938,13.411,-0.00291,24.0094,17.18521,2.18149,21.67515,-11.92008,-16.76353,18.31514,59.70883,32.8198,16.39672,-20.47192,-8.04588,79.19789,-0.0022,-72.19652,45.93807,-0.15825,76.68246,-17.56212,-4.71997,-0.00562,-25.83396,-23.26287,-0.02765,4.26285,0.48403,-30.91419,-14.56587,11.37975,-28.94189,12.60995,3.47659,19.63135
2679,12.09922,0.0,0.0,-33.01425,0.0,0.0,-22.68399,-2.17782,1.60248,-36.96263,5.26443,1.54005,-29.86564,-0.57254,-0.00354,-106.98393,13.39222,0.03185,22.97425,18.25281,2.52932,24.34695,-13.87527,-14.35209,26.40422,60.5968,22.14837,13.35837,-21.94789,-10.5106,80.36831,0.01607,-73.6378,40.28128,-0.10688,72.86732,-17.31498,-4.81101,-0.00352,-26.53145,-21.66258,-0.06217,2.95971,1.3053,-31.1782,-15.87632,12.24226,-28.92631,11.76451,4.2685,17.20722
2680,12.28673,0.0,-0.0,-34.72665,0.0,0.0,-22.64152,-2.01862,0.51551,-36.58487,4.77296,1.09214,-28.11308,-1.06047,-0.00532,-110.53873,12.83309,0.0289,21.84441,19.45871,3.00686,26.81585,-15.93346,-11.96079,36.13353,60.7921,9.69746,10.03684,-23.19766,-13.18729,80.62337,0.00043,-76.40443,35.21146,0.00636,69.38725,-17.50095,-4.43266,-0.00344,-28.8222,-18.94392,-0.08536,1.71263,2.20147,-31.39694,-17.14871,13.16101,-28.84163,10.87246,5.06869,14.86686
2681,13.32431,0.0,-0.0,-37.46088,-0.0,-0.0,-23.15067,-1.53027,-0.77252,-35.62119,3.664,-0.35732,-26.45432,-1.67514,-0.00498,-113.45172,12.0058,0.01491,20.87032,20.70445,3.54325,29.03861,-18.13732,-9.66567,46.78925,59.96879,-3.5566,6.39599,-24.25696,-16.18204,80.20032,-0.01289,-79.34401,30.68815,0.11638,67.02117,-17.92413,-3.772,-0.00204,-31.34277,-16.19923,-0.0448,0.76608,2.96332,-31.55604,-18.12559,13.9333,-28.74279,10.00009,5.84973,12.41993
2682,14.1712,0.0,-0.0,-40.10303,0.0,0.0,-24.13142,-0.91067,-2.28416,-34.62331,1.85501,-2.39295,-25.06374,-2.29142,-0.00167,-115.61472,10.93312,0.01267,20.23543,22.06107,4.11996,30.99129,-20.4256,-7.62258,56.88825,58.12902,-16.05575,2.63934,-25.19731,-19.43825,79.47994,-0.0154,-82.1727,26.49274,0.09675,65.41597,-18.38135,-3.25085,0.0029,-33.28663,-14.50454,0.01018,0.09226,3.55301,-31.53659,-18.85136,14.48486,-28.52662,9.12637,6.79824,9.65505
2683,14.09985,0.0,0.0,-41.4449,0.0,-0.0,-25.14868,-0.54999,-3.79325,-34.27412,0.14827,-4.23837,-24.01904,-2.80449,0.00112,-116.87697,9.29683,0.01652,19.90973,23.62967,4.78054,32.78308,-22.70668,-5.91506,65.38467,55.53561,-26.78615,-0.97458,-26.07882,-22.97835,78.69622,-0.01124,-85.16461,22.48439,-0.05986,62.93647,-18.63844,-3.09698,0.00628,-34.31516,-14.76494,0.01778,-0.58097,4.04431,-31.1975,-19.62767,14.83927,-28.03064,8.22282,8.12467,6.60727
2684,13.523,0.0,0.0,-41.53215,0.0,0.0,-25.93583,-0.55584,-4.98853,-34.71736,-0.42949,-5.45818,-23.24458,-3.19187,0.00134,-117.11298,6.72624,0.00313,19.74846,25.23326,5.53617,34.67228,-25.07484,-4.46817,72.05463,52.43898,-35.49314,-4.36568,-26.89783,-27.13704,77.95313,-0.00102,-87.99735,18.71563,-0.15759,59.01228,-18.50354,-3.26182,0.00295,-34.31301,-17.10024,-0.02941,-1.32757,4.48458,-30.5643,-20.52492,15.04839,-27.26388,7.30019,9.72237,3.52731
2685,13.3856,0.0,0.0,-41.68631,0.0,0.0,-26.64523,-0.5903,-5.83319,-35.5128,0.40328,-6.16451,-22.59511,-3.44047,0.0011,-116.2918,3.2844,-0.02625,19.73704,26.438,6.39367,36.89879,-27.85389,-3.04159,77.34917,48.92445,-42.53407,-7.64703,-27.54147,-32.53635,77.27306,0.00272,-90.3057,15.47508,-0.07163,55.76208,-17.99069,-3.67717,-0.00629,-33.72045,-20.0697,-0.05853,-1.75509,4.92903,-29.90401,-21.10615,15.25071,-26.46834,6.36833,11.1759,0.65296
2686,14.09142,-0.0,0.0,-42.99976,0.0,0.0,-27.54505,-0.28069,-6.67932,-35.952,1.78459,-6.59859,-21.98258,-3.49553,0.00223,-114.4618,-0.38896,-0.03554,19.97526,27.04978,7.49228,39.43302,-31.19438,-1.33495,81.9083,44.93659,-48.47307,-10.97637,-27.81489,-39.72316,76.59368,-0.00422,-92.29271,13.18051,0.04822,55.9264,-17.19498,-4.22875,-0.0144,-33.52955,-21.66964,-0.04686,-1.45225,5.46374,-29.52612,-20.91621,15.62999,-25.91577,5.40455,12.23674,-1.9088
2687,15.05632,0.0,0.0,-44.95194,0.0,-0.0,-28.57831,0.36481,-7.82481,-35.513,2.42713,-6.88833,-21.37665,-3.39525,0.00288,-111.7021,-3.49954,0.00125,20.36662,27.46987,8.92177,41.8951,-34.66161,0.77336,85.98623,40.53885,-53.50826,-14.39296,-27.57676,-48.70951,75.87247,-0.00641,-93.91177,12.03761,0.04807,60.03428,-16.06789,-4.56444,-0.00735,-34.2772,-21.51461,-0.02716,-0.59558,6.06595,-29.46961,-20.12623,16.1789,-25.65167,4.35426,13.16314,-4.15308
2688,15.31013,0.0,-0.0,-45.63772,0.0,0.0,-29.35696,0.99878,-9.04715,-34.40173,1.95597,-7.17556,-20.70865,-3.36023,0.00049,-108.12508,-5.75123,0.05324,20.47375,28.34175,10.40651,43.82842,-37.4958,3.0478,89.40983,36.11728,-57.42933,-17.75622,-26.88377,-58.79506,75.22165,0.00287,-94.23725,11.79924,-0.0105,66.46229,-14.41582,-4.21547,0.02336,-35.34731,-20.97629,0.00054,0.14998,6.54714,-29.48039,-19.42631,16.63593,-25.49431,3.13548,14.4388,-6.11247
2689,14.66784,0.0,0.0,-43.84146,0.0,-0.0,-29.60088,1.28154,-9.85396,-33.52135,1.12934,-7.5446,-19.87943,-3.57759,-0.00387,-103.82951,-7.61648,0.05198,19.84994,29.87232,11.51527,45.12674,-39.33462,5.00526,91.99067,32.1912,-60.07393,-20.8597,-25.99524,-68.63114,74.88175,0.00363,-92.66691,11.99394,-0.02688,72.64009,-12.14845,-3.17294,0.04614,-35.63976,-21.28591,-0.00752,0.28451,6.71844,-29.31351,-19.33654,16.7417,-25.2713,1.6784,16.25972,-7.86398
2690,13.98093,0.0,0.0,-40.95779,0.0,0.0,-29.38838,1.07825,-10.09101,-33.60751,0.8257,-7.75444,-18.85901,-3.9585,-0.00598,-98.75484,-9.83726,-0.02437,18.47505,31.69216,12.17217,46.13361,-40.49419,6.28058,93.81394,29.08637,-61.60555,-23.57623,-25.21358,-76.77711,75.0732,-0.00253,-90.45002,12.42188,0.00814,75.70795,-9.67395,-2.27607,0.02243,-34.41932,-22.67233,-0.07365,-0.13449,6.57982,-28.91957,-19.80597,16.4796,-24.93537,0.0163,18.43913,-9.57629
2691,14.13323,-0.0,-0.0,-39.35004,-0.0,-0.0,-28.96376,0.36502,-10.01356,-34.65667,1.47193,-7.47252,-17.68753,-4.24903,-0.00435,-92.6479,-12.56442,-0.1062,16.70766,33.3176,12.71388,47.30638,-41.53063,6.98011,95.20312,26.85649,-62.41909,-25.85814,-24.66223,-83.01444,75.8765,0.00627,-89.43156,13.25199,0.0408,74.93192,-7.83548,-2.34459,-0.00854,-31.84823,-24.53589,-0.10923,-0.7258,6.32437,-28.35846,-20.46225,16.05112,-24.47829,-1.66442,20.69589,-11.39676
2692,15.01276,0.0,0.0,-37.36482,0.0,0.0,-28.43686,-0.77217,-9.84738,-36.44025,3.39959,-6.92422,-16.39294,-4.27921,-0.00068,-85.24292,-15.12961,-0.10924,14.91215,34.49361,13.48516,48.9192,-42.7254,7.60606,96.47027,25.31757,-62.85302,-27.71161,-24.21763,-88.49459,77.18539,0.01371,-89.77798,14.55951,0.003,73.34082,-7.10717,-3.09399,-0.00695,-29.26296,-25.68759,-0.05714,-1.20314,6.13595,-27.71133,-21.02316,15.65613,-23.91528,-3.11034,22.85071,-13.22671
2693,15.43834,0.0,0.0,-28.14835,0.0,0.0,-27.72729,-2.13559,-9.54644,-38.5027,7.54482,-6.79665,-14.96393,-4.01346,0.00388,-76.42827,-16.78683,-0.0546,13.23333,35.12347,14.59836,51.08177,-43.99902,8.46185,97.696,24.02756,-62.95486,-29.29894,-23.7277,-93.71667,78.69611,0.00327,-90.4553,15.91087,-0.05291,73.72699,-7.03512,-3.62024,0.00406,-28.13105,-25.62517,-0.00654,-1.46365,6.01613,-27.08505,-21.36846,15.33184,-23.34972,-4.18833,24.75815,-14.67168
2694,14.27171,0.0,-0.0,-5.16126,0.0,0.0,-26.82541,-3.65833,-8.95892,-38.32192,15.67776,-7.32526,-13.37776,-3.51347,0.0072,-66.22879,-17.41896,-0.01287,11.5739,35.19471,16.08756,53.72099,-45.12997,9.20928,98.79372,22.47478,-62.62394,-30.91348,-23.21385,-97.6392,80.02753,-0.00756,-90.98782,16.64303,-0.05192,75.04232,-6.73621,-3.64822,0.00672,-28.55561,-25.25607,0.00877,-1.48914,5.87564,-26.55722,-21.46015,15.02074,-22.888,-5.03473,26.22348,-15.31093
2695,11.61643,0.0,-0.0,28.44143,-0.0,0.0,-25.90064,-5.211,-8.15019,-30.15036,28.06462,-8.72989,-11.72694,-2.93965,0.00532,-54.92924,-17.196,0.05531,9.77196,34.96556,17.7751,56.04816,-46.11324,9.01676,99.73782,20.52106,-61.98567,-32.59232,-22.79381,-99.8152,80.99512,-0.00615,-91.7069,16.57753,-0.03536,76.02525,-5.83479,-3.76698,-0.00292,-29.69293,-25.21271,-0.00244,-1.3769,5.7506,-26.03585,-21.41319,14.72582,-22.42797,-6.03735,27.24331,-15.3268
2696,8.60763,0.0,0.0,51.56517,0.0,0.0,-25.03586,-6.10988,-7.53717,-8.5398,39.72057,-12.95784,-10.33831,-2.47014,-0.00064,-43.54235,-16.04888,0.15893,7.90277,35.01272,18.97214,56.54202,-47.26285,7.03827,100.58337,18.52266,-61.38104,-33.90833,-22.54165,-101.99586,81.70078,0.00341,-93.06066,16.20262,-0.03601,79.14323,-4.74779,-4.5448,-0.01134,-30.93237,-24.52448,-0.03928,-1.33369,5.78865,-25.2372,-21.48758,14.48854,-21.6433,-7.53289,28.27043,-15.74438
2697,6.25579,0.0,0.0,47.94849,0.0,0.0,-24.18277,-5.81961,-7.37096,17.82812,43.5585,-17.01468,-9.47869,-2.18224,-0.00425,-33.83924,-14.17651,0.14785,6.32167,35.71663,19.15527,54.79184,-48.56821,3.17649,101.3171,16.83997,-60.9847,-34.51524,-22.4466,-106.18572,82.28451,0.01009,-95.12877,16.02891,-0.05705,87.05447,-4.11452,-5.79608,-0.00353,-31.82391,-22.21232,-0.04445,-1.47006,6.00733,-23.93457,-21.82086,14.24515,-20.31029,-9.31952,29.75981,-17.25184
2698,5.10367,0.0,0.0,26.729,0.0,0.0,-23.44857,-4.96968,-7.18947,27.3877,40.87513,-12.85114,-9.00598,-2.04769,-0.00363,-27.42886,-12.29263,0.02189,5.33839,36.82595,18.64353,52.67358,-49.44621,-1.24266,101.84738,15.35502,-60.66263,-34.72579,-22.45964,-111.93297,82.71086,0.00587,-97.37676,16.02969,-0.04762,97.34908,-4.10656,-6.88827,0.00571,-31.81054,-19.1625,-0.00344,-1.68915,6.25457,-22.24855,-22.27512,13.89053,-18.60206,-10.71779,31.53118,-19.1868
2699,5.60787,0.0,-0.0,6.17907,-0.0,0.0,-23.08066,-4.53261,-6.42298,16.72732,34.22834,-5.08364,-8.63333,-1.96156,-0.0014,-24.77616,-10.87178,-0.06189,4.89374,37.81673,18.0135,52.34647,-49.51855,-4.2216,102.12372,13.62015,-60.20852,-35.1657,-22.43471,-117.21403,82.85739,-0.00065,-99.133,15.90024,-0.01104,105.01384,-4.3257,-7.54932,0.00452,-30.80423,-17.06233,0.01268,-1.86059,6.45446,-20.60488,-22.65427,13.50033,-16.95644,-11.42234,33.03827,-20.41736
2700,7.54942,0.0,0.0,-12.35008,0.0,0.0,-23.02979,-4.56377,-5.26991,-0.83759,25.87034,-3.2158,-8.30287,-1.76671,0.00025,-25.1423,-9.9583,-0.06175,4.66375,38.366,17.57828,54.24248,-48.82977,-4.6142,102.19428,11.40414,-59.57874,-35.9903,-22.15236,-121.20937,82.75918,0.0027,-100.52684,15.60176,0.00868,108.4182,-4.26358,-8.05427,-0.00224,-29.39373,-16.48184,-0.00389,-1.94968,6.67753,-19.41353,-22.88939,13.28718,-15.73794,-11.82615,33.95627,-20.47177
2701,9.42433,0.0,-0.0,-32.43759,0.0,-0.0,-22.90728,-4.57728,-4.28071,-12.5223,21.37055,-8.3462,-8.10891,-1.38996,0.00034,-27.3385,-9.46808,-0.03417,4.41363,38.43168,17.48245,57.4724,-47.57185,-2.45787,102.14389,9.01457,-58.90415,-36.86276,-21.5383,-124.47803,82.73997,0.01195,-101.94193,15.27977,0.01426,109.24488,-3.80875,-8.68352,-0.00716,-28.16395,-16.98782,-0.01527,-1.90574,6.94221,-18.81109,-22.9285,13.32012,-15.06662,-12.36629,34.27901,-19.63192
2702,9.73212,0.0,0.0,-47.12095,-0.0,-0.0,-22.46375,-4.50291,-3.47961,-15.4053,20.64816,-15.68748,-8.07899,-0.94171,-0.00022,-30.24272,-9.33754,-0.01648,4.14121,38.22399,17.58424,60.63898,-46.10395,1.00863,102.03173,7.08355,-58.41523,-37.54125,-20.75885,-127.21122,83.20287,-0.00271,-102.4845,14.87844,0.00124,108.90669,-3.35168,-9.30936,-0.00559,-27.32474,-18.056,-0.00989,-1.70433,7.15835,-18.63685,-22.76259,13.45977,-14.82095,-13.05607,34.23235,-18.6086
2703,8.62057,0.0,0.0,-52.73235,-0.0,-0.0,-21.85676,-4.62873,-2.54704,-14.0481,20.0874,-21.39373,-8.13274,-0.57025,-0.00024,-32.8804,-9.84677,-0.00905,3.94107,38.05499,17.53599,62.68469,-44.82213,3.6635,101.89463,6.01643,-58.33424,-38.07352,-20.05897,-128.71823,84.22778,-0.04697,-100.75191,14.21751,-0.04018,106.95264,-3.31308,-9.59801,-0.00325,-26.91718,-19.37385,0.00346,-1.60494,7.30729,-18.5971,-22.67992,13.58458,-14.72804,-13.67473,34.10589,-18.01074
2704,7.68767,0.0,0.0,-53.71994,0.0,0.0,-21.40792,-4.96408,-1.50544,-12.82995,18.62356,-23.40909,-8.20043,-0.31011,-0.00012,-34.72828,-11.56156,-0.01373,3.93403,38.09917,17.27509,63.70948,-43.67775,4.01728,101.70152,5.72625,-58.68095,-38.48728,-19.52335,-128.55673,85.54646,-0.05725,-97.3135,13.44425,-0.06181,102.41299,-3.58696,-9.50969,-0.00325,-26.81326,-20.70948,0.0106,-2.03495,7.48189,-18.40687,-23.14337,13.67959,-14.48227,-13.99515,34.00962,-17.84898
2705,8.25323,0.0,0.0,-52.91796,0.0,-0.0,-21.21614,-5.2408,-0.69482,-12.11146,17.44072,-21.96112,-8.31594,-0.14646,-0.00037,-35.95827,-14.64446,-0.01569,4.29967,38.28728,17.06856,64.75491,-42.23262,2.49001,101.26628,5.933,-59.20495,-38.66111,-19.03904,-127.04401,86.94592,-0.01085,-94.61165,13.05933,-0.01255,95.88462,-3.73031,-9.38895,-0.00289,-26.84651,-21.54923,0.005,-3.0959,7.69867,-17.80799,-24.27895,13.66763,-13.83197,-13.76583,33.80794,-17.75086
2706,10.15739,-0.0,-0.0,-49.79745,-0.0,-0.0,-21.06665,-5.39987,-0.29312,-10.75796,17.68307,-19.0068,-8.56041,-0.10209,-0.0007,-37.19985,-18.52732,0.01905,5.10354,38.40104,16.93515,66.58031,-40.40268,0.74771,100.37328,6.47855,-59.61458,-38.588,-18.47338,-124.52871,88.43915,0.03745,-94.16891,13.32985,0.04312,89.26215,-3.61097,-9.46058,-0.00225,-27.19257,-21.25978,-0.01382,-4.43502,7.84712,-16.67783,-25.72939,13.40034,-12.70314,-12.85904,33.32491,-17.64292
2707,12.17734,0.0,0.0,-44.4773,-0.0,-0.0,-20.66035,-5.60277,-0.30199,-8.58951,19.12115,-17.06534,-8.95665,-0.20849,-0.0008,-39.22027,-22.25771,0.07959,6.0962,38.30051,16.43519,68.76447,-38.64288,0.16739,99.04979,7.24007,-59.81087,-38.44151,-17.8217,-121.54416,90.00639,0.03729,-95.25591,13.95415,0.03684,84.28022,-3.45372,-9.53875,-0.00082,-27.9594,-19.78719,-0.02701,-5.60621,7.84081,-15.2431,-27.01324,12.87698,-11.34616,-11.55669,32.59322,-17.90044
2708,13.15044,0.0,-0.0,-38.382,0.0,-0.0,-19.85794,-5.85288,-0.86378,-6.10787,20.41882,-17.84944,-9.47448,-0.46897,-0.00033,-42.74343,-24.85465,0.07613,6.92203,38.10303,15.2349,70.38136,-37.34634,1.45404,97.55433,7.97836,-59.86647,-38.26809,-17.15888,-119.57845,91.47012,0.00227,-96.38418,14.44845,0.00454,82.42236,-3.34131,-9.39362,0.00081,-28.59736,-17.77722,-0.01069,-6.35522,7.70348,-13.96644,-27.84117,12.28664,-10.19128,-10.38447,31.84601,-18.80504
2709,12.92286,-0.0,-0.0,-33.35075,0.0,0.0,-18.78036,-5.95354,-2.13913,-3.71131,20.55461,-21.41628,-10.0997,-0.88407,0.00132,-48.00182,-25.55093,-0.04942,7.49042,38.11352,13.51725,71.12478,-36.42675,4.78653,96.05874,8.44913,-59.88965,-37.91259,-16.54075,-120.17038,92.70177,-0.01717,-97.17757,14.58149,0.00107,84.36802,-3.1014,-9.14614,0.00079,-28.53295,-16.14608,0.00819,-6.69452,7.53504,-13.07675,-28.22441,11.80662,-9.41554,-9.60954,31.30036,-20.10973
2710,12.20594,0.0,-0.0,-31.17005,0.0,-0.0,-17.68671,-5.73978,-3.8423,-1.63642,19.48475,-26.39063,-10.80876,-1.45548,0.00323,-54.1751,-24.31191,-0.16252,7.92809,38.49104,11.77123,71.36237,-35.55193,9.38978,94.46437,8.65697,-59.91065,-37.33874,-15.9922,-123.03638,93.82555,-0.00409,-98.31926,14.38942,0.01165,88.42509,-2.71035,-9.18903,-0.00192,-27.98554,-15.5512,0.00567,-6.901,7.41201,-12.41347,-28.4612,11.45067,-8.83715,-9.09741,30.98275,-21.24257
2711,11.29152,0.0,0.0,-30.31007,0.0,0.0,-16.6988,-5.23156,-5.24981,-0.58375,17.72807,-30.82843,-11.49361,-2.11329,0.00295,-59.78724,-22.05142,-0.12238,8.27091,39.00647,10.4407,71.5134,-34.59322,13.6101,92.58504,8.9577,-59.84335,-36.76179,-15.4973,-125.78539,95.17433,0.01639,-100.08569,14.01808,0.00053,91.09323,-2.47681,-9.75784,-0.00236,-27.60184,-15.91737,0.00103,-7.29608,7.27311,-11.77599,-28.88181,11.08903,-8.2897,-8.58478,30.74479,-21.84917
2712,9.72566,-0.0,-0.0,-25.41058,-0.0,-0.0,-15.75675,-4.67404,-5.87152,-1.61071,15.90402,-33.34342,-12.00548,-2.68852,0.00048,-63.92688,-19.82448,-0.01494,8.46009,39.23969,9.75051,71.76924,-33.70312,16.233,90.43763,9.78178,-59.60897,-36.365,-15.01524,-125.97955,96.96516,0.01256,-101.81381,13.63371,-0.01797,90.06654,-2.72424,-10.63489,0.00048,-27.63597,-16.62462,0.00152,-7.92286,6.97834,-11.14512,-29.52099,10.58458,-7.8075,-7.92309,30.42762,-22.01052
2713,7.4213,-0.0,0.0,-15.27156,0.0,0.0,-14.78247,-4.37081,-5.84111,-4.4759,14.29607,-33.8359,-12.29598,-3.04066,-0.00124,-66.80484,-18.06738,0.03788,8.58503,38.9726,9.57329,72.14131,-33.07208,17.26404,88.25994,11.19443,-59.27855,-36.06365,-14.57188,-123.23969,99.01823,-0.00981,-102.89957,13.40885,-0.01309,86.15599,-3.51932,-11.4319,0.00213,-27.81254,-17.12461,5e-05,-8.50127,6.50845,-10.53186,-30.09853,9.92351,-7.40782,-7.11815,30.00326,-22.00115
2714,5.23672,0.0,0.0,-6.31459,0.0,0.0,-13.73793,-4.41248,-5.43445,-7.26768,12.79393,-33.14509,-12.4632,-3.17815,-0.00116,-69.21427,-16.80816,0.03358,8.87054,38.23843,9.41784,72.51694,-32.82475,17.24573,86.24148,12.87837,-58.96202,-35.6473,-14.24427,-118.78449,100.9556,-0.02349,-103.49384,13.42832,0.00261,81.88629,-4.74993,-12.06255,0.00488,-27.79376,-17.24202,-0.00277,-8.65234,5.96093,-9.82992,-30.24855,9.1576,-6.95427,-6.25397,29.55705,-22.03287
2715,4.2361,0.0,0.0,-3.95031,0.0,0.0,-12.63202,-4.63623,-4.66165,-8.4171,11.36784,-32.19248,-12.63295,-3.19315,-0.00054,-71.75105,-15.9793,0.01226,9.38198,37.10433,8.89921,72.76653,-32.99942,16.60288,84.30912,14.55972,-58.58868,-35.0606,-14.09354,-113.63338,102.62782,-0.01974,-104.09469,13.53311,0.0051,78.70499,-6.17343,-12.68424,0.00789,-27.53874,-17.13302,-0.00462,-8.17726,5.36759,-8.89888,-29.7801,8.26486,-6.30374,-5.40829,29.13662,-22.16125
2716,4.54092,0.0,-0.0,-7.12764,0.0,-0.0,-11.53961,-4.79672,-3.66744,-7.98515,10.13436,-31.39091,-12.82705,-3.14203,-0.00021,-74.56319,-15.42546,-0.00351,9.90661,35.6714,8.286,72.82252,-33.39107,15.63225,82.23846,16.23528,-57.97344,-34.38317,-14.15135,-108.21954,104.14898,0.00239,-105.23573,13.44002,1e-05,76.52326,-7.32339,-13.33442,0.00409,-27.28494,-16.93016,-0.00398,-7.2955,4.70295,-7.80149,-28.90709,7.24438,-5.52503,-4.64852,28.67223,-22.25072
2717,5.16777,0.0,0.0,-11.51895,-0.0,-0.0,-10.55944,-4.70243,-3.02488,-6.9313,9.03714,-30.48029,-12.96689,-3.0296,-6e-05,-77.53333,-15.07511,-0.00196,10.19057,34.18101,8.23861,72.60936,-33.6047,14.39764,79.89854,17.96435,-57.0277,-33.59732,-14.37972,-103.01019,105.63099,0.0294,-107.30128,13.0748,-0.00154,74.8503,-7.69342,-13.87381,-0.00367,-27.20115,-16.58751,-0.00046,-6.59282,4.03175,-6.89632,-28.20571,6.28794,-4.92901,-4.06368,28.09348,-22.09231
2718,5.20257,-0.0,0.0,-13.90228,0.0,-0.0,-9.7377,-4.32864,-3.12806,-6.0716,7.86169,-29.03022,-12.97936,-2.85137,0.00019,-80.45647,-14.99838,0.01086,10.17107,32.84929,9.00385,72.00856,-33.42458,12.71756,77.2651,19.67419,-55.70827,-32.61208,-14.70749,-98.40204,107.0844,0.03024,-109.79327,12.62844,-0.00168,72.74212,-7.19226,-14.12476,-0.00597,-26.98351,-16.283,0.00059,-6.53951,3.45757,-6.48353,-28.1433,5.60243,-4.75656,-3.70718,27.46416,-21.64237
2719,4.73965,0.0,0.0,-14.11324,0.0,-0.0,-9.05326,-3.89287,-3.58044,-5.82494,6.5589,-27.32627,-12.87437,-2.62638,0.00035,-83.10205,-15.09017,0.01399,9.91136,31.64696,10.1914,71.01015,-32.95467,10.63785,74.30109,21.24415,-53.89655,-31.46217,-15.14575,-94.2076,108.46111,0.00192,-111.38449,12.30134,-0.00096,68.82458,-6.29543,-13.92646,-0.00439,-26.03535,-16.42767,-0.01203,-7.06894,2.93713,-6.41777,-28.65685,5.09435,-4.88764,-3.53545,26.89411,-21.04523
2720,4.5072,0.0,-0.0,-14.0675,-0.0,0.0,-8.47855,-3.68943,-3.56956,-6.37261,5.38225,-26.35975,-12.72767,-2.42608,0.00017,-85.31225,-14.9939,0.00394,9.47558,30.38696,11.27472,69.81902,-32.36586,8.62495,71.00541,22.6115,-51.53967,-30.28376,-15.74913,-89.80192,109.65956,-0.02033,-111.32011,12.13076,0.00062,62.83183,-5.57455,-13.23064,-0.00551,-24.23948,-17.11622,-0.02856,-7.72928,2.2814,-6.36657,-29.29867,4.46577,-5.08191,-3.45744,26.34774,-20.38782
2721,4.89247,0.0,-0.0,-15.30842,0.0,-0.0,-7.96497,-3.8015,-2.70573,-7.6205,4.75378,-26.77927,-12.62961,-2.35236,-4e-05,-87.1264,-14.49731,-0.00383,8.98694,28.97792,12.0336,68.71444,-31.70623,7.05237,67.52936,23.73889,-48.81518,-29.11881,-16.46988,-84.79777,110.56918,-0.01736,-110.02199,12.0459,-0.00078,56.5496,-5.05358,-12.14171,-0.00143,-22.37908,-17.93036,-0.0233,-8.13297,1.40233,-6.29554,-29.6819,3.62212,-5.33955,-3.39503,25.66985,-19.57025
2722,5.58406,0.0,0.0,-17.54346,0.0,-0.0,-7.40989,-4.07728,-1.28194,-9.16062,4.93548,-28.23272,-12.64821,-2.43316,0.0001,-88.72882,-13.72697,-0.00323,8.68434,27.49018,12.5726,67.81158,-30.98626,5.8208,64.12689,24.61533,-46.05932,-27.88964,-17.15085,-79.29436,111.16931,-0.0043,-108.18077,12.01488,-0.0021,52.08772,-4.2963,-10.76423,0.01288,-21.43453,-18.30464,-0.00821,-8.15991,0.45834,-6.38849,-29.68614,2.77815,-5.77322,-3.28126,24.78412,-18.47801
2723,6.23641,0.0,0.0,-19.74697,0.0,-0.0,-6.78788,-4.33082,0.17696,-10.53045,5.57637,-29.81081,-12.78126,-2.58161,0.00022,-90.24722,-12.82599,-0.00185,8.74255,26.00421,13.08284,66.96714,-30.3189,4.65253,60.97864,25.31279,-43.58431,-26.55372,-17.66321,-73.5536,111.54178,0.00349,-106.06923,12.10695,0.00134,49.53913,-3.22245,-9.23819,0.01866,-21.44484,-18.13526,-0.00347,-7.88915,-0.29867,-6.69295,-29.39149,2.18553,-6.33461,-3.07074,23.74794,-17.20088
2724,6.90998,0.0,-0.0,-21.80258,0.0,0.0,-6.20626,-4.42401,1.35466,-11.54523,5.80669,-30.79453,-12.9462,-2.69792,3e-05,-91.65991,-11.74398,-0.00361,9.06312,24.50914,13.60308,65.86624,-29.89169,3.41651,58.04788,25.91314,-41.50076,-25.14657,-18.00644,-67.87248,111.80059,0.00461,-103.84276,12.42601,0.00919,47.60333,-2.36128,-8.0219,0.00702,-21.62792,-17.91536,-0.00316,-7.5018,-0.71626,-7.11617,-28.98065,1.95202,-6.88173,-2.78311,22.64489,-16.02403
2725,7.64235,-0.0,-0.0,-24.30474,0.0,0.0,-5.73894,-4.27041,2.16681,-12.31228,5.09449,-30.94787,-13.06621,-2.76163,-0.00013,-92.86786,-10.43856,-0.0044,9.38337,23.00661,14.03607,64.22917,-29.729,2.04823,55.11478,26.38796,-39.61863,-23.67485,-18.28623,-62.61954,112.04057,0.0021,-101.78846,13.00959,0.01016,45.84328,-2.12807,-7.70735,-0.00039,-21.53836,-17.99561,-0.00324,-7.18309,-0.81305,-7.55215,-28.64082,2.02149,-7.32312,-2.49383,21.5597,-15.15544
2726,8.25615,-0.0,-0.0,-27.50029,0.0,0.0,-5.3369,-3.94621,2.73446,-12.90762,3.84745,-30.52433,-13.15512,-2.81956,-1e-05,-93.77351,-8.97092,-0.00238,9.62474,21.62963,14.29727,62.07645,-29.53489,0.51566,52.01031,26.68305,-37.58372,-22.07409,-18.62101,-57.99018,112.31599,-0.00221,-99.9269,13.79744,-0.00188,44.89142,-2.30226,-8.28925,0.00161,-21.34928,-18.00985,-0.00227,-6.95988,-0.77504,-7.79918,-28.40632,2.1472,-7.53926,-2.22691,20.62875,-14.46406
2727,8.56298,0.0,0.0,-30.56029,0.0,-0.0,-4.91252,-3.68461,3.37757,-13.28734,3.00282,-30.12645,-13.2749,-2.92601,0.00028,-94.3192,-7.37326,-3e-05,9.98478,20.50659,14.36544,59.76786,-28.97962,-1.04383,48.77433,26.87138,-35.19643,-20.31538,-19.03975,-53.80436,112.63036,-0.00377,-98.1718,14.73721,-0.01103,44.95149,-2.32919,-9.03602,0.00259,-21.22573,-17.39332,-0.00168,-6.69564,-0.82903,-7.61891,-28.15001,2.03104,-7.39113,-1.89419,19.93493,-13.61492
2728,8.46288,-0.0,0.0,-32.24359,0.0,0.0,-4.43639,-3.62531,4.2685,-13.53113,2.96253,-30.23077,-13.42793,-3.07546,0.00035,-94.52086,-5.61726,0.00057,10.59154,19.53544,14.3684,57.61116,-28.13082,-2.41208,45.52583,27.08767,-32.58101,-18.50721,-19.44272,-49.71777,112.94256,0.00071,-97.00987,15.92139,-0.00373,45.33195,-2.00481,-9.27979,0.00311,-21.10434,-16.13734,-0.00207,-6.33712,-1.05165,-7.04184,-27.81544,1.61271,-6.93541,-1.44118,19.33112,-12.47156
2729,8.04185,-0.0,-0.0,-32.51114,0.0,-0.0,-3.95747,-3.66065,5.22078,-13.83511,3.15452,-30.71694,-13.54077,-3.2064,7e-05,-94.44431,-3.66585,0.00018,11.26988,18.44911,14.52184,55.5035,-27.40921,-3.52649,42.30143,27.35904,-30.02216,-16.80714,-19.68829,-45.64899,113.21065,0.00404,-96.79218,17.51429,0.01117,45.43777,-1.78244,-8.94051,-0.00073,-20.85851,-14.69148,-0.00071,-6.00744,-1.33618,-6.38924,-27.5113,1.10892,-6.43241,-0.9729,18.52734,-11.22221
2730,7.52904,0.0,-0.0,-32.00546,0.0,0.0,-3.54107,-3.59852,6.0866,-14.34238,2.93132,-31.05312,-13.5297,-3.29128,-0.00023,-94.11938,-1.53902,0.001,11.76046,17.11055,14.83072,53.10629,-27.08886,-4.52527,39.10034,27.58158,-27.69038,-15.23413,-19.7483,-41.8508,113.45664,-0.0013,-96.70004,19.48592,0.01761,45.42632,-2.17112,-8.34375,-0.00752,-20.27961,-13.42904,0.00489,-5.80945,-1.51781,-5.94942,-27.32992,0.77871,-6.08991,-0.63681,17.40505,-10.07951
2731,7.19304,-0.0,-0.0,-30.59244,0.0,0.0,-3.23324,-3.37425,7.00773,-15.15356,2.42111,-30.90161,-13.35067,-3.34623,-0.0003,-93.50303,0.58407,0.002,11.99209,15.63755,15.14859,50.29343,-26.94481,-5.58103,35.98396,27.65165,-25.58657,-13.62989,-19.73824,-38.52581,113.76136,-0.0107,-95.78423,21.54383,0.01651,45.76273,-3.06855,-7.8952,-0.00785,-19.10016,-12.50673,0.00936,-5.73124,-1.49484,-5.78795,-27.25805,0.74087,-5.93131,-0.46398,16.12721,-8.99706
2732,7.36478,-0.0,-0.0,-28.27704,0.0,-0.0,-3.09213,-3.0319,8.15059,-16.33049,2.14586,-30.32348,-13.02267,-3.36736,-0.0001,-92.54498,2.43557,0.00032,12.08242,14.22222,15.46567,47.31297,-26.51257,-6.66764,33.05464,27.59987,-23.69513,-11.81256,-19.77095,-35.56202,114.18529,-0.00967,-94.59609,23.41153,0.01056,46.7578,-4.04982,-7.84998,-0.00344,-17.24165,-12.02195,0.00381,-5.7745,-1.28445,-5.83957,-27.30049,0.95551,-5.90211,-0.37311,14.89777,-7.80284
2733,8.19964,0.0,0.0,-26.34322,0.0,0.0,-3.13649,-2.59576,9.49439,-17.74532,2.32194,-29.55742,-12.63637,-3.33132,0.0002,-91.25328,3.94421,-0.00047,12.18987,12.95108,15.83358,44.49102,-25.60185,-7.55515,30.36311,27.56075,-22.06406,-9.75842,-19.8296,-32.62739,114.73656,0.00541,-94.59488,25.08308,-0.01411,48.69356,-4.91911,-8.29627,0.00124,-15.00631,-12.04511,-0.0085,-6.01249,-1.00021,-6.07746,-27.53143,1.30719,-6.01912,-0.27628,13.76887,-6.48671
2734,9.26092,0.0,0.0,-26.26583,-0.0,-0.0,-3.22207,-2.08229,10.84793,-19.084,2.82151,-28.9067,-12.336,-3.22634,0.0002,-89.67814,5.30557,0.00404,12.42944,11.85796,16.22038,41.91061,-24.36871,-8.12231,27.88278,27.60876,-20.72286,-7.67223,-19.79291,-29.46806,115.39053,0.01555,-96.08834,26.83427,-0.05166,51.64312,-5.70034,-9.27742,0.00605,-12.96754,-12.50709,-0.01288,-6.46048,-0.77378,-6.53813,-27.96326,1.68675,-6.36473,-0.11728,12.72363,-5.18189
2735,9.73181,-0.0,-0.0,-27.87218,0.0,-0.0,-3.08446,-1.61038,12.02926,-20.19469,3.53118,-28.68856,-12.23691,-3.08485,-0.00014,-87.87922,6.64615,0.00748,12.86907,10.98807,16.52599,39.46155,-23.03409,-8.58894,25.55952,27.6879,-19.59908,-5.87518,-19.5627,-26.17534,116.08141,0.00822,-97.89345,29.07139,-0.04179,54.71816,-6.42125,-10.67426,0.00818,-11.58039,-13.15426,-0.0055,-6.97973,-0.69882,-7.15124,-28.45724,1.98109,-6.90799,0.17108,11.76155,-3.96471
2736,9.32859,-0.0,0.0,-29.13415,-0.0,0.0,-2.63643,-1.30398,13.0836,-21.25081,4.41284,-28.92184,-12.30867,-2.99607,-0.00029,-85.90734,7.82138,0.00387,13.51702,10.30763,16.59698,37.03643,-21.74197,-9.33087,23.31773,27.69279,-18.51642,-4.53927,-19.18604,-23.02974,116.73331,-0.00288,-99.04677,32.03633,0.05285,56.39557,-7.05423,-12.03171,0.00435,-10.8834,-13.70755,0.00239,-7.36104,-0.80746,-7.65468,-28.81399,2.0642,-7.41655,0.66286,10.85747,-2.82602
2737,8.67523,0.0,0.0,-28.36308,-0.0,-0.0,-2.14881,-1.06434,14.16509,-22.27456,5.27091,-29.16767,-12.39507,-3.02152,-0.00024,-83.80399,8.67511,-0.00062,14.32199,9.65217,16.37223,34.60146,-20.59957,-10.46882,21.02442,27.54552,-17.23395,-3.52392,-18.85716,-20.02697,117.33681,-0.00396,-99.71376,35.55871,0.13238,56.38396,-7.57309,-12.74866,-0.00255,-10.63546,-14.06963,0.00417,-7.44545,-1.03282,-7.79175,-28.88892,1.90456,-7.62664,1.36078,9.9541,-1.76657
2738,8.55578,-0.0,0.0,-26.30696,0.0,0.0,-1.98429,-0.69431,15.22365,-22.68738,5.83625,-28.98129,-12.37701,-3.10476,-0.00011,-81.63817,9.2507,0.00053,15.17781,8.8587,16.07108,32.17066,-19.67334,-11.75554,18.59184,27.19617,-15.5827,-2.52307,-18.77577,-16.83044,117.93815,0.00137,-100.395,39.18561,0.0898,56.37712,-8.01957,-12.57333,-0.00647,-10.64526,-14.28118,0.00213,-7.19698,-1.22207,-7.55802,-28.64964,1.64296,-7.47826,2.13155,9.02538,-0.79353
2739,9.09232,0.0,-0.0,-24.9417,0.0,-0.0,-2.21355,-0.18492,16.12185,-21.82975,6.04393,-28.39025,-12.23869,-3.14695,0.00016,-79.48417,9.63739,0.00375,15.95705,7.91619,15.96768,29.78089,-18.91914,-12.89388,16.17978,26.61968,-13.67834,-1.34253,-18.97062,-13.27989,118.55049,0.00309,-101.10223,42.63071,-0.01958,58.26078,-8.44091,-11.92382,-0.00442,-10.86249,-14.32274,-0.001,-6.78326,-1.27262,-7.22685,-28.25101,1.47479,-7.18852,2.78535,8.09761,0.1478
2740,9.79872,0.0,-0.0,-24.56692,-0.0,-0.0,-2.60518,0.32255,16.97518,-19.87965,5.97432,-27.76305,-11.99152,-3.14596,0.00025,-77.30412,9.789,0.00116,16.6102,6.93001,15.99491,27.47197,-18.19525,-13.86319,14.13796,25.85828,-11.9051,-0.00831,-19.25508,-9.676,119.11671,-0.00132,-101.43958,45.99972,-0.08823,62.25185,-8.76389,-11.46576,0.00031,-11.2205,-14.14899,-0.003,-6.51727,-1.24629,-7.09861,-27.99114,1.45236,-7.05953,3.26141,7.18775,1.14191
2741,10.29142,-0.0,0.0,-23.80194,-0.0,0.0,-2.92844,0.6914,18.0253,-17.69939,5.70529,-27.42892,-11.64088,-3.16888,-9e-05,-74.92397,9.59398,-0.00755,17.17467,5.99199,15.88109,25.22936,-17.36706,-14.85845,12.6513,25.03775,-10.57381,1.3727,-19.38559,-6.43432,119.57455,-0.00501,-101.27645,49.53663,-0.07488,67.11198,-8.84816,-11.42325,0.00199,-11.52015,-13.87535,-0.00155,-6.57629,-1.27847,-7.17384,-28.04643,1.44994,-7.14132,3.64711,6.26942,2.18764
2742,10.57538,-0.0,0.0,-21.91189,0.0,0.0,-3.11572,0.90828,19.36706,-15.88319,5.37692,-27.53449,-11.22694,-3.24605,-0.00058,-72.20953,9.11036,-0.01082,17.68792,5.13537,15.55627,23.01289,-16.40833,-15.91403,11.56423,24.29379,-9.65374,2.79799,-19.28441,-3.62114,119.93967,-0.00274,-101.20297,53.32784,-0.00963,71.51431,-8.72877,-11.58419,0.00092,-11.63222,-13.69157,0.00189,-6.84024,-1.4077,-7.14632,-28.3105,1.31961,-7.16302,4.01968,5.32156,3.18276
2743,10.70899,0.0,0.0,-19.5027,0.0,0.0,-3.19448,1.15411,20.9778,-14.39528,5.16903,-28.03196,-10.82041,-3.33988,-0.00066,-69.21696,8.58465,-0.00412,18.1597,4.36502,15.24758,20.86075,-15.41432,-16.79335,10.60478,23.67717,-8.87428,4.32913,-19.09827,-0.98768,120.28794,0.00316,-101.9664,57.33356,0.03256,75.00942,-8.66072,-11.68727,-0.00019,-11.75017,-13.59124,0.00363,-7.07563,-1.56624,-6.78988,-28.56078,1.04162,-6.88943,4.3741,4.37616,4.075
2744,10.71032,0.0,-0.0,-17.40426,0.0,0.0,-3.22327,1.54524,22.72408,-12.93038,5.15462,-28.67041,-10.47677,-3.34334,-6e-05,-66.08739,8.14689,-0.00136,18.60485,3.69511,15.2666,18.83883,-14.47406,-17.37521,9.67275,23.13099,-8.03657,5.93397,-19.02336,1.61803,120.67307,0.00679,-103.52821,61.53942,0.0091,78.01981,-8.81937,-11.63411,-0.00032,-12.1788,-13.35638,-9e-05,-7.19744,-1.67803,-6.27153,-28.70415,0.74774,-6.44824,4.6813,3.51748,4.95812
2745,10.57121,0.0,0.0,-15.84945,0.0,-0.0,-3.24325,1.83149,24.38404,-11.35954,5.26752,-29.15431,-10.22078,-3.16468,0.0006,-62.84853,7.73304,-0.00651,19.07601,3.16455,15.62743,16.93894,-13.55032,-17.81254,8.85235,22.55589,-7.18482,7.50746,-19.10694,4.08987,121.10046,0.00544,-105.16856,65.93233,-0.03415,81.00627,-9.17116,-11.54685,0.0007,-13.01834,-12.81848,-0.00926,-7.29665,-1.7148,-5.96184,-28.81576,0.60001,-6.17372,4.95111,2.83137,5.94331
2746,10.03568,-0.0,0.0,-14.60888,-0.0,0.0,-3.25504,1.65185,25.85156,-9.88807,5.38352,-29.35181,-10.03029,-2.88233,0.00069,-59.41097,7.37152,-0.00481,19.6314,2.79598,15.95956,15.1161,-12.57704,-18.18279,8.21763,21.88257,-6.46194,9.02043,-19.23935,6.32322,121.55002,0.00062,-106.23593,70.37616,-0.03258,83.79298,-9.70495,-11.5095,-0.00068,-14.28348,-12.10331,-0.01429,-7.4684,-1.71259,-5.97181,-28.98711,0.60572,-6.18218,5.22558,2.31958,6.9849
2747,8.79603,-0.0,0.0,-13.45872,0.0,0.0,-3.26435,0.96864,27.15888,-8.8121,5.48012,-29.27012,-9.82894,-2.71126,0.0001,-55.71378,7.20679,0.00699,20.24385,2.55095,15.99232,13.3345,-11.60143,-18.37401,7.75318,21.09911,-5.89466,10.57305,-19.27629,8.42748,121.99528,-0.00426,-106.43456,74.59681,0.00207,85.94608,-10.44888,-11.32387,-0.00743,-15.99786,-11.66567,-0.00172,-7.68775,-1.75929,-6.03162,-29.2039,0.58421,-6.25493,5.50928,1.87457,7.9032
2748,7.12909,-0.0,-0.0,-12.42567,0.0,0.0,-3.29118,0.03898,28.3676,-8.13682,5.71822,-28.94051,-9.5463,-2.7865,-0.00097,-51.80838,7.23788,0.01609,20.8114,2.37703,15.87274,11.57464,-10.70761,-18.33031,7.47908,20.26681,-5.40818,12.30599,-19.12851,10.58387,122.43331,-0.00431,-105.98787,78.34709,0.02095,87.4188,-11.1454,-10.91904,-0.01316,-17.86953,-11.91765,0.01841,-7.86891,-1.92174,-5.81981,-29.393,0.35542,-6.11757,5.75516,1.37776,8.57837
2749,5.81229,-0.0,0.0,-11.52195,0.0,0.0,-3.34726,-0.822,29.59786,-7.52824,6.20776,-28.41099,-9.1866,-3.04427,-0.00147,-47.85206,7.28859,0.01498,21.28934,2.24808,15.9003,9.88395,-9.90697,-18.1335,7.50001,19.51011,-4.96311,14.28502,-18.77744,12.80226,122.88454,0.00119,-105.66546,81.62968,0.01391,88.45627,-11.39414,-10.72204,-0.01381,-19.12444,-12.60772,0.02074,-8.00227,-2.17452,-5.25241,-29.54764,-0.08785,-5.68291,5.94889,0.79717,9.06693
2750,5.16761,0.0,-0.0,-10.25873,0.0,0.0,-3.38735,-1.40352,30.96189,-6.57409,6.81808,-27.81134,-8.84346,-3.28258,-0.00073,-44.05364,7.14357,0.00543,21.72964,2.12566,16.25841,8.36251,-9.18232,-17.94881,7.848,18.93299,-4.58356,16.46314,-18.24458,14.9487,123.31912,0.00478,-106.00648,84.6937,0.00365,89.20306,-11.32238,-11.1034,-0.00917,-19.00814,-12.9699,0.01806,-8.17562,-2.42742,-4.44526,-29.74935,-0.61943,-5.02575,6.12985,0.17025,9.50691
2751,4.77899,0.0,-0.0,-8.03684,0.0,0.0,-3.29775,-1.76757,32.44625,-4.96987,7.36732,-27.4371,-8.65491,-3.32546,-5e-05,-40.55774,6.65265,-0.00438,22.20089,1.99243,16.9072,7.05433,-8.50415,-17.94062,8.38392,18.52285,-4.27114,18.72141,-17.5452,16.99948,123.64996,0.00247,-106.83275,87.72606,0.00892,89.61505,-11.49242,-11.82961,0.00041,-17.60138,-12.76198,0.01914,-8.43215,-2.61213,-3.54719,-30.03372,-1.12128,-4.25936,6.31153,-0.43802,9.95253
2752,4.34297,0.0,0.0,-5.16684,0.0,0.0,-3.08999,-2.16215,33.95107,-2.67236,7.74226,-27.61092,-8.68564,-3.17498,-0.00026,-37.33621,5.828,-0.00813,22.74284,1.93801,17.53957,5.90971,-7.77043,-18.1442,8.92101,18.16611,-3.95455,20.94777,-16.6953,19.08474,123.87745,-0.00015,-107.7968,90.63622,0.02169,89.67884,-12.04882,-12.39822,0.00461,-15.96935,-12.45189,0.01022,-8.65826,-2.7383,-2.658,-30.28305,-1.56575,-3.47985,6.45536,-0.92581,10.34756
2753,4.04726,0.0,-0.0,-2.68152,0.0,-0.0,-2.98737,-2.68503,35.3142,-0.07254,7.83035,-28.29303,-8.85099,-2.98457,-0.00037,-34.22307,4.7958,-0.00977,23.36518,2.09839,17.87058,4.86031,-6.85296,-18.49867,9.37274,17.75767,-3.57501,23.10561,-15.77056,21.20095,124.16319,-0.00024,-108.62967,93.21347,0.02077,89.69568,-12.65881,-12.51539,0.00358,-15.19162,-12.21734,-0.00053,-8.69009,-2.89818,-1.80816,-30.33376,-2.02731,-2.74941,6.52093,-1.18471,10.64628
2754,3.99284,0.0,-0.0,-1.15843,0.0,-0.0,-3.13334,-3.19372,36.38031,2.23497,7.60782,-29.07864,-9.01575,-2.88951,-0.00012,-31.09286,3.67022,-0.01162,24.06005,2.49648,17.93952,3.89874,-5.73342,-18.92777,9.75777,17.28361,-3.19438,25.22124,-14.87313,23.09903,124.67112,-0.00059,-109.04672,95.38296,0.00311,90.22058,-13.14977,-12.22576,0.00406,-15.42551,-11.63068,-0.01003,-8.49157,-3.20313,-0.95909,-30.153,-2.62359,-2.07333,6.50983,-1.20288,10.86939
2755,4.035,0.0,0.0,-0.51546,-0.0,-0.0,-3.42172,-3.52595,37.21599,4.0359,7.19946,-29.74636,-9.1358,-2.91531,4e-05,-27.99772,2.57037,-0.00798,24.82043,3.00929,17.90872,3.07468,-4.53929,-19.26037,10.13944,16.83687,-2.95484,27.2922,-13.9968,24.58313,125.36835,-0.00124,-108.94563,97.25127,-0.0167,91.61899,-13.64179,-11.76355,0.00227,-16.0982,-10.41908,-0.01316,-8.16173,-3.66638,-0.05981,-29.84223,-3.38559,-1.40927,6.46857,-1.10284,11.01161
2756,4.17826,0.0,-0.0,-0.59565,0.0,-0.0,-3.68819,-3.69664,38.10405,5.64225,6.77331,-30.4823,-9.26352,-3.01761,7e-05,-25.11337,1.64113,0.00138,25.63685,3.493,17.79466,2.43011,-3.44969,-19.26388,10.59607,16.5519,-2.92143,29.24395,-13.01814,25.73925,126.02266,0.00075,-108.23852,98.96647,-0.02316,93.69206,-14.28137,-11.04629,-0.01109,-16.60947,-8.94134,-0.00443,-7.82825,-4.16384,0.8747,-29.52737,-4.1924,-0.72531,6.4567,-1.03833,11.02133
2757,4.43161,0.0,0.0,-1.23657,-0.0,-0.0,-3.89122,-3.78737,39.15025,7.38257,6.43953,-31.36122,-9.47028,-3.13957,1e-05,-22.57858,0.92811,0.0067,26.48412,3.90153,17.64594,1.97255,-2.59237,-18.95498,11.20909,16.4731,-2.97631,31.00052,-11.85232,26.78004,126.41011,0.00708,-106.64921,100.57122,-0.01382,95.82961,-15.02025,-9.54413,-0.0267,-16.7203,-7.85895,0.00374,-7.57414,-4.56125,1.7724,-29.28714,-4.89268,-0.0385,6.50662,-1.07684,10.91877
2758,4.46865,0.0,0.0,-2.05472,0.0,-0.0,-4.06595,-3.78347,40.12438,9.16873,6.19211,-31.99181,-9.79069,-3.24442,-0.00015,-20.41103,0.31856,0.00329,27.31406,4.30046,17.69514,1.6894,-1.98219,-18.68137,12.0277,16.50588,-2.87772,32.57715,-10.52468,27.80664,126.56683,0.01057,-104.34258,101.99612,-0.00087,97.5734,-15.43263,-7.19186,-0.01569,-16.55791,-7.52223,0.00278,-7.38382,-4.86372,2.61393,-29.10537,-5.48402,0.63148,6.5886,-1.17899,10.8109
2759,4.1031,0.0,-0.0,-2.60559,0.0,0.0,-4.18318,-3.76533,40.89118,10.66019,5.9505,-32.01762,-10.1975,-3.33773,-0.00028,-18.54599,-0.28254,-0.00178,28.05555,4.81224,18.05495,1.53819,-1.51518,-18.67232,13.0168,16.53016,-2.46222,34.0887,-9.10638,28.80098,126.80199,0.00458,-102.20255,103.1918,0.00825,98.81167,-14.95978,-4.98453,0.00519,-16.32195,-7.69109,-0.00176,-7.13692,-5.18822,3.46903,-28.8653,-6.10077,1.30613,6.60615,-1.2349,10.77101
2760,3.87508,0.0,0.0,-2.73547,0.0,0.0,-4.27119,-3.91289,41.60564,11.66928,5.65645,-31.60147,-10.62389,-3.45581,-0.0002,-16.91289,-0.79625,-0.00169,28.66763,5.54048,18.50895,1.45806,-1.04583,-18.76545,14.06155,16.51831,-1.83822,35.65528,-7.69299,29.74654,127.3716,-0.00262,-100.84341,104.23964,0.01594,99.54266,-13.68106,-4.02473,-0.0014,-16.05053,-7.76342,-0.00445,-6.73201,-5.59888,4.34948,-28.46824,-6.8068,1.97255,6.47696,-1.11855,10.78917
2761,4.59336,-0.0,0.0,-2.71577,0.0,-0.0,-4.6319,-4.10989,42.31988,12.29582,5.3286,-31.10852,-11.02782,-3.63522,0.00021,-15.47789,-1.08162,0.00172,29.20568,6.51694,18.77227,1.43112,-0.49112,-18.7126,15.06883,16.52774,-1.33577,37.28252,-6.41799,30.64459,128.18719,-0.00333,-100.17287,105.30423,0.02021,99.90244,-12.5113,-4.39415,-0.00829,-15.7058,-7.21701,-0.00351,-6.20749,-6.01891,5.12077,-27.95195,-7.48118,2.53407,6.23657,-0.77286,10.84054
2762,6.38904,-0.0,-0.0,-2.96541,0.0,0.0,-5.51679,-4.0554,42.79697,12.76461,5.03964,-30.60207,-11.42301,-3.88299,0.00081,-14.24972,-1.12569,0.0033,29.74093,7.6928,18.82387,1.47648,0.11649,-18.4867,16.0555,16.64321,-1.16865,38.82211,-5.36985,31.45361,128.91568,0.00054,-100.12325,106.48719,0.00965,100.43643,-12.2394,-5.26391,0.00091,-15.24804,-5.94163,0.00223,-5.66846,-6.30827,5.70726,-27.41698,-7.96598,2.97244,5.98827,-0.27253,10.93102
2763,8.55132,-0.0,-0.0,-3.56348,0.0,-0.0,-6.65849,-3.80053,42.80225,13.21936,4.84465,-29.88472,-11.85401,-4.13967,0.00092,-13.26099,-1.03827,0.00199,30.23318,8.95567,18.87947,1.57464,0.65888,-18.23326,17.1088,16.9186,-1.20057,40.07056,-4.49434,32.11174,129.29974,0.00084,-100.74403,107.73815,-0.01686,102.01193,-12.73475,-5.75373,0.00364,-14.58396,-4.24878,0.01134,-5.14748,-6.39443,6.27267,-26.88871,-8.2542,3.46742,5.75492,0.23826,11.04125
2764,10.03169,0.0,-0.0,-4.16192,0.0,-0.0,-7.47979,-3.69597,42.3454,13.68113,4.74525,-28.87395,-12.36719,-4.30199,1e-05,-12.52951,-0.90842,0.00015,30.60071,10.16798,19.07862,1.67088,1.02495,-18.07205,18.2737,17.31471,-1.15282,40.97125,-3.67313,32.61731,129.34781,-0.00209,-101.64336,108.87612,-0.03218,105.01978,-13.40703,-5.60895,-8e-05,-13.76556,-2.54814,0.01364,-4.644,-6.32585,6.9646,-26.3644,-8.4451,4.13874,5.4811,0.67138,11.11312
2765,9.86091,0.0,-0.0,-4.40257,-0.0,-0.0,-7.6583,-3.85936,41.57629,14.10752,4.68645,-27.64521,-12.99615,-4.31309,-0.00151,-12.01504,-0.75031,-0.00063,30.8588,11.22087,19.38577,1.73643,1.18442,-18.06055,19.49606,17.72717,-0.93224,41.71874,-2.89346,33.0397,129.28517,-0.00362,-102.18986,109.71306,-0.01803,108.5165,-13.92274,-5.21668,-0.00067,-13.20455,-1.02361,0.00355,-4.22529,-6.22327,7.61721,-25.92107,-8.58974,4.78651,5.15611,1.01404,11.13169
2766,7.92175,0.0,0.0,-4.32955,0.0,-0.0,-7.38051,-4.08414,40.6104,14.43373,4.54358,-26.23705,-13.73099,-4.22427,-0.00206,-11.61845,-0.54736,-0.00035,31.10712,12.10666,19.6994,1.79291,1.21033,-18.2382,20.6795,18.0989,-0.62875,42.57809,-2.24842,33.47457,129.34785,-0.00377,-102.29959,110.24532,0.00311,110.8298,-14.11482,-5.07112,-5e-05,-13.29661,0.37757,-0.0091,-3.95992,-6.18777,7.99398,-25.64153,-8.69518,5.15183,4.84361,1.29014,11.12632
2767,5.54348,0.0,0.0,-4.34548,0.0,0.0,-7.14759,-4.24455,39.54689,14.64134,4.18552,-24.73798,-14.50015,-4.17773,-0.00058,-11.25757,-0.27202,0.00043,31.43125,12.95838,19.84427,1.91081,1.24379,-18.5025,21.77212,18.44926,-0.34475,43.59088,-1.8003,34.01846,129.59758,-0.00075,-102.57741,110.72684,0.0129,111.29985,-13.78121,-5.31439,-0.0015,-13.95727,1.72687,-0.01302,-3.82651,-6.25856,8.17674,-25.50595,-8.82808,5.29619,4.60998,1.56448,11.10842
2768,4.25265,0.0,-0.0,-4.66491,0.0,-0.0,-7.30544,-4.44656,38.43188,14.78327,3.66493,-23.35917,-15.22003,-4.28361,0.0013,-10.94107,0.08443,0.00073,31.81938,13.92656,19.69129,2.15334,1.37169,-18.62727,22.75175,18.80063,-0.16087,44.54572,-1.51876,34.71297,129.93718,0.00483,-103.5714,111.44896,0.0146,110.65823,-12.99678,-5.76998,-0.00065,-14.78942,2.95723,-0.00752,-3.77238,-6.4581,8.4558,-25.45367,-9.11596,5.48248,4.46022,1.8956,11.07563
2769,4.15341,0.0,0.0,-5.05381,-0.0,-0.0,-7.79791,-4.79137,37.16513,14.9055,3.27163,-22.23303,-15.84929,-4.49836,0.00152,-10.73611,0.45019,0.0002,32.1689,15.00072,19.35292,2.50418,1.55648,-18.53815,23.57846,19.14212,-0.15422,45.25177,-1.32871,35.46633,130.26422,0.00852,-105.08787,112.41067,0.00925,109.89062,-12.33133,-6.19628,0.00341,-15.46555,3.92695,0.00014,-3.75873,-6.81151,8.96027,-25.443,-9.62951,5.82207,4.34148,2.25537,11.02756
2770,4.26183,0.0,0.0,-5.295,0.0,-0.0,-8.35908,-5.2348,35.64708,14.99284,3.24795,-21.33746,-16.37781,-4.68199,0.00038,-10.66806,0.69737,-0.0003,32.39091,16.06375,19.078,2.89077,1.7518,-18.36474,24.25039,19.44775,-0.36533,45.74735,-1.18648,36.10971,130.53554,0.00766,-106.11011,113.30157,8e-05,109.61778,-12.54244,-6.31212,-0.00218,-15.84584,4.56465,0.0037,-3.70421,-7.26068,9.57814,-25.39331,-10.27348,6.23207,4.19706,2.57957,10.96711
2771,3.76159,0.0,-0.0,-5.4502,0.0,0.0,-8.75305,-5.71958,33.97433,14.96954,3.49532,-20.61476,-16.7996,-4.74506,-0.00061,-10.67177,0.76878,-0.00031,32.46151,17.07859,19.0355,3.23434,2.0091,-18.23263,24.84267,19.69486,-0.75361,46.21236,-1.09152,36.56284,130.74002,0.00155,-105.27374,113.84762,-0.00344,109.95798,-13.95321,-5.85528,-0.0215,-15.93608,4.83009,0.00227,-3.5074,-7.60571,10.16048,-25.19573,-10.80749,6.64816,3.99338,2.87542,10.89968
2772,2.6388,-0.0,0.0,-5.54412,-0.0,0.0,-8.91429,-6.29712,32.42983,14.74061,3.6934,-20.02784,-17.09699,-4.69759,-0.00067,-10.64001,0.74321,-0.00015,32.38136,18.08146,19.2092,3.46418,2.38466,-18.14609,25.39683,19.88774,-1.13686,46.75412,-1.0335,36.8912,130.93367,-0.01107,-102.02259,114.05032,-0.0015,110.34566,-15.99978,-4.9973,-0.02497,-15.82104,4.61971,-0.00136,-3.16425,-7.63643,10.67261,-24.83171,-11.02354,7.117,3.72195,3.20025,10.80059
2773,1.46879,-0.0,0.0,-5.4095,-0.0,-0.0,-9.01434,-6.9912,31.22035,14.27619,3.70162,-19.51601,-17.22944,-4.59119,-6e-05,-10.49741,0.73468,3e-05,32.14534,19.03857,19.48029,3.54048,2.81425,-18.04607,25.82593,20.05785,-1.21505,47.32275,-0.99629,37.21094,131.28461,-0.01884,-97.75788,114.06863,-3e-05,110.26966,-17.57203,-4.52992,-0.00762,-15.66372,3.95448,-0.00263,-2.80979,-7.35739,11.13905,-24.43475,-10.93477,7.6597,3.41185,3.55926,10.62506
2774,0.5866,0.0,0.0,-4.97964,-0.0,0.0,-9.29478,-7.6243,30.23626,13.68204,3.69192,-19.01227,-17.16961,-4.46665,0.00046,-10.22466,0.7706,0.00014,31.76784,19.83511,19.78384,3.47651,3.16256,-17.891,25.99842,20.22047,-0.81318,47.77958,-1.00138,37.58238,131.9507,0.00771,-95.29736,114.02116,0.00106,110.3445,-17.98944,-5.30761,-0.00927,-15.70516,3.19519,-0.00049,-2.62902,-7.01479,11.53252,-24.20949,-10.75996,8.15769,3.1295,3.88115,10.37096
2775,-0.28834,0.0,-0.0,-4.56826,-0.0,-0.0,-9.86602,-7.92802,29.30381,13.17404,3.83485,-18.54784,-16.9527,-4.37864,0.00025,-9.85318,0.81729,0.00018,31.32843,20.40716,20.01492,3.34495,3.3615,-17.64373,25.87697,20.35187,-0.09381,47.98736,-1.05586,38.00071,132.86562,0.04787,-96.20539,113.95511,0.00247,111.75984,-17.48988,-7.30231,-0.02275,-16.11218,2.75242,0.0012,-2.70413,-6.85207,11.81605,-24.25785,-10.71209,8.48498,2.95084,4.09512,10.07793
2776,-1.40853,-0.0,-0.0,-4.58814,0.0,-0.0,-10.72043,-7.86754,28.51397,12.89792,4.04967,-18.19323,-16.64239,-4.38232,-0.0005,-9.4598,0.85424,0.00022,30.90481,20.81704,20.03128,3.24151,3.43754,-17.2628,25.53574,20.42775,0.60954,47.89844,-1.08194,38.46334,133.72359,0.04202,-98.78163,113.90242,0.00189,114.6358,-16.76084,-9.25789,-0.01336,-16.81045,2.67416,0.00165,-2.95117,-6.88355,12.05875,-24.49348,-10.82987,8.70135,2.89053,4.19556,9.79749
2777,-2.44451,0.0,-0.0,-5.03997,0.0,-0.0,-11.79302,-7.76204,27.99529,12.7798,4.18977,-17.87341,-16.25556,-4.44258,-0.00078,-9.14268,0.85951,0.0002,30.45315,21.17249,19.97375,3.23482,3.4283,-16.77351,25.07274,20.48063,1.15406,47.64571,-0.9884,39.00261,134.25749,0.00762,-99.87791,113.88969,-0.00056,117.75476,-16.2985,-9.77699,0.0026,-17.59215,2.8502,-0.00045,-3.22345,-6.94484,12.37704,-24.75172,-11.00287,8.97777,2.85985,4.21266,9.59372
2778,-2.88597,0.0,-0.0,-5.54385,0.0,-0.0,-12.96953,-7.92239,27.60281,12.6256,4.30519,-17.39211,-15.76935,-4.44768,-4e-05,-8.95966,0.78619,4e-05,29.903,21.50707,20.21172,3.38029,3.33995,-16.31376,24.54351,20.59533,1.68615,47.48434,-0.79415,39.63259,134.51131,-0.01138,-98.47393,113.90704,-0.00199,119.88702,-16.23648,-8.72822,0.00272,-18.41895,3.32332,-0.00691,-3.43328,-6.92319,12.76608,-24.93672,-11.12436,9.35194,2.77456,4.1562,9.49819
2779,-2.73976,-0.0,-0.0,-5.71022,0.0,0.0,-14.1197,-8.29069,27.07019,12.29639,4.53877,-16.65466,-15.21491,-4.32436,0.001,-8.83543,0.62181,-0.00037,29.33655,21.74979,20.86194,3.67725,3.17995,-16.05896,23.99489,20.78909,2.3661,47.54016,-0.62732,40.27594,134.75005,-0.01124,-96.29833,113.93607,-0.00166,120.60004,-16.44927,-7.16958,-0.00186,-19.37424,3.99311,-0.0105,-3.58072,-6.87337,13.07117,-25.06162,-11.18899,9.6578,2.68019,4.01663,9.45303
2780,-2.56956,0.0,-0.0,-5.46484,0.0,0.0,-15.10054,-8.64323,26.39212,11.78592,4.82155,-15.85997,-14.7189,-4.10164,0.00107,-8.55165,0.45299,-0.00045,28.92555,21.79249,21.56549,3.94298,2.97981,-16.02495,23.54139,20.91577,3.06129,47.65065,-0.63019,40.77929,135.14508,0.00471,-95.62168,114.02715,0.00097,120.03425,-16.67436,-6.26755,-0.00209,-20.27439,4.40226,-0.00528,-3.74123,-6.90682,13.07422,-25.22436,-11.22122,9.64818,2.68484,3.80337,9.36036
2781,-2.89512,0.0,0.0,-5.28752,0.0,0.0,-15.75181,-8.93657,25.95586,11.25794,4.87542,-15.42076,-14.3917,-3.91029,0.00022,-7.94981,0.41339,0.00091,28.73085,21.60597,21.73586,3.92814,2.77819,-15.96385,23.32315,20.81282,3.45608,47.55561,-0.86901,41.04814,135.63719,0.01791,-97.0187,114.27087,0.00415,118.73854,-16.68483,-6.52061,-0.00424,-20.71609,4.27537,0.00017,-3.98129,-7.04732,12.63167,-25.50184,-11.19093,9.17905,2.81212,3.55781,9.18839
2782,-3.67108,0.0,-0.0,-5.80562,-0.0,0.0,-16.00073,-9.23264,26.11952,10.92485,4.60018,-15.51818,-14.20598,-3.89187,-0.00051,-7.14052,0.54002,0.00216,28.64059,21.30398,21.1368,3.62719,2.59539,-15.60877,23.35431,20.53501,3.47258,47.20768,-1.27107,41.15319,136.08249,0.00967,-98.69287,114.67705,0.00349,117.45934,-16.49447,-7.52191,-0.0065,-20.57622,3.96964,0.00406,-4.23886,-7.22226,11.86728,-25.81594,-11.07506,8.39458,2.98431,3.32601,8.99164
2783,-4.45128,0.0,-0.0,-6.94592,0.0,0.0,-15.93867,-9.46866,26.71601,10.80841,4.27835,-15.83327,-14.05598,-4.05388,-0.00074,-6.39036,0.72665,0.00133,28.4929,21.05973,20.20196,3.2773,2.43308,-15.00849,23.50998,20.31139,3.37011,46.76873,-1.6634,41.2556,136.41292,-0.00636,-98.35835,115.1661,-0.00055,116.62797,-16.39112,-8.39907,-0.00418,-20.13157,4.03476,0.01012,-4.4017,-7.33242,11.15683,-26.024,-10.91805,7.68576,3.1173,3.13188,8.82462
2784,-4.95535,0.0,0.0,-7.9401,-0.0,0.0,-15.76575,-9.47515,27.2164,10.7346,4.25119,-15.90304,-13.89502,-4.25834,-0.00048,-5.83862,0.84835,-0.00018,28.23273,20.94058,19.5755,3.05357,2.28907,-14.47675,23.67694,20.2715,3.40798,46.367,-1.94103,41.43795,136.62132,-0.01068,-95.99935,115.67854,-0.00564,116.36891,-16.61344,-8.70993,-0.00121,-19.72458,4.6297,0.01264,-4.49564,-7.31544,10.78765,-26.13487,-10.76729,7.34557,3.19229,2.97419,8.69076
2785,-5.14852,0.0,0.0,-8.14284,0.0,0.0,-15.69694,-9.20282,27.24362,10.52903,4.52284,-15.57184,-13.74641,-4.35408,3e-05,-5.43367,0.88248,-0.00069,27.92104,20.85876,19.49995,2.93796,2.14308,-14.24426,23.84022,20.33551,3.61032,46.03027,-2.1622,41.65881,136.69366,-0.00599,-93.81053,116.19877,-0.00825,116.6495,-16.99552,-8.72428,0.00256,-19.59382,5.47995,0.00773,-4.61587,-7.19179,10.70789,-26.2503,-10.62318,7.31711,3.23281,2.8286,8.59511
2786,-4.94662,-0.0,-0.0,-7.54265,0.0,-0.0,-15.86296,-8.85691,26.78905,10.14517,4.82082,-14.99203,-13.6239,-4.31063,0.00029,-5.09158,0.88779,-0.00035,27.63403,20.71329,19.74537,2.86884,1.9633,-14.26407,24.0242,20.38021,3.89802,45.79394,-2.39773,41.86015,136.66531,-0.00253,-93.43545,116.68597,-0.00466,116.98546,-17.12899,-8.88499,0.00484,-19.79232,6.11305,0.00194,-4.71885,-7.05075,10.67782,-26.34504,-10.48107,7.34179,3.25947,2.66569,8.56363
2787,-4.30861,-0.0,0.0,-6.63385,-0.0,-0.0,-16.24673,-8.66868,26.06867,9.65693,4.94968,-14.33551,-13.52153,-4.24147,0.00016,-4.80282,0.90483,0.0,27.41263,20.54291,19.9513,2.87233,1.76701,-14.34989,24.19814,20.37808,4.28136,45.68279,-2.56051,42.0382,136.6889,0.00025,-94.38602,117.09391,0.00172,116.71918,-16.74133,-9.43981,-0.00239,-20.05829,6.18721,-0.00075,-4.69931,-6.97345,10.576,-26.32511,-10.37197,7.27524,3.30933,2.49744,8.59346
2788,-3.50519,-0.0,0.0,-6.02347,0.0,0.0,-16.70959,-8.62818,25.35725,9.20738,4.95362,-13.69003,-13.4519,-4.28659,-7e-05,-4.58942,0.91627,4e-05,27.27679,20.46625,19.92183,3.00352,1.62261,-14.36212,24.28738,20.34484,4.80428,45.61567,-2.52589,42.19313,136.90656,0.0012,-95.23525,117.45076,0.00581,115.70991,-15.76239,-10.47146,-0.01723,-20.10825,5.7271,-0.00328,-4.59826,-6.99517,10.49382,-26.2294,-10.36209,7.19001,3.44336,2.3783,8.65113
2789,-2.97115,0.0,-0.0,-6.11656,0.0,0.0,-17.06968,-8.63342,25.00146,8.96758,4.96478,-13.21915,-13.43006,-4.48083,-0.0001,-4.44322,0.90414,-2e-05,27.2324,20.49383,19.58444,3.23139,1.5647,-14.2105,24.28264,20.26587,5.38071,45.48159,-2.35857,42.3035,137.23929,-0.00031,-95.41902,117.82446,0.00483,114.47255,-14.3908,-11.7613,-0.01963,-20.04758,5.13303,-0.00492,-4.52036,-7.1298,10.59014,-26.15612,-10.52247,7.2299,3.66541,2.34428,8.69929
2790,-2.89719,-0.0,-0.0,-6.84056,0.0,-0.0,-17.21571,-8.65652,25.20941,8.99455,5.01421,-13.05434,-13.45683,-4.72452,0.0,-4.33072,0.88878,-2e-05,27.24516,20.52337,18.98611,3.43565,1.57215,-13.91375,24.29144,20.12355,5.8082,45.30331,-2.26856,42.39745,137.40314,-0.00386,-95.655,118.22271,-7e-05,113.70873,-13.25108,-12.75461,-0.00417,-20.19803,4.88136,-0.00587,-4.4479,-7.36451,10.91281,-26.08453,-10.85868,7.44462,3.86463,2.39733,8.70539
2791,-3.14509,-0.0,0.0,-7.68174,0.0,0.0,-17.15443,-8.65819,25.73811,9.1246,5.06265,-13.02167,-13.53709,-4.87101,-2e-05,-4.22926,0.8929,2e-05,27.23993,20.51825,18.42294,3.52541,1.6291,-13.65449,24.4311,19.94323,5.97112,45.21469,-2.36474,42.56145,137.18355,-0.01256,-96.82462,118.60352,-0.00293,113.57754,-13.07451,-12.97569,0.00075,-20.6015,4.99382,-0.0055,-4.30835,-7.60857,11.35895,-25.94036,-11.24862,7.77189,3.91789,2.54147,8.66461
2792,-3.50388,0.0,-0.0,-8.23704,0.0,-0.0,-16.93071,-8.62034,26.15662,9.15321,5.11729,-12.82622,-13.66772,-4.86024,-0.00017,-4.15313,0.91296,2e-05,27.16966,20.55298,18.20048,3.54169,1.73606,-13.56002,24.67017,19.78133,5.98526,45.27516,-2.55931,42.84296,136.66255,-0.01511,-98.72192,118.968,-0.00246,113.73341,-14.0189,-12.38525,-0.01266,-20.94692,5.07073,-0.0034,-4.12577,-7.72669,11.78334,-25.74446,-11.51343,8.12632,3.84335,2.7751,8.60098
2793,-3.74959,0.0,0.0,-8.38655,0.0,-0.0,-16.61919,-8.58713,26.25666,9.02594,5.18131,-12.3477,-13.81075,-4.73052,-0.00019,-4.13839,0.93384,-1e-05,27.04881,20.66392,18.34433,3.595,1.85864,-13.59193,24.83844,19.67365,6.07618,45.41057,-2.7085,43.21461,136.14305,-0.00535,-100.42238,119.3577,-0.00147,113.9494,-15.50546,-11.39384,-0.01673,-21.11577,4.91777,-0.00232,-4.00192,-7.67237,12.10381,-25.59914,-11.57988,8.44809,3.77024,3.04864,8.53982
2794,-3.64656,-0.0,-0.0,-8.01278,0.0,-0.0,-16.36284,-8.60051,26.02771,8.80348,5.19905,-11.62471,-13.90263,-4.52575,3e-05,-4.19825,0.9413,0.0,26.89224,20.78115,18.70692,3.71347,1.93842,-13.71423,24.82736,19.60461,6.33824,45.55354,-2.75234,43.62827,135.86807,0.00385,-101.53561,119.74802,-0.00043,114.1277,-16.80746,-10.62739,-0.0039,-21.5272,4.69681,-0.00119,-3.98664,-7.54139,12.30879,-25.56252,-11.53284,8.69011,3.75579,3.28285,8.51092
2795,-3.33335,0.0,-0.0,-7.3278,0.0,-0.0,-16.24279,-8.73438,25.63403,8.63081,5.13995,-10.86522,-13.88463,-4.30671,0.00013,-4.30963,0.92393,6e-05,26.68805,20.84849,19.00706,3.82105,1.984,-13.88664,24.70801,19.54616,6.68646,45.72045,-2.68699,44.02292,135.84511,0.0058,-102.35175,120.03514,0.00062,114.17809,-17.59127,-10.4689,0.00657,-22.61,4.57322,-0.00058,-3.99917,-7.47585,12.4386,-25.56269,-11.5192,8.83686,3.72845,3.44582,8.55011
2796,-3.41042,-0.0,0.0,-7.1598,0.0,-0.0,-16.18949,-9.06265,25.46732,8.70025,5.01289,-10.45253,-13.72607,-4.19327,-0.00039,-4.43118,0.89677,5e-05,26.44954,20.89522,18.80704,3.85535,2.06826,-13.92101,24.60409,19.50845,7.00759,45.90096,-2.48978,44.30064,135.9193,0.0033,-103.24244,120.18245,0.0008,114.33018,-17.85743,-10.78184,0.00662,-24.16248,4.62179,-0.00238,-3.92599,-7.5561,12.566,-25.48815,-11.64025,8.92665,3.63333,3.57236,8.64584
2797,-4.18543,0.0,-0.0,-7.98097,0.0,0.0,-16.14295,-9.51458,25.76077,9.03203,4.81952,-10.58713,-13.44609,-4.22549,-0.00094,-4.51251,0.89671,-1e-05,26.21174,20.94462,18.00231,3.81854,2.20571,-13.6624,24.53491,19.5152,7.26837,45.99955,-2.15665,44.38283,135.95738,-0.0002,-104.59038,120.3045,-0.0005,114.98594,-17.66282,-11.23585,0.00244,-25.49606,4.93427,-0.00296,-3.79251,-7.78291,12.72996,-25.36243,-11.91092,8.99586,3.52195,3.69517,8.70881
2798,-5.27036,0.0,-0.0,-9.18554,0.0,-0.0,-16.12975,-9.96203,26.23109,9.40164,4.6256,-10.97939,-13.12406,-4.25145,-0.00052,-4.51545,0.91905,-5e-05,25.9717,20.9612,17.16739,3.72099,2.32978,-13.27552,24.44933,19.5622,7.48871,45.97142,-1.77648,44.30042,135.93362,-0.0026,-106.68935,120.53174,-0.00161,116.04123,-17.09287,-11.7552,-0.0016,-26.10033,5.55973,0.00087,-3.73876,-8.10277,12.90086,-25.32378,-12.27061,9.03653,3.45466,3.80751,8.6418
2799,-6.21338,0.0,0.0,-10.05229,0.0,0.0,-16.10544,-10.42559,26.47519,9.6301,4.5652,-11.15618,-12.84916,-4.10052,0.00022,-4.45715,0.9139,-9e-05,25.7038,20.9289,16.91885,3.56349,2.40599,-13.08043,24.33609,19.62631,7.68872,45.92012,-1.48181,44.18423,135.8952,-0.00237,-109.16922,120.85273,-0.00072,117.00558,-16.35163,-12.48033,-0.00415,-26.08072,6.38826,0.0029,-3.84369,-8.41897,13.03553,-25.44639,-12.61366,9.04426,3.41217,3.90988,8.43924
2800,-6.83934,0.0,0.0,-10.43974,0.0,-0.0,-16.01406,-10.92008,26.4468,9.71501,4.64885,-10.96004,-12.63981,-3.79229,0.0004,-4.40082,0.85216,-8e-05,25.42373,20.90089,17.24502,3.37923,2.48838,-13.15858,24.22424,19.6646,7.86928,45.96982,-1.33377,44.13453,135.91032,-0.00084,-111.11051,121.17017,-0.00157,117.85056,-15.66913,-13.42567,-0.0031,-25.81655,7.20147,0.0016,-4.06252,-8.61985,13.09299,-25.6785,-12.82135,9.02258,3.35296,4.04324,8.20818
2801,-6.98482,0.0,0.0,-10.23095,0.0,-0.0,-16.00065,-11.23213,26.32293,9.66038,4.72304,-10.62492,-12.43906,-3.49049,0.00017,-4.39639,0.7422,4e-05,25.1889,20.93871,17.71685,3.24598,2.6467,-13.29662,24.12822,19.59999,8.00173,46.09345,-1.30704,44.10938,136.00813,-0.00057,-111.96172,121.45207,-0.005,118.95992,-15.20417,-14.25601,0.0003,-25.33663,7.87218,0.00227,-4.29233,-8.65225,12.98114,-25.91762,-12.81072,8.9049,3.29617,4.24615,8.08675
2802,-6.79877,0.0,0.0,-9.42896,0.0,0.0,-16.20977,-11.14195,26.19307,9.50247,4.69419,-10.4406,-12.2004,-3.31417,-0.00014,-4.46202,0.61556,0.00015,25.03223,21.04046,18.01657,3.21831,2.87381,-13.30347,24.05982,19.37898,8.04712,46.14184,-1.35766,43.9743,136.11649,7e-05,-111.77488,121.73849,-0.00437,119.99087,-15.11624,-14.41024,-0.00199,-24.5136,8.39444,0.0025,-4.44437,-8.57873,12.60208,-26.08533,-12.60422,8.57556,3.28176,4.50461,8.13644
2803,-6.81808,0.0,-0.0,-8.57864,0.0,-0.0,-16.53287,-10.71631,25.99023,9.39355,4.64588,-10.46464,-11.95849,-3.25134,-0.00026,-4.58137,0.52622,0.00011,24.95648,21.15691,18.09564,3.27359,3.10096,-13.2345,24.05753,19.05031,8.00421,46.00976,-1.46311,43.65797,136.11754,0.00332,-110.65891,122.05648,0.00197,119.89676,-15.49225,-13.6187,-0.01138,-23.64111,8.80877,-0.00111,-4.50791,-8.53953,12.0057,-26.17819,-12.35015,8.02901,3.30586,4.77319,8.29443
2804,-7.06915,0.0,-0.0,-8.05313,-0.0,0.0,-16.80128,-10.24704,25.63126,9.4109,4.6687,-10.60426,-11.79412,-3.23321,-0.00017,-4.6885,0.52021,1e-05,24.98734,21.25126,18.00589,3.35234,3.28135,-13.23348,24.13943,18.72546,7.90358,45.71195,-1.61582,43.2213,136.00447,0.00525,-108.83055,122.40467,0.00574,118.58276,-16.13636,-12.37399,-0.01227,-23.1562,9.21614,-0.00518,-4.56854,-8.61407,11.43067,-26.27407,-12.20929,7.4601,3.35929,5.02316,8.4128
2805,-7.20324,0.0,0.0,-7.78435,0.0,0.0,-16.90091,-10.06535,25.21886,9.50282,4.71631,-10.81385,-11.73729,-3.23159,-6e-05,-4.72819,0.59261,3e-05,25.11155,21.31439,17.7756,3.40018,3.4055,-13.30325,24.24316,18.46289,7.74683,45.33142,-1.79381,42.77938,135.90553,0.00252,-107.05668,122.77187,0.00338,117.09597,-16.67806,-11.62484,-0.00279,-22.95384,9.5485,-0.00615,-4.72268,-8.72527,11.10068,-26.45289,-12.19188,7.10793,3.45127,5.24351,8.37957
2806,-7.51417,0.0,0.0,-7.92584,0.0,-0.0,-16.67527,-10.37868,25.025,9.66863,4.7136,-11.11938,-11.73651,-3.25745,-2e-05,-4.73171,0.69702,2e-05,25.22072,21.34883,17.44113,3.39464,3.46605,-13.29902,24.27896,18.24774,7.51668,44.96112,-1.94286,42.41323,135.92194,0.00017,-106.18582,123.12566,-0.00099,116.21445,-16.89497,-11.86555,0.00167,-22.55009,9.52867,-0.00491,-4.96671,-8.74633,10.98462,-26.70397,-12.16897,6.99093,3.57219,5.42359,8.22736
2807,-8.45565,0.0,-0.0,-8.59844,0.0,0.0,-16.11909,-11.05348,25.15983,9.91322,4.66776,-11.51165,-11.72958,-3.30597,-3e-05,-4.76754,0.78854,-3e-05,25.22263,21.36967,17.11466,3.36699,3.46672,-13.09185,24.24383,18.06774,7.2676,44.68177,-2.02062,42.14219,136.01596,0.00023,-106.2038,123.40629,-0.0035,115.97408,-16.76954,-12.71095,-0.00027,-21.86853,9.06627,0.00015,-5.18839,-8.68346,10.86399,-26.92616,-12.06641,6.90147,3.68282,5.56193,8.10167
2808,-9.59977,0.0,-0.0,-9.27838,-0.0,0.0,-15.57318,-11.61698,25.35156,10.1141,4.61019,-11.85493,-11.71445,-3.36014,3e-05,-4.84443,0.84406,-4e-05,25.12857,21.4082,16.94912,3.34824,3.44693,-12.76476,24.22041,17.92816,7.10172,44.53392,-2.05115,41.92257,136.08032,0.0008,-106.20983,123.55613,-0.00334,115.99642,-16.3131,-13.39141,0.00044,-21.47013,8.30439,0.01144,-5.29186,-8.66288,10.62241,-27.03877,-11.95883,6.68247,3.74383,5.68052,8.1148
2809,-10.0629,-0.0,-0.0,-9.30097,0.0,0.0,-15.4228,-11.67598,25.21198,10.14982,4.55155,-11.97468,-11.73191,-3.42471,0.00018,-4.91333,0.85716,-1e-05,25.01094,21.48641,16.98119,3.31604,3.45997,-12.59605,24.25207,17.81486,7.01278,44.48867,-2.08011,41.69189,136.06523,0.00167,-105.46014,123.58035,-0.00255,116.15193,-15.56695,-13.52426,0.00456,-21.81418,7.59943,0.01633,-5.3212,-8.75026,10.32787,-27.08759,-11.93207,6.37297,3.76509,5.80999,8.24101
2810,-9.66039,0.0,0.0,-8.71736,0.0,0.0,-15.65144,-11.31376,24.70049,10.08633,4.50225,-11.8739,-11.80383,-3.49135,0.00023,-4.95473,0.83295,2e-05,24.93609,21.57613,17.07758,3.24487,3.51933,-12.74231,24.27976,17.72655,6.88161,44.47227,-2.10654,41.43871,136.01341,0.00153,-104.18391,123.57467,-0.0025,116.82008,-14.80272,-13.35143,0.00545,-22.55188,7.50941,0.00729,-5.37936,-8.87203,10.0781,-27.16552,-11.95358,6.09252,3.80064,5.95003,8.3655
2811,-9.01311,0.0,-0.0,-8.13503,0.0,-0.0,-15.91532,-10.96054,24.10991,10.09483,4.44679,-11.75744,-11.92406,-3.48687,-0.0001,-5.01181,0.79366,4e-05,24.9334,21.58718,17.11507,3.14574,3.57211,-13.06466,24.25017,17.68696,6.64652,44.43095,-2.12826,41.19977,135.98093,0.00033,-103.20168,123.6557,-0.00071,117.68763,-14.43396,-13.31204,0.00435,-22.96767,8.0849,-0.00026,-5.45178,-8.92915,9.91649,-27.24881,-11.94735,5.91931,3.86369,6.05638,8.40204
2812,-8.6174,0.0,-0.0,-7.86972,0.0,0.0,-16.00381,-10.87192,23.63515,10.23224,4.34678,-11.81338,-12.09207,-3.34964,-0.00059,-5.10622,0.76865,-1e-05,25.00848,21.44105,17.09098,3.02059,3.55994,-13.36028,24.2326,17.65484,6.35125,44.35566,-2.19609,40.98843,135.95691,-0.00077,-103.10675,123.85735,0.00565,117.42878,-14.53545,-13.59693,0.00369,-22.88945,8.5706,-0.00472,-5.44415,-8.92819,9.8428,-27.24395,-11.91942,5.85059,3.90041,6.09755,8.31818
2813,-8.49495,0.0,-0.0,-7.83937,0.0,0.0,-15.94032,-10.96417,23.31242,10.43329,4.23636,-12.10456,-12.29278,-3.17496,-0.00051,-5.18848,0.75088,-7e-05,25.14572,21.20373,16.9683,2.87371,3.51938,-13.50504,24.31751,17.53764,6.07962,44.26191,-2.33194,40.77585,135.91103,-0.0009,-104.08127,124.1032,0.00839,115.6004,-14.65193,-14.17976,-0.00189,-22.70388,8.40109,-0.00704,-5.35473,-8.93838,9.83297,-27.15571,-11.92527,5.83751,3.87995,6.11653,8.13605
2814,-8.54745,-0.0,0.0,-7.99267,-0.0,0.0,-15.78889,-11.13173,23.20127,10.62519,4.1938,-12.60223,-12.44962,-3.14778,-5e-05,-5.22303,0.69242,-0.00011,25.26618,21.06725,16.6868,2.77152,3.5465,-13.35802,24.43591,17.36341,5.947,44.16219,-2.4379,40.55685,135.88397,0.00147,-105.96534,124.29159,0.00275,113.50794,-14.32023,-14.95683,-0.0106,-22.55147,7.9712,-0.00114,-5.27111,-8.94924,9.89224,-27.07065,-11.9571,5.88895,3.84086,6.1861,7.97265
2815,-8.54499,0.0,-0.0,-8.19833,0.0,-0.0,-15.72168,-11.29047,23.19947,10.74371,4.18718,-13.13344,-12.47452,-3.29365,-1e-05,-5.25337,0.57754,-6e-05,25.2589,21.11877,16.41863,2.77397,3.64309,-12.90653,24.42923,17.29576,6.02208,44.04392,-2.37763,40.38848,135.9297,0.00359,-107.96827,124.40491,-0.00319,112.63801,-13.70595,-15.64085,-0.01178,-22.02807,8.11503,0.01625,-5.23492,-8.8954,10.05059,-27.02402,-11.96519,6.05785,3.81775,6.30671,7.95177
