PaulMeinheit/Bachelor_Muay_Thai/processed_Data/E1/roundhouse/sliced/JointAngles/sliced0.csv
Unnamed: 0_level_0,L_MTP_ANGLE,L_MTP_ANGLE,L_MTP_ANGLE,R_MTP_ANGLE,R_MTP_ANGLE,R_MTP_ANGLE,L_ANKLE_ANGLE,L_ANKLE_ANGLE,L_ANKLE_ANGLE,R_ANKLE_ANGLE,R_ANKLE_ANGLE,R_ANKLE_ANGLE,L_KNEE_ANGLE,L_KNEE_ANGLE,L_KNEE_ANGLE,R_KNEE_ANGLE,R_KNEE_ANGLE,R_KNEE_ANGLE,L_HIP_ANGLE,L_HIP_ANGLE,L_HIP_ANGLE,R_HIP_ANGLE,R_HIP_ANGLE,R_HIP_ANGLE,L_SHOULDER_ANGLE,L_SHOULDER_ANGLE,L_SHOULDER_ANGLE,R_SHOULDER_ANGLE,R_SHOULDER_ANGLE,R_SHOULDER_ANGLE,L_ELBOW_ANGLE,L_ELBOW_ANGLE,L_ELBOW_ANGLE,R_ELBOW_ANGLE,R_ELBOW_ANGLE,R_ELBOW_ANGLE,L_WRIST_ANGLE,L_WRIST_ANGLE,L_WRIST_ANGLE,R_WRIST_ANGLE,R_WRIST_ANGLE,R_WRIST_ANGLE,NECK_ANGLE,NECK_ANGLE,NECK_ANGLE,NECK_ANGLE_SHADOW,NECK_ANGLE_SHADOW,NECK_ANGLE_SHADOW,Trunk_Joint_Angle,Trunk_Joint_Angle,Trunk_Joint_Angle
ITEM,X,Y,Z,X,Y,Z,X,Y,Z,X,Y,Z,X,Y,Z,X,Y,Z,X,Y,Z,X,Y,Z,X,Y,Z,X,Y,Z,X,Y,Z,X,Y,Z,X,Y,Z,X,Y,Z,X,Y,Z,X,Y,Z,X,Y,Z
629,-1.21969,0.0,-0.0,-5.67378,-0.0,0.0,-24.54496,-8.0498,21.63545,15.54386,1.26423,-21.38202,-35.19109,-9.12309,-7e-05,-14.89806,-0.28076,0.00024,35.03938,25.65866,24.35789,1.94071,3.86962,-18.15358,12.52244,14.29708,17.65793,47.82375,-10.88249,38.72807,109.35974,-0.00087,-114.77683,113.81341,-0.00836,127.04176,-5.36832,-24.83359,-0.00184,-17.50301,4.7308,0.00566,-7.60579,-8.69561,6.31064,-29.48675,-10.40467,2.63643,2.07355,2.84586,5.66375
630,-0.60368,0.0,0.0,-5.47927,0.0,0.0,-24.13153,-8.28117,21.41034,15.56201,1.52638,-21.38936,-35.32722,-8.95596,-0.00032,-15.08384,-0.46425,0.00015,35.13392,25.66178,24.41075,2.15498,3.92452,-18.23052,12.81019,14.14947,17.7327,48.4193,-10.73677,38.82379,109.26713,-0.00059,-115.8167,114.04044,-0.00455,129.23215,-5.77678,-24.92512,-0.00204,-16.1705,5.75689,0.00492,-7.54022,-8.80151,6.10711,-29.4318,-10.42794,2.40651,2.31876,2.8916,5.6395
631,0.23307,0.0,-0.0,-5.01675,0.0,-0.0,-23.74961,-8.64897,21.2477,15.5165,1.6993,-21.43783,-35.41253,-8.7217,-0.00023,-15.21087,-0.59343,-7e-05,35.17227,25.64624,24.59735,2.34533,3.9249,-18.18345,13.02662,14.14961,17.82254,49.01252,-10.69716,38.89759,109.15688,0.00036,-116.04094,114.2563,0.00199,129.9808,-6.19416,-24.96058,-0.00181,-14.97032,6.59255,-0.00044,-7.47451,-8.8269,6.03566,-29.36894,-10.42519,2.33027,2.57202,2.88817,5.73658
632,0.99021,0.0,-0.0,-4.66885,-0.0,-0.0,-23.50379,-8.84472,21.13913,15.49189,1.70523,-21.51028,-35.42459,-8.61919,-8e-05,-15.29173,-0.60504,-0.00016,35.13462,25.62091,24.76539,2.48466,3.8587,-18.00122,13.27644,14.3115,17.92507,49.62548,-10.72603,38.90981,109.04716,0.00083,-115.60152,114.46928,0.00652,129.25328,-6.20771,-25.08752,-0.00235,-13.92897,6.93377,-0.00813,-7.52444,-8.74963,5.75479,-29.41767,-10.24998,2.09775,2.78868,2.81074,5.92311
633,1.37192,0.0,-0.0,-4.62087,-0.0,-0.0,-23.43366,-8.67275,21.05602,15.51165,1.63948,-21.51383,-35.37265,-8.73353,-0.00015,-15.35905,-0.54839,-7e-05,35.01472,25.61725,24.83833,2.56146,3.75742,-17.82854,13.60522,14.47331,18.09193,50.21062,-10.73766,38.84462,108.94891,0.00023,-115.11524,114.67896,0.00624,127.77039,-5.59687,-25.24736,-0.00196,-12.98905,6.57984,-0.01268,-7.66906,-8.60506,5.17795,-29.55971,-9.90322,1.61509,2.94307,2.70096,6.12341
634,1.54261,0.0,-0.0,-4.67982,-0.0,0.0,-23.50869,-8.33997,21.00632,15.52251,1.63317,-21.39376,-35.28346,-8.9522,-0.00017,-15.40257,-0.53967,4e-05,34.85132,25.627,24.84675,2.58527,3.66361,-17.78629,13.92429,14.51372,18.38078,50.72528,-10.65116,38.77974,108.84942,-0.00088,-115.06713,114.80488,0.00161,126.37567,-4.71001,-25.30814,0.00032,-12.35671,5.61741,-0.00646,-7.79418,-8.43674,4.55841,-29.67959,-9.51862,1.10195,3.06451,2.59993,6.25177
635,1.86238,0.0,-0.0,-4.63443,0.0,-0.0,-23.66181,-8.17128,21.05508,15.47834,1.6604,-21.21429,-35.1992,-9.13329,2e-05,-15.37657,-0.61287,-1e-05,34.74997,25.60324,24.77693,2.59098,3.59465,-17.83904,14.15021,14.47773,18.73529,51.18649,-10.45932,38.82487,108.71497,-0.0015,-115.42553,114.77301,-0.00347,125.10822,-4.29044,-25.31076,0.00212,-12.30644,4.31058,0.00626,-7.79145,-8.27698,4.26794,-29.6689,-9.26326,0.892,3.22372,2.51911,6.25378
636,2.33226,0.0,-0.0,-4.50552,0.0,-0.0,-23.83509,-8.14637,21.16244,15.38524,1.60469,-21.06298,-35.17343,-9.20043,0.00018,-15.26713,-0.71272,-7e-05,34.79839,25.52394,24.62192,2.60259,3.55958,-17.95037,14.32721,14.45574,19.01948,51.6337,-10.22408,39.00508,108.52331,-0.00058,-115.73401,114.63756,-0.00526,123.43246,-4.81201,-25.40149,0.00431,-12.81479,3.05396,0.01079,-7.62481,-8.15515,4.47202,-29.49354,-9.22546,1.1279,3.45151,2.46747,6.12653
637,2.57337,0.0,0.0,-4.43768,0.0,-0.0,-23.96848,-8.05356,21.1867,15.28846,1.43673,-20.9699,-35.22245,-9.12947,5e-05,-15.12532,-0.79303,-2e-05,34.95539,25.41648,24.51559,2.61554,3.55524,-18.1421,14.55585,14.44853,19.16576,52.08682,-10.0268,39.24404,108.2877,0.00095,-115.65864,114.54784,-0.00137,121.36715,-6.0276,-25.58425,0.00465,-13.57169,2.25512,0.00407,-7.33615,-8.08836,4.95344,-29.19652,-9.34095,1.60128,3.69436,2.44179,5.94999
638,2.32527,-0.0,0.0,-4.45969,0.0,-0.0,-23.98216,-7.91682,21.05887,15.22764,1.25194,-20.91936,-35.31256,-8.94037,-0.00023,-15.01859,-0.84059,5e-05,35.08881,25.32594,24.66115,2.62264,3.5372,-18.35798,14.87744,14.41283,19.21325,52.54902,-9.92943,39.45808,108.02495,0.00181,-115.3266,114.5978,0.00342,119.50689,-7.22746,-25.72969,0.00147,-14.23765,1.95162,-0.00178,-7.00764,-8.07171,5.32872,-28.86263,-9.46384,1.9571,3.8819,2.40398,5.86413
639,1.78756,-0.0,-0.0,-4.47987,0.0,0.0,-23.85119,-7.92987,20.8552,15.20605,1.1587,-20.89443,-35.42543,-8.72645,-0.00036,-14.97205,-0.83645,5e-05,35.15108,25.29567,25.0426,2.64191,3.46848,-18.46338,15.26504,14.3639,19.25085,53.02281,-9.93725,39.64135,107.72894,0.00202,-114.96894,114.7429,0.00361,118.38728,-7.83776,-25.77022,-0.0014,-14.63638,1.90311,-0.00196,-6.71247,-8.08632,5.47345,-28.56646,-9.53074,2.08643,4.01533,2.33617,5.93439
640,1.40943,-0.0,-0.0,-4.52759,0.0,0.0,-23.66958,-8.14214,20.73475,15.23269,1.18489,-20.89202,-35.57405,-8.64815,-9e-05,-14.97179,-0.77531,-2e-05,35.20619,25.35894,25.34156,2.6883,3.37929,-18.40273,15.66041,14.35273,19.36245,53.49959,-10.00506,39.84059,107.40668,0.00038,-114.80754,114.86817,0.00135,118.3939,-7.66798,-25.77119,-0.00294,-14.80642,2.10827,-0.00083,-6.50404,-8.09775,5.59359,-28.35707,-9.58562,2.19406,4.14223,2.28402,6.09714
641,1.48316,-0.0,0.0,-4.85201,-0.0,-0.0,-23.5572,-8.47213,20.83158,15.36678,1.28404,-20.92549,-35.74666,-8.82553,0.00035,-14.98947,-0.6983,-9e-05,35.2697,25.51122,25.25165,2.7099,3.32617,-18.22696,15.99491,14.3845,19.55544,53.93643,-10.07911,40.06238,107.10344,-0.00223,-115.09802,114.90564,0.0005,119.33256,-6.95191,-25.81371,-0.00388,-14.92999,2.71253,-0.00136,-6.43621,-8.06416,5.86127,-28.28306,-9.65308,2.45624,4.26382,2.29365,6.27566
642,1.99663,0.0,0.0,-5.6361,0.0,-0.0,-23.55896,-8.87065,21.15914,15.62775,1.33657,-21.05109,-35.90215,-9.22499,0.00037,-14.97964,-0.63449,-6e-05,35.28997,25.69087,24.75325,2.62714,3.31712,-17.96468,16.25004,14.42952,19.74507,54.2818,-10.08017,40.24443,106.85134,-0.00233,-115.61547,114.86363,0.00013,120.21901,-6.34094,-25.90013,-0.00286,-15.1454,3.51737,-0.00191,-6.5202,-7.96924,6.19816,-28.35524,-9.68909,2.80617,4.33671,2.3363,6.44321
643,2.73291,-0.0,0.0,-6.63787,0.0,0.0,-23.68478,-9.30368,21.57919,15.8769,1.17154,-21.30033,-36.01753,-9.6544,8e-05,-14.89868,-0.54732,0.00013,35.28424,25.81066,24.0971,2.46232,3.29951,-17.6138,16.50934,14.49568,19.87917,54.53685,-9.90878,40.34048,106.6151,1e-05,-115.73089,114.7869,-0.00053,120.32683,-6.3367,-26.04081,-0.00026,-15.40839,4.09229,-0.00034,-6.64421,-7.84379,6.48601,-28.46572,-9.67864,3.12199,4.35831,2.32876,6.56509
644,3.4634,0.0,0.0,-7.36874,0.0,0.0,-23.92525,-9.68465,21.9165,15.9288,0.75893,-21.5549,-36.09999,-9.90934,-7e-05,-14.75502,-0.39776,0.00033,35.34189,25.83268,23.59442,2.34464,3.22344,-17.2735,16.86348,14.63787,20.01884,54.76472,-9.57391,40.39883,106.32791,0.00212,-115.2291,114.72032,-0.00058,119.89133,-6.71229,-26.28868,0.00097,-15.5522,4.28336,0.00096,-6.61858,-7.74953,6.75649,-28.42835,-9.69071,3.40991,4.39104,2.22971,6.60456
645,4.01151,0.0,0.0,-7.52661,0.0,0.0,-24.15096,-9.93262,22.09089,15.76375,0.41335,-21.57049,-36.18436,-9.91652,-0.00029,-14.60188,-0.24838,0.0002,35.47979,25.81199,23.44244,2.34314,3.10811,-17.16574,17.27323,14.8854,20.21359,55.03695,-9.25309,40.49897,105.97388,0.00157,-114.44157,114.67257,-0.00071,119.35988,-6.91924,-26.59104,-0.00027,-15.41735,4.22032,-0.00043,-6.33659,-7.73368,7.05779,-28.13837,-9.78691,3.69713,4.47794,2.08999,6.60885
646,4.17926,0.0,-0.0,-7.04551,-0.0,-0.0,-24.15119,-10.05322,22.09072,15.51163,0.6021,-21.16508,-36.34156,-9.70759,-0.00101,-14.47886,-0.24705,-0.00017,35.61111,25.83874,23.70766,2.386,3.01779,-17.46879,17.62057,15.17989,20.38728,55.37139,-9.12822,40.63726,105.60291,-0.00076,-113.7365,114.61663,-0.00155,118.65793,-6.79809,-26.76784,-0.00062,-14.96889,3.98226,-0.00334,-5.87231,-7.79921,7.32672,-27.67163,-9.94671,3.92356,4.58326,1.99179,6.69226
647,3.94457,0.0,0.0,-6.13692,0.0,0.0,-23.9083,-10.06541,21.96315,15.30427,1.39248,-20.46121,-36.62459,-9.39946,-0.00136,-14.39684,-0.43876,-0.00029,35.71341,25.93752,24.22283,2.4107,2.98002,-18.08682,17.88018,15.41167,20.44847,55.71819,-9.20736,40.75222,105.24607,-0.00065,-113.12995,114.54941,-0.00186,117.81312,-6.58029,-26.69945,0.00045,-14.40668,3.69387,-0.00387,-5.44043,-7.91356,7.4985,-27.24279,-10.11608,4.04088,4.67811,1.97038,6.89003
648,3.65473,-0.0,-0.0,-5.34603,0.0,-0.0,-23.67409,-9.93633,21.84635,15.21661,2.2731,-19.90168,-36.98646,-9.1982,-0.0003,-14.35335,-0.65742,-0.00012,35.88365,26.05971,24.57997,2.46206,2.96625,-18.6265,18.14521,15.51697,20.44469,56.03727,-9.35103,40.8445,104.84224,0.00302,-112.34798,114.50408,-0.00111,117.53133,-6.52335,-26.42348,0.00041,-14.05982,3.71011,-0.00312,-5.23791,-8.02837,7.62675,-27.04452,-10.26985,4.11736,4.79593,2.00963,7.08988
649,3.59409,0.0,0.0,-5.02811,0.0,-0.0,-23.65748,-9.68773,21.82045,15.22238,2.73263,-19.81378,-37.30207,-9.21175,0.00074,-14.32771,-0.72247,4e-05,36.13063,26.15657,24.58835,2.56275,2.93732,-18.76835,18.4743,15.51577,20.51833,56.37051,-9.41254,40.98064,104.31125,0.0037,-111.37878,114.48127,-4e-05,118.32004,-6.75847,-26.04667,-0.00103,-14.05645,4.23461,-0.00428,-5.23806,-8.10011,7.84057,-27.04367,-10.4151,4.29007,4.92645,2.0669,7.1574
650,3.60301,0.0,0.0,-4.93257,0.0,0.0,-23.84552,-9.40419,21.79021,15.19808,2.7939,-20.01102,-37.4727,-9.32153,0.00057,-14.28348,-0.66328,5e-05,36.30381,26.20752,24.51988,2.63869,2.86949,-18.636,18.79402,15.47227,20.73738,56.77668,-9.33668,41.16558,103.67942,-0.00262,-110.64146,114.42549,0.00071,119.6251,-7.23889,-25.64408,-0.00195,-14.18286,4.9326,-0.0036,-5.16212,-8.11157,8.21963,-26.95744,-10.5651,4.6401,4.98956,2.08891,7.08473
651,3.49,0.0,-0.0,-4.72746,0.0,-0.0,-24.15557,-9.15723,21.68303,15.09303,2.76004,-20.07123,-37.49623,-9.38527,3e-05,-14.19724,-0.6245,-5e-05,36.3299,26.20925,24.61855,2.63947,2.76306,-18.58196,19.00052,15.45287,21.02491,57.22873,-9.18375,41.2989,103.05158,-0.00645,-110.22013,114.30436,-0.00041,120.36695,-7.75234,-25.24693,-0.0014,-14.16499,5.26801,-0.00135,-4.77942,-8.08969,8.7003,-26.55791,-10.72141,5.09798,4.97758,2.04758,6.97366
652,3.37965,0.0,-0.0,-4.53774,0.0,0.0,-24.52506,-9.0309,21.58755,15.00027,2.7082,-19.86519,-37.46726,-9.41661,-0.00028,-14.0801,-0.63794,-5e-05,36.32641,26.18571,24.76363,2.60868,2.643,-18.70302,19.1078,15.50752,21.25393,57.62878,-9.06413,41.29597,102.46847,-0.00031,-109.51069,114.16729,-0.00162,120.07399,-8.11706,-24.8968,-0.00029,-14.00702,5.11972,0.00018,-4.20938,-8.11184,9.10845,-25.97531,-10.89186,5.47165,4.9921,1.96071,6.90902
653,3.43694,0.0,0.0,-4.64026,0.0,0.0,-24.89355,-9.02855,21.55369,15.00671,2.49566,-19.57153,-37.51077,-9.48292,-0.00022,-13.97537,-0.61373,3e-05,36.42665,26.17999,24.78302,2.61061,2.5241,-18.83448,19.22635,15.654,21.38575,57.9016,-9.0177,41.19469,101.85423,0.00892,-108.13507,114.08823,-0.00083,119.23001,-8.31432,-24.64114,0.00046,-13.91782,4.80554,0.00169,-3.77906,-8.24641,9.33612,-25.54642,-11.1004,5.63401,5.10988,1.85879,6.87504
654,3.69676,0.0,0.0,-5.01057,0.0,-0.0,-25.20461,-9.07561,21.51177,15.10332,2.08699,-19.37893,-37.68367,-9.58554,-3e-05,-13.94641,-0.4939,-9e-05,36.64443,26.20133,24.68686,2.6797,2.38898,-18.87585,19.4107,15.87278,21.49843,58.05939,-8.98174,41.12025,101.11925,0.00902,-106.61334,114.08263,7e-05,118.66581,-8.38247,-24.41905,0.00157,-14.00046,4.61916,0.00217,-3.6209,-8.44843,9.47349,-25.39803,-11.33842,5.6863,5.30777,1.75289,6.78659
655,4.07737,0.0,0.0,-5.33494,-0.0,0.0,-25.36613,-9.24476,21.41925,15.24007,1.68417,-19.33249,-37.96071,-9.65807,-0.0003,-14.0399,-0.32955,-0.00024,36.90553,26.22336,24.5983,2.8205,2.21619,-18.89699,19.59136,16.12471,21.67488,58.1813,-8.89476,41.16193,100.27879,-0.0017,-105.74519,114.11069,5e-05,118.66999,-8.31654,-24.05742,0.00374,-14.1514,4.52524,0.00082,-3.57486,-8.56817,9.69669,-25.35254,-11.53151,5.85012,5.51097,1.64308,6.60837
656,4.33505,0.0,0.0,-5.38058,0.0,-0.0,-25.33062,-9.57958,21.26201,15.38541,1.54722,-19.34698,-38.30498,-9.6422,-0.00077,-14.2329,-0.22302,-3e-05,37.13144,26.25861,24.64741,2.99421,2.03023,-18.99464,19.67654,16.37915,21.87679,58.3245,-8.78274,41.27916,99.41213,-0.01096,-105.72535,114.13625,-0.00015,118.6393,-8.19337,-23.46458,0.00403,-14.15511,4.23007,-0.00303,-3.45852,-8.51745,10.03834,-25.21886,-11.60971,6.18959,5.65527,1.55346,6.41774
657,4.36436,0.0,0.0,-5.31321,-0.0,-0.0,-25.27245,-9.78564,20.99187,15.53749,1.71807,-19.33178,-38.68132,-9.60446,-0.00051,-14.44911,-0.20879,0.00025,37.30106,26.36511,24.80926,3.14348,1.89041,-19.15464,19.68531,16.6396,21.96611,58.46895,-8.71465,41.35561,98.50203,-0.00859,-106.01984,114.15819,-0.00033,118.08104,-8.28817,-22.71669,-0.00105,-13.84469,3.63121,-0.00698,-3.25461,-8.40191,10.36545,-24.99249,-11.62229,6.5401,5.72697,1.53359,6.31704
658,4.58893,0.0,-0.0,-5.4604,0.0,-0.0,-25.50423,-9.52275,20.54268,15.69202,1.97552,-19.24234,-39.02543,-9.68648,0.00016,-14.64754,-0.21552,0.00017,37.4224,26.54825,24.92891,3.24753,1.79056,-19.32288,19.72053,16.93885,21.87772,58.56504,-8.7115,41.34995,97.42443,0.00289,-105.93488,114.18225,-0.00062,117.53851,-8.82716,-21.94073,-0.00696,-13.34002,3.14044,-0.00493,-3.01598,-8.40287,10.58635,-24.74431,-11.7041,6.74702,5.76911,1.58104,6.3203
659,5.81128,0.0,0.0,-5.94487,-0.0,-0.0,-26.23545,-8.79471,19.86423,15.84496,2.08697,-19.04404,-39.26771,-9.93898,0.00023,-14.85714,-0.16619,-0.00012,37.46569,26.73707,24.94256,3.31823,1.64,-19.52597,19.80907,17.28333,21.72716,58.61592,-8.73191,41.32002,96.15956,0.01,-105.26022,114.17045,-0.00093,117.54793,-9.63461,-21.25775,-0.00571,-13.02983,3.15365,-0.00083,-2.74909,-8.53961,10.76343,-24.48009,-11.89596,6.8615,5.83212,1.60635,6.36086
660,8.40254,-0.0,0.0,-6.71747,0.0,0.0,-27.40533,-7.90901,19.00575,16.03403,2.02386,-18.80288,-39.40064,-10.30615,7e-05,-15.11283,-0.06831,-0.00025,37.41216,26.88715,24.88227,3.3727,1.40241,-19.75633,19.85644,17.62302,21.67224,58.6785,-8.73291,41.29734,94.8786,0.00515,-104.28503,114.06117,-0.00179,117.64278,-10.28738,-20.76238,0.001,-13.106,3.39554,0.00086,-2.45005,-8.6846,10.97539,-24.18282,-12.10825,7.00565,5.92713,1.53986,6.39093
661,11.35127,-0.0,0.0,-7.53249,-0.0,-0.0,-28.60179,-7.24843,18.13103,16.28404,1.9067,-18.71253,-39.51502,-10.67677,0.00038,-15.39853,0.0268,-0.00014,37.36615,27.01523,24.75283,3.44443,1.15876,-19.87612,19.79198,17.91837,21.69705,58.79493,-8.72035,41.23433,93.72191,-0.00212,-103.26514,113.86413,-0.00263,117.27723,-10.62524,-20.38786,0.00535,-13.30774,3.34111,0.00124,-2.15523,-8.79074,11.14198,-23.88875,-12.26781,7.12192,6.04149,1.41467,6.41724
662,12.65463,0.0,-0.0,-7.86973,-0.0,-0.0,-29.27247,-6.99771,17.37366,16.5296,1.8341,-18.86013,-39.73119,-10.89869,0.00014,-15.67778,0.10197,0.0,37.49207,27.10314,24.58213,3.57302,0.97142,-19.82657,19.66871,18.20628,21.6267,58.95337,-8.73352,41.09359,92.60957,-0.0028,-102.19791,113.67876,-0.00162,116.68093,-10.88458,-19.88271,0.00362,-13.33252,2.95792,0.00032,-1.89401,-8.93714,11.08888,-23.64186,-12.38437,7.01653,6.16485,1.28414,6.43159
663,11.17139,-0.0,0.0,-7.24523,-0.0,-0.0,-29.16055,-7.0154,16.72867,16.65363,1.81825,-19.04088,-40.08708,-10.84108,-0.00165,-15.95081,0.1591,0.0002,37.80406,27.079,24.55449,3.75188,0.78267,-19.82442,19.57443,18.5488,21.32969,59.09732,-8.79761,40.91204,91.34995,0.001,-101.09138,113.58884,-0.00045,116.29417,-11.35033,-19.02357,-0.00274,-13.24126,2.53874,0.00048,-1.64959,-9.15719,10.79831,-23.42849,-12.48233,6.66008,6.28527,1.13614,6.39735
664,7.83264,-0.0,0.0,-5.73441,0.0,-0.0,-28.54368,-7.01721,16.12061,16.60624,1.8117,-18.95858,-40.51404,-10.53456,-0.00303,-16.24675,0.18664,0.00043,38.14699,26.93928,24.85149,3.9273,0.51353,-20.17323,19.51242,18.9584,20.8073,59.16683,-8.92133,40.74701,89.84563,0.00657,-100.04464,113.58285,-0.00086,115.97289,-12.02488,-17.78111,-0.0071,-13.23291,2.15455,0.00128,-1.41497,-9.3538,10.47208,-23.22395,-12.54535,6.27907,6.40036,0.95254,6.32562
665,5.01213,0.0,-0.0,-4.22063,0.0,-0.0,-28.05424,-6.83126,15.5799,16.52169,1.74588,-18.65813,-40.89788,-10.27082,-0.00179,-16.58169,0.21431,0.00029,38.40863,26.79761,25.25636,4.06652,0.18878,-20.84529,19.40995,19.43158,20.09438,59.16133,-9.11529,40.60434,88.1512,0.01144,-99.05174,113.5913,-0.00219,115.26835,-12.6848,-16.27752,-0.00627,-13.23589,1.73773,0.00108,-1.25109,-9.40606,10.29668,-23.07154,-12.52956,6.09458,6.53528,0.77328,6.28843
666,4.47578,0.0,0.0,-3.71321,0.0,0.0,-28.09528,-6.49978,15.23158,16.62949,1.62454,-18.55104,-41.18223,-10.36181,0.00031,-16.95482,0.31745,-0.00021,38.60283,26.77026,25.32759,4.18427,-0.10381,-21.42345,19.21348,19.98391,19.16638,59.15378,-9.36451,40.45846,86.39618,0.00192,-98.18678,113.55503,-0.00195,114.52737,-13.17672,-14.68532,-0.00466,-13.06019,1.52587,0.00117,-1.22198,-9.31033,10.2662,-23.03577,-12.42951,6.10243,6.69559,0.64319,6.36728
667,5.69971,0.0,0.0,-4.19123,0.0,-0.0,-28.39193,-6.16574,15.04704,16.96581,1.576,-18.89258,-41.43507,-10.7406,0.00099,-17.36202,0.50479,-0.00027,38.76105,26.86299,25.04559,4.29356,-0.32746,-21.56981,18.94725,20.58764,18.00655,59.22377,-9.61484,40.32286,84.67929,-0.02432,-97.77393,113.42445,0.00247,114.73086,-13.47,-13.13531,-0.00277,-12.88771,1.84131,0.00054,-1.24562,-9.16969,10.25859,-23.04827,-12.29614,6.14878,6.82162,0.56105,6.6277
668,6.72895,0.0,-0.0,-4.72035,-0.0,-0.0,-28.34604,-5.89915,14.82172,17.32883,1.69354,-19.50997,-41.76094,-11.05625,-0.00011,-17.78878,0.70712,0.00023,38.90244,26.98867,24.77549,4.39468,-0.5115,-21.3451,18.68023,21.15662,16.72324,59.40912,-9.81323,40.25262,83.00057,-0.03612,-97.72771,113.1395,0.00743,115.88676,-13.47755,-11.60528,0.00469,-13.10581,2.4578,-0.00067,-1.08084,-9.03237,10.14481,-22.87703,-12.12692,6.09422,6.85806,0.51349,7.07536
669,6.73027,-0.0,0.0,-4.79533,0.0,-0.0,-27.77466,-5.76155,14.48939,17.57788,1.85216,-20.12712,-42.16013,-11.14113,-0.00137,-18.21484,0.91222,0.00027,39.0901,27.0575,24.63945,4.50983,-0.69694,-20.98982,18.45566,21.64213,15.47121,59.71989,-9.92203,40.26567,81.27237,-0.00536,-97.11095,112.6777,0.00604,116.87244,-13.13125,-9.91674,0.01541,-13.59655,2.81521,0.00202,-0.55865,-8.85235,9.78333,-22.35481,-11.82719,5.82362,6.83041,0.49839,7.6046
670,6.62252,0.0,-0.0,-4.79871,0.0,0.0,-27.00375,-5.87852,14.27826,17.78861,1.81259,-20.66001,-42.55719,-11.13898,-0.00109,-18.64255,1.18949,-0.00051,39.39951,27.0389,24.39414,4.66382,-0.90392,-20.64128,18.25996,22.07082,14.21561,60.12255,-9.91791,40.27201,79.40557,0.04702,-95.08626,112.1124,-0.0011,116.81614,-12.65897,-7.8983,0.01552,-13.70454,2.74381,0.0024,0.18586,-8.65792,9.03313,-21.62259,-11.37127,5.19456,6.8076,0.49851,8.08105
671,7.20085,0.0,0.0,-5.06344,-0.0,0.0,-26.34853,-6.19118,14.42575,18.06193,1.50981,-21.0908,-42.94289,-11.19866,-8e-05,-19.089,1.54549,-0.00104,39.83849,26.95417,23.88189,4.82437,-1.12524,-20.39194,18.02587,22.45953,12.68817,60.50302,-9.83706,40.11594,77.41647,0.06471,-92.12659,111.57112,-0.00875,115.53463,-12.50997,-5.54964,-0.00019,-13.09857,2.45206,-0.00033,0.79743,-8.57225,7.8998,-21.03952,-10.87519,4.16686,6.82915,0.47636,8.49665
672,8.27588,0.0,-0.0,-5.38906,0.0,-0.0,-25.87807,-6.37937,14.87006,18.39519,1.13232,-21.32854,-43.3812,-11.28277,0.00032,-19.53799,1.87753,-0.00048,40.34978,26.82694,23.22063,4.89941,-1.33601,-20.39931,17.64057,22.76586,10.67308,60.72266,-9.76661,39.74528,75.45123,0.02887,-89.76006,111.10825,-0.01215,113.43301,-12.91753,-3.10808,-0.01377,-12.34661,2.08285,0.00095,1.04537,-8.59171,6.64113,-20.8224,-10.42999,2.98408,6.89287,0.41328,8.9602
673,9.54962,0.0,0.0,-5.53776,0.0,-0.0,-25.55112,-6.26729,15.35694,18.75001,0.91746,-21.33037,-43.89967,-11.30367,-4e-05,-19.93971,2.10106,0.00047,40.87506,26.66321,22.56561,4.82706,-1.51768,-20.76547,16.99863,22.94495,8.28259,60.73698,-9.72397,39.31763,73.63777,-0.01855,-89.10052,110.64265,-0.00591,111.73039,-13.75039,-0.97518,-0.01102,-12.27325,1.7116,0.00469,1.03366,-8.55247,5.62042,-20.84826,-10.01751,2.0472,6.99627,0.3392,9.5345
674,10.84515,-0.0,0.0,-5.41367,-0.0,0.0,-25.25172,-6.03412,15.68891,19.0442,0.92939,-21.19527,-44.47132,-11.23335,-0.0007,-20.27414,2.23146,0.00082,41.38478,26.47915,21.9945,4.64706,-1.66738,-21.39862,16.10964,22.97705,5.85828,60.63688,-9.59881,39.07299,71.89979,-0.04284,-89.99641,110.03905,0.01003,111.75417,-14.87161,0.56821,-0.00332,-12.84148,1.55242,0.00281,1.03326,-8.38219,5.0329,-20.84459,-9.64294,1.5643,7.14614,0.31276,10.17178
675,12.03396,-0.0,0.0,-4.97768,0.0,-0.0,-24.90086,-5.86999,15.7913,19.18369,1.01436,-21.12514,-45.0593,-11.09849,-0.00076,-20.579,2.35468,0.00032,41.86484,26.32133,21.52894,4.45004,-1.77845,-22.00977,15.10127,22.82775,3.68268,60.5709,-9.24547,39.1337,70.00539,-0.04158,-91.50219,109.21297,0.01688,113.45727,-16.31954,1.59523,-0.00282,-13.12445,1.78343,-0.00026,1.19664,-8.21987,4.79006,-20.67341,-9.40278,1.39951,7.31032,0.38399,10.80207
676,13.31445,-0.0,-0.0,-4.42443,0.0,-0.0,-24.61656,-5.70361,15.6466,19.22111,0.9918,-21.27708,-45.62369,-10.97278,7e-05,-20.90283,2.55002,-0.00054,42.30696,26.22095,21.11527,4.28675,-1.84934,-22.31112,14.04199,22.46684,1.92442,60.64056,-8.57922,39.49971,67.80727,-0.01633,-92.61193,108.16004,0.00079,115.40102,-17.96446,2.31421,-0.00341,-12.46175,2.27432,-0.00037,1.50792,-8.25749,4.6799,-20.36542,-9.39707,1.28275,7.41784,0.5595,11.3846
677,14.63134,0.0,0.0,-4.04987,0.0,-0.0,-24.49253,-5.41181,15.22605,19.31082,0.88464,-21.56649,-46.14496,-10.89351,0.00064,-21.2536,2.79903,-0.00082,42.71397,26.14774,20.73402,4.16162,-1.91813,-22.31796,12.82297,21.91949,0.78143,60.85791,-7.60041,40.16649,65.32983,0.01651,-92.70111,106.95841,-0.0119,116.70583,-19.32869,2.67042,0.00156,-11.22261,2.85721,-0.00051,1.90455,-8.53421,4.6339,-19.98645,-9.6369,1.13536,7.44794,0.77677,11.89223
678,15.24827,0.0,0.0,-3.91657,0.0,0.0,-24.37519,-5.07896,14.54797,19.48698,0.8415,-21.75326,-46.64491,-10.80874,7e-05,-21.5919,2.99519,-0.00027,43.10143,26.06161,20.47593,4.07966,-2.02152,-22.31246,11.28333,21.21567,0.49902,61.15765,-6.40268,41.10279,62.65552,0.02349,-91.8916,105.76313,0.00363,118.09053,-19.92811,2.46651,0.00287,-10.19605,3.65434,0.00162,2.33688,-8.88307,4.76115,-19.57571,-10.00749,1.12174,7.48011,0.95229,12.35103
679,14.77845,0.0,0.0,-3.96579,0.0,-0.0,-24.07545,-4.92893,13.7969,19.6478,0.87953,-21.74307,-47.14965,-10.65982,-0.00123,-21.86522,3.06651,0.00032,43.47358,25.97401,20.40945,4.02925,-2.12343,-22.51329,9.41059,20.31447,1.20159,61.44711,-5.12434,42.15623,59.84963,0.00558,-90.80259,104.7138,0.02413,120.28003,-19.58828,1.84411,-0.0015,-9.57496,4.69259,0.00626,2.72925,-9.07627,5.10718,-19.19343,-10.31431,1.37061,7.60882,1.06907,12.86272
680,13.70696,-0.0,0.0,-4.17911,-0.0,0.0,-23.52581,-5.05651,13.28801,19.73444,0.88121,-21.62275,-47.66606,-10.46697,-0.00202,-22.05947,3.02541,0.00045,43.77611,25.9183,20.47924,3.92344,-2.14908,-22.96096,7.37308,19.16843,2.74161,61.68254,-3.80509,43.13628,56.96798,0.00082,-89.67487,103.81955,0.01775,122.29078,-18.50969,1.2406,-0.00069,-8.83942,5.47317,0.0031,2.98715,-9.02562,5.51612,-18.92788,-10.41808,1.77071,7.81777,1.16829,13.51757
681,12.46001,0.0,-0.0,-4.37511,0.0,0.0,-22.64418,-5.29466,13.27854,19.78708,0.79168,-21.52013,-48.18898,-10.3559,-0.00105,-22.20033,2.92935,0.0003,43.90773,25.88664,20.51194,3.64021,-2.08248,-23.55806,5.37796,17.83016,4.77546,61.90258,-2.34813,44.00546,54.04858,0.0126,-88.33058,102.99045,-0.01355,122.23539,-17.31414,0.818,0.00369,-7.4034,5.37457,-0.02127,3.09401,-8.83549,5.76141,-18.80495,-10.33209,2.07138,7.9886,1.25954,14.32452
682,11.01632,0.0,-0.0,-4.21349,0.0,-0.0,-21.35319,-5.45532,13.76751,19.84604,0.6681,-21.5953,-48.71149,-10.46486,0.00112,-22.28422,2.85623,8e-05,43.83215,25.82166,20.2945,3.13202,-1.97078,-24.04877,3.53401,16.42158,7.07817,62.18465,-0.70824,44.94515,51.06852,0.01378,-86.87576,102.15822,-0.03946,119.57003,-16.77506,0.32748,0.00325,-5.26555,4.40125,-0.04194,3.10525,-8.686,5.71421,-18.78426,-10.17598,2.08403,8.03423,1.30314,15.22818
683,9.58821,-0.0,0.0,-3.62202,-0.0,0.0,-19.78846,-5.57495,14.44518,19.91402,0.60593,-21.94806,-49.25695,-10.75119,0.00245,-22.25386,2.83953,-7e-05,43.65686,25.65836,19.75968,2.44782,-1.84745,-24.24396,1.83244,15.05706,9.80253,62.56553,0.97899,46.23813,47.94114,-0.00194,-85.61752,101.3286,-0.03229,115.96715,-17.08621,-0.44359,-0.0074,-3.14833,3.29217,-0.02573,3.01196,-8.6646,5.41038,-18.88,-10.04414,1.80905,7.98966,1.26891,16.13074
684,8.79063,0.0,0.0,-2.95767,0.0,0.0,-18.28714,-5.75069,14.98975,20.01475,0.68998,-22.43775,-49.87265,-10.9979,0.00208,-22.08764,2.82845,-0.00021,43.5937,25.31579,19.02188,1.69763,-1.73967,-24.34952,0.22488,13.85757,13.32471,62.97319,2.53932,48.0263,44.59999,-0.03101,-84.73994,100.58459,-0.00053,114.06091,-17.76801,-1.56059,-0.02107,-1.85037,2.82662,0.00151,2.769,-8.68249,5.01381,-19.12833,-9.91455,1.43293,8.01132,1.1255,16.91582
685,8.8926,-0.0,0.0,-2.60832,0.0,-0.0,-17.12978,-5.92668,15.43002,20.18897,0.93182,-22.79743,-50.56577,-11.03403,0.00083,-21.86934,2.7891,-0.0002,43.84078,24.66631,18.18743,1.0262,-1.73346,-24.7636,-1.27546,12.98718,17.77181,63.24607,3.92926,50.12456,41.09505,-0.03732,-84.15996,100.06055,0.01592,115.15676,-18.74226,-3.13772,-0.00482,-1.40975,3.06133,0.00843,2.52883,-8.56303,4.68242,-19.36363,-9.68153,1.16962,8.28118,0.78614,17.53509
686,9.34544,0.0,-0.0,-2.58755,0.0,0.0,-16.32724,-6.04336,16.02428,20.41194,1.24485,-22.92895,-51.29547,-10.79719,-0.001,-21.71798,2.7808,1e-05,44.41415,23.62849,17.35394,0.52207,-1.93875,-25.5414,-2.60964,12.58994,22.84371,63.28302,5.19453,52.17805,37.60112,0.01638,-83.16267,99.81666,0.00639,117.88895,-20.82939,-5.07763,0.04386,-1.11595,3.31249,-0.00061,2.66439,-8.22234,4.46132,-19.20849,-9.28386,1.09258,8.82203,0.17526,18.1075
687,9.43859,0.0,-0.0,-2.65268,0.0,-0.0,-15.68349,-6.1693,16.8391,20.60856,1.53692,-22.97692,-52.02987,-10.27182,-0.00296,-21.68735,2.88575,7e-05,45.09855,22.32005,16.71408,0.13827,-2.37732,-26.29404,-3.84501,12.64712,28.22198,63.15165,6.34419,54.07656,34.33099,0.06082,-81.26729,99.74075,-0.00268,119.73468,-24.45565,-6.82231,0.05557,-0.38031,2.95339,-0.01587,3.42352,-7.76324,4.29938,-18.42332,-8.79806,1.11496,9.45369,-0.62557,18.864
688,9.32888,0.0,-0.0,-2.68977,0.0,-0.0,-15.09503,-6.2868,17.65048,20.7328,1.78039,-23.14326,-52.75536,-9.562,-0.00309,-21.77904,3.11252,-2e-05,45.65236,21.02227,16.34546,-0.21145,-2.94214,-26.62919,-5.24692,12.97281,33.92221,62.97988,7.31814,56.0519,31.44343,0.03094,-79.35065,99.65879,0.00081,119.76095,-28.47918,-7.68176,0.00901,0.54787,2.07919,-0.02113,4.65248,-7.37087,4.10709,-17.17372,-8.36295,1.08361,10.0178,-1.3945,19.92724
689,9.70598,0.0,-0.0,-2.71648,0.0,-0.0,-14.63141,-6.23468,18.20022,20.71929,1.97189,-23.44395,-53.44181,-8.86873,-0.00148,-22.01012,3.37749,0.0003,45.99457,19.92603,16.07138,-0.53794,-3.49319,-26.58114,-7.04765,13.43628,40.02268,62.82255,8.02645,58.27457,28.98755,-0.01779,-78.42694,99.45599,0.01187,118.88725,-31.08244,-7.31575,-0.01466,0.81309,1.15503,-0.01564,5.94233,-7.09986,3.76847,-15.87155,-7.98649,0.87032,10.54232,-1.98016,21.22229
690,10.61311,-0.0,-0.0,-2.65159,0.0,-0.0,-14.295,-5.97919,18.41056,20.43413,2.13125,-23.67667,-54.04099,-8.28958,-0.00031,-22.4271,3.58265,0.00109,46.14315,18.99977,15.71934,-0.82686,-3.97604,-26.501,-9.16911,14.123,46.38446,62.69755,8.39741,60.54797,26.88881,-0.03453,-78.42083,99.02877,0.01443,117.84012,-31.53509,-6.09768,0.00828,-0.17785,0.29868,-0.01482,6.96479,-6.86249,3.15469,-14.83958,-7.53977,0.38847,11.11201,-2.41406,22.66459
691,11.6821,0.0,0.0,-2.35856,-0.0,0.0,-14.01034,-5.7255,18.40978,19.78045,2.34011,-23.7258,-54.50887,-7.84115,0.00026,-23.08739,3.72954,0.00098,46.09585,18.17025,15.2757,-1.07977,-4.42452,-26.49101,-11.26029,15.20859,53.00469,62.60266,8.40998,62.50343,25.04959,-0.02499,-78.86628,98.26203,-0.01005,116.05542,-30.69839,-5.03247,0.01661,-2.28621,-0.77335,-0.01824,7.6018,-6.6406,2.19542,-14.19197,-6.97999,-0.42011,11.71537,-2.79148,24.33015
692,12.9041,0.0,-0.0,-1.71275,0.0,0.0,-13.80734,-5.73065,18.40001,18.73406,2.6974,-23.76638,-54.83325,-7.60725,0.00086,-24.04781,3.90915,-0.00098,45.85936,17.48722,14.75357,-1.25163,-4.88076,-26.26164,-12.99739,16.72619,60.21669,62.43293,8.0611,63.91606,23.54128,0.00874,-79.03828,97.10638,-0.0434,112.9697,-30.0794,-4.84088,0.00424,-5.0415,-2.40518,-0.01003,7.87702,-6.52303,0.95109,-13.90376,-6.412,-1.53188,12.30493,-3.12483,26.32298
693,14.17383,0.0,0.0,-0.56218,-0.0,-0.0,-13.7604,-6.01287,18.45897,17.21217,3.26803,-23.94024,-55.04641,-7.646,0.00119,-25.34561,4.15084,-0.00274,45.5144,16.98958,14.10439,-1.27539,-5.35441,-25.76536,-14.35903,18.52432,68.05563,62.00533,7.33047,64.72489,22.64932,0.03829,-77.49458,95.56182,-0.037,109.59502,-30.49716,-5.15395,-0.007,-8.24541,-4.79127,0.0231,7.88111,-6.52745,-0.38624,-13.88121,-5.92327,-2.77461,12.90301,-3.32972,28.51502
694,15.07603,0.0,0.0,1.07572,-0.0,-0.0,-13.88203,-6.27304,18.51572,15.02856,4.06364,-24.03914,-55.17,-7.87885,0.00105,-26.98374,4.37071,-0.00223,45.14083,16.54507,13.25041,-1.17104,-5.85494,-25.49505,-15.63731,20.39328,75.78919,61.21324,6.25742,64.8849,22.63805,0.01177,-73.18798,93.54356,0.00865,107.57039,-31.38599,-5.04664,-0.01015,-11.93716,-7.84199,0.06253,7.6993,-6.57324,-1.58102,-14.03894,-5.52594,-3.89965,13.56349,-3.30621,30.55151
695,15.5558,0.0,-0.0,2.80459,-0.0,-0.0,-14.14884,-6.25807,18.53326,12.01275,5.04069,-23.78671,-55.15055,-8.17407,0.00045,-28.96133,4.49317,-0.00065,44.70018,15.96014,12.19575,-1.00461,-6.43676,-25.81639,-17.17346,22.16634,82.42606,60.11332,4.99647,64.32938,23.52795,-0.0587,-66.72883,90.88165,0.04045,107.09827,-31.39042,-4.18711,0.01405,-15.90355,-11.15678,0.06451,7.37101,-6.60527,-2.47813,-14.34331,-5.2258,-4.7431,14.27353,-3.04968,32.13653
696,15.92994,-0.0,0.0,3.91048,0.0,0.0,-14.49551,-6.09817,18.59479,8.13815,6.16846,-23.22034,-54.90387,-8.45121,-0.00055,-31.29747,4.52103,0.00066,44.07431,15.19895,11.09302,-0.74954,-7.14729,-26.41217,-19.08135,23.7755,87.41982,58.85007,3.69162,63.01736,25.15888,-0.11692,-59.82082,87.51133,0.03971,107.12082,-29.77993,-3.08102,0.03766,-19.53938,-14.25458,0.02321,6.93555,-6.6093,-3.10047,-14.75869,-5.00091,-5.32127,14.93891,-2.68489,33.24352
697,16.44445,-0.0,0.0,3.50137,0.0,0.0,-14.86097,-6.04426,18.75669,3.54566,7.40185,-22.51781,-54.42207,-8.70699,-0.00165,-33.95922,4.48552,0.00265,43.20956,14.41268,10.07686,-0.32863,-7.9004,-26.66496,-21.18855,25.31212,90.77818,57.51254,2.32219,60.9054,27.35182,-0.11412,-54.27187,83.52785,0.04166,106.84657,-27.02601,-2.48396,0.01867,-22.29262,-16.98007,-0.01213,6.43349,-6.54548,-3.68797,-15.23759,-4.72598,-5.8419,15.45139,-2.34439,34.05585
698,17.20842,-0.0,-0.0,0.87934,0.0,0.0,-15.27654,-6.01357,18.88024,-1.61817,8.46811,-21.51554,-53.80092,-8.92102,-0.00166,-36.79627,4.40561,0.006,42.16702,13.74566,9.11413,0.20896,-8.46986,-26.38728,-23.16189,27.01835,92.83083,56.08914,0.74883,57.90378,29.9241,-0.03174,-51.73537,79.01138,0.05641,106.08386,-24.03914,-2.86565,-0.02137,-24.06448,-19.6499,-0.01515,5.86357,-6.34969,-4.56233,-15.76686,-4.22344,-6.57945,15.75444,-2.04511,34.73101
699,18.09168,-0.0,-0.0,-3.90831,-0.0,-0.0,-15.76457,-5.72542,18.74361,-7.36218,8.87888,-19.66903,-53.15843,-8.97748,-0.00046,-39.6386,4.3314,0.00701,41.05997,13.18773,8.07546,0.68862,-8.65057,-25.9289,-24.64911,29.13931,94.08316,54.55764,-1.08855,53.96466,32.66574,0.0783,-53.21734,73.94789,0.03599,104.64946,-21.40988,-4.12574,-0.03616,-24.97009,-22.47046,-0.01509,5.22949,-6.00363,-5.83267,-16.33435,-3.4368,-7.62871,15.85685,-1.71228,35.2028
700,18.63067,0.0,-0.0,-10.10598,0.0,0.0,-16.2056,-5.21921,18.34516,-13.58832,8.38461,-16.6005,-52.53727,-8.8298,-0.0003,-42.4926,4.39724,0.00235,39.97635,12.67038,6.81272,1.03073,-8.39663,-25.61221,-25.36581,31.77563,95.05954,52.96015,-3.09746,49.22532,35.38467,0.1237,-58.22656,68.40842,-0.06039,102.09502,-19.38549,-5.68258,-0.0187,-25.07293,-24.90864,-0.021,4.57649,-5.59493,-7.29964,-16.90198,-2.52118,-8.83812,15.80469,-1.27479,35.24673
701,18.26925,-0.0,0.0,-16.68946,-0.0,-0.0,-16.43757,-4.85861,17.87588,-19.73957,7.32327,-12.41924,-51.8986,-8.57219,-0.00112,-45.63175,4.69228,-0.00101,38.92499,12.21081,5.31469,1.37004,-7.83784,-25.4629,-25.16052,34.85482,95.99478,51.36515,-5.18707,44.00013,38.03679,0.07565,-64.62484,62.69476,-0.16937,98.17602,-18.02341,-6.96455,0.00316,-24.79897,-26.22652,-0.00844,3.94991,-5.28011,-8.71335,-17.43876,-1.71384,-10.03392,15.6295,-0.73703,34.75597
702,16.84901,-0.0,0.0,-22.43624,-0.0,0.0,-16.41377,-4.82922,17.38572,-25.08635,6.31324,-7.49767,-51.218,-8.17742,5e-05,-49.42797,5.11397,0.00373,37.87235,11.87094,3.8885,1.93618,-7.20763,-25.48909,-24.06263,38.16962,96.63928,49.76842,-7.39841,38.58848,40.83926,0.00508,-70.01064,57.1836,-0.17184,93.64553,-17.23599,-7.74648,0.01055,-25.04789,-26.5214,0.01731,3.38694,-5.14506,-10.03582,-17.91059,-1.10872,-11.2118,15.33624,-0.17261,33.87061
703,15.10265,0.0,-0.0,-26.24001,-0.0,0.0,-16.25111,-4.98516,16.73746,-29.23516,5.66182,-2.40189,-50.55397,-7.46379,0.00257,-54.02504,5.55778,0.00392,36.85445,11.66928,2.86706,2.8866,-6.69656,-25.72674,-22.27925,41.50367,96.42129,48.03258,-9.82624,33.10735,44.06731,-0.01006,-73.5719,52.04895,-0.05302,90.07741,-16.93511,-8.04,0.00618,-26.35453,-26.48056,0.03479,2.90051,-5.10596,-11.41259,-18.2926,-0.57535,-12.47583,14.97772,0.37734,32.8153
704,14.43634,-0.0,0.0,-27.97377,0.0,0.0,-16.22314,-5.10191,15.83787,-32.14189,5.29718,2.02136,-49.9603,-6.44771,0.00297,-59.20965,6.124,-0.01147,35.95425,11.62729,2.16345,4.22494,-6.34181,-26.0301,-20.10032,44.78474,94.80611,45.96706,-12.48274,27.52196,47.72,0.01767,-75.9059,47.19422,0.10297,88.63084,-17.16399,-7.96159,-0.00068,-28.4747,-26.11596,0.00804,2.4274,-4.98271,-12.95343,-18.63606,0.09289,-13.8631,14.66456,0.96451,31.70576
705,15.74259,0.0,-0.0,-28.53598,-0.0,-0.0,-16.60597,-4.96283,14.73911,-33.93156,5.25675,4.91461,-49.34726,-5.47581,-3e-05,-64.62325,6.89228,-0.01819,35.16841,11.83333,1.40731,5.87203,-6.06633,-26.16649,-17.73214,48.03939,91.60046,43.50422,-15.28496,21.78908,51.5745,0.00746,-77.27663,42.42656,0.20539,89.19721,-17.96065,-7.78242,-0.00165,-30.87661,-24.65148,-0.0594,1.88243,-4.65863,-14.62214,-19.0272,0.99103,-15.2996,14.45043,1.66215,30.54789
706,18.49428,0.0,-0.0,-28.77213,-0.0,-0.0,-17.38485,-4.39649,13.5735,-34.91922,5.9136,5.83367,-48.53457,-4.91324,-0.00582,-70.04034,7.66998,0.00631,34.42957,12.36687,0.40046,7.83008,-5.81791,-26.05198,-15.14266,51.27934,87.03064,40.71341,-18.16232,15.90262,55.40691,-0.05342,-77.20355,37.69846,0.17775,90.36726,-19.22692,-7.78166,0.00301,-32.96042,-21.92452,-0.0818,1.2685,-4.12446,-16.36834,-19.46851,2.10926,-16.73758,14.28698,2.47204,29.32727
707,21.34023,0.0,-0.0,-28.89331,0.0,-0.0,-18.24261,-3.5394,12.40283,-35.52068,7.39013,4.97767,-47.46529,-4.72888,-0.00842,-75.44767,8.26047,0.02898,33.70954,13.14856,-0.65583,10.17417,-5.70022,-25.67642,-11.95339,54.56108,81.39972,37.59258,-21.10931,9.72811,58.92817,-0.07837,-75.72313,33.20357,0.02032,90.00502,-20.8764,-7.9329,0.00282,-33.82257,-19.12967,-0.03166,0.64221,-3.43044,-18.20533,-19.90293,3.40491,-18.20996,14.08184,3.2986,28.02986
708,23.17828,0.0,0.0,-28.89058,0.0,0.0,-18.88033,-2.87851,11.12969,-36.00853,8.9482,3.17188,-46.28772,-4.47498,-0.00286,-80.93842,8.8672,0.00011,32.99794,13.91896,-1.29302,12.89401,-5.97989,-24.82763,-7.51189,57.97371,74.60139,33.9919,-24.04832,2.90261,61.74228,-0.0347,-73.85937,29.14894,-0.13058,86.76279,-22.7114,-7.88361,-0.00466,-32.71005,-17.69944,-0.00894,-0.00327,-2.69751,-20.02028,-20.34889,4.72476,-19.65577,13.76047,3.99144,26.65723
709,23.4157,0.0,0.0,-28.83126,-0.0,-0.0,-19.20889,-2.73903,9.62169,-36.42257,9.45635,1.50147,-45.19523,-3.7847,0.0041,-86.54073,9.82806,-0.05424,32.26037,14.46802,-1.18915,15.86947,-6.84943,-23.22045,-1.24041,61.41956,66.16277,29.84546,-26.72837,-4.727,63.65745,0.00687,-72.36367,25.52641,-0.14861,81.45885,-23.98592,-7.21103,0.0021,-30.13767,-17.91741,-0.03229,-0.72813,-2.0974,-21.52693,-20.89968,5.80899,-20.8653,13.30883,4.46218,25.26988
710,22.19645,0.0,0.0,-28.90931,-0.0,0.0,-19.31668,-2.88388,7.8471,-36.56793,8.54384,0.67166,-44.24313,-2.76272,0.00565,-92.11237,10.93469,-0.05352,31.48054,14.89947,-0.46084,18.94892,-8.171,-21.05805,7.04922,64.5478,55.75106,25.33785,-28.92498,-12.51527,64.91319,0.01157,-71.13081,22.22912,-0.05841,76.2693,-23.84148,-5.84032,0.03039,-27.85274,-19.00229,-0.02505,-1.53808,-1.68613,-22.57925,-21.58321,6.55678,-21.71649,12.76348,4.80291,23.90618
711,20.53406,0.0,-0.0,-29.3733,-0.0,-0.0,-19.32199,-2.86031,5.86142,-36.23483,7.01342,0.67671,-43.35739,-1.77656,0.00384,-97.41133,11.5398,0.00506,30.68292,15.53663,0.52361,21.9555,-9.64101,-18.99367,17.12788,66.98533,43.46127,20.69583,-30.68196,-19.27541,65.93803,0.0083,-70.2981,19.23629,0.03124,72.63905,-22.41474,-4.32896,0.03571,-27.18572,-20.00029,0.0009,-2.3599,-1.31458,-23.31113,-22.31848,7.15618,-22.28093,12.16516,5.2271,22.43949
712,19.39824,0.0,-0.0,-30.11122,-0.0,-0.0,-19.21811,-2.50029,3.79945,-35.60471,5.98313,1.12394,-42.45106,-1.07905,0.00181,-102.25448,11.39496,0.04487,29.86938,16.55625,1.47287,24.70078,-11.15075,-17.30323,28.52342,68.54308,29.67399,15.90645,-32.21425,-24.29177,66.94415,0.01178,-70.42641,16.63932,0.05376,70.44531,-20.8184,-3.36893,0.0102,-27.83953,-20.36087,0.00167,-3.1215,-0.8182,-23.87849,-23.02168,7.81619,-22.64816,11.51644,5.8687,20.64736
713,19.07685,0.0,-0.0,-30.86589,-0.0,-0.0,-18.9867,-1.93077,1.89997,-35.08992,5.8495,1.67198,-41.46561,-0.778,-0.00097,-106.56818,10.88903,0.03102,28.96853,17.86759,2.18907,27.07335,-12.76772,-15.5406,40.69127,69.17266,14.92178,10.77578,-33.60963,-27.95316,67.83827,0.00978,-71.51396,14.61487,0.02865,68.70949,-19.9577,-3.10759,-0.00474,-28.5083,-20.23238,-0.00539,-3.81052,-0.22922,-24.30376,-23.67817,8.51468,-22.84978,10.75257,6.71794,18.42547
714,19.7013,-0.0,0.0,-31.9062,-0.0,-0.0,-18.86227,-1.35924,0.3708,-34.77679,6.17997,2.04345,-40.35366,-0.89624,-0.00397,-110.31192,10.479,-0.00203,27.93087,19.31746,2.57127,29.13703,-14.47798,-13.14069,52.92426,68.84299,0.09576,5.25511,-34.70803,-31.31553,68.45982,0.00228,-73.20094,13.31956,0.00981,66.87631,-19.82217,-3.37495,-0.00169,-28.51673,-20.15977,-0.00467,-4.43399,0.30074,-24.59615,-24.2871,9.11246,-22.94588,9.79281,7.73155,15.82462
715,21.28158,-0.0,-0.0,-33.63648,0.0,0.0,-19.21638,-0.86558,-0.78334,-34.44308,6.29225,1.8789,-39.11481,-1.30344,-0.00393,-113.4178,10.21307,-0.01338,26.90258,20.85276,2.8061,31.16008,-16.14426,-10.05764,64.29414,67.5826,-13.56418,-0.33206,-35.28736,-35.15353,68.79442,-0.00163,-75.51963,12.72869,0.00935,65.51328,-19.80523,-4.16677,-0.00113,-28.61318,-20.20204,-0.00546,-4.93075,0.69177,-24.79583,-24.77655,9.54806,-23.00165,8.68678,8.90608,12.93318
716,22.98267,0.0,0.0,-36.00541,0.0,0.0,-20.1278,-0.35729,-1.60946,-34.01265,5.77207,1.03424,-37.84525,-1.81314,-0.00092,-115.80649,9.80911,0.00122,26.16559,22.47227,3.27072,33.4395,-17.69042,-6.67129,74.14027,65.53542,-25.19377,-5.50183,-35.28259,-39.6842,68.95019,-0.00143,-78.65202,12.66876,0.00372,65.65929,-19.38508,-5.5198,-0.01096,-29.90827,-19.86495,-0.02366,-5.20118,0.94164,-24.89459,-25.04701,9.81661,-23.00982,7.62732,10.21655,9.86484
717,23.37127,0.0,0.0,-38.67355,-0.0,0.0,-21.28869,0.1376,-1.94736,-33.72049,4.63917,-0.02239,-36.6765,-2.38236,0.00141,-117.39612,8.97287,0.02014,25.80767,24.12568,4.13378,35.99514,-19.22525,-3.31233,82.42224,62.85218,-34.808,-10.05585,-34.74054,-44.88995,69.00346,-0.00245,-82.33518,12.97862,-0.01451,67.71313,-18.56825,-7.20065,-0.01543,-32.30558,-18.9169,-0.04055,-5.30666,1.07435,-24.8798,-25.16249,9.93642,-22.94996,6.7253,11.54618,6.78596
718,21.99225,0.0,-0.0,-41.15315,-0.0,0.0,-22.42743,0.33923,-1.61001,-33.90898,3.37025,-0.73895,-35.64323,-3.05791,0.00164,-118.07106,7.47324,0.01949,25.6127,25.75966,5.29926,38.54346,-20.90022,-0.23511,89.48248,59.67215,-43.05331,-14.13401,-33.71526,-50.44469,68.95865,-0.00389,-85.66969,13.48998,-0.02435,70.99084,-17.77096,-8.74723,-0.00626,-34.49002,-17.69906,-0.02292,-5.52773,1.20027,-24.8338,-25.39781,10.03922,-22.8626,5.9015,12.76811,3.81713
719,20.06488,0.0,-0.0,-43.12973,0.0,0.0,-23.5773,0.04568,-0.70939,-34.66643,2.74526,-1.43679,-34.65313,-3.82788,-4e-05,-117.73342,5.11804,-0.01338,25.29243,27.44192,6.7357,40.84513,-22.67817,2.23282,95.71912,56.22808,-50.69432,-17.90664,-32.35587,-55.57068,68.84293,-0.00064,-87.63453,13.9164,-0.01274,74.11806,-17.33744,-9.81928,0.00192,-35.27377,-16.74152,0.00459,-6.04226,1.50476,-24.84613,-25.92915,10.32976,-22.76918,5.03582,13.88075,0.98403
720,18.73033,0.0,-0.0,-44.5857,0.0,1e-05,-24.73148,-0.60395,0.43882,-35.57614,3.25481,-2.93279,-33.6074,-4.65802,-0.00295,-116.4273,2.04196,-0.05891,24.6526,29.29696,8.55454,42.91133,-24.37407,4.08878,101.3447,52.74835,-58.06614,-21.42519,-30.93305,-59.64044,68.70699,0.00443,-88.09993,13.9825,0.00078,76.09303,-17.21561,-10.42504,-0.00102,-34.56211,-16.33464,0.00779,-6.64827,2.0833,-24.86452,-26.56937,10.87999,-22.58638,4.05685,14.99053,-1.70122
721,17.78901,0.0,0.0,-45.01662,0.0,0.0,-25.63592,-1.22446,1.53652,-35.80878,4.47037,-5.19364,-32.50455,-5.493,-0.00398,-114.33563,-1.01684,-0.06704,23.66974,31.25375,10.77159,44.80679,-25.95953,5.98783,106.21468,49.2184,-64.7538,-24.68323,-29.63024,-62.88633,68.5057,0.0049,-88.04739,13.70154,0.00334,77.14806,-16.90962,-10.64871,-0.00494,-33.22078,-16.33811,-0.00132,-6.96472,2.83639,-24.77423,-26.94974,11.5571,-22.23795,2.93585,16.1756,-4.25717
722,16.8908,0.0,0.0,-43.59785,0.0,-0.0,-26.14267,-1.48946,2.34426,-34.59182,5.36128,-7.2861,-31.39409,-6.17346,-0.0015,-111.63999,-3.04611,-0.00345,22.55746,32.96927,13.18444,46.45238,-27.70637,8.75912,109.94969,45.38419,-69.92798,-27.6719,-28.39925,-66.18831,68.07205,-0.00241,-88.49847,13.36737,0.00136,78.23441,-15.85169,-10.29673,0.0079,-32.27586,-16.36888,-0.0054,-6.80502,3.54443,-24.56159,-26.87096,12.14963,-21.78638,1.72739,17.40986,-6.79158
723,16.24689,0.0,-0.0,-40.94186,0.0,0.0,-26.31265,-1.32141,2.77743,-31.89334,5.56624,-8.65933,-30.28364,-6.56595,0.00073,-108.37492,-3.55689,0.10593,21.56466,34.1074,15.47042,47.76914,-29.91862,12.65792,112.38614,41.0178,-73.16073,-30.40413,-27.09711,-70.12289,67.2625,-0.01126,-89.57111,13.20326,-0.00088,79.35812,-14.06471,-9.16438,0.02766,-32.12596,-16.33175,-0.00525,-6.31666,4.02523,-24.27482,-26.4585,12.50278,-21.34218,0.52741,18.62906,-9.36331
724,16.03035,0.0,-0.0,-39.7291,0.0,0.0,-26.15475,-0.84181,2.96456,-28.95107,5.75727,-9.5367,-29.1415,-6.71209,5e-05,-104.30036,-3.16901,0.16873,20.67436,34.66652,17.3916,48.83495,-32.58323,16.94388,113.84589,36.20742,-74.82169,-32.91291,-25.70021,-74.51314,66.16602,-0.01023,-90.71444,13.13053,-0.00351,79.24497,-12.15984,-7.55567,0.02413,-32.43108,-16.61846,-0.00241,-5.86668,4.23532,-23.88083,-26.07825,12.56443,-20.89009,-0.65596,19.87607,-11.88141
725,16.33111,0.0,0.0,-42.00747,0.0,0.0,-25.64036,-0.32398,3.00406,-27.90599,6.36555,-9.85462,-27.95452,-6.68285,-0.0005,-98.89948,-3.32747,0.08429,19.71428,34.97169,18.94763,49.67592,-35.42397,20.01895,114.87246,31.45959,-75.64211,-35.19869,-24.31949,-78.92256,65.18534,-0.00245,-91.32017,12.92123,-0.00965,77.33199,-10.62367,-6.14486,0.00361,-32.70847,-17.58764,-0.00195,-5.754,4.22038,-23.26749,-26.04593,12.33869,-20.3077,-1.85913,21.34066,-14.31206
726,17.25951,-0.0,0.0,-44.71033,0.0,0.0,-24.84352,-0.08164,2.759,-30.41322,6.72813,-8.79626,-26.72825,-6.43432,0.0018,-91.67699,-5.0939,-0.12294,18.66057,35.34544,20.33255,50.05596,-38.26701,20.4708,115.78963,27.39639,-76.10966,-37.24608,-23.08189,-83.11875,64.81142,-0.00456,-91.02592,12.47802,-0.00838,74.91372,-9.51373,-5.32613,-0.00742,-32.77176,-19.10174,-0.0071,-5.95689,4.0177,-22.39757,-26.34555,11.84704,-19.54771,-2.98676,23.17195,-16.85522
727,18.25387,0.0,0.0,-38.36383,0.0,0.0,-23.8139,-0.24368,2.04875,-36.12382,6.12572,-6.43908,-25.4575,-5.94932,0.00387,-82.58119,-8.16695,-0.27966,17.62268,35.85023,21.65609,49.68643,-41.15208,18.2081,116.57749,24.20472,-76.34238,-39.11078,-22.0325,-87.39115,65.20953,-0.01284,-90.0915,11.9549,0.00073,74.14352,-8.66163,-5.01696,-0.00448,-32.56339,-20.59011,-0.01264,-6.17547,3.71407,-21.38455,-26.66737,11.20955,-18.68936,-3.8301,25.26113,-19.74468
728,17.84872,0.0,0.0,-9.41157,0.0,0.0,-22.45927,-0.75983,0.94203,-41.37144,5.96092,-5.2375,-24.1394,-5.37711,0.0021,-72.1516,-11.34827,-0.28233,16.6522,36.35134,22.71207,48.57582,-44.10917,14.20446,117.11259,21.44424,-76.30134,-40.80793,-21.06481,-93.10017,66.06325,-0.00787,-89.42963,11.6638,-0.01817,77.11177,-7.79006,-5.07648,-0.00095,-31.94573,-21.37029,-0.00399,-6.13439,3.49453,-20.37679,-26.72995,10.65102,-17.80861,-4.31485,27.27946,-22.90318
729,15.24026,0.0,-0.0,48.1585,0.0,0.0,-20.78569,-1.55235,-0.25217,-39.3591,9.41342,-8.32452,-22.77107,-4.88837,-0.00061,-61.21102,-13.61633,-0.16141,15.65897,36.68426,23.31285,47.15905,-46.98659,9.55893,117.43493,18.5104,-75.96547,-42.09896,-19.9963,-102.29752,66.89594,0.00307,-89.79292,11.89156,-0.04966,85.18688,-6.6457,-5.55345,-0.00599,-30.8548,-21.09203,0.02468,-5.81024,3.42008,-19.43079,-26.50688,10.2484,-16.93677,-4.66998,28.90906,-25.8364
730,12.03749,0.0,0.0,94.25044,0.0,0.0,-19.19021,-2.41648,-1.23048,-23.53914,15.57936,-17.48406,-21.3288,-4.48079,0.00072,-50.27961,-14.28817,0.06373,14.458,36.76239,23.78958,46.06455,-49.49534,5.29374,117.69485,15.20437,-75.36,-42.65656,-18.84767,-115.63475,67.47361,0.00588,-91.24655,12.71609,0.09515,97.32687,-5.24185,-6.44985,-0.01242,-29.42782,-20.04658,0.04835,-5.31773,3.28561,-18.50524,-26.10452,9.79542,-16.10766,-5.27746,30.04568,-27.92203
731,11.01993,0.0,0.0,98.48206,0.0,0.0,-18.24859,-2.96246,-1.87352,3.36605,17.16904,-29.04586,-19.83182,-4.06884,0.00397,-39.5105,-12.96824,0.30211,12.96674,36.70826,24.57383,45.51611,-51.3859,2.04025,117.89384,11.7231,-74.51009,-42.5878,-17.89829,-130.27962,67.81934,0.00198,-93.54341,13.78933,0.53823,108.82815,-3.87539,-7.5345,-0.00956,-27.67235,-19.12955,0.02581,-4.68762,2.90585,-17.50119,-25.55355,9.08401,-15.2946,-6.32787,30.88003,-28.95517
732,12.6957,0.0,0.0,65.81684,0.0,0.0,-18.13182,-3.01427,-2.18266,24.87899,13.62136,-32.70707,-18.40953,-3.70692,0.00325,-29.5534,-10.10614,0.33359,11.33163,36.83794,25.39052,45.12857,-52.59476,-0.55741,117.83649,8.28499,-73.39423,-42.51731,-17.28832,-140.14131,67.98495,-0.0028,-96.51225,14.40111,0.6891,113.27127,-2.87256,-8.51542,-0.00082,-25.28496,-19.48511,-0.06344,-3.9497,2.36486,-16.29649,-24.90134,8.14916,-14.35285,-7.66921,31.74717,-29.41648
733,14.59513,-0.0,0.0,21.91009,-0.0,-0.0,-18.42789,-2.93477,-2.0702,28.60273,10.45538,-27.48306,-17.21996,-3.56726,-0.00088,-21.96998,-7.08759,0.12054,9.81013,37.39169,25.54334,44.73648,-53.20704,-3.23248,117.32342,5.04211,-71.98817,-43.18603,-16.97603,-137.2977,68.02691,0.00098,-99.99522,13.46355,-0.81376,104.33719,-2.36839,-9.25694,0.00454,-22.60879,-21.96963,-0.13557,-3.35725,1.87986,-14.80194,-24.41757,7.161,-13.12147,-8.94571,32.80439,-30.06753
734,14.3916,-0.0,0.0,-1.16248,-0.0,-0.0,-18.62665,-3.24726,-1.24885,13.88938,6.22815,-19.94192,-16.30765,-3.70946,-0.00356,-18.10917,-5.32895,-0.07042,8.64845,38.32691,24.80898,45.08338,-53.20724,-5.79374,116.331,2.21046,-70.47154,-45.27666,-17.4467,-113.96258,68.13365,0.01363,-103.40157,8.61096,-4.0978,75.52604,-2.28939,-9.74653,0.00421,-21.49351,-26.24854,-0.07035,-3.30754,1.66877,-13.02872,-24.49945,6.32525,-11.53333,-9.8249,33.87852,-31.21998
735,12.41089,0.0,0.0,-2.8816,0.0,-0.0,-18.6304,-3.96706,0.5644,-8.33236,1.32472,-15.91321,-15.57999,-3.99637,-0.00345,-17.91806,-5.37985,-0.0661,7.97916,39.40722,23.51256,47.16603,-52.36121,-6.90925,115.02935,-0.06537,-69.27382,-47.799,-19.78436,-74.24754,68.53746,0.01075,-105.43429,-0.04671,-4.1093,31.48033,-2.41107,-9.95222,0.00137,-23.5679,-30.22394,-0.0475,-4.04398,1.97233,-11.16438,-25.37497,5.93238,-9.67608,-10.26206,34.65106,-32.36861
736,10.62955,0.0,0.0,6.28613,-0.0,0.0,-18.71681,-4.58874,3.16779,-24.30209,0.90236,-14.16813,-14.92361,-4.21082,-0.0016,-20.05136,-6.73782,0.01369,7.6946,40.45566,22.10089,50.85385,-50.4181,-5.6201,113.564,-1.95737,-68.65565,-48.69615,-21.97508,-44.19386,69.35927,-0.0125,-105.25243,-4.50057,-0.85336,-1.32349,-2.43558,-9.91137,-0.00047,-27.35936,-31.80687,-0.14501,-5.46126,2.92451,-9.63975,-26.91575,6.2633,-7.90043,-10.55849,34.97334,-32.58841
737,10.20631,0.0,0.0,15.42413,-0.0,0.0,-19.07964,-4.74553,5.74351,-29.50393,5.92774,-13.01098,-14.3141,-4.14767,0.00106,-22.73215,-8.4007,0.0256,7.48958,41.40892,21.1386,54.69154,-47.52117,-2.75495,111.88463,-3.76629,-68.42122,-49.42437,-21.58853,-41.21132,70.6223,-0.01911,-103.79739,-3.68711,-0.94622,-8.40208,-2.23982,-9.82876,-0.00136,-29.23898,-30.98272,-0.06133,-7.06566,4.33882,-8.87613,-28.61775,7.29984,-6.66433,-11.00329,34.94281,-31.41308
738,10.78199,0.0,0.0,14.34208,0.0,-0.0,-19.52965,-4.5452,7.53233,-27.00718,13.71588,-14.9197,-13.80689,-3.69089,0.00252,-24.73213,-9.84239,-0.00906,7.10724,42.11383,21.18515,57.56424,-44.34221,-0.08205,109.93655,-5.47503,-68.28834,-49.92133,-18.31137,-66.14053,72.23375,0.00202,-102.68139,1.3932,-3.98404,9.12144,-2.02229,-9.76928,-0.00217,-27.1706,-29.10461,0.0876,-8.19361,5.7408,-8.75907,-29.82239,8.56057,-6.034,-11.57012,34.68848,-29.32141
739,11.69096,0.0,0.0,-3.41655,0.0,-0.0,-19.75789,-4.30182,8.5616,-20.98875,19.4418,-19.42259,-13.45683,-2.94745,0.00147,-25.97577,-11.42829,-0.02263,6.53277,42.30248,22.18199,59.73571,-41.52466,1.32301,107.82942,-6.74468,-68.25214,-47.96016,-14.89134,-96.25777,74.0015,0.01538,-102.32399,7.64595,-5.02194,31.5733,-1.97875,-9.51564,-0.00265,-21.49906,-28.15046,-0.08639,-8.50722,6.68068,-8.67792,-30.19389,9.40432,-5.60691,-12.03853,34.19317,-27.32176
740,12.92198,0.0,0.0,-31.55008,0.0,0.0,-19.74875,-4.22794,9.41399,-15.49333,20.52008,-21.88586,-13.24753,-2.19972,-7e-05,-27.14587,-13.67083,-0.00392,5.93317,41.8744,23.34344,61.84101,-39.32145,1.60401,105.67287,-7.37047,-68.40999,-46.55539,-14.34357,-96.47331,75.82072,0.00384,-102.1733,7.49119,-5.45653,27.56115,-1.97352,-8.99154,-0.00143,-14.29816,-29.80901,-0.3917,-8.24139,7.04402,-8.25927,-29.96513,9.58818,-5.07912,-12.23617,33.39725,-26.14983
741,14.72853,0.0,0.0,-51.01798,0.0,0.0,-19.7181,-4.32437,10.40972,-12.67911,18.98621,-20.37618,-13.10315,-1.6305,-0.00023,-28.79377,-16.36059,0.01616,5.5359,41.09887,23.80377,63.71483,-37.82429,1.51822,103.44281,-7.58588,-68.68448,-47.13734,-15.61027,-69.75529,77.71393,-0.01809,-101.90453,1.33315,-4.90295,-1.29851,-1.74053,-8.43746,0.00052,-8.94834,-32.74962,-0.31113,-7.87778,7.03536,-7.73131,-29.61762,9.38612,-4.58888,-12.10709,32.50539,-25.89225
742,16.8578,0.0,-0.0,-55.56151,0.0,-0.0,-19.75372,-4.45664,11.32304,-12.01289,17.40518,-17.4261,-12.99528,-1.20403,0.00015,-31.07829,-18.81863,0.02382,5.57781,40.44179,23.14633,64.7037,-37.06327,1.51585,101.05952,-7.87059,-68.8688,-47.78305,-16.44767,-53.01874,79.65757,-0.03331,-101.71374,-2.03009,-3.26066,-18.00362,-1.23499,-8.07429,0.00031,-7.88554,-33.28915,-0.17354,-7.73653,6.95497,-7.47122,-29.47908,9.21583,-4.37607,-11.68009,31.97526,-26.24006
743,18.52371,0.0,-0.0,-52.17295,-0.0,-0.0,-19.69576,-4.52354,11.73939,-12.29979,16.31969,-15.74771,-13.00004,-0.81113,-0.00028,-34.17738,-20.68293,0.03791,6.1033,40.10246,21.49288,64.69116,-36.92196,1.72291,98.4878,-8.4815,-68.8667,-47.75422,-14.35724,-69.79559,81.55712,-0.02308,-102.18099,1.13617,-5.30336,-0.776,-0.59951,-7.92147,-0.00126,-10.16136,-29.80867,-0.2356,-7.85182,7.00363,-7.51607,-29.59603,9.27752,-4.3997,-11.08073,31.98794,-26.99922
744,18.98545,-0.0,-0.0,-47.60733,0.0,0.0,-19.31816,-4.56115,11.48166,-12.81493,15.50072,-16.25967,-13.2008,-0.41336,-0.00122,-38.41668,-21.90708,0.04114,6.81135,39.80885,19.35519,64.29311,-37.20348,2.5938,95.77591,-9.22972,-68.72769,-44.93496,-11.13718,-107.50469,83.38406,0.02028,-104.12717,9.51004,-5.61008,38.03465,-0.00751,-7.91454,-0.0016,-12.67677,-24.62047,-0.1581,-7.96724,7.13383,-7.62635,-29.71621,9.439,-4.45383,-10.52291,32.18633,-28.23881
745,18.31064,0.0,-0.0,-44.24976,0.0,-0.0,-18.58737,-4.71695,10.79098,-13.24066,15.05752,-18.69061,-13.55873,-0.06704,-0.0013,-43.67141,-22.27797,-0.0026,7.30699,39.21372,17.41201,64.2139,-37.69955,4.74784,93.02864,-9.74323,-68.45692,-41.83265,-10.57171,-127.34958,85.19686,0.06751,-107.80914,13.53484,-3.35805,58.14417,0.23253,-8.10056,0.00222,-13.24824,-21.35215,-0.04026,-7.72371,7.09316,-7.61326,-29.47056,9.39642,-4.45688,-10.14543,32.14716,-29.88809
746,17.51972,0.0,0.0,-41.88337,0.0,0.0,-17.74135,-5.07033,10.07881,-13.72293,14.84519,-21.89698,-13.9301,0.14159,-0.00052,-48.96789,-21.57032,-0.05053,7.44373,38.33862,16.28826,64.69879,-38.09764,8.02326,90.32059,-9.84211,-67.98307,-40.79676,-11.01651,-119.76509,87.04245,0.07047,-112.11309,12.20968,-3.90854,49.21058,-0.14745,-8.70833,0.00963,-11.64924,-21.19504,-0.05797,-7.07239,6.71017,-7.45838,-28.80079,8.98372,-4.45589,-9.86117,31.83455,-31.42504
747,17.52588,0.0,-0.0,-40.1656,0.0,-0.0,-17.0455,-5.51283,9.55765,-14.97549,14.09063,-24.14845,-14.22117,0.16358,6e-05,-53.24197,-19.9223,-0.0535,7.34792,37.48211,16.19161,65.5025,-38.07251,11.49176,87.6366,-9.5877,-67.34045,-40.63195,-11.33799,-105.98131,88.91199,0.01561,-115.07295,9.30065,-4.26666,32.65771,-0.82509,-9.84022,0.00805,-9.31823,-22.3587,-0.06659,-6.39933,6.09521,-7.24085,-28.0994,8.33241,-4.48288,-9.43202,31.42903,-32.21199
748,18.2963,0.0,0.0,-40.40425,-0.0,-0.0,-16.54311,-5.84685,9.2167,-17.37978,12.40928,-24.49016,-14.47675,-0.00831,0.00039,-56.30904,-17.72463,-0.03849,7.24769,36.81333,16.66558,66.25478,-37.603,14.4921,84.91499,-9.07456,-66.71474,-39.98247,-10.9125,-107.61402,90.76884,-0.05136,-115.4377,9.29139,-3.02451,32.52614,-1.15453,-11.12663,-0.00333,-8.1357,-22.78236,-0.02946,-6.12404,5.52092,-7.12057,-27.79766,7.75455,-4.58491,-8.66418,30.96299,-32.10079
749,19.26442,-0.0,0.0,-44.6449,0.0,0.0,-16.10475,-5.87346,8.93254,-20.19088,10.72525,-23.5222,-14.78851,-0.33167,0.0007,-58.69432,-15.59701,-0.02436,7.32583,36.20132,17.06762,66.8222,-36.99123,16.80785,82.14125,-8.34736,-66.25562,-38.83236,-10.21741,-117.99397,92.52452,-0.06997,-113.72458,11.02341,-1.25169,44.36301,-1.06107,-12.00368,-0.00634,-8.75836,-22.25539,-0.0131,-6.3094,5.1498,-7.29758,-27.95928,7.4747,-4.88838,-7.55074,30.29523,-31.51685
750,19.92317,0.0,-0.0,-51.63015,0.0,0.0,-15.58625,-5.50659,8.60773,-22.33422,10.4884,-22.37551,-15.18317,-0.71195,0.0008,-60.91241,-14.38261,0.00382,7.65353,35.42622,17.17846,67.3125,-36.50776,18.07247,79.34565,-7.51172,-65.91021,-37.9689,-9.78206,-122.32928,94.02795,-0.03154,-111.77258,11.95305,-0.01684,52.93719,-0.95173,-12.31701,-0.00174,-10.35663,-21.63154,-0.00408,-6.74178,4.88553,-7.79656,-28.3622,7.41232,-5.45261,-6.28636,29.34434,-30.94839
751,19.94948,0.0,0.0,-55.99206,0.0,0.0,-14.88667,-4.92214,8.36739,-23.33148,11.83503,-21.66107,-15.63918,-1.06435,0.00086,-63.24646,-14.58768,0.04461,8.21998,34.45662,17.06555,67.81994,-36.13871,17.84803,76.52606,-6.7257,-65.43619,-37.42448,-9.59886,-118.31805,95.19575,0.01732,-111.26865,11.84663,0.27282,53.62731,-0.95884,-12.34868,0.0015,-11.81451,-21.46708,0.00656,-7.21177,4.49851,-8.33087,-28.79388,7.24852,-6.09547,-5.09003,28.2552,-30.55159
752,19.31624,0.0,0.0,-53.54036,-0.0,0.0,-13.99445,-4.37631,8.42438,-23.32138,13.16729,-21.38708,-16.12896,-1.34923,0.00088,-65.85571,-15.85576,0.06724,8.95153,33.45557,16.78495,68.2403,-35.69255,16.19227,73.69207,-6.03623,-64.6003,-36.81973,-9.75771,-109.93744,96.09189,0.03534,-112.35052,11.16255,0.11883,48.64311,-0.96138,-12.36568,0.00216,-12.57835,-21.8857,0.01118,-7.63266,3.92228,-8.56836,-29.17896,6.79967,-6.53079,-4.02707,27.30749,-30.18182
753,18.38562,0.0,0.0,-45.10715,-0.0,-0.0,-13.029,-3.95123,8.68639,-22.80022,12.80019,-21.33452,-16.5961,-1.50706,0.00025,-68.73667,-17.12692,0.03985,9.64962,32.54974,16.50624,68.29981,-35.05172,13.87684,70.92865,-5.32046,-63.41222,-35.93303,-10.15057,-101.22459,96.85804,0.02063,-113.54348,10.42161,-0.01995,41.82758,-1.03356,-12.4183,0.00171,-12.71833,-22.55406,0.00883,-8.05765,3.38415,-8.52965,-29.58296,6.28492,-6.69345,-3.09351,26.65223,-29.59708
754,17.58708,-0.0,-0.0,-35.51698,0.0,0.0,-12.12771,-3.68563,8.77256,-22.18967,10.62088,-21.50251,-16.96626,-1.43824,-0.00073,-71.64658,-17.3706,-0.01912,10.05439,31.68217,16.5392,67.7584,-34.28019,11.95407,68.25823,-4.37543,-62.06606,-34.70638,-10.4837,-95.18315,97.64656,-0.00634,-113.34879,10.15392,-0.05657,37.86818,-1.33539,-12.38892,0.00025,-12.93874,-22.53572,-0.01379,-8.5896,3.14597,-8.50236,-30.10664,6.05336,-6.75584,-2.35588,26.1829,-28.71034
755,17.05588,0.0,-0.0,-29.57775,-0.0,0.0,-11.30505,-3.69635,8.55856,-21.65256,8.00051,-22.08207,-17.21878,-1.15644,-0.00099,-74.2446,-16.38755,-0.04904,10.05899,30.70252,16.98782,66.68307,-33.5033,10.93185,65.51321,-3.06568,-60.61505,-33.20149,-10.74302,-92.24938,98.55847,-0.02475,-111.61597,10.44493,-0.06819,39.63259,-1.77499,-12.06042,-0.00151,-14.16795,-21.02339,-0.0725,-9.17332,3.12938,-8.5177,-30.68905,6.04354,-6.7763,-1.8672,25.66885,-27.70592
756,16.67921,0.0,-0.0,-28.33438,-0.0,-0.0,-10.52253,-3.93529,8.4494,-21.35289,6.32409,-23.00758,-17.4072,-0.87397,-0.00038,-76.33579,-14.92337,-0.02947,9.78346,29.55222,17.57303,65.44249,-32.72169,10.37846,62.49107,-1.48152,-58.90926,-31.61141,-11.21903,-89.90208,99.57301,-0.02205,-109.30231,10.83864,-0.04097,45.42767,-2.07647,-11.36788,-0.00043,-16.38453,-18.37435,-0.09614,-9.64682,2.9707,-8.25863,-31.16769,5.80102,-6.59285,-1.5365,24.98127,-26.79333
757,16.21721,0.0,0.0,-29.47775,0.0,-0.0,-9.78844,-4.04732,8.91231,-21.43941,5.89545,-23.88487,-17.61552,-0.80633,0.00065,-77.92751,-13.86145,0.0032,9.46369,28.34576,17.89516,64.34122,-31.80605,9.47215,59.23556,0.07119,-56.92218,-30.1384,-12.02356,-85.50843,100.56315,-0.00388,-107.49721,10.89048,-0.00109,50.89861,-2.11594,-10.59578,0.0016,-18.5016,-15.93254,-0.04032,-10.01155,2.47867,-7.62338,-31.54136,5.1105,-6.18124,-1.17651,24.20559,-25.90514
758,15.53994,0.0,-0.0,-30.35853,0.0,0.0,-9.14283,-3.7229,9.91155,-21.91689,6.21017,-24.33298,-17.91105,-0.95188,0.00126,-79.11108,-13.37814,0.01635,9.29822,27.23493,17.79601,63.40458,-30.68873,7.9413,56.0564,1.41131,-54.87335,-28.7545,-12.96114,-78.94282,101.41396,0.00944,-106.64922,10.6569,0.00133,53.3338,-2.04548,-10.00955,0.0015,-19.74568,-14.76786,0.01482,-10.40042,1.84045,-6.95227,-31.93691,4.27068,-5.79035,-0.68249,23.51157,-24.81355
759,14.95772,0.0,0.0,-29.95839,-0.0,-0.0,-8.6407,-3.06617,10.89844,-22.75306,6.71406,-24.24364,-18.29849,-1.1247,0.00053,-79.97202,-13.01749,0.01167,9.31052,26.17611,17.51007,62.50426,-29.50133,6.2945,53.21079,2.74349,-52.9147,-27.2298,-13.81247,-71.86642,102.13339,0.00725,-106.34798,10.51739,-0.00546,52.75961,-2.07017,-9.51754,0.00064,-20.30668,-14.86248,0.02427,-10.80573,1.36433,-6.55884,-32.3445,3.68342,-5.59886,-0.14811,22.88122,-23.4834
760,14.77921,-0.0,0.0,-28.95359,0.0,-0.0,-8.27986,-2.44663,11.32201,-23.84387,7.0629,-23.79531,-18.72232,-1.17005,-0.00092,-80.6004,-12.36199,0.00368,9.38717,24.95237,17.42186,61.51889,-28.47246,5.15035,50.6833,4.36799,-50.96226,-25.39712,-14.51913,-65.49382,102.79445,-0.00198,-105.93204,10.74184,0.00642,50.17719,-2.34244,-9.00821,-0.00011,-20.64801,-15.4797,0.01158,-11.06003,1.17927,-6.45045,-32.59845,3.47151,-5.56594,0.26057,22.0934,-22.12152
761,14.65543,0.0,0.0,-28.47514,-0.0,-0.0,-7.93694,-2.12994,11.21012,-24.93219,7.0925,-23.27444,-19.15011,-1.12346,-0.00135,-81.12173,-11.30159,-0.00292,9.50483,23.50402,17.59517,60.40433,-27.68336,4.63958,48.30997,6.22715,-48.90509,-23.29726,-15.09276,-59.98951,103.36848,-0.00532,-105.34756,11.37857,0.02135,46.74058,-3.09887,-8.60258,-0.0003,-20.9026,-15.95815,-0.0011,-11.08427,1.17644,-6.54547,-32.61919,3.50375,-5.65551,0.53818,21.07384,-20.90874
762,14.20062,0.0,-0.0,-28.98147,0.0,0.0,-7.52668,-2.14365,11.19631,-25.79697,6.83016,-22.87831,-19.60499,-1.15972,-0.00014,-81.63977,-9.83871,-0.0085,9.76039,22.07177,17.69048,59.17469,-27.00084,4.47444,45.95429,7.92828,-46.73399,-21.0912,-15.51254,-55.3116,103.75276,-0.00223,-105.18456,12.398,0.01404,43.91582,-4.42732,-8.40179,0.00037,-20.97973,-16.00315,-0.00609,-10.99503,1.16608,-6.79223,-32.52054,3.58465,-5.88926,0.81992,20.06326,-19.82399
763,13.87355,0.0,0.0,-30.31898,0.0,0.0,-7.19223,-2.3245,11.8421,-26.34501,6.4473,-22.77119,-20.08758,-1.40352,0.00147,-82.10956,-8.02586,-0.00824,10.15347,20.89008,17.38744,57.80898,-26.2774,4.30593,43.53756,9.2117,-44.46239,-18.89609,-15.77246,-51.43031,103.96457,0.00016,-105.77162,13.73003,-0.01055,42.70436,-5.84536,-8.36294,0.00036,-20.77229,-15.54374,-0.0023,-10.9563,1.05312,-7.08163,-32.46796,3.5857,-6.20048,1.15001,19.29094,-18.72877
764,14.33558,0.0,-0.0,-31.92837,0.0,0.0,-7.16177,-2.44668,13.03071,-26.47152,6.09532,-23.17608,-20.53557,-1.8107,0.00171,-82.33691,-6.0492,0.00018,10.53174,19.91206,16.76149,56.23269,-25.49659,3.92377,41.04093,10.28714,-42.11438,-16.71514,-15.91217,-48.05405,104.12351,-0.00034,-106.58614,15.2026,-0.02138,42.89252,-6.64136,-8.41448,-0.00101,-20.17515,-14.67639,0.00501,-11.02509,0.859,-7.27161,-32.52463,3.47473,-6.44884,1.43062,18.67295,-17.51494
765,15.46661,0.0,-0.0,-33.16513,0.0,0.0,-7.43931,-2.43755,14.15556,-26.07841,5.75596,-24.17046,-20.87387,-2.21944,0.00062,-82.18986,-4.20787,0.00763,10.71142,18.94553,16.25913,54.40276,-24.70566,3.23306,38.5263,11.6047,-39.77612,-14.49864,-15.98642,-44.69183,104.22729,-0.00201,-107.00465,16.6137,-0.00692,43.54995,-6.70307,-8.43172,-0.00241,-19.25309,-13.67959,0.0051,-11.17458,0.65592,-7.304,-32.66835,3.29764,-6.55358,1.55713,17.95487,-16.13996
766,16.64126,0.0,-0.0,-34.29796,0.0,0.0,-7.74107,-2.43704,14.75813,-25.25338,5.37327,-25.51232,-21.07071,-2.48312,-0.00039,-81.75084,-2.81385,0.00566,10.59625,17.88663,16.27562,52.3504,-23.94526,2.15838,36.11417,13.33181,-37.5416,-12.24143,-16.04936,-40.8894,104.13795,-0.0027,-107.12779,17.9273,0.00916,44.07626,-6.61724,-8.28599,-0.00337,-18.33847,-12.73179,-0.00147,-11.37638,0.53271,-7.2558,-32.86964,3.16534,-6.55387,1.50179,17.01176,-14.63453
767,17.31581,0.0,-0.0,-36.1759,0.0,0.0,-7.72083,-2.55658,14.86255,-24.25596,5.12983,-26.82479,-21.15638,-2.55995,-0.00058,-81.19141,-2.00422,-0.00124,10.29914,16.72991,16.71988,50.17136,-23.25131,0.68942,33.8921,15.20871,-35.41549,-10.01231,-16.16627,-36.50764,103.84524,-0.00197,-107.25233,19.34388,0.00438,44.64104,-6.89113,-8.13237,-0.00276,-17.6582,-11.68377,-0.00309,-11.588,0.52101,-7.26481,-33.08064,3.15775,-6.56656,1.35057,15.93947,-13.10791
768,17.19088,0.0,0.0,-38.52957,-0.0,-0.0,-7.2634,-2.69387,14.79085,-23.28499,5.28747,-27.86068,-21.19907,-2.50686,-0.00044,-80.58981,-1.55357,-0.00445,10.11764,15.47772,17.12061,48.00861,-22.64464,-0.97012,31.81482,16.89757,-33.30344,-7.89559,-16.39225,-31.8467,103.56935,-0.00099,-107.16481,21.12427,-0.01426,45.60117,-7.4096,-8.34335,-0.00028,-17.0521,-10.40316,0.00421,-11.74299,0.51165,-7.3662,-33.23113,3.18618,-6.66448,1.27989,14.91578,-11.66961
769,16.37675,0.0,0.0,-39.9603,0.0,-0.0,-6.56872,-2.67442,14.77125,-22.44087,5.77768,-28.53586,-21.27162,-2.41264,-0.00037,-79.93865,-1.01258,-0.00258,10.28319,14.14367,17.17087,45.98269,-22.11478,-2.46966,29.74685,18.31161,-31.11244,-5.91631,-16.68608,-27.43253,103.5167,-0.00315,-106.4221,23.34586,-0.01855,46.85826,-7.81599,-9.01175,-0.00019,-16.18845,-9.17804,0.01062,-11.80519,0.35719,-7.47263,-33.28562,3.08143,-6.82032,1.41034,14.01111,-10.34538
770,15.27879,0.0,-0.0,-39.52079,-0.0,-0.0,-5.91611,-2.44033,14.82288,-21.9151,6.32302,-28.87182,-21.4259,-2.37317,-0.00012,-79.22112,-0.14146,-0.00056,10.75637,12.82319,16.95942,44.08323,-21.61081,-3.62851,27.64307,19.58113,-28.85963,-4.03024,-16.90502,-23.61748,103.64779,-0.00526,-105.00067,25.84439,0.00677,47.99862,-8.01746,-9.81079,-0.00151,-14.90678,-8.5679,0.00272,-11.75646,0.08085,-7.56176,-33.22768,2.85692,-7.00468,1.67889,13.15555,-9.09013
771,14.18186,0.0,-0.0,-37.23362,0.0,0.0,-5.41557,-2.05156,14.9578,-21.93552,6.86904,-29.01588,-21.64544,-2.49651,0.00042,-78.39551,0.92722,-0.00063,11.29605,11.67962,16.67594,42.14594,-21.06584,-4.57451,25.62923,20.81516,-26.63664,-2.1631,-16.9662,-20.29529,103.7608,-0.00285,-103.45726,28.37921,0.04099,48.83868,-8.01347,-10.35168,-0.0014,-13.37861,-8.90086,-0.01309,-11.55947,-0.11767,-7.72768,-33.01955,2.73288,-7.232,1.8978,12.27636,-7.87597
772,13.28469,0.0,-0.0,-33.59661,-0.0,0.0,-5.04568,-1.6333,15.25204,-22.47734,7.51162,-29.18813,-21.8416,-2.81571,0.00049,-77.38847,2.01911,0.00112,11.71605,10.80807,16.4187,40.02329,-20.46301,-5.47952,23.85143,21.98951,-24.48212,-0.27535,-16.93291,-17.08172,103.74971,-0.0002,-102.2911,30.85581,0.04226,49.83109,-7.73475,-10.45107,0.00066,-11.93634,-9.93288,-0.01691,-11.23747,-0.09742,-7.9926,-32.68539,2.84862,-7.47144,1.971,11.39442,-6.74521
773,12.99941,-0.0,0.0,-29.62734,-0.0,-0.0,-4.7848,-1.29335,15.72618,-23.20584,8.11203,-29.49858,-21.94622,-3.21539,-2e-05,-76.17993,3.16355,0.00634,12.05687,10.15541,16.30777,37.79583,-19.8379,-6.3109,22.28962,23.02947,-22.35282,1.56092,-16.89138,-13.7879,103.70393,-0.00065,-101.49748,33.40634,-0.00508,51.86205,-7.34886,-10.17208,0.00095,-10.79807,-11.07462,-0.00802,-10.93603,0.0571,-8.23794,-32.37497,3.08214,-7.64354,2.03432,10.5816,-5.73775
774,13.65465,-0.0,0.0,-26.94304,0.0,0.0,-4.57585,-0.98141,16.32918,-23.69606,8.33063,-29.9094,-21.97894,-3.53999,-0.00024,-74.85008,4.35291,0.00848,12.48273,9.61345,16.48019,35.70417,-19.18733,-7.00505,20.80813,23.8945,-20.22006,3.19354,-16.86692,-10.49714,103.76199,-0.00117,-101.07146,36.24021,-0.05834,55.27572,-7.25022,-9.7888,-0.00178,-10.07355,-11.99132,0.00046,-10.80519,0.16171,-8.38266,-32.23908,3.23241,-7.74016,2.31037,9.90241,-4.80712
775,14.95482,0.0,-0.0,-26.84855,-0.0,-0.0,-4.26736,-0.56651,17.05925,-23.60269,8.02456,-30.40657,-22.00078,-3.74316,-3e-05,-73.51215,5.34755,0.00359,13.05283,9.1196,16.87721,33.85504,-18.45027,-7.68325,19.36832,24.59243,-18.16424,4.54777,-16.87965,-7.26049,103.96153,0.00249,-101.30859,39.45716,-0.06133,59.3343,-7.68,-9.62905,-0.00087,-9.91586,-12.72806,0.00421,-10.85824,0.15275,-8.49401,-32.28637,3.26475,-7.84726,2.83374,9.38038,-3.88873
776,16.14381,0.0,0.0,-28.96599,-0.0,-0.0,-3.72601,-0.08848,18.00765,-22.81926,7.38793,-31.01623,-22.027,-3.88647,0.00018,-72.23743,5.93104,-0.00265,13.66075,8.60941,17.17191,32.11088,-17.63832,-8.49469,18.08322,25.17913,-16.33646,5.70651,-16.96021,-4.01136,104.27153,0.00791,-102.24869,43.03527,-0.01164,62.95125,-8.59181,-9.87878,0.00548,-10.4153,-13.30003,0.00362,-10.99154,0.0884,-8.659,-32.40991,3.26511,-8.02464,3.4206,8.94816,-3.01225
777,16.66703,0.0,-0.0,-30.92988,0.0,0.0,-2.99344,0.29342,19.18476,-21.67229,6.68158,-31.60809,-22.00732,-4.0374,6e-05,-71.03884,6.12991,-0.00507,14.19079,8.00374,17.06549,30.29913,-16.85899,-9.44014,17.09316,25.71782,-14.81055,6.84912,-17.09806,-0.75887,104.6843,0.00659,-103.14246,46.88006,0.03859,65.67222,-9.70248,-10.46455,0.00842,-11.21504,-13.52557,0.00132,-11.07743,0.00539,-8.85294,-32.48394,3.25863,-8.23585,3.89291,8.49472,-2.25758
778,16.58161,-0.0,-0.0,-30.38592,-0.0,-0.0,-2.26652,0.51979,20.41691,-20.65506,6.03557,-31.9674,-21.90698,-4.22085,-0.00022,-69.88509,6.10026,-0.00432,14.66947,7.33981,16.58116,28.42994,-16.13324,-10.4327,16.50701,26.21747,-13.53786,8.1664,-17.255,2.30858,105.19791,-0.00414,-102.90562,50.83775,0.0397,67.90959,-10.61512,-11.08772,0.00321,-11.53159,-13.18197,0.00835,-11.03335,-0.11149,-8.99725,-32.42973,3.20246,-8.41313,4.20939,8.01371,-1.625
779,16.40528,0.0,0.0,-27.52235,-0.0,0.0,-1.71491,0.61674,21.49616,-19.85744,5.57544,-32.13633,-21.77405,-4.42566,-0.00023,-68.72624,5.98299,-0.00227,15.21821,6.7709,15.9701,26.64893,-15.33861,-11.35697,16.40463,26.64013,-12.46329,9.77412,-17.4473,5.01028,105.7606,-0.01407,-101.25818,54.7732,-0.00142,70.36531,-11.13215,-11.48258,-0.00246,-11.00439,-12.20817,0.01939,-10.87476,-0.26301,-9.08696,-32.26322,3.09411,-8.55214,4.39326,7.6096,-1.0164
780,16.53225,0.0,0.0,-24.59727,0.0,-0.0,-1.35198,0.65463,22.26475,-18.99918,5.50122,-32.42237,-21.67383,-4.59725,2e-05,-67.51557,5.88223,0.00085,15.89711,6.36314,15.47282,25.0435,-14.39653,-12.07572,16.76027,26.95301,-11.59212,11.64069,-17.73506,7.39004,106.30909,-0.01472,-99.06747,58.67751,-0.03955,73.30963,-11.50115,-11.65198,-0.00258,-10.3192,-10.87332,0.01031,-10.68281,-0.41153,-9.20548,-32.06182,2.99902,-8.71689,4.47028,7.33259,-0.33784
781,16.8117,0.0,-0.0,-23.00373,0.0,0.0,-1.07624,0.7937,22.6207,-17.94344,5.86682,-32.98709,-21.59613,-4.68034,0.00018,-66.23029,5.85736,0.00433,16.66322,6.01269,15.21335,23.59608,-13.39768,-12.49031,17.37797,27.14759,-10.891,13.6313,-18.10383,9.61858,106.84599,-0.00773,-97.59326,62.62416,-0.03359,76.38878,-12.11939,-11.80306,0.00143,-10.45391,-9.70986,-0.00671,-10.50466,-0.50613,-9.40812,-31.87038,2.98478,-8.94037,4.50604,7.09611,0.42845
782,16.85047,0.0,0.0,-22.04972,0.0,0.0,-0.7991,1.16842,22.67186,-16.84308,6.43431,-33.59424,-21.47878,-4.69958,0.00013,-64.88718,5.85208,0.00462,17.4484,5.59626,15.21799,22.29173,-12.5001,-12.63681,17.96694,27.24827,-10.17601,15.64477,-18.43032,11.79357,107.44487,0.00405,-97.6683,66.60421,0.01319,78.99401,-12.92351,-12.11347,0.00392,-11.5371,-9.16978,-0.0034,-10.33853,-0.51408,-9.62207,-31.69168,3.05529,-9.14279,4.60469,6.7739,1.25266
783,16.67686,-0.0,-0.0,-20.65184,-0.0,-0.0,-0.53598,1.72765,22.77614,-15.88632,6.85109,-33.85096,-21.29522,-4.72088,1e-05,-63.51315,5.69294,-0.00024,18.21512,5.10961,15.49375,21.13828,-11.7748,-12.71522,18.3155,27.33335,-9.2061,17.66159,-18.58542,13.92873,108.18846,0.01555,-99.2406,70.50021,0.03827,81.01796,-13.40322,-12.59141,0.00043,-12.95937,-9.20341,0.00686,-10.17223,-0.43227,-9.70766,-31.52196,3.16266,-9.19279,4.81806,6.32204,2.08864
784,16.65629,0.0,0.0,-18.86899,-0.0,-0.0,-0.3247,2.2724,23.25401,-15.09132,6.91169,-33.6271,-21.09469,-4.7555,4e-05,-62.10982,5.27963,-0.00634,18.95606,4.64713,16.02351,20.08354,-11.17547,-12.94337,18.43861,27.49864,-7.94091,19.6846,-18.53706,16.02215,109.10162,0.01943,-101.45742,74.20309,0.00889,83.07763,-13.29181,-13.11421,-0.00462,-14.2552,-9.25121,0.00549,-9.97694,-0.28832,-9.63101,-31.33411,3.26881,-9.06879,5.09566,5.80211,2.87043
785,16.75289,0.0,-0.0,-17.3812,0.0,-0.0,-0.08521,2.59044,24.1142,-14.32184,6.67489,-33.1351,-20.94192,-4.78994,0.00011,-60.67769,4.73638,-0.00837,19.64446,4.30235,16.69827,19.00647,-10.62861,-13.35911,18.56258,27.77584,-6.63875,21.70616,-18.34615,18.07766,110.12812,0.01541,-103.38206,77.65129,-0.02978,85.64297,-12.84427,-13.51694,-0.00524,-15.4046,-8.86023,-0.00216,-9.74356,-0.15413,-9.53641,-31.10903,3.35933,-8.93158,5.32997,5.30522,3.55249
786,16.53554,0.0,0.0,-16.51126,0.0,0.0,0.26421,2.61609,25.10778,-13.40985,6.37258,-32.64758,-20.82178,-4.8521,-4e-05,-59.21945,4.30908,-0.00517,20.19798,4.08719,17.37399,17.78252,-10.12195,-13.82009,18.93642,28.10028,-5.63152,23.70633,-18.09563,20.06692,111.1564,0.00655,-104.43721,80.811,-0.03927,88.4592,-12.34138,-13.57463,-0.00042,-16.60377,-8.04746,-0.00992,-9.56516,-0.12963,-9.61524,-30.92662,3.41086,-8.99619,5.42693,4.86104,4.14356
787,15.83302,0.0,-0.0,-16.07271,-0.0,-0.0,0.65067,2.51217,26.06163,-12.24673,6.23453,-32.30543,-20.67356,-4.98533,-0.00032,-57.67648,4.18243,0.00195,20.59204,3.93411,17.90691,16.36395,-9.674,-14.14615,19.64259,28.3462,-5.02,25.66813,-17.85208,21.89708,112.07132,-0.00676,-104.2102,83.68771,-0.02346,90.94788,-11.7536,-13.01983,0.00774,-18.03026,-7.05827,-0.01354,-9.57517,-0.26838,-9.9255,-30.91537,3.39459,-9.33626,5.37244,4.4505,4.65616
788,14.91972,0.0,-0.0,-15.72157,0.0,0.0,0.98847,2.47176,27.10964,-10.84682,6.30106,-32.16122,-20.52599,-5.19973,-0.00026,-55.93933,4.39734,0.01051,20.99405,3.78643,18.11375,14.85917,-9.24437,-14.19314,20.55967,28.42021,-4.61499,27.62346,-17.64549,23.50056,112.84017,-0.02361,-102.41337,86.30724,0.00735,92.56589,-11.11231,-11.77476,0.00911,-19.57443,-6.29025,-0.00515,-9.75123,-0.52633,-10.35422,-31.05956,3.3102,-9.83027,5.25907,4.08251,5.09096
789,14.38822,0.0,0.0,-15.47896,0.0,0.0,1.26465,2.46339,28.39436,-9.3337,6.34471,-32.19395,-20.48744,-5.4549,0.00021,-53.9801,4.81077,0.01341,21.61408,3.65728,17.96293,13.46735,-8.75807,-13.93145,21.4742,28.34498,-4.14339,29.63818,-17.43559,24.94563,113.56464,-0.0315,-99.53162,88.6953,0.0355,93.04295,-10.72644,-10.20946,-0.00126,-20.70986,-6.26218,0.00244,-9.88072,-0.81743,-10.70806,-31.16027,3.16746,-10.26634,5.19484,3.77698,5.49022
790,14.85757,0.0,-0.0,-15.68264,-0.0,-0.0,1.39056,2.32217,29.62583,-7.85654,6.12393,-32.24022,-20.581,-5.68192,0.00028,-51.92464,5.11989,0.00526,22.42692,3.5711,17.77155,12.27781,-8.22504,-13.57447,22.25241,28.21362,-3.50321,31.72326,-17.13381,26.35561,114.36586,-0.00622,-97.5049,90.89001,0.04141,92.73302,-10.74744,-9.0641,-0.00776,-20.89895,-7.14537,-0.01082,-9.79024,-1.09181,-10.82286,-31.05683,2.95342,-10.47315,5.17803,3.48221,5.91332
791,16.17362,0.0,0.0,-16.12787,0.0,0.0,1.28672,2.03195,30.3372,-6.58287,5.71864,-32.05875,-20.71619,-5.85672,-0.00016,-49.93756,5.07841,-0.00702,23.22226,3.5047,17.89167,11.22527,-7.75271,-13.46737,22.92519,28.07573,-2.8574,33.79657,-16.67799,27.73775,115.2258,0.03596,-98.3062,92.93068,0.02517,92.45695,-11.02405,-8.82382,-0.00385,-20.19069,-8.43955,-0.02386,-9.53844,-1.32761,-10.65552,-30.81203,2.673,-10.4027,5.13932,3.10061,6.3447
792,17.17159,0.0,-0.0,-15.89286,-0.0,-0.0,1.1347,1.76929,30.4769,-5.66736,5.49052,-31.5761,-20.84668,-6.02865,-0.00046,-48.04639,4.72922,-0.01232,23.89025,3.42876,18.28808,10.21549,-7.41288,-13.75396,23.57924,27.92141,-2.43689,35.7272,-16.04696,28.97701,116.04201,0.039,-101.0638,94.88552,-0.00107,92.90877,-11.46275,-9.11231,0.00013,-19.10433,-9.24034,-0.00989,-9.32285,-1.51675,-10.31016,-30.61615,2.37143,-10.1494,5.07259,2.6164,6.67652
793,16.87941,0.0,-0.0,-14.46903,0.0,0.0,1.21339,1.70723,30.39036,-5.08299,5.692,-31.00391,-21.03039,-6.2551,-0.00022,-46.1213,4.34988,-0.00697,24.49645,3.3728,18.67345,9.19844,-7.15952,-14.23408,24.21321,27.74314,-2.23586,37.40575,-15.21173,29.95307,116.7955,-0.00181,-102.50005,96.90907,-0.02701,94.28407,-12.02433,-9.09547,-0.00105,-17.96966,-8.8015,0.02007,-9.26043,-1.69694,-9.94717,-30.57449,2.07173,-9.87661,5.02652,2.11451,6.81436
794,15.69478,0.0,-0.0,-12.54364,0.0,0.0,1.46204,1.87848,30.42553,-4.58556,6.15677,-30.62443,-21.31583,-6.56325,0.00037,-44.03003,4.20416,0.00549,25.17487,3.40763,18.85592,8.21139,-6.89874,-14.52608,24.80131,27.54643,-2.04742,38.8217,-14.14738,30.61196,117.53316,-0.03661,-100.89261,99.1151,-0.0382,96.25446,-12.57905,-8.45683,-0.00248,-16.92047,-7.05375,0.03252,-9.31591,-1.91315,-9.64425,-30.64631,1.76023,-9.67306,5.04114,1.64631,6.79958
795,14.86404,0.0,-0.0,-11.27493,0.0,0.0,1.49082,2.19166,30.74389,-3.98864,6.4287,-30.45757,-21.67013,-6.95244,0.00073,-41.77063,4.32972,0.01439,26.0351,3.56705,18.84087,7.38331,-6.5919,-14.40372,25.42894,27.30774,-1.80087,40.08035,-12.92916,31.00643,118.20099,-0.03089,-97.77042,101.35757,-0.02337,98.20769,-13.19571,-7.56786,-0.00302,-16.35472,-4.74726,0.01082,-9.37092,-2.13102,-9.32945,-30.71841,1.44281,-9.45922,5.14064,1.17584,6.79903
796,14.81668,0.0,-0.0,-10.99017,-0.0,0.0,1.09703,2.51344,31.29899,-3.36344,6.28151,-30.20309,-22.03131,-7.38803,0.0006,-39.43151,4.48175,0.01023,27.05152,3.81723,18.77371,6.7796,-6.25773,-14.03137,26.21375,26.97141,-1.64585,41.28311,-11.77853,31.29292,118.68406,-0.00556,-95.59981,103.33018,0.00551,99.61117,-14.10879,-6.88944,-0.00227,-16.65875,-2.95931,-0.00958,-9.30235,-2.28821,-8.84188,-30.6775,1.11895,-9.06264,5.29771,0.69316,6.96328
797,14.87703,0.0,0.0,-11.01278,0.0,0.0,0.49294,2.71791,31.95148,-2.81046,6.02666,-29.62209,-22.35673,-7.8274,0.00021,-37.05828,4.36506,-0.0018,28.05337,4.0855,18.74282,6.27114,-5.90589,-13.76072,27.13169,26.50648,-1.68473,42.41173,-10.93293,31.60633,119.00654,0.0074,-95.26781,104.89844,0.02571,100.27393,-15.13079,-6.60017,0.00017,-17.57724,-2.29262,-0.00436,-9.06709,-2.42578,-8.08595,-30.48378,0.71533,-8.40951,5.41794,0.27254,7.27476
798,14.64577,0.0,-0.0,-10.65036,0.0,0.0,-0.02609,2.70767,32.61723,-2.22442,6.11534,-28.8306,-22.62881,-8.23241,-0.00019,-34.6221,3.92914,-0.00942,28.89629,4.27927,18.67256,5.65141,-5.53459,-13.76119,28.04758,25.9667,-1.79926,43.4001,-10.41555,31.96671,119.31689,0.00616,-96.01028,106.15546,0.02466,100.56763,-15.63135,-6.63093,0.00066,-18.39981,-2.42706,0.00281,-8.76426,-2.63624,-7.15799,-30.22808,0.18056,-7.62351,5.41698,-0.05194,7.53182
799,14.37487,0.0,0.0,-9.77072,0.0,0.0,-0.34254,2.51371,33.22485,-1.47407,6.57508,-28.05889,-22.89318,-8.55303,-0.00024,-32.12619,3.33584,-0.00867,29.60566,4.34258,18.51846,4.87444,-5.16798,-13.95802,28.87193,25.48406,-1.74758,44.26819,-9.97482,32.37549,119.70043,0.00182,-96.88045,107.21058,0.00505,101.41716,-15.16078,-6.74279,0.00225,-18.74488,-2.35061,0.00119,-8.57831,-2.88298,-6.29412,-30.08258,-0.36506,-6.91096,5.31161,-0.3733,7.53811
800,14.32843,0.0,-0.0,-8.65721,0.0,0.0,-0.50235,2.29073,33.64016,-0.60467,7.07065,-27.35075,-23.25777,-8.75676,8e-05,-29.67442,2.74035,-0.00369,30.33472,4.34606,18.38327,4.11783,-4.82117,-14.16456,29.58378,25.17953,-1.36024,45.09995,-9.2995,32.87358,120.15689,0.00313,-97.71249,108.11219,-0.01647,103.59064,-13.76536,-6.71745,0.00702,-18.79228,-1.19324,-0.00206,-8.63565,-3.01794,-5.64089,-30.16821,-0.7299,-6.35355,5.22085,-0.78619,7.30589
801,14.64034,0.0,-0.0,-7.737,0.0,0.0,-0.61109,2.05133,33.75709,0.26943,7.40966,-26.64231,-23.77287,-8.85699,0.00035,-27.39323,2.21361,0.00112,31.16554,4.42758,18.38142,3.55351,-4.47582,-14.21059,30.15025,25.09027,-0.69828,45.93392,-8.28561,33.41831,120.72842,0.00732,-98.72988,108.9127,-0.02114,106.70332,-11.95336,-6.67079,0.00701,-18.80179,0.9291,-0.00344,-8.88632,-3.00144,-5.12201,-30.43916,-0.90482,-5.86548,5.2248,-1.26095,7.02396
802,15.44386,0.0,0.0,-7.29274,0.0,-0.0,-0.76863,1.59814,33.5647,1.11526,7.69937,-25.93267,-24.35741,-8.86675,8e-05,-25.33109,1.7729,0.00337,31.9835,4.61773,18.59024,3.13291,-4.15213,-14.09719,30.52655,25.18727,-0.02588,46.75329,-7.12293,33.88972,121.48515,6e-05,-99.61314,109.6517,-0.00561,109.26421,-10.49982,-6.93254,0.00589,-18.90359,3.00206,-0.00244,-9.101,-2.98666,-4.58742,-30.67303,-1.08728,-5.36346,5.23415,-1.71617,6.86594
803,16.76168,0.0,0.0,-7.29381,0.0,0.0,-1.09784,0.86006,33.10318,1.95989,8.06091,-25.27408,-24.89047,-8.75329,-0.00072,-23.46299,1.38074,0.00188,32.61869,4.81159,19.12243,2.70009,-3.9356,-14.05347,30.72912,25.41419,0.44123,47.55001,-6.13729,34.29447,122.39481,-0.01593,-99.7087,110.29021,0.0109,110.19314,-9.76301,-7.60726,0.00704,-19.37167,4.14617,0.00191,-9.04756,-3.14135,-3.98199,-30.64076,-1.4535,-4.85807,5.08797,-2.14277,6.87565
804,17.99713,0.0,-0.0,-7.36565,0.0,0.0,-1.60201,0.07381,32.55307,2.81153,8.49666,-24.76379,-25.30982,-8.51222,-0.00105,-21.74523,0.97242,-0.00159,33.04463,4.92451,19.99754,2.21789,-3.87454,-14.31705,30.84674,25.70325,0.72476,48.3218,-5.47451,34.77018,123.3233,-0.01278,-99.46221,110.73782,0.01157,110.02082,-9.18848,-8.60885,-0.004,-20.43702,4.33601,0.0087,-8.71954,-3.45773,-3.28621,-30.3368,-2.00342,-4.3285,4.76628,-2.58122,6.98448
805,18.15227,0.0,0.0,-7.04759,0.0,-0.0,-2.03709,-0.43521,32.31017,3.65506,8.95322,-24.58495,-25.60264,-8.27185,-0.0004,-20.13986,0.55779,-0.00285,33.38912,5.02218,20.95743,1.80465,-3.89514,-14.83157,30.99503,25.99676,0.96942,49.02463,-4.95786,35.35155,124.14342,0.00927,-100.34839,110.96574,0.00401,110.10847,-8.11739,-9.91958,-0.02209,-21.72806,4.06648,0.00774,-8.31026,-3.7917,-2.44783,-29.9541,-2.62231,-3.67329,4.43444,-3.00529,7.10213
806,17.14309,0.0,0.0,-6.27334,0.0,0.0,-2.21777,-0.51471,32.6621,4.49808,9.29332,-24.8675,-25.77731,-8.20331,0.00032,-18.62668,0.24185,-0.00033,33.81494,5.24508,21.65551,1.61141,-3.87509,-15.30085,31.30643,26.2494,1.21431,49.60796,-4.33892,35.9136,124.77298,0.01811,-102.68789,111.05548,-0.00049,110.94158,-6.86501,-11.39686,-0.01916,-22.57858,3.62319,0.00077,-7.94338,-4.05781,-1.47847,-29.61266,-3.22653,-2.87163,4.27191,-3.31529,7.19607
807,16.19261,0.0,0.0,-5.49696,0.0,0.0,-2.34001,-0.26632,33.44443,5.39272,9.33711,-25.49542,-25.85987,-8.31577,0.00038,-17.21825,0.1018,0.00311,34.40424,5.60669,21.99863,1.68437,-3.78528,-15.54559,31.87688,26.41976,1.38161,50.10197,-3.58942,36.36065,125.15623,0.00796,-104.94159,111.10192,-0.00095,111.75468,-6.33286,-12.52714,-0.00149,-22.90418,2.89178,-0.00155,-7.55709,-4.31516,-0.48867,-29.24793,-3.83036,-2.04781,4.29777,-3.46938,7.27498
808,16.28976,-0.0,0.0,-5.26391,-0.0,-0.0,-2.68941,0.05863,34.24576,6.39986,9.03164,-26.16876,-25.8858,-8.44557,5e-05,-15.93681,0.08675,0.00393,35.10354,5.96664,22.17362,1.92372,-3.70141,-15.65836,32.60474,26.51165,1.48353,50.5993,-2.85769,36.73626,125.32282,-0.00131,-105.66987,111.11943,-0.00022,111.82824,-6.79894,-12.7521,-5e-05,-23.1509,1.81995,0.0018,-7.08667,-4.64754,0.43233,-28.79642,-4.47869,-1.31567,4.38736,-3.54641,7.33279
809,16.74298,0.0,-0.0,-5.65973,-0.0,0.0,-3.1105,0.26064,34.81281,7.49803,8.4779,-26.57861,-25.89533,-8.43387,-0.00018,-14.76655,0.04568,0.00135,35.74561,6.20681,22.46046,2.14919,-3.69182,-15.87884,33.16737,26.59998,1.71861,51.14526,-2.26828,37.14188,125.45486,-0.00474,-104.99504,111.08695,-0.00015,111.33538,-7.63667,-12.04284,-0.00495,-23.51619,0.72271,0.00095,-6.63059,-5.0326,1.24921,-28.35765,-5.13762,-0.6998,4.40765,-3.66054,7.35088
810,16.01514,-0.0,-0.0,-6.2157,0.0,0.0,-3.12756,0.29042,35.17877,8.56186,7.85473,-26.59053,-25.91885,-8.26733,-0.00024,-13.66754,-0.15039,-0.00223,36.18224,6.33144,23.01684,2.23944,-3.75829,-16.33911,33.3081,26.76045,2.24794,51.69044,-1.83769,37.60481,125.77896,-0.00549,-103.95938,111.04763,-0.00051,110.69079,-8.16736,-10.99155,-0.00055,-23.74454,-0.00473,-0.00469,-6.34877,-5.37361,1.89973,-28.08974,-5.69429,-0.22216,4.32305,-3.87374,7.34255
811,13.65698,0.0,-0.0,-6.33885,-0.0,-0.0,-2.58183,0.23036,35.55636,9.47847,7.37739,-26.38538,-25.95385,-8.06319,-0.00014,-12.63968,-0.48551,-0.00346,36.44066,6.41119,23.70506,2.24553,-3.86322,-16.86887,33.1063,27.00342,2.93213,52.11465,-1.49566,38.0217,126.34099,-0.00209,-103.39668,111.1227,-0.00149,110.15348,-8.34496,-10.2518,0.00344,-23.5162,-0.16532,-0.00466,-6.26987,-5.60929,2.34197,-28.02002,-6.07628,0.10111,4.21239,-4.17105,7.35638
812,11.00618,0.0,-0.0,-5.94394,-0.0,-0.0,-1.91777,0.23949,36.08903,10.25856,7.14057,-26.22864,-25.96683,-7.91263,-1e-05,-11.73331,-0.81395,-0.00175,36.6913,6.50812,24.20438,2.31841,-3.95485,-17.21741,32.86208,27.2928,3.45978,52.29041,-1.15531,38.25232,126.95617,0.00217,-103.60987,111.41284,-0.00279,109.98294,-8.47434,-9.96867,0.00288,-22.67937,0.2037,0.00164,-6.30142,-5.75268,2.68094,-28.05684,-6.33447,0.36279,4.18119,-4.4644,7.40742
813,9.74898,0.0,0.0,-5.51704,0.0,0.0,-1.6886,0.40909,36.75732,10.99316,6.99664,-26.15118,-25.92671,-7.79298,5e-05,-10.98318,-0.99929,0.00058,37.06426,6.64416,24.31037,2.5378,-3.98628,-17.37491,32.78559,27.54499,3.71731,52.2151,-0.81029,38.3112,127.4204,0.00261,-104.52999,111.88747,-0.00178,110.08156,-8.62947,-9.90178,0.00081,-21.39486,0.84649,0.00254,-6.37425,-5.86328,3.12079,-28.13276,-6.5994,0.73056,4.26515,-4.64483,7.4545
814,9.99726,0.0,0.0,-5.33541,0.0,0.0,-1.8893,0.62367,37.53286,11.70341,6.75875,-26.01946,-25.84052,-7.64076,9e-05,-10.34538,-1.01114,0.00168,37.53666,6.79359,24.09232,2.83976,-3.96036,-17.50314,32.89553,27.61655,3.84337,52.07118,-0.55194,38.39476,127.70453,0.00157,-105.93537,112.39184,-0.00019,110.17047,-8.61567,-9.97676,-0.00169,-20.28113,1.48024,-0.00481,-6.45143,-6.00609,3.75623,-28.21212,-6.96633,1.26837,4.39829,-4.66977,7.47357
815,10.99534,-0.0,0.0,-5.23562,0.0,-0.0,-2.17346,0.637,38.37806,12.3331,6.43289,-25.7374,-25.73306,-7.41414,0.00021,-9.73336,-0.92241,0.00132,37.96154,6.92425,23.84184,3.07467,-3.92373,-17.73069,33.11097,27.43111,3.96857,52.06436,-0.43485,38.64278,127.90269,0.00171,-107.59895,112.76752,-0.00017,110.21869,-8.39354,-10.32265,-0.00389,-19.93231,1.81772,-0.00847,-6.4488,-6.21781,4.44581,-28.21246,-7.41718,1.8311,4.43803,-4.58732,7.47467
816,12.63072,0.0,0.0,-5.23685,0.0,-0.0,-2.46958,0.37564,39.14869,12.87782,6.12649,-25.32208,-25.61132,-7.11821,0.00031,-9.12609,-0.84013,0.0002,38.1972,7.07397,23.83298,3.1424,-3.88342,-18.03679,33.31552,27.14555,4.11176,52.22508,-0.3634,38.98072,128.06215,0.00095,-109.20948,112.96506,-0.00021,110.1039,-8.31599,-10.75696,-0.00496,-20.26041,1.53537,-0.00288,-6.287,-6.50317,4.95487,-28.0582,-7.86981,2.1984,4.26697,-4.46533,7.43087
817,14.29058,-0.0,0.0,-5.46857,0.0,0.0,-2.83049,0.13164,39.68091,13.36095,5.84611,-24.86572,-25.48923,-6.81886,0.00015,-8.5951,-0.80161,-0.00048,38.2337,7.31811,24.10973,3.08366,-3.80807,-18.24051,33.40303,27.05518,4.27763,52.42399,-0.20846,39.26282,128.1552,-0.00097,-110.37211,113.05183,-0.00045,109.87237,-8.82325,-10.8333,-0.00857,-20.76577,0.74329,0.00153,-6.00057,-6.82963,5.23846,-27.78477,-8.27747,2.34025,3.9036,-4.33089,7.28407
818,14.62369,-0.0,-0.0,-5.80381,0.0,-0.0,-3.15661,0.22315,39.9325,13.75835,5.5399,-24.44807,-25.39518,-6.58741,-0.00019,-8.21919,-0.74293,-0.00037,38.20063,7.66971,24.51401,3.03385,-3.69976,-18.1575,33.37973,27.25644,4.45764,52.5387,-0.00947,39.43844,128.18219,-0.00183,-110.85552,113.11675,-0.00111,110.09487,-9.96877,-10.5543,-0.00861,-21.13339,0.05932,0.00104,-5.71936,-7.09071,5.44448,-27.51474,-8.59581,2.43424,3.49369,-4.1605,7.05563
819,14.10075,0.0,0.0,-6.26418,0.0,-0.0,-3.50304,0.51183,39.97787,14.06949,5.30729,-24.04668,-25.3306,-6.43361,-0.00039,-8.00498,-0.61837,-0.00022,38.24489,8.12055,24.84462,3.08882,-3.53163,-17.83743,33.41661,27.49913,4.53877,52.5621,0.0354,39.53068,128.17314,-0.00176,-110.8344,113.18467,-0.00103,111.04987,-11.35515,-10.39739,0.0005,-21.24998,-0.11184,0.00034,-5.55577,-7.15374,5.59145,-27.35233,-8.70848,2.54754,3.16668,-3.87155,6.88188
820,14.4263,0.0,-0.0,-6.93609,0.0,-0.0,-4.01946,0.61486,39.93818,14.2723,5.33394,-23.4937,-25.26322,-6.32017,-0.00036,-7.88431,-0.4909,-0.00027,38.38413,8.71474,24.98924,3.22045,-3.19006,-17.60076,33.6894,27.4416,4.37362,52.56829,-0.22651,39.57089,128.11414,-0.00196,-110.84401,113.23444,0.00054,112.12464,-12.52066,-10.53902,0.00594,-21.0698,0.04021,-0.00051,-5.5022,-7.02024,5.48004,-27.29306,-8.54348,2.49384,2.91193,-3.37596,6.89335
821,15.35668,0.0,0.0,-7.49655,-0.0,0.0,-4.57978,0.48115,39.98312,14.23946,5.54469,-22.68102,-25.12901,-6.24811,-0.00026,-7.78855,-0.41595,-0.00026,38.50757,9.47068,24.91456,3.35812,-2.62865,-17.66713,34.12418,26.9718,3.98479,52.57758,-0.77519,39.59221,128.00189,-0.00201,-111.19262,113.27132,0.00203,112.49364,-13.33384,-10.66517,0.00307,-20.64863,0.07564,-0.0033,-5.42809,-6.87966,5.04247,-27.21784,-8.2517,2.13891,2.65611,-2.6988,7.09531
822,15.48718,0.0,-0.0,-7.74503,0.0,0.0,-5.0665,0.36628,40.20219,13.94122,5.61393,-21.74096,-24.84556,-6.25562,-0.0002,-7.71106,-0.33871,-0.00013,38.4901,10.28623,24.67837,3.47195,-2.00162,-17.90496,34.41672,26.25069,3.58867,52.47352,-1.46828,39.62957,127.9118,-0.00094,-111.61079,113.3469,0.00067,112.35802,-13.99957,-10.53566,-0.00128,-20.19975,-0.17124,-0.00412,-5.23894,-6.95074,4.56492,-27.03841,-8.14169,1.6675,2.38743,-1.999,7.36682
823,14.68175,0.0,-0.0,-7.9541,0.0,0.0,-5.59513,0.35235,40.45306,13.57227,5.41726,-20.90483,-24.40062,-6.32773,-0.00011,-7.66973,-0.18749,-4e-05,38.2507,10.99421,24.50251,3.51004,-1.54509,-18.05926,34.33414,25.53502,3.41357,52.12465,-2.12801,39.71428,127.9098,-8e-05,-111.77302,113.50261,-0.00503,112.89985,-14.71089,-10.22396,-0.00307,-20.07163,-0.52402,-0.00082,-5.00985,-7.28002,4.4081,-26.82864,-8.38959,1.3979,2.10722,-1.44989,7.53044
824,13.59684,-0.0,-0.0,-8.27775,0.0,-0.0,-6.1867,0.25101,40.63559,13.33449,5.16489,-20.37461,-23.87596,-6.43551,-0.0003,-7.65813,0.04145,-2e-05,37.79181,11.5018,24.55149,3.42093,-1.3747,-17.93012,33.89959,25.00152,3.56013,51.57235,-2.60039,39.87404,127.98399,-0.0006,-111.65063,113.72429,-0.00892,114.4678,-15.40259,-9.91585,-0.00163,-20.40855,-0.85758,0.00177,-4.89187,-7.70474,4.61136,-26.73275,-8.8588,1.42737,1.7895,-1.12153,7.46603
825,12.56271,0.0,0.0,-8.51694,0.0,0.0,-6.6994,-0.07785,40.87875,13.23219,5.06771,-20.16536,-23.34436,-6.58412,-0.00067,-7.65921,0.2925,-1e-05,37.21148,11.84231,24.75494,3.25882,-1.4358,-17.50176,33.29356,24.68529,3.97718,51.00596,-2.8473,40.10998,128.12785,-0.00201,-111.33332,113.98365,-0.00349,115.68713,-15.91319,-9.8615,0.00129,-20.85409,-1.24322,-0.00011,-4.93914,-8.01696,4.92324,-26.79548,-9.26357,1.60009,1.43517,-0.97262,7.21556
826,11.48613,0.0,-0.0,-8.37196,0.0,-0.0,-6.99872,-0.55431,41.1893,13.09311,5.12224,-19.97436,-22.85444,-6.72607,-0.00037,-7.66112,0.45851,1e-05,36.64508,12.11977,25.03579,3.14444,-1.55982,-17.07403,32.68085,24.51322,4.50912,50.56944,-2.99394,40.35391,128.39745,-0.00167,-111.06256,114.30003,0.00768,115.12331,-16.20741,-10.35667,0.00227,-21.04587,-1.70965,-0.00331,-5.06943,-8.12169,5.1669,-26.92949,-9.45058,1.7875,1.0724,-0.90318,6.94144
827,9.8734,-0.0,-0.0,-7.59942,0.0,-0.0,-7.02118,-0.93208,41.28417,12.75357,5.17102,-19.53724,-22.50007,-6.77319,0.00021,-7.65456,0.44811,0.0,36.24566,12.44435,25.39209,3.17038,-1.53446,-16.94048,32.15585,24.3678,4.98884,50.26283,-3.20203,40.48829,128.80382,0.00242,-111.31397,114.70844,0.01183,113.17405,-16.3181,-11.47333,-0.00055,-21.34544,-2.11541,-0.00203,-5.15123,-8.01508,5.38693,-27.00195,-9.43273,2.0327,0.74411,-0.7903,6.74828
828,7.64161,0.0,-0.0,-6.42075,-0.0,0.0,-6.9515,-0.98141,40.93011,12.2776,5.05507,-18.99702,-22.35187,-6.72017,0.00024,-7.63411,0.28647,-4e-05,36.13343,12.87932,25.70244,3.35942,-1.22307,-17.02098,31.77046,24.15022,5.31861,50.01508,-3.50812,40.45582,129.19862,0.00458,-112.41896,115.1683,0.00393,111.48801,-16.2557,-12.81967,-0.00429,-22.5179,-2.33593,0.00135,-5.09755,-7.73655,5.65358,-26.92737,-9.27245,2.3862,0.50383,-0.53054,6.59177
829,5.80412,-0.0,-0.0,-5.69882,0.0,0.0,-7.14615,-0.77317,40.25744,11.93749,4.78892,-18.71278,-22.34913,-6.66164,8e-05,-7.60012,0.08376,-4e-05,36.27031,13.40113,25.72184,3.63569,-0.66044,-17.02734,31.54346,23.82535,5.4888,49.79058,-3.84557,40.31169,129.38422,0.00057,-114.02856,115.56019,-0.00418,110.94196,-16.02837,-13.72664,-0.00388,-24.58933,-2.40897,0.00234,-4.88924,-7.41344,5.89459,-26.69566,-9.06129,2.7325,0.3548,-0.10711,6.38966
830,5.21204,0.0,-0.0,-6.07059,0.0,-0.0,-7.64711,-0.68232,39.62614,11.91784,4.56169,-18.84235,-22.35742,-6.67994,4e-05,-7.55794,-0.08323,-2e-05,36.44261,13.91203,25.36103,3.84778,-0.02177,-16.82034,31.45734,23.41944,5.54131,49.59365,-4.16949,40.13055,129.33961,-0.00234,-115.24595,115.79987,-0.00467,111.11591,-15.65269,-13.8668,-1e-05,-26.51558,-2.37208,0.00119,-4.55969,-7.21606,5.96606,-26.35321,-8.90434,2.87334,0.21478,0.37245,6.16391
831,5.52982,0.0,0.0,-7.25531,0.0,-0.0,-8.16446,-0.96367,39.19891,12.15424,4.48335,-19.18529,-22.27503,-6.74929,4e-05,-7.51345,-0.20398,1e-05,36.40922,14.30649,24.86632,3.87159,0.49862,-16.49987,31.46962,22.99067,5.5305,49.41776,-4.48214,39.91832,129.22383,-0.00143,-115.40849,115.92479,-0.00138,111.28035,-15.21633,-13.55164,0.0018,-27.22497,-2.20091,0.00178,-4.19121,-7.20069,5.83194,-25.9863,-8.84067,2.75408,-0.01293,0.74321,6.01376
832,5.92079,-0.0,0.0,-8.39476,0.0,-0.0,-8.52066,-1.45871,38.86362,12.42918,4.43827,-19.44524,-22.06531,-6.80439,-5e-05,-7.45951,-0.27772,4e-05,36.09995,14.55414,24.54666,3.71388,0.82388,-16.20055,31.5119,22.6005,5.5128,49.25769,-4.77256,39.66077,129.16747,-0.00063,-114.60384,116.0303,0.00149,111.05468,-14.90594,-13.24577,0.00079,-26.65138,-1.9808,0.00226,-3.88503,-7.27353,5.62342,-25.68792,-8.83149,2.53233,-0.32885,0.94549,5.96781
833,5.70665,0.0,-0.0,-8.61303,0.0,-0.0,-8.69127,-1.87617,38.5072,12.49569,4.27818,-19.48687,-21.77081,-6.84834,-0.00028,-7.37614,-0.29679,6e-05,35.6487,14.73089,24.47279,3.48862,1.02935,-15.97568,31.47928,22.27926,5.54453,49.12391,-5.00549,39.41426,129.19249,-0.00087,-113.4948,116.157,0.0016,110.52447,-14.79095,-13.09547,0.00026,-25.63064,-1.87903,0.00063,-3.69922,-7.31884,5.51657,-25.50645,-8.83418,2.41572,-0.64332,1.08679,5.93873
834,4.63888,0.0,-0.0,-7.61646,-0.0,0.0,-8.64574,-2.16229,38.07867,12.23926,4.02643,-19.23772,-21.49089,-6.89838,-0.00033,-7.25699,-0.2879,1e-05,35.21321,14.93869,24.61064,3.2863,1.22139,-15.92632,31.25176,22.01685,5.69383,48.97696,-5.16204,39.27946,129.31483,-0.00132,-112.66141,116.30603,-0.00182,110.21214,-14.63452,-13.02814,0.00067,-25.04405,-1.96842,0.00073,-3.62716,-7.30854,5.57599,-25.43284,-8.84651,2.47496,-0.88992,1.29214,5.82744
835,3.14999,0.0,-0.0,-6.03529,0.0,0.0,-8.49831,-2.40137,37.56903,11.81521,3.77893,-18.68751,-21.28171,-6.92883,-0.00011,-7.12594,-0.28303,-4e-05,34.86455,15.18717,24.9109,3.13036,1.41262,-16.12388,30.76666,21.80588,6.04173,48.7238,-5.25205,39.2858,129.56833,-0.0007,-112.26209,116.52187,-0.0053,110.50636,-14.1193,-13.02413,-0.00015,-25.09418,-2.24685,0.00141,-3.61242,-7.28828,5.71985,-25.41454,-8.88071,2.61667,-1.04803,1.55777,5.60158
836,2.02814,0.0,-0.0,-4.77225,0.0,-0.0,-8.52423,-2.63258,37.12371,11.496,3.55467,-18.0897,-21.09717,-6.93472,0.0,-7.02293,-0.24056,-2e-05,34.61496,15.40201,25.18235,3.02453,1.53801,-16.36116,30.09205,21.67373,6.59008,48.35529,-5.31185,39.35526,129.90862,0.00095,-112.27402,116.86299,-0.00185,110.90923,-13.29871,-13.17688,-0.00248,-25.3344,-2.74039,-0.00126,-3.56529,-7.30378,5.824,-25.36651,-8.93346,2.70793,-1.1089,1.79557,5.29832
837,1.71533,-0.0,0.0,-4.16357,-0.0,0.0,-8.83777,-2.9179,36.95229,11.38909,3.39808,-17.81709,-20.86659,-6.95109,-0.00012,-6.97935,-0.09792,-8e-05,34.44169,15.54835,25.20886,2.97069,1.57444,-16.31828,29.40858,21.63449,7.16786,48.00127,-5.40697,39.37494,130.20848,0.00122,-112.49132,117.31504,0.0068,110.55919,-12.70105,-13.50146,-0.00238,-25.26361,-3.3481,-0.00438,-3.41097,-7.35947,5.84578,-25.21507,-8.9932,2.70729,-1.10294,1.96951,5.01395
838,1.94461,0.0,0.0,-3.90751,-0.0,-0.0,-9.27189,-3.29364,37.01999,11.39857,3.48241,-17.90862,-20.59702,-6.98879,-0.00023,-6.99962,0.09408,-0.00015,34.29667,15.68228,25.05356,2.94873,1.59952,-16.01181,28.89526,21.62161,7.52723,47.77794,-5.5966,39.29089,130.37035,0.00032,-112.48126,117.80418,0.00717,109.68701,-12.86524,-13.7967,-0.00118,-24.72382,-3.60593,0.00105,-3.14864,-7.43767,5.84959,-24.95728,-9.06721,2.68142,-1.1115,2.14218,4.84744
839,2.00635,0.0,-0.0,-3.52831,-0.0,0.0,-9.61006,-3.65155,37.02921,11.40715,3.89711,-17.99242,-20.35873,-7.02431,-0.00019,-7.06092,0.20215,-5e-05,34.11136,15.86629,25.04058,2.89257,1.69763,-15.80765,28.62025,21.5212,7.54783,47.65783,-5.88366,39.17998,130.38634,0.00012,-112.07748,118.26144,-0.00213,109.54556,-13.79847,-13.89634,-0.00138,-23.93925,-3.001,0.00978,-2.83695,-7.54409,5.96262,-24.64996,-9.20764,2.74676,-1.21768,2.3906,4.80798
840,1.51579,0.0,0.0,-3.01765,0.0,0.0,-9.80034,-3.91156,36.8488,11.43314,4.39656,-17.80861,-20.19249,-7.07887,-0.00019,-7.13419,0.1914,8e-05,33.86335,16.09862,25.27695,2.76491,1.86171,-15.88779,28.51259,21.28704,7.31772,47.54093,-6.21507,39.2003,130.31082,0.00013,-111.61492,118.64461,-0.00656,110.53884,-14.93738,-13.97044,0.00036,-23.35896,-1.66874,0.00548,-2.51946,-7.71036,6.31141,-24.33609,-9.49047,3.00942,-1.41178,2.72011,4.80678
841,0.77198,0.0,-0.0,-2.89515,-0.0,-0.0,-9.92472,-4.16229,36.69662,11.58742,4.58669,-17.5656,-20.08594,-7.21009,-0.00018,-7.19348,0.1794,0.00011,33.64318,16.35958,25.45905,2.63156,2.04251,-15.97992,28.42945,20.99112,7.05191,47.37694,-6.51955,39.40306,130.22575,0.00016,-111.53232,118.95951,-0.00166,111.54308,-15.57975,-14.34201,-0.00139,-23.23664,-0.37192,-0.00387,-2.20751,-7.94766,6.91033,-24.02655,-9.93129,3.47878,-1.5734,3.08748,4.75473
842,0.24235,0.0,0.0,-3.41094,-0.0,0.0,-10.08136,-4.47525,36.72668,11.87837,4.35869,-17.57867,-20.02289,-7.37947,-3e-05,-7.21858,0.28035,0.00014,33.54615,16.64725,25.37408,2.55975,2.2284,-15.7797,28.2787,20.75559,6.94199,47.18075,-6.74473,39.67331,130.19821,0.00081,-112.076,119.28073,0.0017,111.74992,-15.37293,-15.07366,-0.00916,-23.3896,0.46748,-0.00504,-1.9449,-8.21187,7.56044,-23.76571,-10.41581,3.9861,-1.62233,3.45724,4.63207
843,0.08616,-0.0,0.0,-4.13266,0.0,-0.0,-10.36345,-4.79753,36.75485,12.16438,3.95686,-17.82734,-19.99624,-7.44588,0.0001,-7.22546,0.45337,0.00018,33.55895,16.91886,25.22151,2.54134,2.42331,-15.369,28.0881,20.64845,7.03118,46.98839,-6.8856,39.88765,130.21979,0.00093,-113.17281,119.68852,-0.00259,111.81136,-14.58854,-15.84831,-0.01002,-23.52013,1.17936,-0.00186,-1.81193,-8.40506,7.91259,-23.63667,-10.7247,4.24211,-1.60854,3.78951,4.45971
844,0.20965,0.0,0.0,-4.55556,-0.0,0.0,-10.83695,-5.08868,36.53463,12.3367,3.6144,-18.06905,-19.99595,-7.33815,5e-05,-7.26086,0.55589,0.00023,33.63385,17.09183,25.25066,2.571,2.60473,-15.05096,27.94605,20.62938,7.21593,46.82428,-6.97231,40.01501,130.21187,0.0001,-114.27444,120.17081,-0.00543,112.25072,-13.96198,-16.23422,-0.00372,-23.58754,1.97737,0.00073,-1.80762,-8.42819,7.74319,-23.6386,-10.68385,4.07504,-1.59928,4.03239,4.26283
845,0.42331,0.0,-0.0,-4.72154,0.0,0.0,-11.47052,-5.36331,36.12905,12.43532,3.29823,-18.22358,-19.99864,-7.17351,-0.0001,-7.33159,0.53726,0.00024,33.76327,17.14515,25.35125,2.66903,2.74651,-14.93253,27.88307,20.59618,7.3793,46.69279,-7.01602,40.06504,130.12758,0.00045,-114.6209,120.62263,-0.00091,112.43828,-14.02597,-16.08573,-0.00276,-23.84365,2.48093,0.00324,-1.81889,-8.27613,7.21593,-23.65267,-10.3487,3.64003,-1.58332,4.18354,4.08512
846,0.56169,0.0,0.0,-4.92236,-0.0,0.0,-12.16266,-5.5952,35.84607,12.54068,2.89556,-18.41327,-19.95738,-7.1454,-0.00036,-7.39245,0.49132,0.0001,33.90232,17.15606,25.22826,2.78993,2.85452,-14.8689,27.83278,20.49874,7.49096,46.5974,-6.99865,40.02877,130.0208,0.00098,-113.94224,120.93613,0.00245,111.96239,-14.62784,-15.64619,-0.00405,-24.51476,2.41599,0.00677,-1.78932,-8.05635,6.76412,-23.6187,-9.97836,3.30129,-1.54688,4.31155,3.98526
847,0.60216,0.0,-0.0,-5.08384,-0.0,0.0,-12.83442,-5.73049,35.78457,12.63176,2.4872,-18.64814,-19.85174,-7.29457,-0.00053,-7.42094,0.49279,-3e-05,33.93241,17.22328,24.88813,2.82023,2.96413,-14.7735,27.70859,20.38078,7.57718,46.55153,-6.91799,39.88576,129.9967,0.00031,-112.86399,121.06795,0.00138,111.44639,-15.25659,-15.27869,-0.0021,-25.3301,2.00375,0.0057,-1.79606,-7.87445,6.67178,-23.61565,-9.7755,3.28376,-1.55217,4.47817,3.97615
848,0.62633,0.0,-0.0,-4.93455,0.0,-0.0,-13.44147,-5.80409,35.67471,12.64232,2.26868,-18.76484,-19.7437,-7.47682,-0.00028,-7.44874,0.49513,-6e-05,33.79829,17.3913,24.65102,2.7206,3.10587,-14.71097,27.49491,20.30228,7.6719,46.54608,-6.79345,39.66414,130.11633,0.00116,-112.36621,121.05054,-0.00019,111.45285,-15.60003,-15.19435,-0.00027,-25.65905,1.49842,-0.00055,-1.89329,-7.74533,6.87042,-23.70022,-9.72876,3.51783,-1.64924,4.67526,3.99503
849,0.66901,0.0,0.0,-4.52816,0.0,-0.0,-13.96496,-5.90549,35.2162,12.58937,2.30551,-18.67326,-19.71609,-7.55043,-2e-05,-7.51658,0.42557,5e-05,33.58053,17.64255,24.73351,2.58096,3.27756,-14.71749,27.24706,20.27441,7.80907,46.52962,-6.63062,39.46312,130.34024,0.00262,-112.76049,120.99146,-0.00097,111.65935,-15.64692,-15.34964,-0.00019,-25.24637,0.95009,-0.00486,-2.0322,-7.63444,7.11276,-23.82631,-9.71499,3.78585,-1.78555,4.85609,3.97381
850,0.62783,-0.0,0.0,-4.10553,0.0,-0.0,-14.44027,-6.01272,34.37187,12.54411,2.50863,-18.40824,-19.77102,-7.49065,-2e-05,-7.63632,0.28951,0.00015,33.36664,17.91715,25.08372,2.48746,3.44037,-14.79553,27.02154,20.28261,7.99126,46.46693,-6.42529,39.37006,130.55972,0.00179,-113.63161,121.02995,0.00051,111.43702,-15.49908,-15.55906,-8e-05,-24.44857,0.47694,-0.00179,-2.15539,-7.54836,7.2169,-23.94142,-9.67338,3.91551,-1.89362,4.98671,3.91313
851,0.24974,-0.0,0.0,-3.82138,0.0,0.0,-14.87471,-6.06918,33.41692,12.56908,2.74903,-18.06417,-19.8402,-7.35226,-1e-05,-7.8005,0.14756,0.00015,33.17715,18.1286,25.46887,2.44813,3.54719,-14.95923,26.84054,20.30373,8.15674,46.40357,-6.20846,39.3825,130.70972,0.00031,-114.63896,121.21895,0.00391,110.60516,-15.30967,-15.75667,0.00105,-23.82556,0.31608,0.00276,-2.24535,-7.56084,7.15796,-24.03366,-9.66328,3.85577,-1.97904,5.0589,3.86564
852,-0.71035,0.0,0.0,-3.93262,0.0,0.0,-15.16728,-6.21825,32.7995,12.7425,2.90326,-17.86989,-19.86628,-7.21947,3e-05,-8.00229,0.04528,7e-05,33.04688,18.20709,25.5655,2.47433,3.58649,-15.08939,26.6943,20.28073,8.23857,46.40618,-6.05867,39.45181,130.82823,-0.00053,-115.56741,121.47491,0.00463,109.62566,-15.36129,-15.95916,0.00206,-23.80759,0.59488,-0.00161,-2.29679,-7.73745,7.0348,-24.09936,-9.78194,3.67425,-2.0539,5.09507,3.86559
