PaulMeinheit/Bachelor_Muay_Thai/processed_Data/E1/roundhouse/sliced/JointAngles/sliced3.csv
Unnamed: 0_level_0,L_MTP_ANGLE,L_MTP_ANGLE,L_MTP_ANGLE,R_MTP_ANGLE,R_MTP_ANGLE,R_MTP_ANGLE,L_ANKLE_ANGLE,L_ANKLE_ANGLE,L_ANKLE_ANGLE,R_ANKLE_ANGLE,R_ANKLE_ANGLE,R_ANKLE_ANGLE,L_KNEE_ANGLE,L_KNEE_ANGLE,L_KNEE_ANGLE,R_KNEE_ANGLE,R_KNEE_ANGLE,R_KNEE_ANGLE,L_HIP_ANGLE,L_HIP_ANGLE,L_HIP_ANGLE,R_HIP_ANGLE,R_HIP_ANGLE,R_HIP_ANGLE,L_SHOULDER_ANGLE,L_SHOULDER_ANGLE,L_SHOULDER_ANGLE,R_SHOULDER_ANGLE,R_SHOULDER_ANGLE,R_SHOULDER_ANGLE,L_ELBOW_ANGLE,L_ELBOW_ANGLE,L_ELBOW_ANGLE,R_ELBOW_ANGLE,R_ELBOW_ANGLE,R_ELBOW_ANGLE,L_WRIST_ANGLE,L_WRIST_ANGLE,L_WRIST_ANGLE,R_WRIST_ANGLE,R_WRIST_ANGLE,R_WRIST_ANGLE,NECK_ANGLE,NECK_ANGLE,NECK_ANGLE,NECK_ANGLE_SHADOW,NECK_ANGLE_SHADOW,NECK_ANGLE_SHADOW,Trunk_Joint_Angle,Trunk_Joint_Angle,Trunk_Joint_Angle
ITEM,X,Y,Z,X,Y,Z,X,Y,Z,X,Y,Z,X,Y,Z,X,Y,Z,X,Y,Z,X,Y,Z,X,Y,Z,X,Y,Z,X,Y,Z,X,Y,Z,X,Y,Z,X,Y,Z,X,Y,Z,X,Y,Z,X,Y,Z
1998,-4.14927,0.0,-0.0,-8.85776,0.0,0.0,-21.1465,-8.48533,9.11696,9.60143,4.33754,-16.46131,-22.76542,-6.42555,0.00025,-3.61389,0.93896,4e-05,30.2745,19.69042,15.99238,1.18457,2.33874,-15.99021,18.20496,19.17519,11.18738,47.10091,-4.36979,43.08991,127.42828,-0.0003,-100.40043,123.4135,0.00054,121.48917,-11.17545,-14.12665,0.00074,-15.47809,14.28956,0.00403,-5.06834,-10.80156,11.6705,-26.95409,-14.3282,6.85118,4.27947,6.27853,8.7155
1999,-3.92208,0.0,-0.0,-8.99598,0.0,0.0,-21.44511,-8.66659,9.25388,9.74858,4.45531,-16.34434,-23.03323,-6.64573,0.00027,-3.78302,0.88103,0.00015,30.40784,19.83812,15.87769,1.30143,2.25406,-15.99844,18.2216,19.22869,11.22973,47.28455,-4.4237,42.98324,127.40195,-0.00057,-99.78659,123.3195,-0.00137,119.01855,-11.39172,-14.30294,0.00107,-15.07363,13.84383,-0.00256,-4.92632,-10.58963,11.75042,-26.78836,-14.16079,7.00783,4.31256,6.25945,8.92692
2000,-3.74831,0.0,-0.0,-8.8288,0.0,0.0,-21.74686,-8.72835,9.12239,9.83414,4.44529,-16.16374,-23.37992,-6.81224,8e-05,-3.9751,0.82993,0.00015,30.56059,20.03032,15.89421,1.40681,2.18537,-16.02984,18.33298,19.34274,11.23433,47.44529,-4.41695,42.84662,127.27197,-0.00374,-99.95966,123.16,-0.00036,117.74305,-11.48455,-14.80378,-0.00013,-14.04468,13.38838,-0.00572,-4.81067,-10.46562,11.92376,-26.65293,-14.10912,7.21854,4.34131,6.23593,9.12249
2001,-3.46501,-0.0,0.0,-8.57489,0.0,-0.0,-22.09568,-8.72942,8.80569,9.90285,4.34214,-16.09838,-23.77828,-6.91121,-0.00021,-4.18459,0.83054,-6e-05,30.73778,20.17773,15.96001,1.47969,2.08342,-15.98893,18.50376,19.44886,11.13892,47.55175,-4.39303,42.73336,127.04893,-0.006,-101.06559,123.00931,0.00113,117.65865,-11.47319,-15.44023,-0.00244,-12.94425,13.18189,-0.00168,-4.8027,-10.49245,12.11528,-26.63821,-14.20408,7.38853,4.347,6.19946,9.23778
2002,-2.98149,0.0,0.0,-8.56011,0.0,0.0,-22.57424,-8.68262,8.48365,10.01712,4.24226,-16.21583,-24.1771,-6.97131,-0.00032,-4.40291,0.90676,-0.00027,30.904,20.24264,16.00538,1.50254,1.91076,-15.86867,18.62956,19.47415,11.0328,47.65704,-4.43266,42.71182,126.82883,-0.00243,-102.00033,122.93827,0.00078,118.25664,-11.42461,-15.73847,-0.00374,-12.32182,13.38136,8e-05,-4.8195,-10.62989,12.27077,-26.66038,-14.38852,7.4822,4.296,6.15724,9.27079
2003,-2.48521,-0.0,0.0,-8.84295,0.0,0.0,-23.19727,-8.52781,8.22846,10.16357,4.1793,-16.37197,-24.56904,-7.03064,-0.00012,-4.60141,1.02443,-0.00024,31.03957,20.27637,16.05687,1.47225,1.69709,-15.78183,18.65082,19.43072,11.04887,47.81557,-4.54134,42.78549,126.69573,0.00099,-101.68303,122.95069,-0.00018,118.89984,-11.44264,-15.42692,-0.00364,-12.36681,13.78855,-0.00219,-4.76637,-10.76808,12.41261,-26.61345,-14.56865,7.56271,4.18734,6.11216,9.23087
2004,-2.30668,0.0,-0.0,-9.34921,0.0,-0.0,-23.84921,-8.35789,8.01377,10.30429,4.13144,-16.41008,-24.97176,-7.11887,0.00031,-4.7513,1.11587,-2e-05,31.17642,20.35606,16.12796,1.42245,1.51593,-15.80717,18.61201,19.39437,11.19975,47.99788,-4.64478,42.87379,126.63715,-0.00014,-100.75378,122.9851,-0.00085,118.91198,-11.49634,-14.79852,-0.00203,-12.89985,13.91563,-0.00026,-4.68377,-10.79594,12.55192,-26.52651,-14.64542,7.68325,4.08031,6.06445,9.12633
2005,-2.43044,-0.0,-0.0,-9.88844,-0.0,0.0,-24.45485,-8.35483,7.77311,10.40427,4.11598,-16.28589,-25.39472,-7.23997,0.00049,-4.86011,1.12821,0.00016,31.37351,20.51693,16.19322,1.40979,1.41633,-15.92932,18.61336,19.42723,11.36438,48.14337,-4.6871,42.89178,126.55206,-0.00334,-100.55612,122.97794,-0.00197,117.87682,-11.53512,-14.35045,-0.00055,-13.55845,13.45715,0.00341,-4.63984,-10.70056,12.60751,-26.47049,-14.57721,7.77231,4.03135,6.03048,9.01398
2006,-2.29942,0.0,-0.0,-9.97971,0.0,-0.0,-25.13326,-8.54176,7.41185,10.38695,4.17888,-16.03374,-25.85921,-7.33973,-0.00019,-4.95189,1.07556,0.00019,31.66685,20.71698,16.30451,1.44864,1.36081,-16.10025,18.71428,19.527,11.42407,48.26674,-4.69522,42.84341,126.34558,-0.00315,-101.04633,122.91463,-0.00213,116.25909,-11.66695,-14.21234,-0.00068,-14.119,12.73084,0.00166,-4.58799,-10.60027,12.47607,-26.41572,-14.43607,7.68696,4.0242,6.00958,8.97905
2007,-1.52672,0.0,0.0,-9.44464,0.0,0.0,-26.01116,-8.78853,6.8982,10.25335,4.30368,-15.76947,-26.40756,-7.35565,-0.00128,-5.02761,1.04,8e-05,32.03727,20.88559,16.5445,1.47739,1.26223,-16.25891,18.89387,19.63686,11.3631,48.45166,-4.737,42.81425,126.02841,0.00353,-100.96211,122.80763,0.0003,115.2588,-12.01526,-14.17435,-0.00171,-14.67084,12.36223,-0.0032,-4.45599,-10.61864,12.17558,-26.30049,-14.34326,7.39687,3.98777,5.96669,9.04119
2008,-0.58225,0.0,-0.0,-8.85731,0.0,0.0,-26.98883,-8.94069,6.34956,10.17542,4.40721,-15.65923,-27.05293,-7.3299,-0.00121,-5.07679,1.0872,-0.0,32.42855,21.01646,16.86409,1.43208,1.08654,-16.33219,19.1071,19.70549,11.23275,48.73643,-4.83006,42.87352,125.71359,0.00746,-99.83597,122.66512,0.00279,115.47849,-12.49582,-14.16897,-0.00169,-15.29289,12.45133,-0.00486,-4.28866,-10.74758,11.86279,-26.16041,-14.3485,7.05287,3.88015,5.88121,9.1318
2009,-0.27509,0.0,0.0,-8.81153,0.0,0.0,-27.83974,-8.93458,5.91793,10.29436,4.42675,-15.80175,-27.75824,-7.38646,0.0004,-5.10987,1.19844,-3e-05,32.81047,21.17715,17.10187,1.33768,0.88657,-16.25767,19.34262,19.71503,11.0916,49.05453,-4.92472,43.00495,125.50615,0.00403,-98.73518,122.51649,0.00169,116.06287,-12.81122,-14.39441,-0.00162,-15.7831,12.49413,-0.00195,-4.19057,-10.88121,11.67572,-26.0837,-14.40402,6.82544,3.74175,5.79024,9.1753
2010,-0.80227,0.0,-0.0,-9.24719,0.0,0.0,-28.45663,-8.85545,5.60589,10.53015,4.35263,-16.11979,-28.47627,-7.5817,0.0017,-5.15837,1.30748,-3e-05,33.19143,21.42301,17.16425,1.27528,0.73015,-16.04517,19.6136,19.66204,10.9943,49.30965,-4.98896,43.13351,125.39512,-0.00038,-98.73064,122.43272,-0.00072,115.85489,-12.67753,-14.86193,-0.00279,-15.93355,12.23564,0.00034,-4.19598,-10.9354,11.6053,-26.09746,-14.42851,6.73832,3.6405,5.75492,9.16565
2011,-1.59095,0.0,0.0,-9.54428,-0.0,0.0,-28.94092,-8.8646,5.27402,10.65957,4.21147,-16.34962,-29.16948,-7.8273,0.00086,-5.24805,1.37516,-2e-05,33.53553,21.71481,17.17555,1.25823,0.6013,-15.85711,19.90879,19.57901,10.9582,49.47652,-5.05456,43.19662,125.26795,-0.00318,-99.67563,122.46663,-0.00181,115.08037,-12.08509,-15.2077,-0.00076,-15.79306,12.10079,0.00185,-4.25436,-10.89402,11.55735,-26.15402,-14.37255,6.70915,3.5658,5.76787,9.15306
2012,-1.91713,-0.0,-0.0,-9.02364,0.0,0.0,-29.4894,-9.03294,4.81663,10.52993,4.078,-16.2277,-29.81405,-7.98797,-0.00117,-5.36832,1.40717,1e-05,33.75608,21.95528,17.3746,1.20386,0.41661,-15.92799,20.16652,19.55331,10.93917,49.60578,-5.1504,43.1753,125.04034,-0.00305,-100.7015,122.55958,-0.00212,114.78901,-11.38431,-15.15121,0.00252,-15.55969,12.42789,0.00221,-4.30775,-10.79019,11.4869,-26.20065,-14.25041,6.68286,3.44259,5.74049,9.16488
2013,-1.62288,0.0,-0.0,-7.77378,0.0,0.0,-30.18067,-9.23467,4.33846,10.23681,4.03634,-15.79821,-30.40483,-8.07996,-0.00153,-5.46579,1.42645,3e-05,33.86403,22.11865,17.74723,1.06576,0.16127,-16.28328,20.31807,19.64665,10.9109,49.75795,-5.24363,43.0911,124.7553,1e-05,-101.09421,122.55851,0.00041,115.30999,-11.06444,-14.85794,0.00218,-15.32714,12.86053,0.00068,-4.34275,-10.67675,11.4398,-26.22705,-14.1279,6.68219,3.28247,5.61909,9.15539
2014,-1.16684,0.0,0.0,-6.74268,0.0,0.0,-30.89541,-9.28981,4.10881,10.05011,4.08928,-15.41784,-30.93695,-8.2781,0.00014,-5.48412,1.44651,3e-05,34.00001,22.27043,17.98582,0.91782,-0.08185,-16.66729,20.37359,19.82779,10.92629,49.96144,-5.2891,42.99759,124.52125,0.00173,-100.78354,122.38522,0.00365,116.24672,-11.30335,-14.70812,0.00231,-15.02467,13.00619,-0.00049,-4.35171,-10.58263,11.47225,-26.22577,-14.05244,6.74886,3.21501,5.43993,9.04791
2015,-0.94803,-0.0,-0.0,-6.43215,0.0,-0.0,-31.48167,-9.15576,4.20143,10.0706,4.14458,-15.30301,-31.42062,-8.63359,0.00118,-5.41983,1.45812,-1e-05,34.2458,22.45105,18.01332,0.84196,-0.26382,-16.89376,20.44878,20.02916,11.02542,50.20528,-5.30655,42.93419,124.35939,0.001,-100.30544,122.15201,0.00294,117.08421,-11.75919,-14.81066,0.0036,-14.70146,13.03214,-0.00071,-4.30015,-10.4806,11.52068,-26.16254,-13.97549,6.83358,3.30182,5.23975,8.84009
2016,-0.90882,0.0,0.0,-6.35609,0.0,0.0,-31.88401,-8.98014,4.36974,10.14288,4.11174,-15.34297,-31.92182,-8.95721,0.00012,-5.325,1.45078,-2e-05,34.54159,22.64527,18.16322,0.81985,-0.41622,-16.99674,20.65205,20.21959,11.1505,50.44707,-5.34475,42.88549,124.19025,-0.00012,-100.17672,122.03236,0.00025,117.46173,-11.90622,-14.92156,0.00387,-14.64628,13.25474,-0.00204,-4.17909,-10.34442,11.4365,-26.03274,-13.81828,6.80665,3.44436,5.01288,8.63473
2017,-0.89982,0.0,0.0,-6.21704,0.0,-0.0,-32.07042,-9.01744,4.41528,10.17825,4.01974,-15.44929,-32.52656,-9.08346,-0.00164,-5.24818,1.4355,4e-05,34.83681,22.86412,18.65047,0.80089,-0.54934,-16.96864,20.95217,20.39958,11.21369,50.65926,-5.38464,42.8105,123.98064,-0.0003,-100.52791,122.0445,-0.00136,117.25356,-11.52939,-14.91036,0.00261,-15.04163,13.62164,-0.0024,-4.03285,-10.23707,11.22354,-25.8862,-13.64065,6.64758,3.54396,4.78508,8.52249
2018,-1.02492,0.0,0.0,-6.41888,-0.0,-0.0,-32.00686,-9.35272,4.40388,10.27893,4.00978,-15.68189,-33.24542,-9.07118,-0.00183,-5.19331,1.41088,7e-05,35.16668,23.14344,19.28697,0.78852,-0.61874,-16.73246,21.24528,20.5674,11.17614,50.86102,-5.37557,42.67503,123.79433,0.00082,-101.36713,122.05365,-0.00288,116.41003,-10.82015,-15.04082,-0.00232,-15.67875,13.79338,0.00048,-3.9016,-10.24523,11.09044,-25.76148,-13.59946,6.51938,3.62049,4.62569,8.49379
2019,-1.43309,0.0,0.0,-7.17812,0.0,-0.0,-31.74423,-9.77562,4.48027,10.51121,4.20201,-16.02258,-33.98139,-9.07738,-0.00049,-5.13344,1.33936,-2e-05,35.51906,23.46486,19.83876,0.78784,-0.61469,-16.36541,21.5226,20.70082,11.02688,51.06928,-5.36426,42.45483,123.66545,0.00171,-102.68883,121.9774,-0.00367,115.11858,-10.14384,-15.58969,-0.00542,-16.09758,13.61264,0.00018,-3.76649,-10.34196,11.17846,-25.63132,-13.72148,6.56503,3.70625,4.55877,8.50708
2020,-2.00906,0.0,0.0,-8.08116,-0.0,0.0,-31.4116,-9.99159,4.70481,10.78647,4.59274,-16.34531,-34.60234,-9.18579,0.00061,-5.03819,1.19802,-0.00022,35.77444,23.76114,20.2875,0.73956,-0.58694,-16.06903,21.85151,20.77944,10.77103,51.25737,-5.47477,42.16299,123.51772,0.00043,-104.25594,121.88063,-0.00226,114.00751,-9.82836,-16.40611,-0.00164,-15.96419,13.31707,-0.00299,-3.57554,-10.41879,11.39833,-25.43772,-13.87332,6.74224,3.75273,4.54258,8.54867
2021,-2.42791,0.0,0.0,-8.57203,0.0,-0.0,-31.13106,-9.85457,5.07618,10.9631,5.03803,-16.58702,-35.0232,-9.39525,0.00062,-4.89924,1.03498,-0.00025,35.83933,23.98825,20.6793,0.58538,-0.58216,-15.93682,22.21931,20.84171,10.47901,51.39619,-5.74204,41.86528,123.25265,-0.00175,-105.67026,121.84911,-0.00091,113.72904,-9.92523,-17.06552,0.00195,-15.29835,13.30282,-4e-05,-3.31443,-10.40955,11.59371,-25.16693,-13.93628,6.92952,3.71724,4.53457,8.59657
2022,-2.47986,0.0,0.0,-8.43393,0.0,-0.0,-30.97536,-9.4685,5.58154,10.94727,5.31512,-16.7734,-35.22975,-9.67437,-5e-05,-4.74548,0.9406,-2e-05,35.74242,24.15293,20.9905,0.362,-0.62203,-15.88055,22.51425,20.97115,10.26657,51.5014,-6.04574,41.63033,122.86251,-0.00309,-106.7169,121.8609,0.0002,114.45741,-10.10772,-17.34978,0.00166,-14.32783,13.76122,0.00717,-3.0376,-10.32923,11.72518,-24.87659,-13.90985,7.08398,3.64852,4.52362,8.61615
2023,-2.27545,0.0,-0.0,-7.95804,0.0,-0.0,-30.93341,-9.10586,6.21776,10.75283,5.28974,-16.90088,-35.27579,-10.01175,-0.00052,-4.62436,0.9545,0.00015,35.58914,24.30275,21.16721,0.18308,-0.7085,-15.7838,22.6608,21.20248,10.17755,51.62351,-6.22821,41.48944,122.4201,-0.0031,-107.381,121.8213,0.0022,115.72897,-10.13867,-17.38593,0.0008,-13.26291,14.44058,0.00824,-2.83728,-10.27117,11.8637,-24.66436,-13.90664,7.23656,3.63317,4.52238,8.60209
2024,-2.01603,-0.0,-0.0,-7.65605,-0.0,0.0,-30.92308,-8.98263,6.9441,10.50826,5.03753,-16.89857,-35.26147,-10.38156,-0.00039,-4.5646,1.02498,0.0001,35.46421,24.48616,21.25667,0.1276,-0.81953,-15.65916,22.69931,21.50315,10.14293,51.80222,-6.24765,41.45034,121.99116,-0.00054,-107.52253,121.67893,0.00226,116.6573,-10.3408,-17.34275,-0.00062,-12.31084,14.83816,0.00281,-2.758,-10.36889,12.1027,-24.58255,-14.08479,7.42408,3.69701,4.54444,8.57574
2025,-1.65422,0.0,0.0,-7.68523,-0.0,-0.0,-30.9038,-9.10342,7.60047,10.35482,4.75437,-16.7449,-35.27826,-10.66679,-8e-05,-4.55506,1.06471,-3e-05,35.37522,24.69848,21.46561,0.15875,-0.9193,-15.6016,22.73191,21.83019,10.07573,52.03254,-6.22366,41.47943,121.58179,0.00452,-106.93695,121.45933,-0.0001,116.59216,-11.11638,-17.20508,-0.00371,-11.66156,14.68237,-0.00013,-2.74962,-10.67115,12.46377,-24.58478,-14.49737,7.64816,3.78872,4.58367,8.55508
2026,-1.03479,-0.0,-0.0,-7.75466,0.0,0.0,-30.92619,-9.25915,7.97776,10.34407,4.60878,-16.55819,-35.36447,-10.73798,-0.00016,-4.56114,1.02199,-0.00014,35.29923,24.89209,21.94314,0.17088,-0.96772,-15.65277,22.84534,22.13342,9.96407,52.27652,-6.33348,41.46909,121.14089,0.00938,-105.78428,121.19791,-0.00179,115.64825,-12.16766,-16.91203,-0.00482,-11.3238,14.07428,0.00101,-2.73122,-11.0733,12.85012,-24.58591,-15.01182,7.8576,3.85517,4.64014,8.53022
2027,-0.25331,0.0,0.0,-7.51883,0.0,-0.0,-31.03689,-9.24108,8.03871,10.43332,4.68652,-16.47482,-35.48785,-10.6145,-0.00033,-4.57181,0.90261,-0.00018,35.24601,25.03211,22.57198,0.12116,-0.94806,-15.78823,23.0746,22.36587,9.8785,52.50892,-6.64189,41.31252,120.59461,0.00756,-104.67411,120.87864,-0.00262,114.30946,-12.7897,-16.57663,-0.00133,-11.20866,13.10904,0.00206,-2.62342,-11.41404,13.1742,-24.49554,-15.44643,8.03182,3.9095,4.73855,8.45264
2028,0.4355,0.0,0.0,-6.93926,0.0,0.0,-31.21665,-9.14342,8.00856,10.55501,4.94461,-16.49343,-35.54636,-10.4813,-0.00044,-4.6177,0.74489,-5e-05,35.22307,25.12215,23.07808,0.07809,-0.89253,-15.96489,23.39823,22.57171,9.89053,52.74509,-7.05483,41.0053,119.90391,-0.00621,-104.3718,120.4481,-0.00175,112.89693,-12.82663,-16.47755,0.00286,-11.2953,11.65517,0.0001,-2.33977,-11.59011,13.48991,-24.21305,-15.72508,8.26178,4.00578,4.88496,8.27333
2029,0.98613,0.0,-0.0,-6.38074,0.0,0.0,-31.4333,-9.2685,8.15553,10.70525,5.198,-16.53826,-35.44884,-10.52387,-0.001,-4.74053,0.58077,0.00025,35.19642,25.20193,23.28054,0.12186,-0.83051,-16.11554,23.79458,22.88183,9.93898,52.9979,-7.4584,40.60816,119.09138,-0.02101,-105.18391,119.88684,0.00315,111.72773,-12.78599,-16.78967,0.008,-11.53854,9.73268,-0.00605,-1.90212,-11.58097,13.84338,-23.75458,-15.84554,8.59928,4.15732,5.05347,8.00412
2030,1.56475,0.0,0.0,-6.31692,0.0,0.0,-31.65042,-9.68363,8.5283,10.96735,5.24866,-16.63113,-35.24377,-10.75132,-0.00125,-4.98214,0.43314,0.00047,35.15035,25.32745,23.2377,0.26385,-0.74589,-16.12862,24.31238,23.34471,9.80222,53.20033,-7.8593,40.14691,118.1749,-0.01488,-106.38892,119.23127,0.00518,110.96211,-13.1166,-17.24971,0.00941,-11.95164,7.66403,-0.00549,-1.49578,-11.45219,14.09766,-23.31984,-15.81869,8.88947,4.32423,5.23945,7.72497
2031,2.25617,0.0,-0.0,-6.87837,0.0,0.0,-31.76285,-10.12538,8.99812,11.41346,5.04595,-16.90498,-35.10803,-11.02702,-0.00043,-5.39331,0.33915,8e-05,35.12798,25.52837,23.1704,0.48007,-0.62689,-15.90121,25.03738,23.84486,9.27548,53.23022,-8.32862,39.58732,117.07835,0.01676,-106.75009,118.48672,-0.00573,110.21152,-13.93008,-17.19113,-0.00536,-12.79003,5.62476,0.01288,-1.24648,-11.35178,14.12437,-23.05841,-15.7352,8.95352,4.47624,5.47933,7.5141
2032,2.97467,0.0,0.0,-7.7188,0.0,0.0,-31.62003,-10.35992,9.47197,11.97991,4.70932,-17.43532,-35.17128,-11.24561,0.00042,-5.99649,0.3315,-0.00099,35.1544,25.77584,23.23458,0.74441,-0.5049,-15.45503,25.96345,24.24232,8.39023,53.04157,-8.83413,38.85135,115.7104,0.04336,-105.93051,117.56252,-0.02108,109.10815,-15.26079,-16.23099,-0.02767,-14.16374,3.53156,0.03103,-1.04089,-11.42531,14.06816,-22.86386,-15.78298,8.87196,4.60551,5.79677,7.38459
2033,3.616,0.0,-0.0,-8.28937,0.0,0.0,-31.17831,-10.3728,9.92763,12.48409,4.42154,-18.10717,-35.40723,-11.39041,0.0005,-6.74592,0.38592,-0.00165,35.17851,25.99754,23.42728,1.02456,-0.42407,-14.97179,26.92048,24.51792,7.41593,52.72597,-9.2604,37.86036,114.17364,0.02825,-105.08218,116.35146,-0.01447,108.151,-16.94477,-14.86989,-0.02696,-15.58655,1.48365,0.02119,-0.71495,-11.67307,14.19512,-22.55669,-16.05923,8.89622,4.68244,6.15027,7.31618
2034,4.15001,-0.0,0.0,-8.23356,0.0,0.0,-30.57669,-10.19578,10.30435,12.78107,4.29668,-18.66565,-35.72162,-11.45956,-3e-05,-7.56095,0.40755,-0.00069,35.14319,26.12125,23.69663,1.29812,-0.40915,-14.68627,27.67979,24.75737,6.61378,52.42717,-9.61491,36.63372,112.75299,-0.01238,-105.69177,114.84367,0.01848,108.24728,-18.3649,-14.06733,-0.00732,-16.37124,-0.0681,-0.00399,-0.31696,-11.90664,14.55869,-22.16211,-16.40845,9.14978,4.66729,6.4433,7.29451
2035,4.53851,0.0,0.0,-7.5696,0.0,0.0,-29.96409,-9.79882,10.51856,12.88542,4.31722,-18.91224,-36.08617,-11.45105,-0.00054,-8.3836,0.29912,0.00128,35.08175,26.11152,24.00199,1.57172,-0.45954,-14.73873,28.15377,25.04481,6.02722,52.22406,-10.05795,35.33469,111.61465,-0.03677,-108.03341,113.10023,0.04282,109.38955,-18.81445,-14.33101,-0.00634,-16.36131,-0.61557,-0.01376,-0.01783,-11.91343,15.00082,-21.83607,-16.57563,9.56595,4.58962,6.59765,7.26539
2036,4.68944,0.0,0.0,-6.6083,0.0,-0.0,-29.30408,-9.21428,10.59462,12.95185,4.37967,-18.89872,-36.53916,-11.41395,-0.0003,-9.1968,0.07026,0.00218,35.10668,25.98998,24.24247,1.86812,-0.55118,-15.07701,28.468,25.37591,5.53618,52.10268,-10.69964,34.15543,110.61354,-0.02959,-110.76016,111.13779,0.03399,110.48794,-18.11626,-15.25869,-0.01388,-15.99442,0.12248,-0.0106,0.17934,-11.67006,15.39585,-21.58621,-16.49322,10.03474,4.56525,6.64309,7.13756
2037,4.61205,0.0,0.0,-5.7978,0.0,0.0,-28.47805,-8.63761,10.67336,13.1645,4.39141,-18.9022,-37.08278,-11.42365,0.00067,-10.02594,-0.15142,0.00095,35.28886,25.82161,24.28806,2.20176,-0.65392,-15.47897,28.82814,25.65407,5.02558,52.00972,-11.48016,33.12034,109.45858,0.00806,-111.86924,108.90781,0.00556,110.53458,-16.74718,-15.80158,0.00511,-15.6684,2.01036,-0.00529,0.47158,-11.37062,15.74611,-21.23731,-16.34217,10.48271,4.67169,6.70629,6.89897
2038,4.55543,-0.0,0.0,-5.5328,-0.0,0.0,-27.52966,-8.32748,10.86807,13.62659,4.32035,-19.16729,-37.64272,-11.49088,0.00122,-10.92394,-0.25035,-0.00116,35.57237,25.66541,24.12477,2.55507,-0.75001,-15.71358,29.32812,25.77769,4.41923,51.90899,-12.23446,32.04066,108.0192,0.04371,-110.53728,106.36523,-0.01919,109.36903,-15.50079,-15.20333,0.02656,-15.27877,4.37014,0.00563,0.98237,-11.24643,16.10074,-20.68781,-16.3553,10.86728,4.8238,6.87135,6.6454
2039,4.82133,0.0,0.0,-5.84604,0.0,-0.0,-26.6664,-8.40341,11.13281,14.29062,4.18715,-19.69531,-38.16098,-11.52355,0.00022,-11.90884,-0.23379,-0.00205,35.82578,25.54253,23.88838,2.84845,-0.82574,-15.72954,29.88299,25.73337,3.61562,51.80623,-12.81609,30.72779,106.40626,0.03556,-107.86427,103.493,-0.03534,107.38768,-15.09713,-13.6267,0.01328,-14.63632,6.24035,0.01037,1.56645,-11.34473,16.43624,-20.08982,-16.5681,11.14828,4.82517,7.08858,6.45793
2040,5.4656,0.0,0.0,-6.31503,-0.0,0.0,-26.07347,-8.6976,11.28547,14.97546,4.03241,-20.26974,-38.68128,-11.40922,-0.00197,-12.92116,-0.20254,-0.00082,35.9644,25.44287,23.73008,2.97386,-0.86956,-15.71416,30.35591,25.60432,2.50225,51.72564,-13.19894,29.1897,104.75863,0.00444,-105.29851,100.31065,-0.04333,105.058,-15.8301,-11.65673,-0.0174,-14.03971,7.04542,0.00417,1.98076,-11.48176,16.59442,-19.67882,-16.75268,11.24591,4.55495,7.2392,6.33672
2041,6.32742,0.0,0.0,-6.53016,0.0,-0.0,-25.8087,-8.84202,11.23314,15.51867,3.85306,-20.67599,-39.28325,-11.18315,-0.00301,-13.88593,-0.23717,0.00113,36.04202,25.3487,23.61312,2.93793,-0.89369,-15.88632,30.7202,25.50376,1.05876,51.65985,-13.4725,27.57273,103.04971,-0.00958,-103.14558,96.88068,-0.03378,102.84557,-17.4219,-9.69716,-0.03045,-13.9233,7.02413,0.00021,2.19359,-11.42363,16.40847,-19.47342,-16.63138,11.09148,4.09901,7.24638,6.26363
2042,7.28343,-0.0,-0.0,-6.58524,-0.0,-0.0,-25.7875,-8.62743,11.11595,15.92565,3.57698,-20.90713,-39.97217,-11.06099,-0.00105,-14.80322,-0.32004,0.00191,36.21882,25.26271,23.29854,2.93036,-0.93682,-16.18863,31.02794,25.49879,-0.59932,51.57396,-13.71907,26.02938,101.15309,-0.0106,-101.12834,93.23867,-0.00171,101.20773,-19.28162,-8.0552,-0.01713,-14.20798,6.85233,-0.00115,2.3919,-11.11174,15.90633,-19.27777,-16.1597,10.73446,3.68684,7.11802,6.26192
2043,8.37661,-0.0,-0.0,-6.91322,0.0,0.0,-25.83844,-8.25642,11.10398,16.3305,3.14792,-21.15694,-40.68423,-11.2171,0.00184,-15.72727,-0.35564,0.00085,36.60104,25.1996,22.6223,3.14992,-1.04224,-16.307,31.24909,25.56743,-2.32961,51.44073,-13.93246,24.66621,99.01154,-0.01383,-99.16914,89.37882,0.04039,100.406,-20.81004,-6.9712,0.003,-14.41368,6.9522,-0.00087,2.70333,-10.71553,15.27167,-18.96915,-15.56136,10.28451,3.49296,6.92447,6.38751
2044,9.65612,0.0,0.0,-7.6069,0.0,-0.0,-25.82449,-8.14249,11.15665,16.80161,2.61185,-21.62737,-41.3611,-11.57911,0.00258,-16.65603,-0.25583,-0.00106,37.12614,25.13413,21.7015,3.57589,-1.23713,-16.03556,31.22845,25.62415,-4.09336,51.25146,-14.04861,23.54176,96.70093,-0.0124,-97.11977,85.35918,0.0553,100.23977,-21.49172,-6.40034,0.01035,-14.32512,7.29577,0.00286,3.0536,-10.45171,14.62515,-18.63523,-15.08143,9.77324,3.50424,6.74287,6.66714
2045,10.97766,-0.0,-0.0,-8.15566,0.0,-0.0,-25.72943,-8.46914,11.11001,17.2482,2.08848,-22.34817,-41.98355,-11.94139,0.00179,-17.50653,-0.00816,-0.00214,37.62941,25.00805,20.76795,3.99133,-1.5252,-15.4978,30.82778,25.61355,-5.90974,51.04139,-13.98374,22.72546,94.32946,0.00369,-94.63492,81.29191,0.02154,100.01432,-21.03008,-6.15135,0.00341,-14.35287,7.55529,0.01166,3.34523,-10.34393,13.99829,-18.37246,-14.75328,9.22165,3.57532,6.59912,7.02993
2046,11.97577,0.0,-0.0,-8.09188,0.0,0.0,-25.58871,-9.07745,10.89091,17.57578,1.69619,-23.14991,-42.58084,-12.19251,0.00121,-18.22603,0.30966,-0.00166,38.00291,24.82008,19.95133,4.23387,-1.87973,-14.97588,30.06947,25.53331,-7.68778,50.89389,-13.66606,22.32901,91.8704,0.03084,-91.63678,77.22721,-0.0201,99.16966,-19.42044,-6.13642,-0.00783,-14.93964,7.34424,0.02427,3.65341,-10.23962,13.50072,-18.08389,-14.47515,8.79157,3.58986,6.46754,7.35305
2047,12.22777,0.0,0.0,-7.57265,0.0,-0.0,-25.35736,-9.69864,10.49228,17.83076,1.52232,-23.73484,-43.23457,-12.26713,-0.00048,-18.84339,0.5496,1e-05,38.2713,24.64709,19.37707,4.32463,-2.23378,-14.73222,29.08324,25.32504,-9.19568,50.84956,-13.11709,22.3931,89.14034,0.05213,-88.5621,73.19953,-0.02667,97.83929,-16.84091,-6.20069,-0.00411,-15.62,6.53444,0.01518,4.12398,-10.10777,13.3331,-17.6105,-14.29157,8.68376,3.54244,6.33289,7.58407
2048,11.86099,0.0,-0.0,-7.16939,0.0,-0.0,-25.00679,-10.07444,9.88167,18.11708,1.57683,-23.88447,-44.00462,-12.06876,-0.00374,-19.37307,0.60438,0.0014,38.54942,24.54438,19.16376,4.34221,-2.50122,-14.95446,27.95035,24.86667,-10.28898,50.83338,-12.47773,22.79119,85.95608,0.04011,-86.12845,69.36044,-0.02016,96.34886,-13.79473,-6.01438,0.01622,-15.19347,5.24941,-0.03298,4.75438,-10.12952,13.59824,-16.96671,-14.40841,8.92573,3.49596,6.22831,7.74025
2049,11.74152,0.0,0.0,-7.27238,-0.0,-0.0,-24.64894,-9.99162,9.12156,18.43539,1.73291,-23.70269,-44.85239,-11.6548,-0.00477,-19.76223,0.5491,0.0012,38.93901,24.49992,19.16732,4.29681,-2.6303,-15.57826,26.6777,24.13914,-11.16661,50.73167,-11.89997,23.41464,82.27475,-0.01614,-84.9505,65.991,-0.02402,94.65417,-11.32301,-5.48811,0.0218,-13.11219,3.79269,-0.06957,5.41443,-10.37892,14.21146,-16.29352,-14.86336,9.40977,3.51154,6.19383,7.83951
2050,12.30682,-0.0,0.0,-7.64975,0.0,0.0,-24.34805,-9.38942,8.4186,18.64496,1.82408,-23.45682,-45.70865,-11.2807,-0.00187,-19.97029,0.55393,0.00034,39.43501,24.50266,19.0944,4.15762,-2.6371,-16.30763,25.26963,23.26489,-12.27484,50.52477,-11.4464,24.48515,78.19511,-0.07916,-85.10606,63.42262,-0.01557,92.85251,-10.50433,-4.91358,0.00637,-10.34102,2.81104,-0.04157,6.0327,-10.65634,14.98576,-15.65303,-15.40258,10.03629,3.60137,6.22188,7.92629
2051,12.74403,0.0,-0.0,-7.63957,0.0,0.0,-23.95024,-8.47198,7.94951,18.59793,1.82948,-23.24873,-46.55885,-11.14553,0.00196,-20.04044,0.66403,-4e-05,39.9413,24.56705,18.8615,3.93822,-2.58718,-16.93318,23.71295,22.33974,-13.80552,50.30994,-11.07239,26.4721,73.87792,-0.09578,-85.88806,61.86542,0.00376,91.52585,-11.45028,-4.47524,-0.00746,-8.30792,2.77464,0.00151,6.64671,-10.76879,15.70311,-15.00124,-15.76732,10.67324,3.73227,6.26449,8.10389
2052,12.18918,-0.0,0.0,-6.86683,0.0,-0.0,-23.31319,-7.67913,7.74888,18.32435,1.88466,-23.05361,-47.39912,-11.22844,0.00353,-20.06593,0.78929,-0.0001,40.36835,24.67053,18.58565,3.70343,-2.55365,-17.43904,21.88852,21.35942,-15.32935,50.19038,-10.60189,29.57393,69.47769,-0.06236,-86.21209,61.23955,0.00975,90.97442,-13.00071,-4.13169,-0.01048,-7.3335,3.19631,0.01128,7.27422,-10.73982,16.14144,-14.33896,-15.89913,11.10043,3.87737,6.26127,8.45225
2053,11.22686,0.0,0.0,-5.65863,-0.0,0.0,-22.63114,-7.38789,7.75477,18.05859,2.11499,-22.9165,-48.18336,-11.36252,0.0022,-20.10636,0.86801,-0.00016,40.6981,24.7373,18.35771,3.49033,-2.58164,-17.83612,19.64552,20.32077,-16.16497,50.15007,-9.76474,33.40924,65.07621,-0.00953,-85.3677,61.29372,0.01147,90.72888,-13.76094,-3.99536,-0.00864,-6.72724,3.16124,0.0009,7.8237,-10.65875,16.17346,-13.77862,-15.83534,11.16188,4.05015,6.15136,8.93562
2054,11.26213,0.0,-0.0,-4.70149,0.0,0.0,-22.28926,-7.67608,7.88273,18.03823,2.49591,-22.97136,-48.86071,-11.37966,-0.00048,-20.14421,0.94508,-0.00025,40.9794,24.68609,18.1874,3.26995,-2.68297,-18.05781,17.04165,19.24454,-16.07883,50.074,-8.41464,37.32059,60.59372,0.06515,-83.24091,61.90587,0.02599,90.23382,-13.45116,-4.21914,-0.00893,-5.89799,2.42259,-0.01053,8.1978,-10.5404,15.86259,-13.41505,-15.61279,10.91202,4.28062,5.8862,9.45413
2055,12.55872,-0.0,0.0,-4.29991,0.0,0.0,-22.33522,-8.33381,8.04679,18.25612,2.88361,-23.27024,-49.43595,-11.20625,-0.00262,-20.10624,1.08323,-0.00017,41.26859,24.45123,18.0791,2.98647,-2.86131,-18.11321,14.3472,18.09225,-15.26745,49.89286,-6.70164,40.9096,55.8127,0.16384,-80.0915,63.11559,0.03704,89.67045,-12.92828,-4.6047,-0.00553,-4.80044,1.44854,-0.0109,8.45825,-10.39166,15.3874,-13.17325,-15.30233,10.51818,4.57926,5.43988,9.97495
2056,13.90894,0.0,-0.0,-4.15181,0.0,0.0,-22.34951,-8.86402,8.1819,18.48537,3.16434,-23.6757,-49.9617,-10.9519,-0.00234,-19.92615,1.27142,0.00016,41.58238,24.00858,17.98655,2.61375,-3.1167,-18.20715,11.75058,16.76784,-13.71854,49.63844,-4.95018,44.20064,50.60758,0.19523,-76.72854,64.8777,0.01029,89.95354,-12.92637,-4.91129,-0.00141,-3.75758,0.7151,-0.00275,8.80806,-10.25595,14.8627,-12.84572,-14.9858,10.07296,4.95735,4.83238,10.5781
2057,14.33917,0.0,0.0,-3.94848,-0.0,0.0,-21.96659,-8.73555,8.28788,18.57915,3.31614,-24.01083,-50.4762,-10.87546,0.00042,-19.61339,1.47471,0.00057,41.88986,23.39881,17.72856,2.15315,-3.43997,-18.54021,9.22685,15.23632,-11.09424,49.40254,-3.40123,47.43224,45.13289,0.05685,-74.75504,66.98459,-0.04395,91.93161,-13.21458,-5.36952,-0.00442,-3.21006,0.3382,0.00308,9.39344,-10.14472,14.27889,-12.28745,-14.67027,9.56305,5.41974,4.14574,11.36751
2058,13.93888,0.0,0.0,-3.74245,0.0,0.0,-21.24594,-7.94705,8.39357,18.58938,3.33211,-24.16053,-51.00171,-11.06518,0.00234,-19.2787,1.69796,0.00079,42.13931,22.6663,17.16725,1.58976,-3.83573,-19.16896,6.7025,13.65002,-7.28834,49.33215,-2.06369,50.84671,39.70122,-0.16327,-75.62011,69.26752,-0.06161,95.24957,-13.14839,-6.40664,-0.01368,-3.32305,0.2268,0.00314,10.17882,-10.00065,13.5975,-11.53012,-14.28841,8.97425,5.88974,3.46861,12.33355
2059,13.17628,0.0,0.0,-3.65829,0.0,-0.0,-20.47483,-7.04822,8.5258,18.59739,3.19121,-24.07219,-51.57529,-11.27272,0.00092,-19.07747,1.96065,0.00061,42.33511,21.81268,16.38926,0.93467,-4.30833,-20.03064,4.18957,12.32611,-2.60084,49.5607,-0.7539,54.50922,34.52596,-0.24076,-78.93877,71.7208,-0.01491,98.30601,-12.74707,-8.02289,-0.00672,-3.65351,0.29692,0.00225,11.03928,-9.75195,12.84102,-10.68997,-13.78157,8.35545,6.25372,2.82738,13.34794
2060,12.65263,0.0,-0.0,-3.74159,-0.0,0.0,-19.91826,-6.51883,8.75214,18.61652,2.97342,-23.87697,-52.18946,-11.2467,-0.00165,-19.11796,2.27261,0.00021,42.55423,20.83574,15.5428,0.28838,-4.82641,-20.90489,1.76434,11.54583,2.80867,50.04236,0.68164,58.13267,29.65164,-0.10131,-82.36537,74.37128,0.03754,99.99115,-12.93262,-9.6401,0.01975,-3.50405,0.48501,0.00309,11.89454,-9.40312,12.07718,-9.84438,-13.17863,7.76881,6.5055,2.19942,14.32996
2061,12.97845,-0.0,0.0,-3.93323,0.0,-0.0,-19.72046,-6.39314,9.10349,18.60381,2.91549,-23.79803,-52.74754,-11.02179,-0.00205,-19.43018,2.61812,0.00011,42.84509,19.74572,14.66336,-0.23153,-5.36068,-21.59868,-0.51447,11.41297,9.26468,50.55788,2.15585,61.18725,25.11442,0.0793,-83.83947,77.10914,0.0338,100.80215,-14.61761,-10.40841,0.0102,-2.67715,0.64438,0.00051,12.67954,-9.06256,11.30288,-9.06861,-12.57917,7.17001,6.75038,1.55163,15.35644
2062,14.1311,0.0,0.0,-3.90059,0.0,-0.0,-19.8161,-6.43014,9.44473,18.4451,3.18611,-23.86915,-53.16339,-10.78132,-0.00068,-19.99743,2.94713,0.00019,43.16505,18.566,13.72927,-0.59713,-5.90738,-22.17404,-2.68168,11.90922,17.12608,50.94162,3.42708,63.30792,21.15183,0.11352,-83.5765,79.70312,-0.00693,101.79305,-17.69562,-9.80569,-0.04326,-1.66013,0.46634,-0.00672,13.29951,-8.82146,10.33799,-8.47205,-12.0019,6.35548,7.08168,0.84984,16.57701
2063,15.49122,0.0,0.0,-3.28916,0.0,0.0,-19.989,-6.45216,9.63692,17.99401,3.64817,-24.02374,-53.46088,-10.64364,0.00041,-20.79805,3.24207,-0.00123,43.42334,17.38398,12.72342,-0.84994,-6.4352,-22.66154,-4.84071,12.96065,26.13739,51.20719,4.35391,64.55491,18.10676,0.04416,-83.06219,81.92249,-0.0279,103.22528,-21.19093,-8.15538,-0.06384,-1.16641,-0.44043,-0.00659,13.74039,-8.61614,8.93615,-8.06822,-11.29687,5.1196,7.50576,0.09955,18.10183
2064,16.51072,-0.0,0.0,-2.25698,0.0,-0.0,-20.05519,-6.47092,9.75268,17.15505,4.05118,-24.28317,-53.72387,-10.61403,0.00061,-21.84688,3.53738,-0.0045,43.54201,16.34749,11.64988,-1.00575,-6.88094,-22.85104,-7.06364,14.442,35.45329,51.44031,4.93839,65.25131,16.14274,0.01002,-82.65153,83.63212,-0.01153,104.42724,-24.22247,-6.34761,-0.03076,-1.59715,-2.20152,0.00049,14.0793,-8.31828,7.0018,-7.76228,-10.30901,3.42416,7.98575,-0.60682,19.99627
2065,17.00435,-0.0,0.0,-1.31352,-0.0,-0.0,-19.95563,-6.54375,9.8864,15.8537,4.41134,-24.58069,-53.96926,-10.61036,0.00028,-23.20202,3.79381,-0.00524,43.48326,15.5382,10.59385,-1.02148,-7.22882,-22.73575,-9.33962,16.24619,44.3359,51.65542,5.17378,65.6004,15.22864,0.02237,-81.18544,84.83662,0.01668,104.54885,-26.3982,-5.03143,0.00802,-2.87622,-4.42756,-0.00519,14.28466,-7.95487,4.59497,-7.57106,-9.08491,1.31788,8.53865,-1.15563,22.27806
2066,17.19546,0.0,0.0,-0.5907,0.0,0.0,-19.79452,-6.63632,9.91818,13.9327,4.968,-24.65369,-54.10054,-10.52807,0.00017,-24.9017,3.86239,0.00088,43.24735,14.88118,9.70821,-0.84805,-7.54862,-22.77197,-11.55225,18.36251,52.65209,51.78399,5.00028,65.52631,15.25864,0.01187,-77.42527,85.58143,0.03003,103.46256,-27.49051,-4.21504,0.02515,-4.892,-6.63243,-0.00963,14.21588,-7.70912,1.86667,-7.62793,-7.85074,-1.12596,9.24439,-1.53656,24.84884
2067,17.4785,-0.0,0.0,0.28161,0.0,0.0,-19.81009,-6.614,9.70333,11.19297,5.82555,-24.32128,-54.02317,-10.33466,0.00038,-26.90442,3.66544,0.01027,42.88176,14.22329,9.0328,-0.49676,-7.9183,-23.39191,-13.47546,20.81521,60.6445,51.7787,4.43901,64.86462,16.10039,-0.04472,-71.18176,85.75111,0.02247,101.78429,-27.22818,-3.59805,0.02543,-7.86293,-8.81239,0.02067,13.85693,-7.69157,-0.89719,-7.94293,-6.81616,-3.683,10.14209,-1.84017,27.45725
2068,17.68005,-0.0,-0.0,1.36652,0.0,0.0,-20.09191,-6.37911,9.34506,7.58532,6.84101,-23.7134,-53.7749,-10.08463,-0.00013,-29.13053,3.34978,0.01428,42.47614,13.46893,8.36968,-0.05016,-8.32527,-24.51474,-14.87819,23.54738,68.31075,51.68375,3.64811,63.55622,17.65215,-0.09987,-63.78102,85.0833,-0.00147,99.93568,-25.54731,-3.21745,0.00723,-11.83077,-11.21337,0.06041,13.34725,-7.79827,-3.35236,-8.38019,-6.0131,-5.99638,11.15345,-2.12224,29.77465
2069,17.17439,0.0,-0.0,1.72363,0.0,0.0,-20.38068,-6.05413,9.08565,3.27245,7.77041,-23.05693,-53.4355,-9.81818,-0.00124,-31.57163,3.19358,0.0098,42.04998,12.61992,7.46631,0.40223,-8.68708,-25.69155,-15.7076,26.43489,75.02123,51.53545,2.73928,61.61869,19.83013,-0.09786,-57.50327,83.48624,-0.03191,97.8396,-22.9187,-3.37685,-0.0205,-16.17808,-13.72624,0.05379,12.8366,-7.82031,-5.3066,-8.80459,-5.31814,-7.81249,12.11552,-2.30773,31.55011
2070,16.33572,0.0,-0.0,-0.08272,0.0,-0.0,-20.42991,-5.81732,9.00482,-1.56384,8.38896,-22.27107,-52.9483,-9.50751,-0.00175,-34.30871,3.39193,-4e-05,41.46834,11.74186,6.27218,0.831,-8.93691,-26.52397,-16.14575,29.40694,79.85621,51.23196,1.61966,59.04991,22.45359,-0.04161,-54.02536,81.21539,-0.04901,95.56986,-20.13257,-3.96727,-0.02594,-20.1767,-15.94733,0.01445,12.41251,-7.64891,-6.84854,-9.1389,-4.59638,-9.17515,12.87257,-2.25828,32.72802
2071,16.65138,-0.0,-0.0,-4.59585,0.0,0.0,-20.39301,-5.5801,8.95823,-6.90456,8.58948,-20.89706,-52.19111,-9.11857,-0.00113,-37.37803,3.98951,-0.01037,40.59071,10.92886,4.92351,1.25161,-9.02421,-26.82123,-16.40725,32.5035,82.37418,50.62466,0.12105,55.80917,25.27295,0.02814,-53.82625,78.60614,-0.04202,93.56782,-17.68892,-4.52913,-0.01059,-23.59631,-17.65539,-0.00885,12.04456,-7.32315,-8.33395,-9.40463,-3.7535,-10.42935,13.35835,-1.9444,33.41428
2072,18.63178,0.0,0.0,-10.78061,0.0,0.0,-20.57973,-5.05473,8.7045,-12.80635,8.39077,-18.32977,-51.20056,-8.60091,0.00091,-40.7077,4.90205,-0.01225,39.44961,10.26896,3.63221,1.65708,-8.8876,-26.67443,-16.50607,35.78589,82.85824,49.69106,-1.76794,51.85396,28.1704,0.07569,-56.52691,75.75268,-0.00431,92.34558,-15.76553,-4.77578,0.00288,-26.424,-18.83554,-0.0118,11.58127,-6.9242,-10.13897,-9.73028,-2.72902,-11.95416,13.58433,-1.4952,33.71328
2073,20.97469,0.0,-0.0,-16.94212,-0.0,-0.0,-21.06874,-4.12761,8.05424,-19.04651,7.78296,-14.1642,-50.17064,-7.85231,0.00358,-44.29014,5.90628,-0.00092,38.19625,9.83483,2.63123,2.046,-8.51147,-26.50548,-16.28761,39.18937,81.94912,48.50261,-3.84704,47.19901,31.22775,0.08632,-60.92756,72.55267,0.06332,92.25816,-14.65676,-4.61152,0.00422,-28.45874,-19.37759,-0.00816,10.90946,-6.51581,-12.29468,-10.21923,-1.57336,-13.80338,13.55925,-1.02637,33.62734
2074,22.27038,-0.0,0.0,-21.97672,0.0,0.0,-21.7138,-3.09813,7.06234,-24.87909,6.79393,-8.63254,-49.23436,-6.88208,0.0037,-48.29816,6.79594,0.00971,36.96715,9.71331,1.98322,2.55154,-7.95772,-26.64126,-15.5815,42.53094,80.31786,47.09578,-5.8379,41.93616,34.55836,0.07791,-65.52959,68.94786,0.11061,93.03857,-14.54825,-4.05868,-0.00297,-29.4199,-19.24036,0.00306,10.08699,-6.15058,-14.49413,-10.83274,-0.44812,-15.71314,13.30869,-0.49002,33.13402
2075,22.35941,0.0,-0.0,-25.51921,0.0,-0.0,-22.30771,-2.40087,6.01633,-29.41376,5.77359,-2.6352,-48.35207,-5.95015,-0.00059,-52.89782,7.61341,0.00078,35.83723,9.99478,1.40945,3.40696,-7.29403,-26.85637,-14.20657,45.69729,78.37475,45.46349,-7.57413,36.18186,38.15367,0.06567,-69.36456,65.02815,0.07739,93.53289,-14.94981,-3.37509,-0.00516,-29.13034,-18.96092,0.00287,9.27848,-5.8567,-16.50845,-11.42915,0.53845,-17.48124,12.9371,0.23852,32.28758
2076,22.03947,-0.0,-0.0,-27.70311,0.0,0.0,-22.73279,-2.10649,5.09207,-32.29872,5.2561,2.74503,-47.3933,-5.33164,-0.00609,-58.05653,8.53057,-0.01662,34.7873,10.67192,0.565,4.71163,-6.59074,-26.7242,-11.91741,48.73716,75.90993,43.61944,-9.13129,30.09722,41.91162,0.02524,-71.83305,60.95229,-0.0197,92.45991,-15.04998,-3.01655,-0.00315,-27.65129,-19.4954,-0.03214,8.58008,-5.62781,-18.42685,-11.90635,1.42425,-19.18773,12.54019,1.1819,31.20745
2077,22.08795,0.0,0.0,-28.97703,-0.0,-0.0,-23.0514,-1.9791,4.13032,-33.88722,5.47793,6.56119,-46.27388,-4.9468,-0.00575,-63.61199,9.49579,-0.00825,33.71491,11.57013,-0.44386,6.35887,-6.03101,-26.26576,-8.46865,51.70655,72.23048,41.59753,-10.79065,24.0204,45.73398,-0.05639,-72.34163,56.86721,-0.10333,89.43685,-14.6169,-3.33089,-0.00464,-25.64835,-21.16374,-0.05134,7.90886,-5.41208,-20.44432,-12.32432,2.32521,-20.99628,12.10785,2.2184,30.03172
2078,22.35568,0.0,-0.0,-29.56008,0.0,-0.0,-23.37196,-1.87796,2.86084,-34.79477,6.16423,8.11388,-45.034,-4.42876,0.00164,-69.40117,10.27573,0.01921,32.54966,12.46723,-1.06333,8.23515,-5.88242,-25.80231,-3.75593,54.50465,66.88945,39.40537,-12.79558,18.43027,49.52527,-0.1229,-70.83906,52.87125,-0.11647,85.21107,-14.04795,-4.19012,-0.00293,-24.62747,-22.99843,-0.02002,7.12255,-5.07731,-22.5305,-12.82884,3.35334,-22.83454,11.5955,3.18868,28.88579
2079,22.04522,-0.0,-0.0,-29.49224,-0.0,-0.0,-23.72412,-1.77826,1.26371,-35.36484,6.76067,7.26128,-43.77956,-3.60958,0.00712,-75.27414,10.90049,0.01237,31.33819,13.30103,-0.9124,10.35854,-6.26366,-25.25196,2.0835,56.97008,60.10886,37.04993,-15.10425,13.59558,53.1189,-0.10224,-68.42515,48.89641,-0.06044,81.14924,-13.64365,-5.03167,0.00301,-26.27151,-23.69982,-0.03704,6.24587,-4.4649,-24.42087,-13.43993,4.56819,-24.40289,11.02146,4.0205,27.83339
2080,20.94859,-0.0,-0.0,-29.3053,-0.0,-0.0,-24.13325,-1.63874,-0.39959,-35.58877,6.8943,4.65861,-42.55825,-2.73773,0.00487,-81.10752,11.694,-0.0371,30.20941,14.18818,-0.17949,12.81086,-7.05338,-24.11313,8.83543,59.08059,52.2843,34.58792,-17.43995,9.21178,56.30482,-0.01264,-66.81868,44.68222,0.03044,78.44018,-13.42156,-5.37641,0.00646,-30.72111,-23.04926,-0.10079,5.43348,-3.54437,-25.93735,-14.04367,5.94249,-25.52439,10.47132,4.74302,26.84314
2081,19.59369,0.0,-0.0,-29.62357,0.0,-0.0,-24.58418,-1.46043,-1.90938,-35.45892,6.5703,1.50251,-41.33503,-2.13046,-0.00011,-86.83883,12.66612,-0.05822,29.27805,15.23378,0.66172,15.59541,-8.08801,-22.28601,16.53881,60.88928,43.29336,32.05475,-19.56898,4.50707,59.0012,0.05281,-66.95027,40.07913,0.09683,77.37456,-13.58186,-5.17327,0.00273,-35.49633,-21.9784,-0.08257,4.72567,-2.46569,-27.19255,-14.58945,7.3762,-26.3541,10.02577,5.41604,25.7921
2082,18.28591,0.0,-0.0,-30.37309,-0.0,0.0,-24.89301,-1.26951,-3.30445,-35.18666,6.04833,-1.06571,-40.04988,-1.83579,-0.00185,-92.39935,13.24832,-0.00743,28.55993,16.40942,1.26336,18.53895,-9.35458,-20.40237,25.36907,62.29206,32.73758,29.36785,-21.45376,-1.02836,61.3405,0.04631,-68.27311,35.37935,0.08004,77.14783,-14.48146,-4.64,-0.00643,-37.33826,-21.50152,-0.03282,4.02339,-1.43144,-28.41539,-15.1349,8.75537,-27.17538,9.66671,6.09547,24.48111
2083,16.96934,0.0,-0.0,-31.32773,0.0,0.0,-24.88221,-0.99459,-4.71973,-34.9739,5.80626,-2.51942,-38.65625,-1.75604,-0.00127,-97.64742,12.99989,0.05174,28.00321,17.59278,1.47814,21.39077,-10.97995,-18.96324,35.14541,63.0429,20.80107,26.42487,-23.15686,-7.0082,63.52106,0.0022,-69.66258,31.14754,0.01004,76.60909,-16.04675,-3.9935,-0.01084,-35.56366,-21.87051,-0.02905,3.28398,-0.54215,-29.6456,-15.70914,9.99781,-28.05904,9.30313,6.78637,22.7034
2084,15.97293,0.0,-0.0,-32.74552,0.0,0.0,-24.72874,-0.51294,-6.23617,-34.76179,6.2409,-3.14367,-37.13553,-1.83592,-0.00054,-102.44263,12.23693,0.04998,27.55663,18.66492,1.391,23.99921,-13.03837,-17.59958,45.2507,63.00374,8.38589,23.29484,-24.71323,-12.55163,65.59941,-0.02199,-70.79016,27.65113,-0.03543,75.2826,-17.59797,-3.3943,-0.00422,-32.59479,-22.74915,-0.01757,2.56974,0.22253,-30.65507,-16.28925,11.04857,-28.778,8.86202,7.40588,20.37981
2085,15.78429,-0.0,-0.0,-34.84259,0.0,-0.0,-24.8551,0.1281,-7.90873,-34.39227,6.94421,-3.62601,-35.51151,-2.03498,-0.00037,-106.68484,11.59121,0.00866,27.11847,19.64864,1.29837,26.28951,-15.3549,-15.62802,55.10425,62.22482,-3.66037,20.13968,-26.14752,-17.29781,67.46046,-0.00989,-72.33312,24.67802,-0.03015,73.53427,-18.23949,-2.99312,0.00563,-30.94095,-23.75364,0.01621,1.92288,0.93479,-31.18433,-16.88648,11.89355,-29.05449,8.28419,7.93666,17.6362
2086,16.00459,0.0,0.0,-37.36724,0.0,-0.0,-25.44345,0.66756,-9.66383,-33.86227,6.73019,-4.27487,-33.85577,-2.34496,-0.00236,-110.24584,11.30974,-0.01821,26.58168,20.74511,1.33972,28.18137,-17.59733,-12.88478,64.39828,60.74035,-14.94292,16.8792,-27.48842,-21.73176,68.95821,0.0107,-75.02579,22.03656,0.00655,71.97809,-17.43218,-2.9111,0.00519,-30.76263,-24.53694,0.03188,1.33247,1.67828,-31.25733,-17.51567,12.62081,-28.87962,7.55063,8.56921,14.72082
2087,15.87391,-0.0,-0.0,-39.76006,0.0,0.0,-26.4043,0.95158,-11.26474,-33.37035,4.82201,-4.67241,-32.25494,-2.78035,-0.00437,-112.95045,11.19759,-0.01362,26.01304,22.12556,1.34308,29.63062,-19.61484,-9.70447,72.80642,58.43402,-25.09587,13.17138,-28.68266,-26.54866,70.05021,0.01882,-78.96581,19.93555,0.03048,70.55993,-15.50267,-3.22271,-0.00505,-30.61883,-24.90339,0.02173,0.79655,2.51239,-31.207,-18.12311,13.39374,-28.55372,6.74241,9.53604,11.8111
2088,15.82148,0.0,0.0,-41.43601,0.0,-0.0,-27.74561,1.12593,-12.56631,-33.21255,1.82358,-4.30111,-30.74067,-3.23131,-0.00171,-114.63232,10.89088,0.00532,25.59322,23.71604,1.24812,30.69669,-21.59427,-6.4708,79.89707,55.20925,-33.58847,8.92184,-29.58809,-31.96806,70.79869,0.01399,-83.57349,18.5891,0.01735,68.23989,-13.45089,-3.93783,-0.0097,-29.51895,-25.1665,-0.00221,0.32082,3.44623,-31.3308,-18.65122,14.31714,-28.36188,5.944,10.85237,8.92572
2089,16.90652,0.0,0.0,-42.47983,-0.0,0.0,-29.5001,1.40039,-13.64725,-33.59586,-0.65231,-3.42011,-29.25384,-3.51921,0.00356,-115.21449,9.96482,0.01582,25.35024,25.25968,1.36088,31.6432,-23.84184,-3.41306,85.55874,51.20893,-40.21467,4.60947,-30.14109,-37.72815,71.23945,0.00019,-87.64796,17.70637,-0.01761,64.4136,-11.98457,-4.83856,-0.00216,-27.77199,-25.77607,-0.02374,-0.1295,4.46754,-31.59114,-19.1425,15.36736,-28.27209,5.13142,12.29187,6.10253
2090,18.88636,0.0,0.0,-43.75286,0.0,-0.0,-31.37031,1.8363,-14.59611,-34.36202,-1.32021,-2.98881,-27.70834,-3.65021,0.0044,-114.7699,7.96977,0.01025,25.09415,26.60741,2.08484,33.00112,-26.4071,-0.62329,90.15411,46.83828,-45.36879,0.85646,-30.43481,-43.54358,71.33456,-0.00984,-90.12508,16.78891,-0.03047,60.51348,-11.00376,-5.49937,0.00686,-26.3347,-26.49526,-0.02253,-0.63487,5.5571,-31.72424,-19.72513,16.44053,-28.0326,4.24706,13.61357,3.57503
2091,20.50608,0.0,0.0,-45.567,0.0,0.0,-32.92772,2.36032,-15.31864,-34.8064,-0.27094,-3.71217,-26.11173,-3.81001,-0.00044,-113.4948,4.75359,0.00751,24.59773,27.89068,3.60155,35.22617,-28.94444,1.94098,94.08814,42.6524,-49.65657,-2.15274,-30.55147,-49.42836,71.15966,-0.00883,-91.08836,15.79848,-0.00126,59.01533,-10.12005,-5.73871,0.00823,-25.82194,-26.68032,-0.01446,-1.27434,6.63393,-31.54138,-20.50494,17.39803,-27.48366,3.29588,14.81417,1.57962
2092,21.27398,0.0,-0.0,-47.05248,0.0,-0.0,-34.05219,2.79664,-15.60269,-34.18846,1.2393,-5.49494,-24.60151,-4.09868,-0.00489,-111.55798,0.75614,0.02458,23.77053,29.29393,5.68363,38.11742,-31.08549,4.29102,97.4813,39.04465,-53.40686,-4.6642,-30.47125,-55.52824,70.97051,-0.00329,-91.18632,15.09582,0.01491,60.56625,-9.25743,-5.8334,0.00084,-26.0995,-26.49755,-0.00756,-2.03086,7.49718,-31.10656,-21.42952,18.06998,-26.75634,2.28007,16.11414,0.02588
2093,21.6658,-0.0,0.0,-47.32499,-0.0,0.0,-34.84965,2.96935,-15.30651,-32.6739,2.10851,-7.81085,-23.31028,-4.41215,-0.00494,-108.91853,-3.43622,0.02576,22.71274,30.69827,7.72132,40.84448,-32.96145,6.0391,100.28514,35.83379,-56.52571,-7.03086,-30.20449,-61.6507,70.89014,0.00356,-90.58307,14.82252,0.00339,63.05407,-8.52645,-6.05237,-0.00773,-26.67396,-26.91423,0.00513,-2.68857,7.91165,-30.74271,-22.19567,18.3407,-26.25313,1.12518,17.66498,-1.43271
2094,22.15116,0.0,-0.0,-46.48599,0.0,0.0,-35.34155,2.87471,-14.56543,-31.36997,2.32135,-10.08132,-22.22739,-4.54237,-0.00142,-105.29124,-7.6964,-0.04485,21.63878,31.75928,9.21233,42.69343,-35.11946,6.54144,102.49094,32.36943,-58.72504,-9.54622,-29.83378,-67.24052,70.72565,0.01041,-89.40495,14.732,-0.00658,63.94261,-7.83907,-6.16027,-0.00635,-27.21545,-28.26534,0.00989,-2.95275,7.85943,-30.80284,-22.44373,18.31135,-26.33064,-0.21356,19.38425,-3.01958
2095,22.56226,0.0,0.0,-45.4242,0.0,0.0,-35.40827,2.61993,-13.82984,-31.16936,2.50035,-11.50937,-21.26075,-4.31339,0.00366,-100.29501,-11.98136,-0.15672,20.71281,32.31618,10.23063,43.5601,-37.89089,5.7308,104.17389,28.24749,-59.90639,-12.34139,-29.39169,-71.8643,70.27442,0.00535,-88.58076,14.58125,-0.0084,62.72162,-6.93432,-5.64738,0.00943,-27.65525,-29.80156,-0.00014,-2.78885,7.60943,-31.34,-22.15882,18.25267,-26.94687,-1.63069,21.12333,-4.69703
2096,22.56338,0.0,0.0,-45.07325,0.0,-0.0,-34.98858,2.29773,-13.5166,-31.86164,3.14883,-11.22825,-20.33835,-3.73482,0.00695,-93.65421,-15.64478,-0.18066,19.95046,32.54765,11.1311,43.78817,-41.10565,4.54299,105.4224,23.70491,-60.25615,-15.2838,-28.84555,-75.49443,69.62565,-0.01046,-89.25702,14.39113,-0.00176,60.81141,-5.68114,-4.45781,0.02457,-28.0858,-30.60913,-0.015,-2.4595,7.45398,-32.08509,-21.67955,18.35003,-27.73529,-2.96278,22.8337,-6.30281
2097,22.50534,0.0,0.0,-46.07267,0.0,0.0,-34.2788,2.13877,-13.64592,-32.66294,4.72004,-9.35802,-19.37582,-3.10322,0.00468,-85.43315,-17.71605,-0.03869,19.2184,32.80142,11.96037,43.8275,-44.31989,4.22815,106.31445,19.20662,-60.03158,-18.07255,-28.1632,-78.5384,69.04759,-0.01275,-91.2997,14.3458,0.00283,59.8158,-4.28951,-3.25356,0.01808,-28.41508,-30.32517,-0.017,-2.20064,7.53209,-32.70718,-21.31559,18.62632,-28.32253,-4.18837,24.5306,-7.61356
2098,22.76006,-0.0,-0.0,-49.26654,0.0,0.0,-33.58631,2.42923,-13.94979,-33.37346,7.77181,-7.64556,-18.26193,-2.7912,-0.00268,-76.20715,-17.73998,0.1628,18.27069,33.36143,12.52599,44.06922,-47.05365,5.36523,106.98548,14.97843,-59.4726,-20.44465,-27.31345,-81.68191,68.7151,-0.00202,-93.12728,14.59309,-0.00883,60.41861,-3.16763,-2.79999,0.0005,-28.06674,-29.2657,0.00573,-2.0943,7.88245,-32.95315,-21.20281,19.03718,-28.44468,-5.46795,26.20363,-8.40143
2099,22.76787,0.0,-0.0,-54.68315,0.0,0.0,-33.00611,2.96528,-14.05514,-34.92451,12.29824,-8.40449,-16.92958,-2.87426,-0.00882,-66.6824,-16.23902,0.22172,16.8816,34.24554,12.77433,44.73917,-49.03333,7.26024,107.59138,11.17032,-58.82988,-22.28062,-26.3547,-85.20322,68.64562,0.00164,-93.38934,15.08079,-0.0254,62.51662,-2.45052,-3.1824,-0.00655,-26.61453,-28.1595,0.02308,-2.16607,8.38632,-32.62145,-21.39346,19.4053,-27.941,-6.9363,27.80682,-8.73259
2100,21.81326,0.0,0.0,-58.95637,0.0,0.0,-32.38589,3.00721,-13.50448,-38.95624,17.71711,-12.88946,-15.41328,-3.08819,-0.00762,-56.9782,-14.46959,0.08256,15.06588,35.17699,12.75572,45.65097,-50.47017,7.8962,108.12512,8.16599,-58.21065,-23.6272,-25.57437,-88.33295,68.85545,-0.00151,-92.42912,15.50482,-0.02252,65.09312,-1.84804,-3.81506,-0.00338,-24.59621,-27.629,0.01217,-2.30905,8.67477,-31.63669,-21.74722,19.35507,-26.86562,-8.48329,29.32224,-9.17253
2101,20.03651,0.0,0.0,-57.13083,-0.0,-0.0,-31.61446,2.06875,-12.12085,-45.92883,24.04243,-20.57834,-13.85989,-3.10095,-0.00067,-47.00012,-13.37338,-0.08073,13.16493,35.82346,12.54985,46.30486,-51.91458,5.46245,108.39819,6.32974,-57.47414,-24.63701,-25.32277,-89.98385,69.41861,0.00441,-91.7794,15.55234,-0.01101,66.48927,-1.11458,-4.17696,0.00234,-23.05108,-27.7278,-0.00046,-2.23282,8.4229,-30.15822,-21.89639,18.62844,-25.4977,-9.81362,30.75341,-10.36958
2102,18.14809,0.0,0.0,-48.93402,0.0,0.0,-30.85157,0.45907,-10.34392,-53.34541,30.17577,-28.28697,-12.4524,-2.76487,0.004,-37.78465,-12.68312,-0.09186,11.57906,36.04528,12.38937,46.56225,-53.60336,0.6811,108.27026,5.55169,-56.48433,-25.39499,-25.65833,-90.22812,70.31762,0.01534,-92.2987,15.2444,-0.00342,66.67908,-0.39291,-4.32324,0.00407,-22.58277,-27.81459,-0.01261,-1.81206,7.74667,-28.42876,-21.68225,17.41295,-24.04369,-10.71718,32.00369,-12.37958
2103,16.59281,0.0,0.0,-41.19946,0.0,-0.0,-30.34278,-1.08835,-8.79208,-58.59725,30.90285,-30.80962,-11.27428,-2.18372,0.00277,-31.2563,-11.58705,-0.0327,10.36226,35.91125,12.56836,47.16313,-55.18436,-3.38435,107.766,5.27007,-55.33335,-25.86624,-26.30214,-90.41956,71.37585,0.01247,-93.38629,14.88573,0.00335,68.4729,0.07858,-4.63598,0.00177,-23.27739,-27.0566,-0.04658,-1.35755,7.08528,-26.60683,-21.43686,16.17414,-22.50603,-11.27266,32.88438,-14.56791
2104,15.27966,-0.0,-0.0,-41.05449,0.0,0.0,-30.05915,-2.06821,-7.65983,-60.71914,21.8253,-26.11674,-10.2743,-1.52003,0.00068,-28.28207,-10.07386,-0.02809,9.21535,35.54681,13.21854,49.13924,-56.10285,-4.51776,106.95036,4.81886,-54.16563,-26.05869,-26.87945,-91.84568,72.39455,0.00249,-94.138,14.74751,-0.00815,74.02038,0.30275,-5.21901,-0.00099,-24.74292,-25.36739,-0.0664,-1.26725,6.80207,-24.89602,-21.56169,15.32225,-20.95148,-11.79069,33.32555,-16.12107
2105,14.19792,0.0,0.0,-47.37974,0.0,0.0,-29.81534,-2.46859,-6.73844,-58.3922,7.18521,-18.14383,-9.37284,-0.77715,0.00194,-28.17859,-9.09143,-0.02483,7.89241,35.04065,14.29832,52.69951,-55.8668,-3.34055,105.84414,3.75699,-53.00097,-26.11586,-27.1276,-94.51903,73.29649,0.00138,-94.39054,14.93855,-0.01723,80.68472,0.38051,-5.80097,-0.00315,-26.05392,-23.70685,-0.03609,-1.57474,7.0415,-23.56088,-22.06857,15.08478,-19.57763,-12.55367,33.47131,-16.53135
2106,13.93163,0.0,0.0,-52.84132,0.0,-0.0,-29.65586,-2.63743,-5.69431,-53.14103,-3.09261,-12.24916,-8.57544,0.08169,0.0034,-29.8907,-9.57746,0.02678,6.45057,34.527,15.66664,57.24204,-54.16502,-1.62152,104.48223,2.1361,-51.89782,-26.16696,-26.99318,-97.24409,74.14523,0.00464,-94.32331,15.42602,0.01085,83.56278,0.26156,-6.25854,-0.00325,-26.56751,-22.98988,-0.00365,-2.01655,7.75176,-22.59167,-22.69897,15.41169,-18.38616,-13.62983,33.48975,-15.78023
2107,14.82893,0.0,-0.0,-53.41792,-0.0,0.0,-29.7193,-2.95354,-4.21399,-48.2888,-5.61194,-11.60207,-7.98358,0.89913,0.00141,-32.62478,-11.40272,0.05986,5.15593,34.20113,17.08172,62.10046,-51.09656,0.08957,102.94543,0.4415,-51.07626,-26.18657,-26.60609,-98.82376,75.06197,-0.00155,-93.76987,16.05311,0.03624,81.62501,-0.21426,-6.82106,0.00148,-26.57646,-23.02335,0.00327,-2.37575,8.66177,-21.62165,-23.26202,15.92179,-17.11855,-14.82427,33.35225,-14.30631
2108,16.0801,0.0,0.0,-51.11435,0.0,0.0,-29.82553,-3.52378,-2.2327,-44.6747,-4.11347,-15.11429,-7.70654,1.44088,-0.00135,-35.79683,-13.46393,0.02196,4.31646,34.14617,18.35763,66.75463,-47.26468,2.30965,101.31275,-0.90787,-50.71511,-26.11664,-26.11292,-99.16518,76.12981,-0.01605,-92.4946,16.5748,0.02502,78.25842,-1.13604,-7.65191,0.00828,-26.60466,-23.14207,-0.00093,-2.63814,9.39374,-20.39538,-23.73264,16.17134,-15.66916,-15.74623,32.91776,-12.66829
2109,16.6414,0.0,-0.0,-49.30428,-0.0,0.0,-29.60563,-4.11545,-0.11063,-41.02092,-2.12211,-19.38099,-7.76869,1.67728,-0.00193,-39.08212,-15.02365,-0.02925,4.132,34.28699,19.52269,70.63795,-43.54174,5.04088,99.57783,-1.93051,-50.72589,-26.02275,-25.56934,-99.09485,77.36655,-0.02293,-90.87939,16.72673,0.01733,76.63302,-2.38867,-8.56113,0.0075,-26.62594,-23.35089,-0.00531,-2.91898,9.7457,-19.10407,-24.17836,16.03952,-14.30097,-16.07317,32.24226,-11.17519
2110,16.71602,0.0,-0.0,-49.959,0.0,0.0,-29.00197,-4.43972,1.66876,-35.77909,0.02953,-22.07895,-8.08485,1.74924,-0.00118,-42.38595,-16.4117,-0.03164,4.53668,34.5589,20.49278,73.17951,-40.71753,7.40789,97.6064,-2.84309,-50.82111,-26.01686,-25.07425,-99.03207,78.74555,-0.01475,-89.7593,16.29831,0.0308,76.72821,-3.56825,-9.14611,-0.00099,-26.48058,-24.11849,-0.00286,-3.36293,9.80857,-18.07904,-24.72255,15.731,-13.29877,-15.83292,31.64627,-10.0267
2111,17.312,0.0,-0.0,-53.63927,-0.0,0.0,-28.3081,-4.58871,2.9859,-28.7473,3.01388,-23.2148,-8.49304,1.72359,-0.00019,-45.65649,-18.26269,0.00329,5.12666,34.96058,20.77601,74.10464,-39.11964,8.65055,95.241,-3.63205,-50.7569,-26.08432,-24.87828,-98.27926,80.23181,0.00241,-89.75254,15.26985,0.02002,76.50797,-4.02759,-9.07582,0.00062,-26.433,-25.44216,0.00615,-4.03778,9.78024,-17.30685,-25.4607,15.42707,-12.57396,-15.40655,31.39515,-9.58856
2112,18.41895,-0.0,-0.0,-59.01072,0.0,0.0,-27.67582,-4.97468,4.04784,-21.57591,6.55334,-24.35948,-8.83577,1.5518,0.00044,-48.93973,-20.64804,0.038,5.34535,35.41766,19.91684,73.63829,-38.43995,8.9746,92.44177,-4.1371,-50.44361,-26.09805,-25.19057,-95.89783,81.80959,0.0165,-90.97746,13.88052,-0.0446,73.96552,-3.30759,-8.39208,0.01555,-26.51375,-26.94465,-0.01253,-4.79677,9.7611,-16.43962,-26.28765,15.09662,-11.75673,-15.23217,31.44536,-10.18135
2113,18.90438,0.0,-0.0,-63.0558,0.0,-0.0,-26.91438,-5.68957,4.93283,-16.19849,9.84562,-26.77441,-9.05089,1.24331,0.00029,-52.43517,-23.07883,0.04931,4.89893,35.76115,18.08797,72.33018,-38.14573,9.31236,89.2739,-4.45063,-49.92563,-26.01842,-25.91433,-91.80566,83.44114,0.01648,-93.102,12.47592,-0.11421,67.87272,-1.78569,-7.51964,0.01748,-25.84357,-28.65761,-0.08007,-5.3321,9.76437,-15.25806,-26.91084,14.67222,-10.63471,-15.45365,31.59775,-11.73342
2114,18.38745,-0.0,0.0,-63.81717,-0.0,-0.0,-25.87467,-6.31475,5.5224,-13.71178,11.93539,-29.93294,-9.18184,0.93393,-0.00013,-56.13815,-24.96413,0.02537,3.99687,35.89108,16.00912,70.70033,-37.93336,10.30366,85.81824,-4.90155,-49.37286,-25.99074,-26.64303,-86.96014,85.00697,0.00445,-95.75568,11.44085,-0.09253,59.05883,-0.56352,-6.75648,0.00165,-23.7796,-30.48705,-0.1174,-5.49707,9.79902,-13.97036,-27.16441,14.2368,-9.40329,-15.81055,31.75806,-13.76091
2115,17.8548,0.0,0.0,-62.5271,0.0,-0.0,-24.71131,-6.55395,5.82746,-14.39192,11.68183,-32.00821,-9.32201,0.7406,-0.00026,-59.66319,-25.94974,-0.01289,3.19351,35.8606,14.35048,69.1928,-37.66785,11.83662,82.17203,-5.64079,-49.00476,-26.20142,-26.94136,-82.63461,86.38712,-0.01053,-98.82587,11.1724,-0.00757,50.99422,-0.36691,-5.98187,-0.01332,-21.31031,-31.32858,-0.06132,-5.49,9.85977,-12.99559,-27.22052,13.93812,-8.46006,-15.84634,31.9081,-15.62417
2116,18.29321,0.0,0.0,-61.88304,-0.0,-0.0,-23.6718,-6.62788,6.03025,-17.1067,8.97138,-32.16262,-9.58062,0.64951,3e-05,-62.71214,-26.09057,-0.02854,3.05262,35.7587,13.2698,68.24394,-37.27946,13.48248,78.47691,-6.449,-48.93635,-26.67771,-26.69429,-79.31098,87.63689,-0.01746,-102.1701,11.7563,0.02367,46.42458,-0.85506,-5.17442,-0.01494,-20.07114,-30.23758,-0.02429,-5.59933,9.92002,-12.53688,-27.36032,13.82666,-8.0047,-15.22531,31.96877,-16.92875
2117,19.31867,0.0,-0.0,-63.0913,-0.0,0.0,-22.76056,-6.91441,6.26314,-19.44411,5.61464,-31.28766,-10.05,0.58882,0.00049,-65.42099,-25.72033,-0.02208,3.81887,35.60037,12.46679,68.00952,-36.83286,14.9498,74.84608,-6.96554,-49.11141,-27.24358,-26.1753,-76.57146,88.99619,-0.00245,-105.60316,12.85813,0.00922,44.71881,-1.21205,-4.78296,-0.00839,-20.35027,-27.84506,-0.03394,-5.86351,9.94514,-12.43822,-27.63198,13.81396,-7.90216,-13.94311,31.88351,-17.72535
2118,19.64152,-0.0,0.0,-65.07574,-0.0,-0.0,-21.78174,-7.42155,6.49777,-19.88294,3.85516,-30.47666,-10.70071,0.53757,0.0004,-68.06435,-25.11146,-0.01247,5.18005,35.34935,11.72613,68.17244,-36.39087,16.17914,71.25228,-6.98991,-49.36026,-27.6583,-25.72761,-74.02793,90.67295,0.0305,-109.14872,14.05408,-0.00156,43.92974,-1.09048,-5.14746,-0.00594,-21.162,-25.67073,-0.02094,-6.10577,9.87441,-12.40072,-27.86976,13.73457,-7.89385,-12.36053,31.70251,-18.211
2119,18.94388,-0.0,-0.0,-65.15949,-0.0,0.0,-20.74808,-7.67822,6.56688,-18.98502,4.51217,-30.22627,-11.33532,0.51697,-0.00017,-70.74147,-24.42951,-0.00122,6.43223,34.96349,11.3112,68.29242,-35.82644,17.18036,67.53049,-6.54803,-49.4572,-27.82066,-25.46214,-71.58691,92.64159,0.04776,-112.68564,15.0792,-0.00694,43.20318,-0.77419,-5.94013,-0.00384,-21.55733,-24.66362,-0.00189,-6.25294,9.66579,-12.2278,-28.00718,13.47764,-7.81057,-10.99454,31.44056,-18.36614
2120,17.93618,0.0,0.0,-60.62111,-0.0,-0.0,-19.84936,-7.19235,6.38854,-17.91356,7.24783,-30.63853,-11.77041,0.49463,-0.00028,-73.48006,-23.8396,0.01334,7.08195,34.39886,11.51303,68.18167,-35.04305,17.87962,63.52581,-5.80783,-49.16107,-27.8525,-25.3087,-69.07168,94.64118,0.02306,-115.51563,15.80563,-0.00816,42.44057,-0.63392,-6.53439,-0.00058,-20.991,-24.7531,-0.00838,-6.4747,9.36109,-11.88897,-28.21952,13.0708,-7.60768,-10.12389,30.9908,-18.11701
2121,16.91374,0.0,-0.0,-51.20598,0.0,0.0,-19.0507,-5.98234,6.17301,-16.81074,11.20704,-31.63056,-12.01817,0.37743,0.00015,-76.28629,-23.33001,0.01887,7.21524,33.61195,12.05701,67.79509,-34.30509,18.22207,59.24309,-5.02498,-48.33515,-27.92275,-25.21694,-66.38984,96.34753,-0.01753,-116.8183,16.27061,0.00323,41.27019,-0.65301,-6.64664,0.00099,-19.22569,-25.33233,-0.01898,-6.97029,9.0483,-11.47712,-28.70894,12.62967,-7.33919,-9.58052,30.27448,-17.70985
2122,16.00127,0.0,-0.0,-40.09794,0.0,0.0,-18.20475,-4.55363,6.1749,-15.56399,14.76645,-32.85815,-12.20282,0.14417,0.00058,-78.92298,-22.50807,0.00715,7.26843,32.62885,12.42152,67.06611,-34.01156,18.37253,54.86534,-4.44722,-47.08826,-28.04057,-25.18329,-63.778,97.58378,-0.03026,-116.63174,16.76717,0.02456,39.4897,-0.52376,-6.41154,0.00218,-16.96226,-25.65244,-0.00609,-7.73915,8.78872,-11.13358,-29.47291,12.26286,-7.1148,-8.96647,29.38067,-17.52594
2123,15.75072,0.0,-0.0,-31.64951,0.0,0.0,-17.35921,-3.44906,6.36411,-15.01916,16.11573,-33.54681,-12.38738,-0.0838,0.00049,-80.98904,-20.82043,-0.00658,7.58238,31.56618,12.50098,66.04037,-34.14937,18.72289,50.63997,-4.11716,-45.74886,-28.13396,-25.13357,-61.46074,98.38653,-0.01436,-116.05408,17.69727,0.0247,37.98055,-0.20108,-6.04501,0.00107,-15.86453,-25.02132,-0.01399,-8.62507,8.58119,-10.98832,-30.34907,12.01692,-7.05695,-8.04057,28.47693,-17.54353
2124,16.19489,0.0,-0.0,-28.58548,0.0,0.0,-16.61029,-2.96863,6.52668,-15.84643,14.68128,-33.10143,-12.54908,-0.14794,6e-05,-82.3619,-18.08369,-0.00953,8.14366,30.52006,12.61038,64.88689,-34.29091,19.57217,46.70656,-3.80551,-44.64268,-28.22032,-24.91196,-59.44105,98.87863,0.00222,-116.32206,19.30232,-0.0206,38.0282,-0.11082,-5.64701,-0.00376,-16.85851,-23.27882,-0.06133,-9.46211,8.3545,-11.10602,-31.16286,11.84938,-7.25321,-6.90381,27.63867,-17.36767
2125,16.46561,-0.0,-0.0,-30.53348,0.0,-0.0,-15.89626,-3.11769,6.5682,-17.13947,11.4967,-31.95224,-12.66673,-0.00929,-0.0002,-83.29765,-14.80379,-0.00731,8.71529,29.5035,12.98004,63.66978,-34.13442,20.63729,43.04056,-3.17507,-43.8712,-28.29994,-24.43025,-57.75537,99.16245,0.00135,-117.55853,21.55002,-0.06692,39.78152,-0.57426,-5.31626,-0.00661,-19.09085,-21.0282,-0.06728,-10.10128,8.03281,-11.36271,-31.76479,11.64432,-7.61574,-5.84523,26.83696,-16.81074
2126,15.97246,-0.0,-0.0,-33.90067,0.0,0.0,-15.12157,-3.64372,6.64515,-17.54284,8.21621,-31.06625,-12.76234,0.2038,-0.00025,-84.10243,-11.95281,-0.00176,9.16274,28.48409,13.46984,62.36245,-33.78872,21.0386,39.59694,-1.96628,-43.26675,-28.19299,-23.80234,-56.50496,99.33691,-0.01481,-117.9495,24.13861,-0.05158,42.06625,-1.38712,-5.28756,-0.00193,-21.01233,-19.12169,-0.01859,-10.41772,7.63444,-11.41732,-32.04866,11.294,-7.817,-5.05026,26.01548,-16.14405
2127,15.26108,0.0,0.0,-34.6952,0.0,-0.0,-14.34874,-4.24187,7.02835,-16.79906,5.80675,-30.97812,-12.84744,0.31803,-0.00029,-84.90002,-10.31287,0.00732,9.50817,27.40916,13.79863,61.02996,-33.52029,20.04236,36.41581,-0.14261,-42.52007,-27.72551,-23.29662,-55.49825,99.44007,-0.02397,-114.88366,26.67158,0.01027,43.61382,-2.21408,-5.78489,0.00643,-21.84664,-17.95347,0.01617,-10.3884,7.2553,-10.97472,-32.01431,10.77979,-7.54372,-4.5171,25.11754,-15.73351
2128,15.29251,0.0,0.0,-31.97136,-0.0,0.0,-13.73437,-4.67417,7.80794,-15.61362,4.42978,-31.57166,-12.91138,0.26233,-0.00036,-85.62419,-9.88994,0.01145,9.78707,26.28465,13.87873,59.74636,-33.37445,17.75715,33.51265,2.01428,-41.38963,-26.99552,-23.11472,-54.24224,99.33355,-0.00151,-108.14839,28.97895,0.05297,44.16208,-2.94925,-6.6746,0.00991,-21.90396,-17.35235,0.01369,-10.14276,6.96382,-10.11693,-31.78908,10.195,-6.84836,-4.15776,24.14455,-15.593
2129,16.07874,0.0,0.0,-27.63011,0.0,0.0,-13.24817,-4.74899,8.75566,-14.76899,4.14087,-32.42381,-12.99967,0.05231,6e-05,-86.09007,-10.05386,0.00632,10.00719,25.26855,13.83205,58.46927,-33.08555,14.93351,30.78936,4.06314,-39.87148,-26.23775,-23.23862,-52.47734,98.80651,0.02289,-100.84699,31.19536,0.04122,44.50188,-3.51362,-7.40446,0.00543,-21.76018,-16.99116,-0.00095,-9.90808,6.764,-9.29625,-31.57625,9.70858,-6.15438,-3.8836,23.21117,-15.36398
2130,16.65331,-0.0,0.0,-23.9775,0.0,0.0,-12.62357,-4.46017,9.53612,-14.51714,4.79257,-33.13165,-13.19389,-0.28766,0.00101,-86.13257,-10.30729,-0.00201,10.14973,24.5151,13.81276,57.14851,-32.3951,12.12993,28.14947,5.75986,-38.18249,-25.50196,-23.52512,-50.43616,97.8307,0.00897,-96.02374,33.53179,-0.01228,45.66149,-3.78267,-7.57007,0.00043,-21.3928,-16.59063,-0.00258,-9.85644,6.6376,-8.906,-31.53197,9.44799,-5.83643,-3.65228,22.41419,-14.74367
2131,16.32923,0.0,0.0,-22.05831,0.0,-0.0,-11.7131,-4.0685,9.94771,-14.53681,5.73272,-33.49189,-13.49021,-0.68926,0.00123,-85.7642,-10.52917,-0.00722,10.17493,23.91636,13.92594,55.81604,-31.42003,9.44419,25.59684,7.16637,-36.53594,-24.65907,-23.87853,-48.48897,96.58123,-0.00959,-93.92693,36.07154,-0.05766,47.96223,-3.86811,-7.43972,-0.00121,-20.2728,-15.9023,0.01474,-9.95763,6.576,-8.91265,-31.62914,9.39318,-5.86572,-3.47745,21.66634,-13.85014
2132,15.36419,0.0,0.0,-21.62825,0.0,0.0,-10.73485,-3.84874,9.9135,-14.42099,6.2748,-33.56945,-13.8091,-1.01575,0.00024,-85.18542,-10.40174,-0.00551,10.10373,23.18288,14.26238,54.50071,-30.54805,7.09613,23.15874,8.40326,-34.93298,-23.65709,-24.27163,-46.80162,95.23109,0.0025,-92.9439,38.73737,-0.04563,50.65823,-4.04702,-7.5273,-0.00175,-18.07221,-14.98869,0.02463,-10.01836,6.56833,-9.029,-31.68491,9.42873,-5.97747,-3.37796,20.77254,-13.03905
2133,14.54332,0.0,0.0,-22.36949,0.0,-0.0,-10.04913,-3.8616,9.4785,-14.09085,6.13424,-33.50509,-14.10519,-1.19001,-0.0007,-84.61546,-9.36367,-0.00098,10.07225,22.18591,14.87004,53.1812,-29.98406,5.55624,20.77468,9.50414,-33.15384,-22.59118,-24.65577,-45.37453,93.84781,0.01236,-92.14042,41.39257,0.00699,52.64825,-4.14198,-7.82029,-0.00098,-15.07426,-14.3214,0.00287,-9.90904,6.59146,-9.0987,-31.57429,9.47579,-6.03405,-3.31415,19.64511,-12.44739
2134,14.38477,0.0,0.0,-24.36527,-0.0,0.0,-9.75918,-4.02789,8.93593,-13.72513,5.32364,-33.26973,-14.38249,-1.29107,-0.00065,-84.11677,-7.37398,0.00027,10.23122,21.07963,15.64738,51.8613,-29.56132,4.85843,18.27298,10.52979,-30.90291,-21.56793,-24.94497,-44.13528,92.50789,-0.00833,-92.2718,43.9916,0.03495,53.7025,-3.37083,-7.8381,0.01157,-12.14804,-14.16554,-0.02118,-9.697,6.64009,-9.13484,-31.36383,9.53424,-6.04968,-3.19687,18.37018,-11.88547
2135,14.72251,0.0,0.0,-27.16971,0.0,-0.0,-9.63782,-4.22608,8.75018,-13.53782,3.97692,-32.69218,-14.6549,-1.45275,6e-05,-83.58062,-5.03414,0.00072,10.61374,20.06507,16.32629,50.5536,-29.0396,4.42788,15.44231,11.57659,-28.0241,-20.64852,-25.10346,-42.86998,91.36689,-0.02407,-93.92714,46.62845,0.02125,54.49777,-1.47632,-7.26897,0.03061,-10.40347,-14.27567,-0.0191,-9.52722,6.73587,-9.14771,-31.19952,9.62797,-6.02586,-2.95951,17.07759,-11.15674
2136,15.21555,0.0,-0.0,-29.69197,0.0,-0.0,-9.4757,-4.29881,9.19913,-13.57943,2.40483,-31.7732,-14.93625,-1.70788,0.00059,-82.85927,-2.87569,0.00343,11.13385,19.13872,16.66906,49.20853,-28.4332,3.73201,12.23197,12.60566,-24.65965,-19.86998,-25.21635,-41.24804,90.52334,-0.01295,-96.1381,49.42061,0.00092,55.47113,0.37809,-6.2886,0.02177,-10.39836,-14.48399,-0.00206,-9.46466,6.85027,-9.12924,-31.14488,9.7275,-5.9657,-2.61457,15.80728,-10.30443
2137,15.92402,0.0,0.0,-31.12298,-0.0,-0.0,-9.32276,-4.16668,10.17952,-13.60016,1.19581,-30.87396,-15.21811,-1.97924,0.00042,-81.89778,-1.04913,0.00626,11.64653,18.13522,16.69954,47.74439,-27.92958,2.64039,8.95915,13.44151,-21.23215,-19.18635,-25.43436,-39.10158,89.89964,0.00276,-97.65947,52.36695,-0.01777,56.56786,0.73632,-5.35795,-0.00583,-11.55992,-14.92373,0.01257,-9.49006,6.87007,-9.11767,-31.17199,9.74166,-5.94744,-2.2659,14.51602,-9.46795
2138,16.95843,-0.0,-0.0,-31.07301,0.0,0.0,-9.28666,-3.9355,11.42011,-13.20729,0.93258,-30.40143,-15.45525,-2.19373,-0.00018,-80.77319,0.43221,0.00565,11.99766,16.95048,16.62123,46.09348,-27.60979,1.2029,6.16182,13.99523,-18.24266,-18.45298,-25.82723,-36.6566,89.34963,0.0084,-98.1899,55.37894,-0.03954,57.79603,-0.54033,-4.83384,-0.01396,-12.72282,-15.47598,0.01212,-9.55983,6.72884,-9.15292,-31.23148,9.62335,-6.03336,-2.04867,13.16806,-8.66549
2139,17.99426,0.0,0.0,-29.17723,0.0,0.0,-9.29517,-3.76874,12.74232,-12.20374,1.66466,-30.32124,-15.62145,-2.35251,-0.00063,-79.64543,1.53419,0.00108,12.13059,15.6451,16.54261,44.23744,-27.37301,-0.56805,4.11302,14.36607,-15.94729,-17.56845,-26.3445,-34.32291,88.83796,0.00537,-98.16878,58.40625,-0.02765,58.91199,-2.42576,-4.84908,-0.00373,-13.23776,-15.69815,0.00591,-9.64473,6.5344,-9.2024,-31.30235,9.46078,-6.15247,-1.98893,11.78074,-7.84365
2140,18.481,0.0,-0.0,-25.40596,0.0,0.0,-9.16433,-3.71548,14.07188,-10.75545,2.87695,-30.12736,-15.77682,-2.51641,-0.00058,-78.6483,2.21209,-0.00492,12.19894,14.36704,16.41601,42.28156,-27.05541,-2.70386,2.58462,14.73118,-14.16596,-16.52705,-26.9358,-32.24358,88.46543,0.00081,-98.28628,61.41658,0.03415,59.16984,-3.97123,-5.42437,0.00404,-13.39831,-15.41201,0.0028,-9.74866,6.49295,-9.17545,-31.40481,9.41238,-6.14275,-1.92962,10.3935,-7.01629
2141,18.16615,0.0,0.0,-20.69003,0.0,-0.0,-8.81466,-3.69696,15.29742,-9.2819,4.0116,-29.36477,-16.04057,-2.74462,-0.00015,-77.7958,2.52347,-0.00834,12.48641,13.24627,16.25722,40.42513,-26.53352,-5.13282,1.12276,15.23885,-12.46616,-15.29635,-27.5922,-30.24169,88.36849,0.00257,-99.0076,64.30278,0.08674,58.32668,-4.96687,-6.41155,0.00361,-13.85177,-14.83156,-0.00068,-9.87001,6.6932,-9.01785,-31.54469,9.54069,-5.92029,-1.67632,9.03175,-6.23774
2142,17.42894,0.0,0.0,-16.69147,0.0,0.0,-8.39447,-3.61487,16.26514,-8.28751,4.8299,-28.05614,-16.47896,-3.03358,9e-05,-77.00179,2.78163,-0.00637,13.13562,12.35278,16.23688,38.75681,-25.76491,-7.52409,-0.54751,15.94425,-10.53133,-13.82931,-28.25755,-28.20589,88.61204,0.00744,-100.15572,66.96317,0.0658,57.44687,-5.68236,-7.45444,0.0009,-14.80017,-14.13799,-0.00407,-9.93636,7.01077,-8.81134,-31.63876,9.76,-5.60798,-1.2285,7.72141,-5.50052
2143,17.04661,-0.0,0.0,-14.70114,0.0,0.0,-8.14587,-3.49579,17.05643,-8.23872,5.36799,-26.48601,-17.04384,-3.35112,8e-05,-76.17068,3.39301,-0.00082,14.01108,11.70529,16.38099,37.15332,-24.79379,-9.47441,-2.37506,16.77326,-8.3128,-12.22078,-28.83934,-26.27999,89.13474,0.00363,-100.98216,69.48489,-0.02237,58.17735,-6.28225,-8.24686,-0.00099,-15.94043,-13.31257,-0.00579,-9.8234,7.28154,-8.74864,-31.5455,9.98855,-5.44764,-0.79353,6.52572,-4.73734
2144,17.35879,-0.0,0.0,-14.69394,0.0,-0.0,-8.1128,-3.44918,18.05503,-9.29527,5.74718,-24.8278,-17.65183,-3.69883,0.00068,-75.24034,4.45368,0.00331,14.90769,11.28402,16.40735,35.46507,-23.69563,-10.91649,-4.13849,17.58847,-5.89455,-10.65647,-29.33784,-24.59971,89.78052,-0.00778,-100.828,72.09684,-0.10048,61.10382,-6.57769,-8.63025,0.0003,-17.00971,-12.41397,-0.00469,-9.47867,7.49406,-8.9387,-31.20799,10.25573,-5.54559,-0.5445,5.52731,-3.90862
2145,17.84521,0.0,-0.0,-15.4859,0.0,-0.0,-8.08108,-3.4831,19.5226,-11.006,6.04623,-23.26497,-18.29231,-4.07737,0.00209,-74.18665,5.75284,0.00486,15.82152,11.0193,16.05079,33.73659,-22.50902,-12.06901,-5.69729,18.30526,-3.3453,-9.20593,-29.87432,-23.03127,90.41012,-0.01218,-99.9031,74.8867,-0.0839,64.94785,-6.35925,-8.44176,0.00668,-17.95757,-11.82242,-0.00033,-9.00466,7.71913,-9.26019,-30.73743,10.58279,-5.76184,-0.42229,4.72729,-3.05046
2146,17.85073,-0.0,-0.0,-16.00377,0.0,0.0,-7.85492,-3.48886,21.18517,-12.48942,6.26901,-22.18151,-19.01479,-4.41594,0.00256,-73.03356,7.11837,0.00598,16.88733,10.79668,15.44379,32.13728,-21.25201,-13.04744,-7.07213,18.94001,-0.75915,-7.82346,-30.57696,-21.30077,91.00464,-0.00362,-99.2547,77.70972,0.00709,67.82645,-5.87439,-7.69238,0.00915,-18.59551,-12.04466,-0.00058,-8.56064,7.95046,-9.50798,-30.3002,10.88859,-5.90673,-0.22746,3.9903,-2.22974
2147,17.56855,0.0,-0.0,-16.42244,0.0,0.0,-7.52199,-3.35665,22.2587,-13.10296,6.28344,-21.82745,-19.82968,-4.56001,7e-05,-71.83516,8.43265,0.00541,18.0979,10.52295,15.13249,30.70944,-19.96705,-13.87879,-8.33619,19.56723,1.67406,-6.49048,-31.47659,-19.31919,91.65914,0.00955,-99.66821,80.39642,0.06311,69.2515,-5.65213,-6.76747,0.00301,-18.65809,-13.19246,-0.01067,-8.19215,8.11607,-9.67318,-29.93718,11.10301,-5.99902,0.12326,3.1605,-1.4409
2148,17.93224,-0.0,-0.0,-17.75955,-0.0,-0.0,-7.36288,-3.06304,22.09134,-12.85404,5.88937,-21.98237,-20.66543,-4.39148,-0.00366,-70.63207,9.4951,0.00228,19.26811,10.17958,15.54121,29.3174,-18.70173,-14.7028,-9.52604,20.24199,3.79233,-5.2219,-32.49056,-17.29658,92.47664,0.0141,-100.80048,82.89528,0.03567,70.34908,-5.75231,-6.00838,0.00036,-18.31359,-14.70969,-0.01407,-7.821,8.19921,-9.95133,-29.561,11.28223,-6.22833,0.52178,2.19818,-0.57437
2149,19.35174,0.0,0.0,-20.09631,0.0,-0.0,-7.49596,-2.66042,20.90445,-12.21248,5.10256,-22.18736,-21.44339,-4.0209,-0.00445,-69.41367,10.16889,-0.00061,20.27495,9.80708,16.388,27.81802,-17.45656,-15.66091,-10.63727,20.96193,5.6311,-3.9773,-33.48513,-15.51444,93.45814,0.0064,-101.69386,85.23539,-0.02292,72.23808,-5.65702,-5.37249,0.00467,-18.04474,-15.78913,-0.00625,-7.37272,8.28042,-10.43476,-29.09839,11.53482,-6.65104,0.84115,1.167,0.44757
2150,20.9851,0.0,0.0,-21.71372,0.0,0.0,-7.72505,-2.21188,19.60119,-11.65601,4.30402,-22.16922,-22.15681,-3.76469,-0.00157,-68.10817,10.44996,-0.00352,21.13679,9.51522,16.98815,26.16625,-16.12767,-16.76044,-11.63084,21.70041,7.36654,-2.64592,-34.38593,-14.02219,94.464,-0.00257,-101.79572,87.46032,-0.04771,74.78383,-5.1154,-4.81605,0.00639,-17.91091,-16.07575,0.00084,-6.84522,8.44382,-10.91881,-28.56168,11.86386,-7.04363,1.05698,0.16267,1.56857
2151,21.69731,0.0,0.0,-20.78698,0.0,0.0,-7.76221,-1.79838,18.89295,-11.34163,4.04138,-21.99434,-22.84999,-3.86019,0.00195,-66.64555,10.37428,-0.00648,21.90749,9.45131,17.00725,24.41889,-14.5552,-17.88527,-12.45692,22.48143,9.09576,-1.13139,-35.23572,-12.63002,95.30328,-0.0049,-101.06863,89.60947,-0.02607,76.95484,-4.61238,-4.56459,0.00304,-17.46878,-15.83024,0.00479,-6.31209,8.67199,-11.12009,-28.03713,12.14949,-7.14635,1.2177,-0.72994,2.68827
2152,21.35172,0.0,-0.0,-17.66546,-0.0,-0.0,-7.52259,-1.52416,18.91301,-11.13649,4.4979,-21.91301,-23.56136,-4.26771,0.00311,-65.05799,10.09882,-0.00471,22.68476,9.61723,16.5771,22.71612,-12.75563,-18.83996,-13.1089,23.38923,10.76672,0.581,-36.11903,-11.13748,95.90858,-0.00391,-99.6002,91.70733,0.01503,77.88017,-4.74672,-4.75994,0.00341,-16.56716,-15.55373,0.00295,-5.88622,8.85933,-10.98243,-27.63265,12.27313,-6.94605,1.4087,-1.50819,3.73917
2153,20.73866,0.0,0.0,-14.65345,0.0,0.0,-7.19683,-1.4247,19.47893,-10.83527,5.21648,-22.08072,-24.29259,-4.77713,0.00161,-63.46457,9.84236,-0.00039,23.60067,9.80259,16.01545,21.18735,-11.01112,-19.55563,-13.63889,24.4458,12.3467,2.44622,-37.03867,-9.45082,96.40163,-0.00398,-97.72337,93.73372,0.04197,77.46896,-5.45325,-5.24276,0.00496,-15.67861,-15.65822,-0.00083,-5.58821,8.91313,-10.6356,-27.3544,12.19609,-6.59999,1.71365,-2.29982,4.66751
2154,20.47554,0.0,0.0,-13.51502,0.0,-0.0,-7.03979,-1.37567,20.37742,-10.28579,5.63258,-22.4535,-25.00024,-5.25716,-0.0002,-61.91635,9.61976,-0.00041,24.67686,9.81993,15.65358,19.84966,-9.5818,-20.21216,-14.10987,25.51673,13.92982,4.38631,-37.91114,-7.56857,96.96179,-0.00369,-96.14122,95.64339,0.03582,76.44191,-6.03399,-5.77213,0.00165,-15.35146,-16.24846,0.00298,-5.27491,8.8398,-10.21561,-27.05298,11.97407,-6.23371,2.16423,-3.25123,5.471
2155,20.59698,0.0,0.0,-14.05829,0.0,0.0,-7.13027,-1.23013,21.43433,-9.44321,5.6966,-22.94359,-25.62477,-5.74854,-0.00054,-60.31857,9.36197,-0.00089,25.79536,9.70321,15.59224,18.62149,-8.44345,-20.8774,-14.53729,26.41986,15.58903,6.33961,-38.6897,-5.56936,97.6503,-0.00174,-95.39986,97.41955,0.0062,75.84121,-5.86177,-6.1741,-0.00155,-15.75219,-16.94797,0.00715,-4.80197,8.74843,-9.88637,-26.58608,11.76848,-5.95962,2.73015,-4.35992,6.24748
2156,21.12861,0.0,-0.0,-15.17045,-0.0,-0.0,-7.37345,-1.07723,22.51311,-8.39772,5.71431,-23.56187,-26.14857,-6.31659,1e-05,-58.54469,9.16577,0.00367,26.82332,9.60201,15.60797,17.39603,-7.39304,-21.27268,-14.8756,27.10693,17.21784,8.37783,-39.41448,-3.5376,98.38361,0.00067,-95.55186,99.04305,-0.01976,76.27634,-4.95327,-6.36077,-0.00029,-16.66368,-17.18158,0.00091,-4.20441,8.77613,-9.83966,-25.99248,11.77708,-5.90532,3.32222,-5.4889,7.12131
2157,22.08743,0.0,0.0,-15.99346,-0.0,0.0,-7.60893,-1.17262,23.57893,-7.34279,5.81531,-24.31969,-26.61096,-6.90905,0.00039,-56.56717,9.0795,0.00636,27.69494,9.58144,15.51356,16.08749,-6.30933,-21.23844,-15.08856,27.67207,18.62317,10.70584,-40.12369,-1.41842,99.08092,0.00676,-96.5765,100.43707,-0.02341,77.57097,-3.84603,-6.41216,0.00064,-17.74369,-16.78589,-0.00764,-3.63353,8.99481,-10.07863,-25.42937,12.06778,-6.04642,3.81624,-6.54242,8.11635
2158,22.97977,0.0,0.0,-15.97678,0.0,0.0,-7.69311,-1.61709,24.77568,-6.47024,5.86422,-25.0733,-27.04791,-7.42533,0.00038,-54.44189,8.92987,0.00191,28.41903,9.57672,15.38336,14.66476,-5.24319,-21.05316,-15.23418,28.21462,19.75211,13.48162,-40.78293,0.98256,99.77698,0.01483,-98.41761,101.52372,-0.00956,79.05563,-3.04267,-6.53182,-0.00096,-18.78818,-16.05944,-0.01002,-3.19027,9.33974,-10.31107,-25.00467,12.47326,-6.13333,4.14469,-7.54708,9.11673
2159,23.2639,-0.0,0.0,-14.93048,-0.0,-0.0,-7.65852,-2.20144,26.1948,-5.84929,5.74236,-25.56085,-27.44702,-7.8249,0.00018,-52.21201,8.59732,-0.00261,29.06049,9.49563,15.30892,13.15914,-4.28594,-21.03992,-15.43491,28.76502,20.74671,16.66809,-41.29929,3.76243,100.53694,0.01317,-100.3857,102.31078,0.0052,80.09606,-2.80536,-6.8072,-0.00178,-19.58665,-15.35645,-0.00674,-2.89815,9.63295,-10.21289,-24.7408,12.70945,-5.92951,4.35447,-8.54297,9.94901
2160,23.16658,0.0,-0.0,-13.32594,-0.0,-0.0,-7.76739,-2.56588,27.52328,-5.38764,5.52164,-25.57724,-27.78208,-8.07626,-0.00027,-49.89417,8.14763,-0.0029,29.68518,9.30908,15.27462,11.62431,-3.44151,-21.24665,-15.75581,29.31446,21.76521,20.04612,-41.58476,6.77084,101.34677,0.00021,-101.42976,102.91592,0.01017,80.50729,-3.31269,-7.08208,-0.00212,-19.85315,-14.96548,-0.00345,-2.77436,9.73934,-9.75997,-24.64291,12.64199,-5.46419,4.53459,-9.50462,10.52749
2161,23.08869,0.0,-0.0,-11.93262,-0.0,0.0,-8.13123,-2.58309,28.35518,-4.93391,5.43264,-25.16371,-28.06328,-8.13737,-0.0007,-47.53146,7.64704,-0.00154,30.34201,9.04006,15.23363,10.14361,-2.65448,-21.55746,-16.1272,29.86369,22.84659,23.3545,-41.62262,9.78648,102.15337,-0.00986,-101.18272,103.55627,0.00358,80.70361,-4.47852,-7.19783,-0.00191,-19.66323,-15.03743,-0.00343,-2.81057,9.66149,-9.17535,-24.69272,12.35503,-4.94616,4.74499,-10.40872,10.91073
2162,22.65131,0.0,0.0,-11.0436,0.0,-0.0,-8.43113,-2.47497,28.80373,-4.43587,5.62483,-24.61009,-28.33349,-8.06901,-0.00058,-45.15895,7.11874,0.00068,31.11416,8.72984,15.0691,8.84836,-1.87208,-21.8056,-16.37447,30.44008,23.92998,26.40646,-41.47911,12.66337,102.93304,-0.00968,-100.20512,104.46368,-0.00741,81.18978,-5.74515,-7.32319,0.00248,-19.37827,-15.40601,-0.00304,-2.8779,9.44879,-8.60327,-24.76074,11.94739,-4.49175,5.02958,-11.2572,11.19134
2163,21.59711,0.0,-0.0,-10.42778,0.0,0.0,-8.40278,-2.49211,29.32323,-3.92611,5.9563,-24.12767,-28.60833,-8.01353,1e-05,-42.7498,6.59725,0.00239,32.07476,8.43669,14.71247,7.83184,-1.05073,-21.83114,-16.3401,31.05325,24.9065,29.09526,-41.2704,15.23878,103.70257,-0.00798,-99.20584,105.72387,-0.00943,81.8732,-6.45314,-7.7923,0.00277,-19.02605,-15.63366,-0.00031,-2.78996,9.12426,-7.99094,-24.66495,11.42105,-4.0426,5.41191,-12.01321,11.41041
2164,20.84051,0.0,0.0,-9.77279,-0.0,-0.0,-8.27626,-2.6961,30.10706,-3.38261,6.20701,-23.58317,-28.83194,-8.02135,0.00041,-40.2988,6.05433,-8e-05,33.15262,8.20236,14.34061,7.05287,-0.18582,-21.62289,-16.00575,31.65429,25.71971,31.43938,-41.09681,17.39438,104.52618,-0.01151,-98.42767,107.17794,-0.001,82.30871,-6.2483,-8.66209,-0.00812,-18.47822,-15.25609,0.00361,-2.52617,8.75134,-7.25443,-24.39207,10.80395,-3.49606,5.84834,-12.63103,11.59853
2165,21.31615,0.0,0.0,-8.79782,-0.0,-0.0,-8.39758,-3.02528,31.01938,-2.73311,6.3865,-22.72223,-28.92651,-8.02184,0.00043,-37.91494,5.39994,-0.00442,34.15122,8.00399,14.19443,6.37722,0.65419,-21.33561,-15.45516,32.20499,26.40418,33.63152,-40.96333,19.23646,105.46761,-0.00884,-98.10123,108.49802,0.00538,82.3446,-5.2417,-9.67036,-0.01625,-17.94837,-14.23994,0.00111,-2.27017,8.46638,-6.43389,-24.13338,10.23735,-2.83819,6.22332,-13.15008,11.80243
2166,22.56333,-0.0,-0.0,-7.36274,0.0,0.0,-8.72073,-3.34849,31.9472,-1.94682,6.64062,-21.59191,-28.89783,-7.97345,0.00026,-35.73285,4.65825,-0.00328,34.96591,7.79559,14.25214,5.71996,1.4068,-21.04744,-14.73163,32.75391,26.93213,35.84506,-40.79251,20.92821,106.49461,0.00755,-98.86478,109.42836,0.00421,82.17883,-4.09896,-10.49362,-0.00837,-17.67327,-13.21888,-0.00512,-2.16466,8.37677,-5.66883,-24.03443,9.8723,-2.15877,6.43694,-13.6618,12.04687
2167,23.36045,0.0,-0.0,-5.75645,0.0,-0.0,-8.90159,-3.53588,32.89737,-1.04167,6.99624,-20.49017,-28.8597,-7.91165,-0.00014,-33.7686,3.97772,0.00191,35.69987,7.58291,14.29394,5.10464,2.11412,-20.68685,-13.84693,33.3512,27.186,38.00551,-40.52753,22.42943,107.51024,0.02027,-100.91464,110.00433,0.00029,82.12086,-3.67202,-10.96159,0.00656,-17.58871,-12.83233,-0.0054,-2.15103,8.46101,-5.05414,-24.03368,9.72391,-1.55428,6.49676,-14.19233,12.29213
2168,23.21368,-0.0,-0.0,-4.53554,-0.0,-0.0,-8.72777,-3.61632,33.83368,-0.05804,7.34273,-19.54354,-28.90476,-7.84984,-0.00056,-31.94786,3.39955,0.003,36.49042,7.40211,14.21152,4.58723,2.85694,-20.28084,-12.88765,33.9475,27.16775,39.92154,-40.17279,23.64801,108.45843,0.01598,-103.3735,110.4724,-0.0017,82.3551,-4.28838,-11.11115,0.01462,-17.62845,-13.06787,0.00028,-2.11116,8.58182,-4.55706,-24.00571,9.65274,-1.04584,6.48991,-14.7031,12.45502
2169,22.66853,0.0,-0.0,-3.93506,-0.0,-0.0,-8.30725,-3.79018,34.70908,0.93156,7.58735,-18.69977,-28.97281,-7.76307,-0.00057,-30.22783,2.822,-0.00113,37.3239,7.25756,14.02914,4.19318,3.63886,-19.96684,-11.94222,34.47644,27.01622,41.57053,-39.74612,24.6846,109.28997,0.00365,-105.12223,110.98576,-0.00077,82.80155,-5.56261,-10.80214,0.00758,-17.88382,-13.54847,0.00647,-2.04146,8.59603,-4.09591,-23.9394,9.49588,-0.6114,6.48741,-15.17445,12.49894
2170,22.37285,0.0,-0.0,-3.66483,0.0,0.0,-7.89784,-4.17712,35.49975,1.81633,7.69032,-17.98317,-28.92762,-7.62016,3e-05,-28.61582,2.20413,-0.00496,38.09204,7.11978,13.79143,3.91752,4.3956,-19.80344,-10.95049,34.94449,26.75962,43.11255,-39.26621,25.73106,109.90781,-0.0031,-105.6069,111.49677,7e-05,83.4236,-6.86095,-9.46159,-0.00788,-18.41777,-13.88591,0.00531,-2.00173,8.4683,-3.65625,-23.89306,9.21523,-0.2508,6.49566,-15.60107,12.47498
2171,22.21567,0.0,0.0,-3.33306,0.0,-0.0,-7.60676,-4.68238,36.09164,2.51559,7.62889,-17.44902,-28.7335,-7.39652,0.00073,-27.12765,1.6609,-0.00402,38.72443,6.95731,13.60087,3.73124,5.02397,-19.76672,-9.77807,35.35775,26.24248,44.66956,-38.76942,26.85526,110.30349,-0.00327,-104.75827,111.92796,-0.00135,84.45354,-7.81526,-6.94055,-0.01014,-19.23059,-13.72759,-0.00538,-1.97602,8.26543,-3.25754,-23.85558,8.87994,0.04327,6.49071,-15.9593,12.47733
2172,21.98862,0.0,-0.0,-2.84144,0.0,-0.0,-7.3754,-5.21593,36.37488,3.07765,7.46482,-17.137,-28.45552,-7.14922,0.0007,-25.78111,1.38948,0.00149,39.20015,6.76467,13.57759,3.58977,5.37293,-19.75003,-8.43388,35.67076,25.39322,46.20059,-38.27037,27.99432,110.66164,-0.00523,-102.90233,112.29491,-0.00227,85.88112,-8.44513,-4.31887,0.00146,-20.27438,-13.06534,-0.01381,-1.8742,8.03926,-2.82829,-23.74031,8.51175,0.35694,6.47829,-16.26042,12.58597
2173,22.36234,0.0,-0.0,-2.1941,0.0,0.0,-7.27572,-5.7455,36.3324,3.62165,7.32862,-17.10996,-28.14916,-7.00977,1e-05,-24.56674,1.47278,0.00609,39.50978,6.57913,13.80432,3.44222,5.34351,-19.64019,-7.10744,35.86427,24.46014,47.61123,-37.71443,29.07486,111.18557,-0.00834,-100.74258,112.64335,-0.00033,87.17005,-8.83039,-3.00116,0.00983,-21.29086,-12.3363,-0.00882,-1.6512,7.7628,-2.21141,-23.49998,8.02768,0.82599,6.47605,-16.58133,12.79773
2174,23.71249,0.0,0.0,-1.14879,0.0,-0.0,-7.4295,-6.07822,36.01156,4.21217,7.26602,-17.38601,-27.86327,-7.06353,-0.00052,-23.40001,1.72855,0.00529,39.71257,6.4643,14.29829,3.27603,5.05413,-19.52215,-5.94984,35.98557,23.80583,48.88153,-37.03506,30.0634,111.88037,-0.00556,-98.97662,112.94672,0.00188,87.92355,-8.80547,-3.32947,0.00172,-21.94161,-11.95025,0.00072,-1.38944,7.40845,-1.33627,-23.21377,7.37608,1.50555,6.47961,-16.96903,12.99507
2175,24.92841,0.0,0.0,0.49057,0.0,0.0,-7.66026,-5.97579,35.66332,4.92844,7.18056,-17.98605,-27.67736,-7.30666,-0.00026,-22.17752,1.87315,0.00073,39.99092,6.45967,14.86977,3.17039,4.80821,-19.56429,-4.87251,36.08504,23.48381,50.02298,-36.26945,30.92339,112.56297,0.00041,-97.90945,113.09911,0.00085,88.16884,-8.21313,-4.53266,-0.01113,-22.13087,-12.08662,0.00152,-1.26374,7.02833,-0.35077,-23.0586,6.65993,2.27783,6.50281,-17.34781,13.04966
2176,25.00731,0.0,0.0,2.33431,0.0,-0.0,-7.76494,-5.49665,35.60693,5.93812,6.93917,-18.9465,-27.63885,-7.64031,0.00032,-20.91259,1.78743,-0.00287,40.49089,6.55004,15.25962,3.21921,4.82494,-19.80272,-3.63946,36.15799,23.20865,51.0155,-35.53304,31.6033,113.03368,0.00235,-97.49202,113.02648,-0.00329,87.81863,-7.36226,-5.62811,-0.00876,-21.88001,-12.87171,-0.00844,-1.38648,6.71004,0.50006,-23.15379,6.05092,2.94826,6.55656,-17.59001,12.94426
2177,24.67459,0.0,0.0,3.59118,-0.0,0.0,-8.00513,-4.92438,35.75003,7.31534,6.49932,-20.10288,-27.70929,-7.89284,0.00028,-19.76704,1.51388,-0.0033,41.138,6.70265,15.50729,3.40509,5.07321,-20.26981,-2.13257,36.15906,22.72592,51.85214,-34.85439,32.11004,113.23918,-6e-05,-97.64247,112.80739,-0.00545,86.78781,-6.8506,-6.14455,-0.00031,-21.20174,-14.14086,-0.01627,-1.66646,6.4965,1.1369,-23.41248,5.61811,3.45931,6.56706,-17.64869,12.73342
2178,25.11133,0.0,-0.0,3.73607,-0.0,0.0,-8.76622,-4.43269,35.67923,8.89053,5.88829,-21.14413,-27.81257,-7.98893,-0.00012,-18.91323,1.13255,-0.00147,41.74745,6.93718,15.83558,3.64838,5.40846,-20.9972,-0.43241,36.08222,21.99338,52.56466,-34.14177,32.53875,113.3065,-0.00061,-98.48733,112.634,-0.00227,85.50676,-6.89266,-6.24594,0.00135,-20.2795,-15.24476,-0.00862,-1.87808,6.34614,1.68787,-23.60567,5.27566,3.91425,6.43456,-17.56218,12.45986
2179,26.00778,0.0,-0.0,2.84939,-0.0,-0.0,-9.87256,-4.01007,35.22162,10.40902,5.0999,-21.96413,-27.91058,-8.03811,-0.00026,-18.37477,0.74396,0.00053,42.22111,7.30605,16.30307,3.90154,5.74085,-21.76161,1.34191,36.00472,21.01816,53.17867,-33.34912,33.00323,113.43272,0.00515,-100.19487,112.64651,0.00032,84.6553,-7.15337,-6.43533,-0.00112,-19.41666,-15.55548,0.00407,-1.87756,6.14414,2.2757,-23.58277,4.8718,4.38422,6.13184,-17.38632,12.17391
2180,25.93887,0.0,-0.0,1.47589,-0.0,-0.0,-10.73111,-3.62168,34.5318,11.76404,4.15462,-22.66741,-28.01842,-8.15096,-0.00017,-18.01486,0.44555,0.0012,42.54875,7.79771,16.86923,4.11618,6.02683,-22.22825,3.15541,36.00629,19.76995,53.69107,-32.56183,33.57858,113.71739,0.00983,-102.38032,112.83711,-0.00137,84.62675,-7.31646,-7.02841,-0.00395,-18.90296,-15.00385,0.00504,-1.72386,5.81018,2.8846,-23.40105,4.33765,4.82492,5.66684,-17.17012,11.92668
2181,24.309,0.0,-0.0,0.24687,-0.0,-0.0,-11.07484,-3.32059,33.84902,13.02589,3.25617,-23.29581,-28.13666,-8.33404,-0.00025,-17.6687,0.25418,0.00067,42.75188,8.34466,17.49167,4.249,6.23623,-22.32437,5.01174,36.06318,18.2801,54.06488,-31.87533,34.2633,114.06886,0.00479,-103.97086,113.0813,-0.00264,85.23695,-7.52714,-7.7354,-0.00552,-18.89986,-14.10536,-0.00061,-1.6214,5.40564,3.40482,-23.27127,3.77056,5.15758,5.08148,-16.93492,11.73227
2182,22.10552,0.0,0.0,-0.48717,-0.0,0.0,-11.2056,-3.17246,33.42952,14.29436,2.67225,-23.73781,-28.21016,-8.61406,-0.00056,-17.27577,0.11382,-0.00011,42.90316,8.92097,17.97985,4.34489,6.38236,-22.22772,6.87977,36.05434,16.673,54.223,-31.29386,34.93744,114.32077,-0.00076,-104.34711,113.25223,-0.0014,85.97009,-8.05779,-8.03439,-0.00816,-19.17119,-13.42558,0.00135,-1.75125,5.04737,3.72245,-23.38221,3.3209,5.31978,4.52106,-16.64467,11.60043
2183,20.57662,-0.0,0.0,-0.79847,-0.0,-0.0,-11.51233,-3.14436,33.38877,15.54782,2.3831,-23.82731,-28.22451,-9.02976,-0.0005,-16.89278,-0.00015,-0.00033,43.12994,9.521,18.07159,4.50525,6.51003,-22.14608,8.68847,35.87125,15.13025,54.11565,-30.77881,35.4363,114.46444,0.00214,-104.3259,113.32266,-0.00038,86.72594,-8.67306,-7.92766,-0.00894,-19.26035,-12.98526,0.00772,-2.12495,4.72416,3.85616,-23.74478,2.97134,5.32453,4.13446,-16.23504,11.49629
2184,19.71583,0.0,0.0,-0.97711,0.0,0.0,-11.98044,-3.17769,33.51028,16.64026,2.07345,-23.50152,-28.28074,-9.4849,0.00021,-16.60463,-0.03342,0.0,43.51442,10.07653,17.72807,4.7544,6.63032,-22.16784,10.36954,35.5177,13.8346,53.80454,-30.29659,35.71804,114.66395,0.00928,-104.99366,113.33501,-0.00017,87.86624,-8.72908,-7.80427,-0.0057,-19.16745,-12.43628,0.0053,-2.60385,4.32135,4.0097,-24.21129,2.54047,5.31845,3.89675,-15.68702,11.28877
2185,18.32353,0.0,-0.0,-1.18289,0.0,-0.0,-12.25141,-3.2582,33.43369,17.46437,1.56816,-22.8795,-28.48652,-9.77689,0.00015,-16.44749,0.06453,0.00014,43.96534,10.49698,17.22386,4.98479,6.68585,-22.19718,11.93146,35.10518,12.79717,53.41354,-29.78678,35.90629,115.00195,0.00888,-105.87349,113.31051,0.00022,89.549,-8.03604,-7.69077,-0.00041,-19.50671,-11.58724,-0.01439,-3.02705,3.82201,4.36249,-24.61505,1.94666,5.46194,3.64294,-15.07486,10.91445
2186,15.94729,0.0,-0.0,-1.44164,0.0,0.0,-12.19384,-3.39174,33.01806,18.10882,1.02347,-22.19136,-28.80944,-9.7738,-0.00099,-16.40174,0.26712,-5e-05,44.27826,10.76511,16.9208,5.06212,6.59772,-22.04143,13.46701,34.74615,11.79572,53.0117,-29.16538,36.13238,115.35512,0.00031,-105.50302,113.22868,0.00018,91.3857,-7.242,-7.22824,0.00095,-20.65487,-10.59514,-0.03234,-3.28001,3.36465,4.88582,-24.84429,1.32927,5.77959,3.25408,-14.52754,10.50796
2187,14.23919,0.0,-0.0,-1.88797,-0.0,0.0,-12.22078,-3.61217,32.44921,18.80381,0.62551,-21.67784,-29.10718,-9.53458,-0.0013,-16.41426,0.50113,-0.0002,44.38638,10.95739,16.9216,4.99246,6.37914,-21.59422,15.04185,34.44358,10.62917,52.60598,-28.42021,36.37735,115.59435,-0.00438,-103.65697,113.06174,-0.00198,92.57751,-7.12561,-6.33372,-0.00711,-22.01113,-9.87902,-0.02557,-3.32455,3.09305,5.44632,-24.86534,0.87109,6.20038,2.75737,-14.10437,10.22956
2188,14.50958,0.0,-0.0,-2.61866,0.0,0.0,-12.65193,-3.90312,31.99928,19.67414,0.36725,-21.45862,-29.30732,-9.25348,-0.00053,-16.41809,0.69383,-0.0001,44.44651,11.17803,17.0252,4.9273,6.16741,-20.98271,16.62349,34.09362,9.32893,52.20911,-27.66942,36.52104,115.77424,-0.00368,-101.8047,112.83067,-0.00415,92.67625,-7.80928,-5.45351,-0.00954,-22.68029,-9.66057,-0.00973,-3.24158,3.01092,5.94489,-24.76143,0.61197,6.6334,2.2561,-13.73166,10.06285
2189,15.44028,-0.0,0.0,-3.40991,0.0,-0.0,-13.18096,-4.16441,31.75475,20.57705,0.13192,-21.42075,-29.46159,-9.08361,0.00016,-16.3678,0.81063,6e-05,44.62887,11.49062,17.01075,4.99036,6.10385,-20.50804,18.11679,33.6022,8.08234,51.8315,-27.06198,36.48908,116.06952,0.00214,-101.34235,112.62759,-0.00273,92.16844,-8.80639,-5.12253,-0.00029,-22.48239,-9.69639,-0.00083,-3.1672,2.99605,6.31985,-24.67061,0.46084,6.97632,1.80597,-13.28893,9.88042
2190,15.39922,-0.0,-0.0,-3.93984,-0.0,-0.0,-13.45187,-4.37618,31.65784,21.21321,-0.19757,-21.34935,-29.5976,-9.04663,0.00035,-16.28045,0.89691,9e-05,44.92534,11.92243,16.82213,5.17961,6.21976,-20.332,19.39998,32.98167,7.09102,51.44133,-26.61621,36.31121,116.61359,0.01077,-102.27865,112.533,-5e-05,91.82597,-9.53648,-5.42064,0.00526,-21.75544,-9.70006,0.0026,-3.12552,2.92223,6.56353,-24.61768,0.30297,7.1757,1.39329,-12.71554,9.63088
2191,14.51167,-0.0,0.0,-4.13777,-0.0,0.0,-13.54302,-4.62324,31.70246,21.39476,-0.65245,-21.15875,-29.65864,-9.09084,0.0001,-16.23085,1.03924,-0.00021,45.20346,12.47731,16.53793,5.43468,6.43897,-20.31927,20.40207,32.33257,6.43307,51.01013,-26.21885,36.10995,117.38416,0.01279,-103.72284,112.5319,0.00114,91.85392,-9.74183,-5.87787,0.00313,-20.81363,-9.62982,0.00319,-3.00748,2.713,6.75851,-24.49037,0.03695,7.28027,0.99548,-12.02318,9.37075
2192,13.37877,0.0,0.0,-4.16933,0.0,0.0,-13.63457,-4.93129,31.88283,21.22676,-1.08391,-20.88279,-29.62201,-9.15959,-0.00021,-16.29725,1.23971,-0.00067,45.3549,13.11172,16.29556,5.70417,6.65859,-20.28813,21.27204,31.75196,5.89688,50.545,-25.78654,36.01115,118.14058,0.00534,-104.88455,112.55547,0.00139,91.81055,-9.66061,-5.95691,0.00024,-19.9335,-9.57858,0.00164,-2.7542,2.323,7.00446,-24.22601,-0.41594,7.36612,0.59176,-11.25444,9.15562
2193,12.12658,0.0,0.0,-4.23574,-0.0,0.0,-13.75737,-5.27037,31.99358,21.01684,-1.24045,-20.51151,-29.5521,-9.18879,-0.00034,-16.50781,1.36596,-0.00041,45.33907,13.75423,16.24705,5.93704,6.84141,-20.24817,22.36143,31.25548,5.08171,50.00679,-25.32867,35.9853,118.53432,-0.00276,-105.49753,112.56583,0.00113,91.38093,-9.72765,-5.60924,-0.00232,-19.37852,-9.57686,-0.00052,-2.49084,1.77043,7.31218,-23.95058,-1.04271,7.45012,0.13582,-10.45717,8.98411
2194,10.83362,0.0,0.0,-4.35979,0.0,-0.0,-13.91443,-5.64376,31.78936,20.96316,-1.03044,-20.02733,-29.50187,-9.12379,-0.00034,-16.82863,1.28646,0.00061,45.18567,14.36074,16.46045,6.11319,7.03855,-20.2662,23.83878,30.75227,3.86007,49.27417,-24.86137,35.84789,118.45409,-0.00564,-105.81776,112.58144,-0.0003,91.19309,-9.90754,-5.21608,-0.00236,-19.25713,-9.36481,-0.0029,-2.43841,1.15572,7.61398,-23.88909,-1.72518,7.50608,-0.3806,-9.67371,8.83681
2195,9.51987,0.0,-0.0,-4.29202,-0.0,-0.0,-14.1165,-6.05563,31.31026,20.97394,-0.64573,-19.53165,-29.44255,-8.94923,-0.00015,-17.20229,1.02888,0.00118,44.98376,14.90869,16.86898,6.28325,7.29394,-20.30126,25.39885,30.12079,2.61714,48.26528,-24.3828,35.46999,118.23284,-0.00316,-106.27094,112.64669,-0.00354,92.09685,-9.64567,-5.06685,-0.00151,-19.42045,-8.58938,-0.00418,-2.69933,0.60058,7.84231,-24.14617,-2.32535,7.51558,-0.87894,-8.9426,8.70815
2196,8.02745,0.0,-0.0,-3.8162,0.0,0.0,-14.32943,-6.49045,30.7765,20.86368,-0.37683,-19.14239,-29.32339,-8.66182,0.00022,-17.59226,0.75309,0.00072,44.78128,15.37074,17.41301,6.48741,7.54574,-20.29378,26.54254,29.37079,1.84484,47.0316,-23.91527,34.89586,118.35835,0.00314,-106.95656,112.78144,-0.00529,93.78069,-8.70965,-5.12677,-0.0017,-19.51717,-7.38421,-0.00049,-3.13279,0.21322,7.99413,-24.57858,-2.7414,7.51526,-1.30451,-8.32425,8.5989
2197,6.47534,-0.0,-0.0,-3.15913,-0.0,0.0,-14.57505,-6.88449,30.22245,20.64054,-0.33368,-18.84481,-29.14644,-8.26657,0.00038,-17.96985,0.60162,-0.00014,44.52369,15.74886,18.13624,6.66711,7.6799,-20.24006,27.05957,28.67423,1.6391,45.68804,-23.48828,34.23986,119.01614,0.00531,-107.60247,112.98273,-0.00133,94.91939,-7.62824,-5.23489,-0.00085,-19.23331,-6.43044,0.00177,-3.46559,0.06968,8.18402,-24.90473,-2.94442,7.63969,-1.7055,-7.88665,8.50529
2198,5.35928,0.0,-0.0,-2.83149,0.0,-0.0,-15.02076,-7.03048,29.46119,20.48034,-0.38023,-18.57032,-28.94236,-7.83221,3e-05,-18.27258,0.61246,-0.00046,44.14392,16.08296,19.02689,6.71961,7.6612,-20.12535,27.12911,28.15821,1.73257,44.32103,-23.11022,33.58223,119.99905,3e-05,-107.91613,113.26237,0.00597,94.63424,-7.05178,-5.28421,0.00043,-18.52477,-6.28454,-0.00362,-3.56183,0.12515,8.58213,-24.97987,-3.03824,8.03107,-2.1391,-7.62282,8.40819
2199,4.92638,-0.0,0.0,-3.03,0.0,0.0,-15.77175,-6.71955,28.45558,20.46322,-0.33637,-18.3512,-28.70025,-7.50815,-0.00064,-18.42359,0.73043,-0.00014,43.67146,16.39158,19.81261,6.62651,7.57113,-19.88732,27.08847,27.71942,1.82589,43.00109,-22.78694,32.97932,120.98566,-0.00534,-107.86298,113.59302,0.00841,93.42165,-7.04352,-5.26071,0.00096,-17.59366,-6.87014,-0.00738,-3.55415,0.18215,9.20447,-24.93775,-3.21226,8.63219,-2.57873,-7.40849,8.2773
2200,4.67605,0.0,0.0,-3.33223,-0.0,0.0,-16.60415,-6.03912,27.41131,20.4488,-0.12168,-18.19831,-28.38858,-7.37967,-0.00101,-18.39477,0.82156,-9e-05,43.19571,16.65822,20.21267,6.47204,7.5269,-19.56178,27.15594,27.15029,1.78681,41.82763,-22.51919,32.49299,121.82819,-0.00437,-107.75238,113.83655,0.00447,92.55809,-7.17652,-5.26132,0.00093,-16.71643,-7.67533,-0.0026,-3.64983,0.04096,9.8585,-24.99905,-3.58202,9.19081,-2.96646,-7.09899,8.10247
2201,3.86337,0.0,0.0,-3.21259,-0.0,0.0,-17.14791,-5.31418,26.47799,20.25884,0.23652,-17.95893,-28.02907,-7.3645,-0.00083,-18.22583,0.75251,-0.00062,42.75386,16.88042,20.31298,6.3393,7.57616,-19.32732,27.29825,26.39839,1.6685,40.91272,-22.28652,32.18998,122.57786,0.00105,-108.00249,113.84728,0.00167,92.63681,-7.05231,-5.4122,-0.00038,-16.19684,-8.18569,0.00144,-3.87203,-0.33423,10.3612,-25.20023,-4.11441,9.52328,-3.28697,-6.66122,7.91965
2202,2.48581,-0.0,-0.0,-2.77487,0.0,-0.0,-17.3111,-4.80099,25.78286,19.90357,0.51521,-17.60221,-27.66777,-7.38831,-0.00089,-17.99692,0.56477,-0.00068,42.33954,17.08071,20.27036,6.26846,7.67106,-19.17197,27.36714,25.58874,1.59249,40.31513,-22.08063,32.12181,123.29431,0.00535,-108.74854,113.64163,0.00026,93.10452,-6.60141,-5.76565,-0.00225,-16.3632,-8.09654,-0.00931,-4.11138,-0.84696,10.67974,-25.43436,-4.70787,9.63385,-3.5364,-6.16055,7.78757
2203,1.14699,0.0,-0.0,-2.49155,0.0,-0.0,-17.2738,-4.62804,25.51081,19.53086,0.42595,-17.34417,-27.3107,-7.46019,-0.00118,-17.78563,0.43167,1e-05,41.95373,17.24846,20.02839,6.26773,7.72656,-18.83079,27.31369,24.87031,1.60247,39.96926,-21.90237,32.28511,123.93327,0.00527,-109.80121,113.37805,-0.00142,93.29773,-6.07853,-6.32265,-0.00131,-17.37193,-7.48563,-0.0253,-4.36302,-1.40076,10.87566,-25.69149,-5.29499,9.61485,-3.69718,-5.67331,7.70176
2204,0.23728,0.0,-0.0,-2.51403,0.0,-0.0,-17.1932,-4.87363,25.59888,19.24864,0.03701,-17.28411,-26.93574,-7.51917,-0.00079,-17.62044,0.40255,0.00049,41.5695,17.33263,19.63145,6.28981,7.69977,-18.21548,27.21078,24.32538,1.61893,39.68009,-21.70561,32.58214,124.41713,0.00155,-110.74613,113.19772,-0.00204,93.02579,-5.86382,-6.96917,0.00252,-18.86089,-6.91763,-0.0204,-4.71614,-1.92602,11.07883,-26.0507,-5.85814,9.61294,-3.7792,-5.25885,7.56139
2205,-0.16411,0.0,-0.0,-2.6925,0.0,0.0,-17.19534,-5.41556,25.65028,19.07622,-0.20482,-17.27717,-26.52877,-7.44241,0.00038,-17.4706,0.35649,0.00027,41.14127,17.33639,19.35242,6.26197,7.64188,-17.56005,27.16456,23.9367,1.49349,39.24988,-21.43742,32.84643,124.69981,-0.00144,-111.06512,113.15471,-0.00174,92.48356,-6.17708,-7.34526,0.00138,-20.03765,-6.84448,-0.00468,-5.13471,-2.35507,11.43063,-26.46402,-6.38568,9.78533,-3.83017,-4.92429,7.2768
2206,-0.14627,-0.0,0.0,-2.87022,-0.0,-0.0,-17.44308,-5.89718,25.28162,18.95146,-0.00902,-17.17427,-26.11304,-7.17789,0.00138,-17.28503,0.18709,-0.00038,40.6819,17.34157,19.3907,6.15776,7.65951,-17.1544,27.26942,23.5935,1.13385,38.62389,-21.13148,32.94399,124.76835,-0.00075,-110.64989,113.23623,-0.00191,92.20767,-6.91668,-7.09692,-0.00583,-20.3612,-6.95905,0.00236,-5.46453,-2.6614,11.92256,-26.77519,-6.84972,10.1341,-3.90509,-4.59684,6.87479
2207,-0.0413,0.0,-0.0,-2.92134,0.0,-0.0,-17.94394,-6.1031,24.44789,18.75891,0.42691,-16.94915,-25.75251,-6.78823,0.00125,-17.03756,-0.07797,-0.00085,40.25182,17.4057,19.65077,6.00441,7.78724,-17.10783,27.57594,23.1824,0.62559,37.88021,-20.88183,32.8253,124.68591,0.00038,-110.00706,113.37387,-0.00155,92.27747,-7.7414,-6.4073,-0.00626,-19.81654,-6.79,0.00447,-5.64943,-2.89691,12.40497,-26.93854,-7.24418,10.50024,-4.0353,-4.21047,6.48267
2208,-0.2489,-0.0,0.0,-2.82321,0.0,0.0,-18.45603,-6.15598,23.48521,18.44964,0.72816,-16.71725,-25.49602,-6.44582,0.00015,-16.75094,-0.3096,-0.00056,39.91366,17.51996,19.77598,5.87717,7.94613,-17.22325,28.04928,22.688,0.19841,37.11821,-20.7294,32.50859,124.60243,-0.00032,-109.50362,113.48647,-0.00018,92.11615,-8.27342,-6.00277,-0.00016,-18.61763,-6.46652,0.0014,-5.74996,-3.14791,12.80131,-27.02375,-7.62171,10.7803,-4.18515,-3.78011,6.23901
2209,-0.90737,0.0,-0.0,-2.80326,0.0,-0.0,-18.73726,-6.26248,22.86736,18.12089,0.77546,-16.71051,-25.3171,-6.34533,-0.00092,-16.49147,-0.37836,0.00015,39.73177,17.66907,19.4038,5.89738,8.04753,-17.05425,28.56591,22.18838,0.04551,36.4075,-20.627,32.09735,124.63345,-0.00173,-108.93045,113.55332,0.00044,91.76093,-8.25035,-6.41555,-0.00207,-17.18891,-6.30865,-0.00355,-5.7797,-3.45078,13.17803,-27.04207,-8.04038,11.02318,-4.24806,-3.34729,6.20479
2210,-1.85995,-0.0,-0.0,-3.08694,0.0,-0.0,-18.79731,-6.4628,22.73251,17.89744,0.72315,-16.989,-25.13808,-6.48161,-0.0012,-16.3229,-0.27039,0.00041,39.68679,17.83354,18.59936,6.11013,8.05681,-16.3502,28.97222,21.76168,0.19768,35.79425,-20.52543,31.7543,124.75806,-0.00198,-108.16985,113.6129,-0.00028,92.07213,-7.60555,-7.40615,-0.00865,-16.14851,-6.22811,-0.00267,-5.71356,-3.7545,13.57378,-26.96338,-8.46663,11.28387,-4.16944,-2.94559,6.34131
2211,-2.85344,0.0,0.0,-3.52876,-0.0,0.0,-18.83681,-6.66623,22.69117,17.7765,0.75186,-17.24885,-24.91435,-6.60713,-0.00051,-16.24881,-0.12201,0.00023,39.59889,17.96083,17.89304,6.36817,7.9699,-15.40308,29.18192,21.43058,0.55602,35.28629,-20.43062,31.57543,124.88219,-0.00059,-107.59771,113.69894,-0.00155,93.44988,-6.51558,-8.2936,-0.00587,-15.85327,-5.94186,-0.00081,-5.63228,-3.96526,13.89506,-26.87,-8.77922,11.50882,-4.0482,-2.63206,6.55087
2212,-3.67795,0.0,-0.0,-3.83927,0.0,0.0,-18.99752,-6.81231,22.33608,17.66545,0.91134,-17.18303,-24.65141,-6.54415,0.00024,-16.20831,-0.08293,4e-05,39.2847,18.01636,17.64859,6.47308,7.80329,-14.67485,29.21808,21.19792,0.99513,34.84696,-20.33817,31.5525,124.96104,0.00043,-107.49593,113.82409,-0.00191,95.26407,-5.35342,-8.67765,0.00223,-16.20762,-5.36126,-0.00345,-5.666,-4.03972,14.05257,-26.89613,-8.90553,11.62975,-4.01919,-2.45605,6.72509
2213,-4.22145,0.0,0.0,-3.93951,-0.0,0.0,-19.26468,-6.90284,21.69714,17.50139,1.16833,-16.80545,-24.35216,-6.36492,0.00031,-16.13468,-0.18263,-0.00015,38.75952,18.02564,17.72354,6.40476,7.59876,-14.30466,29.13977,21.06897,1.41825,34.42403,-20.1832,31.65289,125.02831,-8e-05,-107.56952,113.99952,-0.00081,96.5767,-4.5194,-8.63503,0.00454,-16.97477,-4.57773,-0.00845,-5.81082,-4.03403,14.11083,-27.03623,-8.92126,11.68666,-4.07862,-2.39155,6.80522
2214,-4.4944,0.0,0.0,-3.86243,0.0,0.0,-19.58618,-6.93519,20.99485,17.27473,1.50274,-16.26608,-24.01414,-6.18359,0.00018,-16.01327,-0.36708,-0.00031,38.2154,18.0457,17.84868,6.32387,7.41057,-14.19885,28.96817,21.00835,1.75369,33.96835,-19.9198,31.82239,125.14404,-0.00143,-107.37691,114.21394,0.00091,96.95509,-4.24661,-8.43814,0.00173,-17.89625,-3.83541,-0.00922,-5.95341,-4.03781,14.23267,-27.16977,-8.96878,11.79997,-4.09395,-2.3429,6.82253
2215,-4.63311,0.0,0.0,-3.69044,0.0,-0.0,-19.94606,-6.90797,20.32521,17.01238,1.83667,-15.68793,-23.66183,-6.01193,0.00015,-15.8751,-0.56259,-0.00028,37.83733,18.12522,17.87487,6.37634,7.29113,-14.24073,28.71955,20.92823,1.96193,33.46021,-19.60949,31.95009,125.34414,-0.00123,-107.0188,114.42235,0.00204,96.47464,-4.46772,-8.33145,3e-05,-18.55563,-3.50709,-0.00614,-6.01712,-4.08804,14.51535,-27.21457,-9.11761,12.04775,-3.95993,-2.20881,6.85506
2216,-4.83795,0.0,0.0,-3.6416,0.0,-0.0,-20.30334,-6.85385,19.72563,16.77185,1.97228,-15.24743,-23.32592,-5.86352,-0.00012,-15.73346,-0.68743,-8e-05,37.62054,18.27126,17.67552,6.52026,7.2568,-14.25785,28.44297,20.74157,2.05414,32.9436,-19.37156,31.94659,125.61968,0.00127,-106.9865,114.60036,0.00193,95.50402,-4.89153,-8.40963,0.00016,-18.59965,-3.66488,-0.00566,-5.96926,-4.20834,14.88992,-27.14421,-9.36479,12.35662,-3.73636,-1.94679,6.9541
2217,-5.13439,0.0,0.0,-3.78284,0.0,-0.0,-20.59598,-6.80163,19.22107,16.57984,1.8071,-15.11059,-23.013,-5.77291,-0.00042,-15.54567,-0.69962,0.00021,37.37541,18.42399,17.24183,6.55169,7.26052,-14.08776,28.17293,20.41352,2.05643,32.46202,-19.26537,31.79895,125.91864,0.00279,-107.37453,114.78381,0.00017,94.74385,-5.31018,-8.55349,-0.00035,-18.11909,-3.84529,-0.00374,-5.78823,-4.46426,15.16653,-26.95641,-9.70305,12.5237,-3.60935,-1.59961,7.12646
2218,-5.20821,0.0,0.0,-3.78561,0.0,0.0,-20.837,-6.77087,18.75395,16.3854,1.5133,-15.23786,-22.7237,-5.69279,-0.00021,-15.26208,-0.6308,0.00041,36.97714,18.50648,16.81084,6.34722,7.23407,-13.74762,27.89702,19.99116,1.97549,31.94444,-19.24358,31.4784,126.17271,0.00174,-107.70929,115.0321,-0.00225,94.74003,-5.74192,-8.58882,-0.00136,-17.42517,-3.63373,0.00068,-5.52795,-4.87406,15.2177,-26.71784,-10.1036,12.42169,-3.66154,-1.25245,7.35564
2219,-4.76384,0.0,-0.0,-3.38498,0.0,0.0,-21.09652,-6.85461,18.25174,16.14475,1.3463,-15.37267,-22.47311,-5.5256,0.00026,-14.90701,-0.54565,0.00029,36.51574,18.51798,16.66692,6.02032,7.14932,-13.39918,27.60438,19.59223,1.86696,31.27568,-19.18451,30.92537,126.35341,0.00018,-107.54604,115.3589,-0.00241,95.27957,-6.23343,-8.55698,-0.00089,-16.61852,-3.13805,0.00261,-5.33452,-5.3215,15.12386,-26.56131,-10.48692,12.16861,-3.77051,-0.96867,7.60688
2220,-4.00651,0.0,0.0,-2.83327,0.0,-0.0,-21.40353,-7.14729,17.72828,15.89891,1.36489,-15.27395,-22.27672,-5.27558,0.00034,-14.57146,-0.48856,1e-05,36.13861,18.54286,16.83501,5.76775,7.03112,-13.14644,27.32918,19.31333,1.86893,30.51161,-18.98228,30.21519,126.50574,-0.00092,-106.8899,115.70604,-0.00047,95.84873,-6.68886,-8.74364,0.00061,-15.79454,-2.59539,0.00012,-5.3148,-5.63531,15.10298,-26.56456,-10.77188,12.03324,-3.79966,-0.76116,7.82281
