PaulMeinheit/Bachelor_Muay_Thai/processed_Data/E1/roundhouse/sliced/JointAngles/sliced2.csv
Unnamed: 0_level_0,L_MTP_ANGLE,L_MTP_ANGLE,L_MTP_ANGLE,R_MTP_ANGLE,R_MTP_ANGLE,R_MTP_ANGLE,L_ANKLE_ANGLE,L_ANKLE_ANGLE,L_ANKLE_ANGLE,R_ANKLE_ANGLE,R_ANKLE_ANGLE,R_ANKLE_ANGLE,L_KNEE_ANGLE,L_KNEE_ANGLE,L_KNEE_ANGLE,R_KNEE_ANGLE,R_KNEE_ANGLE,R_KNEE_ANGLE,L_HIP_ANGLE,L_HIP_ANGLE,L_HIP_ANGLE,R_HIP_ANGLE,R_HIP_ANGLE,R_HIP_ANGLE,L_SHOULDER_ANGLE,L_SHOULDER_ANGLE,L_SHOULDER_ANGLE,R_SHOULDER_ANGLE,R_SHOULDER_ANGLE,R_SHOULDER_ANGLE,L_ELBOW_ANGLE,L_ELBOW_ANGLE,L_ELBOW_ANGLE,R_ELBOW_ANGLE,R_ELBOW_ANGLE,R_ELBOW_ANGLE,L_WRIST_ANGLE,L_WRIST_ANGLE,L_WRIST_ANGLE,R_WRIST_ANGLE,R_WRIST_ANGLE,R_WRIST_ANGLE,NECK_ANGLE,NECK_ANGLE,NECK_ANGLE,NECK_ANGLE_SHADOW,NECK_ANGLE_SHADOW,NECK_ANGLE_SHADOW,Trunk_Joint_Angle,Trunk_Joint_Angle,Trunk_Joint_Angle
ITEM,X,Y,Z,X,Y,Z,X,Y,Z,X,Y,Z,X,Y,Z,X,Y,Z,X,Y,Z,X,Y,Z,X,Y,Z,X,Y,Z,X,Y,Z,X,Y,Z,X,Y,Z,X,Y,Z,X,Y,Z,X,Y,Z,X,Y,Z
1171,9.52781,0.0,-0.0,-14.18934,0.0,-0.0,-5.87943,-3.76886,17.91661,-8.07654,7.73399,-21.92143,-24.70554,-1.45316,0.00062,-22.01815,0.12883,-0.00435,26.62288,3.50114,9.40509,8.63592,-8.85025,-11.9163,16.55021,34.18825,3.33493,47.79962,-19.35148,32.23042,118.66425,-0.00583,-95.06418,105.89047,-0.00275,102.03583,-11.97972,-3.74354,0.00213,-13.23472,-5.11805,-0.00105,-9.00279,-3.59087,3.37611,-30.67688,-4.58237,1.81287,3.2114,-1.70378,10.83877
1172,7.31391,0.0,0.0,-13.44801,-0.0,0.0,-5.64759,-3.78089,18.28621,-9.30196,8.581,-21.28386,-25.12891,-1.72028,0.00157,-20.78289,-0.32713,-0.00482,26.97601,3.7749,9.46646,8.16061,-8.58102,-11.98934,17.93571,34.27904,2.88428,49.01339,-18.0441,33.13404,119.31856,0.00646,-95.25161,106.66598,-0.00778,102.49369,-11.32876,-3.88786,-0.00715,-13.35784,-4.15794,0.0008,-9.05864,-3.87827,4.10308,-30.73188,-5.11736,2.38291,2.78848,-1.60013,10.89544
1173,5.22243,0.0,-0.0,-12.75563,0.0,0.0,-5.44655,-3.88526,18.93062,-10.46477,9.24589,-20.36815,-25.5451,-2.09279,0.00118,-19.61066,-0.71868,-0.00147,27.38258,4.10911,9.53415,7.82127,-8.32251,-11.92311,19.07385,34.41487,2.81144,50.28602,-16.51789,34.01673,120.08566,0.02193,-96.61797,107.51846,-0.00239,102.9496,-10.53626,-4.84721,-0.01427,-13.32619,-3.01695,0.00108,-9.00835,-4.19229,4.87451,-30.67918,-5.69336,2.98475,2.42383,-1.4824,10.80406
1174,4.38305,0.0,-0.0,-12.69238,0.0,-0.0,-5.58076,-3.96304,19.69945,-11.14126,9.47842,-19.40922,-25.8023,-2.46076,-2e-05,-18.52328,-0.88905,0.00275,27.88686,4.38746,9.81862,7.67548,-8.21049,-11.7761,20.23293,34.59519,2.62039,51.52866,-14.8223,34.78466,120.61665,0.01958,-98.52345,108.26562,0.00724,102.97919,-10.25037,-5.66541,-0.01783,-13.19966,-2.11834,-0.0,-8.85777,-4.63115,5.67865,-30.52871,-6.39727,3.57103,2.24836,-1.43658,10.63254
1175,4.55142,-0.0,0.0,-13.31946,-0.0,0.0,-5.92811,-4.00859,20.46639,-11.01959,9.4163,-18.70816,-25.88651,-2.73466,-0.00064,-17.48569,-0.86306,0.00375,28.45964,4.57544,10.35985,7.65361,-8.22975,-11.66148,21.73878,34.77337,1.8015,52.51534,-13.16006,35.34416,120.65447,0.01139,-99.43478,108.89141,0.00803,102.75845,-10.95829,-5.21765,-0.03727,-12.92204,-1.56505,0.00246,-8.67627,-5.2349,6.42978,-30.35534,-7.23473,4.04684,2.26674,-1.46549,10.53126
1176,4.72309,0.0,0.0,-14.04082,0.0,-0.0,-6.14352,-4.1577,21.10723,-10.2217,9.45269,-18.36366,-25.88176,-2.87355,-0.00046,-16.44772,-0.82453,0.00089,29.00511,4.71109,11.0599,7.61503,-8.24861,-11.67071,23.64696,34.85866,0.29135,53.09248,-11.73415,35.70011,120.35515,0.007,-99.04524,109.54732,-0.00427,103.10095,-12.32883,-3.74626,-0.03979,-12.47691,-0.91631,0.00659,-8.51938,-5.90201,7.06878,-30.21411,-8.08963,4.39439,2.35669,-1.49405,10.57141
1177,4.39743,0.0,-0.0,-14.25627,-0.0,-0.0,-6.05461,-4.49944,21.48571,-9.15955,9.77649,-18.29437,-25.89602,-2.8861,-4e-05,-15.37429,-0.89524,-0.0021,29.47928,4.83759,11.79653,7.48709,-8.17569,-11.79504,25.73476,34.76226,-1.46813,53.35975,-10.61479,35.95833,120.15823,0.00237,-98.71764,110.28634,-0.01544,104.56362,-13.43583,-2.76142,-0.01192,-12.23438,0.1965,0.00082,-8.39284,-6.45727,7.64844,-30.1009,-8.81864,4.72816,2.37976,-1.46236,10.69353
1178,4.16396,0.0,0.0,-14.14787,0.0,0.0,-5.8685,-4.8904,21.52293,-8.16112,10.13486,-18.36164,-25.95856,-2.8448,0.00024,-14.23733,-1.01276,-0.00202,29.93423,4.97761,12.47057,7.32296,-8.0345,-11.96391,27.73238,34.47681,-2.91136,53.545,-9.72309,36.2089,120.34337,0.00535,-99.49303,110.97667,-0.00995,106.63917,-13.60705,-3.24919,-0.00378,-12.5969,1.49542,-0.00927,-8.29496,-6.82185,8.27624,-30.00439,-9.38802,5.17833,2.3166,-1.37852,10.79446
1179,4.78489,0.0,-0.0,-14.12809,-0.0,0.0,-5.90849,-5.04876,21.31346,-7.40877,10.18613,-18.37637,-25.9663,-2.86757,3e-05,-12.99929,-1.06011,0.00033,30.40888,5.14244,13.02315,7.19682,-7.89481,-12.15526,29.46906,34.09463,-3.72143,53.75728,-8.91216,36.46698,120.8371,0.00991,-101.16788,111.51765,0.0013,108.39405,-12.83343,-4.73444,-0.01305,-13.39437,2.40557,-0.00707,-8.23507,-7.07252,8.96314,-29.93581,-9.87308,5.72687,2.25047,-1.2834,10.79822
1180,6.00334,-0.0,0.0,-14.1319,0.0,0.0,-6.2028,-4.82893,21.15909,-7.01909,9.92404,-18.19588,-25.78402,-3.03148,-0.00082,-11.64273,-1.01114,0.00213,30.83918,5.32637,13.44302,7.08733,-7.78589,-12.36112,30.89798,33.74918,-3.94717,53.96263,-8.06847,36.75702,121.3973,0.00597,-103.01939,111.98725,0.00196,109.62691,-11.62391,-6.01647,-0.00521,-14.17371,2.7354,0.0002,-8.16476,-7.32714,9.61979,-29.85664,-10.35051,6.24612,2.21513,-1.19938,10.65708
1181,6.81649,-0.0,-0.0,-13.94024,-0.0,-0.0,-6.4903,-4.37737,21.32132,-6.98143,9.59969,-17.81858,-25.40238,-3.29057,-0.00124,-10.2264,-0.92994,0.00161,31.10291,5.49008,13.81122,6.90401,-7.71634,-12.55558,32.02825,33.54197,-3.85445,54.16343,-7.15748,37.17238,121.8868,-0.00295,-104.36512,112.49671,-0.00484,110.7692,-10.77456,-6.21698,0.00398,-14.8401,2.75381,0.00231,-7.97348,-7.61479,10.21709,-29.65997,-10.83666,6.69782,2.11997,-1.13721,10.36059
1182,6.86072,0.0,-0.0,-13.70707,0.0,0.0,-6.61745,-3.98475,21.72987,-7.0955,9.40958,-17.39604,-24.96722,-3.54164,-0.00053,-8.87036,-0.8942,-0.00039,31.1666,5.60508,14.26509,6.6205,-7.70011,-12.72915,32.85838,33.49704,-3.69149,54.45879,-6.22109,37.77019,122.36444,-0.00779,-104.89069,113.00407,-0.00583,111.73764,-11.03719,-5.30285,-0.01099,-15.58425,2.74463,0.00167,-7.61899,-7.87006,10.7614,-29.29933,-11.27315,7.11238,1.87065,-1.10478,9.96109
1183,6.71387,0.0,0.0,-13.74966,0.0,-0.0,-6.69524,-3.80253,22.09669,-7.11887,9.38777,-17.17329,-24.65085,-3.75875,0.00036,-7.67805,-0.92109,-0.00154,31.16503,5.72449,14.83418,6.35,-7.71211,-12.85353,33.46457,33.53876,-3.64359,54.88945,-5.36363,38.46363,122.91029,-0.00366,-105.07047,113.38441,-0.00187,111.86887,-12.63174,-4.07174,-0.01778,-16.4274,2.77447,0.00172,-7.20799,-8.03112,11.11034,-28.88378,-11.55047,7.3793,1.52296,-1.06839,9.57176
1184,6.63912,0.0,0.0,-13.95768,-0.0,-0.0,-6.79673,-3.76279,22.26006,-6.99811,9.47279,-17.23747,-24.49703,-3.97628,0.00065,-6.70921,-0.94655,-0.00088,31.24447,5.94239,15.43788,6.25124,-7.71066,-12.87965,34.08593,33.50519,-3.88656,55.36216,-4.70794,39.1129,123.42715,0.00246,-105.75893,113.62135,-0.00171,111.2543,-14.86828,-3.50538,0.00531,-17.16172,2.92994,0.00125,-6.88277,-8.11135,11.1261,-28.56388,-11.63079,7.36385,1.22048,-0.96232,9.32026
1185,6.05217,-0.0,0.0,-13.91566,0.0,-0.0,-6.75953,-3.75445,22.35683,-6.84074,9.60552,-17.41014,-24.40179,-4.19946,0.00029,-6.00591,-0.87871,0.00034,31.3717,6.28821,16.00615,6.37857,-7.7103,-12.7799,34.93774,33.23251,-4.46584,55.787,-4.32452,39.6827,123.7453,-0.00034,-106.89055,113.81893,-0.00287,110.64674,-16.38194,-3.92369,0.01253,-17.66578,3.32457,0.00059,-6.62378,-8.17323,11.05811,-28.31286,-11.66343,7.27665,0.99542,-0.75424,9.26661
1186,4.5897,0.0,0.0,-13.52662,-0.0,-0.0,-6.42954,-3.74221,22.66667,-6.7062,9.76874,-17.48319,-24.26166,-4.4071,-0.00023,-5.58614,-0.69296,0.00056,31.42825,6.71527,16.48917,6.6777,-7.743,-12.56847,35.9293,32.69447,-5.14491,56.14959,-4.18761,40.24237,123.88682,-0.00808,-107.22711,114.07746,0.00106,109.96102,-16.27857,-4.88127,-0.00701,-18.05636,3.80239,0.00097,-6.26545,-8.269,11.39247,-27.94564,-11.87469,7.55461,0.75587,-0.45756,9.34027
1187,2.95384,0.0,0.0,-13.04408,0.0,0.0,-5.93249,-3.70457,23.23912,-6.55449,9.94019,-17.37813,-24.09178,-4.57183,-0.00039,-5.40312,-0.4688,4e-05,31.43322,7.15666,16.88655,7.09743,-7.78787,-12.33374,36.71619,32.05607,-5.55799,56.41239,-4.17837,40.84518,124.05366,-0.01267,-106.18415,114.42319,0.00748,108.60163,-15.0915,-5.78509,-0.01406,-18.48618,4.12727,0.0016,-5.79042,-8.41786,12.20162,-27.44041,-12.30859,8.25932,0.48121,-0.11171,9.38219
1188,2.29869,0.0,-0.0,-12.68315,0.0,0.0,-5.56074,-3.65856,23.77025,-6.3363,10.08736,-17.10423,-23.95046,-4.6337,-0.00017,-5.34242,-0.30346,-0.00023,31.52288,7.54055,17.30779,7.62198,-7.81457,-12.18628,37.04718,31.49566,-5.53802,56.49685,-4.15306,41.45337,124.37492,-0.00521,-105.17993,114.79314,0.00696,106.96259,-14.19778,-6.39511,-0.00351,-18.97275,4.36255,0.00068,-5.48579,-8.62262,12.99006,-27.10807,-12.78644,8.92451,0.29464,0.22274,9.29084
1189,2.99406,-0.0,-0.0,-12.56784,0.0,-0.0,-5.47904,-3.67789,23.93073,-6.04565,10.19135,-16.71304,-23.81944,-4.52731,0.0003,-5.2857,-0.21956,-0.00015,31.74069,7.78231,17.84581,8.19562,-7.85269,-12.14704,36.99472,30.99064,-5.22479,56.40989,-4.05001,41.98583,124.81044,0.0095,-105.90295,115.06641,0.00153,106.16216,-14.4459,-6.83411,0.00764,-19.44548,4.75362,-0.00126,-5.6525,-8.86554,13.29451,-27.27732,-13.12315,9.1197,0.28708,0.48298,9.0989
1190,4.2385,0.0,0.0,-12.74172,0.0,0.0,-5.61548,-3.79007,23.70485,-5.72837,10.22226,-16.26346,-23.63233,-4.27667,0.00071,-5.18548,-0.1934,-6e-05,31.98163,7.82839,18.40392,8.70524,-7.95065,-12.18614,36.88048,30.39316,-4.8758,56.27691,-3.90852,42.41386,125.25166,0.01244,-108.02442,115.18151,-0.00021,106.6153,-15.64212,-7.2562,0.01068,-19.78463,5.41708,-0.00136,-6.22939,-9.07422,13.17103,-27.87958,-13.27214,8.92422,0.38091,0.63875,8.86524
1191,4.90325,-0.0,-0.0,-12.90341,0.0,-0.0,-5.74582,-4.01189,23.37795,-5.46776,10.14761,-15.78505,-23.36588,-4.01068,0.00045,-5.08958,-0.22164,-2e-05,32.13388,7.7309,18.8004,9.09155,-8.08896,-12.31236,36.98461,29.65429,-4.61189,56.20927,-3.77847,42.77661,125.60654,0.00366,-109.92631,115.19974,0.0006,107.74393,-17.03929,-7.56529,0.00471,-19.89308,6.18924,0.00045,-6.85446,-9.1656,13.00937,-28.52202,-13.29815,8.73713,0.44083,0.71211,8.57898
1192,4.61458,0.0,-0.0,-12.60019,0.0,-0.0,-5.68051,-4.36429,23.29345,-5.28859,9.98586,-15.32336,-23.04114,-3.85534,-0.00043,-5.08893,-0.30039,0.0001,32.18017,7.62531,18.99591,9.42466,-8.20063,-12.48026,37.32454,28.83841,-4.38041,56.20782,-3.65216,43.11709,125.82433,-0.00266,-110.62685,115.19492,0.00059,108.79604,-17.96933,-7.52375,0.00033,-19.89992,6.67628,0.00213,-7.24109,-9.14645,13.0566,-28.90425,-13.29758,8.78893,0.43328,0.75666,8.23753
1193,3.86379,0.0,0.0,-11.79112,-0.0,0.0,-5.42709,-4.71214,23.58565,-5.12173,9.82877,-14.94361,-22.6798,-3.81186,-0.00087,-5.20325,-0.38301,0.00011,32.15725,7.59026,19.1213,9.78935,-8.26366,-12.56821,37.72565,27.98661,-4.13928,56.19818,-3.50124,43.43594,125.90144,-0.0018,-109.92457,115.16679,-0.00053,109.28183,-18.17344,-7.05401,0.00401,-20.13372,6.60067,0.00535,-7.35717,-9.12299,13.2656,-29.00604,-13.35193,8.99491,0.40579,0.81151,7.91632
1194,3.2126,0.0,0.0,-10.78607,0.0,-0.0,-5.14637,-4.84399,24.06816,-4.93354,9.79286,-14.59933,-22.29935,-3.74952,-0.00021,-5.33039,-0.4266,-1e-05,32.0661,7.5713,19.34351,10.12081,-8.31524,-12.59245,38.03148,27.09005,-3.971,56.08878,-3.35626,43.68986,125.8949,0.00115,-108.18661,115.1256,-0.00221,109.20161,-17.86785,-6.43805,0.00646,-20.69289,6.18329,0.00704,-7.32257,-9.1767,13.49357,-28.96251,-13.48486,9.18962,0.36983,0.86525,7.69021
1195,2.85282,-0.0,0.0,-10.13788,0.0,-0.0,-5.00113,-4.76745,24.49312,-4.68204,9.92503,-14.23449,-21.91373,-3.57379,0.00062,-5.36568,-0.44101,-8e-05,31.86524,7.47768,19.66317,10.25914,-8.38624,-12.65688,38.19382,26.16643,-3.97151,55.81777,-3.29369,43.82091,125.93477,0.00274,-106.65549,115.14162,-0.00444,109.26247,-17.48665,-6.20494,0.00287,-21.18258,5.95267,0.00426,-7.26208,-9.2716,13.63691,-28.90172,-13.62525,9.2889,0.27561,0.86804,7.54584
1196,2.77196,-0.0,-0.0,-10.5129,-0.0,-0.0,-5.03406,-4.70701,24.86561,-4.219,10.18327,-14.0048,-21.5219,-3.35767,0.00065,-5.33712,-0.4447,-0.0001,31.54654,7.31696,19.88522,10.17341,-8.46434,-12.6643,38.20747,25.29299,-4.07248,55.42679,-3.32252,43.82247,126.16056,0.00516,-106.36825,115.24815,-0.00635,109.92682,-17.25873,-6.55723,-0.00024,-21.16724,6.1041,0.00231,-7.21872,-9.337,13.63573,-28.86429,-13.68561,9.26297,0.08705,0.80744,7.41501
1197,2.76343,0.0,0.0,-11.62473,0.0,0.0,-5.07621,-4.86058,25.31935,-3.5667,10.50725,-14.0502,-21.12113,-3.21672,0.00031,-5.35311,-0.42733,-0.00011,31.16026,7.19046,19.93025,10.02303,-8.52082,-12.44598,38.03513,24.54594,-4.05021,55.06277,-3.35102,43.77375,126.58842,0.00478,-106.91888,115.41171,-0.00413,110.43837,-17.16216,-7.05364,-0.00068,-20.74245,6.40545,0.00111,-7.17394,-9.36499,13.53251,-28.8283,-13.67405,9.15491,-0.16471,0.75724,7.25531
1198,2.52793,0.0,0.0,-12.08315,0.0,0.0,-4.91866,-5.17297,25.85585,-3.04733,10.80749,-14.19489,-20.71838,-3.17607,8e-05,-5.45939,-0.38893,-0.0001,30.76716,7.1781,19.95303,9.97412,-8.53394,-12.08325,37.66617,23.91517,-3.73411,54.8461,-3.31596,43.76528,127.06875,0.0001,-107.29902,115.63734,0.00349,109.64904,-17.17348,-7.14079,-0.001,-20.30869,6.68594,-1e-05,-7.14445,-9.38853,13.46608,-28.80492,-13.67174,9.08328,-0.41206,0.81095,7.05899
1199,2.11792,0.0,0.0,-11.26339,0.0,-0.0,-4.68235,-5.26266,26.37826,-2.85038,10.90862,-14.1716,-20.30815,-3.23744,-0.00043,-5.60492,-0.35264,-1e-05,30.40711,7.25733,20.03548,10.04218,-8.50731,-11.79273,37.23221,23.32105,-3.18738,54.76022,-3.2753,43.79877,127.41881,-0.00236,-107.15496,115.97817,0.0109,107.43588,-17.29338,-6.83216,-0.00232,-20.03018,6.91464,-0.00073,-7.19626,-9.44807,13.47562,-28.86152,-13.73055,9.06966,-0.60863,0.9611,6.81973
1200,1.95452,0.0,0.0,-10.27578,0.0,0.0,-4.7303,-4.79513,26.85162,-2.74289,10.6782,-13.98876,-19.87745,-3.4153,-0.0011,-5.69289,-0.3201,0.0001,30.10475,7.31637,20.06444,10.12046,-8.49881,-11.61121,36.93923,22.70975,-2.69063,54.67869,-3.31958,43.78294,127.59576,-0.00044,-106.90764,116.41344,0.0091,104.80316,-17.41727,-6.7952,-0.00431,-19.78968,6.92556,-0.00192,-7.34122,-9.5812,13.38522,-29.0239,-13.82135,8.93373,-0.73642,1.06835,6.54473
1201,2.2536,-0.0,-0.0,-10.40612,-0.0,0.0,-5.1475,-3.98265,27.29676,-2.40634,10.22718,-13.83253,-19.44812,-3.64454,-0.00092,-5.64387,-0.28021,0.00018,29.86671,7.2577,20.01698,10.1085,-8.57317,-11.42353,36.85271,22.07096,-2.5312,54.4721,-3.45287,43.63551,127.7055,0.00351,-107.28143,116.83484,0.0011,102.7757,-17.42232,-7.73211,-0.00733,-19.41896,6.59649,-0.0027,-7.49492,-9.79011,13.00749,-29.21838,-13.87774,8.49785,-0.78795,0.9906,6.28729
1202,2.72725,0.0,0.0,-11.48266,0.0,-0.0,-5.61332,-3.41806,27.65916,-1.84499,9.8275,-13.73631,-19.07233,-3.7861,7e-05,-5.47488,-0.25642,0.00012,29.6758,7.11085,20.08613,10.01637,-8.70581,-11.20053,36.84431,21.40341,-2.75724,54.10605,-3.60044,43.38921,127.83213,0.00589,-108.44761,117.17088,-0.00194,101.51904,-17.39233,-9.48176,-0.00662,-18.87045,6.16841,-0.0001,-7.58672,-10.02934,12.40299,-29.36472,-13.87928,7.83681,-0.76857,0.74744,6.11261
1203,2.94578,0.0,-0.0,-12.4436,-0.0,0.0,-5.82078,-3.37081,27.84951,-1.28276,9.62403,-13.6094,-18.7829,-3.7948,0.00063,-5.29221,-0.28856,-0.0,29.50948,7.01524,20.3625,9.92914,-8.78322,-11.00119,36.75616,20.7232,-3.13206,53.64419,-3.68974,43.16271,127.9278,0.00385,-109.75338,117.44032,0.00154,100.56311,-17.52495,-11.0698,-0.00318,-18.26926,6.00769,0.00481,-7.65297,-10.23533,11.82298,-29.47871,-13.85847,7.21196,-0.69663,0.51639,6.02412
1204,2.68802,-0.0,0.0,-12.74884,0.0,-0.0,-5.74283,-3.54399,27.91392,-0.84386,9.53428,-13.46113,-18.58169,-3.79297,0.00039,-5.16183,-0.38072,-4e-05,29.34585,7.08211,20.62024,9.86537,-8.71307,-10.83917,36.54109,20.06077,-3.35284,53.17306,-3.70555,43.06032,127.91432,-0.00036,-110.90979,117.68721,0.00304,99.91001,-17.75353,-11.95645,-0.00349,-17.80016,6.38404,0.00695,-7.78203,-10.36304,11.44392,-29.63704,-13.83827,6.80649,-0.60528,0.45867,5.95314
1205,1.94305,0.0,0.0,-12.4708,0.0,-0.0,-5.46076,-3.63559,28.05303,-0.51423,9.41806,-13.40708,-18.46327,-3.91906,0.0001,-5.04776,-0.4905,-4e-05,29.15724,7.29924,20.5533,9.7378,-8.50813,-10.68812,36.23647,19.444,-3.31207,52.75665,-3.69893,43.14502,127.81474,-0.00339,-112.59857,117.94138,-0.00242,100.38377,-17.75675,-12.57582,-0.00691,-17.60749,7.5448,0.0008,-8.00212,-10.39647,11.23928,-29.86927,-13.79434,6.60129,-0.5503,0.57727,5.81203
1206,0.96907,0.0,-0.0,-11.59244,-0.0,-0.0,-5.05686,-3.76092,28.42352,-0.29984,9.22002,-13.47767,-18.40108,-4.15885,6e-05,-4.90002,-0.56448,1e-05,28.91459,7.55605,20.14871,9.47692,-8.27379,-10.56022,35.86702,18.91064,-3.12847,52.41637,-3.74243,43.40613,127.73343,-0.00228,-115.19084,118.23082,-0.00877,102.26316,-17.40387,-13.36568,-0.00918,-17.7742,9.3589,-0.01066,-8.25468,-10.33047,11.063,-30.12343,-13.66851,6.46094,-0.57948,0.73164,5.5758
1207,0.24063,-0.0,-0.0,-10.03165,0.0,-0.0,-4.74083,-4.02758,28.84928,-0.23808,8.95318,-13.4764,-18.33023,-4.36639,0.00011,-4.74088,-0.58239,9e-05,28.60849,7.74632,19.80771,9.14617,-8.12887,-10.53679,35.41969,18.49372,-2.93381,52.11905,-3.84852,43.6814,127.76012,-0.0,-117.71355,118.54459,-0.00704,104.38675,-16.84213,-14.04998,-0.00409,-18.09753,10.95646,-0.01392,-8.46935,-10.17915,10.81988,-30.33476,-13.43897,6.29053,-0.67621,0.77338,5.33569
1208,0.01462,0.0,0.0,-8.24171,0.0,0.0,-4.76689,-4.15038,28.88845,-0.23498,8.70223,-13.19675,-18.21186,-4.4359,0.0002,-4.65047,-0.56721,6e-05,28.29978,7.87638,19.97686,8.91078,-8.09499,-10.66176,34.91813,18.16984,-2.729,51.82487,-3.96265,43.72578,127.89595,-0.00188,-118.77955,118.8008,-0.00026,105.27129,-16.19706,-14.10775,0.00629,-18.01451,11.35923,-0.01679,-8.62364,-10.00902,10.56899,-30.48434,-13.1891,6.12005,-0.75462,0.69077,5.22407
1209,0.12371,-0.0,0.0,-7.16992,0.0,-0.0,-5.10889,-3.91649,28.36771,-0.04267,8.63351,-12.80231,-18.0903,-4.40521,0.00017,-4.69635,-0.54872,-4e-05,28.10967,8.05741,20.62523,8.89003,-8.07015,-10.78687,34.48196,17.85446,-2.51603,51.53691,-4.06091,43.43615,128.03941,-0.0035,-118.05196,118.93777,0.00275,104.54916,-15.59982,-13.41763,0.01131,-17.25131,10.5098,-0.02329,-8.72741,-9.9118,10.44721,-30.58456,-13.05421,6.04292,-0.73866,0.60722,5.28073
1210,0.26924,0.0,-0.0,-7.35171,-0.0,0.0,-5.4593,-3.57369,27.62266,0.47675,8.84139,-12.67829,-18.03619,-4.38095,7e-05,-4.8557,-0.53016,-0.00014,28.08891,8.36925,21.28054,9.02527,-7.94385,-10.70015,34.23416,17.45956,-2.43755,51.26653,-4.18552,42.94929,128.08467,-0.00113,-116.15313,119.00422,0.0024,103.10755,-15.41183,-12.33218,0.00446,-16.33782,9.26129,-0.01442,-8.80073,-9.92022,10.50598,-30.65625,-13.08357,6.09486,-0.64984,0.63347,5.43635
1211,0.28206,0.0,-0.0,-8.34354,0.0,-0.0,-5.59791,-3.42789,27.11691,1.16024,9.20171,-12.89239,-18.06627,-4.42438,9e-05,-5.00056,-0.50425,-0.0001,28.1445,8.7646,21.53918,9.11094,-7.70854,-10.43558,34.15834,16.95161,-2.64214,51.00163,-4.35082,42.5111,128.02002,0.00115,-113.79641,119.08328,0.00066,102.33765,-16.0302,-11.36525,-0.00365,-16.14168,8.44386,-0.00319,-8.87619,-9.97323,10.65705,-30.73018,-13.18816,6.21641,-0.58638,0.76723,5.59301
1212,0.1646,0.0,-0.0,-9.28585,-0.0,0.0,-5.5278,-3.54115,27.08103,1.73656,9.49179,-13.16489,-18.13807,-4.52776,0.00012,-5.01377,-0.46744,5e-05,28.15588,9.11914,21.33755,9.00229,-7.4521,-10.23458,34.12337,16.38416,-3.05555,50.74657,-4.50614,42.27766,127.89056,0.0006,-111.78986,119.1812,-0.00142,103.13146,-17.34568,-10.79802,-0.00349,-17.02049,8.29955,-0.00669,-8.97663,-9.98671,10.73656,-30.82851,-13.22983,6.28591,-0.60265,0.93047,5.68468
1213,0.06223,0.0,0.0,-9.81227,0.0,0.0,-5.35463,-3.88623,27.46971,2.12387,9.59158,-13.30197,-18.19218,-4.66566,2e-05,-4.90801,-0.41944,0.00016,28.1009,9.36867,20.84587,8.75426,-7.24726,-10.22077,33.99302,15.88192,-3.38097,50.52367,-4.62064,42.20841,127.77255,0.0005,-111.13311,119.25583,-0.00173,105.05833,-18.46963,-10.55176,-0.00185,-18.36989,8.4756,-0.00961,-9.07151,-9.96148,10.60243,-30.9267,-13.15723,6.16962,-0.65191,1.05572,5.71617
1214,0.11252,0.0,0.0,-10.22301,-0.0,0.0,-5.22904,-4.33655,28.05271,2.45276,9.5208,-13.3032,-18.19381,-4.82841,-0.00013,-4.77381,-0.38523,8e-05,28.01158,9.56178,20.32421,8.49872,-7.07887,-10.32535,33.6368,15.55776,-3.34787,50.3059,-4.72064,42.14731,127.80692,0.00608,-112.16755,119.30254,-0.00115,106.77738,-18.3304,-10.44368,-0.00302,-19.10049,8.33243,-0.01113,-9.10045,-9.9788,10.262,-30.97063,-13.04845,5.84351,-0.66868,1.11398,5.75589
1215,0.27906,0.0,0.0,-10.87069,-0.0,0.0,-5.26994,-4.65598,28.57301,2.86909,9.3762,-13.15375,-18.15303,-4.98828,-0.00017,-4.64833,-0.4028,-0.00011,27.88371,9.75205,20.01716,8.26142,-6.91167,-10.47882,32.96569,15.43734,-2.94674,50.01731,-4.84252,41.99442,128.08249,0.00871,-113.80901,119.37421,0.00026,107.31512,-16.80298,-10.31101,-0.00212,-18.7386,7.53882,-0.02125,-9.07609,-10.06723,9.89771,-30.96749,-12.99682,5.46801,-0.65564,1.08391,5.84806
1216,0.45807,0.0,0.0,-11.70449,0.0,-0.0,-5.45882,-4.74708,28.91169,3.38292,9.24678,-12.85054,-18.12291,-5.10488,-4e-05,-4.49927,-0.46585,-0.00023,27.71266,9.93476,19.98503,7.98265,-6.74687,-10.66963,32.0652,15.45121,-2.44514,49.62924,-4.98844,41.77079,128.48331,0.00133,-114.43065,119.52529,0.00339,106.48158,-15.05213,-9.97953,-0.00033,-17.92213,6.25155,-0.01789,-9.11241,-10.15919,9.63744,-31.02088,-12.98658,5.18882,-0.65729,0.97335,5.9676
1217,0.69776,-0.0,-0.0,-12.50159,0.0,0.0,-5.69927,-4.73029,29.09401,3.89041,9.13004,-12.5831,-18.16903,-5.1869,0.00015,-4.30543,-0.51221,-0.00011,27.56934,10.12582,20.03377,7.65299,-6.56688,-10.85177,31.17521,15.47604,-2.20123,49.20697,-5.1079,41.57316,128.80135,-0.00284,-113.82631,119.72889,0.0045,104.55393,-14.49612,-9.57601,0.00068,-17.81248,4.75814,0.01011,-9.29656,-10.20661,9.36657,-31.21811,-12.93107,4.91686,-0.68534,0.87434,6.07536
1218,1.13037,0.0,0.0,-13.04071,0.0,-0.0,-5.94061,-4.7459,29.1299,4.26336,8.95037,-12.55594,-18.31118,-5.2629,0.00024,-4.09579,-0.48339,0.00012,27.54243,10.38629,19.96026,7.33218,-6.31588,-10.99999,30.47567,15.41732,-2.3893,48.83976,-5.15173,41.48122,128.9402,-0.00086,-113.40475,119.88972,0.00088,102.20539,-15.45006,-9.57888,0.01234,-18.97988,3.35644,0.02983,-9.58276,-10.23236,8.93496,-31.51992,-12.79632,4.50283,-0.7106,0.90279,6.15865
1219,1.73692,-0.0,0.0,-13.05546,-0.0,0.0,-6.18058,-4.81044,28.96924,4.43305,8.67429,-12.67567,-18.49746,-5.31862,0.00013,-3.91758,-0.3813,0.00015,27.62659,10.7448,19.7956,7.06099,-5.96283,-11.21408,29.97874,15.3001,-2.85098,48.56762,-5.16465,41.472,128.90886,0.00069,-113.94794,119.96834,-0.00241,100.30869,-16.95545,-10.0702,0.01792,-20.87447,2.40242,0.01727,-9.86249,-10.26581,8.44658,-31.81621,-12.64773,4.03303,-0.70689,1.07809,6.20777
1220,2.30314,-0.0,-0.0,-12.5475,0.0,0.0,-6.40303,-4.85747,28.6352,4.48165,8.33813,-12.70604,-18.65955,-5.33369,-2e-05,-3.79171,-0.2532,-0.0,27.74794,11.16305,19.70895,6.8393,-5.54264,-11.57751,29.60249,15.24698,-3.2587,48.3783,-5.25185,41.45148,128.73999,0.00297,-114.51339,120.01928,-0.00145,99.1767,-17.89862,-10.45161,0.00763,-22.52545,2.00035,-0.00238,-10.07552,-10.31359,8.14544,-32.04095,-12.58125,3.73313,-0.65218,1.3126,6.20404
1221,2.54799,0.0,-0.0,-11.94155,-0.0,-0.0,-6.562,-4.82595,28.20816,4.60688,7.97582,-12.61564,-18.78416,-5.31269,-0.00012,-3.69241,-0.13448,-7e-05,27.86538,11.56213,19.83245,6.66847,-5.14464,-11.97545,29.24699,15.33414,-3.39318,48.22324,-5.45002,41.36869,128.51572,0.00494,-114.20769,120.08835,0.00201,98.37168,-17.96157,-10.30808,0.0001,-23.3863,1.82766,-0.00935,-10.21342,-10.38198,8.10277,-32.18562,-12.62897,3.66701,-0.51387,1.49785,6.14899
1222,2.26464,-0.0,0.0,-11.6415,0.0,0.0,-6.62925,-4.66804,27.69406,4.94822,7.62494,-12.56611,-18.90392,-5.25877,-0.0002,-3.57068,-0.02424,3e-05,27.97572,11.86587,20.17447,6.53188,-4.85374,-12.19107,28.84237,15.51079,-3.22246,48.05238,-5.69353,41.26174,128.35753,0.00339,-113.38576,120.16817,0.00381,97.89042,-17.47062,-9.91424,-0.00325,-23.37177,1.65617,-0.00927,-10.27885,-10.48521,8.19071,-32.2576,-12.75706,3.70963,-0.30411,1.59211,6.06552
1223,1.4979,0.0,0.0,-11.71193,0.0,-0.0,-6.64152,-4.35531,27.12002,5.4902,7.36426,-12.68248,-19.02258,-5.19502,-0.00018,-3.40905,0.09006,0.00017,28.06,12.05368,20.52933,6.36455,-4.67455,-12.126,28.39833,15.66219,-2.85502,47.86112,-5.88927,41.20092,128.30846,0.00102,-112.58739,120.2765,-0.00033,98.67867,-16.93391,-9.66173,-0.0057,-22.71674,1.80603,-0.00255,-10.28957,-10.61646,8.2686,-32.27761,-12.90743,3.73206,-0.11558,1.64858,5.96781
1224,0.65443,-0.0,0.0,-11.93707,0.0,-0.0,-6.67932,-3.97551,26.64698,6.08298,7.2359,-12.91699,-19.09108,-5.17257,-9e-05,-3.24,0.19719,0.00012,28.0965,12.17864,20.61374,6.12539,-4.52484,-11.89809,27.98277,15.71383,-2.50841,47.66491,-5.99286,41.17506,128.29507,-0.0008,-112.11526,120.48875,-0.00903,101.12835,-16.89354,-9.67169,-0.00241,-21.85233,2.73067,0.00809,-10.30735,-10.73221,8.26728,-32.30539,-13.01428,3.68635,-0.02366,1.74743,5.88343
1225,0.25895,0.0,0.0,-11.9911,-0.0,-0.0,-6.79008,-3.74356,26.39658,6.53105,7.18049,-13.10721,-19.08029,-5.20222,-5e-05,-3.0902,0.26106,-9e-05,28.11425,12.32814,20.39877,5.86337,-4.3034,-11.75042,27.63239,15.68141,-2.38655,47.45763,-6.03676,41.05787,128.23598,-0.00355,-112.75319,120.84119,-0.00994,104.01746,-17.64028,-10.03762,0.00842,-21.0408,4.26662,0.01153,-10.41063,-10.80023,8.1975,-32.41626,-13.05166,3.59496,0.0108,1.90124,5.87672
1226,0.47165,-0.0,0.0,-11.69808,0.0,0.0,-6.9492,-3.81196,26.30177,6.74469,7.11466,-13.18705,-19.03015,-5.23678,-4e-05,-2.92478,0.26781,-0.00026,28.16577,12.54862,20.11057,5.63392,-3.97005,-11.82407,27.30334,15.63067,-2.49067,47.24095,-6.06908,40.77245,128.14543,-0.00439,-115.05698,121.24774,0.00019,105.76165,-18.82833,-10.80285,0.01374,-20.33871,5.63839,0.00359,-10.60521,-10.81994,8.15409,-32.61356,-13.05395,3.54679,0.06959,2.04138,5.96881
1227,0.92362,0.0,-0.0,-11.01391,0.0,0.0,-7.08852,-4.13521,26.18415,6.77318,7.01498,-13.22539,-18.99657,-5.21691,-3e-05,-2.68861,0.26102,-0.00017,28.23524,12.79949,19.96631,5.39699,-3.58303,-12.0821,26.92361,15.59232,-2.62143,47.0228,-6.05411,40.43011,128.11574,-0.001,-118.00694,121.57621,0.0067,106.21154,-19.6359,-11.66265,0.00437,-19.80268,6.37078,-0.00482,-10.7926,-10.76207,8.21556,-32.79448,-13.02293,3.62651,0.15179,2.09499,6.08115
1228,1.1146,0.0,0.0,-9.89468,0.0,-0.0,-7.13395,-4.56237,25.89782,6.69609,6.87893,-13.2451,-18.99409,-5.11066,-5e-05,-2.39019,0.30336,0.00015,28.25166,13.01136,20.04833,5.08372,-3.23242,-12.45779,26.47343,15.54781,-2.58815,46.77312,-5.90765,40.21332,128.20699,-0.00028,-119.73359,121.78996,0.00359,106.6077,-19.54309,-12.07174,-0.00156,-19.34916,6.81097,-0.00255,-10.85965,-10.57773,8.3195,-32.84309,-12.89025,3.79453,0.19807,2.07342,6.12499
1229,0.90403,0.0,-0.0,-8.52911,0.0,-0.0,-7.06805,-4.96708,25.44028,6.57438,6.64411,-13.19065,-19.00765,-4.94258,-4e-05,-2.0965,0.4107,0.00033,28.19804,13.17436,20.31418,4.71879,-2.94221,-12.90952,25.98249,15.50348,-2.33997,46.47231,-5.63737,40.19722,128.37901,-0.00273,-119.55878,121.95819,-0.00295,107.98965,-18.86642,-11.72791,0.00295,-18.72689,7.47211,0.00689,-10.77959,-10.30206,8.33193,-32.73936,-12.63918,3.91191,0.19836,2.05774,6.09481
1230,0.57206,-0.0,0.0,-7.41908,-0.0,0.0,-7.01257,-5.23599,24.96102,6.48698,6.25571,-13.05551,-19.02468,-4.78935,-1e-05,-1.86622,0.54075,0.00018,28.12748,13.34183,20.65136,4.40097,-2.67499,-13.33864,25.48134,15.51827,-1.91646,46.19241,-5.36075,40.3229,128.55182,-0.00229,-118.49437,122.13298,-0.00559,110.1307,-18.25186,-10.93338,0.00436,-17.89713,8.29277,0.01,-10.61063,-10.06466,8.21402,-32.55375,-12.37561,3.89255,0.19309,2.09574,6.05923
1231,0.49622,0.0,-0.0,-7.1012,0.0,-0.0,-7.18122,-5.21497,24.66818,6.57257,5.83492,-12.9388,-19.04069,-4.74473,4e-05,-1.72152,0.637,-5e-05,28.09996,13.5769,20.89363,4.20299,-2.39626,-13.59948,25.00051,15.63396,-1.37727,46.04139,-5.18462,40.46399,128.70061,-2e-05,-117.74341,122.29472,-0.00198,111.85364,-17.80376,-10.3592,0.00147,-17.14486,8.80805,0.00361,-10.42853,-9.99094,8.03585,-32.37011,-12.24167,3.75419,0.2048,2.17105,6.09775
1232,0.77389,0.0,-0.0,-7.74194,0.0,-0.0,-7.66069,-4.83882,24.6591,6.9166,5.60747,-12.94217,-19.05191,-4.84239,2e-05,-1.64406,0.6764,-0.00014,28.15345,13.89296,20.89493,4.12397,-2.10112,-13.64896,24.58127,15.82428,-0.77485,46.02629,-5.13201,40.51416,128.86076,0.00079,-117.50219,122.44627,0.00404,112.07692,-17.0519,-10.3849,-0.00529,-16.6773,8.77711,-0.00178,-10.27169,-10.12486,7.87869,-32.22795,-12.30803,3.55608,0.22556,2.26084,6.2336
1233,1.15839,-0.0,0.0,-8.88557,0.0,-0.0,-8.26761,-4.3529,24.82461,7.3759,5.61296,-13.02814,-19.04136,-4.99487,-0.00012,-1.57779,0.68313,-9e-05,28.27262,14.21996,20.69635,4.10041,-1.81612,-13.61754,24.24158,16.01861,-0.14223,46.03547,-5.1592,40.46261,129.06602,8e-05,-117.37802,122.65018,0.00774,110.83688,-15.62103,-10.86812,-0.01332,-16.39873,8.41951,-0.00252,-10.13815,-10.38578,7.76508,-32.11846,-12.50819,3.34997,0.24328,2.35188,6.42663
1234,1.39409,0.0,-0.0,-9.94734,0.0,-0.0,-8.71208,-4.18156,25.01432,7.73213,5.68054,-13.0835,-18.97368,-5.09071,-0.00026,-1.47502,0.69968,3e-05,28.37919,14.46383,20.44324,4.06571,-1.58307,-13.62945,23.95534,16.14159,0.46012,45.95839,-5.18847,40.37936,129.29736,-0.00057,-117.17403,122.91679,0.00457,109.37558,-13.78369,-11.45821,-0.01198,-16.1678,8.12585,-0.0015,-10.03278,-10.6013,7.63409,-32.03392,-12.6598,3.14491,0.26204,2.4208,6.65041
1235,1.40853,0.0,0.0,-10.68081,-0.0,-0.0,-8.87145,-4.49369,25.12941,7.93795,5.70858,-13.07588,-18.84884,-5.09324,-0.00027,-1.34465,0.73989,0.0001,28.40694,14.61635,20.2394,4.00568,-1.40549,-13.64851,23.70419,16.1507,0.9,45.77551,-5.14965,40.33057,129.47038,-0.00063,-116.94645,123.17336,-0.00192,108.90083,-12.40171,-11.86081,-0.00257,-16.0245,8.12591,-0.00094,-9.98952,-10.66367,7.40606,-32.00045,-12.63365,2.908,0.29052,2.46142,6.94003
1236,1.14096,0.0,0.0,-10.88915,-0.0,0.0,-8.84231,-5.02915,24.99574,8.03613,5.76623,-13.06124,-18.73782,-4.9852,-0.0002,-1.22793,0.77862,7e-05,28.36121,14.75103,20.22723,3.93094,-1.2288,-13.60036,23.51855,16.07751,1.09898,45.54021,-5.01538,40.34341,129.48105,-0.00079,-116.78256,123.38524,-0.00352,109.32679,-12.12543,-11.93715,0.00156,-16.1226,8.34584,0.00064,-10.02822,-10.62406,7.11467,-32.04118,-12.4896,2.6512,0.31177,2.50702,7.30294
1237,0.58795,0.0,-0.0,-10.53027,-0.0,0.0,-8.82602,-5.35133,24.53263,8.06812,5.90993,-13.13345,-18.68456,-4.78473,-0.00013,-1.13766,0.79059,2e-05,28.29131,14.91144,20.43517,3.82932,-0.99791,-13.50897,23.41869,16.0179,1.20018,45.33323,-4.80087,40.42545,129.29997,-0.00105,-116.69164,123.58922,0.00118,109.41756,-12.65117,-11.71455,0.00023,-16.60324,8.38717,0.00861,-10.1103,-10.59049,6.90442,-32.12403,-12.38101,2.46789,0.30548,2.59286,7.61364
1238,0.05978,-0.0,0.0,-10.08565,0.0,-0.0,-8.99564,-5.2727,24.04965,8.1152,6.06793,-13.36032,-18.61763,-4.62333,-0.00021,-1.04653,0.77363,-2e-05,28.23608,15.07221,20.53745,3.68249,-0.70496,-13.45784,23.35269,16.05175,1.45695,45.22003,-4.5451,40.56506,129.02678,-0.00063,-116.47549,123.78441,0.00553,108.40887,-13.1021,-11.32182,0.00122,-17.38197,7.89156,0.01794,-10.15136,-10.61048,6.84076,-32.16775,-12.37608,2.40084,0.29046,2.7239,7.70415
1239,-0.06308,-0.0,-0.0,-10.11761,0.0,0.0,-9.3639,-5.03136,23.99941,8.23915,6.12365,-13.71569,-18.4512,-4.64167,-0.0007,-0.92445,0.73569,-6e-05,28.21636,15.20676,20.13931,3.50616,-0.37082,-13.49768,23.24976,16.17238,1.91586,45.18641,-4.28203,40.70665,128.80399,-0.00042,-115.92768,123.89709,0.00502,107.20262,-13.05119,-10.96497,0.00273,-17.90938,7.09372,0.01506,-10.10245,-10.67098,6.81111,-32.1243,-12.42125,2.34994,0.30987,2.88398,7.56805
1240,0.09889,0.0,0.0,-10.61064,-0.0,-0.0,-9.73197,-4.99414,24.42166,8.40544,6.02898,-14.09459,-18.22981,-4.81581,-0.00095,-0.76647,0.68997,-9e-05,28.25604,15.33439,19.27934,3.34893,-0.01944,-13.59826,23.09685,16.30131,2.34676,45.1427,-4.02719,40.77366,128.67747,-0.00078,-115.36026,123.88863,0.00405,107.0397,-12.78781,-10.87373,0.00175,-17.66374,6.60834,0.00884,-10.02493,-10.7347,6.67987,-32.05401,-12.43195,2.20307,0.3858,3.04469,7.3934
1241,-0.01422,0.0,0.0,-10.9968,0.0,0.0,-9.85533,-5.29375,24.85515,8.52394,5.84482,-14.36333,-18.0823,-4.96013,-0.00058,-0.59463,0.65709,-7e-05,28.36006,15.47677,18.48778,3.24664,0.30819,-13.69417,22.90839,16.36322,2.55917,45.02693,-3.8083,40.76135,128.61372,8e-05,-115.49353,123.8316,0.00286,107.91385,-12.62976,-11.1497,0.00023,-17.03296,6.71148,0.00558,-10.04723,-10.77743,6.44177,-32.08311,-12.38381,1.96464,0.50235,3.16409,7.37181
1242,-0.62024,0.0,-0.0,-10.83067,0.0,-0.0,-9.74105,-5.79816,24.85317,8.56304,5.70489,-14.45911,-18.04733,-4.90648,-0.00026,-0.4416,0.65824,-1e-05,28.48173,15.60321,18.28498,3.17286,0.56299,-13.78157,22.67374,16.33028,2.64115,44.8415,-3.68252,40.74892,128.6077,0.00278,-116.54134,123.83867,-0.00158,109.52175,-12.42699,-11.63951,-0.00062,-16.91896,7.28113,-0.00279,-10.23784,-10.83305,6.1772,-32.28149,-12.33785,1.69666,0.62862,3.22526,7.51103
1243,-1.19745,0.0,-0.0,-10.24166,0.0,0.0,-9.70205,-6.2621,24.41419,8.56573,5.71034,-14.47301,-18.02101,-4.65043,0.00021,-0.32123,0.70916,4e-05,28.55078,15.66474,18.69002,3.04629,0.74546,-13.9207,22.38966,16.20946,2.78471,44.60028,-3.6708,40.77404,128.67551,0.00372,-117.6188,123.94875,-0.00718,112.04495,-11.96543,-11.95186,0.00189,-17.42277,8.15654,-0.00912,-10.52261,-10.97247,5.97636,-32.57981,-12.39303,1.45595,0.73234,3.28819,7.65923
1244,-1.16318,-0.0,-0.0,-9.60939,0.0,0.0,-10.04729,-6.43633,23.83679,8.5287,5.83214,-14.50557,-17.87491,-4.32884,0.0007,-0.22111,0.80999,7e-05,28.5248,15.66821,19.31779,2.83438,0.89961,-14.12393,22.08767,16.03626,3.03952,44.34257,-3.6871,40.78848,128.80727,-0.00084,-117.32242,124.11283,-0.00669,114.6616,-11.52606,-11.73509,0.00306,-17.85525,9.04548,-0.00648,-10.72645,-11.195,5.91326,-32.80275,-12.576,1.31154,0.7832,3.42972,7.70177
1245,-0.70402,0.0,-0.0,-9.13647,-0.0,0.0,-10.73865,-6.24502,23.37263,8.38699,5.9471,-14.49157,-17.57329,-4.10793,0.00031,-0.12482,0.93109,6e-05,28.41039,15.67439,19.79605,2.62941,1.03554,-14.30669,21.82114,15.88321,3.31746,44.17127,-3.61653,40.76711,128.9798,-0.00727,-114.95837,124.26299,-0.00036,115.20912,-11.70801,-11.04103,-0.00454,-18.04386,9.33846,0.001,-10.71074,-11.37602,5.99041,-32.80166,-12.77218,1.31365,0.78544,3.62021,7.68796
1246,-0.52715,0.0,0.0,-8.89442,-0.0,-0.0,-11.39408,-5.98849,23.13932,8.15794,5.96115,-14.34733,-17.19727,-4.07168,-0.00059,-0.02076,1.02901,2e-05,28.27321,15.72192,19.92737,2.54001,1.13387,-14.39757,21.66828,15.81732,3.50845,44.16093,-3.45828,40.75082,129.1393,-0.00709,-111.22392,124.36944,0.00375,112.61333,-12.75998,-10.29963,-0.00972,-18.62096,8.55372,0.01903,-10.47286,-11.3915,6.15614,-32.56359,-12.84763,1.46206,0.78302,3.75358,7.72022
1247,-0.96208,0.0,0.0,-8.90826,0.0,0.0,-11.65856,-6.09966,23.14157,7.97237,5.86931,-14.17311,-16.88903,-4.15143,-0.0007,0.09699,1.08801,1e-05,28.20844,15.78528,19.68866,2.54331,1.21585,-14.44365,21.66714,15.84151,3.60741,44.23582,-3.29097,40.78133,129.1875,-0.00175,-107.88412,124.44143,0.0034,108.32546,-14.13035,-9.86511,-0.00414,-19.87775,6.96799,0.03153,-10.12579,-11.26932,6.4195,-32.20325,-12.8315,1.75459,0.8124,3.79767,7.7806
1248,-1.67642,-0.0,0.0,-8.99951,0.0,0.0,-11.53638,-6.60212,23.23451,7.9259,5.74353,-14.13807,-16.74445,-4.18173,-0.00024,0.21147,1.12343,1e-05,28.24983,15.81184,19.31309,2.52228,1.32724,-14.5479,21.73028,15.89991,3.75896,44.22072,-3.1241,40.88076,129.07051,-0.00154,-106.45027,124.49094,0.00103,105.25423,-14.76419,-9.64207,0.00581,-21.07989,5.65002,0.02303,-9.8192,-11.14299,6.82419,-31.88059,-12.86358,2.18062,0.87528,3.81694,7.77123
1249,-2.16468,0.0,0.0,-8.86939,0.0,0.0,-11.33097,-7.11482,23.21813,7.99831,5.65978,-14.286,-16.74601,-4.06761,-3e-05,0.29061,1.15323,-0.0,28.3477,15.77715,19.16344,2.4088,1.4723,-14.74255,21.75437,15.91403,4.04461,44.00587,-2.89679,41.04899,128.85558,-0.0034,-106.69305,124.5162,-0.00043,106.02155,-14.17175,-9.25293,0.01719,-21.10045,5.67582,0.03662,-9.67172,-11.10633,7.30697,-31.72226,-13.00749,2.64521,0.95858,3.85978,7.67355
1250,-2.28898,0.0,0.0,-8.53259,0.0,-0.0,-11.3073,-7.37236,23.08937,8.13089,5.61336,-14.5349,-16.78799,-3.89619,-9e-05,0.32503,1.18928,-2e-05,28.44332,15.72199,19.31547,2.24985,1.62105,-14.94708,21.77255,15.83725,4.31098,43.65579,-2.60231,41.25151,128.67047,-0.00173,-107.09673,124.51965,-0.00041,110.57018,-13.13027,-8.63323,0.01863,-19.66356,6.8699,0.06099,-9.68111,-11.17063,7.73308,-31.7293,-13.22404,3.01831,1.0555,3.91017,7.58372
1251,-2.32817,0.0,-0.0,-8.40041,0.0,-0.0,-11.47922,-7.45708,23.08716,8.30021,5.54302,-14.78656,-16.74007,-3.86189,-0.0006,0.33141,1.23678,-2e-05,28.48274,15.74644,19.43114,2.14983,1.75836,-15.00854,21.85342,15.74712,4.4119,43.39246,-2.32101,41.48606,128.58969,-0.00047,-106.78642,124.5074,-0.0008,115.19051,-12.91741,-8.18822,0.01151,-17.98799,7.73396,0.04463,-9.66681,-11.28067,8.05292,-31.71814,-13.4438,3.27469,1.15515,3.94233,7.61141
1252,-2.55434,0.0,0.0,-8.64978,0.0,-0.0,-11.72658,-7.52859,23.31376,8.46944,5.41372,-14.97487,-16.53633,-4.03897,-0.00132,0.32895,1.28586,-1e-05,28.39559,15.91023,19.2471,2.13471,1.89262,-14.87121,21.94811,15.80516,4.44777,43.40863,-2.13175,41.79448,128.58974,-0.00059,-105.89745,124.47781,-0.00209,116.53024,-13.91998,-8.1382,0.00804,-17.5253,7.2688,0.03057,-9.44407,-11.34685,8.31033,-31.49561,-13.59991,3.48975,1.22563,3.95953,7.7626
1253,-2.92738,-0.0,0.0,-8.8294,-0.0,-0.0,-12.01702,-7.51969,23.46169,8.54101,5.24348,-15.03259,-16.23856,-4.26756,-0.00097,0.338,1.32107,1e-05,28.17325,16.13631,18.99108,2.11248,2.02849,-14.72623,21.96512,16.03519,4.55976,43.65503,-2.04971,42.12302,128.5854,0.0001,-104.72304,124.44112,-0.00246,115.62629,-15.33839,-8.15727,0.00319,-18.05874,6.06069,0.02344,-9.09777,-11.32055,8.52663,-31.14177,-13.65514,3.70217,1.24522,3.97207,7.93869
1254,-3.29716,0.0,-0.0,-8.49396,0.0,-0.0,-12.40679,-7.27376,23.18394,8.44909,5.07707,-14.91825,-15.96556,-4.34394,7e-05,0.37574,1.34269,4e-05,27.94159,16.28865,19.0225,2.03369,2.15358,-14.79143,21.88777,16.2627,4.70671,43.9067,-2.05567,42.3187,128.52074,0.00094,-103.56085,124.42855,-0.0019,115.47399,-16.20628,-7.90839,0.00041,-18.33556,5.18151,0.01045,-8.89335,-11.21192,8.65527,-30.92424,-13.60178,3.86444,1.25313,3.97709,8.05737
1255,-3.62934,0.0,0.0,-7.83599,0.0,0.0,-12.87213,-6.91897,22.56904,8.24184,4.93234,-14.66878,-15.77704,-4.24271,0.00052,0.43004,1.35822,5e-05,27.85854,16.33888,19.31369,1.9926,2.26174,-15.00668,21.75214,16.33126,4.80155,44.04227,-2.12343,42.33135,128.43611,0.00026,-102.70638,124.45617,-0.00109,116.45625,-16.3466,-7.47785,0.001,-18.17703,4.98295,0.00349,-8.89497,-11.03837,8.65016,-30.91035,-13.43902,3.9266,1.3062,3.97457,8.13686
1256,-3.83415,-0.0,-0.0,-7.2975,0.0,-0.0,-13.31076,-6.80325,21.96888,8.01986,4.76193,-14.34946,-15.66296,-4.07071,0.00037,0.46547,1.37218,4e-05,27.93663,16.36221,19.60616,2.06214,2.36089,-15.18907,21.60489,16.25877,4.84953,44.12933,-2.19971,42.26788,128.40312,-0.00097,-102.35112,124.50084,0.00035,116.73637,-16.2142,-7.12524,0.00037,-18.42571,5.24069,-0.00608,-8.8925,-10.84323,8.53304,-30.89358,-13.215,3.89219,1.38324,3.96786,8.24195
1257,-3.76423,-0.0,0.0,-7.07425,0.0,0.0,-13.65472,-7.0613,21.6056,7.87906,4.48184,-14.05929,-15.58434,-3.93796,8e-05,0.46666,1.40624,3e-05,28.04885,16.40924,19.74461,2.16403,2.45481,-15.28395,21.4849,16.18138,4.8865,44.24776,-2.21289,42.23466,128.41801,-0.00145,-102.79264,124.52312,0.00069,115.63464,-16.14531,-6.97177,-0.00048,-19.26906,5.72377,-0.01696,-8.70225,-10.72213,8.38906,-30.69641,-13.04974,3.80409,1.41718,3.94846,8.38151
1258,-3.55785,0.0,0.0,-7.24612,-0.0,-0.0,-13.86788,-7.51549,21.55573,7.90292,4.08519,-13.97004,-15.48218,-3.93654,-0.00031,0.44184,1.47885,-0.0,28.08349,16.49287,19.6545,2.20969,2.54626,-15.26372,21.37755,16.22323,4.96955,44.37714,-2.12075,42.26022,128.43684,-0.00106,-104.22849,124.49083,-0.00011,114.08229,-16.08293,-7.0325,-0.00087,-19.92822,6.21202,-0.01767,-8.34702,-10.7169,8.35603,-30.34155,-13.03274,3.77521,1.40613,3.9169,8.50504
1259,-3.52219,-0.0,0.0,-7.73928,0.0,-0.0,-13.95951,-7.96207,21.76282,8.07991,3.72827,-14.12958,-15.30283,-4.07816,-0.00063,0.39356,1.55427,0.0,27.992,16.6162,19.39071,2.20255,2.63387,-15.09994,21.22566,16.40157,5.19418,44.4784,-1.92791,42.35636,128.47083,-1e-05,-106.11861,124.38219,-0.00011,113.02612,-15.90267,-7.31755,-0.00143,-19.88892,6.52716,-0.00995,-7.96165,-10.7142,8.5885,-29.94998,-13.11577,3.9937,1.38657,3.88469,8.57522
1260,-3.74225,0.0,-0.0,-8.30662,0.0,0.0,-14.01663,-8.35027,22.01987,8.31917,3.5774,-14.37279,-15.06284,-4.24084,-0.00039,0.33083,1.57692,4e-05,27.76684,16.72572,19.17286,2.13409,2.6954,-14.91313,21.01356,16.62499,5.56428,44.55161,-1.67434,42.5137,128.55516,-0.00018,-107.3274,124.22274,0.00039,113.10602,-15.67664,-7.77181,-0.00117,-19.42388,6.83176,0.0016,-7.66203,-10.54707,9.08912,-29.62169,-13.14489,4.52644,1.3418,3.83544,8.57996
1261,-4.13567,0.0,0.0,-8.96591,0.0,-0.0,-14.11606,-8.67325,22.19051,8.60098,3.56958,-14.59968,-14.85944,-4.29738,7e-05,0.28864,1.55088,3e-05,27.49111,16.72435,19.08766,1.95616,2.71455,-14.87629,20.80048,16.78143,5.91713,44.57653,-1.43394,42.6482,128.66118,-0.00108,-107.11837,124.12531,-0.00317,114.71588,-15.54112,-8.15333,2e-05,-18.76362,7.49043,0.01598,-7.5082,-10.21389,9.60481,-29.42248,-13.02534,5.1373,1.24988,3.74555,8.49662
1262,-4.54517,-0.0,0.0,-9.77263,-0.0,0.0,-14.2819,-8.84962,22.27588,8.91213,3.50771,-14.87197,-14.77871,-4.24111,0.00013,0.2938,1.53549,1e-05,27.33028,16.58804,19.00777,1.70415,2.71241,-15.01432,20.65944,16.82428,6.0888,44.51641,-1.29643,42.67403,128.71991,-0.00014,-105.76813,124.19495,-0.00821,117.30641,-15.47115,-8.17697,0.00079,-17.83278,8.58855,0.02456,-7.50769,-9.92134,9.8406,-29.38867,-12.84048,5.47026,1.16935,3.64608,8.31913
1263,-4.70124,-0.0,0.0,-10.27528,0.0,-0.0,-14.54272,-8.83446,22.25572,9.12066,3.37431,-15.20849,-14.80661,-4.15514,0.0,0.33105,1.57257,3e-05,27.39213,16.41837,18.85026,1.51968,2.72869,-15.21521,20.61207,16.77507,6.07413,44.39306,-1.30585,42.60751,128.70695,0.00093,-104.27844,124.3796,-0.00553,119.33719,-15.34641,-7.88942,0.00076,-16.93755,9.71313,0.01636,-7.61194,-9.86311,9.73222,-29.49187,-12.74665,5.39091,1.18772,3.60724,8.10559
1264,-4.51736,-0.0,-0.0,-10.10516,0.0,-0.0,-14.89231,-8.73369,22.1167,9.15924,3.36447,-15.51382,-14.85375,-4.13139,-4e-05,0.3569,1.63603,4e-05,27.61844,16.34921,18.64663,1.50263,2.78986,-15.37149,20.62704,16.68873,5.98118,44.27483,-1.41158,42.54711,128.64024,0.00058,-103.4724,124.51826,-0.00077,119.69293,-15.2168,-7.63314,6e-05,-16.72593,10.35747,0.00463,-7.74332,-10.01262,9.44071,-29.64592,-12.77833,5.06058,1.31132,3.66269,7.93466
1265,-4.30234,0.0,-0.0,-9.59012,0.0,0.0,-15.23049,-8.71632,21.94724,9.15472,3.60565,-15.67719,-14.85149,-4.20547,-7e-05,0.32643,1.66032,8e-05,27.83982,16.42772,18.42688,1.62442,2.8883,-15.45256,20.64511,16.64642,5.93837,44.22004,-1.50309,42.58866,128.53055,0.00037,-103.17304,124.5312,-0.00094,118.69014,-15.29871,-7.57428,0.00033,-17.4508,10.59991,-0.00096,-7.85935,-10.18089,9.16553,-29.78511,-12.83333,4.73841,1.46421,3.77634,7.83665
1266,-4.43583,0.0,0.0,-9.25668,0.0,0.0,-15.45317,-8.87504,21.87447,9.22225,3.97903,-15.70247,-14.79581,-4.3419,-0.00011,0.22582,1.62628,0.00011,27.94477,16.60148,18.15403,1.8094,2.98546,-15.44303,20.60575,16.6999,6.05897,44.25061,-1.4943,42.74956,128.40666,0.00056,-102.66393,124.49686,-0.0023,117.50388,-15.59239,-7.60176,0.00132,-18.65828,11.08589,-0.00526,-7.94941,-10.24028,9.01091,-29.88497,-12.83159,4.57089,1.58469,3.87949,7.80462
1267,-4.9845,-0.0,0.0,-9.29678,0.0,-0.0,-15.56136,-9.17656,21.9099,9.32021,4.28704,-15.71288,-14.71314,-4.47732,-7e-05,0.10232,1.57423,3e-05,27.9496,16.79638,17.81087,1.9909,3.06572,-15.33548,20.48342,16.78139,6.37692,44.34375,-1.36971,42.95407,128.35083,0.00072,-102.01533,124.53993,-0.00317,117.02181,-15.70733,-7.69681,-3e-05,-19.57385,12.17355,0.00092,-7.96642,-10.24604,8.97327,-29.9036,-12.82309,4.53345,1.65524,3.93798,7.8241
1268,-5.66793,-0.0,0.0,-9.53726,0.0,-0.0,-15.64215,-9.51431,21.87944,9.34093,4.49418,-15.7636,-14.62188,-4.56223,2e-05,0.02929,1.52362,-6e-05,27.90542,16.97501,17.53953,2.09623,3.1651,-15.22442,20.31394,16.76819,6.77752,44.45763,-1.17388,43.1104,128.42877,0.00321,-102.17749,124.6618,-0.00299,117.2033,-15.32508,-8.0831,-0.00553,-19.84064,13.37144,0.01114,-7.8448,-10.31453,8.97549,-29.78776,-12.88744,4.50928,1.6645,3.97276,7.8681
1269,-6.19416,-0.0,0.0,-9.76733,0.0,-0.0,-15.75374,-9.82715,21.6573,9.27121,4.64946,-15.81936,-14.53201,-4.59607,6e-05,0.02197,1.46031,-8e-05,27.8474,17.13026,17.47624,2.10427,3.30966,-15.2108,20.17796,16.6456,7.06751,44.54977,-0.96388,43.19298,128.59659,0.00521,-103.56428,124.73357,-0.00045,117.73263,-14.66372,-8.89845,-0.00803,-19.67783,14.0059,0.01142,-7.59719,-10.41035,8.91977,-29.55,-12.95582,4.42037,1.63266,4.00548,7.90585
1270,-6.51159,0.0,-0.0,-10.01168,0.0,-0.0,-15.8852,-10.14093,21.33454,9.2189,4.6928,-15.90512,-14.46217,-4.60766,2e-05,0.02341,1.40356,-5e-05,27.80793,17.25801,17.56229,2.07257,3.46173,-15.23935,20.13814,16.505,7.16348,44.58197,-0.77081,43.24977,128.72995,0.00238,-105.3135,124.6677,0.00338,118.84054,-14.15587,-9.89346,-0.00315,-19.39236,14.15638,0.00807,-7.32572,-10.36268,8.78409,-29.27836,-12.86172,4.31166,1.61844,4.02066,7.92262
1271,-6.68922,-0.0,-0.0,-10.25455,0.0,-0.0,-16.04836,-10.4395,20.99666,9.23184,4.54461,-16.0334,-14.44638,-4.58985,-5e-05,-0.01677,1.40002,-5e-05,27.78741,17.35407,17.72459,2.04511,3.55919,-15.22262,20.18909,16.41338,7.16028,44.569,-0.61809,43.35634,128.73911,-0.00048,-106.34257,124.51797,0.00401,120.53193,-13.87202,-10.61435,0.00168,-19.27737,14.38584,0.00416,-7.12005,-10.12507,8.66695,-29.05595,-12.59825,4.29309,1.63238,4.00754,7.91415
1272,-6.87812,-0.0,-0.0,-10.37292,0.0,0.0,-16.28018,-10.61165,20.65784,9.23221,4.28093,-16.09942,-14.50681,-4.53922,-0.0001,-0.08722,1.45017,-6e-05,27.75284,17.42854,17.94086,2.01014,3.585,-15.2028,20.27855,16.37057,7.18941,44.58131,-0.55116,43.54985,128.63097,0.00013,-106.37088,124.41064,0.00029,121.94903,-13.65626,-10.7435,0.00318,-19.6385,14.96202,-0.00528,-6.98179,-9.87499,8.70564,-28.8959,-12.38048,4.42493,1.61426,3.99457,7.87607
1273,-7.2253,-0.0,0.0,-10.41152,-0.0,-0.0,-16.58416,-10.57723,20.37188,9.17186,4.04423,-15.98892,-14.60825,-4.5109,-3e-05,-0.1418,1.50526,-2e-05,27.67359,17.49218,18.12253,1.93857,3.56893,-15.2887,20.35829,16.34506,7.27725,44.64745,-0.61816,43.77478,128.48688,0.00124,-105.69686,124.43365,-0.00236,122.52992,-13.56845,-10.26668,0.00104,-20.44777,15.74274,-0.0145,-6.85985,-9.79191,8.95696,-28.7596,-12.39579,4.69189,1.51407,4.00259,7.81448
1274,-7.56984,0.0,0.0,-10.43153,0.0,0.0,-16.96442,-10.35939,20.11949,9.09439,3.86254,-15.71564,-14.68673,-4.53985,3e-05,-0.1628,1.52989,1e-05,27.55954,17.54312,18.2007,1.82844,3.5531,-15.5166,20.3943,16.30639,7.35829,44.71342,-0.82673,43.90104,128.40063,0.00048,-104.69969,124.55753,-0.00244,122.36377,-13.80844,-9.50622,-0.00285,-21.45622,16.17553,-0.00575,-6.7325,-9.88051,9.32562,-28.62782,-12.61347,5.00326,1.35716,4.01751,7.75488
1275,-7.54534,0.0,-0.0,-10.31368,0.0,0.0,-17.39516,-10.10298,19.80488,9.04466,3.71018,-15.45675,-14.74636,-4.58052,-1e-05,-0.18251,1.51654,3e-05,27.4971,17.59408,18.19942,1.73624,3.58371,-15.78039,20.38006,16.2533,7.35152,44.72466,-1.12319,43.8287,128.39847,-0.00061,-103.50908,124.647,-0.00459,120.95321,-14.43682,-8.88895,-0.0034,-22.66153,15.42414,0.02869,-6.64155,-10.05041,9.58461,-28.5425,-12.86625,5.18095,1.23274,4.04054,7.73136
1276,-7.02892,-0.0,-0.0,-9.98774,0.0,-0.0,-17.78225,-9.98263,19.41984,9.01431,3.64887,-15.38126,-14.859,-4.57325,-0.00015,-0.2269,1.46334,5e-05,27.57955,17.66721,18.16495,1.72169,3.68119,-15.94671,20.37788,16.19124,7.19863,44.68849,-1.42457,43.59356,128.40685,-0.00039,-102.14853,124.60895,-0.00967,117.69302,-15.30998,-8.62867,-0.00072,-24.15049,13.36898,0.05488,-6.65455,-10.22456,9.53241,-28.57219,-13.00864,5.06537,1.2097,4.09401,7.77528
1277,-6.27935,-0.0,-0.0,-9.68152,0.0,-0.0,-18.07612,-10.00143,19.03267,9.00061,3.7424,-15.45368,-15.04659,-4.52143,-0.00023,-0.2773,1.38568,2e-05,27.78635,17.74823,18.1135,1.77105,3.79886,-16.00916,20.46815,16.09078,6.91769,44.63821,-1.66994,43.35837,128.3367,-0.00059,-101.12169,124.50365,-0.00831,113.79309,-16.09975,-8.67386,0.00065,-25.74699,11.26414,0.03003,-6.78088,-10.34293,9.19318,-28.71965,-12.9938,4.70222,1.27697,4.16283,7.8919
1278,-5.7223,0.0,0.0,-9.74848,0.0,-0.0,-18.30996,-10.04893,18.70822,9.05388,3.91671,-15.53832,-15.2314,-4.47461,-0.00015,-0.31575,1.32754,-2e-05,28.0053,17.78456,18.01922,1.8368,3.85282,-16.02138,20.62469,15.94063,6.66087,44.57073,-1.82211,43.28085,128.19334,-0.0018,-100.95298,124.4478,-0.00286,111.79362,-16.46218,-8.76291,-0.00018,-27.15617,10.62644,-0.01797,-6.93185,-10.3752,8.82622,-28.88436,-12.88883,4.3463,1.38541,4.19248,8.01928
1279,-5.64223,-0.0,0.0,-10.203,0.0,-0.0,-18.50575,-10.05724,18.4548,9.19924,4.03562,-15.58014,-15.32968,-4.46561,-0.0001,-0.35181,1.32669,-3e-05,28.15466,17.74296,17.86956,1.90207,3.80477,-16.00171,20.7207,15.80914,6.61021,44.45178,-1.86233,43.37809,128.06175,-0.0014,-101.33197,124.47044,-0.00144,112.72139,-16.27485,-8.61849,9e-05,-28.05927,11.62094,-0.03062,-7.00516,-10.35659,8.67614,-28.96032,-12.81637,4.21299,1.5118,4.15553,8.05379
1280,-5.94296,0.0,0.0,-10.64395,0.0,0.0,-18.65911,-9.95276,18.21687,9.37572,4.06448,-15.62746,-15.35361,-4.50703,-9e-05,-0.39042,1.38034,-3e-05,28.25093,17.66391,17.69092,1.97709,3.7026,-15.94795,20.65631,15.77674,6.75795,44.28071,-1.8323,43.50945,128.00185,-5e-05,-101.75747,124.54076,-0.00074,114.94962,-15.63912,-8.29776,9e-05,-28.00975,13.0459,-0.01141,-6.9739,-10.34282,8.75273,-28.92573,-12.83177,4.28993,1.66721,4.09179,7.96379
1281,-6.29656,-0.0,0.0,-10.80641,0.0,0.0,-18.75398,-9.6981,18.00012,9.51241,4.05428,-15.78186,-15.3938,-4.61746,0.00011,-0.42818,1.45927,-1e-05,28.37418,17.63995,17.47342,2.08334,3.63184,-15.82635,20.43245,15.84133,6.89747,44.11209,-1.83722,43.50569,128.00911,0.0006,-102.21639,124.6618,0.00323,116.12431,-14.81131,-8.08502,-0.00148,-26.8384,13.7606,-0.0052,-6.86138,-10.3342,8.90787,-28.80801,-12.88082,4.43844,1.86461,4.06938,7.84392
1282,-6.5609,-0.0,0.0,-10.88737,0.0,0.0,-18.74042,-9.44521,17.91523,9.58638,4.01068,-16.0603,-15.50811,-4.79183,0.00039,-0.47547,1.53571,-2e-05,28.55651,17.73235,17.20829,2.2377,3.63453,-15.60671,20.13877,15.93563,6.89498,44.01105,-1.93555,43.34549,128.06972,0.00026,-102.68464,124.8425,0.00748,115.48047,-14.1352,-8.06192,-0.00155,-25.04244,13.68666,-0.00808,-6.70263,-10.30187,9.03648,-28.64268,-12.89812,4.57123,2.08148,4.11096,7.82202
1283,-6.75087,0.0,-0.0,-11.04978,-0.0,0.0,-18.63223,-9.43493,17.98259,9.564,3.89812,-16.28547,-15.64155,-4.95942,0.00034,-0.53951,1.59062,-2e-05,28.69404,17.90994,17.04235,2.39911,3.67803,-15.38145,19.89256,16.00998,6.86474,44.01149,-2.04503,43.19288,128.19069,-0.00072,-102.92604,125.00711,0.00599,114.14195,-13.79471,-8.10006,-0.00021,-23.31315,13.36337,-0.00205,-6.55244,-10.26584,9.12771,-28.48663,-12.89823,4.67045,2.23846,4.16924,7.9218
1284,-6.76033,0.0,0.0,-11.02482,-0.0,-0.0,-18.60199,-9.69312,18.02359,9.40425,3.72891,-16.23825,-15.6764,-5.03046,0.00019,-0.60247,1.61375,-0.0,28.6284,18.07745,17.19367,2.46425,3.70366,-15.34144,19.756,16.06864,6.99447,44.08596,-2.03592,43.22941,128.36076,-0.00093,-102.9726,125.03783,0.00172,113.33639,-13.68539,-8.15509,0.00056,-22.14891,12.98113,0.0065,-6.46412,-10.26714,9.21494,-28.3957,-12.9315,4.75165,2.24946,4.18326,8.03599
1285,-6.57461,0.0,0.0,-10.61579,-0.0,0.0,-18.79261,-9.96165,17.87144,9.17899,3.55986,-15.91162,-15.57129,-5.00206,0.00016,-0.64861,1.60413,1e-05,28.37026,18.17965,17.61847,2.40331,3.70866,-15.56497,19.70341,16.13537,7.2859,44.13942,-1.90689,43.4464,128.53983,0.00045,-103.2793,124.92426,-0.00088,113.0075,-13.61997,-8.38862,0.00037,-21.87769,12.41259,0.01342,-6.43783,-10.27015,9.32629,-28.36614,-12.97521,4.85479,2.15159,4.15096,8.05865
1286,-6.46106,-0.0,0.0,-10.13785,0.0,0.0,-19.10755,-9.98219,17.56565,9.04828,3.42907,-15.50644,-15.41774,-4.96272,7e-05,-0.69027,1.56988,3e-05,28.1429,18.25238,17.98542,2.33596,3.74601,-15.92063,19.68761,16.20725,7.56227,44.09274,-1.79471,43.63436,128.69131,0.00144,-104.15328,124.7839,-0.00144,112.78735,-13.51827,-8.9368,-0.00037,-22.32949,11.89444,0.012,-6.41969,-10.18671,9.42462,-28.33765,-12.93394,4.97887,2.10707,4.12419,8.01915
1287,-6.61866,0.0,0.0,-10.05826,0.0,-0.0,-19.33146,-9.79396,17.29612,9.0783,3.34253,-15.26976,-15.33304,-4.98447,3e-05,-0.73892,1.52307,3e-05,28.12162,18.34742,18.03637,2.37254,3.84193,-16.17236,19.73164,16.25549,7.68341,43.97156,-1.81409,43.59835,128.78738,0.00056,-105.31029,124.72633,-0.0012,112.86071,-13.34958,-9.65897,-0.0016,-22.80449,11.80711,0.00395,-6.35413,-10.00959,9.43416,-28.25669,-12.77311,5.0556,2.19786,4.14231,8.02438
1288,-6.91562,-0.0,-0.0,-10.45005,0.0,0.0,-19.38521,-9.63236,17.20688,9.17684,3.32239,-15.34899,-15.34111,-5.05424,0.0001,-0.7723,1.46594,0.0,28.24834,18.44533,17.80537,2.46206,3.96326,-16.18054,19.90782,16.2614,7.66757,43.8494,-1.95186,43.3494,128.80408,-0.00058,-106.24598,124.76812,-0.0011,113.06132,-13.07736,-10.29376,-0.00256,-22.81159,11.92674,-0.00172,-6.22889,-9.84726,9.35301,-28.12053,-12.59268,5.04163,2.32727,4.19608,8.08717
1289,-7.03351,0.0,-0.0,-10.80972,0.0,0.0,-19.41306,-9.53095,17.19609,9.18946,3.40282,-15.60768,-15.3875,-5.09723,0.00012,-0.75853,1.39374,-7e-05,28.36641,18.4731,17.55235,2.48739,4.05031,-16.08353,20.21555,16.23894,7.60569,43.74191,-2.12599,43.08536,128.74513,-0.00015,-106.55644,124.85473,-0.00043,112.91341,-12.81401,-10.69527,-0.00186,-22.5645,11.73225,-0.00467,-6.09539,-9.81154,9.24765,-27.98753,-12.52083,4.95659,2.38709,4.2379,8.10667
1290,-6.77806,0.0,-0.0,-10.55589,-0.0,-0.0,-19.61786,-9.27285,16.99577,9.04915,3.53764,-15.706,-15.43052,-5.05677,8e-05,-0.69543,1.31876,-8e-05,28.43106,18.39301,17.51589,2.4309,4.06627,-16.16136,20.52978,16.22208,7.52583,43.61733,-2.28648,43.00751,128.66281,0.00079,-106.08183,124.8983,0.00301,113.01817,-12.77956,-10.87814,-0.00057,-22.63137,11.33657,-0.00686,-6.04645,-9.90477,9.16118,-27.94912,-12.57556,4.83999,2.40616,4.22569,8.01797
1291,-6.28167,0.0,-0.0,-9.77013,0.0,-0.0,-20.00529,-8.78274,16.49837,8.84885,3.60078,-15.51739,-15.4858,-4.94632,-4e-05,-0.59973,1.27311,0.0,28.50253,18.24403,17.68418,2.33875,4.0346,-16.48735,20.7042,16.21932,7.38599,43.46022,-2.43269,43.10715,128.6299,0.00078,-105.37046,124.83232,0.01113,114.64814,-12.89782,-11.01297,-0.00047,-23.09407,11.38027,-0.01087,-6.13759,-10.02857,9.11498,-28.05206,-12.67344,4.74938,2.46143,4.17095,7.85581
1292,-5.81306,-0.0,0.0,-9.05194,-0.0,-0.0,-20.37921,-8.33748,15.88022,8.72704,3.53645,-15.25367,-15.57938,-4.80974,-0.00015,-0.48394,1.27266,9e-05,28.58295,18.08675,17.89044,2.19988,4.0025,-16.86891,20.71553,16.19049,7.18303,43.29981,-2.56697,43.16599,128.67528,0.00099,-105.3343,124.6696,0.01384,117.3952,-12.76997,-11.25972,-0.00235,-23.21985,11.99185,-0.00583,-6.30978,-10.09378,9.14619,-28.22877,-12.7454,4.75366,2.53707,4.11589,7.69109
1293,-5.49674,-0.0,-0.0,-8.79375,0.0,0.0,-20.58437,-8.28992,15.43361,8.7035,3.40277,-15.13176,-15.68317,-4.68005,-0.00012,-0.37453,1.28908,9e-05,28.59949,17.96364,18.00833,2.00697,3.98838,-17.0806,20.66209,16.10665,7.02297,43.22131,-2.6627,43.05609,128.76088,0.00109,-106.04248,124.46671,0.00015,118.43906,-12.22781,-11.55025,-0.00362,-22.51709,12.40562,0.00458,-6.39095,-10.09771,9.27256,-28.30626,-12.7955,4.8705,2.57055,4.08598,7.58899
1294,-5.34181,0.0,0.0,-8.98901,0.0,-0.0,-20.61975,-8.70497,15.33749,8.69372,3.25961,-15.16253,-15.74061,-4.59082,-1e-05,-0.31703,1.28318,5e-05,28.54071,17.9273,17.96355,1.85791,3.99937,-17.02734,20.61485,16.00531,7.04073,43.30008,-2.69614,42.91616,128.82567,0.00068,-106.47872,124.24603,-0.02044,115.19756,-11.60781,-11.6327,-0.0025,-21.83103,11.79047,0.02511,-6.23979,-10.09977,9.43994,-28.14982,-12.8589,5.02651,2.57003,4.10693,7.59271
1295,-5.27306,0.0,0.0,-9.40815,0.0,0.0,-20.57987,-9.29005,15.52373,8.64453,3.1322,-15.25483,-15.74171,-4.57138,4e-05,-0.33242,1.26071,1e-05,28.47359,18.0214,17.78421,1.85261,4.04181,-16.77104,20.54059,15.93777,7.25802,43.46868,-2.6928,42.91444,128.83594,0.0012,-105.75806,124.03085,-0.02409,108.55156,-11.31804,-11.32608,-0.00235,-22.21634,10.26018,0.05044,-5.93481,-10.16644,9.56815,-27.84625,-12.96785,5.12111,2.59597,4.20944,7.69156
1296,-5.11454,0.0,0.0,-9.69025,0.0,-0.0,-20.60755,-9.56838,15.74448,8.5691,3.03374,-15.30222,-15.72113,-4.62685,2e-05,-0.39587,1.25573,-1e-05,28.44159,18.21297,17.63887,1.96588,4.09603,-16.50998,20.37649,15.92055,7.57866,43.55017,-2.68976,43.01728,128.80612,0.0017,-104.34135,123.8891,-0.00876,102.44702,-11.35597,-10.75755,-0.00247,-23.11797,8.84377,0.03762,-5.72128,-10.33066,9.65385,-27.64404,-13.15167,5.1385,2.68084,4.37617,7.80586
1297,-4.82101,0.0,-0.0,-9.5722,0.0,0.0,-20.78784,-9.29358,15.797,8.48183,2.95543,-15.21421,-15.69641,-4.73306,-2e-05,-0.4704,1.26827,-2e-05,28.4275,18.40407,17.64925,2.09912,4.13147,-16.43472,20.13002,15.96466,7.8949,43.45847,-2.66123,43.11713,128.77887,0.00129,-103.41393,123.83179,0.00205,99.75607,-11.47174,-10.26405,-0.00084,-23.11514,8.36662,0.01407,-5.74776,-10.55318,9.74684,-27.68696,-13.39225,5.14027,2.81603,4.53054,7.83737
1298,-4.61838,0.0,0.0,-9.17503,0.0,0.0,-21.02326,-8.79556,15.67041,8.39418,2.89492,-15.02557,-15.66119,-4.8341,-4e-05,-0.532,1.27036,1e-05,28.39215,18.50845,17.76057,2.17192,4.13577,-16.5373,19.92489,16.05083,8.12267,43.25415,-2.54922,43.22349,128.76892,0.00096,-103.22979,123.76516,0.00223,99.93571,-11.55729,-10.06005,0.00062,-21.87642,8.71154,0.00811,-5.96992,-10.74489,9.84742,-27.9229,-13.60701,5.16089,2.96888,4.6005,7.75609
1299,-4.72269,-0.0,-0.0,-8.92927,0.0,0.0,-21.1337,-8.62945,15.49739,8.36678,2.88028,-14.92489,-15.62539,-4.87014,-2e-05,-0.56166,1.26188,2e-05,28.32514,18.48968,17.84764,2.14687,4.10343,-16.63102,19.93393,16.08565,8.18569,43.03235,-2.38711,43.39501,128.74098,0.00048,-103.25999,123.59879,-0.00132,100.98144,-11.54972,-10.22678,-0.00114,-20.18411,9.27853,0.00377,-6.26783,-10.85952,9.92261,-28.22866,-13.74094,5.18727,3.09689,4.57973,7.62312
1300,-5.04079,0.0,-0.0,-9.16924,0.0,-0.0,-21.06661,-8.89585,15.43925,8.49053,2.91755,-15.08445,-15.61141,-4.84074,-2e-05,-0.55414,1.27253,2e-05,28.25997,18.36627,17.83182,2.04459,4.02813,-16.55382,20.20844,15.99502,8.05505,42.87153,-2.31703,43.57674,128.65433,-0.00102,-103.53114,123.31829,-0.00072,102.08959,-11.26748,-10.84632,-0.00753,-18.713,9.70878,0.0003,-6.54128,-10.91069,9.96428,-28.50537,-13.80371,5.20664,3.17663,4.52466,7.53693
1301,-5.29331,0.0,0.0,-9.81798,0.0,0.0,-20.90655,-9.22524,15.56531,8.77054,2.95535,-15.47165,-15.61999,-4.82832,-2e-05,-0.53846,1.31033,2e-05,28.21729,18.22824,17.70817,1.93294,3.93225,-16.30313,20.60398,15.84391,7.80132,42.83251,-2.41129,43.64779,128.50905,-0.00236,-104.32674,122.96118,0.00658,103.92494,-10.72309,-11.79138,-0.01086,-17.71044,10.12279,0.0009,-6.74279,-10.88121,9.95155,-28.70461,-13.7717,5.20606,3.21261,4.49978,7.5626
1302,-5.40172,0.0,0.0,-10.50603,-0.0,0.0,-20.71503,-9.36064,15.79181,9.06383,2.93915,-15.8687,-15.63219,-4.92122,-2e-05,-0.54962,1.33991,2e-05,28.16525,18.19484,17.52309,1.86374,3.87495,-16.00425,20.90507,15.7898,7.56576,42.91023,-2.55,43.59926,128.33984,-0.00145,-105.21957,122.60117,0.01018,106.90436,-10.30286,-12.60715,-0.00579,-17.40099,10.8553,-0.00534,-6.88348,-10.72049,9.83816,-28.83458,-13.58098,5.16159,3.21909,4.53041,7.67278
1303,-5.54445,0.0,0.0,-10.91819,0.0,0.0,-20.48895,-9.40131,15.96327,9.19436,2.87459,-16.06189,-15.63628,-5.10185,-1e-05,-0.58223,1.32406,3e-05,28.07684,18.28421,17.35375,1.83151,3.89026,-15.82945,20.99217,15.91834,7.45537,43.02489,-2.59112,43.52705,128.17917,-0.00011,-105.73182,122.33168,0.00418,110.18307,-10.31339,-12.92985,-0.00099,-17.9066,12.00378,-0.01798,-6.97419,-10.47338,9.66362,-28.90913,-13.28766,5.09291,3.2196,4.593,7.75634
1304,-5.77514,0.0,0.0,-10.89566,-0.0,0.0,-20.28145,-9.46646,15.9592,9.09859,2.81905,-15.96745,-15.63573,-5.25612,3e-05,-0.60392,1.26174,1e-05,27.97627,18.38653,17.30414,1.80172,3.94583,-15.91197,20.90293,16.14919,7.47143,43.10307,-2.57999,43.4556,128.05037,-7e-05,-106.1208,122.19532,-0.00235,112.36018,-10.60673,-12.86463,0.00051,-18.76532,13.18598,-0.01743,-6.9711,-10.29582,9.59065,-28.89296,-13.09614,5.09263,3.2443,4.64516,7.73435
1305,-5.90261,0.0,0.0,-10.42557,0.0,-0.0,-20.20276,-9.47195,15.75496,8.84395,2.84768,-15.64395,-15.6419,-5.29684,6e-05,-0.60009,1.17304,-3e-05,27.90559,18.40776,17.42092,1.76063,3.99275,-16.22841,20.78461,16.30974,7.53136,43.1352,-2.65647,43.2872,127.98249,-0.00012,-106.65064,122.14601,-0.00364,112.50674,-10.85089,-12.80146,0.00133,-19.07693,13.72825,-0.01136,-6.86124,-10.28566,9.71175,-28.7781,-13.1312,5.21003,3.30019,4.67384,7.65979
1306,-5.80088,0.0,-0.0,-9.71145,0.0,-0.0,-20.2738,-9.33202,15.43545,8.5587,3.00677,-15.24604,-15.67787,-5.22643,-1e-05,-0.58434,1.08433,-3e-05,27.89575,18.35573,17.60798,1.72718,4.00878,-16.61336,20.78013,16.3038,7.52972,43.13726,-2.83889,42.95986,127.9865,0.0001,-107.06671,122.10879,-0.00296,110.809,-10.86742,-13.02543,0.00053,-18.45066,13.27174,-0.01703,-6.77525,-10.39476,9.90018,-28.6951,-13.30161,5.34485,3.36748,4.70171,7.65074
1307,-5.51387,0.0,0.0,-9.03382,0.0,-0.0,-20.41527,-9.145,15.10701,8.32531,3.21855,-14.90135,-15.77263,-5.10174,-0.00014,-0.57298,1.03355,-1e-05,27.96199,18.28727,17.74469,1.72627,3.98497,-16.93464,20.90293,16.1956,7.42816,43.10071,-3.02499,42.59568,128.03949,0.00013,-107.1581,122.04423,-0.002,108.52523,-10.59147,-13.53373,-0.00181,-17.54347,12.13395,-0.01347,-6.87916,-10.5319,9.9739,-28.80858,-13.4559,5.36133,3.43577,4.74773,7.74893
1308,-5.08835,0.0,0.0,-8.51723,-0.0,0.0,-20.56624,-9.0894,14.79532,8.12139,3.28712,-14.62126,-15.91981,-4.98689,-0.00018,-0.55957,1.04613,3e-05,28.0716,18.25723,17.8622,1.75252,3.92807,-17.17019,21.03273,16.10893,7.32113,43.01805,-3.14495,42.41249,128.12563,3e-05,-107.02682,121.94598,0.00016,107.11245,-10.02642,-14.09194,-0.00208,-17.3478,11.02419,0.00277,-7.15969,-10.64395,9.90545,-29.10156,-13.5347,5.2541,3.50716,4.81157,7.90251
1309,-4.66278,0.0,0.0,-8.30686,0.0,0.0,-20.68354,-9.22755,14.53887,7.94828,3.13319,-14.43199,-16.05766,-4.9412,-0.00014,-0.53372,1.09757,7e-05,28.15527,18.29574,17.99442,1.77519,3.87672,-17.29653,21.07473,16.08197,7.31973,42.92823,-3.22223,42.46058,128.23436,-0.00013,-106.73773,121.82779,0.00235,107.33142,-9.40415,-14.42712,0.00063,-18.02786,10.59216,0.00858,-7.43267,-10.68082,9.77486,-29.38234,-13.52093,5.11749,3.57737,4.89143,8.04139
1310,-4.60366,0.0,0.0,-8.68761,0.0,0.0,-20.67297,-9.46925,14.51347,7.94807,2.9793,-14.49638,-16.12496,-5.00626,-0.0002,-0.52225,1.13111,7e-05,28.18861,18.37643,17.96111,1.78372,3.86644,-17.22523,21.05623,16.07561,7.37062,42.88607,-3.30073,42.54611,128.3037,1e-05,-106.26318,121.7395,0.00152,108.85123,-9.16978,-14.37372,-7e-05,-18.71284,11.05354,0.01026,-7.54053,-10.58065,9.65049,-29.48541,-13.38234,5.03941,3.64871,4.98117,8.11272
1311,-5.04624,0.0,0.0,-9.42444,0.0,0.0,-20.49725,-9.67525,14.79528,8.17314,3.13488,-14.8645,-16.13161,-5.14344,-0.00024,-0.56351,1.12215,7e-05,28.19454,18.43489,17.6714,1.78501,3.87859,-16.9562,21.02511,16.07516,7.31883,42.90242,-3.36993,42.47872,128.25903,9e-05,-105.79646,121.74142,-0.00052,110.39082,-9.57715,-13.91103,-0.00679,-18.55272,11.93243,0.01155,-7.46464,-10.34044,9.58541,-29.39055,-13.13561,5.07061,3.72202,5.05398,8.10041
1312,-5.61602,0.0,-0.0,-9.70545,0.0,0.0,-20.26148,-9.75549,15.1813,8.4174,3.59673,-15.31042,-16.14585,-5.26202,-0.0001,-0.63867,1.09573,3e-05,28.20487,18.44577,17.3488,1.793,3.86968,-16.63113,20.96845,16.10145,7.13532,42.95459,-3.38642,42.28484,128.1207,-0.0005,-105.73827,121.83306,0.00016,110.6918,-10.38056,-13.20946,-0.0104,-17.62792,12.45253,-0.00055,-7.28439,-10.06364,9.6008,-29.18591,-12.88446,5.19106,3.79077,5.08735,8.04664
1313,-6.0547,0.0,0.0,-9.37852,-0.0,0.0,-20.04837,-9.71366,15.46524,8.50808,4.01665,-15.62358,-16.2222,-5.34021,9e-05,-0.68806,1.06942,-4e-05,28.27098,18.44971,17.16439,1.84705,3.84607,-16.33197,20.89289,16.14407,6.96441,43.03045,-3.34539,42.14323,127.98716,-0.00062,-106.3861,121.95672,0.00094,109.7458,-11.05887,-12.6671,-0.00595,-16.66303,12.3894,-0.01023,-7.08959,-9.901,9.64297,-28.97586,-12.74904,5.29278,3.86589,5.1051,8.01018
1314,-6.46237,0.0,0.0,-9.12582,0.0,-0.0,-19.86,-9.612,15.57915,8.50492,4.08441,-15.7902,-16.36559,-5.39058,0.0001,-0.70433,1.03205,-8e-05,28.4057,18.48372,17.10702,1.95495,3.84875,-16.03897,20.85863,16.16144,6.95818,43.12891,-3.27959,42.1912,127.92654,0.00029,-107.63001,122.05399,-0.00053,108.54649,-11.30422,-12.66189,-0.00166,-16.25902,12.07889,-0.00592,-6.92416,-9.93402,9.65733,-28.81272,-12.78495,5.29362,3.94138,5.153,7.99755
1315,-6.77938,0.0,0.0,-9.30315,0.0,-0.0,-19.73202,-9.53384,15.53602,8.51823,3.83754,-15.88764,-16.54076,-5.37673,-9e-05,-0.74228,0.99709,-0.0001,28.53239,18.5142,17.17625,2.04341,3.86632,-15.77246,20.86983,16.15839,7.12154,43.23933,-3.1901,42.395,127.94845,0.00059,-108.83832,122.07632,-0.00194,107.64383,-11.23587,-13.12497,-0.0008,-16.52225,11.72704,0.00235,-6.78423,-10.09663,9.68826,-28.68557,-12.94719,5.2604,3.97013,5.22472,7.96861
1316,-6.71714,0.0,0.0,-9.6338,0.0,0.0,-19.70961,-9.53793,15.47133,8.56212,3.56443,-15.99328,-16.70178,-5.28567,-0.00016,-0.80572,1.00448,-0.00011,28.57985,18.47193,17.33864,2.02712,3.83817,-15.62256,20.86198,16.18505,7.29271,43.33326,-3.05775,42.58373,128.02571,-0.00053,-109.31593,122.00538,-0.00055,107.20231,-11.17844,-13.56988,-0.00057,-17.1481,11.43187,0.00494,-6.6643,-10.21969,9.80503,-28.57218,-13.10425,5.32274,3.93283,5.25474,7.90728
1317,-6.16479,-0.0,-0.0,-9.84378,0.0,0.0,-19.77954,-9.55751,15.55034,8.59698,3.48766,-16.11706,-16.83003,-5.18502,-2e-05,-0.80491,1.0542,-4e-05,28.57337,18.33865,17.46811,1.88618,3.74819,-15.67555,20.84845,16.22787,7.27135,43.36283,-2.93236,42.59373,128.08461,-0.00081,-108.90511,121.90239,0.00136,108.33659,-11.33215,-13.6257,-0.00124,-17.68967,11.54666,0.00268,-6.59959,-10.1861,9.96524,-28.49883,-13.1319,5.48583,3.87436,5.20353,7.84731
1318,-5.30478,0.0,0.0,-9.99433,0.0,-0.0,-19.9155,-9.44547,15.77641,8.61761,3.59435,-16.21769,-16.93332,-5.14369,0.00012,-0.68602,1.10572,-1e-05,28.58256,18.16377,17.47993,1.67146,3.64304,-15.90801,20.94076,16.19737,7.01143,43.29341,-2.90925,42.3903,128.04236,0.00072,-107.99136,121.87849,-0.00501,112.2705,-11.65636,-13.37509,-0.00163,-17.85862,12.34515,0.00345,-6.62622,-10.02126,10.06509,-28.50753,-13.0156,5.64256,3.84192,5.11036,7.82267
1319,-4.40935,0.0,0.0,-10.20254,0.0,-0.0,-20.09862,-9.19093,15.96143,8.66298,3.73004,-16.31008,-17.01727,-5.1512,0.00014,-0.53198,1.13741,-8e-05,28.62063,18.02318,17.45722,1.4702,3.56803,-16.14587,21.16683,16.07626,6.6854,43.15864,-2.98219,42.10757,127.90613,0.00153,-106.99857,121.99899,-0.01424,117.94807,-12.00728,-13.11322,-0.00099,-17.68225,13.56188,0.00551,-6.70338,-9.81707,10.0837,-28.56652,-12.83294,5.73806,3.8275,5.04665,7.83231
1320,-3.7462,0.0,0.0,-10.3583,0.0,-0.0,-20.23939,-9.02509,15.90402,8.74863,3.80915,-16.45391,-17.08762,-5.14665,5e-05,-0.48476,1.14989,-0.0001,28.63316,17.99153,17.58427,1.36374,3.53842,-16.18255,21.38022,15.98811,6.54338,43.05044,-3.01618,41.95155,127.78765,0.00028,-106.00124,122.23577,-0.00909,122.23266,-12.30534,-12.92966,-0.001,-17.36108,14.54074,0.00366,-6.74054,-9.64229,10.07353,-28.58935,-12.66699,5.79523,3.79307,5.04987,7.86801
1321,-3.52324,0.0,0.0,-10.22583,0.0,-0.0,-20.22439,-9.18942,15.57108,8.81886,3.89404,-16.59848,-17.16078,-5.09284,-6e-05,-0.61242,1.1294,9e-05,28.56581,18.09591,17.95914,1.3786,3.5465,-15.99358,21.4165,16.05032,6.71563,43.0346,-2.92347,42.00838,127.78845,-0.00149,-104.95651,122.50608,0.00499,122.79109,-12.45739,-12.71846,-0.00145,-17.0628,14.752,0.00069,-6.70942,-9.54601,10.03509,-28.55169,-12.56351,5.79589,3.71781,5.10762,7.94471
1322,-3.71591,0.0,0.0,-9.80636,0.0,-0.0,-20.07453,-9.57615,15.13549,8.81802,4.03847,-16.59442,-17.25622,-5.00866,-0.00014,-0.86319,1.05998,0.00032,28.43885,18.262,18.46302,1.4619,3.56761,-15.79045,21.2845,16.22747,7.10163,43.08245,-2.78148,42.18154,127.89552,-0.00146,-104.04626,122.74134,0.00971,120.09011,-12.29505,-12.49525,-0.00147,-16.84396,14.19683,0.00011,-6.6788,-9.55617,9.89862,-28.52706,-12.52287,5.66405,3.61307,5.17742,8.06761
1323,-4.13198,0.0,-0.0,-9.52575,-0.0,0.0,-19.8915,-9.81754,14.89953,8.80837,4.13107,-16.42748,-17.3983,-4.94809,-0.00012,-1.11987,0.96634,0.00026,28.36035,18.36015,18.81955,1.53289,3.57255,-15.77348,21.14575,16.38269,7.42405,43.09935,-2.71057,42.31484,128.00198,-0.00021,-103.41318,122.9297,0.00521,116.43653,-11.86085,-12.3962,-0.00157,-16.59573,13.26402,-0.00113,-6.72712,-9.64105,9.67391,-28.59059,-12.51918,5.42103,3.52165,5.21284,8.18004
1324,-4.63561,0.0,0.0,-9.75074,0.0,-0.0,-19.70137,-9.75829,15.04568,8.89804,3.99749,-16.23796,-17.61133,-4.94391,-4e-05,-1.30687,0.90266,1e-05,28.42088,18.34217,18.88673,1.5666,3.54888,-15.91793,21.12367,16.42044,7.48328,43.05862,-2.71241,42.31298,128.02263,0.00042,-102.94888,123.10985,0.00153,113.49987,-11.51579,-12.41301,-0.00137,-16.08459,12.32443,-0.00331,-6.83238,-9.72444,9.52726,-28.7079,-12.5427,5.25178,3.48132,5.20046,8.19284
1325,-5.14978,0.0,0.0,-10.37262,0.0,-0.0,-19.47596,-9.60289,15.4702,9.1055,3.63025,-16.14771,-17.88003,-4.99937,7e-05,-1.45331,0.89409,-0.00013,28.58721,18.29099,18.78377,1.60857,3.5083,-16.04659,21.18463,16.3588,7.3555,43.07435,-2.69689,42.18312,127.98495,0.00043,-102.6534,123.303,8e-05,111.65282,-11.55339,-12.41332,-0.00166,-15.31365,11.68903,4e-05,-6.86845,-9.75189,9.60713,-28.74347,-12.59751,5.31614,3.48075,5.17503,8.0736
1326,-5.56591,-0.0,-0.0,-11.09691,0.0,0.0,-19.25085,-9.55443,15.94038,9.3954,3.23065,-16.2154,-18.12908,-5.12762,0.00013,-1.63827,0.91356,-9e-05,28.74351,18.29908,18.65579,1.70774,3.45651,-16.02493,21.20734,16.29887,7.25034,43.25811,-2.61462,42.03239,127.99568,0.00158,-102.79488,123.46252,-0.00108,111.11709,-11.8954,-12.4197,-0.00249,-14.78546,11.62244,0.00421,-6.74461,-9.71511,9.86394,-28.60736,-12.65766,5.57091,3.48397,5.16301,7.88819
1327,-5.75038,0.0,0.0,-11.63389,0.0,-0.0,-19.13248,-9.55082,16.23829,9.70645,3.02689,-16.38426,-18.28863,-5.31224,-2e-05,-1.89242,0.92214,3e-05,28.79478,18.35986,18.58224,1.8496,3.37,-15.88636,21.12551,16.3205,7.26917,43.56349,-2.50436,42.00375,128.11552,0.00351,-103.47906,123.52395,-0.00023,112.04442,-12.16713,-12.62447,-0.00351,-15.08009,12.12052,-9e-05,-6.51834,-9.63741,10.11615,-28.36511,-12.67809,5.83706,3.46619,5.14517,7.76276
1328,-5.62326,0.0,0.0,-11.71556,0.0,-0.0,-19.14825,-9.49911,16.22909,9.93332,3.10506,-16.46154,-18.37896,-5.45955,-0.00017,-2.18591,0.91553,3e-05,28.7267,18.43107,18.67025,1.98077,3.23911,-15.7764,20.98252,16.40678,7.39185,43.84825,-2.43233,42.16787,128.28815,0.00284,-104.18485,123.48443,0.00157,113.65636,-12.09351,-13.02086,-0.00399,-16.26948,12.84016,-0.00379,-6.32441,-9.56384,10.23517,-28.1604,-12.65347,5.97677,3.41226,5.12434,7.79259
1329,-5.22549,0.0,0.0,-11.3112,0.0,-0.0,-19.21006,-9.44111,15.99023,9.99675,3.38635,-16.30523,-18.47508,-5.4907,-0.0002,-2.48855,0.91007,-4e-05,28.62626,18.52312,18.935,2.10739,3.11516,-15.7849,20.86821,16.493,7.55293,44.01828,-2.42016,42.4595,128.40388,0.00071,-104.22688,123.41071,0.00208,114.62019,-11.88339,-13.33737,-0.00201,-17.81573,13.36331,0.00065,-6.24086,-9.52553,10.23041,-28.07385,-12.61616,5.9869,3.34231,5.16307,7.96524
1330,-4.70234,0.0,-0.0,-10.64103,0.0,-0.0,-19.27939,-9.3761,15.72686,9.89891,3.69304,-15.99847,-18.60383,-5.42171,-0.00017,-2.77449,0.89738,-2e-05,28.61703,18.65492,19.22286,2.28805,3.07019,-15.86482,20.83658,16.56297,7.65829,44.07763,-2.42813,42.73507,128.41246,-0.00013,-103.7699,123.38194,0.00213,114.45629,-11.94988,-13.48285,-0.00011,-18.92582,13.49577,0.00342,-6.26552,-9.51428,10.18851,-28.09922,-12.59034,5.95188,3.30746,5.29546,8.1674
1331,-4.17923,0.0,0.0,-9.96452,0.0,-0.0,-19.40728,-9.28604,15.52222,9.71259,3.85186,-15.78774,-18.74171,-5.2967,-0.00016,-2.98243,0.84841,-0.0,28.72787,18.78461,19.42309,2.49795,3.12047,-15.89128,20.87915,16.64476,7.6498,44.09,-2.398,42.90429,128.36139,-0.00034,-103.61664,123.43518,-0.00084,114.3325,-12.29466,-13.68157,-2e-05,-19.17413,13.4318,0.00052,-6.36933,-9.53044,10.17023,-28.20508,-12.59864,5.92858,3.30333,5.46237,8.26291
1332,-3.62977,0.0,0.0,-9.43534,0.0,-0.0,-19.61792,-9.22371,15.33945,9.54909,3.81099,-15.80882,-18.87385,-5.14595,-0.00016,-3.06778,0.76119,-6e-05,28.8715,18.84439,19.569,2.63131,3.20286,-15.80475,20.93986,16.74202,7.57674,44.10397,-2.32374,42.98035,128.33899,-3e-05,-104.03817,123.56165,-0.00763,115.90962,-12.57732,-14.09193,-0.0018,-18.85077,13.59753,-0.0011,-6.51684,-9.61149,10.17476,-28.35918,-12.67554,5.90192,3.26647,5.57371,8.19786
1333,-3.03352,0.0,0.0,-9.15774,0.0,-0.0,-19.83996,-9.18107,15.23618,9.49939,3.66172,-15.9377,-18.99393,-5.03386,-5e-05,-3.09079,0.67689,-9e-05,28.96018,18.82095,19.65195,2.66862,3.22516,-15.65775,20.9499,16.83728,7.54776,44.12228,-2.26561,43.01135,128.38521,0.00026,-104.5955,123.72462,-0.00896,118.55755,-12.64116,-14.53958,-0.0029,-18.52557,13.9041,-0.00348,-6.64222,-9.77593,10.17708,-28.49832,-12.82902,5.84136,3.17665,5.60016,8.05563
1334,-2.68204,0.0,-0.0,-9.26113,-0.0,-0.0,-19.91714,-9.11848,15.37892,9.55809,3.48755,-15.99407,-19.08323,-5.0403,8e-05,-3.16276,0.64151,-0.00011,28.98232,18.78378,19.52776,2.71621,3.1642,-15.47989,20.86263,16.93056,7.65104,44.17108,-2.26762,43.0391,128.47212,0.0004,-105.08392,123.86969,-0.00253,119.07465,-12.55084,-14.73864,-0.00161,-18.34286,13.57951,-0.00971,-6.66078,-9.97684,10.18829,-28.53362,-13.01959,5.77511,3.07606,5.59919,7.98138
1335,-2.99983,0.0,0.0,-9.66225,-0.0,0.0,-19.716,-9.0794,15.80137,9.60662,3.25625,-15.9342,-19.12848,-5.17563,8e-05,-3.32343,0.65968,-0.00017,28.97606,18.84486,19.11519,2.87842,3.10323,-15.21488,20.67474,17.02132,7.92184,44.343,-2.30489,43.12625,128.56775,0.0007,-105.80224,123.96272,0.00136,115.76472,-12.35354,-14.6573,5e-05,-18.10676,12.39133,-0.01556,-6.55093,-10.12266,10.26491,-28.4335,-13.18302,5.7912,3.00004,5.66777,8.06006
1336,-3.97443,0.0,0.0,-10.00873,0.0,-0.0,-19.28208,-9.12104,16.3113,9.56865,2.97607,-15.80229,-19.14804,-5.35728,5e-05,-3.54136,0.69104,-0.00011,28.98324,19.05517,18.59155,3.16392,3.12656,-14.85872,20.44022,17.08941,8.30866,44.6669,-2.33724,43.31573,128.66772,0.00012,-106.63201,124.02019,0.00032,111.22306,-12.14937,-14.45047,1e-05,-17.89198,11.22885,-0.01182,-6.41241,-10.1479,10.41533,-28.29137,-13.26163,5.92268,2.95037,5.8426,8.28103
1337,-5.00103,0.0,-0.0,-10.06696,-0.0,-0.0,-18.86012,-9.22366,16.67416,9.5519,2.8378,-15.61382,-19.18325,-5.45813,-3e-05,-3.78418,0.68807,8e-05,29.01911,19.30981,18.30692,3.48327,3.19161,-14.59921,20.25556,17.12373,8.66799,44.97377,-2.34412,43.54159,128.75594,-0.00104,-106.79508,124.07051,-0.00179,109.57897,-12.14871,-14.21258,-0.00119,-17.87479,10.95795,-0.00232,-6.40401,-10.09703,10.53749,-28.27367,-13.25923,6.05682,2.91761,6.03677,8.56203
1338,-5.41661,0.0,0.0,-9.84724,-0.0,0.0,-18.68115,-9.33254,16.80899,9.68911,3.03857,-15.31679,-19.25928,-5.39776,-0.0002,-4.01323,0.62677,0.0002,29.05081,19.43668,18.48408,3.70896,3.18039,-14.69009,20.19688,17.13953,8.85994,45.04226,-2.2912,43.67044,128.78084,-0.00026,-105.91767,124.106,-0.00149,112.12386,-12.49403,-14.04351,-0.00086,-17.76138,11.54072,0.00915,-6.58944,-10.10609,10.56045,-28.45897,-13.27604,6.0749,2.89207,6.12364,8.80859
1339,-5.08903,0.0,0.0,-9.37182,0.0,-0.0,-18.75757,-9.41036,16.78507,9.91374,3.5326,-14.87032,-19.35522,-5.21331,-0.00021,-4.15638,0.51096,6e-05,29.0316,19.40688,19.00104,3.78039,3.07451,-15.15731,20.25943,17.16084,8.87201,44.87798,-2.1491,43.64821,128.69604,0.00187,-104.55067,124.11691,-0.00018,116.6025,-13.14715,-14.09129,0.0017,-17.17269,12.46881,0.01544,-6.84664,-10.24065,10.59469,-28.7267,-13.41348,6.05552,2.86629,6.08489,8.99494
1340,-4.37506,0.0,0.0,-8.64721,0.0,-0.0,-18.97654,-9.36024,16.64812,10.0488,4.03265,-14.3116,-19.41142,-5.00688,2e-05,-4.16719,0.37426,-0.00018,28.97109,19.33971,19.51458,3.75838,2.97452,-15.789,20.36908,17.20682,8.81981,44.71119,-1.96549,43.54724,128.52083,0.00215,-103.49658,124.13592,-0.00063,119.81552,-13.87613,-14.33678,0.00225,-16.38358,13.30645,0.00857,-6.98486,-10.40403,10.79265,-28.87157,-13.63767,6.17877,2.84651,6.01436,9.15089
1341,-3.68351,0.0,0.0,-7.89863,0.0,0.0,-19.24855,-9.11391,16.42873,10.05511,4.23874,-13.80922,-19.37207,-4.851,0.0002,-4.0887,0.27317,-0.00017,28.92021,19.32238,19.7786,3.74834,2.94872,-16.33098,20.45313,17.28336,8.83075,44.71309,-1.82637,43.47862,128.35503,0.00123,-103.31131,124.18597,-0.00082,120.05661,-14.28664,-14.62063,-0.00082,-16.15395,13.61099,0.00415,-6.94552,-10.47709,11.13641,-28.8245,-13.83147,6.47368,2.83806,5.98798,9.29306
1342,-3.22675,0.0,0.0,-7.45218,-0.0,0.0,-19.48637,-8.82984,16.29335,10.03376,4.05963,-13.67473,-19.23394,-4.77276,0.00013,-4.00113,0.24546,-2e-05,28.883,19.34292,19.81082,3.78617,2.95826,-16.58921,20.48516,17.37505,8.96021,44.8348,-1.73049,43.50205,128.30838,0.00213,-104.14315,124.24014,-0.00018,117.2841,-14.1221,-14.90684,-0.00399,-16.96616,12.93334,0.02155,-6.8039,-10.48098,11.50494,-28.66704,-13.97007,6.81864,2.81922,5.99013,9.42714
1343,-3.02208,0.0,0.0,-7.27213,0.0,-0.0,-19.61727,-8.72539,16.42115,10.04354,3.62349,-14.15421,-19.05691,-4.76763,-4e-05,-3.93929,0.27289,6e-05,28.80739,19.35647,19.78571,3.82751,2.92277,-16.55677,20.48053,17.45823,9.19359,44.93011,-1.59743,43.60223,128.3835,0.00271,-105.43733,124.28756,0.00242,112.36502,-13.62525,-15.21521,-0.00399,-18.54931,11.31476,0.03593,-6.61545,-10.51586,11.84178,-28.4663,-14.12576,7.12211,2.76048,5.96063,9.56504
1344,-2.99564,0.0,0.0,-7.07194,0.0,-0.0,-19.63506,-8.85273,16.80292,10.09996,3.12317,-15.23615,-18.91598,-4.79946,-5e-05,-3.89674,0.31064,5e-05,28.66773,19.33843,19.79666,3.82009,2.80651,-16.46105,20.48445,17.51529,9.46823,44.94134,-1.39955,43.73143,128.46016,0.00099,-106.40567,124.35796,0.00486,107.13457,-13.30307,-15.43482,-0.0018,-20.16076,9.48059,0.01798,-6.37487,-10.61176,12.14648,-28.22015,-14.32625,7.37211,2.6559,5.8776,9.70415
1345,-3.08549,-0.0,-0.0,-6.78944,-0.0,0.0,-19.58566,-9.14011,17.27173,10.25036,2.7063,-16.67946,-18.83556,-4.81221,8e-05,-3.86432,0.32359,3e-05,28.50949,19.2988,19.78283,3.7681,2.65304,-16.55395,20.54734,17.5322,9.70617,44.93053,-1.20236,43.86864,128.4252,-0.00052,-106.90841,124.45323,0.00201,104.228,-13.29486,-15.45596,-0.00076,-21.22386,8.35984,-0.00795,-6.0981,-10.7189,12.38559,-27.94179,-14.51312,7.55615,2.53217,5.78691,9.83501
1346,-3.32479,0.0,0.0,-6.57229,0.0,-0.0,-19.50893,-9.45323,17.6705,10.4879,2.46866,-18.12298,-18.77642,-4.78782,0.00018,-3.83942,0.27173,-0.0,28.40726,19.29743,19.65244,3.75114,2.5633,-16.86771,20.66729,17.51668,9.88852,44.97589,-1.07841,44.02484,128.27867,-0.00062,-107.30307,124.53304,-0.00153,105.25262,-13.23329,-15.32996,-0.00024,-21.48113,8.49151,-0.00608,-5.86737,-10.78115,12.48953,-27.71185,-14.6089,7.63015,2.45803,5.7693,9.98332
1347,-3.85469,0.0,0.0,-6.55668,0.0,0.0,-19.36773,-9.69505,18.00896,10.7072,2.43385,-19.26583,-18.68165,-4.79555,2e-05,-3.82249,0.14407,-2e-05,28.38558,19.42344,19.37127,3.85839,2.61276,-17.18614,20.75889,17.51855,10.09477,45.10876,-1.03656,44.21676,128.11256,0.00067,-107.72543,124.55994,-0.00043,109.05394,-12.75956,-15.18497,-8e-05,-20.97321,9.64987,0.01479,-5.78509,-10.77062,12.4335,-27.63137,-14.57864,7.5814,2.50833,5.8793,10.2016
1348,-4.69975,-0.0,-0.0,-6.85244,0.0,0.0,-19.09249,-9.90586,18.44207,10.84326,2.50957,-20.05167,-18.53257,-4.91766,-0.00031,-3.81853,0.01937,-3e-05,28.40062,19.68843,18.95504,4.07798,2.76501,-17.26827,20.71286,17.57496,10.41407,45.32528,-1.03753,44.45665,128.04271,0.00134,-107.88629,124.51503,-1e-05,112.36534,-12.01215,-15.12362,-0.00118,-20.40362,10.83265,0.02552,-5.87958,-10.71844,12.30224,-27.72738,-14.48222,7.47781,2.67178,6.08791,10.48438
1349,-5.45873,0.0,0.0,-7.46129,0.0,0.0,-18.77682,-10.14473,18.99901,10.95642,2.54374,-20.60363,-18.385,-5.09127,-0.0004,-3.83497,0.00262,-6e-05,28.41467,19.94499,18.51048,4.27549,2.88908,-17.1449,20.48916,17.64701,10.82455,45.5536,-1.03801,44.7355,128.15517,-0.00195,-107.38203,124.40591,-0.00403,112.6202,-11.52613,-15.23937,-0.00091,-20.85482,10.94037,0.04236,-6.03987,-10.74443,12.26072,-27.89222,-14.49115,7.42872,2.83015,6.28589,10.70561
1350,-5.52403,0.0,-0.0,-8.15664,0.0,0.0,-18.68405,-10.35126,19.40549,11.11504,2.45669,-20.99116,-18.35177,-5.1016,-0.00071,-3.86341,0.10638,-6e-05,28.437,20.00415,18.27664,4.29464,2.88484,-17.1279,20.15195,17.67621,11.20293,45.65687,-1.00149,45.00251,128.4425,-0.00657,-106.12894,124.27658,-0.00507,110.49688,-11.68899,-15.5826,0.00266,-22.4474,9.93151,0.05303,-6.09427,-10.96445,12.40025,-27.96109,-14.74638,7.47549,2.8601,6.3774,10.70517
1351,-4.86334,0.0,0.0,-8.68402,0.0,-0.0,-18.88768,-10.4504,19.40496,11.28142,2.30742,-21.21835,-18.49286,-4.83926,-0.00145,-3.87449,0.24597,2e-05,28.4692,19.85443,18.41226,4.1005,2.77717,-17.41093,19.84479,17.66655,11.4304,45.58366,-0.90509,45.18334,128.76363,-0.00575,-104.64306,124.18439,-0.00137,108.92683,-12.36543,-16.06681,0.00449,-23.96984,8.98021,0.02738,-5.99644,-11.31501,12.60994,-27.88769,-15.14836,7.53789,2.74657,6.36247,10.48819
1352,-4.20091,-0.0,-0.0,-8.93387,-0.0,-0.0,-19.0971,-10.48234,19.14902,11.33245,2.24874,-21.35408,-18.70638,-4.48879,-0.00118,-3.84474,0.32609,3e-05,28.46622,19.67248,18.7664,3.83849,2.65954,-17.80394,19.7169,17.65368,11.47236,45.45152,-0.7629,45.22971,128.93195,-0.00197,-103.79127,124.15609,0.00049,109.45109,-13.06002,-16.51035,0.00171,-24.20844,9.03992,0.01248,-5.84458,-11.55853,12.70786,-27.75572,-15.4101,7.53603,2.59205,6.2959,10.27235
1353,-4.17036,-0.0,-0.0,-8.82731,0.0,-0.0,-19.03368,-10.50933,18.98769,11.12434,2.4079,-21.46731,-18.79678,-4.34208,-0.00055,-3.7715,0.30471,-8e-05,28.39125,19.6256,19.04381,3.72173,2.59069,-18.01422,19.79329,17.65418,11.41923,45.41491,-0.62161,45.16205,128.89287,-0.00106,-103.9361,124.16756,4e-05,110.96889,-13.37004,-16.76982,-0.00076,-23.05053,9.81016,0.01601,-5.6999,-11.5066,12.67003,-27.60761,-15.34809,7.52046,2.52477,6.21312,10.26319
1354,-4.7052,-0.0,-0.0,-8.41897,0.0,-0.0,-18.75112,-10.55527,19.03546,10.58934,2.75577,-21.54582,-18.67593,-4.48518,-0.00073,-3.66013,0.21316,-0.00014,28.27158,19.73751,19.14208,3.83588,2.57151,-17.97772,19.91731,17.675,11.44724,45.50766,-0.52612,45.05975,128.77596,-0.00095,-104.44934,124.17356,-0.00068,111.58989,-13.25473,-16.78182,0.00013,-21.25119,10.37843,0.00561,-5.53858,-11.17846,12.61734,-27.41573,-15.02435,7.59757,2.59616,6.12951,10.45241
1355,-5.3374,0.0,0.0,-8.05826,0.0,0.0,-18.4857,-10.64286,19.15623,9.82825,3.06972,-21.59452,-18.45746,-4.75151,-0.00053,-3.52822,0.14854,-1e-05,28.18027,19.89728,19.18027,4.07136,2.55342,-17.81965,19.90992,17.7006,11.64119,45.62998,-0.50921,44.99871,128.74272,-0.00123,-104.41526,124.16302,-0.00096,110.53183,-12.99233,-16.55915,0.00111,-19.56687,10.2609,-0.00757,-5.38403,-10.76904,12.63398,-27.21995,-14.65044,7.77094,2.75195,6.05833,10.67397
1356,-5.66705,0.0,0.0,-8.04733,0.0,-0.0,-18.4035,-10.67742,19.2142,9.07303,3.09726,-21.66044,-18.34671,-4.9302,3e-05,-3.42943,0.1977,8e-05,28.19554,19.96911,19.24343,4.25606,2.48665,-17.7176,19.78445,17.68362,11.86859,45.66891,-0.59094,45.01345,128.82019,-0.00213,-103.61237,124.15952,-0.00032,108.59999,-12.97582,-16.17902,-0.00095,-18.45271,9.6623,-0.00427,-5.32431,-10.52078,12.69476,-27.13313,-14.44218,7.92357,2.8909,6.01444,10.77892
1357,-5.51473,-0.0,-0.0,-8.29049,0.0,0.0,-18.50977,-10.53685,19.19515,8.54121,2.80966,-21.71459,-18.4595,-4.92251,-0.0003,-3.43298,0.33449,-7e-05,28.33569,19.92054,19.33008,4.30561,2.39549,-17.82903,19.72085,17.61722,11.92,45.61718,-0.74097,45.09992,128.91451,-0.00154,-102.62021,124.16952,0.00031,107.28229,-13.38577,-15.75073,-0.00326,-18.39492,9.12765,0.00253,-5.38753,-10.55593,12.74703,-27.19696,-14.4939,7.95935,2.93453,6.00539,10.74037
1358,-4.973,-0.0,-0.0,-8.51058,0.0,-0.0,-18.70679,-10.30589,19.14855,8.30879,2.43002,-21.64566,-18.73713,-4.75826,-0.00094,-3.55179,0.44052,-6e-05,28.52905,19.82371,19.48226,4.25195,2.34843,-18.1945,19.82321,17.558,11.76344,45.55239,-0.87305,45.22231,128.96317,-0.0003,-102.1637,124.17231,0.00086,107.58679,-13.93464,-15.4437,-0.00242,-19.6135,9.15494,-0.00866,-5.49143,-10.77684,12.7777,-27.32064,-14.71019,7.90342,2.87469,6.01479,10.61907
1359,-4.41252,0.0,0.0,-8.62663,0.0,-0.0,-18.91657,-10.0662,19.10321,8.2912,2.21491,-21.40251,-19.01716,-4.58043,-0.00068,-3.71491,0.44232,0.0001,28.70823,19.7596,19.68688,4.1942,2.37009,-18.70084,19.99171,17.5298,11.58664,45.52967,-0.93283,45.3429,129.00887,0.00066,-102.43237,124.16773,0.00128,109.35631,-14.13096,-15.46288,-0.00216,-21.37594,9.85448,-0.01837,-5.52935,-10.96502,12.76695,-27.37762,-14.88094,7.82088,2.7928,6.02982,10.44677
1360,-4.17533,0.0,0.0,-8.73774,0.0,-0.0,-19.09797,-9.74322,19.06928,8.35294,2.26619,-21.09087,-19.20105,-4.53038,-0.00011,-3.83052,0.38485,9e-05,28.87264,19.75732,19.82004,4.18759,2.42993,-19.17355,20.08195,17.48082,11.56457,45.5177,-0.95438,45.43996,129.09941,0.00108,-103.07135,124.20034,0.00168,111.23706,-13.84813,-15.84643,-0.00393,-22.54231,10.72352,-0.00692,-5.47684,-10.98385,12.66957,-27.33199,-14.86283,7.72183,2.77131,6.06371,10.21267
1361,-4.17848,-0.0,0.0,-8.79719,0.0,-0.0,-19.21646,-9.36386,19.03945,8.41826,2.49194,-20.8797,-19.3388,-4.58545,-1e-05,-3.85841,0.36588,4e-05,29.01399,19.78471,19.88409,4.15379,2.47484,-19.51622,20.10287,17.37088,11.65589,45.43433,-0.9878,45.47351,129.18987,0.00043,-103.73642,124.30553,0.00293,112.00742,-13.39688,-16.35815,-0.00295,-22.7549,11.05669,0.00214,-5.39396,-10.86881,12.4921,-27.24683,-14.6912,7.59886,2.77417,6.10351,9.96507
1362,-4.1038,-0.0,-0.0,-8.6323,0.0,-0.0,-19.26393,-9.12712,18.99116,8.48704,2.71392,-20.83354,-19.51908,-4.62136,-0.00023,-3.81482,0.42994,8e-05,29.07594,19.79639,20.03164,3.97708,2.46654,-19.74207,20.1675,17.24198,11.70081,45.26508,-1.02555,45.39575,129.20474,-0.00068,-104.37782,124.4422,0.00274,112.08428,-13.05245,-16.70666,-2e-05,-22.47288,10.77539,0.0008,-5.34063,-10.74167,12.30115,-27.19072,-14.50338,7.46786,2.69814,6.09937,9.81431
1363,-3.91668,0.0,-0.0,-8.3666,-0.0,-0.0,-19.23919,-9.20978,18.97743,8.5991,2.84731,-20.89357,-19.73373,-4.62197,-0.00028,-3.73612,0.53086,0.0001,29.03741,19.81205,20.27742,3.68674,2.42832,-19.86701,20.3242,17.157,11.62922,45.11459,-1.04189,45.23075,129.14447,-0.00114,-104.98309,124.52396,0.00199,112.92973,-12.80204,-16.78205,0.00167,-22.13599,10.57968,0.00051,-5.33081,-10.67749,12.14101,-27.18261,-14.38525,7.34171,2.53295,6.04502,9.8151
1364,-3.84304,0.0,0.0,-8.37329,0.0,0.0,-19.13537,-9.5996,19.1004,8.75939,2.93733,-20.96013,-19.89958,-4.70528,-0.00015,-3.6578,0.58413,2e-05,28.96243,19.91442,20.45547,3.4571,2.4366,-19.8681,20.51735,17.12563,11.48817,45.09263,-1.05079,45.08448,129.07765,-0.00079,-105.33866,124.51437,0.00305,115.26349,-12.60728,-16.65917,0.00169,-21.82791,11.1396,0.00396,-5.36295,-10.65305,11.99549,-27.21944,-14.30933,7.21409,2.39052,5.99902,9.92028
1365,-4.0002,0.0,0.0,-8.73199,-0.0,-0.0,-18.99452,-10.04822,19.31546,8.90322,3.01185,-20.98014,-19.96488,-4.95215,-0.00017,-3.6023,0.56582,-2e-05,28.93046,20.14862,20.46624,3.41304,2.53627,-19.7528,20.67263,17.15015,11.36019,45.19352,-1.08633,45.04274,129.05006,-0.0005,-105.27512,124.45901,0.00283,118.3982,-12.57566,-16.50494,0.00097,-21.51759,12.34564,0.00747,-5.45492,-10.57918,11.80079,-27.31363,-14.16952,7.05923,2.37233,6.00022,10.04418
1366,-4.31578,0.0,0.0,-9.2123,0.0,-0.0,-18.91385,-10.25917,19.4624,9.01504,3.01662,-21.03369,-19.97182,-5.29084,0.0,-3.56382,0.54677,3e-05,28.98089,20.43588,20.33847,3.4927,2.68144,-19.57925,20.79655,17.25689,11.283,45.31307,-1.1523,45.06863,129.02637,-0.00027,-104.95969,124.43299,0.00145,120.70068,-12.71788,-16.39106,0.00076,-21.20924,13.39677,0.0073,-5.63066,-10.38408,11.48455,-27.48578,-13.87268,6.83663,2.46387,6.00731,10.12
1367,-4.58227,0.0,-0.0,-9.68356,0.0,-0.0,-18.97116,-10.17106,19.49382,9.17917,2.93594,-21.22419,-20.02682,-5.55455,0.00028,-3.52194,0.59282,7e-05,29.11706,20.62588,20.13249,3.52497,2.78715,-19.44939,20.97723,17.41273,11.19671,45.33492,-1.19829,45.02546,128.93559,7e-05,-104.6535,124.46776,0.00246,120.77937,-12.83713,-16.17812,0.00127,-20.82978,13.53856,0.00252,-5.8707,-10.10328,11.05752,-27.71928,-13.45564,6.54279,2.566,5.95463,10.11346
1368,-4.49162,0.0,-0.0,-9.95308,-0.0,-0.0,-19.20256,-9.92187,19.3739,9.3647,2.81771,-21.40782,-20.19744,-5.60337,-9e-05,-3.46477,0.6756,6e-05,29.28897,20.65058,20.03037,3.39923,2.8275,-19.53255,21.25349,17.51283,11.02185,45.21212,-1.15965,44.84051,128.76692,0.00042,-104.37864,124.53158,0.0029,119.17373,-12.813,-15.79002,0.00173,-20.14359,12.91446,-0.00119,-6.08509,-9.87205,10.66072,-27.93014,-13.09559,6.25852,2.58973,5.84838,10.012
1369,-3.88428,-0.0,0.0,-9.57094,-0.0,-0.0,-19.61795,-9.58313,18.9062,9.35464,2.65366,-21.30474,-20.45563,-5.41168,-0.00078,-3.38264,0.73158,0.0,29.41865,20.58312,20.33115,3.13903,2.84984,-19.94099,21.53348,17.49737,10.77474,45.00241,-1.06465,44.60492,128.58403,0.00054,-104.03053,124.58406,0.00085,118.05585,-12.76035,-15.44806,0.00108,-19.07199,12.47511,0.00478,-6.16881,-9.79963,10.43114,-28.01696,-12.9442,6.07069,2.52263,5.76313,9.82273
1370,-2.9559,-0.0,-0.0,-8.35981,0.0,-0.0,-20.15154,-9.15684,18.00378,9.03873,2.42595,-20.92628,-20.73513,-5.08663,-0.00088,-3.27421,0.74832,-4e-05,29.4844,20.53856,21.11862,2.84831,2.89995,-20.52839,21.70208,17.39707,10.52578,44.79665,-1.05517,44.43996,128.44713,0.00017,-103.69743,124.62739,-0.00054,118.36893,-12.76547,-15.39577,0.00022,-18.00024,12.68792,0.00768,-6.1036,-9.88261,10.33584,-27.96264,-12.98627,5.94955,2.42149,5.75089,9.61023
1371,-2.10868,0.0,-0.0,-6.84394,0.0,0.0,-20.62906,-8.77372,16.97028,8.60655,2.24592,-20.61062,-20.99018,-4.8033,-0.0003,-3.17643,0.75154,-5e-05,29.52777,20.56596,22.05049,2.62496,2.97105,-20.97447,21.75501,17.27246,10.31279,44.62931,-1.22412,44.33943,128.36168,-0.00027,-103.64507,124.68719,0.0003,118.85393,-12.69062,-15.56409,-0.00019,-17.41422,12.9754,0.00189,-5.97713,-10.04663,10.24152,-27.85397,-13.10389,5.79835,2.34315,5.79483,9.48424
1372,-1.7484,0.0,0.0,-5.97729,0.0,-0.0,-20.83899,-8.6927,16.3342,8.39826,2.24426,-20.66965,-21.17842,-4.70646,0.00025,-3.1491,0.75551,-4e-05,29.57949,20.64125,22.57641,2.51145,3.03652,-21.06226,21.77773,17.16701,10.14296,44.50583,-1.4884,44.23429,128.30516,-0.00024,-103.93388,124.76192,0.00162,118.32847,-12.42076,-15.68994,0.00033,-17.48926,12.73031,0.0028,-5.89464,-10.21167,10.12022,-27.79043,-13.21252,5.62138,2.29096,5.84837,9.49755
1373,-2.11192,0.0,-0.0,-6.37017,0.0,0.0,-20.68295,-9.03599,16.39505,8.59974,2.37522,-21.12053,-21.26223,-4.8335,0.00013,-3.21445,0.74906,2e-05,29.61789,20.73476,22.41599,2.48591,3.10226,-20.81468,21.82757,17.08925,10.01364,44.46622,-1.67982,44.12594,128.2757,0.00022,-104.38652,124.81418,0.00121,117.20743,-12.09662,-15.7099,0.00078,-18.05956,12.11286,0.00734,-5.90245,-10.32522,10.06108,-27.8104,-13.29617,5.5224,2.22837,5.88978,9.60464
1374,-3.04702,-0.0,0.0,-7.65062,0.0,0.0,-20.28708,-9.63288,16.94162,9.05603,2.49872,-21.70807,-21.25577,-5.11065,-0.00027,-3.33556,0.71524,9e-05,29.60485,20.86573,21.80542,2.49862,3.1987,-20.41462,21.87665,17.03003,9.93831,44.55465,-1.71641,44.06804,128.29425,0.00047,-104.79308,124.82235,0.00014,116.52273,-11.95449,-15.80313,0.00057,-18.64488,11.65464,0.00479,-5.97281,-10.38391,10.07241,-27.88553,-13.35477,5.51051,2.13638,5.92816,9.73027
1375,-4.08183,-0.0,-0.0,-8.8875,0.0,-0.0,-19.91929,-10.22228,17.51978,9.45046,2.57266,-22.19951,-21.21959,-5.44474,-0.00035,-3.46009,0.66297,9e-05,29.53673,21.07177,21.18713,2.51847,3.33202,-20.00731,21.87056,17.00768,9.96218,44.7441,-1.66191,44.08132,128.35747,0.0,-104.87411,124.81936,-0.00075,116.55498,-12.04105,-16.01547,-3e-05,-18.8939,11.63719,-0.00147,-6.04153,-10.41375,10.0124,-27.95907,-13.36043,5.44279,2.04472,5.97177,9.82359
1376,-4.83189,-0.0,0.0,-9.6335,0.0,0.0,-19.79061,-10.55614,17.86183,9.64497,2.6191,-22.56059,-21.22117,-5.77837,-9e-05,-3.56713,0.63763,-3e-05,29.4684,21.32475,20.79959,2.53044,3.46589,-19.67387,21.81445,17.04855,10.08358,44.92115,-1.64401,44.12522,128.42097,-0.00039,-104.56122,124.85838,-0.00156,116.8328,-12.12385,-16.22641,-0.0016,-19.03561,11.97608,-0.00522,-6.07911,-10.43076,9.80108,-28.0056,-13.29861,5.23812,2.00262,6.01563,9.83992
1377,-5.24965,0.0,0.0,-10.11688,0.0,-0.0,-19.9388,-10.38394,17.91074,9.73935,2.61933,-22.79903,-21.31158,-6.02935,5e-05,-3.66612,0.67901,-0.00019,29.49275,21.5098,20.69033,2.52205,3.54762,-19.55369,21.7678,17.12799,10.19396,44.95975,-1.7266,44.11325,128.44951,-0.00019,-104.18283,124.95118,-0.00135,116.70766,-11.95757,-16.43845,-0.00324,-19.49104,12.23356,0.00228,-6.0925,-10.43275,9.55978,-28.02733,-13.21183,5.01119,2.03061,6.04552,9.74332
1378,-5.47721,-0.0,0.0,-10.54545,-0.0,0.0,-20.1986,-9.80495,17.71436,9.86342,2.58663,-22.89274,-21.47365,-6.10233,-0.0002,-3.7709,0.75525,-0.00018,29.63733,21.53998,20.84677,2.50902,3.55841,-19.6983,21.76415,17.18825,10.18968,44.84211,-1.8596,43.99256,128.44331,0.00023,-103.90972,125.06036,-0.00012,115.63724,-11.63311,-16.69243,-0.00305,-20.37786,11.82401,0.0195,-6.05875,-10.40964,9.41849,-27.99618,-13.13848,4.88767,2.10454,6.03798,9.58306
1379,-5.57259,-0.0,-0.0,-10.71914,-0.0,-0.0,-20.33697,-9.36868,17.43434,10.02892,2.63542,-22.92064,-21.6145,-6.01518,-0.00032,-3.89293,0.77428,8e-05,29.80129,21.46994,21.14132,2.52865,3.54185,-19.88214,21.78904,17.19067,10.08384,44.68688,-1.94705,43.82567,128.39911,0.00046,-103.65695,125.16233,0.00097,113.75864,-11.44741,-16.89248,-0.00129,-21.41152,10.80453,0.021,-5.94661,-10.36728,9.3427,-27.88279,-13.07134,4.83292,2.17133,5.97971,9.48596
1380,-5.46745,-0.0,-0.0,-10.42749,0.0,-0.0,-20.31872,-9.36249,17.2301,10.18636,2.82238,-23.02855,-21.68264,-5.89768,-0.00021,-4.04432,0.69627,0.00033,29.87178,21.42024,21.39602,2.57116,3.55257,-19.86613,21.83863,17.12907,9.94226,44.61414,-1.94528,43.71595,128.29604,-0.00022,-103.59383,125.283,0.00065,112.12511,-11.53344,-16.95717,-0.00017,-21.98629,10.07439,0.00729,-5.81076,-10.34781,9.26976,-27.74757,-13.02647,4.77206,2.1794,5.88638,9.50201
1381,-5.16241,0.0,-0.0,-9.88542,0.0,0.0,-20.31942,-9.40634,17.10328,10.32825,2.98873,-23.26423,-21.7393,-5.85179,-8e-05,-4.21532,0.60391,0.00023,29.85669,21.43479,21.58823,2.56776,3.58673,-19.69303,21.93011,17.03417,9.79897,44.63312,-1.88988,43.67064,128.14166,-0.00145,-104.00886,125.43093,-0.00142,111.88617,-11.81156,-16.93891,0.00021,-21.59605,10.33054,0.01077,-5.76304,-10.39682,9.24841,-27.70476,-13.06409,4.73327,2.1182,5.79474,9.54489
1382,-4.81446,0.0,-0.0,-9.45738,0.0,0.0,-20.45291,-9.11385,16.99502,10.452,2.93557,-23.59966,-21.85484,-5.89598,0.00011,-4.35585,0.6146,-3e-05,29.83641,21.48118,21.8059,2.48221,3.59981,-19.49412,22.04473,16.95444,9.67174,44.68776,-1.85598,43.62876,127.97911,-0.00131,-104.7727,125.54687,-0.00145,113.4174,-12.13361,-16.8995,0.00026,-20.30811,11.34002,0.02231,-5.83064,-10.5113,9.3248,-27.77995,-13.19835,4.76089,2.03789,5.74292,9.53996
1383,-4.61379,0.0,0.0,-9.14963,0.0,-0.0,-20.65023,-8.65921,16.95631,10.49983,2.70446,-24.01412,-22.00042,-6.00172,0.0002,-4.42198,0.73818,-4e-05,29.85341,21.50914,22.01798,2.36587,3.56646,-19.27805,22.12003,16.91466,9.58602,44.71547,-1.89228,43.58648,127.82774,0.00078,-105.27959,125.57034,0.00115,116.00391,-12.39246,-16.76354,-0.00018,-18.76561,12.31789,0.01445,-5.92812,-10.6465,9.41881,-27.88639,-13.35829,4.79702,2.00983,5.73415,9.51522
1384,-4.71553,0.0,-0.0,-8.82149,0.0,-0.0,-20.79886,-8.4148,17.05794,10.47267,2.50075,-24.43509,-22.1013,-6.10337,8e-05,-4.45176,0.87525,1e-05,29.91245,21.45578,22.06992,2.2932,3.49231,-19.10047,22.10047,16.92931,9.56639,44.65366,-1.96117,43.60007,127.68736,0.00283,-104.97009,125.51263,0.00152,118.40839,-12.56275,-16.42382,-0.00053,-17.65841,12.69592,-0.00041,-5.96454,-10.74755,9.40384,-27.93228,-13.4465,4.74415,2.05357,5.71478,9.48755
1385,-5.15323,0.0,-0.0,-8.64579,-0.0,0.0,-20.85116,-8.46735,17.21754,10.51843,2.413,-24.70206,-22.14302,-6.11911,-4e-05,-4.55123,0.94458,-0.0,30.00937,21.29448,21.93888,2.28902,3.39741,-19.14444,21.97677,17.02069,9.6284,44.49489,-1.95923,43.67913,127.60971,0.00216,-103.9925,125.43271,-0.00042,119.95745,-12.63998,-15.99361,-0.00025,-17.11926,12.54708,-0.00478,-5.89534,-10.76001,9.2306,-27.86953,-13.39438,4.57709,2.11776,5.62354,9.4141
1386,-5.60903,-0.0,0.0,-8.72382,-0.0,0.0,-20.84131,-8.69172,17.2526,10.72917,2.39967,-24.66978,-22.16508,-6.02045,-8e-05,-4.77495,0.94615,1e-05,30.1027,21.09456,21.85177,2.33451,3.29668,-19.48535,21.80507,17.15633,9.77002,44.32677,-1.8399,43.76558,127.64897,0.00049,-103.14119,125.3935,0.0001,120.31886,-12.58043,-15.73255,-5e-05,-16.84484,12.25639,-0.00148,-5.70902,-10.6898,8.95871,-27.68501,-13.22931,4.34951,2.14263,5.45683,9.31186
1387,-5.6243,0.0,-0.0,-8.65917,0.0,0.0,-20.84557,-8.97453,17.10743,10.95565,2.439,-24.35687,-22.18325,-5.88961,-9e-05,-5.06005,0.90338,6e-05,30.14042,20.96801,21.9593,2.41763,3.20632,-19.94651,21.68481,17.22813,9.95603,44.25507,-1.69259,43.83936,127.73183,-0.00016,-102.96478,125.44648,0.00653,118.68126,-12.35849,-15.70058,-0.0003,-16.81902,11.94189,0.00666,-5.46108,-10.63648,8.72649,-27.43893,-13.09446,4.15267,2.1388,5.27873,9.26649
1388,-5.21253,0.0,-0.0,-8.12559,0.0,0.0,-20.87395,-9.25694,16.92473,10.98884,2.51071,-23.98248,-22.17189,-5.87598,-0.00018,-5.30715,0.81386,0.00011,30.12358,20.98967,22.04884,2.54954,3.18115,-20.24409,21.67034,17.16033,10.1141,44.32723,-1.65452,43.96364,127.71558,-0.00046,-103.20937,125.58096,0.01157,114.93465,-12.08697,-15.70909,-0.00042,-17.41834,11.53522,0.01493,-5.28454,-10.64802,8.64436,-27.26562,-13.07495,4.07139,2.17153,5.18427,9.31324
1389,-4.78912,0.0,-0.0,-7.35142,0.0,0.0,-20.87493,-9.53445,16.82864,10.83414,2.54943,-23.80142,-22.12136,-6.02784,-0.00031,-5.48001,0.68421,9e-05,30.08595,21.14653,21.89887,2.71555,3.26635,-20.2361,21.70563,16.98709,10.17789,44.52354,-1.76875,44.16251,127.58184,0.00024,-103.25972,125.69958,0.00717,111.22443,-11.95093,-15.58573,-0.00048,-18.62482,11.25707,0.01161,-5.28605,-10.6291,8.69178,-27.2642,-13.07485,4.12303,2.25992,5.21387,9.41661
1390,-4.61754,-0.0,-0.0,-6.82648,0.0,-0.0,-20.85582,-9.75889,16.7796,10.70921,2.51411,-23.90794,-22.07936,-6.22544,-0.00024,-5.60393,0.56551,-4e-05,30.07129,21.32712,21.65359,2.86429,3.41052,-20.03002,21.68273,16.80524,10.14946,44.74718,-1.96223,44.32163,127.44072,0.00043,-103.02394,125.72055,0.00291,110.23122,-11.90916,-15.35836,-0.00024,-19.72737,11.48567,0.00401,-5.45003,-10.51333,8.76272,-27.41619,-12.99358,4.23387,2.36554,5.3016,9.53098
1391,-4.79824,0.0,0.0,-6.93487,-0.0,0.0,-20.85638,-9.78753,16.72995,10.81439,2.42987,-24.21162,-22.09722,-6.35845,-0.00012,-5.71337,0.50476,-0.00016,30.12684,21.4332,21.52949,2.9761,3.52544,-19.83657,21.55383,16.70461,10.0907,44.88762,-2.133,44.31327,127.34925,-0.00113,-103.19293,125.67016,0.00251,111.99548,-11.67072,-15.23392,-0.00074,-20.17343,12.1788,0.00548,-5.66866,-10.38765,8.75892,-27.62415,-12.87562,4.27853,2.47094,5.35888,9.64056
1392,-5.35777,0.0,0.0,-7.64297,0.0,-0.0,-20.86793,-9.59355,16.73141,11.1271,2.36704,-24.53418,-22.15258,-6.45731,-9e-05,-5.826,0.48083,-0.00017,30.22976,21.47696,21.49555,3.07099,3.58485,-19.7627,21.35281,16.73614,10.06567,44.94805,-2.22304,44.18892,127.2651,-0.00288,-104.32465,125.63061,0.00096,114.36264,-11.09774,-15.38965,-0.00284,-20.21307,12.99484,0.00656,-5.8361,-10.3577,8.61434,-27.79305,-12.79466,4.15474,2.57491,5.35771,9.75641
1393,-5.97877,-0.0,-0.0,-8.3685,0.0,0.0,-20.89662,-9.36159,16.7949,11.44013,2.39725,-24.72921,-22.18763,-6.56815,-0.00012,-5.95188,0.43467,-6e-05,30.26506,21.49745,21.48533,3.13511,3.58982,-19.79019,21.11268,16.89709,10.12836,45.00698,-2.22389,44.13479,127.19219,-0.0019,-105.98603,125.64248,-0.00086,116.31693,-10.36883,-15.75922,-0.00305,-20.34517,13.91299,0.00381,-5.90955,-10.40804,8.32148,-27.87851,-12.73362,3.86151,2.62882,5.29191,9.86452
1394,-6.10418,0.0,-0.0,-8.45927,-0.0,-0.0,-21.00105,-9.26639,16.77493,11.58273,2.53407,-24.74527,-22.19154,-6.62169,-9e-05,-6.10726,0.34167,0.0001,30.15232,21.47761,21.60488,3.13542,3.5245,-19.87686,20.79945,17.14311,10.31573,45.07816,-2.15933,44.23927,127.2216,-0.00016,-107.18929,125.68288,-0.00103,118.24191,-9.75375,-16.0626,-0.00046,-20.61089,14.9315,0.00544,-5.90541,-10.43615,7.96391,-27.88543,-12.62809,3.51645,2.58192,5.14841,9.925
1395,-5.54568,-0.0,0.0,-7.80388,0.0,-0.0,-21.18753,-9.34575,16.49743,11.53198,2.73223,-24.61505,-22.18364,-6.52513,-1e-05,-6.29907,0.21787,0.00022,29.94306,21.41264,21.9275,3.10622,3.40873,-19.97181,20.37152,17.42772,10.59251,45.12328,-2.07812,44.40261,127.37191,-0.00124,-107.27562,125.7158,0.00037,119.29276,-9.49812,-16.02342,4e-05,-20.73122,15.41564,0.00811,-5.85412,-10.3725,7.69344,-27.8349,-12.46951,3.28813,2.48411,4.95972,9.94815
