PaulMeinheit/Bachelor_Muay_Thai/processed_Data/E1/roundhouse/sliced/JointAngles/sliced0.csv
Unnamed: 0_level_0,L_MTP_ANGLE,L_MTP_ANGLE,L_MTP_ANGLE,R_MTP_ANGLE,R_MTP_ANGLE,R_MTP_ANGLE,L_ANKLE_ANGLE,L_ANKLE_ANGLE,L_ANKLE_ANGLE,R_ANKLE_ANGLE,R_ANKLE_ANGLE,R_ANKLE_ANGLE,L_KNEE_ANGLE,L_KNEE_ANGLE,L_KNEE_ANGLE,R_KNEE_ANGLE,R_KNEE_ANGLE,R_KNEE_ANGLE,L_HIP_ANGLE,L_HIP_ANGLE,L_HIP_ANGLE,R_HIP_ANGLE,R_HIP_ANGLE,R_HIP_ANGLE,L_SHOULDER_ANGLE,L_SHOULDER_ANGLE,L_SHOULDER_ANGLE,R_SHOULDER_ANGLE,R_SHOULDER_ANGLE,R_SHOULDER_ANGLE,L_ELBOW_ANGLE,L_ELBOW_ANGLE,L_ELBOW_ANGLE,R_ELBOW_ANGLE,R_ELBOW_ANGLE,R_ELBOW_ANGLE,L_WRIST_ANGLE,L_WRIST_ANGLE,L_WRIST_ANGLE,R_WRIST_ANGLE,R_WRIST_ANGLE,R_WRIST_ANGLE,NECK_ANGLE,NECK_ANGLE,NECK_ANGLE,NECK_ANGLE_SHADOW,NECK_ANGLE_SHADOW,NECK_ANGLE_SHADOW,Trunk_Joint_Angle,Trunk_Joint_Angle,Trunk_Joint_Angle
ITEM,X,Y,Z,X,Y,Z,X,Y,Z,X,Y,Z,X,Y,Z,X,Y,Z,X,Y,Z,X,Y,Z,X,Y,Z,X,Y,Z,X,Y,Z,X,Y,Z,X,Y,Z,X,Y,Z,X,Y,Z,X,Y,Z,X,Y,Z
445,-3.00336,0.0,0.0,-4.33429,0.0,0.0,-4.04506,-5.92345,22.97464,13.13924,1.17968,-20.36928,-19.30348,-3.89206,0.00037,-5.60744,0.04784,0.00014,27.76984,14.29669,11.88473,-0.72477,7.95863,-17.19112,-4.4123,12.65928,4.64644,2.62123,-12.91724,23.65173,104.36241,0.0001,-92.62711,92.64268,-0.00078,106.5131,-16.72335,-2.04169,0.00024,-16.87583,-4.50485,0.00169,1.2751,-7.87576,9.8695,-20.44472,-10.95177,6.27367,4.91443,1.70328,9.89496
446,-2.93928,0.0,-0.0,-4.42881,0.0,-0.0,-3.95786,-5.71182,23.02839,13.26397,1.19192,-20.21658,-19.55096,-4.02848,0.00015,-5.71766,-0.03795,-1e-05,28.04752,14.38659,11.81219,-0.50128,7.98557,-17.30272,-4.32716,12.73031,4.50863,2.48324,-12.88258,23.66053,104.26505,-8e-05,-92.64708,92.63438,-0.00055,106.07281,-17.12656,-2.11842,-0.00162,-16.85934,-4.5121,0.00123,1.21051,-8.07409,9.93215,-20.52108,-11.15898,6.25758,5.00181,1.758,9.83908
447,-2.97215,0.0,0.0,-4.12067,0.0,0.0,-3.93399,-5.52105,22.9104,13.18506,1.13893,-19.94548,-19.807,-4.11041,-0.00019,-5.73722,-0.11015,-0.0001,28.16293,14.48084,11.92511,-0.46353,7.98979,-17.55215,-4.17731,12.82373,4.37069,2.32499,-12.87633,23.66675,104.16469,6e-05,-92.83573,92.70263,-0.00082,106.04887,-17.31343,-2.38395,-0.00171,-16.64244,-4.38188,-0.00051,1.28784,-8.28556,10.26249,-20.44563,-11.47649,6.4875,4.95281,1.78588,9.77463
448,-3.32431,0.0,-0.0,-3.79093,-0.0,-0.0,-3.83626,-5.3515,22.7117,13.05481,1.16807,-19.65171,-20.07301,-4.16917,-5e-05,-5.71363,-0.13896,-7e-05,28.18452,14.59607,12.08513,-0.53806,7.9844,-17.83067,-4.02876,12.9012,4.23337,2.20239,-12.84292,23.68526,104.13868,0.00108,-93.39777,92.72775,-0.00115,106.22292,-17.44945,-3.07902,0.00071,-16.22819,-4.50993,-0.00342,1.56028,-8.36812,10.77549,-20.15689,-11.74107,6.93768,4.83154,1.80719,9.69768
449,-3.9876,0.0,0.0,-3.74988,-0.0,0.0,-3.5747,-5.21279,22.68633,13.02371,1.27884,-19.51297,-20.34515,-4.2683,0.00029,-5.6812,-0.09947,2e-05,28.23569,14.72333,12.03469,-0.61564,7.99304,-17.94838,-3.92683,12.90976,4.10081,2.13967,-12.78888,23.7181,104.19699,0.0018,-94.3554,92.65247,-0.00128,106.19976,-17.71226,-4.09191,0.00368,-15.89529,-5.0187,-0.00299,1.93817,-8.28928,11.19898,-19.75307,-11.82279,7.36516,4.723,1.86656,9.60614
450,-4.52271,0.0,0.0,-3.83387,0.0,-0.0,-3.26797,-5.12898,22.82967,13.03736,1.39429,-19.55866,-20.60606,-4.38132,0.00025,-5.6331,-0.01366,6e-05,28.32301,14.82783,11.79758,-0.6925,8.01682,-17.8864,-3.88167,12.86782,3.97857,2.08326,-12.76853,23.72174,104.27541,0.00073,-95.34538,92.54987,-0.00049,105.93752,-18.09687,-5.00065,0.00299,-15.8515,-5.5958,-6e-05,2.25052,-8.17612,11.33363,-19.4254,-11.76687,7.53438,4.62399,1.9706,9.51518
451,-4.50044,0.0,-0.0,-3.72273,0.0,0.0,-3.10685,-5.09307,22.88998,12.95452,1.49668,-19.67908,-20.83664,-4.44074,-0.0001,-5.57258,0.05424,2e-05,28.36348,14.90324,11.64791,-0.80924,8.04205,-17.75257,-3.91286,12.86395,3.88646,1.97689,-12.81329,23.65989,104.35486,-0.00126,-95.84019,92.49545,0.00064,105.48843,-18.42432,-5.46443,0.00013,-15.90543,-5.93013,0.00129,2.4064,-8.14808,11.21369,-19.27326,-11.69696,7.43227,4.48538,2.07607,9.46578
452,-4.00838,0.0,0.0,-3.43067,0.0,-0.0,-3.14152,-5.03294,22.72495,12.76751,1.61947,-19.77129,-21.04714,-4.44584,-0.00035,-5.53257,0.05524,-1e-05,28.36184,14.97429,11.72884,-0.92454,8.06402,-17.63067,-4.04168,12.92899,3.86348,1.85739,-12.91262,23.55524,104.49097,-0.00288,-95.70233,92.43784,0.00046,104.85078,-18.55692,-5.50212,-0.00058,-15.75473,-5.95166,0.00201,2.44849,-8.19951,10.95956,-19.24726,-11.65179,7.17418,4.31874,2.14729,9.47017
453,-3.49144,0.0,0.0,-3.29196,0.0,-0.0,-3.24202,-4.92999,22.47547,12.61717,1.7559,-19.78806,-21.27029,-4.45504,-0.00033,-5.54424,-0.00692,5e-05,28.4396,15.04853,11.91334,-0.92792,8.08102,-17.57294,-4.23529,12.97664,3.94125,1.79281,-13.02774,23.46372,104.69534,-0.00246,-95.42062,92.30289,-0.0003,104.27359,-18.56008,-5.37719,0.00044,-15.46251,-5.63714,0.00101,2.49153,-8.27118,10.67059,-19.22299,-11.61261,6.87584,4.21043,2.1908,9.4724
454,-3.30417,0.0,0.0,-3.583,0.0,0.0,-3.20372,-4.92201,22.41329,12.64755,1.82006,-19.7698,-21.51705,-4.52667,-8e-05,-5.6075,-0.07955,8e-05,28.67332,15.11215,11.992,-0.76727,8.07842,-17.58016,-4.42742,12.91405,4.09968,1.74887,-13.13054,23.42914,104.91395,-0.00048,-95.61131,92.15814,-0.00094,104.2728,-18.52056,-5.32085,0.00088,-15.40716,-4.89402,-0.00516,2.66185,-8.31669,10.49547,-19.06391,-11.59076,6.69431,4.23324,2.22933,9.41889
455,-3.50283,0.0,0.0,-4.21596,0.0,0.0,-2.9231,-5.10001,22.62923,12.87948,1.73163,-19.81061,-21.77734,-4.68252,0.00022,-5.69711,-0.09835,2e-05,28.99035,15.17245,11.90851,-0.52488,8.04389,-17.57654,-4.58461,12.75705,4.25391,1.59607,-13.25084,23.45447,105.13578,0.00085,-96.34277,92.15136,-0.00293,105.08456,-18.3247,-5.43876,-0.00099,-15.84336,-3.84571,-0.01068,3.01192,-8.2957,10.55535,-18.7096,-11.59319,6.75842,4.3589,2.27326,9.34302
456,-3.92852,0.0,0.0,-4.84168,0.0,0.0,-2.48156,-5.30804,22.92898,13.2121,1.55754,-19.9578,-22.06358,-4.88658,0.00032,-5.79691,-0.04319,-8e-05,29.25658,15.26357,11.80235,-0.34124,7.9866,-17.46636,-4.68471,12.6111,4.31027,1.26799,-13.43238,23.49652,105.39803,0.00087,-97.21583,92.30991,-0.00317,106.15146,-17.90178,-5.80967,-0.0038,-16.62237,-3.02394,-0.00544,3.45705,-8.20997,10.7535,-18.24906,-11.58609,6.97678,4.47099,2.31524,9.32142
457,-4.401,0.0,-0.0,-5.21717,-0.0,0.0,-2.03461,-5.34469,23.07646,13.51015,1.47287,-20.2052,-22.40675,-5.06418,5e-05,-5.9091,0.05059,-0.00011,29.41064,15.40033,11.82895,-0.28464,7.92392,-17.18983,-4.65436,12.57567,4.24626,0.86947,-13.6342,23.51935,105.66784,0.0001,-98.03347,92.49028,-0.00069,106.6247,-17.55305,-6.4848,-0.00172,-17.31641,-2.89789,0.00262,3.87829,-8.14174,10.8529,-17.81807,-11.55908,7.09584,4.46246,2.33386,9.36541
458,-4.75746,0.0,0.0,-5.2869,0.0,0.0,-1.6933,-5.21127,23.02291,13.66454,1.54798,-20.48368,-22.79388,-5.17036,-0.00034,-6.02272,0.13653,-7e-05,29.47545,15.55141,12.00769,-0.32529,7.85734,-16.79879,-4.41362,12.66792,4.1139,0.56646,-13.75881,23.5371,105.83346,-0.00105,-98.89754,92.55171,9e-05,106.29818,-17.69562,-7.32755,0.00457,-17.63712,-3.39907,0.00343,4.23757,-8.19061,10.74432,-17.46748,-11.56474,6.97547,4.30888,2.30855,9.41323
459,-4.85705,0.0,-0.0,-5.09227,0.0,0.0,-1.50341,-5.04094,22.89884,13.65699,1.69986,-20.64256,-23.14888,-5.24121,-0.00036,-6.10902,0.18533,-1e-05,29.49099,15.66027,12.22228,-0.40128,7.76885,-16.48255,-4.00149,12.80299,3.983,0.39252,-13.78849,23.56493,105.86693,-0.0016,-99.6436,92.50856,-7e-05,105.67164,-18.36551,-8.02659,0.00532,-17.72343,-4.14774,0.00184,4.52349,-8.38093,10.52001,-17.20609,-11.65942,6.69306,4.06598,2.23881,9.41298
460,-4.68257,0.0,0.0,-4.82644,0.0,-0.0,-1.44223,-4.92807,22.82008,13.5943,1.84771,-20.55638,-23.41682,-5.33208,-0.00015,-6.16038,0.18005,5e-05,29.47792,15.68726,12.35662,-0.48335,7.64533,-16.43101,-3.59633,12.85298,3.93462,0.26263,-13.80557,23.57702,105.90053,-0.00176,-99.82616,92.44328,0.00094,105.48045,-19.20335,-8.34081,-0.00027,-17.82854,-4.79856,0.00042,4.70578,-8.63008,10.32421,-17.05139,-11.81911,6.41507,3.80712,2.14874,9.34841
461,-4.37956,0.0,0.0,-4.82141,0.0,0.0,-1.43241,-4.858,22.75472,13.6189,1.97237,-20.26743,-23.63389,-5.43483,2e-05,-6.2127,0.13091,0.0001,29.45057,15.64894,12.42498,-0.57734,7.50241,-16.6415,-3.36131,12.76065,4.06238,0.16337,-13.8696,23.54838,106.07349,-0.00256,-99.37016,92.32706,0.001,105.90461,-19.80975,-8.24127,-0.00389,-17.77961,-5.14667,-0.00168,4.79454,-8.80552,10.21374,-16.98091,-11.94155,6.24496,3.56576,2.07631,9.21312
462,-4.1234,0.0,-0.0,-5.22657,-0.0,0.0,-1.40821,-4.72987,22.62842,13.76178,2.03571,-19.97515,-23.86952,-5.51452,0.00012,-6.30584,0.09381,6e-05,29.4279,15.61486,12.52469,-0.68448,7.37353,-16.90329,-3.30031,12.60349,4.37493,0.19543,-13.94922,23.48072,106.3856,-0.00197,-98.73799,92.03082,-0.00477,106.09368,-19.96926,-7.82643,-0.00191,-17.11033,-5.20353,-0.00121,4.84001,-8.84913,10.15665,-16.94119,-11.96111,6.17487,3.34197,2.04998,9.0293
463,-3.90486,0.0,-0.0,-5.69647,0.0,0.0,-1.37855,-4.49231,22.41222,13.88889,1.94506,-19.83697,-24.14842,-5.56091,0.0001,-6.42368,0.12676,-6e-05,29.43739,15.65143,12.73567,-0.77686,7.28421,-17.03116,-3.30932,12.53092,4.72029,0.40095,-13.98021,23.3942,106.75356,-0.00038,-98.36597,91.50038,-0.01189,105.37201,-19.66585,-7.20762,0.00269,-15.79571,-5.09554,0.00183,4.89079,-8.80998,10.14045,-16.888,-11.91882,6.17453,3.15355,2.0622,8.85782
464,-3.58281,0.0,0.0,-5.71403,-0.0,0.0,-1.38943,-4.24896,22.09675,13.85393,1.63641,-19.81738,-24.46228,-5.57237,-9e-05,-6.51708,0.21609,-0.00012,29.5245,15.7637,13.09238,-0.7909,7.23123,-17.03694,-3.31562,12.62121,4.91823,0.66171,-13.94672,23.34389,107.12881,-0.00029,-98.27359,90.84482,-0.00781,104.38608,-19.02653,-6.52167,0.00508,-14.52611,-4.95269,0.003,5.01503,-8.73677,10.22675,-16.75451,-11.88247,6.28323,3.05418,2.06928,8.75326
465,-3.16826,0.0,0.0,-5.17536,0.0,-0.0,-1.42399,-4.14601,21.72918,13.67892,1.21461,-19.79155,-24.79656,-5.5542,-0.0003,-6.58089,0.27903,-0.0001,29.69218,15.89451,13.57375,-0.68685,7.17499,-17.01962,-3.30093,12.80543,4.97549,0.81372,-13.88713,23.38801,107.50787,-0.00081,-98.32993,90.26228,0.00206,104.17599,-18.25953,-5.96378,0.00314,-14.03699,-4.94115,0.0023,5.26779,-8.63097,10.44917,-16.48414,-11.86572,6.53198,3.05068,2.02813,8.73262
466,-2.84578,0.0,0.0,-4.39498,-0.0,0.0,-1.38992,-4.18589,21.42911,13.49381,0.92763,-19.6987,-25.12873,-5.5487,-0.00024,-6.66154,0.24329,2e-05,29.85735,15.99792,14.08997,-0.51505,7.08604,-17.03733,-3.24018,12.95229,5.08164,0.78676,-13.83277,23.49967,107.88995,0.00047,-98.61469,89.90883,0.00451,104.85725,-17.58791,-5.70797,-0.0005,-14.30711,-5.12399,0.00122,5.59661,-8.51089,10.7267,-16.13381,-11.85584,6.8379,3.04603,1.937,8.76655
467,-2.71384,0.0,0.0,-3.73067,0.0,-0.0,-1.21944,-4.25129,21.26817,13.37854,0.92359,-19.5475,-25.44323,-5.60994,2e-05,-6.79663,0.10074,0.00022,29.94194,16.08616,14.52288,-0.36997,6.99524,-17.12334,-3.09597,13.00731,5.38366,0.60928,-13.78419,23.57547,108.27578,0.00296,-99.26893,89.78926,0.00145,105.62424,-17.14156,-5.8209,-0.00235,-14.63816,-5.36198,-0.00114,5.89902,-8.42504,10.96806,-15.81369,-11.86444,7.09698,2.9307,1.82797,8.77378
468,-2.667,0.0,0.0,-3.40203,0.0,0.0,-0.95064,-4.28962,21.23384,13.36138,1.14917,-19.42445,-25.7478,-5.74678,0.00027,-6.98065,-0.09985,0.00031,29.94963,16.18914,14.79299,-0.30615,6.95317,-17.22311,-2.86284,13.02549,5.84112,0.35718,-13.75382,23.57159,108.66859,0.00336,-100.10577,89.74328,-0.00079,105.77431,-16.89845,-6.25888,-0.00218,-14.54595,-5.44986,-0.00191,6.17418,-8.39892,11.2108,-15.52501,-11.92898,7.33484,2.68944,1.73181,8.68398
469,-2.52848,0.0,-0.0,-3.49328,-0.0,-0.0,-0.70385,-4.3286,21.33399,13.46896,1.49318,-19.45664,-26.0649,-5.93342,0.00045,-7.18844,-0.29178,0.00022,29.95776,16.32596,14.88045,-0.28857,6.96789,-17.1664,-2.56162,13.08683,6.30118,0.12487,-13.78276,23.57499,109.03461,0.00052,-100.60014,89.57882,-0.00126,105.48045,-16.77441,-6.82279,-0.00112,-14.2599,-5.207,-0.00166,6.49362,-8.42565,11.55887,-15.19056,-12.08109,7.65184,2.42287,1.67869,8.52895
470,-2.17184,0.0,0.0,-3.82677,0.0,-0.0,-0.59471,-4.37022,21.55509,13.65049,1.87243,-19.61603,-26.40663,-6.12296,0.00027,-7.3933,-0.42905,3e-05,30.05459,16.493,14.85157,-0.23376,7.00015,-16.92766,-2.19149,13.20466,6.64116,-0.02179,-13.89567,23.68337,109.29739,-0.00179,-100.38455,89.23325,9e-05,105.31091,-16.69568,-7.1658,0.00015,-14.20849,-4.5956,-0.00329,6.84733,-8.50623,12.01736,-14.81965,-12.32346,8.05256,2.26267,1.69618,8.3959
471,-1.61369,0.0,0.0,-3.98742,0.0,0.0,-0.64364,-4.42111,21.79327,13.76094,2.21031,-19.72255,-26.74993,-6.25192,-0.00025,-7.56837,-0.49757,-0.00013,30.25928,16.63255,14.82389,-0.10602,6.98739,-16.72465,-1.75182,13.32514,6.82994,-0.10219,-14.05379,23.86083,109.42727,-0.00123,-99.74686,88.8053,0.00119,105.47178,-16.57932,-7.08016,0.00128,-14.38718,-3.85215,-0.00275,7.13246,-8.64877,12.47759,-14.52124,-12.62391,8.43186,2.24727,1.7644,8.29897
472,-1.10696,0.0,-0.0,-3.85165,0.0,0.0,-0.75045,-4.50952,21.98436,13.75697,2.45,-19.71659,-27.06071,-6.32451,-0.00032,-7.71842,-0.5121,-0.00021,30.55113,16.68964,14.83014,0.10662,6.89125,-16.68647,-1.31301,13.40432,6.92058,-0.19774,-14.16408,23.96914,109.51144,0.00082,-99.43531,88.45277,0.00043,105.88792,-16.42511,-6.70687,0.00107,-14.41683,-3.32345,2e-05,7.28399,-8.80771,12.84171,-14.36246,-12.90442,8.71472,2.33488,1.80852,8.18303
473,-0.94495,0.0,0.0,-3.78508,-0.0,0.0,-0.77122,-4.61235,22.13991,13.7798,2.57439,-19.71633,-27.35536,-6.42734,0.00031,-7.88747,-0.51321,-0.00017,30.91274,16.70793,14.85008,0.4215,6.74167,-16.68056,-0.98191,13.45392,7.0241,-0.3438,-14.15405,23.91879,109.68366,0.00323,-99.83528,88.241,-0.00108,106.47079,-16.40351,-6.33071,-0.00074,-14.03984,-3.22204,-0.00132,7.33852,-8.88095,13.08989,-14.29976,-13.06293,8.92092,2.46866,1.765,8.03547
474,-1.11447,0.0,-0.0,-3.97355,-0.0,-0.0,-0.63594,-4.67294,22.19649,13.93647,2.59285,-19.78784,-27.69997,-6.5755,0.0007,-8.09914,-0.54734,-3e-05,31.2547,16.77523,14.98431,0.75118,6.6055,-16.58388,-0.78343,13.51088,7.23736,-0.47962,-14.03674,23.76335,110.00906,0.00289,-100.54098,88.08363,-0.00117,107.10943,-16.68506,-6.13033,-0.00159,-13.41502,-3.53945,-0.0046,7.35248,-8.81117,13.24648,-14.27056,-13.05511,9.09498,2.54154,1.63525,7.90591
475,-1.33604,-0.0,-0.0,-4.05177,-0.0,-0.0,-0.40817,-4.64746,22.03934,14.13999,2.54488,-19.82359,-28.13381,-6.66269,0.00015,-8.33036,-0.63985,0.00013,31.43194,16.89992,15.38338,0.92057,6.51308,-16.51669,-0.64538,13.60138,7.53933,-0.54392,-13.8772,23.65001,110.45631,-0.00121,-100.89571,87.85434,0.00022,107.73829,-17.27266,-6.16788,0.00011,-12.95971,-3.9769,-0.00377,7.32564,-8.64676,13.3617,-14.27646,-12.94421,9.26579,2.43696,1.47071,7.81792
476,-1.43164,0.0,0.0,-3.7003,0.0,0.0,-0.20722,-4.51857,21.70626,14.24781,2.50599,-19.69201,-28.62456,-6.62484,-0.00066,-8.55741,-0.7835,0.00022,31.41894,17.01972,16.01047,0.88972,6.43877,-16.66804,-0.50304,13.73526,7.80478,-0.56585,-13.72058,23.68624,110.94332,-0.00367,-100.77242,87.51157,0.00055,108.29779,-18.04108,-6.45087,0.00272,-12.98971,-4.13058,-0.00256,7.23889,-8.4728,13.50723,-14.3396,-12.8354,9.46872,2.18269,1.32387,7.74398
477,-1.45626,-0.0,-0.0,-3.09438,0.0,-0.0,-0.09498,-4.32736,21.36223,14.23997,2.55481,-19.42064,-29.11361,-6.50572,-0.00115,-8.78279,-0.94359,0.0002,31.37084,17.09081,16.67393,0.82195,6.34149,-17.0162,-0.34666,13.89352,7.9584,-0.60451,-13.58862,23.8535,111.3908,-0.0015,-100.62737,87.0951,-0.0008,108.6378,-18.78983,-6.91547,0.00297,-13.4833,-3.92244,-0.00326,7.08532,-8.32643,13.68938,-14.46947,-12.76552,9.69576,1.94023,1.21515,7.66729
478,-1.49295,0.0,0.0,-2.59965,0.0,0.0,-0.06242,-4.17255,21.11843,14.21324,2.73005,-19.19555,-29.576,-6.36681,-0.00124,-9.0251,-1.07295,4e-05,31.45807,17.12273,17.22663,0.88104,6.20693,-17.32278,-0.15104,14.03085,8.04986,-0.66279,-13.51043,24.03107,111.74711,0.00142,-100.87034,86.67533,-0.00073,108.83438,-19.31373,-7.39519,0.00063,-14.14669,-3.61869,-0.0019,6.87526,-8.21642,13.79996,-14.66331,-12.70339,9.84152,1.80435,1.13819,7.61077
479,-1.5458,0.0,-0.0,-2.48742,0.0,0.0,-0.03047,-4.18859,21.10113,14.29452,3.00548,-19.24615,-30.01465,-6.30086,-0.00041,-9.30962,-1.13121,-0.00022,31.68523,17.16806,17.53078,1.05682,6.06287,-17.29061,0.16213,14.12489,8.16685,-0.71535,-13.52342,24.11044,111.99063,0.00167,-101.41566,86.32675,0.00045,109.18229,-19.50211,-7.70767,-0.00078,-14.70807,-3.41487,0.00079,6.716,-8.17894,13.7511,-14.82263,-12.65077,9.80951,1.70369,1.09009,7.61435
480,-1.60322,-0.0,0.0,-2.81247,0.0,-0.0,0.09351,-4.4155,21.4241,14.5241,3.32398,-19.61283,-30.43301,-6.41299,0.00085,-9.63697,-1.1174,-0.00034,31.94315,17.2746,17.46487,1.24471,5.94769,-16.83351,0.63508,14.20345,8.34858,-0.75903,-13.643,24.09881,112.13792,0.0003,-101.8668,86.08713,-6e-05,109.61915,-19.3278,-7.77945,0.00052,-15.1175,-3.2197,0.00228,6.77432,-8.25155,13.60675,-14.77951,-12.66584,9.64599,1.5457,1.08345,7.68272
481,-1.62598,0.0,0.0,-3.24186,-0.0,-0.0,0.2748,-4.66929,21.90383,14.76309,3.6182,-20.02131,-30.83766,-6.6541,0.00101,-9.96139,-1.07417,-0.00021,32.18757,17.42732,17.16807,1.41683,5.85702,-16.23641,1.18678,14.30647,8.5794,-0.79629,-13.82606,24.08082,112.25511,-0.00085,-101.9854,85.9173,-0.00107,109.87758,-18.87214,-7.7037,0.00194,-15.46378,-2.84794,0.00255,7.0321,-8.40416,13.50282,-14.54092,-12.76998,9.49045,1.3697,1.12153,7.75542
482,-1.51329,0.0,-0.0,-3.37437,0.0,-0.0,0.38066,-4.7818,22.207,14.84017,3.73279,-20.21312,-31.23679,-6.85735,3e-05,-10.24717,-1.03047,-0.00014,32.44535,17.56808,16.96873,1.62452,5.74507,-15.81379,1.67839,14.44732,8.81626,-0.80935,-13.9907,24.10735,112.43633,-0.00114,-101.91038,85.73622,-0.0002,110.14077,-18.38236,-7.77634,0.00073,-15.88018,-2.25081,0.00089,7.2525,-8.54161,13.5125,-14.33144,-12.90131,9.44774,1.26614,1.16608,7.77068
483,-1.1752,-0.0,0.0,-3.25729,0.0,0.0,0.34264,-4.80876,22.25616,14.78166,3.48823,-20.21187,-31.62752,-6.95406,-0.0008,-10.52205,-0.99009,-0.00017,32.71551,17.65082,17.02789,1.89549,5.57412,-15.61013,2.05351,14.61404,9.03685,-0.77989,-14.08712,24.19469,112.72909,-0.00035,-101.93607,85.50049,0.0018,110.77435,-18.09735,-8.32021,-0.0009,-16.58689,-1.52317,-0.00311,7.2918,-8.60536,13.67578,-14.28732,-13.01998,9.57773,1.23865,1.14037,7.71928
484,-0.69453,0.0,-0.0,-3.23962,-0.0,-0.0,0.19787,-4.79189,22.21687,14.76253,2.9258,-20.12737,-31.99447,-7.02296,-0.00069,-10.84025,-0.97671,-4e-05,32.9655,17.65213,17.24076,2.20818,5.3357,-15.57757,2.36245,14.78088,9.2678,-0.72947,-14.11661,24.36209,113.07949,0.00097,-102.25279,85.23168,0.00208,111.66885,-18.05767,-9.3242,-0.00091,-17.61695,-0.80538,-0.00502,7.25489,-8.6456,14.05163,-14.30359,-13.19401,9.91736,1.23078,0.98157,7.60579
485,-0.34799,0.0,-0.0,-3.485,0.0,0.0,0.04423,-4.63451,22.26611,14.89842,2.31632,-20.00541,-32.32574,-7.17862,0.00015,-11.2325,-1.01433,0.00023,33.16959,17.56836,17.39364,2.52555,5.03275,-15.69657,2.67551,14.93339,9.52102,-0.72222,-14.09872,24.55387,113.38802,0.0016,-102.90029,84.99051,0.00043,112.38975,-18.23745,-10.45077,0.00076,-18.41035,-0.23413,-0.00346,7.26452,-8.72554,14.58764,-14.26509,-13.46293,10.39368,1.1944,0.69797,7.43312
486,-0.31319,0.0,-0.0,-3.83824,0.0,0.0,-0.03951,-4.3253,22.42163,15.17374,1.9126,-19.90022,-32.65078,-7.43901,0.00093,-11.70073,-1.08622,0.00036,33.33458,17.43578,17.38509,2.82171,4.68912,-15.89206,3.03146,15.10486,9.70867,-0.80268,-14.08473,24.62041,113.61072,0.00097,-103.6701,84.83456,-0.00105,112.65436,-18.74117,-11.38476,0.00331,-18.36472,0.0761,-0.00544,7.27384,-8.79319,15.03408,-14.23063,-13.68771,10.79044,1.08837,0.37842,7.23719
487,-0.45172,0.0,0.0,-4.07079,0.0,-0.0,-0.06929,-3.99841,22.4929,15.49088,1.79349,-19.86894,-33.04337,-7.68152,0.0007,-12.21187,-1.1555,0.00022,33.52124,17.34093,17.34829,3.10103,4.37923,-16.05334,3.44515,15.34508,9.70028,-0.94177,-14.17219,24.49476,113.77735,-0.00018,-104.10455,84.77573,-0.00129,112.71076,-19.65347,-11.98202,0.00307,-17.79249,0.23575,-0.01016,7.20788,-8.75833,15.16882,-14.28383,-13.70408,10.93111,0.89986,0.14508,7.08069
488,-0.48371,0.0,-0.0,-4.0713,0.0,0.0,-0.12497,-3.75264,22.28805,15.70714,1.87193,-19.88338,-33.53899,-7.75527,-0.00066,-12.6869,-1.19599,-6e-05,33.78349,17.36179,17.50738,3.37359,4.18055,-16.13528,3.91569,15.6412,9.48963,-1.07302,-14.40574,24.27333,113.92307,-0.00079,-103.83737,84.75869,-0.00023,113.25146,-20.74513,-12.18407,-0.00058,-17.48713,0.57924,-0.01266,7.1225,-8.63973,15.06424,-14.36619,-13.55585,10.87684,0.6691,0.05871,7.00934
489,-0.25829,0.0,0.0,-3.80148,0.0,-0.0,-0.2569,-3.57653,21.86027,15.69115,1.98511,-19.85204,-34.0723,-7.64388,-0.00148,-13.04494,-1.197,-0.0003,34.08617,17.48741,17.90771,3.62523,4.08218,-16.18215,4.42229,15.91672,9.23809,-1.1517,-14.68258,24.07073,114.04074,-0.00033,-102.86818,84.66331,0.00102,114.31866,-21.59233,-11.94452,-0.00252,-17.7321,1.08025,-0.00957,7.11622,-8.51348,14.99828,-14.3661,-13.41448,10.86198,0.443,0.05059,7.02646
490,0.16946,0.0,-0.0,-3.26515,0.0,-0.0,-0.4371,-3.43629,21.42709,15.45117,2.04962,-19.70896,-34.54481,-7.47943,-0.00081,-13.28885,-1.17706,-0.00029,34.36002,17.63068,18.3702,3.86017,3.98969,-16.28408,4.91173,16.1041,9.12841,-1.15832,-14.85353,23.94167,114.12745,-0.00022,-101.4641,84.36918,-0.00241,114.95838,-21.98982,-11.30673,-0.00028,-18.53153,1.2572,0.00337,7.19862,-8.38301,15.14353,-14.26187,-13.34566,11.04851,0.23704,-0.01382,7.08943
491,0.64184,0.0,0.0,-2.57386,0.0,0.0,-0.58212,-3.39081,21.12181,15.17977,2.18493,-19.44836,-34.92162,-7.38202,0.0001,-13.52139,-1.19314,7e-05,34.59512,17.7138,18.70215,4.12296,3.82423,-16.49832,5.29955,16.20036,9.21843,-1.10975,-14.89823,23.91533,114.23191,-0.0015,-99.95466,83.91164,-0.00814,114.52274,-22.03396,-10.53916,0.00201,-19.88792,0.91012,0.01655,7.29561,-8.21855,15.4613,-14.12719,-13.30752,11.41107,0.05345,-0.19434,7.11899
492,1.04158,0.0,-0.0,-1.98752,0.0,-0.0,-0.61772,-3.57997,20.9619,15.10176,2.5913,-19.15179,-35.22272,-7.3615,0.0003,-13.85176,-1.28284,0.00053,34.82855,17.72316,18.8382,4.4495,3.58373,-16.74639,5.53557,16.27919,9.42014,-1.07384,-14.91767,23.9481,114.40079,-0.00157,-98.74754,83.52616,-0.00671,113.49143,-21.86492,-10.07839,0.00041,-21.26422,0.39002,0.01406,7.33072,-8.07881,15.85918,-14.04963,-13.32114,11.8403,-0.0975,-0.43971,7.05736
493,1.28216,0.0,-0.0,-1.76849,0.0,0.0,-0.53497,-4.00242,20.90586,15.27709,3.2541,-18.91748,-35.47153,-7.37451,-3e-05,-14.29163,-1.40693,0.00055,35.08374,17.69903,18.84982,4.83562,3.30957,-16.89813,5.68882,16.44125,9.57574,-1.09343,-14.98012,23.90593,114.61917,0.0012,-98.34243,83.38892,-0.00198,112.90137,-21.5662,-10.28755,-0.0037,-21.84586,0.09966,0.00436,7.27275,-8.09828,16.28501,-14.07562,-13.49286,12.23663,-0.21111,-0.68317,6.93563
494,1.24974,0.0,-0.0,-1.95372,-0.0,-0.0,-0.39319,-4.39248,20.84465,15.57726,3.90199,-18.71925,-35.68298,-7.40282,-0.00036,-14.74849,-1.49587,0.00011,35.33735,17.6988,18.89824,5.23908,3.03954,-16.97732,5.90539,16.69717,9.59179,-1.12849,-15.05362,23.70362,114.83015,0.00315,-98.8268,83.38612,0.00083,113.33488,-21.29775,-11.14837,-0.00392,-21.58636,0.09,0.00012,7.06809,-8.33467,16.63322,-14.27291,-13.83848,12.47844,-0.31357,-0.90276,6.83502
495,0.97408,0.0,0.0,-2.39016,-0.0,0.0,-0.27526,-4.50905,20.7349,15.84443,4.30987,-18.50973,-35.85468,-7.49555,-0.00032,-15.11857,-1.51898,-0.00024,35.53942,17.76637,19.04587,5.60843,2.80369,-17.0652,6.24076,16.92581,9.5397,-1.15016,-15.08517,23.41304,114.98126,0.00185,-99.47063,83.3015,0.00344,114.50635,-21.2605,-12.15163,1e-05,-21.2651,0.20558,-0.0017,6.59099,-8.67102,16.74895,-14.77108,-14.19341,12.46209,-0.43375,-1.0918,6.78417
496,0.71842,0.0,0.0,-2.90065,-0.0,-0.0,-0.25186,-4.39448,20.65728,16.0072,4.52694,-18.37239,-35.96992,-7.70053,-0.00013,-15.37097,-1.49061,-0.00026,35.6821,17.89448,19.18222,5.93833,2.61344,-17.11645,6.58389,17.02513,9.59006,-1.21007,-15.08873,23.19303,115.06049,-0.0,-99.47325,83.1135,0.00402,115.78181,-21.44081,-12.71729,0.00139,-21.52582,0.41063,-0.00387,5.81169,-8.91757,16.65845,-15.58066,-14.3904,12.28341,-0.54792,-1.24949,6.73338
497,0.68694,-0.0,0.0,-3.33668,0.0,-0.0,-0.36168,-4.21945,20.62421,16.03932,4.73706,-18.39192,-36.03149,-7.95553,-6e-05,-15.53704,-1.43098,-0.00019,35.82226,18.0235,19.21998,6.27143,2.44167,-17.0568,6.80094,17.06002,9.82396,-1.33628,-15.1303,23.14056,115.09339,-0.00064,-98.95089,82.94919,0.00229,116.76553,-21.62701,-12.7227,0.00072,-22.19567,0.78343,-0.00295,4.96615,-8.9909,16.64348,-16.43429,-14.45328,12.24156,-0.60721,-1.39626,6.63276
498,0.84172,-0.0,0.0,-3.57081,0.0,-0.0,-0.59685,-4.0693,20.52343,15.89214,4.95601,-18.47293,-36.06865,-8.14167,-7e-05,-15.64206,-1.33426,-0.00016,36.00592,18.11443,19.20688,6.61825,2.26322,-16.93791,6.90957,17.18434,10.1316,-1.43133,-15.24339,23.24629,115.09163,-0.0007,-98.60321,82.83167,-0.00092,117.23126,-21.77493,-12.47249,0.00014,-22.68277,1.25392,0.00309,4.38395,-8.9547,16.91613,-16.99081,-14.51778,12.5142,-0.6269,-1.54381,6.5027
499,1.07197,0.0,-0.0,-3.49414,0.0,0.0,-0.91512,-3.91659,20.24534,15.51866,5.01038,-18.39004,-36.10732,-8.18643,-0.00011,-15.66442,-1.20547,-6e-05,36.2159,18.18711,19.25579,6.91729,2.1111,-16.94018,7.04614,17.45631,10.30746,-1.35994,-15.40021,23.47895,115.03374,-0.00056,-98.64859,82.62135,-0.00739,116.87856,-22.07927,-12.27472,-0.00058,-22.92738,1.50072,0.00914,4.16379,-8.91398,17.35447,-17.17031,-14.63754,12.94623,-0.68734,-1.66568,6.39588
500,1.28717,-0.0,-0.0,-3.20364,-0.0,0.0,-1.21825,-3.74027,19.81863,15.00155,4.83408,-18.09512,-36.14452,-8.1006,-8e-05,-15.57415,-1.08463,6e-05,36.41009,18.27189,19.42422,7.11208,2.04351,-17.1376,7.28445,17.77606,10.24625,-1.12747,-15.56691,23.81411,114.91255,0.00039,-98.6188,82.22205,-0.01214,115.75703,-22.51181,-12.14643,-0.00071,-23.4346,1.30132,0.01256,4.11777,-8.90998,17.70952,-17.18524,-14.76134,13.28555,-0.83267,-1.73168,6.3315
501,1.32235,-0.0,0.0,-3.1561,-0.0,0.0,-1.34517,-3.62429,19.44529,14.57213,4.61189,-17.82986,-36.15144,-7.99113,6e-05,-15.40356,-0.98681,9e-05,36.56005,18.38671,19.63772,7.22784,2.0699,-17.31108,7.54767,17.99173,10.03638,-0.88099,-15.72634,24.17746,114.77016,0.00124,-98.12594,81.71383,-0.00716,114.67004,-22.57196,-11.88727,0.00252,-24.38386,0.91139,0.00884,3.99189,-8.9123,17.90878,-17.29375,-14.83498,13.47439,-1.02534,-1.74558,6.30612
502,1.00986,-0.0,0.0,-3.70019,-0.0,0.0,-1.20287,-3.67932,19.29189,14.36718,4.5761,-17.71166,-36.09767,-7.97636,0.00018,-15.23956,-0.88914,2e-05,36.64699,18.54878,19.79896,7.33487,2.13209,-17.27649,7.70301,18.05803,9.83889,-0.71557,-15.83707,24.48051,114.66765,0.00067,-97.44491,81.20912,-1e-05,114.25501,-21.81528,-11.41399,0.00783,-25.4211,0.77098,-0.00075,3.65655,-8.89298,18.00139,-17.61897,-14.85019,13.56984,-1.20302,-1.74504,6.31968
503,0.47333,0.0,0.0,-4.45973,0.0,-0.0,-0.89781,-3.94779,19.29519,14.24913,4.7742,-17.47803,-35.96406,-8.06293,0.00022,-15.13975,-0.78659,-0.00011,36.66617,18.74504,19.93632,7.47578,2.14255,-17.22955,7.69445,18.08285,9.70714,-0.59979,-15.8327,24.68503,114.62914,-0.00012,-97.09893,80.72617,0.00109,114.20868,-20.47962,-10.88076,0.00708,-26.23604,1.01448,-0.00632,3.1229,-8.86425,17.96687,-18.15294,-14.81104,13.54775,-1.32588,-1.79031,6.35929
504,0.15684,0.0,-0.0,-4.70118,-0.0,0.0,-0.68444,-4.31971,19.29092,13.97476,5.0403,-16.879,-35.74212,-8.18997,1e-05,-15.08507,-0.6769,-0.00014,36.64872,18.93136,20.1239,7.65388,2.05317,-17.43486,7.57735,18.20606,9.57458,-0.50402,-15.6951,24.75407,114.61993,7e-05,-97.02771,80.27648,0.00033,114.12633,-19.28841,-10.42309,0.00134,-26.69401,1.46541,-0.00452,2.46925,-8.85103,17.76091,-18.8236,-14.72485,13.35661,-1.38198,-1.91637,6.40003
505,0.36734,-0.0,-0.0,-4.29084,-0.0,-0.0,-0.76196,-4.52149,19.25213,13.48549,5.16044,-16.05841,-35.43013,-8.35249,-0.0007,-15.02318,-0.51212,-1e-05,36.64231,19.07658,20.3141,7.85781,1.88355,-17.78423,7.46036,18.43833,9.38006,-0.46635,-15.51103,24.66028,114.58365,0.00095,-96.6478,79.9435,0.0015,114.1795,-18.72853,-10.03446,-0.00254,-26.6917,1.88861,-0.00086,1.76667,-8.89785,17.46733,-19.55622,-14.66307,13.05964,-1.39365,-2.08994,6.4323
506,0.93138,0.0,0.0,-3.7357,0.0,-0.0,-1.10975,-4.41269,19.28105,12.94527,5.10919,-15.36136,-35.04401,-8.55226,-0.00121,-14.92922,-0.2623,0.0001,36.6619,19.15342,20.39303,8.05898,1.68145,-17.96609,7.40965,18.64542,9.13816,-0.53929,-15.41523,24.47255,114.51773,0.00081,-95.63464,79.83465,0.00187,114.61167,-18.70099,-9.72434,-0.00256,-26.37263,2.23971,-0.00119,1.05447,-9.07056,17.24681,-20.30372,-14.74467,12.78492,-1.41448,-2.25195,6.44731
507,1.43292,-0.0,-0.0,-3.37193,0.0,-0.0,-1.54245,-4.18147,19.39032,12.52351,5.06208,-14.93443,-34.64315,-8.68973,-0.00062,-14.79673,-0.00767,-3e-05,36.68378,19.13808,20.36832,8.18784,1.50768,-17.91344,7.40893,18.70809,8.9015,-0.74895,-15.45062,24.2696,114.49316,-0.00124,-94.22398,79.99048,-0.00016,115.37507,-18.75117,-9.59034,-0.00152,-26.09365,2.6911,-0.00406,0.37581,-9.38164,17.17127,-21.01882,-15.00718,12.59576,-1.51249,-2.36716,6.41462
508,1.6186,0.0,-0.0,-3.07384,-0.0,-0.0,-1.88998,-4.09824,19.46022,12.24372,5.14423,-14.67354,-34.30183,-8.65518,0.00033,-14.60502,0.14789,-0.0002,36.688,19.05022,20.34209,8.17066,1.41795,-17.81859,7.41785,18.64723,8.70066,-1.0664,-15.51919,24.00195,114.56278,-0.00175,-93.16994,80.32773,-0.00307,116.38738,-18.57313,-9.78921,-0.00194,-25.92369,3.3072,-0.00334,-0.19519,-9.76231,17.21454,-21.62397,-15.37714,12.49292,-1.74049,-2.42139,6.30614
509,1.49275,0.0,0.0,-2.69961,0.0,0.0,-2.08407,-4.26005,19.43082,12.04778,5.32034,-14.44272,-34.04944,-8.46988,0.00055,-14.34587,0.22864,-4e-05,36.6888,18.94133,20.35449,8.01802,1.3963,-17.80093,7.4175,18.54858,8.51949,-1.41637,-15.50632,23.58789,114.68412,0.0004,-93.56039,80.72683,-0.00489,117.56882,-18.33728,-10.45915,0.00015,-25.53633,3.92523,0.00396,-0.60101,-10.1215,17.31895,-22.05773,-15.74907,12.45599,-2.08305,-2.427,6.1388
510,1.21181,0.0,0.0,-2.37169,0.0,0.0,-2.14971,-4.55306,19.36511,11.91636,5.57419,-14.1681,-33.88034,-8.2358,0.00017,-14.06601,0.32104,0.00025,36.71498,18.85896,20.42025,7.83904,1.36697,-17.78891,7.38776,18.44497,8.31739,-1.7495,-15.41423,23.08166,114.76755,0.00017,-95.80334,81.16246,-0.00292,118.53001,-18.39349,-11.48757,0.0058,-24.73485,4.44519,0.0115,-0.87896,-10.3721,17.39886,-22.35517,-16.01106,12.43671,-2.43515,-2.43625,6.00189
511,1.00241,0.0,-0.0,-2.26032,0.0,0.0,-2.1904,-4.755,19.32832,11.88109,5.99706,-13.8007,-33.77956,-8.02103,-0.00016,-13.85034,0.41413,0.0002,36.77796,18.83228,20.59591,7.75429,1.293,-17.70579,7.30354,18.33924,8.08183,-2.05274,-15.33187,22.64001,114.77252,-0.00183,-98.75623,81.60836,0.00232,118.7049,-18.71869,-12.43829,0.00652,-23.8588,4.8213,0.01127,-1.1483,-10.45593,17.40659,-22.6327,-16.09186,12.41214,-2.67563,-2.50567,6.00201
512,1.0288,0.0,-0.0,-2.31178,-0.0,0.0,-2.33511,-4.72941,19.29337,11.93763,6.59613,-13.31579,-33.70443,-7.84952,-0.00019,-13.75611,0.42606,4e-05,36.86073,18.86785,20.89185,7.8039,1.2144,-17.62785,7.17511,18.26498,7.85433,-2.29156,-15.31462,22.35881,114.73983,-0.00116,-100.74609,81.92358,0.00342,118.04076,-18.90847,-12.93704,0.00244,-23.4402,4.89749,0.00721,-1.48587,-10.39791,17.38862,-22.96564,-16.03139,12.41713,-2.78112,-2.63502,6.15337
513,1.23246,-0.0,0.0,-2.33293,0.0,-0.0,-2.61533,-4.55476,19.18702,12.01421,7.17317,-12.77177,-33.60286,-7.7289,-5e-05,-13.75803,0.33972,1e-05,36.92617,18.95464,21.22679,7.92636,1.18935,-17.68955,7.05224,18.25386,7.69503,-2.43236,-15.35079,22.19461,114.74252,0.00086,-101.3295,82.02928,-3e-05,117.13003,-18.6348,-13.08579,-0.00088,-23.5402,4.65524,0.00621,-1.84248,-10.28075,17.38163,-23.31054,-15.91985,12.45508,-2.84732,-2.77357,6.36927
514,1.41026,0.0,-0.0,-2.27792,0.0,-0.0,-2.91325,-4.45892,19.04762,12.07295,7.49135,-12.36861,-33.46838,-7.65503,2e-05,-13.76505,0.24041,2e-05,36.9547,19.06068,21.487,8.02433,1.22404,-17.86165,6.95609,18.27406,7.62543,-2.50374,-15.41515,22.03386,114.82095,0.00193,-101.20935,82.03999,-0.00208,116.40131,-17.99336,-13.26315,-0.003,-23.72594,4.26899,0.00559,-2.11363,-10.19423,17.38667,-23.57227,-15.84115,12.49279,-2.97458,-2.88992,6.55665
515,1.45411,0.0,-0.0,-2.26015,-0.0,0.0,-3.10775,-4.54427,19.02652,12.15028,7.47876,-12.33535,-33.33664,-7.62279,0.0,-13.6993,0.22062,0.00011,36.97557,19.1445,21.59751,8.05118,1.27802,-17.97736,6.83212,18.25162,7.60681,-2.57105,-15.47698,21.81005,114.96994,0.00049,-100.71903,82.0868,-0.00166,115.77384,-17.49849,-13.50817,-0.00343,-23.64641,3.81498,0.00338,-2.27343,-10.23423,17.47755,-23.72867,-15.91109,12.56413,-3.15394,-2.99803,6.67297
516,1.40118,-0.0,0.0,-2.35406,-0.0,-0.0,-3.21763,-4.63498,19.17449,12.25371,7.24562,-12.7346,-33.24088,-7.64359,-5e-05,-13.5627,0.2762,0.00019,37.03893,19.20999,21.5543,8.02883,1.33766,-17.99137,6.61359,18.16751,7.56809,-2.67203,-15.47003,21.56166,115.16734,-0.00322,-99.49227,82.18031,-0.00086,115.28742,-17.67988,-13.43414,-0.00788,-23.39322,3.36904,0.00206,-2.40279,-10.43775,17.72005,-23.85909,-16.18777,12.71771,-3.29924,-3.11354,6.71213
517,1.29698,-0.0,0.0,-2.54226,-0.0,-0.0,-3.30957,-4.56241,19.36516,12.31336,6.93442,-13.46941,-33.19954,-7.72841,-6e-05,-13.4434,0.3229,0.00014,37.1621,19.31747,21.40822,8.01102,1.43741,-18.04341,6.30142,18.0985,7.48097,-2.79706,-15.33216,21.39306,115.39088,-0.00487,-97.63545,82.28263,-0.00053,115.21265,-18.50089,-12.85043,-0.01307,-23.34646,3.10041,0.0024,-2.60551,-10.70751,18.00363,-24.06663,-16.54081,12.88525,-3.35966,-3.22924,6.68773
518,1.15939,0.0,-0.0,-2.7614,0.0,-0.0,-3.36878,-4.41477,19.46917,12.25243,6.55389,-14.41194,-33.20996,-7.85317,-7e-05,-13.45033,0.30088,0.00017,37.32065,19.48922,21.23793,8.0541,1.57703,-18.26825,5.93431,18.12149,7.43282,-2.90919,-15.07186,21.35954,115.61911,-0.00211,-96.14045,82.36433,-7e-05,115.47637,-19.22821,-12.13238,-0.00761,-23.72866,2.94086,0.003,-2.94041,-10.89762,18.14614,-24.41008,-16.76896,12.94862,-3.34709,-3.34508,6.63224
519,1.08566,0.0,-0.0,-2.99445,-0.0,0.0,-3.36942,-4.36515,19.53002,12.08636,6.02923,-15.49484,-33.23154,-7.99001,-0.00014,-13.61941,0.24154,0.00013,37.48966,19.65316,21.07945,8.19259,1.67768,-18.63567,5.53004,18.20446,7.56676,-2.97251,-14.75754,21.39359,115.8395,0.00156,-95.81728,82.40199,0.00043,115.80314,-19.10138,-11.8202,-0.0034,-24.24455,2.69467,0.00222,-3.41558,-10.94905,18.09473,-24.89536,-16.79835,12.87988,-3.28114,-3.48096,6.58772
520,1.18286,0.0,-0.0,-3.27999,0.0,-0.0,-3.36342,-4.45776,19.68789,11.92826,5.44729,-16.72537,-33.23143,-8.13974,-0.00015,-13.89159,0.21433,-0.0001,37.67131,19.74049,20.90791,8.40365,1.67821,-19.00452,5.11545,18.23608,7.89575,-2.97471,-14.46202,21.37768,116.05113,0.00268,-96.5153,82.40529,0.00035,116.20699,-18.15526,-12.08906,-0.00689,-24.32698,2.48709,0.00095,-4.00873,-10.90521,17.89516,-25.5007,-16.68578,12.70624,-3.17827,-3.64256,6.58999
521,1.31316,0.0,-0.0,-3.51541,0.0,0.0,-3.41927,-4.60254,19.93385,11.85234,5.1091,-18.10233,-33.24483,-8.27093,-8e-05,-14.1872,0.22006,-9e-05,37.86817,19.77367,20.76411,8.60826,1.6226,-19.30426,4.76533,18.14314,8.25669,-2.93651,-14.23478,21.2704,116.24924,0.00198,-97.64096,82.42086,-0.00056,116.91048,-17.15242,-12.73494,-0.00513,-23.81897,2.61592,0.00321,-4.67241,-10.85482,17.58684,-26.18469,-16.52791,12.43154,-3.08956,-3.80268,6.65011
522,1.17792,0.0,0.0,-3.52983,0.0,0.0,-3.54747,-4.66435,20.11317,11.81721,5.1808,-19.55213,-33.32558,-8.31065,-0.00014,-14.47083,0.20552,0.00016,38.06077,19.7966,20.74868,8.72901,1.59414,-19.56807,4.53765,17.93894,8.51259,-2.8969,-14.10317,21.13345,116.4145,0.00153,-98.91296,82.48198,-0.00127,117.90043,-16.67257,-13.46023,0.00134,-23.13215,3.03304,0.00448,-5.31876,-10.86351,17.22962,-26.86115,-16.40727,12.08792,-3.08002,-3.92688,6.7287
523,0.75996,0.0,-0.0,-3.49962,0.0,0.0,-3.72639,-4.55113,20.17052,11.75701,5.38817,-20.91775,-33.4687,-8.24753,-0.00026,-14.73394,0.17409,0.00019,38.24496,19.78771,20.82095,8.7425,1.61193,-19.83183,4.38979,17.68008,8.69421,-2.87669,-14.08249,21.06266,116.52781,0.0014,-100.19893,82.57351,-0.00021,118.53448,-16.60596,-13.97945,0.00362,-22.74402,3.20319,0.00376,-5.83801,-10.91799,16.91764,-27.41107,-16.34536,11.77007,-3.15497,-3.99915,6.73691
524,0.40911,-0.0,0.0,-3.93359,0.0,-0.0,-3.95632,-4.23706,20.204,11.66394,5.3049,-21.97571,-33.62395,-8.17493,-0.00012,-14.95302,0.19629,-2e-05,38.45074,19.70729,20.77448,8.67245,1.63945,-20.0992,4.21308,17.42665,8.89571,-2.84684,-14.17016,21.10462,116.60818,-0.0,-100.93776,82.64835,0.00091,117.93974,-16.60518,-14.02348,0.00229,-22.75475,2.62192,0.00435,-6.16075,-10.96399,16.70249,-27.75547,-16.31043,11.54776,-3.25737,-4.02155,6.60785
525,0.37547,0.0,0.0,-4.95594,0.0,-0.0,-4.2317,-3.74812,20.26552,11.52964,4.8812,-22.51496,-33.74419,-8.19254,0.0001,-15.09373,0.3013,-9e-05,38.67503,19.59517,20.50803,8.55022,1.66472,-20.36374,3.94243,17.21699,9.1635,-2.74432,-14.32565,21.22729,116.73315,-0.00433,-100.46497,82.66549,-0.00047,115.96231,-16.58948,-13.57642,0.00068,-22.85593,1.36435,-0.00028,-6.30083,-11.00574,16.57486,-27.90981,-16.30312,11.41037,-3.34461,-4.00229,6.38449
526,0.519,-0.0,0.0,-5.80295,-0.0,-0.0,-4.472,-3.24395,20.25063,11.26086,4.44849,-22.4519,-33.80984,-8.27631,0.00012,-15.14887,0.40917,-3e-05,38.84885,19.55361,20.23112,8.40895,1.72474,-20.62839,3.60567,17.02723,9.52628,-2.54715,-14.47836,21.36869,116.97735,-0.00762,-99.04559,82.61656,-0.00219,113.48243,-16.61394,-13.05592,-5e-05,-22.75072,-0.01889,-0.00778,-6.3404,-11.10581,16.52339,-27.96409,-16.37755,11.32301,-3.41648,-3.95578,6.19871
527,0.63723,0.0,0.0,-5.6364,0.0,-0.0,-4.57342,-3.04145,20.08284,10.80898,4.27483,-21.96443,-33.84335,-8.30985,3e-05,-15.14251,0.41922,-4e-05,38.9265,19.62031,20.21467,8.28724,1.84066,-20.86843,3.28003,16.79137,10.01244,-2.31783,-14.5585,21.49556,117.31593,-0.00338,-97.94168,82.54383,-0.00144,111.96094,-16.56889,-12.94343,-0.0003,-22.58789,-0.84649,-0.00957,-6.36563,-11.28604,16.56399,-28.00589,-16.55976,11.29233,-3.47566,-3.91835,6.13704
528,0.81299,0.0,-0.0,-4.75747,0.0,0.0,-4.55766,-3.30577,19.90026,10.37058,4.31164,-21.49253,-33.90057,-8.26141,-1e-05,-15.08484,0.3583,3e-05,38.95374,19.72002,20.39337,8.18718,1.9672,-20.97325,3.02358,16.50504,10.58828,-2.13704,-14.51925,21.59661,117.63882,0.00275,-98.07763,82.53552,-0.00058,112.17747,-16.24423,-13.25474,-0.00103,-22.6509,-0.71511,-0.0095,-6.40162,-11.48191,16.70192,-28.05311,-16.7917,11.34811,-3.51669,-3.94258,6.16532
529,1.19712,-0.0,0.0,-4.14689,0.0,-0.0,-4.56661,-3.77465,19.88244,10.21736,4.35409,-21.39703,-34.01804,-8.216,0.00011,-14.95232,0.35075,0.00037,38.99974,19.76814,20.50449,8.06262,2.0344,-20.85865,2.84077,16.26261,11.14054,-2.0206,-14.36431,21.65107,117.86166,0.00333,-99.22383,82.65944,0.00044,113.19791,-15.62708,-13.67019,-0.00055,-22.83721,0.04557,-0.00741,-6.43153,-11.59796,16.8723,-28.08302,-16.96115,11.46551,-3.54238,-4.06082,6.21361
530,1.64756,-0.0,0.0,-4.03951,0.0,0.0,-4.67818,-4.06719,20.00198,10.34353,4.32089,-21.59564,-34.17596,-8.21998,0.00019,-14.7235,0.42633,0.00055,39.07413,19.7526,20.50697,7.89002,2.01861,-20.65977,2.69597,16.15041,11.56509,-1.93325,-14.15714,21.63882,117.979,0.00094,-100.73702,82.88193,0.00251,113.67983,-15.01843,-14.08322,0.00091,-22.89673,0.69957,-0.00408,-6.50444,-11.59629,16.95498,-28.14938,-16.98948,11.54486,-3.55492,-4.26006,6.26285
531,1.83515,-0.0,-0.0,-3.88743,0.0,-0.0,-4.82334,-4.17702,20.10331,10.51844,4.33286,-21.72451,-34.3422,-8.21373,-2e-05,-14.4062,0.47369,4e-05,39.16826,19.7006,20.54547,7.70597,1.96086,-20.6467,2.56182,16.14704,11.85796,-1.85088,-13.96899,21.55865,118.03138,-0.00086,-102.03117,83.0864,0.00211,113.55794,-14.76716,-14.56498,0.00224,-22.80766,0.80258,-0.00403,-6.76555,-11.52324,16.86417,-28.40928,-16.88877,11.48657,-3.54534,-4.4856,6.29954
532,1.64594,-0.0,-0.0,-3.45663,0.0,-0.0,-4.90975,-4.40815,20.11054,10.6301,4.53229,-21.63892,-34.52613,-8.13589,-0.00036,-14.02402,0.41282,-0.00057,39.31582,19.64641,20.64499,7.55237,1.93608,-20.88044,2.44268,16.16966,12.09362,-1.7721,-13.82585,21.43638,118.06292,-0.00187,-102.20512,83.18839,0.00027,113.28716,-14.89878,-14.91207,0.00122,-22.6889,0.29316,-0.00532,-7.28827,-11.4365,16.61376,-28.94137,-16.71761,11.28175,-3.50445,-4.66439,6.29124
533,1.30109,-0.0,-0.0,-3.15987,0.0,0.0,-4.94371,-4.92264,20.06457,10.78244,4.88487,-21.55049,-34.75526,-8.02367,-0.00042,-13.60654,0.3024,-0.0004,39.54451,19.64489,20.69171,7.42895,2.00125,-21.09428,2.33979,16.17235,12.33899,-1.69278,-13.71579,21.32899,118.0909,-0.00192,-100.59776,83.20772,-0.00049,112.91615,-15.09831,-14.73282,-0.00018,-22.73294,-0.48681,-0.00426,-7.90834,-11.35997,16.30744,-29.57581,-16.53565,11.01997,-3.4334,-4.74484,6.27041
534,1.06334,-0.0,-0.0,-3.33602,0.0,-0.0,-5.00932,-5.52019,19.99378,11.07223,5.20345,-21.65018,-35.0313,-7.96701,-9e-05,-13.19944,0.23119,0.00017,39.81471,19.74954,20.63626,7.30862,2.15893,-21.04207,2.233,16.15415,12.61404,-1.60656,-13.6094,21.27042,118.09341,-0.00026,-97.8868,83.22061,-0.00016,112.51336,-15.04826,-13.9447,0.00237,-23.12844,-0.91245,-0.004,-8.34396,-11.33589,16.04095,-30.02817,-16.41677,10.77605,-3.35377,-4.72501,6.33465
535,1.00332,0.0,-0.0,-3.74369,-0.0,-0.0,-5.1866,-5.86366,19.87008,11.40535,5.32512,-21.82948,-35.32124,-8.00743,0.00024,-12.85409,0.18892,0.00028,40.0529,19.95956,20.53919,7.17756,2.36762,-20.81209,2.11121,16.11257,12.90854,-1.51606,-13.46946,21.23044,118.05654,0.0009,-95.70674,83.28334,-0.00014,112.26244,-14.6896,-12.93362,0.00414,-23.78359,-0.7435,-0.00415,-8.4976,-11.41926,15.80754,-30.20747,-16.40964,10.52227,-3.30295,-4.64872,6.52008
536,1.07804,0.0,-0.0,-3.9264,-0.0,0.0,-5.48363,-5.84919,19.72642,11.60237,5.22877,-21.86668,-35.57391,-8.12216,0.00028,-12.59047,0.10864,-1e-05,40.21331,20.2119,20.44571,7.04714,2.57382,-20.66395,1.97838,16.02746,13.20612,-1.42558,-13.29538,21.18471,118.03762,0.00052,-94.9604,83.4253,-0.00148,112.23357,-14.21476,-12.21637,0.00099,-24.28868,-0.28885,-0.00023,-8.54507,-11.59882,15.55538,-30.29203,-16.48496,10.21364,-3.30077,-4.57843,6.75605
537,1.2144,-0.0,0.0,-3.76174,-0.0,-0.0,-5.82072,-5.64703,19.64982,11.62612,5.02232,-21.69178,-35.75696,-8.25976,8e-05,-12.3871,-0.01205,-0.00018,40.28662,20.43376,20.35185,6.91954,2.73344,-20.71794,1.845,15.88417,13.49199,-1.33716,-13.16179,21.15092,118.11763,-0.00069,-94.96465,83.66438,-0.00267,112.40849,-13.93515,-12.03925,-0.00153,-24.14536,0.11225,0.00207,-8.69489,-11.81135,15.30754,-30.4819,-16.59234,9.89631,-3.33987,-4.54781,6.95875
538,1.28579,0.0,-0.0,-3.47932,0.0,0.0,-6.09239,-5.45975,19.65095,11.61945,4.85943,-21.40214,-35.87041,-8.37243,-7e-05,-12.2136,-0.10447,-8e-05,40.28864,20.59208,20.25769,6.77767,2.82947,-20.89803,1.75214,15.70222,13.75977,-1.24239,-13.1657,21.13482,118.28145,-0.00248,-94.58055,83.98822,0.00018,112.4379,-14.06249,-12.34033,0.00046,-23.02876,0.25861,-0.00562,-8.94677,-12.00502,15.14232,-30.76608,-16.71212,9.66456,-3.40993,-4.53638,7.10284
539,1.18866,-0.0,0.0,-3.32005,0.0,-0.0,-6.26994,-5.41145,19.65812,11.72059,4.80498,-21.14385,-35.92354,-8.42379,-7e-05,-12.05569,-0.1211,7e-05,40.26947,20.68699,20.17636,6.62503,2.88447,-21.07045,1.76148,15.53,14.00774,-1.10495,-13.32458,21.13802,118.41999,-0.00221,-93.74916,84.34222,0.00474,111.86841,-14.50389,-12.9355,0.00234,-21.22052,0.12966,-0.015,-9.13698,-12.12708,15.07973,-30.97399,-16.80266,9.55782,-3.50551,-4.50236,7.19158
540,0.99377,-0.0,-0.0,-3.38843,0.0,-0.0,-6.45412,-5.53202,19.61029,11.93026,4.74645,-21.02205,-35.92869,-8.39284,5e-05,-11.91929,-0.06263,0.00012,40.29319,20.73357,20.1131,6.4916,2.94302,-21.14427,1.88126,15.42005,14.20088,-0.89307,-13.54129,21.1895,118.46578,-0.00097,-93.29806,84.64913,0.004,111.18276,-14.98298,-13.63339,0.00114,-19.79335,0.16503,-0.01798,-9.15969,-12.12256,15.04729,-30.99826,-16.78668,9.52882,-3.61279,-4.4268,7.22983
541,0.96529,0.0,-0.0,-3.8244,0.0,-0.0,-6.80009,-5.66957,19.53027,12.20004,4.50913,-21.07723,-35.90426,-8.33328,0.0001,-11.82642,0.06094,6e-05,40.38125,20.77138,20.02618,6.39811,3.03617,-21.05448,2.03873,15.40349,14.26789,-0.641,-13.68291,21.29168,118.46568,-0.0003,-93.62849,84.84376,0.00082,111.43096,-15.39131,-14.31107,0.00035,-19.75863,0.84952,-0.02822,-9.08008,-12.01947,14.94769,-30.91346,-16.65475,9.47446,-3.69771,-4.31906,7.24785
542,1.32088,-0.0,0.0,-4.76219,0.0,0.0,-7.35902,-5.59944,19.49596,12.52368,4.09272,-21.25824,-35.85574,-8.36364,-3e-05,-11.78186,0.20886,-9e-05,40.49182,20.85113,19.85535,6.33779,3.17397,-20.79213,2.15496,15.45284,14.1836,-0.42174,-13.69085,21.39297,118.51104,0.00048,-94.36079,84.90947,0.00021,112.4788,-15.80422,-14.96624,0.00123,-20.94888,1.87477,-0.02749,-9.02394,-11.96771,14.77162,-30.86265,-16.54264,9.32773,-3.72498,-4.19566,7.28573
543,1.87896,-0.0,-0.0,-5.85871,0.0,0.0,-7.99299,-5.32722,19.52415,12.85342,3.74835,-21.40545,-35.76563,-8.51457,-0.00023,-11.73759,0.2793,-0.00028,40.53875,20.98447,19.6605,6.2698,3.34965,-20.49977,2.21249,15.4909,14.03196,-0.24983,-13.58725,21.4495,118.64126,0.00104,-95.0472,84.87552,0.00013,113.15993,-16.14822,-15.64834,0.0003,-22.23834,2.40418,-0.00726,-9.01633,-12.09618,14.65538,-30.87646,-16.61958,9.16774,-3.70523,-4.07842,7.34547
544,2.14484,0.0,-0.0,-6.35674,-0.0,0.0,-8.4855,-5.08188,19.56768,13.06535,3.71792,-21.40522,-35.61543,-8.693,-0.00035,-11.62043,0.2192,-0.0004,40.44192,21.1298,19.58389,6.12679,3.52815,-20.35339,2.23079,15.47265,13.94469,-0.06666,-13.41115,21.45687,118.81715,0.00078,-95.53027,84.78047,-0.00018,113.06503,-16.16245,-16.26808,-0.00222,-22.7546,2.08927,0.00155,-9.00164,-12.32991,14.74569,-30.88244,-16.86936,9.16236,-3.6953,-3.99864,7.39927
545,1.93344,-0.0,-0.0,-5.98341,-0.0,-0.0,-8.77321,-5.02564,19.61195,13.09404,3.9102,-21.33673,-35.41349,-8.81384,-0.00025,-11.40349,0.13177,-8e-05,40.20751,21.23907,19.62984,5.8659,3.66777,-20.34139,2.21673,15.41907,13.98228,0.16936,-13.2218,21.44108,118.96062,-0.00011,-95.71945,84.66735,0.00028,112.70798,-15.76999,-16.54512,-0.00117,-22.50992,1.31883,-0.00175,-8.97429,-12.47273,14.99649,-30.85579,-17.09318,9.34437,-3.7355,-3.95782,7.4294
546,1.59238,-0.0,0.0,-5.2214,-0.0,0.0,-8.99404,-5.17883,19.64827,13.00369,4.02378,-21.30812,-35.19791,-8.82656,8e-05,-11.14347,0.14136,0.00041,39.93327,21.29706,19.71646,5.52907,3.76513,-20.34458,2.16472,15.35183,14.10906,0.41333,-13.11569,21.45826,119.02705,-0.00076,-95.69051,84.59644,0.00067,112.42255,-15.25197,-16.33183,0.00087,-22.0555,0.68446,-0.00221,-8.98947,-12.48205,15.20861,-30.8586,-17.179,9.54186,-3.8098,-3.90789,7.44197
547,1.44503,-0.0,0.0,-4.57593,0.0,0.0,-9.2564,-5.49933,19.65375,12.90397,3.93215,-21.28916,-35.00111,-8.69924,0.00035,-10.93843,0.21596,0.00039,39.71393,21.31583,19.85914,5.24178,3.84993,-20.33052,2.08445,15.26672,14.25953,0.5757,-13.14681,21.54519,119.04696,-0.00065,-95.9736,84.61869,-0.0006,112.39124,-14.9846,-15.92096,-6e-05,-21.80277,0.62234,-0.00114,-9.07563,-12.48639,15.26976,-30.94134,-17.20527,9.59817,-3.85642,-3.80849,7.46373
548,1.42383,-0.0,-0.0,-4.21636,0.0,0.0,-9.5105,-5.82489,19.69991,12.87569,3.73443,-21.25739,-34.8113,-8.52374,4e-05,-10.8406,0.24895,0.0001,39.58855,21.32977,20.03319,5.12517,3.95637,-20.2989,2.01542,15.18195,14.36395,0.64894,-13.26769,21.66393,119.08553,0.00072,-97.14484,84.72585,-0.00307,113.01804,-15.169,-15.81239,0.00145,-21.71676,1.30663,-0.00094,-9.20345,-12.53767,15.24968,-31.07638,-17.24555,9.55913,-3.80764,-3.65686,7.52343
549,1.33451,0.0,-0.0,-4.17314,-0.0,0.0,-9.69247,-5.92712,19.87675,12.95493,3.56102,-21.29457,-34.59361,-8.46287,-0.00062,-10.83003,0.22639,-3e-05,39.53916,21.37419,20.11708,5.18266,4.09145,-20.19144,2.00708,15.12248,14.356,0.76187,-13.40839,21.76624,119.17281,0.00241,-99.16244,84.8413,-0.00318,114.04501,-15.74882,-16.22639,0.00593,-21.59423,2.34017,-0.00064,-9.30373,-12.58085,15.27969,-31.17973,-17.29654,9.57074,-3.66494,-3.46476,7.61213
550,1.106,-0.0,0.0,-4.3333,0.0,0.0,-9.82632,-5.77408,20.04808,13.13213,3.49793,-21.41699,-34.35323,-8.4964,-0.00066,-10.87105,0.20561,-6e-05,39.48069,21.4413,20.17655,5.28002,4.21619,-20.00133,2.06801,15.06197,14.22003,1.03047,-13.55606,21.87536,119.29295,0.0024,-101.38462,84.88702,-0.00158,114.33643,-16.40673,-16.95963,0.00529,-21.47416,2.89672,-0.00045,-9.30065,-12.64499,15.42826,-31.17452,-17.41008,9.68667,-3.5321,-3.2545,7.6827
551,0.77138,0.0,0.0,-4.47459,-0.0,-0.0,-9.95133,-5.58782,19.9563,13.3767,3.57753,-21.52152,-34.14327,-8.43589,-5e-05,-10.94112,0.20428,-5e-05,39.32108,21.50824,20.43016,5.26401,4.30947,-19.83889,2.15736,14.96448,13.97353,1.40253,-13.72325,22.03832,119.41808,0.00045,-102.96668,84.84763,-0.00093,113.52178,-16.79431,-17.61297,0.00014,-21.65998,2.66405,0.00266,-9.17798,-12.80079,15.65798,-31.05511,-17.63815,9.84386,-3.51877,-3.03704,7.71797
552,0.41109,0.0,-0.0,-4.50254,0.0,0.0,-10.06049,-5.65509,19.61606,13.65675,3.74997,-21.57125,-33.99152,-8.20613,0.00037,-11.0032,0.19715,-5e-05,39.0609,21.57608,20.86986,5.09621,4.40825,-19.77446,2.24454,14.84585,13.62785,1.75748,-13.91191,22.26617,119.51954,-0.00131,-103.25574,84.7486,-0.00033,112.58688,-16.84845,-17.87086,-0.00188,-22.3373,2.14102,0.00427,-9.01514,-12.96625,15.8378,-30.90004,-17.85702,9.94991,-3.62333,-2.79859,7.75932
553,0.08651,0.0,0.0,-4.51585,0.0,0.0,-10.14328,-6.0787,19.35514,13.94544,3.88509,-21.67765,-33.86132,-7.95131,0.00023,-11.00964,0.18363,-6e-05,38.79993,21.63534,21.21111,4.87265,4.5293,-19.71463,2.33946,14.72632,13.24753,2.06117,-14.12564,22.53918,119.56208,-0.0008,-102.34704,84.6532,0.00042,112.41351,-16.71477,-17.65255,3e-05,-23.26145,1.91572,6e-05,-8.9194,-13.00761,15.84906,-30.80852,-17.89949,9.94441,-3.74006,-2.54778,7.83604
554,-0.2175,0.0,0.0,-4.65762,0.0,0.0,-10.24494,-6.56948,19.41045,14.22589,3.81608,-21.94122,-33.71191,-7.88028,-0.00035,-10.94498,0.20103,-0.0,38.65181,21.66127,21.21234,4.72835,4.63094,-19.53,2.4542,14.58701,12.92753,2.31047,-14.35839,22.77028,119.53037,0.00035,-101.33115,84.71235,0.00174,112.79523,-16.52565,-17.16865,0.00191,-23.86944,2.13064,-0.00307,-8.92517,-12.97588,15.71996,-30.81906,-17.82314,9.8342,-3.76612,-2.32431,7.92916
555,-0.5212,0.0,0.0,-4.86109,0.0,-0.0,-10.43552,-6.67564,19.63862,14.44508,3.45787,-22.28748,-33.5523,-8.03265,-0.00062,-10.82937,0.27513,0.00014,38.62792,21.66587,20.97403,4.70034,4.68672,-19.2312,2.57228,14.4283,12.63801,2.45957,-14.57404,22.81845,119.46762,0.00091,-101.61201,85.06635,0.00565,112.99902,-16.43358,-16.87281,0.00252,-23.72879,2.48029,-0.00354,-8.98185,-13.00689,15.58529,-30.88831,-17.80297,9.69417,-3.69681,-2.14471,8.02995
556,-0.73979,0.0,-0.0,-4.83889,0.0,-0.0,-10.72391,-6.31913,19.71065,14.51048,2.93667,-22.5279,-33.40507,-8.22215,-0.00019,-10.68461,0.3757,0.00018,38.60973,21.70272,20.86681,4.68606,4.73828,-18.94252,2.67135,14.32037,12.25666,2.51002,-14.73506,22.67484,119.44027,0.0024,-103.76136,85.63028,0.00672,112.8727,-16.56017,-17.14035,0.00383,-22.97556,2.67959,-0.00472,-9.03371,-13.06149,15.49681,-30.95245,-17.82146,9.58877,-3.61437,-1.97974,8.14892
557,-0.74923,-0.0,0.0,-4.49085,0.0,0.0,-11.04504,-5.84432,19.52515,14.41377,2.52201,-22.5393,-33.25544,-8.28102,0.00029,-10.53643,0.4295,6e-05,38.47695,21.80967,21.08281,4.57221,4.84897,-18.77033,2.75411,14.35534,11.7881,2.57575,-14.84714,22.55234,119.45004,0.00219,-107.06863,86.10838,0.0031,113.00262,-16.8017,-17.91121,0.00353,-22.25525,2.93215,-0.00611,-9.0835,-13.00261,15.38928,-31.00211,-17.72772,9.5098,-3.5856,-1.78998,8.25505
558,-0.55439,-0.0,-0.0,-4.07377,0.0,-0.0,-11.33877,-5.55409,19.29474,14.26423,2.36033,-22.31174,-33.07778,-8.26438,0.00021,-10.42326,0.38448,-5e-05,38.23785,21.97218,21.41017,4.37092,5.02889,-18.77276,2.83073,14.54412,11.39625,2.77671,-14.93911,22.65727,119.43821,-0.00064,-110.20463,86.28529,0.0019,113.55869,-16.9524,-18.763,0.00048,-22.10934,3.47046,-0.00906,-9.13219,-12.86196,15.26711,-31.04189,-17.55279,9.44895,-3.59909,-1.57007,8.28619
559,-0.30838,0.0,-0.0,-3.83574,0.0,0.0,-11.60227,-5.45342,19.23863,14.1489,2.3313,-21.92179,-32.89248,-8.30645,-0.00019,-10.34649,0.26828,-3e-05,37.99934,22.13885,21.55106,4.1666,5.23242,-18.96942,2.8835,14.76717,11.20637,3.09747,-14.99325,22.93034,119.38435,-0.00171,-112.01138,86.22476,0.0014,113.87227,-17.03013,-19.19213,-0.00295,-22.52757,3.89682,-0.00606,-9.09083,-12.81336,15.26529,-30.99491,-17.50704,9.46624,-3.60827,-1.34599,8.22025
560,-0.17302,-0.0,0.0,-3.76937,0.0,0.0,-11.84884,-5.48141,19.37784,14.06057,2.2204,-21.56362,-32.75405,-8.39994,-0.00031,-10.25171,0.17733,0.00011,37.82795,22.25605,21.45915,3.96976,5.41741,-19.25711,2.89553,14.8722,11.17183,3.38633,-14.95734,23.10594,119.32803,-0.00068,-111.74634,86.16498,-0.00062,113.70064,-17.23359,-18.83233,-0.00735,-23.16216,3.68852,0.00236,-8.85403,-12.92561,15.4526,-30.7594,-17.67932,9.60005,-3.60929,-1.1258,8.10295
561,-0.18068,-0.0,0.0,-3.77484,-0.0,-0.0,-12.06924,-5.69031,19.64278,13.96724,1.96297,-21.44769,-32.68004,-8.44203,-0.00025,-10.11597,0.17961,0.00028,37.70319,22.30814,21.27075,3.74221,5.57831,-19.42143,2.90668,14.82882,11.15288,3.50987,-14.84572,23.00622,119.2936,0.00029,-109.49914,86.28748,-0.00455,113.76309,-17.54472,-17.81155,-0.00806,-23.73257,3.06166,0.0048,-8.43106,-13.09311,15.71652,-30.33928,-17.93066,9.78499,-3.63013,-0.87602,8.02593
562,-0.22197,-0.0,-0.0,-3.77982,0.0,0.0,-12.28755,-6.01573,19.94417,13.86187,1.67167,-21.54915,-32.62328,-8.38859,-0.00015,-10.00123,0.23868,0.00025,37.60381,22.33791,21.12827,3.53622,5.72942,-19.36797,2.98072,14.73498,11.07308,3.50359,-14.76193,22.73106,119.26124,0.00057,-106.6926,86.58759,-0.00701,114.385,-17.64509,-16.87518,-0.00402,-24.13217,2.6762,0.00239,-7.9222,-13.18312,15.89344,-29.82961,-18.07845,9.91775,-3.64842,-0.56423,8.07433
563,-0.2086,-0.0,0.0,-3.69788,0.0,-0.0,-12.56083,-6.22088,20.11044,13.76237,1.50039,-21.62872,-32.5364,-8.24595,2e-05,-9.97411,0.2743,0.00011,37.54158,22.40772,21.1596,3.44514,5.88656,-19.22892,3.12089,14.68191,10.95706,3.52935,-14.78954,22.5474,119.21339,-0.00052,-105.28149,86.92742,-0.00348,114.72949,-17.34419,-16.75268,-0.00456,-24.30177,2.72964,0.00212,-7.43337,-13.15626,15.89863,-29.33716,-18.05542,9.93323,-3.60425,-0.20469,8.24891
564,-0.20383,0.0,-0.0,-3.51251,0.0,-0.0,-12.87245,-6.21678,19.9878,13.71667,1.52351,-21.51882,-32.43333,-8.01089,0.00012,-10.03273,0.26625,4e-05,37.51322,22.53333,21.42948,3.45775,6.05247,-19.18066,3.27136,14.67423,10.86877,3.69375,-14.89871,22.61239,119.16504,-0.00146,-105.9078,87.20281,0.00061,114.02293,-16.8455,-17.45779,-0.00564,-24.04324,2.82044,0.00156,-7.04843,-13.06256,15.7526,-28.95059,-17.91542,9.83124,-3.48781,0.14956,8.44385
565,-0.29979,-0.0,-0.0,-3.33094,0.0,0.0,-13.1576,-6.10874,19.64299,13.75618,1.67773,-21.22053,-32.35687,-7.71668,4e-05,-10.13591,0.2567,-1e-05,37.50637,22.67016,21.84141,3.5002,6.19919,-19.28618,3.40111,14.67752,10.8758,3.9758,-14.99353,22.84718,119.1292,-0.00081,-107.36263,87.42907,0.00129,112.63287,-16.43088,-18.39114,-0.00142,-23.11276,2.52179,-0.0061,-6.75349,-12.96597,15.59711,-28.65428,-17.7693,9.72143,-3.34584,0.44817,8.53413
566,-0.48576,0.0,0.0,-3.2542,0.0,0.0,-13.4169,-5.96852,19.38404,13.84287,1.77797,-20.86087,-32.31125,-7.49642,-0.0001,-10.24526,0.28628,-7e-05,37.54326,22.76785,22.14611,3.56014,6.29403,-19.46889,3.54195,14.68132,10.99609,4.29602,-15.03285,23.03553,119.06576,0.00065,-108.14555,87.6797,0.00142,111.28579,-16.1107,-18.90931,0.00355,-21.62269,1.74328,-0.01511,-6.41622,-12.85561,15.59509,-28.30399,-17.66617,9.76271,-3.21454,0.68188,8.49005
567,-0.72626,0.0,0.0,-3.31979,0.0,0.0,-13.66684,-5.84417,19.5482,13.93583,1.68128,-20.68724,-32.25822,-7.52576,-0.00034,-10.32782,0.34241,-6e-05,37.64894,22.82383,22.08211,3.66516,6.35809,-19.53936,3.72258,14.68078,11.11132,4.56233,-15.0682,22.97563,118.90981,0.00176,-107.99398,88.01504,0.0018,110.18372,-15.80287,-18.72781,0.00535,-20.12944,0.7013,-0.01198,-6.008,-12.66268,15.71058,-27.86533,-17.52909,9.94777,-3.08726,0.88899,8.40135
568,-0.99511,0.0,0.0,-3.46486,-0.0,0.0,-13.87485,-5.81757,20.13408,14.0328,1.46314,-20.84746,-32.16679,-7.82445,-0.00056,-10.35533,0.35786,-6e-05,37.76015,22.87028,21.65008,3.76791,6.45257,-19.40029,3.88571,14.65234,11.04567,4.71667,-15.1752,22.63854,118.66742,0.00101,-107.59425,88.44339,-0.00091,109.49001,-15.60928,-17.99641,0.00226,-19.17994,-0.16907,-4e-05,-5.71406,-12.39695,15.72989,-27.53909,-17.28945,10.06972,-2.96474,1.10851,8.37355
569,-1.18641,-0.0,-0.0,-3.44372,0.0,-0.0,-14.05325,-5.86575,20.68207,14.09505,1.31739,-21.12565,-32.04131,-8.1541,-0.00024,-10.32813,0.2908,-0.0001,37.73459,22.92377,21.24933,3.75782,6.57646,-19.23142,3.9235,14.60107,10.79987,4.82,-15.36977,22.23612,118.42811,-0.00034,-107.44976,88.88283,-0.00428,109.46993,-15.65506,-17.12409,-0.00182,-18.85256,-0.55482,0.00545,-5.63362,-12.15589,15.58662,-27.44066,-17.01362,10.02745,-2.88769,1.31972,8.41568
570,-1.19096,0.0,-0.0,-3.07957,-0.0,-0.0,-14.26314,-5.92146,20.78392,14.072,1.30967,-21.23353,-31.91694,-8.25284,0.00036,-10.30097,0.19926,-0.00011,37.5215,22.97207,21.28094,3.62396,6.6473,-19.22573,3.81424,14.56815,10.58805,4.98861,-15.5815,22.00154,118.27131,-0.00068,-107.62192,89.23199,-0.00344,109.92223,-15.85069,-16.60561,-0.00248,-18.77986,-0.60954,0.00325,-5.60653,-11.97323,15.47879,-27.40017,-16.80486,9.99602,-2.8571,1.46245,8.45584
571,-1.06853,0.0,0.0,-2.65186,-0.0,-0.0,-14.46244,-6.09602,20.60043,14.01529,1.32996,-21.27773,-31.83247,-8.1347,0.0004,-10.3463,0.17921,-0.00017,37.25265,23.00271,21.6492,3.50148,6.6227,-19.23682,3.66452,14.55268,10.59526,5.2206,-15.71025,21.91163,118.21492,-0.00061,-107.99627,89.52538,-0.00048,110.37788,-15.97988,-16.79611,-0.00291,-18.53723,-0.63387,-0.00031,-5.49691,-11.79571,15.55975,-27.26529,-16.66941,10.14163,-2.79294,1.52299,8.43967
572,-0.98597,0.0,-0.0,-2.67648,0.0,0.0,-14.56366,-6.50055,20.58562,14.03259,1.2271,-21.5374,-31.77622,-8.03616,-0.00016,-10.47255,0.24437,-0.00023,37.09565,23.02984,21.89937,3.51232,6.5725,-18.99152,3.58739,14.50671,10.79605,5.43585,-15.72549,21.78414,118.23596,-0.00126,-108.07833,89.89352,0.00155,110.59652,-15.90831,-17.50082,-0.00449,-18.02723,-0.66518,-0.00193,-5.35284,-11.59473,15.69995,-27.08942,-16.53362,10.35241,-2.64204,1.56951,8.37692
573,-1.02254,-0.0,0.0,-3.2746,0.0,0.0,-14.63135,-6.95317,20.89271,14.13843,0.94889,-21.97202,-31.6855,-8.12407,-0.00086,-10.61328,0.32358,-0.00013,37.10759,23.07695,21.71104,3.64547,6.60794,-18.51905,3.60723,14.40869,11.03223,5.66879,-15.6989,21.60151,118.27886,-0.00162,-107.08749,90.35476,0.00114,110.61398,-15.62067,-17.98953,-0.0017,-17.62042,-0.61827,-0.00089,-5.19113,-11.37613,15.66639,-26.90618,-16.31838,10.40492,-2.46287,1.7084,8.29119
574,-1.10789,0.0,0.0,-3.96926,0.0,0.0,-14.80955,-7.22681,21.28498,14.23919,0.62769,-22.30843,-31.53644,-8.3317,-0.00097,-10.70442,0.34958,-2e-05,37.22183,23.14375,21.16735,3.78708,6.76502,-18.09966,3.69715,14.26223,11.19123,6.05389,-15.72927,21.55421,118.26811,0.00072,-104.88831,90.78914,-0.00104,110.48804,-15.12774,-17.74042,0.00573,-17.84344,-0.55507,0.00383,-4.92677,-11.12005,15.37576,-26.63437,-15.97502,10.22784,-2.37664,1.99248,8.18348
575,-1.11515,-0.0,0.0,-4.19453,-0.0,-0.0,-15.11765,-7.36246,21.50554,14.26237,0.50025,-22.42291,-31.37135,-8.48614,-0.00041,-10.74864,0.31008,-2e-05,37.3024,23.21273,20.64,3.83863,6.96253,-17.90106,3.82036,14.06905,11.26591,6.64615,-15.84505,21.76528,118.16058,0.00367,-102.36269,91.10795,-0.00287,110.08264,-14.49232,-16.97025,0.00914,-18.70826,-0.66296,0.01061,-4.55994,-10.82995,14.89333,-26.26954,-15.53031,9.88215,-2.4391,2.34971,8.08525
576,-1.00927,0.0,0.0,-3.95436,-0.0,0.0,-15.48517,-7.48577,21.53375,14.25692,0.64865,-22.39289,-31.21922,-8.53254,3e-05,-10.80927,0.2386,-4e-05,37.2637,23.27144,20.39639,3.82396,7.07823,-17.87043,3.92989,13.87759,11.28104,7.36609,-15.99963,22.10385,117.97537,0.00413,-100.51362,91.35541,-0.00253,109.29372,-13.86488,-16.30405,0.00444,-19.4148,-1.02728,0.00774,-4.22507,-10.58307,14.3345,-25.94553,-15.09779,9.44794,-2.55955,2.63626,8.07596
577,-0.89457,0.0,0.0,-3.71947,0.0,0.0,-15.89944,-7.55971,21.41104,14.30426,0.8724,-22.27699,-31.08637,-8.51339,0.0001,-10.94083,0.16885,-0.0,37.13818,23.31761,20.43645,3.82842,7.07332,-17.94477,4.00599,13.78894,11.2322,8.09572,-16.16558,22.31983,117.74875,0.00199,-99.77164,91.65704,0.00198,108.1226,-13.24841,-16.16306,-0.00316,-19.01617,-1.5999,-0.00845,-4.04954,-10.42709,13.84729,-25.78448,-14.77555,9.04713,-2.60666,2.78511,8.18859
578,-0.89741,0.0,-0.0,-3.7121,0.0,0.0,-16.40679,-7.42367,21.04254,14.3585,0.91456,-22.03674,-31.0097,-8.41633,-9e-05,-11.12339,0.09681,7e-05,37.00771,23.35701,20.67959,3.85818,7.02466,-18.1693,4.07535,13.84726,11.11034,8.77407,-16.37012,22.30464,117.4714,-0.00306,-100.25742,92.10413,0.00702,106.6041,-12.39537,-16.47817,-0.00802,-17.36082,-2.25635,-0.01867,-4.04683,-10.29182,13.56886,-25.78516,-14.54847,8.83593,-2.56602,2.87158,8.33885
579,-1.0192,0.0,-0.0,-3.68888,0.0,0.0,-17.0076,-7.03356,20.39119,14.29879,0.76103,-21.67246,-31.01283,-8.19775,-0.00036,-11.29673,0.01081,0.00011,36.89913,23.39547,21.08877,3.85347,7.00623,-18.53219,4.14633,13.9782,10.94389,9.40894,-16.60229,22.15894,117.11721,-0.00852,-101.86228,92.6887,0.0041,105.15932,-11.26483,-16.81682,-0.00545,-15.15857,-2.70989,-0.00819,-4.12034,-10.09505,13.48646,-25.84473,-14.33566,8.83337,-2.52537,2.9992,8.41358
580,-1.15488,0.0,-0.0,-3.46178,-0.0,0.0,-17.58826,-6.66828,19.72429,14.13583,0.61401,-21.31968,-31.0402,-7.91251,-0.0003,-11.45114,-0.05396,-2e-05,36.76641,23.43273,21.57761,3.80037,6.9867,-18.83138,4.17822,14.07543,10.78021,10.03103,-16.7716,22.03833,116.71906,-0.00828,-103.95211,93.32489,-0.00445,104.35802,-10.34288,-16.78962,-0.00098,-13.29424,-2.76534,0.00415,-4.14789,-9.85166,13.39628,-25.85475,-14.07667,8.84115,-2.55174,3.16596,8.40994
581,-1.22488,-0.0,-0.0,-3.21616,-0.0,0.0,-17.99104,-6.74761,19.41756,14.03512,0.63289,-21.15867,-31.01435,-7.70243,-4e-05,-11.63218,-0.04557,-0.00027,36.56946,23.46172,21.93894,3.74018,6.8982,-18.85802,4.15945,14.11459,10.63092,10.65865,-16.81582,22.00914,116.3293,-0.00256,-105.64277,93.91788,-0.00706,104.13345,-10.11225,-16.39039,-0.00146,-12.28958,-2.65485,0.0033,-4.07827,-9.6054,13.09099,-25.78023,-13.7366,8.64695,-2.64327,3.2896,8.41175
582,-1.21414,0.0,0.0,-3.18638,0.0,0.0,-18.16834,-7.37203,19.52164,14.11125,0.79369,-21.2344,-30.92679,-7.63509,5e-05,-11.85736,0.02324,-0.00035,36.31765,23.47568,22.03793,3.68741,6.7475,-18.6534,4.15462,14.16853,10.46802,11.28431,-16.77691,22.05601,115.91443,0.00432,-106.41588,94.43742,0.00065,103.84335,-10.46101,-15.95175,-0.00039,-12.15613,-2.814,0.00065,-3.93512,-9.36549,12.58192,-25.6441,-13.32799,8.25839,-2.77137,3.3161,8.45993
583,-1.18463,0.0,-0.0,-3.41801,0.0,0.0,-18.24957,-8.12696,19.76191,14.32601,0.96012,-21.41817,-30.81787,-7.69041,-7e-05,-12.07919,0.07142,-9e-05,36.0681,23.48132,21.91659,3.6375,6.6082,-18.45796,4.2226,14.32977,10.28984,11.8402,-16.72064,22.15,115.39329,0.00967,-106.31171,94.94717,0.01254,103.0156,-10.88695,-15.80106,0.00274,-12.5415,-3.53963,0.00421,-3.74587,-9.15144,12.08237,-25.4629,-12.94673,7.86934,-2.87885,3.26584,8.51545
584,-1.29605,0.0,-0.0,-3.88837,0.0,-0.0,-18.4158,-8.44015,19.97074,14.59845,1.04072,-21.55786,-30.70971,-7.89484,-0.00034,-12.24434,0.03326,0.00017,35.92852,23.49776,21.60007,3.64738,6.5397,-18.43714,4.32929,14.6173,10.18044,12.20816,-16.64322,22.26648,114.81239,0.00878,-105.90455,95.55724,0.01348,102.05135,-10.89306,-16.05677,-0.00159,-13.10735,-4.78825,0.00825,-3.52357,-8.99763,11.76177,-25.244,-12.68668,7.62608,-2.85723,3.20299,8.52758
585,-1.66997,0.0,0.0,-4.50399,-0.0,0.0,-18.70561,-8.21259,20.24131,14.86779,1.04933,-21.62815,-30.61865,-8.25201,-0.00039,-12.34438,-0.06209,0.00016,35.97942,23.53922,21.09151,3.77708,6.54169,-18.51907,4.38759,14.94739,10.25765,12.35222,-16.50843,22.39178,114.36606,0.00345,-106.02243,96.34159,-0.00582,102.08411,-10.14599,-16.67181,-0.01368,-13.74989,-6.02586,0.00455,-3.32269,-8.92377,11.57461,-25.0463,-12.54964,7.4781,-2.64683,3.18719,8.49262
586,-2.19118,0.0,0.0,-5.00425,0.0,-0.0,-19.03479,-7.89342,20.57759,15.03793,1.02583,-21.68463,-30.59196,-8.57084,-0.00025,-12.39518,-0.11869,3e-05,36.15389,23.59581,20.60683,3.95319,6.56477,-18.52969,4.38179,15.19589,10.51616,12.40433,-16.33293,22.53285,114.13025,0.00067,-106.87376,97.28447,-0.02671,103.62428,-8.7695,-17.39463,-0.0166,-14.46782,-6.5898,-0.00612,-3.2683,-8.94133,11.34287,-25.00457,-12.4812,7.25359,-2.34666,3.24001,8.45401
587,-2.56314,0.0,-0.0,-5.16698,0.0,0.0,-19.36218,-7.87532,20.70765,15.01693,0.98687,-21.6974,-30.66138,-8.6015,-0.00056,-12.40955,-0.08669,-3e-05,36.26287,23.63762,20.48392,4.01013,6.5428,-18.44059,4.41946,15.28937,10.77964,12.57599,-16.17427,22.67487,113.8978,0.00117,-107.7084,98.25614,-0.02305,105.70997,-7.36447,-17.82185,-0.00519,-15.11451,-6.43722,-0.0123,-3.44238,-9.00376,10.94682,-25.20212,-12.39424,6.85781,-2.13721,3.33084,8.46949
588,-2.65376,0.0,-0.0,-5.1736,0.0,-0.0,-19.69295,-8.18094,20.47869,14.86373,0.95167,-21.60814,-30.79028,-8.373,-0.00075,-12.40251,0.00419,-4e-05,36.19498,23.66433,20.72812,3.88072,6.45178,-18.33214,4.61906,15.2559,10.87524,13.05242,-16.0513,22.78731,113.4334,0.00495,-107.79827,99.04476,-0.00333,106.83691,-6.37949,-17.81378,0.00334,-15.40819,-6.15266,-0.01041,-3.69959,-8.96891,10.42901,-25.47906,-12.17218,6.38494,-2.09741,3.40917,8.56325
589,-2.65484,0.0,-0.0,-5.41737,0.0,0.0,-20.01821,-8.61487,20.10327,14.76171,0.94824,-21.49506,-30.91526,-8.17995,-0.00029,-12.40687,0.09467,-2e-05,36.03599,23.72421,20.97508,3.67363,6.34669,-18.22919,4.96086,15.20872,10.78522,13.92458,-15.93128,22.91379,112.77231,0.00703,-107.23087,99.51081,0.00544,106.45615,-5.76683,-17.65723,0.00286,-15.32693,-6.02991,-0.00716,-3.73522,-8.7451,9.94619,-25.51673,-11.78734,6.01696,-2.14398,3.45219,8.70286
590,-2.81662,0.0,-0.0,-5.93268,0.0,-0.0,-20.35472,-8.93767,19.84462,14.81915,1.00745,-21.46708,-31.00148,-8.21638,0.00013,-12.46764,0.12214,0.00011,35.9247,23.83671,20.98493,3.5368,6.28901,-18.16119,5.31269,15.23614,10.59526,15.08073,-15.80201,23.14363,112.12407,0.00461,-106.5119,99.7442,0.00242,105.24435,-5.35543,-17.63692,0.00018,-15.17697,-5.68676,-0.00488,-3.45317,-8.42453,9.6199,-25.22299,-11.36995,5.83252,-2.15321,3.46351,8.83297
591,-3.19275,0.0,0.0,-6.44971,0.0,-0.0,-20.71365,-9.08372,19.79309,14.991,1.12367,-21.47903,-31.04455,-8.43188,0.00023,-12.58737,0.05464,0.00029,35.87147,23.9537,20.82464,3.48911,6.26796,-18.21037,5.59112,15.28936,10.40598,16.20549,-15.71068,23.49423,111.59753,0.00109,-106.01732,100.00166,0.00104,103.97035,-5.13113,-17.72559,-0.00058,-15.08449,-4.86753,-0.00295,-3.11754,-8.15617,9.43575,-24.87464,-11.05315,5.76143,-2.09443,3.45399,8.91308
592,-3.66994,0.0,-0.0,-6.86575,0.0,0.0,-21.043,-9.18783,19.90559,15.1542,1.18454,-21.39204,-31.06651,-8.68071,0.00028,-12.69082,-0.05621,0.00026,35.80555,24.03619,20.63708,3.43602,6.23512,-18.38373,5.81613,15.26138,10.32741,17.03634,-15.69082,23.93675,111.1351,-0.00232,-105.98492,100.45184,0.00332,102.74014,-5.12533,-17.70509,-0.0006,-14.92578,-3.99247,-0.0015,-3.00867,-7.98697,9.30886,-24.75839,-10.84944,5.70645,-2.01457,3.43903,8.91164
593,-4.06774,0.0,-0.0,-7.21787,0.0,-0.0,-21.3223,-9.31943,20.00897,15.20159,1.0632,-21.17085,-31.11037,-8.81874,0.00023,-12.71216,-0.10475,0.00013,35.72778,24.10095,20.5433,3.33265,6.16832,-18.56593,6.01669,15.17225,10.45206,17.61864,-15.68771,24.46939,110.65405,-0.00502,-106.52019,101.02307,0.0031,101.47617,-5.28418,-17.37876,-0.00095,-14.78341,-3.58217,-0.00148,-3.08447,-7.92379,9.23241,-24.83256,-10.7627,5.65869,-1.93902,3.43103,8.81618
594,-4.17412,0.0,0.0,-7.30121,-0.0,0.0,-21.65883,-9.38623,19.86229,15.09198,0.83015,-20.90143,-31.21381,-8.7296,-0.00039,-12.69734,-0.04956,5e-05,35.6967,24.18299,20.70981,3.24236,6.06895,-18.66195,6.16027,15.14682,10.765,18.19478,-15.63351,25.05132,110.18819,-0.00393,-107.41205,101.55037,0.00089,100.30218,-5.4828,-16.76656,-0.0004,-14.8335,-3.76297,-0.00181,-3.0991,-8.00052,9.29189,-24.85041,-10.8558,5.68544,-1.85701,3.42809,8.69134
595,-3.93463,0.0,-0.0,-6.81755,0.0,0.0,-22.16177,-9.31772,19.37399,14.84998,0.68912,-20.62646,-31.39268,-8.4131,-0.00127,-12.74038,0.04169,-2e-05,35.7018,24.29704,21.2581,3.21037,5.9356,-18.70213,6.17891,15.21834,11.12912,18.88106,-15.55223,25.56003,109.87813,-0.00024,-108.09195,102.02125,0.00368,99.24077,-5.67342,-16.10619,0.00031,-14.91538,-4.59472,-0.00465,-2.91629,-8.1676,9.51545,-24.67118,-11.09302,5.83178,-1.78133,3.41152,8.65413
596,-3.70346,-0.0,0.0,-5.98836,0.0,0.0,-22.74143,-9.20642,18.77881,14.57217,0.69405,-20.34789,-31.64009,-8.06557,-0.00116,-12.8532,0.0942,1e-05,35.68808,24.44202,22.0088,3.20067,5.7751,-18.71618,6.04418,15.29513,11.4119,19.60084,-15.49433,25.92151,109.8269,-0.00065,-107.89574,102.56912,0.0089,98.23373,-6.00084,-15.58153,-0.00059,-14.86893,-6.19052,-0.00492,-2.61582,-8.25607,9.78557,-24.36669,-11.27426,6.05147,-1.73419,3.35891,8.73568
597,-3.95459,-0.0,-0.0,-5.4638,0.0,0.0,-23.21444,-9.18872,18.45531,14.39279,0.74527,-20.1442,-31.92774,-7.95795,0.00021,-12.97042,0.10345,4e-05,35.68069,24.61633,22.52492,3.1889,5.62057,-18.63463,5.82557,15.29884,11.59284,20.2785,-15.42124,26.18754,109.99834,-0.00431,-106.68024,103.27975,0.0044,97.63589,-6.62898,-15.20999,-0.0016,-14.94359,-8.11853,0.00217,-2.37611,-8.14868,9.93164,-24.11319,-11.22807,6.22895,-1.69013,3.2689,8.83187
598,-4.65162,0.0,0.0,-5.48655,0.0,0.0,-23.59369,-9.26664,18.49262,14.35031,0.79602,-20.07746,-32.22925,-8.14937,0.00117,-13.03842,0.08621,3e-05,35.75669,24.80399,22.57978,3.18405,5.50934,-18.45788,5.65908,15.22533,11.72925,20.93261,-15.25683,26.42617,110.25758,-0.00376,-105.17424,104.12604,-0.0106,98.02052,-7.48251,-14.97781,-0.00094,-15.31279,-9.28699,0.00247,-2.2928,-7.89887,9.89597,-24.01318,-10.98294,6.28976,-1.61785,3.1664,8.81574
599,-5.26296,-0.0,0.0,-5.66264,0.0,0.0,-24.07628,-9.36235,18.62011,14.3368,0.83804,-20.08922,-32.54074,-8.42663,0.00069,-13.05231,0.04334,-0.0,35.92527,24.96921,22.37767,3.16303,5.44972,-18.34509,5.63132,15.12155,11.87139,21.60657,-15.00189,26.65401,110.47247,-0.00011,-104.20172,105.03192,-0.01899,99.2793,-8.3718,-14.86539,-0.00024,-15.6666,-8.93815,-0.00063,-2.28908,-7.65261,9.78824,-23.99643,-10.71466,6.28157,-1.54194,3.07753,8.64844
600,-5.39995,0.0,0.0,-5.57786,-0.0,-0.0,-24.75972,-9.43369,18.57927,14.24095,0.80312,-20.10201,-32.85785,-8.58489,-0.00037,-13.05104,-0.00824,-4e-05,36.09621,25.1025,22.24622,3.08454,5.40965,-18.39384,5.6985,15.06371,12.03701,22.32801,-14.71552,26.91419,110.58543,0.00164,-103.80097,105.88593,-0.01051,100.38688,-9.2747,-14.80775,-0.00065,-15.68552,-7.4798,0.00332,-2.23477,-7.5144,9.73335,-23.93478,-10.56612,6.28213,-1.50461,2.9953,8.40655
601,-5.18652,-0.0,-0.0,-5.21871,0.0,0.0,-25.51644,-9.46555,18.35217,14.07293,0.67006,-20.10368,-33.16078,-8.6392,-0.00073,-13.09252,-0.03154,-8e-05,36.13622,25.2502,22.32103,2.93153,5.33638,-18.48589,5.73045,15.07949,12.23662,23.12418,-14.441,27.30184,110.6383,0.00184,-103.68973,106.53789,0.00257,100.20058,-10.20573,-14.7961,-0.00039,-15.55416,-6.13942,0.00624,-2.15111,-7.49743,9.69555,-23.8515,-10.5365,6.25309,-1.51775,2.8923,8.24498
602,-5.08082,0.0,0.0,-4.82463,0.0,0.0,-26.16292,-9.41077,18.02989,13.92792,0.56832,-20.11703,-33.43689,-8.729,-0.00034,-13.19386,-0.01347,-0.00011,35.98962,25.45963,22.51023,2.70863,5.21273,-18.45711,5.64483,15.08694,12.47826,23.99953,-14.212,27.8429,110.72508,0.00236,-103.93587,106.91878,0.00917,98.28452,-10.94311,-14.89446,0.00039,-15.68372,-5.87802,0.014,-2.19924,-7.57479,9.54845,-23.91088,-10.55445,6.08617,-1.57097,2.79217,8.26993
603,-5.4877,-0.0,-0.0,-4.62005,-0.0,-0.0,-26.64833,-9.17506,17.66413,13.90683,0.65725,-20.17451,-33.6856,-8.94075,0.0001,-13.30959,0.00793,-2e-05,35.76874,25.71337,22.62178,2.45578,5.08841,-18.29953,5.50739,15.01514,12.73113,24.90015,-14.05589,28.41742,110.87242,0.00229,-104.50027,107.16529,0.01332,95.39223,-11.23248,-15.0579,0.00028,-16.21159,-6.5178,0.0248,-2.45216,-7.7274,9.28003,-24.18475,-10.59776,5.7773,-1.63386,2.76743,8.4252
604,-6.51146,-0.0,0.0,-4.72679,0.0,-0.0,-27.0007,-8.75243,17.3269,14.07196,0.93118,-20.31181,-33.90615,-9.27085,0.0003,-13.39575,-0.01214,8e-05,35.65078,25.9595,22.53755,2.24959,5.02146,-18.09691,5.47555,14.93409,12.93361,25.76795,-13.92982,28.89285,110.98869,0.00103,-104.86555,107.48357,0.00836,93.59016,-11.20614,-15.14463,0.00096,-17.15958,-6.95259,0.01419,-2.78576,-7.90693,9.01943,-24.54042,-10.66887,5.46564,-1.65822,2.82578,8.57335
605,-7.97632,0.0,-0.0,-5.21384,-0.0,0.0,-27.20252,-8.31315,17.1535,14.40649,1.18587,-20.52471,-34.1151,-9.66414,0.00037,-13.45672,-0.04784,4e-05,35.70134,26.16831,22.29733,2.13431,4.99707,-17.90594,5.62449,14.94419,13.08947,26.6352,-13.72164,29.31436,110.98104,0.0007,-104.63509,107.91047,-0.01044,95.08979,-11.26018,-15.15987,0.00324,-18.71752,-6.22424,-0.03034,-3.02583,-8.01646,8.89724,-24.79247,-10.72573,5.30994,-1.61916,2.87652,8.62823
606,-9.44245,0.0,0.0,-6.01682,-0.0,-0.0,-27.30934,-7.97995,17.1769,14.78779,1.22294,-20.70668,-34.35236,-10.01672,0.00013,-13.51746,-0.03486,-7e-05,35.87278,26.32918,22.07122,2.09673,4.9428,-17.80873,5.87239,15.02255,13.30535,27.58916,-13.38196,29.85898,110.88057,0.00073,-104.03926,108.34313,-0.02174,100.17408,-11.47096,-15.28933,0.00515,-20.8553,-4.29986,-0.06808,-3.14004,-7.99218,8.92953,-24.90385,-10.71504,5.34933,-1.52623,2.84061,8.55171
607,-10.2766,0.0,0.0,-6.77857,0.0,-0.0,-27.57799,-7.65362,17.23681,15.04096,1.08619,-20.68656,-34.63371,-10.21351,-0.0005,-13.58761,0.0068,-9e-05,36.0965,26.45247,22.08064,2.12126,4.82452,-17.91135,6.10938,15.07732,13.64894,28.64623,-13.02263,30.57064,110.80593,0.00048,-103.72176,108.7257,-0.01428,106.46861,-11.44471,-15.7442,0.00087,-22.92493,-2.05566,-0.04657,-3.2494,-7.87053,8.98445,-25.00277,-10.62223,5.44662,-1.38946,2.73076,8.35794
608,-10.38453,0.0,0.0,-7.25801,0.0,0.0,-28.14032,-7.26526,17.25878,15.12133,1.00803,-20.44353,-34.93008,-10.26663,-0.00051,-13.65653,-0.01122,1e-05,36.30406,26.58005,22.3412,2.16857,4.6968,-18.17323,6.33947,15.06074,14.0212,29.73497,-12.82464,31.27042,110.83903,0.00133,-104.11322,109.09985,0.00075,110.93539,-10.8461,-16.64079,-0.00945,-24.12522,-0.45486,0.00042,-3.45236,-7.73522,8.86707,-25.20055,-10.45345,5.38775,-1.24507,2.6299,8.13468
609,-10.50679,-0.0,0.0,-7.74093,0.0,-0.0,-28.66911,-6.99593,17.45942,15.18276,1.12394,-20.19426,-35.2256,-10.30844,0.00022,-13.70937,-0.10377,6e-05,36.39483,26.7459,22.60615,2.10438,4.6369,-18.38119,6.63551,14.97502,14.26315,30.7744,-12.85751,31.78808,110.95976,0.00205,-105.01482,109.51543,0.01179,112.52039,-9.83198,-17.86907,-0.01312,-24.23962,0.28953,0.01709,-3.68383,-7.62927,8.49785,-25.4375,-10.21945,5.0822,-1.21042,2.6235,7.9686
610,-10.89546,0.0,-0.0,-8.34845,0.0,-0.0,-28.76538,-7.02146,18.03778,15.32416,1.32759,-20.12021,-35.54718,-10.34184,0.00024,-13.74342,-0.18937,3e-05,36.25393,26.93102,22.85004,1.7912,4.63203,-18.37325,7.01177,14.84867,14.33804,31.72808,-13.02221,32.14786,111.08248,0.00135,-106.08683,109.9605,0.015,112.1377,-8.80755,-19.12645,-0.00659,-23.60867,0.42334,0.00536,-3.79288,-7.55272,7.99771,-25.55738,-9.96458,4.64336,-1.40525,2.70784,7.89211
611,-10.58757,-0.0,-0.0,-8.48372,0.0,0.0,-28.49271,-7.26561,18.92423,15.41724,1.40632,-20.17896,-35.88975,-10.20119,-0.00063,-13.76673,-0.18139,-0.0,35.88979,27.06752,23.40292,1.30005,4.56815,-18.15921,7.40483,14.74016,14.34645,32.62694,-13.14635,32.47966,111.13368,-0.00019,-107.42952,110.38313,0.01038,111.22754,-7.93551,-20.1805,-0.00085,-22.65156,0.17801,-0.00787,-3.72588,-7.49932,7.58777,-25.49887,-9.76426,4.28036,-1.76696,2.76474,7.89921
612,-8.82156,-0.0,-0.0,-7.6917,0.0,0.0,-28.19814,-7.5662,19.97185,15.3294,1.2623,-20.29747,-36.17677,-9.84675,-0.00073,-13.78708,-0.04791,-2e-05,35.53386,27.09528,24.33174,0.92009,4.36826,-17.82846,7.75182,14.71285,14.40685,33.55055,-13.12204,32.86311,111.08331,-0.00142,-109.02052,110.7448,0.00026,111.29828,-7.16533,-20.96251,0.00095,-21.71122,0.05064,-0.00609,-3.61316,-7.45436,7.41671,-25.388,-9.6596,4.13749,-2.02357,2.69686,7.93657
613,-6.35454,0.0,-0.0,-6.54297,0.0,-0.0,-27.99867,-7.8202,21.11906,15.16066,0.98391,-20.51668,-36.34887,-9.50068,6e-05,-13.81456,0.16247,-2e-05,35.46993,27.03748,25.13663,0.88309,4.10942,-17.49135,8.05049,14.77965,14.55376,34.55682,-12.98759,33.30169,110.94085,-0.0005,-110.24632,111.04903,-0.00675,113.09859,-6.58565,-21.47567,0.00243,-21.04348,0.59413,0.00121,-3.69106,-7.41353,7.45192,-25.46236,-9.63463,4.18574,-1.93313,2.56841,7.91378
614,-4.61034,0.0,-0.0,-5.9588,0.0,0.0,-27.75686,-7.9336,22.24,15.11086,0.76297,-20.81517,-36.41749,-9.37887,0.0004,-13.87702,0.33444,6e-05,35.70251,26.98379,25.38451,1.12952,3.93084,-17.27407,8.33226,14.88797,14.73818,35.62582,-12.86545,33.77668,110.77057,0.00146,-110.6924,111.33013,-0.00466,115.6089,-6.33806,-21.79292,0.00338,-20.73086,1.62405,0.00148,-4.09959,-7.43314,7.54645,-25.86953,-9.6876,4.26667,-1.53641,2.51878,7.79823
615,-3.95851,0.0,-0.0,-5.9868,0.0,-0.0,-27.44442,-7.87556,23.0578,15.21139,0.78093,-21.01044,-36.40331,-9.41423,0.00019,-14.00315,0.38356,0.00023,35.92326,26.97948,25.28386,1.39236,3.8574,-17.24145,8.59983,14.96635,14.90613,36.66993,-12.80597,34.27416,110.65742,0.00176,-110.72896,111.60257,0.00162,117.36265,-6.26832,-22.01987,0.00249,-20.71204,2.45419,-0.00152,-4.73969,-7.5984,7.62342,-26.51804,-9.86938,4.27637,-1.10404,2.58108,7.65769
616,-3.66944,0.0,0.0,-6.00328,-0.0,0.0,-27.24487,-7.75872,23.40728,15.33531,1.07816,-20.98226,-36.2988,-9.39761,0.00019,-14.1766,0.34687,0.00023,35.8839,26.97588,25.252,1.47414,3.79963,-17.33989,8.84566,14.97818,15.05798,37.61017,-12.74584,34.79063,110.60202,0.00023,-111.03877,111.83503,0.00395,118.3101,-6.00118,-22.20655,-0.00029,-20.84521,2.89652,-0.00186,-5.35323,-7.91487,7.71916,-27.14971,-10.19845,4.24654,-0.84202,2.68088,7.55408
617,-3.17599,0.0,-0.0,-5.73254,0.0,0.0,-27.35606,-7.69574,23.40726,15.38126,1.45728,-20.80394,-36.10182,-9.25587,0.00048,-14.33658,0.32654,2e-05,35.63723,26.89163,25.33334,1.38035,3.68828,-17.50064,9.10096,14.93369,15.24329,38.46044,-12.6248,35.33972,110.51586,-0.00236,-111.94803,112.00222,0.00156,119.35163,-5.38828,-22.4121,-0.00394,-20.90417,3.4087,0.00219,-5.72725,-8.26991,7.86585,-27.54383,-10.58204,4.24954,-0.74127,2.748,7.46514
618,-2.58151,0.0,0.0,-5.35239,-0.0,-0.0,-27.78664,-7.62607,23.24169,15.32603,1.62102,-20.59591,-35.84177,-9.06683,0.00048,-14.42471,0.35916,-7e-05,35.36548,26.71533,25.36659,1.21767,3.54771,-17.73725,9.38561,14.87286,15.51675,39.3101,-12.46461,35.91912,110.35621,-0.0032,-113.12537,112.12672,-0.00173,120.93674,-4.75702,-22.77284,-0.00443,-20.73885,4.3466,0.00821,-5.83981,-8.53001,8.03612,-27.66996,-10.88611,4.31028,-0.68353,2.76454,7.34341
619,-2.24084,-0.0,0.0,-5.05463,0.0,-0.0,-28.25505,-7.4343,23.01378,15.20462,1.46121,-20.47989,-35.57643,-8.96155,-6e-05,-14.41741,0.40504,-2e-05,35.18217,26.52768,25.26172,1.07344,3.46441,-18.0155,9.65339,14.85006,15.86992,40.20416,-12.31355,36.46297,110.18552,-0.00112,-113.89175,112.22918,-0.00293,122.65253,-4.63765,-23.40147,0.00264,-20.53035,5.40683,0.00918,-5.84766,-8.66031,8.15761,-27.68374,-11.05175,4.37451,-0.55782,2.75477,7.17106
620,-2.32132,0.0,0.0,-4.93463,0.0,-0.0,-28.36581,-7.17909,22.80834,15.10616,1.11827,-20.59967,-35.37589,-9.02279,-0.00048,-14.34261,0.43375,3e-05,35.12905,26.40532,24.9925,0.99699,3.4943,-18.17467,9.86746,14.90338,16.18499,41.07224,-12.18943,36.86396,110.06827,0.00091,-113.88458,112.31039,-0.00246,123.81747,-5.24665,-24.23518,0.01051,-20.5792,5.91836,0.00757,-5.91898,-8.72313,8.11603,-27.76082,-11.09477,4.31182,-0.30425,2.75625,6.9562
621,-2.64601,0.0,0.0,-5.01551,-0.0,-0.0,-27.98615,-7.06199,22.66974,15.11065,0.76768,-20.95126,-35.27868,-9.16735,-0.00029,-14.27661,0.45513,0.0,35.19143,26.32825,24.6605,1.00984,3.58814,-18.12608,10.08067,14.9995,16.31801,41.81107,-12.11193,37.07724,109.99125,0.00139,-113.32565,112.43454,-0.00117,124.2037,-6.23421,-25.00518,0.0073,-20.7926,5.64182,0.00545,-6.09745,-8.78427,7.83899,-27.95131,-11.04962,4.02967,0.0477,2.78268,6.74458
622,-2.8423,0.0,-0.0,-5.23769,0.0,0.0,-27.34636,-7.19244,22.60271,15.2154,0.48633,-21.31837,-35.24204,-9.22044,4e-05,-14.28675,0.49167,-7e-05,35.29731,26.21053,24.48386,1.11804,3.62604,-17.97465,10.37498,15.03467,16.27257,42.43131,-12.11014,37.19161,109.91345,0.00064,-112.78691,112.7082,0.00205,123.93507,-6.90077,-25.41504,-0.00078,-20.81027,4.98508,0.00094,-6.32812,-8.85545,7.44728,-28.19698,-10.97154,3.63668,0.41497,2.81345,6.60623
623,-2.73469,0.0,-0.0,-5.45398,0.0,-0.0,-26.73491,-7.47772,22.64472,15.33239,0.32384,-21.48028,-35.17377,-9.13381,0.00025,-14.36774,0.53811,-0.0001,35.36093,26.008,24.56136,1.31295,3.53787,-17.88917,10.75611,14.93206,16.22985,43.0739,-12.15333,37.34696,109.81939,-0.00052,-112.68629,113.11169,0.00486,123.1004,-6.77384,-25.33421,0.00048,-20.56732,4.42374,-0.00099,-6.52811,-8.90412,7.22651,-28.40557,-10.93545,3.41204,0.75461,2.81798,6.56403
624,-2.53582,-0.0,-0.0,-5.49574,0.0,0.0,-26.22142,-7.77928,22.80848,15.36224,0.32818,-21.41832,-35.04099,-9.02124,0.00017,-14.4561,0.54455,-7e-05,35.32384,25.77781,24.75395,1.53312,3.38618,-17.9243,11.13949,14.72537,16.36947,43.85728,-12.14514,37.59829,109.71249,-0.00082,-112.86475,113.47182,0.0034,121.92014,-6.03729,-24.83952,0.00619,-20.27659,4.04531,-0.00069,-6.64581,-8.88921,7.35248,-28.51933,-10.96798,3.53533,1.06753,2.79457,6.55701
625,-2.47773,0.0,-0.0,-5.35028,0.0,-0.0,-25.75283,-8.03923,22.95129,15.29824,0.46876,-21.30619,-34.91178,-8.9914,-4e-05,-14.50275,0.46234,-0.00012,35.18407,25.62738,24.84867,1.67385,3.31893,-17.98676,11.42959,14.53249,16.70669,44.75177,-12.01259,37.90449,109.61221,-0.00015,-112.84077,113.6425,0.00075,120.95503,-5.30012,-24.23164,0.00469,-20.04289,3.70028,-0.00198,-6.7383,-8.79932,7.6708,-28.59761,-11.00171,3.86679,1.33862,2.77941,6.48551
626,-2.42331,0.0,-0.0,-5.21434,0.0,-0.0,-25.36381,-8.19234,22.84554,15.24402,0.65615,-21.29162,-34.86834,-9.04103,-2e-05,-14.52129,0.29568,-0.00016,35.01479,25.59929,24.77539,1.69687,3.41703,-17.99382,11.62783,14.4487,17.1069,45.63892,-11.75846,38.20029,109.53986,0.00034,-112.55775,113.6366,0.00108,120.84968,-4.97685,-23.92594,0.00027,-19.80404,3.38212,-0.0048,-6.93172,-8.67378,7.79863,-28.77866,-10.93221,4.03384,1.54478,2.79217,6.2986
627,-2.13741,0.0,0.0,-5.28436,0.0,-0.0,-25.10207,-8.17212,22.45066,15.29622,0.83802,-21.34728,-34.92436,-9.11112,0.00013,-14.57263,0.09442,-6e-05,34.919,25.63144,24.61343,1.68952,3.608,-17.98972,11.8458,14.45386,17.41561,46.44691,-11.43968,38.43919,109.48698,0.00014,-112.59772,113.58982,0.00035,121.96358,-5.00309,-24.10179,-0.00096,-19.41098,3.33859,-0.00502,-7.24106,-8.58649,7.47596,-29.09002,-10.73248,3.76544,1.70451,2.80703,6.04143
628,-1.68998,0.0,-0.0,-5.52439,0.0,-0.0,-24.87213,-8.05695,21.98135,15.43158,1.02815,-21.38171,-35.04452,-9.15585,0.00015,-14.70418,-0.09731,0.00013,34.9415,25.65221,24.45252,1.7644,3.77052,-18.04719,12.16421,14.42864,17.5789,47.17288,-11.12819,38.60886,109.43077,-0.00045,-113.44038,113.63875,-0.00499,124.24415,-5.14002,-24.52419,-0.00127,-18.66389,3.81598,0.00035,-7.51461,-8.59657,6.84254,-29.37866,-10.50866,3.17019,1.86864,2.81472,5.80705
629,-1.21969,0.0,-0.0,-5.67378,-0.0,0.0,-24.54496,-8.0498,21.63545,15.54386,1.26423,-21.38202,-35.19109,-9.12309,-7e-05,-14.89806,-0.28076,0.00024,35.03938,25.65866,24.35789,1.94071,3.86962,-18.15358,12.52244,14.29708,17.65793,47.82375,-10.88249,38.72807,109.35974,-0.00087,-114.77683,113.81341,-0.00836,127.04176,-5.36832,-24.83359,-0.00184,-17.50301,4.7308,0.00566,-7.60579,-8.69561,6.31064,-29.48675,-10.40467,2.63643,2.07355,2.84586,5.66375
630,-0.60368,0.0,0.0,-5.47927,0.0,0.0,-24.13153,-8.28117,21.41034,15.56201,1.52638,-21.38936,-35.32722,-8.95596,-0.00032,-15.08384,-0.46425,0.00015,35.13392,25.66178,24.41075,2.15498,3.92452,-18.23052,12.81019,14.14947,17.7327,48.4193,-10.73677,38.82379,109.26713,-0.00059,-115.8167,114.04044,-0.00455,129.23215,-5.77678,-24.92512,-0.00204,-16.1705,5.75689,0.00492,-7.54022,-8.80151,6.10711,-29.4318,-10.42794,2.40651,2.31876,2.8916,5.6395
631,0.23307,0.0,-0.0,-5.01675,0.0,-0.0,-23.74961,-8.64897,21.2477,15.5165,1.6993,-21.43783,-35.41253,-8.7217,-0.00023,-15.21087,-0.59343,-7e-05,35.17227,25.64624,24.59735,2.34533,3.9249,-18.18345,13.02662,14.14961,17.82254,49.01252,-10.69716,38.89759,109.15688,0.00036,-116.04094,114.2563,0.00199,129.9808,-6.19416,-24.96058,-0.00181,-14.97032,6.59255,-0.00044,-7.47451,-8.8269,6.03566,-29.36894,-10.42519,2.33027,2.57202,2.88817,5.73658
632,0.99021,0.0,-0.0,-4.66885,-0.0,-0.0,-23.50379,-8.84472,21.13913,15.49189,1.70523,-21.51028,-35.42459,-8.61919,-8e-05,-15.29173,-0.60504,-0.00016,35.13462,25.62091,24.76539,2.48466,3.8587,-18.00122,13.27644,14.3115,17.92507,49.62548,-10.72603,38.90981,109.04716,0.00083,-115.60152,114.46928,0.00652,129.25328,-6.20771,-25.08752,-0.00235,-13.92897,6.93377,-0.00813,-7.52444,-8.74963,5.75479,-29.41767,-10.24998,2.09775,2.78868,2.81074,5.92311
633,1.37192,0.0,-0.0,-4.62087,-0.0,-0.0,-23.43366,-8.67275,21.05602,15.51165,1.63948,-21.51383,-35.37265,-8.73353,-0.00015,-15.35905,-0.54839,-7e-05,35.01472,25.61725,24.83833,2.56146,3.75742,-17.82854,13.60522,14.47331,18.09193,50.21062,-10.73766,38.84462,108.94891,0.00023,-115.11524,114.67896,0.00624,127.77039,-5.59687,-25.24736,-0.00196,-12.98905,6.57984,-0.01268,-7.66906,-8.60506,5.17795,-29.55971,-9.90322,1.61509,2.94307,2.70096,6.12341
634,1.54261,0.0,-0.0,-4.67982,-0.0,0.0,-23.50869,-8.33997,21.00632,15.52251,1.63317,-21.39376,-35.28346,-8.9522,-0.00017,-15.40257,-0.53967,4e-05,34.85132,25.627,24.84675,2.58527,3.66361,-17.78629,13.92429,14.51372,18.38078,50.72528,-10.65116,38.77974,108.84942,-0.00088,-115.06713,114.80488,0.00161,126.37567,-4.71001,-25.30814,0.00032,-12.35671,5.61741,-0.00646,-7.79418,-8.43674,4.55841,-29.67959,-9.51862,1.10195,3.06451,2.59993,6.25177
635,1.86238,0.0,-0.0,-4.63443,0.0,-0.0,-23.66181,-8.17128,21.05508,15.47834,1.6604,-21.21429,-35.1992,-9.13329,2e-05,-15.37657,-0.61287,-1e-05,34.74997,25.60324,24.77693,2.59098,3.59465,-17.83904,14.15021,14.47773,18.73529,51.18649,-10.45932,38.82487,108.71497,-0.0015,-115.42553,114.77301,-0.00347,125.10822,-4.29044,-25.31076,0.00212,-12.30644,4.31058,0.00626,-7.79145,-8.27698,4.26794,-29.6689,-9.26326,0.892,3.22372,2.51911,6.25378
636,2.33226,0.0,-0.0,-4.50552,0.0,-0.0,-23.83509,-8.14637,21.16244,15.38524,1.60469,-21.06298,-35.17343,-9.20043,0.00018,-15.26713,-0.71272,-7e-05,34.79839,25.52394,24.62192,2.60259,3.55958,-17.95037,14.32721,14.45574,19.01948,51.6337,-10.22408,39.00508,108.52331,-0.00058,-115.73401,114.63756,-0.00526,123.43246,-4.81201,-25.40149,0.00431,-12.81479,3.05396,0.01079,-7.62481,-8.15515,4.47202,-29.49354,-9.22546,1.1279,3.45151,2.46747,6.12653
637,2.57337,0.0,0.0,-4.43768,0.0,-0.0,-23.96848,-8.05356,21.1867,15.28846,1.43673,-20.9699,-35.22245,-9.12947,5e-05,-15.12532,-0.79303,-2e-05,34.95539,25.41648,24.51559,2.61554,3.55524,-18.1421,14.55585,14.44853,19.16576,52.08682,-10.0268,39.24404,108.2877,0.00095,-115.65864,114.54784,-0.00137,121.36715,-6.0276,-25.58425,0.00465,-13.57169,2.25512,0.00407,-7.33615,-8.08836,4.95344,-29.19652,-9.34095,1.60128,3.69436,2.44179,5.94999
638,2.32527,-0.0,0.0,-4.45969,0.0,-0.0,-23.98216,-7.91682,21.05887,15.22764,1.25194,-20.91936,-35.31256,-8.94037,-0.00023,-15.01859,-0.84059,5e-05,35.08881,25.32594,24.66115,2.62264,3.5372,-18.35798,14.87744,14.41283,19.21325,52.54902,-9.92943,39.45808,108.02495,0.00181,-115.3266,114.5978,0.00342,119.50689,-7.22746,-25.72969,0.00147,-14.23765,1.95162,-0.00178,-7.00764,-8.07171,5.32872,-28.86263,-9.46384,1.9571,3.8819,2.40398,5.86413
639,1.78756,-0.0,-0.0,-4.47987,0.0,0.0,-23.85119,-7.92987,20.8552,15.20605,1.1587,-20.89443,-35.42543,-8.72645,-0.00036,-14.97205,-0.83645,5e-05,35.15108,25.29567,25.0426,2.64191,3.46848,-18.46338,15.26504,14.3639,19.25085,53.02281,-9.93725,39.64135,107.72894,0.00202,-114.96894,114.7429,0.00361,118.38728,-7.83776,-25.77022,-0.0014,-14.63638,1.90311,-0.00196,-6.71247,-8.08632,5.47345,-28.56646,-9.53074,2.08643,4.01533,2.33617,5.93439
640,1.40943,-0.0,-0.0,-4.52759,0.0,0.0,-23.66958,-8.14214,20.73475,15.23269,1.18489,-20.89202,-35.57405,-8.64815,-9e-05,-14.97179,-0.77531,-2e-05,35.20619,25.35894,25.34156,2.6883,3.37929,-18.40273,15.66041,14.35273,19.36245,53.49959,-10.00506,39.84059,107.40668,0.00038,-114.80754,114.86817,0.00135,118.3939,-7.66798,-25.77119,-0.00294,-14.80642,2.10827,-0.00083,-6.50404,-8.09775,5.59359,-28.35707,-9.58562,2.19406,4.14223,2.28402,6.09714
641,1.48316,-0.0,0.0,-4.85201,-0.0,-0.0,-23.5572,-8.47213,20.83158,15.36678,1.28404,-20.92549,-35.74666,-8.82553,0.00035,-14.98947,-0.6983,-9e-05,35.2697,25.51122,25.25165,2.7099,3.32617,-18.22696,15.99491,14.3845,19.55544,53.93643,-10.07911,40.06238,107.10344,-0.00223,-115.09802,114.90564,0.0005,119.33256,-6.95191,-25.81371,-0.00388,-14.92999,2.71253,-0.00136,-6.43621,-8.06416,5.86127,-28.28306,-9.65308,2.45624,4.26382,2.29365,6.27566
642,1.99663,0.0,0.0,-5.6361,0.0,-0.0,-23.55896,-8.87065,21.15914,15.62775,1.33657,-21.05109,-35.90215,-9.22499,0.00037,-14.97964,-0.63449,-6e-05,35.28997,25.69087,24.75325,2.62714,3.31712,-17.96468,16.25004,14.42952,19.74507,54.2818,-10.08017,40.24443,106.85134,-0.00233,-115.61547,114.86363,0.00013,120.21901,-6.34094,-25.90013,-0.00286,-15.1454,3.51737,-0.00191,-6.5202,-7.96924,6.19816,-28.35524,-9.68909,2.80617,4.33671,2.3363,6.44321
643,2.73291,-0.0,0.0,-6.63787,0.0,0.0,-23.68478,-9.30368,21.57919,15.8769,1.17154,-21.30033,-36.01753,-9.6544,8e-05,-14.89868,-0.54732,0.00013,35.28424,25.81066,24.0971,2.46232,3.29951,-17.6138,16.50934,14.49568,19.87917,54.53685,-9.90878,40.34048,106.6151,1e-05,-115.73089,114.7869,-0.00053,120.32683,-6.3367,-26.04081,-0.00026,-15.40839,4.09229,-0.00034,-6.64421,-7.84379,6.48601,-28.46572,-9.67864,3.12199,4.35831,2.32876,6.56509
644,3.4634,0.0,0.0,-7.36874,0.0,0.0,-23.92525,-9.68465,21.9165,15.9288,0.75893,-21.5549,-36.09999,-9.90934,-7e-05,-14.75502,-0.39776,0.00033,35.34189,25.83268,23.59442,2.34464,3.22344,-17.2735,16.86348,14.63787,20.01884,54.76472,-9.57391,40.39883,106.32791,0.00212,-115.2291,114.72032,-0.00058,119.89133,-6.71229,-26.28868,0.00097,-15.5522,4.28336,0.00096,-6.61858,-7.74953,6.75649,-28.42835,-9.69071,3.40991,4.39104,2.22971,6.60456
645,4.01151,0.0,0.0,-7.52661,0.0,0.0,-24.15096,-9.93262,22.09089,15.76375,0.41335,-21.57049,-36.18436,-9.91652,-0.00029,-14.60188,-0.24838,0.0002,35.47979,25.81199,23.44244,2.34314,3.10811,-17.16574,17.27323,14.8854,20.21359,55.03695,-9.25309,40.49897,105.97388,0.00157,-114.44157,114.67257,-0.00071,119.35988,-6.91924,-26.59104,-0.00027,-15.41735,4.22032,-0.00043,-6.33659,-7.73368,7.05779,-28.13837,-9.78691,3.69713,4.47794,2.08999,6.60885
646,4.17926,0.0,-0.0,-7.04551,-0.0,-0.0,-24.15119,-10.05322,22.09072,15.51163,0.6021,-21.16508,-36.34156,-9.70759,-0.00101,-14.47886,-0.24705,-0.00017,35.61111,25.83874,23.70766,2.386,3.01779,-17.46879,17.62057,15.17989,20.38728,55.37139,-9.12822,40.63726,105.60291,-0.00076,-113.7365,114.61663,-0.00155,118.65793,-6.79809,-26.76784,-0.00062,-14.96889,3.98226,-0.00334,-5.87231,-7.79921,7.32672,-27.67163,-9.94671,3.92356,4.58326,1.99179,6.69226
647,3.94457,0.0,0.0,-6.13692,0.0,0.0,-23.9083,-10.06541,21.96315,15.30427,1.39248,-20.46121,-36.62459,-9.39946,-0.00136,-14.39684,-0.43876,-0.00029,35.71341,25.93752,24.22283,2.4107,2.98002,-18.08682,17.88018,15.41167,20.44847,55.71819,-9.20736,40.75222,105.24607,-0.00065,-113.12995,114.54941,-0.00186,117.81312,-6.58029,-26.69945,0.00045,-14.40668,3.69387,-0.00387,-5.44043,-7.91356,7.4985,-27.24279,-10.11608,4.04088,4.67811,1.97038,6.89003
648,3.65473,-0.0,-0.0,-5.34603,0.0,-0.0,-23.67409,-9.93633,21.84635,15.21661,2.2731,-19.90168,-36.98646,-9.1982,-0.0003,-14.35335,-0.65742,-0.00012,35.88365,26.05971,24.57997,2.46206,2.96625,-18.6265,18.14521,15.51697,20.44469,56.03727,-9.35103,40.8445,104.84224,0.00302,-112.34798,114.50408,-0.00111,117.53133,-6.52335,-26.42348,0.00041,-14.05982,3.71011,-0.00312,-5.23791,-8.02837,7.62675,-27.04452,-10.26985,4.11736,4.79593,2.00963,7.08988
649,3.59409,0.0,0.0,-5.02811,0.0,-0.0,-23.65748,-9.68773,21.82045,15.22238,2.73263,-19.81378,-37.30207,-9.21175,0.00074,-14.32771,-0.72247,4e-05,36.13063,26.15657,24.58835,2.56275,2.93732,-18.76835,18.4743,15.51577,20.51833,56.37051,-9.41254,40.98064,104.31125,0.0037,-111.37878,114.48127,-4e-05,118.32004,-6.75847,-26.04667,-0.00103,-14.05645,4.23461,-0.00428,-5.23806,-8.10011,7.84057,-27.04367,-10.4151,4.29007,4.92645,2.0669,7.1574
650,3.60301,0.0,0.0,-4.93257,0.0,0.0,-23.84552,-9.40419,21.79021,15.19808,2.7939,-20.01102,-37.4727,-9.32153,0.00057,-14.28348,-0.66328,5e-05,36.30381,26.20752,24.51988,2.63869,2.86949,-18.636,18.79402,15.47227,20.73738,56.77668,-9.33668,41.16558,103.67942,-0.00262,-110.64146,114.42549,0.00071,119.6251,-7.23889,-25.64408,-0.00195,-14.18286,4.9326,-0.0036,-5.16212,-8.11157,8.21963,-26.95744,-10.5651,4.6401,4.98956,2.08891,7.08473
651,3.49,0.0,-0.0,-4.72746,0.0,-0.0,-24.15557,-9.15723,21.68303,15.09303,2.76004,-20.07123,-37.49623,-9.38527,3e-05,-14.19724,-0.6245,-5e-05,36.3299,26.20925,24.61855,2.63947,2.76306,-18.58196,19.00052,15.45287,21.02491,57.22873,-9.18375,41.2989,103.05158,-0.00645,-110.22013,114.30436,-0.00041,120.36695,-7.75234,-25.24693,-0.0014,-14.16499,5.26801,-0.00135,-4.77942,-8.08969,8.7003,-26.55791,-10.72141,5.09798,4.97758,2.04758,6.97366
652,3.37965,0.0,-0.0,-4.53774,0.0,0.0,-24.52506,-9.0309,21.58755,15.00027,2.7082,-19.86519,-37.46726,-9.41661,-0.00028,-14.0801,-0.63794,-5e-05,36.32641,26.18571,24.76363,2.60868,2.643,-18.70302,19.1078,15.50752,21.25393,57.62878,-9.06413,41.29597,102.46847,-0.00031,-109.51069,114.16729,-0.00162,120.07399,-8.11706,-24.8968,-0.00029,-14.00702,5.11972,0.00018,-4.20938,-8.11184,9.10845,-25.97531,-10.89186,5.47165,4.9921,1.96071,6.90902
653,3.43694,0.0,0.0,-4.64026,0.0,0.0,-24.89355,-9.02855,21.55369,15.00671,2.49566,-19.57153,-37.51077,-9.48292,-0.00022,-13.97537,-0.61373,3e-05,36.42665,26.17999,24.78302,2.61061,2.5241,-18.83448,19.22635,15.654,21.38575,57.9016,-9.0177,41.19469,101.85423,0.00892,-108.13507,114.08823,-0.00083,119.23001,-8.31432,-24.64114,0.00046,-13.91782,4.80554,0.00169,-3.77906,-8.24641,9.33612,-25.54642,-11.1004,5.63401,5.10988,1.85879,6.87504
654,3.69676,0.0,0.0,-5.01057,0.0,-0.0,-25.20461,-9.07561,21.51177,15.10332,2.08699,-19.37893,-37.68367,-9.58554,-3e-05,-13.94641,-0.4939,-9e-05,36.64443,26.20133,24.68686,2.6797,2.38898,-18.87585,19.4107,15.87278,21.49843,58.05939,-8.98174,41.12025,101.11925,0.00902,-106.61334,114.08263,7e-05,118.66581,-8.38247,-24.41905,0.00157,-14.00046,4.61916,0.00217,-3.6209,-8.44843,9.47349,-25.39803,-11.33842,5.6863,5.30777,1.75289,6.78659
655,4.07737,0.0,0.0,-5.33494,-0.0,0.0,-25.36613,-9.24476,21.41925,15.24007,1.68417,-19.33249,-37.96071,-9.65807,-0.0003,-14.0399,-0.32955,-0.00024,36.90553,26.22336,24.5983,2.8205,2.21619,-18.89699,19.59136,16.12471,21.67488,58.1813,-8.89476,41.16193,100.27879,-0.0017,-105.74519,114.11069,5e-05,118.66999,-8.31654,-24.05742,0.00374,-14.1514,4.52524,0.00082,-3.57486,-8.56817,9.69669,-25.35254,-11.53151,5.85012,5.51097,1.64308,6.60837
656,4.33505,0.0,0.0,-5.38058,0.0,-0.0,-25.33062,-9.57958,21.26201,15.38541,1.54722,-19.34698,-38.30498,-9.6422,-0.00077,-14.2329,-0.22302,-3e-05,37.13144,26.25861,24.64741,2.99421,2.03023,-18.99464,19.67654,16.37915,21.87679,58.3245,-8.78274,41.27916,99.41213,-0.01096,-105.72535,114.13625,-0.00015,118.6393,-8.19337,-23.46458,0.00403,-14.15511,4.23007,-0.00303,-3.45852,-8.51745,10.03834,-25.21886,-11.60971,6.18959,5.65527,1.55346,6.41774
657,4.36436,0.0,0.0,-5.31321,-0.0,-0.0,-25.27245,-9.78564,20.99187,15.53749,1.71807,-19.33178,-38.68132,-9.60446,-0.00051,-14.44911,-0.20879,0.00025,37.30106,26.36511,24.80926,3.14348,1.89041,-19.15464,19.68531,16.6396,21.96611,58.46895,-8.71465,41.35561,98.50203,-0.00859,-106.01984,114.15819,-0.00033,118.08104,-8.28817,-22.71669,-0.00105,-13.84469,3.63121,-0.00698,-3.25461,-8.40191,10.36545,-24.99249,-11.62229,6.5401,5.72697,1.53359,6.31704
658,4.58893,0.0,-0.0,-5.4604,0.0,-0.0,-25.50423,-9.52275,20.54268,15.69202,1.97552,-19.24234,-39.02543,-9.68648,0.00016,-14.64754,-0.21552,0.00017,37.4224,26.54825,24.92891,3.24753,1.79056,-19.32288,19.72053,16.93885,21.87772,58.56504,-8.7115,41.34995,97.42443,0.00289,-105.93488,114.18225,-0.00062,117.53851,-8.82716,-21.94073,-0.00696,-13.34002,3.14044,-0.00493,-3.01598,-8.40287,10.58635,-24.74431,-11.7041,6.74702,5.76911,1.58104,6.3203
659,5.81128,0.0,0.0,-5.94487,-0.0,-0.0,-26.23545,-8.79471,19.86423,15.84496,2.08697,-19.04404,-39.26771,-9.93898,0.00023,-14.85714,-0.16619,-0.00012,37.46569,26.73707,24.94256,3.31823,1.64,-19.52597,19.80907,17.28333,21.72716,58.61592,-8.73191,41.32002,96.15956,0.01,-105.26022,114.17045,-0.00093,117.54793,-9.63461,-21.25775,-0.00571,-13.02983,3.15365,-0.00083,-2.74909,-8.53961,10.76343,-24.48009,-11.89596,6.8615,5.83212,1.60635,6.36086
660,8.40254,-0.0,0.0,-6.71747,0.0,0.0,-27.40533,-7.90901,19.00575,16.03403,2.02386,-18.80288,-39.40064,-10.30615,7e-05,-15.11283,-0.06831,-0.00025,37.41216,26.88715,24.88227,3.3727,1.40241,-19.75633,19.85644,17.62302,21.67224,58.6785,-8.73291,41.29734,94.8786,0.00515,-104.28503,114.06117,-0.00179,117.64278,-10.28738,-20.76238,0.001,-13.106,3.39554,0.00086,-2.45005,-8.6846,10.97539,-24.18282,-12.10825,7.00565,5.92713,1.53986,6.39093
661,11.35127,-0.0,0.0,-7.53249,-0.0,-0.0,-28.60179,-7.24843,18.13103,16.28404,1.9067,-18.71253,-39.51502,-10.67677,0.00038,-15.39853,0.0268,-0.00014,37.36615,27.01523,24.75283,3.44443,1.15876,-19.87612,19.79198,17.91837,21.69705,58.79493,-8.72035,41.23433,93.72191,-0.00212,-103.26514,113.86413,-0.00263,117.27723,-10.62524,-20.38786,0.00535,-13.30774,3.34111,0.00124,-2.15523,-8.79074,11.14198,-23.88875,-12.26781,7.12192,6.04149,1.41467,6.41724
662,12.65463,0.0,-0.0,-7.86973,-0.0,-0.0,-29.27247,-6.99771,17.37366,16.5296,1.8341,-18.86013,-39.73119,-10.89869,0.00014,-15.67778,0.10197,0.0,37.49207,27.10314,24.58213,3.57302,0.97142,-19.82657,19.66871,18.20628,21.6267,58.95337,-8.73352,41.09359,92.60957,-0.0028,-102.19791,113.67876,-0.00162,116.68093,-10.88458,-19.88271,0.00362,-13.33252,2.95792,0.00032,-1.89401,-8.93714,11.08888,-23.64186,-12.38437,7.01653,6.16485,1.28414,6.43159
663,11.17139,-0.0,0.0,-7.24523,-0.0,-0.0,-29.16055,-7.0154,16.72867,16.65363,1.81825,-19.04088,-40.08708,-10.84108,-0.00165,-15.95081,0.1591,0.0002,37.80406,27.079,24.55449,3.75188,0.78267,-19.82442,19.57443,18.5488,21.32969,59.09732,-8.79761,40.91204,91.34995,0.001,-101.09138,113.58884,-0.00045,116.29417,-11.35033,-19.02357,-0.00274,-13.24126,2.53874,0.00048,-1.64959,-9.15719,10.79831,-23.42849,-12.48233,6.66008,6.28527,1.13614,6.39735
664,7.83264,-0.0,0.0,-5.73441,0.0,-0.0,-28.54368,-7.01721,16.12061,16.60624,1.8117,-18.95858,-40.51404,-10.53456,-0.00303,-16.24675,0.18664,0.00043,38.14699,26.93928,24.85149,3.9273,0.51353,-20.17323,19.51242,18.9584,20.8073,59.16683,-8.92133,40.74701,89.84563,0.00657,-100.04464,113.58285,-0.00086,115.97289,-12.02488,-17.78111,-0.0071,-13.23291,2.15455,0.00128,-1.41497,-9.3538,10.47208,-23.22395,-12.54535,6.27907,6.40036,0.95254,6.32562
665,5.01213,0.0,-0.0,-4.22063,0.0,-0.0,-28.05424,-6.83126,15.5799,16.52169,1.74588,-18.65813,-40.89788,-10.27082,-0.00179,-16.58169,0.21431,0.00029,38.40863,26.79761,25.25636,4.06652,0.18878,-20.84529,19.40995,19.43158,20.09438,59.16133,-9.11529,40.60434,88.1512,0.01144,-99.05174,113.5913,-0.00219,115.26835,-12.6848,-16.27752,-0.00627,-13.23589,1.73773,0.00108,-1.25109,-9.40606,10.29668,-23.07154,-12.52956,6.09458,6.53528,0.77328,6.28843
666,4.47578,0.0,0.0,-3.71321,0.0,0.0,-28.09528,-6.49978,15.23158,16.62949,1.62454,-18.55104,-41.18223,-10.36181,0.00031,-16.95482,0.31745,-0.00021,38.60283,26.77026,25.32759,4.18427,-0.10381,-21.42345,19.21348,19.98391,19.16638,59.15378,-9.36451,40.45846,86.39618,0.00192,-98.18678,113.55503,-0.00195,114.52737,-13.17672,-14.68532,-0.00466,-13.06019,1.52587,0.00117,-1.22198,-9.31033,10.2662,-23.03577,-12.42951,6.10243,6.69559,0.64319,6.36728
667,5.69971,0.0,0.0,-4.19123,0.0,-0.0,-28.39193,-6.16574,15.04704,16.96581,1.576,-18.89258,-41.43507,-10.7406,0.00099,-17.36202,0.50479,-0.00027,38.76105,26.86299,25.04559,4.29356,-0.32746,-21.56981,18.94725,20.58764,18.00655,59.22377,-9.61484,40.32286,84.67929,-0.02432,-97.77393,113.42445,0.00247,114.73086,-13.47,-13.13531,-0.00277,-12.88771,1.84131,0.00054,-1.24562,-9.16969,10.25859,-23.04827,-12.29614,6.14878,6.82162,0.56105,6.6277
668,6.72895,0.0,-0.0,-4.72035,-0.0,-0.0,-28.34604,-5.89915,14.82172,17.32883,1.69354,-19.50997,-41.76094,-11.05625,-0.00011,-17.78878,0.70712,0.00023,38.90244,26.98867,24.77549,4.39468,-0.5115,-21.3451,18.68023,21.15662,16.72324,59.40912,-9.81323,40.25262,83.00057,-0.03612,-97.72771,113.1395,0.00743,115.88676,-13.47755,-11.60528,0.00469,-13.10581,2.4578,-0.00067,-1.08084,-9.03237,10.14481,-22.87703,-12.12692,6.09422,6.85806,0.51349,7.07536
669,6.73027,-0.0,0.0,-4.79533,0.0,-0.0,-27.77466,-5.76155,14.48939,17.57788,1.85216,-20.12712,-42.16013,-11.14113,-0.00137,-18.21484,0.91222,0.00027,39.0901,27.0575,24.63945,4.50983,-0.69694,-20.98982,18.45566,21.64213,15.47121,59.71989,-9.92203,40.26567,81.27237,-0.00536,-97.11095,112.6777,0.00604,116.87244,-13.13125,-9.91674,0.01541,-13.59655,2.81521,0.00202,-0.55865,-8.85235,9.78333,-22.35481,-11.82719,5.82362,6.83041,0.49839,7.6046
