PaulMeinheit/Bachelor_Muay_Thai/processed_Data/E1/roundhouse/sliced/JointAngles/sliced2.csv
Unnamed: 0_level_0,L_MTP_ANGLE,L_MTP_ANGLE,L_MTP_ANGLE,R_MTP_ANGLE,R_MTP_ANGLE,R_MTP_ANGLE,L_ANKLE_ANGLE,L_ANKLE_ANGLE,L_ANKLE_ANGLE,R_ANKLE_ANGLE,R_ANKLE_ANGLE,R_ANKLE_ANGLE,L_KNEE_ANGLE,L_KNEE_ANGLE,L_KNEE_ANGLE,R_KNEE_ANGLE,R_KNEE_ANGLE,R_KNEE_ANGLE,L_HIP_ANGLE,L_HIP_ANGLE,L_HIP_ANGLE,R_HIP_ANGLE,R_HIP_ANGLE,R_HIP_ANGLE,L_SHOULDER_ANGLE,L_SHOULDER_ANGLE,L_SHOULDER_ANGLE,R_SHOULDER_ANGLE,R_SHOULDER_ANGLE,R_SHOULDER_ANGLE,L_ELBOW_ANGLE,L_ELBOW_ANGLE,L_ELBOW_ANGLE,R_ELBOW_ANGLE,R_ELBOW_ANGLE,R_ELBOW_ANGLE,L_WRIST_ANGLE,L_WRIST_ANGLE,L_WRIST_ANGLE,R_WRIST_ANGLE,R_WRIST_ANGLE,R_WRIST_ANGLE,NECK_ANGLE,NECK_ANGLE,NECK_ANGLE,NECK_ANGLE_SHADOW,NECK_ANGLE_SHADOW,NECK_ANGLE_SHADOW,Trunk_Joint_Angle,Trunk_Joint_Angle,Trunk_Joint_Angle
ITEM,X,Y,Z,X,Y,Z,X,Y,Z,X,Y,Z,X,Y,Z,X,Y,Z,X,Y,Z,X,Y,Z,X,Y,Z,X,Y,Z,X,Y,Z,X,Y,Z,X,Y,Z,X,Y,Z,X,Y,Z,X,Y,Z,X,Y,Z
1468,-3.51608,-0.0,0.0,-7.87956,0.0,0.0,-24.53004,-11.60005,15.34903,8.25749,4.19031,-15.54824,-23.9452,-6.13359,-0.00117,0.13912,2.10281,-0.00032,31.3331,24.24042,22.31014,-0.11581,3.10225,-17.59214,19.80406,17.58624,15.26445,46.46041,-2.91837,42.61673,126.39651,5e-05,-106.58328,122.22504,-0.00068,124.06338,-11.42755,-17.91696,0.00274,-17.53891,12.8294,-0.00017,-1.51942,-12.79583,9.64717,-23.6781,-15.43429,4.17767,1.35094,4.17327,9.4425
1469,-3.459,0.0,0.0,-7.89595,0.0,-0.0,-24.83028,-11.41945,15.22888,8.39186,4.37928,-15.25789,-24.37322,-6.00288,-0.00063,0.06136,2.22166,-0.00028,31.56666,24.3216,22.75277,-0.1174,2.99059,-17.85884,19.70697,17.47994,15.40619,46.46142,-3.07844,42.583,126.34529,-0.00128,-106.49772,122.2896,-0.00109,124.71678,-11.79229,-18.0884,0.00122,-17.93523,12.85874,0.00119,-1.50871,-13.08263,9.58825,-23.69914,-15.67821,4.0101,1.34953,4.28472,9.32873
1470,-3.72312,-0.0,-0.0,-7.7722,0.0,0.0,-25.02463,-11.08584,15.26546,8.41602,4.5681,-14.99837,-24.7436,-6.09395,9e-05,0.00923,2.27256,-0.0001,31.78015,24.55458,23.05121,-0.0051,2.94097,-17.99661,19.40367,17.6343,15.76581,46.53265,-3.12525,42.74534,126.39449,-0.00079,-106.17696,122.329,0.00016,124.7379,-12.39571,-18.01645,-0.00457,-18.25561,12.67337,0.00243,-1.23815,-13.19681,9.69784,-23.43779,-15.82424,4.06795,1.38268,4.39056,9.19557
1471,-4.38906,0.0,0.0,-7.55485,0.0,-0.0,-25.07951,-10.90095,15.47909,8.3237,4.66511,-14.89595,-24.93316,-6.45546,-0.0002,-0.00584,2.22448,1e-05,31.86593,24.9145,23.12849,0.17586,2.9632,-17.86707,19.06112,18.03145,16.1523,46.77755,-3.12465,42.9611,126.41025,0.00076,-105.57529,122.26834,0.00183,124.7192,-13.35153,-17.68206,-0.00966,-18.29308,12.49934,0.00191,-0.87478,-13.10033,9.94624,-23.05711,-15.82626,4.33863,1.42404,4.43132,9.14144
1472,-5.11291,0.0,0.0,-7.4957,0.0,0.0,-25.15418,-10.99921,15.8033,8.23748,4.60111,-15.03829,-24.98967,-6.92803,-0.00045,-0.03571,2.14073,5e-05,31.90407,25.23775,22.97641,0.3721,2.9895,-17.52847,18.86125,18.41003,16.32767,47.14055,-3.22073,42.97987,126.34394,0.00138,-105.23414,122.1219,0.00231,124.95045,-14.40339,-17.36884,-0.00643,-17.82133,12.33336,-0.00163,-0.65857,-12.9119,10.19553,-22.81331,-15.74341,4.64627,1.47966,4.39183,9.18095
1473,-5.30775,0.0,-0.0,-7.52462,0.0,0.0,-25.47824,-11.29401,16.05484,8.1586,4.40546,-15.28598,-25.0599,-7.25216,-0.0002,-0.09199,2.09782,1e-05,32.0235,25.37952,22.82498,0.53595,2.93963,-17.24482,18.91551,18.57696,16.23375,47.51508,-3.46294,42.72678,126.22472,0.00128,-105.39574,121.96068,0.0004,124.91647,-15.0668,-17.36329,-0.00084,-16.87072,12.03646,-0.00587,-0.63422,-12.70018,10.38563,-22.7605,-15.61718,4.90748,1.54234,4.27703,9.23552
1474,-4.86704,0.0,-0.0,-7.38203,0.0,-0.0,-26.06916,-11.64839,16.09232,7.99633,4.19237,-15.43425,-25.2522,-7.31458,-0.0006,-0.13739,2.10633,-1e-05,32.25602,25.36476,22.95365,0.6664,2.79656,-17.17876,19.2016,18.60314,16.04171,47.90359,-3.74849,42.39441,126.03964,0.00182,-105.68668,121.82388,-0.00119,124.13248,-15.1298,-17.56518,0.00043,-15.92285,11.6805,-0.00552,-0.65785,-12.45529,10.60118,-22.75123,-15.46947,5.20546,1.59264,4.09647,9.22089
1475,-4.26128,0.0,0.0,-7.11375,0.0,-0.0,-26.74766,-11.89979,15.9211,7.80983,4.07763,-15.46661,-25.63774,-7.18287,-0.00185,-0.15178,2.12966,-2e-05,32.56752,25.32671,23.40864,0.74164,2.62077,-17.296,19.58604,18.64709,15.91559,48.28478,-3.95585,42.14532,125.76307,0.00146,-105.88205,121.71909,-0.00016,122.83277,-14.84142,-17.70745,0.00036,-15.51168,11.39302,-0.00351,-0.6076,-12.2329,10.89554,-22.66734,-15.37146,5.56859,1.60846,3.88635,9.0885
1476,-3.90998,0.0,-0.0,-7.0448,0.0,0.0,-27.36348,-11.96183,15.67159,7.78542,4.12336,-15.54977,-26.21749,-6.99907,-0.00228,-0.16188,2.15155,-7e-05,32.89621,25.35681,24.00198,0.70529,2.47177,-17.47978,19.9305,18.74071,15.83675,48.51724,-4.08809,41.91147,125.45168,-0.00143,-106.40074,121.66058,0.00165,121.29587,-14.58716,-17.79908,0.00042,-15.62632,10.96872,-0.00425,-0.50617,-12.1551,11.1496,-22.54823,-15.39258,5.83759,1.57069,3.69926,8.86715
1477,-3.86328,-0.0,-0.0,-7.41473,0.0,-0.0,-27.84326,-12.01706,15.51856,7.98773,4.29009,-15.82663,-26.81942,-6.95732,-0.00098,-0.21306,2.18258,-0.00013,33.13982,25.47478,24.48471,0.61182,2.33872,-17.56336,20.14713,18.82837,15.75465,48.58012,-4.23165,41.60345,125.19958,-0.00308,-107.54027,121.61501,0.00165,119.64516,-14.53734,-17.97419,0.00034,-15.80977,10.18242,-0.00756,-0.46982,-12.26313,11.23172,-22.51988,-15.52284,5.87271,1.50856,3.56218,8.67484
1478,-4.01618,0.0,0.0,-8.14221,0.0,-0.0,-28.16058,-12.27673,15.50574,8.29219,4.45048,-16.20958,-27.22779,-7.20979,-2e-05,-0.34016,2.19856,2e-05,33.22419,25.67061,24.73048,0.62315,2.18868,-17.46021,20.2198,18.89326,15.72385,48.6788,-4.42565,41.29398,125.01151,-0.00081,-108.64017,121.50175,0.00234,118.72141,-14.68461,-18.07894,-0.0012,-15.77055,9.46479,-0.00695,-0.58884,-12.46111,11.17036,-22.66204,-15.68382,5.73782,1.49029,3.46716,8.59765
1479,-4.42639,0.0,0.0,-8.95337,-0.0,0.0,-28.35004,-12.65785,15.55421,8.57812,4.52192,-16.49837,-27.44426,-7.7041,4e-05,-0.54121,2.1422,0.00037,33.20544,25.90122,24.77781,0.7843,2.03601,-17.28831,20.24287,18.97044,15.78839,48.94406,-4.64869,41.07063,124.78149,0.00405,-108.75952,121.3364,0.00385,119.53786,-14.96475,-17.81174,-0.00369,-15.49044,9.50813,0.00131,-0.79863,-12.61897,11.08481,-22.8918,-15.7987,5.59577,1.53536,3.38849,8.57997
1480,-5.2443,0.0,-0.0,-9.58859,0.0,-0.0,-28.48305,-12.93804,15.64208,8.82745,4.51704,-16.66627,-27.66364,-8.21245,2e-05,-0.75529,2.01576,0.00044,33.21071,26.09831,24.76933,0.94465,1.91153,-17.20692,20.33575,19.07794,15.91183,49.25189,-4.88674,40.89644,124.43761,0.00682,-107.89594,121.24593,0.00143,121.53632,-15.15244,-17.2343,-0.00357,-15.00658,10.22262,0.00762,-0.87831,-12.68341,11.08546,-22.97833,-15.85864,5.57119,1.5908,3.30677,8.49575
1481,-6.24304,0.0,0.0,-9.79736,0.0,0.0,-28.629,-13.0147,15.8012,9.01243,4.45719,-16.84393,-28.0243,-8.53747,-0.00076,-0.90796,1.90388,0.0001,33.29809,26.23367,24.88716,0.95231,1.8205,-17.23004,20.49226,19.16828,16.05972,49.44354,-5.13135,40.69914,124.05685,0.0036,-106.87292,121.29405,0.00019,122.94299,-14.9107,-16.79521,-0.00352,-14.42487,10.90065,0.00482,-0.69573,-12.67146,11.23466,-22.78884,-15.90233,5.71608,1.60351,3.23911,8.27818
1482,-6.86003,0.0,0.0,-9.53484,0.0,0.0,-28.80578,-12.93497,16.05216,9.09567,4.33645,-17.1194,-28.50312,-8.68124,-0.00138,-1.00142,1.87576,-0.00027,33.44092,26.35053,25.1949,0.8224,1.762,-17.271,20.61801,19.17717,16.20802,49.53595,-5.34806,40.45604,123.7592,-0.00035,-106.26403,121.40913,0.00178,122.87038,-14.19771,-16.73742,-0.00581,-13.8506,11.16239,-0.00108,-0.41131,-12.59762,11.46492,-22.48753,-15.91838,5.96144,1.56253,3.2257,7.95931
1483,-6.86793,-0.0,0.0,-9.18462,0.0,-0.0,-28.93893,-12.77475,16.46517,9.14363,4.14359,-17.45349,-29.01344,-8.84151,-0.0002,-1.13099,1.90795,-0.00042,33.61983,26.51793,25.51094,0.70911,1.74309,-17.27341,20.68174,19.12251,16.28693,49.66769,-5.5279,40.16946,123.54419,-0.00013,-105.93861,121.47612,0.00051,121.65717,-13.47259,-16.73307,-0.00579,-13.41566,11.00412,-0.00206,-0.29663,-12.44157,11.57646,-22.35168,-15.81466,6.12729,1.49468,3.27369,7.63421
1484,-6.50342,0.0,-0.0,-9.1124,0.0,0.0,-28.91831,-12.57298,17.16376,9.25552,3.89105,-17.72299,-29.5054,-9.18872,0.00159,-1.39572,1.91216,-7e-05,33.86858,26.74515,25.6167,0.77745,1.74827,-17.26531,20.75045,19.10272,16.20768,49.94451,-5.73601,39.85183,123.30713,0.00206,-105.65081,121.42159,-0.00425,119.66701,-13.28002,-16.37461,-0.00639,-13.45264,10.33756,0.00781,-0.40817,-12.18722,11.4461,-22.44176,-15.53111,6.10383,1.47017,3.33205,7.39019
1485,-5.93633,0.0,0.0,-9.17432,0.0,0.0,-28.68756,-12.41771,18.20332,9.42614,3.66086,-17.85354,-29.97653,-9.63671,0.00163,-1.79688,1.82106,0.00062,34.19786,26.92953,25.56646,1.04875,1.71757,-17.31889,20.91829,19.19226,15.93052,50.3376,-6.04103,39.53525,122.96145,0.00204,-105.54528,121.24924,-0.00583,117.4576,-13.70933,-15.8532,-0.00503,-14.11897,9.16732,0.01933,-0.57297,-11.89614,11.18116,-22.58724,-15.1641,5.96795,1.55138,3.32852,7.24155
1486,-5.07442,-0.0,-0.0,-8.99744,-0.0,-0.0,-28.28012,-12.38358,19.49017,9.59195,3.58519,-17.91682,-30.44489,-9.94176,5e-05,-2.24567,1.64956,0.00085,34.52463,26.95141,25.62104,1.35967,1.59833,-17.46687,21.22089,19.37259,15.50209,50.70144,-6.41684,39.24565,122.49126,-0.00184,-105.88763,121.04559,-0.00106,116.29559,-14.37548,-15.7385,0.00103,-14.93558,7.97863,0.01458,-0.63618,-11.70859,10.96009,-22.64026,-14.90912,5.83298,1.70704,3.24128,7.13756
1487,-3.92197,0.0,0.0,-8.51148,0.0,0.0,-27.78407,-12.32807,20.82439,9.75173,3.72082,-18.05607,-30.92489,-10.00663,-0.00099,-2.67505,1.47991,0.00031,34.74044,26.82891,25.9249,1.53803,1.41325,-17.65239,21.57688,19.55019,15.05748,50.9148,-6.76944,38.95706,121.93054,-0.00716,-106.71331,120.92567,0.00202,116.78854,-14.81584,-16.1506,0.00276,-15.18848,7.41206,0.00541,-0.58223,-11.71753,10.85632,-22.59119,-14.87934,5.73204,1.841,3.1308,7.02031
1488,-2.78582,-0.0,0.0,-7.9659,0.0,-0.0,-27.25993,-12.04963,21.98499,9.95878,3.93135,-18.34847,-31.41284,-9.94051,-0.00058,-3.11039,1.38835,-0.00056,34.80923,26.69011,26.39436,1.57274,1.2333,-17.751,21.83852,19.63249,14.74785,50.99695,-7.05116,38.62318,121.33186,-0.00822,-107.73615,120.93037,0.0012,117.99738,-14.90949,-16.59529,0.00058,-14.74179,7.56963,0.00491,-0.42246,-11.87747,10.91404,-22.44524,-15.0488,5.7242,1.89298,3.07907,6.84048
1489,-1.94137,0.0,0.0,-7.54859,0.0,-0.0,-26.74502,-11.64426,22.7751,10.21994,3.95417,-18.7649,-31.89369,-9.84551,-0.0,-3.62304,1.37482,-0.00109,34.7626,26.62293,26.90045,1.56612,1.107,-17.65909,21.94571,19.59972,14.62463,51.05775,-7.29097,38.26799,120.7263,-0.00063,-108.4089,120.98131,0.00047,118.8261,-15.00319,-16.65211,-0.00152,-14.146,7.95722,0.00334,-0.11873,-12.0703,11.18227,-22.15076,-15.32597,5.90129,1.86119,3.11241,6.55712
1490,-1.29993,-0.0,0.0,-7.20764,0.0,0.0,-26.34959,-11.40276,23.06673,10.47526,3.67061,-19.20668,-32.35524,-9.69903,-0.00032,-4.23949,1.36065,-0.00075,34.65518,26.6277,27.41719,1.59658,1.05069,-17.41108,21.99722,19.4925,14.60009,51.17356,-7.5172,37.97093,120.07809,0.01395,-108.24087,120.95951,-0.00037,119.06429,-15.57721,-16.37959,-0.00381,-13.93301,8.13085,-0.0005,0.27581,-12.19572,11.52814,-21.7553,-15.56907,6.17769,1.77083,3.20406,6.1842
1491,-0.61,0.0,-0.0,-6.79229,0.0,-0.0,-26.22928,-11.40765,22.88416,10.66546,3.25974,-19.56771,-32.77637,-9.46145,-0.00083,-4.90609,1.25762,0.00016,34.54358,26.65122,27.95752,1.67982,1.05531,-17.18957,22.13319,19.34809,14.51208,51.36496,-7.71775,37.7619,119.30788,0.02169,-107.39343,120.80513,-0.00158,118.93762,-16.7103,-16.08377,-0.00198,-14.11416,8.16022,-0.00269,0.53141,-12.17333,11.60558,-21.49415,-15.5767,6.25925,1.67103,3.30532,5.81942
1492,0.09101,0.0,-0.0,-6.20425,0.0,0.0,-26.43448,-11.38573,22.40172,10.76475,2.9821,-19.8009,-33.11031,-9.20364,-0.00053,-5.54188,1.03387,0.0008,34.45396,26.62153,28.46671,1.80676,1.07798,-17.16224,22.35803,19.1891,14.27798,51.63266,-7.88878,37.59163,118.41444,0.00642,-107.06489,120.54527,-0.00111,118.81767,-17.78027,-16.13136,-0.0004,-14.31581,8.3812,-0.00065,0.48717,-11.94927,11.22859,-21.53063,-15.23076,5.99189,1.61916,3.35402,5.56498
1493,0.47546,-0.0,0.0,-5.42527,0.0,-0.0,-26.83581,-10.98776,21.82164,10.78522,2.89685,-19.94033,-33.31719,-9.05245,0.0001,-6.12667,0.72687,0.00082,34.35336,26.50125,28.88426,1.96813,1.06485,-17.31813,22.50556,19.05266,14.03911,51.92828,-8.07898,37.37777,117.53563,-0.01583,-108.48518,120.27922,0.00068,119.196,-17.84659,-16.76413,-0.01367,-14.07759,8.9133,0.00703,0.29043,-11.58627,10.67271,-21.71247,-14.69026,5.61047,1.6336,3.30815,5.41417
1494,0.45389,0.0,-0.0,-4.57932,0.0,0.0,-27.16364,-10.26767,21.30895,10.81826,2.8867,-20.09251,-33.41756,-9.02309,0.00024,-6.71928,0.41921,0.00022,34.21276,26.30745,29.23264,2.16127,0.99302,-17.48873,22.41169,18.98009,14.03306,52.14788,-8.36179,37.03651,116.80726,-0.01774,-111.2654,120.11713,0.00079,120.06561,-16.64525,-17.76705,-0.02472,-13.1667,9.48007,0.00943,0.22274,-11.28917,10.37101,-21.76246,-14.30404,5.44218,1.69303,3.19248,5.25303
1495,0.38682,0.0,0.0,-4.01523,0.0,0.0,-27.16027,-9.68457,21.00984,11.01757,2.83443,-20.41944,-33.48472,-9.02866,9e-05,-7.37557,0.1884,-0.00081,34.10357,26.08125,29.46034,2.38503,0.90508,-17.5018,22.10651,18.97176,14.25943,52.2433,-8.77354,36.53206,116.18032,-0.00688,-113.73248,120.07652,0.00026,120.54659,-15.05411,-18.59242,-0.01018,-11.87902,9.5803,-0.0005,0.37765,-11.21714,10.40977,-21.59928,-14.25148,5.50638,1.76862,3.10084,4.97663
1496,0.62826,0.0,0.0,-4.02798,0.0,0.0,-26.75566,-9.57101,21.00207,11.44391,2.71336,-21.02522,-33.57633,-9.04703,-1e-05,-8.08676,0.02905,-0.00101,34.11485,25.893,29.3854,2.62207,0.90559,-17.29506,21.77621,18.98063,14.43216,52.29277,-9.29744,35.96047,115.44582,0.00029,-114.83537,120.06445,-0.00075,119.84407,-14.27683,-18.89463,0.00634,-10.87194,9.01072,-0.0055,0.61346,-11.32787,10.55168,-21.36882,-14.40624,5.59681,1.81597,3.14458,4.62016
1497,1.14415,0.0,-0.0,-4.40151,-0.0,0.0,-26.07939,-9.82304,21.14125,11.95432,2.61825,-21.76773,-33.69548,-9.10029,-0.00017,-8.80889,-0.16553,0.00039,34.18324,25.82139,29.04769,2.83344,1.06522,-16.98324,21.54799,18.96062,14.30211,52.39151,-9.88163,35.51114,114.41505,0.00381,-114.68356,119.97072,-0.0037,118.2618,-14.76995,-18.66731,0.00272,-10.5652,8.18699,-7e-05,0.75191,-11.47008,10.63606,-21.24099,-14.56908,5.62103,1.7877,3.36105,4.35504
1498,1.68432,-0.0,-0.0,-4.63668,0.0,0.0,-25.33161,-10.08506,21.13828,12.34702,2.66667,-22.35544,-33.81494,-9.1515,-0.00055,-9.50618,-0.46211,0.00159,34.16079,25.85342,28.7648,2.99095,1.31,-16.78444,21.37381,18.91845,13.88391,52.52371,-10.42583,35.28296,113.0261,0.00618,-113.6337,119.72979,-0.00512,116.785,-16.09947,-17.97045,-0.00965,-10.92573,7.63938,0.00254,0.75664,-11.53649,10.72068,-21.23958,-14.66171,5.67479,1.71168,3.65559,4.29241
1499,2.12843,0.0,0.0,-4.69303,0.0,0.0,-24.63308,-10.16292,20.98228,12.59665,2.77578,-22.75296,-33.91803,-9.21669,-0.00072,-10.16852,-0.75656,0.00077,34.02863,25.89222,28.61739,3.12678,1.48008,-16.71159,21.12064,18.91446,13.34994,52.60605,-10.80447,35.19867,111.33797,-0.00161,-111.95638,119.33207,-0.00062,116.19263,-17.48703,-16.91085,-0.00946,-11.6623,7.43168,0.00072,0.69246,-11.52085,10.86112,-21.29687,-14.69874,5.81274,1.70689,3.88251,4.35807
1500,2.49064,0.0,-0.0,-4.94575,0.0,0.0,-23.97007,-10.15212,20.96772,12.82823,2.70672,-23.18495,-34.03738,-9.40198,-0.00033,-10.81591,-0.90769,-0.00073,33.91336,25.89983,28.34763,3.31387,1.51458,-16.55404,20.74021,18.99787,12.78846,52.60208,-10.98035,35.10139,109.47057,-0.01703,-109.92329,118.83202,0.00756,116.74053,-18.40597,-15.75693,0.00388,-12.29341,7.31536,-0.0011,0.56977,-11.4904,10.94652,-21.41324,-14.70184,5.90475,1.86558,3.98701,4.4307
1501,2.70984,0.0,0.0,-5.44539,-0.0,0.0,-23.29581,-10.11682,21.19239,13.11137,2.3992,-23.69239,-34.24404,-9.71589,0.00023,-11.47558,-0.93737,-0.00081,33.92243,25.91265,27.84274,3.58688,1.48393,-16.27834,20.33233,19.13856,12.10866,52.53807,-11.03466,34.8709,107.50436,-0.01268,-107.37138,118.29471,0.01094,118.06366,-18.87372,-14.61916,0.01156,-12.41279,7.17238,-0.0022,0.38113,-11.48936,10.8427,-21.60582,-14.66278,5.80763,2.15735,4.00392,4.49587
1502,2.72489,0.0,-0.0,-5.82645,0.0,0.0,-22.64317,-9.95072,21.44479,13.41989,2.04278,-24.09768,-34.56662,-10.04371,0.00028,-12.13891,-0.9517,0.0,34.06186,25.92578,27.2634,3.91228,1.44041,-16.07215,20.02894,19.24452,11.17113,52.4514,-11.04797,34.47736,105.40873,0.01575,-103.79671,117.71719,0.00292,119.1706,-19.26407,-13.19418,0.00232,-12.17812,7.07892,-0.00159,0.26355,-11.47268,10.59695,-21.73107,-14.55714,5.58331,2.48416,3.95377,4.59104
1503,2.69102,0.0,-0.0,-5.86259,-0.0,-0.0,-22.11295,-9.62715,21.54903,13.71862,1.80662,-24.3617,-34.97169,-10.31618,0.00022,-12.74434,-0.96244,0.00014,34.28325,25.91418,26.74026,4.21276,1.37326,-16.00146,19.82573,19.25809,9.9411,52.34303,-11.05843,33.98292,103.09467,0.03128,-99.37071,117.05677,-0.01099,119.16861,-19.88221,-11.2121,-0.01681,-12.18857,7.0351,0.00066,0.40024,-11.37096,10.35737,-21.59327,-14.37487,5.39778,2.77899,3.84696,4.71034
1504,2.8867,-0.0,-0.0,-5.70438,-0.0,0.0,-21.79332,-9.32341,21.50009,13.98642,1.70028,-24.62663,-35.44113,-10.56147,0.00074,-13.22362,-0.92802,-0.00016,34.53627,25.94458,26.24598,4.39837,1.31476,-15.95948,19.55227,19.22081,8.51895,52.16713,-11.12828,33.49797,100.53867,0.02269,-95.01148,116.31412,-0.01574,118.27157,-20.66422,-8.79378,-0.02294,-12.77985,6.89755,0.00418,0.74534,-11.18845,10.13261,-21.23876,-14.12311,5.25741,3.01822,3.75195,4.84357
1505,3.40675,-0.0,0.0,-5.59852,0.0,-0.0,-21.70528,-9.26812,21.32374,14.20656,1.7066,-24.95684,-36.00583,-10.78344,0.00097,-13.56846,-0.88033,-8e-05,34.7754,26.11044,25.76901,4.4096,1.33032,-15.90602,19.02592,19.21849,7.10528,51.90319,-11.29765,33.12363,97.80312,0.02933,-91.23214,115.5236,-0.00843,117.40755,-21.15691,-6.206,-0.00147,-13.66949,6.58829,0.00584,1.04854,-10.99566,9.8096,-20.9286,-13.82569,5.02888,3.17778,3.73493,5.02369
1506,4.07994,0.0,-0.0,-5.63249,0.0,-0.0,-21.81285,-9.47993,20.99001,14.38709,1.86191,-25.2598,-36.695,-10.89993,-4e-05,-13.82943,-0.88449,0.00019,34.98662,26.36603,25.40621,4.25885,1.39194,-15.95602,18.23576,19.25919,5.89157,51.62141,-11.48013,32.89384,94.92272,0.05516,-87.98293,114.6987,0.00441,117.0923,-20.87951,-3.80265,0.02614,-14.25272,6.19557,0.0029,1.1721,-10.83314,9.37033,-20.80437,-13.51356,4.67982,3.23825,3.75766,5.27012
1507,4.73746,0.0,0.0,-5.8139,0.0,-0.0,-22.08464,-9.6544,20.49784,14.56505,2.10954,-25.47743,-37.48933,-10.86109,-0.00118,-14.04231,-0.90949,0.00013,35.23985,26.54484,25.16558,4.01575,1.39309,-16.21761,17.34566,19.254,4.90102,51.42464,-11.51946,32.76065,91.82323,0.03877,-85.68476,113.85096,0.01981,117.32703,-19.78657,-2.20008,0.02196,-14.14691,5.90627,6e-05,1.21622,-10.65516,8.89139,-20.75866,-13.17243,4.29981,3.23471,3.72734,5.52904
1508,5.33705,0.0,0.0,-6.08076,0.0,-0.0,-22.48118,-9.51537,19.96791,14.73517,2.23961,-25.67921,-38.32512,-10.72047,-0.00104,-14.17609,-0.83662,5e-05,35.62468,26.54025,24.90019,3.73457,1.27907,-16.63101,16.50118,19.13872,3.96016,51.38511,-11.32289,32.71108,88.40567,-0.04685,-85.26302,112.99761,0.02795,117.70299,-18.28873,-1.96289,-0.0093,-13.531,5.88918,0.00107,1.33273,-10.40762,8.39154,-20.63439,-12.75901,3.92719,3.23478,3.60795,5.72578
1509,5.78742,-0.0,0.0,-6.20984,0.0,-0.0,-22.90224,-9.23524,19.5632,14.83274,2.12272,-25.91668,-39.13362,-10.56098,0.00018,-14.18383,-0.59964,0.00038,36.1211,26.40745,24.52498,3.43395,1.08362,-17.02154,15.66722,18.94714,2.82816,51.55299,-10.88219,32.89409,84.69332,-0.12637,-86.82786,112.08713,0.01176,117.19788,-16.92862,-3.00983,-0.02505,-12.94078,6.14925,0.00159,1.57308,-10.14565,7.87706,-20.38491,-12.32672,3.54659,3.27617,3.43273,5.8714
1510,5.99171,-0.0,-0.0,-6.05488,0.0,0.0,-23.2732,-9.19567,19.28376,14.85328,1.8902,-26.10659,-39.89686,-10.40441,0.0008,-14.09425,-0.26461,0.00054,36.63407,26.28489,24.1352,3.1449,0.86482,-17.31774,14.67564,18.73887,1.3672,51.90672,-10.22628,33.49405,80.81981,-0.12085,-89.05709,111.00872,-0.02954,114.77311,-16.07137,-4.4859,-0.01211,-12.63418,6.46927,0.00021,1.89644,-9.99668,7.44214,-20.05919,-12.02844,3.19727,3.37357,3.25203,6.06891
1511,6.08212,0.0,0.0,-5.80152,0.0,-0.0,-23.65996,-9.43028,18.93373,14.89504,1.77738,-26.1054,-40.6577,-10.18513,-0.00015,-13.99715,0.03447,0.00018,37.12947,26.22785,23.89941,2.9081,0.64199,-17.65332,13.38633,18.51722,-0.31518,52.30749,-9.41447,34.47585,76.85562,-0.05194,-90.26904,109.74881,-0.06036,110.55154,-15.63326,-5.35492,0.00489,-12.27732,6.60184,-0.00106,2.20321,-10.00301,7.12139,-19.75934,-11.91619,2.89538,3.55149,3.08428,6.39487
1512,6.41698,-0.0,-0.0,-5.80145,0.0,0.0,-24.21447,-9.64598,18.39037,15.03466,1.84538,-25.90553,-41.44663,-9.85651,-0.00117,-13.93077,0.22528,-8e-05,37.66427,26.14341,23.81523,2.71553,0.39622,-18.17517,11.80408,18.23637,-1.91309,52.61804,-8.5475,35.60113,72.73312,0.02206,-89.66961,108.45773,-0.04607,106.10741,-15.16329,-5.26326,0.01276,-11.43118,6.51044,-0.00219,2.39717,-10.06901,6.74413,-19.57729,-11.83843,2.5181,3.83205,2.90227,6.79189
1513,7.21901,-0.0,-0.0,-6.13152,-0.0,-0.0,-24.99306,-9.70257,17.75736,15.21768,1.92971,-25.6833,-42.25615,-9.46986,-0.00138,-13.83974,0.34301,3e-05,38.31223,25.92763,23.66442,2.50722,0.13515,-18.85128,10.11018,17.8326,-3.18822,52.82796,-7.72357,36.67312,68.34435,0.08797,-87.39613,107.29597,-0.00359,103.37038,-14.45675,-4.72119,0.01047,-10.1104,6.32047,-0.00218,2.4631,-10.04905,6.13359,-19.51879,-11.59493,1.9564,4.20208,2.6773,7.1311
1514,8.20496,-0.0,-0.0,-6.38302,0.0,-0.0,-25.85202,-9.73479,17.1673,15.30584,1.89215,-25.58286,-43.10963,-9.09172,-0.00155,-13.65875,0.43695,0.00015,39.09224,25.63951,23.31704,2.25172,-0.07196,-19.54734,8.53709,17.23354,-4.08278,52.99723,-6.95277,37.66131,63.64774,0.14143,-84.00354,106.27406,0.0297,103.21428,-13.87403,-4.30316,0.00227,-8.65633,6.10846,-0.00182,2.46095,-9.87013,5.38032,-19.51558,-11.15133,1.32293,4.62383,2.42376,7.41437
1515,8.81006,0.0,-0.0,-6.13869,-0.0,-0.0,-26.53534,-9.86505,16.65962,15.25344,1.84639,-25.57596,-44.05209,-8.77829,-0.0009,-13.385,0.48954,-0.00013,39.92722,25.46338,22.85876,1.97217,-0.15912,-20.16072,7.127,16.39193,-4.50859,53.14516,-6.13274,38.67471,58.71214,0.13129,-80.44221,105.28856,0.03882,105.01222,-13.84502,-4.00523,-0.00416,-7.35019,5.87457,-0.00139,2.48565,-9.60324,4.77535,-19.47594,-10.68076,0.86146,5.06528,2.17698,7.82779
1516,8.67279,-0.0,-0.0,-5.49547,-0.0,0.0,-26.84159,-10.06463,16.28457,15.16016,1.97202,-25.57437,-45.05379,-8.60528,0.00104,-13.05812,0.4889,-0.00037,40.66914,25.47799,22.38985,1.67257,-0.15966,-20.63869,5.6966,15.32817,-4.20713,53.26664,-5.14929,39.92064,53.67368,0.0319,-78.05042,104.26785,0.02387,107.2394,-14.29563,-3.69948,-0.00796,-6.33805,5.66335,0.00045,2.65503,-9.38493,4.51941,-19.29271,-10.3839,0.70634,5.49829,1.93719,8.51458
1517,7.8165,-0.0,0.0,-4.85079,0.0,-0.0,-26.7477,-10.24415,16.10518,15.09467,2.16794,-25.54314,-46.01311,-8.58057,0.00184,-12.72866,0.51444,-0.00012,41.22838,25.54719,21.91919,1.32506,-0.18937,-20.98599,4.09068,14.11403,-2.91153,53.42067,-3.99167,41.61232,48.64656,-0.07866,-77.6944,103.24666,-0.004,108.4377,-14.72425,-3.77536,-0.0136,-5.69377,5.53007,0.00224,3.04556,-9.26571,4.55762,-18.89386,-10.28741,0.78718,5.89496,1.67549,9.3945
1518,6.70749,0.0,0.0,-4.43601,0.0,0.0,-26.43536,-10.38044,16.09929,14.99044,2.15002,-25.48229,-46.86374,-8.586,-3e-05,-12.44969,0.65242,0.0001,41.66904,25.49002,21.41468,0.93164,-0.30181,-21.28281,2.35527,12.83323,-0.51523,53.69276,-2.7288,43.80706,43.71132,-0.11357,-79.0402,102.34229,-0.02088,108.12772,-14.77524,-4.80535,-0.02277,-5.28554,5.36992,0.00062,3.60818,-9.20646,4.62763,-18.32685,-10.25827,0.87482,6.2317,1.40973,10.30261
1519,6.07676,0.0,0.0,-4.20416,0.0,-0.0,-26.17957,-10.54278,16.18553,14.77471,1.87102,-25.40928,-47.6066,-8.52727,-0.00202,-12.24035,0.8835,-0.00019,42.1439,25.23888,20.78496,0.53403,-0.43614,-21.63536,0.65649,11.57794,2.98523,54.02283,-1.4245,46.34279,38.94002,-0.07828,-81.07432,101.71467,-0.01624,107.25541,-14.7555,-6.78255,-0.0113,-4.71886,4.98864,-0.00501,4.21942,-9.18871,4.41859,-17.71549,-10.16472,0.68706,6.50854,1.19827,11.19911
1520,6.37076,-0.0,0.0,-4.05546,0.0,-0.0,-26.18181,-10.75205,16.29826,14.51388,1.60396,-25.37353,-48.23587,-8.49766,-0.00131,-12.05491,1.13302,-0.00054,42.73178,24.77829,19.88841,0.14684,-0.55859,-22.1158,-0.87814,10.44683,7.66331,54.18804,-0.14866,48.99408,34.43097,-0.02371,-82.96112,101.47996,-0.00869,107.39265,-15.52832,-9.0082,0.02519,-3.77581,4.39685,-0.00742,4.82191,-9.21685,3.7656,-17.11647,-9.95002,0.06914,6.76002,1.01004,12.14437
1521,7.27546,0.0,0.0,-4.00823,0.0,0.0,-26.42885,-10.92515,16.36452,14.37125,1.60551,-25.41179,-48.73025,-8.64483,0.00074,-11.81355,1.38219,-0.00029,43.32222,24.09065,18.77753,-0.31227,-0.75724,-22.74514,-2.26642,9.56085,13.69321,54.07245,1.01406,51.6848,30.37949,0.01391,-84.28734,101.5647,-0.00795,108.86153,-17.56983,-10.57631,0.03323,-2.777,3.76496,-0.00084,5.48582,-9.23178,2.79338,-16.45108,-9.60533,-0.8398,6.99762,0.68407,13.15853
1522,7.97333,0.0,0.0,-4.09812,0.0,0.0,-26.69481,-10.97888,16.27015,14.45832,1.85595,-25.51702,-49.12769,-8.91844,0.00121,-11.46334,1.67737,0.00072,43.71126,23.22866,17.83183,-0.96052,-1.13705,-23.44683,-3.68262,9.09971,21.09314,53.85876,2.08603,54.48863,27.01174,0.01756,-85.0491,101.70374,-0.00618,110.17467,-20.18905,-10.88168,0.00278,-2.12285,3.09778,0.00775,6.33397,-9.12164,1.84215,-15.58831,-9.15246,-1.68102,7.18644,0.07301,14.2057
1523,7.89904,-0.0,0.0,-4.22972,0.0,-0.0,-26.72291,-10.89367,15.93222,14.73772,2.17551,-25.65372,-49.5325,-9.05699,-0.00113,-11.02184,2.03735,0.0015,43.82295,22.31977,17.48279,-1.801,-1.68105,-24.07705,-5.35345,9.22166,29.42058,53.81239,3.25525,57.41347,24.40063,0.00459,-85.41235,101.67112,-0.00668,110.0877,-22.32289,-9.97664,-0.01332,-1.67633,2.31029,0.00886,7.36501,-8.81788,1.14673,-14.53074,-8.61432,-2.21134,7.31815,-0.80467,15.28324
1524,7.16597,0.0,-0.0,-4.25782,0.0,0.0,-26.4023,-10.69954,15.46943,15.03629,2.4922,-25.77462,-50.02959,-8.8708,-0.00403,-10.57198,2.3818,0.00101,43.77382,21.49975,17.79618,-2.70187,-2.21738,-24.56448,-7.38929,9.91488,37.8593,53.93102,4.65039,60.24556,22.44529,0.00628,-85.13624,101.46356,-0.00757,109.15416,-23.98786,-8.56365,-0.00923,-0.92705,1.48304,-0.00155,8.37516,-8.3529,0.59193,-13.48674,-7.9784,-2.5507,7.44896,-1.73955,16.47774
1525,6.63442,-0.0,0.0,-4.27049,0.0,0.0,-25.83522,-10.45493,15.27989,15.17053,2.85392,-25.88602,-50.59681,-8.57432,-0.00273,-10.20022,2.59241,-0.00012,43.75574,20.89141,18.251,-3.49849,-2.50156,-24.92268,-9.66414,11.0429,45.77005,53.96154,6.05445,62.66901,20.97659,0.0138,-83.84682,101.18993,-0.00162,108.64728,-26.03566,-7.44446,-0.00236,0.30716,0.62035,-0.02071,9.15426,-7.86169,-0.15807,-12.66955,-7.2462,-3.06164,7.67116,-2.455,17.92942
1526,7.31202,0.0,0.0,-4.45455,0.0,0.0,-25.23071,-10.28656,15.73799,15.03829,3.25942,-25.9928,-51.10402,-8.61379,0.00135,-9.93507,2.60835,-0.00074,43.8842,20.51871,18.13585,-4.08907,-2.41174,-25.2441,-11.88256,12.52629,53.20776,53.75117,7.00799,64.50004,19.79914,0.00171,-82.15992,100.82713,0.01349,109.18407,-28.59529,-6.8794,0.00097,1.46133,-0.68597,-0.03158,9.68464,-7.51059,-1.35804,-12.09586,-6.47853,-4.04239,8.07065,-2.84226,19.72683
1527,9.37858,-0.0,0.0,-4.65969,0.0,-0.0,-24.74969,-10.31632,16.74,14.62029,3.654,-26.00553,-51.40139,-9.1166,0.00208,-9.75594,2.43744,-0.00047,44.12843,20.2136,17.25774,-4.46921,-2.08211,-25.6848,-13.80361,14.37946,60.78772,53.4285,7.24536,65.74337,18.75069,-0.01473,-81.21418,100.16646,0.02854,110.4058,-30.59002,-6.47352,-0.0008,1.68335,-3.01332,-0.0077,10.02203,-7.3646,-3.07049,-11.69946,-5.71366,-5.57409,8.69403,-3.06619,21.84208
1528,12.09958,-0.0,-0.0,-4.59023,0.0,0.0,-24.44883,-10.46832,17.77749,14.00279,3.99911,-25.93467,-51.41875,-9.80649,-0.00032,-9.67933,2.16433,0.00055,44.35971,19.74929,16.00901,-4.67514,-1.80348,-26.20671,-15.42226,16.61915,68.9079,53.21479,6.92699,66.53104,17.8009,0.0031,-80.62908,98.99087,0.01805,111.1664,-30.86724,-5.64938,0.01562,0.68089,-6.56037,0.03864,10.1293,-7.33252,-5.18114,-11.50198,-4.91058,-7.51585,9.55695,-3.36519,24.16857
1529,14.42824,0.0,0.0,-4.30977,0.0,0.0,-24.19647,-10.54489,18.51367,13.35701,4.26719,-25.99409,-51.20619,-10.3852,-0.00179,-9.8389,1.95226,0.00095,44.45711,19.04544,14.86791,-4.7084,-1.82197,-26.49947,-16.98739,19.16939,77.1415,53.16604,6.4637,67.10081,17.07645,0.04101,-78.31691,97.26249,-0.02079,110.44043,-29.35846,-4.21574,0.04565,-1.25781,-10.82819,0.05908,10.00862,-7.27188,-7.33763,-11.50298,-4.06768,-9.48878,10.65996,-3.79896,26.54907
1530,15.67251,0.0,-0.0,-4.13405,0.0,0.0,-23.72741,-10.41992,19.02678,12.76818,4.48718,-26.32046,-50.88828,-10.72818,-0.00132,-10.42436,1.94144,-0.0013,44.37244,18.17066,14.06033,-4.56471,-2.1924,-26.35816,-18.82541,21.81265,84.47447,53.13239,6.17621,67.70664,16.83033,0.03227,-72.99844,95.17844,-0.04603,108.25371,-27.0012,-2.59386,0.04675,-3.94358,-14.75341,0.02619,9.84844,-7.12792,-9.03527,-11.54815,-3.31764,-11.00682,11.93852,-4.23786,28.75688
1531,15.88135,0.0,-0.0,-4.04019,0.0,-0.0,-22.9515,-9.99426,19.43499,12.04171,4.80877,-26.77147,-50.5712,-10.78771,1e-05,-11.52004,2.12388,-0.00452,44.09179,17.23044,13.57277,-4.33246,-2.74406,-25.96917,-21.0519,24.30424,89.98328,52.89869,6.03388,68.37574,17.35045,-0.03124,-65.9604,93.05049,-0.02868,105.57369,-24.79989,-1.59431,0.01784,-7.47195,-17.40759,-0.03908,9.8532,-6.93615,-10.03273,-11.46666,-2.77849,-11.86015,13.19756,-4.54208,30.58908
1532,15.64001,0.0,-0.0,-3.55629,0.0,-0.0,-22.08204,-9.26959,19.5994,10.78712,5.42002,-27.09992,-50.26643,-10.57253,0.00099,-13.0805,2.34604,-0.00405,43.57709,16.30051,13.23978,-4.15372,-3.23974,-25.71368,-23.44821,26.57106,93.17062,52.35087,5.66812,68.75452,18.77904,-0.08607,-59.59433,91.0378,-0.00235,103.40108,-23.12497,-1.79994,-0.00394,-11.66836,-18.87508,-0.0571,10.00301,-6.73776,-10.6635,-11.26473,-2.36621,-12.37215,14.18929,-4.71054,32.05936
1533,15.55118,0.0,-0.0,-2.40559,-0.0,-0.0,-21.37537,-8.57381,19.32636,8.75702,6.34676,-27.22167,-49.90007,-10.24761,0.00069,-15.05142,2.45566,0.00088,42.81663,15.40819,12.75823,-4.04776,-3.5902,-25.77379,-25.6388,28.76037,94.11063,51.54204,4.7327,68.35821,20.98714,-0.09045,-55.22109,88.98155,-0.01222,101.94406,-21.63552,-3.05663,-0.01234,-15.98564,-20.14496,0.0159,10.06987,-6.55155,-11.57496,-11.12109,-1.86481,-13.14915,14.81357,-4.83698,33.39389
1534,15.49888,-0.0,-0.0,-0.93784,0.0,-0.0,-20.77457,-8.25218,18.65956,5.9478,7.36488,-27.16814,-49.4159,-10.01236,-0.00078,-17.41833,2.44011,0.00704,41.88936,14.56643,11.9096,-3.87507,-3.86638,-26.0559,-27.32289,31.1395,93.8623,50.59967,3.27575,67.04176,23.53557,-0.03437,-53.45986,86.53064,-0.03744,100.88433,-19.67436,-4.72754,-0.02316,-20.30138,-21.68618,0.08384,9.86429,-6.37028,-13.04848,-11.19528,-1.16801,-14.45004,15.204,-4.94565,34.74981
1535,14.64412,-0.0,0.0,0.01793,0.0,-0.0,-19.94104,-8.13838,17.88997,2.37535,8.17989,-26.82947,-48.80339,-9.87069,-0.00202,-20.1943,2.40727,0.01254,40.88207,13.8186,10.86607,-3.47913,-4.16471,-26.42659,-28.31636,33.92472,94.36037,49.59042,1.68387,65.05393,25.81873,0.03798,-55.25489,83.39626,0.00103,100.31907,-17.01624,-6.34168,-0.02959,-24.95581,-22.55478,0.02266,9.43891,-6.15837,-14.63006,-11.46721,-0.40716,-15.84216,15.58238,-4.94849,36.01271
1536,12.97612,0.0,0.0,-0.64614,0.0,0.0,-18.78266,-7.80204,17.30483,-1.97849,8.68629,-25.96705,-48.01635,-9.72001,-0.00285,-23.44496,2.49635,0.01577,39.79477,13.20156,9.93887,-2.79885,-4.52437,-26.78175,-28.58621,37.12669,96.86667,48.48675,0.27195,62.53808,27.51441,0.06145,-60.69722,79.47871,0.12967,100.79269,-14.34079,-7.68733,-0.01573,-29.64499,-21.41758,-0.10562,8.98401,-5.91218,-15.66703,-11.81474,0.18999,-16.71821,16.03056,-4.77421,36.91722
1537,11.97913,0.0,0.0,-3.83311,0.0,-0.0,-17.76378,-7.18533,16.87041,-7.0191,8.96947,-24.32311,-47.0136,-9.50576,-0.00272,-27.24688,2.84454,0.01324,38.61113,12.65673,9.11478,-1.90932,-4.9222,-26.9963,-28.34959,40.55001,100.50787,47.23574,-0.98071,59.20274,28.88364,0.04572,-67.59012,74.81423,0.20777,102.08137,-12.69681,-8.49123,0.00324,-33.06683,-18.36394,-0.10404,8.58292,-5.71072,-16.16809,-12.16253,0.55515,-17.11285,16.40855,-4.48428,37.25918
1538,12.68844,0.0,-0.0,-9.32465,0.0,-0.0,-17.42032,-6.58943,16.27457,-12.56856,9.04569,-21.50318,-45.88786,-9.12306,1e-05,-31.57129,3.56539,0.00222,37.41042,12.0505,8.19618,-0.97279,-5.29134,-27.04964,-27.89329,43.95382,103.17701,45.82384,-2.27345,54.65683,30.43819,0.00405,-72.75872,69.50684,0.05941,102.37962,-12.46574,-8.44959,-3e-05,-33.84067,-15.59405,-0.04632,8.21635,-5.66717,-16.77315,-12.4626,0.80882,-17.66065,16.51726,-4.21947,36.9442
1539,14.16457,-0.0,-0.0,-15.61393,0.0,-0.0,-17.71848,-6.22322,15.36689,-18.3704,8.75945,-17.15456,-44.79581,-8.4608,0.00302,-36.30287,4.70802,-0.01684,36.33121,11.37615,7.15807,-0.04465,-5.54054,-27.00641,-27.28954,47.29161,103.767,44.25193,-3.71246,48.98305,32.38551,-0.05244,-74.66788,63.78448,-0.2128,99.81802,-12.96735,-7.54813,-0.00921,-31.71745,-15.71154,-0.14053,7.90984,-5.79172,-17.92519,-12.63553,1.0958,-18.77756,16.34082,-4.02193,35.98092
1540,14.92995,0.0,-0.0,-21.09694,-0.0,-0.0,-18.16619,-6.05989,14.34062,-23.88228,8.02909,-11.44535,-43.76675,-7.61347,0.00321,-41.3973,6.18847,-0.0352,35.402,10.89233,6.14172,1.01332,-5.57604,-26.84865,-26.38451,50.6949,102.70351,42.47352,-5.32811,42.85485,34.59399,-0.06646,-74.16478,58.114,-0.30417,94.76642,-13.05012,-6.19464,0.00078,-28.43011,-18.8413,-0.19234,7.70092,-5.91093,-19.48471,-12.65123,1.52613,-20.27323,16.03727,-3.74862,34.5561
1541,14.97258,-0.0,-0.0,-25.13566,0.0,0.0,-18.47144,-5.88868,13.39404,-28.38377,7.01301,-5.07682,-42.69147,-6.81595,0.00071,-46.90307,7.75458,-0.03826,34.47232,10.93692,5.27779,2.33345,-5.36031,-26.588,-24.86736,54.20892,100.61664,40.39629,-7.21845,36.95857,36.92555,-0.01746,-73.19466,52.98985,-0.13493,89.63873,-12.05762,-4.98202,0.01275,-26.98315,-22.21743,-0.08535,7.50831,-5.79497,-21.14807,-12.62491,2.20749,-21.78639,15.70209,-3.18451,33.02504
1542,15.1504,0.0,-0.0,-27.75026,-0.0,0.0,-18.77033,-5.37531,12.46661,-31.49157,6.0309,1.00493,-41.47874,-6.21466,-0.00296,-52.82478,9.09921,-0.01848,33.3884,11.59644,4.58566,3.90334,-4.99194,-26.40861,-22.29196,57.70757,97.37577,37.96382,-9.44278,31.26306,39.38132,0.03465,-72.99043,48.40207,0.10388,86.68326,-10.30626,-4.21407,0.0102,-29.20041,-23.16243,-0.11829,7.14314,-5.37888,-22.85555,-12.7554,3.18013,-23.2423,15.29203,-2.24076,31.67095
1543,15.40976,-0.0,0.0,-28.89651,0.0,0.0,-19.25999,-4.3328,11.33118,-33.40733,5.4749,5.73757,-40.14536,-5.76433,-0.00464,-59.0818,10.02528,0.01696,32.1635,12.60989,4.06053,5.68717,-4.72214,-26.48406,-18.29532,61.01697,92.41559,35.22722,-11.82066,25.09741,41.98549,0.02325,-73.21111,43.88456,0.2088,86.18909,-8.81967,-3.7431,-0.00099,-33.77493,-21.73009,-0.20819,6.47983,-4.79853,-24.66749,-13.1593,4.33673,-24.74767,14.76595,-1.07575,30.48672
1544,15.05273,0.0,-0.0,-28.63758,-0.0,-0.0,-19.98833,-2.9754,9.77713,-34.57721,5.57062,8.21928,-38.75073,-5.28959,-0.00229,-65.56034,10.54897,0.04674,30.91228,13.59471,3.81766,7.72895,-4.84222,-26.7058,-12.97088,64.05282,85.54878,32.33913,-14.05016,18.10611,44.63995,-0.0349,-72.85821,39.18904,0.11106,86.35365,-8.59206,-3.30276,-0.01738,-37.48964,-20.13359,-0.1397,5.58904,-4.19788,-26.48475,-13.77773,5.50777,-26.26044,14.17186,0.00321,29.26656
1545,14.28006,0.0,0.0,-27.75717,-0.0,-0.0,-20.97077,-1.82842,7.7945,-35.22549,6.09864,8.24858,-37.31353,-4.66156,0.00231,-72.10879,10.90647,0.04905,29.70808,14.36654,4.03276,10.07494,-5.49039,-26.6691,-6.68652,66.85091,77.18242,29.4712,-16.04416,10.87176,47.11338,-0.05462,-71.92101,34.56368,-0.04583,85.29006,-9.82872,-2.85821,-0.0262,-38.52675,-19.72407,-0.0569,4.68425,-3.59227,-28.08378,-14.43525,6.60534,-27.57438,13.57837,0.8201,27.86331
1546,14.09474,0.0,0.0,-27.45189,-0.0,-0.0,-22.18097,-1.33989,5.61324,-35.37047,6.51178,6.55636,-35.83759,-3.88519,0.00637,-78.5445,11.42946,0.01402,28.57308,15.03823,4.77577,12.67441,-6.57225,-25.94941,0.6291,69.41247,67.66876,26.67387,-18.00287,4.30684,49.24067,0.002,-71.75494,30.35658,-0.0895,82.94499,-11.92583,-2.75669,-0.00601,-37.81506,-19.56137,-0.01903,3.95198,-2.94387,-29.34797,-14.97283,7.62972,-28.56389,12.99324,1.48886,26.27427
1547,14.71229,0.0,-0.0,-28.32017,-0.0,0.0,-23.35682,-1.50307,3.48108,-35.12508,6.37267,4.3702,-34.37464,-3.07159,0.00709,-84.73787,12.40892,-0.05262,27.59449,15.8247,5.82803,15.41513,-7.90295,-24.37053,9.59124,71.58381,56.67218,23.7736,-20.13735,-1.37113,51.11975,0.07392,-73.4351,26.68554,-0.03244,80.38654,-14.25046,-3.4353,0.03058,-36.98559,-18.3834,0.0085,3.41272,-2.26811,-30.31647,-15.36874,8.58186,-29.26815,12.43244,2.259,24.49136
1548,15.17241,0.0,-0.0,-29.96441,0.0,0.0,-24.06513,-1.89253,1.4799,-34.75851,5.66369,2.79825,-32.9937,-2.42865,0.00349,-90.66248,13.85238,-0.0995,26.94303,16.83328,6.65833,18.2227,-9.37732,-22.11034,20.7246,73.15451,43.42458,20.42368,-22.42166,-6.73957,52.94343,0.07145,-75.83765,23.56282,0.03059,78.19547,-16.49623,-4.61314,0.03743,-36.08231,-16.54923,0.02685,2.9277,-1.61699,-31.04733,-15.75248,9.43305,-29.75684,12.00364,3.25211,22.40082
1549,14.90535,0.0,-0.0,-31.47668,-0.0,-0.0,-24.19014,-2.07819,-0.42639,-34.54706,4.77083,2.45178,-31.67583,-2.15108,-0.00089,-96.32732,15.12732,-0.05604,26.67241,18.02098,6.92335,21.09142,-10.99708,-19.69419,33.90326,73.93726,27.73164,16.38353,-24.61996,-12.42385,54.68098,-0.00954,-76.24244,21.01681,0.04149,76.038,-18.23835,-5.05622,0.01199,-34.15756,-15.56456,-0.0127,2.36588,-1.00978,-31.57062,-16.25019,10.17566,-30.06284,11.79279,4.36804,19.94407
1550,14.65728,0.0,0.0,-32.42446,-0.0,0.0,-24.19523,-1.93526,-2.22823,-34.56,4.20204,3.1055,-30.30108,-2.25168,-0.00304,-101.66829,15.33364,0.04579,26.57762,19.24849,6.93011,24.02304,-12.80691,-17.60326,47.95446,73.7857,10.90043,11.83766,-26.51296,-18.47277,56.12873,-0.06582,-73.41621,18.90644,-0.00608,73.12685,-18.87513,-3.81943,0.01324,-31.17486,-16.56413,-0.09666,1.72918,-0.39929,-31.94281,-16.85296,10.87297,-30.22356,11.70744,5.39564,17.28806
1551,15.07616,0.0,0.0,-33.32955,-0.0,-0.0,-24.62981,-1.58693,-3.76795,-34.59507,4.04849,3.75557,-28.79547,-2.62372,-0.00436,-106.54176,14.37102,0.08928,26.31987,20.40387,7.17593,26.88376,-14.78209,-15.71731,60.97367,72.75864,-4.74848,7.30646,-28.07928,-24.41108,57.22763,-0.04094,-69.46895,16.93071,-0.06283,69.17609,-18.21918,-1.5872,0.03179,-28.52494,-19.28558,-0.08873,1.06885,0.28671,-32.2011,-17.50782,11.60551,-30.25033,11.4759,6.22262,14.66808
1552,15.35508,0.0,-0.0,-34.75253,0.0,-0.0,-25.53786,-1.22311,-4.87675,-34.49969,3.65486,3.60148,-27.25918,-3.20757,-0.00552,-110.80939,13.08637,0.04473,25.70492,21.50908,7.60792,29.36448,-16.79363,-13.48038,71.84829,71.12749,-17.83056,3.1367,-29.41739,-29.84834,58.14337,0.02076,-67.79685,15.01232,-0.05717,65.21952,-16.67206,0.00558,0.01345,-27.85895,-22.14784,-0.00593,0.39513,1.03732,-32.26151,-18.22085,12.3362,-30.06416,10.81142,6.96299,12.10267
1553,14.45384,0.0,-0.0,-36.39697,0.0,0.0,-26.62152,-1.01528,-5.63768,-34.42991,2.20271,3.01752,-25.89499,-3.93397,-0.0035,-114.36117,12.22232,-0.00903,24.88772,22.68242,7.82806,31.24363,-18.76176,-10.5603,80.76442,68.97738,-28.47307,-0.79968,-30.52957,-35.05672,58.96053,0.05519,-69.74149,13.41792,0.00505,63.18681,-14.8443,0.18724,-0.01853,-29.45207,-23.50093,-0.00247,-0.23071,1.73564,-32.00719,-18.94456,12.91642,-29.5883,9.65806,7.84628,9.43883
1554,12.87961,-0.0,-0.0,-37.76542,-0.0,0.0,-27.76393,-1.0389,-6.32358,-34.54878,-0.21295,3.13542,-24.79294,-4.63389,0.00077,-117.06023,11.69299,-0.01307,24.21017,24.01748,7.83575,32.65377,-20.72766,-7.02568,88.13782,66.04729,-37.10186,-4.8293,-31.25073,-40.86909,59.47936,0.03232,-74.10759,12.42518,0.0415,64.20177,-13.28674,-0.56826,-0.02254,-31.69622,-23.0146,-0.03005,-0.63914,2.28244,-31.5192,-19.48426,13.27712,-28.93351,8.2321,9.00235,6.66774
1555,12.1145,-0.0,-0.0,-38.93062,0.0,0.0,-29.07639,-1.23055,-7.01093,-34.8885,-2.39013,4.41653,-23.81667,-5.17599,0.00222,-118.71376,10.82441,0.01005,23.74395,25.52368,8.11141,33.97911,-22.69182,-3.15185,93.96069,62.17922,-43.71871,-9.02891,-31.39319,-47.66234,59.48202,-0.01157,-79.03098,12.09533,0.02416,67.44335,-12.35285,-1.49707,-0.00642,-32.83596,-21.69886,-0.00408,-0.71289,2.67087,-31.08738,-19.66647,13.50486,-28.38461,6.74455,10.40644,4.02183
1556,12.7889,0.0,0.0,-39.85741,0.0,-0.0,-30.559,-1.44295,-7.4852,-35.76492,-3.0811,5.94134,-22.74671,-5.5775,-0.00013,-119.14677,8.89909,0.00441,23.20292,27.12658,9.07784,35.55972,-24.57271,0.57208,98.23087,57.7007,-48.35632,-13.19553,-30.96807,-54.67729,59.05488,-0.02899,-83.45123,12.33718,-0.00924,71.21851,-12.02916,-2.24859,0.00535,-32.99958,-20.48069,0.01163,-0.54251,2.94708,-30.95922,-19.54087,13.72444,-28.16765,5.24393,11.97395,1.71577
1557,14.05735,0.0,0.0,-39.91261,0.0,0.0,-31.94693,-1.56465,-7.52558,-37.26987,-2.10629,6.33454,-21.52144,-5.89357,-0.00246,-118.33236,5.68409,-0.03906,22.53497,28.59653,10.64729,37.54302,-26.48247,3.56237,101.35203,53.14097,-51.52134,-17.1751,-30.15686,-60.92112,58.49661,-0.0182,-87.0648,13.02292,-0.03231,74.75063,-12.01898,-2.95482,0.00672,-33.55157,-19.30706,-0.01508,-0.32781,3.20216,-31.21157,-19.30133,14.04763,-28.32762,3.87452,13.59284,-0.33581
1558,14.54997,0.0,0.0,-38.75262,-0.0,0.0,-32.90836,-1.59874,-7.13217,-38.07508,-0.37671,5.11155,-20.30912,-6.07617,-0.00126,-116.45772,1.82186,-0.05767,22.34558,29.56839,12.27571,39.8555,-28.86822,5.64024,103.87835,48.74631,-53.87481,-20.96276,-29.07676,-66.03607,58.02869,-0.00018,-89.41877,13.99573,-0.0289,77.8061,-12.01738,-3.84911,0.00263,-34.98677,-17.91743,-0.03839,-0.13729,3.56296,-31.81888,-19.03016,14.58561,-28.79864,3.04105,15.11922,-2.5081
1559,13.65786,0.0,0.0,-36.97514,0.0,0.0,-33.29053,-1.56423,-6.53381,-36.13601,0.8196,2.70116,-19.33367,-6.03139,0.00158,-113.85546,-1.54894,-0.00286,23.10283,29.93478,13.5891,42.09193,-31.97999,7.18411,106.07447,44.47148,-55.67776,-24.52102,-27.80706,-70.02326,57.70625,0.00943,-89.8923,14.99766,0.00144,79.49869,-11.75089,-4.80122,-0.00107,-36.52537,-16.73358,-0.02117,0.13101,4.0763,-32.61166,-18.65898,15.3269,-29.40192,2.88894,16.52306,-5.07489
1560,12.02531,0.0,-0.0,-36.09897,0.0,0.0,-33.19167,-1.42357,-6.00069,-31.35777,0.82842,-0.19261,-18.61703,-5.82341,0.00269,-110.75533,-3.86682,0.07718,24.0254,30.20239,14.86603,43.61057,-35.22175,8.64961,107.84151,40.30547,-56.82069,-27.69175,-26.54437,-73.24489,57.50802,0.00761,-88.80497,15.68165,0.01961,79.43813,-11.0146,-5.35309,0.00248,-37.3389,-16.25834,0.0039,0.48597,4.62278,-33.23365,-18.23562,16.04378,-29.82939,2.74163,18.0294,-7.76717
1561,10.95931,-0.0,0.0,-37.83357,0.0,0.0,-32.89,-1.28487,-5.6362,-27.09855,0.40106,-2.82442,-17.93714,-5.66795,0.002,-106.94778,-5.66871,0.0893,23.71878,31.05483,16.62753,44.18587,-37.62488,10.15738,109.04635,36.38189,-57.35741,-30.33253,-25.50635,-76.42538,57.40738,0.00151,-87.45397,15.76457,0.01422,78.77543,-9.95335,-5.26074,0.00802,-37.29101,-16.42585,0.00763,0.70053,5.04639,-33.38984,-18.0309,16.49493,-29.84127,1.70309,19.89372,-9.96329
1562,11.08834,-0.0,0.0,-40.90924,0.0,-0.0,-32.58984,-1.44851,-5.34769,-28.01082,0.52983,-4.41707,-17.0537,-5.69943,-0.00015,-101.80244,-7.90753,0.00424,21.86867,32.45917,18.8886,44.43158,-39.08298,11.52548,109.76959,32.83135,-57.63456,-32.51266,-24.77214,-79.80952,57.39168,-0.00184,-86.78056,15.20928,0.00866,78.55014,-8.92784,-4.81787,0.0048,-36.71817,-17.2115,-0.00364,0.59548,5.356,-33.072,-18.22611,16.68618,-29.42457,-0.19782,21.95322,-11.45047
1563,11.64724,0.0,0.0,-37.37088,-0.0,0.0,-32.18314,-1.99287,-4.96847,-35.7636,-0.22146,-4.19529,-15.89225,-5.91155,-0.00427,-94.84967,-10.91476,-0.09071,19.50955,33.71474,20.94285,45.05128,-40.52484,12.34486,110.22753,29.70685,-57.91111,-34.43354,-24.27786,-82.97832,57.47643,-0.00089,-86.84951,14.29188,0.00813,78.55146,-7.87671,-4.46428,-0.00013,-36.04909,-18.85664,-0.01305,0.27867,5.72653,-32.40031,-18.7046,16.82014,-28.63868,-2.04596,23.73785,-12.75639
1564,11.45699,0.0,0.0,-14.63761,0.0,0.0,-31.44969,-2.59504,-4.44094,-45.32618,-4.68498,-3.51429,-14.51912,-6.23797,-0.00844,-86.3558,-14.19249,-0.10139,17.69835,34.39967,22.08294,45.98158,-42.73294,11.97747,110.60609,27.02588,-58.18663,-36.12696,-23.88846,-85.81042,57.72007,0.00234,-87.3756,13.54742,0.0098,78.27689,-6.30779,-4.27632,0.00316,-35.52169,-21.08976,-0.01267,-0.06498,6.29199,-31.37397,-19.29052,17.02038,-27.43711,-3.1648,25.07933,-14.53675
1565,10.43248,0.0,0.0,38.69843,-0.0,0.0,-30.47802,-2.88196,-3.96422,-44.92815,-10.67609,-6.5175,-13.04314,-6.49683,-0.00722,-77.02422,-17.23597,-0.11035,16.5654,34.73099,22.49925,46.64442,-45.51051,9.46674,111.01283,24.78588,-58.38909,-37.37649,-23.48161,-88.97387,58.21338,0.0033,-87.97897,13.56449,-9e-05,78.04548,-4.0795,-4.11387,0.00895,-34.97157,-22.80581,-0.00186,-0.41333,6.93663,-29.90852,-19.95783,17.14528,-25.77672,-3.73042,26.29661,-16.87657
1566,9.41123,0.0,0.0,117.17413,-0.0,0.0,-29.59444,-2.76085,-3.89285,-21.35161,-13.27892,-17.17318,-11.58083,-6.38445,0.00044,-66.82553,-20.00503,-0.17985,15.69238,35.13964,22.93692,46.45221,-48.10483,3.94095,111.49585,22.91856,-58.50016,-37.96401,-23.0315,-93.25425,59.01866,-0.00108,-88.27126,14.52684,-0.03838,79.02585,-1.72563,-4.06938,0.00407,-34.05819,-22.84937,0.0262,-0.77183,7.35216,-28.06532,-20.6575,16.91944,-23.82947,-4.3592,27.87253,-19.36437
1567,8.6972,0.0,0.0,171.68021,-0.0,-0.0,-28.95157,-2.52066,-4.35783,22.50865,-16.92197,-34.04174,-10.24631,-5.72259,0.00744,-55.21337,-22.04231,-0.09668,14.7584,35.81795,23.7215,45.2351,-49.92331,-3.48962,112.01912,21.25107,-58.49589,-37.95387,-22.63124,-98.71999,60.09246,-0.00648,-88.14767,15.87463,-0.05486,82.05765,0.09143,-4.36459,-0.00394,-32.81372,-21.20139,0.04401,-0.99676,7.39651,-26.15543,-21.17288,16.31227,-21.95654,-5.49816,29.98758,-21.47098
1568,8.00216,0.0,-0.0,172.30431,0.0,0.0,-28.547,-2.58345,-5.01077,53.04699,-20.87572,-42.17467,-9.08045,-4.6674,0.00847,-43.3732,-22.17205,0.16259,13.71952,36.52548,24.66978,44.00502,-50.89973,-9.25024,112.4201,19.5623,-58.30911,-37.70845,-22.39393,-104.69065,61.26661,-0.00595,-87.85699,16.72133,-0.00244,86.7376,1.11229,-4.92619,-0.00321,-31.77331,-19.04373,0.02562,-0.97217,7.29787,-24.54095,-21.36239,15.66463,-20.42976,-7.09815,32.1789,-22.77902
1569,7.37255,-0.0,0.0,105.30223,0.0,0.0,-28.41437,-3.0013,-5.24342,61.08416,-22.08186,-38.21134,-8.06186,-3.57991,0.00473,-33.75557,-20.07836,0.21683,12.81826,36.87015,25.51431,44.33329,-51.39108,-11.56167,112.48666,17.68363,-57.89104,-37.60116,-22.32494,-110.01825,62.29731,-0.00016,-87.79308,16.73861,0.04871,91.45894,1.52258,-5.4972,0.00019,-31.39507,-17.51509,0.00877,-0.81412,7.35448,-23.33663,-21.36623,15.29989,-19.24802,-8.62834,33.70616,-23.27762
1570,7.08769,-0.0,0.0,38.37031,0.0,0.0,-28.5178,-3.43505,-4.68453,54.13935,-28.93774,-24.68797,-7.23536,-2.7637,-0.00044,-27.25615,-16.99715,0.01003,12.43258,36.90005,25.93354,46.55299,-51.58681,-12.29537,112.12106,15.50563,-57.25965,-37.81488,-22.27111,-113.46992,62.94735,0.00263,-88.18241,16.37901,0.04015,93.94481,1.84565,-5.93852,0.00102,-31.26743,-17.07649,0.00712,-0.73285,7.60975,-22.40607,-21.42384,15.21385,-18.25977,-9.52523,34.39857,-23.41421
1571,7.39211,0.0,0.0,35.07205,0.0,0.0,-28.80033,-3.66804,-3.44731,35.78081,-39.69001,-13.27349,-6.66876,-2.36352,-0.0034,-24.12555,-14.15605,-0.19903,12.62033,37.09972,25.72882,49.66837,-51.45034,-12.02899,111.36616,12.96471,-56.48907,-38.38386,-21.9943,-114.88086,63.11049,0.00144,-88.88745,16.20263,0.01811,93.08469,2.6297,-6.1019,0.00461,-30.15737,-17.83733,-0.03212,-0.832,7.9759,-21.66347,-21.64532,15.29555,-17.41216,-9.72619,34.6852,-23.51379
1572,8.59569,0.0,-0.0,91.0493,-0.0,0.0,-29.33043,-3.9084,-1.91223,6.40121,-36.04429,-16.30512,-6.30834,-2.33631,-0.00308,-24.84827,-11.73031,-0.24934,12.93509,37.80347,25.23584,52.76553,-50.75296,-8.85701,110.28112,10.15069,-55.6824,-39.1676,-21.36726,-115.69943,62.95648,0.00417,-89.64771,16.35272,0.00893,90.33325,3.81428,-5.82963,0.00892,-27.28869,-19.60877,-0.10416,-1.07593,8.44769,-21.20444,-21.98729,15.57462,-16.79744,-9.69647,34.94226,-23.34276
1573,10.62109,0.0,0.0,-92.71862,0.0,0.0,-30.0251,-4.52306,-0.31516,-17.07262,-10.86241,-20.18006,-6.05466,-2.4494,-0.00125,-28.08988,-9.64638,-0.15064,12.8603,38.88792,25.08029,55.41615,-49.24467,-3.24684,108.88325,7.40197,-54.91194,-39.78664,-20.52078,-117.48371,62.95803,0.00884,-90.26372,16.69681,-0.00215,88.2643,4.64076,-5.30676,0.00406,-23.60462,-21.68016,-0.10648,-1.31204,9.05091,-21.00821,-22.30601,16.0686,-16.38498,-9.9953,35.27351,-22.53594
1574,12.63895,-0.0,-0.0,-14.03954,-0.0,-0.0,-30.4069,-5.51635,1.4228,-28.44421,16.07572,-21.08456,-5.90204,-2.45635,0.0001,-31.20032,-8.21678,-0.0303,12.29222,39.90757,25.49684,57.45017,-47.13011,1.92543,107.18623,5.1731,-54.19118,-39.89058,-19.76851,-120.328,63.64819,-0.00386,-90.39307,17.09463,-0.01069,88.55003,4.49836,-5.01743,0.00054,-21.33515,-22.99459,-0.04608,-1.37416,9.75539,-20.7171,-22.47338,16.62295,-15.84199,-10.80992,35.59278,-21.25584
1575,13.59617,0.0,0.0,-5.24502,-0.0,0.0,-29.96611,-6.44929,3.46241,-30.34619,28.34225,-24.33372,-5.89201,-2.31309,0.00026,-32.95445,-7.88643,0.01391,11.54693,40.45928,26.08364,58.911,-45.03036,4.90308,105.19943,3.73546,-53.53263,-39.5225,-19.33779,-123.18349,65.22832,-0.03859,-89.73956,17.36262,0.00438,91.23257,3.52762,-5.23335,0.0064,-21.77631,-23.0597,-0.02768,-1.27897,10.50819,-19.97388,-22.5363,17.06058,-14.84505,-11.82799,35.68947,-20.22337
1576,13.0618,-0.0,0.0,-26.07223,0.0,0.0,-28.66505,-6.90199,5.65217,-28.16447,26.87527,-27.17447,-6.01969,-2.14321,6e-05,-33.97845,-8.92799,0.01343,11.0245,40.48662,26.27875,59.8505,-43.50704,5.6778,102.90182,2.98158,-52.94217,-39.05714,-19.19214,-125.03772,67.44152,-0.05624,-88.68864,17.19122,0.02541,94.57205,2.32378,-5.78329,0.00987,-23.87395,-22.63332,-0.02265,-1.23773,11.2338,-18.87458,-22.68081,17.34334,-13.51594,-12.55775,35.41256,-20.07228
1577,11.72886,0.0,0.0,-46.82916,-0.0,-0.0,-26.96366,-6.86832,7.52414,-26.95118,20.58739,-25.606,-6.232,-2.03749,0.00012,-35.43753,-11.16864,0.03067,10.88327,40.19741,26.04865,60.55137,-42.57029,5.3577,100.26044,2.49127,-52.33878,-38.82081,-19.12789,-125.43368,69.85606,-0.02738,-88.34653,16.37429,-0.01595,95.88074,1.55016,-6.31985,0.00491,-25.6184,-22.8677,-0.00879,-1.46231,11.81469,-17.88486,-23.05792,17.52801,-12.34699,-12.75871,34.75061,-20.62664
1578,11.01607,-0.0,0.0,-50.1858,0.0,0.0,-25.41695,-6.68744,8.81512,-26.09853,16.60142,-21.52923,-6.46424,-1.98625,0.00031,-37.85575,-14.03928,0.04873,10.97784,39.71898,25.70909,61.57234,-41.82536,5.33984,97.25262,1.81214,-51.61167,-38.84566,-18.93485,-124.41084,72.20409,0.02135,-89.64878,15.12857,-0.10379,93.45384,1.75015,-6.68196,-0.00389,-26.22227,-23.89551,-0.01199,-2.06442,12.1773,-17.32798,-23.74728,17.66419,-11.67552,-12.50244,33.70624,-21.14975
1579,11.77225,0.0,0.0,-44.1245,-0.0,-0.0,-24.30819,-6.59659,9.69923,-24.11822,16.33374,-18.04273,-6.67031,-1.92233,0.00023,-40.70976,-17.05852,0.03368,11.07676,38.93791,25.25648,63.09017,-41.1219,6.10417,93.88373,0.72551,-50.78565,-38.92412,-18.42685,-122.4521,74.43041,0.05205,-92.54967,14.04216,-0.11339,88.07962,2.85515,-7.0446,-0.01171,-26.43881,-24.82323,-0.01585,-2.99388,12.34424,-17.0396,-24.71869,17.71509,-11.33591,-11.95858,32.26014,-21.30367
1580,13.46493,0.0,0.0,-38.94666,-0.0,-0.0,-23.58926,-6.46992,10.37508,-21.60708,17.48796,-16.29172,-6.84511,-1.76088,-0.00033,-43.19549,-20.1315,0.0152,11.05018,37.72805,24.47264,64.65864,-40.64083,7.03367,90.25733,-0.70934,-50.07933,-38.86284,-17.43846,-120.38816,76.53701,0.05756,-96.26694,13.62892,0.01456,82.65068,3.87566,-7.73832,-0.00549,-27.09555,-24.77429,-0.01274,-3.92898,12.36379,-16.56256,-25.69165,17.56061,-10.87412,-11.32396,30.50162,-21.35801
1581,14.94135,0.0,-0.0,-37.28025,0.0,-0.0,-23.02461,-6.11093,10.812,-19.83035,17.72533,-16.05602,-7.03811,-1.5155,-0.00096,-45.2221,-23.12259,0.02344,10.88844,36.26115,23.41691,65.76311,-40.48815,7.59733,86.6094,-2.16274,-49.77578,-38.65487,-16.00988,-118.86402,78.53042,0.03667,-99.79452,13.88837,0.27695,79.55214,3.61297,-8.8463,0.01832,-27.88979,-23.60184,0.01757,-4.46632,12.29778,-15.61843,-26.28743,17.15691,-10.00249,-10.78451,28.69145,-21.66496
1582,15.70404,0.0,0.0,-37.76463,0.0,0.0,-22.39018,-5.54095,10.95909,-18.53115,16.76161,-17.32407,-7.32192,-1.36373,-0.00061,-47.44177,-25.30948,0.02275,10.72001,34.96596,22.45884,66.38269,-40.44398,8.34162,83.13697,-3.09198,-49.91332,-38.42889,-14.59581,-117.18783,80.48063,-0.0186,-101.90983,14.29565,0.59761,77.77219,1.85379,-9.97158,0.02173,-27.93186,-22.07429,0.07058,-4.54445,12.24957,-14.3089,-26.44246,16.6357,-8.78007,-10.31938,27.12271,-22.31287
1583,16.00146,0.0,0.0,-38.76801,0.0,-0.0,-21.62087,-4.91885,10.89706,-16.40945,15.51825,-20.1263,-7.71915,-1.48086,0.00085,-50.48435,-25.76647,-0.03817,10.7273,34.21776,21.85644,66.80134,-40.09597,10.32567,79.76001,-3.19858,-50.09516,-38.41449,-13.85824,-112.33756,82.44953,-0.07741,-101.88722,14.07525,0.46238,72.79984,-0.2064,-10.46892,-0.00363,-26.72066,-21.45578,0.06228,-4.50583,12.29319,-13.00236,-26.47989,16.19921,-7.5285,-9.71981,25.98149,-23.10207
1584,16.00648,-0.0,0.0,-38.81821,0.0,-0.0,-20.76574,-4.47544,10.75322,-13.24703,14.58253,-23.64574,-8.19425,-1.84049,0.00181,-54.22212,-24.31716,-0.10432,10.92359,34.13963,21.39124,66.78111,-39.25082,13.59932,76.17822,-2.86063,-49.78028,-38.8382,-14.3422,-98.98627,84.3443,-0.0793,-100.7369,12.0558,-1.01535,58.61083,-0.8884,-9.95179,0.0008,-23.9836,-22.6833,-0.08154,-4.70252,12.40686,-12.18687,-26.72768,16.00619,-6.7154,-8.95186,25.3865,-23.70742
1585,15.6678,0.0,-0.0,-36.96621,0.0,0.0,-19.87336,-4.41823,10.59581,-10.41387,14.00577,-26.47759,-8.71493,-2.24234,0.00132,-57.85895,-21.82276,-0.08387,11.18516,34.54804,20.63996,65.68482,-38.19453,16.88968,72.20616,-2.76938,-48.76545,-39.17633,-16.30004,-73.09808,86.02739,-0.0218,-100.69513,6.56215,-3.08045,31.47982,0.47507,-8.57783,0.03901,-19.70675,-25.89205,-0.25711,-5.13324,12.47858,-12.25676,-27.16299,16.09827,-6.75325,-8.23597,25.37306,-23.94089
1586,15.24471,0.0,0.0,-33.68605,0.0,0.0,-18.98913,-4.68464,10.51906,-9.40592,13.7703,-27.61411,-9.25603,-2.51617,0.00034,-60.73302,-19.43323,-0.01097,11.49805,34.9699,19.44514,63.61493,-37.3983,19.03507,67.93745,-3.17709,-47.29316,-38.21659,-18.36628,-43.69334,87.56976,0.04213,-103.11443,-0.36681,-2.45596,1.76982,3.0611,-6.91364,0.0463,-15.29232,-29.98475,-0.20416,-5.48215,12.35529,-13.1993,-27.45297,16.3288,-7.69016,-7.69094,25.68756,-23.89181
1587,15.05778,0.0,0.0,-30.21893,0.0,-0.0,-18.12346,-4.98025,10.70927,-10.70938,13.92672,-27.18707,-9.76526,-2.62945,-7e-05,-62.78026,-17.6271,0.02869,11.92281,34.87569,17.92973,61.48838,-37.05472,20.12643,63.60077,-3.77585,-45.74571,-37.11049,-18.54874,-31.37065,89.14552,0.06535,-107.3262,-3.17127,-1.19382,-9.50252,5.47608,-5.54444,0.01348,-13.50198,-32.66652,-0.05517,-5.48856,11.94111,-14.51841,-27.33994,16.42578,-9.09826,-7.22418,25.81469,-23.78493
1588,14.89235,0.0,-0.0,-27.86197,-0.0,-0.0,-17.26252,-5.07145,11.09984,-13.74949,14.2934,-26.33375,-10.19323,-2.57801,-0.00033,-64.2673,-16.09094,0.02119,12.36667,34.07955,16.4814,59.97058,-36.9952,21.001,59.38387,-4.20704,-44.35503,-36.89644,-16.86871,-43.84978,90.72081,0.0395,-111.60471,-0.56262,-2.32539,4.41998,6.79158,-4.78502,-0.01309,-15.83998,-32.13804,-0.18061,-5.23417,11.30202,-15.58447,-26.94688,16.21981,-10.35575,-6.79671,25.41548,-23.68802
1589,14.47113,0.0,0.0,-28.52994,0.0,0.0,-16.51431,-4.92558,11.16442,-17.15608,14.13808,-26.10697,-10.5347,-2.28936,-0.00099,-65.42194,-14.50968,0.00317,12.62567,32.86949,15.76419,58.97232,-36.8269,21.96776,55.36987,-4.37571,-43.19056,-36.12911,-14.22897,-69.37314,92.08926,0.00328,-114.78675,5.81887,-2.56719,31.70363,6.76246,-4.69944,-0.0102,-20.59959,-29.04668,-0.2892,-5.02397,10.6382,-16.10427,-26.62927,15.79121,-11.10403,-6.50216,24.60617,-23.4191
1590,14.00945,-0.0,-0.0,-32.78813,0.0,0.0,-16.01911,-4.69849,10.52378,-19.48742,12.6914,-26.5308,-10.79944,-1.73661,-0.00135,-66.43336,-13.17801,-0.00056,12.60764,31.62836,16.19497,58.09665,-36.25926,22.44701,51.57131,-4.28245,-42.2702,-34.56387,-12.61896,-86.3248,93.12188,-0.01442,-116.46109,10.51122,-0.7044,49.99596,5.64305,-5.14273,0.00542,-24.78982,-26.07404,-0.12674,-5.01832,10.11566,-16.21431,-26.56186,15.34507,-11.40798,-6.36185,23.67322,-22.82317
1591,13.818,0.0,0.0,-37.18261,0.0,-0.0,-15.69758,-4.61414,9.57883,-20.16432,10.14408,-26.91022,-10.9745,-1.08157,-0.00078,-67.53329,-12.57111,0.00722,12.37446,30.40717,17.34196,57.14844,-35.42172,21.89927,47.98742,-3.82598,-41.55021,-33.39916,-12.36168,-87.67458,93.81179,-0.01528,-116.1641,12.13874,0.3578,52.18996,4.0346,-5.75367,0.00879,-26.92416,-24.97657,0.02425,-5.08518,9.75699,-16.11922,-26.60027,14.97704,-11.45408,-6.23163,22.68095,-22.07114
1592,13.82955,0.0,0.0,-37.45258,0.0,0.0,-15.28569,-4.76896,9.22265,-19.64408,7.64795,-26.84728,-11.06807,-0.60808,2e-05,-68.83765,-12.60425,0.01152,12.07699,29.04047,18.16398,56.16946,-34.66189,20.60106,44.60369,-2.90045,-40.85414,-32.64143,-12.68348,-80.43295,94.19798,-0.00737,-113.43105,12.50361,0.37859,45.91073,2.56271,-6.20224,0.00152,-27.33415,-25.0109,0.04154,-5.04947,9.46766,-15.82144,-26.55893,14.60021,-11.28131,-5.94459,21.53169,-21.50129
1593,13.58895,0.0,-0.0,-33.59813,0.0,0.0,-14.55212,-5.06263,10.04115,-18.94193,6.14296,-26.58193,-11.17051,-0.51446,0.00095,-70.1794,-12.72275,0.00585,11.89194,27.5851,17.96474,55.25197,-34.01328,19.2233,41.36068,-1.53648,-39.97501,-31.88534,-12.93617,-72.94834,94.38449,-0.00502,-108.36184,13.07354,0.13469,40.356,1.44236,-6.5031,-0.00085,-26.78506,-24.53056,0.02868,-4.94036,9.14086,-15.27766,-26.45896,14.09938,-10.8897,-5.46588,20.28088,-21.15918
1594,12.65252,0.0,0.0,-29.26073,0.0,0.0,-13.48554,-5.28563,11.82121,-18.84467,5.52229,-26.53259,-11.39348,-0.76829,0.00211,-71.25884,-12.49851,-0.00122,11.90691,26.34602,17.00118,54.42256,-33.11987,18.12004,38.17701,0.14804,-38.85918,-30.96851,-12.87508,-68.6242,94.51911,-0.01209,-101.94778,14.26857,-0.0451,39.13885,0.53678,-6.89388,0.00266,-25.54777,-23.02644,0.03244,-4.88697,8.78631,-14.61287,-26.42021,13.52861,-10.39461,-4.9021,19.14445,-20.70795
1595,11.27536,0.0,0.0,-27.49701,0.0,-0.0,-12.40578,-5.2662,13.62773,-19.19519,5.18492,-26.93916,-11.74175,-1.11424,0.00185,-71.95308,-11.82036,-0.00388,12.03279,25.47573,16.15615,53.54546,-31.73609,17.29843,35.03184,1.99505,-37.6036,-29.91659,-12.64631,-66.33852,94.61369,-0.00982,-95.99981,15.68593,-0.0799,40.62832,-0.09872,-7.44824,0.00289,-23.88398,-21.2574,0.02121,-4.91329,8.53129,-14.05105,-26.462,13.08748,-9.95994,-4.41984,18.23078,-19.83085
1596,10.37292,0.0,0.0,-28.17208,-0.0,-0.0,-11.74284,-5.02078,14.4919,-19.1611,5.11752,-27.88791,-12.11913,-1.26605,6e-05,-72.36295,-10.7254,-0.00392,12.096,24.82809,16.07764,52.39622,-30.03871,16.68744,31.98174,3.80682,-36.33374,-28.85682,-12.47624,-63.96489,94.50556,0.00426,-91.88768,16.98767,-0.0443,42.42829,-0.16978,-7.98529,-0.00072,-22.51558,-19.98021,-0.00605,-4.98351,8.43329,-13.71184,-26.54581,12.87307,-9.67667,-4.11872,17.4717,-18.55206
1597,10.39133,-0.0,0.0,-28.77913,0.0,-0.0,-11.56668,-4.72992,14.30702,-18.30605,5.86625,-29.33705,-12.45497,-1.15929,-0.00104,-72.5771,-9.3293,-0.00144,12.04898,24.18012,16.56861,50.9439,-28.40768,16.16854,29.04162,5.48213,-35.14088,-27.89239,-12.48143,-60.68523,94.09469,0.01466,-89.49163,18.30616,-0.02631,43.77084,0.25248,-8.29985,-0.00167,-21.93813,-19.20827,-0.01846,-5.16917,8.37156,-13.53264,-26.73762,12.75051,-9.53087,-3.92031,16.75786,-17.16124
1598,10.76209,-0.0,0.0,-27.48393,0.0,0.0,-11.5291,-4.57718,13.8313,-16.95343,7.4838,-30.95418,-12.74967,-0.95834,-0.00068,-72.55094,-7.86301,0.00273,11.994,23.39489,16.88626,49.39309,-27.13465,15.49623,26.12532,7.11407,-34.00578,-26.96518,-12.743,-56.86293,93.46259,0.0112,-88.27046,19.83425,-0.02025,44.60305,0.53937,-8.34604,-0.00146,-21.79876,-18.64244,-0.01368,-5.58196,8.20208,-13.3362,-27.14865,12.52143,-9.40945,-3.65131,15.99968,-16.00078
1599,10.74021,0.0,0.0,-24.8541,-0.0,0.0,-11.29221,-4.61466,13.72849,-15.63707,9.15292,-32.02579,-13.02975,-0.8172,0.00012,-72.25217,-6.62092,0.00293,12.03982,22.41929,16.57634,47.91558,-26.33986,14.36465,23.18253,8.82101,-32.70908,-25.85784,-13.33273,-53.0246,92.71696,-0.00766,-88.4903,21.53355,0.02031,44.37207,0.09395,-8.23673,-0.00268,-21.40592,-18.17346,-0.0056,-6.12826,7.92564,-12.96035,-27.69564,12.12755,-9.15922,-3.25443,15.13501,-15.31283
1600,10.1873,-0.0,-0.0,-22.4823,0.0,0.0,-10.80198,-4.69983,14.0148,-14.67998,9.96186,-31.97871,-13.34255,-0.74075,0.00048,-71.76857,-5.76536,-0.00262,12.25957,21.28027,15.75222,46.53545,-25.94468,12.62745,20.26435,10.56455,-30.93915,-24.42825,-14.15867,-49.46679,91.90813,-0.02493,-90.4142,23.36081,0.08681,42.58322,-0.98598,-8.17284,-0.00225,-20.47425,-17.75371,-0.00023,-6.52835,7.64972,-12.42937,-28.10552,11.67754,-8.76291,-2.80779,14.16573,-15.06972
1601,9.36937,0.0,-0.0,-21.18002,-0.0,0.0,-10.17796,-4.59947,14.40958,-14.08671,9.5741,-31.09472,-13.76668,-0.67046,0.00047,-71.19123,-5.14024,-0.00782,12.70212,20.08825,14.71324,45.21474,-25.68939,10.4654,17.38127,12.19705,-28.5757,-22.82335,-14.98318,-46.34997,91.11349,-0.02062,-93.1327,25.38401,0.10147,40.29799,-1.89582,-8.30179,-0.00154,-19.26865,-17.15825,0.00373,-6.59732,7.46585,-12.0325,-28.18307,11.36184,-8.45858,-2.37096,13.17161,-14.90436
1602,8.51599,0.0,-0.0,-20.88261,-0.0,0.0,-9.54872,-4.21016,14.71472,-13.58431,8.27994,-30.28011,-14.35604,-0.58376,0.0003,-70.48509,-4.37555,-0.00579,13.31255,18.97882,13.7124,43.87788,-25.2807,8.292,14.4617,13.59284,-25.79133,-21.34011,-15.69211,-43.61004,90.41971,-0.00355,-95.25933,27.63975,0.01859,39.85318,-1.90838,-8.48675,-0.00135,-18.25071,-16.10337,0.00524,-6.34468,7.38312,-12.06043,-27.92279,11.29509,-8.51587,-1.96098,12.25876,-14.36199
1603,7.84698,0.0,0.0,-21.30775,-0.0,-0.0,-9.00482,-3.70658,14.81145,-12.85256,6.84908,-30.08532,-15.06746,-0.46415,-0.0003,-69.51273,-3.22086,0.00576,13.90526,18.06161,13.07602,42.41821,-24.53213,6.48955,11.49351,14.72839,-22.83718,-20.1304,-16.34222,-40.99774,89.8465,0.00712,-96.19842,30.17703,-0.10169,42.5497,-1.15293,-8.37743,0.00036,-17.62426,-14.53392,0.00501,-5.88646,7.32978,-12.38165,-27.44241,11.3626,-8.83803,-1.60974,11.48944,-13.28251
1604,7.60349,0.0,-0.0,-22.18541,-0.0,-0.0,-8.56741,-3.41438,14.69241,-11.80241,6.0449,-30.30381,-15.77516,-0.28205,-0.00104,-68.14068,-1.74892,0.01908,14.31888,17.40433,13.09443,40.79665,-23.40815,5.18914,8.5411,15.69,-19.83165,-19.14032,-16.94729,-38.37231,89.41958,0.00734,-96.05347,33.10318,-0.14637,47.26834,-0.44955,-7.96156,-0.00411,-17.33319,-12.86467,0.00547,-5.41915,7.21418,-12.48117,-26.9608,11.29133,-8.97498,-1.29954,10.84977,-11.8777
1605,7.77986,0.0,-0.0,-23.07858,0.0,-0.0,-8.1947,-3.4635,14.53051,-10.70923,5.98626,-30.48954,-16.36628,-0.06831,-0.00109,-66.38989,-0.34968,0.01731,14.54291,16.97532,13.71176,39.11115,-22.03089,4.13596,5.6217,16.59536,-16.79405,-18.23857,-17.4426,-35.69056,89.22918,0.00091,-95.10823,36.374,-0.06363,51.53717,-0.48895,-7.81216,-0.00688,-17.31226,-11.89988,0.00768,-5.15224,7.00175,-12.00624,-26.70586,10.92066,-8.60777,-0.93956,10.24613,-10.44815
1606,8.20697,0.0,-0.0,-23.52807,0.0,0.0,-7.87247,-3.65909,14.51889,-9.98007,6.19606,-30.49316,-16.81213,0.07077,-0.00063,-64.53857,0.50625,-0.00123,14.6555,16.61612,14.58478,37.52055,-20.62925,2.82668,2.71449,17.50021,-13.77187,-17.31454,-17.84425,-32.86852,89.31548,-0.00421,-93.93195,39.73992,0.05861,53.76939,-1.37124,-8.51928,0.00704,-17.29033,-12.15194,0.00519,-5.11569,6.72389,-11.10939,-26.69836,10.33493,-7.86917,-0.51523,9.54771,-9.1128
1607,8.8739,0.0,-0.0,-23.44349,0.0,0.0,-7.6409,-3.7274,14.78424,-9.7079,6.26191,-30.41261,-17.1647,0.03154,-8e-05,-62.95761,0.73221,-0.01428,14.73881,16.1431,15.32829,36.09519,-19.42947,1.00705,-0.12717,18.36119,-10.86407,-16.31953,-18.29377,-29.93118,89.59067,-0.0019,-93.31355,43.01693,0.10192,54.37506,-2.81158,-10.08736,0.02534,-16.63613,-13.21902,-0.00567,-5.10296,6.44404,-10.2643,-26.70882,9.76575,-7.18101,-0.15117,8.69509,-7.8184
1608,9.73136,0.0,-0.0,-22.76609,0.0,-0.0,-7.51577,-3.55749,15.50757,-9.65326,6.20857,-30.27496,-17.51007,-0.22341,0.00082,-61.77419,0.77776,-0.01069,14.87531,15.4631,15.59628,34.74974,-18.57547,-1.06345,-2.78344,19.07428,-8.15081,-15.27958,-18.92757,-27.10377,89.93044,0.003,-93.6187,46.26756,0.05555,54.81719,-4.49967,-11.95861,0.0263,-15.1803,-14.1724,-0.00342,-4.91971,6.23861,-9.91547,-26.5288,9.44709,-6.93082,0.04036,7.75666,-6.50197
1609,10.43571,0.0,0.0,-21.09628,0.0,0.0,-7.45127,-3.22259,16.85612,-9.62852,6.31594,-29.95585,-17.91223,-0.64339,0.00196,-60.79204,1.12844,-0.00059,15.12755,14.57145,15.1789,33.34441,-18.09707,-2.97511,-5.17849,19.58062,-5.62675,-14.25829,-19.74589,-24.60033,90.25777,0.00328,-94.37433,49.6478,-0.02282,56.12672,-6.16468,-13.40314,0.00632,-13.98845,-14.51573,0.00676,-4.65491,6.1484,-10.25064,-26.24296,9.48586,-7.27858,0.0907,6.83805,-5.15814
1610,10.70026,0.0,-0.0,-18.5267,-0.0,-0.0,-7.36949,-2.93175,18.66659,-9.65077,6.77028,-29.32111,-18.38253,-1.09224,0.00228,-59.74905,1.82309,0.00583,15.50478,13.52613,14.19376,31.83957,-17.88243,-4.57341,-7.32594,19.95651,-3.221,-13.2836,-20.62746,-22.46056,90.51934,-4e-05,-94.74856,53.16351,-0.07696,58.48215,-7.49381,-13.94432,-0.01442,-14.25199,-14.4404,0.00511,-4.5816,6.13087,-11.09581,-26.12632,9.77846,-8.07778,0.13667,5.98599,-3.7964
1611,10.74524,0.0,-0.0,-16.28186,0.0,0.0,-7.20456,-2.91518,20.33133,-9.73289,7.40057,-28.34337,-18.91302,-1.38669,0.0009,-58.53341,2.60116,0.00698,16.0124,12.47089,13.12389,30.31445,-17.69476,-5.90902,-9.27968,20.36553,-0.85403,-12.31484,-21.46421,-20.60084,90.66095,-0.00155,-94.44995,56.67429,-0.05522,61.29768,-8.17186,-13.57229,-0.01466,-15.48865,-14.28501,0.00086,-4.78904,6.09279,-11.94394,-26.28448,10.05238,-8.88838,0.3119,5.21116,-2.43574
1612,11.0588,0.0,-0.0,-15.44442,0.0,0.0,-6.95114,-3.14828,21.18033,-9.70394,7.75036,-27.16511,-19.52907,-1.39625,-0.00177,-57.15834,3.25359,0.00542,16.71046,11.57714,12.47536,28.85778,-17.31595,-7.0979,-11.11183,20.88642,1.60555,-11.27861,-22.249,-18.86875,90.677,-0.00059,-93.93386,60.0803,0.0377,63.48105,-7.96067,-12.60804,0.00287,-15.9669,-14.165,0.00089,-5.03656,5.95433,-12.22745,-26.50633,10.0268,-9.20631,0.68428,4.53029,-1.15916
1613,11.7598,-0.0,0.0,-15.51875,0.0,0.0,-6.67908,-3.23188,21.00645,-9.35124,7.56178,-26.04663,-20.25059,-1.15249,-0.00365,-55.68336,3.65718,0.00163,17.62913,10.92526,12.33618,27.49986,-16.6855,-8.34036,-12.9374,21.41973,4.34071,-10.12298,-23.02959,-17.07277,90.66052,0.00122,-93.79109,63.4069,0.09999,64.67218,-6.85267,-11.49201,0.01545,-14.93283,-14.03399,0.00259,-5.03534,5.68897,-11.76654,-26.51539,9.612,-8.87186,1.2462,3.96097,-0.07687
1614,12.51347,0.0,0.0,-15.33,0.0,0.0,-6.46095,-2.80903,20.19075,-8.6696,7.06299,-25.17118,-21.01049,-0.84493,-0.00274,-54.20269,3.72011,-0.00335,18.66001,10.49059,12.34168,26.24431,-15.87108,-9.80195,-14.84542,21.81686,7.34581,-8.85091,-23.8293,-15.09456,90.74362,0.00343,-94.13719,66.72925,0.05028,66.07139,-5.28813,-10.60407,0.00997,-13.44617,-13.77398,0.00135,-4.79159,5.34101,-10.93387,-26.297,8.98456,-8.21958,1.92581,3.51495,0.81619
1615,12.7847,0.0,-0.0,-14.69548,0.0,0.0,-6.24259,-2.08316,19.33806,-7.80553,6.64454,-24.54941,-21.70466,-0.68684,-2e-05,-52.79084,3.46355,-0.00622,19.63559,10.19513,12.01456,25.08442,-14.97722,-11.42275,-16.79138,22.07205,10.30265,-7.50817,-24.63239,-12.97541,90.9884,0.00298,-94.50501,70.09832,-0.05876,69.06136,-3.99805,-10.04032,-0.00133,-12.88774,-13.27652,-0.00639,-4.56295,5.00644,-10.25318,-26.08476,8.4247,-7.70567,2.61913,3.17259,1.65
1616,12.08914,0.0,0.0,-14.22117,-0.0,-0.0,-5.84849,-1.6789,18.78213,-6.85705,6.46154,-24.11868,-22.31406,-0.76102,0.00187,-51.4198,3.04385,-0.00535,20.4718,9.93923,11.14311,23.96012,-14.09921,-12.96996,-18.65908,22.31524,12.90289,-6.10694,-25.42589,-10.83154,91.38214,-0.0019,-94.29667,73.51418,-0.11776,73.50206,-3.44975,-9.63917,-0.00656,-13.47213,-12.54417,-0.01259,-4.53302,4.77515,-9.91389,-26.05922,8.0855,-7.47366,3.22558,2.85901,2.50504
1617,10.68932,0.0,0.0,-14.26755,0.0,0.0,-5.21774,-1.9604,18.47264,-5.95372,6.43306,-23.82608,-22.87667,-0.97524,0.00171,-50.00524,2.66986,-0.0004,21.14745,9.65355,9.96239,22.76333,-13.28222,-14.19198,-20.38015,22.64134,15.13526,-4.55818,-26.2417,-8.71012,91.89369,-0.00611,-93.43877,76.92062,-0.08577,77.96687,-3.51499,-9.28534,-0.00603,-14.48258,-11.64989,-0.00554,-4.66907,4.64851,-9.77633,-26.19537,7.91739,-7.39179,3.6647,2.51391,3.33888
1618,9.72955,-0.0,0.0,-14.71338,0.0,-0.0,-4.5548,-2.61348,18.31079,-5.41254,6.42843,-23.60204,-23.3553,-1.19135,0.00035,-48.54038,2.49185,0.00569,21.61777,9.34529,8.97139,21.43031,-12.5176,-14.92145,-21.91843,23.03075,17.10096,-2.73637,-27.12792,-6.58976,92.47192,-0.00499,-92.44778,80.22725,-0.00053,81.01721,-3.73492,-9.00178,-0.00347,-15.15842,-10.73397,0.01454,-4.86789,4.52513,-9.68446,-26.39234,7.76902,-7.35149,3.90044,2.1676,4.12293
1619,9.99116,-0.0,-0.0,-15.02288,0.0,-0.0,-4.13743,-2.97148,18.37733,-5.51174,6.42983,-23.36224,-23.65171,-1.37304,-0.00071,-47.12905,2.42138,0.00519,21.85172,9.0593,8.5595,20.01813,-11.79607,-15.22913,-23.24881,23.41311,18.78366,-0.63321,-28.06145,-4.47691,93.0545,-0.0018,-91.7837,83.33035,0.0687,82.11733,-3.80398,-8.71108,-0.00132,-14.90804,-10.13804,0.02515,-5.11119,4.32173,-9.58496,-26.63034,7.54341,-7.33367,3.96854,1.87057,4.94563
1620,11.20902,0.0,-0.0,-14.68976,0.0,-0.0,-4.10379,-2.72092,18.77164,-6.12031,6.50373,-23.08718,-23.76037,-1.56244,-0.00092,-45.87902,2.15753,-0.0023,21.94685,8.8098,8.76392,18.69233,-11.13073,-15.4189,-24.4213,23.74588,20.17244,1.61426,-28.9241,-2.42298,93.63683,0.00068,-91.52874,86.14379,0.07974,81.86947,-3.6465,-8.181,0.0014,-13.24323,-10.33072,-0.0082,-5.48335,4.07962,-9.44303,-26.99768,7.26625,-7.29042,3.97623,1.58835,5.91956
1621,12.80372,0.0,-0.0,-14.08847,0.0,-0.0,-4.43418,-2.14707,19.42251,-6.7791,6.54403,-22.88365,-23.81571,-1.79545,-0.00029,-44.79717,1.62628,-0.00659,22.14068,8.56291,9.21217,17.62428,-10.56122,-15.67287,-25.53245,24.04207,21.40277,3.8955,-29.58972,-0.4622,94.28287,0.00421,-91.6808,88.65182,0.0453,81.45299,-3.2378,-7.42735,0.0031,-10.10036,-11.49144,-0.06832,-6.09312,3.91914,-9.22988,-27.61002,7.03897,-7.15037,4.06608,1.23397,7.0328
1622,14.21589,0.0,0.0,-14.05933,0.0,-0.0,-4.92099,-1.67362,20.05688,-7.17469,6.30584,-22.89807,-23.96951,-2.07021,0.00063,-43.80114,1.17755,-0.0028,22.61487,8.25453,9.43657,16.83269,-10.17321,-15.85881,-26.58099,24.33038,22.62215,6.26239,-30.02709,1.45224,95.0414,0.00728,-92.16935,90.93017,-0.00653,81.88866,-2.72306,-6.96412,0.0011,-6.29256,-13.16208,-0.07746,-6.94822,3.90667,-8.95905,-28.47686,6.92824,-6.90175,4.31336,0.76434,8.15197
1623,14.80136,-0.0,0.0,-14.64109,0.0,0.0,-5.21202,-1.41639,20.32434,-7.33842,5.80869,-23.12004,-24.25413,-2.3216,0.00081,-42.80515,1.13311,0.00305,23.29754,7.82929,9.37975,16.13907,-10.04538,-15.83987,-27.45366,24.6018,23.83825,8.80387,-30.31033,3.46392,95.8922,0.00619,-92.68475,93.08456,-0.05126,83.64347,-2.52939,-7.33976,0.00462,-3.40639,-14.55583,-0.02475,-7.9246,3.97235,-8.65287,-29.46953,6.8772,-6.59125,4.64486,0.21129,9.15206
1624,14.32715,0.0,-0.0,-15.23039,-0.0,0.0,-5.04194,-1.34787,20.18913,-7.37356,5.39114,-23.39151,-24.57089,-2.46617,0.0002,-41.75891,1.41686,0.00451,23.96681,7.3011,9.29022,15.34195,-10.13711,-15.7394,-28.0855,24.82501,24.96375,11.43108,-30.53739,5.7567,96.78355,0.00051,-92.84537,95.16933,-0.05544,86.21558,-2.94119,-8.41788,0.01331,-2.78314,-15.30883,0.01901,-8.91906,3.95583,-8.32129,-30.47707,6.74033,-6.28752,4.93171,-0.33319,9.98062
1625,13.1654,0.0,-0.0,-15.53835,-0.0,-0.0,-4.40367,-1.60405,20.05686,-7.26139,5.32466,-23.6276,-24.82689,-2.48488,-0.0004,-40.60415,1.76256,0.00253,24.50777,6.76921,9.24947,14.37171,-10.27102,-15.76851,-28.53925,24.96822,25.94437,13.91816,-30.73599,8.45737,97.67786,-0.00617,-92.40105,97.17194,-0.01179,88.24475,-3.60656,-9.28943,0.01219,-4.40953,-15.67621,0.03189,-9.9317,3.73068,-7.95991,-31.49458,6.39843,-6.03325,5.12004,-0.74836,10.61562
1626,12.01398,-0.0,-0.0,-15.70755,-0.0,0.0,-3.58473,-2.26615,20.17687,-6.95278,5.60074,-23.86469,-25.05334,-2.40077,-0.00078,-39.27201,2.03133,0.00106,24.95916,6.36671,9.21424,13.25851,-10.25884,-15.96567,-28.88352,24.97753,26.82273,16.17968,-30.83383,11.52264,98.54679,-0.00586,-91.4571,99.06741,0.0348,88.78733,-3.82252,-9.07285,0.01293,-7.00684,-15.90111,0.02716,-10.92601,3.28711,-7.50766,-32.4887,5.82001,-5.77499,5.19983,-0.94676,11.05496
1627,11.75625,0.0,-0.0,-15.94192,0.0,0.0,-3.03432,-3.03063,20.23276,-6.46172,6.0496,-24.08236,-25.3143,-2.2629,-0.00078,-37.77462,2.21692,0.00065,25.37691,6.18866,9.2228,12.09518,-10.03571,-16.18557,-29.05755,24.81351,27.67019,18.41491,-30.73376,14.70569,99.36181,0.00229,-90.51817,100.86816,0.04087,88.29671,-3.41473,-7.75465,0.01707,-9.15993,-15.605,0.01055,-11.75897,2.72449,-6.87267,-33.32484,5.0637,-5.39031,5.14236,-0.92334,11.38511
1628,12.75982,0.0,0.0,-16.2695,0.0,0.0,-2.97165,-3.44661,19.86895,-5.92266,6.49916,-24.12841,-25.55557,-2.18099,-0.00035,-36.2215,2.31232,-0.00024,25.77062,6.20414,9.2373,11.04499,-9.69012,-16.25228,-28.94292,24.53288,28.47932,20.90825,-30.41566,17.72138,100.13535,0.00413,-89.82639,102.579,0.01151,88.01424,-2.91659,-6.04321,0.00735,-10.32444,-14.16981,-0.00139,-12.32462,2.17325,-6.05252,-33.901,4.24982,-4.82911,4.95589,-0.77122,11.77442
1629,14.06851,0.0,0.0,-16.50056,-0.0,-0.0,-3.15587,-3.39244,19.29243,-5.59111,6.83768,-23.85321,-25.67171,-2.23643,-0.00022,-34.69235,2.29882,-0.00122,26.15885,6.22825,9.0776,10.23857,-9.38322,-16.07151,-28.56658,24.25804,29.2122,23.69762,-29.92412,20.41888,100.96875,-0.00878,-88.99439,104.11044,-0.01619,88.74152,-2.71272,-4.56316,-0.00364,-10.86847,-11.74568,-0.00646,-12.66874,1.68283,-5.15833,-34.25892,3.46504,-4.17702,4.72877,-0.66428,12.3095
1630,14.21988,0.0,-0.0,-16.41231,-0.0,0.0,-3.24901,-3.15136,19.02586,-5.64294,7.05175,-23.2377,-25.66902,-2.33698,-0.00044,-33.1592,2.19482,-0.00097,26.58785,6.06648,8.7135,9.64442,-9.20045,-15.65086,-28.10327,24.06823,29.92432,26.50108,-29.27159,22.72696,101.97608,-0.02097,-87.87048,105.31464,-0.01798,90.35185,-2.59026,-3.50259,-0.00439,-11.19158,-9.34277,-0.00416,-12.91893,1.18898,-4.28847,-34.52098,2.68579,-3.54934,4.5487,-0.75062,12.88477
1631,12.95321,-0.0,0.0,-15.99237,-0.0,0.0,-3.2581,-3.06206,19.29066,-5.96018,7.21736,-22.39782,-25.62715,-2.27142,-0.00048,-31.56656,2.0414,0.00101,27.06389,5.69336,8.4208,9.12133,-9.0843,-15.0779,-27.63115,23.95643,30.69142,28.99912,-28.42725,24.57711,103.12061,-0.01261,-87.19159,106.11868,-0.00391,92.23449,-2.38284,-2.84852,-0.0035,-11.13261,-7.82003,0.00251,-13.15749,0.6233,-3.44082,-34.76908,1.84776,-2.9692,4.41676,-1.01755,13.32448
1632,11.25579,-0.0,-0.0,-15.36526,-0.0,-0.0,-3.39989,-3.21245,19.93251,-6.18483,7.4409,-21.55236,-25.53613,-1.98875,-0.00024,-29.91297,1.86457,0.00365,27.52979,5.25576,8.41969,8.58274,-8.92576,-14.47527,-27.0204,23.85613,31.41002,31.09649,-27.41088,25.98942,104.22677,0.00871,-87.86966,106.59284,0.00498,94.02591,-2.46503,-2.60944,-0.003,-10.47805,-7.32361,0.00087,-13.42402,0.01169,-2.57799,-35.04498,0.96131,-2.39219,4.28687,-1.2994,13.58189
1633,9.82471,-0.0,0.0,-14.35911,-0.0,-0.0,-3.68477,-3.50697,20.74435,-5.99338,7.86806,-20.90724,-25.29673,-1.70368,-0.0003,-28.20851,1.61781,0.003,27.92625,4.92728,8.55568,8.04232,-8.67112,-14.0296,-26.12193,23.72141,31.83983,32.8665,-26.33588,27.12092,105.18827,0.02205,-89.96625,106.92248,0.00282,95.75016,-3.26027,-2.8335,0.00377,-9.65547,-7.58913,-0.00171,-13.79222,-0.57198,-1.73572,-35.4226,0.10832,-1.82429,4.15865,-1.44185,13.77569
1634,8.60363,-0.0,0.0,-12.63764,-0.0,0.0,-3.92248,-3.86301,21.52913,-5.31556,8.60107,-20.53913,-24.87155,-1.59956,-0.00076,-26.42369,1.18176,-0.00225,28.24549,4.77669,8.59212,7.52794,-8.32639,-13.96725,-24.94483,23.62831,31.88118,34.40627,-25.29951,28.16815,106.06491,0.01957,-92.48982,107.28675,-0.00105,97.2555,-4.61886,-3.50169,0.01164,-9.45815,-8.17252,0.00339,-14.3141,-1.08367,-1.03671,-35.9525,-0.62501,-1.36324,4.07193,-1.4456,14.0553
1635,7.70413,0.0,-0.0,-10.62525,-0.0,-0.0,-4.06787,-4.20473,22.10517,-4.2903,9.48356,-20.54916,-24.33139,-1.63082,-0.00074,-24.52149,0.5366,-0.00632,28.52338,4.76345,8.48956,7.02704,-7.89994,-14.25684,-23.58539,23.76166,31.648,35.82637,-24.2414,29.23778,106.96482,0.00458,-94.10865,107.70167,0.00069,98.0753,-5.98306,-4.40179,0.01028,-10.1995,-8.52711,0.00249,-14.91147,-1.4923,-0.61419,-36.55559,-1.16061,-1.12128,4.03068,-1.42695,14.46203
1636,7.36342,0.0,-0.0,-9.32963,0.0,0.0,-4.20138,-4.44515,22.51498,-3.14088,10.16451,-21.08483,-23.77152,-1.69571,-0.0004,-22.4964,-0.1698,-0.00554,28.78479,4.81999,8.27571,6.49458,-7.37993,-14.54573,-22.09932,24.23768,31.28279,37.2299,-23.00586,30.30046,107.90819,-0.01207,-94.1067,108.0561,0.00214,98.22041,-6.98066,-5.20522,0.00371,-11.48613,-8.27022,-0.00782,-15.4308,-1.78419,-0.50562,-37.07818,-1.47195,-1.12807,3.97322,-1.4674,14.91187
1637,7.23245,0.0,-0.0,-9.06511,-0.0,0.0,-4.27385,-4.59647,22.97913,-2.07849,10.44413,-22.01262,-23.27212,-1.76515,-0.00018,-20.39769,-0.79575,-0.00253,29.03121,4.90016,7.97667,5.90035,-6.78459,-14.58043,-20.53861,24.96556,30.89346,38.6237,-21.55689,31.27346,108.80968,-0.01846,-92.64596,108.31278,-0.00109,98.50805,-7.62776,-5.59145,-0.00137,-12.64694,-7.51398,-0.01044,-15.73993,-2.05069,-0.5553,-37.38965,-1.70134,-1.27259,3.8232,-1.56299,15.27619
1638,6.7676,0.0,-0.0,-9.26024,0.0,0.0,-4.19617,-4.74379,23.5461,-1.18273,10.37997,-22.86341,-22.90381,-1.81357,1e-05,-18.33267,-1.2978,-0.0001,29.28922,4.98203,7.70031,5.29059,-6.1937,-14.46708,-19.01129,25.7403,30.5815,39.91549,-20.02256,32.11404,109.57437,-0.01242,-90.44175,108.52414,-0.00441,99.58939,-8.11904,-5.27546,-0.00598,-13.10776,-6.94247,-0.0072,-15.73246,-2.45811,-0.46017,-37.38799,-2.11508,-1.33461,3.56545,-1.67779,15.47376
1639,5.83076,0.0,0.0,-9.17742,0.0,0.0,-4.01373,-4.90422,24.00118,-0.44754,10.10602,-23.18287,-22.69626,-1.77341,9e-05,-16.39716,-1.67825,0.0008,29.59733,5.06402,7.63619,4.75801,-5.69704,-14.51987,-17.59287,26.43334,30.31932,41.00465,-18.53648,32.8131,110.23515,-0.00114,-88.52079,108.68722,-0.0028,101.09364,-8.60979,-4.27288,-0.0086,-12.65121,-7.19179,-0.01436,-15.41222,-3.06069,-0.02538,-37.08085,-2.83541,-1.15325,3.2465,-1.7769,15.51771
1640,4.68048,-0.0,0.0,-8.59406,0.0,0.0,-3.88492,-5.00504,24.18224,0.15431,9.77135,-22.93252,-22.61502,-1.62341,-8e-05,-14.62023,-1.94014,0.0008,29.96893,5.14485,7.84846,4.37876,-5.349,-14.90239,-16.25491,27.04258,29.93061,41.86398,-17.14773,33.39284,110.94891,0.0072,-87.70789,108.76666,0.00132,102.13785,-9.01578,-2.9539,-0.00124,-11.58179,-8.00764,-0.01757,-15.01846,-3.71647,0.66596,-36.70516,-3.69973,-0.75351,2.93522,-1.84649,15.48393
1641,3.72783,0.0,0.0,-7.97153,-0.0,-0.0,-3.97642,-4.99843,24.15043,0.70132,9.57605,-22.52542,-22.58386,-1.45339,-0.00026,-13.00047,-2.08006,0.00062,30.3973,5.22234,8.16777,4.20118,-5.16794,-15.4221,-14.93442,27.60095,29.33708,42.55038,-15.85453,33.93027,111.79545,0.00719,-87.97888,108.81673,0.00352,102.43713,-8.9699,-1.56674,0.01547,-10.48831,-8.4568,-0.00556,-14.86936,-4.22594,1.3892,-36.57186,-4.43983,-0.27022,2.70084,-1.90839,15.44501
1642,3.09648,0.0,0.0,-7.63386,-0.0,-0.0,-4.2911,-5.02721,23.9574,1.21169,9.62658,-22.32118,-22.50593,-1.33337,-2e-05,-11.53977,-2.10043,0.00053,30.8165,5.31722,8.50829,4.19831,-5.13172,-15.8294,-13.57344,28.09941,28.65686,43.11355,-14.63165,34.4805,112.68344,0.00284,-88.88563,108.94588,0.00163,102.65608,-8.25302,-0.29696,0.02168,-9.74528,-7.99172,0.00415,-15.02999,-4.52474,1.99506,-36.74173,-4.94087,0.18203,2.54979,-1.97757,15.4307
1643,2.5822,0.0,0.0,-7.32954,0.0,-0.0,-4.65992,-5.31345,23.52702,1.62152,9.75418,-22.2781,-22.2926,-1.21072,0.00072,-10.24519,-1.99662,0.00103,31.12536,5.45638,9.00451,4.26623,-5.1746,-16.16394,-12.08232,28.5107,27.9866,43.52645,-13.44668,34.99839,113.52852,0.00219,-90.28947,109.20155,-0.00405,103.6348,-7.17563,0.33801,0.00436,-9.30933,-6.88707,0.00513,-15.27676,-4.73848,2.48393,-36.99442,-5.31973,0.55715,2.39743,-2.01405,15.39278
1644,2.18493,0.0,0.0,-7.04704,0.0,-0.0,-4.98441,-5.80641,22.89833,1.99126,9.65033,-22.2444,-21.92108,-1.05594,0.00102,-9.13983,-1.75848,0.0017,31.33263,5.63996,9.63417,4.35375,-5.21545,-16.54757,-10.38808,28.85802,27.24829,43.768,-12.28399,35.42719,114.38901,0.00341,-92.01512,109.54609,-0.00707,105.35588,-6.2743,-0.05581,-0.01347,-9.02428,-5.70307,0.00245,-15.38292,-5.05694,2.9878,-37.10967,-5.80137,0.90732,2.17543,-1.96344,15.21439
1645,2.20056,0.0,0.0,-7.26124,0.0,-0.0,-5.33374,-6.17506,22.30157,2.50092,9.19069,-22.22519,-21.44967,-0.97107,1e-05,-8.25215,-1.42127,0.00149,31.55922,5.85087,10.14117,4.50545,-5.21633,-16.87919,-8.54875,29.22186,26.30012,43.90527,-11.12817,35.80926,115.34881,0.00375,-93.6235,109.90203,-0.00365,106.95372,-5.95008,-1.23336,-0.00852,-8.9428,-4.74758,-0.00135,-15.31198,-5.55059,3.7139,-37.05307,-6.52766,1.39896,1.91853,-1.83962,14.8022
1646,2.6836,0.0,0.0,-7.99545,-0.0,0.0,-5.80175,-6.14239,21.84469,3.16162,8.52168,-22.19793,-20.96066,-1.03165,-0.00115,-7.57875,-1.07558,0.00052,31.86891,6.0713,10.45578,4.74807,-5.2096,-16.99863,-6.73063,29.66507,25.10107,44.01799,-9.94649,36.21264,116.37539,0.00499,-94.95312,110.20713,0.00066,107.74826,-6.4946,-2.66491,0.01175,-9.1825,-4.09078,-0.00316,-15.15238,-6.12414,4.77934,-36.90716,-7.4531,2.1767,1.6916,-1.71159,14.16671
1647,3.26235,0.0,0.0,-8.62547,0.0,-0.0,-6.36518,-5.79671,21.42224,3.78653,7.92489,-22.0681,-20.49988,-1.14507,-0.00105,-7.0772,-0.81397,-0.00033,32.21095,6.27734,10.77431,5.0462,-5.24039,-16.88422,-5.04316,30.15759,23.73762,44.10153,-8.73045,36.58513,117.36035,0.00203,-96.00037,110.44707,0.00151,107.78527,-7.86491,-3.95711,0.0211,-9.5938,-3.74713,-0.00174,-14.9859,-6.65595,6.03789,-36.74637,-8.41066,3.15052,1.49942,-1.61127,13.42945
1648,3.55719,-0.0,-0.0,-8.7996,0.0,-0.0,-6.87403,-5.58532,20.99841,4.28286,7.65934,-21.85474,-20.06273,-1.15682,-2e-05,-6.7088,-0.7015,-0.00074,32.51387,6.44746,11.22006,5.37499,-5.29823,-16.56881,-3.45666,30.58981,22.32064,44.10619,-7.55932,36.7979,118.24112,-0.00809,-96.43645,110.63556,0.00113,107.18153,-9.39377,-4.80944,0.01042,-9.77068,-3.65855,2e-05,-14.82166,-7.13294,7.20927,-36.58216,-9.28479,4.0646,1.31412,-1.509,12.75456
1649,3.44159,0.0,-0.0,-8.79617,0.0,-0.0,-7.19777,-5.79769,20.67069,4.73646,7.74923,-21.5951,-19.59846,-1.02367,0.00084,-6.47688,-0.75337,-0.00062,32.72666,6.58535,11.75771,5.74026,-5.34027,-16.1284,-1.87361,30.87666,20.85334,44.02668,-6.61509,36.83625,119.03542,-0.01264,-96.20023,110.78491,0.00128,105.67611,-10.29702,-5.03237,0.00156,-9.46816,-3.64825,0.00096,-14.585,-7.599,8.19701,-36.34638,-10.08081,4.81226,1.11743,-1.36998,12.24205
1650,2.92938,-0.0,0.0,-8.98981,0.0,0.0,-7.35359,-6.20502,20.46317,5.22077,7.91798,-21.18402,-19.02373,-0.83426,0.00094,-6.405,-0.8915,-0.00012,32.77957,6.71829,12.36978,6.12021,-5.36701,-15.74019,-0.21277,31.0371,19.23466,43.89779,-6.06202,36.83814,119.76663,-0.00217,-96.17074,110.91613,0.00014,103.52155,-10.46763,-4.74149,0.00545,-8.91003,-3.54069,0.00157,-14.20519,-8.04046,9.08509,-35.96688,-10.817,5.47673,0.87787,-1.19614,11.8892
1651,2.1208,-0.0,0.0,-9.47229,-0.0,-0.0,-7.46313,-6.45552,20.28214,5.71429,7.88735,-20.51791,-18.29778,-0.69279,0.00042,-6.489,-0.9977,0.00016,32.62486,6.86527,13.06844,6.468,-5.42138,-15.56256,1.54393,31.13797,17.45213,43.72408,-5.85459,36.94887,120.38576,0.01032,-97.31016,111.07369,-0.00301,101.90905,-10.49384,-4.22463,0.00724,-8.52672,-3.23568,0.00105,-13.74591,-8.42692,9.89612,-35.50512,-11.47349,6.0905,0.56984,-1.02339,11.62386
1652,1.23829,-0.0,0.0,-9.98765,0.0,-0.0,-7.61537,-6.55387,20.12418,6.15899,7.65901,-19.71939,-17.49587,-0.63064,-8e-05,-6.6781,-1.02181,9e-05,32.33543,7.00924,13.72682,6.77782,-5.52289,-15.5541,3.34216,31.17792,15.65177,43.46879,-5.76103,37.21113,120.80963,0.00917,-99.326,111.29868,-0.00349,101.35798,-11.09274,-3.54243,-0.00806,-8.48344,-2.671,0.00012,-13.36518,-8.78822,10.59763,-35.12305,-12.06616,6.61172,0.24225,-0.88832,11.33902
1653,0.53565,-0.0,-0.0,-10.00659,0.0,-0.0,-7.81583,-6.75387,20.20232,6.47573,7.39463,-19.105,-16.73005,-0.63013,-0.00031,-6.88662,-0.96783,-9e-05,32.05451,7.1044,14.05275,7.07789,-5.65545,-15.47843,5.11187,31.09322,13.92511,43.14842,-5.60437,37.57867,121.05884,-0.00104,-100.81042,111.57626,0.00233,100.72484,-12.60997,-2.55798,-0.03343,-8.68303,-1.91417,-0.00026,-13.13354,-9.12916,11.24206,-34.89005,-12.61877,7.08756,-0.01721,-0.7932,10.94874
1654,0.1256,-0.0,0.0,-9.3607,0.0,-0.0,-8.06937,-7.14892,20.68527,6.64318,7.17588,-18.87768,-16.00028,-0.67236,-0.00059,-7.02833,-0.84359,-0.0001,31.82546,7.12235,13.88553,7.35233,-5.78981,-15.16141,6.79489,30.86789,12.2351,42.89003,-5.35807,37.99023,121.32863,-0.01116,-100.80087,111.83392,0.00564,99.1965,-14.7539,-1.53778,-0.0317,-9.08905,-1.18516,-0.00077,-12.99811,-9.35951,11.90552,-34.74196,-13.07538,7.62385,-0.19787,-0.71054,10.45308
1655,-0.1402,0.0,0.0,-8.56075,-0.0,0.0,-8.40316,-7.5391,21.36691,6.76105,7.01053,-18.92281,-15.21883,-0.73985,-0.0009,-7.05725,-0.69463,1e-05,31.55761,7.09745,13.46681,7.51855,-5.86995,-14.71285,8.3355,30.5554,10.5977,42.80131,-5.04793,38.38363,121.85703,-0.01119,-99.94331,112.02289,0.00085,98.03517,-16.77867,-1.34998,0.00281,-9.63234,-0.61547,-0.00062,-12.9144,-9.40918,12.54549,-34.62919,-13.35529,8.20746,-0.38974,-0.60824,9.92223
1656,-0.55159,-0.0,0.0,-7.94125,0.0,-0.0,-8.77243,-7.72777,21.81717,6.89701,6.95542,-18.96998,-14.35863,-0.79414,-0.00064,-6.99621,-0.60966,-3e-05,31.15752,7.1049,13.28731,7.50875,-5.82743,-14.40361,9.76647,30.19635,9.08742,42.83215,-4.71745,38.66868,122.66895,0.00543,-99.79999,112.16434,-0.00467,98.69938,-18.02705,-2.51858,0.01858,-9.99474,-0.16363,0.00083,-12.90164,-9.33626,13.01743,-34.58373,-13.4597,8.67994,-0.69633,-0.45885,9.42997
1657,-1.15386,0.0,0.0,-7.30059,-0.0,-0.0,-9.09702,-7.74245,21.86306,7.00748,7.09684,-18.84663,-13.47219,-0.77799,0.00021,-6.94705,-0.64491,-6e-05,30.62914,7.18565,13.66195,7.39173,-5.65455,-14.38275,11.26144,29.78595,7.70035,42.87324,-4.44992,38.807,123.49456,0.01673,-101.15315,112.26077,-0.00463,100.50562,-18.1958,-4.33184,0.00415,-10.01585,0.15914,0.00177,-12.99616,-9.26801,13.25372,-34.6585,-13.48238,8.92869,-1.13374,-0.24709,9.02836
1658,-1.60647,0.0,0.0,-6.67616,0.0,-0.0,-9.41234,-7.66738,21.80117,7.07333,7.40274,-18.55776,-12.59875,-0.67782,0.00046,-7.04413,-0.76514,0.0001,30.07013,7.32516,14.42861,7.38085,-5.42579,-14.56611,12.97886,29.30242,6.39553,42.92464,-4.31326,38.89325,124.02129,0.00727,-103.42967,112.22191,-0.00208,101.72882,-17.30415,-5.55112,0.00013,-10.02873,0.1727,0.00266,-13.2363,-9.28404,13.36919,-34.89323,-13.53934,9.03153,-1.60309,0.02641,8.74522
1659,-1.58147,-0.0,-0.0,-6.46057,0.0,-0.0,-9.81472,-7.535,22.03263,7.12478,7.68185,-18.19454,-11.73921,-0.541,-5e-05,-7.33441,-0.88061,5e-05,29.58586,7.49751,15.14886,7.63061,-5.2135,-14.79086,14.89155,28.71294,5.15555,43.04544,-4.31171,39.04639,124.18693,-0.0049,-105.45367,111.98486,-0.00118,101.88451,-15.7298,-5.77033,0.01013,-10.39556,-0.23814,0.00513,-13.64653,-9.37341,13.49451,-35.30393,-13.66804,9.11585,-1.97929,0.35429,8.58682
1660,-1.14852,0.0,-0.0,-6.54977,0.0,-0.0,-10.30476,-7.43003,22.49707,7.11745,7.76645,-17.8,-10.89202,-0.38565,0.0001,-7.69756,-0.94875,-0.00021,29.18664,7.68602,15.67048,8.04119,-5.00359,-15.05144,16.80661,27.9754,3.93391,43.198,-4.42261,39.26175,124.16982,-0.00666,-106.36198,111.66981,-1e-05,101.54321,-14.05767,-5.50444,0.01042,-11.08798,-0.87727,0.00519,-14.15974,-9.47949,13.58019,-35.82155,-13.79783,9.15641,-2.2203,0.72374,8.55232
1661,-0.65802,-0.0,0.0,-6.25097,0.0,-0.0,-10.81674,-7.44845,22.7561,6.96526,7.66759,-17.45159,-10.0656,-0.17599,0.00122,-7.94959,-0.98443,-0.00033,28.80949,7.87237,16.21239,8.37382,-4.73473,-15.40902,18.48762,27.07799,2.70255,43.28195,-4.62222,39.43734,124.18604,-0.00272,-106.27946,111.48033,0.00178,100.92664,-12.75677,-5.35003,0.00289,-11.90255,-1.42714,0.00192,-14.57598,-9.57144,13.50663,-36.25057,-13.85649,9.05202,-2.37025,1.1117,8.60421
1662,-0.38736,0.0,0.0,-5.40085,0.0,0.0,-11.33431,-7.57295,22.71042,6.74423,7.46185,-17.43887,-9.26587,0.06741,0.00159,-8.02915,-0.96773,-0.00022,28.43229,8.03414,16.79733,8.5217,-4.40099,-15.67308,19.76105,26.09336,1.54419,43.27258,-4.8554,39.48438,124.3756,0.00333,-106.17733,111.48476,0.00302,100.0376,-12.09582,-5.59934,-0.00018,-12.65006,-1.80641,-0.00111,-14.69168,-9.67119,13.29093,-36.38808,-13.8706,8.81051,-2.48845,1.48897,8.63431
1663,-0.43199,-0.0,-0.0,-4.81971,0.0,-0.0,-11.87488,-7.73505,22.81956,6.6855,7.16368,-18.02516,-8.47982,0.22825,0.00029,-8.00817,-0.86443,-0.0,28.08562,8.15951,17.03319,8.55479,-4.05563,-15.51608,20.56071,25.16816,0.58073,43.18464,-5.05118,39.37769,124.77623,0.00742,-106.60824,111.62752,0.00235,99.2675,-12.09615,-6.17334,0.001,-13.10739,-2.17552,-0.00268,-14.51065,-9.82486,13.07401,-36.23356,-13.93429,8.54733,-2.59139,1.82582,8.54734
1664,-0.83314,0.0,-0.0,-5.26584,0.0,-0.0,-12.38374,-7.98901,23.47046,6.89825,6.83646,-19.01107,-7.67183,0.22858,-0.00129,-7.95612,-0.74172,0.0001,27.75843,8.26546,16.67715,8.56704,-3.7279,-14.92586,20.91916,24.41212,-0.13691,42.97648,-5.19379,39.17196,125.29028,0.00326,-106.94501,111.86663,0.00041,98.98308,-12.38912,-6.49644,0.00032,-13.17044,-2.64904,-0.00299,-14.27495,-10.0488,12.98029,-36.02381,-14.10812,8.37347,-2.64778,2.09874,8.37697
1665,-1.61877,0.0,-0.0,-6.61341,-0.0,0.0,-12.72971,-8.51556,24.50898,7.26476,6.65884,-19.88158,-6.81287,0.12063,-0.00171,-7.88449,-0.72727,-3e-05,27.38452,8.38989,16.02384,8.59046,-3.39967,-14.22208,21.0095,23.77416,-0.64843,42.63113,-5.31849,38.98445,125.7195,-0.00204,-106.24257,112.15852,-0.001,99.21503,-12.38819,-5.93232,0.0061,-12.99789,-3.1122,-0.00135,-14.24931,-10.27907,13.01181,-36.01806,-14.33349,8.31513,-2.6263,2.3032,8.23506
1666,-2.71953,0.0,0.0,-8.15255,-0.0,0.0,-12.8767,-9.3409,25.4775,7.59732,6.71457,-20.33778,-5.91844,0.00082,-0.00113,-7.78939,-0.85738,-0.00023,26.94364,8.54668,15.54476,8.6232,-3.06625,-13.69145,21.14856,23.06875,-1.0646,42.25416,-5.43073,38.91514,125.92149,-0.00033,-104.19672,112.40665,-0.00014,99.75202,-11.75752,-4.57191,0.01691,-12.85775,-3.41053,0.00086,-14.47749,-10.39358,13.04995,-36.25504,-14.45374,8.30725,-2.53511,2.45474,8.15777
1667,-3.87549,0.0,-0.0,-9.08959,0.0,-0.0,-13.0545,-10.14725,25.98775,7.75557,6.85236,-20.39239,-5.03991,-0.06915,4e-05,-7.68496,-1.05438,-0.00028,26.49635,8.68186,15.47457,8.66072,-2.783,-13.45094,21.56017,22.1899,-1.51251,41.98969,-5.49774,38.99566,125.94962,0.00048,-101.06538,112.56039,0.001,100.2083,-10.71627,-3.25644,0.01224,-12.91395,-3.56014,0.00146,-14.75702,-10.35072,12.9924,-36.53365,-14.39294,8.26939,-2.42085,2.56471,8.07468
1668,-4.72505,0.0,-0.0,-8.95571,0.0,-0.0,-13.58269,-10.57475,25.91827,7.70246,6.88579,-20.15316,-4.21645,-0.05325,0.00142,-7.58827,-1.2158,-0.00017,26.08784,8.71456,15.77874,8.67021,-2.62581,-13.48633,22.14651,21.25865,-2.07769,41.87718,-5.52131,39.20157,125.99572,-0.00302,-97.85618,112.70936,-0.00206,100.5153,-9.9511,-2.87764,0.00094,-13.08789,-3.57768,0.00011,-14.85633,-10.27447,12.85829,-36.63302,-14.27319,8.17212,-2.34937,2.63246,7.91785
1669,-5.24228,-0.0,0.0,-8.08626,0.0,-0.0,-14.45208,-10.62815,25.57746,7.56453,6.78886,-19.81131,-3.44015,0.02184,0.00175,-7.47793,-1.26852,9e-05,25.68991,8.63863,16.17503,8.57571,-2.59881,-13.61686,22.66495,20.46106,-2.7894,41.80572,-5.55814,39.45663,126.16477,0.00112,-96.75257,113.0047,-0.00882,101.10823,-10.02865,-3.76947,0.00686,-13.15175,-3.32904,-0.00138,-14.7207,-10.29483,12.72284,-36.50658,-14.24264,8.03664,-2.34961,2.6778,7.70014
1670,-5.85751,0.0,0.0,-7.38821,-0.0,-0.0,-15.33553,-10.56924,25.48192,7.53225,6.60903,-19.60981,-2.66938,0.04065,0.00033,-7.28609,-1.19917,0.00044,25.26734,8.52324,16.27443,8.31767,-2.62417,-13.6333,23.07459,19.78715,-3.61419,41.58816,-5.66616,39.65039,126.36411,0.00641,-99.58234,113.52137,-0.00642,101.89186,-10.83856,-5.56398,0.01652,-13.03578,-2.73033,-0.00177,-14.44267,-10.3638,12.63675,-36.2396,-14.27524,7.92908,-2.35548,2.73726,7.47234
1671,-6.80478,0.0,-0.0,-7.33557,0.0,0.0,-16.0476,-10.53354,25.75284,7.63604,6.35221,-19.61632,-1.88729,-0.08886,-0.00152,-6.96408,-1.08168,0.00041,24.84381,8.40899,15.98125,7.92372,-2.63713,-13.57242,23.52887,19.06338,-4.48781,41.10781,-5.85798,39.68683,126.44424,-0.00049,-105.40715,114.21152,0.0111,101.8196,-11.96068,-7.55895,0.01549,-12.84552,-1.984,-0.0016,-14.13684,-10.37994,12.62678,-35.93583,-14.28658,7.9135,-2.25753,2.80833,7.24845
1672,-7.76897,0.0,0.0,-7.69317,-0.0,0.0,-16.66988,-10.52203,26.0396,7.74242,6.04168,-19.71522,-1.13241,-0.33206,-0.00202,-6.55517,-1.01433,-9e-05,24.46739,8.29514,15.58208,7.5007,-2.62544,-13.61476,24.06331,18.20616,-5.35095,40.41937,-6.09254,39.52224,126.39473,-0.00387,-111.03138,114.94146,0.01753,100.70288,-13.15858,-9.21387,0.00774,-12.6786,-1.4293,-0.00127,-13.92992,-10.4136,12.63999,-35.7314,-14.32266,7.91305,-2.03333,2.85745,7.01689
1673,-8.40034,0.0,-0.0,-8.19474,0.0,-0.0,-17.25138,-10.61982,26.03935,7.76421,5.75718,-19.80901,-0.45367,-0.57074,-0.00107,-6.1698,-1.00239,-0.00031,24.13772,8.21797,15.37589,7.14547,-2.58241,-13.74882,24.47129,17.31029,-6.095,39.71311,-6.29112,39.20687,126.39089,0.00116,-114.1479,115.56283,0.00121,100.09717,-14.00801,-10.31938,-0.00323,-12.67187,-1.15673,-0.00116,-13.94828,-10.62149,12.50668,-35.77648,-14.46695,7.70766,-1.7887,2.89314,6.79721
1674,-8.72461,0.0,0.0,-8.82675,0.0,0.0,-17.70189,-10.94334,25.77456,7.75032,5.53798,-19.86906,0.12526,-0.68977,0.00031,-5.90515,-0.95768,-0.00014,23.81835,8.23347,15.40468,6.8909,-2.50119,-13.77007,24.53438,16.50245,-6.55551,39.18107,-6.38944,38.87791,126.62687,-0.00167,-114.62149,116.0164,-0.00963,100.76396,-13.91528,-10.89511,-0.00697,-12.89359,-0.99865,-0.00125,-14.19005,-10.98883,12.12868,-36.07249,-14.66967,7.21031,-1.65151,2.96459,6.64119
1675,-8.88925,0.0,-0.0,-9.45333,0.0,-0.0,-17.9758,-11.48405,25.44319,7.77171,5.34414,-19.88374,0.5794,-0.63456,0.00104,-5.80601,-0.83,-0.00014,23.51211,8.33631,15.50685,6.74398,-2.40108,-13.56402,24.26988,15.8089,-6.68186,38.89583,-6.39717,38.6484,127.0713,-0.0097,-113.08176,116.3842,0.00012,101.06265,-13.01183,-11.02209,-0.0012,-13.04389,-0.84441,-0.00135,-14.48536,-11.33718,11.67577,-36.42286,-14.82705,6.64961,-1.65211,3.08878,6.58128
1676,-8.81347,0.0,0.0,-9.67315,0.0,0.0,-18.20712,-12.07332,25.15745,7.79517,5.17619,-19.80992,0.87978,-0.4564,0.00069,-5.8444,-0.69326,-0.00016,23.26652,8.46901,15.5359,6.70362,-2.30535,-13.28477,23.89044,15.18329,-6.6613,38.78872,-6.37916,38.54566,127.45073,-0.00489,-110.21834,116.77847,0.01589,99.374,-12.28191,-10.76702,-0.0003,-12.73851,-0.77515,-0.0022,-14.65175,-11.552,11.45197,-36.62027,-14.9443,6.356,-1.71912,3.23217,6.57946
1677,-8.40686,0.0,0.0,-9.36195,0.0,-0.0,-18.5751,-12.47951,24.90223,7.75825,5.13078,-19.66449,1.03298,-0.28404,-1e-05,-5.92161,-0.65595,-5e-05,23.11926,8.59359,15.43212,6.7362,-2.20672,-13.1553,23.59774,14.59266,-6.76857,38.7345,-6.3838,38.58146,127.51292,0.0059,-107.40316,117.17498,0.01609,96.4368,-12.65062,-10.26711,-0.00884,-12.22172,-0.96425,-0.00074,-14.63166,-11.63369,11.58929,-36.60252,-15.07038,6.45351,-1.76088,3.36413,6.53753
1678,-7.98858,0.0,-0.0,-9.06058,-0.0,-0.0,-19.02866,-12.67814,24.71064,7.73379,5.26152,-19.67572,1.07211,-0.20614,-0.00032,-5.94879,-0.72397,-2e-05,23.07694,8.71004,15.15486,6.79403,-2.08688,-13.12249,23.47414,14.0271,-7.10735,38.66103,-6.42493,38.77071,127.23895,0.00051,-106.3932,117.44006,0.00395,94.37375,-14.2375,-9.82322,-0.0099,-12.36092,-1.44009,0.00727,-14.46742,-11.59171,11.95147,-36.41806,-15.16412,6.81059,-1.7471,3.48603,6.3981
1679,-7.94594,-0.0,-0.0,-9.21756,-0.0,0.0,-19.37276,-12.856,24.54274,7.83559,5.4912,-19.99819,1.00987,-0.21845,-0.00014,-5.92373,-0.8326,-4e-05,23.1133,8.81722,14.83035,6.84879,-1.95938,-13.01837,23.48719,13.4705,-7.54794,38.57159,-6.50994,39.03614,126.82174,-0.01013,-107.76147,117.52604,-0.00267,94.46507,-16.24745,-9.73886,0.00018,-13.61093,-1.91997,0.00904,-14.2361,-11.45401,12.29793,-36.15667,-15.16321,7.19014,-1.7244,3.59688,6.22507
1680,-8.14596,-0.0,-0.0,-9.44432,0.0,0.0,-19.59366,-13.04226,24.12057,8.00187,5.71492,-20.37286,0.84076,-0.28857,0.00022,-5.89696,-0.95942,-2e-05,23.17668,8.90935,14.75354,6.89119,-1.85531,-12.94139,23.53258,12.93022,-7.91317,38.46848,-6.63668,39.20923,126.50312,-0.00647,-109.85311,117.54626,-0.00257,96.09585,-17.61985,-9.88835,0.00353,-15.30388,-2.07012,-0.00044,-14.03748,-11.30188,12.47945,-35.93388,-15.08846,7.41998,-1.73985,3.67422,6.13153
1681,-8.30036,0.0,0.0,-9.24294,-0.0,0.0,-19.77028,-13.14096,23.33331,8.08649,5.89182,-20.49034,0.58074,-0.38603,0.00035,-5.90781,-1.10289,3e-05,23.22928,8.99951,14.94221,6.93912,-1.78524,-13.04207,23.50665,12.48512,-8.15506,38.31956,-6.75177,39.19959,126.40154,-0.00162,-110.025,117.64393,0.00176,97.33403,-18.04597,-9.66933,0.00123,-16.33395,-1.92024,-0.00528,-13.96708,-11.19766,12.50279,-35.85189,-15.00029,7.48221,-1.77156,3.70083,6.15238
1682,-8.49981,0.0,-0.0,-8.82167,0.0,-0.0,-19.85455,-13.23013,22.47903,8.09183,6.01856,-20.44354,0.2717,-0.45372,-5e-05,-5.99068,-1.21333,-1e-05,23.27686,9.10636,15.08749,7.05626,-1.74917,-13.15299,23.33928,12.23504,-8.28756,38.14783,-6.74962,39.102,126.4937,-0.00488,-107.59995,117.83132,0.00732,96.75417,-18.04685,-8.79984,0.00034,-16.2277,-1.73655,-0.00422,-14.05292,-11.16098,12.48621,-35.9349,-14.96019,7.48073,-1.7649,3.68781,6.24278
1683,-8.86957,0.0,-0.0,-8.61166,0.0,0.0,-19.83291,-13.37529,21.80093,8.13901,6.09441,-20.49325,-0.04479,-0.45624,-0.00052,-6.17974,-1.2436,-0.00017,23.34415,9.24824,15.09144,7.3034,-1.73391,-13.03275,22.97757,12.19151,-8.2522,38.08316,-6.56697,39.0849,126.74319,-0.00318,-104.7869,117.97304,0.00466,94.79472,-18.02187,-7.89787,0.00115,-15.3171,-1.61826,-0.00311,-14.23075,-11.20002,12.55246,-36.11332,-15.02064,7.52811,-1.70906,3.67961,6.35597
1684,-9.24248,0.0,-0.0,-8.65808,0.0,-0.0,-19.8304,-13.42182,21.25304,8.28128,6.10144,-20.66717,-0.33441,-0.45633,-0.00047,-6.44767,-1.22136,-0.00021,23.42646,9.44375,15.14581,7.6354,-1.69195,-12.76795,22.42561,12.26951,-7.99198,38.21104,-6.2685,39.18324,127.16006,0.00825,-103.88601,117.95304,-0.00197,93.06059,-17.76885,-7.79632,-0.00242,-14.18333,-1.52498,-0.00276,-14.37426,-11.26564,12.69423,-36.25627,-15.13336,7.63641,-1.64782,3.72022,6.46604
1685,-9.46826,0.0,0.0,-8.77419,0.0,-0.0,-19.90819,-13.28009,20.79622,8.45332,5.98433,-20.82107,-0.58227,-0.55766,-3e-05,-6.67993,-1.20591,-8e-05,23.49447,9.67276,15.28316,7.905,-1.58955,-12.65623,21.79592,12.38595,-7.58945,38.41821,-5.9863,39.26032,127.73991,0.01454,-104.75955,117.84715,-0.00441,92.72602,-16.92737,-8.60137,-0.01421,-13.26783,-1.42188,-0.00231,-14.36214,-11.2428,12.758,-36.2386,-15.13547,7.70536,-1.62442,3.79145,6.55143
1686,-9.62185,0.0,0.0,-8.84107,-0.0,-0.0,-19.97499,-13.09892,20.46875,8.57476,5.69804,-20.91164,-0.82883,-0.77072,0.00031,-6.76706,-1.20774,2e-05,23.53798,9.87578,15.33375,8.01009,-1.45793,-12.80518,21.23625,12.51091,-7.20953,38.51883,-5.78754,39.22045,128.39433,0.00684,-105.76938,117.82344,-0.00513,93.67686,-15.4483,-9.72701,-0.01791,-12.85053,-1.22645,-0.00182,-14.17284,-11.07765,12.62432,-36.03959,-14.93335,7.64303,-1.64035,3.82431,6.61105
1687,-9.78558,-0.0,0.0,-8.85857,0.0,-0.0,-19.93788,-13.02089,20.18094,8.63604,5.30151,-21.03032,-1.15601,-0.99809,0.00023,-6.70469,-1.19032,0.00012,23.55686,10.02472,15.27802,7.96903,-1.35228,-13.05132,20.80858,12.6302,-6.95184,38.45486,-5.6506,39.15445,128.97565,-0.00376,-105.81559,117.90393,-0.00403,94.69048,-13.67285,-10.51199,-0.00498,-12.93876,-0.89528,-0.00169,-13.91895,-10.86693,12.35746,-35.77837,-14.64022,7.47272,-1.68451,3.78667,6.68659
1688,-9.73,0.0,0.0,-8.7694,0.0,0.0,-19.87226,-12.95114,19.7114,8.63632,4.95471,-21.19466,-1.6022,-1.15634,-0.00028,-6.57723,-1.14004,0.00016,23.53449,10.14944,15.29537,7.84832,-1.28776,-13.26782,20.48401,12.73708,-6.8143,38.27775,-5.54784,39.18057,129.38774,-0.00672,-104.83964,117.9854,-0.00219,94.83224,-12.1768,-10.67002,0.00643,-13.3337,-0.53305,-0.00115,-13.74925,-10.7706,12.10682,-35.61162,-14.45915,7.27373,-1.77114,3.7177,6.83033
1689,-8.97698,0.0,0.0,-8.33132,-0.0,0.0,-19.98336,-12.65352,18.96016,8.50197,4.7974,-21.25072,-2.11466,-1.26316,-0.00071,-6.46797,-1.10472,6e-05,23.46851,10.28889,15.49742,7.7125,-1.23811,-13.52012,20.22674,12.8616,-6.73671,38.0778,-5.47969,39.25556,129.6306,-0.0033,-103.30813,118.03674,-0.00201,94.64561,-11.38538,-10.31433,0.00357,-13.91611,-0.28351,-0.00017,-13.72747,-10.84779,11.92407,-35.60594,-14.46392,7.07199,-1.90672,3.67051,7.05286
1690,-7.55011,0.0,-0.0,-7.51324,0.0,-0.0,-20.27453,-12.07835,18.161,8.20202,4.83651,-21.09468,-2.62657,-1.39277,-0.0008,-6.39196,-1.13177,-8e-05,23.40429,10.45181,15.78034,7.61758,-1.17882,-13.85253,20.03666,13.03583,-6.65314,37.97661,-5.44177,39.26481,129.73668,0.00125,-101.39188,118.10062,-0.00258,95.20547,-11.15177,-9.66998,-0.00179,-14.56497,-0.19689,0.0004,-13.82227,-10.99698,11.75693,-35.72285,-14.54117,6.85725,-2.04246,3.65804,7.30239
