PaulMeinheit/Bachelor_Muay_Thai/processed_Data/E1/roundhouse/sliced/JointAngles/sliced6.csv
Unnamed: 0_level_0,L_MTP_ANGLE,L_MTP_ANGLE,L_MTP_ANGLE,R_MTP_ANGLE,R_MTP_ANGLE,R_MTP_ANGLE,L_ANKLE_ANGLE,L_ANKLE_ANGLE,L_ANKLE_ANGLE,R_ANKLE_ANGLE,R_ANKLE_ANGLE,R_ANKLE_ANGLE,L_KNEE_ANGLE,L_KNEE_ANGLE,L_KNEE_ANGLE,R_KNEE_ANGLE,R_KNEE_ANGLE,R_KNEE_ANGLE,L_HIP_ANGLE,L_HIP_ANGLE,L_HIP_ANGLE,R_HIP_ANGLE,R_HIP_ANGLE,R_HIP_ANGLE,L_SHOULDER_ANGLE,L_SHOULDER_ANGLE,L_SHOULDER_ANGLE,R_SHOULDER_ANGLE,R_SHOULDER_ANGLE,R_SHOULDER_ANGLE,L_ELBOW_ANGLE,L_ELBOW_ANGLE,L_ELBOW_ANGLE,R_ELBOW_ANGLE,R_ELBOW_ANGLE,R_ELBOW_ANGLE,L_WRIST_ANGLE,L_WRIST_ANGLE,L_WRIST_ANGLE,R_WRIST_ANGLE,R_WRIST_ANGLE,R_WRIST_ANGLE,NECK_ANGLE,NECK_ANGLE,NECK_ANGLE,NECK_ANGLE_SHADOW,NECK_ANGLE_SHADOW,NECK_ANGLE_SHADOW,Trunk_Joint_Angle,Trunk_Joint_Angle,Trunk_Joint_Angle
ITEM,X,Y,Z,X,Y,Z,X,Y,Z,X,Y,Z,X,Y,Z,X,Y,Z,X,Y,Z,X,Y,Z,X,Y,Z,X,Y,Z,X,Y,Z,X,Y,Z,X,Y,Z,X,Y,Z,X,Y,Z,X,Y,Z,X,Y,Z
3568,-2.87356,-0.0,-0.0,-8.10917,0.0,-0.0,-22.14631,-8.70956,7.71924,12.45411,4.43794,-13.12445,-18.90102,-3.87137,0.00027,-6.97997,-0.61107,-2e-05,28.72998,19.07609,10.85256,0.13786,4.32038,-12.86433,21.92212,19.55152,10.24826,42.24971,-5.0837,39.94231,128.80045,0.00424,-113.38747,122.08569,0.00263,117.8675,-14.70744,-16.59895,-0.0048,-16.26382,11.0166,-0.00576,-3.6505,-12.09099,8.29769,-25.77178,-14.28479,3.18963,1.53087,6.29398,10.06416
3569,-3.12452,-0.0,0.0,-8.00068,0.0,0.0,-22.23326,-8.97679,8.02297,12.46346,4.51952,-13.26996,-19.2553,-4.11245,0.0002,-6.98814,-0.6037,-2e-05,28.8363,19.15377,10.96766,0.05382,4.2402,-12.86642,21.6578,19.66716,10.49879,42.32795,-5.34744,39.97144,128.47176,0.00381,-112.63251,122.17893,0.0025,115.91477,-15.15791,-16.5918,-0.00296,-16.02883,10.22476,-0.0058,-3.06054,-12.50143,8.12344,-25.22517,-14.60079,2.86704,1.57166,6.30882,9.95275
3570,-3.51637,-0.0,-0.0,-7.53956,0.0,0.0,-22.39318,-9.06247,8.20259,12.27322,4.51553,-13.2468,-19.59697,-4.33984,-0.00024,-6.96214,-0.60553,-3e-05,28.97153,19.29564,11.35312,0.0247,4.18752,-12.93152,21.43322,19.73689,10.83126,42.51434,-5.56531,40.04785,128.09174,-0.00055,-111.95499,122.20386,0.00085,114.58806,-15.38114,-16.46374,-0.00174,-15.97413,9.58142,-0.00203,-2.57936,-12.77376,7.92737,-24.77449,-14.78073,2.57761,1.6148,6.37127,9.91723
3571,-4.06635,0.0,0.0,-7.20845,0.0,-0.0,-22.65339,-8.91854,8.16142,12.0948,4.49462,-13.16107,-19.93188,-4.5084,-0.00053,-6.9046,-0.60096,-5e-05,29.18707,19.43814,11.93978,0.05596,4.13374,-13.03121,21.34884,19.75105,11.14528,42.82896,-5.76401,40.15319,127.61697,-0.00072,-111.54749,122.18493,0.0002,114.85019,-15.49965,-16.13588,-0.00136,-16.40522,9.54047,-0.00173,-2.05537,-12.96994,7.74113,-24.27319,-14.89375,2.32702,1.66365,6.41555,9.9287
3572,-4.84319,-0.0,0.0,-7.49229,-0.0,-0.0,-22.89552,-8.67882,8.01984,12.12945,4.40053,-13.15554,-20.29646,-4.65995,8e-05,-6.87181,-0.54974,-0.00013,29.49248,19.53399,12.52696,0.13885,4.03394,-13.11401,21.40974,19.70834,11.36392,43.17012,-5.93618,40.279,127.10419,0.00253,-110.92167,122.1667,-0.00036,116.09199,-15.82422,-15.81,0.00097,-16.98968,10.11538,-0.00028,-1.47855,-13.15731,7.58745,-23.71757,-15.01056,2.11022,1.74401,6.39648,9.88541
3573,-5.53724,0.0,0.0,-8.25326,0.0,0.0,-23.02283,-8.57296,8.01094,12.33654,4.21762,-13.23469,-20.65956,-4.89367,0.00077,-6.89595,-0.44255,-0.00021,29.79047,19.59823,12.94038,0.23203,3.8658,-13.16075,21.47189,19.63849,11.59928,43.40257,-6.05995,40.42861,126.6769,0.0025,-109.99116,122.16473,-0.00085,116.99714,-16.22983,-15.88876,0.00345,-17.11076,10.83692,0.00434,-0.94393,-13.33435,7.55567,-23.20145,-15.16271,2.01114,1.86816,6.32491,9.73306
3574,-5.53597,-0.0,0.0,-8.62329,0.0,0.0,-23.16252,-8.67943,8.1024,12.44275,4.09757,-13.23524,-20.93979,-5.1864,0.00046,-6.92091,-0.31951,-0.00013,29.9689,19.64905,13.25896,0.26388,3.64286,-13.24301,21.37672,19.58367,12.07507,43.50101,-6.14702,40.59708,126.38055,-0.00073,-109.23466,122.14862,-0.00122,116.77595,-16.14407,-16.37821,-0.00093,-16.50771,11.10113,0.00036,-0.49684,-13.46118,7.72642,-22.76511,-15.34301,2.12068,2.02792,6.24253,9.48678
3575,-4.79207,-0.0,0.0,-8.13574,0.0,0.0,-23.47021,-8.8357,8.06749,12.28611,4.11311,-13.10495,-21.13992,-5.41833,-0.00026,-6.86948,-0.21205,4e-05,30.0757,19.68743,13.63983,0.22843,3.41277,-13.38472,21.12505,19.56641,12.82739,43.56743,-6.24068,40.74751,126.14307,-0.00294,-109.03326,122.10996,-0.00115,115.6449,-15.23675,-16.88973,-0.00439,-15.34645,10.75347,-0.00839,-0.15661,-13.52412,8.00703,-22.42727,-15.50466,2.35787,2.23958,6.1813,9.19357
3576,-3.94681,0.0,-0.0,-7.28032,0.0,-0.0,-23.90045,-8.91437,7.81936,11.99769,4.11862,-12.99995,-21.36501,-5.53919,-0.00072,-6.74495,-0.10836,0.00014,30.22376,19.72728,14.13291,0.18137,3.20517,-13.47981,20.86482,19.57893,13.58393,43.70591,-6.37468,40.81863,125.88396,-0.00204,-109.1645,122.0951,-0.00019,114.26651,-13.98774,-17.13984,-0.00027,-13.98052,10.13915,-0.0084,0.00126,-13.53724,8.20378,-22.26756,-15.58929,2.53645,2.49953,6.12728,8.94069
3577,-3.51919,0.0,-0.0,-6.65194,0.0,-0.0,-24.30566,-9.00893,7.41831,11.78767,3.99749,-13.04628,-21.70437,-5.59999,-0.00083,-6.61859,0.01547,0.00011,30.40348,19.79152,14.71927,0.13394,2.99715,-13.45474,20.73531,19.59665,14.03113,43.92035,-6.55124,40.77755,125.58392,0.00033,-109.16688,122.1432,0.00019,113.12224,-13.2815,-17.14412,0.00351,-12.78522,9.67951,-0.0003,-0.03772,-13.50527,8.27959,-22.30187,-15.58764,2.61985,2.73299,6.04181,8.80732
3578,-3.53755,0.0,0.0,-6.38097,-0.0,-0.0,-24.60756,-9.20597,6.93371,11.74254,3.85288,-13.19758,-22.16595,-5.69533,-0.00034,-6.55405,0.15231,-2e-05,30.55473,19.88933,15.293,0.0707,2.75789,-13.37309,20.75621,19.60322,14.14019,44.15703,-6.74863,40.64871,125.25945,0.00092,-109.01892,122.23689,-0.00055,112.32961,-13.42537,-17.01602,0.00291,-11.9637,9.58216,0.0056,-0.08157,-13.43467,8.37685,-22.33652,-15.55813,2.73848,2.87762,5.91203,8.77418
3579,-3.78003,0.0,-0.0,-6.4223,0.0,0.0,-24.81777,-9.41668,6.43966,11.84183,3.87431,-13.32223,-22.708,-5.90397,0.00045,-6.57527,0.24907,-5e-05,30.69532,20.01787,15.70433,0.02592,2.49423,-13.33735,20.84261,19.60748,14.1397,44.4058,-6.94653,40.49331,124.9331,4e-05,-108.97572,122.32423,-0.00125,111.45429,-13.99397,-16.7356,-0.00024,-11.54044,9.6936,0.00529,0.13826,-13.37097,8.60043,-22.1057,-15.58152,2.97249,2.95149,5.75333,8.74791
3580,-3.97496,0.0,-0.0,-6.73865,0.0,-0.0,-24.99842,-9.52356,6.00173,12.01343,4.12082,-13.30602,-23.29112,-6.22944,0.00066,-6.66317,0.24745,6e-05,30.88127,20.18124,15.95349,0.04098,2.24706,-13.41787,20.90738,19.63702,14.2236,44.70311,-7.15596,40.39145,124.6142,-0.00034,-109.05806,122.37697,-0.00183,110.05879,-14.58176,-16.26333,-0.00306,-11.58139,9.66578,0.00388,0.7,-13.36103,8.9188,-21.53627,-15.68956,3.27412,3.00768,5.59683,8.65509
3581,-3.88335,-0.0,0.0,-7.1356,0.0,-0.0,-25.22022,-9.53336,5.60976,12.15503,4.48609,-13.12175,-23.89442,-6.60161,-5e-05,-6.75404,0.15946,8e-05,31.10365,20.40264,16.24434,0.0798,2.05122,-13.62316,20.92783,19.70473,14.41008,45.05211,-7.41639,40.40026,124.30793,-0.00027,-109.16101,122.43751,-0.00282,108.72426,-15.17975,-15.80373,-0.00247,-12.0588,9.43637,0.00305,1.43872,-13.37679,9.24114,-20.79185,-15.82281,3.56954,3.07162,5.47766,8.49962
3582,-3.4403,0.0,0.0,-7.29492,0.0,0.0,-25.49202,-9.51635,5.2211,12.17392,4.80434,-12.85975,-24.50225,-6.97619,-0.00049,-6.76876,0.0778,2e-05,31.28141,20.71109,16.73954,0.05379,1.9013,-13.8479,20.93321,19.7756,14.62674,45.41098,-7.74467,40.46318,124.05055,-0.00026,-109.32229,122.58287,-0.00392,108.30157,-15.89771,-15.68392,0.00211,-12.52614,9.21259,-0.00013,2.1193,-13.33399,9.49089,-20.10052,-15.8751,3.8202,3.12296,5.40836,8.36567
3583,-2.83872,0.0,0.0,-7.08766,0.0,0.0,-25.73636,-9.44366,4.86893,12.04063,4.93943,-12.64357,-25.11491,-7.40578,0.00053,-6.67163,0.09074,0.00017,31.37865,21.1094,17.31643,-0.07629,1.77362,-13.9596,20.99062,19.79605,14.78467,45.7678,-8.09681,40.43038,123.87408,8e-05,-109.60388,122.81376,-0.00203,108.29329,-16.7431,-15.94672,0.00514,-12.48931,9.02174,-0.00371,2.58743,-13.20599,9.62042,-19.61527,-15.80426,3.99182,3.134,5.37966,8.3412
3584,-2.32664,0.0,0.0,-6.65081,0.0,0.0,-25.88223,-9.2096,4.61854,11.80842,4.86824,-12.51654,-25.75472,-7.93011,0.00174,-6.50297,0.19774,0.0003,31.47073,21.54922,17.74332,-0.26186,1.66241,-13.96996,21.16582,19.78401,14.82855,46.166,-8.38681,40.26052,123.7478,0.0009,-109.88152,123.01302,0.00048,107.53377,-17.55842,-16.25093,0.00249,-12.13112,8.73211,-0.00371,2.81144,-13.06396,9.61366,-19.37632,-15.67026,4.04123,3.12648,5.37114,8.40798
3585,-1.93061,0.0,-0.0,-6.19477,0.0,0.0,-25.95162,-8.83454,4.46656,11.59062,4.7292,-12.44619,-26.42991,-8.44482,0.00106,-6.34818,0.31557,0.00014,31.65761,21.94772,18.01269,-0.41993,1.57467,-14.02193,21.44753,19.84574,14.80977,46.64454,-8.53224,40.1165,123.62156,0.00152,-109.9995,123.04738,-9e-05,106.18581,-17.98673,-16.26923,9e-05,-12.14063,8.3919,-0.00035,2.87818,-12.95709,9.4903,-19.30162,-15.52593,3.96757,3.16183,5.341,8.43307
3586,-1.52216,0.0,-0.0,-5.95404,0.0,0.0,-26.00189,-8.57043,4.44648,11.52295,4.68276,-12.44815,-27.11721,-8.81301,-0.00067,-6.2782,0.37096,-6e-05,31.95826,22.25628,18.27196,-0.49994,1.50379,-14.17307,21.77245,20.06061,14.83655,47.17836,-8.51091,40.16333,123.47757,0.00083,-110.06811,122.90212,0.00148,105.63647,-17.72812,-16.05389,0.0013,-12.79559,8.2161,-0.00012,2.9121,-12.81705,9.3031,-19.258,-15.32736,3.8471,3.26529,5.24533,8.31026
3587,-1.08806,0.0,-0.0,-6.09318,0.0,0.0,-26.02758,-8.68595,4.70933,11.67005,4.71288,-12.6043,-27.78109,-9.05246,-0.00104,-6.29905,0.37361,-9e-05,32.28815,22.51133,18.59083,-0.52252,1.42525,-14.30879,22.12416,20.39259,14.9279,47.68133,-8.40464,40.35193,123.30583,-0.00177,-110.36092,122.69868,0.00288,106.66473,-16.93645,-15.90452,0.00083,-13.64197,8.30421,-0.00173,2.96136,-12.56353,9.14749,-19.18675,-15.03531,3.8005,3.38375,5.08831,8.08543
3588,-0.79207,0.0,0.0,-6.52256,0.0,-0.0,-25.96154,-9.10214,5.32866,11.93183,4.6704,-12.91261,-28.39033,-9.28934,2e-05,-6.334,0.3831,-1e-05,32.54198,22.79735,18.98889,-0.5484,1.33098,-14.30611,22.53012,20.75373,14.98552,48.07735,-8.35415,40.48809,123.07851,-0.0046,-110.97599,122.58437,-0.00091,108.64784,-16.1702,-15.96003,-0.00042,-14.1421,8.4734,-0.00028,3.03269,-12.26331,9.15881,-19.08503,-14.76138,3.92814,3.4611,4.93517,7.88602
3589,-0.75268,0.0,0.0,-7.01247,0.0,-0.0,-25.75765,-9.45548,6.1639,12.13132,4.50826,-13.25611,-28.93248,-9.56391,0.00062,-6.28727,0.43231,0.00014,32.72557,23.14188,19.52567,-0.58209,1.23527,-14.15811,22.98965,21.10697,14.90825,48.37068,-8.44961,40.45082,122.7453,-0.00202,-111.55033,122.63538,-0.00297,110.17888,-15.91165,-15.956,-0.00087,-14.30374,8.40025,0.00276,3.18466,-12.09304,9.41946,-18.90915,-14.6995,4.23847,3.549,4.85107,7.76286
3590,-0.76993,0.0,0.0,-7.4133,-0.0,-0.0,-25.46665,-9.55244,6.99767,12.21128,4.38362,-13.51822,-29.43238,-9.77999,3e-05,-6.1462,0.49588,0.00018,32.9579,23.47188,20.22091,-0.56316,1.14187,-13.97453,23.47147,21.46086,14.70114,48.64109,-8.68656,40.2725,122.26169,0.00914,-111.37853,122.85709,0.00286,110.11778,-16.20509,-15.45943,-0.00216,-14.45747,8.02719,0.00509,3.45831,-12.1541,9.86231,-18.6285,-14.91891,4.6297,3.75198,4.84066,7.65541
3591,-0.40743,-0.0,-0.0,-7.74416,0.0,-0.0,-25.20343,-9.5466,7.74756,12.27446,4.47656,-13.66496,-29.93311,-9.86274,-0.00064,-5.99325,0.52215,6e-05,33.30243,23.73282,20.96577,-0.47495,1.05565,-13.87238,23.95288,21.80836,14.46744,48.97753,-9.00676,40.04707,121.66787,0.01696,-110.34609,123.20597,0.0089,108.55496,-16.69515,-14.49858,0.00129,-14.64141,7.67644,0.00338,3.78741,-12.3934,10.34302,-18.30832,-15.31729,4.98732,4.04954,4.87423,7.50289
3592,0.52051,0.0,0.0,-8.08506,0.0,0.0,-25.0444,-9.63574,8.50157,12.40898,4.73525,-13.75194,-30.43707,-9.8625,-0.00053,-5.90995,0.49882,0.0,33.66023,23.9696,21.62718,-0.39117,0.99116,-13.82639,24.42866,22.1202,14.27552,49.40462,-9.35472,39.82417,121.09352,0.00828,-109.6306,123.58452,0.00694,106.62562,-16.87003,-13.83284,0.00234,-14.51977,7.50203,-0.00348,4.07484,-12.68014,10.75736,-18.03671,-15.73515,5.26426,4.28431,4.92675,7.34519
3593,1.65993,-0.0,-0.0,-8.26881,-0.0,0.0,-24.99498,-9.70253,9.33147,12.52656,4.91934,-13.81281,-30.90078,-9.85735,-0.00011,-5.8942,0.45854,0.0,33.90779,24.2125,22.18829,-0.39186,0.93926,-13.78771,24.9079,22.36803,14.0478,49.85062,-9.71788,39.59795,120.62949,-0.0072,-110.66663,123.88354,0.0014,105.27477,-16.28474,-14.29214,-0.01927,-13.92181,7.18726,-0.01215,4.28639,-12.88671,11.00417,-17.83847,-16.01715,5.41521,4.3623,4.96466,7.26211
3594,2.40567,0.0,-0.0,-7.89373,0.0,-0.0,-25.00491,-9.47007,10.17436,12.45363,4.90444,-13.7701,-31.29725,-9.85761,-7e-05,-5.89154,0.41514,-2e-05,34.06419,24.41408,22.71976,-0.47062,0.87849,-13.87734,25.40282,22.53221,13.6504,50.19397,-10.12016,39.36055,120.24713,-0.01341,-113.30691,124.07835,-0.00318,104.89799,-14.88899,-15.8201,-0.04159,-13.27992,6.58373,-0.01198,4.43614,-12.93648,10.95886,-17.69573,-16.04661,5.35315,4.37005,4.95511,7.25322
3595,2.45887,0.0,0.0,-6.88674,0.0,0.0,-24.99631,-8.994,10.97743,12.18976,4.769,-13.59895,-31.63271,-9.84996,-0.00023,-5.88002,0.37238,-7e-05,34.23957,24.53723,23.23835,-0.54838,0.80466,-14.20317,25.91349,22.62472,13.068,50.35838,-10.5685,39.11752,119.85062,-0.00657,-115.78423,124.25654,-0.00833,105.69298,-13.30218,-17.42008,-0.02597,-13.19433,6.12201,-0.00505,4.5364,-12.84967,10.60952,-17.59828,-15.83791,5.05911,4.45212,4.90236,7.2305
3596,2.11529,0.0,-0.0,-5.89418,0.0,-0.0,-24.95985,-8.66619,11.83295,11.99258,4.62813,-13.50505,-31.90076,-9.86393,-0.00022,-5.88295,0.37139,-0.00013,34.49142,24.58549,23.623,-0.57001,0.71229,-14.60968,26.4411,22.71392,12.39009,50.36357,-11.03255,38.85765,119.33712,0.00678,-116.6494,124.5146,-0.01092,107.13834,-12.45527,-18.11583,-0.00228,-13.60585,6.1457,-0.00247,4.56129,-12.6967,10.13329,-17.57269,-15.52122,4.67213,4.64663,4.82733,7.10123
3597,1.88119,0.0,-0.0,-5.72031,0.0,0.0,-24.96107,-8.7244,12.80146,12.1262,4.58352,-13.69497,-32.0896,-9.9331,-8e-05,-5.93,0.41896,-0.00012,34.75931,24.57611,23.78758,-0.56219,0.59036,-14.86392,26.99573,22.87653,11.67434,50.27961,-11.47884,38.54715,118.62817,0.0136,-116.03881,124.84747,-0.00499,107.71344,-12.73893,-17.74865,-0.00515,-13.8638,6.33604,-0.00389,4.4774,-12.47679,9.7787,-17.64459,-15.18714,4.42558,4.87373,4.72093,6.87226
3598,1.81246,-0.0,-0.0,-6.43672,-0.0,0.0,-24.9769,-9.06382,13.70796,12.57601,4.71234,-14.07672,-32.24187,-10.04193,0.00015,-6.04703,0.43184,0.00011,34.93273,24.56794,23.85107,-0.57706,0.45815,-14.94704,27.56391,23.10583,10.93343,50.13584,-11.895,38.13438,117.71329,0.00449,-115.04176,125.18736,0.00388,106.31049,-13.59549,-16.83373,-0.00952,-13.50176,6.18555,-0.00931,4.3386,-12.15304,9.70372,-17.75292,-14.85962,4.48146,5.05023,4.56611,6.67676
3599,1.55961,-0.0,0.0,-7.38544,0.0,-0.0,-24.8887,-9.51551,14.29396,13.07618,4.94022,-14.43481,-32.42996,-10.16073,0.00042,-6.23604,0.34762,0.00039,35.00142,24.63445,23.93179,-0.61438,0.36656,-14.96768,28.10386,23.30348,10.17829,49.90107,-12.30906,37.57462,116.65534,-0.01232,-114.42046,125.51063,0.00856,103.38573,-14.03774,-15.91511,0.00222,-12.73591,5.70808,-0.00976,4.26249,-11.81008,9.88635,-17.78951,-14.60893,4.7859,5.18367,4.39318,6.63967
3600,1.02737,0.0,0.0,-7.80658,0.0,-0.0,-24.72242,-9.97845,14.42102,13.35164,5.05722,-14.68505,-32.66457,-10.24043,0.00032,-6.44448,0.20774,0.00034,35.07415,24.74512,23.99962,-0.64433,0.33801,-15.00003,28.61391,23.37602,9.35727,49.56036,-12.80007,36.88976,115.5071,-0.01763,-114.02157,125.80904,0.00759,100.11062,-13.64946,-15.14156,0.01388,-12.31801,5.29122,-0.0023,4.29055,-11.62022,10.14629,-17.73439,-14.52845,5.10328,5.32716,4.25206,6.74829
3601,0.59342,0.0,0.0,-7.34267,0.0,0.0,-24.72683,-10.2862,14.07219,13.33174,4.95495,-14.81642,-32.88344,-10.18464,-0.00015,-6.62082,0.08739,7e-05,35.2322,24.77094,24.05923,-0.65876,0.33155,-15.11134,29.16192,23.32729,8.32627,49.14079,-13.4265,36.1521,114.22916,-0.00242,-113.16481,125.99686,0.00209,97.46676,-13.10749,-14.31549,0.00758,-12.71246,5.13232,0.00187,4.38177,-11.63956,10.27455,-17.64066,-14.59349,5.2161,5.48093,4.141,6.91279
3602,0.65454,-0.0,-0.0,-6.30323,0.0,-0.0,-25.11018,-10.25924,13.36837,13.18015,4.72513,-14.82674,-33.02822,-9.96463,-0.00036,-6.78404,0.0215,-0.00013,35.45255,24.65083,24.1695,-0.66401,0.29963,-15.35118,29.7765,23.25677,7.01214,48.63958,-14.14813,35.39486,112.75108,0.02157,-111.45684,125.98011,-0.00118,96.21615,-13.44682,-13.23761,-0.01553,-13.45512,5.22421,0.00189,4.51693,-11.74989,10.17562,-17.51968,-14.65942,5.08053,5.60455,4.02907,7.0871
3603,1.26215,0.0,0.0,-5.46244,-0.0,-0.0,-25.80642,-9.97678,12.59073,13.12795,4.4977,-14.79309,-33.10828,-9.72276,-0.00026,-6.97296,0.00423,-0.00026,35.67727,24.46478,24.23633,-0.67449,0.24951,-15.66345,30.34839,23.25438,5.57067,48.02481,-14.88054,34.60042,111.11377,0.03241,-109.17432,125.78079,-0.00125,96.35982,-14.75384,-11.95982,-0.02766,-13.64474,5.54696,0.00516,4.68648,-11.80251,9.91094,-17.36399,-14.61095,4.81189,5.68667,3.92406,7.28813
3604,2.1868,0.0,-0.0,-5.37311,-0.0,0.0,-26.56327,-9.79753,12.01975,13.29741,4.30453,-14.87432,-33.20625,-9.64115,-2e-05,-7.17845,0.00338,-0.00031,35.89349,24.32487,24.04405,-0.72184,0.23089,-15.91633,30.70652,23.28419,4.25526,47.32852,-15.60818,33.7636,109.46243,0.01896,-106.97904,125.47881,-0.0028,97.06326,-16.05814,-10.70748,-0.01403,-12.92334,5.96965,0.0086,4.82764,-11.75222,9.59925,-17.22761,-14.44977,4.53926,5.74263,3.85717,7.55239
3605,3.02807,-0.0,0.0,-5.86806,-0.0,0.0,-27.17367,-9.90415,11.70295,13.64887,4.11643,-15.16166,-33.42421,-9.73638,0.0003,-7.39117,-0.02455,-0.0002,36.1446,24.26135,23.54022,-0.8132,0.28444,-16.06987,30.75458,23.20846,3.15832,46.65794,-16.39517,32.91143,107.87884,-0.01528,-105.637,125.07344,-0.00258,97.77487,-16.48249,-9.68148,0.00441,-11.78518,6.21227,0.00457,4.88641,-11.65879,9.29229,-17.16887,-14.25032,4.28791,5.78275,3.83072,7.88889
3606,3.3858,0.0,-0.0,-6.3763,0.0,0.0,-27.582,-10.0297,11.47738,14.06315,3.95655,-15.58586,-33.77903,-9.87704,0.00027,-7.6792,-0.1043,0.00017,36.4609,24.22642,22.95189,-0.86894,0.38837,-16.20153,30.49353,22.94157,2.1997,46.10551,-17.28367,32.08177,106.3082,-0.0421,-105.51981,124.47749,0.00368,98.67298,-15.99527,-8.89952,0.01024,-11.04609,6.14326,-0.0008,4.89932,-11.60184,9.00007,-17.15862,-14.09005,4.03637,5.821,3.82326,8.27303
3607,3.21341,-0.0,-0.0,-6.577,0.0,-0.0,-27.84026,-9.85683,11.23492,14.46966,3.92779,-16.03573,-34.15854,-9.97022,-2e-05,-8.14843,-0.21961,0.00051,36.7877,24.16195,22.558,-0.77333,0.45403,-16.33656,29.94728,22.54035,1.30047,45.65678,-18.20508,31.31753,104.67775,-0.02408,-105.71175,123.62842,0.00845,99.91756,-15.2276,-8.11381,0.00567,-11.06203,6.05065,-0.00345,4.94288,-11.59111,8.78567,-17.11965,-14.00123,3.83988,5.87805,3.81797,8.67412
3608,2.83725,0.0,0.0,-6.46917,-0.0,0.0,-28.01305,-9.41617,11.04466,14.85151,4.07633,-16.49147,-34.44623,-10.03067,-3e-05,-8.81573,-0.32439,0.00032,37.03712,24.03034,22.40591,-0.52558,0.40371,-16.4157,29.11102,22.14474,0.425,45.16764,-19.01459,30.63239,103.00119,0.01542,-104.78091,122.56201,0.00158,101.11021,-14.94031,-7.16895,-0.0039,-11.42523,6.33687,-0.0038,5.05735,-11.54634,8.71626,-17.00276,-13.9342,3.79227,5.95124,3.78825,9.05394
3609,2.57213,-0.0,0.0,-6.07381,0.0,0.0,-28.11402,-8.93671,11.01048,15.1669,4.28431,-16.98886,-34.66231,-10.08913,0.00011,-9.58166,-0.38756,-7e-05,37.18836,23.80967,22.32752,-0.26815,0.24276,-16.41901,27.97104,21.84928,-0.47764,44.47565,-19.61215,29.96099,101.32899,0.01652,-102.73559,121.36658,-0.00645,101.81253,-15.51307,-6.40828,-0.00721,-11.46861,7.02197,0.00022,5.26001,-11.38014,8.73278,-16.78428,-13.78624,3.87199,6.00007,3.6824,9.38435
3610,2.55218,0.0,-0.0,-5.42459,0.0,-0.0,-28.10261,-8.5548,11.12748,15.36938,4.38075,-17.50755,-34.93123,-10.11613,-0.00017,-10.34502,-0.42271,1e-05,37.28791,23.5071,22.21531,-0.1231,0.02588,-16.38552,26.54486,21.61941,-1.4373,43.56252,-19.98726,29.23018,99.66221,-0.01565,-100.62766,120.0704,0.0045,102.22923,-16.78843,-6.15923,-0.00389,-11.08944,7.81314,0.0009,5.5626,-11.09022,8.69559,-16.45625,-13.5038,3.94911,5.98477,3.45956,9.7065
3611,2.9033,0.0,0.0,-4.72563,0.0,0.0,-27.93282,-8.29301,11.30988,15.50003,4.31053,-17.95975,-35.35976,-10.06487,-0.00097,-11.06969,-0.44909,0.00027,37.40841,23.16982,22.11218,-0.06953,-0.21395,-16.34823,24.89427,21.34594,-2.38801,42.56884,-20.14731,28.50259,97.90856,-0.02661,-98.69415,118.58106,0.02686,102.79576,-18.19455,-5.95091,-0.00178,-10.8917,8.40522,-0.00162,5.9457,-10.74371,8.57605,-16.04554,-13.13855,3.9707,5.93248,3.14048,10.08361
3612,3.82688,0.0,0.0,-4.28611,0.0,0.0,-27.60034,-8.19409,11.51172,15.66665,4.15556,-18.29733,-35.95912,-9.97124,-0.00124,-11.73289,-0.44467,0.00015,37.62738,22.85824,21.96447,-0.02288,-0.45204,-16.33816,23.13424,20.97013,-3.20131,41.65984,-20.08842,27.94674,95.85554,0.00822,-96.33593,116.75137,0.02465,103.20769,-18.84396,-4.82802,0.02656,-11.4245,8.48779,0.00642,6.34594,-10.4056,8.47087,-15.61894,-12.78632,4.00216,5.9358,2.81831,10.46637
3613,5.35319,0.0,0.0,-4.22443,-0.0,0.0,-27.11563,-8.37731,11.78422,15.91803,4.03968,-18.58159,-36.64057,-9.94106,-0.00075,-12.30322,-0.37557,-0.0001,37.94734,22.60605,21.56474,0.02246,-0.63982,-16.39632,21.4054,20.51852,-3.81217,40.92414,-19.82774,27.62035,93.25131,0.0549,-93.37249,114.5078,-0.01095,102.64992,-18.13113,-2.57759,0.0762,-12.47277,7.86288,0.01748,6.6826,-10.11284,8.43081,-15.25879,-12.50005,4.07685,6.03513,2.58653,10.73957
3614,7.01435,-0.0,0.0,-4.30537,-0.0,0.0,-26.44783,-8.88007,12.19387,16.2036,4.01211,-18.89455,-37.30251,-10.00848,-0.0007,-12.78306,-0.24649,-0.00011,38.25178,22.40613,20.8786,-0.00961,-0.75534,-16.53024,19.75481,20.04734,-4.2789,40.40491,-19.35682,27.39525,90.0489,0.05656,-90.47052,111.89104,-0.04365,100.97115,-16.61089,-0.37964,0.07107,-13.16521,6.7326,0.0076,6.94841,-9.87786,8.43722,-14.97353,-12.28443,4.17271,6.13637,2.43595,10.90848
3615,8.12357,-0.0,0.0,-4.25912,-0.0,0.0,-25.60324,-9.38546,12.74253,16.46098,3.979,-19.23344,-37.92047,-10.14633,0.0,-13.20773,-0.07954,-0.00015,38.46257,22.23199,20.06851,-0.14024,-0.839,-16.69744,18.07053,19.57349,-4.67366,40.18419,-18.58816,27.20201,86.47971,0.00997,-88.4502,108.9851,-0.04605,98.82055,-15.47569,0.30413,0.0283,-12.8033,5.55809,-0.01201,7.27329,-9.72229,8.53718,-14.63327,-12.17686,4.32563,6.13508,2.29041,11.08517
3616,8.57598,0.0,0.0,-4.18014,-0.0,-0.0,-24.74545,-9.33483,13.38075,16.68328,3.78834,-19.54878,-38.5332,-10.40284,0.0028,-13.59764,0.133,-0.00044,38.675,22.06355,19.14841,-0.28342,-0.93605,-16.84801,16.21234,19.04848,-4.96117,40.36548,-17.46068,27.25595,82.74144,-0.03626,-87.49574,105.84409,-0.0151,96.95143,-14.99195,-0.5682,0.00522,-11.66066,4.71082,-0.01462,7.7764,-9.7274,8.84137,-14.12163,-12.29345,4.60832,6.08252,2.14884,11.31754
3617,8.70944,0.0,0.0,-4.22339,-0.0,0.0,-23.99573,-8.55928,13.9493,16.86133,3.45342,-19.74206,-39.21783,-10.71807,0.00353,-13.93661,0.38629,-0.00052,39.01725,21.88518,18.14985,-0.38106,-1.04922,-17.02811,14.14897,18.42679,-5.05051,40.95155,-16.07959,27.90045,78.73048,-0.06098,-87.19802,102.50546,0.03223,95.86571,-14.40202,-1.76014,-0.0015,-10.80149,4.37355,-0.00564,8.373,-9.95971,9.35808,-13.52788,-12.69889,5.0034,6.11976,2.0839,11.58418
3618,8.54278,0.0,0.0,-4.16579,-0.0,-0.0,-23.18257,-7.60388,14.18513,16.94627,3.21141,-19.64447,-40.07271,-10.73938,-0.00249,-14.19614,0.59822,-0.00014,39.49955,21.67842,17.43052,-0.4734,-1.15338,-17.39996,11.90086,17.73194,-4.90014,41.78702,-14.67067,29.28356,74.19324,-0.06391,-87.09599,99.09789,0.04855,95.47261,-13.30981,-2.32629,0.00256,-10.94319,4.46238,-0.00034,8.85504,-10.33266,9.92135,-13.05859,-13.25177,5.3885,6.31786,2.11253,11.90723
3619,8.19225,0.0,-0.0,-3.82621,0.0,0.0,-22.13339,-7.17484,14.00842,16.95528,3.26899,-19.2226,-41.10555,-10.23949,-0.00928,-14.37097,0.68013,0.0002,40.0716,21.43954,17.18468,-0.60208,-1.21233,-18.04145,9.46731,16.99484,-4.52955,42.63396,-13.41979,31.27445,69.01144,-0.01156,-86.73117,95.9352,0.01021,94.90904,-12.25735,-2.20287,0.00347,-11.65534,4.57397,0.00361,9.09048,-10.65651,10.32698,-12.83734,-13.70111,5.64467,6.66714,2.18386,12.33917
3620,8.24321,0.0,-0.0,-3.47594,0.0,-0.0,-21.0095,-7.36728,13.65326,16.99164,3.59378,-18.70364,-42.188,-9.47877,-0.00775,-14.46955,0.64931,0.00016,40.6751,21.1711,17.06523,-0.78805,-1.20662,-18.82744,6.92097,16.1924,-3.99313,43.30062,-12.38694,33.62293,63.2422,0.09161,-85.60775,93.40964,-0.02877,93.37912,-11.99331,-1.6885,-0.00637,-11.87071,4.26583,0.00106,9.07594,-10.80643,10.4923,-12.8594,-13.90084,5.74215,7.1265,2.24896,12.88532
3621,8.92824,0.0,-0.0,-3.42932,-0.0,0.0,-20.05584,-7.6514,13.36779,17.11222,3.98798,-18.39416,-43.19559,-8.88069,-0.00061,-14.47695,0.62011,0.0001,41.23054,20.84355,16.68202,-1.08808,-1.17748,-19.53263,4.48425,15.32993,-3.3306,43.75175,-11.51109,36.13115,56.99652,0.13177,-83.87937,91.75742,-0.01971,91.25942,-12.65314,-1.25554,-0.01283,-11.00074,3.44528,-0.0111,8.94372,-10.74859,10.45815,-12.98759,-13.83465,5.73236,7.63397,2.24127,13.51544
3622,9.89816,0.0,0.0,-3.66655,0.0,-0.0,-19.30439,-7.5862,13.20481,17.2918,4.25573,-18.45409,-44.10926,-8.60544,0.00422,-14.3823,0.71748,0.00038,41.68571,20.40413,16.00729,-1.53921,-1.21814,-19.96886,2.39447,14.51273,-2.46135,44.12613,-10.65661,38.72038,50.40592,0.03777,-82.59397,90.98218,0.00797,89.79535,-13.6538,-1.58981,-0.01034,-9.29754,2.36859,-0.01783,8.95928,-10.4894,10.287,-12.95493,-13.53141,5.67134,8.11839,2.06646,14.22123
3623,10.68628,0.0,-0.0,-3.88337,0.0,-0.0,-18.63102,-7.25742,13.12379,17.46519,4.32213,-18.73673,-44.96124,-8.51286,0.00381,-14.24472,0.99447,0.00051,42.04754,19.82033,15.22157,-2.08132,-1.41919,-20.16817,0.69791,13.86042,-1.082,44.64003,-9.68301,41.43781,43.65911,-0.08628,-82.57081,90.98009,0.01341,89.79624,-14.36334,-3.08604,-0.00949,-7.33592,1.37001,-0.01169,9.36189,-10.11698,9.98744,-12.53055,-13.07592,5.53311,8.50166,1.68802,15.03317
3624,10.78538,0.0,0.0,-3.68533,0.0,0.0,-17.90726,-7.0347,13.11155,17.53815,4.29516,-18.8581,-45.75686,-8.37313,0.0005,-14.17365,1.38654,2e-05,42.32682,19.10051,14.50532,-2.6122,-1.81771,-20.41784,-0.77305,13.41936,1.34191,45.45112,-8.48535,44.44537,36.99652,-0.10386,-83.48373,91.6466,0.00257,91.11662,-14.91105,-5.29565,0.00165,-5.52229,0.71703,0.00026,10.16177,-9.79519,9.52509,-11.71971,-12.60757,5.22274,8.71195,1.15353,15.97773
3625,9.94092,0.0,0.0,-2.94061,0.0,-0.0,-17.10579,-7.16373,13.16447,17.4582,4.39998,-18.59789,-46.47491,-8.08881,-0.00182,-14.23283,1.74022,-0.00028,42.53359,18.29769,13.94309,-3.07091,-2.34992,-20.95134,-2.25737,13.20885,5.45765,46.54092,-7.01102,47.89215,30.723,-0.02484,-84.39923,92.86203,0.00354,93.06071,-16.10454,-7.19601,0.01766,-4.04002,0.53775,0.00773,11.11367,-9.60159,8.87726,-10.77308,-12.1899,4.68991,8.77945,0.51869,17.00645
3626,8.73644,0.0,0.0,-1.971,0.0,-0.0,-16.33173,-7.61921,13.23075,17.28079,4.75561,-18.18786,-47.11242,-7.75648,-0.00151,-14.38884,1.93469,0.00027,42.72802,17.49041,13.44986,-3.44742,-2.85572,-21.65952,-3.99049,13.26031,11.85916,47.68965,-5.3325,51.68759,25.2984,0.03487,-84.90414,94.49035,0.01578,95.01344,-18.41809,-7.99226,0.00446,-2.91792,0.73006,0.00621,11.86977,-9.4209,8.03269,-10.02675,-11.71167,3.96876,8.88951,-0.18192,18.00342
3627,8.32362,-0.0,0.0,-1.23214,-0.0,-0.0,-15.72343,-8.2466,13.28843,17.11099,5.22511,-18.08665,-47.68791,-7.53004,0.00012,-14.5653,2.01342,0.00083,42.96233,16.72037,12.845,-3.77586,-3.21317,-22.17665,-6.16519,13.53393,20.83301,48.63102,-3.67486,55.46334,21.27248,0.0251,-85.46497,96.41608,0.00298,97.10777,-21.48131,-7.60202,-0.02153,-2.14761,0.94095,0.00022,12.25555,-9.07694,6.98943,-9.63949,-11.00852,3.12508,9.22247,-0.91247,18.9223
3628,9.25704,-0.0,0.0,-0.88919,0.0,-0.0,-15.32068,-8.87176,13.44755,16.97523,5.55479,-18.44983,-48.20011,-7.45162,0.00107,-14.76974,2.13701,0.00053,43.19178,15.96683,12.08977,-4.09034,-3.46825,-22.25595,-8.75147,13.90112,31.88263,49.25423,-2.24931,58.81602,18.90579,0.00173,-86.62281,98.49408,-0.04144,100.13785,-24.7667,-6.55987,-0.02598,-1.8886,0.68884,0.001,12.4676,-8.56732,5.83359,-9.41231,-10.10985,2.24024,9.77277,-1.64378,19.90734
3629,10.9604,0.0,0.0,-0.77995,0.0,0.0,-15.10393,-9.21249,13.80805,16.72662,5.64142,-18.9089,-48.61981,-7.4352,0.00085,-15.15953,2.37007,-0.00044,43.32334,15.2285,11.35716,-4.34691,-3.74372,-22.04477,-11.43317,14.36058,43.6124,49.61855,-1.10572,61.53307,17.89598,0.00343,-87.93228,100.47849,-0.06064,104.27215,-28.05362,-5.43001,-0.0198,-2.37419,-0.27722,0.01071,12.85773,-8.10236,4.73331,-9.00565,-9.27279,1.39103,10.39867,-2.33839,21.21745
3630,12.42875,0.0,-0.0,-0.62037,0.0,-0.0,-15.09518,-9.01589,14.25456,16.10133,5.64438,-18.99293,-48.93307,-7.34667,0.00019,-15.93038,2.6119,-0.00065,43.32882,14.56199,10.82257,-4.44888,-4.0636,-21.91235,-13.9075,15.16521,54.60447,49.82051,-0.22996,63.58068,17.61878,0.01788,-87.87585,102.10003,-0.02413,108.22591,-30.89154,-4.19875,-0.01733,-3.62306,-1.64721,0.00764,13.49249,-7.87525,3.74945,-8.36377,-8.69924,0.56115,11.00136,-2.92616,22.99057
3631,12.9967,0.0,0.0,-0.17624,0.0,-0.0,-15.24229,-8.4658,14.58798,14.91018,5.8392,-18.67579,-49.1567,-7.08641,2e-05,-17.16115,2.76172,7e-05,43.27117,13.98986,10.46953,-4.33246,-4.36143,-22.03132,-16.11146,16.60173,64.20219,49.89844,0.32744,64.95173,17.61267,0.03192,-84.91603,103.21805,0.01884,110.66472,-32.3595,-2.45698,0.00861,-5.64234,-2.78277,-0.01996,14.08691,-7.86945,2.69021,-7.76951,-8.30323,-0.42132,11.61922,-3.35115,25.12411
3632,12.45632,0.0,-0.0,0.60263,0.0,0.0,-15.30215,-8.07933,14.80747,13.14055,6.35088,-18.32128,-49.28806,-6.71626,0.0005,-18.82582,2.82971,0.00011,43.21701,13.44887,10.0752,-3.96606,-4.60875,-22.2859,-18.07157,18.76565,72.23877,49.82414,0.48252,65.55511,17.78636,0.02871,-78.89948,103.82285,0.03372,112.009,-31.72066,-0.25099,0.05429,-8.68537,-3.44554,-0.04064,14.36916,-7.9394,1.24102,-7.48052,-7.83383,-1.7932,12.36435,-3.62745,27.42756
3633,11.2546,0.0,0.0,1.53591,0.0,0.0,-15.12609,-8.04026,15.08051,10.83126,7.07189,-18.21034,-49.25234,-6.49029,-0.00029,-20.90856,2.86475,-0.00048,43.13391,12.8514,9.35118,-3.31881,-4.8632,-22.53487,-19.70833,21.52255,78.60345,49.5443,0.15892,65.24017,18.3313,-0.00991,-71.51809,103.92838,0.03902,113.32131,-29.10662,1.61265,0.04756,-12.6949,-4.23923,-0.01432,14.37282,-7.98419,-0.71398,-7.44469,-7.15526,-3.62275,13.28197,-3.82241,29.81372
3634,10.61962,-0.0,0.0,2.23508,0.0,0.0,-14.94948,-8.03217,15.49419,7.90872,7.85104,-18.35104,-48.91991,-6.60859,-0.00412,-23.4308,2.87678,-0.00036,42.88151,12.14199,8.17216,-2.3997,-5.19619,-22.73797,-20.8756,24.56474,83.23224,49.00853,-0.71597,63.92147,19.5647,-0.0707,-64.94621,103.53481,0.03316,114.0349,-25.55342,2.40704,-0.00795,-16.72336,-6.15887,0.01586,14.32817,-7.98999,-2.93369,-7.42276,-6.34479,-5.68034,14.28456,-3.98889,32.25436
3635,11.35534,0.0,0.0,2.08691,-0.0,-0.0,-15.05344,-7.80055,15.95289,4.26014,8.62726,-18.58074,-48.20764,-6.92854,-0.00672,-26.36468,2.85727,0.00052,42.30694,11.28611,6.70158,-1.32866,-5.59222,-22.90509,-21.52749,27.57084,86.23449,48.13469,-2.1433,61.61979,21.69975,-0.10234,-60.41151,102.62418,-0.00815,112.58038,-22.26591,2.30518,-0.03231,-19.5921,-9.67045,-0.01683,14.34076,-7.98198,-5.00738,-7.32098,-5.57776,-7.59569,15.20827,-4.12709,34.60081
3636,12.70474,0.0,0.0,0.45418,-0.0,0.0,-15.31923,-7.42303,16.23674,-0.09775,9.28249,-18.58526,-47.17366,-7.04818,-0.00272,-29.54978,2.82333,0.00162,41.37806,10.27668,5.22714,-0.31234,-5.90986,-23.10592,-21.78482,30.37536,87.90433,46.80347,-3.96464,58.37946,24.64971,-0.05611,-58.49968,101.12574,-0.06178,108.75779,-19.75037,1.94234,-0.01857,-21.37173,-14.25383,-0.02866,14.27734,-7.97784,-6.68166,-7.29402,-4.96306,-9.14215,15.91251,-4.20172,36.55681
3637,13.29057,-0.0,-0.0,-2.77794,-0.0,-0.0,-15.41628,-6.99773,16.07508,-5.06945,9.57329,-17.9131,-45.98292,-6.70172,0.00396,-32.76028,2.81824,0.00498,40.23032,9.19222,3.87895,0.50601,-5.94216,-23.44672,-21.86155,32.97694,88.53367,44.97981,-5.89686,54.25474,28.11382,0.05219,-59.61847,98.9566,-0.06301,104.25461,-17.79107,1.61658,-0.00455,-23.70469,-18.61222,0.03655,13.9741,-7.96013,-8.02949,-7.51216,-4.45673,-10.38152,16.3406,-4.18415,37.82576
3638,12.53807,0.0,-0.0,-6.99995,0.0,-0.0,-15.18863,-6.49624,15.28903,-10.57801,9.42106,-16.13024,-44.78234,-5.95947,0.00639,-35.92192,2.89341,0.01346,39.03948,8.19021,2.6085,1.1457,-5.5608,-23.98238,-21.92138,35.43225,88.27258,42.82507,-7.69554,49.36031,31.86158,0.14329,-63.43198,96.12813,0.00263,100.88309,-16.17801,1.31491,0.00042,-27.80906,-21.31471,0.02581,13.45134,-7.89478,-9.33016,-7.94164,-3.925,-11.55988,16.49087,-4.09339,38.23146
3639,10.84608,0.0,-0.0,-11.37541,0.0,0.0,-14.74897,-5.94539,13.96096,-16.43588,9.07898,-13.02338,-43.62282,-5.07604,0.00397,-39.23373,3.11591,0.02359,37.86251,7.41293,1.34501,1.72323,-4.82636,-24.71332,-21.89287,37.81685,87.14548,40.58283,-9.3266,43.82056,35.85147,0.14251,-68.45474,92.76547,0.07564,98.99078,-15.11933,1.06044,0.00344,-32.38107,-21.68013,-0.05522,12.8332,-7.79178,-10.8063,-8.44193,-3.29703,-12.88717,16.34176,-3.97317,37.77521
3640,9.07676,0.0,0.0,-15.35663,0.0,0.0,-14.39609,-5.47861,12.41827,-22.18605,8.8308,-8.80303,-42.46393,-4.2821,0.00015,-43.01501,3.61129,0.02073,36.65491,6.93274,0.04029,2.36792,-3.94943,-25.5813,-21.37053,40.2952,85.07619,38.3002,-10.96256,37.67493,40.03359,0.04516,-72.75206,89.03635,0.09742,97.64271,-14.7473,0.90203,0.0051,-34.72561,-20.46192,-0.03954,12.11445,-7.70411,-12.51676,-9.00986,-2.60237,-14.43765,15.87176,-3.80675,36.6877
3641,8.06249,0.0,-0.0,-18.81637,-0.0,0.0,-14.41771,-5.18894,10.97634,-27.18567,8.68709,-4.16186,-41.22861,-3.67804,-0.00211,-47.44073,4.57753,-0.00783,35.40725,6.78038,-1.30878,3.21609,-3.14764,-26.38743,-19.81512,43.10011,82.00538,35.76813,-12.73128,30.95217,44.14244,-0.05447,-75.27452,85.0292,0.05546,95.62234,-14.57671,0.73903,0.00163,-33.81728,-19.4437,-0.01049,11.16962,-7.6183,-14.42208,-9.7679,-1.84457,-16.17068,15.17127,-3.50335,35.33993
3642,8.23994,0.0,0.0,-21.76871,-0.0,-0.0,-14.8833,-5.03766,9.66502,-30.96008,8.44707,0.06499,-39.85733,-3.22529,-0.00179,-52.44017,6.11492,-0.04469,34.18285,6.96774,-2.56927,4.38654,-2.54994,-26.90601,-16.96342,46.28889,78.03558,32.8699,-14.52777,23.95371,47.85981,-0.06393,-76.45067,80.62754,-0.02298,92.2343,-13.91624,0.34663,-0.00845,-31.20469,-19.94189,-0.03679,10.01894,-7.40559,-16.41069,-10.7016,-0.94467,-17.93825,14.43377,-3.01118,33.96904
3643,9.47455,-0.0,-0.0,-23.98605,-0.0,0.0,-15.66824,-4.86318,8.19801,-33.48169,7.94517,3.34071,-38.33102,-2.83865,-0.00044,-57.82587,8.00261,-0.05345,33.03754,7.48061,-3.47051,5.93726,-2.21321,-27.12575,-13.06086,49.59704,73.36259,29.865,-16.2177,17.37363,51.15437,-0.01144,-77.27876,75.55065,-0.08902,87.66229,-12.72708,-0.32111,-0.01456,-29.15989,-21.76725,-0.02425,8.88853,-6.95597,-18.32354,-11.60419,0.14416,-19.55646,13.78692,-2.39358,32.55002
3644,11.28771,-0.0,0.0,-25.22143,0.0,0.0,-16.65939,-4.4479,6.2284,-35.01258,7.29975,5.40326,-36.6969,-2.48073,-0.00025,-63.48785,9.79663,-0.02134,31.97083,8.29626,-3.74412,7.86329,-2.17466,-27.1811,-8.68167,52.67835,68.14281,27.11916,-17.88249,11.87918,54.26287,0.01345,-78.04298,69.60886,-0.09543,82.72626,-11.71084,-0.88827,-0.00886,-28.43422,-23.7058,0.01244,7.91219,-6.30024,-20.08349,-12.35876,1.36771,-20.96694,13.19906,-1.74433,30.97883
3645,13.22237,0.0,0.0,-25.70929,-0.0,-0.0,-17.80846,-3.70977,3.70322,-35.81736,6.91585,6.04312,-35.07449,-2.14414,-0.00062,-69.42599,11.15429,0.03181,30.93345,9.39064,-3.28333,10.07643,-2.47034,-27.14278,-4.20254,55.42486,62.43433,24.67961,-19.65204,7.56108,57.33648,-0.01897,-78.26638,62.89418,-0.05373,78.23251,-11.51209,-0.8972,-0.00641,-28.02057,-24.68345,0.02596,6.97037,-5.55298,-21.72748,-13.08619,2.63283,-22.24513,12.56003,-1.08249,29.26818
3646,14.77801,0.0,0.0,-26.10769,0.0,0.0,-19.00949,-2.84603,0.93857,-36.08098,7.0197,5.26168,-33.56733,-1.79488,0.00085,-75.60132,12.06046,0.0606,29.86354,10.68664,-2.20477,12.40322,-3.14421,-26.94171,0.65965,57.93554,56.03392,22.28557,-21.4584,3.92111,60.30531,-0.05422,-77.78396,55.7169,-0.02894,74.40015,-12.17051,-0.44991,-0.00854,-26.79735,-24.53634,0.03263,5.90463,-4.7949,-23.27821,-13.94427,3.87244,-23.44007,11.81681,-0.38286,27.55552
3647,15.22394,0.0,-0.0,-26.92323,-0.0,0.0,-20.09221,-2.15686,-1.73983,-35.92652,7.26321,3.58824,-32.17286,-1.40238,0.00421,-81.84882,12.90448,0.01613,28.77738,12.01685,-0.79953,14.70241,-4.25558,-26.26416,6.65262,60.20797,48.39629,19.67268,-23.11477,0.37956,63.09573,-0.03629,-77.39676,48.47813,-0.01607,71.05582,-13.36727,-0.17854,-0.00061,-24.93768,-23.85415,0.02462,4.69119,-4.01832,-24.69033,-14.96601,5.07917,-24.50596,11.03057,0.3434,25.97391
3648,13.9743,-0.0,-0.0,-28.08904,0.0,0.0,-20.93439,-1.77603,-4.25892,-35.51378,7.09519,1.93832,-30.83541,-1.03974,0.00569,-87.96188,14.1959,-0.07946,27.82782,13.2348,0.49898,16.98234,-5.79276,-24.67731,14.24018,62.0133,39.04326,16.78369,-24.52251,-3.20837,65.75674,0.02227,-78.22964,41.58479,0.02806,68.27531,-14.81974,-0.49801,0.01184,-23.80931,-23.01566,-0.00959,3.37459,-3.16696,-25.8858,-16.12426,6.28111,-25.34897,10.30163,1.09605,24.46508
3649,11.30347,-0.0,-0.0,-29.17379,0.0,0.0,-21.54486,-1.64662,-6.58876,-35.14157,6.39372,1.02549,-29.53039,-0.91063,0.00216,-93.7756,15.82089,-0.11588,27.18523,14.39349,1.22504,19.34448,-7.57239,-22.26504,23.22536,63.10814,28.06178,13.7558,-25.72121,-6.60646,68.29133,0.0603,-80.59998,35.28626,0.04446,66.11877,-16.39516,-1.15488,0.01229,-24.61881,-21.88729,-0.05506,2.02454,-2.23335,-26.76637,-17.37035,7.45429,-25.87131,9.66211,1.979,22.77812
3650,8.465,-0.0,0.0,-29.92511,0.0,0.0,-22.09283,-1.60162,-8.57514,-35.13948,5.5103,0.94187,-28.2349,-1.18932,-0.00423,-99.17001,16.78067,-0.0345,26.84817,15.66262,1.27102,21.83834,-9.39698,-19.85332,33.0204,63.41183,16.05093,10.7463,-26.80325,-9.80498,70.57082,0.04151,-83.70846,29.57395,-0.01486,64.12132,-18.00046,-1.58209,0.00063,-27.18269,-20.61648,-0.06142,0.76872,-1.29683,-27.28833,-18.58465,8.51085,-26.05458,9.0822,3.0878,20.77627
3651,6.72761,0.0,0.0,-30.61687,0.0,-0.0,-22.80494,-1.42297,-10.12051,-35.53556,4.91612,1.22913,-26.8966,-1.83084,-0.00829,-104.05347,16.14215,0.07798,26.63014,17.05621,1.0737,24.40709,-11.27565,-18.1336,42.88535,62.9655,3.85205,7.77112,-27.81565,-13.37331,72.53825,-0.00514,-86.40876,24.36714,-0.06469,62.00963,-19.34218,-1.48091,-0.00664,-30.28938,-19.82195,-0.01506,-0.26022,-0.44974,-27.57748,-19.61042,9.40588,-26.04657,8.52126,4.32825,18.62816
3652,6.51185,0.0,0.0,-31.95709,-0.0,-0.0,-23.82898,-0.99269,-11.34802,-35.86227,4.76609,1.24424,-25.49218,-2.58051,-0.00624,-108.3446,14.09396,0.10676,26.32763,18.4205,1.17355,26.85954,-13.28811,-16.8938,52.06185,61.88188,-7.64263,4.73434,-28.71274,-18.11617,74.35905,-0.0316,-88.20242,19.75127,-0.02889,60.41912,-19.94936,-1.00062,-0.00095,-32.92718,-19.83175,0.02716,-1.01821,0.28084,-27.8133,-20.37146,10.17333,-26.02669,7.89695,5.53096,16.5199
3653,7.81948,0.0,-0.0,-34.38722,-0.0,-0.0,-25.26849,-0.39149,-12.51825,-35.56233,4.56358,0.57191,-24.07701,-3.16468,-1e-05,-111.94372,11.73629,0.0499,25.9056,19.66297,1.7054,28.88288,-15.37432,-15.44901,60.04064,60.3278,-17.77193,1.5868,-29.3968,-24.57158,76.28342,-0.02066,-89.50093,15.98311,0.04219,60.30385,-19.62659,-0.57852,0.00407,-34.6892,-20.42099,0.03383,-1.58032,0.89497,-27.9251,-20.95286,10.78979,-25.92687,7.09665,6.72557,14.29389
3654,10.64416,0.0,-0.0,-37.37881,-0.0,-0.0,-27.16353,0.22009,-13.72142,-34.65304,3.5992,-0.66319,-22.72798,-3.50767,0.00339,-114.72352,9.94208,-0.00945,25.48512,20.84422,2.37469,30.23582,-17.45707,-13.44546,66.71954,58.44247,-26.33559,-1.65648,-29.78027,-32.86325,78.37811,0.00881,-91.00375,13.41179,0.05585,62.02811,-18.7094,-0.63665,-0.00134,-35.37962,-21.28936,0.0127,-2.1126,1.35169,-27.60972,-21.5659,11.11574,-25.46935,6.08835,8.14031,11.60891
3655,14.35803,0.0,-0.0,-39.81621,0.0,0.0,-29.32382,0.68002,-14.6989,-33.69335,1.91272,-1.82005,-21.43238,-3.72543,0.00178,-116.57338,8.72361,-0.02158,25.10218,22.05684,2.90527,30.95537,-19.60128,-10.89891,72.36857,56.18883,-33.60705,-5.01808,-29.77113,-42.51841,80.41096,0.02569,-93.01955,12.32009,0.0048,64.86263,-17.72338,-1.23909,-0.00697,-34.87107,-22.47773,-0.02588,-2.7545,1.6461,-26.82591,-22.35184,11.13133,-24.61645,4.92747,9.92794,8.46135
3656,17.47478,0.0,-0.0,-40.84791,-0.0,0.0,-31.313,0.80774,-15.14139,-33.2378,0.34907,-2.21395,-20.10048,-3.89264,-0.00038,-117.434,7.61944,-0.00538,24.62179,23.30531,3.47427,31.44315,-21.89257,-7.74104,77.42882,53.31846,-40.08997,-8.49432,-29.29572,-52.19074,82.02882,0.01821,-95.33683,12.57608,-0.02547,67.1825,-16.95132,-2.00809,-0.00575,-33.51404,-24.24369,-0.05322,-3.44671,1.94583,-26.07993,-23.17889,11.16267,-23.79801,3.6666,11.97885,5.3705
3657,18.76353,-0.0,0.0,-40.10313,0.0,-0.0,-32.66842,0.60076,-15.08384,-33.62508,-0.43109,-1.65784,-18.71519,-3.96855,-0.00064,-117.26369,6.21273,0.00369,23.98903,24.53595,4.49932,32.36652,-24.25208,-3.86401,82.20363,49.62104,-46.11784,-11.90517,-28.39964,-60.35986,83.04001,0.00084,-97.3005,13.58109,-0.00897,67.95458,-16.41217,-2.3775,-0.00177,-32.27708,-26.43072,-0.02966,-3.93363,2.50535,-25.91968,-23.72812,11.63509,-23.45128,2.35436,14.02966,2.94885
3658,18.36248,-0.0,-0.0,-37.70705,0.0,0.0,-33.21904,0.3571,-14.90825,-34.67026,-0.59917,-0.6565,-17.37505,-3.9212,-0.00049,-116.01861,4.27026,-0.00304,23.37459,25.77247,6.08379,34.16461,-26.41149,0.38154,86.71542,45.21487,-51.65743,-14.9341,-27.25668,-66.55927,83.53503,-0.00606,-98.16366,14.68766,0.0046,67.77583,-16.05063,-1.96541,0.00081,-31.99334,-28.3122,0.00968,-4.02043,3.36839,-26.27083,-23.82485,12.56589,-23.48977,1.05196,15.96537,1.36751
3659,17.23473,0.0,-0.0,-34.42781,0.0,0.0,-33.18343,0.33498,-14.9951,-35.23793,-0.67172,-0.16255,-16.14742,-3.76347,-0.00033,-113.74197,1.85049,-0.00016,22.93575,27.12429,7.92998,36.54209,-28.14379,4.21303,90.81818,40.49589,-56.47303,-17.39999,-26.08781,-71.32353,83.79778,-0.00398,-97.71159,15.4936,0.00335,67.81382,-15.72886,-0.88009,0.00347,-32.74446,-29.1253,-0.00581,-3.78936,4.28537,-26.60847,-23.6149,13.54278,-23.49603,-0.22627,17.93176,0.34139
3660,15.9459,0.0,0.0,-31.8051,0.0,0.0,-32.88628,0.44212,-15.3614,-34.05643,-0.65752,-1.0126,-14.9669,-3.49724,0.00143,-110.60846,-0.7603,0.02782,22.55224,28.50564,9.6795,38.75304,-29.63702,7.04858,94.33333,35.83341,-60.36459,-19.45985,-25.02753,-75.18424,84.11885,-0.00785,-96.29966,15.88841,0.00274,68.53395,-15.19517,0.27859,0.00523,-34.26545,-28.39556,-0.06867,-3.48097,4.98506,-26.70102,-23.35127,14.23223,-23.34069,-1.5355,20.01027,-0.52052
3661,14.55389,0.0,-0.0,-32.06256,-0.0,-0.0,-32.47836,0.39663,-15.6244,-31.35187,-0.1938,-3.28319,-13.72579,-3.12514,0.00445,-106.71075,-3.48014,0.04232,21.92435,29.49223,11.11014,40.3644,-31.47683,8.78847,97.12684,31.39887,-63.30564,-21.41515,-24.04541,-78.2363,84.67204,-0.01931,-94.47795,16.03807,0.00399,69.52647,-14.42539,0.80232,0.00137,-36.15112,-26.43475,-0.09208,-3.243,5.3965,-26.82864,-23.1301,14.66237,-23.31965,-2.91537,21.95978,-1.53899
3662,13.16608,-0.0,0.0,-36.61442,-0.0,0.0,-31.95918,0.04603,-15.29157,-29.0053,0.68818,-5.97828,-12.38556,-2.7325,0.00515,-101.81463,-6.52082,0.00052,20.88353,29.74421,12.10664,41.51316,-34.09148,9.58588,99.22235,27.23775,-65.49375,-23.35219,-23.08384,-80.49435,85.49316,-0.0214,-93.01824,16.17641,0.0039,70.16311,-13.83069,0.40811,0.00115,-37.62684,-24.60784,-0.04629,-3.08716,5.61499,-27.21052,-22.93591,14.99704,-23.61265,-4.32562,23.51353,-2.90307
3663,11.89329,0.0,-0.0,-42.60258,0.0,0.0,-31.31052,-0.62566,-14.1151,-29.00353,1.79513,-7.61249,-10.95619,-2.49109,0.00101,-95.46677,-9.89216,-0.07757,19.48838,29.4921,12.7258,42.54923,-37.30066,9.73769,100.85821,23.4155,-67.23304,-25.04149,-22.22478,-82.30602,86.4846,-0.00131,-92.94827,16.34851,0.0027,70.78234,-13.70621,-0.49885,0.00647,-38.08189,-24.00696,-0.00906,-2.98357,5.77754,-27.51303,-22.80071,15.25208,-23.84884,-5.71467,24.74588,-4.53356
3664,10.3787,0.0,0.0,-41.47791,0.0,0.0,-30.53165,-1.69257,-12.30557,-31.93614,3.80595,-7.8249,-9.44853,-2.52342,-0.0057,-87.37953,-13.18944,-0.13416,17.89271,29.39165,13.23122,43.59127,-40.49391,9.53541,102.30397,20.07125,-68.6853,-26.18835,-21.64592,-84.1598,87.48162,0.02633,-94.92435,16.46274,0.00268,72.55216,-13.68206,-1.2768,0.00355,-37.76224,-24.22145,-0.00405,-2.93075,5.95212,-27.11251,-22.82543,15.28095,-23.39893,-7.07035,25.98978,-6.18373
3665,8.14641,0.0,-0.0,-21.3139,0.0,0.0,-29.67018,-3.11095,-10.44108,-35.92225,8.44291,-8.44387,-7.88388,-2.76577,-0.0093,-77.74216,-15.89646,-0.13353,16.26359,29.9177,13.83856,44.43939,-43.14857,8.90959,103.61756,17.31844,-69.77509,-26.77328,-21.47138,-86.01966,88.38366,0.03689,-98.44689,16.50187,0.00347,75.4608,-13.08858,-1.78839,-0.00861,-37.4338,-24.25134,-0.0067,-2.96836,6.09053,-25.75768,-23.07571,14.95014,-22.03844,-8.35443,27.52665,-7.74978
3666,5.54306,0.0,-0.0,29.073,-0.0,0.0,-28.87437,-4.42382,-9.07042,-35.8356,16.70077,-12.55799,-6.30968,-2.97342,-0.00578,-67.18829,-17.65425,-0.09245,14.77272,30.984,14.53416,44.97033,-45.11647,7.39007,104.69795,15.10046,-70.38543,-27.08396,-21.67397,-87.25391,89.19971,0.01844,-101.71279,16.53985,0.00309,77.74065,-11.75442,-2.24502,-0.01701,-37.4549,-23.90829,-0.01046,-3.09172,6.13674,-23.86808,-23.46275,14.34347,-20.19986,-9.48973,29.40021,-9.27325
3667,3.59786,0.0,0.0,83.79596,0.0,0.0,-28.28711,-5.11245,-8.34363,-25.16271,25.19518,-22.69248,-4.78998,-2.87894,0.0025,-56.38423,-18.31769,-0.02752,13.51591,32.12327,15.266,45.47276,-46.53928,4.53682,105.54388,13.20271,-70.61134,-27.40321,-22.08663,-87.39413,89.98752,-0.01849,-102.6328,16.61166,0.00284,78.26147,-10.21078,-2.46786,-0.00927,-37.59867,-23.42829,-0.0095,-3.17173,6.16573,-22.12493,-23.76495,13.76415,-18.51575,-10.49688,31.40664,-10.66121
3668,2.93444,0.0,0.0,100.68764,-0.0,-0.0,-27.91626,-5.16931,-7.94885,-3.69337,26.19032,-35.95895,-3.36433,-2.41524,0.00813,-45.76994,-17.6802,0.11199,12.32064,32.94141,16.11141,46.37775,-47.64264,0.82186,106.29868,11.44026,-70.75473,-27.75733,-22.50918,-86.61443,90.80241,-0.03786,-100.91498,16.72882,0.00319,77.95161,-9.07292,-2.08718,0.00197,-37.64584,-22.45524,0.00299,-3.04269,6.30544,-20.78016,-23.8042,13.42279,-17.17827,-11.63631,33.17187,-11.63607
3669,3.29933,0.0,0.0,80.6253,0.0,-0.0,-27.7046,-5.04423,-7.35781,18.87622,18.45792,-42.20083,-2.0455,-1.7934,0.00661,-35.96096,-15.44794,0.25894,10.82366,33.40526,17.07014,47.83426,-48.5452,-2.07842,107.03001,9.75549,-71.0397,-27.9857,-22.8024,-85.47288,91.64653,-0.01534,-98.76582,16.94966,0.0052,77.86749,-8.39353,-1.2762,0.00534,-37.55676,-20.68204,0.02486,-2.63894,6.5513,-19.53924,-23.55506,13.21388,-15.90409,-13.24523,34.34423,-12.03503
3670,4.01683,0.0,0.0,38.26615,0.0,0.0,-27.62424,-5.19696,-6.26257,36.46606,9.68414,-39.52252,-0.90538,-1.30054,0.00102,-28.10905,-12.10528,0.21009,8.99212,33.83373,17.89729,49.73233,-49.09197,-2.9393,107.63636,8.07702,-71.43279,-27.98514,-22.92702,-84.44228,92.39212,0.01961,-98.69542,17.21127,0.0043,77.36646,-7.82405,-0.65662,0.0039,-37.10384,-19.15055,0.02036,-2.03584,6.82447,-18.13359,-23.11411,12.96864,-14.46543,-15.30199,34.89798,-12.0333
3671,4.57344,0.0,0.0,3.17802,0.0,0.0,-27.65831,-5.80853,-4.85507,46.91164,3.78194,-34.4327,-0.09098,-1.03147,-0.00247,-23.50825,-9.12791,0.01771,7.32112,34.60426,18.41063,52.10386,-48.91034,-2.25783,107.9808,6.23317,-71.78804,-27.79531,-22.95462,-83.60403,92.78479,0.01797,-101.3043,17.24721,-0.01452,75.0267,-7.21278,-0.72838,3e-05,-35.86567,-19.73455,-0.06094,-1.44801,7.17447,-16.67867,-22.68559,12.77379,-12.9544,-17.38227,35.1669,-11.93246
3672,4.58709,0.0,-0.0,-11.54435,-0.0,-0.0,-27.74001,-6.68382,-3.60426,49.39968,-1.47765,-31.09315,0.29736,-0.85244,-0.00266,-22.77764,-7.69743,-0.0664,6.30522,35.74486,18.82302,55.36417,-47.67064,-0.8655,107.95557,4.11942,-71.98898,-27.44719,-23.00837,-82.64777,92.62016,-0.01292,-105.34374,16.92572,-0.03782,70.59543,-6.63572,-1.53555,-0.00223,-33.82447,-23.08946,-0.15217,-1.10326,7.73245,-15.38457,-22.49065,12.82722,-11.52057,-19.15073,35.42066,-11.79555
3673,3.67996,0.0,0.0,-12.85723,-0.0,-0.0,-27.75366,-7.36331,-2.7746,46.09922,-7.83536,-29.24365,0.28612,-0.61668,-0.00218,-25.11062,-7.7447,-0.01542,5.92511,36.9612,19.54905,59.60567,-45.31894,1.22414,107.44608,1.85093,-71.92276,-26.88165,-23.10833,-81.27084,91.98392,-0.02524,-109.10532,16.49018,-0.02852,65.66506,-6.07377,-2.60028,-0.00063,-31.74202,-27.6113,-0.11312,-0.97165,8.509,-14.24669,-22.50552,13.13779,-10.15313,-20.65839,35.60519,-11.4434
3674,2.12543,0.0,-0.0,-8.98233,0.0,0.0,-27.65553,-7.54009,-2.21375,40.65604,-13.20733,-27.95323,-0.02338,-0.36919,-0.00141,-28.62259,-8.36779,0.02809,5.77961,38.08059,20.73819,63.76316,-42.2459,3.94198,106.39245,-0.2897,-71.56237,-26.12753,-23.1078,-79.51821,91.26226,-0.01081,-111.68509,16.285,-0.00164,62.23106,-5.60412,-3.24346,0.00185,-30.61322,-30.84321,-0.0043,-0.7975,9.37217,-13.14102,-22.47566,13.53811,-8.78284,-22.1119,35.59225,-10.7892
3675,1.1113,0.0,0.0,-2.1009,0.0,-0.0,-27.52519,-7.38517,-1.52976,35.37592,-13.17636,-27.8383,-0.55076,-0.26953,0.00037,-31.79895,-8.82248,0.02457,5.62214,39.12984,22.08748,66.53172,-39.26302,6.67139,104.90176,-1.97613,-71.0915,-25.46761,-22.89015,-77.51894,90.8708,0.00467,-113.12245,16.3957,0.01195,60.36351,-5.63923,-3.07071,-0.00536,-30.58013,-31.79972,0.02834,-0.49972,10.16201,-12.03452,-22.30848,13.86778,-7.43912,-23.46372,35.38314,-10.07128
3676,1.55979,-0.0,0.0,10.39839,0.0,0.0,-27.39125,-7.29519,-0.45321,29.29651,-7.14421,-29.34517,-1.26216,-0.35766,0.00191,-34.02631,-8.93181,0.00721,5.61193,40.02592,23.06638,67.69091,-37.18097,8.65496,103.23205,-2.97673,-70.74091,-25.21443,-22.57504,-75.25451,90.99845,0.0093,-113.84868,16.62328,0.00929,57.95845,-6.40653,-2.20681,-0.0169,-30.47647,-31.64761,-0.01041,-0.29983,10.77825,-11.00128,-22.21238,14.06138,-6.23099,-24.36075,35.03711,-9.73966
3677,3.04173,0.0,0.0,29.27598,-0.0,0.0,-27.07098,-7.4095,0.90887,19.81234,-0.22012,-31.00015,-2.10362,-0.5177,0.00179,-35.04908,-8.89874,-0.00851,5.99373,40.53672,23.30914,67.85378,-36.33555,9.40065,101.61841,-3.30798,-70.53473,-25.30719,-22.39482,-72.87773,91.58676,0.00615,-114.31527,16.69733,-0.0103,53.34315,-7.44607,-1.31883,-0.01233,-28.95922,-32.13691,-0.08378,-0.38752,11.23917,-10.05521,-22.37907,14.14171,-5.16523,-24.53743,34.59348,-10.15805
3678,4.37041,0.0,0.0,48.88787,0.0,0.0,-26.31074,-7.57123,2.19297,6.84682,4.50149,-31.40856,-2.95011,-0.62544,0.0005,-35.0418,-9.09824,-0.02395,6.72876,40.50575,22.88481,67.72019,-36.45957,9.20405,100.09659,-3.18437,-70.32153,-25.34756,-22.40445,-70.83091,92.51322,-0.00447,-114.65497,16.54198,-0.0243,47.53987,-8.06843,-1.27686,-0.00254,-26.17006,-33.56605,-0.10841,-0.65151,11.63465,-9.05221,-22.71115,14.13964,-4.07247,-24.05783,34.00648,-11.35151
3679,5.00484,0.0,-0.0,59.46766,0.0,-0.0,-25.07894,-7.63305,3.12245,-6.17274,8.45649,-30.1969,-3.6523,-0.61854,-0.0007,-34.86583,-9.8728,-0.02835,7.57236,39.93967,22.19449,68.00029,-36.89777,9.01884,98.51497,-2.74981,-69.94038,-25.07419,-22.41552,-69.46098,93.75636,-0.01707,-114.68729,16.40714,-0.01382,43.15509,-8.05348,-2.35545,-0.00432,-23.73106,-34.72733,-0.04491,-0.84301,11.94777,-7.84099,-22.95981,13.98391,-2.81852,-23.12509,33.11899,-12.97433
3680,5.44036,-0.0,0.0,52.9097,-0.0,0.0,-23.61944,-7.58617,3.68808,-15.95211,12.60995,-26.9803,-4.14586,-0.501,-0.00094,-35.41661,-11.53383,-0.00386,8.31235,38.98383,21.58369,69.25712,-37.01828,9.20341,96.69848,-2.01982,-69.27306,-24.64993,-22.17541,-68.70267,95.32948,-0.00764,-114.58945,16.71432,-0.00422,41.43118,-7.66949,-3.91661,-0.00541,-22.90309,-34.57873,-0.00479,-0.91908,11.99918,-6.47784,-23.06025,13.5292,-1.52684,-21.91407,31.8236,-14.5342
3681,6.33102,-0.0,0.0,27.27736,0.0,0.0,-22.22987,-7.4968,4.06406,-21.32774,16.04791,-21.95009,-4.50889,-0.37993,-0.00021,-36.82602,-14.41813,0.03887,8.83933,37.89756,21.07144,71.37486,-36.5946,8.95848,94.56689,-1.10843,-68.25824,-24.45929,-21.5446,-68.15694,97.12233,0.02893,-115.06269,17.73956,-0.00481,41.41247,-7.28748,-5.15617,0.00066,-23.38605,-33.16705,-0.01365,-1.05621,11.66175,-5.24041,-23.17599,12.76035,-0.50527,-20.62813,30.24629,-15.71506
3682,7.56919,-0.0,0.0,-5.31516,-0.0,-0.0,-21.0684,-7.4579,4.40647,-22.79893,18.11328,-16.06696,-4.86881,-0.39216,0.0007,-38.61221,-18.47195,0.06454,9.16252,36.92931,20.45428,73.62553,-35.89349,7.61607,92.13058,-0.2621,-66.89625,-24.7233,-20.59113,-67.45014,98.92261,0.04148,-116.07897,19.40702,-0.00365,41.70306,-7.03475,-5.81294,0.00528,-24.09276,-31.10102,-0.01182,-1.33927,11.05797,-4.42026,-23.41072,11.89847,0.02487,-19.4841,28.71314,-16.5441
3683,8.47398,0.0,-0.0,-26.64543,-0.0,-0.0,-20.13053,-7.49803,4.74314,-21.61753,19.31338,-10.55935,-5.25629,-0.53939,0.00068,-40.36525,-22.78565,0.05367,9.39856,36.18358,19.60102,75.22392,-35.34895,5.79764,89.42797,0.36256,-65.1769,-25.36315,-19.59291,-66.50636,100.55623,0.00217,-116.17883,21.36587,0.00041,41.77193,-6.67152,-6.10216,0.00397,-24.27069,-28.90376,0.00996,-1.64316,10.40397,-4.10331,-23.6644,11.1754,0.06893,-18.55951,27.59504,-17.25182
3684,8.76113,0.0,0.0,-33.73845,-0.0,0.0,-19.3345,-7.46423,5.0089,-18.95494,20.37105,-6.70922,-5.60371,-0.72969,-9e-05,-41.96006,-25.91566,0.01759,9.60363,35.64465,18.59904,75.65724,-35.19778,4.82827,86.48645,0.77679,-63.08769,-26.15212,-18.86517,-65.48209,101.95912,-0.03762,-114.27789,23.24067,0.00818,41.54687,-5.98019,-6.45988,-0.00159,-23.86167,-26.95947,0.02367,-1.87111,9.72814,-4.15388,-23.84371,10.56741,-0.23586,-17.79007,27.10218,-17.99211
3685,8.9031,0.0,0.0,-33.5979,0.0,0.0,-18.64405,-7.12528,5.07942,-15.6228,21.2216,-5.38665,-5.87303,-0.96724,-0.00012,-43.43303,-26.91589,-0.0151,9.64569,35.26461,17.73545,74.90625,-35.36192,5.54902,83.33711,1.07392,-60.75965,-26.89217,-18.50561,-64.48448,103.15269,-0.03458,-111.3644,24.81763,0.01309,41.06186,-5.23634,-7.24652,-0.00382,-23.42589,-25.49711,0.01753,-2.15681,8.95316,-4.33789,-24.07651,9.91645,-0.70132,-17.15193,27.05509,-18.70562
3686,9.52233,0.0,0.0,-32.49905,-0.0,-0.0,-18.08808,-6.47496,4.84509,-12.16044,21.4876,-6.47847,-6.12088,-1.32505,0.00099,-44.97272,-25.92664,-0.03453,9.36876,34.98897,17.32527,73.44494,-35.54182,7.92688,80.0155,1.38773,-58.44819,-27.47874,-18.34484,-63.47364,104.19272,-0.00859,-109.28033,26.09912,0.00712,40.69573,-4.85767,-8.34526,-0.0007,-23.6645,-24.43169,0.00372,-2.72408,8.18566,-4.47072,-24.59466,9.25329,-1.11517,-16.73314,26.99036,-19.21592
3687,10.73166,0.0,-0.0,-32.37069,0.0,-0.0,-17.63914,-5.81169,4.40331,-8.96845,21.13784,-9.14494,-6.42676,-1.73349,0.0017,-46.77285,-23.72842,-0.04585,8.85639,34.73809,17.38534,71.80398,-35.47085,11.34955,76.5118,1.8314,-56.25623,-27.89344,-18.18714,-62.46545,105.12247,0.00923,-108.83918,27.26968,-0.00599,40.92795,-4.72797,-9.18094,0.00011,-24.85738,-23.45834,-0.01282,-3.6038,7.67862,-4.55593,-25.44367,8.81411,-1.38561,-16.55597,26.65882,-19.43446
3688,12.13958,-0.0,-0.0,-32.39378,0.0,-0.0,-17.17326,-5.46377,4.08883,-6.5024,20.1692,-12.34868,-6.80565,-1.95214,0.00052,-48.73879,-21.10715,-0.03945,8.49969,34.42113,17.54171,70.25204,-35.12378,14.89347,72.79465,2.38572,-53.99385,-28.18814,-18.06,-61.55252,105.95431,0.01587,-109.92548,28.56279,-0.01559,41.80165,-4.34274,-9.22554,0.00478,-26.79125,-22.29888,-0.02976,-4.57512,7.49976,-4.73293,-26.40302,8.71333,-1.6177,-16.37424,26.2857,-19.44291
3689,13.06161,-0.0,-0.0,-31.37807,-0.0,-0.0,-16.52948,-5.47936,4.23733,-5.50329,18.36383,-15.03443,-7.22646,-1.82171,-0.00135,-50.46813,-18.69476,-0.01114,8.73903,33.97775,17.38219,68.86887,-34.68013,17.50596,68.92194,2.93519,-51.43631,-28.45658,-18.14261,-60.66967,106.70624,0.01802,-112.15276,30.02614,-0.01024,42.87062,-3.41586,-8.4566,0.01551,-28.69879,-21.02449,-0.03022,-5.35788,7.40924,-5.06176,-27.17677,8.7505,-1.95799,-15.81057,26.22345,-19.40913
3690,12.69209,-0.0,-0.0,-28.60732,-0.0,-0.0,-15.55216,-5.54046,4.93742,-6.83156,15.85742,-16.63828,-7.69813,-1.46899,-0.00168,-51.60929,-16.87913,0.01541,9.63209,33.36676,16.82224,67.61945,-34.36104,18.55646,65.03431,3.47675,-48.65207,-28.77433,-18.43913,-59.64397,107.44067,0.01449,-114.72388,31.4116,0.00408,43.70141,-2.11077,-7.39708,0.01603,-29.25609,-20.27271,-0.03443,-5.80806,7.14084,-5.46878,-27.60587,8.65131,-2.43806,-14.77246,26.45049,-19.47805
3691,10.88688,-0.0,0.0,-25.00508,-0.0,-0.0,-14.22477,-5.23678,5.95301,-10.58578,13.55907,-17.68334,-8.28503,-1.16586,-0.00022,-52.22702,-15.59408,0.01955,10.7938,32.52162,16.08713,66.45158,-34.28185,18.43431,61.22766,4.18679,-45.96894,-29.14779,-18.67499,-58.48114,108.21355,0.00027,-116.41206,32.40561,0.00636,44.62543,-0.98756,-6.60826,0.00315,-27.76708,-20.60805,-0.07182,-5.95077,6.70869,-5.89894,-27.71692,8.40847,-3.00119,-13.56156,26.52595,-19.64543
3692,8.64191,-0.0,-0.0,-23.16825,0.0,0.0,-12.75687,-4.51415,6.91581,-15.45648,12.41402,-19.0272,-9.00908,-1.03408,0.0012,-52.75431,-14.49403,0.00671,11.79306,31.40321,15.46913,65.44486,-34.3386,18.12248,57.54402,5.2005,-43.65993,-29.49492,-18.6465,-57.35506,108.93571,-0.0151,-116.16692,32.96901,-0.00479,46.50266,-0.67482,-6.06535,-0.01029,-25.53696,-21.49679,-0.0807,-5.89917,6.33374,-6.39404,-27.63436,8.2425,-3.60335,-12.52933,26.05294,-19.6875
3693,7.1895,0.0,0.0,-24.42502,-0.0,-0.0,-11.42138,-3.72925,7.57701,-19.38088,12.19191,-20.63787,-9.77852,-0.99099,0.00105,-53.57265,-13.42854,-0.0064,12.3985,30.14491,15.2191,64.61462,-34.25009,18.01651,54.03689,6.43271,-41.70021,-29.68729,-18.52972,-56.33709,109.37268,-0.01137,-113.99742,33.43004,-0.00726,48.89257,-1.15657,-5.26141,-0.01623,-24.77127,-21.71799,-0.06402,-5.78935,6.13839,-6.9856,-27.49899,8.27867,-4.22843,-11.83389,25.12015,-19.34911
3694,7.02371,-0.0,0.0,-27.30538,0.0,0.0,-10.38492,-3.22265,7.78668,-21.00946,11.68172,-21.79996,-10.46628,-0.9263,5e-05,-54.69934,-12.53666,-0.00878,12.5479,29.0139,15.51955,63.67759,-33.8383,17.60696,50.7075,7.66816,-39.8076,-29.6598,-18.66325,-55.37363,109.3807,0.00167,-111.1679,34.22814,0.03083,49.59842,-1.62445,-4.01279,-0.00689,-25.79716,-20.99492,-0.05497,-5.75528,6.01587,-7.59672,-27.44026,8.38949,-4.84488,-11.46968,24.18046,-18.64611
3695,7.88865,0.0,-0.0,-29.50203,0.0,0.0,-9.66788,-3.00735,7.4701,-20.49592,10.31658,-22.10281,-11.02511,-0.8228,-0.00059,-55.87722,-12.0086,-0.00231,12.34091,28.14893,16.34128,62.38624,-33.19477,16.28926,47.4854,8.75221,-37.76306,-29.43667,-19.16096,-54.48793,109.03307,0.00415,-108.98177,35.52291,0.08062,47.49742,-1.56507,-2.85541,0.00436,-26.83579,-20.25244,-0.03167,-5.86117,5.78018,-8.08143,-27.51724,8.3485,-5.38574,-11.31168,23.53601,-17.83544
3696,9.13931,0.0,0.0,-29.8674,0.0,0.0,-9.1376,-2.9309,6.85709,-19.04901,8.82931,-21.92733,-11.48384,-0.73295,-0.00074,-56.87373,-11.93419,0.00463,11.97819,27.47659,17.38568,60.90564,-32.40317,14.06391,44.34811,9.74476,-35.67489,-29.04309,-19.87093,-53.68845,108.46062,0.00374,-107.51772,37.14372,0.06196,44.46498,-1.57405,-2.45907,0.00977,-26.56159,-20.10148,-0.01568,-6.03955,5.4129,-8.27765,-27.669,8.07915,-5.706,-11.18583,23.0605,-17.07009
3697,10.05326,0.0,0.0,-28.66252,0.0,0.0,-8.57201,-2.9768,6.50271,-17.87239,8.18759,-22.02025,-11.89594,-0.71295,-0.00065,-57.66423,-12.20136,0.00663,11.61974,26.88653,18.27794,59.62098,-31.31933,11.53031,41.27903,10.93742,-33.78193,-28.48659,-20.5543,-52.73905,107.76408,0.0077,-106.00018,38.96059,-0.01265,43.13134,-2.46384,-2.90851,0.0195,-25.3791,-20.05962,-0.00675,-6.20288,5.13169,-8.02947,-27.82703,7.72665,-5.5787,-10.98091,22.38284,-16.28601
3698,10.27163,0.0,0.0,-27.00476,0.0,0.0,-7.83818,-3.18717,6.81306,-17.37712,8.56211,-22.66674,-12.33392,-0.7989,-5e-05,-58.3656,-12.45562,0.00337,11.36099,26.33546,18.783,58.69787,-29.85333,9.39204,38.11971,12.52389,-32.00338,-27.81935,-21.05506,-51.38941,107.11004,0.00575,-103.9924,41.07375,-0.05982,43.96569,-3.98313,-3.69243,0.0182,-24.15493,-19.51928,-0.00142,-6.37371,5.11757,-7.32732,-28.02109,7.45567,-4.92813,-10.65011,21.31648,-15.45047
3699,10.05633,0.0,-0.0,-25.95841,0.0,0.0,-7.01518,-3.39033,7.71538,-17.30601,9.45275,-23.63924,-12.8579,-1.01628,0.00125,-59.03819,-12.29775,-0.00175,11.24679,25.76729,18.78652,57.89192,-28.28934,7.92536,34.68626,14.20421,-29.91954,-27.11159,-21.46527,-49.78792,106.67992,-0.0042,-101.64018,43.5203,-0.03712,45.52682,-5.1116,-4.16184,0.00456,-22.76498,-18.71112,-0.00716,-6.56602,5.19169,-6.45581,-28.24238,7.20415,-4.08721,-10.21449,20.13633,-14.688
3700,9.86071,0.0,0.0,-25.51347,0.0,-0.0,-6.29741,-3.33431,8.91308,-17.33679,10.34368,-24.74769,-13.46059,-1.33784,0.0021,-59.62032,-11.63392,-0.00303,11.24864,25.04801,18.19267,56.80742,-27.11132,6.82922,31.01484,15.33965,-27.3261,-26.35689,-22.11977,-48.36155,106.4438,-0.00847,-99.16325,46.03754,0.01531,46.58726,-5.35851,-3.98763,-0.00134,-20.62931,-18.27441,-0.02418,-6.66052,4.93668,-5.83702,-28.34079,6.73949,-3.60507,-9.78649,19.33621,-14.10734
3701,9.86207,-0.0,-0.0,-24.81358,0.0,-0.0,-5.78997,-3.02021,10.2114,-17.28558,10.99285,-25.87459,-14.09693,-1.6411,0.00127,-60.07007,-10.77088,-0.00041,11.33999,24.06747,17.03225,55.30754,-26.54762,5.52977,27.34381,15.56744,-24.61361,-25.50468,-23.25006,-47.35493,106.1451,-0.00217,-96.77979,48.27462,0.03462,47.27889,-5.03924,-3.36297,-0.00024,-18.22091,-18.25457,-0.03126,-6.57756,4.17635,-5.70407,-28.2297,5.98394,-3.76359,-9.40701,19.08921,-13.65057
3702,10.07587,-0.0,-0.0,-23.52073,-0.0,0.0,-5.44371,-2.66443,11.49918,-17.00481,11.31215,-26.58657,-14.76826,-1.79752,-0.00068,-60.46394,-9.98945,0.00013,11.54882,22.84359,15.60476,53.56087,-26.43813,3.80519,23.8477,15.16393,-22.38025,-24.59259,-24.62661,-46.69367,105.59299,0.00423,-94.78844,50.14859,0.01366,48.5135,-4.48025,-2.75153,-0.00013,-16.7837,-18.08136,-0.02556,-6.45181,3.22365,-6.01614,-28.06128,5.21313,-4.40734,-8.96401,19.02778,-13.15055
3703,10.5723,0.0,-0.0,-22.19728,-0.0,-0.0,-5.17313,-2.42825,12.60411,-16.43427,11.29852,-26.28471,-15.53219,-1.78782,-0.00243,-60.87827,-9.14699,-0.0033,11.87212,21.47479,14.36117,51.77249,-26.50941,2.08459,20.49475,14.76291,-20.80357,-23.73034,-25.71695,-46.16547,104.86113,0.00487,-93.2475,51.85609,-0.01495,50.76424,-3.75853,-2.42135,-0.0019,-16.54885,-17.3821,-0.01998,-6.49597,2.61519,-6.58775,-28.06806,4.85743,-5.16497,-8.38998,18.56854,-12.49076
3704,11.49266,0.0,0.0,-21.45106,0.0,0.0,-4.97835,-2.29004,13.36461,-15.59563,11.02898,-25.01445,-16.42565,-1.70132,-0.00246,-61.23472,-7.90599,-0.00462,12.25475,20.0787,13.59737,50.01965,-26.57473,0.91142,17.1946,14.76521,-19.56161,-22.94886,-26.26483,-45.57409,104.17429,0.00089,-91.91618,53.55494,-0.02719,53.65182,-3.06977,-2.31745,-0.00309,-16.32743,-16.27742,-0.00069,-6.77614,2.60729,-7.18359,-28.32704,5.06882,-5.72354,-7.75606,17.46005,-11.66805
3705,12.96486,0.0,0.0,-21.31909,0.0,-0.0,-4.91501,-2.14252,13.88211,-14.3991,10.57915,-23.88009,-17.41706,-1.67652,0.00025,-61.35881,-6.14856,0.0012,12.67582,18.79978,13.24747,48.27267,-26.48199,0.33575,13.95164,15.08864,-18.24951,-22.16336,-26.54221,-44.80045,103.75603,-0.00707,-90.72814,55.20332,-0.02678,56.51154,-2.73669,-2.3558,-0.00153,-15.02823,-15.03857,0.02307,-7.18868,2.96162,-7.61942,-28.73521,5.55828,-5.99947,-7.13076,15.99133,-10.70536
3706,14.86984,0.0,0.0,-21.38276,-0.0,-0.0,-4.97059,-1.96737,14.46154,-12.78405,9.97067,-24.18559,-18.43564,-1.80902,0.00378,-61.19022,-4.05399,0.0082,13.15542,17.77754,13.08943,46.47491,-26.06259,0.0041,10.81207,15.45776,-16.73714,-21.28311,-26.93753,-43.78261,103.79248,-0.01025,-90.08715,56.76802,-0.02643,58.84008,-2.92174,-2.65579,0.00407,-12.97089,-13.8713,0.02139,-7.5999,3.26813,-7.88047,-29.14753,5.9391,-6.13,-6.49424,14.62902,-9.5641
3707,16.72256,0.0,0.0,-21.36116,0.0,-0.0,-5.03077,-1.86092,15.13711,-11.13636,9.18925,-26.06787,-19.41106,-2.02164,0.00389,-60.8647,-2.02276,0.00768,13.67753,17.0319,13.18969,44.62357,-25.24592,-0.49841,7.78122,15.74482,-15.14584,-20.30422,-27.4893,-42.4842,104.34295,0.00307,-90.60683,58.42826,-0.01231,60.12542,-3.45863,-3.35254,0.00897,-11.42769,-13.00571,-0.0004,-7.95168,3.38493,-8.10971,-29.49464,6.13178,-6.30092,-5.81827,13.54891,-8.19369
3708,18.01058,0.0,-0.0,-21.60301,0.0,0.0,-4.95775,-1.93937,15.55319,-10.062,8.36343,-28.35858,-20.31124,-2.0706,-0.00053,-60.58224,-0.52225,0.00167,14.19133,16.40959,13.8576,42.77156,-24.20182,-1.53065,4.88671,15.94503,-13.59921,-19.28505,-27.98032,-40.93854,105.2218,0.02277,-92.59145,60.42984,0.03785,59.76557,-3.88032,-4.29445,0.00555,-11.23062,-12.74458,-0.0072,-8.24116,3.44627,-8.4596,-29.772,6.31706,-6.60508,-5.13979,12.61919,-6.66121
3709,18.62855,-0.0,0.0,-22.43187,0.0,0.0,-4.68908,-2.239,15.56533,-9.66872,7.83315,-29.82677,-21.16651,-1.81167,-0.0049,-60.44581,0.27811,-0.00218,14.69101,15.70448,15.01547,40.93655,-23.25848,-3.24737,2.24801,16.01872,-12.11825,-18.23414,-28.33675,-39.23391,106.09399,0.0251,-95.62283,62.78245,0.08855,57.73563,-3.80436,-5.14361,-0.00095,-12.22724,-13.20099,0.00646,-8.44179,3.55994,-8.94098,-29.95616,6.59907,-7.01294,-4.52289,11.70391,-5.17299
3710,18.71422,0.0,-0.0,-22.88752,-0.0,-0.0,-4.27475,-2.62857,15.65407,-9.56361,7.88248,-30.14844,-22.01662,-1.43497,-0.00411,-60.42678,0.7033,-0.00232,15.22293,14.81727,15.94493,39.05017,-22.64574,-5.41891,-0.02565,15.93605,-10.72834,-17.06092,-28.72186,-37.41007,106.75067,0.00753,-98.32874,65.21066,0.07422,55.27743,-3.31027,-5.77501,-0.00359,-13.6717,-14.07742,0.01219,-8.48499,3.66697,-9.42099,-29.9816,6.87427,-7.42224,-3.99387,10.80163,-3.93687
3711,18.20356,0.0,0.0,-21.42892,-0.0,-0.0,-3.8324,-2.85783,16.38058,-9.45575,8.42429,-29.72773,-22.83446,-1.28309,0.00042,-60.43745,1.21269,-0.00131,15.81624,13.77639,15.99768,37.06401,-22.3483,-7.59922,-1.98085,15.80647,-9.49061,-15.68672,-29.2821,-35.457,107.2226,-0.01367,-98.83667,67.44751,0.00698,54.22539,-2.72649,-6.36471,-0.00403,-14.81613,-14.81075,0.00088,-8.34995,3.6509,-9.78369,-29.82803,6.9919,-7.76745,-3.51183,9.9349,-2.99553
3712,17.12378,0.0,-0.0,-18.26839,0.0,-0.0,-3.51248,-2.77333,17.65986,-9.33105,8.93102,-29.05514,-23.53705,-1.46293,0.00287,-60.40589,1.93704,-0.00058,16.45023,12.65922,15.36011,35.06056,-22.16899,-9.46566,-3.78394,15.80582,-8.40513,-14.17451,-29.97486,-33.41947,107.61137,-0.02268,-96.44917,69.50595,-0.04533,55.3765,-2.32201,-7.06865,-0.00144,-15.45223,-14.88918,-0.01023,-8.15457,3.47148,-10.05905,-29.61053,6.9255,-8.09126,-2.99198,9.06633,-2.18368
3713,16.03494,-0.0,-0.0,-15.4225,0.0,-0.0,-3.39697,-2.4892,19.00174,-9.19984,8.93812,-28.40744,-24.08667,-1.80517,0.00209,-60.28601,2.7216,-0.00016,17.08113,11.55028,14.69657,33.1411,-21.88944,-10.90861,-5.55302,15.96954,-7.3987,-12.66008,-30.65517,-31.42917,107.93956,-0.01234,-92.94265,71.55616,-0.05146,57.95558,-2.34135,-7.8323,0.00489,-15.83786,-14.28963,-0.01112,-8.07001,3.19239,-10.36361,-29.49741,6.77688,-8.47906,-2.39325,8.1764,-1.29599
3714,15.56014,0.0,0.0,-14.25628,0.0,0.0,-3.37347,-2.27075,20.19377,-8.99732,8.57774,-27.85487,-24.5623,-2.12961,0.00109,-60.03743,3.44815,0.00046,17.6786,10.53285,14.30783,31.27316,-21.39397,-11.93985,-7.27709,16.16447,-6.3617,-11.14228,-31.21469,-29.58821,108.20086,0.00414,-90.96038,73.63625,-0.03108,60.75632,-2.78719,-8.43897,0.00862,-16.08715,-13.57969,-0.00507,-8.1344,2.91121,-10.72667,-29.52933,6.64745,-8.92226,-1.77704,7.32381,-0.29658
3715,15.91416,0.0,-0.0,-14.43628,-0.0,0.0,-3.32194,-2.18529,21.2572,-8.67347,8.2134,-27.2871,-25.08477,-2.35209,0.00066,-59.63371,4.10889,0.0013,18.23864,9.64972,14.11415,29.368,-20.69626,-12.66404,-8.891,16.27532,-5.17368,-9.47929,-31.62359,-27.84652,108.44221,0.00964,-90.99651,75.6533,-0.01158,63.14481,-3.18232,-8.61468,0.00909,-16.07785,-13.33729,-0.0013,-8.26066,2.66145,-11.02656,-29.62745,6.52408,-9.2947,-1.22729,6.55944,0.69744
3716,17.05953,-0.0,0.0,-15.15309,-0.0,0.0,-3.36932,-2.00395,22.03905,-8.20913,7.83467,-26.6012,-25.69429,-2.40936,-0.00041,-59.08442,4.69154,0.00165,18.79329,8.87331,14.07658,27.41833,-19.8865,-13.29328,-10.38935,16.32189,-3.84744,-7.63654,-31.9325,-26.02998,108.77094,0.00206,-91.41114,77.60561,0.0062,64.80567,-3.25473,-8.32752,0.01105,-15.84926,-13.70465,-0.0015,-8.41096,2.40939,-11.13804,-29.76065,6.3299,-9.49146,-0.72344,5.86661,1.56987
3717,18.6285,-0.0,-0.0,-16.14826,0.0,0.0,-3.65468,-1.56726,22.27459,-7.57562,7.25556,-25.93457,-26.34141,-2.25399,-0.00187,-58.43756,5.13625,0.0009,19.38614,8.13853,14.22004,25.4808,-19.04752,-14.05107,-11.83339,16.35588,-2.62862,-5.74757,-32.26141,-23.9331,109.31157,-0.00804,-91.13383,79.64633,0.0269,65.46035,-3.61108,-7.95096,0.01296,-15.68348,-14.4387,7e-05,-8.60832,2.13784,-11.09535,-29.9499,6.06145,-9.55091,-0.17857,5.21779,2.29214
3718,19.83892,-0.0,-0.0,-17.294,0.0,0.0,-3.97491,-1.05979,21.95068,-6.81301,6.57074,-25.49271,-26.92505,-1.95058,-0.00177,-57.75666,5.37344,-0.0002,19.98769,7.4072,14.46479,23.60393,-18.19681,-14.97156,-13.23746,16.34127,-1.7783,-3.881,-32.7119,-21.40424,110.10519,-0.0089,-90.66493,81.9214,0.0346,65.29153,-4.83712,-7.77979,0.01407,-15.78204,-15.06717,0.00163,-8.80771,1.86515,-11.04847,-30.14189,5.7904,-9.6068,0.41274,4.6117,2.94194
3719,20.0596,0.0,0.0,-17.7663,0.0,-0.0,-3.9793,-0.74535,21.50664,-6.1251,6.10118,-25.24605,-27.31056,-1.75033,-0.00016,-57.07563,5.41895,0.00033,20.50091,6.7075,14.53327,21.82098,-17.29085,-15.81728,-14.49721,16.21819,-1.315,-1.94069,-33.254,-18.48693,111.05122,-0.00179,-90.74908,84.40572,0.01666,65.04438,-6.35309,-7.5752,0.01113,-16.03482,-15.16963,0.0002,-8.93114,1.60075,-11.06885,-30.2545,5.55152,-9.7225,0.99016,4.06366,3.63642
3720,19.47535,0.0,0.0,-16.67527,0.0,-0.0,-3.63207,-0.55679,21.55996,-5.7498,6.02426,-25.03473,-27.40014,-1.94381,-0.00022,-56.36607,5.37308,0.00189,20.89062,6.1141,14.1133,20.16539,-16.26872,-16.31803,-15.46754,16.00245,-1.07882,0.15168,-33.75342,-15.45731,112.0047,0.0074,-91.5961,86.93443,-0.00619,65.30221,-7.15908,-7.01741,0.01017,-16.20152,-14.70575,-0.00043,-8.99622,1.33467,-11.05722,-30.31112,5.29942,-9.8088,1.5595,3.6011,4.42761
3721,19.08307,0.0,0.0,-14.59741,-0.0,0.0,-3.26342,-0.21993,22.29559,-5.74273,6.14743,-24.81099,-27.2177,-2.54329,-0.00197,-55.55192,5.23004,0.00045,21.21936,5.67596,13.28848,18.65475,-15.09408,-16.48524,-16.08633,15.75625,-0.88038,2.31422,-34.12744,-12.59212,112.90009,0.01547,-93.15518,89.38345,-0.01552,66.03921,-7.14797,-6.34126,0.00876,-16.17175,-13.99512,0.00082,-9.05932,1.05127,-10.88279,-30.37593,4.97202,-9.74911,2.1762,3.23379,5.32371
3722,19.44538,-0.0,0.0,-13.02971,-0.0,0.0,-3.07718,0.2421,23.41625,-5.97062,6.15791,-24.63528,-26.90984,-3.26467,-0.00198,-54.55816,4.86055,-0.00464,21.56333,5.3574,12.51186,17.28076,-13.79964,-16.52001,-16.42527,15.53816,-0.50109,4.40782,-34.39733,-9.92759,113.74671,0.01293,-94.96432,91.751,-0.01839,67.04356,-6.81789,-6.00417,0.00246,-15.97008,-13.37521,0.00163,-9.10779,0.74155,-10.55837,-30.43515,4.56555,-9.55889,2.85657,2.90671,6.34839
3723,19.66053,0.0,0.0,-12.40553,-0.0,-0.0,-2.87026,0.5428,24.64765,-6.2364,5.98754,-24.58433,-26.653,-3.84799,-0.00018,-53.37045,4.31027,-0.00634,21.96911,5.0454,12.07565,16.01971,-12.53534,-16.4859,-16.63596,15.39975,0.20025,6.42568,-34.57217,-7.29513,114.57346,-0.00388,-96.05697,94.05827,-0.0121,68.10603,-6.47092,-5.99334,-0.00326,-15.70469,-12.99988,0.00121,-9.14569,0.41053,-10.20481,-30.48537,4.12859,-9.3494,3.5978,2.51124,7.46534
3724,18.69991,0.0,0.0,-12.11255,-0.0,-0.0,-2.51588,0.65617,25.85501,-6.32249,5.71471,-24.72598,-26.50611,-4.22694,0.00101,-52.06895,3.88139,-0.00089,22.44233,4.60235,11.95653,14.82764,-11.54271,-16.33673,-16.79307,15.34302,1.07077,8.54989,-34.58864,-4.50423,115.41171,-0.02021,-95.96864,96.25339,0.00598,68.85847,-6.35432,-6.05924,-0.0043,-15.52777,-12.88547,0.00065,-9.27921,0.07553,-9.87458,-30.63019,3.69637,-9.16332,4.39358,1.96487,8.51991
3725,17.04275,0.0,0.0,-11.83895,0.0,0.0,-2.26975,0.823,26.87492,-6.02899,5.41458,-25.06097,-26.35054,-4.44026,0.001,-50.76615,3.73956,0.00306,22.89632,3.95921,12.10402,13.62936,-10.98222,-16.21046,-16.79026,15.27712,1.75583,11.02549,-34.39283,-1.46352,116.27431,-0.02014,-95.42091,98.23158,0.01538,69.21793,-6.83731,-6.34078,0.00363,-15.47985,-12.96209,0.00032,-9.59428,-0.22705,-9.48245,-30.9613,3.27176,-8.90786,5.15434,1.29447,9.3829
3726,15.84377,0.0,-0.0,-11.69306,-0.0,-0.0,-2.28472,1.07771,27.6292,-5.31521,5.23833,-25.48012,-26.04236,-4.54736,0.0005,-49.4532,3.71273,0.00019,23.18765,3.21787,12.51666,12.33441,-10.74265,-16.34047,-16.48525,15.07912,2.06155,13.95314,-33.97787,1.78305,117.13741,-0.00219,-95.65907,99.9137,0.01019,69.60213,-7.99264,-7.13305,0.01633,-15.46099,-13.14103,-0.0011,-10.01315,-0.46491,-8.91948,-31.40694,2.84503,-8.46973,5.71559,0.65888,10.09176
3727,15.52379,0.0,-0.0,-11.63933,-0.0,0.0,-2.3501,1.18918,28.28414,-4.39064,5.28941,-25.88027,-25.60296,-4.62737,-0.00021,-47.94967,3.67255,-0.00166,23.2949,2.59677,13.00571,10.89804,-10.50682,-16.62822,-15.91054,14.69671,2.08422,17.17733,-33.32108,5.08884,117.97126,0.02047,-97.45911,101.31711,0.0048,70.34051,-9.38122,-8.28676,0.0155,-15.50438,-13.31812,-0.00501,-10.33845,-0.67076,-8.1844,-31.76735,2.38506,-7.85993,6.01,0.25411,10.74759
3728,16.03016,0.0,-0.0,-11.53215,0.0,0.0,-2.34222,1.01044,29.07747,-3.56701,5.48664,-26.25451,-25.17381,-4.72104,-0.0006,-46.09941,3.73205,0.00269,23.36723,2.19659,13.2449,9.36617,-10.06019,-16.70428,-15.21985,14.17734,2.01684,20.36896,-32.39556,8.24864,118.77333,0.02684,-100.33581,102.5409,0.00185,71.53062,-10.3563,-9.20311,0.00259,-15.78135,-13.28036,-0.01135,-10.42775,-0.93496,-7.37656,-31.89217,1.8438,-7.20426,6.1371,0.13978,11.34993
3729,17.33322,0.0,-0.0,-11.41134,0.0,-0.0,-2.4501,0.61001,30.1304,-2.97729,5.74357,-26.67262,-24.81618,-4.7832,-0.00035,-43.96472,3.94788,0.00728,23.56198,1.89243,13.10704,7.84794,-9.44585,-16.41273,-14.47889,13.62102,1.9847,23.23446,-31.27652,11.03902,119.55182,0.00904,-102.59928,103.67454,-0.0026,73.3139,-10.49827,-9.26012,0.0024,-16.02386,-12.89239,-0.01301,-10.30692,-1.32321,-6.59793,-31.80213,1.19746,-6.6218,6.23824,0.1853,11.80859
3730,18.95341,0.0,0.0,-11.44583,0.0,-0.0,-2.79493,0.1252,31.41275,-2.5395,6.02537,-27.19912,-24.45793,-4.76966,0.00026,-41.72926,4.18738,0.00675,23.91067,1.51045,12.76122,6.44993,-8.81876,-15.92941,-13.61475,13.13479,2.04631,25.69962,-30.11546,13.34348,120.30851,-0.01435,-102.86438,104.78413,-0.0069,75.67177,-9.91474,-8.30937,0.01479,-15.46502,-12.30185,-0.00489,-10.11295,-1.8133,-5.86963,-31.63535,0.47457,-6.12411,6.38712,0.1983,12.05625
3731,19.89624,0.0,-0.0,-11.60672,0.0,0.0,-3.18475,-0.3274,32.6362,-2.22556,6.20718,-27.67934,-24.0274,-4.68425,0.00091,-39.47533,4.28073,0.00252,24.31128,1.01652,12.56601,5.17632,-8.27773,-15.57439,-12.5348,12.82417,2.20863,27.91051,-28.95925,15.24864,121.03847,-0.01906,-101.4659,105.94705,-0.0084,78.24879,-9.17269,-6.85339,0.0144,-13.89818,-11.64107,0.00449,-9.95519,-2.29697,-5.12811,-31.5052,-0.24736,-5.61235,6.56298,0.05906,12.10492
3732,19.53463,0.0,-0.0,-11.64808,-0.0,0.0,-3.35298,-0.61287,33.45478,-2.14424,6.22086,-27.78294,-23.55589,-4.5763,0.00082,-37.13223,4.15354,-0.00119,24.63374,0.51842,12.77314,3.91129,-7.79985,-15.57068,-11.21403,12.79003,2.38164,30.01402,-27.71395,16.90501,121.70217,-0.00614,-99.85895,107.18061,-0.00584,80.67972,-8.86316,-5.50237,-1e-05,-12.14404,-10.81164,0.00611,-9.84479,-2.67994,-4.3329,-31.42337,-0.89552,-5.01423,6.68834,-0.21637,12.04362
3733,18.18654,-0.0,0.0,-11.41675,-0.0,0.0,-3.25613,-0.59247,33.93146,-2.29503,6.29468,-27.40519,-23.1242,-4.54313,-8e-05,-34.60068,3.83574,-0.00309,24.84407,0.16474,13.24882,2.55905,-7.24782,-15.83544,-9.67263,13.07717,2.37521,31.95815,-26.33335,18.33551,122.21835,0.00258,-98.75157,108.38828,-3e-05,82.84409,-9.20323,-4.39484,-0.01222,-10.92961,-9.86888,-0.00085,-9.72522,-2.98522,-3.55394,-31.3297,-1.46568,-4.40302,6.71185,-0.47909,12.02886
3734,16.81203,0.0,-0.0,-10.93029,-0.0,-0.0,-3.12324,-0.27935,34.45437,-2.45794,6.73354,-26.74778,-22.75364,-4.62113,-0.00064,-31.90277,3.36776,-0.00423,25.01902,0.00612,13.68361,1.17382,-6.52114,-16.11148,-7.9494,13.58883,2.01106,33.59082,-24.9169,19.48453,122.55898,-0.00066,-97.86169,109.47697,0.00542,84.7326,-9.9815,-3.47874,-0.01251,-10.0815,-9.27454,-0.0106,-9.55527,-3.28675,-2.91083,-31.18031,-1.98256,-3.91688,6.65302,-0.5899,12.21216
3735,16.15178,0.0,-0.0,-10.19527,0.0,0.0,-3.22831,0.0611,35.23281,-2.35211,7.5119,-26.06389,-22.42311,-4.70195,-0.0003,-29.20582,2.77829,-0.00313,25.30026,-0.0838,13.93732,-0.06627,-5.71063,-16.26101,-6.11865,14.10373,1.25913,34.9045,-23.56408,20.36969,122.85997,-0.00448,-97.37219,110.48774,0.00505,86.34547,-10.84407,-3.05731,-0.00111,-9.29117,-9.31472,-0.01922,-9.37068,-3.58415,-2.4948,-31.01004,-2.4121,-3.64028,6.58282,-0.58262,12.61098
3736,16.07821,0.0,0.0,-9.14766,0.0,0.0,-3.5873,0.09013,36.04536,-1.81333,8.32402,-25.58193,-22.18553,-4.63257,-0.0,-26.67852,2.11574,-0.00044,25.80043,-0.28234,14.09556,-1.02656,-5.0048,-16.326,-4.24417,14.44918,0.29485,36.05521,-22.23872,21.09376,123.35027,0.00345,-98.05744,111.5453,-0.00256,87.79407,-11.56701,-3.57244,0.00947,-8.86144,-9.4,-0.02478,-9.26457,-3.83203,-2.34552,-30.91148,-2.69745,-3.59319,6.55315,-0.61187,13.10884
3737,16.1275,0.0,-0.0,-7.87825,0.0,-0.0,-3.99174,-0.34232,36.46223,-0.88552,8.93897,-25.50253,-22.13689,-4.38017,-0.00054,-24.36642,1.39703,-0.0005,26.47238,-0.60569,14.34867,-1.74189,-4.48763,-16.4209,-2.30267,14.64032,-0.56447,37.17293,-20.82659,21.77355,124.13351,0.0189,-100.10905,112.66833,-0.00895,89.20633,-12.02033,-4.96877,0.00748,-9.07347,-8.62659,-0.02957,-9.31762,-4.05584,-2.36624,-30.96808,-2.89785,-3.69509,6.54652,-0.76526,13.58815
3738,16.45794,0.0,-0.0,-6.74932,0.0,0.0,-4.3234,-1.15584,36.34214,0.19656,9.31365,-25.8562,-22.24439,-4.09209,-0.00083,-22.24573,0.59733,-0.00341,27.14394,-0.8844,14.76256,-2.31265,-4.10318,-16.60314,-0.25666,14.8358,-1.05367,38.27159,-19.25121,22.52048,125.10024,0.02439,-102.88351,113.67445,-0.00545,90.45341,-12.10719,-6.60466,-0.0016,-9.42288,-7.05844,-0.01822,-9.53413,-4.38961,-2.2803,-31.19325,-3.23968,-3.73866,6.53879,-0.98595,13.98251
3739,17.46337,0.0,0.0,-6.0176,0.0,-0.0,-4.64557,-2.09363,35.96175,1.15356,9.4726,-26.46587,-22.34549,-3.977,-0.00052,-20.32193,-0.25211,-0.00459,27.72794,-0.93677,15.14301,-2.7215,-3.76192,-16.77695,1.79881,15.18692,-1.1525,39.33198,-17.5224,23.44481,126.06535,0.01332,-105.38641,114.35328,0.00218,91.22661,-11.90582,-7.70534,-0.00455,-9.28116,-5.61213,0.00029,-9.82473,-4.97727,-1.83403,-31.50796,-3.95006,-3.54194,6.58324,-1.15291,14.25468
3740,18.70815,0.0,-0.0,-5.51681,0.0,-0.0,-4.98839,-2.7977,35.55168,1.8504,9.40282,-27.12671,-22.34454,-4.10718,-0.00045,-18.60933,-1.02227,-0.0021,28.29443,-0.72772,15.25542,-2.87319,-3.44699,-16.76501,3.67519,15.70997,-1.06862,40.37147,-15.74592,24.59215,126.93282,-0.00296,-106.74956,114.71278,0.00487,91.43204,-11.71613,-7.84142,-0.0032,-8.89824,-4.77703,0.00391,-10.06005,-5.78623,-1.05359,-31.78343,-4.989,-3.11788,6.75421,-1.21296,14.42859
3741,19.27394,0.0,0.0,-4.98117,0.0,-0.0,-5.26173,-3.01598,34.96487,2.38962,9.06229,-27.73762,-22.30599,-4.35706,-0.00035,-17.07867,-1.57518,0.00162,28.92412,-0.37767,15.11944,-2.77067,-3.23943,-16.51904,5.29176,16.30453,-1.03343,41.43146,-14.06901,25.87367,127.72458,-0.01209,-106.75063,114.94397,0.00298,91.37135,-11.79121,-7.1863,-0.0038,-9.00312,-4.26123,-0.00168,-10.14262,-6.56305,-0.19152,-31.9097,-6.02807,-2.60723,7.02688,-1.22863,14.58804
3742,18.88897,0.0,-0.0,-4.47041,0.0,-0.0,-5.39191,-2.77569,34.01558,3.02992,8.5118,-28.28223,-22.34126,-4.56243,-6e-05,-15.68949,-1.86855,0.00368,29.60666,-0.02999,14.9176,-2.51728,-3.22922,-16.16877,6.74788,16.92024,-1.14312,42.54046,-12.53463,27.12003,128.49457,-0.01301,-105.81736,115.17132,0.00025,91.5109,-12.06032,-6.28019,-0.00128,-9.71207,-3.6194,-0.00489,-10.02927,-7.07769,0.57988,-31.82953,-6.79019,-2.0837,7.28528,-1.28724,14.78337
3743,17.73796,0.0,-0.0,-4.19483,-0.0,0.0,-5.31363,-2.35577,32.90763,3.94259,7.94479,-28.73766,-22.47643,-4.69169,0.00014,-14.43281,-1.96978,0.00309,30.26656,0.28316,14.75167,-2.1934,-3.41688,-15.87286,8.18429,17.635,-1.3513,43.65065,-11.01854,28.21495,129.22589,-0.00853,-104.5438,115.37609,-0.00054,92.08965,-12.25382,-5.48487,0.00601,-10.46451,-2.64744,0.00064,-9.72026,-7.36074,1.32158,-31.54216,-7.32638,-1.5013,7.42771,-1.40784,15.00049
3744,15.73744,0.0,0.0,-4.10576,0.0,-0.0,-4.90212,-2.10715,31.96197,5.01665,7.48279,-28.94384,-22.66025,-4.78065,8e-05,-13.30367,-1.9917,0.00086,30.80689,0.62114,14.70788,-1.84045,-3.72817,-15.80516,9.66975,18.52006,-1.55623,44.6108,-9.39287,29.16529,129.78725,-0.00109,-103.37191,115.54582,0.00094,92.9406,-12.30024,-4.754,0.01022,-10.92327,-1.4081,0.00709,-9.25896,-7.60751,2.1844,-31.09953,-7.87358,-0.79273,7.42322,-1.56441,15.20843
3745,13.02458,0.0,0.0,-3.97658,0.0,0.0,-4.18038,-2.23625,31.12583,6.00895,7.09417,-28.68174,-22.84946,-4.79247,-0.00019,-12.27365,-2.00408,-0.00083,31.17888,1.01846,14.92247,-1.50929,-4.08236,-16.17177,11.24901,19.49041,-1.71965,45.27447,-7.72461,30.07583,129.99736,0.00503,-102.38676,115.75755,0.00292,93.70618,-12.48767,-3.74355,0.00091,-11.43769,-0.17293,0.00398,-8.73612,-7.94504,3.22625,-30.59736,-8.57106,0.04839,7.30209,-1.73176,15.35482
3746,10.46241,0.0,0.0,-3.75015,0.0,0.0,-3.49267,-2.67014,30.19132,6.87039,6.75699,-28.02766,-23.01845,-4.70193,-0.00026,-11.3372,-1.9762,-0.00053,31.44045,1.4458,15.33193,-1.22932,-4.42304,-16.92848,12.98796,20.35014,-1.90959,45.62336,-6.23597,31.07355,129.81296,0.00609,-101.45316,116.09274,0.00253,94.33181,-13.16773,-2.1504,-0.02028,-12.48795,0.80157,-0.00253,-8.26056,-8.39132,4.37413,-30.14439,-9.40853,0.94762,7.11686,-1.88118,15.3601
3747,8.70394,0.0,-0.0,-3.50339,0.0,-0.0,-3.19819,-3.11104,29.29336,7.73364,6.50193,-27.37105,-23.10926,-4.61973,-0.00013,-10.55924,-1.82959,0.0006,31.69432,1.85977,15.63753,-0.95088,-4.73942,-17.6545,14.864,20.98509,-2.16504,45.75376,-5.06971,32.20867,129.48552,0.00226,-100.77496,116.54495,-0.00176,95.26631,-14.31189,-0.25096,-0.02694,-13.95301,1.51752,-0.00368,-7.88894,-8.92292,5.51031,-29.79703,-10.32065,1.80425,6.89903,-1.99869,15.1828
3748,7.69313,0.0,-0.0,-3.36714,0.0,-0.0,-3.36401,-3.30723,28.82142,8.66301,6.2987,-26.95191,-23.05033,-4.68319,-0.00056,-10.02172,-1.55157,0.00067,32.00799,2.23964,15.63579,-0.56415,-5.06246,-17.96558,16.66518,21.46993,-2.36054,45.7825,-4.14835,33.38928,129.42555,0.00475,-100.91363,117.04328,-0.00406,96.82066,-15.37853,1.10931,-0.00944,-15.19042,2.13139,0.00123,-7.58394,-9.45897,6.59236,-29.51444,-11.2167,2.60927,6.67413,-2.10756,14.85054
3749,7.39848,0.0,-0.0,-3.602,-0.0,0.0,-3.87906,-3.27858,28.92946,9.59327,6.05174,-26.64185,-22.8539,-4.88978,-0.00116,-9.71687,-1.21115,2e-05,32.42595,2.6032,15.38212,0.00248,-5.38586,-17.8678,18.14619,21.96414,-2.30728,45.78507,-3.27849,34.45229,129.8364,0.01627,-102.05812,117.55306,0.0007,98.53025,-15.65161,1.38237,0.00041,-15.80406,2.69448,0.0067,-7.24044,-9.84163,7.66616,-29.17883,-11.9671,3.46576,6.49248,-2.21269,14.40419
3750,7.59143,-0.0,0.0,-4.22262,0.0,-0.0,-4.50393,-3.23764,29.31826,10.38194,5.73714,-26.17842,-22.65782,-5.09411,-0.00091,-9.51834,-0.90125,-0.00029,32.94726,3.01141,15.1515,0.67363,-5.62117,-17.6264,19.28968,22.56236,-1.92585,45.8003,-2.3527,35.35287,130.52975,0.01683,-103.44336,118.12271,0.00562,99.78735,-14.83381,0.90396,-0.00415,-16.09454,3.22125,0.00484,-6.76008,-9.95265,8.78438,-28.67827,-12.48148,4.46893,6.36417,-2.25196,13.8537
3751,7.5284,0.0,-0.0,-4.75104,0.0,0.0,-4.93199,-3.33999,29.57268,10.88457,5.48842,-25.45596,-22.5997,-5.15367,-0.00043,-9.27044,-0.70829,-0.00047,33.47829,3.53018,15.28066,1.2604,-5.66919,-17.43278,20.28313,23.26215,-1.28341,45.84565,-1.44942,36.22196,131.14865,0.00424,-103.72438,118.81207,0.00094,100.81628,-13.36657,0.38314,-0.0019,-16.61907,3.88664,-0.0049,-6.15576,-9.86654,9.94235,-28.02838,-12.82698,5.58661,6.21689,-2.14169,13.21697
3752,6.92142,0.0,-0.0,-4.75696,0.0,-0.0,-5.10098,-3.52747,29.61086,11.08723,5.4469,-24.59324,-22.65968,-5.06041,-0.00031,-8.90416,-0.66282,-0.00077,33.91244,4.16191,15.86222,1.64329,-5.51145,-17.25213,21.25251,23.96424,-0.56172,45.89964,-0.7765,37.17953,131.52466,-0.0033,-102.28267,119.59431,-0.00822,102.23629,-12.09721,0.0397,0.00448,-17.48119,4.82104,-0.01178,-5.58742,-9.83027,11.01876,-27.41364,-13.18803,6.61074,5.99887,-1.84925,12.57103
3753,6.27557,0.0,-0.0,-4.36574,0.0,0.0,-5.22372,-3.63297,29.66964,11.14495,5.53645,-23.8009,-22.69318,-4.90714,-0.00022,-8.46446,-0.68434,-0.00046,34.23469,4.8239,16.62065,1.85798,-5.2255,-16.94673,22.16778,24.51212,0.03441,45.91697,-0.50316,38.20815,131.74928,-0.00429,-99.86467,120.35217,-0.00816,103.98582,-11.58987,-0.38737,0.00793,-18.29895,5.76721,-0.007,-5.24035,-10.08294,11.80041,-27.05327,-13.70875,7.24905,5.74955,-1.41805,11.99988
3754,6.03334,0.0,0.0,-4.04229,0.0,-0.0,-5.45427,-3.66024,29.9822,11.23587,5.56473,-23.20054,-22.58752,-4.7651,-7e-05,-8.03329,-0.658,0.0003,34.47921,5.42046,17.17215,1.98978,-4.91389,-16.49426,22.9857,24.83848,0.41162,45.89228,-0.6159,39.24734,131.96545,-0.00355,-97.65907,120.95962,-0.00114,105.53918,-11.76184,-0.9156,0.00707,-18.75551,6.30419,0.00024,-5.15862,-10.67195,12.18192,-27.00789,-14.39507,7.38237,5.51333,-0.93992,11.51925
3755,5.87768,0.0,-0.0,-3.97516,-0.0,-0.0,-5.68145,-3.811,30.55276,11.37068,5.54011,-22.62323,-22.34234,-4.62095,0.00013,-7.64952,-0.59016,0.00038,34.62806,5.92526,17.43045,2.06973,-4.625,-16.12479,23.73972,24.99938,0.58919,45.86337,-0.94495,40.24262,132.2245,0.00042,-96.5027,121.35081,0.0024,106.80915,-12.14225,-1.25658,0.0022,-18.90182,6.35354,0.00176,-5.20073,-11.37162,12.30341,-27.11273,-15.08877,7.22716,5.25683,-0.50475,11.13885
3756,5.16127,0.0,0.0,-4.04912,0.0,-0.0,-5.72275,-4.18301,31.24229,11.44525,5.63774,-21.74704,-22.02228,-4.44032,0.0002,-7.31835,-0.58858,-0.00019,34.64542,6.38013,17.62384,2.12308,-4.3497,-16.11623,24.47707,25.02434,0.59188,45.83937,-1.332,41.07029,132.53441,0.00641,-96.77207,121.54656,0.00182,107.82156,-12.36907,-1.46185,-0.00133,-19.00705,6.10642,0.00135,-5.15771,-11.81989,12.41523,-27.11021,-15.54551,7.15892,4.94398,-0.15373,10.94119
3757,3.98985,-0.0,-0.0,-4.34041,0.0,0.0,-5.66483,-4.63658,31.99197,11.45037,5.84001,-20.61264,-21.66093,-4.25737,-0.0,-7.05252,-0.68023,-0.0004,34.57637,6.82175,17.90591,2.23561,-4.0723,-16.3939,25.20167,24.89307,0.43273,45.81149,-1.74901,41.57965,132.9093,0.00654,-97.90157,121.65336,0.00178,107.94821,-12.39793,-2.00315,-0.00178,-19.30948,5.64205,0.00252,-4.94659,-11.82424,12.66261,-26.88755,-15.64005,7.39039,4.63196,0.12702,10.98846
3758,3.2057,-0.0,0.0,-4.97772,-0.0,-0.0,-5.80959,-4.9868,32.71332,11.44339,5.9048,-19.65561,-21.23487,-4.11734,-0.00011,-6.84613,-0.77364,-7e-05,34.48434,7.24959,18.22968,2.45419,-3.78771,-16.60482,25.92934,24.66893,0.16224,45.84275,-2.2422,41.75776,133.30893,-0.00156,-98.52917,121.79354,0.00487,106.56557,-12.36444,-3.17559,0.00057,-19.79067,4.9632,0.00187,-4.68545,-11.5187,13.02877,-26.57605,-15.49043,7.85412,4.38084,0.37717,11.19999
3759,3.31917,0.0,-0.0,-5.71584,-0.0,-0.0,-6.27943,-5.20353,33.16256,11.38499,5.72331,-19.18623,-20.7255,-4.00876,-1e-05,-6.64604,-0.80692,0.00022,34.3341,7.68842,18.48897,2.6909,-3.46184,-16.53373,26.72763,24.47527,-0.14433,46.01373,-2.80042,41.76384,133.59026,-0.00623,-97.93332,122.01072,0.00673,104.15948,-12.3992,-4.68922,0.00354,-20.20132,4.25308,-0.0029,-4.55299,-11.20149,13.38883,-26.39166,-15.3275,8.31649,4.1393,0.65111,11.41327
3760,4.00053,0.0,0.0,-6.13154,0.0,-0.0,-6.84381,-5.42267,33.2226,11.17858,5.4508,-19.11334,-20.16943,-3.91457,-4e-05,-6.41178,-0.82283,0.00014,34.06431,8.19836,18.59147,2.84712,-3.05302,-16.24112,27.62351,24.34439,-0.42951,46.27784,-3.32265,41.7743,133.5907,-0.00198,-96.6619,122.27737,0.0032,102.04705,-12.65315,-5.78997,0.00042,-20.40601,3.89385,-0.00607,-4.60203,-11.05982,13.57232,-26.416,-15.26292,8.54437,3.83761,0.98757,11.5334
3761,4.46684,-0.0,-0.0,-6.04858,0.0,-0.0,-7.17567,-5.78302,33.03491,10.8303,5.26742,-19.08437,-19.64847,-3.82747,-0.00011,-6.17331,-0.88979,-0.00011,33.73547,8.77734,18.56278,2.96679,-2.59343,-15.94698,28.53469,24.23052,-0.65375,46.50005,-3.69139,41.83164,133.276,0.00323,-95.4642,122.56084,-0.00214,101.17227,-13.33909,-5.83304,-0.01348,-20.43216,4.09421,-0.00396,-4.75062,-11.0658,13.46312,-26.57137,-15.22864,8.43894,3.51628,1.34153,11.56683
3762,4.19161,0.0,-0.0,-5.6865,0.0,-0.0,-7.22309,-6.21213,32.71252,10.48554,5.20876,-18.78761,-19.23721,-3.7209,-2e-05,-5.98594,-1.01436,-0.00018,33.50228,9.33868,18.54237,3.17213,-2.17141,-15.84559,29.33469,24.13419,-0.77354,46.615,-3.83917,41.87129,132.79286,0.00398,-94.47764,122.812,-0.00367,101.65293,-14.44062,-4.92602,-0.0224,-20.28317,4.55342,-0.00083,-4.92131,-11.08926,13.10657,-26.76401,-15.1203,8.09335,3.27963,1.60452,11.54333
3763,3.31725,0.0,0.0,-5.42936,0.0,0.0,-7.23147,-6.47982,32.20218,10.30388,5.26067,-18.18994,-18.93887,-3.57437,0.00018,-5.86016,-1.13658,-9e-05,33.42646,9.81011,18.60264,3.48074,-1.84796,-15.92816,29.92672,24.08261,-0.74778,46.65127,-3.78075,41.85855,132.36368,5e-05,-93.62204,122.94221,0.00037,103.23386,-15.51292,-3.83945,-0.01104,-20.04608,4.78606,-0.00157,-5.11558,-11.05159,12.70401,-26.97568,-14.93829,7.7282,3.16704,1.72922,11.47076
3764,2.38103,0.0,0.0,-5.44239,0.0,0.0,-7.41339,-6.53579,31.53798,10.31396,5.43439,-17.53094,-18.67879,-3.42036,0.00025,-5.76479,-1.18343,3e-05,33.38702,10.20047,18.65005,3.7594,-1.62424,-15.98378,30.27412,24.0083,-0.5721,46.64659,-3.64272,41.83281,132.13892,-0.00494,-93.06749,122.90516,0.005,105.36929,-16.06866,-3.23807,0.00374,-19.94474,4.67277,-0.00437,-5.35679,-10.97787,12.46212,-27.22185,-14.78146,7.52862,3.1064,1.80476,11.35331
3765,1.71744,-0.0,-0.0,-5.63432,0.0,-0.0,-7.76522,-6.57352,30.97198,10.40551,5.62434,-17.10173,-18.38581,-3.33841,-7e-05,-5.67305,-1.11928,9e-05,33.22903,10.56836,18.48833,3.87003,-1.45069,-15.81257,30.4201,23.77175,-0.2799,46.62788,-3.60858,41.83597,132.15659,-0.00478,-93.30498,122.76038,0.00437,107.1469,-16.02805,-3.35106,0.00618,-20.10837,4.45204,-0.00635,-5.62836,-10.93093,12.4376,-27.49004,-14.72893,7.52358,2.98351,1.97801,11.18629
3766,1.20479,-0.0,-0.0,-5.89306,-0.0,0.0,-8.19751,-6.69077,30.66277,10.45217,5.56979,-16.98923,-18.05836,-3.37649,-0.00052,-5.58691,-0.94943,0.0001,32.93326,10.95714,18.03962,3.81207,-1.27896,-15.43293,30.47012,23.31464,0.10247,46.63732,-3.74524,41.86502,132.3756,0.00322,-95.00795,122.58785,0.00045,107.8632,-15.65905,-4.23097,0.00117,-20.41455,4.25508,-0.00591,-5.8912,-10.91292,12.55167,-27.74538,-14.75392,7.63802,2.74416,2.28134,10.94609
3767,0.60298,0.0,0.0,-6.12924,0.0,-0.0,-8.68725,-6.75885,30.39692,10.40449,5.15451,-17.01088,-17.72197,-3.47858,-0.00041,-5.51889,-0.70237,8e-05,32.58668,11.35943,17.53626,3.70269,-1.11977,-15.05432,30.5377,22.70601,0.57244,46.69457,-3.9291,41.91625,132.70349,0.01146,-98.41405,122.40807,-0.00295,107.4395,-15.22632,-5.80524,-0.00303,-20.68275,3.89818,-0.00343,-6.1124,-10.89547,12.71297,-27.9566,-14.79666,7.79676,2.43275,2.58242,10.6267
3768,-0.02022,0.0,0.0,-6.22969,-0.0,0.0,-9.26874,-6.69047,29.81425,10.28719,4.62231,-16.92955,-17.37031,-3.52527,0.00025,-5.45939,-0.43973,9e-05,32.27538,11.73854,17.3173,3.66329,-1.00249,-14.83707,30.68409,22.05892,1.13025,46.75831,-4.01001,42.03352,133.05057,0.01019,-102.56867,122.24519,-0.0038,106.36954,-14.78081,-7.67405,-0.0047,-20.95173,3.35008,-0.00261,-6.24873,-10.90756,12.86589,-28.08615,-14.86375,7.9363,2.14369,2.75158,10.2548
3769,-0.41124,0.0,0.0,-6.28944,0.0,-0.0,-9.92534,-6.57191,28.89754,10.18986,4.36587,-16.72428,-16.99371,-3.47734,0.00053,-5.38481,-0.26089,3e-05,32.04745,12.09188,17.39395,3.74677,-0.89282,-14.69093,30.88826,21.46681,1.75312,46.78058,-3.98789,42.2431,133.37215,0.00074,-105.67162,122.17605,-0.00287,105.64307,-14.27601,-9.1968,-0.0025,-21.30083,3.10352,-0.00466,-6.25642,-10.9553,12.97485,-28.09279,-14.94786,8.02068,1.93854,2.81283,9.8903
3770,-0.52631,-0.0,-0.0,-6.62243,-0.0,-0.0,-10.56775,-6.48725,28.00905,10.20159,4.55143,-16.5436,-16.6178,-3.41836,1e-05,-5.28436,-0.23481,-0.00016,31.89189,12.45535,17.47365,3.91523,-0.72556,-14.41499,31.09456,20.97526,2.35623,46.75508,-3.96324,42.45937,133.62761,-0.00652,-106.64828,122.24049,-0.00283,106.03553,-13.81884,-9.96932,0.00211,-21.58068,3.57478,-0.00284,-6.16907,-10.92989,13.0233,-28.00033,-14.94196,8.07617,1.80394,2.86789,9.63607
3771,-0.55039,0.0,-0.0,-7.20015,0.0,0.0,-11.13451,-6.41048,27.3196,10.26607,4.95651,-16.40247,-16.27428,-3.39651,-0.00032,-5.15423,-0.31516,-0.00024,31.74132,12.8283,17.4576,4.06132,-0.49898,-14.04455,31.27056,20.57133,2.82022,46.67384,-3.97092,42.54834,133.75636,-0.00551,-106.07537,122.37761,-0.00259,107.39182,-13.61614,-10.10589,0.0037,-21.67733,4.55825,0.00198,-6.13671,-10.76205,12.98048,-27.95372,-14.77051,8.10033,1.69502,2.9525,9.5557
3772,-0.60986,-0.0,-0.0,-7.56171,0.0,-0.0,-11.65,-6.32464,26.53895,10.23176,5.1894,-16.14661,-15.96202,-3.33348,0.00016,-4.99577,-0.37464,-2e-05,31.55729,13.16052,17.58649,4.11226,-0.27305,-13.82438,31.38824,20.22452,3.12825,46.50871,-3.96314,42.49714,133.75478,-0.00169,-105.267,122.50958,-0.00195,109.23164,-13.64222,-9.96112,0.00253,-21.859,5.72976,-0.00179,-6.32529,-10.58421,12.75699,-28.13691,-14.5238,7.95789,1.61432,3.03722,9.5702
3773,-0.66719,0.0,-0.0,-7.52493,-0.0,-0.0,-12.1581,-6.32531,25.42632,10.10266,5.08023,-15.7577,-15.66905,-3.1719,0.00066,-4.82598,-0.34509,0.00019,31.39121,13.43188,18.01504,4.1089,-0.08302,-13.8305,31.42135,19.92603,3.4033,46.27624,-3.93613,42.43979,133.72427,8e-05,-104.90488,122.61175,-0.00144,111.21485,-13.56987,-9.86091,-6e-05,-22.48452,6.95218,-0.01038,-6.75675,-10.59162,12.27973,-28.59354,-14.35627,7.50533,1.61058,3.10628,9.51959
3774,-0.69856,0.0,0.0,-7.41827,0.0,0.0,-12.64659,-6.50323,24.19318,10.04088,4.7891,-15.44854,-15.41997,-2.99884,0.00043,-4.65686,-0.27874,0.0001,31.31853,13.69236,18.54456,4.13131,0.10184,-13.88058,31.4073,19.67394,3.73998,46.04053,-3.94501,42.47742,133.76506,0.00054,-104.93534,122.67393,-0.00016,112.75655,-13.15812,-10.12209,-0.00514,-23.3632,7.86939,-0.00941,-7.27415,-10.80533,11.61604,-29.16272,-14.31176,6.7985,1.69719,3.17971,9.31862
3775,-0.81281,0.0,-0.0,-7.48805,-0.0,0.0,-13.06737,-6.79548,23.18832,10.09033,4.58047,-15.38208,-15.25881,-2.93942,-1e-05,-4.47854,-0.24717,-0.00011,31.32098,14.00396,18.90051,4.17144,0.31776,-13.803,31.44575,19.45782,4.0792,45.82994,-3.99376,42.53183,133.83807,0.00041,-105.20713,122.70679,0.00252,113.23389,-12.59105,-10.85813,-0.00723,-23.75935,8.00838,-0.00817,-7.68342,-11.06152,10.94681,-29.62493,-14.30418,6.07071,1.80536,3.27799,9.02666
3776,-1.09666,0.0,0.0,-7.59139,0.0,0.0,-13.42132,-7.03339,22.49364,10.10836,4.58093,-15.46454,-15.19677,-3.01195,-6e-05,-4.28597,-0.23789,-0.00015,31.28528,14.37538,19.03745,4.1302,0.54747,-13.6198,31.6299,19.25264,4.27159,45.62658,-4.04176,42.4363,133.8019,-0.00013,-105.59406,122.80443,0.00675,112.64216,-12.28524,-11.74988,-0.00254,-23.14279,7.46008,-0.01311,-7.90975,-11.16878,10.42055,-29.88169,-14.21058,5.53517,1.82329,3.39644,8.78922
3777,-1.44569,-0.0,-0.0,-7.56251,-0.0,0.0,-13.77517,-7.11421,21.96594,9.99722,4.68912,-15.48125,-15.22733,-3.13002,2e-05,-4.10297,-0.18453,-4e-05,31.15907,14.75636,19.026,3.94409,0.75107,-13.48788,32.01232,18.99311,4.18508,45.43143,-4.11487,42.14589,133.58656,-0.00017,-105.8909,123.07095,0.00625,111.89046,-12.48447,-12.38909,0.00189,-21.71397,7.01978,-0.00438,-7.99573,-11.0343,10.08099,-29.9672,-13.9612,5.26847,1.68629,3.51991,8.69741
3778,-1.6912,0.0,0.0,-7.50676,-0.0,0.0,-14.14949,-7.14309,21.47369,9.85117,4.68114,-15.3757,-15.3626,-3.17777,-0.00034,-3.96283,-0.04461,-0.0,31.04217,15.06011,18.84661,3.66755,0.90194,-13.51066,32.56665,18.61045,3.79635,45.25945,-4.28833,41.80517,133.27963,8e-05,-106.02167,123.47284,-0.00392,112.399,-13.1415,-12.73613,0.00304,-20.25535,7.41316,0.00794,-7.99664,-10.71999,9.90021,-29.94555,-13.6033,5.21995,1.43238,3.63218,8.6885
3779,-1.84313,-0.0,-0.0,-7.57787,0.0,0.0,-14.48449,-7.29503,20.98657,9.82311,4.44397,-15.28347,-15.58414,-3.1076,-0.00095,-3.86654,0.16849,-4e-05,31.04069,15.22867,18.48137,3.41048,0.98012,-13.62277,33.1362,18.15429,3.28692,45.0892,-4.54285,41.61343,133.04291,4e-05,-106.08321,123.86656,-0.01081,114.69184,-13.9673,-12.97065,0.00236,-19.54595,8.46633,0.00261,-7.94101,-10.40828,9.80779,-29.86529,-13.28023,5.25304,1.16355,3.70518,8.61136
3780,-2.07585,-0.0,-0.0,-7.74591,0.0,0.0,-14.76775,-7.46978,20.54325,9.94462,4.08018,-15.32331,-15.79355,-3.03023,-0.00101,-3.77319,0.39628,-2e-05,31.11113,15.31672,18.03227,3.23745,0.9912,-13.67786,33.51427,17.80597,2.96869,44.8923,-4.72523,41.65809,132.96704,-8e-05,-106.08968,124.15337,-0.00488,117.17713,-14.5352,-13.14551,0.00062,-19.79469,9.2358,6e-05,-7.87257,-10.24309,9.70417,-29.78599,-13.08892,5.21924,0.96936,3.71972,8.38884
3781,-2.44239,0.0,0.0,-7.94725,0.0,0.0,-15.05793,-7.41521,20.18837,10.14775,3.79584,-15.52795,-15.91933,-3.10059,-0.0007,-3.65147,0.58988,2e-05,31.13833,15.43956,17.62082,3.12294,0.97459,-13.5944,33.63207,17.69292,2.98855,44.68166,-4.68845,41.86259,132.99895,-9e-05,-105.88366,124.33246,0.00405,117.35306,-14.59866,-13.22303,-0.00029,-20.57093,9.01083,0.00813,-7.8597,-10.20397,9.54032,-29.7753,-12.99245,5.08066,0.86879,3.6944,8.08041
3782,-2.71683,0.0,0.0,-8.16588,0.0,-0.0,-15.37663,-7.16292,19.84248,10.36626,3.72941,-15.88303,-16.04681,-3.27334,-0.00047,-3.5218,0.75542,3e-05,31.10046,15.62727,17.33238,2.98598,0.95993,-13.41021,33.6028,17.75428,3.18218,44.48419,-4.43467,42.05089,133.01184,0.00062,-105.3287,124.43731,0.00616,114.55755,-14.33099,-13.22886,-0.00044,-21.19838,7.94732,0.00583,-7.93301,-10.17398,9.38746,-29.8511,-12.90847,4.94893,0.80808,3.667,7.79691
3783,-2.69628,-0.0,0.0,-8.34764,-0.0,0.0,-15.6815,-6.94322,19.33014,10.55669,3.85925,-16.28593,-16.31029,-3.36314,-0.0006,-3.42028,0.91099,-1e-05,31.08371,15.83198,17.20091,2.80689,0.96236,-13.23299,33.56299,17.84406,3.28619,44.30695,-4.1046,42.09056,132.93799,0.00138,-104.57661,124.48216,0.00275,110.59506,-14.10409,-13.22288,-0.00124,-21.36139,6.60189,-0.0028,-8.03951,-10.07337,9.31334,-29.95144,-12.78789,4.91801,0.75411,3.66441,7.61339
3784,-2.48071,-0.0,-0.0,-8.34136,0.0,0.0,-15.9264,-6.86101,18.6089,10.64905,4.03799,-16.53146,-16.69672,-3.31996,-0.00066,-3.35177,1.0317,-6e-05,31.13946,16.04389,17.18136,2.65949,1.00522,-13.17861,33.54037,17.89646,3.20223,44.14401,-3.83692,42.00299,132.80984,0.00082,-104.14158,124.47552,0.0004,107.76557,-14.04895,-13.22588,-0.00262,-21.29428,5.33438,-0.00418,-8.09474,-9.90348,9.22048,-29.9954,-12.59616,4.89601,0.73819,3.69084,7.55771
3785,-2.24134,0.0,0.0,-7.94178,-0.0,0.0,-16.11136,-6.91734,17.80665,10.54257,4.11743,-16.42233,-17.08768,-3.23887,-0.00026,-3.30546,1.09002,-7e-05,31.20523,16.29136,17.24604,2.5943,1.08856,-13.33825,33.48078,17.95686,3.04158,44.0114,-3.64315,41.91573,132.70322,0.00024,-104.50675,124.46436,0.00036,107.04572,-13.89531,-13.20482,-0.0024,-21.2382,4.40807,-0.00078,-8.07582,-9.72337,8.98878,-29.96898,-12.34389,4.74785,0.76638,3.72683,7.59856
3786,-2.03688,-0.0,0.0,-7.30906,-0.0,0.0,-16.26959,-7.09413,17.07843,10.26903,4.07403,-15.97645,-17.43466,-3.18304,4e-05,-3.28221,1.107,-7e-05,31.23083,16.57528,17.38828,2.59911,1.18201,-13.68133,33.33081,18.10007,3.00143,43.97102,-3.43475,41.91935,132.68214,0.00048,-105.35142,124.52631,-0.00141,107.98671,-13.32694,-13.04602,0.00203,-21.08201,4.17684,0.00656,-8.0331,-9.60153,8.74673,-29.92382,-12.14187,4.56778,0.79757,3.75549,7.64384
3787,-1.94488,0.0,-0.0,-7.09369,0.0,-0.0,-16.42093,-7.24622,16.51007,10.06315,4.03095,-15.44128,-17.78329,-3.14779,4e-05,-3.27901,1.1169,-6e-05,31.28134,16.87439,17.52698,2.66737,1.28097,-14.05503,33.09173,18.33599,3.17366,44.05801,-3.17047,41.98113,132.77016,-0.00125,-105.55821,124.6907,-0.00446,109.75957,-12.46802,-12.64215,0.00695,-20.63592,4.85932,0.01803,-8.01857,-9.57487,8.78113,-29.90612,-12.12978,4.61013,0.8256,3.79221,7.62967
3788,-2.0203,0.0,0.0,-7.67668,0.0,0.0,-16.55158,-7.16982,16.08262,10.09703,4.10572,-15.01106,-18.17289,-3.12662,-1e-05,-3.26907,1.13025,-3e-05,31.4145,17.17207,17.58477,2.78014,1.40702,-14.36879,32.83671,18.58988,3.41888,44.19653,-2.92487,41.99424,132.93153,-0.00407,-104.45458,124.8889,-0.00442,111.81911,-11.88308,-12.13143,0.00585,-20.00289,6.22781,0.01921,-8.04574,-9.64093,9.15611,-29.92685,-12.32888,4.93598,0.87098,3.8644,7.5945
3789,-2.19898,0.0,-0.0,-8.76642,0.0,-0.0,-16.60495,-6.94213,15.74489,10.275,4.23943,-14.69843,-18.59606,-3.12998,0.0001,-3.21325,1.15824,7e-05,31.56328,17.44892,17.56534,2.85105,1.55391,-14.63247,32.6625,18.78533,3.48479,44.27218,-2.78148,41.91394,133.07918,-0.00338,-102.55263,125.02764,-0.00154,113.69634,-12.08513,-11.80324,0.00285,-19.59916,7.74677,0.00324,-8.10979,-9.76001,9.60363,-29.98562,-12.60377,5.30977,0.90845,3.9666,7.607
3790,-2.40796,0.0,0.0,-9.84075,-0.0,0.0,-16.51565,-6.89037,15.50562,10.39018,4.3003,-14.46299,-19.03631,-3.16498,0.00027,-3.09743,1.21828,0.00019,31.63295,17.67919,17.48243,2.80288,1.68353,-14.83632,32.6082,18.90939,3.28396,44.25111,-2.72779,41.82549,133.11566,-0.00049,-100.90938,125.10893,0.00056,114.83767,-12.97961,-11.65892,0.00096,-19.78774,9.03174,-0.0113,-8.18842,-9.87621,9.82688,-30.06607,-12.79356,5.47464,0.89563,4.05817,7.67583
