PaulMeinheit/Bachelor_Muay_Thai/processed_Data/E3/teep/scaled/JointMoments/scaled7.csv
R_KNEE_MOMENT,R_KNEE_MOMENT,R_KNEE_MOMENT,L_KNEE_MOMENT,L_KNEE_MOMENT,L_KNEE_MOMENT,R_HIP_MOMENT,R_HIP_MOMENT,R_HIP_MOMENT,L_HIP_MOMENT,L_HIP_MOMENT,L_HIP_MOMENT,R_ANKLE_MOMENT,R_ANKLE_MOMENT,R_ANKLE_MOMENT,L_ANKLE_MOMENT,L_ANKLE_MOMENT,L_ANKLE_MOMENT,WAIST_JOINT_MOMENT,WAIST_JOINT_MOMENT,WAIST_JOINT_MOMENT,NECK_MOMENT,NECK_MOMENT,NECK_MOMENT,L_SHOULDER_MOMENT,L_SHOULDER_MOMENT,L_SHOULDER_MOMENT,R_SHOULDER_MOMENT,R_SHOULDER_MOMENT,R_SHOULDER_MOMENT,L_ELBOW_MOMENT,L_ELBOW_MOMENT,L_ELBOW_MOMENT,R_ELBOW_MOMENT,R_ELBOW_MOMENT,R_ELBOW_MOMENT,L_WRIST_MOMENT,L_WRIST_MOMENT,L_WRIST_MOMENT,R_WRIST_MOMENT,R_WRIST_MOMENT,R_WRIST_MOMENT
X,Y,Z,X,Y,Z,X,Y,Z,X,Y,Z,X,Y,Z,X,Y,Z,X,Y,Z,X,Y,Z,X,Y,Z,X,Y,Z,X,Y,Z,X,Y,Z,X,Y,Z,X,Y,Z
-4.659160000000001,-3.3750200000000006,-0.01116,0.39142000000000005,1.71567,-0.45460000000000006,-13.191440000000004,-28.104010000000006,0.3616300000000001,29.080820000000003,-6.336930000000001,-3.8734300000000004,0.15080000000000002,-0.3958200000000001,-0.28512000000000004,0.3795200000000001,-0.24842000000000003,-0.04506000000000001,15.856690000000002,-48.888110000000005,-6.555799999999999,4.46606,-52.74049000000001,14.11342,5.835890000000001,-10.612880000000002,6.115620000000001,0.36317,-7.377960000000001,-2.9020500000000014,-4.289830000000002,-1.5460000000000003,0.5668200000000002,3.8452400000000004,-0.44374000000000013,-1.8057700000000005,-0.09286,-0.5256200000000001,-0.12264000000000007,0.5798600000000002,-0.15491,-0.28008000000000005
-2.2433102738007005,-1.7643039834743985,-0.20499426526555187,-4.2236081698427,7.755301791200487,-0.2240335592145503,-7.844143247770942,-11.52979464541188,-1.454234259401069,9.071837339169011,15.593387161500797,6.620786274668456,0.6946903228064987,-0.5396258868522337,-0.06852678334298873,-0.07292577585946339,0.4385071329147303,0.020936490714796547,1.5349769472329449,11.850085293493926,10.867918281634443,37.06902513358413,-93.0613986948693,-10.545117295553744,3.660229562610716,-5.654608096310499,-9.146691992609979,0.5624744801522986,-3.3253146577392565,1.3944509802155882,0.48439237240559513,-0.03875927550350333,-5.428047820163173,-1.1342871259560008,-1.1164731610432863,0.984903334869795,4.0252979136817,-0.2210723907498998,-3.798676788455235,-0.47261768019918143,-0.1897940209739794,0.290407839067891
-2.8444847654211403,-8.983697365540648,1.1325029156139448,0.6048197436139771,-2.128717245648061,0.42516776808654555,-7.793288646287296,-34.790942985276004,2.5082733270009587,27.30660145356922,-19.86772085054249,-6.873068834647072,0.23784177178574312,-0.9620848203327307,-0.7115723359083799,0.4488943977585625,-0.5235675975852218,0.036252038581535403,19.829003161076226,-68.15736536492356,-4.9251950164149605,12.362936178093122,-60.26344215282794,3.23453242913598,-1.102835345993378,-2.766156896801114,-0.1739202432174114,5.060205859343629,-5.271495485479888,0.5382938730128639,-5.649728394382517,0.7601806209662472,0.8276408396389259,2.1447471803308686,-0.8347528270311004,-0.02925954717358991,-3.661188779566754,0.06332613617917071,2.795149294033854,0.49805106266666727,-0.1562656293403933,0.013251787420111183
-0.7919340706958671,3.2357002842964833,-0.24172843034690036,-4.893183127280568,3.1187218675386554,0.6742967267031479,-2.4243715957345695,-1.7675352604381034,-0.31047100637355357,6.197200390135474,3.569847312689182,2.4272670595907937,0.6110547366002723,0.062473459289358935,0.8364011433192584,-0.02530700247750926,-0.22126435976232173,-0.062176952376501095,7.490687811997937,4.3654507626737065,5.741090015618395,23.664417619475024,-60.326687747705904,2.9350628014918705,4.916332148331217,-1.086713159806719,-1.3650592667091155,-1.360484519704678,-6.093270809886296,-2.2386282757968305,2.1323635921328057,-0.09653100486961613,-4.942163546632304,2.5458976207538733,-0.18713959994598017,-1.2116828927604357,0.3770875667065577,-0.31701093760935856,-0.1382735951711433,0.20005016578876486,0.1659694561369839,-0.23075789558041193
-0.1930871631379006,-1.8177286660462058,1.010888230379974,-0.6728894400165621,-0.9321798103292772,0.3493142647138582,0.7968711002522298,-17.06949043301813,5.320006738164721,18.50439116752848,-16.17764534733259,-9.054232624494269,0.5313679471485481,-0.3375863548154807,0.409400929503022,0.02220955584278412,0.005499570968041155,0.11407250797100457,17.19961182585805,-40.96570222873928,-4.296384220402929,8.51951893025112,-70.00529218975063,3.879909945618449,6.179043906102191,-12.61882873033116,1.6686044500515258,2.76034800953376,-1.5559381932244172,1.8110785198179509,-3.3202916563958667,-3.618159665630615,-1.3091805791801465,0.4562394185021258,-2.4084938470548742,1.168441184164501,0.9436681876167852,-1.5949990252362178,-1.206531805821561,0.05461150397415447,-0.44067510543291744,0.2255070290789854
1.891380591478283,-0.7363141982992026,0.47468919766261514,-1.1719879184821567,3.851448482428168,-0.11494057313088898,10.165970923445652,-4.920540127189161,2.3173014630449433,26.790882959452627,3.4438731362474857,3.1431479560887006,0.33209719636836843,-0.23713829701026665,0.23766734151864755,0.26777417063253695,-0.3356126338090192,0.012759001521832975,48.81453260508194,2.7274176526757485,9.758720932781229,-31.787172145934782,-28.241471313619176,38.65951456356978,8.037541928785117,-10.012702586507997,22.085643897282747,3.3217554675218786,-8.91290136237006,-0.9068058737666518,-7.000618748814357,0.47086490278591453,7.224295331268146,1.8731407186627322,0.3481983868412779,-1.1723483769723035,-0.8854367190938359,0.7058243176357549,0.7728607063236761,0.1438020969973082,-0.054467466142121015,-0.11409599792861802
-2.914959493582638,-2.6572037171831266,0.19060037582832096,-1.8838662620119548,-1.3617530997162086,0.670354178299643,-11.149075352758778,-21.316124661021078,2.268812042446424,18.84949662953321,-12.980219893709018,-5.931924001708628,0.3029303000428129,-0.5060481226365028,-0.21267647333122772,0.24029606016634672,-0.3437663424591825,-0.04881710287261707,4.079199639027321,-41.477328866313,-8.395056194776249,49.726707163442384,-31.479856897200154,-20.80848423728539,-1.9853128042863963,1.725209191983498,-11.97572189181829,1.945855137635551,-1.9375348302224014,0.8991406583560642,0.34961592691536625,0.7607783494181344,-5.830327173670415,1.0323554982436056,-1.9025720648309925,0.5703000895579311,-0.22821524639123011,-0.14802550237100148,-0.4561931397760597,0.3030222762971831,-0.32775138401673093,0.04519779871513476
1.0569607931537648,-2.2636385174181703,0.5848333463389821,-0.7831776418790869,2.807283953343835,-0.2646132434969657,2.9860087828841646,-5.553454398178767,2.2346164720023176,11.16662081928688,3.922293117706558,-0.2592868011542577,0.634907816111082,-0.498872099250797,-0.02603546168970698,0.11763816724510476,-0.08833661814464146,0.00954101945723188,14.296507623885823,-0.8301820977541623,5.178507521272354,37.40695280844172,-36.62458942554102,-1.7784047200401643,1.7366283162646763,-3.7696007294483023,1.2470458788830467,0.13950914016617755,-2.6765065400331425,-0.12840668805644495,-2.6680399253815783,-0.30538326727392523,1.753344984191814,1.556007560417513,-0.8276896326965685,0.23094533161206388,-0.4260010758133588,0.45074109537265206,1.1196576789093708,0.17612894707193877,-0.010899030758303029,0.058909993228493045
-6.941353142343494,-2.3545993141455397,-0.538957305082857,-4.431290682434014,0.8278715940921668,1.2684227940194577,-15.554283638142847,-16.5633444762283,-1.8883285629990685,11.884722180914071,-7.871286652503996,-0.719552389985465,0.16398749798306922,-0.4790576932374809,-0.1782669323692112,0.08011098847362497,-0.07142511441567093,-0.020861304555783312,2.4846453206192827,-25.49967902957625,0.8172533543882711,-13.594883154176944,-34.52038527263026,28.613744177554306,2.4959837234265456,-1.8962735561295563,6.811570012233025,0.49295847113946734,-2.486601557898195,-0.5062002982863064,-2.418361384101062,-1.0064668755442823,-2.5612599163209846,1.0400848563971885,-0.19820231506211303,-0.252193040362184,-0.9480223246213958,-0.503680321731444,-0.13871072144104582,-0.0666099062377013,0.16660168116106952,-0.07736165534952312
-2.936800315601824,-0.7351185390143901,-0.2613135887102962,-0.07223119064518406,4.533665023822646,-0.5680175587823448,-9.541206639783976,-10.995824726013659,-1.1517297448626618,21.219297293672213,8.276848173741454,0.3398164115604731,0.4182047135509807,-0.40191863977755815,0.040632410911654905,0.20460439759673457,-0.12090699659577608,0.0807368082975655,10.57379200812836,-5.726908509447161,-3.1326891112243533,43.126124933200124,-47.972603560335536,-23.96192294475066,4.506957621279987,-4.332752232832642,-7.759348445380899,1.9948699357559507,-4.020389086840863,0.8742322863469928,-0.5742593019151654,0.49139952901731243,-3.339655422961912,-0.09818774059264734,-0.2351454965264187,0.1577487245273864,1.397952833522275,-0.0027863241815215614,-2.1900078126254106,0.1079642942066311,-0.1770408650245321,0.0673709752295778
-0.6967841023082961,-0.6441058795622048,0.18415363042032845,-1.8392814323840572,1.265047475874397,0.46982883178492374,-4.189918233858082,-5.905841873049278,0.4253470030116947,17.41070070931909,-5.354540596800786,-1.2578050856321465,0.5804938786790748,-0.3107750257050985,0.14822721755019622,0.15535436512343526,-0.33698336115778477,-0.02788374774145286,14.705957187051416,-12.803091277228758,-2.959599850565411,12.861298191008984,-12.251130830338678,-2.3769671480935446,0.5927582759852525,-2.3013692321374295,0.2356614785462285,0.7774292412788029,-2.7264228212886987,-0.4008830215285401,-1.5425423567370675,-1.4983769695789892,0.13579025197270392,1.55243536311942,-1.0745751424404657,-0.04483909974882751,-0.5077458016559341,-0.13397386227699148,0.9668138033273758,0.06821778569728668,-0.04905544587767944,-0.059508247604533
-3.9511007553122215,-0.9148775266691718,-0.3750685194397841,-1.885452252408554,3.6027061753414698,0.13464533298386241,-11.087767563002405,-7.22635960855408,-1.4185200737891646,23.75830887152411,4.791139672910798,1.2520554196018767,0.28540518653846597,-0.6055704276464929,-0.08763443091506784,0.18790652521657264,0.06969117447916043,-0.05041096398498399,17.104440765041055,1.167215369319364,0.73618611662212,12.918345766759582,-43.354725970369635,9.517740810440621,1.2118892258311218,0.40312834953331433,3.493678691902583,3.669942744193616,-5.38738633706283,1.034629809605267,0.20830741981404027,-0.14167505833883845,-0.09783707176950615,0.7620936536900768,-0.3567856521358954,0.38303077879796643,0.00430399231427296,-0.04258349365119242,0.1361084086535164,-0.06235750598485075,-0.058273462233074586,0.16200406560610106
-1.133342126329781,0.2806998738043116,-0.3271416325029471,2.0635780217998803,0.782334874086237,-0.4419493536614985,-8.261106590872215,-4.540131869578882,-2.1693485968999875,20.88647901769368,-4.868489161455198,-3.290490416605979,0.4299487528018995,-0.2889340721861522,0.0500694185826655,0.655113508362973,-0.29828197522446426,0.05704847571614716,12.367288777229232,-10.938912326199869,-7.218171277221466,20.321715735366826,-9.178131403455275,-1.8023805117536313,3.0155002877648354,-5.557260844472509,-3.2401658785225185,4.116180610874999,-3.7004626905439966,-0.5426697466899624,-3.6151008265420703,-2.2482077907927436,-1.1350015131719229,1.632029876010739,0.9600452661974747,-0.9259284205187119,-0.35743793957647113,-0.14237132051499654,0.004980872772787189,0.15770865522624886,0.27866942166146424,-0.2048850886276484
-3.55471253516799,-4.2628639785998335,0.8358070525483533,-1.2312076006792843,2.9328738039779068,0.09663022942436818,-2.4806433072333225,-18.560918388784422,4.229452567883828,14.931056012418322,1.8151061756392146,-0.12352121811431203,0.48838957130762184,-0.5840914623648203,-0.08818911705387529,0.1998361801506517,-0.05823750667715619,-0.05472339186015394,13.934469586254869,-22.287087067856316,5.490473473248142,35.02598106474949,-43.00627348121629,14.562987771030656,3.1295092951967094,0.25164247009284657,13.076724835824917,1.4420532522601055,-1.9478084843179924,0.43220122935156363,-2.862965744130612,-1.088077151507057,4.937009506911352,2.8162835096829584,-2.6993337553925603,0.5813739432110733,-0.8956727380062048,0.2579875252939227,1.8622548245177306,0.8403174060340443,-0.35912311319689166,-0.05492703861484101
-0.4549336145498122,0.6260482872407114,-0.3726664003664083,-2.657963559431858,4.264355242048347,0.5632681655088992,-6.591420497362591,-2.0168596656890365,-2.0794160409038525,13.769142440185975,4.118181504646192,0.7572386368315353,0.40818521026373084,-0.32199755373297784,0.035257797642917525,-0.039372623173087117,0.12829867876484663,0.18098668290429987,8.083734057132224,3.168842865760091,-2.0675776456575736,20.72505576204598,-20.94656667555701,-9.527435572587178,0.8036284759630768,-1.2609800245453282,-4.293260389306703,-1.162381817458885,-2.382926149931702,-1.1128451006648439,0.28846648553505266,-1.3400782137951412,-5.85591960571082,0.4745392145537801,0.344457521430953,-0.024743442742411824,0.577164814873284,-0.5063513000996674,-2.01909728874203,-0.4483462693708292,-0.04336083580219445,0.16232826862355276
-5.930413184703714,-1.5513687927211703,-0.021327943577371503,0.06590067633075616,0.7585391941599116,-0.3274430050096008,-17.649086665680237,-10.936957839354449,-0.3369348784933762,21.42663277023124,2.20646223877985,-1.539002438787291,0.13696301588868393,-0.4121972896732349,-0.11105268368424807,0.47421334227396444,-0.4489406867769696,-0.1834029144628445,4.820984031717964,-10.001932387572259,-2.375238553091864,0.7583537611433275,-28.15076741346378,-19.56271751791396,2.4101175894296962,-6.536878719637202,-3.92161356246422,0.8642707383306794,-0.9333475438728173,-0.783581735306228,-2.998021284795915,-0.9053115047888636,7.542291991896552,1.470562150879588,0.757525227491324,-0.18871845978040935,-0.7689848641129299,0.08969118037519719,1.589761384025162,-0.11113579506771805,0.23017297809896056,0.007052937423791381
2.069396495055824,0.36689478994112074,0.15551973345801884,-1.347366111185344,1.5215445045059948,0.6672005765173115,8.573584207495347,-2.8935201294584774,1.1926029532276103,15.526473019650194,-3.674711518223163,-0.4443730810249118,0.8805428518518801,-0.3317657187087464,0.29563556844841904,0.398244877114109,0.03748732218015959,0.07625423156604225,27.107055271788262,-7.045778974891996,0.6439970210168108,3.053747407270611,-16.44709005013913,17.56719425918234,0.06281689372888791,-3.7466438660977794,-1.132680648828877,9.30151888201577,-5.610771612881546,1.5237254042504162,-2.0972707939573634,-5.15468360832548,-3.8507273709966308,0.1420634434544326,0.8343026861548389,-1.1429124006231153,-0.3053798862981566,-0.8616586414999966,-0.6767272931535924,0.5757438791315824,0.1954456645228137,-0.37171421492105
-4.890987160232686,-2.0877007666328407,-0.021538420741265822,1.6300527283026147,4.636630356705471,-0.4357147371169749,-12.596614021873995,-13.75766699403127,-0.3440963912641348,29.672412097315856,8.139380843294118,3.1003293915534935,0.0711899961541855,-0.40573540234551897,-0.2420669714317547,0.2004137967214075,-0.011880396272918377,0.015757980777756125,22.967403705566515,-5.4333124475744015,5.083621763820988,62.56826153932467,0.6643953302639986,-14.953529811948563,9.978746902752336,-10.129101573314305,-10.145750376159674,-2.947917327742316,-1.9066071973740872,-1.8474070356684182,-1.7544037299391402,-7.331113707014992,-3.5692863697479216,3.328105802885442,-0.6479308141342939,0.7470276186747614,-0.22460790500405187,-0.7166765271350916,-0.3887122447072791,0.1618162810867668,-0.1223813720688355,0.24605165626256512
0.14644169611099522,2.2195392520578263,-0.49247673580561285,-0.9419136557660309,1.3655754368428992,-0.008670843061543879,-0.005220718512896891,4.985976143722522,-2.03754637331739,1.3005785234154335,5.58968904866888,-0.23945998980196145,0.682287368768139,-0.3039630976540746,0.284364258751091,0.42973592770911434,-0.09325414655588136,-0.06233381407113277,-3.9531601470406743,7.058165257790803,-1.3703093354623155,-14.347401282524189,-33.40098962869277,6.456135361586968,1.5272616720497498,2.8458119445397076,3.189025820025187,7.014056697579762,-4.055718127953968,1.199894311592638,-0.5882290157828359,-1.2153624339308857,-0.654692786674005,1.1559638353528159,-0.2880123656619786,-0.25721919675763066,-0.09583833837961006,-0.25308408788538056,-0.3905201659574809,0.019573025224728136,-0.13478003028958396,-0.044540490368531555
-3.0914411611392576,-3.313505637237891,0.5061047098793943,-0.7066051021822681,1.997492337337118,0.4590080259649659,-5.046315943962838,-9.662157457914667,2.007325468864117,31.495689305503333,-2.0359627385469645,-2.184790567616905,0.08399441785670794,-0.5991930511394901,-0.2684015046194245,0.14797034090527053,0.06807797480596216,0.21785351425760735,31.71514286814619,-8.718154726589617,-2.408247615451632,41.8655935008074,-28.476097837318534,-1.2435889433782927,4.378716646082291,-4.940309446066687,-3.047584505786523,2.464529918855191,-4.170312578387964,-1.4384748595552512,1.1214271331132644,-4.869206977258284,-1.9841819148383248,2.742778586169573,0.6991653822532679,-0.5672171524565232,0.060277733839285676,-0.8656506605391125,-0.30078037920480244,0.415360205516838,0.036578438010841305,-0.04900799097484089
-2.0519118409661545,1.3156458462541534,-0.01134689818183894,3.19247764495745,0.3977065247812466,-0.8547865346599147,-4.033750545362992,-2.68519121804757,2.40193252794149,35.82724827036535,-2.056074442999985,-3.3431749318094433,0.776039770183697,-0.3564739265905214,0.0793523708498123,0.7862578709026492,-0.42730490418136313,-0.21339246297430345,42.92754769015606,-1.6052110320883202,-2.0400404915371118,17.93949810175031,-2.110076565757719,-10.486534366601758,8.88560285259141,-4.188362498805297,-7.2729076162724695,6.889698911697096,-2.2377910155746683,2.2466972776878986,2.1429963460578145,-0.9951020515085371,-2.2603071181406773,1.2250479266808751,-0.1100175101740658,0.24152273235705798,0.06328941206577567,-0.12214418771867502,0.0004583972089794719,0.6176217414495048,0.1491227908646851,-0.02915152668401902
-0.6453402781039179,-0.9631745437127578,-0.029694967933643998,-0.36360075795547897,2.143674283353856,0.4675027641040091,-6.156245569074328,-7.959763787086085,-2.0450617729745204,20.961650783870628,-0.8417659533030855,0.18916099079695642,0.3101338426014319,-0.27081993613468214,0.03620224089649528,-0.03378702197448595,0.06406216496583232,0.17699273720520411,9.203300346262015,-18.037118292211364,-1.361545765525616,27.287323384712643,-40.90819488620919,13.791545193485126,9.033906653102829,-1.3310681910269977,0.2708157468362634,2.4810644345265778,-2.146182280107361,0.847051286080314,0.5602016200602452,-4.665061973823976,0.7439150023194505,1.3565710900330932,-1.1090766011010036,0.7151461856158448,0.06610483262805195,-0.8018509478758397,0.052266006605472204,-0.19446261124448014,-0.20094274539536985,0.1283617009160261
-2.520490082311742,0.30159751888665487,-0.10611251298197484,0.6822140168896849,-0.8529096089038067,-0.12713818187607762,0.3636809528108974,0.5658858613746873,0.5879443250980393,27.968651836488068,-0.6419211534558629,-1.3718493621187284,0.4098334669088445,-0.47957288505690643,-0.04058619139350915,0.6183263224232836,-0.30894416152814597,-0.12162087791272393,39.06019053240213,2.5450867646987247,0.36248183665292344,34.84692672105768,10.4004173446074,4.422998590987813,3.4154899885013585,0.6871919614315584,-2.7152560475731526,5.643918239533976,-5.043152331199525,1.3143530748167258,1.0962064231255733,1.347620927623518,-1.8467698655000093,1.6381355949160714,-0.06700538524585162,0.6579737189265021,-0.04443126536319049,0.7606444656375261,-0.3722532835340516,0.42114867021986596,0.01665341321798823,0.2139415950792077
-0.984627748532219,-0.7919140929225189,0.1506538589491538,-3.9990816283442623,0.42701530378802477,0.9933745865655589,-0.7941306726762769,0.34582033939989854,-0.6941047803951891,5.6360025608242905,1.3931538878350966,2.0585662652030656,0.47438845882043656,-0.23398402817467975,0.08993596045530353,-0.15806386811677142,-0.08518253093614445,0.08442426322552375,4.390425627343189,6.1832051827116095,1.8295337880224076,-1.5083487811317244,-14.907784598539507,-29.173999100046778,14.262762997559559,-2.4815705713701974,-3.2640961544987346,3.395977237124415,-1.2493635066124031,-0.25261793066976046,1.6566565229737127,-2.3464783527816984,-0.19682442696179472,2.8505566105367235,0.04399774823510316,-0.10716823905768098,0.7392581017350676,-0.5420302473743603,-0.3087539388130491,0.2560386270760094,-0.01871141401191167,-0.0578123187776416
-2.7791378590996723,1.338901864828232,-0.2656896703444297,5.112153543677132,2.940797328585204,-1.5156656402910975,-8.047572017412087,-1.8900794168748827,-0.05792058537419413,30.706026537863472,8.97254139132943,-2.764098686152674,0.5300901437202714,-0.592734858399903,0.02088803924417465,1.368124685126929,0.032699890434973,-0.3339779545011712,30.554422768766276,2.8487366367660343,-6.909739036062934,22.170204105430237,-16.245210292303568,15.217982056458114,2.473809324283905,0.6939448055769536,-1.0243180262537002,6.772709035418579,-3.4248111552111413,3.812556940390583,3.9299533901164496,-1.0598244301027988,-1.8574232774678505,-0.5993755071981757,-2.0505276769049265,1.077650028003096,0.4671903578805021,-0.22836275106022802,-0.261845967179741,-0.07328774255275645,-0.2823802815526428,0.1491541040802115
0.092649327970187,-1.0858719958025347,0.26149753003622045,-4.527521545124521,5.290885794842905,0.6791319941451565,9.442512680850278,-6.717149100759569,2.254098090823574,-1.013084518027212,17.56968007504451,9.683519466178337,0.43793788299063113,-0.2634077225404792,-0.08244589760567066,-0.46592024876694943,0.15780935599135223,-0.07039892106568013,11.565041483425318,11.330110334276807,20.75413928838488,-32.42755245417041,-25.99555591903147,-5.223484572104658,12.238880499354616,2.8832179128886137,-1.3341002728598468,-2.1187853700585126,1.8060152204422242,-1.2967634353807913,-1.6588188987893817,0.9265685317824724,0.5472142976588672,3.0181057633701096,0.2618104069194686,0.3919844017962187,-0.15439418406543173,0.39045106443549077,-0.008930503142153344,0.3580918535219682,0.11590152798322588,0.016200642172337805
-3.3738392719240875,1.6139701729629654,-0.40356842275798616,-2.855364573597684,4.883410797905133,0.5058563971768518,-6.4159313453687,8.455608932555247,-2.301198750671572,16.46816563532139,9.528716797398445,2.0479519988675756,0.1019453571859307,-0.2490829346313805,0.02917228972544687,0.32700908773524895,0.5080403197618554,0.07278333372551908,11.880132631678455,21.91012994137869,0.7658172900463448,50.774022647985106,-7.845609099677981,-5.946387014490567,6.860375343779329,-0.5834419839513068,-1.295862260218136,0.7629850082649925,-0.8689482876735117,-0.42692581075060665,4.396199154386556,-1.2489439950076084,-1.2411428017002712,1.2560392613133107,0.5721547067859275,0.22208519089020917,0.6291778187332387,-0.13313860194340013,-0.27443100429202627,0.06216017162097767,0.12900172018189823,0.03301233363115617
-2.711123151809942,-0.6878257463238523,0.0989331734330845,3.8726159635789736,5.071242245193743,-0.6651696042935668,-6.932628648720813,-3.334669590075916,-0.5461029075356534,27.088656710287996,13.414490033188379,3.563499094009395,0.6745667607860047,-0.5012597763934823,-0.05339942250993015,0.6994854696841692,0.1281428224387348,-0.12287000186981058,24.923179752783014,6.156450727509991,0.0954340281015636,-9.254170962529972,-20.828225323118026,-6.246487279828552,7.604653861464386,3.558437005174577,0.11814833709209299,9.358317017441653,-3.0752164068111507,-0.2081963054411506,-1.993836590265076,0.030874138820980987,0.5737015240451138,2.388603839181996,2.4664174101000533,-1.119761246072183,-0.06534847313904933,-0.031204623811059554,0.06231535734556115,0.4759110390853809,0.38837777771776505,-0.2167585870118952
-1.1322803583675771,1.0083801723990338,-0.2619925289297503,-6.225511454083518,4.159467302111169,0.1919212762802675,1.9625995277069208,3.4926387453563406,-0.19061570781663337,-3.042802879229787,17.790633769572704,5.2901194702064736,0.4625346758166931,-0.3764586180521457,-0.011515667585298029,0.11428647809638799,0.09843182771792428,-0.3555778917329195,5.23346244037635,26.319696241713338,10.803074057670559,-3.7741242356968274,-21.113649575032582,-2.2210982232415613,2.2573143946369756,2.5059260069252334,0.09628776982226472,-0.8028639150116871,0.7026684731768408,0.3722554327692949,-1.1382389394332475,0.5930729213242296,0.0004230819137857932,-0.6361835463739288,-0.563115454457218,0.09933366373884903,-0.35068831523984567,0.22104944478359453,0.002476584651158212,-0.279377068120877,-0.14434418476492655,-0.011441586258548186
-3.8514830651258714,0.2322933778996733,-0.029189812360380804,1.6144761795170837,1.5608531370975187,0.03999904346166151,-14.73596388176398,-1.9185508813967977,-1.1824416609876436,22.226184227083003,2.199491111559749,-1.2767048031112345,0.42289638878951674,-0.45881031921304233,-0.008621642955084809,0.4247771311684982,0.041957998332710675,0.19153172178690844,8.519555058006937,-7.751976812330026,-10.765888499372048,19.885787073494686,-0.5533618102282276,-6.2923090233720345,3.809362110962262,1.6323220715629434,-1.4858141457187137,5.988497376382144,-2.323527390866485,2.147187470267685,-1.702478676500404,1.7714843761203722,-0.271498941835247,0.020378574200041886,-0.5691363023004559,0.1821056021232317,-0.4645028476177461,0.42434217603715246,-0.029612966927085885,0.18063111607807283,0.016884908993690953,0.010822064842349625
0.6059365090328127,1.1181566674982377,-0.2629940060139311,-3.3946930847709313,3.7498351823354232,0.9894719443689763,9.013983639927838,6.6320100932696695,-0.6659812092832635,20.30421270810998,11.978623217412835,3.3902829365162046,0.37796467607826845,-0.11336728276462388,0.10940050798301809,0.1369194188771386,0.5836281310192397,0.5475356294799248,38.7451343987102,26.598879591563236,8.182365572086852,13.805753653094236,-34.59308883647918,4.728612384614115,4.425286154322402,2.2427891721919178,0.3810095122400594,-1.0175611052140254,-1.090420909366028,-1.9545523935896318,-1.0201016666604061,-0.5387085915846905,0.648094274084259,1.8495929508763433,1.0900576187367934,-0.011122480729481962,-0.15950420401245496,0.0017454200771457118,0.09669209961426349,0.005214638929167588,0.08544831229890902,-0.04426042741394994
-2.729589452292903,-0.22701454677640898,0.48405226553408576,-1.6902821082100943,5.31803564032655,0.4536307405147916,-8.410937062215506,-3.5014050691054055,2.9366690685265024,17.553576870071407,12.769981781434488,2.4978970274154526,0.4217544102319233,-0.3834618295518718,0.01612669705450902,-0.11602107254012825,0.34374976164667037,0.34744629425011586,12.161724726161376,6.427033551789466,4.053453353223779,-8.702207809921738,7.508755980146342,-9.269650940461922,2.5719732323000906,3.3185403281174897,0.32834445438561555,4.648938600612119,0.6802144380455588,2.0571495968742717,-1.1651563311809858,0.37875278209040825,0.04749182506931451,1.7442954734090261,0.05923937084285122,0.856612838515673,-0.6122366438782095,0.3348182167942543,-0.007967244879034172,0.21293916998428383,0.01971851052332064,0.1769071671559456
-3.2160338185242985,0.6841520971371164,-0.3506409310886026,1.791829985769365,3.190759633360903,-0.2817497276248519,0.6674055550895861,1.0587578341629824,-1.481598494324382,15.410229279666549,14.350861133833469,4.264668403001636,0.3246888156089505,-0.46708112342821906,-0.1161697891359159,0.9786390403007307,0.1047264775132392,-0.08051593645662149,20.722423801001234,20.154209499366505,6.961044284951558,21.30487947662368,-30.36387923449549,19.6218138518327,-1.0028513125444165,-0.7606702159495596,0.7348610017217619,5.555707039045302,-2.081863681845163,0.5893234911499678,2.5987242441385066,-1.1880488819424009,-0.06175495138794218,1.4528405210511066,0.43686956728846915,-0.19694406517736057,0.7296022159261977,-0.5424250887297041,0.06580836689579218,0.3124441668291594,0.10548942142984802,-0.09503055105725311
-0.45283368911959043,0.980731262116375,-0.22982650828167117,4.309910266974591,-0.166400982869663,-0.6363325482660895,-0.4854136952051293,5.668655208075151,-0.7621687384498563,33.37975848292992,-4.995317953130862,-8.375957628421814,0.6707966070700221,-0.39230000658845016,0.06770902241447607,0.8109112476854536,-0.02516588099126836,0.055838980894692004,43.49268755843528,1.8975421849325758,-11.955027497679168,8.963520626139305,-17.18970643170062,-2.813084196695375,8.001291324432298,0.6322865019705024,-1.4099665747047254,4.298805146587375,-0.7371646451400377,0.05151488978820559,0.08938094050015423,-0.3498229301592948,0.41086215100740675,2.4157062435221097,1.2838951095386992,0.13564148637946633,-0.12057978734447647,0.08965964356045264,0.05967015175294579,0.25136242817430077,0.1930146427288265,-0.01580019705434474
-0.6372779638085116,-0.2447231180130088,0.08003652564135841,6.008765839409228,-0.35943798370628055,-0.9457847784053478,2.3849273062476426,1.4458034966352573,0.2704767739626119,19.37837111046815,2.8217237735466045,0.2398500884323443,0.338330532488423,-0.2996018359231994,0.00046943153383486485,1.0115266163485634,-0.16111129912719307,-0.36306178847541265,25.984027545789118,2.2963585553531574,1.3110421744178344,-0.2442316025513445,-4.668545369488868,-3.29984800731896,8.265545798950049,1.2952085175489012,-1.3582771097878314,6.6436273275587086,-0.23580873297025037,1.0127222892213266,2.576466554484242,-1.0170449221347764,-0.4889789831970459,1.9178960162324106,1.2281753178407018,0.07984986519989057,0.3652862825037587,-0.07775886882444594,-0.17033945904383369,0.36323924762743776,0.10936477460599325,0.10442752128721945
-3.409823003098334,-0.21437389747090713,-0.1035099220268004,5.431552351372442,-0.004612463174844682,-0.7306340938824801,-5.937544439489406,-1.4985953258999005,-1.50498486002499,36.5426356357725,6.877698498540871,-1.4592157029836328,0.33295405748720297,-0.36578980238967285,-0.09062251529137695,0.9874309617235204,-0.18641697835002033,-0.05059169254639544,36.72903476840797,7.810244878751437,-5.933030844028646,11.672887443697608,-33.782570512768714,1.5100394247639828,5.4870609123001035,2.2704378156926093,2.278850129647321,6.544770068912816,-2.6173785690091393,0.774645231707548,4.634855141973152,-3.593992313744087,0.9068352849366261,1.8961160370593335,0.9526947826928049,0.33775966166173704,0.7171171186178479,-0.6353686032784049,0.15533286979417504,0.3501672189416853,0.18995973836443997,0.10009211407915883
-1.0555189583597602,2.721544039634971,-0.2431711531586092,-3.7882182053291795,0.9477618443130297,0.6579963492110041,-0.7472644715833205,12.551869002753007,1.2859851218112763,13.306220490239744,2.9489828809642895,-1.8969567222517225,0.7176306649179962,-0.4156563336119533,0.14572495431770904,0.3998306116709179,0.002811438095526099,0.21115352767718554,18.01594277506231,21.227335434973007,-0.3762810468046695,35.174850072565036,-2.3344154964858252,5.250633255917668,7.093459924615601,1.365712719712725,0.3195253145130214,1.8080516979612178,-0.9432392492211112,-0.7158583093506026,4.602315233632062,-1.8795445642461048,0.004206595277238099,1.6383465209783972,1.2537089660720877,-0.06893510278515688,0.6823294379030732,-0.14170580300923674,-0.06730628079716182,0.16061995683463312,0.24154739481030407,-0.07153701759917479
-0.590673565821781,-0.9457633521991261,0.004975993515488496,3.143448512030983,-2.4026654654129618,-0.1791515305346375,2.5412274684406277,-4.961657119413614,-0.007805513286561411,20.303655572944113,-2.2677805555320356,1.4178142746141906,0.20770244339004829,-0.3229847436728156,-0.1349567547237837,0.9259735872963807,-0.28179747403906646,-0.26601386170448593,27.048492725300036,-9.061693244081368,4.254387470737922,13.244195003029331,-11.82549358248796,-6.6019393704924925,9.132811145172077,0.7442043651690544,-2.306972231871729,3.714060904846614,-2.250685700019824,0.07464199312699374,2.117811926287139,0.09303891998126577,-0.6258720542612575,0.9440870558313075,0.5726350154061497,0.04602879459914487,0.16444904667197757,0.07781402569924795,-0.08055897565290791,0.05785180912868141,0.03335512315692631,0.0022173843299152013
-2.1652014599627254,2.256461847220946,-0.34466893025371276,-0.04494526622202771,2.252616204394833,-0.14681267549763566,-2.717602682652142,8.353749377736788,-0.40612131014882225,15.179404839666043,14.935782193460492,1.5970696571058187,0.5060101851066608,-0.2160513236309262,0.1665498721832973,0.25742772885486465,0.052068313961671914,-0.023398260268622063,15.610770869650224,27.817329685111485,0.9185959478237832,-14.807711615934558,-21.31895671053279,9.319071852664013,6.586676892694656,2.9124308946136996,1.5551765563949325,11.703502153234794,-1.7817660941050328,2.3344528874502033,1.4429452539696421,-2.9281232094594665,1.402242535737637,-2.453501894746481,0.5207097950277241,-1.4317245051512408,0.2557799238390646,-0.5682464204275312,0.22656274428559148,-0.2282411370852038,-0.12528730745085193,-0.10386344581575556
-2.8393084972310287,-3.2703762807246175,0.5726310243079424,-1.234564710532275,0.9243116344066599,0.11719599948688296,-3.9350459004459206,-15.320634676751915,-0.16767952246212728,5.569228527395015,-4.412904323768174,-3.28744474898574,0.3867901790021372,-0.5611495620249798,-0.10194763922895608,0.5975750928383603,-0.014159208700676372,0.04331386424434158,4.587184178330107,-24.553634125121913,-3.930447517216337,48.69729383246831,3.915516349013306,-2.3146951340054085,-0.19539555995717622,0.7742531977945092,-0.7711050369075586,-2.6373163434930538,0.12673797470979895,-1.078472893294346,0.3093325651022383,1.44824330868828,-0.6603649959757922,1.411617457396061,0.5565164048707121,0.3619798087235617,-0.27688384654595016,0.33430026585784367,-0.048447981300144834,0.036412363457033,0.2417172632629361,-0.08589044597513532
-2.5337952643943824,-0.5918874259352067,0.3551742696900768,7.43251249604033,5.610966742608769,-0.6545406862012455,6.2978533559257,-0.8519657157754925,2.5051020950600504,41.25500039141303,17.56949722161515,0.029707765655048818,0.44002930515468924,-0.47949042889642995,-0.010313151226418796,1.233247693149139,0.33027487851977555,0.05687188773841629,57.83269559931005,21.657428666311404,3.843914516462975,13.310388792246002,-5.71781425263054,-7.588749450504291,7.791322726145275,3.828619747185247,-1.769272245581866,2.6336873233615874,0.3934126154329122,-0.8548069441648014,-1.0959579086162377,0.7820902043722165,-0.35881028025673395,2.40729725156781,1.972660472330465,-0.12696323681612032,0.03699835463554007,0.2899994659306765,-0.18779185745854698,0.21372476923156492,0.1999036256415959,-0.05500390203608648
-0.6910032852631851,1.122906755151918,-0.23763378212976574,-0.74901454529068,1.9362716948206373,0.4491360644964791,3.3617940770381467,1.788062730881713,0.286744996694929,14.056251393227363,14.57167444892832,4.55719093916052,0.5372894084014886,-0.25227959779833165,0.18313131389778853,0.5898721892326061,0.028096192002621784,0.13641104645965343,23.252426344968022,24.102781173103125,8.42685461816583,24.312491610637196,-13.880522022062495,6.677307986016738,0.7455865915230901,0.43981436263675894,0.6904115787091134,2.8651810937323585,-2.2930164520782337,1.3794493400854981,0.6267095617512942,-1.022398924035544,0.31651340814232637,0.43806592945848916,-0.8489747974146025,0.7315374366937133,-0.2598239843919371,-0.25354203700355643,0.1304648019494778,-0.0648855228860276,-0.07696439450082543,0.048953594072997125
-4.088334682880412,0.6121514557621536,-0.35090571413137456,0.4069244462583329,3.56418655360947,0.10871303771153101,-9.594019069190058,-5.107613588175361,-0.39274463270467197,13.212568582881726,10.169069058210184,1.8103469630312259,0.2516556904291757,-0.27075067664957553,-0.07935888322911772,0.31832181237400736,0.03601549783765774,-0.01299388751322863,8.748549694655786,-5.49737111330698,-1.1140120967392086,34.30313423975559,41.62909724748866,-8.810999178723206,3.144513943151825,1.2716988002372545,0.1622804197767406,3.817988548726333,-0.8570893343151396,0.38378969255309314,-0.09120778318689897,-0.5805378859586705,0.38818573961842456,1.3712822149437007,0.5646041859797056,0.1906632594970017,-0.0006290633544736135,-0.18224854768745874,0.11076362441254538,0.10635558325528073,-0.09839309716925447,0.06559531006285735
-3.3969455855479165,-1.4302959273676756,0.3816176189428859,-1.4373402526217782,2.616691764279947,0.46696951594811814,-1.9267780945171482,-10.268566782203395,0.5257514401577389,-5.964234490837474,11.841638619696573,4.217343348465612,0.5509340863250456,-0.504338556887266,0.04779052415641626,0.8507793935700886,0.1848888717425324,0.13729605986312796,-14.1918065216999,5.177309345795482,11.71564863274843,38.92040567713401,-31.254836349204076,2.592907035662953,1.4925707699504205,1.1488081088611335,-0.7020144031197074,2.57696789561356,-1.0242357596214815,-0.3677263386884204,-0.9629797852189644,0.9091838346852823,-0.2892066601099583,2.866874236305514,1.4641724145706798,0.6348430778274826,-0.22030135818260216,0.35363300386107366,-0.12882564004726155,0.41780645718954007,0.28173626785996014,0.07995607317304239
-2.711991169851429,-0.607069578470219,0.1842772802081298,0.8066379010871984,-0.022637381743804308,-0.12931073089908046,4.505929595525826,-6.611121409345484,1.6861957293853411,14.180462620294167,-5.803638416098193,-2.956365863736431,0.26777014923172743,-0.24824476708072749,-0.07522623380341015,0.5924900942780974,-0.0646243661784054,-0.04359625931181199,27.7182299892449,-15.325047528204472,-1.609935121910588,18.649342932197335,28.59733064970847,-11.357012596741292,1.7008312359901818,1.9744782048252472,1.381588210689754,4.055422257620092,-1.3643587917975075,-2.3440064465932493,1.4601675436226444,-1.1832711841750603,0.27395627070407413,4.323633247129566,3.810122671148776,-0.19987560406823024,-0.06914280312976248,-0.11915343421438246,0.04423187888151596,0.7121890517462236,0.6029293418115672,-0.05339291328602247
-4.736355277262578,-0.6072382109560159,-0.09711173801074097,2.011013463351753,-2.0960302529891046,-0.4711268153859831,-8.666271523261578,-5.131872728861998,-2.5046677215171016,8.939045031796805,-3.9333991273796287,-1.8055893784410233,0.46682923557705147,-0.434703430112336,0.05156087300472601,0.7283556272045973,-0.16911334159068245,-0.2799427441567348,-4.102273154584674,-13.415064565697035,-4.485398405533065,47.0836582232343,7.248737282684529,-2.5825474827799315,8.00444228090714,1.5214022478242488,-1.3195887161428148,4.21381997957022,-0.999720640819261,0.3696616608628386,1.8873115722976692,0.10768609673942116,-0.406850377570207,2.859884583404161,1.1936152423270876,0.7940055509695962,0.481639883327454,0.00725106560532781,-0.08407398932895493,0.5129660918139345,0.08844189017560124,0.2380788733978652
-3.2788112855243985,-2.510182472843832,1.0403608319639108,-2.4065893368831617,-1.3110985590053,0.40396520930203406,1.0360936543788666,-16.521509793898534,0.9039310585902505,1.9979460117810306,-9.920842976883081,-1.312254648550726,0.21367845843861435,-0.2757972998862889,0.008313407731019549,0.41798710332510425,0.05063125416943738,0.20323569632852073,6.02273589712658,-36.68857170064491,-2.0299160187052876,49.048651695748404,1.1968638912260965,3.1088688042858235,-1.4291824676354277,0.81774744850315,1.9176240046181399,-1.1556049608261039,-1.9166189249342498,-1.8432187502753847,5.131083032403901,-1.062271350283265,-0.20100200435141508,2.525000038618073,1.2419307119822407,0.4482866700040443,0.694178246474601,-0.11148547625785406,-0.007842870565202257,0.03807441827590684,0.09918501399413628,-0.04143955033123392
-4.235448437461184,1.7613906293226398,-1.009366648206215,6.178117437342401,2.4859227919721456,-0.22408427085121355,-7.344269572473662,6.046731347619131,-0.3558171145856538,24.07666765995996,11.770803203367919,1.1687666544992767,0.3000342336484201,-0.3901725686859506,-0.0323952995027284,1.0189081117748113,0.05133418560982879,-0.03824453824741955,17.56817251079807,25.081499918854025,-0.41106635395477154,6.112886129369466,37.524405761210915,-6.697221824036501,9.65398128779884,0.10987350699542842,-2.5652345957859954,9.283070159365948,-4.356125716077819,0.49944031675931416,0.015927762734076586,0.579828600115794,-0.23469768340141853,-0.4778146538938741,1.545308062854837,-1.0041988815896332,-0.005936132809969621,0.05000893005651417,0.0019818877018703595,-0.055406541932162226,0.1265841282748668,-0.05929363348154593
-5.03937208901227,-0.6968403326693577,0.47427778269828585,1.3290076298004265,0.5252387057039899,-0.1471287185471571,-10.0964777650584,-14.705085966492256,-0.7850148251033723,14.729707966034004,-2.1124418312503295,-2.242882873848927,0.16477479105646542,-0.06125029304654982,0.12694268085423546,0.7345547214002744,-0.05392718876852033,-0.017438121591798823,4.313273793063105,-21.007765443123517,-6.3535426841281035,61.36644318216559,24.965470261126047,-1.8912148627375012,6.583218668928954,2.0447830253874146,-0.06893294554804709,1.6447706540212155,-0.20783005361965778,-0.5651480569985263,2.910658912481483,-0.9705272366650489,-0.2671770862426402,1.4997657999669518,0.9831004901305859,-0.18242922644842893,0.21919655866499782,-0.0793823103141419,-0.07803327872416177,0.22112255041613324,0.13809452554151708,-0.07879457671456443
-4.996322615949074,-0.09425015011119037,-0.4331102458344676,-0.081864147864055,-0.3871590395584377,0.08784906925749952,3.5374914474644057,-3.3382018004571345,-0.261864475805445,6.519410403803682,-4.660724224992332,-0.6767827996075606,0.46775372445817165,-0.6290081117004912,-0.050434332193156385,0.5026493153955208,0.1366915879610353,0.03571368199714362,12.314779895088433,-11.28871821773478,-0.19184552639717853,26.41763285031592,13.796954814463271,0.2497312563809293,1.706622578881253,-0.423341094313796,-0.484113968271239,7.827460941412269,-3.2061301071477017,0.31381516433820555,1.3938580575693742,0.15231583619571382,-0.23723275280986486,-0.20201496511160072,1.458388980588318,-1.0378996354591996,0.1392093679571081,0.0035735243272221424,0.008160578023077712,-0.0767713125845432,0.15285224907377024,-0.15939710565796267
-7.871746333688892,-0.5071743908276356,0.381528077425933,1.1703354103118782,1.0119682705144286,-0.12510515210704004,-22.54770284034006,-6.438352020748997,-0.9282155344996273,10.68097161795151,6.456567345102095,-0.12312627695473634,0.15690884975177372,-0.27946018786954235,0.006175672096283023,0.5998234958612048,-0.08381642585746599,-0.05189259670544151,-14.156356091620015,-0.952589541854435,-5.524899822476306,61.15391674404742,28.67027911766044,-1.8169661817142237,3.093831213594151,-0.09212778275089523,-0.8025000783559882,1.6110591739927886,-0.5726659536364853,-0.21455400771705288,2.064819956034579,0.35991438426535266,-0.38387666783543484,2.3153967821973858,1.1555696281594072,0.6039309938757176,0.1217201395200755,0.05278919206614014,0.01740513549796607,0.31223533097871925,0.14647054582296495,0.12539927329027678
-6.312372906992032,-0.7766615482367444,0.28893429609309323,1.9768865930032413,0.46593982868752376,0.15652073064380737,-13.783381683246457,-4.186643134641295,-2.3027714342397867,9.449282056013555,2.0804662725215413,1.064608832520415,0.15176628813166546,-0.316821491238949,0.09996382949140184,0.9793658150698472,0.05619298046859448,0.06168183153403597,-5.1419579778767766,-2.14420298719054,-4.257154723847303,55.44676144366152,21.133884148370335,-2.724099310855594,2.410967540676145,1.5179004352864323,1.0254816018553339,0.23585479710133464,-3.0274811738450422,-0.7947077199304992,1.060849596550611,-1.3122575291575749,0.19500524030126623,1.7722013600338384,0.3412527170907307,0.6770196998563588,0.018458459095946886,-0.1403579568169038,-0.020534807237315322,0.07246396712770575,-0.05020897373418747,0.06812168390830431
-9.971435029412067,2.23422642150959,-1.3592704184059596,-2.1973418054437976,0.1656396362472512,0.19025046204788218,-21.636645799195165,3.9215559377728564,-4.056559106600822,10.94935656974684,-9.608261562026572,-2.091625137057349,-0.3161302051805634,0.20435994729982473,0.03241536025807092,-0.15250872369144977,0.00019372893307843223,0.10718001828332442,-8.230784571978045,-7.126480304385776,-12.117244145810666,49.43824064262569,23.721173252796294,-4.7277884753372605,7.041624791258352,-0.5149979136312077,-2.276022358714224,5.569360691922097,-0.5734904112987956,-0.8756556592021391,0.874910055473305,0.7104728498247272,-0.5864804001200982,2.802216081282012,3.3011140296017003,-0.4782840409971571,0.12090220465893821,0.12651509713087214,-0.09783040747340845,0.435492766715456,0.5383918891690277,-0.07001622347194789
-6.914942023581475,-1.9449139561906659,0.6698594741854108,3.88134929921471,0.9650067053618121,-0.06387442353057736,-18.39823060628363,-11.709856691479299,-1.825674359278132,6.615669948274868,8.351820705838707,1.263111514581183,-0.016126610469968286,-0.5212432682497706,-0.17618852824370518,1.2733955353887592,0.026257216723775838,-0.024968301498201513,-19.650882986561708,-2.367443091249674,-2.901537134021162,50.08577297250645,22.25146843079852,-0.46414997147467707,0.6133569426808645,0.4577787819740563,1.193789795250015,2.2346283199520363,-2.8216283734444607,0.08353666759751613,3.2315187479007927,-1.071959447837417,0.07808949087153802,1.631470050843689,0.38629978122275793,0.7804361649107449,0.37800104116381095,-0.20625983412900412,0.08280751454971806,0.14576216769657183,-0.08076635346213806,0.1835918017500504
-5.915523400752688,1.9842792357875887,-1.3148029303404107,1.0526838010926287,-2.1634916248189113,-0.4649383247328539,-11.497442161999487,-0.3193516414143382,-2.8173108036414547,16.219206735866262,-5.679064355311561,-2.4436265846099547,0.10012078702667526,0.13640944026650795,0.043959960907263715,0.6671758874225268,-0.14412951419530867,-0.27037091251400885,8.146101451493836,-4.377084578823433,-11.391192097023987,20.980343337551886,27.893052646747638,-6.657453441897489,5.464524317620493,0.5298343951932798,-1.5125257927443592,4.325505184264718,-1.4143225989520265,-0.9263958300282495,0.09784560692953237,1.0635464488430013,-0.21851435856920592,1.494531259516987,2.3039001720794166,-0.7629428347452196,-0.060687834787074665,0.24490337448949942,2.9428580408970577e-05,0.16537283002872807,0.3923433011060284,-0.2084629727762361
-4.85438453331926,-0.22325554227847402,-0.14606835153324427,0.5502474870442217,3.664837905873309,0.6476332727670516,-1.599315724571522,-5.643741470476919,-0.5841041094079465,8.101962859678466,7.415825520035863,1.230158263661804,0.16388863995198338,-0.19354588340083323,0.02630620747533757,0.4912577727403824,0.23476292738991988,0.4935911657744219,11.388393714816685,0.5760673384971619,3.4835049325606646,62.27914983740964,29.048004847129942,7.341805723608431,-0.07854912976339969,-0.4463897831585526,0.43128895190711597,4.261681214624447,-0.8479240737307154,0.2521783995124874,2.957613349898502,-1.0705486916713156,-0.4302121700687404,1.4707630802501932,1.3617453903868837,0.004932968154688471,0.38573858147143814,-0.2512446425361569,-0.07472802208798925,0.24120725669045023,0.15198719856362858,0.04176116332070225
-3.5832844647553594,-0.5610573351538523,-0.01244172479733064,0.8818223913012763,-4.284307446272903,-0.5569709183790452,-12.253431890312468,-0.34351168485534045,-2.2236425406793443,4.506101831349307,-9.639693141724162,-1.6333339012066355,0.41898662127655484,-0.32953645104561163,0.06490069380132048,0.6555178645730705,-0.2892072910090033,-0.42018679842061246,-14.281280868460234,-11.101536677457686,-8.438058650630284,39.11986886465242,14.756970759384398,-2.3179190771409157,4.021719998699504,1.941473313396236,0.331211794055378,1.3632747410639057,-3.170788411057521,-2.310778131366768,1.122532024727484,-0.2323466089521693,-0.07262731865619765,2.504069285919301,2.5544668131975836,-0.0013658303428261223,0.049901704023339155,0.10453961127995974,-0.03357092427996728,0.2695691333101903,0.2924173141314007,0.008239219402545713
-5.171570146095356,1.455411442166371,-1.0544255366329878,1.8903983386265568,2.4421836678876825,0.16593716710126616,-14.203182416150733,-3.2079344022931724,-2.493140554765986,11.639166713054136,3.9389995334006405,-0.671400327995221,0.1828629143538458,0.1298279072886156,-0.026133807712963704,0.8205139178731675,0.19192575705741116,0.20345472657837782,-6.081096315943149,2.202888299463443,-8.424830497331657,34.958620195171356,26.043688622447824,-7.92626461686273,5.030761576590895,-1.4394271716769982,-2.3891767865863587,5.5755947053499835,-0.904757772309033,0.734841245880368,-0.9766168811332079,0.7495736192336327,-0.26412483368153,-0.04409853582860213,0.9396852991754928,-0.6833079856906088,-0.11382317403644453,-0.041644726038528555,-0.006615763975022329,0.03390624865567407,0.12580182936425435,-0.10386696371306582
-5.3245328138032075,-3.2104855044586595,0.8013165195177917,0.8120172918934596,-1.1162922234320887,-0.2326049069248257,5.861431933315169,-15.03374670243619,0.6483774926549425,10.904623431274175,-2.879139230803201,-1.0179534630375677,0.2926730845506186,-0.6356379902001504,-0.22537621472252647,0.5070468378834411,-0.10124637761561482,-0.18160092849618661,24.020244384561952,-21.914504248055497,2.154569095400859,57.8704635761988,28.156080004954184,0.42181067059604543,1.7518775873011845,1.862441240286919,2.094459766887442,2.7018843505173376,-3.2101676765499096,-0.9754133747200878,5.6395600247551325,-1.4447730870090363,-0.3223184267260968,0.7218769926575,1.2026461614628177,-0.12642254895704214,0.5411606846044958,0.1647272161856165,-0.08790597240495938,-0.053333667185386804,-0.05588761443102797,0.04815003456498002
-8.108826436721582,0.43559962915432915,-0.8969701393026999,0.9101428480986906,1.8659385030464877,0.1513589357527768,-20.600750429469567,-4.8011646740321305,-1.9549165341930874,7.672393423268817,5.390760075185791,0.19832139992453304,0.18775977245799688,-0.2439387570358156,-0.1328221276946355,0.6426083742796675,0.039019755010412646,0.1414718349315309,-16.82565180061881,-0.02039056735498553,-4.145899850839121,44.878232631256964,25.528507310525114,-2.947896567333134,5.498194683011223,-0.3049809136877103,-1.409556315777495,2.1970605610484166,-1.257720117228119,-1.1497890136102553,-2.715985227175002,0.0008892760784779294,0.40339661364308826,2.7629659248206955,2.135747293584573,0.12913635608674606,-0.24101444861020171,-0.3605832536409612,0.13923779282172358,0.371088933488832,0.41239596275625967,-0.06875857658196012
-2.5922069857886556,-0.7429393774669766,0.16873794939993203,3.183994675107129,-2.7895917033134037,-0.1502805874832973,0.8121593236442707,-2.5111863228442104,0.7036874780188219,20.23914050435952,-11.092889338849965,-1.570277728551724,0.3909984958682475,-0.18016907605262378,0.001026256416123087,0.7236929401911929,-0.06359672939763777,-0.11339619159863906,27.9060963373172,-16.325112743195213,-2.195780746145025,-6.450210707513998,17.55402653759875,8.612390408973754,1.676919088426691,2.148284471838871,3.1496907778870846,7.1975556949158985,-2.266913392935468,1.8197580567205986,5.825895919780506,-2.4425495077791095,0.12987714362708241,-0.9316367915559672,-0.1754993014608627,-0.39083282979355743,0.4444058775449228,-0.07886672122348826,0.00817397052703468,-0.07497709841161321,-0.113695556653714,0.015301549777569333
-6.090342779755577,-0.7902284686320611,-0.31167788600439056,2.3216847913734213,2.4725951432974966,-0.15994266380896077,-5.8845450492545135,-13.871485505703529,-2.0947151536135458,14.42995020980198,8.451157019307804,-0.8598464761841251,0.3593220154940566,-0.08833492593509111,0.01982186214197437,0.717880725864384,-0.0058892913226657705,-0.003172003752803996,8.293424619165338,-7.2350993693016985,-7.511202449794628,86.66175327536921,24.087194274834545,-22.46464523917467,5.670014571443737,-1.447183414934952,-5.3504914683204685,1.3778650291897767,-1.7505328607874782,-2.577697776135353,-2.650707846342937,4.007975116506802,-1.3606048581252168,3.2452104861337783,3.2913990032706333,0.12414262663982459,-0.5029483849844029,0.7616224390808668,-0.22309621915169833,0.33764178043076787,0.3847946404144448,0.03728055402226769
-1.864999956877573,-1.4431984384761287,0.6711721040044178,-1.8740457691960803,-2.689919661306374,-0.0975367069449275,-2.7590827350368405,-3.3059688736277533,2.3505293377144665,-4.589034446598644,-6.746779322092092,-1.241384915741,0.29131836931284455,-0.3131359362519443,-0.0006175703419086488,0.5259961972883735,-0.0456860732272064,-0.07116510652553448,-8.010208426794318,-11.970973420536161,6.006649329372218,6.48866242720776,21.778525141198635,16.04116021709273,4.662358685859589,0.476912116045614,3.4575815063090607,3.74496284382908,-0.9113065298215245,1.0498038457321248,4.960539959319917,-4.644125238907503,1.2585544890165055,1.7252394305585694,0.39143644091623764,0.6318553265788672,1.049962397363226,-1.184555797241473,0.2890885091883877,0.0900805418490018,0.08359538828628534,-0.013079980940078595
-4.215165954441929,-0.07645247584998628,-0.39122894276333214,1.594320717541984,1.7994371202642623,0.1121851361859332,-1.885828913582139,-3.6423671329098286,-0.4958343885886161,10.001589999483917,3.5817062199120846,0.10390119874560588,0.5898636254567557,-0.2469367514591854,0.010492700341485112,0.6950296738837417,0.018720378843520062,0.10606433414557107,11.676808742920736,0.48639195062047835,2.0644106731744776,41.65908009148235,37.06835419086704,-19.048535394672165,8.483944435498934,-0.12521111197641435,-4.231545427479702,3.8187634281996337,-1.9944080465073557,-0.9785607325974034,-1.503389973809115,2.6867489522288137,-1.0602531593572668,0.9840922252325012,1.9510552079881553,-0.32335201027339733,-0.3716465981804461,0.5538439031382201,-0.18310483662688565,0.18770326274329965,0.21047133315773553,0.03841425208865821
-3.1369395860417604,-1.6822080561719381,0.1650215458872775,0.6054993599034306,1.350087818705681,0.04474598252966725,-9.170523864685075,-12.778652631161282,-1.0087618454586822,12.855568145788247,2.6036713076354583,-0.01968183622205679,0.3286889031492451,-0.29944044107509465,-0.05071119025965103,0.7292049172929383,0.09114606928238571,-0.02591232522216161,2.3693020061578816,-14.469253993784697,-6.22282403828749,40.49799921516075,21.959764263393886,-8.830281730455297,1.6290540048694842,1.4950281696264034,-0.7478353021525157,2.3196925250238127,-1.042665322092051,-1.3181603130287125,-0.21338710458791177,0.9668157326073673,-0.6260150744290444,2.2504768019684884,2.1262647249654454,-0.0566509282009334,-0.26555649806908493,0.3521891059539817,-0.1554770183765441,0.16950440459928368,0.3226447280078242,-0.136037624132665
-4.618985754742034,-2.359924227391247,0.5265732265962749,1.5539273543882932,-0.45583483123905066,-0.07609595288062694,-7.333077337965413,-13.782564287296964,0.7999243482033803,9.548162118559729,-2.3124520492336837,-0.6417780439001113,0.31647696572971634,-0.24715935732341307,-0.056755140486387363,0.47172837268380025,-0.08792712447338691,-0.04797458380356405,6.017906714172412,-21.15388119146282,1.7126288383742343,22.146962291958637,14.412914080371985,3.6333818452602,4.4537243793482855,-0.7810115711086651,0.7911836275644039,5.696086344015414,-2.8340714554395015,-0.33749199816028286,2.7797554219612666,-1.7307186419488039,0.5382150866173466,1.0426374090117625,1.6510924176412287,0.02856999521221215,0.34460800015511456,-0.32499097161781537,0.16901214636363188,0.2084716189283775,0.07111420500227386,0.1585066144369148
-1.3914911483395658,0.4493664317200125,-0.08303489829119026,-0.3373598474017214,-2.129521409275634,0.06062814238596465,-1.4540142833835294,0.5179012905558544,-0.13683020490255965,2.8838000782085014,-7.714685561357222,-0.825101997222653,0.5111431532012018,-0.16587102527146083,0.23108526145215666,0.7519872512119328,-0.036476354733459115,-0.030545588598275424,0.02016847603568528,-4.754870741910511,1.8314218200647763,37.98609909715338,16.628921531793864,8.712406201821281,1.819367273754875,1.6269802427380153,2.521317684357788,1.2194551454753795,0.5249292237211621,-0.8036752011315849,6.972601553466629,-2.64494074244775,-0.665452751216264,1.0592611532848815,1.7706842338620878,-0.29833109230865085,0.689170863759798,-0.05110303807930889,-0.19884536256952845,0.09614812165605968,0.34045477221529813,-0.12876719995245411
-1.8480317713539884,-2.775323531752739,0.8464130564236444,-0.15991511782053702,2.7686298185059677,0.0648494742033011,4.722735619211714,-11.459590141696905,3.88386903593594,8.124263910011047,10.358815471465302,0.6881071047909195,0.6398664357001944,-0.5706471808889715,-0.1277382859623937,0.5140317486406603,-0.004731543745226921,0.057060220543113015,17.95480861304654,-7.162973446183082,7.830529155074166,22.90896640203873,9.46937353069713,-23.837197269203568,8.307371360632331,-0.2056892233773228,-4.905302437626016,4.706736956258466,-3.000668396163439,-1.4899533615826728,-7.8416122151215175,3.651344635040598,0.27681956005932745,1.8025774802168566,2.15252782327176,-0.16305046797812178,-0.9938004036376458,0.15145131171300846,0.2683817884656202,0.21096373825423081,0.24651374488689076,-0.04731968412085693
-5.435192332111574,-2.987381692904074,1.038032327451117,4.0244285186726865,0.2841391099600847,-0.24863553213560396,-17.291147008878426,-11.657181891631204,3.2721840436425813,15.539892862946006,-0.1979237824009117,-0.4296119075035033,0.2504674930095508,-0.2968472439989344,-0.05560285202296547,1.1664463616025353,-0.044691400246474694,-0.11847159410970269,-1.676473312928855,-10.891148049958437,1.466358789309156,13.999349437612718,8.721269108120287,11.59921574440746,4.534817748922955,1.8725282949182105,4.233365986160209,2.9165761836441915,-0.2380732704065197,0.6586069084000518,8.623040073154383,-4.736394937082431,0.3222453681955753,0.36062426085841964,0.31028500727184904,0.08208907419927484,1.2451697376263853,-0.5699420606939869,0.0003594856256073694,0.03687132366048293,-0.02088512979060209,0.04000883619707045
-2.686868688732318,0.730649834105431,-0.434461662697347,-0.5267628726648055,1.7379912160739295,0.1925675935778837,-6.794364770285027,-0.5981236564620812,-1.2727326936295054,10.220887645293116,8.5381190465976,1.005927753906376,0.3753627822667412,-0.18060981976260898,0.028643236211155047,0.1842925429631298,0.08674293820825167,0.1425423115233689,3.0553481050097755,8.017410237012287,0.7367615982003617,41.393009140409184,7.350292492482274,-2.0912596287981073,6.04983568932076,-0.21160448381708297,-2.6124170794785426,4.905224536224425,-1.907816592361564,0.38804269884695947,-2.3055197968950676,1.7443260553402422,-0.12915879246022674,1.228831914780519,1.0631517780233986,0.44291000851960244,-0.12983536463098574,0.2547986975752893,-0.039323330927952815,-0.004115462077532592,-0.002512400725873727,0.09924056163081686
-1.8369830711487072,-0.05410783352755146,-0.48865493227572887,3.3375303877953986,0.27568126614823013,0.049288766616639064,-0.08578088241532983,-2.597280481683181,-3.720518778353937,32.607259094112095,-2.5254879555337624,-0.4307194689381665,0.43386830573838003,-0.24507687070333872,0.08559548305841377,0.6800181833648374,0.10571384055618216,0.014417168420391585,44.67240185004053,-3.501639310825824,-7.964353770179389,11.221798077514434,1.7339052327961961,-0.08885808503345274,-0.5703667065618381,2.2861222416024964,2.1704512348672833,4.3663744659474295,-0.9392450207651395,-0.794725525195291,2.6184545475991237,-1.7025175990855594,-0.2546921441557456,1.6406632274130963,2.024453110415772,-0.37767424599850546,-0.15475177915323238,-0.1092802943833079,-0.05570194248672171,0.4055193110224641,0.4015354697883289,-0.07167510064362523
-4.456417325735368,-0.5332584111352895,0.555856726969207,0.975847087266973,1.1092113773673082,-0.29355868986467526,-21.077778394608025,-3.7806163265448567,4.590785828632464,-1.4955860764768565,5.448123649021224,-1.522084073418083,0.654077780361844,-0.4517907731273362,-0.04411562495230416,1.1494335440635666,-0.08307653718090408,0.005099178834569634,-32.091590748236506,2.317245206393474,3.283939375189591,22.46894654508781,13.126653863997115,8.64513252430282,8.875490998321412,0.4639998263971102,0.6077947966399108,3.9624822435973814,-1.5934278157566029,-0.12002109075729876,2.7971200230143194,-2.2376665096196215,0.4163879249126189,1.1953685287616924,1.068479092211037,0.09015383637407025,0.4175632896708774,-0.22101308873405104,0.030771742392786176,0.0454234194608143,0.08859523536689246,-0.02090427057448149
-0.5623200061155355,-0.2637925678796243,-0.3636638241996165,0.8662220328435617,-0.6938279949058375,0.06687323236689899,10.689936899871974,-2.190891311166549,-2.2985935762030714,21.04772086026473,-2.4122217898876936,-0.2944182381245463,0.46528526827661676,-0.2194086944472919,-0.03119698935418143,0.18834820910395159,-0.1349727555517371,-0.054928001866751244,45.33833411845703,-11.73561025862705,1.926230234651397,-1.8267075419169925,-2.0537533038286235,-3.0383939266518944,5.468267136211104,1.5219338811292735,-1.0119088204413726,3.908035570533994,-0.7999721026434862,1.283771716619215,1.123056648069031,0.7378886717761991,-0.32320340047301477,0.7262352194494939,-0.24492234518652914,0.41733316277064314,0.3493491350213961,0.14883005384457243,-0.06468460420080151,0.04368724853338807,-0.14986497566120505,0.07443116466538273
-3.2464693279727537,-0.16441998711823796,0.36745815361027295,-0.4574028209770619,3.374688178666923,0.15313019731237154,-16.27978244340833,0.9411090836362885,1.52993147576356,17.61809745337084,12.307589318569525,1.3793238547066557,0.4537658296980303,-0.22074223105429094,0.07793856024256433,0.7907403756441054,0.308587508559009,0.0486956030983848,1.3832664264426118,20.46670564873507,-0.9672034445036948,34.50184075459366,-16.08058616595896,-5.169460653647824,6.050755635571091,0.02371248377598819,-1.265812914836413,6.133071207521815,-0.3193349610852497,0.433759886566967,-2.4130786950676044,-0.4273215061946739,0.31097233341936664,0.30625580221267706,1.8187764706324954,-0.4917943218636399,-0.501582356525666,-0.26359337649791564,0.09007209899237534,-0.04955796432976538,0.3020579417571803,-0.10552435773662244
0.1796726123856008,0.09273844543041138,-0.1516027108551744,5.747993392364087,2.986723728262277,-0.14381247949577072,17.312860510853483,3.1284473258181795,-0.19467809834016778,37.58316146089949,14.620425924172626,4.890417546853797,0.5664988174617779,-0.35960701650792354,-0.005549182368118366,0.9157732051008,-0.02090210639716873,0.017058239976625436,70.43705234990911,28.068066395066403,10.718125201467434,-10.528955969775891,0.8882125158065434,4.993383824155365,2.8362034887536325,0.7267408067351391,0.7009707775732894,3.8060868641527477,-1.5435690528316157,0.5758081449144916,1.410699280462655,-1.1332035807012928,0.13681492858042305,1.9938859692934103,0.37736973193645373,0.7854670509094955,-0.05848808259773026,-0.12723917712229338,0.07062773879715474,0.21418215245937808,-0.09485203777259063,0.14186711453046041
-3.7068061346516905,0.8278389598902658,0.00623845360935189,-2.064702454147956,2.7806367377343286,-0.19517166183020015,-23.537312170850043,-0.6660813052513492,1.3069933259357314,4.10265205104851,9.73596530790192,-1.898143989995891,0.6682090120990087,-0.2487057216746021,-0.031747598356150104,0.5831317947901224,0.012217519188746681,-0.04708912134535833,-24.498124979828898,4.719746537123839,-3.087286806472892,39.25215269635377,-1.5739836330463333,0.8440696995266324,3.991397758290992,1.4306877838171306,-1.4318538764107551,5.058633680959562,-0.18775813843085906,0.2558952965613213,1.4361768139850428,1.194162599340841,-0.8577738911655128,0.40312714868057237,1.6625533041896001,-0.3605027674195743,0.3875362940075929,0.290365946692838,-0.217270284762366,0.1202831645599518,0.33406130892496155,-0.03727651993444574
-3.1621705262093576,0.31471143471404434,-0.3169797642847251,2.00704693697079,2.968968527540768,-0.04366133012283251,-6.514804670211918,1.5417031615459087,-2.248864672941177,20.94851489415507,10.874010547406657,3.9522115945698,0.14115657404557924,-0.1610185287493746,-0.051682587244113856,0.4085362199183873,0.1546421165112787,-0.10580541152841036,17.25021881209467,15.103680943327412,1.2625017167047201,14.117335177518735,-17.313989309929195,9.147580833954027,2.9996300598660715,1.7574007732203292,3.421008248113545,4.376281150681753,-0.9487382948582225,-0.5315140700301143,1.0664202792273831,-3.4537253385014224,1.1652777521201485,1.912735654643009,1.6226368074056712,-0.08360146722734625,-0.04910950055825982,-0.4381181959848379,0.21172431043296602,0.29489400274608085,0.20422748784721848,-0.04518227282874732
-0.18762498662009588,-1.1936432246820994,0.25262317767903,2.0228319982901164,0.5129290599375629,-0.4755895072823486,-1.9900799810450964,-2.500623962292794,0.8471182189621808,17.214437670714286,6.4229992558132745,-0.8957358291007609,0.7005464785609508,-0.43838251390244637,-0.03631622998582499,0.8718134116707179,-0.07321734591528516,-0.14600899900516273,19.3720838330632,9.683080410803374,2.183487254077068,-7.623983637320548,1.6472236233359365,1.2443143417997629,4.573423209287344,2.0365515580446165,0.6039345795570394,5.862489406321917,-0.48651994035956,1.2002824337704145,-0.08073513561218894,-0.775646116007224,0.3757279869544319,0.13189189231396947,0.47232262302377853,-0.1628717593008104,-0.03254210309631074,-0.13956694321741278,0.07764043956466161,-0.061603287657516714,-0.04930785276716503,-0.009736628997995362
-3.993014465402033,0.7509425730982616,0.17950870562907134,-3.6608799654344484,1.096313127119814,0.7161532346291999,-6.709153014950619,-2.52225144849312,1.4611901911574372,7.591339727015099,-2.059199655532242,-2.3423306992559345,0.44069696162229766,-0.15260967713529783,0.10507774872040583,0.372199271729922,0.07077984354059298,0.22831308309292064,7.9858184297852315,-13.659197107598786,-0.8721032210376597,27.350690961907855,-4.902917937762631,1.8464799571440669,5.4617742725805245,0.8172231260328223,-0.3336669390676649,6.875028243651789,-0.6281169110432314,0.8120885729537894,0.8365950249931583,-0.6581128597622001,-0.2287991853590047,1.311014125533463,1.387793155629781,-0.04746110929562039,0.15260220101603242,0.03422098099699117,-0.13441351291370288,0.20813055785218187,0.22879642844846287,-0.01709815879143836
-2.048506433488802,0.47184283656193826,-0.3571281455768723,-2.561683260133133,4.245698254770046,0.7975029057953904,-2.585198236378252,9.340620260974552,-3.106304086153345,4.02858067625195,15.748613837450584,6.8486876329833395,0.36432956851461235,-0.3028264679804221,-0.024354232762222892,0.3639833023397703,0.41141322926226837,0.3439227385940254,8.047478273824462,32.93659363412354,6.621441073843329,5.131558969299759,-25.941698086022758,4.821296381343107,2.733406916996935,1.3314172575219247,2.0738538817217753,4.2797278054078465,-0.7794356624060579,-0.6075863924649866,2.3496557565057317,-2.2386292839877786,0.5860093325267114,1.1000239692749407,1.7832979515537444,-0.25208681650400083,0.19177941293477369,-0.37990265174915056,0.19373275883369082,0.11071753523788745,0.1898188255495519,-0.027011454164888517
-0.4784890173776567,0.8496337251509071,-0.020688160441770846,1.0649129155258112,0.16494887973029906,-0.04443409088872873,-0.9756859261692798,-3.77150930846301,1.1191641824832004,6.460031678306477,0.694149930657026,0.05419669534625737,0.5449051540470846,-0.11391351802733929,0.0826681187964109,0.858340511985052,-0.023333005102880233,-0.05125322753442431,4.852926891108686,-10.85731303646925,6.234836312531268,-6.132904563815216,-7.698681402224038,-0.7738479214067133,7.067555413013251,0.7304712171341623,-1.9945027952296677,5.967621349511315,0.5922619123500774,2.2239412827424534,-0.6170908108715161,1.0011809531396834,-0.26332066411508204,1.3243836613711355,0.2650998404161988,0.6592532549905067,-0.12401562040556677,0.39782747491090653,-0.12729345827327482,0.22931181152985722,0.028579541475310867,0.1435468542700444
-0.6116596874682274,1.1299082169964656,-0.3857600590933077,-2.4881550579088825,2.526095076034272,0.373796083458882,5.812557214679181,7.981191487976506,-1.3891974494860828,7.277880499792652,7.825072429056994,1.4578948888971863,0.6466245200542603,-0.28686532665472647,-0.06820512027451105,0.03525124277767409,0.09649926004036892,0.0954380694160538,20.929557953894914,17.911017285243958,1.6487316029737318,17.953495207880593,-13.810320245743796,1.578362694961613,4.927170327732636,1.2579074433198152,0.5737226618972118,4.015985005478827,-1.490738814892012,-0.2672544024312183,0.6714044837668017,-1.674854375532956,0.40763140388555785,-0.23694695947282343,0.8003250263302096,-0.48070210267235125,0.06853485797022384,-0.3699566007251306,0.0935840860755494,-0.1329190302488109,0.05781937164893422,-0.09285293017005133
-2.6029590281765342,-0.9055398768679502,0.35048116390587497,0.25923049085161565,-1.0156173961757027,-0.26670497826505213,-10.606850713436737,-5.538587526016686,0.7346861186648633,13.242686706692092,2.2183621197031806,-0.2898029059460839,0.40818333409689544,-0.32442580726200176,0.06646460476187088,0.5187114106519415,-0.34082217494428574,-0.31887353918036737,6.32687915886549,-9.868326756031468,-0.400048320085254,-8.29495014276502,-25.71874186832895,-0.8876385319888707,7.0168611480743595,1.448810027241794,0.03318274305593337,4.311523035834601,-0.3593626246967371,0.18116867493721645,1.7835043699141564,-1.302283993463446,0.0816508117496536,1.5540765426315226,1.083300861745517,0.19853173668769758,0.5482775679510087,-0.2508293899557025,-0.044316769996763726,0.21168241859596615,0.00970361839951488,0.07004191990241394
-1.7006305982964318,1.2788101759052553,-0.08918432013724115,-4.559716131947076,0.5250329654504133,0.7716998633180293,-4.9487073044376055,5.5938379506631435,0.6246215171242775,0.47107348985456377,2.519522257670729,1.611707734999172,0.41578169475161786,-0.19424947422960018,-0.01729225498348271,-0.4347859662318718,0.008216965172072193,0.07438177224472171,-5.621322003412207,9.20357390990823,5.88226016097486,25.024850935705118,2.733752419217713,5.378218678230438,4.169241118021517,1.4870423869764953,0.08902946619762155,7.04072376560508,0.48301050276824836,2.0818916168532686,0.8827166792755223,-0.5056338860910274,-0.132286585773087,0.5978791148836495,0.405606067768758,0.10347577290129406,-0.36159608788775316,0.16366857400772625,0.004412881933859791,0.057503602553752156,0.1445386651287136,-0.03240433103328752
-1.7078784639531823,-1.3438819428974553,0.12510677912294133,1.6805174691528668,-0.7812280090307984,-0.6670915981158579,0.9498797949755718,-5.377137029294301,-0.6301733036226825,16.22444814467727,2.85197248718927,-2.5235837740289053,0.5709142106572516,-0.2832754790381427,-0.06695977370459992,0.636508528823256,-0.24134577923294528,-0.2985016555247068,24.751289871736734,-3.9357936421809616,-2.415820170086384,-8.14266953796001,-20.713209831109793,0.7189912210393068,6.877069440004265,0.5591608824924664,0.880406729954801,0.847192863518204,-1.710491796675923,-1.8980885570277377,2.4243047264512407,-2.474512635770739,0.3915657437641013,1.1943679557871099,1.5115771781416456,-0.21038054600742204,0.5329080154517432,-0.3650467483632218,0.0008473250051898467,0.12408764426909223,0.1824111521064811,-0.06394859923275203
-1.809305463293566,1.0105529852384654,-0.055198823659791015,-2.1491158885173,0.8163296730222337,0.6796648120833715,-2.851080387634254,1.912059850244449,0.9925000231939003,16.837997212173995,3.134586184284321,0.12480478595171803,0.357104129351052,-0.21731080033268554,-0.02427159799126954,0.7731416415184286,0.0018027016999631407,0.12253429760794059,20.92588820425039,4.886479826977762,1.0142792925693451,6.7777814476002884,-31.294677469866684,-4.166273630776526,5.383937276882286,2.111189631263285,0.17765676189339924,6.872533234344868,0.7258368719670721,1.788705657525678,-0.047979262896892,-0.911335916561679,0.21070476667761132,0.3071321176718309,0.705113547969933,0.017139354897689685,0.03171133038492502,-0.20896075103473322,0.010858450083907492,0.008446775933248628,0.022543017196282194,0.04869125425347156
-1.1874796524096334,0.398784593434332,-0.19097811798975653,4.507268249372837,3.082390620358708,-0.43083700949638787,-6.565190403708871,3.1641201856884806,-1.9096508664674392,18.465150491624563,11.9533445975301,2.5347110341695136,0.75737138067886,-0.40488527025630816,0.07755400360860415,0.9193453390739826,0.1851400698421745,0.08930577051838948,12.676551001009651,15.885369169740917,4.188017581340578,-12.676878808569336,1.0151839597566448,8.79256883464581,1.9625982593105493,1.4197500805817662,0.5376222393589412,6.1629629814103275,-0.9231747891592199,0.43097691866775684,-1.964140974439865,0.23851509467789905,0.7855540846001143,0.6289451534100434,1.0414324571316236,-0.2661306934590325,-0.6597246531167665,0.26282070106149247,0.17990686936339598,0.12419227494743067,0.14250097721096677,-0.04558451692853751
-2.528459129389755,1.8569183526694488,-0.24480670653140982,4.5767426088490115,1.8222187198014743,-0.526086914418618,-6.692668821109271,7.535044317119287,0.00328370106268034,39.40349543974725,4.887897418970507,-3.0268046960013786,0.38858516985789876,-0.13108071823519532,-0.03974831859872276,0.9739751518655353,-0.12756537864346904,-0.015853298440306352,44.062414445344885,16.594437683833384,-9.171326393169128,3.942990768873559,-11.64736886876638,-6.255328310293134,10.030944963305831,-0.36970267790484357,-1.339721373908553,4.0292961468335236,-0.17582028757526869,0.8528178813135247,1.3621433192296564,-1.6939187341933497,-0.13064250959053925,0.2630086919648988,0.4216656776334077,0.028367904716562024,0.47605238494616464,-0.3858473913099158,-0.12385820904607218,-0.031297407870361074,0.023506427110471025,0.00311907434890668
-1.6409853643321302,-0.5175272453031248,0.10864555955880838,-0.3972537988766251,1.27630952003156,0.02046754062307624,-6.93221220806425,-5.072149293814229,-0.19375112670647285,13.954294324564895,8.644998439537936,1.3580185057553362,0.5095305541866199,-0.19554266578650298,0.04101246189589579,0.21831425833957332,0.07031496914338234,-0.08150865821359658,12.730607686885227,3.3424833950212554,2.210503213330408,2.1903572754655007,-19.171557011843376,6.721441510682613,2.035998246802348,2.046588175962554,1.2940646726575913,7.809171031192361,-0.8266389456312985,1.6840491502022354,0.675459575258502,-0.6980507581513465,0.2958670794417618,0.25339855640820064,0.34616020484282295,0.011164142843778153,-0.11371830262637676,0.07994080034397322,0.0741160222545475,-0.05321245567732358,-0.004965558246588158,-0.009644440824718072
-0.4215475700178561,0.7542662875344077,0.0019917307576613925,1.9525305952703027,2.856618292310228,-0.2765468008642463,6.977471658213069,5.595756712810856,0.953316973018065,24.638901324012526,15.621573073274373,0.688290314097561,0.6051782866658204,-0.2930781283380395,0.0061257781034649555,0.884246261946774,-0.08898487580250593,-0.009398927586707006,39.62271206217935,24.72176041001782,4.268305165368364,-2.816504566862241,-5.806846543658158,-3.958491627011911,5.042260324731013,1.1345245373518131,-0.5908102926843655,0.45147417546311125,-2.558369588810041,-3.30429604018633,-0.29242093264414204,0.3715891743700845,0.21758884035439918,2.4153781513593024,2.3603084985543545,-0.09908211070855989,-0.08473048324382108,0.07269720317149066,0.08817708836809954,0.24105936086588145,0.15909144820797916,-0.04967574782470978
-1.2645275169956331,0.3015354531080536,-0.34164861110183325,-0.12945256522823634,1.4705089733132792,0.3071530335636029,-0.5409011772580118,-0.20116611023965325,-2.1357854182059253,13.20902081603394,-1.7572137392274718,-0.8789908448378552,0.3803920416831187,-0.24437267555358025,-0.02096523422050598,0.6196345190292759,0.2745767826147251,0.025410792190945615,18.338774891685112,-2.447976053372196,-1.7274445977179123,7.552789302605901,-12.125290631144916,15.300084771257785,3.7513419584220706,1.6049671460388164,2.1390474722610207,9.438083945454897,2.148376406889787,3.5836042888979165,1.557763234554675,-2.7346698191130994,0.3452049751580845,0.4727791875056313,0.7722911190475131,0.24178746227400413,0.20849127453228844,-0.3056021522892112,-0.04252699881576592,0.3056231663026859,0.3155945744760149,0.11437610100346518
-3.2399500115668975,-0.5711306839242006,0.50080501420009,1.7036815957789462,4.152634985578757,-0.1674890475460218,-10.758905132430312,-0.004808061599919422,2.534851449024322,20.689254092466324,19.134247143670365,1.512576307905163,0.6524502240164832,-0.32445694400143554,-0.02338514538131126,0.5190856796248553,0.02246681235057326,0.14915723130648934,14.642148078989905,23.24358322183462,2.684753738723483,15.862723195984927,-11.76539171362094,-6.920165094468538,7.1769090679060055,-0.696150690785421,0.052394929673151944,3.3301148033769667,-1.907214159270262,-2.042729300914377,2.0474667207567827,-2.169447602274108,0.2517537387943189,0.5909337025120772,2.0153297400875365,-0.7594699661262946,0.22829814928446024,-0.3883798950432447,0.07456341459345776,0.007105264862467343,0.1388220310315384,-0.14408575586670083
-0.41182928548962944,0.4977390878039897,-0.42986195697214236,1.1872206446660056,-1.5859865354906073,-0.11126589760557129,0.5605944114279511,-3.518566707123088,-2.1999734243729923,11.936986725493941,-9.543908755062516,-2.044516187120747,0.27189911564746355,-0.22088398992100636,0.06607021283456119,0.5908194371666605,-0.1176898084208703,-0.25142911787832195,16.81134678594252,-17.127778386863227,-2.514298272051622,-5.580848615231352,-21.23983048882746,8.602006544157547,2.601700306942547,2.23527830345754,0.18126192819112358,7.572517083043209,0.00701951252726853,2.6939420557266507,1.2039122734093695,0.1313973406600572,-0.44436362060574497,-0.5856392688896029,-0.20266837215627767,-0.008042351900582488,0.049822721586512846,0.1891867892801729,-0.08541010965329282,-0.09237444501694089,-0.026315361726144567,0.029175227138720124
-4.894649372385681,0.933660319347491,0.33049109165541923,0.6527729688909449,1.8496835015166488,0.09422050808839379,-23.687124175650737,6.240345509329416,2.6870654058208974,18.087447287024837,8.890584216831625,-0.3539811284605715,0.6501929865591849,-0.18649345721208985,-0.016700616768270355,0.8980849283153619,0.03853696231385914,0.18727781767678708,-7.9529172106267,17.856084420533072,-1.4994710077990787,18.73652929349444,-3.493622837576155,9.493168661654067,5.024650720322948,-0.8697731505879982,0.20573009188360067,6.842505296827981,-1.1614287416235363,0.7743845614454228,1.8477881992136662,-1.8834725948588211,0.1281756279244556,2.747967756940511,0.9714932192621318,0.5238702908963271,0.22454738694885898,-0.2904714515795971,0.00470760971542792,0.5293260109149295,0.08228388410541318,0.09028820108507622
-0.5981133255597527,-0.7535436718780364,-0.2964569229731128,2.753833990441628,1.0249218225396586,-0.34822517993447394,8.116204567670499,-8.801942549936207,-3.1009414097897396,26.399342636179977,6.697770602421929,0.23845970589776955,0.3951653709766498,-0.22601253435831062,0.08585474082007542,0.0847871974803808,0.008811182901034864,-0.1162048991046688,48.058978847474854,-5.097388998843366,-2.3866065906266747,-6.58428494076246,-7.0308273346996915,-12.273680133095041,7.385165297036394,2.8457193926536926,0.09176531141997338,3.6223580962699438,-1.4429259826228504,0.5502968887194091,0.8805148422652108,-0.22877425424158737,-0.06737854630246914,-0.752742306009937,0.20092919953858404,-0.03428162852643193,0.21326767020952522,-0.04422768896659563,-0.01616935091327087,-0.21247777496956866,0.004330111120654384,0.03310414749012228
-4.950120697259826,-0.9383184473618009,0.2871232816429658,0.15464328442005437,-0.7059572176832882,0.10981540922392338,-21.677156325122905,-0.1069830214120197,0.9631606403804627,5.456006447662026,-3.839408133322539,-1.4872757884176364,0.44924756682532113,-0.43469414026143843,-0.18432993792393956,1.3296265179441873,-0.12716402850672598,-0.007934054447198774,-22.694328727683093,-3.433706696556688,-1.8788232630823793,38.65632374744337,-4.709561837137078,5.949058834437053,1.9311309075562917,-1.4952210613329189,-0.8344942989933847,1.4225748106753957,0.9717273850926531,-1.4896200297085007,2.821383241990544,-1.1252963242893161,-0.9165376341542292,4.808357246878968,2.8207032888966475,0.8380914961592404,0.22859957009646836,-0.10600276314471127,-0.19146249944353877,0.5889932436634422,0.3113205620709296,0.035488888691731696
-0.8675815887241476,-0.3537917874894847,0.014426663008993064,-1.5530991585698788,4.528298469335995,0.22670087621909812,9.302339957279424,-5.430878099857325,0.5305857302465522,6.467127533681228,13.911473990856267,2.6474981302363343,0.5485727745841434,-0.31866134625110804,0.058627110233965045,0.23747350969851527,0.35475180689910396,0.07057746966827055,22.5764209350809,9.448962560685986,10.035194640008262,-10.173635280324563,0.2871615219038147,5.03052798049465,7.631015315283427,-0.5354849024741627,-0.10745877019800323,8.793771701420967,-2.9863302794712907,1.267646810259398,1.3016796608999461,-1.2425964084580061,0.6196186435896232,-1.6334316061389424,0.3804573244735478,-0.5353274785117257,0.0747514081891341,-0.31112032203167694,0.24857796510879437,-0.1261587567069197,0.0990188212257177,0.020057636304485687
-0.345772526243638,0.5441628972670896,0.3429945011572424,1.4126227373527454,4.557641273527755,-0.21106635348461023,-4.776276992832933,3.5075044396056283,2.900256733467671,18.002810567387225,16.648375416270497,0.9215191232632837,0.7717271996023721,-0.21880608394073287,0.15497061798356296,0.8900360538770057,0.06304669087650919,0.11730868864691882,19.3771956205101,21.48277960878703,1.154065426778039,11.812975950568575,-21.321910909888516,-0.8948375955199622,5.060056561877077,2.5748716659680544,0.6759744393910777,2.9491204505057635,0.5759559312522872,-0.16616143491958044,1.142741961560768,-0.41672611713507324,-0.2483927423515662,0.5390991179364231,1.1304494814817196,-0.4901257290440796,0.3392393098838099,0.18685260441389825,-0.18175120254125138,0.04894689932820111,0.056359652780748885,-0.11193054933088346
-4.796565892173899,0.1782693889388054,-0.2720809631424965,-0.4264251225193237,0.7395159426837381,0.22098058530231893,-0.27711421486916255,-3.5097543326279483,0.13693924644279332,-0.6477765593774881,4.470673561557825,2.756561610124421,0.16457811295371177,-0.23135627319511454,-0.13567239775583811,0.45929035366561827,-0.053576038815788214,-0.027570089631914912,-1.8984484718346644,1.6337140477184913,12.54210252108405,5.081479454181585,14.899454625309117,-1.8227141824059634,5.861443975900353,-2.504809089471782,-2.5099723739534547,5.719825766857064,0.08482426314588934,1.7393143315653528,-1.2266602159401152,0.18727763591280888,-0.07184802779347615,1.0026569793245796,0.6901830034119513,0.3882219009456203,-0.44881553372769134,-0.15649864100111283,0.05884967442847778,0.053025932416659136,0.16632505851411453,0.01816955901752331
-2.915111540380643,-0.7319257536912063,0.16580312533019348,-0.7912662040715299,1.7275099839209456,0.22507459956665546,-8.879861055351729,-4.454710279402938,-0.6101809721904784,9.101813308807097,7.831931019681308,1.8610199517158124,0.48334256183743884,-0.20831016429888116,0.07318153074408454,0.7008617792776256,0.08830144793490025,0.04490996662266821,5.299622422474707,7.559037232832027,0.5161600989311865,26.00454609727431,-20.88361407453744,13.264601205246993,3.286896548791863,3.7156834408973376,5.278026612110187,2.266118377784908,-2.116435917543953,-0.7190291690190308,2.972717743258558,-4.477812755140839,1.0746915569848663,0.6392902536650112,0.5540883756762198,0.1042741219560796,0.32417267353380425,-0.41249316795029833,0.10099135383546008,-0.03287610565264821,-0.06435451410370643,0.00754199476339912
-2.4435381038332484,1.1339857457188276,-0.4032315693337819,-1.434492685621571,-1.3553697721088362,0.029372150829825774,3.599332826201513,1.1760732454629312,1.5056963755027435,-3.7010675485405065,-7.19996837242876,-2.280793723869612,0.34846226772655037,-0.1946711178848041,-0.0781961706704099,0.6237398610950229,-0.10257994484703625,-0.11753817928650316,-2.3267657126355084,-13.248793117552212,4.4516477167990836,8.534322127227293,14.972489829377015,-0.6173269276499789,0.5285066240566917,-0.18288548474571795,-0.6345210407059758,6.560820726355596,-0.8647759486617722,0.7004000215317371,-0.7771527208860576,0.7339651527301527,-0.14400131806726146,0.549153647615167,1.2607796088407648,-0.33481688177876834,-0.4092230178001542,0.3211688072261526,-0.02477602623536787,0.15883353054608318,0.18719921584588042,-0.037947067017355465
-3.108667562296489,-2.310768016200701,0.653888128108963,2.9180097119359543,1.9564093618495204,-0.2159585699211149,-3.7273998490316234,-17.87169432486773,0.04421084440290948,18.9664108557199,6.6205768119918496,0.7356568539032207,0.5084378740586899,-0.37659187463193966,0.07887824619482042,0.6779802965032391,0.07535174277596526,-0.03228501992537507,16.498703123135893,-13.39823672819563,0.18873079763625578,17.758414051069064,2.9437847349487667,1.4562067195934183,7.679927920013618,0.1637706702443353,-0.641791365520873,6.792390133341479,-0.21209753528261982,-0.31260000257248105,1.1276311011133267,-0.5375174300660824,-0.2906652222504377,0.0177986708243663,2.446297587462604,-1.0486520659139034,-0.07953185805969323,0.19724128962412812,-0.08201852744980417,-0.148756552192909,0.30579803233264885,-0.23174809668936608
-2.5736515454945574,-1.3542897045464561,0.7308172988641306,0.7796703278291616,-0.6479269101597462,-0.032630533901985906,7.483192635071546,-8.985434250575398,3.1297156784337634,14.068941921867504,-1.8379973097820155,-0.3883319515233511,0.44035182241338655,-0.20277290302518036,0.026416417070255115,0.7237765465642627,-0.12826257802809513,-0.1246626730329044,31.476976747096142,-17.744917163615764,6.796172234893293,28.156579075290782,23.903599030076677,2.0825304950147054,5.820829713623247,-1.32146910916298,-0.06035684501179262,4.726773594039683,-1.8799123285429595,0.48968082823910847,2.812269145037376,-1.7206888585798923,0.08779819570378669,1.6577884173055093,0.9182800235498985,0.8552049013233122,0.6451954447710986,-0.462308739859329,0.02988068857087439,0.3533430800795553,0.037523310215819186,0.2814998753248846
-4.849348766899209,-2.189276005638886,0.7379716388728159,-0.945063237433837,1.6488962316866045,0.2866825832921135,-5.9209214543765665,-13.708867241110468,-0.19900560476964413,-0.9656086555860843,3.295674748072585,1.4666821758112432,0.13737494967414893,-0.3353591716327975,-0.04253069113529169,0.5292680644354676,0.08055674404966573,0.08863880906962482,-9.927134734559514,-9.324319227585,4.928785866134182,23.507863379999847,7.8428765372863385,-2.906312210723322,0.5180987482421215,1.5498352859369204,1.4631632429730859,3.140202259734181,-1.629403445264923,-1.5392668657766226,0.9346394036930599,-1.5323373908006226,0.2649236863424202,0.7812164295375836,1.675430563386902,-0.5610019568575956,-0.023739966431746785,-0.5138715979707944,0.16410527164215713,-0.02613345523543833,0.19001295458422232,-0.19543848746385112
-4.701999579686836,-1.096811523599486,0.5561454898174197,1.121720508115989,-0.5753045335567519,-0.27755624392770245,-10.969206945000302,-10.448132838177756,0.27595089032183395,10.50929819999146,-3.9135897127400554,-3.5538017352380242,0.456852786132234,-0.2863477964365122,0.052823469579210025,0.8755594983252487,-0.08436410654058148,-0.011503809958792176,-4.976811242229884,-20.534987223992584,-9.55528662913979,63.516526996629715,26.599531546233735,-7.431068545347856,5.430319596342705,-1.5763538657714915,-0.8490041915206359,2.4371913383352073,-2.0159403281522335,-1.8200665359539687,5.260865191693448,-1.75974012890641,-1.2912669339495295,3.5428900273176467,2.8350625845029973,1.0679672709891188,0.7662385913020799,0.11395477456159857,-0.37977834207588573,0.6498177993516192,0.471808848092568,0.2520425080438262
-6.309776515714595,-1.7465376851442929,0.6768433173288885,-1.7532631882997773,3.1597068352139814,0.409135186623778,-13.878611253077406,-8.277214295620396,-1.07204538606646,11.722459830456758,9.649452364779776,1.7780915515482938,0.38372889473043476,-0.37970014977084704,-0.08241779752308294,0.0622102971837943,0.16307998607640414,0.20688189304149338,1.490011591417681,0.795044603409129,-2.10300286150017,2.3634304280232286,17.156926337757728,4.451142794377832,5.7666668872050915,-1.316211418105138,-0.023552527135522167,7.105780226994571,-1.0584504316019085,0.9969877172863179,-1.5504893403298747,-0.39029719160734616,1.2140573150358225,0.5412524703382686,0.5922540058821847,-0.3093560156290941,-0.3431815767005023,-0.22684376183513952,0.36243058097918557,0.05658677806056073,-0.12135160683978084,-0.039365736080619856
-5.249559624534286,1.2437947469029096,-0.6686445634918503,3.3251362065202605,-1.6136400632230368,-0.22629733954598602,-21.223535484322053,1.509475836522869,-1.2710506586920236,15.775763338752808,-6.651024117387265,-2.0479324847877454,0.19036513371727576,-0.17386675628188747,-0.048723840080493186,1.250167295890628,-0.11278614951988963,-0.0794126100834935,-5.745263958926185,-5.438164323761441,-8.662708705865905,49.97155593673329,21.05386761837931,0.5324840288712548,-0.4153741766478306,0.4234887632184456,0.6885277350888829,7.160009159288717,0.6278724261716297,2.224956075113827,2.7451813263581437,-1.2440831125957403,-0.3505888168719745,0.7162680811841138,0.9897481321741445,0.24799894883753903,0.22623183578371978,-0.179769465044607,-0.023871350650719936,0.04497824831104035,0.17314652001621975,0.04590186361246606
-6.171164303334149,0.25381729968095645,-0.7282860584460622,2.2471856944470487,1.329088517527456,-0.2864708979676266,-7.364698925618274,-5.235692477016641,-4.668455725069274,12.422822725697708,4.688016420344047,-0.20165049132794327,0.4674517603290178,-0.421767127444245,0.020781417032531196,0.37630993723102646,0.11206225646681033,-0.15113432292535994,4.648768571904178,0.13560635823877193,-6.0105842371773175,50.64730411012887,34.7073618069847,-7.222130662244029,4.980249247410596,-0.9656014358830622,-4.170905427962621,1.655437277810017,-4.69738177232879,-3.3162485700650226,-1.5224779248451592,3.2209137747767977,-1.4525863652297286,1.6283230443700767,1.6322319460945913,0.09134508898787604,-0.28082895535916447,0.5178561146124542,-0.2376276887474372,0.054543309403911375,0.05466010420933939,-0.03933140257034516
-7.424541550683284,-0.8101379154828616,-0.23775656914553123,-1.039065936345725,1.0073631135698498,0.32121170317904446,-28.54646544440333,1.8593493776421897,-4.257128884359729,7.377361325682056,0.16176969290079052,0.513281898292984,0.0020237540366415327,-0.532495555594455,-0.4714244613526925,0.5559776527252921,0.023854578968212796,0.12693917264191243,-24.78063654602611,2.615937398133884,-11.503628741717279,44.7981337153868,20.00430947654166,1.3323157093729165,7.276537488635292,-0.8152341833833112,1.9697365366980777,4.311848656952121,0.17731676963680468,-0.3397212337996402,5.751816167821822,-4.192708182847911,0.5835571737713481,1.7188762260775352,2.3103239981637214,0.13770709058762864,0.8276148185951734,-0.5848112667625213,0.1280157281674164,0.30996880174737196,0.3579824213777173,0.04719694059756225
-3.4136390609252163,2.407996754162006,-1.2644334200608582,1.1748750589676074,-0.522324536320096,-0.35739722527373874,-15.26371148133397,4.33788890392141,-1.2792581661974844,7.193168645244928,-3.948363178648572,-3.6200212077930622,0.31550424691730933,-0.017385908950817874,0.008579367824343999,0.9894434887732098,-0.06668989095183464,-0.06512340514517614,-11.212045922783503,4.167359673366967,-7.253037055119481,40.18728988642381,40.335074041038766,-5.113562401047009,-0.06157415169291905,-0.15515314548537557,-1.4204266484404975,3.3102706000221436,-0.4118131869293496,0.3599510323831548,0.10510597390786419,1.4447402105346876,-0.8699507795505211,0.8237543140596724,0.8202215567987592,0.14014723517184124,-0.011980940140932733,0.41073956804647005,-0.18833305671009956,-0.01756095385522801,0.09033723377524959,-0.05084337994585775
-8.875290493653038,2.965770388182626,-1.470835975146336,-1.5362209454029934,1.0105391954245375,0.2806412504020943,-18.26544436872264,6.179874578544394,-3.3360702060476615,4.4315030742863115,4.559149775608604,1.3964284928707855,-0.3421011505342924,0.2958713098314971,0.08724653906721334,0.4369680318857362,0.04863641613383434,0.07925362466068175,-14.342597758734943,14.51106582987847,-5.109757707153943,54.06444388208625,22.23146804469086,9.982933930159016,3.564848850497058,-0.1728418615624854,2.9402062083385667,5.130898114433022,-1.1284871935529148,-0.31257977420238475,5.169944124959451,-5.360045524817333,0.5238388431554883,2.182187364300819,1.772532559111962,0.5229047129000227,0.48985489535177135,-0.9673712717983116,0.033852363950469165,0.3964025002492872,0.1751302228153748,0.11224095897639941
-5.797031706393883,3.9971630114984995,-1.8405875274849424,3.99116011264142,0.8815734971321529,-0.295363166746669,-18.128537501871406,2.291010624682488,-3.8702287506448574,17.67839076603471,3.9523489099024816,-0.8147288569652912,-0.1333575170237392,0.5025677157092824,0.16840463653802873,0.7709426124762044,0.00817651552015243,-0.07413870836969401,-4.024298940107647,7.694056460395391,-9.638633974899115,46.06263229934727,21.011516343240242,-13.560130651065695,5.964715376842842,-0.9234927564733371,-6.244208988284964,4.750671343424308,-0.667722860720356,-0.1123436028263763,-4.992767704488282,7.355458273345427,-1.0797842128852557,-0.2613463239177491,1.3245005554559355,-0.11773258371312506,-0.9247734228466187,1.3269389108977157,0.10599961549105164,-0.2314636681377519,-0.025276872591552684,0.018180891043292475
-5.120661345830394,3.9660986597147816,-2.216711448489992,1.0442479885345344,0.11222901621672372,-0.021671671790730606,-8.169369777276442,14.015466847868646,-2.6835306534566303,10.63888669591426,-1.0280332721997867,-0.9817291899819875,0.5210708158898972,-0.2775961532385103,0.1679956200309627,0.8103152884101541,0.07876274925636517,0.023539646858314184,5.169765323024789,17.594182982483048,-5.689017072835975,33.30336818429499,49.018405524557615,-3.774214977742461,4.90089270487635,0.3919843725074569,1.5081015881402264,2.5483273227163865,-3.8448180406632186,-3.0509032435134764,3.6731666699582464,-2.9443665690298237,0.2149921784199008,2.1973642318981867,1.951737647200485,0.30910168954978645,0.27944626236447256,-0.29741029985929424,-0.021183185478955438,0.45538448108512225,0.3268575586632272,0.04452580409550608
-5.189113160857867,-1.5758560184861776,0.6161255762671989,-1.2893385119942073,2.1616882699074567,0.3538091382510833,0.14138945887018478,-14.962527440601283,1.3487951326029122,12.11387822232297,6.653399603495784,0.9294228822661,0.20902015228014936,-0.3482402031991815,-0.26634367721460905,0.2788562406781551,0.04301897957684137,0.1694223130416207,17.982578334161865,-10.66379539710344,1.689403332655208,52.55011117478088,47.61987499971119,-10.578759684709226,2.384916115533592,-0.3478900441760196,-1.4638830906762572,2.449509665679466,0.11908936073079145,-1.7002209778223185,0.5930927271232181,-0.16941353217770538,-0.9545935838354154,2.0547242360996125,3.2058444521090137,0.2278876680015974,0.1998844152686125,-0.1780152967784199,-0.2552113680269677,0.31040173023507855,0.5445622815460506,-0.0033427916301051737
-5.989521003075688,1.1674544693017803,-0.7559275855807349,5.241373736961436,-0.7525866276737173,-0.5099788954175232,-4.869364132535759,0.07790342742830982,-1.7709405165028598,26.933006868691404,-3.854188115838396,-2.997079732488241,0.13148334980977705,-0.501493245705598,0.03997915372245016,0.9377478662524965,-0.09801056275967518,-0.1716047474706287,26.159992797134148,-1.7290637276238776,-8.86793628073018,29.018752364197034,30.4727597992347,1.234939632499595,5.561089499142782,0.9343947329691119,-0.232271045691375,8.098285792791192,1.7324445894656733,1.7354567141060715,3.6699938586362846,0.173597337803631,-0.3278588332927702,-0.2075818768005541,1.4868166755527,-0.36642667940774354,0.4070642296181613,0.36560740135363057,0.029481771620730506,-0.15955487006006952,0.09197370121529383,-0.06929570363708192
-5.485907110120166,-0.443239792492911,0.1970197889799276,1.2810745700995263,-0.5285539399835106,0.03554158985585795,-14.986429405559894,-4.430510518474541,-1.6377797340931788,12.099442171707636,-0.6192068569355281,0.2714148237477455,0.27551893412163736,-0.32424547284936506,-0.03143553471694321,0.46615769800909185,0.045245111551189425,-0.021575651493397914,-3.8239826897948355,-4.151990264524772,-3.8536657430775105,66.64505347023734,36.50699098498079,-5.213903235708098,0.9438821863487061,0.42334072033642145,0.7812802132374576,1.202441134897681,-2.780551805291038,-2.6959731314965207,1.6835520660694705,-1.4498042250178023,-0.0029707230710319414,1.5802236680772483,1.9391423456226156,0.5648146853825923,-0.040366708446769435,-0.45580664736271875,0.08826408887433848,0.07244420723231496,0.11734238257662245,0.05298293387107437
-1.536739554018636,-4.09217409337808,2.3953459572410547,1.2118096325170415,-0.6467769002722493,-0.2428771667721056,0.9378429834920592,-20.03733067005585,7.383356667272633,27.279101103986893,-9.248665335403848,-5.122186933623977,0.35847964567052865,-0.592451630529105,0.05778589344278512,0.8065539132934865,-0.08362486183813346,-0.014188613119364932,35.09790240813516,-33.06561328737117,-4.6755003530785935,2.316516928899063,26.225016514831136,-19.05573820076567,7.907801315925544,0.07208073400797413,-2.0924473159678505,2.799994047505523,-2.526698970408422,-2.7746568112273473,-2.255266578483234,0.4096300089054122,0.3513299070470455,1.327265473891429,2.4405970202953196,0.2762819617438401,-0.24332932470124727,0.15134798534631896,-0.018460224256423564,0.23332246444473984,0.28239097540574926,0.07877652033136062
-7.780097808779948,-4.243111557073925,1.2849701353953886,3.563593314358353,0.4397297055684206,-0.16352899596760376,-16.55203350345833,-19.77064034870778,-4.883208910365942,18.823274002606738,6.939720896451744,2.2608939751793593,0.06028236789205863,-0.658885690938822,0.012208862838590963,0.3416611888786242,0.0004257121614297438,-0.15049694224799465,3.8017635571547186,-16.94115593834251,-5.154224513616825,81.74262232253959,52.097262778206094,9.93748544044456,2.3106618614446504,1.6310114088392749,0.3084706747120128,2.7482769526415995,-1.6688044560443802,-2.2292619029753458,5.689932646002084,-0.6337640453138861,-1.4133341343744343,1.250153896770825,2.150762838045622,0.09079708973005599,0.5587996244248516,-0.01032370081383623,-0.14241028164125658,0.04303440401372736,0.1793359315857288,-0.07309480303346344
-5.918364775202909,-2.9102901173396205,1.8400901284216578,-0.7826557494801645,-0.4111340567484045,-0.05120358480181793,-14.149779228692548,-10.102449947086818,5.1887037221607635,7.135063393569553,-5.568744434944363,-3.739383963682194,0.33885034176975504,-0.6543358024276209,0.0622582331195592,0.9429829567789921,-0.04502178008778015,0.04812093789961566,-7.88450321114604,-12.117430375097387,-0.3539577943005048,-6.5639919926973835,20.55027703149628,-18.37870388151514,7.443776537168993,4.397511416319687,0.5058698803382332,5.931842138551648,1.5305203328659196,0.5736644778965576,-0.24559687653044038,-0.7948252160792875,0.7297589968534944,1.1645774871149381,2.226884915632195,0.1407403588562491,-0.2707920068424274,-0.06951197028247375,0.2039527765217304,0.2586247323678696,0.36264812523874185,0.05066254769282339
-3.60566,-1.54162,0.26638,5.62731,3.02938,-0.6357,5.21734,-22.8272,1.33589,38.88913,7.05013,-1.20024,0.23354,-0.46325,-0.09688,1.12806,0.16406,-0.05867,54.92755,-18.4226,-2.28529,66.1448,27.24074,-1.33143,0.21907,1.84836,1.82054,0.98262,-1.84415,-3.67723,2.0626,-1.5767,-0.22259,0.75295,3.08305,-0.15014,0.34841,-0.30146,-0.06947,0.01573,0.43856,-0.0644
,,,,,,,,,,,,,,,,,,,,,,,,,,,,,,,,,,,,,,,,,
,,,,,,,,,,,,,,,,,,,,,,,,,,,,,,,,,,,,,,,,,
,,,,,,,,,,,,,,,,,,,,,,,,,,,,,,,,,,,,,,,,,
,,,,,,,,,,,,,,,,,,,,,,,,,,,,,,,,,,,,,,,,,
,,,,,,,,,,,,,,,,,,,,,,,,,,,,,,,,,,,,,,,,,
,,,,,,,,,,,,,,,,,,,,,,,,,,,,,,,,,,,,,,,,,
,,,,,,,,,,,,,,,,,,,,,,,,,,,,,,,,,,,,,,,,,
,,,,,,,,,,,,,,,,,,,,,,,,,,,,,,,,,,,,,,,,,
,,,,,,,,,,,,,,,,,,,,,,,,,,,,,,,,,,,,,,,,,
,,,,,,,,,,,,,,,,,,,,,,,,,,,,,,,,,,,,,,,,,
,,,,,,,,,,,,,,,,,,,,,,,,,,,,,,,,,,,,,,,,,
,,,,,,,,,,,,,,,,,,,,,,,,,,,,,,,,,,,,,,,,,
,,,,,,,,,,,,,,,,,,,,,,,,,,,,,,,,,,,,,,,,,
,,,,,,,,,,,,,,,,,,,,,,,,,,,,,,,,,,,,,,,,,
,,,,,,,,,,,,,,,,,,,,,,,,,,,,,,,,,,,,,,,,,
,,,,,,,,,,,,,,,,,,,,,,,,,,,,,,,,,,,,,,,,,
,,,,,,,,,,,,,,,,,,,,,,,,,,,,,,,,,,,,,,,,,
,,,,,,,,,,,,,,,,,,,,,,,,,,,,,,,,,,,,,,,,,
,,,,,,,,,,,,,,,,,,,,,,,,,,,,,,,,,,,,,,,,,
,,,,,,,,,,,,,,,,,,,,,,,,,,,,,,,,,,,,,,,,,
,,,,,,,,,,,,,,,,,,,,,,,,,,,,,,,,,,,,,,,,,
,,,,,,,,,,,,,,,,,,,,,,,,,,,,,,,,,,,,,,,,,
,,,,,,,,,,,,,,,,,,,,,,,,,,,,,,,,,,,,,,,,,
,,,,,,,,,,,,,,,,,,,,,,,,,,,,,,,,,,,,,,,,,
,,,,,,,,,,,,,,,,,,,,,,,,,,,,,,,,,,,,,,,,,
,,,,,,,,,,,,,,,,,,,,,,,,,,,,,,,,,,,,,,,,,
,,,,,,,,,,,,,,,,,,,,,,,,,,,,,,,,,,,,,,,,,
,,,,,,,,,,,,,,,,,,,,,,,,,,,,,,,,,,,,,,,,,
,,,,,,,,,,,,,,,,,,,,,,,,,,,,,,,,,,,,,,,,,
,,,,,,,,,,,,,,,,,,,,,,,,,,,,,,,,,,,,,,,,,
,,,,,,,,,,,,,,,,,,,,,,,,,,,,,,,,,,,,,,,,,
,,,,,,,,,,,,,,,,,,,,,,,,,,,,,,,,,,,,,,,,,
,,,,,,,,,,,,,,,,,,,,,,,,,,,,,,,,,,,,,,,,,
,,,,,,,,,,,,,,,,,,,,,,,,,,,,,,,,,,,,,,,,,
,,,,,,,,,,,,,,,,,,,,,,,,,,,,,,,,,,,,,,,,,
,,,,,,,,,,,,,,,,,,,,,,,,,,,,,,,,,,,,,,,,,
,,,,,,,,,,,,,,,,,,,,,,,,,,,,,,,,,,,,,,,,,
,,,,,,,,,,,,,,,,,,,,,,,,,,,,,,,,,,,,,,,,,
,,,,,,,,,,,,,,,,,,,,,,,,,,,,,,,,,,,,,,,,,
,,,,,,,,,,,,,,,,,,,,,,,,,,,,,,,,,,,,,,,,,
,,,,,,,,,,,,,,,,,,,,,,,,,,,,,,,,,,,,,,,,,
