PaulMeinheit/Bachelor_Muay_Thai/processed_Data/E3/teep/scaled/JointMoments/scaled3.csv
R_KNEE_MOMENT,R_KNEE_MOMENT,R_KNEE_MOMENT,L_KNEE_MOMENT,L_KNEE_MOMENT,L_KNEE_MOMENT,R_HIP_MOMENT,R_HIP_MOMENT,R_HIP_MOMENT,L_HIP_MOMENT,L_HIP_MOMENT,L_HIP_MOMENT,R_ANKLE_MOMENT,R_ANKLE_MOMENT,R_ANKLE_MOMENT,L_ANKLE_MOMENT,L_ANKLE_MOMENT,L_ANKLE_MOMENT,WAIST_JOINT_MOMENT,WAIST_JOINT_MOMENT,WAIST_JOINT_MOMENT,NECK_MOMENT,NECK_MOMENT,NECK_MOMENT,L_SHOULDER_MOMENT,L_SHOULDER_MOMENT,L_SHOULDER_MOMENT,R_SHOULDER_MOMENT,R_SHOULDER_MOMENT,R_SHOULDER_MOMENT,L_ELBOW_MOMENT,L_ELBOW_MOMENT,L_ELBOW_MOMENT,R_ELBOW_MOMENT,R_ELBOW_MOMENT,R_ELBOW_MOMENT,L_WRIST_MOMENT,L_WRIST_MOMENT,L_WRIST_MOMENT,R_WRIST_MOMENT,R_WRIST_MOMENT,R_WRIST_MOMENT
X,Y,Z,X,Y,Z,X,Y,Z,X,Y,Z,X,Y,Z,X,Y,Z,X,Y,Z,X,Y,Z,X,Y,Z,X,Y,Z,X,Y,Z,X,Y,Z,X,Y,Z,X,Y,Z
-1.6675000000000004,1.8285000000000002,-0.58747,1.5418300000000005,1.5756900000000003,0.08546000000000001,-2.624690000000001,6.970590000000001,-2.22358,27.47978000000001,3.45335,-1.0013300000000005,0.38741000000000003,-0.09300000000000003,-0.008850000000000004,0.32346,0.29690000000000005,0.16472000000000003,33.92356000000001,13.803380000000002,-4.837490000000001,7.79793,-12.780280000000005,6.839170000000001,7.112620000000001,1.0091600000000003,0.6670400000000002,5.438820000000001,-0.21677000000000002,2.5368200000000005,0.9183900000000003,-0.9489700000000002,0.3235700000000001,-0.86994,-0.8198300000000001,0.26378,0.12027000000000002,0.0031800000000000088,0.044890000000000006,-0.18998000000000004,-0.14831000000000003,0.08654000000000002
-3.346832311385202,-1.6935818617456742,0.5460686419755506,-0.9965326234682618,1.22950327972565,0.07408619122740569,-12.875687087476543,-7.195626196634025,1.0994274287236303,9.29290423175635,7.497111862106142,0.6804099470050271,0.5080145714087274,-0.4755696178244751,0.05801351290877255,0.8098540421233704,0.014067440502701888,-0.01551819504640524,1.5059628318008769,3.005347287625673,1.0266736826077008,17.65956347231515,-6.1636368696579416,0.005329658892158001,7.32790969981972,-1.7599076539028526,-1.0135437123377424,9.864888910073956,-0.05338543559751169,0.6478041557985209,-0.7972415432559514,-0.7060556490177881,0.28504827295580376,1.8670269695058213,2.2087277060946624,-0.3010727312312543,0.12213992622641034,-0.4493567616313136,0.05237648639583107,0.2628394214205583,0.17989313355320052,-0.047498439051985974
-2.3344965035655063,0.08443216809559195,-0.10951503714742862,1.7541845674529988,-1.0496697614734645,-0.3294638755325877,-2.3402841815174673,4.408207438815107,-0.7172420346775976,14.165201069825956,-1.4332507516002875,-1.2237804405431771,0.391027149980214,-0.3383831606602213,-0.10873737853469177,0.49920989399294313,-0.21636883936875959,-0.21630668517088908,15.453794994342259,1.7669694786618177,0.6615229379248749,-4.371822613423654,-7.40479929473723,12.22301684959367,2.275121737159923,1.1348918082776551,3.739070480503371,6.083545024955703,-2.275018669900418,-0.9948281795658186,6.102824228789687,-4.731141447402852,0.39607151063047724,-0.3587457115592211,1.4778562622418463,-0.9627454620618269,0.6635901109000336,-0.3611350122068542,0.06625938022204979,0.15638226763787755,0.2367972538956461,-0.10364426497900141
-1.22202921231811,2.158740234840609,-0.3726560245117472,0.11426424276971262,3.2039211835042836,-0.10660161145104557,-3.9886209724507347,4.791939008953212,-0.7496581865885091,24.932085774111773,6.959241200333072,-2.130285443527908,0.5796346819532753,-0.16827408390387175,0.09337157707791932,0.6543963548712005,0.17522372591279922,-0.10949465596785055,28.90786657837159,6.737704710955325,-6.804717756846908,26.01687440728381,-17.607920254432994,-5.708990472828824,6.017495711278626,0.49687386282845825,-2.1859664241780377,1.8780617759436207,-0.11028061594736972,1.035445785461583,-2.410229208697497,1.9603499220143454,-0.4858485261388791,1.290031465704227,-0.19826598797846004,0.8214082968121229,-0.3262410692553647,0.2205533718557252,-0.127365218971463,0.09490946130208816,-0.09864185818922491,0.1368999156070766
-1.1649457204150833,-0.22030151528299124,-0.09359330950564895,-2.2885835855470056,1.383707096367845,0.8037600845765025,1.0880504227982897,3.9987939627102707,-1.4941190729400011,8.721379643118873,8.885555417003443,4.997484576810923,0.34111683062385406,-0.2620621028303349,-0.02187943130734856,0.439936714162184,0.16598292036762485,0.28475065266403715,16.824078116991338,19.18501432763876,7.352496560620871,17.945861062355803,-5.605587289812927,0.7672926874551917,4.985427419146585,1.3925997164398554,1.2982419818679758,7.922014463108202,-0.10603269419605621,0.9345897510702778,2.485908932787717,-1.5440766157578785,0.03194307187879497,2.6623567450304955,1.6966436559501514,0.429688972111929,0.1712989362659807,0.17831233747111488,-0.04509769982312609,0.3395859807417382,0.20879301241123657,0.0308479261794029
-2.522013732935755,0.9387019008392673,0.06409220679500281,-4.0125427566271075,0.41092536016014547,0.1964137088364859,-3.1233606230039603,-3.0266986552986284,1.9581264054947656,3.897932210987005,3.9021899089868004,-0.2107162569666401,0.4351299044662553,-0.21434400139485627,-0.033245375969322345,-0.2520373385730334,-0.1627527843642735,-0.1643527970445648,4.2708896227747335,-4.068426653375751,3.8880865538481033,2.1734112295979746,-16.48296872786146,3.8011342443178284,3.7044108055362464,-0.3231419358646782,-0.3072178875855236,4.433108066635482,-0.07350060688961452,0.9441060199898808,0.5653064768176737,-0.6485313469794135,-0.12416394838959209,-0.38429626278126827,0.4630774300760725,-0.08321568332912418,0.1319128064227322,-0.18229264670825,-0.03206773949756811,-0.01931628718491715,-0.00789956237276862,0.0848448016318044
0.6586913332596217,-0.48134814015223765,-0.13561847377867306,-4.853137762043881,3.514641051059922,0.9432757375834031,7.1417923272443655,-0.6116509354595233,-1.6041438136045816,0.4696076745112564,5.571015518171332,0.1446942869580404,0.6370863724943483,-0.5084102707896674,0.07748588852436196,0.349116660085652,0.32327419559623044,0.3819244597670262,13.906216981516353,-0.758159580330739,2.790695818914322,3.778805454332542,-19.468505477591343,-6.041243804202372,9.674832359734417,0.3728870741614525,-0.09440121592818743,4.881072889300834,-1.0601658328623735,-0.1591017948073526,-1.9616429668503335,-0.386705355580426,0.6594369738078079,1.7895324721773063,1.2777878469445,0.18386447775253487,-0.36285147738369794,-0.009464824231152226,0.07253265927578105,0.14920057663535702,0.06787709874196646,-0.010000648487864921
-1.4205113733637034,0.90054566600184,0.2181402244361328,1.3004753929925572,0.8075165112371872,0.08225550007717099,-1.7312491363620246,-0.8259263241451512,2.6500138586146904,19.805528548659183,4.974637788320985,1.539474484318547,0.46647226931531116,-0.13957031662836783,0.025154221911909906,0.5562853685014632,0.11620602345484866,0.06837784591339899,23.225392121887925,1.846285518441194,6.623813996559736,7.185427790060671,-9.566085468416997,16.053793183550724,1.008931853620548,1.2880318918610532,2.9134424999246185,5.344195050160534,0.9571351416693302,1.9052389822193776,3.0800314769825587,-3.4268667484896067,0.3984501836081113,0.1192539140799733,0.3064112378377989,0.06963359874340457,0.4082053244927879,-0.45348437094970123,0.07024793478847279,-0.028137338790543212,0.0699708017446983,0.003518079680554747
-2.010851919540827,0.5017953041632073,-0.2203408746583698,-2.1177927100309852,3.190075660414591,0.22128340562764687,-3.125547133066264,5.547403629350064,-1.9958260267653012,4.86976509063879,12.413848732992681,3.4333099598856407,0.37841301521811677,-0.37923548884577113,-0.018739752084235232,0.013241546931872655,0.14452045601566713,0.10619513966465638,2.1554071464713704,21.811667441108685,1.9580504822696576,2.8926348058016944,-21.9849346469278,-6.405880748342481,7.48934942661706,0.7563602134482355,-1.0211858204822382,2.817766024493372,0.35910764419849556,0.13053709223971588,0.4013726695900808,1.0914659862319869,-0.06790261494368303,0.9510499549452064,0.8699670802546406,-0.1370233158330812,0.20975061026798592,0.32157784856513727,-0.014494647490217422,0.2225655730097603,0.21748565290121175,-0.06609587104253153
0.10725775713335572,0.5076057370628199,-0.052302700583480216,0.48892794710598336,1.61950905956435,-0.0005010220015912933,3.3924548314023526,-2.0565708266648666,0.6182929528329307,5.823453904369488,3.170458597312191,0.996729309631321,0.7350942630251178,-0.24789369918101187,0.013175552066404151,0.7343113952986067,0.07662950337185032,-0.05289937252044912,12.612483843460957,-7.4437259137436715,8.823644154573016,-11.504611819845795,-18.709157473888865,2.751008315587467,5.952332792317316,-0.014267660648131245,0.041074661188081854,6.976792761622744,-1.1176565074621658,0.2948175501189988,-1.7498704278113024,-1.1201640823097605,0.46551269900735465,-0.6927961831386991,1.1417937156103881,-0.5885108766584929,-0.3726037383811841,-0.34568876494991885,0.06001005895035533,-0.12562525864878588,0.07353167421999715,-0.0472465358860747
-3.8114026876594393,0.42996475544611645,-0.028278026684221205,-0.7177018868075177,-2.7823221420479984,-0.20230373752756858,-14.54884124483373,3.9496009592436145,-0.525400343613473,9.141888028349872,-3.836951598256102,-2.8770640711549382,0.15264287678160818,-0.24536460252366887,-0.1404828478093548,0.2512626504067323,-0.22537085736867907,-0.3251852574529773,-2.8321269175822095,-1.3581917746819454,-7.260567691031298,7.128446230944608,-6.184654002668889,-2.6740641284266804,7.001909342047752,-1.7332074420116843,-0.658649573744544,3.270446526063581,0.051198004372649486,0.45919225515078865,1.4039175747022759,-0.7954694912612283,0.03827197481181476,1.3034899078240372,0.5646156100492669,0.23198011935190466,0.08208763301154395,0.24385922280426245,-0.03429144005737213,0.08414363957492936,0.01565610823663611,-0.014157199165357579
-1.1658259829004936,0.15507343101982654,0.2516403632078652,4.336290879877222,3.9028933630483897,-0.3795197073171279,1.0843259982335118,-2.698803855526145,1.1412765568583956,33.78914131348853,11.729393697383552,3.353862512052639,0.6560060298519704,-0.36389316906519564,0.15586110862984187,1.283711794969338,-0.023515045888075143,-0.11428064111933814,43.80672882955892,6.3506296655420815,5.764175493572887,8.118110883343137,-0.12321049790702135,6.95827155997805,1.875653895579783,2.4955848320292717,2.394760497373163,5.593242951780798,-0.6052444935097756,0.774190159765604,0.9736656642039366,-1.9512079105973037,0.4095654835769339,-0.29686532259998566,0.7329174268058235,-0.21899921711434164,0.09994132382738655,-0.3020660831388648,0.08158053367271134,-0.05645783448078289,0.1301081138776998,-0.019183382317187546
-1.3335759755591439,0.7373081050018949,-0.20484032522811585,2.644772990747462,2.6189760971259997,-0.3770905324465925,-5.334094862502615,4.584380453429875,-0.5482940168557057,18.848731508821043,13.160453223475084,0.3542774829001355,0.4222073248913919,-0.3048871353512998,-0.10666355945230502,0.6475601910069677,0.1763782979640819,0.26219487108260503,17.038844196697124,18.383885561614452,0.8893120299257415,-2.9610547808903736,-21.221823186334106,-2.285167670055932,8.240437989754103,-1.9313026788487777,-1.09842202025411,5.920126184565022,-1.7661899373484056,-0.292785582781367,-0.5242745384199123,-1.1331646241972435,0.20208994431789215,0.27511326916944184,1.1984746978650218,-0.27103155480414504,-0.046879442276443264,-0.24594239477057778,-0.02058876253790559,-0.0449362076135561,0.10495297704160231,-0.052282032956794566
-0.8615056707592655,-0.11006245757488954,0.06002026440787968,2.7882145033301424,0.9668129666805227,-0.40101459553854923,1.2441154650893955,-3.6061294349347652,0.41542083330434065,26.555897133306757,4.413630925972449,-1.0572970110539919,0.6680633287084828,-0.32370111327799916,0.014604380134738432,1.0033997837868247,-0.005637887476836169,-0.13366450913502295,38.204838103005095,-0.030859016664271988,-0.4246290058018478,-4.07753576558918,-13.015867428549948,2.4321747745461155,0.7638799657501087,2.3799610423737114,1.27107554098118,2.706122319824759,1.5868075545659277,0.8780353833948854,1.5244539937174326,-1.0699197965770124,-0.5203284924466156,1.0052119341609367,0.9885845620795037,0.14505539199386333,0.059234404611479885,0.016388002505691314,-0.15005434203129436,0.2893017769344498,0.24303520377410548,0.04643755479734174
-3.2898811610027976,-0.17472584422457924,-0.0792617216482281,-0.81433718342134,3.130344630205665,0.23928176394158127,-10.946192255136339,1.2362301665238737,-2.2618725296094024,18.889181531801846,12.731509115159875,3.226812852184453,0.16142755164251826,-0.22572775361578698,-0.031637452157858584,0.09170953507809931,0.12677513492287112,0.012553543490311169,10.229945771679297,16.348448464926637,0.30823404073228405,-13.507270633123602,-26.97682917531612,10.214673850347046,8.61431450021,-0.35669223978852627,-0.3942806084609884,10.798655605809554,-1.0225873358058732,1.8995680900937113,0.2480669605164724,0.21036776588841058,0.8786222682117769,0.8194454874405265,0.5257417685401725,0.014532563484768633,0.25106133793229435,-0.04038861046154014,0.27153557053304384,0.14794983331473,-0.10736882424158131,0.05197292517603977
-1.2836319087117434,2.1995602968851227,-0.09689021661713922,0.4437137358887678,1.5589684613998684,0.1620536052338742,0.3580921171363213,11.327813309540062,0.9263086028956445,21.099046026934367,6.678635233824759,0.38785997472311473,0.7036359136911579,-0.34926579670261415,0.07538398523624705,0.8279687793743631,0.16090380350209904,0.0657381500288782,32.226400821884816,22.59021583207263,2.7721464138999012,5.368740936306927,6.449476437207493,3.715516453748118,1.9447503304949791,-0.27460073998979667,1.4870826053094024,4.979046306118233,-2.2844099725333757,-1.3844585019388151,1.2989212503687178,-2.6550749956002297,-0.07752105920329498,0.10121667746101626,1.3377947542348014,-0.7143292239858936,0.04463618364052057,-0.15407296253539343,-0.1303202583324304,0.02840348577492999,0.10619406163771909,-0.12596986388440157
-2.9995096441666567,0.10261786971819907,0.01369056618368085,1.2098706752936406,2.3395156974618843,-0.18865154652198643,-16.766248381346227,-4.839538834422037,0.34259521640705337,20.800698389974023,9.800684364659988,0.23831642515639223,0.31904873154909086,-0.2104067412670854,-0.08468319462407849,0.4660488848622563,-0.07503497535400695,-0.04560040101469833,2.774633785998127,3.277246825296321,-2.066693540416036,2.3913572474619222,-22.268858395145926,3.3700424183275364,5.882533563412578,0.9367140673482015,-0.33927849013933237,4.813776393163925,0.9132182045594072,2.0441246891326146,0.35904470158296553,0.2583280482149401,0.12033783169309989,-0.1775304314701622,0.4551262971316209,0.40073265818022835,0.04211440041695926,0.033650772282947314,0.0776812429022182,-0.01877321092386386,0.12981033644228993,0.15569969503753076
0.9833409264473849,-1.0485278938525129,0.20010479132095907,3.418187633322503,1.6883999772304124,-0.29270554057838083,8.469329528830627,-0.34285339216422894,-0.6244600278635685,33.50988394083064,8.275895741781975,-0.6577968961712264,0.6110232379935758,-0.3255317204650637,0.1670253126377878,0.8444062092276898,0.11622006303663242,0.017574838387377223,56.38380351208314,11.775731952116688,-2.7965095337105876,-13.001528956260742,-6.061071078370458,-3.548184178999541,5.7862892886915835,-0.06711971264201315,0.6625137336008602,5.798403201191149,-1.6705625330694887,-0.6096866044684209,0.5971660536162104,-2.2136932098373787,0.034234947356130495,1.5597737721066434,1.3484533624698702,-0.07683555769032444,-0.044750750817860833,-0.3828227665228435,-0.046402964531171174,0.18527056872538447,0.08444531937747128,-0.044089070670855275
-1.957276733736001,2.776141596102086,-0.4413067035825093,-1.9812951691646183,1.4677676781760336,0.2502344800324041,-5.763426271355194,5.1599581571075195,-0.21993691276633545,4.613939775398032,-0.18884043609160375,-1.8196541026191235,0.5626237095137263,-0.20279253073611325,0.028453819455640236,0.27707790205765875,0.11398974478370522,0.02422195188965175,0.3504115351516434,-3.034219693643834,0.16070054658721125,16.452979155569274,11.644938401038454,-0.18307581451232874,6.024449198016355,-0.8134417985514663,0.5881797471859251,3.2656920436566987,-1.1349993108938443,-1.1512426798640933,0.8232474784420998,-1.5907473019511362,0.5535662434789275,0.3715051831858405,1.3903955413054045,-0.48623925166477844,0.04584060183386631,-0.18729999280093126,0.12569815052235572,-0.0911409597611743,0.13460577680292637,-0.1424612758436717
-1.8363323145411568,-2.1047899097057488,0.31519699488777947,2.6290903878446388,0.6873568640234529,-0.2978454222228105,2.079199987813715,-6.547665311092114,1.26201470413442,17.996307156230227,6.784187418180492,0.12686388640214405,0.3129390334383128,-0.5001361030748355,-0.19504442591361293,0.864842691636216,0.04742530036721156,-0.048479076133076775,27.435167313979132,-0.22044353100537512,5.4134642937818755,-11.779890068955767,-24.860579094357945,15.550352784517289,1.704285598288697,2.288015357736865,0.8219845140010077,8.471388858620573,1.146625272746914,2.7344721332827064,-0.24549169229169937,0.05394811061931026,0.014675503857734534,0.2700724211268643,0.5866786054607283,-0.01136552668438677,-0.09725260053098629,0.09864983383684497,-0.011330807466994126,0.15908035210502405,0.1962369880446029,0.02442439548014557
-1.049743987537221,1.0810482940810529,-0.10381157993510215,0.9253555697911509,0.49957668583042314,-0.14647375194613388,-5.093125367412215,7.186901952646112,-0.5022969944741542,18.842520988320633,4.572778507193682,-1.0436076516122479,0.6740980331163544,-0.18582190264351253,0.06002173692008646,0.6936188733185525,-0.07158041306968814,-0.05120385311620233,18.16661757277857,18.516685738584368,-2.279036372733086,15.069945463686548,-9.624761749378914,-7.100424478452497,5.752018156305123,0.00860618954403828,0.17316399160852625,1.8833370943872705,-1.1870406717493318,-0.2293960654226134,1.6348486912819982,-1.2303436955765237,-0.13421147556983418,0.8768591812827368,0.3324477481468331,0.3392640240983961,0.24788896233004803,-0.09204254254350422,-0.06165858485883525,0.03897231765183214,-0.04743644921912378,0.05858862179376767
0.4082242358330924,1.7258859490197556,-0.46121311891238587,3.454965672221371,0.9048086091774096,-0.3533281508408753,7.158225434582841,3.4977437136452174,-0.4776297072823582,26.710738189130584,3.399714329705064,-0.9531151797209306,0.4577087667115377,-0.2180192086137834,0.007897267230637234,0.792376006864055,0.07673081494708837,-0.1266208297649714,43.803817027148376,7.060641154085834,-0.9190265245681875,-11.456886954219991,-17.280011330807152,11.911422622061972,3.9355105964741206,-0.05881105229735789,0.4418786871228707,9.565538877908985,0.25914528271146886,1.0001496060650017,0.9579864376445911,-1.4067715933221736,0.020503302609497044,0.021149054562154185,1.8225579129706653,-0.6631306675691514,0.03283981486617096,-0.24419335309099538,0.004066818180376825,-0.003250218493229508,0.190876081709011,-0.07833594808477987
-3.069702585917812,-2.307972785970901,0.5330327010804481,-0.21516193479708073,2.31318736571969,0.12106607133908404,-16.52430177213229,-9.945152410071167,0.4704576370097189,11.372677120055911,2.438252425374015,-2.1147240540800065,0.45874165790738486,-0.4452798162542954,0.02116649024394284,0.6398285274619983,0.1772315259800298,0.1782041836558887,-7.45529246236448,-13.713328293848713,-8.06845189461828,25.22695248846965,23.620702575001843,-13.496128597104859,7.460229054157723,-0.9965461387914262,-0.4386361434519375,3.6873904113251057,-0.9887396462326367,0.045407864170116,0.788357428437621,-0.8426861671811468,0.26877307901732017,2.136629101004172,0.991202888516306,0.6805121068511425,0.02449566486374466,-0.12533920149051128,0.09795183636893265,0.38640883020932243,0.13313323179585174,0.1464911825954098
-1.5096379140597342,1.1763870989091112,-0.37292700722576216,-2.5988773256922553,1.4455932844689865,0.39011440806077563,4.497967505273282,5.808373413033391,-1.3216276815814303,-1.8972539826751875,9.272122773053884,3.695164462063938,0.5153427212333441,-0.2631638639436784,0.016592989721394457,0.3463471712372913,0.0562340963583101,-0.019984178930894127,4.45298274232611,17.947834411630744,11.168074078415206,-8.144999901495842,-26.428835433469573,9.433665523702228,2.82872251552684,-0.2963193230380653,-0.4024387805994372,4.159511573120877,0.3818183612762134,1.7982771172395684,1.3382355530570382,-0.43605067092758143,-0.35026365986686453,-1.3746767570749205,-0.9406336365811343,-0.41187471181485924,0.21366364255396822,0.021997979231830535,-0.09424961471934336,-0.40060884084021287,-0.2890569967907605,-0.11613728978084066
-2.55958765776476,-0.07972618614273824,-0.06035092396521509,4.4495025007750755,1.9384278577591927,-0.37916596051382995,-6.271215541378124,0.046833447978562565,-0.4630609498382704,35.68020287002817,6.115093140249893,-0.6432484878878214,0.2511158347869039,-0.2039666923328991,-0.06521933620362859,0.8326336695210699,0.1066542526763525,-0.03453216050139366,40.860056301889905,9.066434804575271,-4.859063328686937,14.637666496946203,5.293321601919443,-2.1837653189680393,4.494654389143658,-0.0899812803816685,0.13161286899430244,3.723915182268139,-1.2411643856149295,-1.633243875334795,-0.3781969193302712,-0.8457225224029192,0.23186892439691095,2.0880476514012853,2.62937884475954,0.06213388153408331,-0.35486448872606885,-0.06491866521118239,0.05807558758475617,0.24073319737162396,0.4316734909459606,-0.03627919009113
-1.4007200809330247,0.8792652259151389,0.0679928411616357,-3.6620502763341505,3.917569624957642,0.3276151367993101,-4.7943627977661025,-3.2398021529559604,2.6492169153832976,-8.79166057369702,16.304007952193526,3.4061553303622834,0.7509997701450977,-0.40082831874966174,0.12240252579332597,0.6304575697949625,0.16164488524771164,0.10494010865117402,-18.081914576989035,11.102280482789052,11.628152681973368,14.236752180098376,-14.354104882777593,-6.970516029830812,7.860152295687805,0.5402201186943677,-0.42242743080155926,5.236538118716274,-0.29099903816639033,0.42593879954092856,-0.26562561976280524,-0.19767900754334664,0.25246739376220434,1.7767433913484016,1.1357885069099443,0.3264361153393691,0.3117280293843417,-0.21841601670909266,0.017162465887189355,0.4624993108136337,0.20210958371383822,0.11549975042110093
-1.9239980110962014,-1.5958346492492697,0.3100884204459139,3.8777388613820714,-0.4197520185686222,-0.1859163087334481,6.508681900595803,-4.817790211431965,0.18548401996787833,22.201469545431003,-1.1444945624659373,0.3002754357220914,0.3728436668997565,-0.26811239908704365,-0.06837976972647308,0.7550017554954598,-0.05913214661408333,-0.10087063331349594,38.506408645447095,-6.49423195196944,2.450863488715363,11.767939268090814,-5.03229384330812,11.072117450810431,4.692182076629225,-1.2089543648729406,0.40020762933395676,6.296524605869973,-1.1852656682492337,0.6638659728725761,1.8380121008425268,-1.76510452620395,0.2646273481138673,0.4237815479239629,0.6665747348506224,0.04537452731423566,0.04279214946640634,-0.1477906658980578,0.08731257719921666,-0.08714314747389824,-0.037838561315029086,0.002398758466597269
-5.196817135940167,0.9112794690427366,-0.23420061429591943,-2.010752565239569,1.3951881687931706,0.32016969046468857,-17.44707306727244,-3.3020198313053593,-0.04159036023205892,-1.125536232817841,5.584690774353728,1.736912353512381,0.39341151527039003,-0.24527666299021936,0.04911410202621147,0.41781062475867364,0.15385545673035494,0.09135717980125524,-23.84667589496516,1.0068932897758016,3.5339453201367257,17.899609796036597,-2.9822306426857352,2.951904252989431,2.2577801014926426,2.4278983912569965,0.5567446347849355,3.980256001643864,0.7597870797110028,0.9556686856375975,0.23896172135170735,-0.02427840670712661,-0.36855860645213967,-0.44008894083605976,0.4128642788642066,-0.4375268584958366,-0.1853083355539203,0.2168798712501938,-0.10934116374712001,-0.1523959030887267,0.03006408114885124,-0.1111763771215909
-1.8472579364942265,-0.6802110657996931,0.3595364366871031,-0.6853141835232534,1.1826540708511564,-0.18660060664962008,0.7749274612688515,-5.924240684928265,1.6009461155055282,7.521319946224911,5.151179394189932,-1.9684992291062737,0.5817023057207584,-0.3331390406342896,0.11943280539289962,0.8019149395055771,0.017784614253752253,0.006615725626471649,13.654500292393273,-2.1518373263499386,2.4766245955511197,7.530138120033301,3.7323360558176235,7.106857821751697,6.639525688065943,0.23678869217450485,2.1391048655051033,5.4200618489236385,-1.1119052939058394,-0.22314583186638193,2.572086262787428,-3.41672985585538,0.48308593630455937,1.661122823936512,1.6943856490375282,0.28495285010613586,0.1054460924587837,-0.26759934731785484,0.025263576226195874,0.1957594721253113,0.18377028750607305,0.06037910371909072
-2.750041856991442,-1.649546103242956,0.4349928306729387,-0.7257940081431818,1.2208711650150306,0.04665893140592775,11.521953335741463,-8.878244825856296,1.9344729542962373,4.660185866210562,1.9483704803202289,-0.05827605120823981,0.3814133377508074,-0.4568936244399185,-0.10981585831287582,0.94070758229163,0.10363538339398397,-0.06459159188565189,19.95138356518404,-8.639642005261361,9.65578754600177,22.707892731693285,-4.025241924129931,-4.106117667337293,1.1496653074992946,-0.8620506062058263,-1.439122008500814,4.82519370341358,-0.5768667688124851,-1.3568005055854209,2.3437147131515323,0.3621708237098419,-0.8902638826603506,2.059981339623398,2.6831150069795844,-0.2955466269120504,0.4681781355170663,-0.0013427644757033185,-0.08466098068582509,0.5073143410609466,0.47613596768713207,-0.03420340764863477
-4.006286517872954,-2.4986224541331814,0.6877307313101496,2.1742390906719407,0.6229593036701494,0.3593237212876786,-9.97149789558302,-11.114360101317946,-1.502851443105258,18.42151933202089,2.9847158610280733,3.901250486723518,0.2860617509215318,-0.34313056087018146,-3.24168863116493e-05,0.05036837585970411,0.06698135267852923,0.07169808499565711,13.051223748467251,-10.531239283149137,-1.1748877036299201,29.838434759273724,22.436653924958183,1.4106915683770538,9.998283149314574,-0.0381841857951358,0.1331331118988613,8.33388666835262,-0.9635439505111609,1.1170898997832708,-0.11042913410425013,-1.254741723766883,0.4004979189916839,1.6896398959887524,1.2560820266896813,0.5591064712202295,-0.19175652713974925,0.15753011212216664,-0.06468017471743118,0.10749883155864078,0.01269681622764265,0.11958297141025026
-2.6654407511911957,0.7828763411181692,0.2525475431390253,-0.18416725706135584,2.0843002905109924,-0.32764021822286143,7.700265327996146,-10.817612383950804,6.299576816952023,3.680256625369474,5.229140334186674,-2.627736219843253,0.47193291589368447,-0.1448538861159887,0.03167194405500045,1.2825574463474594,0.014666723170685085,-0.039607649528607396,15.051195318141268,-12.430769477851888,8.332977004181773,20.40366916911913,6.196502249729374,5.721842166787274,0.8024656011318096,-0.042579145777265875,1.000729153039373,3.6216573369914915,-0.4259656461729833,-0.7616388697264902,2.048433223764735,-0.9867135212195461,0.547169496338097,-0.23358286537471973,1.8494449333964291,-0.561743955545532,0.11836945268425822,-0.33073288024005176,0.3127431842381227,0.03233573158565346,0.40331424545341166,-0.05255656136747598
-1.763077810772514,-1.5723342876377913,0.4113105416960189,1.3370588556347052,-2.1736317862244072,0.09032589839884758,-1.0824990017765113,-9.899560415986413,-1.6353115562477238,6.970699399480372,-5.489785703432197,1.1636850923046649,0.4500538549474794,-0.40954242708901545,0.12020880396068785,0.5064183458469537,-0.07517650391236064,-0.15884127315286634,4.720400884903054,-15.833300030881357,0.9850951850627969,47.60462123424631,16.864456082529625,-10.416482233218753,5.43081180808166,0.4387284822587083,1.0651890287810284,4.35420463117977,-2.084646479992991,-0.8790237409853567,1.60312576190058,-2.2675283307517704,0.008469498404674725,3.038131209526778,1.5143788444957458,0.6587978516431096,0.1879069997820606,-0.19617768379797362,-0.1410679327887007,0.1977439625899362,-0.024359015366738495,0.006711848630701681
-5.503484736148059,1.5182839335647174,-1.139578793079365,-3.202984311302731,2.5912571932071433,0.2565173901216842,-14.054535646371788,5.662343700787716,-4.070700998854716,9.966001320647473,3.6991028017483316,-2.1646513127147173,0.3937501960846388,-0.22846213021571918,-0.09061794464248904,0.17074056255603945,0.23942066684591146,0.30797754369583585,-6.275838678336743,9.957839951567232,-13.359548792199938,37.13042664126238,9.865291839446266,-2.2766952705699732,3.490392012653523,-1.3420698086922465,-3.8812637435701998,2.885122429129644,2.3571516969083253,0.2110596993154428,-0.1651358250898508,3.514825015643306,-1.0574029289996008,1.1831920165499346,2.179181697204266,-0.16288580448875561,-0.18985426802902935,0.608775627221251,-0.023514745239731825,0.36034607647769273,0.5126559945727169,0.0020215245958837827
-5.527301243753694,0.7501331666750457,-0.493680954870049,0.7124219666858373,-0.4381339935832117,-0.23800130100643815,-23.219248306188963,-4.392870371061115,-3.860098706359749,7.554763928428331,0.6762711926679862,-1.1335155305246074,0.34805084152338184,-0.08561194707533686,-0.03309132189933536,0.7407389574823353,0.08373355109080304,-0.14739011174459052,-18.568853428875236,-3.2725903254442597,-8.00026325202603,38.054462475791965,31.586956736604545,-8.587620436464587,2.4864061005148366,-0.8359108088816822,1.9053517974799512,2.8447257032837,-4.162991805674535,-1.6414819981488993,2.3027487838043337,-4.096081159638811,0.30177018097123737,-0.1531471034917511,0.004209187060554727,-0.27766695749655934,0.4688592330419543,-0.841733826617752,-0.09533132361808595,-0.29414379262135515,-0.3367667083185896,-0.08612390306200997
-6.926347954395622,0.7610194174813995,-0.5805694430174352,3.989585267196994,1.927357466496264,0.0029266741784935574,-9.660097006197326,-1.6564350407988018,0.5401865862830816,21.307139860273104,4.545790853673103,0.8864820448993596,0.15969046252389282,-0.590058711562909,-0.22041705956557736,0.9987359461392016,-0.0980137664248624,0.013853470719739046,19.618829968176843,7.451169623861917,-2.790359890682681,31.754273262458113,22.958337189180824,-1.49063437569177,6.369745847500808,1.6008092169382753,0.4874119694835196,5.594866732022505,-0.30006994085088634,0.5808589315983999,2.1177619464056825,0.027085693960996138,0.18236532182654172,1.944644638530271,1.8678898099648085,0.9024940825845491,0.0864946934599771,0.36740483043378663,0.0824629240174036,0.28647053197263495,0.18103928256198687,0.2745792626661135
-5.804935914870605,-1.369646548859086,0.1902098797532307,-0.1553226452823324,-1.0923715994034258,-0.4807506616957302,-28.997534196907427,1.0070263510165456,-5.830014176590327,5.2392032961075055,-2.906373712798852,-3.9375360280775875,0.44499412489378226,-0.6331471206062416,-0.2209386679138114,0.5778432047750056,0.07154332947461728,-0.16974923556119098,-32.965265645265994,1.5363668836962172,-16.24225904145477,36.4255212415067,22.945401774500382,-1.4832262304894854,4.154831697587126,-2.681013843392794,-3.662967439118478,5.00662965921064,-0.11757131020592201,0.33379328943141107,0.5646239130550345,1.0593787737101295,-1.340136566637534,0.36666347473443334,0.4642485959933528,-0.623926284242006,0.10409584612280538,-0.09726669432590677,-0.2044200458618452,0.37799232596996396,0.29453700342649614,-0.1240262450491034
-6.740895295290448,2.3700075627898483,-1.5614044131666862,2.0301012845801725,-0.5847685114587541,0.09446317331688354,-16.68888940768764,7.014468871344086,-4.024805857761146,21.278486320442262,-7.4896163077337965,-1.4250572166242912,-0.1885952138033433,-0.05204234990362957,-0.32930003260714097,0.5962554117201327,0.17361070684475974,0.04671779736814767,7.502975543741696,-1.3009095011875125,-13.221177256617633,53.247463541715035,29.999416427718348,-2.925204731522502,6.2835020474344105,0.6686585855896856,0.4487627370058984,3.7309898112154167,0.929933825524961,-0.12998041510569622,3.246458269673571,-0.42726351145441166,0.35979939842772696,1.7595362685617022,2.3767609784390378,0.34413362836221406,0.3543270105759599,0.09017019788926829,0.18861270910354916,-0.1674353576902242,0.14928625482230953,-0.03911574589958474
-5.49713713401253,3.4521179399273434,-1.4732779252218136,0.10908735328747403,2.5740290905674605,0.2611730241897814,-13.542154032565797,5.522815649228938,-0.6699844968802567,5.3891814821465225,9.853524271369134,1.5958684155493597,0.0696875443517911,-0.06694596346952746,0.13110433606331715,0.592582836468777,0.05875901184051165,0.22309393901530244,-8.500996111038916,20.61417179444241,-0.6251272959688197,26.112292804653958,15.289762009448259,-4.621678915841205,2.18118366940922,-1.214501282609535,-0.3706588746185142,3.3074409834097995,-2.9367361740255267,-1.836689461797995,2.4867311228673996,-0.8687046888349333,-0.5038004824798742,2.6509747071668626,1.7757320988727698,0.5633581399980043,0.2127517288565048,-0.02387134497680133,-0.14040371025899295,0.315331854184179,0.0640949592834257,0.0722540607568838
-4.800365334080407,1.5460431673085713,-0.010140320565346542,3.465901095658711,-0.34916461830584594,-0.39889241412836784,-19.686552451759475,-0.6756098345170571,-2.122914583154981,11.948163139515461,-2.665830869314637,-2.638219559582335,0.2221323917101515,0.23825355564145326,0.4167958089306619,1.0432813395381535,-0.0087977615612013,-0.12207479877875946,-13.344588359255031,-3.0796348483349423,-9.36696440469954,72.05940740222768,50.0621657053966,-3.018105175805144,2.432862549355835,-1.690739477642205,-1.910639623115249,3.416198296937041,-2.6332861145545507,-2.3998943747999983,1.683405836271012,0.22961244646070983,-0.5967657353644523,2.2765832772761803,2.761585314827161,0.3349630097964866,0.24472859250908963,-0.4688475091648958,0.08966859037077625,0.37017858019587685,0.34153319187306,0.10922143518620019
-3.9589032627566096,4.008424316260249,-1.8337811963740964,-1.6888807205062961,1.3911572582507779,0.3413536419901714,-5.324848534979431,4.922767040216143,-4.3554799573363,4.674539996053617,0.5347896052319236,1.1497674835226346,0.2027392882605127,0.2666202625657772,0.33335386346255785,0.1433816983692889,0.14844995273588799,0.09542485504238862,2.8475291832762517,7.244769357898232,-3.3991499994533014,26.956888356873808,28.48117766894863,-3.758611303354145,6.006739534968612,1.972211152815524,-1.297155401751387,4.274728600887828,-1.00693274381155,-1.266614511836956,1.3337572967265852,1.4209911528382784,-1.0507633611729823,-0.03403319182978939,2.1215140830310477,-0.43325329748423685,-0.29776414351050073,0.8917710546771784,-0.2859718626473008,-0.10283561724143164,0.2848105230919949,-0.05108514980770087
-8.83690623865565,1.3780027389215628,-0.5484299315989188,-1.130052049983438,-2.1155552988845545,-0.07098442949894761,-14.227382419064073,3.637938827450231,0.3123828810139774,13.388648336149846,-3.323054259883554,-0.6347217067711115,-0.007640998669038705,-0.5498767702448145,-0.2910889182030775,0.547360162432235,-0.09462419370858055,-0.19921922007384002,3.091902270830164,4.460502927902863,-4.336260844974747,51.27568139722276,19.963802878791824,-7.75722378228566,3.877184633666217,0.3704605154608976,1.8016052755799035,0.8353488276431347,-1.7082368990978771,-3.055459270555055,3.671776730516584,-2.2556906054788786,0.41857739555107737,3.0001922976938045,3.0716297753772968,0.07395321819510989,0.5975361180635262,-0.17142358522927303,0.02144652682718983,0.35541581280424256,0.4162474051181066,-0.13463292587626022
-8.443301874833713,-4.064996911678444,2.0521429084325487,7.304404561698249,-1.3566920767984663,-0.6281086006851737,-17.22915649319509,-17.91917036772615,2.233116784637441,24.130804508733497,-4.533599939777091,-2.691881309875116,0.13598924200711698,-0.9846201522981337,-0.2788221238368466,1.258732080949166,-0.08963924380155307,-0.24072333473411583,6.818647313316529,-25.673040717090633,-4.952236312499569,35.35320703169207,43.46707311815005,8.559992616443346,2.390716974280325,-0.5733394580081645,-1.790199998409665,9.42869508367475,2.5560698340259913,3.0578355769932353,0.40917171011301917,1.047150887363089,-0.5989163354445622,-0.947823914984907,0.6798726673017021,-0.25918937661613517,-0.18702457229009958,0.0075154367171476845,0.03509960886986262,0.029008578548837146,0.17673537222328087,0.13247394445067187
-2.630647196461952,-1.2885673973435379,0.5715856887283813,-2.5352240896731764,5.741711479101488,0.6127177807963416,4.520296181968435,-6.443033929794601,-0.5666064256367949,1.5287621667554678,18.284971917807948,3.1675522688026336,0.28164154692616805,-0.5229560366888555,0.2386934398649932,0.35795400479089484,0.37981719766559197,0.46786697290594403,6.1980286537051175,19.53896323817507,5.859044611775533,31.297506904952193,27.425420095762743,-10.132774491688028,2.3444756268736704,-0.9181837410131852,-1.085062468322184,5.432370638082039,-0.4337412555352239,-0.8581856513864887,-1.2893989798189893,0.2738928271561318,0.31041577398528614,1.8903301693916672,2.5794473103448854,0.23723041675714143,0.1696977029899537,-0.21966265930238305,0.08628104136035841,0.14733263312577116,0.17675988745800333,0.007579053361898063
-4.378829345499932,-2.0753974173012835,1.1880472530759807,0.8712242850771876,-0.634369159871051,-0.173168264296524,-12.58790368490931,-13.789578453879631,2.745760994326374,10.364145289558994,-2.3655321541098693,-1.3145498803247013,0.11169504575004782,-0.5535982930339445,-0.051517955042123566,0.6537949012865093,-0.13012191571025286,-0.12626300937554896,-1.377870291856432,-19.824545021890383,-2.1415383514551847,29.833351461128387,19.450230577642937,-2.981321010057066,7.738184995498539,0.9688716920838727,-0.46868674111392855,2.425816944643944,0.6526125577802515,0.43545329949020056,2.730169147089281,-1.1046839206701105,-0.19846078339204898,0.7813087450366163,1.0670722144683382,0.287960929008286,0.3377813007286457,-0.4529258500908052,0.02144016425894941,0.0999798380008435,0.22140675545065033,0.03993656900853603
-6.240120049979228,-3.187578333923239,1.2342638116424134,2.551247716515155,-2.332858988058217,-0.19660467355117497,-4.0421638530680015,-25.715184542212675,0.3528252275272334,29.261481497302306,-12.715261691379382,-3.52722666475981,0.22221218842581714,-0.5810622175350506,-0.06263973764909353,0.33681825870934834,0.015364384517202236,-0.1657101838858234,31.841135757903853,-51.19607102636791,-8.386339307939874,27.52964188721488,3.0185932071748094,8.655661193128962,2.8589429415694374,0.628770325086736,0.7650612390071304,5.15377070265835,-1.221383252702,-1.0583129373639606,3.895575111543339,-2.328236283136714,-0.8549901504075588,0.5358044478276798,1.6893099072232391,-0.17542358723109097,0.4831227860678244,-0.46811548790784063,-0.3041244656033995,0.09087891248679537,0.1584259561112307,0.0019234668197084055
-2.683196187712973,1.227335432978915,-0.08085616796328292,2.8645250131882976,1.0362645361057423,0.03220541833476365,-4.267138904885679,3.8637282077361648,2.863897740862708,21.284112213305523,5.28404873446522,0.8681150056606197,0.36209177288755257,-0.4828526362113014,0.0967810652959091,1.2265376631422726,0.008323490937825348,0.08043750910938433,21.909563193702454,18.059226515309653,1.9844047833664493,17.87944454790451,21.62304166766906,-15.187753947701554,3.9408355661263252,3.0091874812105197,-0.6222760957398207,2.3222262673414713,-2.2210031084227646,-2.3776450219875693,0.5584554182485103,2.0284028243460606,-0.17106083450913395,1.41706198983221,1.930647022027544,0.07517547937455747,-0.16934757532779993,0.6915088433628838,0.03895029362953623,0.06790405265968068,0.06316060482916347,-0.06279930500801856
-4.666225990572909,-2.3596968459445398,0.6624945620644237,1.3567145627165167,-1.4993452977219224,-0.08162126563846886,-1.7732604275787185,-19.016045611202877,-1.6560408494520662,22.84920474690095,-6.4093723223492205,-2.814410097341399,0.312359990591537,-0.5370871592653339,0.08756417255306705,0.46865580180786204,-0.0348421306735788,-0.08673405743688282,26.588229737638926,-29.198765056318287,-6.2026879960152925,15.76593384429049,24.64360166541068,6.53629133370606,3.1978248486554515,0.4859588872280807,0.8078051027194315,5.572861096612469,1.548152695299655,-0.058442925009272145,-0.7251183922268227,-1.1565206323365766,1.0588865912916177,-0.05644576824683191,2.3143596324514606,-0.4878527434606724,0.008047564077335846,-0.2961057761817807,0.254441442366273,-0.058408628155062786,0.3080744243119928,-0.06410235408627445
-2.054660743968941,-3.821950037463224,1.369920677382171,1.5592681187170991,1.7071815214100188,-0.2746285093686302,10.38817730019357,-23.5858242847336,3.4155202956764046,37.28184045363766,0.8249430011280187,-3.882595496459825,0.3284800251885052,-0.6357582931690067,-0.08522527394652772,0.6956027576775856,0.160390136442264,0.12479176803860756,61.9426256443682,-20.60396222829215,-3.045891721240768,9.88946080627711,-0.38890337865085145,-0.22731861089235617,1.0952767194954234,2.326453505666374,3.1274195589979934,2.2458067320970985,0.06003869112990294,0.03894281388101326,2.449704732048292,-2.6473682805514533,0.830962307686221,1.2177779675457217,1.2423217084734586,0.5517583020040827,0.46628843795654673,-0.690224402117931,0.2184975477819889,0.19585405691858834,0.24251180463989258,0.10678461898603629
-3.462281372444772,3.487124372954214,-1.3909375126644254,6.339645304290439,0.8653543875913224,-0.6680213414696152,-11.795978273867634,11.038940534276534,-3.698325507921782,58.65187534907725,1.8953506282743973,-2.2147492335920798,0.33653811255397514,-0.19751504869680148,0.08265313557083942,1.1510893542050904,0.06588116715590442,-0.22714955099558304,55.41380115443352,23.42964045470759,-17.536197012691307,9.810436262934145,15.785392078572418,-13.090334718893748,4.6602230560945355,6.827485134902395,0.6936587270317768,4.110151365865871,-0.22618168296646007,-1.254774565558051,0.9401865003250208,0.3726755661696429,-0.8458263525885037,0.8953462761921571,2.0079874634220682,-0.25246608283115196,-0.5697794395209483,0.7343111007567855,-0.2653898223617726,0.048043235494071246,0.16599190824752827,-0.10708819538906887
-4.563800885814153,0.7475858259410721,0.2011695799767741,4.132475594740834,0.3832413283267326,-0.670755925608236,-7.945003690264256,6.775981310077559,3.354646958587532,47.44547093506253,5.099119021023196,-0.5023322652628626,0.2832692567995052,-0.6178652969502922,-0.06040395984966218,0.9707121918572017,-0.22771706945390213,-0.26766698782300014,47.333105915359226,30.406135371285497,-0.4904627465264202,42.233063542321986,17.173263587209487,1.1176251434408662,11.90727460480869,5.463017653890782,-0.30255609359988556,4.4354396504495375,-0.21498722213655147,0.14850979513645624,2.0899737190603034,-2.347939796283026,0.5499821465453305,-0.13593163450669388,0.7871910845995745,0.049308602224598735,0.36289132480505365,-0.3967852010738182,0.08094196133678933,-0.2544881152634074,-0.027569422670308763,-0.03246640518036656
-5.7249649667135865,1.9192552487551569,-0.5647085635263202,0.6920071347104104,3.66260207897916,-0.7871314085984864,-18.81119517462842,1.1169737904578174,-2.2302918521368857,19.24106835052111,5.502840504473185,-2.4243165997149245,0.3351542142268452,-0.36448284146713117,0.0507001270728981,0.7279339475226402,0.37724919149967934,0.1267549221821942,2.634402697199101,6.8078598453207135,-9.052349597214928,-33.324912678642534,4.709705750015851,6.369691322783218,2.6135113126936558,8.497296208094575,1.242718352395037,4.224797281061807,1.5615663813731662,-1.1995192859953479,-4.3711653844826435,-0.715242545632728,1.1722828243588537,0.6076902669124128,2.871885230450384,-0.7272085248342913,-1.398231595659282,0.25414205315814614,0.16233720262512524,0.1932598021064867,0.4696969366589407,-0.13406452806854016
-4.662139954619444,-0.5745692399580673,-0.16146017818294522,-1.1835239166845548,4.013563367002103,-0.8140044642972181,-12.168964800292006,1.7329169127755217,-3.749193821074598,8.063838324007186,12.287681593150642,2.33481329246414,0.1909301651067243,-0.5017813612685165,-0.1574220163864251,0.7070446090404126,0.47118246602657465,-0.012494697494147219,2.435458117576643,25.118795139507206,-2.65614414000098,-18.290622005561854,-2.1426029098845936,-21.86913870084274,14.944737447291045,9.065714134709646,-1.3035031130858792,4.4159256155858895,3.2358481225524294,1.913966704295709,7.685378098174369,-2.995776207362785,-1.5462161887563075,1.1857386112947297,1.784106751045021,0.7893625798685716,1.9826983622099559,-0.3618569364451209,-0.5605000044879812,0.17275442449694836,0.2856158887566111,0.22812809906591686
-4.037133711516606,4.364341603347529,-1.222826430781098,-4.634921829382059,4.118649238566505,-0.47531362469730504,-15.137270633918035,15.263988562980085,-2.8395102873853073,-14.716483130507507,14.226979445214882,3.862436142760372,0.40834978045689263,-0.33634106313828555,0.2313080129450093,0.9292975454634986,0.05382047961600147,0.018819448608227523,-37.58179107727401,34.75333338161478,4.748461915553003,-10.914756051345124,-0.6621862435079418,-32.97822611961424,6.552477078376002,13.614766116375058,-2.2769285936530435,4.464798254082741,-0.14944487038114002,-0.3118340542152398,-6.096406777838082,1.6300809481900644,2.5181967671945293,0.4447350621703511,0.6816200002620882,-0.25833770166624515,-1.266603199792363,0.6048248436091344,0.4338861249428303,0.0706875589910714,0.11427092205956298,-0.09369535689599756
-4.567761235144898,-2.7202074532757057,0.8241732326312083,6.129331174189869,0.9970643141037783,-0.6562255627262126,-13.309064555244916,-3.5862419958167013,-1.4850794664451359,4.478967242787002,4.849583187427539,3.882104312199057,0.3356227512288253,-0.5010844885258398,-0.11906978722984356,1.7284097163247698,0.28412243153306294,0.07842246258442205,-8.035340502307932,4.4821143567698485,5.1792036536417845,-8.469638847191426,-11.135075991128561,-16.056625397376955,12.681265043315332,12.032528972581218,-3.5733010741761566,-0.7350748251373049,-1.1419901560482413,-3.055010659853628,3.9905339834610603,-3.332666519528096,-1.1254244471958774,1.5755906286728179,3.322927691017563,0.06725347526391927,1.0097383514990557,-0.22418832410919434,-0.6311706333433849,-0.024007925072085042,0.46380920180917795,-0.04781520724303916
-1.5337198064965532,4.038533208538,-0.9661988637767079,4.257535732794252,7.406872981299381,-1.9810543648658525,-10.325806050287317,22.183037874876334,-1.1477484445044448,14.459899321673662,20.988249489653317,9.895034938639059,0.5847012015856772,-0.5676036134577512,0.15094816294193497,1.4731461795208756,0.2503504373093227,0.17844521796391719,-1.7280622419300655,54.216164570350486,12.75444540581056,-63.76787486174237,-19.92922070466062,-29.562058752039448,21.011668529704444,12.223725790834592,-17.18087733429869,1.5952213563848496,1.383030579039095,-1.2393259892265567,2.6425158618886506,-2.053163516026509,-1.029179288469511,2.42288517376889,2.5094120363795334,-0.3200312218446489,0.4771635133193781,-0.07072939890997398,-0.3648754544900115,0.17538842093497126,0.38949381268791033,-0.2160226887288766
-3.9214780949488084,-0.7261929185340588,-0.04134548686314449,-6.970117232102868,0.34179339810766035,0.6766230161696414,-2.214319591289744,-13.76473496350958,0.6909214680290453,-27.649725261020535,0.17081325825023,-3.420401946985933,0.16430000326582686,-0.4772996658465037,-0.17030273145673075,-0.5782751130369197,-0.08649655940814756,-0.15932587574548351,-37.12599578277349,-26.63443701282586,4.335053089347167,-35.07481387743551,2.181923098995237,-26.61747244724408,9.804882383548437,6.062801716109044,-19.06791295166385,8.993594447026743,4.669502999600389,3.899363292343904,-6.41610010637478,2.5923953731283143,6.616642958743868,2.2271058124559033,-0.3672743249193533,0.607604597838258,-1.0291362900130574,0.674471916154052,0.5269297097266458,0.7397949651463338,0.12665480848946775,0.16874126985233698
-1.7481457946290406,0.4555012813361943,-0.08982785135531653,-6.247968998284559,2.355646175952169,0.6391709929137683,-6.9904253138048835,1.7688976124675428,-0.7147839911596044,-8.064972772995937,13.866621054017006,9.599625108111386,0.3187335773946623,-0.33648451919721484,0.08973191577660768,-0.6408378544696304,0.17685922588948932,-0.15749733381746306,-21.923669843430773,18.17756333399498,16.74335374044803,-8.344591719934938,-27.323082463373254,-24.55296213336972,14.485716773656778,4.320596525818005,-30.955217886698243,3.585325097292229,1.9432667287182035,2.6908313918516478,3.0958953632593325,-1.0915067800815599,-6.883664187104778,-0.8808680725387644,-1.253430010816045,0.3918463629500295,0.562422326828458,0.22659086810305276,-1.2397308227706645,-0.47263204605736,-0.15725041102508425,0.0026328906526632027
-3.178670487711534,-0.2891162280157797,-0.08195860632366633,-9.959668601103427,4.2921447384438745,1.5908157712467128,2.784649025930598,-1.324992770099265,1.3288828764316565,-13.15053647256623,19.486074089289538,12.223207974966956,0.19891211638905956,-0.38829168264850483,-0.15435583789548527,-0.6680683644865946,0.0689806897622356,0.31348398454090454,-12.0794254770882,34.24506552812296,24.92282184904368,-59.30045262357796,38.08025227343002,-49.53078044909976,-2.777245551178457,-6.9977767517538965,-29.957143747073925,-0.3348777026271266,-2.351654409890332,-2.803918100394201,-1.9151309215292394,3.9584493936957847,8.35452531718377,1.0347180997027707,1.6139209371868606,-0.30356685642476106,-0.35376090614805017,-0.20873467065238974,1.070842353673451,-0.15527057591900484,0.07413309147000646,-0.046179824299361724
2.627704647167246,-0.41162454750678484,0.009338922649056622,-12.259188328332717,-2.4118263931724733,2.167803500676845,12.042488901896967,-5.305797072245876,-0.09018642504042301,-10.086840364217366,-6.73155104405963,0.9914421662779251,0.42891871021840733,-0.26821575027625205,0.1885455776018767,-1.230717576144692,-0.33607095065395515,-0.3330405218584005,6.1265974203813025,-6.028322310766509,6.648729366184944,-68.03235042659651,-45.64010445079572,-52.31477834553307,-14.921401650576907,-4.705780345183414,-16.81157521837775,-0.0027843699186872947,4.750732507097539,-1.077692806784824,2.168042485667361,11.728351145043586,9.574340069622115,7.3601568800723385,2.2748816516029797,-0.4563430922766185,0.060690291517924766,1.7457839798297585,0.7501930490772551,1.2565628554435422,0.35063837731321484,-0.19539400557778167
-2.681477807377688,-0.2798041761806957,-0.17055807987047952,-6.5402085569018,1.3849951015794646,1.225853939975714,-8.922351112803726,-12.590344854416378,0.8969014128286814,12.803229642170955,-8.510767631693342,-4.515320631494149,0.427295664614141,-0.5786289848330449,-0.10381539319897948,0.3403856444791171,-0.2534565606923157,-0.0014292426851433108,-1.8532855931515027,-29.243626206242322,-6.41879394407455,1.626332311478192,-78.38146514807357,0.3350502138007453,-17.333603076768576,-6.3830725472712,-7.1394983094064335,7.256361380267862,3.6848829069210844,9.956300926353796,-6.469873770479477,2.8929446399811067,-18.494685497460317,-4.112762825899664,-6.367749072535944,2.476765018768237,-0.38248462050612336,-0.7316360586434761,-2.41460556622985,-0.8283189649258741,-0.648525691439532,0.309236276507292
-2.0849603444781684,-2.7873328938476916,0.7270518133134191,-9.156052900788612,-1.525929580752283,2.1388130475617224,4.623776470818344,-16.551561755806492,5.081793817685199,-8.412849261299286,-10.942461934162313,-1.8953600155279353,0.33164112915940236,-0.6453267103408615,0.01003240897848147,-0.15446980392755055,-0.2020504836004817,0.16682493689999503,-3.1884967909019455,-37.666930650742465,11.37085252046607,57.624549065998714,-40.78298780203465,6.509186675876281,-16.573568260954676,-8.16159610576798,-10.37087152524451,10.804746142767787,-1.531697711131802,2.2359482897770353,-7.020917092076549,-5.551941100896778,-5.525264277780267,1.3295476231812893,-0.05604295676115321,0.07581648776241962,-0.20476704809895308,-0.8310352834537837,0.6415802176522475,0.5437149647190449,0.08915989118494493,-0.03973997778455161
-0.486277290053522,-0.4965969019548955,0.07451980229317542,6.37437564943785,-0.5725905124502143,-0.8490598605930615,18.832786498452727,-3.6331524812044007,4.0454246319401,47.78687699743395,-5.329880768645762,1.944172147849393,0.20511297339490514,-0.19604463705092948,-0.0010720614099552052,0.8393745375929125,-0.31843094197442234,-0.0706425393317768,99.84486908383167,-6.161701685269314,8.4337211152882,68.75074028971454,-25.685342609020804,37.60133770566483,-8.482103239880846,-10.88784354196456,14.456351713121949,-2.5872402610561296,-1.073556335471686,1.6491855476435497,-14.268661451628061,-2.2581504195644686,-11.689086206744207,6.0055883375361105,-5.786092246042024,2.710558912448467,-1.8168741581402328,-1.6356468660155439,-2.345300604712967,0.6903126580808675,-1.0027361812065738,0.6201387278806194
-4.0223842747588385,-1.0656556512546334,0.10074533022120813,-0.0069236565281783485,-2.2056658848934236,-0.12432317106100067,-16.272722867372973,-0.824424736912992,-2.1058578270327515,40.7955492005375,-20.903319307120785,-9.79312643986469,0.2941132686538574,-0.5854989346079836,0.10354999213379848,0.1905750379503334,-0.19082420857027235,-0.1042202312324608,37.2988341824524,-20.563887218445377,-24.03611588062617,5.897455453057594,-23.092748796658707,21.7658400863072,-8.805688375363442,4.223635482847877,7.773297182397288,2.2008316996975625,5.088057885532863,3.8802975181808064,2.2949280162423573,3.452296134049491,-5.774650759574518,-2.693007695837424,-1.0282846602579672,0.5873721317456265,0.7006309274421632,-0.20058070052880045,-0.2088061551183975,-0.17556088375608725,0.06398360294907891,-0.14381016523785872
-2.3813820355420767,1.3768679822987737,-0.5718393782305725,4.5472375038598605,3.019471476872503,-0.9784169678540122,-5.825888451868445,4.53885576639139,-1.3841454344617294,48.50370181681805,0.11705855941883386,-1.6857510090753476,0.4368240978305372,-0.4752796434056504,-0.03325620186141773,0.9416237549915135,-0.12463634720383686,0.18394836180780721,52.39363420341223,9.975550976608089,-9.821385772433127,95.91939546595442,-140.17401601026344,42.310853151293465,3.9352001743763854,-2.603803370591942,24.388263258747717,7.816388939825234,-6.12544858297374,1.0108672117734638,-1.396899152455994,0.9163546117397751,-1.1104391767936925,2.1435813559957597,-1.9027697641422991,0.10052738852154296,-1.5615850490948515,-0.47396712494077975,0.9803309873003201,0.468749484789495,-0.39580334219845326,-0.06179818775027744
0.1150083644282869,-0.08341288359686862,-0.08561018236972934,4.645746339521655,1.813864413180755,-0.9548913378324515,2.222708483811535,-15.02669145678776,0.7387050245590605,48.04210067751546,-19.72577773916555,-7.155308894900012,0.25653016292109576,-0.0903612398192899,0.03993670138256281,0.34351703205018214,-0.0199450670974589,-0.07800123181542412,54.654861413353565,-41.862424655825926,-11.310137942290384,21.253860580941392,-25.45598189483627,36.11291790515823,15.781579462897097,-7.512153496702484,8.607754984018117,7.984036688429311,-13.973610684387038,0.772796439028545,-2.3453553031270444,2.9207857810662174,-8.795220665393586,-1.9772969544171244,2.5825532520798373,-0.2598170647689976,1.6236880287899043,0.6469431329390388,-3.611906641302922,-0.802407901161596,0.3188049996957345,0.3224912250157241
0.9138636313392092,-3.601846374346072,0.8622411126043755,-1.0151974364190421,-1.0922766854624009,0.03381151148751112,9.303106757157122,-21.81048406856969,5.446467389301671,18.307954164317596,-15.241918632900747,-8.650516998528712,0.7501753740924794,-0.9656674653021324,0.04591251519179031,0.7217856776128437,-0.1954936306244712,-0.13253752074585415,29.034994277063998,-38.97049259494972,-1.5949326611555745,143.47313680641216,-174.4492858343437,-14.67089388329536,-2.2267339604889833,-18.009027791683852,-28.319973028385547,2.001570888696624,-4.483304166342717,1.2743349567978342,-28.540244554676857,-3.9432959164091854,-36.871706791227474,0.8664793439277199,-1.77010076518225,1.0280741010529149,-9.628552701329033,0.37865862918505444,-4.451796941813518,0.30371480656154926,-0.446406498186664,0.2134838594456293
-2.4490188071444936,-3.129995271418927,0.47296901774804456,0.18782301669386414,6.563812361826128,-0.6554599924529166,-2.4862902332169377,-22.66415251574943,1.4118096522414951,21.333012432684228,2.6696219007640334,-0.10324572239369982,0.06431493132523697,-0.21744909788632585,-0.09387676057855772,0.4382129378310901,0.17629322874465206,0.11219056855315253,18.235839365765187,-27.913941507492275,6.311271976249384,-18.520184260888122,-73.1449425963749,58.08513016584574,30.25592079658175,-5.702618349957484,28.97013980235807,5.162094022475697,-4.394567097298388,1.6948835573907852,20.156884282188408,-6.198312108447797,-2.732009913405492,0.3961887605758672,-2.1385256325629634,0.8312461345200387,7.509207105229343,-6.178871804637336,-0.04621158316923721,-0.21495862710353025,-0.21041857543745146,0.1014113834185723
-7.913937540261883,-0.21520287634726865,-0.8360228359715663,-4.13745723526021,2.5559761598389934,0.7820459010618698,-32.78964958945684,-12.66931175958421,-6.610198614690597,-0.4174070382699965,-0.6670418561264281,0.26179285242390815,0.35024452012033436,-0.7774444008965599,-0.20343500164680436,0.4112597550427866,-0.2064496044020901,-0.007259448811453444,-43.93725734709309,-20.04410059215891,-3.8079806639520424,80.05283628048002,-103.701617116215,17.35555320828086,19.170871981620007,-27.519698827068503,7.229827360043664,7.977064666125716,-6.496286545518518,1.4090811241267804,-7.4223300060355,-5.792679136134299,-3.232784910285333,1.1971604273009224,-0.2608539049544621,-0.2020680214557127,3.748434605649094,-2.2987768380574285,-5.864460213609483,0.6909837896356967,-0.15129430430444762,-0.16274265271258664
-0.11132215762060443,-1.2662968682831375,0.39985002894506816,-4.637434410776578,0.4737438730192806,1.5199639712469952,-1.3522905860481957,-14.566891947704688,-0.2880220246948321,-3.6288320765501356,7.428057832641708,9.929843135149184,0.40803184699083755,-0.2133760466072717,0.29916553143726604,0.23421486220559853,-0.1970174003760775,0.045370098214607024,-6.450231205014573,-9.999350964099849,18.350857917407858,39.22172796767741,-124.15750585123565,24.070923780003373,-3.5205333799454306,-7.193846662093132,-2.6613816658878915,1.3370892194124542,0.8582719499697288,2.115622357464948,-9.432534997339436,2.698347672299022,14.480983331605144,-0.09725717459125721,-2.9149988473727797,1.9783842689974864,-3.0138258146509127,2.529160803610616,7.1764044269995235,-0.5546122865400367,-0.1916522741581373,0.3342739144579425
-4.047941107263155,-2.848800352646527,0.49649081776267123,-6.327661204564611,0.8226739159106539,1.4404462698242229,-4.794439961587966,-26.22002799019045,3.8613780901027446,0.43208761693299835,-4.300946679976453,1.1517291754218562,0.22906912006452101,-0.5643080106171017,-0.05768421274895605,-0.1514103050698674,-0.2767358275100529,-0.1168774503543067,-13.151792656032773,-41.469506256944435,11.935654125267469,75.34263688327225,-115.22238574877926,-18.29291457318945,4.333925970641098,-0.3109173889215448,-6.994611484851739,2.8113421299969343,-9.1921006594877,0.4620547793355527,1.5573206543719906,1.8615411690969503,-7.345517413311941,1.1980514314494242,-0.2968707732043775,-0.3917520180395782,1.7173300422696869,-0.043099003489085796,-2.034166900177205,0.15153953206983034,-0.22400332234062062,0.04588021387491755
-0.3463427309379899,2.093480134806658,-0.7177056316499995,2.1632372788445053,6.957522193242142,-1.1170502732830863,-3.799376876051978,3.082651154992116,-2.09651031053069,25.18857994570626,2.0954797508087473,1.3339128102324382,0.5481561620183726,-0.43441940919974853,0.05955280563455594,0.8806779756489095,0.18939230132587787,0.20683474945080033,20.080918521588742,12.819399698946496,-0.9501002254093122,70.6716967233156,-96.60107499017785,4.48093380639118,7.705631684058985,-9.21165953366197,12.448321713637185,4.972769625689421,-4.436211862536323,-0.14103986762708537,-5.562877445045034,-2.2208130874276444,1.0951659125391826,2.940439248038302,-1.8472747932876559,-0.4043163395772478,-0.6690171047438807,0.04157951634844334,1.5917459354104717,0.3529453940444761,-0.332635460433757,-0.049000346259317214
-3.4778763253407017,-6.437443411998719,1.1450488789981412,-1.320564099409543,1.89194194071213,-0.12979953862857405,-6.691567864357662,-43.61098910542102,5.064819111981842,33.18801525354728,-18.24911821886889,-5.344793620054248,0.27237291530100316,-0.6985741359123867,-0.2657412009088628,0.21698964771612955,-0.14495566409103416,-0.1886108834763152,27.43402571641481,-77.54891709213145,2.166222707199757,51.47450487107334,-97.07992078954322,18.168334185255706,8.263627518127098,-7.355570860274822,5.768362369593298,1.106745206557625,-5.8068894661881245,-0.6967219287363022,-4.550025670567517,-0.2842371935301391,-1.1490092114914938,2.5615349180038316,0.0784409116182603,-0.9019938005704264,-0.6890718120202092,-0.027462814220301734,-0.2375833397136978,0.32880518451052065,0.34123879476829333,-0.1896527283300132
-0.025939188297109617,1.926147981280193,-0.1799887160269356,2.7685139957078397,4.141669180135295,-1.1071328638386366,2.24767304323952,1.374264205558001,1.0226089069755453,25.253646496561586,6.031129004905999,4.34069446708937,0.49437162328771345,-0.3321984440930537,0.4001478517111479,0.8170605231682064,0.014874835563221708,0.014987421975122275,31.532048728091485,17.13634705738606,8.00415254104739,15.085207219594984,-108.484887842033,11.28726835995512,4.2546347479169695,-9.539298047010579,-6.873174673561491,-1.569150515903277,-0.9901221620181071,0.9934858287645647,-5.78743391207317,-1.531459631653688,-2.6289805279670655,-0.942116373138669,-1.2461628484513758,0.9531357119142646,-0.33999712915486796,-0.7846181325137777,-1.6546114909781435,-0.617101711044515,0.04068442875088198,0.11095772853931869
-6.468423712818177,-4.732636011151511,0.0666666540936652,-1.646482539723652,3.4905981344109818,0.4525087173019228,-18.96086698779183,-35.08618895451956,-2.8003503304856237,9.682243864795488,-1.8441158398988735,2.8465376385869194,-0.16479391481384895,-0.3661837384301201,-0.26382831030200127,0.4282454040520352,0.043008158285958366,0.11249688868843725,-18.445391940017554,-50.73271736582492,5.065099757544941,56.4252331715824,-77.58896078366942,-17.734510447403693,1.8820085763615704,-8.871389227360924,-4.007810150233029,6.521009968239009,-4.35604106587557,-0.2605857822015493,-6.639510708565981,-1.8617700023493526,2.4888900848565347,3.60264456092644,-1.825811906525135,-0.3893027981443545,-0.8931697244793246,0.002478620117379775,-0.030556342991039043,0.6961622165206279,-0.4577474963950043,-0.04641557496152797
-2.3463932359243915,-3.543861840235918,0.5555277851976439,-2.513817920534464,2.9526742590016517,0.22503330655626896,-11.164029625878975,-16.194473344067077,-0.19095012986544624,19.138929085894087,-5.499655135643596,-1.537326188102286,0.7014968586076873,-0.6990997836125424,0.010308712667049198,0.16650483073691957,-0.011021962124936951,0.07461776728244943,8.412540657618292,-24.134257559938096,-4.871637325965681,50.23243965135101,-80.07527098743883,1.5999682659891186,3.06570498986855,-5.986748481544583,-0.8677510094875156,4.457260421857964,-7.037176246466159,-0.022976256992999683,-4.728844070611808,-1.4612661696162141,1.5825422952645813,1.744841333999635,-0.5436251790167618,-0.2385279117344396,-0.7625354455068564,0.2009011270993156,0.9115334515092437,0.18548754315399507,-0.18195895844576487,0.06114297689426122
-1.3533941290343101,-1.312088924692685,0.04551686410031378,-2.9991881565303884,-2.2016993116421713,0.7879571493982545,2.792318866978929,-15.870039751370538,1.4612225888348838,5.854933345216324,-12.933803761534406,-4.456328056963819,0.1863720947138682,-0.40432555520748475,0.053688796613270695,0.4029968269373538,-0.3139652472394544,-0.13815997311008202,6.317698028121509,-33.13713549996097,3.6416766861036303,41.91100034963926,-67.16068962949954,-3.5288058628066135,2.4790193134336778,0.7445644916730304,-6.357911224907584,-3.446461451792376,-2.484449830080383,0.43363613799648415,-1.1595208554949388,0.7276908133485123,-11.233529947644277,2.46982331492447,-3.644277943825313,1.1380511206286754,0.7909561560157763,-0.46152570288973704,-0.58931486645893,-0.09550921265009477,-0.6554481270760929,0.2756987881252919
-0.6449573782278744,-0.725092014278069,0.09788921451620629,-3.82974665701735,0.33436069415857617,0.7908365672251505,-0.688059303928857,-8.645179885098214,2.362845596715494,6.202723524816729,-8.729432709216441,-2.809283999715576,0.5359076890205747,-0.49555522072260827,-0.07457557436105267,0.07065165849330407,-0.2366613526118952,0.05107238947721358,1.9843204046156628,-16.036087621258986,0.39527311303991386,41.72672475269124,-66.90050065054517,-13.996088934533693,8.182606978717319,-4.581650910917544,2.5775870797907587,4.2717866733226195,-0.2982929880661426,0.3453400126530596,-3.4092988326170888,1.8086262870422196,6.813828417930484,1.6297536825347563,-0.3091225707144102,-0.1378460450896545,-0.630254470237481,1.3059971695878685,-0.12806526959424655,0.3574987815610158,0.1812514655777917,-0.14347800694473123
-1.2931416375514986,-1.5200574933479616,0.19671033727569187,2.4534340588175443,1.6961190534972705,-0.5041284991503354,1.815950349975315,-18.9736967564161,2.3401039164351753,29.084116250919465,-4.215156128238209,1.3978872009289718,0.23644510155676648,-0.5824998459523254,0.07240314189380807,0.5689650049770062,-0.20402964261997278,-0.035841534424159494,31.183186371150175,-26.18094323476394,3.812095033977402,7.502111991056735,-45.66408257693089,-0.2736934524350045,2.2749617528819472,-3.762540973772513,-0.9707805650985468,0.2782397169196494,-4.093835626232203,-2.1696584597545105,-0.30662339177105347,-2.20148864073975,1.7096993010254014,2.6350726394904536,0.9763642913288367,-0.9684748657652454,-0.17785284409316143,-0.5147766839700473,0.8966087080807359,0.3760473999888658,0.05398955581850694,-0.01149000296661508
-3.2855441744267737,-1.9581997223100858,0.04855183676995743,-1.2434754149315186,4.095894038892173,0.06111547951533259,-6.579004020233591,-14.581851801061527,-0.8530959952322161,10.372032447664044,0.9405748155129326,-1.820137491942583,0.2129680932380095,-0.23942027423284334,-0.06953184576381458,0.6372228031275314,0.2759390462986132,0.23249109152731734,3.109818594468208,-19.06099559251863,-0.16297952974313348,32.21769982507774,-54.930662539112596,-9.54285344006653,8.403131040319314,-8.741791394819405,2.3710270605116057,-1.5683671816861657,3.6016947433841424,0.14606665670818877,-3.125006498927737,-3.798162119610874,1.1614364883132102,2.2227373922660014,-1.3714109065447768,0.342812047382207,-0.11996176578215696,-0.5415279957052643,0.4641607614599696,0.15165033797882993,0.024140859958141248,-0.033053093069497906
-3.476731049867528,2.3574303588363685,-0.8237130058157418,-3.516562300299943,-0.019958668883048786,0.40922637496451664,-12.23427025067554,4.39009674071696,-2.6046137725946394,3.292589508426826,-11.721746813307337,-5.33281264890531,0.366537202380825,-0.35900517024471573,0.029406261858109177,0.38431762345979703,-0.2519802146880433,-0.3133903335458537,-13.292448479958871,-9.795068232472278,-12.5155995877138,15.808825305310243,-43.22808608495413,3.3580538811658696,8.342967301600298,-8.649310473720481,5.070087158353322,5.890778215584081,-3.7969108314334763,1.5411686629869992,-0.5656856096097633,-4.068158665839045,7.564341718155868,0.2199834508340574,-1.269417102759729,0.35814271087782035,-0.08355765797667299,-0.5352379748108846,0.8783700004030723,0.12420174553529456,-0.18441714195293663,-0.03051057423956993
-2.036460947931495,-3.179469749548636,0.5898992542276092,-0.10764474427690912,2.0301502129344993,-0.306837840585364,-3.956953634641046,-15.62830762635672,0.8861688923186789,24.930638446473843,-0.765386088850071,-0.7774349377124545,0.38123972964221453,-0.6721699206693255,0.010824827751339675,0.003938082880149839,0.05535681688661595,0.007241233334558237,23.017664986585743,-12.779651196741577,-0.9894617097296577,40.410625260360156,-68.17115547868337,-15.115048800081535,1.7595255199291122,-6.632857248145096,0.24059174700080127,0.4965355882147035,0.04726426360383179,-2.2914864907714327,-8.91049646421761,-3.4666127355293725,-0.01785045343161551,2.1705097188754485,2.226807115944573,-1.2917785533236006,-1.9782983272234023,-0.1573629204341881,0.7416328280051415,-0.033945832835853534,0.6440109185692134,-0.21918530399861708
-3.037112559338067,2.2464595312477984,-0.8286814776679376,1.7620106386944634,4.924009541258966,-0.46717477159579596,-7.784136061579667,-2.2572241538310047,-2.518834601932838,24.176810257198476,4.73404505091093,1.5529612755867774,0.4914572472355874,-0.3269787003100149,0.07677424662000211,0.769897622781548,0.061404769904386376,0.08496331495712652,18.03994187626826,-3.5868365574227306,-3.0585325592397408,18.196881528545422,-75.17526548697074,20.884784742930343,-0.9955637140036369,10.788375963336604,5.510815772337006,1.500311839693569,-1.223093822006359,1.436959572433881,-1.6342802798632432,7.994098445477384,-15.121948184892307,1.3874427354411039,-2.4805980412724087,0.9838037037098947,-0.9686625059531531,1.6828570769396847,-0.37001980212249086,0.32149041202795137,-0.4421101305764597,0.10875266794447684
-0.8635492813185265,-1.4513875582228224,0.7584376244879945,-3.5145918952079964,1.393410138092875,0.6361763660595318,2.915036842081225,-15.315826247911128,5.923868909342987,-3.36482757532044,-2.2221865589216203,-2.293134826884011,0.47303723701776623,-0.5784887899131972,0.07161594725734352,0.5859922863073305,-0.12078931647845932,0.08178539406238312,-4.402682643991676,-19.7367487505651,10.703968342733074,49.34992818374888,-38.12948773535213,-11.746376615907892,0.15990915544972698,-3.5144766333182207,-7.3153381755065725,1.1636532947331704,-1.1167375247718878,-1.0422257608831442,-1.732437202434832,-1.6548788780581365,-1.2132113405148135,2.8184772332869064,0.588533334832458,-0.3366140411521488,1.1516362396821418,-0.9464943692118134,-3.532354810176517,0.3917931964123252,0.238797091140014,-0.08001845306989884
-2.120808230128138,-2.8063563992487555,-0.11786563693668295,-0.45653439940330137,1.6798911494925757,0.367414909135169,5.200781781341187,-14.131294418206338,-2.3955154022400613,25.677361729463325,-2.5029908433479346,2.7770804321640616,0.09584511371299151,-0.43840677300909575,-0.2471702512117699,0.2784189026458998,-0.03534628035843266,0.0051154737016026,35.0827748681453,-22.927579586534097,-0.7677651092211839,68.43856961841675,-6.946636831088486,-44.61856346559798,-0.9776393017656475,-6.496362609089582,-12.091026388712732,2.226184898550222,-3.0440906218161645,-2.968381778211352,-2.4615954414853296,-2.926698385046257,9.783332611985832,1.769395139582163,2.2858679302786507,-1.5332120615959002,-0.011932979444564444,-0.41803616298622126,-0.4712563811898123,-0.045469198739262945,-0.004212853109362816,-0.025951171235275683
-1.991450259719789,0.8232264924350923,0.1057454165840757,2.0516909534859087,1.385162718189533,-0.5597332659059163,-15.368680043777566,3.2561302131072027,-0.5224642117688725,25.034360038526735,-3.9512886705381964,-3.8793371102420027,0.5710773807418879,-0.4529398640165521,0.22136433245966158,0.7412915411790544,-0.1934760543279525,-0.020518258528357206,12.15786073673867,6.475685827300367,-10.842336288413255,-0.60633479573446,-55.52143351041522,11.988535628834684,3.989868911379834,0.23025414390442067,12.456756232961421,3.9554615354083715,-3.123369546758286,0.7021986427099767,-0.7416335870293748,-0.1349859968027532,3.5795078645442144,1.7225134834217657,-1.1829777535996155,0.2688609389183497,-0.975221684460235,-0.09028761990790465,0.8459730966551404,0.7477381179839568,-0.1774796320822765,-0.08414549775486013
-5.66827929155519,-0.14651496085288226,-0.3665354074512309,-0.46878727856662644,-2.6016341415736726,0.33712088885928465,-14.642767796127444,-18.626163178679676,-4.244026323253486,20.49670275552038,-21.058064729599604,-7.088797747498603,0.03749589262107467,-0.3428756059523483,-0.0422420267905413,0.3262541618048189,-0.202616634277843,-0.061052407287723626,3.813711774455326,-53.50540173940985,-14.232963822939515,-7.9755883984411415,-71.56543155575191,31.082331186868178,9.523820139123838,-2.4613989500379025,21.925968944928293,2.4983244268559073,-1.903944782433819,1.5888594346004594,-3.557211785961541,-3.847482850336287,3.578740690373628,0.7462022352211339,-2.236113221639265,1.0570482880925574,-0.2305926715367086,-0.19950855992066086,1.727917897618123,-0.6765385578456581,-0.2668621623534041,0.1634924551713978
-1.8321572288622927,-0.45896316961555794,-0.023678209346239504,1.5660774422030068,2.4236520469519434,-0.5130631855267436,4.004152854189819,-3.3133379422536176,1.5066522642292195,27.446221564314428,1.8146163378676163,-0.7220451032647875,0.5686853326675715,-0.6657909064316111,-0.07088291507275385,0.42455258905913534,-0.21459395675306622,-0.15658413069778088,34.63932549072257,-1.4639855870616199,1.07665029180888,71.3749236815841,-12.172847660332556,-4.408293457363748,-3.3555823936201774,0.6763446190617128,-6.057151524297513,2.077128577362606,-3.614685728123358,-1.6888423473604672,2.825943974040248,-0.6946423282842288,-9.04884066706509,1.2276156370621085,2.035139947920935,-0.600827533572117,0.7223333487260329,-0.4727620967598866,-0.385448257506771,0.2353024965661165,0.31135961052993216,0.03108128956976736
-4.153253237750588,-2.7286823039208263,0.7100835134881871,2.803900955357541,-0.5256332218987312,-0.3914809965269145,-15.72445842254969,-13.336527143265567,0.24129978398978472,24.87450543202091,-3.14461847933913,-2.6585715540087693,0.3005205652783306,-0.6125044233506698,-0.16303462835535215,0.8757667192238983,-0.19273917925698392,0.15728503353908777,12.26271589280204,-19.418086126576735,-4.613004710488404,22.614722523602676,-36.51012216138579,-26.35044320136191,-1.9890391866558528,-2.164630320281891,-10.705795846662362,0.8402797411474731,-3.55690796810553,-0.2710245024211561,-1.4847789393655064,0.17314764568455504,-3.075642281749137,3.4020992222597424,-2.3339833204317575,0.5277764962898787,-0.4691830672737383,-0.029167895420112964,-0.966253682526258,0.19294206150866702,-0.4390669316164888,0.04929171464647869
-2.7339598855211613,3.552922989291428,-0.7607606062662141,-1.208297428048798,3.8282376418835082,0.3687588791772336,-16.057142882785858,6.375757762029206,-3.2871172266393316,20.834861090017963,2.5355889652650863,1.2050665320850578,0.2416626824473227,-0.11927804142587912,0.19993301663462273,0.3950471195685983,0.03882025360900675,-0.14074751591122744,3.177002155076673,13.804492102541971,-6.3309199475323865,16.954800023941814,-29.27234252709727,21.371716350182055,-1.3222604725155906,3.7967756696028534,9.305858033317786,6.702294919742147,-3.650983124585214,-0.19628027577415463,-4.648668146136337,-0.5452410228996066,0.25290814411117357,0.4316901875977743,1.01526647510578,-0.5625646406634229,-1.3628529625048944,-0.05525241433945682,-0.5342352002269286,0.37451086080872703,0.13626599007744614,-0.08270718408867993
-3.7553059876485255,-1.741199273559444,0.16249879042225968,-0.8189007754567078,2.716936599875177,0.34276833306761134,-4.714230682183608,-8.898477594358571,-1.9099870808627328,17.23016933356832,5.8785801962580075,2.6577642362366305,0.4173669366518795,-0.5682619572618333,-0.04914969219546761,0.1016091889066569,0.04840929360711534,0.014596251966039826,12.759828238894604,-6.16095587563719,0.3752658797636916,52.026557805334235,-24.352492918825764,-21.945217928890816,0.9395567939293084,-8.105840191808705,-15.090889637691824,4.031718460994807,-4.004145173033036,-2.488233469872412,4.888696646873665,-4.490683443269919,-9.801872701742072,4.684224513710571,1.5363567730760541,-0.8152442867216858,1.2898633722972594,-0.47966834254789537,0.14886523089244302,0.6190963404289691,0.12692178279283184,0.0358420856881157
-3.9678738635487454,1.0610457352213212,-0.13571285582007422,3.6566060308627715,-1.2568310084698273,-0.6444048398959147,-6.519874209201787,-0.604092077042991,0.7630499321362184,28.62491258883169,-4.355662853570556,-1.6527246793403116,0.2817269661390359,-0.5546880682832205,-0.07009711625942504,0.889427723987955,-0.35683813554222227,-0.0754502092689567,25.725796349081566,-5.582089161682174,-2.8070973553924774,-14.01016315073828,-22.71839948543981,3.591527996964134,6.321159448321826,1.0032109090364953,6.474374571189541,6.181184290481789,-1.266003294210298,1.7958326552078745,-4.806037592155519,3.024243602606267,12.649990238024076,-1.9201168220649054,-0.8283697752180323,0.07302474658981367,-0.7046578502408719,0.8013168005969123,1.2474942512787393,-0.6059686005043964,0.09385164654552094,-0.22621374133046293
-0.29189293243061826,-0.3114010046326992,0.28357769223631063,1.3094708526050185,1.0909718629327008,-0.08922496297193008,6.008108610985675,-9.467218531058252,1.757673534787591,28.57729602156842,-1.7299955249087176,-1.6971783977701402,0.31865989860858557,-0.2779498876645435,0.18161761193943754,0.36587865226512145,-0.21102907739145868,0.047506083585618905,42.13815928075159,-15.55555515917616,2.352920683564689,24.794577977787526,-19.656418824056512,4.999794509883624,6.518647748853491,-5.112089059661177,-6.07897082706959,2.6282116772538404,-6.452292769942905,-0.8960484047556114,-0.22374382899155507,-7.342592801744756,-5.355770229468395,2.0754056641567384,-0.4152161010473111,0.3211070378689319,-0.165009609581834,-1.0184951207739472,-0.8068039940829245,0.26862386400440663,-0.2370343214983445,0.1860043306194419
-0.9317431297410356,1.0681602392565326,-0.2942328038087907,0.0660055742815816,2.374815892772054,0.3831296062872285,0.4195185934142321,3.6773883976395543,0.2560595080470046,27.615999237746834,4.068339625143575,1.7680452545291447,0.45532384807068726,-0.5268832281470595,-0.06698668826281379,0.3525034504840581,0.09084088038689314,0.1421341684430813,30.547581605691008,15.099961380660574,1.614819376696894,44.6174213387852,-28.449754451702727,-4.168068135606209,7.872755856742566,-5.809033207587594,-8.042979207396094,5.496319437728471,3.611215019026922,2.3870015929993484,0.5259874750696609,-1.9366630813553234,-1.8832702057655055,1.0873466308232576,-0.6597106735852603,0.3103964740845657,0.2368503514852727,-0.0708586730664719,-0.4906459087096091,0.16338877238596428,0.17920702559955098,-0.10635648318432103
-0.7365626542487271,-3.5804162389338345,0.6411561416557727,-1.9036449684093346,-1.2815762611638573,0.110061598015282,4.5014425506682665,-15.531961322816539,1.8897954278335949,4.102572345684903,2.2671883591191384,1.7857664026799183,0.5182522278701096,-0.760248939820115,-0.07470980334026389,0.5374328349364235,-0.23368747700190057,-0.31479493602043834,11.266630369345872,-18.540728921672653,7.2633073929577066,-4.553063082995538,-19.35258251059642,7.79661206255364,7.464230991076148,0.0961897769305759,-0.5567366479698771,5.168503216076947,-4.069917007431912,-0.310335231434378,-0.6350717560657224,-3.524219762786818,0.3124941061643775,0.12037799355989043,0.8871718611638916,-0.562549883412285,-0.27197428614862723,-0.6963524088204888,0.007779517005805095,0.2905405611436896,0.09704306816803036,-0.054080981438404806
-2.0948086604697793,2.856336627795972,-0.6273701753499126,-2.569938681196733,4.540631821153602,0.8640454917474374,7.064324785632676,4.731537912013956,-0.9031891012080556,16.83816264029087,4.551544661727829,3.602977903134517,0.07677759008260318,-0.11834597968111857,0.009847514574162225,0.14955372339201367,0.1544997631712935,-0.07174256104224251,32.548829467817484,8.065548644144416,7.7260521852353135,25.39024637105915,-34.73425304736673,23.730440234426425,9.44643793702615,1.1627288994864298,-0.5934037161026796,7.101344155365084,-2.252106910977471,2.9046650831151695,0.07926418222293509,-1.9561590793308907,0.554389376186559,0.03096342501959686,-1.298468158886579,0.9267481616038119,-0.020240594546195593,0.17735995701710755,0.17811856136830884,-0.04662058210755633,-0.30825164069107525,0.21977048363384963
0.3367450326998499,0.4616622005886439,0.01806720208396173,-6.047028468454534,4.687749799278904,0.4553732923068663,2.759990636420654,1.128594776895436,0.6284974304268667,-0.601638202770447,13.945343155414061,3.8983366258149643,0.6866004203761986,-0.5758539683774067,0.17092552905338237,-0.10618870683591303,-0.1535434417249823,-0.41580380319761095,3.4906205076295316,17.98033913741284,6.785378557785023,-18.131721591562105,-52.55038991431928,-20.963714061034104,4.110303043049524,-3.100690949674963,-2.2144713231045703,2.0965790665645687,-0.6369115335998692,2.4234297102682167,0.5023500257362606,-0.8545715129131856,-0.026204708898075274,-0.44052481137853283,-2.2906734896984373,1.1289189823270604,-0.09214262264863364,-0.13083744762942157,0.15418214490044552,-0.3547329634757012,-0.4334004051173952,0.14416073099610324
-3.6459459678422164,-0.2250867830609138,-0.07101230066652675,-1.7811281115022641,3.717422924794736,0.04976809143617771,-8.858096096504704,-7.4547223492577075,0.11184274950141289,9.018236568162319,15.170823836292149,1.299087398583021,0.0795199749606642,-0.5050660077043647,-0.2743070097170897,0.2367805398175794,0.3308758297536555,0.19237755473128593,1.5486151313837664,3.977584160691819,2.7414539792996577,16.202441301794025,-18.42059041045444,0.8460651040691902,16.271167580949694,-3.4123472710101437,-1.6092922750185743,7.157181533471958,1.6823938515564212,2.2348456779475208,-2.0884010687324377,-2.0910299810966624,2.0317601863280594,0.7026262454491262,0.7206973088383547,-0.1557267613163835,-0.19703299833764,0.04398210872045227,0.026903638743929124,0.17854809185346532,0.34401386720893273,-0.10352785632383672
0.8650941753473345,2.173211333785506,-0.17248637624539429,3.5138229991723313,4.617706490083767,0.6911158475488316,10.69290587537295,7.7312682216208435,0.6010972979353226,21.949516255209595,0.13457145166958256,2.6810684355412535,0.4297786624258221,0.05449612542603776,0.22540416248377768,0.8096847029377523,0.5713462879842985,0.7103195546817165,38.891249581092595,3.1585856169737787,2.9403206811096054,-3.236380333074702,-15.238962219757044,-4.623174868780037,12.612679889598791,4.424113853864313,1.9791458223765375,-1.1275786128794394,-0.9494507705016606,-1.5589643402023492,-1.2154430316735385,-1.9470044771840567,2.101353310072792,2.986798540438487,0.18106143534726357,0.32420634033505463,0.20540725910461913,-0.3522946811793715,0.11735383878358853,0.3392731481782835,-0.1179307224389303,0.03476786965617516
-0.8107743311778557,-1.0753751077571763,0.08433244576585654,1.3054906069155972,1.648983680450283,-0.18458581049506453,6.269743669848621,-4.536916913883977,0.032631832468694735,12.281046057041877,8.047234556533459,0.6227385190040202,0.7369651044257298,-0.8492025585069827,0.012554864158293468,0.8119530225578147,0.1319295366371224,0.1862613378517027,23.26148759561213,1.9710200309457848,5.78599777255544,-13.697925788606549,-23.93392706103018,13.269172869261697,8.286815873432152,0.3171820609981369,0.04953924380654469,5.692158650293341,-0.03419638470045888,2.334298370009991,2.048546929526585,-3.243049992636219,-0.4564351702613502,-0.43196539774832726,0.0014701613150019063,0.20520100448044498,0.36794687698314954,-0.20968493049854778,-0.21276077390508746,-0.18934809982579268,-0.007244344979168941,0.05923004523221651
-3.2223795378767135,2.242767918945763,-0.2049921113346107,0.5027486680073019,6.918597282870764,-0.08643675409039243,-9.324112540783696,6.093839332077185,0.852545233475856,16.612235172290248,20.430754336133216,6.250063924948624,-0.010365910499554955,-0.4011396074210533,-0.061593523759212766,0.2996451068630389,0.3866296863644752,0.25973254601407403,9.945240363633497,29.2363512045026,7.7430621817234355,9.263449097302672,-22.689295356808707,-2.880696191091448,6.999719195140285,1.9812756946647974,2.897082297753317,3.595888817911131,-0.8185678372539607,-0.5182332854595406,-2.2810150898449577,-3.2961812960466705,1.9029308755178855,3.557370428257797,1.424401723382536,0.10022465699618219,-0.663310874273416,-0.3593008554557919,0.14185600415248284,0.4645400831016168,0.41577265693788296,-0.13429936835020165
-2.701786353530899,-1.1628101711958643,0.041415674662892664,-2.083971704282741,0.7044640226738782,0.1108627481660657,-11.629379615723462,-7.915528026471675,-2.037354600879033,5.317628090499025,2.075773183811589,1.5248400023053774,0.45359598196240153,-0.39980738293407314,-0.07116161101271305,0.3273160702979007,-0.16969496799014652,-0.3121015468592579,-9.15807597394064,-6.563522573378263,-2.850168600996185,23.565104180023198,-19.564785728289586,-5.367899330188865,0.729704230823884,4.546907566791498,3.5740260941436572,-0.11743757578229344,-0.4035942384731811,-1.0732228537442392,2.935887061859675,-4.312216398007378,0.4799401273439487,0.7888138337079849,0.7390412890533026,-0.1882927596221404,-0.1320723214610519,0.10043230290951047,0.14772673531219072,0.08811562015071495,0.014511940016739822,-0.003905295999866135
-1.077347721737089,-0.8246122745953426,0.15846819510054247,1.2367249033187733,0.07098128496101191,-0.6945563593804959,2.0183830485118484,-2.8299449503998,-0.8409692343651851,21.614004397555888,0.052523075858445095,-3.0502490920279093,0.27471600382934713,-0.3010067538726247,0.09817406913280216,0.33224762239569716,-0.11485268948088402,-0.4526486992015061,30.474536110409378,-9.870369587138052,-3.24275000032596,12.097405323129411,-14.177940642579498,10.864805735288511,4.7041059238314835,0.10210747613401099,1.1615587372307137,5.329097893084131,-0.5905878265051666,1.7267698900808905,2.9679650830231754,-4.651248677702488,-0.3041260051839631,0.6842488489396251,-0.09096118195372317,0.278485634096844,1.0240946149772732,-1.082547604094953,-0.2039354773304431,0.03103976453129278,-0.07460682788532413,0.0422943053861077
-2.4634904337842323,2.4674937523653795,-0.1751772799400362,5.608480425149917,2.7553683351442486,-0.9453813259589513,-4.857317105142602,11.7595093699341,1.9908743512607663,34.59829331311536,14.259885789163901,-1.8853608971130238,0.491287558420745,-0.5138070749177998,-0.11076705957843257,1.6274956586050726,0.10099452848926102,0.24828797436552638,40.73643137577343,32.443399871048896,-0.3061239939561215,-14.007527943715228,-26.49194243677642,-4.643110726052199,4.972700840168228,-0.7929652376700564,-1.8422834439635292,4.452505274361508,-0.2405042998946647,0.7925706086976995,0.11077312826067616,2.5365932462851073,-0.0370661068952441,0.7849180341549837,1.0739054766639358,0.0683608246629567,-0.04534719371222256,0.4189916606738123,0.16719399921218123,0.035790287043614366,0.18410822295169735,0.02777873611591189
-1.8011110308012857,-0.9116421590522412,0.0415219105780312,3.558082911474898,0.6490226423454439,-0.1452195866899332,-12.368657280812291,-2.362139404571963,-1.9202768964989576,20.164676991058137,-2.388059926704045,0.3538951511656039,0.33768448321638533,-0.5655562769175071,0.04247704119880084,0.6923982848000787,-0.0489433469468228,-0.0002814801715844209,7.9403610452832085,-7.176425352270996,-5.354331944350373,-11.797408697837923,10.162500880577367,-9.582494403288429,5.570611916109495,-0.8296530209858388,-2.1378433321124324,4.493319260043911,-0.7304453316062859,-0.3339735541375281,-2.6694105853107697,2.0719436559142292,-0.22050308473069616,0.8504616422330693,1.5961891988473988,-0.6814553374050951,-0.32882642366291764,0.4728108190481154,-0.24447895113566662,0.24355447763559396,0.2505751388301299,-0.10255399570356645
-0.6647246682232022,1.1506611326284,-0.14797040095884306,0.17391009280841496,1.1026295728886264,0.3208666212182343,11.958052110785125,0.8304428560425119,0.6287730042852127,20.50102736611712,8.513961345467104,5.4692599966167785,0.42612983668552223,-0.45000399294017385,0.05966856556161282,0.5631852240658155,-0.008907969698843086,-0.12045311200826427,43.757224427170144,15.312848833214609,14.12490622000407,-0.31840151267226285,-8.579802450120132,10.125995411012074,5.62694261154885,-0.8726340945692158,-1.7448891129627966,5.1585222450345185,-2.9007663683006264,0.48945034749896515,-2.9830052797340865,2.0468005974177785,0.36557032640607035,0.030533858236968518,0.7163585316544522,0.03947993660317309,-0.5039206085760247,0.5291207778889261,-0.08424313779322794,-0.23237390622304566,0.002905488009556919,0.04045179626890239
-1.1362359154153792,1.5392405696034843,-0.07704965981871088,5.671536639476237,2.39603261943152,-0.7711559384893251,0.3228982260460274,9.226324938490816,0.4582965332041237,37.422593861999616,7.295838683095825,-4.298811698153729,0.43442734152840434,-0.4007635973768339,0.05080617604667068,1.0328913742888417,0.0725281086015228,0.21599739118392008,48.80051248894717,12.141549068270093,-7.9961471337192185,-1.100450360247549,-12.973133057413563,4.447696870276798,-2.4482543117090882,1.4893452371870295,1.477506768928456,3.1547538000541993,0.2891183367899332,-0.5825145292461574,3.9712951335196385,-2.1225312283973863,-0.6491532041817247,-0.08441760840290663,1.5806289813946741,-0.9459297245175893,-0.019614136212934785,0.018756754319041957,0.013609270496128244,-0.034964449878360664,0.27325121130766133,-0.1866648664066139
-2.1177300866901487,-0.37689217598687147,-0.15421041173058359,0.43063680817092953,2.2626930766060074,0.040014094929026314,-2.9196254655372185,-6.441119689817936,-0.5485809389157953,22.217620915731292,10.63543527628642,1.7948296108855062,0.23222660413157528,-0.4499420443621967,-0.15840113935470923,0.39286980333290206,0.07428543014753387,-0.03420010815131465,23.857660505566177,6.321040811177786,-0.6190257190962588,15.899531582685052,-19.469567184814064,2.8298841977323366,3.1798961872539655,0.6287913864499985,1.8515710303687885,4.122852498770677,-2.6982225943466878,-0.12485160482490923,2.02286058637614,-3.2069684530091114,0.7191181321000373,1.1325734386805957,0.46092680152436594,0.08307144767804221,0.8627987788447741,-0.7282555555601118,0.15719360041154934,0.09720287565844872,-0.13511359133790454,0.04460489052311263
0.41640736030648934,1.0368172103343376,-0.1867498024660038,2.564435359387555,0.5750306317620577,-0.46849563429864816,5.1076037477244745,5.783212028220042,-1.1860919545517847,20.45371692187798,4.865945301059847,-1.8050714414482494,0.3974858203363194,-0.27145099706801473,0.1921626154851439,0.9058102337961169,-0.06747008717379803,-0.10197148425697515,34.139785063482435,17.560595251458395,-2.8774919816007682,11.27638943471475,-13.106539243560539,-8.15383124815416,3.0254982857131014,1.3088479730938258,0.2790217866804098,4.647272001994941,-0.8971344288414748,1.7324090087658353,-1.2618230766185596,-0.5275258075843866,0.30161803814363985,0.5557735748021699,0.12017169862789606,0.6154450562540503,-0.7045452991968739,0.20647338776329227,-0.096535684463894,0.14911236542361017,0.08281254353282844,0.1585189992914872
-2.995743175532459,-0.6961938980994563,0.17747761060120662,1.6604412223755185,-3.543380115985525,-0.541001246945241,-1.4041992709789441,-4.241032101629687,1.3537532339876457,15.441140626061696,-15.71094542112466,-6.398596079004215,0.3144121068318602,-0.5920806944941486,-0.17075965207432375,0.5937286557249349,-0.23618043313194798,-0.3132295411220771,16.193455595994152,-27.877376389307443,-2.907536367542632,16.890073685378205,5.767897571072604,0.5086548319462488,7.678836219782908,-0.5553131890798866,-1.8675676881745107,2.797482011668802,-1.8300681562253716,-1.6497613210094628,1.0360155038538277,0.5960719941501869,-0.3763383641769959,2.303048323554564,1.5628255939580087,-0.44934716461067264,0.3815319463512795,0.24794124547989008,-0.06096478044165496,0.12719461929958187,0.0976437047182578,-0.2226981404918861
0.7391269053828514,1.897530364596324,-0.39232064605677575,0.3814096967473529,2.6749319752439416,0.35502411236737436,8.212124969694147,6.186170740716082,-0.8822100495252043,20.438916459962133,4.760533531958334,-0.26252102230267343,0.45722987130871406,-0.19996608384402156,0.18721318202705345,0.6222900847899052,0.2748660733739454,0.2537855705063672,38.14679693810084,14.502498620009709,-1.1060199249516902,6.681072808118084,-9.122886291224113,4.8252227405458115,1.9538146915588623,-1.4153690374089525,-0.6543042969254687,5.66536925648139,-0.35321267279203294,0.5201519056114984,2.142659603108214,-0.7933423544299794,-0.4017873217225543,1.1976750468667297,1.1640285366107799,-0.09366347292991785,0.09349259925055707,-0.20932348155419714,0.04359924957289792,0.1867029595495882,-0.04250148682731297,0.07712116279143316
-2.7748627983702496,-2.351693259691221,0.715680158117611,0.8773974594706633,2.5059701604421036,0.09937326399394074,-8.346967691457152,-7.681250633358402,2.1013480367388406,24.460926944490392,8.615952406499876,0.8250346712796272,0.32914865098398566,-0.7100042442669096,-0.062310046633089776,0.5984815526818509,0.1182135047106912,0.027881073892320973,23.208414651420917,2.7426673538537942,1.6228833593833787,8.999170740648584,-7.405879819626593,-0.6754526885308721,7.857941659338639,1.8933268082730759,-0.6621479892016536,6.2603985598656,-1.205740844130065,0.9704977572671043,1.0002658382816187,-0.5115480537553474,-0.2415013019021763,2.638166317297038,1.6686315557691103,0.7248702179108135,0.0034564717552597784,0.25092938627284145,-0.1720815795104483,0.43247770116669726,0.27030915966444036,0.15082974729338172
-0.4181346148436584,-0.5581775422876254,-0.049138328835999084,0.21841087101981993,5.774636746948359,0.21666034745674942,4.13954665077711,-7.051601938348256,0.032893181844444654,2.1184812374437367,22.38983323976098,4.659373099554963,0.3707938376142135,-0.49090575951610405,-0.022036327428861434,0.7110731289012466,0.24198852030292578,0.20017972434875292,5.303329266198195,13.11219136634622,9.437871861442755,8.319355255769494,-1.8833453842225136,-5.875708393076802,7.201148522618691,1.879395345933877,0.7972728192727218,-1.3332109397359264,-1.5685732027324126,-1.7886463913641866,2.001960620204149,-1.8448523055897645,0.5796297768561488,-0.03059771297216632,0.81575937960558,-0.4989977066033698,0.08028337637736555,-0.1278319135335073,0.0886944172066508,-0.2598320463923342,0.0668296525028036,-0.1755037648422882
-3.5158058226374047,1.9669790497878215,-0.2710240341061121,0.6181998301308754,-2.6832637716537384,-0.18134350284078424,-3.459387558385466,4.432068557305177,0.3181569459922586,2.2224822923033916,-4.556509479704809,0.4549565458584025,0.3337773732504081,-0.2722688602975068,0.10972478404594771,0.5651057382005115,-0.33084351770841885,-0.3483669980361772,-3.2471397496923355,-3.4463237378302307,5.0657964586170445,35.96192172283957,3.188592834224367,0.3296954135495894,7.556242275064337,-0.5834259166512934,-1.6041651165911366,10.06143588823618,-0.9059754449590506,2.124642590197097,3.6254288698164903,-0.3267532143677924,-0.8042930727447614,1.830693082844054,1.2978132441708754,0.14273546619323516,0.5719627447002064,-0.03462784016012048,-0.05357845893094529,0.4250077768343959,0.1529578641454003,0.09187606354326738
-4.415862310841979,-1.3794652040711408,0.7890031828809576,-0.9261936648503124,4.151947943449019,0.5298775312150101,0.7863397486415661,-8.418071524776064,3.875125579414652,11.852810689782734,12.681844220275352,3.1064191336832128,0.36275534537351034,-0.7220536486483963,-0.003925480071098485,0.6954273200189274,0.27955409927416336,0.2889128509499734,20.714962570747687,7.401858917192785,12.701487738060875,16.917315113918704,-11.576453981222597,7.489417456732095,4.703209871704295,0.14433660263656123,0.3064277919548516,2.7853272999364336,-0.3303786239006332,-0.0013925280393031485,4.774926977517279,-1.583609244912896,-0.26123156653085466,-0.38145072003252933,0.6849344316983935,-0.6701899817346291,1.0273090293941463,-0.23035829699166327,0.029075828541933673,-0.1794888007480846,-0.01253783674543568,-0.11268607908923454
-6.036156757302147,-0.7445329476169907,0.17548528089016333,0.8169563532276035,3.1375410798364247,-0.20673988727241363,-21.8867217338556,-10.157306219382303,-1.5200023225415027,6.3593009510963405,12.371776587857555,0.6669465973465133,0.005396280672592099,-0.3168070395044109,-0.1068264706933131,0.6138165908489391,0.18726740909421524,-0.004946774957271014,-20.945000820077507,1.691667497717138,-5.9440065694818855,42.56433914510758,7.70853657563529,-5.791584885883917,6.563960641283427,2.2370608903318,-1.562217706213842,6.7876525510483035,-0.5504781661654136,0.3436096600172796,-1.359992741383246,1.3106265542077586,-0.483150666172731,3.3631887426915057,2.339916024791689,0.22745656817007032,-0.7538760108403034,0.5648097827036979,-0.2104050462515541,0.3950518746057719,0.2773124483464313,-0.0169686589228046
-1.7202904232107594,-2.2957595989056676,0.7918504645901119,0.5197243126574238,-1.6911375373046118,-0.16657983951985564,3.6243696882411176,-9.045538040675748,0.39147995936065366,9.622037175017745,-6.70685353617787,-3.119015300837927,0.5431910102076621,-0.5997500646091467,0.09799713158870739,0.8010592121498745,-0.04483272226418475,-0.0520897752924159,21.143396380720006,-21.641737642051424,-0.1193116278933973,-8.744594886251258,-2.2564859407421136,4.844445651788748,2.5365069226888757,2.223753541425484,1.702393579783288,4.6170159079065325,-1.3231292987108345,0.528983169055376,1.644788218024801,-1.519643038471168,0.3651083078854993,1.0117007395679511,1.1133863131565533,0.05427365886823395,0.45247430757438484,-0.08487306449263862,0.001663218850561813,0.3940393220775949,0.3036341980498634,0.08602256179573914
-4.7890211036267125,-1.517480089045178,1.0288209023747217,1.9495620519143082,1.1197496556363742,-0.017769969012433825,-14.856508204940086,-5.878587021388157,2.0647484943984984,18.6609781212692,2.0544560444975892,0.18868186876581033,0.3320609420504624,-0.4804723184290763,0.055502304023441536,0.8170915217943366,-0.021044260692356372,-0.01019063494143441,2.671895326962793,-2.4029540445545146,-1.8864595057516222,32.23820787133641,29.474928262878677,-10.180220868096596,6.996341759863604,-1.8592514158621758,-2.8224479621830736,2.8275047616402675,0.12569004132225792,0.8713045198666574,-0.008659350636137039,0.782862215401602,-0.27141273426262935,2.187862010542539,0.8045556248385889,0.7880325330266357,0.017986329000313484,-0.2117135820774735,0.1007628603223442,0.4766189906298291,0.23182432895291463,0.14595417762107268
-3.195012101336679,1.65882314934421,-1.0957864063672846,0.8405714273596813,-0.24342158401960365,0.17234822366696192,-3.211215468363157,-2.137760756108216,-3.5993404750455644,10.789906984055897,-4.900028570928552,1.0119926617088095,0.16075934599112562,-0.2633154057352046,0.013469835161956415,0.307668968343816,-0.1455343745607243,-0.09774192840931416,11.799332758595842,-15.378775859742007,-2.5505366827002165,42.04617080275525,1.9326682847641556,2.355180428129136,1.9487714656876354,1.5878336362226746,2.322642648024856,2.99373449437445,-3.141503156436603,-1.2736588181990713,0.9364516645411317,-2.1673121997663896,0.5685172481176601,2.883472144312829,1.6830784543154271,0.4273503112191237,-0.08035860137049387,-0.11458139530494127,0.031724326356291785,-0.029689727079087125,0.006133326903737172,-0.06821485876163753
-7.28817,-0.2381,0.09925,-2.62987,3.34317,0.20701,-15.33322,-13.61018,-1.49036,-2.71909,14.64838,1.46402,0.2185,-0.32361,-0.06346,0.49415,0.38903,0.17935,-19.96781,0.11331,-0.82088,38.11653,9.96058,-3.29277,0.07251,2.11643,1.82177,0.24577,-2.01948,-1.95068,0.78039,-0.81553,0.39156,2.49868,1.95129,0.38291,0.03668,-0.08506,0.10805,0.31479,0.19342,0.08391
,,,,,,,,,,,,,,,,,,,,,,,,,,,,,,,,,,,,,,,,,
,,,,,,,,,,,,,,,,,,,,,,,,,,,,,,,,,,,,,,,,,
,,,,,,,,,,,,,,,,,,,,,,,,,,,,,,,,,,,,,,,,,
,,,,,,,,,,,,,,,,,,,,,,,,,,,,,,,,,,,,,,,,,
,,,,,,,,,,,,,,,,,,,,,,,,,,,,,,,,,,,,,,,,,
,,,,,,,,,,,,,,,,,,,,,,,,,,,,,,,,,,,,,,,,,
,,,,,,,,,,,,,,,,,,,,,,,,,,,,,,,,,,,,,,,,,
,,,,,,,,,,,,,,,,,,,,,,,,,,,,,,,,,,,,,,,,,
,,,,,,,,,,,,,,,,,,,,,,,,,,,,,,,,,,,,,,,,,
,,,,,,,,,,,,,,,,,,,,,,,,,,,,,,,,,,,,,,,,,
,,,,,,,,,,,,,,,,,,,,,,,,,,,,,,,,,,,,,,,,,
,,,,,,,,,,,,,,,,,,,,,,,,,,,,,,,,,,,,,,,,,
,,,,,,,,,,,,,,,,,,,,,,,,,,,,,,,,,,,,,,,,,
,,,,,,,,,,,,,,,,,,,,,,,,,,,,,,,,,,,,,,,,,
,,,,,,,,,,,,,,,,,,,,,,,,,,,,,,,,,,,,,,,,,
,,,,,,,,,,,,,,,,,,,,,,,,,,,,,,,,,,,,,,,,,
,,,,,,,,,,,,,,,,,,,,,,,,,,,,,,,,,,,,,,,,,
,,,,,,,,,,,,,,,,,,,,,,,,,,,,,,,,,,,,,,,,,
,,,,,,,,,,,,,,,,,,,,,,,,,,,,,,,,,,,,,,,,,
,,,,,,,,,,,,,,,,,,,,,,,,,,,,,,,,,,,,,,,,,
,,,,,,,,,,,,,,,,,,,,,,,,,,,,,,,,,,,,,,,,,
,,,,,,,,,,,,,,,,,,,,,,,,,,,,,,,,,,,,,,,,,
,,,,,,,,,,,,,,,,,,,,,,,,,,,,,,,,,,,,,,,,,
,,,,,,,,,,,,,,,,,,,,,,,,,,,,,,,,,,,,,,,,,
,,,,,,,,,,,,,,,,,,,,,,,,,,,,,,,,,,,,,,,,,
,,,,,,,,,,,,,,,,,,,,,,,,,,,,,,,,,,,,,,,,,
,,,,,,,,,,,,,,,,,,,,,,,,,,,,,,,,,,,,,,,,,
,,,,,,,,,,,,,,,,,,,,,,,,,,,,,,,,,,,,,,,,,
,,,,,,,,,,,,,,,,,,,,,,,,,,,,,,,,,,,,,,,,,
,,,,,,,,,,,,,,,,,,,,,,,,,,,,,,,,,,,,,,,,,
,,,,,,,,,,,,,,,,,,,,,,,,,,,,,,,,,,,,,,,,,
,,,,,,,,,,,,,,,,,,,,,,,,,,,,,,,,,,,,,,,,,
,,,,,,,,,,,,,,,,,,,,,,,,,,,,,,,,,,,,,,,,,
,,,,,,,,,,,,,,,,,,,,,,,,,,,,,,,,,,,,,,,,,
,,,,,,,,,,,,,,,,,,,,,,,,,,,,,,,,,,,,,,,,,
,,,,,,,,,,,,,,,,,,,,,,,,,,,,,,,,,,,,,,,,,
,,,,,,,,,,,,,,,,,,,,,,,,,,,,,,,,,,,,,,,,,
,,,,,,,,,,,,,,,,,,,,,,,,,,,,,,,,,,,,,,,,,
,,,,,,,,,,,,,,,,,,,,,,,,,,,,,,,,,,,,,,,,,
,,,,,,,,,,,,,,,,,,,,,,,,,,,,,,,,,,,,,,,,,
,,,,,,,,,,,,,,,,,,,,,,,,,,,,,,,,,,,,,,,,,
,,,,,,,,,,,,,,,,,,,,,,,,,,,,,,,,,,,,,,,,,
,,,,,,,,,,,,,,,,,,,,,,,,,,,,,,,,,,,,,,,,,
,,,,,,,,,,,,,,,,,,,,,,,,,,,,,,,,,,,,,,,,,
,,,,,,,,,,,,,,,,,,,,,,,,,,,,,,,,,,,,,,,,,
,,,,,,,,,,,,,,,,,,,,,,,,,,,,,,,,,,,,,,,,,
,,,,,,,,,,,,,,,,,,,,,,,,,,,,,,,,,,,,,,,,,
