PaulMeinheit/Bachelor_Muay_Thai/processed_Data/E3/teep/scaled/JointMoments/scaled6.csv
R_KNEE_MOMENT,R_KNEE_MOMENT,R_KNEE_MOMENT,L_KNEE_MOMENT,L_KNEE_MOMENT,L_KNEE_MOMENT,R_HIP_MOMENT,R_HIP_MOMENT,R_HIP_MOMENT,L_HIP_MOMENT,L_HIP_MOMENT,L_HIP_MOMENT,R_ANKLE_MOMENT,R_ANKLE_MOMENT,R_ANKLE_MOMENT,L_ANKLE_MOMENT,L_ANKLE_MOMENT,L_ANKLE_MOMENT,WAIST_JOINT_MOMENT,WAIST_JOINT_MOMENT,WAIST_JOINT_MOMENT,NECK_MOMENT,NECK_MOMENT,NECK_MOMENT,L_SHOULDER_MOMENT,L_SHOULDER_MOMENT,L_SHOULDER_MOMENT,R_SHOULDER_MOMENT,R_SHOULDER_MOMENT,R_SHOULDER_MOMENT,L_ELBOW_MOMENT,L_ELBOW_MOMENT,L_ELBOW_MOMENT,R_ELBOW_MOMENT,R_ELBOW_MOMENT,R_ELBOW_MOMENT,L_WRIST_MOMENT,L_WRIST_MOMENT,L_WRIST_MOMENT,R_WRIST_MOMENT,R_WRIST_MOMENT,R_WRIST_MOMENT
X,Y,Z,X,Y,Z,X,Y,Z,X,Y,Z,X,Y,Z,X,Y,Z,X,Y,Z,X,Y,Z,X,Y,Z,X,Y,Z,X,Y,Z,X,Y,Z,X,Y,Z,X,Y,Z
-2.62009,3.6788400000000006,-1.15292,0.9275100000000001,6.902330000000003,-0.5317800000000001,-5.62527,19.62871,-5.050870000000001,9.560000000000002,11.745580000000002,5.10992,0.06978000000000002,-0.032220000000000006,0.05757000000000001,0.9751100000000001,0.22717000000000004,-0.06825000000000003,-1.39592,40.974380000000004,-1.8240500000000002,38.923300000000005,-65.87988,-10.597710000000001,4.345130000000001,-11.833860000000001,-1.5193800000000004,-4.597110000000001,-4.5626,-2.8317000000000005,-2.2980700000000005,-9.061270000000002,-1.3898200000000003,2.8766700000000003,-0.9416900000000002,0.12480000000000001,-0.4614400000000001,-1.3964100000000002,-0.33953,0.28184000000000003,-0.252,0.07618000000000001
-0.7466109501568652,-4.089082431565791,0.8952776242694778,-1.205681582745809,-0.8224187106176672,0.20322912898212805,4.948768627750124,-25.98905994216692,3.1111394123173204,21.072684719120357,-1.066469054837453,-1.9415401611783036,0.5952012933420565,-0.6970060660884324,-0.001361450735349432,0.24988575221456397,-0.30347951765478864,0.003070242770048016,32.096276930459865,-31.787587592190466,6.583690897267224,5.88839890676648,-8.045466251064507,23.916629159184986,5.945241384423618,-6.5324816975820506,0.11951644873728515,12.07325234090012,-3.834187173969578,4.871747669743218,0.9416282673314272,-3.277370043304705,0.4606429015444254,-2.934509687324403,0.639888453337743,-0.04827819000887202,0.3733744098701636,-0.10713383625809333,0.18720341077323363,-0.38784015227642665,0.06795862699325167,0.020923901598596834
-3.0310448201421085,1.31156645358998,-0.13784737802328892,-3.15693215708422,5.920907661406371,0.8501476975456337,-11.52784352613376,-0.5833446240284319,0.18074882217133809,4.530535668308865,12.39429739571873,8.383992966239802,0.09409847306547495,-0.383068192455993,0.031013767643120294,0.10413568801244236,-0.10491143154545032,0.04777999216001184,-13.088530683506711,14.220784153487903,10.948944872694135,19.93881221375512,-25.090581046406104,-20.16922675349098,7.929156496865026,-5.201367142086426,-0.7638013524153792,-0.5594443416987045,-4.902018130221988,-2.021453734058327,-0.9458761030794001,-0.2959465004241463,-0.22923451652734794,3.6849297296599386,-0.9358209394363449,0.2454341909066377,-0.4206156454260943,-0.1813316856473576,-0.03367393143471452,0.45770861444119787,-0.21281578055402725,0.05867948482104145
-0.7562126140435756,-0.3250143516781485,0.18143052518471187,-1.2415961767202612,-3.67222710426141,0.48108741691663337,8.032923497651714,-8.168530100744704,2.514221720827893,17.89596292431708,-23.7090405911974,-10.882121136973247,0.5474084764644735,-0.46392968908816723,0.06081220117321663,0.4106057569640258,-0.19278022186031585,-0.09053656654118125,33.71372860743782,-41.3532773445492,-7.396208272370658,42.636160164911814,12.06576396288935,2.0674102276878026,7.864592280725885,-5.725863504741531,-1.1456686038043808,7.006702166847052,-2.443261775312431,2.27434256196107,2.0928055171203153,-2.22152086855571,-1.1190249301067425,1.4176728672318006,-0.4949097302626673,0.20972410645228243,0.40367746175845365,-0.3226470604537151,-0.36385110216490835,0.282978716950831,0.04000886460981389,-0.03683266356948592
-3.4789962922372544,1.322255904445866,-0.620398449465173,2.4294990650361146,6.664347569955961,-0.623135393860184,-14.603378679760914,7.141256410815994,-3.640124892728853,29.87075517163827,19.853602241285156,6.619771183085102,0.1616149010642253,-0.4343688028032669,-0.1303242145695895,0.7236023048055926,0.11754214999542956,0.15661137266754285,17.577126846189834,39.09232655420881,0.3621833915270567,-14.810399806046336,-50.65088949615359,5.894485924499647,6.289873604068366,-3.8244418581721256,0.8986565177696507,2.1392131235553995,-3.3530814875691193,-0.2400614071829918,1.1781118098860062,-2.039325533524839,0.5256931134859862,2.557535143493359,-0.31513217939658283,0.6187437281318251,0.3124962427896349,-0.3962565263101996,0.057200359944416204,0.13203603226712507,0.027223780273954796,0.12103349954169884
-2.2439827008185977,-1.0538647644125145,0.435826468467977,0.2875043231454438,-1.0775875029640076,-0.31850289230565837,-8.197466155496818,-9.357933808237789,0.36977225565312394,13.769599273287948,-6.197390802397624,-4.152198552770684,0.5909438937735998,-0.6016751536702775,0.10811159476641055,0.643820939628156,-0.3831053709133886,-0.3539604150324026,1.7006344757904173,-24.000540116897646,-8.224838714220711,64.61635563367508,-17.000900631956807,-31.102828650369474,2.013065823932966,0.574787050310897,-0.7920545084462683,0.3827769748201797,-2.799842881865681,-2.5434733327004224,3.294710676253562,-2.0817894096120044,-1.0076348494093337,1.6683409941591154,0.7471159154456122,-0.9007520664467801,0.2478280723706097,-0.0055757386421296795,-0.19717942902618033,0.2059662940672125,-0.12972406261373787,-0.139538829024983
-3.4930414696636727,0.9361927022129766,-0.2856742325847253,1.4102721134598666,3.625561085477906,0.21532956956412175,2.3116104301419007,-2.8043898208116866,0.03843708906930313,41.56707938547517,2.8658401823169,1.2360429141634153,0.0763158102904843,-0.39685762674389286,-0.1368973866476534,0.026342813192054,0.263441665934919,0.35594881236133274,57.14903710013043,0.4779688284251091,0.832886002561121,7.299295123005138,-27.02133611211729,23.976970475367665,10.513556637871236,-2.3855882135939233,0.6667360099060701,3.704637349261268,0.2085715900210949,3.131605579019235,2.3099377192470683,-1.06032503048321,-0.40449906081251885,2.9484095193801068,-2.83920568509354,1.8461750664360506,0.24820339568704233,0.051792363075423994,-0.08891345994998355,0.5110549756122926,-0.3927012951054089,0.2853773734066697
0.8932537072218634,1.0046204980282398,-0.12727524772355503,0.12267206346305098,2.2917311335569672,-0.015866856586687454,10.982110321109776,7.235041744665742,0.3863027589965258,17.162754077992442,0.9385065740764881,-2.102747071367137,0.43378783420595535,-0.27650018599952125,0.27318751940313873,0.627534381601658,0.08453036977934247,0.0131748614881371,38.58601546994347,14.212650987816009,-1.1577664786535995,28.242529727464017,-29.367726164406584,2.2016349909501196,-0.1483218690891448,-2.9679455123882015,-0.6815614508872287,4.71207966999628,-0.8632363690246457,1.8868389447688134,-0.13514003366602084,0.02816377671289475,0.0967852330345976,-2.9525187878989207,1.2059672854437462,-0.9233803451863819,-0.1161708772957272,-0.12917407270518616,0.07416133915463045,-0.33849180852470534,0.3860222673173153,-0.2186938174728622
-4.108463801281641,-0.5913599137175833,0.06668074139597713,-0.9446389667499722,2.984655741913723,0.3238249558515706,-11.128985646317918,-6.830727810290049,-0.39803094289801544,11.23687666151511,12.074909607448651,5.060524523964384,0.3660570789614704,-0.6747811585401039,-0.25857546685391897,0.4731233262750326,0.017849279129652562,-0.014423752309338444,-3.461138688200718,1.8143467136949076,5.991904763896319,19.93058295521226,-4.439390531995024,-0.5629481181904512,0.3122541116469303,-0.3122770316382528,0.12403179756713653,1.024426088575965,-3.0196137072282614,-0.9294135524822801,0.1255873498521699,-1.040990060993693,-0.19458243371890943,1.4297134521400945,0.49690209480322606,0.40136732004800235,0.01127843622299421,-0.15446413216042076,-0.11113383580188453,-0.10231578290089674,0.0018188259989619197,0.11862633895561306
-2.1660107403436633,1.7471944614280464,-0.3767019354791149,-1.8178249693062278,2.152516804913899,0.14923707145997456,1.0602565843274818,-0.24566630288819427,-1.2231322387382964,16.1046499397671,1.173131932828971,-2.1910915457015983,0.15371336500523364,-0.20555931990929782,0.06583592587375924,0.04225445062622521,0.23001735035208837,-0.12328930919786978,24.876989806577896,-1.8972285292365842,-2.7924736663630356,21.403726369331775,-22.088203294653674,14.614012370774203,-0.27548490011830756,4.4848831095180115,0.4187028427439851,3.1052930806438708,-3.136762471744508,-1.5569901575079443,3.041375107578072,0.27550632167692946,-0.31171443127683995,0.8577859344145288,1.2773583849062418,-0.8752078977493858,0.21282496614013294,0.25401102033585704,0.047255214458975715,-0.05148769556394903,0.1707970428452278,-0.21240051519911748
-1.768167223572244,-0.8230427287802516,0.5887651479075271,-4.800506605080406,4.701167102186688,1.088060497216199,-3.1351154149847664,-3.318128171303119,2.754037345574341,16.025346881226323,10.883814431648782,3.927051010022368,0.5927799266820716,-0.6046216719186345,0.0509908177134852,0.25158428814170103,0.049752100405992414,0.08547885116486259,17.0342294074031,10.361519276299168,6.5584361233292325,-5.727381037475995,-40.68727803181435,-5.274637619826969,0.7349103896826346,-2.425815098898382,-1.5485473640168017,4.700593829167013,1.152700379230762,2.7560998586421226,0.9663811818796316,0.45125594519272766,-0.4458327351537326,2.0161453757541272,-0.6786339610809495,0.8663787347959404,0.4089754772665511,0.02933032348697355,-0.10140571547420785,0.26929534380741615,0.13620249702356158,0.018295751780902654
-1.040908426890529,2.339121465266943,-0.6257521917337906,-4.859433092321043,-1.669999996816161,0.011534999299562183,7.224475717151167,9.416729258226098,-0.9110214434311817,-2.7919661493477146,6.191116187204798,2.7875632825219974,0.37315376307637743,-0.4223223603591718,0.020925879450839797,-0.03710414463966167,-0.3775125012243184,-0.6353905120360801,8.252466396456034,18.537535619501803,7.157184716510137,32.96529253549412,-22.285801193618013,8.923418292144433,-0.922590632150578,1.278927216252871,0.7173216242032814,4.69958297645014,-4.254449305320139,-1.503021557259823,-0.5758903742324811,0.011711329616940751,0.2163384991369325,-1.517843334962324,2.451891840391767,-1.3792974576344867,-0.5957339301117773,0.32476937463483635,0.039754913924408344,-0.39741975306304583,0.06609662980574464,-0.02498724459885738
-3.8463911290266837,0.32257280607079475,-0.18338196057392425,1.0594167611079706,1.8663045866408936,0.036378635300069045,-10.996575090612788,-5.01402658590341,-1.9985789605500224,20.694374209886327,-8.784621494694946,-7.299428176154889,0.22201843436727925,-0.37160218206531087,-0.17286262345944822,0.3118293986390728,0.2693581842118316,0.2062309170862624,10.973895800152722,-26.401281386466028,-16.241586176930696,-3.9020978999785743,-3.785289720956872,-14.616463828862482,9.128919489855614,-5.756136628829648,-3.017985671886103,5.011134681714324,1.3974663262393174,3.660131964758943,-0.7930517029752836,1.858376838904457,-0.23039596403015028,4.193637806622969,-1.9504672269521024,1.9461452031839181,0.28532948483745085,0.15708901245487056,-0.06670417910294381,0.7994466451667108,-0.1697248302596667,0.2186497054507048
-2.4084815368739823,0.8055091148962299,0.17879275612233678,-1.3782716352044526,6.641375696248103,0.7146161884598151,2.9144211304568763,5.538891797892502,1.327531649912612,6.379695127274894,28.115633558264655,11.061159066073174,0.2696790112304791,-0.40585938036852615,0.1136966489944151,0.48918967866218854,0.5686246588636188,0.6859284428083965,15.105644026414348,48.88881154459871,19.647696002376353,22.787504013309274,-39.08348943781562,10.97176088816871,2.594400860801133,2.245288277659163,3.5817743934155186,4.366788264244424,-2.0801288115577927,-1.651700634619219,2.0969513913804536,-4.716751682749782,0.7569009930309453,3.2417987501343553,2.619917088912901,-0.24871486959991007,0.11550488609400537,-0.5498732506116818,0.0731378936859483,0.4082089505993437,0.4830776065251291,-0.0722834183353205
-0.9811928504534849,-0.6479383966744551,0.17737795137177967,5.295601194066373,0.4289469431507079,-1.157020605974601,-1.5325984086501399,-3.1062440646805842,1.14132075095282,29.227703795649035,-5.507893776604571,-9.815123518339258,0.5570426343506565,-0.7117600063223328,-0.06235179880076641,1.0400152840689412,-0.011466788818584399,-0.159534584662157,33.95005734352767,-19.52729639790898,-16.16934221639362,-16.238515076010124,-13.307060864205942,-14.474497402985493,7.3535515046256466,-2.2468286214296946,-1.3640133016301401,-0.48639371399074127,0.497848151396719,1.1052325248597261,-0.36681598070342,0.6092284576339102,-0.0874512582980632,2.469249450949487,-1.6950666505035927,1.3347665658053158,0.042366669911526766,0.007528000850111065,0.0009389689471102792,0.17207323983709247,-0.35673777146289587,0.14024206946922638
-1.6641015102455987,2.2814536095916687,-0.8113588682823268,3.6126065857992486,3.65766628807498,-0.39804608570939587,-1.992650220946825,3.6451033622470477,-4.696194710096884,26.053864227058742,8.994086546279783,3.2190643804121972,0.25546952017053304,-0.07426628591779019,0.10006713331344279,0.8159344165117743,0.16851522158484428,-0.152102989970807,30.29587252622954,17.782773323515308,-0.16196701026843163,23.536130199815723,-32.992678690873845,14.593957117827987,6.948922485209091,-1.7298856154628341,-0.7629706936175567,13.333277551809841,-1.947552650482602,2.0805347848929396,2.800593859488146,-1.1049293909120177,-0.26984610768630674,0.4000669411821586,2.0901637948409757,-0.7162678951709239,-0.02955506931074421,0.04548991317482075,0.012855179875985254,0.3027282391691289,0.2680981821895757,0.018194269652307016
-2.9984048635972336,-1.7761110387086108,0.8136112409323982,5.710856803537982,-2.6712637526686827,-1.0872078960349192,-1.4140014126154812,-6.499122219124781,4.147781484413512,27.984274358577622,0.20456276432136283,-4.570663285204889,0.422126245981097,-0.7783416597475673,-0.13144022881154152,1.2129615449757043,-0.3305375603478836,-0.2724465723345961,32.35536445291113,-12.788162104858571,-2.2217783482102953,16.808289026527483,-0.48424335959124676,-6.82724747402195,7.998668376612094,-0.5809949011773711,-0.0041655735266658694,0.9495664962811676,-0.5490054725767064,-0.9829644702659467,0.39405557303684324,-1.0665746668585698,0.33103668104112344,1.5396277877783173,1.6150646098601016,0.026369601631789877,0.4391878172715126,-0.2807756333740198,0.014965713579014325,0.33522999737007586,0.48471737121195047,-0.022192700597026018
0.010529999999999998,2.8524699999999994,-0.7041900000000001,5.08378,3.6157900000000005,-0.017220000000000027,3.31578,15.0093,-2.4134100000000003,36.26093,8.198950000000004,1.6201999999999999,0.41602000000000006,-0.2939,0.16135,0.7027000000000001,0.29678,0.4586999999999999,51.81304,32.71597,-2.0911400000000007,7.11053,-42.51099,0.5474699999999999,9.235120000000002,-0.45596,0.33205000000000007,4.1009199999999995,-2.574959999999999,0.3056399999999999,1.20815,-2.2915700000000006,0.37945000000000007,-1.7446199999999998,-0.2917200000000001,-0.7312699999999999,0.37024,-0.531,0.06862000000000001,-0.5545399999999999,-0.2657,-0.17395
-3.7457260693492507,0.28446625026030503,0.14557081477109626,1.5223630945147182,1.3563312380940993,-0.6550338268071751,-12.856428783251342,-0.8907616824177691,1.1818465371979765,19.4462328505678,10.822034865645525,-1.7343461346084375,0.29004066613225266,-0.463922013541384,-0.1430058294249485,0.8896390513394802,-0.11043809972851489,-0.19394478476056085,4.158828141967089,14.7921796359673,-2.988257306002326,-0.3790980448386984,-1.591425667773025,5.638703708550289,2.1937014402918273,2.6786910000527744,0.019015974976120637,4.733824591344047,-1.9999546139711792,0.3877090667390642,-1.8100256063132818,1.5662771562218198,-0.16117921011299577,-1.1013603531247071,0.5657184876863792,-0.44334153876694876,-0.7462280754872881,0.9063750655016514,-0.18647000632787672,-0.13897122420804564,-0.03508316142453539,0.013852414158292548
-1.8925895673726716,-1.7940468928423932,0.39875226519305595,-1.45298370491825,0.486523146303042,0.7476980562744202,2.995170366935631,-9.640463381444363,0.30787916400397464,16.606716837054677,4.274654472765093,3.7123643123652474,0.3178504258560388,-0.460610788256699,0.03022681405708834,0.32004461697463094,-0.02608830528874387,0.14225061958905666,28.33703546205348,-9.072224543322658,5.9313339020877525,25.54995664118313,-8.608648967532991,-6.998700937066795,3.093849736291327,-0.8510448832856922,0.3358598386886158,0.6920410845170051,-1.558938358083029,-2.0462685462618473,0.6872097642034922,-1.9524299369566842,0.18010086213148255,2.4588766483727236,1.7421586020824087,-0.1345632131922136,0.1371227638538129,-0.5558316141830232,0.04354187071433763,0.29420873629138466,0.3956095407387887,-0.1450616135991025
-0.5203595940225868,1.7474306607049621,-0.4876205523454751,3.28310550159014,1.5018318771941512,-0.3918578754323431,4.251523633603948,6.641833432919869,-0.8608520826968784,17.530022342021294,3.6752573291194053,-0.191241514277307,0.35692879556612583,-0.3910468816033378,-0.02788621110927772,0.7803132547289607,-0.036322237311935,-0.15209299153934883,28.045672719205456,9.699631371333249,-0.8782216046950784,-3.047343811214287,-17.5777059822217,7.592875972044033,6.117717580086873,1.2300549455754126,-1.5504319536495188,11.151058527747153,0.6965498830899711,4.130212408327158,-1.1768318520371623,2.2168304805109518,-0.16147263000096945,-0.585169404557599,-0.11149269742506303,0.024526925211857044,-0.13894272126040447,0.531741357251726,-0.03922069532211724,-0.11487173073756123,-0.1404598909729095,0.08066539954382144
-2.8155767851304114,0.5638645448982612,-0.02163610991867283,0.7900477851795977,4.942429358743123,-0.279803817420959,-12.218383071635303,2.4829329257772974,0.29164523838367595,17.85724116626247,13.752992275359963,-1.9849475515432218,0.3433474180058655,-0.5380107901802418,-0.02241288659042694,0.8840701496050696,0.3824327184894198,0.12096656014886668,7.795496925013025,23.82370999004429,-3.4477353574081593,27.889190989006526,-11.112367729299462,-12.331739714214246,1.5123835648143316,-1.02796030286157,0.8363155973168186,-1.2947019135018403,-2.549664227717604,-2.559410910086611,0.32730264074694765,-1.5845725565291862,0.5781926007045817,3.2024287510184237,1.2587938456808676,0.5751752759491359,-0.024586616512235943,-0.2429005396611101,0.11222711176997713,0.34851523363243464,0.1133341125067942,0.06334166376413759
-0.9295395708976214,-0.9650919611194891,0.3849665457027437,-0.13245780833438714,1.6397709741878284,0.04638559083736579,2.137037785336482,-4.96102176597265,0.7023640170653465,16.723760315187352,11.036940131446185,2.018103973522301,0.5256474122687246,-0.3255435808323534,0.15876387968355568,0.5944835975777957,0.008389147368089645,-0.08499669638854002,24.83171803087007,8.216819688068535,4.130446293486036,8.576203887446473,0.04939047147249084,12.396781843139133,5.492157552214598,0.5527026055582717,-0.7350532737388383,9.023142061423515,0.09488972324671276,2.2355352405728013,-0.2993364872675071,-0.0006596262540684572,-0.1725362200945845,1.6848077396043637,0.8778090988120275,0.17736291499531948,-0.02526687821627866,-0.0631031285346437,-0.0504572923926197,0.26770808074316255,0.18224162549212225,-0.003942290671508751
-1.4724241628990278,1.0579637526011165,-0.39275117389490655,3.27170945951303,-0.13807815995899814,-0.06823306561746786,6.900118355290107,6.463318305800828,-0.6075354260776907,22.474837727148312,-0.9659873058079531,-0.9532895318264109,0.14527726155412712,-0.5438669267039268,-0.07417419952575345,0.6599250666850053,0.03550703412791523,0.12099231625684499,36.42131966319053,5.9354544179762225,-0.13313572061552373,19.018284934195258,-10.300445600251413,2.7012371718776214,1.8245025833835191,-0.21970321719241614,1.5772993623512934,5.475881018268282,-0.4365750240592018,0.13568643800873287,1.9922040605371574,-2.2582440807875215,0.46879071983503645,3.3133774812747068,1.7616193728369156,0.48769696612337143,0.11091257638032581,-0.1775657909037478,0.06175530495840704,0.6676101641243177,0.31468153783362196,0.10345119313588438
-2.8006364745344423,-0.38174886051221235,-0.05466957560716949,-3.5293006245993186,4.828527959647382,0.5839780251784406,-8.103194619797566,-10.553462131103355,-0.4675395867866149,3.2490627809489707,12.081226364128316,3.4414586803605425,0.43049179990774056,-0.40721040182704904,-0.02822172449260917,0.38958093845735897,0.05976338764703293,0.1120931072014929,-0.018193260695322344,-3.304199324271523,1.4035546597082051,28.411819280157584,11.407444011770416,-14.563787253378848,4.7620611214620485,1.8582219399760265,-0.1500500373424117,1.1020166785405843,-3.9457338369282704,-1.5048017063569799,3.6527402978676555,-0.2576643329276832,-0.8632141700204649,0.6938918951505125,0.26131973425507116,0.15275667007272142,0.22156102422679025,0.21923445347289405,-0.1458261273779367,-0.10405276339155572,-0.22552229707486773,0.053770125213277196
-2.2314332790942117,-0.613659332870718,0.5033653565991417,3.126092595317254,-0.9897319666369269,-0.042145180980006004,-1.5665401006257953,-0.691523833211657,2.7582540833088927,3.1224528028231253,3.4275688529716586,2.967660579686671,0.1959248640010738,-0.4108635688836547,0.04147143751322366,0.7128247970456749,0.06155331986750339,-0.06318033595810463,-2.7487966200285285,5.6881134883143885,14.494957321941534,26.63079925223559,-3.4909654092218503,3.0636861220495106,11.442221069203734,-2.7387363222424512,-2.0762719463494546,3.9857178718417026,-0.1028510574570966,0.3461035378924533,-0.7661403080465916,-0.7639483807169238,0.5782063986481906,0.3839904292328318,1.277290511705381,-0.26946323286025353,0.38707390886844306,-0.5819451926011184,0.1790044175250495,0.060697964810891104,0.30483206568901,-0.07590433793149683
1.3635406199496394,-1.734209725886208,0.14157650901890223,-2.197761937438641,-1.0081905784431218,-0.4004475564597414,14.284364512745167,-10.173260001663754,0.04588032904693723,2.7580486049809028,-6.702384805451277,-6.014389794521741,0.7676133479472139,-0.7874517127742018,0.05584785540834308,0.6780599400315752,-0.20346860553125581,-0.1621970482504394,25.665343154470456,-23.829152547451535,-4.18237132336414,25.171568813785967,27.56277517744661,0.14542697641274677,1.4388120049783384,2.8342796898943847,1.0457043063941718,6.10405499566362,-2.592882187611642,-0.2563842369144396,4.2059616939323785,-0.18250474622453713,-0.8123901776515903,0.3424057567328232,1.2631575029185063,-0.47095054947594184,0.2189213551879447,0.5416825253927843,-0.1988588324265995,0.008951493713496073,0.19579536901761657,-0.11674850901117947
-7.245360697213067,-0.2609024834620817,0.298142791574635,3.470767901986903,-0.2586294225833881,0.227163717644201,-20.718532646069555,-4.3226517447460635,0.09565790136922152,21.21425139085093,-0.11129882634272087,2.929470936252476,-0.15095780585571775,-0.21739117511849115,-0.008912540554154717,0.5787815632125689,0.07979881600003733,0.008240633615528077,-1.688666826329532,-2.3782295395406847,-0.5531244979737482,25.228174488323056,-26.104837565011493,0.44061765757258414,7.415804588620204,-1.0440714718270854,-1.457803321743646,1.8470607451060124,-0.8356630084542654,-0.2772503037518366,-0.48978102078916624,-0.21286554598011143,0.2053489299532469,0.20664253072942168,0.8755011948363167,0.1202228182865457,0.010163306191476436,-0.19723449636831444,0.06841628676056333,-0.06870533769358719,-0.07330777902640025,0.12512588013246873
-3.3394985267711492,-1.7882713465341618,0.5875516715175741,-1.3839319474424348,2.392200240250528,-0.1745000520924216,-5.221268705081837,-17.92904203993631,2.026656850451658,-6.138058356092221,9.847764569086433,-0.47898674037167627,0.452174590040236,-0.6144040741368533,-0.05328955171010845,0.9570193636345213,-0.017946887117429023,-0.07043648459389215,-14.17837052059443,-13.619973988228347,5.403315882088707,34.116379472611364,21.35704093751755,-8.457387256509165,1.7326189614422387,-0.8330935177967173,-0.5923168185969199,5.023224420988346,-1.7803937906329559,-0.29081236773145525,0.7727955910411859,-0.4673389999522739,-0.2401436090263234,1.6497090251152817,1.3754176425071076,-0.1597042028635507,0.07439115608806902,-0.20715781269022882,-0.030717250761693397,0.20871665715984247,0.27217224750296476,-0.11811630309141938
-0.4057359074041049,-1.1822727678461935,0.6221050003046,2.0939258727974703,1.4636477939755819,0.11968503719364162,18.380909220641655,-3.178961017346905,3.6395682660171254,18.63048537741864,0.008932830728772129,-0.3727368423789792,0.39269980755037037,-0.36930597033822843,0.11231159017580403,0.7774087975039157,0.07414443459186988,0.13561311106110696,48.290182582596685,1.4557953661461895,7.380786021469405,32.67313364126847,8.155808098003412,-3.393900056714086,4.527899347255954,2.746686430217502,-0.2481023423352478,3.73577689920483,-1.0999567970010695,-1.0313019771456298,-0.9996698470472055,1.3648285478686062,-0.21228758623575048,-0.22623941448934015,1.810737210407132,-0.99028231817334,-0.426265620194859,0.6182943186503096,-0.0902569068355653,-0.11224360725522574,0.27812438007249507,-0.21342234724167863
-6.752388716394749,-0.5382396062830351,-0.20718907936012448,-0.9030641274805931,-0.06781145757352035,0.09667347445046434,-22.42152546375636,-15.796439914623907,-4.3149056256410026,1.6850611065469898,4.644171127840137,1.8035048939324172,0.1253117251590755,-0.5808986621103631,-0.11877255863470092,0.342940730475922,0.1037950102190091,-0.0929970110644364,-29.012692424733068,-25.272872560781313,-5.3158746830123,51.809130728191796,13.839219268877716,-5.042072878090961,4.94536475261865,-0.09950806400229435,-0.6219012737394216,1.0798694017210633,-1.5740283944433235,-1.151724017568441,0.6296980709076934,-0.24784700069165277,0.11223071483422367,3.496844947775787,1.4369786417318082,1.0950897379864035,0.07093462808205613,-0.22333043626488294,0.10322730111485597,0.3598155040081721,0.026142032061123213,0.18422950669140295
-0.8101794176191266,-0.23394003450852108,0.4140509691006495,0.3964655791931888,2.53782600291609,0.3180958205484274,7.212648487641323,-1.9867610448696582,3.2070045788030392,6.173292522818484,0.8388922557331457,-0.33777368604414215,0.28903221856025213,-0.19283743622244567,0.12743199567310523,0.6567534548602766,0.09606508644709813,0.2881677548865227,19.730498199282206,2.4736000157640325,5.610006788739948,22.14232430166114,32.3605540681223,4.135714221420418,2.7168484996026088,-0.9712802728777558,0.862323812833217,3.98962976659668,-1.3985740024397937,0.2681692376713809,2.899226047601314,-1.723053888786159,0.29818452583837274,1.8491847275979498,1.0509815945665257,0.5337453881436519,0.572979822762155,-0.2502209723436505,0.07458648562385187,0.3752442700614282,0.18803190401666736,0.1350101991599338
-8.649437353212884,-1.1419036227841286,0.5667320488519318,0.29666886808424986,-0.2009701536741406,-0.14428973551022325,-22.33689715261632,-8.672948265763283,-1.674047377281818,6.926425809421022,3.6342244876095915,0.4902814394266428,0.1669302214793406,-0.5243086071675819,-0.1339042240784147,0.42028412643726676,-0.06031967806807798,-0.1621218127601164,-22.357538367158288,-5.004256629464656,-5.396362295397324,59.440543272647176,-3.557926203218292,-6.800182825158876,3.4575340194525763,0.5695583937376621,-0.05086521307577643,3.5637894147124234,-0.8626259074788658,0.019533539444985933,1.7885634787740146,-1.002028814006334,-0.6168811698997256,3.271961440950555,1.3279012680362785,0.8913914084268755,-0.002672008517701982,-0.091129346831897,-0.15805536833723574,0.44165836717352036,0.10337382346116698,0.14254238984156
-3.3935048961532996,1.6463957082050502,-0.9276443419421466,4.887801164180024,-2.0280687244918747,-0.40905577403017407,-4.011111555474219,2.098234070351075,-2.4825973172028744,23.78320985830404,-7.519615868095038,-3.00374805330763,0.38092228431387537,-0.3922618544883806,0.1568321117298678,0.9738988801734809,-0.058680244934877876,-0.10628879558095292,24.80582253042497,-7.033159709584012,-10.907678413840271,34.10860036149112,30.94703656394859,-7.528678832950894,4.514643932035021,-0.9530480379589668,-2.459722078551861,4.509090454273018,-1.7680900334532708,-0.46095943774435505,0.057867042699076554,1.9278915690481322,-0.11366137675422538,-0.9157395118447937,1.3589269598246627,-1.0055479761074313,0.35059683061307484,-0.019799668988251903,0.1506096252135834,-0.18800478347197208,0.15620023631838714,-0.1516549346414406
-4.54053,0.9510699999999999,-0.004599999999999993,-0.34021000000000023,1.6686500000000004,0.26751,-5.239269999999999,-1.0588400000000002,2.05071,5.858619999999999,-1.0482499999999983,-0.07455999999999985,0.25532,-0.21354000000000004,0.1518,0.59388,0.024740000000000012,0.15488999999999997,2.2492099999999997,-0.8868799999999992,1.1114300000000001,57.61771,0.07223999999999986,3.32921,0.8791199999999999,-0.23213999999999996,0.8076500000000001,1.8888200000000004,-0.4748200000000001,-1.1848200000000002,1.9053899999999997,-1.2846200000000003,-0.15842,2.19246,2.06237,-0.08406,-0.3359,0.2289,-0.08130000000000001,0.21505999999999997,0.4082700000000001,-0.13792
-7.196657415092827,0.8795737901646979,-0.3989436251700858,-2.186880865769915,0.38530400117600655,0.2909433198719078,-24.50187800968142,-5.310579374349102,-6.0301250803130015,0.965903058801312,0.3635488484251367,1.6094723488856888,0.2397274613591236,-0.06354879474353002,0.16611947855200862,0.1917425017190399,0.11177292996065095,0.04184195125402445,-25.010728357694155,-4.777423802833221,-5.8241254375243035,42.69988855937315,25.985491504579308,-3.386949554466856,7.650038298938322,0.4858041682822274,0.0009925835582583473,6.0622747556982635,-3.7651536193757806,-0.42285198444214406,2.6775839262144965,-1.4368185051458935,-0.2401804298714646,-0.1814064614389356,1.4028262465787882,-0.47668701386716933,0.32955340026532165,-0.11036346540025965,-0.05201390424576885,-0.10353903704090354,-0.01122444626341095,0.037065393408930385
-7.190868509378844,4.897170230893105,-2.5629665442091563,2.8196610921395737,-0.9768576896721559,-0.37081761522721046,-13.759103674701393,14.741374618405388,-3.1316179587454296,20.19198843599166,-2.880807139493651,-3.154356023965441,-0.33791887427551903,0.2075451347101423,-0.04856802194799301,1.0006649445182394,-0.10047192528350345,-0.05094614313332959,10.205168112353258,14.489486467207938,-15.28354392472715,52.03169075149676,11.232888973627569,1.424704512140441,0.5807590821456579,0.29491830915108724,-0.3821066955065949,2.0869737072147223,-1.1062062871852596,-1.283686986008329,0.07422130477824349,0.5309020344043237,-0.18835495538763278,1.095775307323043,1.9065824839367578,-0.485071009686085,-0.15090143715002455,0.18418078210946567,-0.01364674454663913,0.14501341100433487,0.354622055478998,-0.12997782227913854
-5.184903830232902,-1.4358076827310684,0.4383199993566408,3.7594080741749254,-1.1795229601761283,-0.17597342190500556,-15.34682811136324,-14.313492067741567,-3.5799273486646146,11.398973976229609,-7.424762790334621,-0.9205093352984858,0.23821836808050975,-0.35804988129451915,-0.20578711735921956,0.8451377402194802,-0.016183894205163588,-0.17068202350699316,-11.676711332917119,-30.12297981933775,-7.447544603380184,39.425479785283216,44.448180839455084,-18.67075911433168,4.778451166738668,-3.949640820137409,-5.288495535224616,2.8703598093591536,-3.6922792470023507,-1.5513699901965923,-0.4996448349595192,2.7979281479705023,-1.093756062409618,2.752953998304506,1.521175365175533,0.38008692893878415,0.48427910029839977,-0.06503316506934054,-0.07864007155601764,0.27692675619195806,-0.02320102686915263,0.0749792216076257
-5.508895130994638,-0.5884743384039939,0.08907788985283133,-2.2191601482962082,1.3545259973462482,0.03633844293059696,-18.86868243487483,-0.720076363906416,-1.3249253854870637,-4.425216678825125,5.451407818804653,-0.5862147010904698,0.18594336380765672,-0.4222545539951362,-0.1656633974576566,0.36468295424543706,0.029028095269754008,0.14493571189180754,-25.15380685009461,12.115434475589662,-3.1976707247919705,56.80803504019698,-12.162214500605117,16.15314347391485,3.0792693331070042,4.035462777187398,5.861967569222696,5.46746897360671,0.5177343945740083,2.0349156034179745,5.4812741142448465,-5.051413351096451,0.8593309997072331,0.3401537918842686,0.4618230794160574,0.22629800024690142,-0.17619869070624655,-0.04367518212864377,0.07169950399386309,0.09494628930597128,0.1276540788896069,0.07967660825473138
-5.315633730851982,0.15323030813008923,-0.4141806776892066,2.939383580688601,0.1705190850811169,-0.19879367971481565,-8.234480043298996,0.23046007305218427,-2.1034237850306563,20.72459987202743,2.5007365767829586,-0.7981110741661981,0.317068017302378,-0.3630613591073015,-0.03251018174671313,1.007920565321517,-0.02092611961535975,-0.08246011310641237,15.505230491111831,5.748198275592964,-8.733810072472874,55.606016305879436,35.43975697716557,-12.483697367697504,5.995991165233994,-1.2010210116845308,-2.116489728933954,4.09945114180623,-2.457773315646554,-1.243040548709726,1.2785328482426863,0.6870516511574996,-0.3527860590513352,3.268220336590243,2.416240284283465,0.31655243288823215,0.5989304661626997,-0.24666909587955135,0.06953901387888646,0.2396586382745573,0.23496818863201377,-0.01175778757716653
-4.833478287624857,-1.1243150719696904,0.4366360609288676,0.7119762565941442,-0.2660035737977292,0.1681422730241213,-4.209036319327103,-10.28158581083572,2.266594338359419,2.800895501208587,-5.089177692438494,0.4292789955500313,0.22590334032911147,-0.3983563720573797,-0.1535552671957075,0.5994673466891216,-0.02925102810685061,0.017484696607383308,0.43199972101539164,-18.920910789583726,5.009443077831672,35.4396302180875,23.903186093294842,-0.527482658431342,1.6633499304890318,-0.9779220207485358,-1.591318661006805,4.243924867976377,-2.5255462307871066,0.05776127161808958,-0.3926656794251947,0.5313534241061879,-0.7437451575888233,3.1371049028345164,1.0920072776557221,1.0211544032634843,-0.6119156041621135,0.3272130244405665,-0.20244207954482457,0.6855810369957162,0.09527541911199525,0.2920756668163594
-8.85611972897821,2.1016147407873538,-1.4339799312388397,-1.7899999480945323,0.035474203143073445,0.006142905477008725,-21.295306389457647,-2.43504405584438,-4.793485772529769,6.024174594491971,-0.30438860912801924,-1.215239054047219,0.31568790378164663,-0.05790144880499738,0.05420375566470588,0.2848381295691979,0.10908519982388967,0.055790325899901336,-20.41036303478568,-7.363770864013151,-9.2109069770101,54.53153016067912,27.85624695094396,-1.743063207768932,7.198886921997888,0.49027237482663144,-0.27878342131600126,3.6181567487752013,-2.457456347483699,-1.9759497391486465,1.9194559788212835,-0.46652862569261044,0.15589651052693865,0.7440169345731484,2.713155868801518,-0.8399333904027623,0.5538093049262605,-0.12107175871801357,0.1205265645130513,-0.013204891706375477,0.32733393831223156,-0.1398702762564409
-4.128632936973912,1.1327634949841223,-0.8664114815773926,2.489204864889336,2.500478205376575,-0.13486305005897048,-8.872708421624436,0.9235513408824712,-1.781405887511093,9.326662168636163,10.300597645223858,0.2206695789536586,0.06415589263981518,-0.028558924412466553,-0.14064380049024197,0.8548708840750867,0.02309524230774506,0.0032590225096216265,1.4839403822474686,18.174197811186996,-2.5090529472203333,46.05455490684855,13.138034670960232,-3.573138630331694,2.006025005408064,-1.9556532281621992,-0.5071823809511831,3.1175342327723947,0.05089665357875564,0.8882262180497156,2.0790642706237326,-1.051313111373001,-0.34710757818879723,0.29997941771881526,0.011962703860193907,-0.11936000003756236,-0.0680732885929387,-0.006828320358439302,-0.06221130922770569,-0.020822667600983426,0.005429695489635612,-0.09905296058236708
-1.8068971303118284,-3.1926012851097125,1.0636962349857473,0.6056609019505522,-2.7778767602747187,-0.005618056612774222,-1.8699991771305406,-18.865588328748697,-0.10079184244857674,5.8132050297425355,-11.527028973488127,-0.6678553543192061,0.7188975475422467,-0.39777666244549387,0.07498031324789318,0.5952865495114846,-0.10115839735762815,-0.13106985342082883,0.9400523086348602,-38.07299063903038,-2.098489856642122,34.785897179522124,22.43439679727503,-13.049889879966729,6.473655982567095,1.031105004499779,-0.46398293353483716,2.4461896280912097,-2.4869154308487884,-2.250104886422561,1.2491620548411217,-0.07509011017547576,-0.13486277460250867,1.627341262642933,2.707787867472093,-0.30681511894138747,0.09430558700555595,0.22136070159102597,-0.015576610081570021,0.19405214147459943,0.322564239958814,-0.017934494166081272
-4.245942488730184,1.460345187473498,-0.8927162169944043,2.015834908515647,1.5043406160129058,-0.05122010119001167,-6.109180017044445,1.8381760908668663,-0.8577816114878268,23.860235094441286,1.1607824597506609,-1.8445542714660519,0.17815785157362532,-0.239397374773911,-0.0632057688951392,0.6360500256097488,0.08534650733492707,0.09036194973247914,24.041387281914787,2.740281501864447,-6.287850812086757,32.59156815751675,25.15890423461008,-2.1302534909292192,5.596812005417116,-0.6959567676972019,-2.38082500487078,7.765883625102682,-1.7377233560370708,1.2939663432772004,-0.8894371097642471,1.4017659105744307,-0.2810040159894427,-0.9154139165086232,0.5264182081007228,-0.68853942657886,-0.2815111220840565,0.12691723930189805,0.03800138497918404,-0.16820235687920132,0.03047203048616852,-0.10514968601245189
-1.1950335231351152,-1.0232072430352463,0.10977802520731836,1.955078755663696,-1.8475150948049932,-0.22801956067635132,5.359125532812266,-9.055044712170696,-0.09989625501414068,5.767476680107465,-7.112091281338638,-1.793368017267305,0.692977465274672,-0.29415580160171056,0.05410846555454688,0.7917813268701132,-0.08978060026871251,-0.13353969911615232,17.465644777998612,-21.866469294204776,0.11491599252487747,44.73415296769692,-1.0574217364912004,-6.283453372891609,2.8220170995039195,-0.141479961589734,-0.2958870592090116,1.27313891296636,-0.34530163593208985,-1.0903251356091122,1.5393673820210536,-0.43269097704313225,-0.3562067076945905,1.8308567062189942,1.9834523594166966,0.1691425097747726,0.21967671369655975,0.12440251374569444,-0.09834622652378959,0.13716273871647128,0.3380478214756891,-0.02747991871755374
-5.074651321120993,-3.8524178054927503,1.3351552691895168,0.07514577285287169,1.6220404684172562,0.42859664600785957,-17.885005163403477,-22.059425804512262,2.5361680483487397,16.25085744531579,0.682694956064808,1.573734363146864,0.21559397077441997,-0.2723911770081187,0.034415767426204516,0.34531397508436434,0.12113092546808135,0.14848930852308614,-5.02866464534233,-29.655439974776563,0.9558884561516322,34.928611358983915,23.091686129769606,5.447277029552881,5.717869453454794,0.1800196154592552,1.2305356127972462,3.8550824926283225,-2.508247225623244,-0.8533097713006751,2.929667783461307,-2.756231017959688,0.18923201899883116,1.0867849471360298,1.4208505431300744,0.09196910039440818,0.38244188044889127,-0.49735693925810887,0.02150085452031312,0.05877059396480096,0.04133247807737209,0.05921985814206178
-4.4598050493991,-1.5101993532871498,0.5266033418808,-0.3859644261806235,0.037698049500880675,-0.23415576995159937,-7.712059832995969,-3.595251800470857,2.3792333484556547,5.057134049236086,0.8948284602922414,-2.3304509944565845,0.5072130060249368,-0.5958386048513782,0.005026175682077431,0.8468852939417679,-0.0767115124204738,-0.05303549350333941,0.49299889727721957,-1.3175232822553553,2.2432715947903263,22.639664808521612,6.437617347563281,-5.9116331526336445,6.460583491663935,0.7286229451371508,-1.293540129131984,4.683348988954271,-0.4892551672484344,0.6951649979583867,1.115594959039611,0.9433589714817264,-0.47571794996256744,2.697931956450278,0.9556629225226257,0.7421220887490358,-0.004841196924296939,0.3895171201084576,-0.021850168981538538,0.4678456352333766,0.08971374985472538,0.12495311819567219
-0.8354683737383778,-2.0755314682665236,0.08631283861598193,1.084859011683269,1.8633094476944025,0.2105123941629228,4.440010974551812,-8.601234265286548,-1.8197303379591754,6.138148961058142,7.50624084376205,4.0809526397832325,0.34016269058898085,-0.3242102724067454,-0.06359347721040824,0.5602246522721885,0.12207986720248375,-0.0435848068007062,11.222743214207345,-0.7181394837523416,6.85550041626051,29.58824087664312,11.644022464929815,-4.583651244486739,-1.1102885097944066,0.4523175571699683,0.02706618890935708,0.10283455175858969,-0.8269496871348588,-1.998416321388529,-0.19915695160876493,0.569055379685699,0.03215692789707719,1.507158731526847,2.323376408954874,0.09039209239611487,-0.33905216074883526,0.165123973248526,0.07794954421810595,0.052668188439379246,0.37823761416648244,-0.040035983157933386
-3.3825977640132385,-0.6282118448014921,0.6679425208278019,-0.5489494405288525,-0.12740193801335212,-0.08323637131996865,-14.347203939750406,-7.643929215163659,5.1846529735969344,13.859321995103928,3.492679270376626,-1.7978251265719016,0.5992140157122963,-0.3546590934892513,0.060330990655192214,0.6905342021363724,-0.09099253184122195,0.054574732842838536,-1.360200980823754,-7.188241286047799,0.5386669832758967,28.210345409077895,12.521022591345702,7.412962878770591,6.898568087383407,-0.8455264457679753,1.9204040294537934,7.606131429704173,-0.842393669222043,1.2893095543343824,2.87163565820475,-4.290338377690269,0.578061990054295,1.6742637024581517,0.9163956090508061,0.22593395843312195,0.36276873724310577,-0.7968809998945185,0.005834946868587968,0.31959638084875996,0.034900119314291544,0.06153054430845273
0.6180835844390187,-1.1836722667623163,0.23527794899532972,1.335006433007622,2.693746634769876,0.08693430164447474,7.129377731281995,-4.932873069166237,0.4250298143609574,12.57318843919417,5.78640294658047,0.803966745499332,0.4381339805385128,-0.27324075861409536,0.05612129847108012,0.786850586958215,0.20018995588091204,0.16689307017911528,24.662330402142054,4.9157457460203755,6.788350293977247,21.037277279667027,-4.853628657014274,-9.35791464017028,6.956823550032725,2.830292918538785,-1.0887202304043522,2.6787203718945976,-1.5094311241006173,-0.6273797815799909,0.8986886896101751,1.5382026934907875,-0.7345388063165554,0.9231477665140351,1.0340790988114934,0.11758598272440089,0.03906555065440931,0.5868493893052199,-0.1047656793852261,0.09179039704631364,0.0707476887622764,0.03387410725919067
-3.6104600000000002,3.2226199999999996,-0.7984499999999998,4.75093,1.4584199999999998,-0.6953399999999998,-7.0704899999999995,10.378879999999999,-1.0674900000000003,30.060319999999997,5.623289999999999,-1.6934100000000003,0.60711,-0.27419,-0.031089999999999996,1.12065,0.02901,-0.19793000000000002,31.19212,17.391960000000005,-2.083,11.366800000000001,1.5762900000000009,6.359309999999998,1.1945200000000002,-0.3553600000000001,0.6399799999999997,3.5859099999999997,-1.4172299999999995,-1.14272,-0.31288000000000027,-0.7888399999999999,0.70553,-0.17438999999999996,1.8099099999999997,-0.7565299999999998,-0.017790000000000007,-0.24374,0.16268,-0.08746999999999999,0.29907,-0.16562
-1.5483788927611144,-1.0380734009385844,-0.03626018986823329,0.16091852267356108,1.3754662686768553,0.355266284653151,-7.608270919959094,-4.5107584748997684,-2.0913946869100424,21.584029904104156,7.103196235573632,4.969365035378489,0.24320107137800623,-0.1969174299949442,0.02648488005394884,0.033592332721188285,-0.03588058355284452,-0.030147366627454243,12.950108630995075,6.682850944104363,-0.28592793227204344,30.64462866947209,-10.879782172223358,4.192873422516299,6.227977787946114,0.758252164465156,0.5268917575466264,5.631963132286887,-0.4325195699673227,1.7035393473130256,1.4601111138832465,-1.9151405531834291,-0.019372935921367393,0.7211781279193076,0.013860543736420965,0.30294396763098097,0.056838602962529614,-0.19218364813376523,-0.06474563192942531,0.1615234982890741,-0.028517552221766166,0.08007477627437685
1.0659040578577441,-0.6132945560413088,0.2807385800955897,1.6622398658883506,2.178055987871489,-0.31508173949679197,4.789676227418127,0.28072811599755293,1.990835848008402,22.635728727537792,14.713735487584552,1.9369799051690217,0.7461407213301762,-0.35651661083023584,-0.0026662201046477024,0.9535779464105908,0.06683330670728531,0.004033881896914887,34.66509670800223,22.01064918672263,6.984932946501986,23.156381327078424,9.308603200285223,-0.6451134376376435,8.51534961039505,0.47264422894201463,-0.490827867434573,5.920824245464186,0.7488376306916991,0.49548768366413437,1.9893971074609658,-0.746017428858402,-0.18780907774687575,0.7079074964182628,1.964029414708499,-0.4374908845472422,0.09011282054643431,0.3005852368876586,-0.03428145135302722,0.009362422158358709,0.35979187331552237,-0.13797391983973104
-4.6575923178732,0.5776190950713093,-0.3087079594773361,-0.6179673931160796,2.6360967912181636,-0.07580542645317172,-10.676259745575312,-0.3326685367135929,-1.7506062425794808,16.204944113310635,3.925259542386115,-0.760582737911026,0.3093130773219947,-0.3920118736030129,-0.05189082114318698,0.6672176462993423,0.1699087099485644,-0.08558961355830186,8.060541389013984,2.8678948612659996,-1.8441829517273405,-5.288713581070779,-15.489258797708835,9.235329916787308,-0.2695306041372163,1.5933511385837282,2.698622146108986,3.5441040579344874,-3.422063323127199,-1.1913104596300053,0.748574246696046,-2.1674523670257866,0.5714761168777569,0.7270961440675053,0.8445187884286224,0.03733895067221052,-0.22431241369245014,-0.16734391053479095,0.04209041558847268,-0.05313932305870276,-0.1369065385627621,0.0337998103410066
1.0020495451009501,-0.5361399803197822,0.5946505040701404,1.6695976994098705,1.495218723776124,-0.48780877314737053,3.8846188993092268,-2.2681155169749756,3.8167370578929796,17.82663030243673,7.383814567007691,-1.5992442423603657,0.778165537146117,-0.24751101844886994,0.1440252801656333,0.679464651903289,-0.1716039383705797,-0.03999650227562014,31.85797282739656,-0.24972687386731737,3.4243980669582696,21.04266717598904,3.4925214684927,-6.91669396948633,11.797956899747431,-2.5411460288791177,-5.718830955037103,7.868999772293708,1.0667417759863473,1.881666370208486,0.2385178352700203,2.473412811007689,-1.1267086065526046,0.2545676048390659,1.5823718996112537,-0.0792180701853029,0.35718209624283365,0.24931071394165366,-0.12946640862936365,0.02548990027675364,0.3452566808309452,0.019203573195456933
-4.391775907563324,3.3294359074796063,-0.6587255667240213,-2.388944187114366,2.5047496837963945,0.3980761342334764,-16.569624938975373,13.03114154137631,-1.7565608765345724,13.28823756688685,10.789744519593249,4.0291697083445515,0.29602660400393277,-0.23598214040902937,-0.10423670013456744,0.41714171080586343,0.1932135518881983,0.1044672650631888,-3.6260013364954924,33.990044526983,1.6213451861349168,38.3183205241571,-24.1717658278994,13.817284043049918,-0.33530817304175486,4.230814710351677,7.870348761486834,3.9558069435118015,-1.2047453832137578,-0.660300566812246,4.343621469679935,-6.546037591422831,1.4043123961631097,2.337381034876188,1.2776654763573265,0.13711115297212906,0.07807630670091117,-0.6296518683362576,0.19639921988560546,0.4415263940736896,0.08679988123035418,0.006826433966666642
0.7012573921762157,-1.7201373374785085,0.08710386344402955,-0.5017538284931465,2.384641275620804,0.17268393143954677,10.374571949968132,-6.9234233924893624,-0.8238504847324436,10.757384429820123,7.4891201202995274,2.5065825025878183,0.4323938541574093,-0.3003373439202617,0.019764097842948008,0.35159739558732267,0.21014160187815864,0.10974731572631377,29.618659199571553,-3.7441047469279525,6.869126864200134,7.856932388816997,-6.2182557392546,-8.91785260807,5.410076915921432,0.5748220588787959,-2.2214030810311978,3.2769184496785257,-0.8026545431051963,0.4946204741993695,-3.0466052279511677,1.6843819790225856,-0.08264038683234955,1.117969337989064,0.4450548697898309,0.46714838711225215,-0.3117821429811026,0.13073802097946322,-0.08027935275372974,0.1226503190841212,-0.04552502764623621,0.11109895021446403
-2.0750463378251522,0.01096229473145205,0.3121684558428387,-3.8718181803804206,-0.09676731746976674,0.6243353970681518,-4.450440950155414,2.805696253286435,1.4384830786473337,2.9437780756599046,-0.6309394756472744,-0.7122751987413125,0.683478377777468,-0.4073076777739252,0.06995376449087956,0.558910871363562,0.02418686694997841,0.10547346139929935,3.5529234543198793,2.8034148315975624,3.1905470244880876,-2.287490058576192,-6.330640586198019,4.8718998332232,4.726982708584245,-0.8999211576992981,-1.9538604078950093,5.7103043012949,-0.1328823011207817,0.7753684341300541,1.120527397026282,0.5740038108413648,-0.6254885089358558,0.5467226648507459,0.8246701963454571,-0.19422732348770552,-0.10497422608801114,0.2520249446266345,-0.06528519325489751,0.056179295879966125,0.10934702624773476,-0.05852366841964127
-2.5921681065298143,0.7130088073997207,-0.38320697964265993,-1.1874048371224717,1.3726248865087949,0.23895110112350068,-10.283012718966985,-0.8456888728716073,-2.600360559226327,11.370531278721568,4.331583158359171,1.4105658445771734,0.28077060184650265,-0.20597827762325896,-0.043926905689511575,0.07405805867290954,-0.08226099651969099,0.05370689339087271,3.000057741186041,-5.061212855957912,-3.499474978925049,16.592056724193615,-25.465391340274763,-1.3794444834606523,5.324369057931251,1.262115038808572,1.2988779035376805,5.456549178004554,-0.2854146191203532,0.7463818313726295,0.257985160988047,-2.0467435827796683,0.6892237368794518,1.199426442647389,0.9484812187736783,0.2106692579200006,0.3480781254195066,-0.48701221147894136,0.0709088246172348,0.06136868255071326,0.01650621978015724,0.032044935856258394
0.7903451739102713,-0.21168389177266705,0.09199147740583424,0.33225945801401735,-0.2756253068756672,-0.4469779841499932,11.007977723906668,-0.46612029220315715,1.1528537600541255,6.754400939075965,1.5436248472835412,-1.3348869131574137,0.6564265837587645,-0.38139225156151857,0.014376284943717706,0.7372206655242017,-0.10536072392382176,-0.3896086912394727,22.6167180385697,-0.3176285360362387,5.85072056954067,13.88765544063365,-19.99789896636139,11.76795083245425,3.730194293122372,1.730984841457941,2.2771990573424463,5.160834374563598,1.097645166566034,1.3846163631019939,0.8644410008376147,-2.4602678460082714,0.6851388572520845,-0.30658175076564215,0.6441176678546294,-0.412769413133907,-0.18245292282930572,-0.1980179434615322,0.1331863324130412,-0.038274467803467965,0.2049315607225085,-0.10594033347828785
-3.217892050833169,2.835543189663689,-0.2514200524289465,-2.9309467960563995,2.032056115309093,0.8615206668108242,-10.988415599523515,8.092306068102427,-0.4129569711780208,-0.14658556717072818,3.3661133092673476,0.935134930837439,0.24251625980513952,-0.09092682060602174,0.0792112541958988,0.11955329198902111,0.380121578933136,0.5473136601108344,-10.779235468294123,9.078047265698375,1.8624036836783386,-3.535389405332068,-14.310757525873106,-3.7554767452867885,4.5922529319808225,0.8753971781857401,-1.5436989070587324,3.769336360107759,-1.6589225758267658,-0.8022463204127656,-2.9590304358304396,1.3636008950554117,0.16263839270024016,0.9503892092924283,1.2899479371331686,-0.09212974773226161,-0.4986393389926052,0.35761715227537105,-0.0670795830336039,0.1083461266961767,0.15277022192340803,-0.021458638868636352
1.217483948704098,-3.144480000522998,0.38208273632308304,-0.7850618791493986,0.3792663377476761,-0.2679408400146421,8.073059827170281,-12.784397115808003,0.7909079231731094,14.842124964825995,6.587654275758578,1.6916513470228358,0.6205419903908128,-0.37174287813816287,-0.0477372464987843,-0.04008324202458979,-0.3413797869237514,-0.3939627973034626,32.4977717959318,-9.689839349509121,5.932149408327611,-2.2091926376101485,-0.4911974471274718,-3.233649079729875,8.443478200760984,-0.830956547517612,-0.69272351766545,5.0284488827365985,-0.2729563734456689,0.7876162685520179,1.8449612640171724,-1.5638285277889397,0.2645390772372062,0.17281343167221788,0.6879133274284062,0.030688649933909424,0.5784322213005375,-0.48319420746164166,0.08697253014234717,0.04278681841561362,-0.029056539020993484,0.09812914350949677
-3.4342597643596333,1.7302813674040474,-0.39059253386211507,0.2565458822884678,-1.2671708336677114,-0.1502793876541509,-14.0754787495614,4.736130651658844,-1.6610640667325645,25.800271514155583,-2.99990087472048,-4.983385711921992,0.5231828526566781,-0.39779680647538523,-0.08063145679903373,0.42288074356840116,-0.24976667493244692,-0.13029746676483933,11.02374322548305,0.7128040368325909,-10.835520191957459,16.758650684213386,-29.453285582153075,7.191229928764519,3.0966143343133905,2.5973957354525727,2.8969539212074564,4.970741038928243,-0.23423959113287143,1.0630556923993397,1.0710677945770353,-2.7921142598076947,0.5934038099601865,1.3809954934606306,0.4458654824187742,0.38249623499230867,-0.12390536790165489,-0.1413111458708559,0.028477243740615703,0.0627194994781489,0.00031540737230681686,0.012421355946692626
-2.3355578132016146,0.9843884190141321,0.11925375261805592,-5.024695094312116,2.668884734396742,1.2781348840973055,-7.0019190706182375,5.996357665653124,0.8775147196543697,0.7536481030306454,14.525623129582934,7.736278157082139,0.3946052645709382,-0.21987938773983468,0.01668007134851262,0.4204313376642705,0.0683095597796719,0.32724559747288073,-1.4691755564600455,24.948875486008887,10.171792367423857,3.6300451310052733,-13.054848458396096,-5.199097143290193,3.0571880471435025,-0.3962183410135668,-2.1240514639419357,3.694240381244936,-0.8437162250411339,-0.6814004272102503,-0.5709542761316966,1.4900936580524198,-0.41334848367207844,0.6398456041812682,1.1755274382348457,-0.4838910210928301,-0.0861251748187426,0.1582068154752473,-0.026964022485002976,0.09492140955966635,0.13553802376709984,-0.12303826892768648
-1.9509423717278338,-0.14493725869493554,-0.1335064705570613,-2.703106185053656,1.232540358278542,0.3518178636989033,-4.155090270613141,0.17624231512382127,-2.012988611636479,8.840417894298298,2.569857934908483,-0.6141893622987592,0.2247995060724036,-0.2641279902908928,-0.009919083672134118,0.07259643537306996,0.24294729072280744,-0.06719562270887708,6.554857850011616,-1.6323578528936968,1.4431145243764882,8.851248289928831,-18.14453183915534,5.417450743808481,8.117147733682227,1.3020306100687395,1.6846007860204517,5.576684266910591,-0.31589029517537415,0.8941615028827411,3.7075789263131034,-3.2292961534477227,0.2271802569165941,1.708185048406046,0.8818202785020308,0.4186926627331583,0.4892411515343626,-0.2586056699709388,0.0042412154028756265,0.4169559316117098,0.17567286480510408,0.10875648764019906
1.2790347334843815,0.37040172556765777,-0.02551666880290736,5.649093537172325,1.9839238471896703,-0.9242379965828518,4.0387551894624085,2.348902088211291,1.2585237056071454,33.26549320857062,7.547712318138233,-2.9051613724566385,1.0193325399572746,-0.5028765967749781,-0.021973442358576012,1.1910431345681909,-0.18920539468257055,-0.06780030801029296,48.66445196197613,12.117297160207201,-3.4301949879410025,-6.712739057998617,-1.3468341075371149,2.136721723726108,2.9580605076304156,2.2274229900585345,1.289510569927106,4.792767473976469,-0.27670394886911087,0.4452091463989458,-0.4126898589075515,-1.1044119134896198,0.4681092758972586,0.7133910743592654,1.240618089324277,0.141363455288475,-0.21379409999162932,-0.09531071253550337,0.042121543002390086,-0.048826588533633544,0.09733106339412466,0.047988890965908595
-2.3670667281195987,0.3260059900095268,0.1400271725179607,2.261280868773574,1.3013701834561502,-0.3240902746797071,-8.723654203716949,-2.2191854341763566,0.47677682179950004,23.02704667041238,6.944705037494236,-0.6038952378366262,0.27718906072075866,-0.1435476576037304,0.07818706525078391,0.8358381126524769,0.03767099333529718,-0.06710886886326388,17.319185947614077,5.8379022723821405,-2.0842740625313856,5.872661850163917,-34.16153362372193,-0.6934708387537516,8.656886951766532,0.23035423296840002,-0.2178150174068235,5.956530434669539,-0.7762093528284713,0.931983013246037,1.3018422085432448,-1.5854270369517067,0.30489400181673676,0.40176140531354154,0.2584232834603858,-0.21648833488509778,0.2870273270159285,-0.24135346667681015,0.03396792904267304,0.060169997496921146,0.06000035444688815,-0.09507621727698604
-0.61721,1.3236300000000003,-0.32043,3.74019,1.8742399999999997,-0.42111,6.60534,8.68711,-0.81285,25.96211,12.554509999999999,2.72773,0.50778,-0.37245000000000006,-0.06337000000000001,0.7341300000000001,-0.11307,-0.14202000000000004,42.93872999999999,24.713979999999996,6.2893500000000016,4.1232999999999995,-17.90568,7.7071499999999995,1.38848,0.8204300000000001,0.3671499999999999,6.626329999999999,-1.5148199999999998,-1.0067499999999998,1.5726,-0.7308399999999999,-0.37512,0.88257,2.43086,-0.4471800000000001,0.13284,0.08594,-0.10907,0.09361,0.12898000000000004,0.035
-2.397119704235581,-0.23506644125221995,0.22784286001996426,-1.5707424026016694,2.455300549368227,0.5135462491131848,-7.603283995277354,-5.357631712293951,0.8192344753195028,12.86704577145494,7.739214488852306,0.8766066888875157,0.4046713284191259,-0.15931583845486047,0.07151009561816207,0.22890680679829664,0.06208692885348637,0.23875479147902148,9.669102489682201,2.8328351636633458,0.2133801679190019,-1.0342081022236171,-12.114493770587394,3.0745715970550305,7.3709464803413915,-0.574883895268737,-0.9515743772096917,8.001528547444117,-0.08900711792937475,2.125217552848496,0.4053181992777648,-0.6197235754853258,0.21891401798713844,0.058835966237015994,0.09608340374308835,-0.08785523720251986,0.0008987906117206418,-0.08821751267778265,0.05905203586789847,0.05458461054843322,0.0010047678091171354,-0.004877106168231139
-1.3948724029278663,-0.2029765373798984,-0.2123933446379522,2.2919322164588842,-2.5072889390188293,-0.24814922302504105,-5.6109920798844115,3.5312435716600006,-1.9110642315884332,16.215634432462863,-7.411730917694967,-2.133927321760811,0.45732512502636796,-0.44761552477920696,-0.09490957183874672,0.9410774755833675,-0.0392754078558865,-0.1937148940320479,12.237195665171603,-2.6586111632222984,-4.098642003991051,19.186590414767057,-14.528363677968498,1.3751112840836694,3.8186984332939944,1.8053394498629327,1.6007629120648945,1.493302200457189,-0.920355089774431,-0.6691499261391044,0.40312094480649774,-1.6661757785629594,0.677463816059182,0.7749532130005307,0.5955010609604096,-0.19272092105611574,-0.045701868842588485,-0.22160852497294223,0.11598757556855843,-0.04924006327129806,0.06306849200763724,-0.13495339084078883
-0.8381160766245515,0.2425835264771182,0.06824569955528864,4.530426835754584,4.378600500720182,-0.6586221209812291,4.336777341474295,-2.9935714295689007,1.4460478338253133,35.136281452926006,14.32903139625819,-2.5721547137007277,0.49716532068557434,-0.269442991661635,0.025971233861851146,0.7742625332397087,0.0913674289295329,0.007049449472990148,50.07566614588001,11.77423157988772,-1.5093858191241334,-4.559567093266118,-8.456871835781547,2.248071312797602,3.849328414230725,-0.5404573709836523,-0.6767890497045658,6.56641612358263,-0.7609013954011815,0.921026619914632,0.9306042256185666,-0.5050821173794712,-0.24088715215233877,0.7874825530833784,1.1009537227193873,0.12708783109542,0.015913870591966195,0.015320831382160713,-0.0543672735579155,0.23539157997851393,0.09568706463983065,0.12846955006780406
-2.7876327932365297,0.3402821405115084,0.22686764108097643,1.2318615766544494,1.5751726864959235,-0.30234994196741904,-15.138724836136657,-1.6299321191035268,1.6946525030517678,19.693094486236983,9.550633681803944,-1.1891170001348974,0.4973186444781827,-0.26460155481930786,0.05712875004697342,0.6727100273546351,-0.0547220892098797,-0.07224477046851717,6.90396245060447,9.97660076730716,-1.722381429189876,20.76195590815607,-6.603855247437566,6.7389056043302435,6.377471970767953,1.326390036829324,1.2652145969536568,3.492204805647905,-0.1887761757203635,1.3851476276102872,2.840439429369953,-2.552323470335539,0.18138175098273784,0.8244745934807356,-0.11609970382471195,0.5128296699667058,0.3842761045307163,-0.2889848823625928,0.0008069609757495517,-0.03729892989492741,-0.06958501575033986,0.05835217827431049
-0.20038398248354905,0.5235173492312928,-0.5470260336225065,3.277263042442165,2.545643717288083,0.18512969201905372,11.00507345440707,1.1601158815309012,-2.095863388017017,22.564368359290743,8.538281101690295,3.130356162236682,0.466822484017159,-0.3561957639638154,-0.07862027636293094,0.7610707109420376,0.1506890714012464,0.11909370749335618,39.964907606453195,11.18016478718323,3.65833216086095,20.843661284403765,-27.965209604188406,3.5247832513639903,3.504259431807757,1.5531812840357113,0.11204742318122829,6.6758100211617935,-1.5924026993638651,-0.24788864852086978,1.203769290729676,-0.5869376692869338,-0.29413883832195653,0.6887430575438948,1.5989612579037624,-0.6088390731866343,0.0624871251657193,-0.012334443426767091,-0.05907286679910835,0.1851567478503124,0.25638140825120165,-0.1185896647290346
-1.445965643488554,0.11710091826713641,-0.030323996069409217,-3.6538702797330704,3.8387112889182506,0.5501856114793581,1.7307437125530025,0.9785660878664535,-1.5230201689499452,-7.100966383562216,13.166100476492067,3.5147181749912715,0.5408796207140665,-0.13827952661183754,0.17282907664805436,0.4082853231151275,0.12391910400055416,0.073557482388479,-3.6536270813219076,14.884406733984312,7.782026369874272,-22.621993893975915,26.81691607104318,-4.198150993984779,10.297604152457279,-1.7442861995324617,-1.616545382937432,4.7161946580272005,-1.2714766220586398,0.6784250464472756,-0.5435916870671105,-0.0792886024353556,0.41218743449300654,1.8551262013302436,0.7716666832108487,0.7090828059635166,-0.08690594949976684,0.043964581543430276,0.06630199434568096,0.18916063750658313,0.036948330220451714,0.14993567673485744
-3.0305545594517493,-1.153354411385079,0.7908518893336501,0.8038839636960226,-0.2222927397518119,-0.28167474344837823,-3.183484009313346,-9.557393720296966,5.818117451452689,6.400610736349523,-2.178054491234685,-3.2983155055197084,0.5450623225374787,-0.5798702481119915,-0.07990417623458,0.8947813254184499,-0.0066742463530551285,-0.04064683123808218,4.612415672344303,-19.883660637490664,6.159956768734594,16.822095916264033,-8.697306396405791,10.472608102551336,0.11397144769345993,2.225247227663547,2.650909732086489,4.206079820500931,-1.0050851952425797,0.05058933220995533,2.2037399198324064,-2.580960799558712,0.33799785396777265,0.7636482342461615,1.0259136665803157,-0.23455237226868406,0.12628273039953236,-0.2677287389290036,0.040098937538278596,0.09954265947085628,0.17084437159924776,-0.08070877833423865
-3.724143871540901,-1.4956811171108677,0.4488171020404358,-1.5100725138727586,1.5307496211519511,0.4140621295366901,-1.9549066030708564,-12.547368623527904,-0.03059946467811607,1.4855005437717712,9.552828294407417,4.205347652808355,0.35531107198716094,-0.22252249362893245,0.08335957497635528,0.5340283142739712,0.08411273391660239,-0.03055126254572829,4.851345294929156,-2.9864478378017947,7.13881871175045,25.24581611001789,-4.699317911120212,-5.846771932756418,3.095708124977118,1.1782876906061621,-1.0317170411140733,3.0516481212191686,-1.4742120321437728,-0.5773602099572155,-0.9384995950779664,1.2484346932111199,-0.36802367926838875,0.9942404346986944,1.0957905639310632,-0.1076173393414693,-0.2615665764962663,0.39378133373905916,-0.10728860223388348,0.1567365077893023,0.1508454594922547,-0.029578259760581947
-2.255146366271052,-2.640697279242072,0.8011725707579854,2.394421291056287,0.4967559796424684,-0.22717459508709237,1.3879658992091168,-9.082472287803258,2.087185618472927,13.932757414297624,4.333144374993499,-0.31497130817239116,0.37410286591014813,-0.6061613591217873,-0.17210303332538426,0.47843659722676074,-0.12170449799826495,-0.007196476062498526,17.930514202637923,-6.7530698526172825,3.4429247000136214,24.289054280276705,1.8555994079793765,-7.142122064952743,4.430469522534272,-1.7276016589408794,0.2592250094206732,2.7940367986305685,-1.361510614388194,-0.739914402369457,2.269296902367374,-2.1617828672822856,0.26549395121374014,0.9405159942372091,1.540109516706093,0.010767591457196439,0.2325891876164604,-0.40713592607521004,0.09166160592270449,-0.04371208411083729,0.16567639905949788,-0.011268150743694014
-3.710593453350242,0.6263755499886127,-0.2545298603762673,1.9863643547838987,0.6193763995861875,0.04466893995662822,-13.825905262090647,-9.693794920492742,-2.470722921377061,12.818894022591575,-3.892955974829848,-0.7556439262665615,0.5018081163760473,-0.04689376665950673,0.1797920020832696,1.0366502814125838,0.0773287164497521,0.007647233568990568,-5.917063240254034,-15.685009846970402,-6.26765671082323,34.723235729890725,13.03044524134309,16.452609327047714,3.9413997654515875,1.9165311610651719,1.314959374075647,7.386152361317849,-0.13597321890037878,1.6191843840145863,1.3540749976775464,-1.6785247252185522,0.219204824370638,1.22929385038319,1.0110539427537708,0.0636932764030507,0.11429542083240452,-0.2056103201132675,0.007114834826812897,0.31991926160534306,0.13551041650698883,0.059707085494102835
-4.42777491596317,0.14357917576025686,-0.31659308515304363,-0.8147304653501477,0.20898101753311077,0.11725617201068195,2.183124855713055,-3.8521717339505974,-1.4693447845822158,10.505935183652882,-0.49587034118024864,-0.6459488027571799,0.19662125429513483,-0.21872274586493295,-0.038702911838435765,0.203771328442807,0.09280017435030627,0.012298964934899176,20.606950985622667,-10.870458374887319,-0.777430546605438,14.30387019745389,11.374433713103278,-14.112704102860507,7.61833632314981,-2.0602345114298344,-1.9100527383679609,2.91300952026156,-2.6136144721028933,-0.8133228854830961,1.4087139539410494,-0.36661439003781976,-0.27134899481476904,0.7176016053944486,0.537884620826576,-0.21068240669579558,0.2849245568380446,-0.194040503994806,0.01160340708722367,-0.04034846884091336,-0.09734985944623213,-0.07563352157845724
-7.213453881462911,-1.1208239751580749,1.0017518014469797,1.361494481413001,2.16611236756839,-0.3123893644450733,-24.616840931306385,-9.885766559893007,1.524959892855934,5.683781607123617,8.569053008259436,-0.41756084107335156,0.23142064381551833,-0.2006298050294548,-0.026419716602111117,0.9359870744444078,-0.0785351422075291,-0.14316676169985643,-25.270320602375826,-1.420911772349702,-3.3257699049705316,54.32173952368611,11.228956302453573,15.6870085553299,1.4011733619323203,1.0581655594246828,1.4198912555191414,6.545798469284075,-0.7216611938699627,0.5152324356621835,3.2216806279154966,-1.7786816625993536,-0.13817744058230805,2.45172993470877,2.104207082022793,0.37862664473409463,0.12759599940035582,0.027344059138699525,0.012657604531958975,0.5382766813521657,0.37381373661373735,0.12346374543213405
-2.62139092629485,-0.32076240584225424,-0.10225333466220068,3.294485543992213,-0.14955089476487865,0.04017689225151586,3.5898146425308406,-7.451257328834196,-1.550986870054992,28.158150320626206,-4.095026942709554,-1.6424736390662136,0.48769356599675207,-0.40973184774181,0.09277626236303199,0.6418266874044419,0.08320019284972621,0.17243347990140864,40.278145308222285,-17.92357347882609,-6.591344644623314,17.58919661294177,23.859514104404347,-14.023774300007377,2.6300660497247503,-1.4767624365839476,0.5662714291820321,2.6157622941696923,-3.038813290571327,-1.7201276088039257,2.572980861150662,-2.3251403488240436,0.1598119377052814,0.7684334664790239,1.7665858284532132,-0.2914902166168064,0.5927265795602084,-0.5230385321751078,0.03324030739933916,0.07845750583010555,0.246990256851188,-0.04491699189605298
-6.298602287845185,0.5247629882308371,-0.15275921837738998,-2.3738103503458654,0.891154683206816,0.09008513939700374,-20.481219091938875,-3.6808271143877453,-1.3660494247996784,-1.9596233568103434,0.4176881257142296,-0.6178652195968575,0.2534979538499431,-0.19193648819674347,-0.09208692122165811,0.507617544890463,-0.09088792648284906,-0.05217969061653645,-29.651756844961604,-2.7811043554011174,-5.515176394255696,41.97724809161878,9.670928383076742,1.5416621226816718,4.964795397669264,1.5617948573887783,-1.0096316075792973,3.6193004927687067,-1.3080910498543319,-0.10171066061529867,1.025224127016129,0.7892874818639223,-0.848318558637295,1.3062483289648368,0.8673196517934458,0.19297557065093207,-0.37359006921523846,0.6800778679459601,-0.1801016580665339,-0.013238335610600883,-0.07916417932500701,0.008997417416723755
-6.703886225107668,0.2911368242530483,-0.20614446488037044,3.324314057684238,-0.46274947299024927,-0.16683689155929177,-17.213973721213147,0.49201835867647836,-2.956018171116517,16.609728926376636,-3.682192851592349,-1.6385561809112625,0.12666487540000948,-0.28457357145914547,-0.00811465053583541,0.8110217675234997,0.10123414358432015,0.023554856991133365,-0.5732933573910943,-4.027523487754461,-8.208247827405517,47.2982976732425,33.716102924498635,-2.688792592847641,3.366776225974685,-1.5624944284547044,-1.1307588577402212,6.01482691374368,-0.9552949122770349,-0.027575121765039,0.2169760885532323,-0.3239703890738007,0.07806266659308313,1.3609410111849267,2.100970723775426,-0.1471852564189301,0.11338740267398952,-0.40373180798497216,0.1268364602503394,0.35729453593783583,0.30537240943774135,0.05696641769164189
-7.2764121214631485,1.4926603479596445,-0.6402739332942131,-1.058103185529738,0.20927397935010736,-0.04865949652817679,-19.078655924160273,-0.6226037645816003,-2.8143919372657855,-0.22217638919016158,0.7303510642710445,-0.3828566957459159,0.2747314903056002,-0.15222158494174623,0.05914081824867734,0.5340273028671317,-0.07047367953299816,-0.10801282487816638,-22.87675778383796,0.5264970016941333,-7.077382058361835,49.2843533591163,18.590748135424658,-12.32368095610219,4.978159296752486,-1.8863124576205,-3.3894271600033243,1.223744412728743,-2.390195545437466,-1.63058948051208,1.4682399289186225,1.7115527958536847,-1.381906936924381,1.9070100485022905,1.2270686792987309,0.18735833776220087,0.09319252750974569,0.44280806142622153,-0.2006858526456437,0.06037190207653213,0.11623519882899062,-0.0944568639083745
-8.4369,0.94215,-0.7234799999999999,-0.9581599999999998,1.7111199999999998,0.25034,-19.97208,-0.61294,-3.6083299999999996,9.99816,2.84663,0.011539999999999977,-0.23529999999999998,-0.19964,-0.24264999999999998,0.61131,0.10775999999999998,0.12513999999999997,-9.51573,1.3027399999999991,-7.049959999999999,46.20063,12.836260000000001,-1.763379999999999,4.43242,0.7794400000000001,2.50059,3.9611100000000006,-1.3370200000000003,-0.24215999999999988,3.34382,-3.58054,0.6648,0.8818999999999998,1.18012,-0.017880000000000007,0.40579,-0.34473,0.06114,0.10261999999999999,0.10466999999999999,0.014449999999999994
-3.556977083170568,0.2683541608900886,0.08461717425971994,2.489836661916251,-0.45770746093129383,-0.2014257308172462,-12.85794264558435,-3.56237462008088,-0.10406489102829419,9.61676465214873,-1.0367972377351469,-0.6866652518457551,0.38829379241169015,-0.17117889507710007,0.016815049879546684,0.853285518704434,-0.13624998540637911,-0.08558562362589972,-5.26270794666858,-4.400763758997746,-3.8445212258196344,21.680461133098373,32.05853223365022,4.060713900120544,1.831330268279267,-1.2146796900223413,-2.034940545946773,5.673343603691489,-1.366575782866548,-1.061540341405985,-0.4898869424023285,1.221732738470602,-0.40439415491800956,1.7646391720611514,3.1377159934708785,0.028467726710887396,-0.030165368428187848,-0.02240353170133522,0.029351989313087384,0.3362464395399174,0.4032800430766382,0.14023715111609844
-3.960738639548478,2.1952564528365004,-1.449604014839725,2.6235576599748325,1.8314166900609237,-0.14966259949838576,0.49569907031735905,1.1070341428897978,-2.9663564961222537,14.183531372952814,4.175370556143654,-0.03306968469604247,0.2540734525546033,0.05473076679601446,-0.09190571579349005,0.6206789767749724,0.15578422396831568,-0.03556368379890724,18.88860812320147,10.020050035339715,-3.0067372021919287,45.532644023381344,4.013499343577557,-12.059286015755635,7.128189205836818,0.10518712242581368,-1.018423038231133,2.7788495075489834,-1.2979787298830414,-0.1432301875810242,1.6271059789140458,-0.6028178873582878,-0.49028809361194586,0.9608405936364135,0.1471072429039229,-0.09338307762142967,-0.18930506208070558,0.2420262994600905,-0.10735712531078909,-0.1394865345953592,-0.04932818400620636,-0.21960145528685163
-6.411804495320705,2.8566589213224836,-1.2110600926741841,-2.1802732098770656,1.076052254367027,0.23014423548439322,-15.523876741692122,2.881929180796387,-3.2672465040768017,1.8354339338972638,0.6532832706126065,-0.7535431751566288,0.10906898141241576,0.04749059177350526,0.17499245404211058,0.5587068544340964,-0.009434782328129776,0.09089904688023343,-16.383177535505485,-5.470036553310131,-6.962585034991208,46.28780788060908,31.240148145147668,2.8440861557864254,0.8057226091504474,-0.47967292751307306,0.27039481813801836,3.627098172686664,-2.049948602923684,-0.9601271478584941,1.9723854294872485,-0.8730941882900607,0.018071941925335927,1.0102605767988266,1.5674671913847478,0.07761540264246218,0.4926621395071648,-0.38596742642821086,0.09813393677224863,0.1536438170177737,0.10216622038857079,0.0991531040870234
-3.3728051337946607,-1.444303764029556,0.7770496828306631,2.1741850798714433,1.1880311925549751,0.012935797513205421,-10.349995279947228,-9.148643385460431,1.648844150428048,20.730408286174303,3.616962194429006,0.25709138077921984,0.5898831725788015,-0.4475503713430743,-0.049685789197530215,0.5503926041002176,0.0332359240742455,0.0403953643711337,10.904917615069497,0.6211572219701982,-1.5786822807669254,32.88680683754518,29.783244821095614,-1.9522903830407332,4.415265794709607,-0.2395453966321323,0.9355873510288996,6.973003344778673,-0.7769548125219901,-0.3634375888706937,3.9645435528196473,-2.7707944010405363,-0.1918778181449729,2.722917163032169,3.0816594142507676,0.32386279514679633,0.3205053431482944,-0.2425300400981761,-0.05967822370592231,0.5006144830783172,0.5431280756519508,0.08814438929413512
-7.094083196932933,1.340993463198725,-0.8467578902691189,-2.1070650443511987,-0.6088055837094128,0.11786210318960309,-2.986715105786421,-0.2959938422904335,-1.944377518780448,-10.558903406041074,-3.442553503537112,-0.3139978377902236,0.054689950395117044,-0.15955876934520408,-0.08331557410367782,0.759297631895188,-0.035860463414067664,-0.07577266463241988,-13.474815943066664,-9.026094687869522,2.9960241679287627,48.6965258085794,33.81672358899863,-4.734297035694412,6.5454478459120375,-0.8907633204668923,-4.178118962530994,-1.7108489465340142,-3.8191533803350377,-3.4813746848411795,0.25891921760547376,3.197824490556362,-1.2714132348787663,1.2331215639790358,1.48362836060851,0.1482019531053277,0.018585151045331816,0.6486035275259354,-0.10214125749157975,-0.027784794413421982,0.05113714118577408,-0.008774478256302752
-1.1402947941929564,-0.03940601774231195,-0.040655863727442676,3.296656042365707,1.458120820377506,-0.16233300417878627,-0.9174539964308538,-5.667047641846086,-0.7501050469435933,22.81748098103261,3.5249717300576355,-0.9317488414103653,0.580336303406668,-0.2576048194467173,0.16747982287428392,0.3819305611052422,0.11699220542287564,0.0744281454217957,25.717176545276864,0.4521126340205842,-5.073107322810056,20.929149299940068,-21.699148549354046,5.12838203476953,2.25042964164884,1.9863763718148837,3.4897397349005304,11.005298805902584,1.5149151820876918,3.209934823803222,1.6520602945177192,-3.7841102585132083,1.0593620717541232,-0.28564873324543727,0.6756963351834768,-0.5792192295642911,0.03796299628732949,-0.4665020355976084,0.06194195691207235,0.2546681981181041,0.2335129842995137,-0.012586089549204165
-4.1137663426047535,-0.2268936703040375,0.5064895212145991,0.27134180560091425,1.0459917450066356,0.0951679697809368,-0.3147872852936735,-10.22912704490544,3.837079061977518,3.050916988586034,0.4243655252839521,-0.34594176143261923,0.5089486287431877,-0.18360302391507688,0.06906425878971281,1.0356062209216867,-0.015406509178163115,0.02044979610202317,5.171095813583156,-20.359716862008916,7.210070272076143,41.198771487516126,38.70154898787189,-4.43153543331201,4.610817326826578,-1.1848113137122744,-2.866411344429753,2.951294538302548,-1.715544018689951,-1.4699732862350212,0.24263270430009903,1.2561993119108996,-0.8616218412783696,0.994813225042201,1.3296514958126764,-0.246616379363876,-0.05337450948184269,0.12709127130070294,-0.07603687235681067,-0.24017297312422384,-0.12091752681436051,-0.17282986321099
-4.330334572886352,-3.1442349919172465,0.8894544798744499,1.4623805272002186,-1.489588151350394,-0.07118759198640329,-9.400398995758167,-13.892905732082651,0.8664694619447582,12.63426608478181,-2.630910599639319,0.08073601953082128,0.11294222621143638,-0.5890479478333439,-0.22621447688465215,0.45281384427184224,-0.17020457095037655,-0.09319775308157964,4.965117243066791,-15.662577565587108,-1.049132913301404,29.350303596191257,28.989646695018163,-8.306914635783262,-1.7781449724456546,0.24942810557550507,0.8787358651743229,-0.6513482984858352,-1.8314017767776962,-3.774882023572005,4.694726068217028,-1.2165069876950279,-1.0231394978670219,4.514517301640893,4.17755081465579,1.2328120454118177,0.6221598212979846,-0.08242333176678067,-0.1647128375908479,0.5528615187933676,0.5537332018485562,0.15887647280589545
-3.7559748176639114,-0.12088403189811228,0.03527128307702733,2.135691798597208,4.36265159689228,-0.1223756799599702,-4.5977465193259155,-3.636237276302597,-0.7297536282929504,20.23417928200894,16.921638815054724,0.29568617621407967,0.5567480683196713,-0.18716065349842714,0.13116815231107148,0.8648413745489772,0.19584694187405147,0.04450903742849884,20.654469411173565,18.104226197237974,-0.7385012626845627,15.578231218169725,-5.898899772117285,3.4592964859789475,9.891701464114067,0.5018895261453582,-0.6817001801285515,10.42490742082421,0.6098271560337661,2.8125457531299354,-3.083733445342612,-0.30985560874583007,1.436774554972688,-1.45127743560914,0.10722996899461827,-0.7989175208017197,-0.6587504521465634,-0.09131088839923907,0.31663285985329315,0.0068362546794533295,0.08097637891175365,-0.010996211696031957
-0.5826210861080716,-3.100620710240965,1.0254177856285127,-1.072240985893503,-1.2712839047231461,0.2407203907717016,3.620974133155871,-17.375695301050524,2.626078997215343,4.55179263971469,-6.541857069115051,-0.13092289359700462,0.34942111281442867,-0.4543437335085298,-0.007907916958027847,0.2615290824378445,-0.020781058246597532,-0.03881561094976048,9.481639529998855,-31.72578817376766,2.636065109985243,19.9943062687145,16.741479560434566,-6.878387408632936,-0.2737215773845973,-0.0006228881437820367,1.7259733469917244,0.11693595686416827,-1.3908583033226214,-1.930284303720742,4.862327900324102,-2.4128386145878147,-0.45845738180617346,1.4681930260876288,1.4955341861409923,0.22434059406861512,0.593123992427235,-0.2901142352707874,-0.08618301258412774,-0.11968848755897929,-0.023654030095620136,-0.08671897312005113
-3.473063490806681,0.08145651107648624,0.12920288639971084,3.6559123865693857,2.054601358265114,-0.577225535197687,2.8751249342682828,-1.460349235967984,1.3407965598519092,21.585617369676754,10.838188522688194,-2.532018420695122,0.541538744761376,-0.31102178373891864,0.11279869251021594,0.9824420312614625,0.024472650314281676,0.0033304987119714678,34.355794993978215,15.393501574750859,0.710001942743934,-0.10328252563843654,-4.0076039018017156,1.747744905207568,3.9387719530404497,0.866736230124284,-1.2366345583215457,8.34966743407144,0.60656348704983,1.7264152064806988,-2.82172203030748,1.1185601190187626,0.3294076643197997,-0.3721038404997714,1.0696271423218724,-0.31746747559780053,-0.606463089151156,0.1897726945811411,0.11701667466630719,0.19175750736246294,0.22057463285646786,0.1013420979847747
-4.359182455062711,-1.830584552777957,0.6468780294591977,2.073166356844191,-0.5219257820628013,0.08160570877172223,-13.28338233544262,-10.30273138632665,1.4415404617657857,28.72993356147561,-6.124756031841604,-1.2212901335445248,0.18496251063144348,-0.3252362215787523,-0.04980028902948381,0.4874156937988404,-0.056963328456580475,-0.03225362903845589,18.48996609115139,-17.98966075675305,-5.62396912046225,23.602668654994265,14.572113054201912,-5.6069674887296355,9.408911260364025,0.6230717679198863,-2.5421428287261705,2.298300154428247,0.14099586289187785,-0.7945175875864396,2.1851173773292483,0.5247568822442237,-0.9766848889664678,2.277451690333833,2.0959385197400997,0.47746596653971185,0.9363793125703804,-0.09224656028641175,-0.24082242596989945,0.28904253003228364,0.2632075729361945,0.021325715268573086
-4.073389785476227,1.318323326989636,-0.9081143434676655,5.104219194798921,1.2108852403334491,-0.8801538310261994,-12.851926024890767,2.1481687735256356,-3.702145686712108,44.37925829574861,7.18116405659099,-5.0491077652433045,0.5418349891796438,-0.35018347462852123,-0.09634088035951469,0.6672858988608638,0.04547944596112396,-0.021754592961275056,41.77748837436284,13.428530519125005,-18.832400516066777,32.68041710848581,-13.587887443583664,-2.7102484103062006,-2.1120716958024555,4.30137833703021,5.465493410282562,1.3112601621789306,-0.910613872813776,-1.3277183976043758,3.272869917018869,-3.9353121384912586,0.8908990642321307,0.7894020247778688,1.341782595675442,-0.026614266646011457,-0.01644186382648624,-0.214650516507866,0.06006788205590188,-0.1272567058016285,0.11950521754550111,-0.11314141816655422
-2.856586926629354,0.3028371162257704,-0.029138061196175118,1.3545792446092255,3.3836865937333944,-0.1965351796042682,-5.0624324682367465,4.4511963608277005,-0.9144547700192596,27.014066986021017,6.513242986084255,-0.615528317595123,0.397620406365881,-0.19711616730211654,0.07583248219419822,0.8609126977244915,0.21221438965639441,-0.05026775483790004,29.71833603488784,19.480639546348378,-4.076632975091821,-19.349882168474444,37.848247601282985,-11.250971067302158,8.17553390318007,1.5282973927154366,-1.662815482141558,3.200739586681394,-0.3751971206791721,-0.7857941940775753,-0.6954097976942628,0.28489880566739534,-0.04660629442522116,0.7439119785723003,1.8558723467060654,0.06102880992331141,-0.39197208799583133,0.2297314848430114,-0.03333273711609893,0.050447331532885456,0.14413945576538334,0.05501773230080134
-3.649965701412814,1.8115551794805695,-0.5728313749067486,7.405285411304836,2.7681216213005677,-1.3303445413673873,-9.869671796636204,5.820492330780215,-0.7669804475594111,50.74252000536248,10.085808436804273,-1.8020355105087695,0.39974654373939655,-0.2430171898427812,-0.09101699111570787,1.3163860891153942,-0.08069104401390655,-0.20484966343755925,48.95199852089149,27.093040437944953,-9.473519083087163,41.977710340019264,-9.95328619178738,-7.549570188288434,6.691285634605751,7.688492340926605,2.4195116458043775,3.65877554142972,-2.9081535774287466,-2.1810236295240064,2.3756446104784463,-1.9727852059079942,0.5088478679992214,0.04288514155418319,1.3133555054387835,-0.6742829766298457,0.552922061828452,-0.354301235890655,0.0895238007584996,0.06123450722563696,0.2299223302639994,-0.13914742679298744
-2.4543020168031764,0.12526832104069877,-0.18853480885354756,5.123607006112143,2.1702928491997446,-1.4151086449634183,-14.014520725162825,12.267725140942995,-3.0997369727618818,54.53839266444126,0.36605931315113793,-8.381994462697076,0.7898022889312247,-0.48173710460360725,0.0073927315406755595,0.6621073104480849,0.1804991344360565,-0.07239552198729585,55.616455892465666,21.422761021387608,-24.747871024947226,-3.534405183020901,-2.863234425669118,-5.031168894443192,14.881601749276756,10.103613096604937,-0.4069613382534943,6.0683915626560845,3.4696732659898117,2.411319395321377,3.0933566708320637,-1.85471336408875,-0.19532990468585826,1.9913708187552928,1.5962392835576222,0.564395672223402,0.21300943524477609,0.25307355806374693,-0.18608180562978124,0.2770585168732586,0.17517515144176554,0.10517494796035677
-6.179320000000001,1.43119,-0.45909000000000005,-1.4748399999999995,5.59148,-0.32633,-20.81496,-4.87872,-2.24238,23.50817,13.979009999999999,1.7328000000000001,0.13173999999999997,-0.025679999999999977,0.03347000000000001,0.9206999999999999,0.28886,0.15391,3.3551600000000024,19.15822,-1.3195500000000009,-42.421099999999996,23.448559999999993,-31.087199999999996,17.8084,6.787650000000001,-6.7052299999999985,1.11372,-2.67746,-3.6591099999999996,-2.7752899999999996,0.7549700000000001,0.9743199999999999,2.90607,3.19399,0.1443,-0.09017999999999998,0.42718,-0.18782999999999994,0.01805,0.27872,-0.10593999999999998
-0.6326236949145421,0.7427360744236188,-0.20841736794671936,-9.271532143150107,7.8478075329937695,0.9813846165559498,-1.3673038823435866,13.971542048664645,-1.1053428677903374,-31.987349367281077,17.214874610663305,6.30913288914092,0.6559389358850493,-0.41590173238071804,-0.0029709272369134883,0.2114788632861548,0.6839526525073029,0.3078695614911515,-37.96715838962928,34.875539620017996,13.462766583220857,24.149245636959016,-43.523285326103434,-33.91705571908778,14.598176819663914,13.3277773005819,-3.2343286771961925,3.045847018561501,4.470456685035354,2.347476942526894,2.8103516078257025,-1.6284429307015917,-1.6388263177010507,1.1955796105609156,0.5386167677849861,0.07950136749517205,0.33454493316072303,0.21970857190814636,-0.468739312989265,0.31219814550632796,0.3531579955433351,-0.06328200129736844
0.6474098876759241,0.9354768452279951,-0.27483234141450236,6.0524237014305875,7.883889968978426,-2.175069992991392,11.654654373813049,-0.5044744682859753,1.2013482127331379,9.744708180299217,27.841255267687124,13.206873941135195,0.6207830334240514,-0.314954898939944,0.05634768796819468,1.6713005298435704,0.2771504575067451,0.17142819433058923,25.25212471218424,31.618811647800385,25.172852220942154,-64.70274400929142,8.972655230863394,-25.59653471246856,26.53435868002835,4.126077708052771,-24.679020738909934,5.819977212921538,0.6442036310870145,1.5812404239522408,-1.2479807479051674,1.8693565710089124,0.2964555028192886,2.8040027613617524,1.2417042581034028,1.1785109808198426,0.060460245574439166,0.6354431620957272,-0.3833869908526813,0.47322207912619313,0.3177196219723119,0.2710039396286606
-6.499398393740592,2.38685052109562,-0.6086243174191348,-5.295496118512778,-1.287720693961447,1.8547574503096846,-24.33522825462983,4.792845892303177,-1.866417236092493,-36.46760628364704,3.8605818064025166,6.314640171576874,0.07290815552889826,-0.15010344118133503,-0.11133307214864804,-0.7667656404825098,0.20933857078059,0.08012981723369904,-81.48113275030106,-0.4530747741662279,12.802463033322319,27.693473349024174,7.048075840690309,-23.877778166550396,15.703758854864683,-1.2513131714242816,-16.86180017732134,-3.518133544344877,-0.6322187533821612,-1.7831898139235565,2.4946824026204775,-5.08002493170512,-3.723088268029684,-0.804976724933858,0.11870998001812239,-0.5581046397442797,0.64053549239582,-0.43290752940763183,-1.141566269052649,-0.597545729804385,-0.19141941633013893,-0.18346974563372367
2.1414628881698907,-3.791001391259312,1.0330291681516413,5.350373475338089,-2.6927018523139234,-1.6743409108876148,19.44140545287267,-12.677592848357607,4.581407241035357,10.325310429753527,13.406412755356156,6.183178507223178,0.9326250269115348,-0.5342296734577039,0.0848412285252528,0.1596088499361197,-0.7639404845900869,-0.2425489666042848,34.354536960062774,5.829585885622274,20.295715126839923,-77.55806466190172,-28.689996000413494,-40.44837453443524,1.051719585001713,-3.165675296436102,-29.04024811206001,9.446416217299447,5.051598796423215,4.220272698540326,-3.6442267957820484,7.452878495380367,12.065717933850195,0.8592254232157626,0.22010935717693483,-0.048530392625182384,-1.093206698273527,0.45461215601012844,2.2252455029751914,0.3727973353396856,0.20607370329641342,-0.06651748403124584
-2.6602081646603897,1.2085279600130578,-0.33638519309995896,-18.489374976757937,1.580992038023389,5.023600479529129,-2.092743505160011,-8.315337112335401,1.229767313696402,-15.944316618987019,-9.560337704569719,0.9904623920271816,0.18579430834386132,-0.1281182879626854,-0.009370049353093704,-0.85639405407255,-0.28064476461583765,-0.0907737216615972,-16.928822104570532,-20.71345448419014,7.339553346744534,38.23456306548715,-16.844030953837922,-23.424399472974038,-15.77383239296246,0.9700128069238789,-0.69040299910819,2.8857325158584475,0.8452712386752119,-0.49835351926621757,3.8662963147448877,10.185033369710403,-14.588058861201374,4.211068975191987,0.28786972781761133,-0.07315024705296119,1.6556579161697795,0.9730778365294748,-1.086274083023533,0.5358383336277076,-0.06275915034480202,-0.0762185946065573
1.3594048219007573,-1.6372049700498623,0.7567743188390446,-8.822851136498143,-0.03900861518546947,3.1551625298659487,7.399993074553462,-4.317356406461524,3.0355827492645417,5.27163811166157,-8.560779841824878,3.2010605568816493,0.5315781619567146,-0.2870135396823909,0.24244346331531377,-0.04553471037397016,-0.23929375263497285,0.28553689229540924,19.604473878772144,-1.8261116002079305,11.378223650052396,36.8722757413082,-88.4116004090118,23.45304691782088,-8.190655671027061,-11.595444547223522,-8.760460175163765,7.462234882991079,1.8061635596757017,8.132882179431824,-7.261065722233588,-9.81706032444485,-8.547394221301879,-1.9053447645176407,-4.394492392869982,2.5770553234260283,-0.7757012445083037,-2.6272072754564704,-1.8397123196666543,-0.3495317129087097,-0.4019961983391684,0.3664389974922972
-4.991482338685257,0.19231436324036608,-0.4505295752293175,1.3459662123450855,0.3113926181745941,-0.7439268035574244,-11.86538197286528,6.518815860145825,-2.0016741174405017,29.7962058637126,9.215816754408303,1.195379574534072,0.3217569396116682,-0.460435509042118,-0.21564316319813817,-0.05689953319550321,-0.17877977751989343,0.06126705030400845,23.062618132404317,21.18942157293345,-1.1689591855614418,18.633798758240356,-24.22774099566587,23.140509199019508,-14.328387039198105,0.7128588762150383,0.6880258335486117,6.698209700263821,-1.873828996985771,1.3255109511665573,-3.422649419841002,3.1265169782987687,-5.888631495294183,5.600712526562342,-1.7014785572434845,0.7635494619469475,0.5248021185394686,1.1882365268467185,-0.44739644753045194,1.3447406195638738,-0.10730388358803392,0.050782089357510954
-2.6836189737930054,-0.3456032387154024,-0.3016730192007831,4.436587400243833,4.350945368707197,-1.471661883152465,-5.705673305265128,-5.628564241041918,-2.2722834072405265,47.55920806200074,-4.902970142660717,-3.667521076765021,0.3229419424714657,-0.23749212734966704,-0.0045264733541487325,1.057279313437257,-0.03815096681962375,-0.2536148621057531,58.913131599398916,-15.145807713725693,-15.523323410093843,-38.7372522283548,-14.248844464107158,40.037523407671635,-8.937211811967773,-0.8939508929340513,16.18775726158365,-1.010748654233618,-1.2229127029691926,1.163239439694281,-1.4831899084800781,1.7625077462818546,-4.449112155080373,-2.649426947183919,-0.7140394680569795,0.5662774555800734,-1.0166180242533918,-0.9891554554605735,-0.3274192503351266,-0.8116403872371217,-0.261278945705304,0.21456283163097095
-4.167844227330753,6.252407515595509,-1.8475999621980657,1.9245091308314868,8.024780290353286,-1.5752716337166015,-23.02240677202095,24.406875680562177,-6.591867400973694,35.482148669322335,12.000253601243038,0.9333025711326458,0.5168434188844528,-0.10917283196513194,0.08708327271464161,-0.17083365743952605,0.796756917705274,2.3241161233100588e-05,16.16071399544309,49.74956501031003,-15.403913795936349,34.53751473663102,-74.52802604064091,-3.399070236371757,-3.936170783040707,-1.7418952192609352,14.441767716570261,7.246758387015076,-4.421603146277679,-0.2510332410077226,2.6548830244801036,-3.4791500200748313,6.84859659334158,4.879663093196097,-1.7496440548638537,-0.45777665417110003,-0.46815296303735043,-0.6485960071574565,1.46318385508252,0.8812734079070456,-0.09117269522654231,-0.24716121792643167
-0.7049155335191067,-3.972942715466036,0.7475857173451467,3.6647689289430043,2.7639291722114083,-1.174839384021835,4.167975373079854,-21.733147480215898,2.251695424298558,36.64467633327151,-6.754584344986586,-5.132501015082311,0.3146071602960008,-0.2695141590073877,-0.0565003313441184,0.9144299627337074,-0.38663246413617836,-0.024999398735369254,52.70871180360847,-36.95249305748983,-2.2534920755779333,31.68211130271462,-98.46979950235385,46.20697609835474,7.893672642016243,-8.954865865702468,16.092597842263636,5.021852278294124,-7.286436439451489,1.3300993514801362,-7.129253274261842,2.868787182966621,-12.513690377648242,-0.48872842377713793,-0.6927497375374527,0.7514933823346739,0.0957074876239361,0.1983416035849177,-1.1390718243355278,-0.09287123082852432,-0.3309243240060291,0.27486050525653866
-1.0185833562218711,-6.929616186465565,1.749215416268937,0.12619063318128937,-0.03161383374427764,0.016888600931577374,9.415063094753032,-38.54534575614838,8.420550022802866,28.93333628769125,-7.351020888403677,-1.1064632550939557,0.6069409553145817,-0.7436276740477182,0.07766741787469993,0.0341740402740711,0.04440774797534497,-0.03709286784889246,47.419875832867845,-48.872173163680536,11.012193197801524,58.30268536187205,-64.4156350449003,-4.630509364186092,1.7763833775898779,12.486850938006041,-14.357119426876887,3.401427184064468,-8.017636987846178,2.5832948776743976,11.705809212113039,2.404959517806188,-8.421164354743729,-2.000793393374093,-1.7807780809966176,1.7705483167785967,0.02792297752129007,-0.7121650987622118,0.7227051752223342,-0.26554107540944527,-0.4329221631407713,0.3364746170554502
-1.1704719068415699,-0.27284984949511065,-0.2317021527428513,-5.7008741085068735,1.5285545538106957,1.4049497175756298,-1.791568760148254,-15.945110508305296,0.49943496295776424,0.35535644614502027,-7.588881307844197,-3.7868492830010254,0.539312909434048,-0.24948598087756121,-0.017241873924700633,0.17437524145034222,-0.254719765982309,0.06703887057540238,-11.66510838560446,-32.82459693889013,3.140498682371069,-46.21443310558745,-74.56420794937097,38.04449822845911,15.449129427609174,-21.811522558510283,17.36124924876897,6.646019646277531,-7.032320081128822,0.6208895724490473,-9.492843114126742,0.5736408617975267,9.811911155416178,-0.020080442495636376,0.2581071531756465,-0.3085649607308756,0.6611954426946252,1.4737140272054539,-0.7967843004820641,-0.21527296777942012,0.23881622965267052,-0.06834918585888941
-1.9050906896335071,-0.26502508922472895,-0.04974094436858807,-4.635387347352712,-0.18848347295605178,1.7145310586356635,-2.311867729534187,-6.007277125641155,1.8667183688003595,7.000547207209622,-9.80130867587609,0.2518536843419642,0.2567363482791846,-0.3218256871789237,-0.039318446755353675,0.03644182929096828,-0.3339448164149803,0.183383072389373,6.648561519602007,-22.929591255440847,4.353626914661956,11.284841456446166,-101.66064145475579,27.220448718732776,5.434495017646642,-13.82557697148074,4.374316015212492,3.320590781288059,-2.6788938073319257,1.5854002464467574,-8.426251806956918,-1.5768620190334923,-0.4483362827973829,0.5496924769194391,-2.1409525632162976,1.0204017627596902,-1.5658437842833866,-1.1724838813444238,1.3529173110900072,-0.24645535726624468,-0.1797248625881986,0.2506366745651832
-4.669047825805413,-1.7005862840351011,-0.025995428932373936,-6.574886383533087,2.89647775907146,0.9811439764663233,-19.94077701800633,-11.948565629694784,-2.281692419884836,-1.860709808613217,1.6585934351645455,-1.1426887901669305,0.41698214965154207,-0.4168012992515645,0.03941326162660236,-0.2895294172180837,0.08756659412022266,-0.039904930560004666,-24.92045058201532,-9.447734718204835,-3.0611354582239363,-12.66184313589086,-89.3444377270219,11.502625854322243,10.134455444781864,-10.412070941050015,13.06843844527426,3.719283924619443,-4.119023142468707,1.421742746745569,-3.5480888266905155,1.1527479271912966,4.957042124522139,1.7553085505854615,-3.0747846692285936,0.9129669519329607,-0.5338689825003353,-0.03576739789579717,1.008400244214647,0.49060172604659563,-0.6351512668555842,0.11286147615452245
-2.961200332455203,-3.07606903263655,0.56201306113107,0.2885984902902101,4.853820747425859,-0.8106049420088225,-11.306617893008069,-24.48603985890159,0.9420059801539318,20.136291087996216,6.295118617943028,2.4628422392638183,0.551186114217005,-0.3978590116875623,0.0829019435526502,0.5332178044332158,0.007437656795554824,-0.008003149792541582,5.2973413667002625,-23.984966848360738,9.120765242693418,20.110015309228643,-92.68175569754803,16.58516846784574,0.4060377339048198,-8.450652736417936,-8.572951859682721,2.486108853702124,-5.525801924977242,0.202961415273503,-4.839258075467687,-2.74554964564551,-8.161547858733028,0.7326419047439706,-1.3551221888650389,-0.0446382483283886,0.9229505060958022,-1.1901092600526606,-1.3442937996845414,-0.0968113534629704,-0.14144834053419242,-0.002839954096986865
-4.526771757549778,-0.3463756322312113,-0.9833670656257019,-3.586960259928108,2.4286262176356215,0.43462651741585895,-15.35522249441943,-6.249421277303662,-5.166826566908792,6.1289935162497144,-6.056619217636835,-3.2116918431482255,0.4121656008968746,-0.4315019527838024,-0.13996833482452845,-0.17860204306356348,0.007754568029010159,-0.048766704924600134,-16.72876787134581,-16.028572751800642,-10.386452521913652,16.38648435152475,-83.95506306086583,-8.833934891159645,7.097384464692506,-9.427345342546797,5.733583685453758,0.19268126995429596,-0.4256626724290181,0.5819931365481127,-2.57869895074572,0.1539354228714483,2.6685912599741575,0.5707950761212762,-1.317939638613478,0.4944035312428032,-0.043995084821046734,0.822487477253825,-0.44353374586205935,0.06457251900904355,-0.03225207192508727,0.03293611255560496
-6.34567,-2.93577,-0.25043,-1.58614,1.88093,0.10757,-21.20387,-25.9899,-1.25211,23.77999,-7.79057,-3.98317,-0.04662,-0.27838,-0.31365,0.40874,-0.30427,-0.01281,1.16665,-45.80931,-8.40305,7.91034,-59.5634,16.16344,5.06273,-10.17161,5.13629,2.96509,-9.42206,-1.71155,-5.51651,-0.53528,0.19956,3.29945,-0.88943,-1.43949,-0.49026,-1.39401,1.64934,0.64558,-0.16985,-0.32631
,,,,,,,,,,,,,,,,,,,,,,,,,,,,,,,,,,,,,,,,,
,,,,,,,,,,,,,,,,,,,,,,,,,,,,,,,,,,,,,,,,,
,,,,,,,,,,,,,,,,,,,,,,,,,,,,,,,,,,,,,,,,,
,,,,,,,,,,,,,,,,,,,,,,,,,,,,,,,,,,,,,,,,,
,,,,,,,,,,,,,,,,,,,,,,,,,,,,,,,,,,,,,,,,,
,,,,,,,,,,,,,,,,,,,,,,,,,,,,,,,,,,,,,,,,,
,,,,,,,,,,,,,,,,,,,,,,,,,,,,,,,,,,,,,,,,,
,,,,,,,,,,,,,,,,,,,,,,,,,,,,,,,,,,,,,,,,,
,,,,,,,,,,,,,,,,,,,,,,,,,,,,,,,,,,,,,,,,,
,,,,,,,,,,,,,,,,,,,,,,,,,,,,,,,,,,,,,,,,,
,,,,,,,,,,,,,,,,,,,,,,,,,,,,,,,,,,,,,,,,,
,,,,,,,,,,,,,,,,,,,,,,,,,,,,,,,,,,,,,,,,,
,,,,,,,,,,,,,,,,,,,,,,,,,,,,,,,,,,,,,,,,,
,,,,,,,,,,,,,,,,,,,,,,,,,,,,,,,,,,,,,,,,,
,,,,,,,,,,,,,,,,,,,,,,,,,,,,,,,,,,,,,,,,,
,,,,,,,,,,,,,,,,,,,,,,,,,,,,,,,,,,,,,,,,,
,,,,,,,,,,,,,,,,,,,,,,,,,,,,,,,,,,,,,,,,,
,,,,,,,,,,,,,,,,,,,,,,,,,,,,,,,,,,,,,,,,,
,,,,,,,,,,,,,,,,,,,,,,,,,,,,,,,,,,,,,,,,,
,,,,,,,,,,,,,,,,,,,,,,,,,,,,,,,,,,,,,,,,,
,,,,,,,,,,,,,,,,,,,,,,,,,,,,,,,,,,,,,,,,,
,,,,,,,,,,,,,,,,,,,,,,,,,,,,,,,,,,,,,,,,,
,,,,,,,,,,,,,,,,,,,,,,,,,,,,,,,,,,,,,,,,,
,,,,,,,,,,,,,,,,,,,,,,,,,,,,,,,,,,,,,,,,,
,,,,,,,,,,,,,,,,,,,,,,,,,,,,,,,,,,,,,,,,,
,,,,,,,,,,,,,,,,,,,,,,,,,,,,,,,,,,,,,,,,,
,,,,,,,,,,,,,,,,,,,,,,,,,,,,,,,,,,,,,,,,,
,,,,,,,,,,,,,,,,,,,,,,,,,,,,,,,,,,,,,,,,,
,,,,,,,,,,,,,,,,,,,,,,,,,,,,,,,,,,,,,,,,,
,,,,,,,,,,,,,,,,,,,,,,,,,,,,,,,,,,,,,,,,,
,,,,,,,,,,,,,,,,,,,,,,,,,,,,,,,,,,,,,,,,,
,,,,,,,,,,,,,,,,,,,,,,,,,,,,,,,,,,,,,,,,,
,,,,,,,,,,,,,,,,,,,,,,,,,,,,,,,,,,,,,,,,,
,,,,,,,,,,,,,,,,,,,,,,,,,,,,,,,,,,,,,,,,,
,,,,,,,,,,,,,,,,,,,,,,,,,,,,,,,,,,,,,,,,,
,,,,,,,,,,,,,,,,,,,,,,,,,,,,,,,,,,,,,,,,,
,,,,,,,,,,,,,,,,,,,,,,,,,,,,,,,,,,,,,,,,,
,,,,,,,,,,,,,,,,,,,,,,,,,,,,,,,,,,,,,,,,,
,,,,,,,,,,,,,,,,,,,,,,,,,,,,,,,,,,,,,,,,,
,,,,,,,,,,,,,,,,,,,,,,,,,,,,,,,,,,,,,,,,,
,,,,,,,,,,,,,,,,,,,,,,,,,,,,,,,,,,,,,,,,,
,,,,,,,,,,,,,,,,,,,,,,,,,,,,,,,,,,,,,,,,,
,,,,,,,,,,,,,,,,,,,,,,,,,,,,,,,,,,,,,,,,,
,,,,,,,,,,,,,,,,,,,,,,,,,,,,,,,,,,,,,,,,,
,,,,,,,,,,,,,,,,,,,,,,,,,,,,,,,,,,,,,,,,,
,,,,,,,,,,,,,,,,,,,,,,,,,,,,,,,,,,,,,,,,,
,,,,,,,,,,,,,,,,,,,,,,,,,,,,,,,,,,,,,,,,,
,,,,,,,,,,,,,,,,,,,,,,,,,,,,,,,,,,,,,,,,,
,,,,,,,,,,,,,,,,,,,,,,,,,,,,,,,,,,,,,,,,,
,,,,,,,,,,,,,,,,,,,,,,,,,,,,,,,,,,,,,,,,,
,,,,,,,,,,,,,,,,,,,,,,,,,,,,,,,,,,,,,,,,,
,,,,,,,,,,,,,,,,,,,,,,,,,,,,,,,,,,,,,,,,,
,,,,,,,,,,,,,,,,,,,,,,,,,,,,,,,,,,,,,,,,,
,,,,,,,,,,,,,,,,,,,,,,,,,,,,,,,,,,,,,,,,,
,,,,,,,,,,,,,,,,,,,,,,,,,,,,,,,,,,,,,,,,,
,,,,,,,,,,,,,,,,,,,,,,,,,,,,,,,,,,,,,,,,,
,,,,,,,,,,,,,,,,,,,,,,,,,,,,,,,,,,,,,,,,,
,,,,,,,,,,,,,,,,,,,,,,,,,,,,,,,,,,,,,,,,,
,,,,,,,,,,,,,,,,,,,,,,,,,,,,,,,,,,,,,,,,,
,,,,,,,,,,,,,,,,,,,,,,,,,,,,,,,,,,,,,,,,,
,,,,,,,,,,,,,,,,,,,,,,,,,,,,,,,,,,,,,,,,,
,,,,,,,,,,,,,,,,,,,,,,,,,,,,,,,,,,,,,,,,,
,,,,,,,,,,,,,,,,,,,,,,,,,,,,,,,,,,,,,,,,,
,,,,,,,,,,,,,,,,,,,,,,,,,,,,,,,,,,,,,,,,,
,,,,,,,,,,,,,,,,,,,,,,,,,,,,,,,,,,,,,,,,,
,,,,,,,,,,,,,,,,,,,,,,,,,,,,,,,,,,,,,,,,,
,,,,,,,,,,,,,,,,,,,,,,,,,,,,,,,,,,,,,,,,,
,,,,,,,,,,,,,,,,,,,,,,,,,,,,,,,,,,,,,,,,,
,,,,,,,,,,,,,,,,,,,,,,,,,,,,,,,,,,,,,,,,,
,,,,,,,,,,,,,,,,,,,,,,,,,,,,,,,,,,,,,,,,,
,,,,,,,,,,,,,,,,,,,,,,,,,,,,,,,,,,,,,,,,,
