PaulMeinheit/Bachelor_Muay_Thai/processed_Data/E3/teep/scaled/JointMoments/scaled5.csv
R_KNEE_MOMENT,R_KNEE_MOMENT,R_KNEE_MOMENT,L_KNEE_MOMENT,L_KNEE_MOMENT,L_KNEE_MOMENT,R_HIP_MOMENT,R_HIP_MOMENT,R_HIP_MOMENT,L_HIP_MOMENT,L_HIP_MOMENT,L_HIP_MOMENT,R_ANKLE_MOMENT,R_ANKLE_MOMENT,R_ANKLE_MOMENT,L_ANKLE_MOMENT,L_ANKLE_MOMENT,L_ANKLE_MOMENT,WAIST_JOINT_MOMENT,WAIST_JOINT_MOMENT,WAIST_JOINT_MOMENT,NECK_MOMENT,NECK_MOMENT,NECK_MOMENT,L_SHOULDER_MOMENT,L_SHOULDER_MOMENT,L_SHOULDER_MOMENT,R_SHOULDER_MOMENT,R_SHOULDER_MOMENT,R_SHOULDER_MOMENT,L_ELBOW_MOMENT,L_ELBOW_MOMENT,L_ELBOW_MOMENT,R_ELBOW_MOMENT,R_ELBOW_MOMENT,R_ELBOW_MOMENT,L_WRIST_MOMENT,L_WRIST_MOMENT,L_WRIST_MOMENT,R_WRIST_MOMENT,R_WRIST_MOMENT,R_WRIST_MOMENT
X,Y,Z,X,Y,Z,X,Y,Z,X,Y,Z,X,Y,Z,X,Y,Z,X,Y,Z,X,Y,Z,X,Y,Z,X,Y,Z,X,Y,Z,X,Y,Z,X,Y,Z,X,Y,Z
-1.8574800000000002,-0.10308000000000003,0.057220000000000014,-2.2606800000000002,3.419840000000001,0.63697,0.8473500000000002,-4.347950000000001,0.80296,12.31208,5.781820000000001,2.832840000000001,0.23493000000000008,-0.48748,-0.08729,0.35479,0.3199,0.16175000000000006,17.33696,-1.46837,7.330710000000002,29.777500000000007,-0.6013500000000003,-12.86115,7.55431,-3.14513,-1.9409100000000001,2.8148000000000004,-4.735289999999999,0.5802400000000001,3.239830000000001,-1.41925,-0.6649600000000001,3.831670000000001,-1.3068200000000003,1.4207500000000002,0.38965000000000005,-0.33031000000000005,0.037890000000000014,0.8147000000000002,-0.13494000000000003,0.21535000000000004
-2.9019146894894927,1.6467528599143582,-0.11974047091077496,-5.300143175506585,3.5955820315353955,0.863871276146804,-11.332192435140808,6.413347980712027,-0.05871271120653701,5.262242838066004,12.167970524917202,2.51721017614072,0.4629873417158962,-0.5618689992746162,0.05330379985087197,-0.12808110606063933,0.2381767085029719,0.4533052691525174,-6.336421292279784,20.935241586604832,0.8496245653631787,-22.6535501684531,-39.867925402708735,13.782066420226062,3.616529401769782,-0.18649615313758006,0.09549882337388158,3.790618588113304,2.2596914167587747,1.4968196873485327,4.02083622378057,-1.7899199248436704,-0.43719745636107915,2.2279800255804405,0.2717120391798459,0.6937742931121688,0.6881035649925494,-0.23643783722493655,-0.08166012193201666,0.21480066601099407,-0.0628894321915086,0.1965858670340417
-0.9337794976504732,-0.21585273858109771,0.09780314604075929,-0.7760210237325209,2.0068943466358427,0.08762715494272823,11.051295435430204,-2.885929316135791,0.5130784175815342,-0.6469533978547056,7.38756746928359,3.2705364458065564,0.17264087886340412,-0.22420910641053451,0.033559503372927665,0.3217515047516797,0.18161035485845123,0.051689229251320544,19.672412674948344,10.346708507622473,11.02205678505595,16.147110703936015,-32.54686813916732,7.754622155239219,8.062954714074815,1.1963273127185097,0.19196086338657123,11.249847212723655,-3.2259503628726427,3.913902684373265,1.45779208387681,-2.092192305320358,0.7478895651989063,-0.0026343534980174596,-0.5014245317586348,0.286677877700778,0.46393635481874096,-0.40903387244944606,0.08157203051256962,0.10542586863906128,-0.0263419708632297,0.045557320387177296
-2.851607331453198,-0.28874977682114444,-0.12015526514481409,2.6121848285672877,3.3812846826802465,-0.532750503163192,-6.93538374173794,-2.4557132047257646,-1.7415796222697326,36.197549678759344,4.196079666397759,-1.685075671392433,0.287193413455766,-0.5503198552344577,-0.13375909949860337,0.5814244196538306,-0.00802229916249785,-0.10047901936766784,29.808672200201663,-5.159622225226631,-8.51450846918869,22.00834999108464,-9.512160572432814,-7.238439624259909,7.657989509492103,0.7448921017582425,-1.364754228339145,0.9941659720705835,-0.21530545918152144,-1.436072306726896,-2.272226402902292,0.49363753180213127,0.4998687697599307,1.7145937296741982,2.4743722076127956,-0.30767545295023024,-0.6225578959750968,0.2950738096333854,0.028499210303017167,0.24267732611365656,0.5179693749592572,-0.04898628729573029
-2.532613299106612,1.8610082286701348,-0.07190053643976436,4.695359455301945,-4.032498897067607,-0.5063957233784622,-4.6302470737822965,6.885434812935359,1.254710819310283,12.592912097693501,-8.058838773700264,-3.625234544229394,0.2797460919163737,-0.5187589516129345,0.03336721875528413,1.4658727832630722,-0.3212816055775455,-0.2110182459349575,10.820359424048517,2.4644414368981886,-2.726240117931344,13.881795414101909,-28.067837681432458,-10.269588408468719,3.916004107625833,2.3082919430771986,-1.137468649063487,0.4781087740888013,-0.8932073027261923,-0.9706185832008192,-2.5041695773015338,1.2865096506807248,-0.016967682511117986,-0.7645490334722183,0.487351172833794,-0.9755462308898265,-0.372128027549402,0.33601340412255837,-0.10643213808971566,-0.21450731280769414,0.08995557934504288,-0.29976667744114016
1.928205605552746,0.035228872406771236,-0.18775340173936297,7.990393870077751,3.9260044342883846,-1.0777722722207042,22.137283350633798,-1.0392854406101724,0.45959666241323494,44.07364693835145,16.05107057179294,0.5042174703268466,0.43971743842638544,-0.3835893394594032,0.04044098572899102,1.1015842203559816,0.2950614079951502,0.31132951481167936,86.18335218923634,22.368093710075886,5.280768936399489,8.895903985154826,-25.95795190288014,12.636824612535573,3.669095713566175,2.4322445696515724,-0.18391144248920488,5.592741465525756,-0.7170207983821955,1.8263024304700952,-2.281460773033754,0.6683881464231123,0.6252985692661288,-0.9354907377762264,-0.001876416817218324,-0.11280639843447243,-0.4319309368528325,0.24120398782106936,0.08512037551264377,-0.11541506470104253,-0.07058489556995949,0.05331859855516473
-2.3658358315767902,0.7156265702708456,-0.11225551453657091,5.990693167912574,3.1006071314605856,-0.7493127431092534,-10.330475390787678,3.885406933097387,-1.6715959239028924,36.04035084255108,7.646529788561677,0.2311669401276848,0.2717172748914301,-0.44886125254969034,0.09655903883389994,0.9000097842217649,0.0018248364028543458,-0.029471385866017337,29.63049135660327,8.76776147036023,-7.8782029967123615,17.07977487421979,-3.82117080128976,-13.101363529112637,1.2042638718648915,1.1371521741063477,-0.12313792127485867,-1.648660677420762,-3.2459475757924294,-2.219597895939066,-2.878623264974405,-0.028792913739112136,0.3357775059099042,1.1584419938260666,0.38120922707561006,-0.010925787074110717,-0.6089110088371883,0.07014626102577398,-0.05050457008399986,-0.10647534771455038,-0.0831069738051452,-0.053644240500085566
-2.870136536079329,1.1464028764115204,-0.12390441621531158,-1.3529181321133128,-0.1590775016259495,0.3627296285202654,-0.31844199792738104,2.0396123515598585,0.9462876389957331,19.12544878335505,3.942880201529756,0.44650385030522144,0.2589835935402652,-0.41890862165607967,-0.11960671033845734,0.4577091768836833,-0.0620484223563265,0.07344460101719916,27.04175130591951,15.75458152041306,1.9672177057592788,-4.323890956025001,-32.670039249405896,13.297079807417909,2.864263572706791,1.767688343811473,1.5755547560717902,8.094791842336148,0.4552629770960604,2.1039140861038077,0.29716595336456236,-1.8018091537020315,1.0592737318811065,-0.4964450359332242,0.8031782642656744,-0.5973529305913418,-0.20790357989606045,-0.20240419035819215,0.21268638972128376,0.008820027758014829,0.20044237790876848,-0.11448588468525023
-1.250465131837827,-0.30948078762717135,0.14010868620286362,-0.2605332546514277,1.3024524824286867,-0.1042036118919136,-2.0461556115307897,-1.481574085857623,0.9284089691598352,-0.2605020458865907,4.7430045176227535,-0.5443146019819518,0.42114844017844294,-0.5826033920614428,-0.01601387236845707,0.7106474261383983,0.019163247363498278,0.014821975751717283,-4.296507951628279,-0.22785766535149285,2.177710942176583,25.878418487260728,-5.127098210382212,3.5881405549353564,0.8182410676917532,0.46247624060857495,0.477790138423794,0.9110510804503114,-1.965873844427354,-0.013080322817893841,2.6301770611934807,-0.9785360446365715,-0.21247679156561988,1.7706509681751728,-0.06633388621800201,0.894687686152755,0.3493176234205197,-0.2241873848279444,0.03315835521996095,0.04219964035003816,-0.06890785388466335,0.1439834155126874
-3.3158785905280292,0.09487395509213,-0.21967434730078064,4.474383035679225,1.823527599526731,-0.5675077101651095,-10.547270000213942,-4.176573586471372,-2.9366535460122356,35.82651256263717,-0.32815888816240024,-2.1468668761389913,0.18111662690909813,-0.3949726665938259,0.04378865343401862,0.7142524387495008,0.10541460981920939,-0.24720838640034778,32.88725521649654,-4.01685884856462,-10.537195252301965,42.17020505859115,-2.7560463167805964,-12.195542064659842,5.8620278530343155,-2.0304098346342383,-1.6305447074739159,4.276683478480522,-0.9387926891207525,-0.447413569516494,5.320266542862931,-1.0836025165963057,-1.403906426414218,3.667414953318165,1.0656671619646745,0.2227716024374966,1.0433815218846334,-0.16902001053974286,-0.33051023370887855,0.5844811721992067,0.07950550780321075,-0.0036646796309587485
-3.5677507296675812,0.5418535134737945,0.30211997554061193,0.5809834060584089,-0.016942835451613056,-0.1990175472286651,-5.938045517383961,6.66390913007598,2.8349028538741035,23.298225043973623,-0.596854478703594,-4.343509264379625,0.4171746854823206,-0.6205566899633554,-0.08720874930263638,0.7412053859625687,-0.029159242460719915,0.07774155861721117,20.462112342785293,10.990498309344549,-3.6133878348294215,-8.70823675504087,-30.802207664489845,15.173834681605747,4.037207453635631,2.860276493801942,1.7552063424845656,6.501905421653068,-0.9429891936751664,0.4685369095314053,2.9067925358653444,-2.1774939800273776,0.5122256860243942,3.130879174440712,1.990954550590386,0.574433679075832,0.1296984025460056,-0.30114751342158147,0.1606996238189164,0.5093608845750028,0.3340660657819676,0.1721168146953527
-0.4814262230638278,-0.6195235229657801,-0.07126034431339211,2.237350290951966,3.548428860870604,-0.07935296964761296,11.119803324025185,-10.540238660688026,-1.0759990822328946,23.274335622832886,16.146953051850943,3.8125985615808964,0.33356536967086997,-0.4847050808255384,0.12658910413681204,0.7378721098444639,0.07205705858621694,-0.08874332020884639,45.36182007883735,4.419285789125792,4.891969967596954,26.213246298464014,13.048157662522035,-11.831834960242327,6.607904188714187,-0.4753982862334812,-0.5242563439125633,1.397281233102226,-2.866802453092266,-1.2356130593091754,4.093836033286196,-2.1065137313267224,-0.4828390421814943,3.5586355967844505,0.6674131238061034,0.7191987343127566,0.7659125906592323,-0.4679555419949364,-0.13611967014872778,0.4417553143709608,-0.00808747629782712,0.10340458570725693
-5.200298952252211,-1.4123661567621242,0.741611665392402,-0.7241287123355998,3.0096014136430798,0.17647763787405893,-10.335546833524285,-13.297181247694883,3.176858435657771,-0.42263380557228425,9.908321190376725,2.147706162791009,0.11362893776968871,-0.5015386125926959,-0.10851011832022384,0.45221640363209364,0.11324674251092391,0.10733806368120843,-14.564326851004969,-8.669981679743682,8.155367992259183,27.29294154214365,-29.035008485867515,12.264125253150207,3.7861700163883554,1.7184905887994848,1.026482377463177,8.175932440089813,-0.44560521494623084,2.047667772346307,2.126154372720641,-1.4351611536258442,0.3790902204298412,0.8661876508315729,0.6993119675188595,-0.05820919216217643,0.09704984961476443,-0.05317197183667796,0.0557570301453136,0.312031260372292,0.18071126275774618,0.017757955043576593
-2.066889311492784,-3.2076562753057716,1.111476395546322,1.874445233462946,0.03724343215598616,0.026638063908033246,-3.6350875842994492,-9.90727350006556,1.3433679950244886,14.902545630318395,-1.3206723621142138,-0.66914209690578,0.3872049515229971,-0.7425767518999582,0.12407785247017596,0.885826615876817,0.08576673076983228,0.0871891318648895,14.080632112533378,-11.70331686033221,1.5569807417849804,49.99644897420427,12.268189341160099,-11.216922680277696,5.200424790995701,1.4101591295011249,-1.4674119335177276,2.0796231662257267,-1.9086844054581864,-1.2517164562788723,-0.5747585363786994,1.18660830005296,-0.2198946214259351,1.0455090085452245,1.7465279879456896,-0.3134431135789534,-0.24415014862361512,0.25810367531016204,0.016476455468312848,-0.12184407194028983,0.1810893455424088,-0.07840762137042935
-4.783401928791203,-0.12546657662975302,0.3240563195019323,-2.218718572049128,1.0848835986355738,0.025116195829510617,-7.761245179693211,-5.554500018943643,0.8672945272981416,0.8206377656800531,3.0655328534920976,-0.12946174193367832,0.1829158604901875,-0.33718197130584837,0.049624849346470185,0.2971959932718843,-0.010451525349558455,-0.11846767452107196,-5.010193428563181,-3.5298890105076963,0.38010881798975116,23.005906655030923,-6.766373538092413,8.395129081781254,3.4028794668905413,2.5856890194198536,0.16555334218693157,8.817204948644138,0.09907383083917576,1.7565598038595087,-1.477596291877998,-0.03275857652661923,0.28281647966442214,0.6029065297326907,0.9588397183135372,-0.5773493173089007,-0.275939381157372,0.1930105876716327,-0.04329684939509531,0.1648879814586751,0.15986221530138392,-0.12142263770955807
-2.126408789263358,-0.3670213947323177,-0.26589449276891175,0.12278468655496635,1.3713124148128186,-0.006033529238856729,2.053607263092137,-5.349669362413216,-1.191802826446886,2.0320468851485947,5.148383735733712,0.617830904486919,0.35784147817778855,-0.5235899720056257,-0.1213720029741634,1.077085721041895,0.03946512603647272,-0.02213458918483356,5.4319737960323184,3.4775686664567402,2.7919770103558914,27.171123388916506,-3.987694416869579,-6.996035765408431,5.725056503937684,1.529789768088778,0.042899083780374575,1.368044558796421,-3.59335565785615,-0.1684354800256951,1.3065776271648581,-1.3799570782075417,0.08892237139510227,0.15147456717914254,-0.333592994216629,0.4305101484938902,0.27423197662726917,-0.36771132959875724,0.012756306973143566,-0.09082982752574845,-0.22195894216962225,0.1409135750516094
-3.9578216596098894,0.2868172669751521,0.4616237077621685,0.5446347630869175,-0.4982223736809894,0.14894516606880653,-8.472039404814224,-8.696085054949819,3.8544071085837834,11.074853259646092,0.14207636555108794,0.817539012579183,0.21908680040032066,-0.34110676242969934,0.07180219063215403,0.4941769096470822,-0.03586124834065724,0.018633865665862233,1.8362078242410305,-15.13795281689689,5.827945496922143,16.250398914668846,-11.84256265095654,12.053781028095358,-0.16718211209530298,0.31851271990756214,0.2119102394829304,3.0347153386556203,-0.17065451149716188,-0.5690249962206761,-0.17569418515684537,0.7836336147754748,0.2558015770317122,-2.281663890543283,1.884341691919967,-1.4930280907618325,-0.36925838034734426,0.3959248805208,0.09729543423831015,-0.5208341318574634,0.4664648377082371,-0.3374513002284948
-2.1275200000000005,1.12438,-0.82857,-0.35406000000000015,4.11505,0.09564,12.76287,0.1165799999999999,-2.78483,11.73283,9.295740000000002,0.1781000000000001,0.50188,-0.26685000000000003,0.12609,0.36096000000000006,0.1355,0.19659999999999997,34.69173,8.529830000000002,-2.121669999999999,37.71423,35.53053,-9.648,3.46914,0.4641,-0.71221,1.3122800000000001,-1.4752900000000002,-1.29628,-2.32131,-0.2569,0.10418999999999999,2.1726,0.82175,-0.19475999999999996,-0.56585,-0.07546,-0.03405,0.22090999999999997,-0.014220000000000007,-0.12645
-3.6630862487500395,-0.4482641430622385,-0.01072788968900153,0.8915783198762947,-1.1512483651460974,0.009425353728010085,-4.764677210875909,-6.845728408398755,-0.47112635159054567,-0.6890624234585448,-5.732994747544594,0.2917234805139389,0.05029675799107857,-0.4591553608205068,-0.13973061229115924,0.7497502174051351,0.009909367070638352,-0.1435988522298826,-10.448579705539565,-14.704295702837882,4.399644282002334,56.032697195552245,1.2708846931786484,-7.895782833188679,-0.741428984279035,0.9938221688461701,2.2392396759651514,1.1983384697296997,-3.1921950129027654,-1.531250963996436,4.413211851148717,-1.9768047064841021,0.18780096040347774,2.586268303446178,0.985862510568789,0.5045890439987769,0.6253567889559764,-0.27317039638654667,0.054049955571582035,0.2986142135260883,-0.029914953009393976,0.11571442298882927
-6.704233684804229,-2.6039197551630897,1.6586139995712474,0.15823396100448803,-0.008404322524062932,0.05465029556897577,-15.300316206980403,-15.151742331046428,1.34052195375955,16.31944455948514,-0.6148180643197183,-1.0161102628963914,0.11116122156703782,-0.3643413728361722,0.055983729839001545,0.4561407520374213,-0.021013293842113482,0.08165991967758224,5.310465894749053,-18.031338943058827,-4.052972602821811,22.693347920241603,-2.567521590011013,5.34310477983953,7.255736583032105,-0.5556514081573112,-3.2483855723360477,4.308377758621826,0.5326958997258807,0.634695874285431,1.4614943762171269,1.9883661674211708,-1.1636091646558975,3.775369979018888,1.885781461192219,0.9437836815576645,0.2948802220589315,0.3052985431195249,-0.15155441012892498,0.5534628650241105,0.40687667869357325,0.11411021985123045
-5.860152332850786,2.3900254693739376,-1.0110172732542841,1.7214751271291096,0.536096316965621,-0.15805621139249218,-19.90416406904433,8.87453817282576,-1.5015796485288495,9.704097062087405,-2.578802430896809,-1.0387958912503823,0.3404225999514801,-0.527799191153022,0.1067599255555219,1.0524050412422186,-0.038694308885328536,-0.10717597956931235,-16.60928685218751,7.594511868166271,-9.946220727472118,45.05594911631961,35.11314629919739,-13.35675918987111,5.0817669347975425,-1.5202943951792007,-1.1079900151126205,5.149098808306809,-2.1211624873370654,0.3487048548018693,2.535274168536464,-0.9504516960333952,-0.3854456074287628,1.4593782185178443,0.8729551789359008,0.28278881334295336,0.7101287614473317,-0.44247983895387955,-0.03628987475956863,0.24827817206517103,0.0006374091794414791,0.1448165997903976
-7.011986114960629,-1.9742346320369188,0.8915558462275156,1.47843050852643,-1.5225972719536691,-0.10360565179164676,-6.2637809106684355,-14.746608934560951,-0.7113993814428118,9.261841856634154,-3.2435606053489763,-1.045282968263994,-0.016612674534886452,-0.29637353610093803,-0.1109803996097671,0.6689019768433491,-0.060955662211606636,-0.04729167997518888,8.552088433782638,-20.899154231356345,-0.24531982301277036,43.56159425802167,23.163278544529337,11.617367681478996,-2.5595535724426948,0.46783228928317877,1.0182634476608627,2.1015327576431164,-3.3422582556658473,-1.2871302698621183,4.8025240985325865,-0.5694725691602797,-0.8997881292315651,4.129908434368,1.2857941697235513,0.946045641328599,-0.0034188809791773746,0.24732651549327395,-0.14665855455405005,0.5976597818216621,-0.013825243986523628,0.1948164902163301
-5.507943426053514,2.1642047138765292,-0.8877981291732001,-1.6955725239214812,3.302357057583022,-0.009494672745111968,-18.096615038499458,6.2632133250549575,-1.7356821340969493,-1.4072908876633607,8.646586380198173,-0.6641253273964001,0.2711764750670272,-0.025741940896548427,0.15782201447725197,0.5544570795723583,0.20809580252836382,0.14898858432254045,-25.07759725698965,17.89045574074429,-4.3952168160598575,54.094743311134685,6.353806574956024,-4.285124527983274,8.76917610362636,-0.5281226002645363,-1.0644119154351326,5.201995210962747,-0.6431957191094799,0.3625896155268562,5.089673185869735,-0.6611519210109286,-0.545353073428175,0.5635587895962105,1.454943483363983,-0.4047207446922972,0.8936712598398837,-0.03494536004511937,-0.08110002211725599,0.0836430028571559,0.2729857481839982,-0.0825150361337636
-10.263098294286591,1.0159138261417764,-0.8467528142340724,-0.03452063495635526,-0.6369850391135911,0.22176758569516916,-19.918812999056343,-2.791338536055343,-3.522086259242083,13.14310491396668,-2.54343170432178,1.2291661933507603,-0.23005290107574727,-0.230581490849391,-0.010001017960679658,0.49193377530226984,-0.10586185094266821,-0.035282872342294797,-7.62328121933089,-1.5918623936981433,-6.683011382337794,25.812094879665516,39.90194014446453,0.7881850569751213,4.7453036700211575,0.21195349724691334,-1.5705375307815639,5.148204617654468,-2.4057122645595146,-1.0203321739833646,1.2856223369360271,0.5047959468103533,-0.718358445053679,1.1355223732395245,2.223621210417522,-0.7220942608785945,0.22557742080965826,-0.087137172885352,-0.07089972472915908,0.17029568083836663,0.258941520951695,-0.09391726143529518
-5.325295099544413,1.2683636373049083,-1.1832760370939326,3.201057387966438,-1.573211373552787,-0.13537843872921468,-17.751199154918464,-0.7793760097552853,-4.625805220014045,14.6131666224526,-8.667825738404535,-1.4612660375605369,0.08108739800650781,0.032921553935263595,-0.1863346786945037,0.7179888046949962,-0.035255723425608794,-0.10258128892180393,-1.0775866789134751,-13.200195863049675,-11.93803644911998,44.769833977283376,2.193238372500536,-3.943785122083952,4.7979446824131635,0.35785518215682216,0.7385860483840697,5.2667820469491335,-1.6091209681576502,0.18330386890009578,1.2908245804976026,-1.5263049206933663,0.5585704516267238,-0.049249400407260016,1.0152560478348103,-0.6698489028815742,0.14291972881938117,-0.22369546953222705,0.09198724686107672,-0.014428939169278236,0.1554524186519768,-0.1354546832161462
-3.9865906021214155,1.1880184409073733,-0.7797534659810882,-1.6027877545259654,2.8793717236278016,-0.09041090162761882,-11.399881344646037,0.7553417042824483,-0.8700524211327865,-2.0336928972535104,7.837047717075179,-1.0359786498779506,0.32775442042200176,-0.13487619074979992,0.001725820448084294,0.7653894526578697,0.09939783858306814,0.08843150984444528,-18.220807730121326,6.930341358532191,-3.759663110182068,54.10362910500712,27.763776829476914,-7.7932022739814055,-0.38540418264423276,0.1397811887330244,0.1850097362047213,1.7389032849143828,-4.106921150973714,-2.045453726339586,1.442370497821079,0.007704980401364773,-0.15117215418712732,-0.35533799692540113,1.5821736159174054,-0.7200181927800916,0.08615142533061296,0.022265157955334527,0.012780005710648674,-0.2518080814854024,0.03317030914026582,-0.05749143880747473
-4.0230950680977875,0.6300151959317399,-0.8964357694422987,0.8346354647057159,0.35817655389109415,0.1621229139100665,-5.6441514368738295,-2.3343430894758534,-2.9688923124292206,8.108801900737133,1.1856758625338735,1.1200211073139565,0.2323821516708991,-0.05595276129269664,-0.04858468426739253,0.5889932197259988,0.03942583661445713,0.04739636183625655,3.095480399175351,3.383952679058666,-0.43150374927008284,13.755267332123282,35.81289348834031,2.3260342432205925,6.3207190814646275,-0.5791927164396444,-2.256752262287102,5.2248833912371335,0.5389099931982547,1.3712368416904392,-2.5297419699258503,1.6119844977458224,-0.1923762185367099,2.202347874573727,0.39699492907113704,0.17274119768721838,-0.5755204099975394,0.2839415265113831,0.01733829063855651,0.3366872127815494,0.1634930250953048,-0.1420864651777156
-3.4622016654400767,0.15034800235839835,-0.48658062536296,1.8879029675520682,-2.135619503189003,-0.35453536727999346,-19.15478984180737,-8.321630507386987,-3.1872275243351127,11.806230564913816,-7.58776419291083,-2.4239496596480468,0.48317031820110135,-0.156110200314515,0.013872993660011608,0.5934852133909405,-0.08084457587845062,-0.22235991594830634,-9.557609205758014,-19.162825692699503,-13.497361574065035,41.487006598557194,-4.36832407232191,0.07963398315841624,-4.555774014901263,3.2543676659580885,3.2467901897213918,2.5053608556617277,-2.5598955724640806,-0.07851270128369557,0.9557594239957791,-1.966611730166866,0.42319246495355134,-1.0324897686554628,0.12730007160564502,-0.10050259529970737,-0.16536617792627353,-0.12688109277199994,-0.009434032283691468,-0.24662056912551572,-0.1715750514707428,0.1310998477118836
-5.586655847776016,2.0759384732508925,-1.783745699741696,-1.8001741969780445,2.322060337625114,0.1819989883268864,7.724442155419435,4.539090705085945,-0.4119173833756258,4.633581478677522,8.469644030943135,0.4051667526820904,0.22244411554632906,-0.08043910889637552,-0.1459374038521191,0.7236903598275837,-0.0022763289780591642,0.15933349675622627,17.00669913195261,14.491628137843373,4.534067330052247,56.112555732928215,47.38244963777198,-10.531552457625356,8.480163583163472,-1.786304665195364,-1.1295501236371088,0.7466292663307112,-0.8109857301490413,-2.879925542394294,1.2774041667318545,-0.6569088563480725,0.31268915457543733,5.954651571086475,4.080480097201631,0.8852383395188457,0.426574496173918,-0.33219963270196473,0.1310218931261272,0.8877310102529815,0.6241073786468455,0.07808191012571808
-10.478346253646611,0.9467799263925336,-1.4567285704067772,1.9040561268995428,0.4944250796188309,-0.11685277722129395,-37.944613833633944,-4.040808460719131,-5.71236781092014,11.721460945811948,-0.9275568774903751,-1.165218249989215,0.02896659768016192,-0.06756677249734733,-0.10519742281374181,0.5873203211567143,0.12048248075319754,-0.002476730944803089,-34.31367153161747,-6.986114154857872,-15.037220222616984,29.681851639675774,25.512627596857428,-3.5385227397145296,4.056816036218317,1.3805312824814333,-3.1957257954752962,4.228924654098037,-1.0425897352097957,0.9056313194826069,-1.5400643373030998,3.421932626184044,-1.48990503194417,1.610458517730338,0.5548463055320204,0.5993194840145104,-0.6204589345126342,0.9210302009922547,-0.3044839942358972,0.2255792212986902,0.04161235620803791,0.10617067543166885
-2.230016130375644,-2.028034571553706,0.8210318400899398,1.195854474757034,-0.40384315867572584,0.1717363126769625,2.596880667371819,-12.648124392782126,1.7758058083331667,14.164098828439393,-5.932932514151396,-0.12050293654640415,0.2661892999573374,-0.18368264254755587,-0.02135284909350738,0.6693683342155915,-0.053840187439583465,0.02057336923781098,23.546418558013148,-22.501827535293497,3.3370240671516163,28.466358447449707,11.27576693860195,-0.5380921377315098,-3.7025414003182004,-0.7117182140021502,2.201873816479354,4.977711924020492,-1.4710752912739442,-0.8870484110145144,2.72904017857114,-1.7431493591004465,0.693874895345104,2.8806536920197305,2.5248434666578623,0.1070076001545892,0.3600820630470588,-0.4185653157114606,0.20064079835683202,0.3326091265131142,0.3416421198064076,-0.05584899704226467
-5.000647710585395,0.053101150552627145,-0.7001979450603079,0.764449098689188,-0.016568440277126437,-0.3309454490972562,-14.344291854181343,-3.498941655577885,-3.5389661274278676,6.482448748446229,-0.08898156441007254,-3.2987118629343937,0.6113804726143788,-0.2695615906716953,0.014346534756568635,0.7115758234208468,0.10038022542232163,0.004109841319732695,-9.854504349713178,-3.4619308261160295,-11.722573679396657,33.4061887864555,36.581226469544774,-11.452521211971224,10.625322828678287,-1.6021854002272193,-2.6465290554506686,2.562599585517398,-1.884406495045189,-0.41253694147926345,3.3775155370344256,0.20198707729128573,-0.6425094085115977,1.94387743691416,1.1887931564677432,0.7153636311226771,0.5071660513261058,-0.19231444930040786,0.012516615305722923,0.4042984350474886,0.055068811094188624,0.25330186649288594
-2.1034290888606932,-2.715389473691023,1.080928085399971,0.4793241801726832,2.293499685896034,0.35211083327743536,5.2225671292713125,-16.801297402519097,3.264693169764697,11.916946463323011,5.800571846327922,3.3337597362089477,0.36117670176002714,-0.3612021210675691,0.009275816387124786,0.28617758010343,0.0023501499328112477,0.03498872422440521,24.3855471716227,-18.336957586992945,9.764869960840384,35.82920773457911,22.079287665287055,-5.9410597689659,3.700560017620338,2.2387602723206137,0.7490524800919642,1.954886220686285,-2.304963002209934,-2.8448856591346865,3.7892604184619003,-1.0954754453364328,-0.4085157071202692,1.4679331155614992,3.143929170467103,-0.47273111047680805,0.7623352036265298,-0.07854996177484759,-0.23864206557595413,-0.2528566287886113,0.24911197959887527,-0.20571955368819023
-4.334444380726491,0.2708089530974915,-0.11420666999565714,1.783285232591486,-0.7425835084770921,-0.37991996375474524,-7.837376739041613,8.47413005714513,0.7797371389731573,16.500619600642917,-2.0969972994477715,-3.6651670817170965,0.3132240101324257,-0.29047019346745195,-0.03934175014821342,1.1350476171600803,-0.01602408595092619,-0.06765612280457763,10.753852548300113,10.97752147957462,-4.951191529249712,30.94987523228402,24.26298415950023,-0.8115843123457318,6.265646528385914,-1.7422057557523272,-2.9316962656713788,6.2569883875947525,0.905424143089888,1.028184667941693,2.68368763301427,1.2729230521902786,-1.3230334702467055,0.9634550559737124,1.6321131118194756,-0.26757594369964555,-0.031677970453967565,0.22880534947553444,-0.12358663937973041,0.4697217092457008,0.4263500933321581,0.024237727022020542
-4.55329,-5.63202,1.8064400000000003,1.6235399999999998,-0.45904999999999985,-0.05565,-14.60997,-31.88200000000001,1.63388,4.88363,-3.2873300000000008,0.25165,0.3487799999999999,-0.40554,0.04763,0.5124,-0.051640000000000005,-0.12028,-13.612580000000001,-43.37843000000001,1.9548099999999997,17.528639999999996,-9.4931,-8.9309,5.0300400000000005,1.1259999999999997,-0.8855899999999999,2.48715,-2.05134,-1.11309,0.11865000000000003,0.043320000000000025,-0.12072999999999995,-0.9271299999999999,0.82444,-0.7956599999999998,0.06660000000000002,-0.24271999999999996,0.09617999999999999,-0.3265,-0.04506,-0.14407999999999999
-3.471208691859256,0.6042139954701654,-0.11473408724404029,-1.0196255947691297,2.0028488754722096,0.075702593759185,-11.727078674986691,5.3190392865105185,1.8316491465246023,8.764385298267861,10.496415622600713,1.0591995137648669,0.558826303078763,-0.4368553734937142,-0.053752235094986556,0.8019434430541194,0.02483452703838435,0.02318303619188685,0.302799772233281,23.828740549726167,2.2319393743339186,29.205016352968304,17.61253844102943,0.6871589679302385,2.174039669145859,1.2412799752654529,2.077166049690358,3.8530939829341846,-0.48856450672091595,-0.436959063982428,5.3075604808665915,-2.394416096127037,-0.046367608450553544,1.9068402808575928,1.9272465731109618,0.11741964234925711,0.49552563139042255,0.11376804252497262,-0.2861987392353895,0.2841627764485252,0.22633544747721607,0.006897399862383605
-2.066187775777425,-4.13689276922666,1.2471654529417153,-1.2041419259748984,-0.14037643797194332,0.18553802167734204,1.6006000069645887,-22.888422873379714,2.4481538975245174,2.9245452536245016,-4.045154602526702,-0.9325737811148672,0.3086028485046753,-0.19172952494528403,0.019771371730291924,0.21701089056073888,0.055810300481739156,0.03038318380428745,4.994306918924341,-37.002161283291564,3.6530448705026353,45.97106169651176,33.54224467636314,-6.467441099051984,11.406778554042349,0.19488441002523474,-1.7421547012837477,4.780470056056334,-1.4531591574563008,-0.7835902828358127,-1.35508595446516,0.18374157515488232,0.7445463564128236,-0.6252548436628196,1.2972139079361371,-1.1984978679993807,0.08745774935156952,-0.5138419842029628,0.4432365600909204,-0.0725524996249475,0.2373227032882287,-0.23542276138145987
-4.58628741410881,2.857976787870255,-1.1570175808099352,1.5299760478263884,1.4602776162733762,-0.03423116742862692,-9.488682329651386,11.06176429999427,-3.640374631536248,14.33783649777746,6.57151871780864,0.7294596166212886,0.28555882040719216,-0.2503805340490663,0.07200144260833702,0.661197955086202,0.014354555710277233,0.03648782243844582,9.144734690474598,20.149095890018824,-1.7137168867147685,-16.79786524887635,-30.632517510102296,6.276655821461907,-2.300154507875782,2.540640154894206,2.544536544652619,1.6847002798114015,-1.2073894546962023,-0.6442291845557367,3.232086243813791,-1.512964875077298,0.00580860987504252,2.046454604166848,1.5542580453479358,0.8620561707785876,-0.019317026679102917,0.29999949697110645,-0.20083454636143264,0.011236109870219679,-0.043324785818902825,0.15450282570165288
-1.3736966462778988,-1.495681539592867,0.8060177776179765,2.596264169128668,1.4188613157015117,-0.2791864473320292,-11.200232583845814,-4.622247283405924,4.333954552676474,23.28600368989134,7.774322706043422,-0.39301115002864406,0.6966558062526161,-0.43088126447588965,-0.03146677799686451,1.0551858667170564,0.03836996451479619,-0.05321321149418888,12.289910387507529,5.889772884037022,2.645899518623287,46.57132977485932,40.13517645511913,2.24933406461507,5.623711204213584,-1.0407370576373252,-1.9115952384861745,5.399731193339015,-0.44950708612906065,0.06640899894500037,-0.24124741512404901,0.6582738188897315,-0.34330744749052344,1.9979042608362576,1.9045444537735337,0.1327858493181574,0.07581680949133167,-0.054350109478930986,-0.0035087339604003747,0.3260330586134358,0.2518634593336881,0.01831399517611622
-2.1990655068378335,-2.2165578579556735,0.43884017405463976,-0.5409043756064746,0.5300884125542138,0.44539354529995234,2.2498266450813023,-16.91181885340025,1.359420234059701,5.5088134393759605,-4.628562855118079,0.17699058010997587,0.43368029275535,-0.28802608574510263,0.031088112525064358,0.6822391949049686,0.05246104464039511,0.10427742676233208,11.211819451339018,-26.756036575421426,6.245063339503299,23.17186157777754,-7.08501923271023,-8.887896673622983,3.023486940744457,1.1862401928195252,1.1220160047821828,2.6430076586371016,-1.0614258172240743,-0.3781906682023267,0.20664819280135246,-1.0719214242636501,0.9291940373817196,3.255352365292277,1.829873912668057,1.07091298645185,-0.0023260208273649012,-0.27119481740910656,0.2690856965366138,0.6042724099011474,0.39893899422945556,0.1667626789648202
-3.3313569222118007,1.0949735039151391,-0.10357857911361187,0.7708329633642805,1.7601432835358468,0.035480018454474696,-10.42137896120904,7.292599982964245,0.0974842321019706,18.399198911792336,9.783785417996091,1.4750134182327368,0.6390494843033343,-0.37651603637990716,0.059781826900150055,0.6665341672255064,0.036736095490900136,0.058677312476079345,9.341757393101568,18.20099715369334,2.2779640583711536,15.394282911005599,9.769523147785492,6.473451017836288,4.187530602034419,2.324485348933559,-0.9231973322806989,4.461249108595578,-0.701370708633641,-0.42231877254826766,-0.14786547436810185,-0.17369466323127675,-0.7692922382865901,1.5389666344725157,1.6183881866184078,-0.14071885178222424,0.07099578232971476,-0.07044151707849054,-0.2661613017321301,-0.0033008755575378913,0.0018701176064463347,-0.08599900107425616
-0.38243860410453706,0.6085955178783752,-0.3440994903490489,5.8198255108734,0.5500620963702402,-0.8892977028905286,3.262893726161018,1.2165284693673852,-1.0970368475743761,33.530858054429196,6.918282396336732,-1.1792550909905997,0.3045593094790654,-0.12132159218801328,-0.042912884854864365,0.8845745897561166,-0.11967716238136057,-0.2656020377009481,48.13028611213604,13.187314191615886,-3.036550780601162,3.7554847526843176,-18.194303736524027,0.07928260371126035,6.2902680846538965,0.573878047731815,0.4447332599008502,8.056490372648863,-0.09832137128778246,2.6475856915985467,0.9074614680330174,-0.3264361138580495,0.960803027579238,0.3026037101955325,0.40624319531683567,0.36433265561878037,-0.1064684493797746,0.09828395239175199,0.2916963666402922,0.0624362661347139,0.01339849236866393,0.14652960010684113
-3.2413129655515545,-0.36740656055775844,0.08734771054705967,-2.665962709261635,3.308161179278864,0.46501130005347274,-8.036579685818703,-1.6301794452117568,0.5564548158607204,10.055026497195367,11.46760372285905,3.581456046954741,0.5867876345355061,-0.45898212197493693,-0.0625234492955406,0.25396650825278255,0.18947331321663033,0.06796528740461279,7.898785195832154,8.605345574553434,7.724645917597296,22.756343702557363,11.617790564654966,6.841950086254267,0.2556805091319432,0.7446175864502608,2.0168952750413562,3.6091025034933595,-0.49441985041564634,-1.7098103962421944,3.842317618424087,-2.4302969358126094,0.2040683898716279,2.600372698924643,3.1922612447831358,-0.06618337667365103,0.2572053174961403,-0.2796181128972252,-0.0011893971067591666,0.25685190125775315,0.29694012841880574,-0.026303889282327353
-0.8561758921476971,1.2951801308750146,-0.5168397932246026,1.1344413583102422,0.02424033309587999,-0.3442216164373648,-1.1752858830199546,7.239373875281285,-2.35868580135011,25.100462361699382,3.0078895047141803,-3.085571004165116,0.5007409403557277,-0.15306154202371736,-0.03891727562478958,0.5736026686322702,-0.11147044261795541,-0.08507321657583038,32.56938937066532,16.547260101953004,-8.388744063903731,5.312427476390778,-19.194783145661564,-4.027729784176387,4.896494820549671,2.955142878654397,0.3026048997305786,3.3502402486966156,-0.5210685617965956,0.9882998361348266,2.153749654680525,-0.6578028553141095,-0.30194227183301414,-1.7361989847691133,-0.6243836680947961,-0.7084429992022597,0.2524482547883679,-0.002002260116597932,-0.10277357092077845,-0.18228673881185234,0.04292053004553958,-0.14116976781192558
-1.6791673858630127,-0.23054094458487534,0.1423645099682308,1.667759242040656,4.2292540897234785,-0.040909328761735635,-8.926737716977556,-0.11010096031332617,-0.4841526167520211,15.480440458719674,14.314371036546975,3.913868396587109,0.4926683849214712,-0.32503058723529854,0.1411970971285086,0.9771703702024321,0.29877514732447163,0.019978817988581036,5.8665818681148805,15.959958835969669,3.9576710607227716,-3.511514263998569,11.78363004587999,-0.29228326828186124,6.517662252350065,-0.15357845565664516,-0.8612878099447996,6.641178554687462,-0.7338036513388606,0.7025168373545186,0.25794001520239723,-0.7825854933819645,-0.03289055374564897,-0.4290385836221108,0.7138047126582782,-0.7219845316522808,-0.13274728156564441,-0.04101061332845392,-0.07710750836372192,-0.10523205161925338,0.013605399072340381,-0.13112881561270529
-3.7857397908027157,2.084586735771438,-0.1504423671784072,-2.4978717646045845,0.4984294698564327,0.19525463266487827,-16.69521934006667,3.376019206332152,0.427568281660079,8.670500758064492,3.5392881325793377,0.7822751653171783,0.3951627255369088,-0.06888444576443725,0.09296556982494088,0.09672770784692486,-0.03107200579173467,-0.14556249876556487,-4.621427100079834,5.5456003150712325,1.0123613223528596,14.305905628577868,-28.217631704937027,11.337980249625138,8.95328320204132,0.6315505943709981,-0.7334849586392859,8.133412266377155,-0.4557263502416577,1.9288420056604532,4.208481552804384,-1.27802476824607,-0.2418505914102828,-1.3895875098139925,-0.06562952449152415,-0.7029744122277167,0.9448813653340259,-0.4592911081814484,0.010666110039666587,-0.25756777098874606,-0.17258670621086636,-0.062311938344942835
-0.7464296604693618,-1.8862937012420862,0.2455279006363431,-0.2605014141153712,2.1655106208839934,0.29632118393454804,8.814423216588906,-7.500341398673911,1.4584435649147345,11.256114767755784,4.707092419375012,-1.6669494522067585,0.6971703070888922,-0.510052755530965,-0.1975524116679021,1.0501101187270196,0.25291976629878093,0.3420008102883429,29.5631917141236,-9.93948727501269,4.306755181480221,11.252303610971637,3.157367161958889,-5.306563561162989,0.30322235120370566,1.643193737942161,1.9856174263367163,-1.4092922026378865,-1.3071215615257386,-2.2692864775612613,1.353057853187298,-1.7479745602488315,0.578251800913246,3.222386103186151,2.447851912342588,0.7763410632604509,0.0731006911820401,-0.13231036341149188,0.04361785295193566,0.5260175869069658,0.4029163304144538,0.15836185880475845
-3.401236051373559,0.6362784077732686,-0.09480009366471828,-6.407930508806664,4.668365978319328,1.0387292736293083,-9.148804389120658,5.575317226804127,-1.0053371073314497,-6.2040171458372315,18.419220688799864,9.888268569938809,0.17331703911020804,-0.3016835478391357,-0.016737389891364925,-0.16271759309795564,0.1479503722120859,0.12522077455031555,-16.17615431650119,31.503947175220922,13.414613208849763,3.607407098351717,-4.97908281462209,0.8330471623078392,6.900894683798418,0.9649005249096115,-1.2403115506838887,7.173162852392679,0.6898037897981004,1.6031175526360997,-0.32798300934184377,0.4118286752909272,0.040205753148516626,1.4593753744326885,1.3223383807563394,0.19594487154731516,-0.310508527531668,0.16986200912152838,0.048109105387903195,0.045044250204784586,0.16151635184780275,-0.01826835881419964
-0.9782194321648808,1.522903447359246,-0.22845926537661843,2.1750920933446265,-0.9260901895141235,-0.3488810701591947,5.774473249396098,2.9319962897470395,-0.73922787840849,24.6886204926873,-5.439548952367016,-6.353616700767547,0.48004518202992247,0.0005303296763874178,0.09564518444746725,0.47796471669593554,0.1597357290586108,-0.030732665498903723,43.08289552800185,-4.225450010256549,-5.653490798575069,6.794233135851574,-22.186940032557196,4.732137635384593,1.6821817584612022,2.682457416130447,1.2312696874029267,5.186522857902258,-1.0737328469139005,0.39835187598223476,0.41789733944123403,-0.706900713008689,0.3519567457230572,2.755551583884634,0.8687338124212454,0.5254188836796817,0.03642429549782501,0.027463041911237406,0.026721399513752617,0.5537314870880284,0.0634727955882817,0.09580914375021252
0.5782898807666832,-0.9162339109443428,0.2948757751797213,-3.0094333059994756,2.7391182102180607,0.41043931768081665,-1.6927099769961138,-2.5896571013290135,1.519164197467753,10.232495679807334,10.511871392508297,3.5956101223766264,0.7130907642745257,-0.4556164038077896,0.038879051036287166,0.16487283408137438,-0.09484603090904406,-0.08799958522322948,12.007917106317581,0.5569910855555817,5.641090667304776,-3.345583622579351,-6.669942423892234,-5.761085064467802,4.4578534351108745,0.6767611848655799,-1.0031412893544844,6.8940638264806084,0.7836214798595124,1.8526880885403179,-2.4363093258946082,0.09704066817643037,0.28533447254515654,0.7477281174748884,0.8502440787384782,0.12788858815590448,-0.4187412050542208,-0.01848889571415456,0.0015827808035106198,0.04346342200132951,0.1356971683584212,0.012474016911964755
-2.1363325112974345,1.105207364290478,-0.26530645763595745,-2.223063442546726,0.7289534745398314,0.6096696374131556,-5.947813567302665,3.3418005842338507,-1.3171762128713267,-1.4557971067960294,5.71876354419926,3.8185430918715424,0.33286992476923,-0.1159096095927296,-0.021064810086062244,0.3616734405588456,0.056053404882700296,0.17647806360263982,-6.554799449559328,10.124309570770611,5.769373965883826,-4.9218117090530775,-14.17370062990216,-2.9250490058333147,7.991299524951752,0.2637399229056872,-1.4971003684163993,2.475381981568624,-0.5600250711663677,0.4240438656313258,-2.19132146199716,0.03481939922477251,0.619179922090646,0.5940370675750367,0.12352089362565044,0.15567223187305732,-0.2087320909556773,0.07164584235017403,0.018644337313959283,-0.04510569706966871,-0.06013368879877406,-0.012557152698679738
-1.69938,-0.3912299999999999,0.022739999999999996,0.1554,-0.2874399999999999,-0.5106199999999999,-1.05531,-1.0673999999999997,-0.14526,16.74257,1.6237400000000002,-3.3851499999999994,0.61528,-0.4564400000000001,-0.04977999999999997,0.07971999999999999,-0.12169999999999997,-0.30741,20.83198,-1.9237699999999993,-3.9454400000000005,12.30108,-21.340389999999996,9.53666,2.5165200000000003,2.53008,3.0411400000000004,6.324650000000001,-0.6107999999999998,0.41749,2.4858199999999995,-2.83399,1.0897400000000002,0.2512399999999998,1.2717700000000003,-0.27929,0.17503000000000002,-0.34773,0.2592,0.12055999999999994,0.13273999999999997,0.028519999999999997
0.0009531620900202251,1.3765939157159375,-0.3189421808413223,0.10105465178662315,1.1893635852757076,0.12205248364945147,4.834500833238218,3.6018637844850385,-0.9069358107817747,12.658068413574497,4.701512353017078,1.3367598000547063,0.33198972620625344,-0.05388460514572432,0.03857954289873538,0.724225299707849,0.0030188838429080368,-0.050809325803739876,26.643575526693258,7.555858757169981,6.233341946856811,-26.085680213823384,-19.017127802053977,4.224433285932829,5.461349128471613,0.5373475573302526,-0.7873711904418835,7.389898214938568,-0.14054668989381003,1.3635800787625532,4.03836066976898,-1.293807902465785,-1.200723488284336,-1.0965017384991826,0.45903391562972534,-0.646523796132219,0.6134631597377871,-0.060001255641648536,-0.29426869696334196,-0.162246001064657,0.05239698508201222,-0.09564023723125956
-4.740571460943082,-1.1465138019007564,0.56526113937362,0.20097813093168598,1.5227144290493146,0.3976755091986728,-16.660415360031323,-6.5507775957394925,1.9670373666649743,18.3044288340136,2.788657903260349,-1.1001646074084166,0.6560429603001255,-0.4788946807609836,0.01372586440918385,0.9051681157875455,0.05276567198836062,0.30215773391942885,4.797116982061917,-10.591158593216832,-3.1569266327805483,28.57141755359689,-0.7548699981864044,-1.4107396752012398,3.6976025509258865,2.170831156473939,0.6146332964361465,0.44574976716101433,-1.6332199146906243,-1.293095005077834,-0.8885009415332966,-0.5715819960693191,0.7594429136917951,1.2472046981578884,0.7554499766790932,-0.049945429079956846,-0.2882672058234154,-0.055892333093308856,0.16947419670457636,0.1959251569572303,0.10076920152193135,-0.057854564975312224
1.0308853905758604,1.8551132265688215,-0.6310949024832103,6.955608325415708,3.606796083300216,-0.992950246551232,8.3836803581172,10.250185873401445,-1.8788412213659518,36.415898092781305,15.266531364621658,1.967154691899102,0.4120655597714457,-0.21538080029104845,-0.06730181367780033,0.9045584395549412,0.1750907344506944,-0.06292668103972493,56.20460001436872,35.388296227201465,3.170701078663253,-26.29838297720867,-32.285765100458285,6.227265837959356,5.974232997585563,-0.6406598076109264,0.12158508500047638,8.473748507287155,0.9533839643664873,1.7946454111149481,2.3648022939081725,-2.445798988919314,0.13376792161818915,-0.5446541768844081,0.9832702898066699,-0.4901362024747478,0.34267412034239025,-0.47746280864514634,0.026949886208768932,-0.06687382626760728,0.15716616700619312,-0.056379085599292986
-2.743008936812134,-0.7511761024682087,0.20874336646042604,1.204452574108013,-0.49446828908143503,-0.3673102927661524,-12.488209096230232,-4.486979864695343,0.14368999316918107,17.608109582244833,6.053317006230565,-1.3463218909946195,0.5510208670291058,-0.2701380742039493,-0.023263680055942763,0.8146025852023727,-0.157321684743515,-0.1047632240466619,9.848359817683997,-1.2091930909356603,-4.388550800217664,2.3046820055795973,-17.008754239398748,1.4144677163212322,3.6537940742266133,2.071730562347531,0.7486873910807116,3.88231304549398,-1.945671741044765,-0.40255916307648626,1.0891906492829313,-1.119667028988984,0.08169001664669041,1.130414838624663,0.7561516902248425,0.25787237392148465,0.1526201673893789,-0.03891588303561444,-0.0517688538828394,-0.048519077757113074,-0.16299689647154159,0.06856999103295296
-2.0889226045955422,0.8630331115045238,0.21075707620238765,0.0037966142588122943,3.680098088832864,0.19841296492959665,-7.058458205965471,2.673484234058855,1.2115384168640642,25.46656575457557,9.90296428591902,0.6226093964068408,0.5830973797898009,-0.19867098053154872,0.1518951625257226,0.5017506754819242,0.12753078617859817,0.007698684664649349,23.820815491936123,13.25558139235366,1.877488676986474,5.038020816136141,3.5946525969515513,8.625296921284626,7.795492787312348,1.42730732532918,1.1594580207121348,6.415078735561162,0.3173234278793098,2.129888688636107,2.9819536219447342,-2.6872087693644304,0.3552646365579172,-0.16633167448873562,0.12407151594550099,-0.06645369093388864,0.364746676169849,-0.15112574027400816,0.0076894732183174375,0.18677081548484073,0.20190452033485629,0.009237206802106795
-1.5325183907823243,0.6513283990237889,-0.3642742801961045,4.002650663933548,1.5078795080890532,-0.47686245912415276,1.6008020146253332,4.382889523731797,-1.1767231589482592,31.27738129135602,7.428608817833385,-1.080074146648788,0.5342170741936386,-0.438589553214074,-0.14630500904080787,0.9345825825569427,-0.03848488799037071,-0.02888321922122206,44.33998746174084,17.51992198141427,-1.4793309689401875,-10.089908970888912,-29.081070818579636,-0.45127066981962766,3.707770630621399,-0.8190261355169031,-1.2920718419186723,3.6586199726474424,-0.8173268143254863,-0.7034270605353682,-1.8294715571767857,0.10538628791923849,0.39148536134616624,1.302265558735509,1.5940522661941359,-0.08007061894403762,-0.20221560313203651,-0.22968334607764995,0.09575592711918196,0.06463215991974129,0.1233907470869457,-0.031749519304457206
-0.09552689731681138,0.2935323606395662,0.15664592648245387,-2.1997245229768283,4.212334763743271,0.5144869087616546,-1.2661678706003703,-3.624695509655012,1.33689095058486,14.395576137003,15.918378079729958,3.259631620366616,0.2248700783881764,-0.011742916028632066,0.12419789444591425,-0.28647793307275593,0.20832697011536655,0.1644794488299657,17.464624114710652,9.359664269759525,3.8493870867627016,7.445092049987718,-9.475432843578309,2.595585372452326,5.028110089665686,2.1161524709025348,1.454378996297762,8.631686300436598,-0.1628978044268941,0.7118830257573161,2.570522644325451,-1.7234718868686631,0.24475116425494667,1.8982307810598185,1.9216670062365637,-0.0851801504779544,0.14428450573084853,0.03716088041958986,0.07241037950669608,0.38666142825815253,0.1908450212795912,0.024847113520675982
-2.140426352365169,-0.5256684431065122,0.058962969926074575,8.246846232998566,-1.9004844405519339,-1.28954679265623,-4.739330680504631,-0.06555070188488818,-0.7873317747155484,33.76745068284637,-6.6967699283067015,-6.405799057486603,0.8716992839284714,-0.4605749033279635,0.016346174264322007,1.896447042580845,-0.21436420517205348,-0.28935464196347854,35.28914764006683,-5.283124755104238,-9.147338046293198,-0.4792241418052285,-3.3096958972536235,7.392962558460346,8.775230621604898,1.723597394774429,0.14697054994022973,3.6180249877590054,-1.1806571193580697,1.563403386771782,0.5086092927287039,-1.496106974010699,0.3784743469443776,0.21806383893801276,-0.5267497740833582,0.7386154243277627,0.18471672781952855,-0.16029285653199887,-0.02137777296539341,-0.14491383981950054,-0.14312955630894583,0.14821171187549972
-2.497653094444933,1.2136350848516768,-0.2846904755346644,-3.5585173051367276,1.9011836222766734,0.8958683446829193,-8.367564657722971,3.6409415023190173,-1.132482133454362,-2.0584332223160335,7.222540375841359,4.696284201997947,0.1280085786971829,-0.1408953465825338,0.019487294732719943,-0.13583236672271712,0.17646509493458598,0.18915655927297895,-11.505932555632656,8.9226093630879,6.55194095612168,15.213948956161135,-6.537528033509448,-0.19413716676463216,0.4845651931264633,-0.9268795973876052,-0.0663096547000209,3.931399147350822,-1.4486611544649683,-1.8532403254965264,0.43528729902074087,-1.2371471370234612,-0.22631966472660847,2.2849797329486687,2.219500933852546,-0.5416511918330134,-0.08441491794490541,-0.28073187619883105,-0.048959966018495074,0.46593096215937785,0.37830930377905275,-0.18964874764767897
0.3293553504670716,-0.9419046599428182,0.43439544450731526,0.7970469753680138,0.5312722580386171,-0.22634632655251966,5.4937204386999055,-3.0329360919696517,3.0135270809398373,15.944996624768502,2.3384459683032666,-2.178024414720196,0.755573886670875,-0.29773726466095785,-0.04215389839203956,0.8712815269892412,-0.14318885969175058,-0.1035123009250072,28.586129347109775,-0.7506603924047189,3.9587033929860973,1.1442158029318463,-11.846184382138423,3.4536235518132194,4.088736188811696,3.3062509420234116,2.123335328332851,7.5669824410174575,-0.4051980628171987,1.1921969875554257,3.5784675646076027,-1.7431993703447957,-0.14851574638708917,0.6289305881083356,1.1909846766025782,0.12622620753392463,0.5359487901846013,-0.06552637243231996,-0.037094315995003936,0.08497291750852681,0.006213599406606616,0.13828855421168265
-4.594320631560617,0.6543312858568051,-0.612712496890801,1.0973782719280352,1.4319684378576485,0.0473014378713602,-12.696528084831723,0.9158122929287734,-3.9128395931019724,20.368237159898936,5.1871338095745285,0.7471077112211182,0.15693556850279483,-0.3289906456370841,-0.02653703238223541,0.46940987915293897,0.11598439589636493,-0.008601261219906795,13.15254680846609,4.6699015861634265,-6.231363593975525,11.396742700884099,-17.871799466249918,-1.8261639249020125,5.924652431562394,-1.4993849495113991,-2.3377026378574834,6.278499466547878,-0.4082007551617134,1.7821727105816523,-1.0200022055180407,0.5600433953418716,0.1101031687332191,0.8103435089740746,-0.0659136422825652,0.15174698328904387,-0.12328371310871247,-0.04837553962065021,0.053140803968493994,0.1718407992619224,0.03603645120241563,-0.016504298679868922
-2.2341682289626164,0.6038478599088167,0.08267173082771487,-0.8884226830588428,-0.04804246496922973,-0.09469461217958922,-3.276512165737388,-2.404141853177629,2.679442965865943,-0.6094710214020049,-1.344749396376303,-2.9490790276270813,0.623377887662805,-0.21659255915718015,-0.00985935411831729,0.7796025817730615,-0.02689123685374859,0.010505817238538048,-4.06189627168644,-4.64512204595201,3.137990704396777,5.6958525604099055,10.862836305661183,3.465138097273783,2.4184596990569625,1.071430591608885,0.2567197669725259,1.7805570089368685,-0.037311459415752604,-0.314936919511127,0.31701705614199194,-0.5352649091637339,-0.10347062831772282,0.19712013342198473,1.15485357031159,-0.0613222004719576,-0.17888343557303343,-0.023233081529582502,0.005234083639700049,-0.10086420043292146,0.08209064693577132,0.01634379548666866
-2.0149466918518013,-1.2080763985753156,0.14358413964648853,-3.281741056003154,5.8122153575743996,0.6154432173404413,-0.3601630098350597,-6.211603537412285,-0.724608602657617,1.4268455578825303,21.399661731856863,7.243121925792265,0.4323862191718753,-0.28292823592118843,0.026656297612059548,0.30963698429464026,0.40683044365899834,0.13867548223675763,5.463527273951407,14.158138743081185,10.523382838482014,23.92364540916005,-18.504811243510343,-0.35939406196380913,3.311052630004578,0.9796717710141052,0.3061893100039006,4.813862285582641,-2.938153169921508,-1.2130084249499917,1.0642727723028673,-0.3911050196408809,0.14751485070162754,0.7604289270047199,1.30369330158356,-0.25103981888538446,0.23762513486154824,-0.18128180722982692,0.09386269586407514,0.03345061091549445,0.046038185195477824,-0.043756493718879935
-1.1897841620857807,-0.4471155087237513,0.4527689435166658,1.9296390762308728,2.372228738284242,-0.15514996748839463,-4.25893663416773,-0.5280628452608249,2.910611873311741,20.55407982925565,2.909785147276181,-1.6489780555470184,0.6977340682788068,-0.3725043032117722,0.05077339291753341,0.6744391715849124,0.02027242901068528,0.09186631668759289,19.672274449812885,3.618884508618839,2.173832844065796,5.875481486232571,-7.644692384497726,3.1064587280214746,6.8570442937844485,-1.4198481611084002,-1.312638276181152,7.522864586949786,0.7805833453975924,2.371413908917528,-0.020146956538517845,-0.9009072846967546,0.07360993028353321,0.27712823818070165,0.4209283686037847,-0.21978214047988767,-0.08510701760042717,-0.054764653454871366,-0.04718394527894889,0.13962966576202424,0.20368842018984223,-0.07637619543570341
-5.751841031626455,-0.09933010530752737,-0.13214910868023333,2.800807577613884,-1.6762802139400386,-0.4554969670573322,-11.909802416073283,-1.002032399709506,-0.9052686695010334,18.89005146565273,0.9540432054839394,-1.5798213345591328,0.27606693694051826,-0.2884955069120404,-0.04561354501448399,1.20140818211827,-0.1406506690705491,-0.25932912734335206,9.94584007413388,2.110648792796102,-4.374215050771838,30.336161895395087,16.842463325178215,-0.8326876412311889,-4.222235031461868,1.6931205483055165,1.8334004605541732,-0.9473952926644937,0.0752427656607717,-1.860626338813405,0.9938843005175815,-0.5417967354553761,-0.3452214082553651,0.9069724251939674,1.9765501411497821,-0.11415428663916763,-0.3856304605984233,0.2337064865913993,-0.01752477591103643,-0.13717099948529704,0.250705280510688,-0.09967099737261044
-0.9456484724960315,-1.7968530850395728,0.7587480137759479,-0.9669243730003699,1.3653838184110274,0.15458489086801713,0.7087392738228929,-12.988325153748802,2.896226889621585,4.925060240919248,4.395267512239512,0.7825069791012353,0.48692722034427255,-0.30773699486430534,0.06575881263410327,0.23646326714431085,0.01991525338991077,0.06325259677338682,7.369347236910769,-14.845307446058342,6.5375231185539775,2.2975423615925177,-10.091459615633273,2.395030446420484,9.266416019482662,1.0561908570981975,1.0750716004200256,7.418151853629517,-2.5303267368300557,0.2177552057302582,1.3547008578364599,-2.0082396594620913,0.631304481860772,1.1067522453323464,1.068362287738793,-0.005024970119334025,0.25722785334722437,-0.09178155667565571,0.03411232719443076,0.24102277651760917,-0.01373641241049425,0.0772346867150282
-4.73456,0.5495200000000002,-0.67685,-0.7663499999999999,0.8483999999999999,0.08441999999999998,4.32657,-3.6331499999999997,-1.78032,8.8318,0.8812999999999999,-1.0462899999999997,0.45804999999999996,-0.25725,-0.04759000000000001,0.7416800000000001,0.13534,0.03733000000000001,20.24135,-2.2142600000000003,1.1441499999999998,25.42456,10.577379999999998,2.7098,2.89423,-0.15030999999999986,-0.33585999999999994,5.62824,-1.02418,0.73695,1.80947,-0.6522800000000002,-0.32110999999999995,1.5703599999999995,1.0677199999999998,0.38067999999999996,0.10376999999999997,-0.17399,0.04804999999999999,0.27396,0.20469,0.061059999999999996
-0.8908528086256633,-1.4784379967780772,0.6099628328548019,0.14544462376632458,1.697110425306,0.30833684006815404,-0.1889282375970004,-4.845084165005966,0.5409392621874147,4.70271776812831,5.685759932771307,3.3766341527158716,0.47670723340482307,-0.19373138980186655,0.07909498615542118,0.4704916368041404,0.04120599413799442,0.06465685388860565,5.51172864477849,3.4534171007841215,7.806705153910037,17.390422893026447,16.802868543090913,4.781191258365916,2.7339188137138857,-0.13076104056611831,2.1535124780877553,4.074658812796237,-0.23455032437008744,0.08205620051792054,3.2161654560144117,-3.8970686726048323,0.241750985857745,1.0619687354228065,1.3111725369396088,0.04800896422133609,0.40269302024618575,-0.7704443197515238,0.009827609106701562,-0.05794698134956471,0.03606066906980074,-0.023921477596468618
-3.209724308309127,-1.5223928190571119,0.4313388593631569,-0.29176601696380994,1.2116311642685962,-0.045037492558531574,-0.2558676440263736,-11.577980433950023,0.9153443650071108,11.158418171021209,8.407815447469634,1.213772133970301,0.44092091255873184,-0.48851134464573853,-0.04271183934736142,0.47140144998043765,-0.08235361617159824,-0.09340320032808208,12.327695468997076,-12.611326109769587,1.9050751014441485,33.37049350160734,16.328094269709027,-3.9758185980878804,11.896927396454187,-0.08938392190525471,-0.8234902272185178,5.472221382647416,-3.055689458417126,-1.9974294184303156,1.5633787460032362,-1.2107258053382643,0.18440238704370376,2.2235954398687716,2.89345484228891,-0.1130025159198326,0.32171908928733556,-0.15718904215098414,0.0030537241436737394,0.5100453138081884,0.49308940754253905,0.03711867925211955
-5.537495567406205,-0.28655392664605894,0.3234336000932301,2.507144070697227,1.2404794142936646,-0.27872731532758793,-10.835254564427593,-10.970040463500728,1.2677132531137065,12.848058338486739,0.8029831379154653,-1.929211799661612,0.05651101679672465,0.010242143177379676,0.046737780547320175,1.1116942492178543,0.14235761169750252,-0.01745546183400615,2.179646334434113,-11.595122735798826,-1.105363018139568,32.058848258173285,14.821651471202587,2.1069036414955455,0.5122332762311108,0.8259603253393656,-1.1820154259820213,5.811614925934632,0.07362965606423258,1.5456171972376647,0.7131032458942131,1.576666887383111,-0.9550999651949945,1.4894831255139946,1.0610779011466314,0.6981380355710453,-0.2789702639271598,0.6774480390000073,-0.16291886256489363,0.04917290780093637,-0.02753290955507352,0.15555901350730647
-3.481367781132837,-0.6160724940403238,-0.13779176190979112,-1.949816603136688,-1.0969909844707444,0.16474281342690164,6.756969757287336,-3.8489355214932615,-0.8405593538375306,2.53215627390046,-4.332352937908864,-0.4400362376847397,0.6023930838285136,-0.38196532682339074,-0.026765383281302905,0.3720786739480005,-0.04199569394281837,-0.07015099858139598,13.389747778888756,-7.418902675612018,2.938652154659671,34.7669614188705,37.00445851679038,-7.813591051293392,9.070929977862171,-0.6621546982373792,1.9097519787639794,1.5064343136130538,-1.7464995385854247,-2.147765653958822,5.012426019747709,-5.069170512167879,0.5901228070673611,0.8820960751150362,1.5811641878857703,-0.7836588974405814,1.0662393160032693,-1.1243027769794087,0.05406753718265402,0.11124488642130378,0.3263282399933609,-0.2757471050891078
-6.928800447915176,-0.7390517672016277,0.4533730260782234,0.0649822649935403,2.419932721260281,0.3514427986175699,-21.970567586972546,-6.022039492007152,-0.4052716776047933,6.834980208221282,5.267352917748119,0.995185149898533,0.18163481604076018,-0.24594446795288724,0.037260657389138974,0.6136453102786834,0.24034118678523,0.321891035997699,-17.425625096703378,0.3032538532985061,-4.941822258042784,37.03012943011463,-6.336786073012649,1.8604634853875752,0.9922039205276123,2.062234954063648,1.7333911230552776,6.492403610936285,-1.4207657244622982,-0.3828268129369547,1.7298716692218101,-0.5139215022354217,0.31076704563063445,0.4413308329178629,2.2553628010124487,-0.37931002630855354,-0.31712733478811544,0.4610201759629229,0.08181672883815658,0.011181992932907111,0.1709952855985243,0.033064470291811345
-5.151843531518058,-0.31029081121101576,-0.31703209670280325,3.62696292197969,1.6326187806440862,-0.2551547814328362,-14.50521948339668,-6.353127524300721,-4.044110981352796,24.06247527195196,4.905623044964711,-0.18041726692139343,0.3839396841324651,-0.4057975997697656,-0.03839767109094301,0.7443174919925951,0.00799089152392754,-0.12473999259333951,10.239803245832848,-2.327029769485019,-10.604559106026631,22.26928557489127,47.96026343673678,-14.84760904449357,9.388390255692403,-3.926862016869352,-8.351687787930132,3.0364255909725655,-1.117609817397387,0.901897926541271,-1.6825402757856904,5.400030437520324,-2.4937571950292194,0.5590895681396806,-0.48054995729039696,0.3822848000820409,0.23948681746950048,0.31861067955042327,-0.31191285280797415,-0.019654535609505502,-0.26264869537424695,0.05935604084437331
-8.38079457371988,1.2651418198115758,-0.902464893723379,-1.071558367066579,-1.7287624861419817,-0.10903142529242671,-19.73894167604972,5.030163356486552,-1.5573535873866071,-0.7518717558664871,-3.9627417286270066,-1.5235415946808613,0.11360256280153512,-0.20132200749338852,-0.16475824050651797,0.7776737544078325,-0.13833504311976408,-0.0973550394758985,-24.16144055590437,2.615565318945209,-5.329383757356506,59.65357950141712,14.894805355736832,5.592243200696508,-0.75695443378573,2.193788607391887,4.705319950560872,5.31738005989963,-0.8694130961697839,-0.8315796604117051,3.695520702071773,-4.479577556573987,0.9484760216182622,2.372980562575259,2.964110354501421,0.18268688054648563,0.035123384462124964,-0.18806161857324563,0.02487276668803934,0.488561621384502,0.6782393415692184,0.019134404141872834
-4.5997273905711,-0.08527779140762606,-0.6201515383674395,0.7590299470319193,0.8039489808482264,-0.05281710978507539,-17.54571032835945,-2.2331527101562876,-3.3606663659808707,18.043414769737794,1.5319477829193593,-1.4944836051171895,0.28081264919029153,-0.5389736771649133,-0.31738240936938045,0.5646258461225205,0.12055358631909167,0.04864019052728771,2.2519327654767585,1.2898060188551965,-10.808351529762755,26.779307747450826,33.66076433498291,-11.562996799183379,7.589621734332778,-2.416981011904348,-5.844987895222421,2.9753579638268177,-3.0241763471940897,-2.2317331849954853,-2.309577190318108,4.265744780785036,-1.1950623540774687,2.055229122366631,1.8389098875211076,0.24760640165136508,0.07906173358235088,0.18393426444799196,-0.049201617937922604,0.004396708381414314,-0.10337559105432874,-0.0016618847617131801
-8.172577865418594,1.0557593188237429,-1.1094159890903068,3.2159294670574954,2.0959055443233163,-0.16331612994768518,-18.786657740891584,0.0052919053458604925,-4.016940055476917,16.572861985734757,1.8333581580022498,-1.6958253598932405,-0.1638059625719774,-0.25972654219698227,-0.2571625732084371,0.714545540264611,0.05957185186456666,0.03998446685592383,-4.461873171402392,2.3876698780312373,-11.955811957125631,28.851721889089532,8.280009244898006,6.380561105879881,2.567244650631096,1.4731065269474555,3.855620559499177,6.594195757478547,-0.01626071901581276,2.065473895572745,4.021343854320992,-4.690589544309815,0.9261829454313937,-0.12565966921376942,0.39206037598138094,-0.1645723964099131,0.2601463985741231,-0.6155878727378774,0.13492267302527974,0.19438788289140946,0.20319497278691678,0.04020933095717184
-8.244507498016473,3.4526759331728645,-1.9259547211754748,-0.15056424325851786,-0.4868882981261209,-0.11488424579791001,-21.007177476666282,6.522754441088029,-5.354008140597774,11.021662373394776,-2.3456880442508092,-2.1661112522189896,-0.19619922864004471,0.16318302256598824,0.15369269356492435,0.4523383379068832,0.2088102128575662,-0.002984712105720601,-10.155385915958027,4.1818550815423725,-12.507752540953847,62.354779568326656,44.209253412403655,3.1150880477183995,-0.5451529015691899,0.6448174726746844,-1.0894592259313367,2.5650871225017284,-0.6416171973906324,-1.5056355366539405,3.2641543794413215,1.7809054091018934,-1.792455758285897,2.7472435833317057,2.888177226547168,0.6862900027160291,-0.11019325236625743,1.1183529007539135,-0.3602102654815972,0.2864274558453195,0.37086892100984337,0.08691209816231846
-3.1091412763502424,4.42978958700533,-1.5545972735602924,0.7881334520091374,0.7361935845781237,0.27100096469639967,-10.404833435695561,9.56490782450141,0.011575844808666969,6.062277939320375,2.9804005706774923,2.852166347617566,0.1530816985886473,0.6990416261965141,0.3998845810901991,0.7842206395602874,-0.1482086977508813,-0.020963086824622244,-6.655830284441414,22.935981063408235,1.5033824031131997,26.887381135239533,16.983123764797252,-17.98003958945194,5.767203878054521,-0.8420268018672356,-2.8042996294540075,1.762870081588551,-4.05045459576533,-3.8451807072907136,-1.8548860346973923,1.4335046545731256,0.13441706037906567,1.4942867409902263,2.319579751300838,-0.07259861722373473,0.219033643423257,-0.3556470079129884,0.16850182808372466,0.029899685536851163,0.10204327827921025,-0.051828471765132146
-5.404659982102828,3.4618133177851425,-1.9578225255429147,-0.286889764162483,-0.6853650481617926,0.04507759270008571,-6.633359949045452,1.7002153494919532,-5.213408474861952,9.201899734140007,-1.762127788655583,-0.7383711859840977,0.34072639733423865,0.1636362413234447,0.1902069835440832,0.32921948656694205,0.08499704737045449,0.023030995891881477,7.718175300740986,-4.121403477964579,-7.739739681668189,33.34483674328451,41.38396650035601,12.58347214370829,3.314945914943734,-1.9800248053412426,0.4618508646533051,6.893411496311995,2.005254524566939,3.3003177391181753,4.368299537706036,-3.094201634633993,-0.3621884637329001,0.892587806331142,0.09629132791394061,0.1505033342216061,0.4706111875223045,-0.6805775674127481,-0.07535328140255311,0.3644866924559693,0.10011488745933064,0.051790496126000014
-5.275800819677992,-2.509187086636745,0.8381015116787768,4.028885594502879,0.6633457616207974,-0.2477800951424729,-9.727227289816144,-9.789332777586978,3.0851020472080464,13.633430142513372,0.39887882772860606,-2.0148802400042043,0.2644589360741798,-1.1678754658464843,-0.4765278007066003,1.3116362317968193,0.0030862545382510757,0.04956266640445643,-0.8446758239305165,-3.171705112262652,-0.5386453979990712,30.131510238761695,21.253623011163775,-4.2900509146529044,5.708781507890043,2.6256962993328914,2.7290982240907877,3.3533040062810597,-2.906236965925382,-2.3454574414718166,2.9164717096886648,-3.6428430107934373,0.8834744911317822,0.8617036929414112,2.3262983255152356,0.06700292870020144,0.6149708812820324,-0.650102858497253,0.03318713572154662,-0.07997574002762921,0.2532752160387205,-0.015036315034379879
-3.6951240255704456,-3.0662819759507305,1.435619908564438,-1.6768402335103618,1.19748456581211,0.06370615575438648,6.110307553400462,-14.195755227801182,1.0116901532039497,6.9852657153848385,6.5771515914829655,1.4746312882537245,0.2493843197215887,-0.5447185318583558,0.12291991190958348,0.1823269493718418,0.025849280212119616,-0.13718173401354086,23.985124869865555,-12.729207685182079,3.9174176500017364,26.073564965407392,20.251178102000978,-13.204647101532572,0.2340665027072561,-0.05298339050960241,-4.458074261705273,6.459482078477538,-1.1382622980892352,-1.4610795062738096,-3.7024587505400235,6.96634869869805,-0.8893829317342103,0.7194056317644898,2.7808354393343744,-0.4584790500439726,-1.1405522123781786,1.5945694106878827,0.25243494652607856,0.08599481112544363,0.1459101396348979,-0.011731240273094787
-4.334447399366702,0.981901168998565,-0.22134198790682078,-0.5566320065293877,-1.242212874297444,0.06557571143301551,-11.866004200840948,-3.184113539604196,-0.7906290723793135,6.982472618251295,-5.387785337662483,-1.2512195214049566,0.3190954087600331,-0.30246591854920973,0.17539904184780422,0.5412915390175101,-0.06503169246845261,0.024914442219511508,-10.138811381360027,-7.33985284860265,-4.452943717286465,33.83324514640861,66.82311951979217,2.14460801711776,7.693464043366399,1.2824808846746338,1.5654318510738543,1.9217306730989896,-0.3627890194577747,-0.6606000405376811,4.847715796656999,-6.10717542829618,-0.46636275575729225,2.69469370828654,2.0192900920145407,0.9811247351412932,0.9719891587529821,-1.4471037561002422,-0.4358857637489333,0.28056357893640016,0.3947460452471082,0.05096453115496294
-5.0949302954806885,-1.6048541105038678,0.31273657067392147,4.394145964452706,-0.05891269781857578,-0.3591851910074836,-2.5977609786972664,-10.276884278028682,-1.170899041612955,34.721053032029886,-9.092046373336526,-4.702605569989327,0.05386690370724648,-0.5296823980026298,-0.1864439484791867,0.7512220621153045,0.12932302164827383,-0.029796879324028913,44.93365462119241,-22.923470209127384,-13.177174174429648,37.39115946932599,-2.234205106788597,-7.0445856831238185,0.7866021032187924,1.1555561337511504,-1.0387215102492176,2.3767760811251173,-2.4706405580634057,-2.8797603669256637,1.6692357255932622,2.2316729103583994,-0.8909267048992301,-0.41000262560398915,1.5803765594558419,-0.8890439224423934,-0.16195718990020136,0.7364275128713037,0.03940305304834772,-0.09529058157703643,0.04071669962147048,-0.15657410818166395
-6.40748,-2.26823,1.4233099999999999,1.1412499999999997,1.3700099999999997,0.05181,-21.43349,-9.676479999999998,1.7598900000000002,8.80918,8.12805,1.47899,0.25604,-0.50597,0.12960000000000002,0.72324,0.03318000000000001,0.06380000000000002,-17.24014,0.17755999999999927,1.2851499999999996,12.064389999999998,21.85617,6.2585,6.678779999999999,1.66493,0.74951,7.656659999999999,-0.39478,0.6708700000000005,0.40327,-2.4445299999999994,0.9592100000000001,0.027959999999999707,1.5245799999999998,-0.12661,0.25878,-0.4819999999999999,0.05455,0.08564999999999998,0.24977000000000005,0.05107999999999999
-7.996354019576211,-6.113121211150722,2.6883047428646694,3.8824183814200266,-1.6217685779890638,-0.342512842427193,-12.440989655779951,-34.233427071393734,6.787277313829856,31.516111936208638,-10.62447247023149,-4.068708268375353,0.08643692064911683,-1.0319045640804094,-0.1445660999118019,1.0052554219523198,-0.10792038540977952,-0.18144208595614345,23.486816278914162,-51.05684750979222,-2.732348983603751,8.929809585975566,32.80315553224454,-10.61299852396853,1.0201659610248417,3.043397598102029,1.0172055743394566,2.257325901115428,-1.9204283169206435,-2.395526759833984,1.3857898259212365,-0.21513872630210296,-0.36947133549462385,1.5509385097394006,2.1570745132117013,0.15983182096529144,-0.3200402225120134,0.16973441094986097,0.11065441137247709,0.18331806590312028,0.26759228648692857,-0.0280278622676184
-0.4300984341835205,1.439239622486562,-0.7356707474356728,-1.1483202075600587,0.3916427511260337,0.04488053368099246,12.199194070941655,-3.8133262460128323,-0.4537947574179471,10.63396208114813,0.753611330834008,-1.933271521279085,0.4381523882132268,-0.26564583406685044,0.10757629362452575,0.5675092215827686,0.18210647671660501,0.11850407013532745,30.425736289693425,-2.5073516758642898,0.80081146965821,45.67099861965209,-5.421182890545227,-3.575911402609031,2.793813995208969,4.144948859655482,2.6220344968525158,3.8384576219224655,0.25032134627485864,-0.6664393782053072,2.3126488018555453,-2.524813577766124,0.251793384053357,1.271329838121542,2.36727959270873,0.3285311706035283,0.6005457106294749,-0.50945060886565,-0.064158358514982,0.1472448982997665,0.19982119317179917,0.08470402743664282
2.3816998529100037,-1.113130374847606,0.31664495806686266,7.629722682202282,3.915518892657116,-1.1764669418878206,20.734494944242222,-10.86085465322543,2.0922095794854423,70.57566745359098,3.5145807934637494,-2.9639691011290723,0.647384025106109,-0.49502293776127265,0.24956877084669357,0.9387701048309929,0.022983588098523085,-0.1928073966655763,113.60308980440814,2.293197048203744,-11.28466206721006,1.4858146867760864,23.86816846598399,-8.522916496748657,10.419794722571636,3.48905513829197,-2.9488839559937765,3.547283282691878,-0.40370371959990164,-0.5593503496926259,-1.5206223111326906,-1.1388038691763613,1.2548203410512206,0.9182400436128669,1.60227475594089,0.014710524519485355,-0.4677028715947057,-0.015811836037554816,0.23310517420788707,-0.02998082519652642,0.2396613133098354,-0.10463809441642782
-9.55200796918473,2.4506061867249898,-1.0804769011469049,5.849278329462128,-0.28324251329103445,-0.41685205581507334,-38.88590529024888,17.347187204858844,-6.894651445361725,58.90185911743911,-9.246475316351383,-3.7628447789818096,-0.07180045110385838,-0.36870402278847436,-0.3016145900464176,0.9735154659842592,0.0034655660229773256,-0.002815455805286116,21.24645780856231,22.35612557599256,-24.488724860127792,16.763215876002082,17.17419297758269,-7.267089389554944,7.195464961068649,8.437687989910318,2.0411814211121033,1.4312474165618334,0.026311014654973763,0.31312646515816245,5.421465762731504,-2.7444491522282957,-1.2329144310277462,0.71114526806829,0.7518794847860012,0.6196164175294198,0.5506438052876823,-0.1170998750730475,-0.1444996297984839,0.0832366078989198,0.14591150678644227,0.1582221158635961
-4.452341777015316,2.3429478326073876,-0.5652026618344681,-4.190139164382822,4.2722858537101995,-0.4975244704929182,-11.82953497140051,0.09687290728515127,-0.286521715946091,3.4693955188048053,9.666193345519424,-2.0819671750908193,0.35301632615960626,-0.33348222281250933,0.12206020705477041,0.33230116906053986,0.33957125025924884,0.019912952748924555,-6.529593465113847,12.170966670342409,-0.047131865320101496,5.7544390805181145,5.875339809791326,-28.069475129000363,8.731691776641854,7.790419852907729,-2.779922281672273,3.3875659540005896,-1.4021243420361424,-2.5543171682444297,-1.062659161274855,-1.5311767744712952,0.5225243037143189,1.0123485102530723,1.9792629582229813,-0.8732919504914163,0.1507476073469162,-0.0954922211889969,-0.3855756065631245,0.06404200044434238,0.20656410143605516,-0.3146418471119287
-1.3230120820269855,-0.7031988609028595,-0.11776488414760203,4.224783475327404,5.431672773034569,-1.5446147259664802,4.45777976863927,-4.729452109151771,-1.4754193173478032,16.717409029953053,20.396754397393522,8.691659096115647,0.41126848012772055,-0.47009079147930155,0.009294683308960192,1.4104873431891487,0.18584636451419445,-0.024679933407236697,36.14419949618216,21.55249306567782,9.059554391929552,-24.642202755690093,-28.885591462689796,-12.617615312644174,14.048917560035287,9.3560747742194,-4.192930463858179,3.367575681436136,1.9623316870927068,-0.008700463201075107,1.6573278038490649,-2.8868827423975154,1.0983773702819122,3.0175730097347393,3.1476675729480097,0.9651444592253238,-0.05349945299058509,-0.023910634553825603,0.2954077529312292,0.3408412564832465,0.5227680722473045,0.1661799874981324
-3.045276023304912,-0.12688546151237592,0.32824357755760014,-2.765613333374759,3.4572883220916264,0.12315836169799842,-5.011075914894208,8.42667416266127,0.9958244327832412,-8.527212537734012,11.308513513017237,5.532098837157762,0.3323850139551343,-0.651882645719765,0.09708057113059648,1.0570652340460873,0.16019673151207922,0.16260363271809558,-17.15426335619217,33.48147380872032,15.181870437044964,-50.130882608476554,-29.03268634626912,-28.250521575048243,11.571338943017397,8.544813975358664,-7.404623815633818,5.811444351779947,2.079920148128224,3.03927319107034,-2.078504426168041,-1.7486880959128783,2.6464596322871174,1.0429370628266514,-0.7671962710346454,0.3128254947321904,-0.23013184370749074,-0.25909435632908523,0.19271773369893033,0.25439908576603276,-0.09692139887521584,0.02567825894364705
-5.745390236981164,1.822791440318898,-0.02201839209360042,-1.079985245741313,6.566924934157053,-0.38622925795834406,-22.299526004254776,0.6385744862617022,1.992311141234176,-8.939155836689,19.159536890698014,8.55199470619069,0.30614608177202224,-0.3661646567042797,-0.07169780185172743,1.3061688922145187,0.4686822110491839,0.4919226226394226,-43.903723989957406,14.306012766431738,19.025484292417946,16.789975653404102,0.8542468448772286,-18.397260889174287,19.777690648582368,3.674036888412971,-23.741199123383858,6.821293267771961,2.046149539128635,3.2016885971082703,2.2224026510612958,-1.7416581091611192,-2.3062503113094497,2.1553570275540728,0.00035251615135223173,0.8932736424594716,0.6145261721858172,-0.025997288984884372,-0.8251318054339931,0.3111786331391975,0.15672753136829126,0.10847792270667402
-4.4689623649706505,-0.751157936893357,-0.14734127169405475,-4.822739355989525,0.5018762690193801,0.2904943563363373,-13.26418066722651,1.543630437550902,-3.9493276027491775,-18.62724992920784,6.830489647499913,4.376104100530863,0.1659481650279746,-0.5132530669358152,-0.03245172491026458,-0.6575237219888227,-0.23435846231713509,-0.4775540545472651,-41.43024116400679,19.1806014515007,5.902755362519146,-52.71941204927975,20.332164669928723,-52.68972609806399,15.789414626780959,-0.37471339874506115,-32.4754286790848,-2.460848481883659,-0.8304188185244845,-1.0648276294985053,-0.45786342373598526,-1.2499461601605004,-0.019974931808956597,-0.1088813164750016,-0.2795037250082927,-0.15506780425175215,0.4409227744899125,-0.2786497099149716,-1.2714763450201116,-0.15334269176900978,-0.14878526583878773,-0.057639110911424964
1.8087303238382062,-0.8650523893382103,0.3214745123935059,-9.904648276276603,1.3038497792722672,1.5954367784812185,16.61393462951291,-14.187371975405497,5.324298967916646,-22.712712755618984,11.559555880116537,5.000560303856758,0.5963623766155178,-0.6417113573453409,0.0023398801840687437,-1.0531886984445151,-0.1753026222700382,-0.07803920811403588,-7.305038633896288,-15.29443184426798,22.29888894357229,-27.829695907992072,-46.83494490279839,-1.9345111166344282,-2.244603106255578,-1.6476583346113127,-13.689934682591419,5.6241726125650136,-1.324113160150824,3.0643414014411667,0.1668651783620962,7.860953828724714,6.372283636939386,-1.3529098574283867,-2.7532547259116775,0.5041396673647094,-0.008332849932163256,1.2283802668254034,1.3183575770721854,-0.701262442435875,-0.7814659367308618,0.14311459629204223
-3.922239575529229,-0.8199019289396284,-0.07581465536853702,1.754569246767093,-1.5273176274328792,0.44668561664629475,-8.882226751475548,-5.812130689446504,-2.3735364529780663,3.3766584641035164,-2.1873486669243265,3.7173397649962414,0.15054475072230666,-0.23813148747898183,0.004158301973290141,0.38855009286170705,0.015423398311774089,0.29545964599935287,-9.308309685771633,-1.9666143466163126,1.5496567445779355,-62.40426253541456,-5.401948509796487,-72.0731323680973,-8.527699485990384,-0.26574287996952084,-18.618073744428575,-1.6427399942696261,4.320435325198627,-3.1008340383261275,-0.057152605313313454,5.471090118032234,-3.2850951868632388,7.708142706871199,4.394651537817325,0.13004076010618695,-0.3829062288659201,-0.1673218293451717,-0.46349071197295993,1.3878397303226213,0.9625246221143182,-0.176873197585139
-1.4601986132250102,1.4656066212694707,-0.4348080879451304,-13.347830803295563,1.0929233770950009,2.470417835163223,5.638465375640791,1.5115004953402087,1.0362165148996108,-23.54152782336485,-0.4552446826105817,-0.36976010801028625,0.1484239247527993,-0.2610579178487214,-0.046365631043990024,-0.38665233886915795,-0.14212502343142364,-0.2650546157939338,-21.323993012542104,4.593961117413802,12.14168658091294,116.49737108027914,-64.36269859324601,13.62596974864553,-7.752666457786616,-5.5318402804186455,-9.186422179197784,14.533503161159876,2.284364705643565,9.525784800159641,-6.701178668563459,-3.602109206997366,-22.77347534796039,-2.56354065877768,-3.9956833558195823,0.9946121620136105,0.45444845105941145,-0.6871759448090985,-2.3838893403346195,-0.09283475838362214,-0.5943492610733452,0.163689222478665
0.4668133992269202,-2.45934005811202,0.4347688083382025,-14.402626338883053,0.8098205308829267,3.5335685457769035,4.843509895577428,-7.48075818071363,1.2801264654933358,0.6498833048803138,-13.136104329160645,-1.6580927850256417,0.5746969044422289,-0.6943362894347012,0.002754783430517025,-0.8889515878532546,-0.16227755973215138,0.2795757291549762,20.317067831789437,-20.139887294859633,-2.567050288974412,-61.17486936608962,-6.223779147082163,21.018508248488367,-2.6097222363318497,-8.628263426092303,1.3791565140865318,-1.8062771077151325,0.7921697417324127,1.3740295399925957,-1.541296801095093,-8.461624513623788,12.82537429456941,3.53788372303215,-3.1347996654619177,1.6596677405760214,-1.4253261839642746,-1.1249793431622523,2.152162538949283,0.3068671121434714,-0.4066419970125677,0.20927247200277363
-8.397604411624574,2.500955081671793,-0.6389609964340989,3.760325044418476,2.4670363187713296,-1.00486277527297,-21.743530163681992,6.540511100176565,-2.8611404111927174,27.538720005566542,4.040160894610652,0.6638965279340154,-0.15451705497216434,-0.09389914263288772,0.02112047328946106,1.153955919690097,-0.1280778071668028,-0.0907809153950963,7.224690486024811,12.1564490998249,-5.1219985458901895,31.867263409198475,-52.348116020188854,39.72076034872048,-13.992829924781208,6.506165271721324,3.2818989822226996,12.24147671341061,-5.753535491668243,3.1522626829070917,3.3638686676202,3.4536616947326344,-5.423343940512814,-0.19877325643652533,-0.03552690677014747,-0.2471464153781034,1.072877021433599,0.343376124057686,0.2094636433206925,0.28677793226265136,-0.28144439481474526,0.018029493560641784
-2.4556609029510246,1.1965004808931978,-0.6787884874649494,9.44437918196831,-1.7087555470159492,-2.2385018489305977,-12.340315715234883,4.913375684055338,-3.6915518424876934,91.11536194452869,-26.750936406583815,-12.651240927966777,0.652865010057025,-0.823658594768749,0.03555982913286339,0.631993267918194,-0.16814748407139027,-0.024206600855710483,104.46672973086555,-18.31387761097675,-38.47384396152727,42.85494331518303,-93.66074580865941,34.702979166658736,-4.244091602890637,-5.3296789055183185,17.333223639400355,0.6653109028564391,0.22629907387355286,-1.0909098702449203,-10.862596232175685,1.695188262489083,-19.09907207169916,-0.36646570865335704,1.9667797953706043,-1.1726703315679932,-2.530037600343209,-3.46833196556555,-2.45145925614304,-0.5224773161322184,0.9155435451222688,-0.4435417728327839
3.2231517506962186,-0.6292320693047925,0.028820217165563395,0.12012216366868189,5.863432591609118,-0.8065205522424667,21.894474992285307,-9.588777107982434,3.857002292687668,15.668082728355715,10.22456968856626,3.123789631003144,0.40938839908741903,-0.3142952183435688,-0.03241897508682633,0.20144532549365254,0.08488134888729715,-0.13486405704054782,50.935389239875036,0.43991953798078315,14.858809436608015,62.39671851878932,-32.735373074690756,42.36964366990605,11.754373562361758,-1.766354453578479,11.064816410999192,8.489086485467686,-13.769091059767579,3.6781536357867406,3.523285255860462,3.900030714261694,-8.351674732190403,-2.877076105631223,0.0875179081809496,1.6904755047275533,4.144178634468029,1.5976651720989965,-2.5385889147731233,-0.1608886111775362,-0.5282092170004257,0.7063460731551083
-1.09362,-1.30704,0.4429399999999999,-0.6677700000000001,-0.8337300000000001,0.46066,1.2749500000000005,-11.41671,2.6404999999999994,37.62673,-25.92836,-8.370479999999999,0.29235,-0.25428000000000006,0.11776,0.6394199999999999,-0.21381000000000003,-0.025890000000000014,43.08552,-41.37454999999999,-9.734329999999998,35.356,-111.03097,-7.88471,12.895450000000004,-10.33922,8.12716,2.41378,-3.1225199999999997,-1.5221500000000003,2.576739999999999,-2.15866,13.29045,5.07005,-2.3862499999999995,-0.48917999999999995,0.5035499999999993,1.0276099999999997,4.9907699999999995,0.8759399999999999,-0.35735000000000006,-0.24281999999999995
-2.499958660254519,-3.704985231355537,0.6673249919124546,2.7277213660212425,6.3601558285890984,-1.3863864648048203,-3.8920084666418964,-19.991393700989804,3.2005721490419483,40.32058978955492,3.0904765865351562,1.8251728950246078,0.3247066963395724,-0.748217003589562,-0.09105407865874987,0.5633555820882805,0.049490651944977704,0.12087899090155833,45.28260401201284,-14.337512248221614,7.615324750175017,22.481677862599984,-81.83694145390116,36.00266560791137,9.926487166918083,-5.459188610217071,7.860178311736067,4.285923240657667,-5.602267027130801,1.9650690049812591,-2.1819506570368676,0.260324284757682,-16.199658901632553,-1.912452522941738,-0.02745982685492189,0.473502947677688,-0.4423290719195694,-1.8015589855952558,-3.538983635986855,-0.3890958577166872,-0.1358948501384074,0.18247675147855894
-4.714822693126046,0.8605625136908839,-0.5594126013492359,-3.7477886954662214,4.465543871586608,0.6827190444250422,-15.391803699743031,-11.844045570682662,-1.0542311090154355,-3.2650513168571575,9.563390247619909,4.712452305508479,0.15375472637051962,-0.393644217573571,-0.04361297924537403,0.16250092715745654,0.035525455901008265,0.09585730577803274,-25.855029318082053,-8.945595069692839,11.461987148832645,10.622948772868423,-82.68634761284108,24.295828578578522,3.8482987298067663,-12.389542674364812,1.5853735194743073,2.770322674814081,-5.646840469706644,0.6341956092846008,-7.807637506538609,-1.6828896504124988,1.5267263978744563,-1.3277953316452877,1.217284677790611,-0.1409916759604512,-1.1764120563798024,-0.18616106723969272,0.15547184513385584,-0.28363523632547416,0.16746535009441887,0.03685516076364467
-1.4036258117917728,-4.2865413667646415,0.9904190842705817,-4.581110426151821,-0.4163176138733783,1.4987938236001634,0.04943995122169145,-28.28061607874275,4.168452889239412,-4.477389609674207,-5.400914260065785,0.9179721955553081,0.522482314192447,-0.596875217872591,0.12422355036335993,-0.01768461730767385,-0.21475009848411714,-0.11208525521698304,-5.927533959358433,-45.56115367331573,11.467906506598789,13.480965250335217,-74.52303129453144,10.07928763536994,6.249460094795344,3.0990279272724295,-9.806811187252276,4.061235022402387,-5.2326803624313865,1.5218901703347298,7.168728990347489,2.3542427226182507,-10.494387966404682,1.6343828543834535,-3.2767465468712906,0.8189186917695779,3.094642871577649,-0.5855941622994952,-3.2860914503225587,0.15479952512542497,-0.5248390944695264,0.11251794100361481
-2.0580205259882915,-2.704603239703635,0.23665259884030604,-2.0544469071046607,4.2998350951020505,0.2785467170686874,-5.451945238918141,-25.981921572286694,0.5006477346362495,18.686486990600365,3.464237744043044,5.930449043577193,0.05323300454421345,-0.3398103778819697,-0.04576727974877235,0.529947204315045,-0.2026966012619299,0.03718208365211379,18.69518792736657,-28.571107185144232,12.596507143336355,2.081628015430307,-88.6573321257871,8.333615851920756,5.058702945115824,-11.50932555012882,11.165022404649866,3.393178330757884,-2.5078328200877333,1.361817574301017,-2.8684137826449847,-2.316824864663088,19.526947227341136,0.3816536042456164,-1.170455492531331,0.56984016468842,-0.3067703113666634,1.301645441239899,6.502027457762516,-0.0013644580142371586,-0.18452132012875255,0.13628532140522454
-2.889477608688428,0.01251369427564943,-0.081013860733326,-4.040379104331706,3.7272483628475723,0.5726053193155002,-11.670332675871197,1.5665175354771181,0.3654222325183733,-1.4117485751283567,-2.634714308342908,-4.641050291148728,0.6034835446412685,-0.7874610362776431,0.00811490662189503,0.0037203657926516056,0.22643042149484502,0.10902521679630428,-26.606696977000336,-2.587363491723182,-4.417939790070017,-8.243395092506486,-109.68218711408961,27.280780274828267,-1.515615040464896,-9.993406423196165,13.870279564223958,1.4597403430759905,-3.125192158581966,0.7327996459656709,-17.11621818621352,-2.441154028945635,-9.475802134262164,1.7714104639419717,-2.518208104630649,0.6561870595708784,-6.828985967888432,-1.0996524170914264,-1.8977773867599643,0.32492134033356856,-0.31115845920574825,0.05911594576161894
-0.5996275777127017,-0.8274302923999435,0.02381484557793662,0.6649821147099724,5.03407808228098,-0.7869402939889981,0.37198639794853255,-22.854932066977707,1.83216582363583,30.303503829954167,4.778592414072834,6.506135790892738,0.1926508359519733,-0.15233278582275225,0.025031047271239785,0.656032630443802,-0.13267167209621475,-0.035607721518289184,36.12995635099676,-18.685352537318817,14.451624568001044,34.92523281584866,-39.60750186241895,-7.781571812468933,4.993574556616612,-4.692521105501531,-12.249316806928524,4.852519581221167,-9.299843278400056,-0.7081785027195987,4.574917957855059,1.5938584354059873,3.4139512523930104,2.0824029143886533,-0.15837876863417308,-0.9575174023900903,5.780845708265363,1.561334075420241,-2.7294110923533808,0.3000033023541751,-0.1423148420102633,-0.17843012770765596
-2.6764793832075244,-3.087931260271333,0.347147780830804,-2.457698295380127,0.7467695230776092,0.3394123103456793,-8.31071601744314,-15.697513697040836,0.25319454849574324,12.192817079475192,-17.594284141262527,-10.257831470405362,0.43558307145162123,-0.7295595008741984,-0.03553207366648311,0.06110058686822094,-0.09515058624810703,-0.021924960542024453,3.046209901681587,-44.09436180924709,-13.824223721426662,11.82659973566976,-129.83619375583535,5.309536752598316,-1.8229680058751494,-2.392355935357146,0.16415666211123378,1.3025912014706154,-1.3947624394329856,1.0795414674317652,-6.698834868905799,-1.7614487697365109,-5.918921997855404,-0.0917867304242574,-1.3866937063111013,0.6514302417849442,-3.259179920605929,-0.2829490511398788,1.9173414810402525,-0.04620745896486603,-0.1870106360260032,0.11427287095475211
-5.063664913842755,-0.8572488537614867,-0.3668988121993376,-0.3492739166636482,4.472787699018744,-0.48991623951945495,-16.132519370574713,-12.732015724413014,-2.3328026668185764,27.789525520267514,-3.4140155432445196,0.20197660592308211,0.24645432925037297,-0.46252972427342354,0.03714367256174403,0.6062245911535995,0.05864731100639643,0.005022317206008912,17.596029036694123,-15.809425560435274,-3.5176819310764382,18.659451028688053,-3.9538741847139227,7.033269751744854,4.816083691845485,-3.139614786914478,1.1059952884071622,2.617130494828088,-8.998250606712311,-1.048448266979904,0.9920061635020642,0.500540217522676,-0.5665908342402544,1.9411054620469446,-0.1011640853331207,-0.6597008796036883,1.966278522020148,0.13492875383053723,-1.527505972449201,0.3313183271659815,-0.11150981318733177,-0.1167655337788559
-3.4813317837346225,-3.9524580888533585,0.7601710797592236,-3.1630233899908795,-1.6402418601505504,1.057659252095246,-13.775077733624105,-24.216328553869992,2.089934193183099,2.700849292375877,-12.08617672470259,-4.160882902656403,0.03962151149906894,-0.37246121149211636,-0.15520082470126526,0.17225465858609634,-0.3574662053564561,-0.13106568760761514,-20.160645498864103,-44.051111828392806,-0.5295196260679543,17.433570306801773,-85.53054612923049,8.69332425405348,3.435775508929398,-6.266486352321239,15.71307302943783,-1.630048879427102,-2.3881399097362475,0.2074453770405111,-7.604625260996935,-0.5388612354576121,6.187000019718548,-1.4978231372467394,0.28715066034290504,0.5886332895172308,-2.1613353246144125,0.04453055187499817,1.6146555307867945,-0.7047986266333729,0.12190845177772004,0.300263075601939
-0.5164505202232069,0.8147232830658364,-0.39741900887962456,-3.0282420621925494,4.987601972157928,0.3741164380709751,-6.432563642008463,1.6947459281753092,-3.0698182087159123,12.953387668627414,1.5978617624635663,2.4368115327522446,0.5685007695858422,-0.578009371502708,0.22063111026540017,0.16799465640109654,0.18134111749537077,0.18368249028003633,6.070436809851994,5.757763905364957,-1.0619478763289472,-23.360413282430983,-70.49534497999436,11.148390631164364,1.692578908236897,-9.8730611062571,3.7305271121301775,2.672166463592519,-3.65939664528738,-0.2609637451586451,-9.76820716964806,-3.886544420658686,-3.9588150150587365,2.5837830501545023,-2.0023882720194597,-0.1330796166668002,-0.3992312927487408,-1.5882353635543422,-0.9220432374609161,0.45685476823494586,-0.37777443108967274,-0.09743163214646836
-2.946221726981365,-3.3680688389689997,0.5391703476851052,-1.312604933347098,1.3484679560699186,-0.06028266506512669,-0.28099313497342315,-24.387751186051204,4.657036737370004,10.842841015158474,-9.184823314287977,-6.242553711204348,0.1615349896264675,-0.5671544182268599,-0.19493293489675106,0.28725121676741366,-0.16669104414472374,-0.09784735200979784,9.820123535392101,-43.63599273374592,3.7616414094207578,57.26418786340103,-2.058139482439573,-6.69353405885763,-0.3924100333944026,1.887038104362662,0.4183798452668924,-0.8959590080548375,-4.154781904201359,-3.075951303633169,3.0523412858480095,3.593294889011092,6.53129453555529,3.7220050416657213,0.30598396556339075,-0.9138412641395456,-0.03573351979324781,0.7084155169225483,0.6246481657782992,0.35177417034528535,0.01964247827929147,-0.06186490886807705
-4.299639264833765,0.8991536269723777,-0.5815322191387868,-1.7590264955233141,0.6665857727242702,0.4922460648849603,-15.674545108527072,-4.02874145223665,-2.873201225760823,15.42943333196553,-9.72023425476215,-3.759602447627664,0.36500832358883106,-0.3644930146490187,0.07251529829748772,0.4217775095997927,-0.13439743256876746,0.06269799282254543,-1.484767180326438,-11.192826730691818,-12.409960858100064,11.740024157704127,-68.30123991606132,5.8347822320609595,-0.7545676247472666,0.9880907320153375,-7.4843131186075285,7.87616116632431,-4.189526814690348,4.359426596932763,1.3274067051192346,-3.650805679311256,-10.17535960321861,-4.377850208854499,0.026252190721763477,0.8462072196823334,-0.06503276955865989,-0.3703510896177429,-0.559888119706175,-0.0834828092938954,-0.13426764941324087,0.016978650261366836
2.478001302834285,-3.7308114739223237,0.9089335191888931,0.5154997418576538,4.747305879844141,-0.5841190406425357,13.945700785298646,-20.402433318343682,3.680822112549188,24.76360103895386,5.688675483644008,3.8872100406991272,0.41880019350364306,-0.5262989152991924,0.125059024235393,0.427061667142788,0.13442709207864045,-0.004470181076516222,48.33853882181152,-21.39751810463836,14.07649715469308,33.42678855188804,-50.58386841466828,-21.96257192191581,-3.7878529181432725,-6.824108034466809,-6.060587999119013,0.2198124404343011,-3.5743163616393856,-3.99982605188739,-2.2182391308625196,-0.4301463269854826,1.0341667250337143,5.657702750149687,0.9037378054192433,-1.2152402339087753,-0.08576050680263284,0.24525804665580675,0.2148378969758396,0.36886236855616095,0.3946202419346172,-0.06706118888955519
-7.0539862176449075,0.11934143673504181,-0.3522578858699009,-7.855612697018181,1.8136448476458125,1.8217605682190832,-22.436628889996964,-5.514358260498073,-1.156981276484694,-11.90773136639261,-3.1845339612927193,-2.2475569866025307,0.0486069664811926,-0.5251627048677567,-0.2058474685327143,-0.25502630113980485,-0.3402965272081576,-0.002787157722688295,-45.92265805173705,-12.255431199376165,-3.811484473542004,10.533687717741602,22.88393675680405,-2.4880520460467563,0.37298353947142915,-2.2759736401737536,0.968018758972134,-0.1289756168837979,-0.5517193437597482,1.2647165503624536,-1.6585488594008044,1.3063681348873653,3.2135955833606893,-0.060919832016033876,-2.880980461187423,0.6461857104740567,-0.426830137389717,-0.0519748797809563,0.2174096595842387,-0.06649113401546983,-0.3795576294224109,-0.0706473374253053
-0.15266790937821448,-1.8843569954050967,0.5107318632554482,0.26763183018301373,3.3488790242014383,-0.050311410821239966,-3.3042940545009625,-10.592796322744524,0.594708519885284,17.008357670752233,3.5641203112305226,3.8444236409655748,0.48308262792903095,-0.431825128001268,0.1396096518114173,0.6585838624926456,0.10253422983418858,0.05262072951415853,11.093020536160603,-2.0391662216256936,8.659777912030503,39.160612694990554,-79.01896232929235,5.153465895839415,2.1243208677617758,-3.1361904968748116,2.5877072505180854,-2.0020388100002062,-4.396619447918359,-1.8196172453439194,-5.201268772490426,-3.2738280725652102,-0.5297175638878775,2.6341513702945734,-0.4399127665598731,0.1925935462306899,-0.3536712749912563,0.18174369142596233,-0.02670210685924816,0.22646818111014105,-0.10993875725216518,0.15581932798031906
-3.166588591856247,-0.1260843541467047,-0.272911751054559,-1.9800327784341925,0.19290174100909335,0.3338534501764165,-9.775125339646324,-10.442929589076677,-0.35877633898650285,25.417324661887104,-7.684133393462064,-3.653038685710239,0.5207534399539012,-0.781118638602965,-0.0969653271632791,-0.09838847083014693,-0.2388902065787927,-0.011991925939432789,23.251427467651375,-25.211754480904847,-6.377456716259793,-3.018307016290395,17.33158668284338,-8.262438400066065,5.901817253466902,-7.471480923704025,-1.264383922619643,9.82414394673045,-5.611718762243051,1.2144174223021353,-1.7026147835567516,3.1710696365190514,3.564721465394511,1.4615709581700964,0.6864610908922815,-0.4832295147860447,-0.36083056881201764,0.14773841128504103,0.37198952939318136,0.1795399041794714,0.04421560306906196,-0.015040121787569256
-4.36036,2.09437,-0.55911,0.96885,5.91421,-0.58728,-13.96037,10.07846,-2.8869,11.8867,5.04136,0.92753,0.03067,-0.23929,0.01794,0.62428,0.22049,0.03338,-9.96661,18.94866,-5.47998,36.97651,-61.5504,-8.84292,1.75408,-12.88621,-3.66998,-0.83661,0.21793,-0.63013,-2.3193,-7.62571,-1.9012,0.76323,-0.46935,-0.22003,-0.59862,-1.38925,-0.43745,0.06445,0.08686,-0.17339
,,,,,,,,,,,,,,,,,,,,,,,,,,,,,,,,,,,,,,,,,
,,,,,,,,,,,,,,,,,,,,,,,,,,,,,,,,,,,,,,,,,
,,,,,,,,,,,,,,,,,,,,,,,,,,,,,,,,,,,,,,,,,
,,,,,,,,,,,,,,,,,,,,,,,,,,,,,,,,,,,,,,,,,
,,,,,,,,,,,,,,,,,,,,,,,,,,,,,,,,,,,,,,,,,
,,,,,,,,,,,,,,,,,,,,,,,,,,,,,,,,,,,,,,,,,
,,,,,,,,,,,,,,,,,,,,,,,,,,,,,,,,,,,,,,,,,
,,,,,,,,,,,,,,,,,,,,,,,,,,,,,,,,,,,,,,,,,
,,,,,,,,,,,,,,,,,,,,,,,,,,,,,,,,,,,,,,,,,
,,,,,,,,,,,,,,,,,,,,,,,,,,,,,,,,,,,,,,,,,
,,,,,,,,,,,,,,,,,,,,,,,,,,,,,,,,,,,,,,,,,
,,,,,,,,,,,,,,,,,,,,,,,,,,,,,,,,,,,,,,,,,
,,,,,,,,,,,,,,,,,,,,,,,,,,,,,,,,,,,,,,,,,
,,,,,,,,,,,,,,,,,,,,,,,,,,,,,,,,,,,,,,,,,
,,,,,,,,,,,,,,,,,,,,,,,,,,,,,,,,,,,,,,,,,
,,,,,,,,,,,,,,,,,,,,,,,,,,,,,,,,,,,,,,,,,
,,,,,,,,,,,,,,,,,,,,,,,,,,,,,,,,,,,,,,,,,
,,,,,,,,,,,,,,,,,,,,,,,,,,,,,,,,,,,,,,,,,
,,,,,,,,,,,,,,,,,,,,,,,,,,,,,,,,,,,,,,,,,
,,,,,,,,,,,,,,,,,,,,,,,,,,,,,,,,,,,,,,,,,
,,,,,,,,,,,,,,,,,,,,,,,,,,,,,,,,,,,,,,,,,
,,,,,,,,,,,,,,,,,,,,,,,,,,,,,,,,,,,,,,,,,
,,,,,,,,,,,,,,,,,,,,,,,,,,,,,,,,,,,,,,,,,
,,,,,,,,,,,,,,,,,,,,,,,,,,,,,,,,,,,,,,,,,
,,,,,,,,,,,,,,,,,,,,,,,,,,,,,,,,,,,,,,,,,
,,,,,,,,,,,,,,,,,,,,,,,,,,,,,,,,,,,,,,,,,
,,,,,,,,,,,,,,,,,,,,,,,,,,,,,,,,,,,,,,,,,
,,,,,,,,,,,,,,,,,,,,,,,,,,,,,,,,,,,,,,,,,
,,,,,,,,,,,,,,,,,,,,,,,,,,,,,,,,,,,,,,,,,
,,,,,,,,,,,,,,,,,,,,,,,,,,,,,,,,,,,,,,,,,
,,,,,,,,,,,,,,,,,,,,,,,,,,,,,,,,,,,,,,,,,
,,,,,,,,,,,,,,,,,,,,,,,,,,,,,,,,,,,,,,,,,
,,,,,,,,,,,,,,,,,,,,,,,,,,,,,,,,,,,,,,,,,
,,,,,,,,,,,,,,,,,,,,,,,,,,,,,,,,,,,,,,,,,
,,,,,,,,,,,,,,,,,,,,,,,,,,,,,,,,,,,,,,,,,
,,,,,,,,,,,,,,,,,,,,,,,,,,,,,,,,,,,,,,,,,
,,,,,,,,,,,,,,,,,,,,,,,,,,,,,,,,,,,,,,,,,
,,,,,,,,,,,,,,,,,,,,,,,,,,,,,,,,,,,,,,,,,
,,,,,,,,,,,,,,,,,,,,,,,,,,,,,,,,,,,,,,,,,
,,,,,,,,,,,,,,,,,,,,,,,,,,,,,,,,,,,,,,,,,
,,,,,,,,,,,,,,,,,,,,,,,,,,,,,,,,,,,,,,,,,
,,,,,,,,,,,,,,,,,,,,,,,,,,,,,,,,,,,,,,,,,
,,,,,,,,,,,,,,,,,,,,,,,,,,,,,,,,,,,,,,,,,
,,,,,,,,,,,,,,,,,,,,,,,,,,,,,,,,,,,,,,,,,
,,,,,,,,,,,,,,,,,,,,,,,,,,,,,,,,,,,,,,,,,
,,,,,,,,,,,,,,,,,,,,,,,,,,,,,,,,,,,,,,,,,
,,,,,,,,,,,,,,,,,,,,,,,,,,,,,,,,,,,,,,,,,
,,,,,,,,,,,,,,,,,,,,,,,,,,,,,,,,,,,,,,,,,
,,,,,,,,,,,,,,,,,,,,,,,,,,,,,,,,,,,,,,,,,
,,,,,,,,,,,,,,,,,,,,,,,,,,,,,,,,,,,,,,,,,
,,,,,,,,,,,,,,,,,,,,,,,,,,,,,,,,,,,,,,,,,
,,,,,,,,,,,,,,,,,,,,,,,,,,,,,,,,,,,,,,,,,
,,,,,,,,,,,,,,,,,,,,,,,,,,,,,,,,,,,,,,,,,
,,,,,,,,,,,,,,,,,,,,,,,,,,,,,,,,,,,,,,,,,
,,,,,,,,,,,,,,,,,,,,,,,,,,,,,,,,,,,,,,,,,
,,,,,,,,,,,,,,,,,,,,,,,,,,,,,,,,,,,,,,,,,
,,,,,,,,,,,,,,,,,,,,,,,,,,,,,,,,,,,,,,,,,
,,,,,,,,,,,,,,,,,,,,,,,,,,,,,,,,,,,,,,,,,
,,,,,,,,,,,,,,,,,,,,,,,,,,,,,,,,,,,,,,,,,
,,,,,,,,,,,,,,,,,,,,,,,,,,,,,,,,,,,,,,,,,
,,,,,,,,,,,,,,,,,,,,,,,,,,,,,,,,,,,,,,,,,
,,,,,,,,,,,,,,,,,,,,,,,,,,,,,,,,,,,,,,,,,
,,,,,,,,,,,,,,,,,,,,,,,,,,,,,,,,,,,,,,,,,
,,,,,,,,,,,,,,,,,,,,,,,,,,,,,,,,,,,,,,,,,
,,,,,,,,,,,,,,,,,,,,,,,,,,,,,,,,,,,,,,,,,
,,,,,,,,,,,,,,,,,,,,,,,,,,,,,,,,,,,,,,,,,
,,,,,,,,,,,,,,,,,,,,,,,,,,,,,,,,,,,,,,,,,
,,,,,,,,,,,,,,,,,,,,,,,,,,,,,,,,,,,,,,,,,
,,,,,,,,,,,,,,,,,,,,,,,,,,,,,,,,,,,,,,,,,
,,,,,,,,,,,,,,,,,,,,,,,,,,,,,,,,,,,,,,,,,
,,,,,,,,,,,,,,,,,,,,,,,,,,,,,,,,,,,,,,,,,
,,,,,,,,,,,,,,,,,,,,,,,,,,,,,,,,,,,,,,,,,
,,,,,,,,,,,,,,,,,,,,,,,,,,,,,,,,,,,,,,,,,
,,,,,,,,,,,,,,,,,,,,,,,,,,,,,,,,,,,,,,,,,
