PaulMeinheit/Bachelor_Muay_Thai/processed_Data/N1/teep/sliced/JointPositions/sliced7.csv
Unnamed: 0_level_0,Neck_Joint_Position,Neck_Joint_Position,Neck_Joint_Position,L_ANKLE_POSITION,L_ANKLE_POSITION,L_ANKLE_POSITION,R_ANKLE_POSITION,R_ANKLE_POSITION,R_ANKLE_POSITION,L_KNEE_POSITION,L_KNEE_POSITION,L_KNEE_POSITION,R_KNEE_POSITION,R_KNEE_POSITION,R_KNEE_POSITION,L_HIP_POSITION,L_HIP_POSITION,L_HIP_POSITION,R_HIP_POSITION,R_HIP_POSITION,R_HIP_POSITION,L_SHOULDER_POSITION,L_SHOULDER_POSITION,L_SHOULDER_POSITION,R_SHOULDER_POSITION,R_SHOULDER_POSITION,R_SHOULDER_POSITION,L_ELBOW_POSITION,L_ELBOW_POSITION,L_ELBOW_POSITION,R_ELBOW_POSITION,R_ELBOW_POSITION,R_ELBOW_POSITION,L_WRIST_POSITION,L_WRIST_POSITION,L_WRIST_POSITION,R_WRIST_POSITION,R_WRIST_POSITION,R_WRIST_POSITION
ITEM,X,Y,Z,X,Y,Z,X,Y,Z,X,Y,Z,X,Y,Z,X,Y,Z,X,Y,Z,X,Y,Z,X,Y,Z,X,Y,Z,X,Y,Z,X,Y,Z,X,Y,Z
3820,0.01154,0.63707,1.52297,-0.00767,0.54956,0.07872,0.25139,0.26849,0.21247,-0.00206,0.62524,0.48922,0.25265,0.56936,0.50178,-0.02277,0.54629,0.91637,0.14565,0.52617,0.9209,-0.14749,0.61011,1.39942,0.19732,0.59333,1.41914,-0.22944,0.49235,1.14734,0.2952,0.49667,1.16589,-0.24597,0.51278,0.88583,0.35494,0.54175,0.92084
3821,0.01154,0.63847,1.52308,-0.00763,0.54936,0.0785,0.25052,0.27547,0.21265,-0.00228,0.62435,0.48913,0.25321,0.57528,0.50304,-0.02284,0.54699,0.91659,0.14559,0.52704,0.92146,-0.14826,0.61198,1.40022,0.1969,0.59367,1.41955,-0.23063,0.49523,1.14781,0.29483,0.49698,1.16633,-0.24725,0.51565,0.8863,0.35448,0.54338,0.92151
3822,0.01186,0.63939,1.52351,-0.00729,0.54944,0.07831,0.24985,0.28282,0.21236,-0.00231,0.6236,0.4891,0.25399,0.58105,0.50435,-0.02292,0.54766,0.9168,0.1455,0.52773,0.92193,-0.14882,0.61389,1.40099,0.19641,0.59374,1.42002,-0.23167,0.4984,1.14815,0.29438,0.49704,1.16682,-0.24861,0.51909,0.88669,0.35399,0.54501,0.92229
3823,0.01238,0.63996,1.52409,-0.00677,0.5498,0.07825,0.24953,0.29025,0.21162,-0.00232,0.62295,0.48922,0.25471,0.58645,0.50566,-0.02305,0.54829,0.91715,0.14534,0.52812,0.92233,-0.14909,0.61574,1.4016,0.19586,0.59355,1.42057,-0.23257,0.50169,1.14832,0.29377,0.49692,1.16732,-0.25003,0.52301,0.88694,0.35364,0.54638,0.92315
3824,0.01278,0.64043,1.52463,-0.00637,0.55025,0.07831,0.24952,0.29756,0.21039,-0.00247,0.62231,0.48948,0.25511,0.5913,0.50688,-0.02317,0.54887,0.91762,0.14519,0.52837,0.92273,-0.14911,0.61734,1.40205,0.19532,0.59343,1.42107,-0.23339,0.50494,1.1483,0.29305,0.4968,1.16775,-0.25156,0.52743,0.88707,0.35342,0.54761,0.92398
3825,0.01281,0.64095,1.52519,-0.00637,0.55056,0.07841,0.24969,0.30466,0.20857,-0.00282,0.62179,0.48973,0.25522,0.5955,0.5079,-0.02324,0.5494,0.91806,0.14508,0.5286,0.92308,-0.14894,0.61863,1.40244,0.19493,0.5937,1.42142,-0.2342,0.5082,1.14815,0.29245,0.49689,1.16809,-0.25322,0.53233,0.88712,0.35317,0.54914,0.92471
3826,0.01255,0.64146,1.52593,-0.00677,0.55071,0.07841,0.25,0.31157,0.2061,-0.00327,0.62162,0.48979,0.25534,0.59902,0.50869,-0.02327,0.54995,0.91826,0.145,0.52871,0.92325,-0.14858,0.61969,1.40283,0.19484,0.59429,1.42171,-0.23495,0.51158,1.14791,0.29214,0.49731,1.16836,-0.25481,0.53743,0.88711,0.35286,0.55122,0.92535
3827,0.01248,0.64192,1.52682,-0.0072,0.55086,0.07826,0.25059,0.31844,0.20307,-0.00367,0.62164,0.48966,0.25566,0.60196,0.50935,-0.02323,0.55057,0.91825,0.14495,0.52872,0.92331,-0.14811,0.62066,1.40325,0.19497,0.59473,1.42219,-0.23547,0.51503,1.14763,0.29205,0.49808,1.16862,-0.25604,0.54239,0.88704,0.35263,0.55364,0.92595
3828,0.01305,0.64241,1.52759,-0.00714,0.5511,0.07793,0.25159,0.3255,0.19961,-0.00397,0.62135,0.48942,0.25604,0.60449,0.51004,-0.02306,0.55138,0.91821,0.14504,0.52891,0.9235,-0.14773,0.62172,1.40371,0.19508,0.59472,1.4229,-0.23571,0.51842,1.14736,0.29192,0.49918,1.16882,-0.25677,0.54713,0.88695,0.35258,0.55622,0.92651
3829,0.01413,0.64305,1.52807,-0.00642,0.55137,0.07745,0.25297,0.33283,0.19578,-0.00422,0.62044,0.48915,0.25618,0.60663,0.5108,-0.02266,0.55246,0.91829,0.14536,0.52953,0.92403,-0.14765,0.62292,1.40419,0.19504,0.59441,1.42361,-0.23575,0.5217,1.14705,0.2916,0.50041,1.16886,-0.25712,0.55193,0.88685,0.35258,0.55911,0.92702
3830,0.01507,0.64383,1.52841,-0.0054,0.55156,0.07693,0.25444,0.34032,0.19151,-0.00446,0.61915,0.48888,0.25597,0.60834,0.51148,-0.02203,0.55371,0.91845,0.14594,0.53057,0.92479,-0.14785,0.62409,1.40472,0.19499,0.59418,1.42405,-0.23572,0.52496,1.14668,0.29115,0.50146,1.16868,-0.25737,0.55718,0.88674,0.35232,0.56247,0.92747
3831,0.01545,0.6446,1.52882,-0.00457,0.55168,0.0765,0.25561,0.34796,0.18678,-0.00467,0.61802,0.48865,0.25558,0.60967,0.51193,-0.02136,0.55486,0.9186,0.14659,0.53172,0.92549,-0.1481,0.62509,1.40531,0.19516,0.59425,1.42421,-0.23564,0.52813,1.14634,0.29065,0.50216,1.16836,-0.25781,0.56309,0.88679,0.35172,0.56612,0.92789
3832,0.01544,0.64518,1.52938,-0.00409,0.55177,0.07626,0.25637,0.3558,0.18174,-0.00481,0.61733,0.48853,0.25522,0.61076,0.51222,-0.0209,0.55564,0.91872,0.14704,0.53259,0.92594,-0.14815,0.62603,1.406,0.19553,0.59441,1.42437,-0.23546,0.5311,1.14621,0.29016,0.50269,1.16808,-0.25856,0.56945,0.88722,0.35094,0.56969,0.92836
3833,0.01541,0.6455,1.53004,-0.00388,0.55181,0.0762,0.25702,0.36384,0.17658,-0.00481,0.61695,0.48854,0.25497,0.61164,0.51244,-0.02072,0.55617,0.91887,0.1472,0.53298,0.92618,-0.14783,0.6271,1.40678,0.19588,0.59438,1.42476,-0.23519,0.53388,1.14638,0.28977,0.50336,1.16793,-0.25955,0.57584,0.88807,0.35022,0.57298,0.92888
3834,0.01557,0.64559,1.53076,-0.00395,0.55172,0.07626,0.25799,0.37197,0.17136,-0.00465,0.61649,0.48866,0.25472,0.6123,0.51262,-0.0206,0.55683,0.91914,0.14724,0.53302,0.92631,-0.14716,0.62836,1.40758,0.19601,0.59413,1.42527,-0.23486,0.53672,1.14674,0.28952,0.50429,1.16789,-0.26044,0.58196,0.88911,0.3497,0.57609,0.92942
3835,0.01609,0.64558,1.53146,-0.00434,0.55154,0.07635,0.25945,0.38005,0.16608,-0.0044,0.61579,0.48883,0.25436,0.61264,0.51263,-0.02032,0.5578,0.91954,0.14742,0.53317,0.92643,-0.14633,0.62965,1.40835,0.19589,0.59397,1.42576,-0.23452,0.53983,1.14704,0.28938,0.50536,1.16794,-0.26085,0.58789,0.88999,0.34934,0.57921,0.93004
3836,0.017,0.64557,1.53206,-0.00486,0.55137,0.07646,0.26118,0.38803,0.16066,-0.00412,0.61501,0.48904,0.25389,0.61262,0.51241,-0.01979,0.55893,0.92001,0.1479,0.53387,0.92659,-0.1456,0.63082,1.40897,0.19569,0.59421,1.42621,-0.23418,0.54322,1.14704,0.28927,0.50642,1.16815,-0.26062,0.59387,0.8905,0.34906,0.58241,0.93088
3837,0.0181,0.64557,1.53257,-0.00518,0.55107,0.0766,0.26288,0.39591,0.15516,-0.00376,0.6143,0.48923,0.25332,0.61226,0.51198,-0.01911,0.56003,0.92045,0.1486,0.5351,0.92678,-0.14511,0.63184,1.40939,0.19567,0.59477,1.42672,-0.23384,0.5467,1.1467,0.28912,0.5074,1.16847,-0.25988,0.59999,0.89066,0.3488,0.58577,0.93194
3838,0.01909,0.64554,1.53304,-0.00521,0.55039,0.07671,0.26445,0.40369,0.1497,-0.00327,0.61364,0.48934,0.25267,0.61164,0.51141,-0.0184,0.56108,0.92077,0.14936,0.53642,0.92692,-0.14477,0.63266,1.40971,0.19594,0.59521,1.42729,-0.23348,0.55,1.14622,0.28895,0.50836,1.1687,-0.25887,0.6063,0.89075,0.34864,0.58944,0.93309
3839,0.01988,0.64547,1.53351,-0.00514,0.54934,0.07671,0.26598,0.41139,0.14431,-0.00277,0.61289,0.4893,0.25197,0.61075,0.51075,-0.0177,0.56213,0.92095,0.15008,0.53757,0.92698,-0.14435,0.63315,1.41013,0.19645,0.59511,1.42789,-0.23296,0.55296,1.14585,0.28887,0.50941,1.16871,-0.25771,0.61293,0.89115,0.34873,0.59357,0.93423
3840,0.02052,0.64534,1.53405,-0.00519,0.54832,0.07655,0.2675,0.41926,0.1389,-0.00249,0.61199,0.48912,0.25129,0.60951,0.51006,-0.01696,0.56327,0.92102,0.15081,0.53863,0.92703,-0.14363,0.63342,1.41078,0.19703,0.5946,1.42851,-0.23216,0.55553,1.14578,0.28893,0.51059,1.16859,-0.25632,0.61992,0.89211,0.34898,0.59809,0.93539
3841,0.02107,0.64511,1.5347,-0.00538,0.54781,0.07631,0.26892,0.42759,0.13345,-0.00255,0.61095,0.48896,0.25067,0.6079,0.50945,-0.01612,0.5645,0.92114,0.15162,0.53971,0.92721,-0.1426,0.63382,1.41155,0.19769,0.59423,1.42913,-0.2312,0.55783,1.14602,0.2891,0.51182,1.16853,-0.25464,0.62702,0.89355,0.34909,0.60257,0.93655
3842,0.02159,0.64472,1.53541,-0.00559,0.54798,0.07617,0.27006,0.43635,0.12815,-0.00284,0.60987,0.489,0.25009,0.6061,0.50895,-0.01521,0.5657,0.92146,0.15253,0.54084,0.92752,-0.14151,0.63445,1.41233,0.19854,0.59438,1.42972,-0.23028,0.55993,1.14645,0.28933,0.51297,1.16859,-0.25271,0.63386,0.89524,0.34883,0.60661,0.93763
3843,0.02227,0.6442,1.53612,-0.00573,0.54851,0.07615,0.27091,0.44501,0.12324,-0.00314,0.60884,0.48922,0.24951,0.60436,0.50843,-0.01428,0.56686,0.92193,0.15347,0.54202,0.9278,-0.14063,0.63497,1.41312,0.19954,0.59479,1.43028,-0.22949,0.56185,1.14688,0.28969,0.51403,1.16873,-0.25065,0.64042,0.89696,0.34821,0.61029,0.93861
3844,0.02316,0.64364,1.53688,-0.00569,0.54889,0.07616,0.27167,0.45293,0.11882,-0.0033,0.60792,0.48941,0.24893,0.6027,0.50776,-0.01338,0.56801,0.92234,0.15438,0.54325,0.92789,-0.14013,0.63502,1.41397,0.20051,0.59493,1.43088,-0.22868,0.56373,1.14712,0.29029,0.51521,1.16888,-0.24863,0.6469,0.8986,0.34744,0.61413,0.93954
3845,0.02413,0.64317,1.53769,-0.00543,0.54885,0.07614,0.27252,0.45986,0.1149,-0.00322,0.60709,0.4895,0.24834,0.6009,0.507,-0.01252,0.56905,0.92262,0.15525,0.54424,0.92784,-0.13994,0.63472,1.41485,0.20127,0.59469,1.43155,-0.2277,0.56568,1.14716,0.2912,0.51679,1.16906,-0.24665,0.65342,0.90013,0.3468,0.61841,0.94052
3846,0.02495,0.64284,1.53845,-0.00508,0.54852,0.07613,0.27337,0.46609,0.11145,-0.00288,0.60627,0.48957,0.24779,0.59883,0.50634,-0.01162,0.56974,0.92283,0.15611,0.54462,0.92782,-0.13978,0.63445,1.41573,0.20187,0.59438,1.43227,-0.2265,0.56765,1.14713,0.29235,0.51877,1.1693,-0.2445,0.65977,0.90164,0.34647,0.6229,0.94153
3847,0.02573,0.64255,1.53904,-0.00488,0.54816,0.07614,0.27393,0.47192,0.10845,-0.0023,0.60547,0.48964,0.24729,0.59664,0.50589,-0.0106,0.57003,0.92299,0.15707,0.54446,0.92793,-0.13924,0.6345,1.4166,0.2025,0.5943,1.43295,-0.22513,0.56943,1.14732,0.29358,0.5209,1.16955,-0.24196,0.66564,0.90331,0.34633,0.62727,0.9425
3848,0.02681,0.64207,1.53949,-0.00505,0.54796,0.07611,0.27406,0.47739,0.10586,-0.00161,0.60481,0.48966,0.24679,0.59453,0.50556,-0.0095,0.57015,0.92309,0.15811,0.54428,0.92816,-0.13803,0.6349,1.41746,0.20337,0.59436,1.43353,-0.2237,0.57098,1.14782,0.29468,0.5229,1.16969,-0.23906,0.67098,0.90525,0.3461,0.63143,0.94336
3849,0.02824,0.64127,1.53997,-0.00547,0.54798,0.07604,0.27399,0.48229,0.10357,-0.00091,0.60441,0.48964,0.24623,0.5925,0.50519,-0.00845,0.57048,0.92313,0.15914,0.54454,0.92839,-0.13618,0.6355,1.41815,0.20453,0.59432,1.43414,-0.22225,0.57253,1.14842,0.29559,0.52466,1.16973,-0.23596,0.6763,0.90734,0.34559,0.6355,0.9442
3850,0.02963,0.64023,1.54057,-0.00574,0.54814,0.076,0.274,0.48654,0.10147,-0.00021,0.60437,0.48961,0.24559,0.5905,0.50471,-0.00746,0.57112,0.92316,0.16014,0.54519,0.92853,-0.13398,0.6359,1.41857,0.20586,0.59407,1.43482,-0.22073,0.57434,1.14874,0.29652,0.5262,1.16981,-0.23266,0.68225,0.90938,0.34497,0.63953,0.94518
3851,0.03064,0.63921,1.54115,-0.0056,0.54828,0.07599,0.27413,0.49031,0.09952,0.00051,0.60462,0.48959,0.2449,0.58859,0.50412,-0.00639,0.5719,0.92318,0.16118,0.54576,0.92855,-0.13178,0.63565,1.41882,0.2071,0.59376,1.43541,-0.2191,0.57631,1.14867,0.29769,0.52744,1.16998,-0.2292,0.68865,0.91128,0.34458,0.64341,0.94637
3852,0.03146,0.63836,1.54155,-0.00511,0.54836,0.07592,0.27422,0.49379,0.09771,0.00125,0.6049,0.48949,0.24402,0.58686,0.50347,-0.00516,0.57254,0.92312,0.16233,0.54592,0.92848,-0.12994,0.63468,1.41921,0.2081,0.59356,1.43566,-0.21739,0.57812,1.1485,0.29917,0.52836,1.17012,-0.22569,0.69462,0.91305,0.34458,0.6471,0.94766
3853,0.03242,0.63769,1.54168,-0.00458,0.54841,0.07574,0.27416,0.497,0.096,0.00191,0.60499,0.4893,0.24281,0.58524,0.50276,-0.00379,0.57299,0.92296,0.16361,0.54578,0.92838,-0.12872,0.63348,1.41988,0.20897,0.59348,1.43562,-0.21562,0.5795,1.14847,0.30082,0.52913,1.17013,-0.22215,0.6997,0.91483,0.3447,0.65064,0.94886
3854,0.03358,0.6371,1.54158,-0.00425,0.54838,0.07551,0.27402,0.49984,0.09436,0.00244,0.60489,0.48907,0.24142,0.58353,0.50198,-0.00228,0.57339,0.92279,0.16504,0.54575,0.92826,-0.12792,0.63262,1.42068,0.21002,0.59326,1.43557,-0.21378,0.58041,1.1486,0.30241,0.52995,1.17002,-0.21835,0.70429,0.91684,0.3446,0.65413,0.94992
3855,0.03481,0.63648,1.54138,-0.00412,0.54814,0.07536,0.27385,0.50226,0.09276,0.00296,0.60475,0.4889,0.24021,0.58157,0.50116,-0.00066,0.57383,0.92267,0.16663,0.54602,0.92813,-0.12705,0.63222,1.42134,0.21158,0.59268,1.43575,-0.21189,0.58093,1.14876,0.30385,0.53076,1.16983,-0.21417,0.70892,0.91921,0.34423,0.65767,0.95094
3856,0.03609,0.63581,1.54125,-0.00406,0.54772,0.07536,0.27355,0.50419,0.09125,0.00357,0.60463,0.48885,0.23944,0.57951,0.50038,0.0009,0.57419,0.92266,0.16822,0.5465,0.92795,-0.12576,0.6319,1.42179,0.2136,0.59171,1.43615,-0.20998,0.58119,1.14891,0.30522,0.53136,1.16965,-0.20986,0.71347,0.9218,0.34378,0.66124,0.95218
3857,0.03754,0.63511,1.54127,-0.00398,0.54729,0.07548,0.27301,0.50559,0.08996,0.00419,0.60456,0.48891,0.239,0.57766,0.49967,0.00224,0.57439,0.92274,0.16964,0.54714,0.92774,-0.12411,0.63125,1.42215,0.21566,0.59057,1.43662,-0.20804,0.58137,1.14903,0.3067,0.53166,1.1696,-0.20584,0.71761,0.92428,0.3434,0.6647,0.95372
3858,0.03915,0.63433,1.54141,-0.00395,0.54696,0.07562,0.27221,0.50643,0.08888,0.00461,0.60456,0.489,0.23873,0.57618,0.49904,0.00337,0.57455,0.92285,0.17088,0.54793,0.9275,-0.12227,0.63019,1.42249,0.21747,0.58954,1.43691,-0.20601,0.58164,1.14907,0.30836,0.5318,1.16958,-0.20222,0.72128,0.92644,0.34315,0.66794,0.95532
3859,0.0409,0.63336,1.54152,-0.00407,0.54669,0.0757,0.27118,0.50673,0.0879,0.00486,0.60462,0.48903,0.23856,0.57486,0.49841,0.00442,0.57489,0.92289,0.17201,0.54871,0.9272,-0.12026,0.62902,1.42278,0.21908,0.58885,1.43684,-0.20376,0.58199,1.14902,0.31025,0.53214,1.16939,-0.19862,0.72461,0.92832,0.34308,0.67101,0.95659
3860,0.04278,0.63223,1.54146,-0.00436,0.5466,0.07573,0.26996,0.50663,0.08691,0.00523,0.60469,0.48901,0.23845,0.57338,0.49773,0.00549,0.57548,0.92291,0.17309,0.54927,0.92683,-0.11798,0.62814,1.42303,0.2207,0.58855,1.43648,-0.20119,0.58224,1.14899,0.31238,0.53287,1.16899,-0.19466,0.72751,0.93006,0.34332,0.67396,0.95737
3861,0.04477,0.63111,1.54117,-0.00471,0.54685,0.07573,0.26881,0.50649,0.08591,0.00594,0.60477,0.48901,0.23827,0.57169,0.49705,0.00672,0.57634,0.92296,0.17424,0.54965,0.92646,-0.11547,0.62783,1.42328,0.22236,0.58842,1.43608,-0.19835,0.58212,1.14911,0.31464,0.53387,1.16856,-0.19036,0.72962,0.93172,0.34398,0.67669,0.95788
3862,0.04682,0.63011,1.54081,-0.00494,0.54735,0.07575,0.26797,0.50661,0.085,0.00696,0.60499,0.48904,0.23795,0.57003,0.49645,0.00817,0.57737,0.92304,0.17559,0.55002,0.92621,-0.11295,0.62798,1.42349,0.22396,0.58812,1.43584,-0.19551,0.58159,1.14935,0.31688,0.53482,1.16829,-0.18609,0.73094,0.93328,0.34492,0.6792,0.95849
3863,0.04889,0.62914,1.54062,-0.00498,0.54778,0.0758,0.26745,0.50699,0.08424,0.00807,0.60542,0.48905,0.23752,0.5685,0.49599,0.00977,0.57834,0.92309,0.17711,0.55045,0.92611,-0.11061,0.62818,1.42358,0.22548,0.58744,1.43576,-0.19285,0.58097,1.14948,0.319,0.53557,1.16814,-0.18213,0.73213,0.93474,0.34586,0.68164,0.95936
3864,0.05095,0.62817,1.54058,-0.00487,0.54794,0.07584,0.26698,0.50742,0.08361,0.00919,0.60601,0.48899,0.237,0.56705,0.49563,0.01137,0.57906,0.92304,0.17866,0.55089,0.92612,-0.10856,0.62794,1.42349,0.22711,0.58641,1.4358,-0.1903,0.58059,1.14925,0.321,0.53615,1.168,-0.17848,0.73388,0.93609,0.3467,0.68397,0.9603
3865,0.05298,0.62725,1.54043,-0.00479,0.54791,0.07586,0.26632,0.50784,0.08302,0.01029,0.6066,0.4889,0.23644,0.56564,0.49531,0.01287,0.5796,0.92293,0.18016,0.55142,0.92614,-0.10674,0.62712,1.42329,0.22905,0.5853,1.43599,-0.18765,0.58048,1.14869,0.32293,0.53659,1.1679,-0.17496,0.7362,0.93734,0.34756,0.68596,0.96119
3866,0.05497,0.62636,1.54008,-0.00482,0.54788,0.0759,0.26547,0.50829,0.08239,0.01138,0.60701,0.48883,0.23605,0.56432,0.49496,0.01431,0.58025,0.92288,0.18162,0.55218,0.92609,-0.10488,0.62595,1.42316,0.23127,0.5845,1.43638,-0.18483,0.58048,1.14808,0.32476,0.53693,1.16795,-0.17144,0.73853,0.93851,0.34862,0.68758,0.96208
3867,0.0569,0.62537,1.53972,-0.00491,0.5479,0.07598,0.26459,0.50869,0.08169,0.01246,0.60716,0.48884,0.23605,0.56311,0.49454,0.01576,0.58109,0.92293,0.18307,0.55301,0.9259,-0.10272,0.62474,1.42317,0.23355,0.58409,1.4369,-0.18191,0.58051,1.14767,0.3266,0.5373,1.16818,-0.16788,0.74042,0.93956,0.34998,0.68899,0.96301
3868,0.05885,0.62427,1.53957,-0.00497,0.54787,0.07606,0.264,0.50876,0.08098,0.01358,0.60717,0.48887,0.23646,0.56201,0.49405,0.0173,0.58194,0.923,0.18457,0.55361,0.92558,-0.10017,0.6236,1.42326,0.23568,0.58381,1.43725,-0.17899,0.58064,1.14746,0.32872,0.53769,1.16841,-0.16419,0.742,0.94053,0.35162,0.69023,0.96383
3869,0.06085,0.62316,1.53959,-0.00485,0.54779,0.07612,0.26399,0.50828,0.08037,0.01476,0.6072,0.48886,0.23705,0.56105,0.49354,0.01895,0.58265,0.92303,0.18617,0.55398,0.92521,-0.09755,0.62244,1.42334,0.23774,0.58347,1.43721,-0.17605,0.58091,1.14722,0.33125,0.5379,1.16844,-0.16028,0.74367,0.94146,0.35356,0.69114,0.96431
3870,0.06288,0.62213,1.53964,-0.00448,0.54786,0.07613,0.26459,0.50742,0.07994,0.01594,0.60726,0.48884,0.23762,0.56023,0.4931,0.02068,0.58321,0.92303,0.18789,0.55443,0.92493,-0.09525,0.62115,1.42336,0.24001,0.5831,1.43686,-0.17293,0.58131,1.14676,0.33396,0.53791,1.16818,-0.15615,0.74556,0.94227,0.35573,0.69175,0.96444
3871,0.06489,0.62132,1.53962,-0.00391,0.54814,0.07612,0.2655,0.50664,0.0797,0.0171,0.60738,0.48882,0.23822,0.55941,0.49284,0.02232,0.58361,0.92302,0.18954,0.55496,0.92481,-0.09331,0.61982,1.42332,0.24268,0.58275,1.43653,-0.16952,0.58168,1.14607,0.33664,0.53796,1.16778,-0.15195,0.74722,0.94269,0.35807,0.69229,0.96438
3872,0.06694,0.62082,1.53954,-0.00331,0.54849,0.07607,0.26639,0.50626,0.07957,0.01814,0.60767,0.48875,0.23898,0.55849,0.49277,0.02365,0.58373,0.92294,0.1909,0.55519,0.92481,-0.0914,0.61869,1.42326,0.24557,0.58229,1.43653,-0.16594,0.58179,1.14539,0.33932,0.53823,1.16759,-0.14784,0.74803,0.94262,0.36043,0.69287,0.96439
3873,0.06919,0.62043,1.5394,-0.00287,0.54871,0.07601,0.26707,0.5062,0.07949,0.01893,0.60807,0.48865,0.24,0.55755,0.49283,0.02478,0.58361,0.92281,0.19201,0.55497,0.92489,-0.08932,0.61794,1.42328,0.24828,0.58157,1.43684,-0.16236,0.58159,1.14494,0.34204,0.53855,1.16773,-0.14385,0.74786,0.94223,0.36267,0.69332,0.96459
3874,0.0717,0.6198,1.53931,-0.00263,0.54883,0.07599,0.26751,0.50616,0.07944,0.01948,0.6083,0.4886,0.24127,0.55678,0.49292,0.02609,0.58358,0.92273,0.19328,0.55471,0.92498,-0.08719,0.6176,1.42341,0.25058,0.58059,1.43722,-0.1589,0.58115,1.14474,0.34467,0.5387,1.16805,-0.13999,0.74717,0.94187,0.36468,0.69351,0.96488
3875,0.07434,0.61882,1.5394,-0.00254,0.54894,0.07603,0.26773,0.50595,0.07935,0.01998,0.60815,0.48866,0.24271,0.55625,0.49294,0.02777,0.58377,0.92279,0.19492,0.55467,0.92503,-0.08508,0.61749,1.4236,0.25263,0.5796,1.43749,-0.15559,0.58059,1.14468,0.34706,0.5387,1.16829,-0.13639,0.74644,0.94169,0.36659,0.69348,0.96504
3876,0.07689,0.61783,1.53969,-0.00249,0.54902,0.07611,0.26788,0.50555,0.07916,0.02067,0.60777,0.48877,0.24421,0.5558,0.49285,0.02958,0.58399,0.92291,0.19668,0.55458,0.92496,-0.08289,0.61733,1.42378,0.25467,0.57877,1.43763,-0.15236,0.58005,1.14465,0.34918,0.53874,1.16832,-0.13317,0.74578,0.94157,0.36867,0.69335,0.96494
3877,0.07914,0.61719,1.53996,-0.00245,0.54899,0.0762,0.2682,0.50509,0.07894,0.02155,0.6074,0.48885,0.24561,0.55527,0.49269,0.03124,0.58407,0.923,0.19826,0.55421,0.92483,-0.08057,0.61697,1.42393,0.25677,0.57809,1.43765,-0.14916,0.57959,1.1446,0.35111,0.53889,1.16817,-0.13022,0.74498,0.94121,0.37099,0.69318,0.96458
3878,0.08102,0.61685,1.54003,-0.00243,0.54882,0.07632,0.26878,0.50474,0.07881,0.02255,0.60716,0.48893,0.24678,0.55465,0.49263,0.03289,0.58424,0.92309,0.19983,0.55392,0.92481,-0.07821,0.61653,1.42401,0.25876,0.57738,1.4376,-0.14597,0.5792,1.14447,0.35299,0.53905,1.16795,-0.12729,0.74384,0.94045,0.37343,0.69292,0.96409
3879,0.08269,0.61647,1.5399,-0.00236,0.54857,0.07653,0.26942,0.50457,0.07882,0.02363,0.60702,0.48905,0.24765,0.55394,0.49271,0.0348,0.58476,0.92322,0.20168,0.55415,0.925,-0.07593,0.6162,1.42402,0.26054,0.57663,1.43744,-0.14287,0.5789,1.14428,0.3549,0.53901,1.16774,-0.12419,0.74251,0.93943,0.37576,0.69253,0.96367
3880,0.08454,0.6159,1.5398,-0.00215,0.54834,0.07676,0.26979,0.5045,0.07887,0.02476,0.60687,0.48922,0.24826,0.55315,0.49286,0.03684,0.58546,0.92341,0.20369,0.55471,0.92529,-0.07374,0.61593,1.42401,0.26223,0.57597,1.43712,-0.13992,0.57875,1.14407,0.35683,0.53878,1.16745,-0.12098,0.74136,0.93845,0.37799,0.69217,0.96331
3881,0.08689,0.61524,1.53986,-0.00175,0.54825,0.07695,0.26975,0.50447,0.07884,0.02589,0.60655,0.48939,0.24875,0.55242,0.49294,0.03867,0.58599,0.9236,0.20551,0.55515,0.9255,-0.0716,0.61556,1.42402,0.26393,0.57554,1.43661,-0.1371,0.57872,1.14387,0.35875,0.53857,1.16697,-0.11788,0.74045,0.93759,0.38026,0.69191,0.96283
3882,0.08955,0.61463,1.54004,-0.00119,0.5483,0.07711,0.26938,0.50445,0.07876,0.02691,0.60606,0.48959,0.24928,0.55185,0.49297,0.04024,0.5864,0.92383,0.20707,0.55549,0.92562,-0.06954,0.6151,1.42402,0.26564,0.5753,1.43601,-0.13437,0.57864,1.14367,0.36064,0.53854,1.16642,-0.11502,0.73945,0.93668,0.38279,0.69145,0.96203
3883,0.09211,0.61408,1.54017,-0.00049,0.54836,0.07731,0.26895,0.50442,0.07871,0.02783,0.60557,0.48986,0.24997,0.55126,0.49304,0.04185,0.58691,0.92411,0.20869,0.55605,0.92577,-0.06759,0.61479,1.42403,0.26732,0.57515,1.43555,-0.13172,0.57838,1.14351,0.36254,0.53856,1.166,-0.11231,0.73807,0.93567,0.3856,0.69044,0.96094
3884,0.09432,0.61355,1.54024,0.00029,0.54839,0.07754,0.26868,0.50431,0.07872,0.02868,0.60521,0.49014,0.25084,0.55038,0.49318,0.04366,0.58749,0.9244,0.21052,0.55676,0.92598,-0.06572,0.61473,1.42415,0.26913,0.57505,1.43523,-0.12913,0.57797,1.14351,0.3645,0.53847,1.16574,-0.10951,0.73636,0.9347,0.38851,0.68893,0.95975
3885,0.09632,0.61301,1.54033,0.00094,0.54841,0.07768,0.2687,0.50411,0.0787,0.02945,0.60486,0.49032,0.25179,0.54919,0.49331,0.04548,0.58786,0.92457,0.21236,0.5572,0.92616,-0.0638,0.61467,1.42439,0.27118,0.57488,1.43492,-0.12662,0.57745,1.14369,0.36655,0.53818,1.16544,-0.10654,0.73443,0.93385,0.39134,0.68734,0.9586
3886,0.0983,0.61244,1.54049,0.0013,0.54841,0.07766,0.26897,0.50385,0.07861,0.03011,0.60432,0.49036,0.25262,0.54795,0.49334,0.04708,0.58799,0.9246,0.21392,0.55712,0.92624,-0.06171,0.61445,1.42466,0.27342,0.57444,1.43451,-0.12429,0.57679,1.14396,0.36863,0.53769,1.16498,-0.10359,0.73228,0.93308,0.39413,0.68592,0.95756
3887,0.10036,0.61189,1.54064,0.00131,0.54829,0.07756,0.26936,0.50359,0.0785,0.03069,0.60365,0.49028,0.25315,0.54686,0.49333,0.04845,0.5881,0.92452,0.21518,0.5567,0.92627,-0.05961,0.61428,1.42485,0.27563,0.57363,1.43407,-0.12222,0.57591,1.14425,0.37068,0.53701,1.16447,-0.10105,0.72994,0.93235,0.39698,0.68445,0.95658
3888,0.10246,0.61137,1.54074,0.00108,0.54805,0.07745,0.26972,0.50337,0.07837,0.03124,0.60321,0.49014,0.25342,0.54588,0.49328,0.04975,0.58833,0.92438,0.21635,0.55622,0.92629,-0.05785,0.6144,1.4249,0.27767,0.57257,1.43372,-0.12039,0.57469,1.14447,0.37252,0.53625,1.16401,-0.09911,0.72751,0.93171,0.39992,0.68265,0.95553
3889,0.10441,0.6108,1.54092,0.00073,0.54786,0.07737,0.26989,0.50323,0.07818,0.03178,0.60318,0.48998,0.25361,0.54494,0.49317,0.05112,0.5886,0.92419,0.21758,0.55583,0.92626,-0.0566,0.61479,1.42487,0.27953,0.57152,1.43344,-0.11872,0.57312,1.14463,0.37399,0.53561,1.16354,-0.09769,0.72502,0.93118,0.40303,0.68063,0.95432
3890,0.10616,0.61028,1.54118,0.00043,0.54789,0.07732,0.26986,0.50322,0.07794,0.03238,0.6034,0.48983,0.25395,0.54421,0.49301,0.05251,0.5889,0.92401,0.21887,0.55562,0.92617,-0.05557,0.61525,1.42481,0.28128,0.57069,1.43314,-0.11721,0.57157,1.14478,0.37514,0.53523,1.16297,-0.09642,0.72258,0.93067,0.40634,0.67857,0.9529
3891,0.10794,0.61005,1.54127,0.00025,0.54808,0.07731,0.26969,0.50334,0.07769,0.03321,0.60356,0.48974,0.25455,0.54379,0.49284,0.05384,0.58936,0.92391,0.22013,0.55571,0.92603,-0.05434,0.61578,1.4247,0.28304,0.57002,1.43278,-0.1158,0.57052,1.14488,0.37621,0.53502,1.16231,-0.09483,0.72063,0.93015,0.40974,0.67641,0.95128
3892,0.10999,0.61024,1.54086,0.00021,0.54823,0.0774,0.26943,0.50347,0.07746,0.03434,0.60356,0.48977,0.25529,0.54339,0.4927,0.05512,0.59002,0.92394,0.22136,0.55609,0.92591,-0.05281,0.61646,1.42448,0.28488,0.56937,1.43232,-0.11438,0.57011,1.14486,0.3774,0.53464,1.16159,-0.09267,0.71946,0.92969,0.41296,0.67404,0.94957
3893,0.11218,0.61062,1.54012,0.0003,0.54828,0.07766,0.26912,0.50346,0.0773,0.03562,0.60347,0.48994,0.25609,0.54262,0.49265,0.05643,0.59073,0.92414,0.22261,0.55654,0.92586,-0.05109,0.61716,1.42418,0.28679,0.56875,1.43179,-0.1129,0.56982,1.14478,0.37876,0.53388,1.16089,-0.09013,0.71868,0.92936,0.41583,0.6715,0.94798
3894,0.1141,0.61078,1.53962,0.00049,0.54837,0.07803,0.26879,0.50328,0.07727,0.03674,0.60344,0.49025,0.25695,0.54149,0.49275,0.05778,0.59142,0.92446,0.22391,0.55695,0.92593,-0.04926,0.61756,1.42388,0.28863,0.56833,1.43129,-0.11147,0.56914,1.14476,0.38022,0.53291,1.16034,-0.08761,0.7177,0.92926,0.41842,0.66892,0.94659
3895,0.1156,0.61059,1.53968,0.00076,0.54859,0.07835,0.26849,0.50299,0.07736,0.03749,0.60366,0.49053,0.25787,0.54026,0.49295,0.05912,0.59219,0.92472,0.22518,0.5574,0.9261,-0.04745,0.61758,1.42363,0.29023,0.5681,1.43091,-0.1102,0.56797,1.14483,0.38162,0.53205,1.15997,-0.08526,0.71642,0.92938,0.42108,0.66621,0.94528
3896,0.11688,0.61017,1.54014,0.00103,0.54885,0.07848,0.26836,0.50268,0.07748,0.03787,0.60421,0.4906,0.2587,0.53912,0.49317,0.06038,0.5931,0.92476,0.22638,0.55804,0.92627,-0.04587,0.61746,1.42343,0.29156,0.56776,1.43053,-0.10909,0.56651,1.14497,0.38275,0.5313,1.15957,-0.08305,0.71495,0.92965,0.42397,0.66322,0.94383
3897,0.11821,0.60976,1.54058,0.00125,0.54903,0.07841,0.26854,0.50248,0.07753,0.0382,0.60492,0.49045,0.25936,0.5381,0.4933,0.06154,0.59406,0.92458,0.22752,0.55891,0.92635,-0.0447,0.61748,1.42339,0.29277,0.5671,1.42995,-0.10803,0.565,1.14525,0.38349,0.53043,1.15887,-0.081,0.71337,0.93,0.42684,0.6601,0.94218
3898,0.11961,0.60953,1.5406,0.00141,0.5491,0.07831,0.26911,0.50251,0.07744,0.03889,0.60542,0.49025,0.25991,0.5372,0.49329,0.06262,0.59496,0.92436,0.22863,0.55992,0.92629,-0.04386,0.61773,1.42361,0.29401,0.56637,1.42916,-0.10691,0.56367,1.14571,0.38399,0.52936,1.15788,-0.07908,0.71192,0.93048,0.42937,0.6571,0.94046
3899,0.12091,0.60959,1.54015,0.00153,0.54908,0.07832,0.26994,0.50272,0.0772,0.04003,0.60558,0.49014,0.26053,0.53644,0.49313,0.06371,0.59576,0.92427,0.22975,0.56089,0.92606,-0.04311,0.61816,1.424,0.2953,0.56596,1.42839,-0.1057,0.56259,1.14629,0.38461,0.52828,1.15698,-0.07716,0.71092,0.93121,0.43176,0.65413,0.93884
3900,0.12197,0.60985,1.53958,0.00166,0.549,0.07848,0.27069,0.50288,0.07687,0.0413,0.60564,0.49017,0.26127,0.53577,0.49286,0.06488,0.59648,0.92432,0.23094,0.56165,0.92575,-0.04218,0.61871,1.42431,0.29656,0.56596,1.42785,-0.10462,0.56152,1.14689,0.38549,0.52737,1.15645,-0.07519,0.71041,0.93231,0.43451,0.65081,0.93734
3901,0.12285,0.61012,1.53928,0.00184,0.5489,0.07869,0.2711,0.50278,0.07659,0.04231,0.60581,0.49027,0.26205,0.53512,0.49263,0.06615,0.5971,0.92441,0.23215,0.56202,0.92549,-0.04104,0.61914,1.42441,0.2978,0.56607,1.42758,-0.10388,0.56006,1.14749,0.3865,0.52653,1.15624,-0.0733,0.71005,0.93384,0.43775,0.647,0.93599
3902,0.12372,0.61023,1.53931,0.00199,0.54883,0.0789,0.27119,0.50241,0.07648,0.04298,0.60606,0.49038,0.26271,0.53446,0.49255,0.06745,0.59752,0.92449,0.23338,0.56206,0.9254,-0.03978,0.61917,1.4244,0.29916,0.56591,1.42746,-0.10342,0.55811,1.14808,0.38741,0.52551,1.15609,-0.07157,0.70956,0.93565,0.44108,0.64294,0.93479
3903,0.12473,0.6102,1.5394,0.00196,0.54872,0.07905,0.27121,0.50198,0.07651,0.04342,0.60633,0.49043,0.26318,0.53384,0.49261,0.06881,0.59778,0.92449,0.23468,0.56208,0.92548,-0.03845,0.61865,1.42444,0.30065,0.56536,1.42729,-0.10302,0.55604,1.14869,0.38819,0.52423,1.15581,-0.07,0.70887,0.93744,0.44403,0.63893,0.93361
3904,0.1258,0.61016,1.53931,0.00177,0.54854,0.07907,0.27129,0.50173,0.07656,0.04377,0.60662,0.49033,0.26347,0.53339,0.49268,0.0702,0.59804,0.92433,0.23606,0.56229,0.92557,-0.03715,0.61786,1.42462,0.30202,0.56461,1.42692,-0.10255,0.55422,1.1493,0.3889,0.52297,1.15529,-0.06841,0.70826,0.93911,0.44646,0.63513,0.93224
3905,0.12679,0.61025,1.53906,0.00162,0.5484,0.07897,0.27134,0.50167,0.07653,0.04412,0.6069,0.49012,0.26374,0.53321,0.49266,0.07156,0.59832,0.92405,0.23743,0.56262,0.92558,-0.03614,0.61725,1.42488,0.30304,0.56394,1.42624,-0.10201,0.55275,1.14987,0.38952,0.52207,1.15453,-0.06652,0.70831,0.94102,0.44848,0.6316,0.93053
3906,0.12779,0.61037,1.53881,0.00171,0.54859,0.07879,0.27126,0.50166,0.07646,0.04459,0.60699,0.48992,0.26418,0.53328,0.49259,0.07277,0.5986,0.9238,0.23864,0.56289,0.92555,-0.03555,0.61699,1.42517,0.30369,0.56345,1.42531,-0.1014,0.55158,1.15037,0.39,0.52164,1.15354,-0.06415,0.70938,0.94351,0.45024,0.62838,0.92854
3907,0.1291,0.61033,1.53878,0.00206,0.54914,0.07861,0.27114,0.50154,0.07639,0.04521,0.60678,0.48981,0.26488,0.53338,0.49252,0.07384,0.59895,0.92368,0.23968,0.56312,0.92549,-0.03514,0.6169,1.42551,0.3043,0.56294,1.42433,-0.10075,0.55066,1.15086,0.39046,0.52141,1.15246,-0.06154,0.71117,0.94646,0.45187,0.62534,0.92646
3908,0.13066,0.61007,1.53895,0.0025,0.54968,0.07851,0.27109,0.50132,0.07626,0.04589,0.60642,0.48981,0.2657,0.53331,0.4924,0.07483,0.59946,0.92367,0.24062,0.56339,0.92535,-0.03455,0.61672,1.42587,0.30517,0.5623,1.42349,-0.10018,0.54996,1.15135,0.39114,0.52101,1.15153,-0.05907,0.71317,0.94947,0.45352,0.62222,0.92456
3909,0.13198,0.6098,1.53908,0.00287,0.54983,0.07851,0.27113,0.50119,0.07603,0.04653,0.60615,0.48984,0.26645,0.53309,0.49218,0.07581,0.60014,0.92369,0.24152,0.56373,0.9251,-0.03365,0.61649,1.42615,0.30629,0.56165,1.4228,-0.09967,0.54929,1.15183,0.3921,0.52031,1.1508,-0.05687,0.71509,0.95244,0.45525,0.61892,0.9229
3910,0.13271,0.60983,1.53885,0.00307,0.54959,0.07855,0.27116,0.50123,0.07578,0.04702,0.60606,0.48983,0.26707,0.53278,0.49196,0.07679,0.60081,0.92366,0.24245,0.5641,0.92485,-0.03255,0.61645,1.4264,0.30738,0.56124,1.42213,-0.09912,0.54827,1.15245,0.39317,0.51951,1.15017,-0.05486,0.71663,0.95554,0.45704,0.61547,0.92135
3911,0.13312,0.61023,1.53825,0.00298,0.54929,0.07854,0.27116,0.50144,0.07558,0.04735,0.60614,0.48972,0.26752,0.53249,0.4918,0.07779,0.60129,0.92351,0.2434,0.56442,0.92468,-0.03136,0.61677,1.42681,0.30825,0.56112,1.42147,-0.09847,0.54677,1.15345,0.39409,0.51884,1.14962,-0.05301,0.7175,0.95887,0.45891,0.61179,0.91982
3912,0.13377,0.61077,1.5375,0.00267,0.54921,0.07844,0.27108,0.50169,0.07542,0.04768,0.60627,0.48952,0.26773,0.53226,0.49168,0.07872,0.60157,0.92327,0.24432,0.56463,0.92456,-0.03008,0.61733,1.42738,0.30894,0.56108,1.42101,-0.0979,0.54521,1.15475,0.39473,0.51836,1.14921,-0.05122,0.71811,0.96238,0.46092,0.60777,0.9184
3913,0.13486,0.61115,1.53689,0.00235,0.54938,0.07829,0.2709,0.50197,0.07523,0.04818,0.60635,0.4893,0.26775,0.53209,0.49153,0.07953,0.60182,0.92303,0.24511,0.56479,0.92442,-0.02878,0.6178,1.42784,0.30961,0.56093,1.42084,-0.09768,0.54426,1.15587,0.3951,0.51801,1.14898,-0.04922,0.71951,0.96609,0.46297,0.60365,0.91723
3914,0.13606,0.61124,1.53666,0.0022,0.54965,0.07821,0.27074,0.50226,0.07506,0.04886,0.60641,0.48915,0.26778,0.53199,0.49138,0.0802,0.60221,0.92289,0.24574,0.565,0.92429,-0.02762,0.61795,1.428,0.3104,0.56081,1.42077,-0.09782,0.54406,1.15645,0.39538,0.51769,1.14878,-0.04681,0.72216,0.97002,0.46487,0.59991,0.91628
3915,0.13694,0.61109,1.53688,0.00218,0.54987,0.07826,0.27083,0.50247,0.07501,0.04955,0.60661,0.48913,0.26796,0.53204,0.49135,0.08084,0.60276,0.92287,0.24634,0.56539,0.92425,-0.02664,0.6179,1.42795,0.31125,0.56092,1.42058,-0.09795,0.54419,1.15664,0.39575,0.51727,1.14853,-0.04418,0.72564,0.97425,0.46648,0.59674,0.91545
3916,0.13746,0.61078,1.53733,0.00221,0.5499,0.07841,0.27123,0.50251,0.07515,0.05008,0.60705,0.48916,0.26829,0.53227,0.49147,0.08151,0.60333,0.92289,0.24698,0.56583,0.92437,-0.02579,0.61794,1.42795,0.31206,0.56117,1.42023,-0.09769,0.54418,1.1568,0.3963,0.51658,1.14825,-0.04169,0.72935,0.97888,0.46781,0.594,0.91471
3917,0.1379,0.61037,1.53771,0.00224,0.54969,0.07857,0.27168,0.50235,0.07536,0.05037,0.60766,0.48918,0.26874,0.53258,0.49165,0.08212,0.60373,0.92288,0.24757,0.56613,0.92456,-0.02508,0.6182,1.42812,0.31278,0.56121,1.41985,-0.09711,0.54406,1.15712,0.3969,0.51557,1.148,-0.03939,0.73317,0.98397,0.46897,0.59153,0.91416
3918,0.13846,0.60999,1.53785,0.00228,0.54937,0.07868,0.27191,0.50211,0.07548,0.05043,0.60821,0.48916,0.26932,0.53293,0.49172,0.08256,0.6039,0.92283,0.24799,0.56619,0.92464,-0.02456,0.61861,1.42847,0.31345,0.56089,1.41948,-0.09667,0.54416,1.15757,0.39743,0.51432,1.14775,-0.03699,0.7372,0.98949,0.47006,0.5892,0.91373
3919,0.13909,0.60981,1.5378,0.0023,0.54915,0.07876,0.27191,0.5019,0.07542,0.05044,0.6086,0.48914,0.26997,0.53328,0.49163,0.08291,0.604,0.92279,0.24831,0.56618,0.92457,-0.02415,0.61905,1.42895,0.31414,0.56042,1.41909,-0.09658,0.54461,1.15813,0.39789,0.51306,1.14742,-0.03432,0.74143,0.99547,0.47118,0.58682,0.91325
3920,0.13958,0.60991,1.5376,0.00229,0.54923,0.07884,0.2718,0.50174,0.0753,0.05059,0.60889,0.48918,0.27057,0.53359,0.49147,0.08339,0.60423,0.9228,0.24876,0.56628,0.92442,-0.02373,0.61937,1.42951,0.31485,0.56003,1.41866,-0.09675,0.54521,1.15878,0.39836,0.5121,1.14702,-0.03157,0.74574,1.00188,0.47233,0.58425,0.91257
3921,0.13982,0.6102,1.53736,0.00211,0.54955,0.07895,0.27159,0.50164,0.07523,0.05094,0.60918,0.48923,0.27098,0.53382,0.49139,0.08408,0.60464,0.92283,0.24941,0.56653,0.92434,-0.02325,0.61945,1.43005,0.31549,0.55984,1.41829,-0.097,0.54576,1.15939,0.39882,0.51157,1.14666,-0.02893,0.75001,1.00864,0.47336,0.58158,0.91173
3922,0.13995,0.61052,1.5372,0.00174,0.54992,0.07907,0.27122,0.50162,0.07527,0.05133,0.60951,0.48927,0.27119,0.534,0.49141,0.08492,0.60515,0.92283,0.25022,0.56687,0.92438,-0.02272,0.61932,1.43047,0.31595,0.55977,1.41799,-0.09729,0.54632,1.15984,0.39923,0.51123,1.14638,-0.02643,0.75426,1.01556,0.47411,0.57898,0.91091
3923,0.14017,0.61079,1.53719,0.00131,0.55008,0.07917,0.27083,0.50175,0.07536,0.05164,0.6099,0.48924,0.27131,0.53427,0.49149,0.08579,0.60562,0.92276,0.25106,0.56725,0.92448,-0.02217,0.61924,1.43073,0.31622,0.55968,1.41766,-0.09754,0.54708,1.16011,0.39953,0.5107,1.14614,-0.02408,0.75862,1.02251,0.4746,0.57658,0.91019
3924,0.14054,0.61089,1.53734,0.00103,0.54999,0.07925,0.27058,0.50205,0.07542,0.0519,0.61037,0.48917,0.27136,0.53463,0.49154,0.08658,0.6059,0.92264,0.25186,0.5676,0.92457,-0.0216,0.6194,1.43087,0.3164,0.55939,1.41723,-0.09762,0.54813,1.16019,0.39978,0.50982,1.14585,-0.02193,0.76323,1.0295,0.475,0.5745,0.90961
3925,0.14089,0.61068,1.53762,0.00096,0.54977,0.07934,0.27053,0.50231,0.07545,0.05221,0.61083,0.48912,0.2713,0.53502,0.49156,0.08724,0.60602,0.92256,0.25255,0.56781,0.92464,-0.021,0.61974,1.43091,0.31664,0.55883,1.41678,-0.0976,0.54941,1.16015,0.40002,0.50867,1.1455,-0.02001,0.76806,1.03666,0.47542,0.5728,0.90918
3926,0.14116,0.61015,1.53791,0.0011,0.54967,0.07952,0.27062,0.50228,0.07551,0.05259,0.61113,0.48921,0.2712,0.53536,0.49159,0.08776,0.60621,0.92264,0.25304,0.5679,0.92471,-0.0202,0.62,1.43089,0.31699,0.55811,1.41644,-0.09768,0.55084,1.16007,0.4002,0.50737,1.14522,-0.01819,0.7729,1.0441,0.4758,0.57137,0.90892
3927,0.1415,0.60961,1.53809,0.00141,0.5498,0.07977,0.27076,0.50205,0.07559,0.05301,0.61113,0.48946,0.27118,0.5357,0.49163,0.08805,0.60655,0.92291,0.25326,0.56794,0.92478,-0.01914,0.62008,1.43084,0.31733,0.55742,1.41628,-0.09792,0.55244,1.16001,0.40016,0.50609,1.14505,-0.01613,0.77765,1.052,0.47605,0.56997,0.90882
3928,0.142,0.60946,1.53812,0.00178,0.5501,0.08,0.27087,0.50202,0.07568,0.05342,0.611,0.48975,0.27129,0.53613,0.49168,0.08814,0.60691,0.92323,0.2533,0.56806,0.92485,-0.01807,0.6201,1.43075,0.3175,0.55685,1.41629,-0.09816,0.55424,1.15987,0.39981,0.505,1.145,-0.01369,0.78251,1.06068,0.47618,0.56843,0.9088
3929,0.14255,0.6098,1.53799,0.00201,0.55039,0.08017,0.27093,0.50234,0.0758,0.05375,0.61108,0.48993,0.27153,0.53668,0.49178,0.08829,0.60722,0.92343,0.25343,0.56828,0.92497,-0.01737,0.62023,1.43068,0.31763,0.55647,1.41641,-0.09819,0.55621,1.15958,0.39931,0.50413,1.14503,-0.01103,0.78754,1.07032,0.47629,0.56682,0.90882
3930,0.14303,0.6103,1.53771,0.00197,0.55061,0.0803,0.27093,0.5027,0.076,0.05393,0.61152,0.49,0.27187,0.53725,0.49196,0.08873,0.60759,0.92348,0.25385,0.56858,0.92518,-0.01702,0.62049,1.4307,0.31796,0.55629,1.41654,-0.09799,0.55842,1.15919,0.39892,0.50333,1.14506,-0.00821,0.79256,1.08045,0.4764,0.56544,0.90887
3931,0.14345,0.6106,1.53734,0.00171,0.55081,0.08041,0.27092,0.50283,0.07626,0.05395,0.61197,0.49005,0.27228,0.53774,0.49219,0.08943,0.60816,0.92346,0.2545,0.56895,0.92543,-0.01664,0.62085,1.43081,0.31853,0.55632,1.41658,-0.09765,0.56114,1.15879,0.39873,0.5025,1.14505,-0.005,0.79741,1.09046,0.47642,0.56457,0.90891
3932,0.14384,0.61066,1.53699,0.00148,0.55098,0.08046,0.2709,0.50286,0.07647,0.05382,0.61203,0.49009,0.27268,0.53816,0.49236,0.09012,0.60888,0.92345,0.25514,0.56945,0.9256,-0.01606,0.62127,1.43096,0.31899,0.55643,1.41653,-0.09734,0.56448,1.15839,0.39859,0.50169,1.14501,-0.00144,0.80221,1.10039,0.47619,0.56411,0.90894
3933,0.14428,0.61065,1.5368,0.00148,0.55105,0.0804,0.27086,0.50303,0.07651,0.05363,0.61169,0.49012,0.27297,0.53864,0.49237,0.0906,0.60948,0.92343,0.25561,0.57005,0.92561,-0.01545,0.62165,1.43106,0.31902,0.55641,1.41647,-0.09733,0.56821,1.15799,0.39838,0.50105,1.145,0.00198,0.80696,1.11094,0.47568,0.5637,0.90889
3934,0.14489,0.61069,1.53676,0.00167,0.55099,0.08023,0.27078,0.50333,0.07638,0.05338,0.61132,0.49006,0.27316,0.53922,0.49222,0.09092,0.6098,0.92332,0.256,0.57063,0.92547,-0.01503,0.6219,1.43097,0.31864,0.55616,1.41644,-0.09785,0.57207,1.1575,0.39811,0.50061,1.14504,0.00486,0.81145,1.12247,0.475,0.56311,0.90876
3935,0.14562,0.61077,1.53675,0.00184,0.55086,0.07997,0.27062,0.50357,0.07621,0.05303,0.61124,0.48986,0.27331,0.5398,0.49202,0.09127,0.60997,0.92306,0.2564,0.57102,0.92529,-0.01487,0.62209,1.43058,0.31821,0.55584,1.41642,-0.09877,0.57595,1.15679,0.39789,0.50026,1.14509,0.00744,0.81533,1.13453,0.47428,0.56255,0.90858
3936,0.14628,0.61085,1.53662,0.00189,0.55072,0.07966,0.27046,0.50362,0.07609,0.05259,0.61143,0.48956,0.27347,0.54025,0.49186,0.09172,0.61026,0.92268,0.25681,0.57117,0.92516,-0.01491,0.62237,1.42989,0.31813,0.55569,1.4164,-0.09968,0.57994,1.15577,0.39778,0.49988,1.14511,0.01024,0.81849,1.14643,0.47363,0.56236,0.90848
3937,0.14662,0.61098,1.53627,0.00192,0.55065,0.07938,0.2705,0.5035,0.07599,0.05216,0.61169,0.48928,0.27364,0.54066,0.49171,0.09215,0.61071,0.92232,0.25714,0.5712,0.92505,-0.01507,0.6228,1.42914,0.31853,0.5558,1.41638,-0.10017,0.5841,1.15457,0.39775,0.49929,1.1451,0.01352,0.82104,1.15788,0.47307,0.5627,0.90856
3938,0.14655,0.61114,1.53582,0.00203,0.55071,0.07924,0.27086,0.50325,0.07588,0.05186,0.61181,0.48918,0.27379,0.54122,0.49153,0.09246,0.61115,0.92217,0.25735,0.57122,0.9249,-0.01516,0.62329,1.42858,0.31921,0.55606,1.41635,-0.10002,0.5884,1.15342,0.3977,0.49847,1.1451,0.01723,0.8231,1.1691,0.47257,0.56344,0.90883
3939,0.14621,0.61122,1.53554,0.00215,0.55082,0.0793,0.27146,0.50293,0.07578,0.05178,0.61166,0.48931,0.27389,0.54189,0.49135,0.09268,0.61144,0.92226,0.25751,0.57125,0.92476,-0.01507,0.62385,1.42827,0.31985,0.55634,1.41634,-0.09927,0.5927,1.15247,0.3976,0.49767,1.1451,0.02107,0.82466,1.18055,0.4721,0.56428,0.90918
3940,0.14596,0.61112,1.53557,0.00225,0.55073,0.07954,0.27205,0.50257,0.07578,0.05194,0.61132,0.48957,0.27391,0.54236,0.49127,0.09291,0.61156,0.92252,0.25772,0.57128,0.92473,-0.01484,0.62456,1.42812,0.32024,0.55647,1.41632,-0.09814,0.59707,1.15165,0.39746,0.49717,1.14507,0.02453,0.82586,1.19273,0.47173,0.56499,0.90942
3941,0.14606,0.61102,1.53564,0.00236,0.55037,0.07982,0.27236,0.50223,0.07591,0.0522,0.61105,0.48983,0.27392,0.54236,0.49137,0.09309,0.61155,0.92279,0.25794,0.57143,0.92482,-0.01459,0.62532,1.42806,0.32032,0.5564,1.41627,-0.09682,0.60188,1.1509,0.3973,0.49697,1.14497,0.0272,0.82703,1.20574,0.47137,0.56559,0.90949
3942,0.14648,0.6112,1.53541,0.00252,0.55001,0.08001,0.27235,0.50199,0.07609,0.0524,0.61103,0.48996,0.27397,0.54205,0.49156,0.09311,0.6116,0.92293,0.25804,0.57179,0.92497,-0.01444,0.62584,1.42812,0.32003,0.55622,1.41611,-0.09532,0.60732,1.15019,0.39707,0.49686,1.14482,0.02932,0.82827,1.21894,0.47086,0.56633,0.90949
3943,0.14692,0.61164,1.53491,0.00261,0.54995,0.08001,0.27214,0.50191,0.07622,0.05248,0.61116,0.48993,0.27406,0.54185,0.4917,0.09298,0.61192,0.92292,0.25795,0.57231,0.92505,-0.01441,0.62595,1.42832,0.31951,0.55609,1.41588,-0.09356,0.6131,1.14957,0.39679,0.49667,1.14467,0.03164,0.82926,1.23129,0.47011,0.56745,0.90959
3944,0.14713,0.6121,1.53453,0.00253,0.55018,0.07993,0.27186,0.50199,0.07625,0.05251,0.61121,0.48987,0.2742,0.54204,0.49171,0.09279,0.61254,0.92288,0.25774,0.57284,0.92503,-0.01427,0.62582,1.42862,0.31912,0.5561,1.41573,-0.09162,0.61879,1.14917,0.39647,0.49629,1.14463,0.03462,0.82967,1.24229,0.46932,0.56904,0.91
3945,0.14703,0.61242,1.53442,0.00236,0.55052,0.07997,0.2716,0.50217,0.07624,0.0527,0.61109,0.48993,0.27436,0.54243,0.49168,0.09266,0.6133,0.92297,0.25755,0.57333,0.92498,-0.01384,0.62575,1.429,0.31907,0.55623,1.41586,-0.08968,0.62432,1.14905,0.39604,0.49582,1.14478,0.03798,0.82953,1.25235,0.46871,0.57094,0.91084
3946,0.14681,0.6127,1.53444,0.00228,0.55075,0.08018,0.27137,0.5024,0.07625,0.05313,0.61091,0.49014,0.27447,0.54263,0.49169,0.0927,0.61408,0.92321,0.25753,0.57383,0.92496,-0.01321,0.62609,1.42944,0.31928,0.55642,1.41626,-0.08782,0.62993,1.14918,0.39546,0.49553,1.14506,0.04111,0.82916,1.26217,0.46826,0.57288,0.9119
3947,0.14659,0.61311,1.53448,0.00226,0.55076,0.08047,0.27117,0.50271,0.07624,0.05367,0.61083,0.49037,0.2745,0.54251,0.49172,0.09293,0.61479,0.92346,0.25773,0.57443,0.92494,-0.01268,0.62699,1.42997,0.31947,0.55661,1.41671,-0.08603,0.63584,1.14949,0.39485,0.49565,1.1453,0.04374,0.82888,1.27184,0.46769,0.5746,0.91269
3948,0.14643,0.6136,1.53461,0.0021,0.5506,0.08066,0.27097,0.50307,0.07614,0.05399,0.6108,0.49048,0.27452,0.54232,0.49167,0.09327,0.6154,0.92356,0.25808,0.57508,0.92485,-0.01239,0.62826,1.43065,0.31953,0.55669,1.41697,-0.08431,0.64197,1.14999,0.3944,0.49619,1.14532,0.04612,0.82873,1.28109,0.46682,0.57595,0.91285
3949,0.14631,0.61396,1.53489,0.00172,0.55042,0.08068,0.27074,0.50338,0.07596,0.05392,0.61077,0.49044,0.27456,0.54237,0.49151,0.09353,0.61589,0.92348,0.25836,0.57567,0.92465,-0.01238,0.62952,1.43148,0.31954,0.55659,1.41702,-0.08264,0.64812,1.15069,0.3942,0.49693,1.14513,0.04858,0.82832,1.28993,0.46568,0.57692,0.91245
3950,0.14623,0.61404,1.53521,0.00134,0.55032,0.08057,0.27057,0.50352,0.07573,0.05363,0.61077,0.49031,0.2745,0.54258,0.49128,0.09361,0.61637,0.92331,0.25844,0.57611,0.9244,-0.01259,0.63038,1.43232,0.31964,0.55646,1.41702,-0.08097,0.65409,1.15145,0.39418,0.49757,1.14492,0.05116,0.82722,1.29858,0.46453,0.57769,0.91195
3951,0.1462,0.6139,1.5355,0.00115,0.55031,0.08041,0.27058,0.50349,0.07554,0.05347,0.61077,0.49014,0.27429,0.54266,0.49108,0.0936,0.61687,0.92313,0.25837,0.57639,0.9242,-0.0129,0.63078,1.43298,0.31994,0.55649,1.41704,-0.07922,0.65979,1.15211,0.39424,0.49797,1.1448,0.05372,0.82543,1.30693,0.46357,0.5786,0.91169
3952,0.14633,0.61365,1.53577,0.00119,0.55027,0.0802,0.27073,0.5033,0.07551,0.0535,0.61063,0.48994,0.27407,0.54253,0.49104,0.09361,0.61726,0.92292,0.25832,0.57652,0.92415,-0.01306,0.63096,1.43337,0.32037,0.55664,1.41704,-0.07736,0.66536,1.15264,0.39434,0.4983,1.14467,0.05623,0.82342,1.31466,0.46276,0.58008,0.91169
3953,0.14681,0.6133,1.53603,0.00142,0.55012,0.0799,0.27085,0.50298,0.07563,0.05351,0.61024,0.4897,0.27409,0.5423,0.49116,0.09366,0.61748,0.92267,0.25834,0.57662,0.92423,-0.01281,0.63117,1.43368,0.32075,0.55676,1.41695,-0.07534,0.67115,1.15329,0.39445,0.4988,1.14443,0.05866,0.82173,1.32195,0.46193,0.58221,0.91175
3954,0.14765,0.61288,1.53624,0.00174,0.54993,0.07953,0.27099,0.50266,0.07576,0.05335,0.60975,0.48944,0.27433,0.54203,0.49129,0.09376,0.61771,0.92237,0.25844,0.57688,0.92431,-0.01216,0.63132,1.43407,0.32095,0.55684,1.4168,-0.07305,0.67737,1.15425,0.39448,0.49939,1.14413,0.06076,0.82059,1.32935,0.46094,0.58454,0.91179
3955,0.14859,0.61251,1.5363,0.00198,0.54989,0.07919,0.27135,0.50252,0.07579,0.05304,0.60946,0.48921,0.2746,0.54171,0.49133,0.09397,0.61816,0.92208,0.25864,0.5773,0.9243,-0.01145,0.63121,1.43445,0.32105,0.55696,1.4167,-0.07052,0.68388,1.15541,0.39433,0.49985,1.14389,0.06233,0.81979,1.33695,0.45974,0.58659,0.91184
3956,0.14934,0.61234,1.53616,0.00207,0.55003,0.07904,0.27194,0.50257,0.07571,0.05269,0.60949,0.48913,0.27479,0.54149,0.49127,0.09436,0.61876,0.92192,0.25896,0.5776,0.9242,-0.01105,0.63106,1.43466,0.32112,0.55706,1.41669,-0.06802,0.69041,1.15652,0.39407,0.50013,1.14375,0.06354,0.81898,1.34425,0.45847,0.58834,0.91197
3957,0.14977,0.61237,1.5359,0.00212,0.55021,0.0791,0.27247,0.50269,0.07559,0.05247,0.60966,0.48922,0.2749,0.54157,0.49117,0.09486,0.61933,0.92192,0.25933,0.57768,0.9241,-0.01097,0.63124,1.4347,0.32114,0.55699,1.41675,-0.06581,0.69682,1.15754,0.3939,0.50045,1.14368,0.06482,0.81809,1.35069,0.45738,0.59012,0.91222
3958,0.14997,0.61252,1.53562,0.00225,0.55029,0.0792,0.27266,0.50277,0.07551,0.0525,0.60975,0.48934,0.27493,0.5419,0.49106,0.09532,0.61979,0.92199,0.25966,0.57763,0.92404,-0.01087,0.63184,1.43476,0.32103,0.55683,1.41691,-0.06388,0.70301,1.15862,0.39391,0.50096,1.14373,0.06647,0.8173,1.35617,0.45661,0.59212,0.91264
3959,0.15009,0.61275,1.53536,0.00238,0.55031,0.07921,0.27249,0.50276,0.07545,0.05271,0.6097,0.48934,0.27495,0.54217,0.49098,0.09558,0.62013,0.92198,0.25982,0.57756,0.92399,-0.01045,0.63262,1.43503,0.32083,0.55687,1.41719,-0.06197,0.70871,1.15992,0.39396,0.50152,1.14398,0.06831,0.81673,1.36101,0.45603,0.5942,0.91332
3960,0.15031,0.61298,1.53512,0.00226,0.55035,0.07913,0.27209,0.50265,0.07545,0.05287,0.60962,0.48925,0.27499,0.54223,0.49096,0.09562,0.62039,0.9219,0.25978,0.57752,0.92397,-0.00969,0.63339,1.43559,0.32069,0.55718,1.41763,-0.05982,0.71378,1.16145,0.39393,0.50186,1.14443,0.07001,0.8163,1.36569,0.45545,0.59606,0.91423
3961,0.15078,0.61313,1.53485,0.00181,0.55035,0.07914,0.27158,0.5025,0.07556,0.05273,0.60967,0.48921,0.27505,0.5422,0.49105,0.09564,0.62069,0.92184,0.25973,0.57758,0.92406,-0.00874,0.6341,1.43636,0.32079,0.5574,1.41818,-0.0574,0.71842,1.16313,0.39381,0.502,1.14494,0.07147,0.81585,1.37045,0.45481,0.59761,0.91519
3962,0.15143,0.6132,1.53455,0.00106,0.55024,0.07932,0.27109,0.50235,0.07583,0.05229,0.60991,0.48931,0.275,0.54229,0.49129,0.0959,0.62116,0.92185,0.25993,0.57782,0.92429,-0.00779,0.63459,1.43707,0.32122,0.55718,1.4187,-0.0549,0.723,1.16487,0.39365,0.50223,1.14522,0.07304,0.8153,1.37508,0.45415,0.59921,0.9159
3963,0.15202,0.61319,1.53436,0.00014,0.55007,0.0796,0.27076,0.50223,0.07619,0.05173,0.61021,0.48947,0.27479,0.54258,0.49161,0.09649,0.6219,0.92188,0.26044,0.57827,0.92463,-0.00694,0.6347,1.43746,0.32186,0.55657,1.41899,-0.05257,0.72754,1.16649,0.39344,0.50289,1.14503,0.075,0.81464,1.37914,0.45346,0.60129,0.9162
3964,0.15241,0.61312,1.53447,-0.00076,0.55011,0.07979,0.27065,0.50216,0.07654,0.05124,0.61047,0.48957,0.27449,0.54303,0.49191,0.09724,0.62285,0.92184,0.26108,0.57883,0.92494,-0.00621,0.63466,1.43753,0.3224,0.55588,1.41897,-0.05052,0.73169,1.16781,0.39318,0.5039,1.14448,0.07702,0.81386,1.38243,0.45277,0.60394,0.91625
3965,0.15267,0.61301,1.53489,-0.00145,0.55049,0.07977,0.27065,0.50215,0.07675,0.05092,0.61078,0.48952,0.27431,0.54354,0.49207,0.09791,0.62376,0.92166,0.26161,0.57928,0.92514,-0.00565,0.63487,1.43755,0.32264,0.5553,1.41872,-0.04867,0.73528,1.16886,0.39305,0.50485,1.14384,0.07844,0.81305,1.38536,0.45224,0.60686,0.91638
3966,0.15294,0.61286,1.53542,-0.00183,0.55099,0.07957,0.27057,0.50214,0.07684,0.05072,0.61129,0.48929,0.27432,0.54403,0.49211,0.09841,0.62436,0.92135,0.26198,0.57941,0.92521,-0.00534,0.63547,1.4378,0.32265,0.55486,1.41839,-0.04675,0.7386,1.16988,0.3933,0.5054,1.1434,0.07919,0.81223,1.38851,0.45202,0.60964,0.91683
3967,0.15335,0.61279,1.53578,-0.00187,0.55115,0.0793,0.27041,0.50209,0.07683,0.0506,0.61197,0.48896,0.2745,0.54447,0.49205,0.09883,0.6246,0.92097,0.26228,0.57926,0.9252,-0.00519,0.63631,1.43833,0.32262,0.55453,1.41816,-0.04459,0.74212,1.17116,0.39392,0.50556,1.14325,0.08022,0.81145,1.39183,0.45211,0.61191,0.91752
3968,0.154,0.61293,1.53578,-0.0017,0.5508,0.07914,0.27028,0.50204,0.07672,0.05065,0.61263,0.48866,0.27482,0.54485,0.49189,0.09929,0.62472,0.92065,0.26266,0.5791,0.92509,-0.00495,0.63724,1.43903,0.32268,0.55432,1.41809,-0.04224,0.74588,1.17269,0.39456,0.50553,1.1433,0.08256,0.81082,1.3947,0.45234,0.61339,0.91818
3969,0.15485,0.61322,1.53547,-0.00148,0.55019,0.0792,0.27026,0.50207,0.07653,0.05097,0.61311,0.48854,0.27531,0.54525,0.49165,0.09986,0.62504,0.9205,0.26315,0.57915,0.92488,-0.00437,0.63813,1.43968,0.32289,0.55421,1.41808,-0.03978,0.74944,1.17419,0.39493,0.50549,1.14332,0.08611,0.81044,1.3967,0.45256,0.6143,0.91862
3970,0.15566,0.61341,1.53507,-0.00134,0.54978,0.07943,0.27033,0.50221,0.07629,0.05153,0.6135,0.4886,0.27594,0.54576,0.49137,0.10058,0.62567,0.92053,0.26377,0.57941,0.92462,-0.00347,0.63882,1.44012,0.32339,0.55408,1.41797,-0.03716,0.75246,1.1754,0.39501,0.50568,1.14304,0.09009,0.81014,1.39801,0.45266,0.61553,0.91886
3971,0.15623,0.61348,1.53474,-0.00126,0.54972,0.07971,0.27053,0.50233,0.07607,0.05229,0.61408,0.48868,0.27661,0.54643,0.49109,0.10148,0.62645,0.9206,0.26455,0.5797,0.92437,-0.00244,0.63919,1.44029,0.3243,0.55389,1.41767,-0.03437,0.75507,1.17632,0.39498,0.50623,1.14237,0.09399,0.80959,1.3991,0.4526,0.61783,0.91905
3972,0.15656,0.6136,1.53447,-0.00116,0.54986,0.0799,0.27076,0.50226,0.07593,0.05325,0.615,0.48864,0.27728,0.5472,0.49085,0.1026,0.62718,0.92054,0.26554,0.57998,0.92417,-0.0015,0.6393,1.44025,0.3255,0.55375,1.41726,-0.03153,0.75764,1.17714,0.39499,0.50699,1.1415,0.0977,0.80878,1.40022,0.45241,0.6211,0.9194
3973,0.15686,0.61382,1.53413,-0.00102,0.55,0.08,0.27088,0.50192,0.07591,0.05433,0.61621,0.48844,0.27797,0.54805,0.49069,0.10381,0.62776,0.92035,0.26669,0.58036,0.92406,-0.00081,0.63939,1.44016,0.32671,0.55384,1.41691,-0.02882,0.76037,1.17804,0.39516,0.50768,1.14078,0.10093,0.80816,1.40155,0.45229,0.62452,0.92003
3974,0.15736,0.61414,1.53359,-0.00089,0.55005,0.08005,0.27082,0.50148,0.07597,0.05537,0.61746,0.48816,0.2787,0.54897,0.49058,0.10491,0.62819,0.92008,0.2678,0.58086,0.92399,-0.00038,0.6395,1.44012,0.32775,0.55406,1.4167,-0.02635,0.76328,1.17909,0.39549,0.50811,1.14037,0.10334,0.80815,1.40325,0.45245,0.62739,0.92088
3975,0.15813,0.61462,1.53289,-0.0008,0.55008,0.08001,0.27067,0.50117,0.07595,0.05628,0.61858,0.48783,0.27951,0.54987,0.4904,0.10578,0.62856,0.91977,0.26871,0.58136,0.92384,5e-05,0.63951,1.44014,0.32863,0.55419,1.41659,-0.02421,0.76601,1.18026,0.3959,0.50827,1.14014,0.10507,0.80859,1.4051,0.45291,0.62948,0.92173
3976,0.15908,0.61527,1.53213,-0.0007,0.55022,0.07984,0.27053,0.50115,0.07568,0.05716,0.61969,0.48739,0.28035,0.55069,0.49001,0.10657,0.6289,0.91936,0.26946,0.58157,0.92349,0.00084,0.63942,1.44022,0.32946,0.5541,1.41645,-0.02241,0.76818,1.18136,0.39631,0.50829,1.13988,0.10682,0.80882,1.40659,0.45341,0.631,0.92233
3977,0.16011,0.61591,1.53151,-0.0005,0.5505,0.07959,0.27054,0.50136,0.0752,0.05819,0.62111,0.48683,0.28114,0.55151,0.48943,0.1075,0.62922,0.91883,0.27026,0.58143,0.92299,0.002,0.63959,1.44021,0.33038,0.55393,1.41623,-0.0206,0.76997,1.18211,0.39672,0.50838,1.13949,0.10903,0.80846,1.40748,0.45379,0.63226,0.92259
3978,0.16112,0.61626,1.53114,-0.0002,0.55082,0.0794,0.27074,0.50166,0.07475,0.05943,0.62304,0.48621,0.28177,0.55243,0.4889,0.10871,0.62959,0.91825,0.27126,0.58112,0.92254,0.00319,0.6405,1.43993,0.33153,0.5538,1.416,-0.01828,0.772,1.1823,0.39723,0.50862,1.13905,0.11154,0.80795,1.40799,0.45409,0.63346,0.92264
3979,0.16218,0.61633,1.53087,8e-05,0.55111,0.07936,0.27109,0.50186,0.07453,0.06085,0.62547,0.48562,0.28233,0.55334,0.48859,0.11013,0.63013,0.91768,0.27245,0.58092,0.92232,0.00408,0.64222,1.43944,0.33291,0.55368,1.4159,-0.01532,0.77459,1.18209,0.39785,0.50881,1.13872,0.11413,0.80804,1.40837,0.45442,0.63458,0.92278
3980,0.16333,0.61642,1.53046,0.00023,0.5514,0.07951,0.27149,0.50187,0.07454,0.06236,0.62832,0.48509,0.28303,0.55416,0.48848,0.11158,0.63087,0.91717,0.27365,0.58088,0.92228,0.00476,0.64423,1.43902,0.33428,0.55345,1.41591,-0.01205,0.7775,1.18195,0.39855,0.50864,1.13856,0.11708,0.80889,1.40871,0.45469,0.63553,0.92317
3981,0.1645,0.61669,1.52985,0.00025,0.55175,0.07984,0.27184,0.50176,0.07459,0.06395,0.6315,0.48463,0.28397,0.55508,0.48839,0.11294,0.63167,0.91674,0.27475,0.58091,0.92225,0.00553,0.64591,1.43884,0.33535,0.55305,1.41591,-0.00884,0.78037,1.18224,0.39926,0.50799,1.13852,0.12045,0.80999,1.40915,0.45485,0.63629,0.92382
3982,0.16555,0.6171,1.52924,0.00022,0.55217,0.08026,0.27193,0.50174,0.07456,0.06566,0.63485,0.48418,0.28498,0.55631,0.48816,0.11423,0.63241,0.91634,0.27582,0.58099,0.92209,0.00667,0.64697,1.43878,0.33604,0.55252,1.41581,-0.00595,0.78287,1.18285,0.39992,0.50708,1.13847,0.1237,0.81077,1.40976,0.45504,0.63693,0.92458
3983,0.16655,0.6175,1.52872,0.00028,0.55267,0.0807,0.27168,0.50193,0.0744,0.06755,0.6382,0.48372,0.28581,0.55769,0.48781,0.11559,0.63311,0.91591,0.27701,0.58117,0.92181,0.00817,0.64758,1.43865,0.33655,0.552,1.41559,-0.00353,0.78469,1.18332,0.40052,0.50628,1.13832,0.12625,0.811,1.41035,0.45555,0.63754,0.92527
3984,0.16779,0.61766,1.52833,0.00055,0.55329,0.08113,0.27133,0.50223,0.07416,0.06956,0.64141,0.4833,0.28637,0.55884,0.48742,0.1171,0.63378,0.91552,0.27838,0.58141,0.92148,0.00986,0.64793,1.43833,0.33718,0.55165,1.41533,-0.00143,0.78565,1.18331,0.40118,0.50584,1.13809,0.12805,0.81075,1.41065,0.45642,0.63813,0.92573
3985,0.1694,0.61745,1.52806,0.00106,0.55403,0.08165,0.27118,0.50236,0.07388,0.07162,0.64446,0.48304,0.28685,0.55954,0.48705,0.11861,0.63435,0.91526,0.27977,0.58162,0.92115,0.0116,0.64818,1.43792,0.33812,0.55147,1.41517,0.00071,0.78609,1.18299,0.40202,0.50595,1.13786,0.12963,0.81019,1.41076,0.4575,0.63862,0.9258
3986,0.17122,0.61712,1.52784,0.00171,0.55486,0.0824,0.27136,0.50214,0.07368,0.07365,0.6476,0.48302,0.28752,0.56002,0.48673,0.11992,0.63478,0.91524,0.281,0.58175,0.92085,0.01336,0.64857,1.43762,0.33936,0.5514,1.41525,0.00311,0.78671,1.18279,0.40309,0.50665,1.13777,0.1317,0.80967,1.41086,0.45861,0.63897,0.92551
3987,0.173,0.61711,1.52752,0.00242,0.55572,0.08344,0.27173,0.50166,0.0736,0.07562,0.65125,0.48317,0.28849,0.56062,0.48647,0.1211,0.63522,0.91538,0.28207,0.58182,0.92062,0.01518,0.64928,1.43746,0.34071,0.5514,1.41554,0.0057,0.78776,1.18279,0.40436,0.50766,1.13788,0.13457,0.80958,1.41081,0.45972,0.63915,0.92506
3988,0.17468,0.61769,1.52705,0.00313,0.55661,0.08465,0.27197,0.50113,0.07361,0.07748,0.65555,0.48334,0.28959,0.56147,0.48625,0.12237,0.63583,0.91545,0.28317,0.58191,0.92044,0.01699,0.65023,1.43728,0.34205,0.55146,1.41579,0.00844,0.78896,1.1827,0.40571,0.50849,1.13801,0.13805,0.80986,1.41039,0.46088,0.63914,0.92462
3989,0.17628,0.61868,1.52652,0.00366,0.55763,0.08591,0.27192,0.50075,0.07369,0.07928,0.66033,0.48341,0.29055,0.56245,0.48608,0.12393,0.63669,0.91535,0.28452,0.58214,0.92031,0.01869,0.65126,1.43706,0.34337,0.55163,1.41579,0.01135,0.78997,1.18243,0.40703,0.50891,1.13798,0.1417,0.8101,1.40977,0.46216,0.63894,0.92421
3990,0.17785,0.61962,1.52605,0.00381,0.55879,0.08732,0.27165,0.50063,0.07387,0.08115,0.66542,0.48345,0.29133,0.56343,0.48604,0.12574,0.63779,0.91516,0.2861,0.5826,0.92031,0.02032,0.65227,1.43698,0.34469,0.55194,1.41554,0.01427,0.79072,1.18218,0.40833,0.50898,1.13775,0.14506,0.80993,1.40935,0.4636,0.63868,0.92381
3991,0.17941,0.62018,1.52572,0.00358,0.55998,0.08915,0.27144,0.50071,0.07418,0.08322,0.67095,0.48363,0.29205,0.56434,0.48618,0.12768,0.63907,0.91506,0.28781,0.58322,0.92047,0.02196,0.65312,1.43715,0.34601,0.55224,1.4152,0.01687,0.79133,1.1822,0.40974,0.50878,1.13752,0.14785,0.80967,1.40933,0.46519,0.63836,0.92355
3992,0.181,0.62037,1.52552,0.0032,0.56118,0.09146,0.27149,0.50084,0.07456,0.08563,0.67714,0.48392,0.29281,0.56516,0.48642,0.12963,0.64033,0.91501,0.28953,0.58386,0.92072,0.02349,0.65371,1.43744,0.34729,0.55228,1.41498,0.01905,0.79198,1.1825,0.41131,0.50822,1.13746,0.15006,0.81004,1.40964,0.46688,0.63785,0.92356
3993,0.18266,0.6205,1.52537,0.0029,0.5625,0.09402,0.27171,0.50088,0.07489,0.08832,0.6839,0.4842,0.29368,0.56586,0.48661,0.13145,0.64132,0.91484,0.29114,0.58431,0.92093,0.02484,0.65411,1.43763,0.34859,0.55197,1.41491,0.02095,0.79279,1.18291,0.41295,0.50731,1.13756,0.152,0.81132,1.40999,0.46861,0.63701,0.92372
3994,0.18434,0.62074,1.5253,0.00281,0.56403,0.0966,0.27178,0.50081,0.07504,0.09109,0.69081,0.48442,0.29473,0.56643,0.48661,0.13305,0.6419,0.9145,0.29255,0.58439,0.92095,0.0262,0.65436,1.43769,0.35014,0.55147,1.41487,0.02285,0.79353,1.18323,0.41457,0.5063,1.13762,0.15428,0.81281,1.41001,0.47032,0.63587,0.92373
3995,0.18601,0.62098,1.52533,0.00293,0.56577,0.09921,0.27159,0.50073,0.07505,0.09382,0.69766,0.48472,0.29594,0.56692,0.48644,0.13455,0.64225,0.91413,0.29382,0.58412,0.92081,0.02785,0.65443,1.43768,0.35203,0.55099,1.41474,0.02514,0.79393,1.1834,0.41612,0.50548,1.13746,0.15746,0.81362,1.40963,0.47197,0.63459,0.92331
3996,0.18756,0.62104,1.52539,0.00304,0.5678,0.10211,0.27136,0.50076,0.07507,0.09657,0.70462,0.48526,0.29721,0.56739,0.4863,0.13625,0.64276,0.91389,0.29519,0.58375,0.9207,0.02992,0.65434,1.43764,0.35393,0.55064,1.41451,0.02821,0.79405,1.18346,0.41761,0.50495,1.13717,0.16149,0.81361,1.40915,0.47355,0.63313,0.92249
3997,0.18898,0.62082,1.52544,0.00297,0.57032,0.10546,0.27132,0.50093,0.07516,0.09943,0.71192,0.48614,0.29835,0.56793,0.48626,0.13826,0.64371,0.91388,0.2968,0.58364,0.92069,0.03221,0.65433,1.43758,0.35548,0.55045,1.41427,0.03203,0.79412,1.18344,0.41907,0.50455,1.13694,0.16571,0.81327,1.40892,0.47509,0.63147,0.92153
3998,0.19041,0.62041,1.5256,0.00277,0.57348,0.10912,0.27141,0.50121,0.07523,0.10232,0.71964,0.48727,0.29929,0.56848,0.48622,0.14039,0.64492,0.91399,0.29854,0.58382,0.92067,0.03439,0.65467,1.43749,0.35673,0.5504,1.41397,0.03602,0.79436,1.18329,0.42055,0.50403,1.13678,0.16939,0.81312,1.40899,0.47667,0.62989,0.92077
3999,0.19207,0.62019,1.52585,0.00276,0.57719,0.11283,0.27149,0.50153,0.07516,0.10511,0.72781,0.48848,0.30009,0.56887,0.4861,0.14238,0.64596,0.91396,0.3002,0.584,0.92055,0.03626,0.65549,1.43732,0.35806,0.55037,1.41351,0.0397,0.79498,1.18304,0.42216,0.50329,1.13651,0.17217,0.81333,1.4093,0.47835,0.62883,0.92034
4000,0.19415,0.62054,1.52596,0.00311,0.58114,0.11656,0.27149,0.50191,0.07496,0.10789,0.73633,0.48966,0.30088,0.5691,0.48586,0.14416,0.64667,0.91366,0.30167,0.58394,0.92032,0.03785,0.6566,1.43699,0.35971,0.55018,1.41297,0.04302,0.79609,1.18274,0.42393,0.50241,1.13611,0.17411,0.81401,1.40984,0.48021,0.62818,0.92009
4001,0.19665,0.62132,1.52575,0.0036,0.58524,0.1205,0.27138,0.50227,0.0747,0.11092,0.745,0.49095,0.30172,0.56941,0.48554,0.14573,0.64724,0.91327,0.3029,0.58367,0.92002,0.03947,0.65767,1.43649,0.36172,0.54982,1.4126,0.04606,0.79746,1.18243,0.42584,0.50154,1.1358,0.17572,0.81519,1.41036,0.48219,0.62733,0.91982
4002,0.1993,0.62197,1.52527,0.00389,0.58981,0.12482,0.27116,0.50246,0.07452,0.11432,0.75364,0.49257,0.30262,0.57,0.48521,0.14715,0.64787,0.91311,0.30393,0.58334,0.91972,0.04139,0.65835,1.43587,0.36405,0.54948,1.41251,0.04888,0.79867,1.18214,0.42784,0.50088,1.13569,0.17777,0.81654,1.41049,0.48412,0.626,0.9193
4003,0.20167,0.6222,1.52478,0.00392,0.59515,0.12948,0.27091,0.50239,0.07452,0.11789,0.76236,0.49462,0.30359,0.57086,0.48497,0.14853,0.64856,0.91323,0.30494,0.58309,0.91951,0.04366,0.6585,1.43529,0.36648,0.5494,1.41251,0.05159,0.79949,1.18194,0.42992,0.50066,1.13564,0.18053,0.81762,1.41024,0.48595,0.62443,0.91842
4004,0.20351,0.62222,1.52442,0.00403,0.60104,0.13442,0.27077,0.50218,0.07469,0.12136,0.77144,0.497,0.30457,0.57177,0.48485,0.15003,0.64929,0.91339,0.30612,0.58302,0.91942,0.04605,0.65837,1.43496,0.36868,0.54953,1.41238,0.05422,0.79997,1.18196,0.43198,0.50094,1.13545,0.18346,0.81832,1.41007,0.4878,0.62293,0.91716
4005,0.20498,0.6223,1.52425,0.00457,0.60685,0.13964,0.27083,0.50195,0.07488,0.12471,0.78098,0.49952,0.30547,0.57262,0.48479,0.15167,0.65011,0.91337,0.30749,0.58324,0.91938,0.04843,0.65843,1.43505,0.3705,0.54963,1.41196,0.05658,0.80034,1.18222,0.4338,0.50141,1.13497,0.18592,0.81887,1.41027,0.48982,0.62157,0.91571
4006,0.20648,0.62261,1.52421,0.00558,0.61233,0.14519,0.27104,0.5017,0.07498,0.1281,0.79093,0.50207,0.30627,0.57344,0.48465,0.15329,0.65113,0.9131,0.30891,0.5838,0.91924,0.05076,0.65892,1.43541,0.37199,0.54979,1.41124,0.05855,0.80083,1.18257,0.43526,0.50164,1.13422,0.1878,0.81962,1.41065,0.49206,0.62031,0.91436
4007,0.2083,0.62331,1.52412,0.00678,0.61771,0.15109,0.27127,0.50142,0.07493,0.13178,0.80111,0.50466,0.30705,0.57437,0.48434,0.1548,0.65238,0.91267,0.31022,0.5846,0.91893,0.05296,0.65981,1.43575,0.37328,0.5504,1.41029,0.06033,0.80158,1.18282,0.43657,0.50148,1.13342,0.18949,0.82077,1.41092,0.49442,0.61905,0.91324
4008,0.21044,0.62443,1.52389,0.0078,0.6234,0.15718,0.27141,0.50128,0.07477,0.13589,0.81121,0.50731,0.30787,0.57554,0.48389,0.15614,0.65379,0.9122,0.31131,0.58544,0.91848,0.05475,0.661,1.43598,0.37452,0.5515,1.40928,0.06225,0.80264,1.18298,0.43812,0.50122,1.13272,0.19146,0.82229,1.41101,0.49666,0.61772,0.91215
4009,0.21269,0.62576,1.52358,0.00851,0.62965,0.16316,0.27155,0.5014,0.07458,0.14034,0.82086,0.51004,0.30876,0.57687,0.48341,0.1573,0.65526,0.91181,0.31215,0.58617,0.91802,0.05607,0.66246,1.43626,0.37591,0.55252,1.40832,0.06439,0.80397,1.18322,0.44009,0.5011,1.1321,0.19387,0.82394,1.41106,0.49871,0.61631,0.91088
4010,0.21472,0.62703,1.52331,0.00912,0.63649,0.16868,0.27179,0.50161,0.07438,0.14478,0.82984,0.5129,0.30969,0.57819,0.48293,0.15831,0.65665,0.91158,0.31281,0.58676,0.91756,0.05719,0.664,1.43663,0.37757,0.55301,1.40743,0.06661,0.80549,1.18361,0.44227,0.50108,1.13143,0.19639,0.8253,1.4113,0.50073,0.61494,0.90947
4011,0.21636,0.62811,1.52304,0.01,0.64378,0.17358,0.27212,0.50159,0.0741,0.14892,0.83822,0.51587,0.31062,0.57943,0.48237,0.15926,0.65802,0.91152,0.31337,0.58724,0.91701,0.05845,0.66536,1.43697,0.37938,0.55299,1.40663,0.06878,0.80693,1.18403,0.44426,0.50096,1.13069,0.19831,0.8262,1.41191,0.50293,0.61369,0.90821
4012,0.21772,0.62903,1.52267,0.0114,0.65119,0.17787,0.27248,0.50126,0.07374,0.15272,0.84625,0.51882,0.31144,0.58073,0.48165,0.16022,0.6596,0.91154,0.31388,0.58779,0.9163,0.06,0.6664,1.43722,0.38104,0.55273,1.40591,0.07086,0.80794,1.18429,0.44584,0.50077,1.12994,0.19913,0.82683,1.41291,0.50532,0.6125,0.90717
4013,0.21908,0.63002,1.52215,0.01332,0.6585,0.1816,0.27278,0.50085,0.0734,0.15626,0.85405,0.5216,0.31206,0.58226,0.48089,0.16123,0.66155,0.91152,0.31439,0.58865,0.91556,0.06182,0.66722,1.43745,0.38236,0.55256,1.40527,0.07293,0.80849,1.18437,0.44717,0.50073,1.12927,0.19919,0.8275,1.4141,0.50772,0.6113,0.90622
4014,0.2206,0.63132,1.52149,0.0156,0.66593,0.18471,0.27297,0.50064,0.07322,0.15964,0.86161,0.52417,0.31254,0.58398,0.4803,0.1623,0.66379,0.91145,0.315,0.5899,0.91497,0.06383,0.66814,1.43761,0.3834,0.55282,1.40458,0.07516,0.809,1.18431,0.44857,0.50101,1.12867,0.19946,0.82827,1.41509,0.51005,0.61015,0.90516
4015,0.22216,0.63301,1.52083,0.01806,0.67386,0.18718,0.27302,0.5007,0.07328,0.16293,0.86883,0.52669,0.31294,0.58567,0.47998,0.16347,0.66615,0.91146,0.31572,0.59133,0.91465,0.06585,0.66944,1.43755,0.38439,0.55366,1.40377,0.07776,0.80995,1.18409,0.45022,0.50149,1.12809,0.20069,0.82912,1.41561,0.51235,0.60906,0.904
4016,0.22353,0.63492,1.5203,0.02056,0.68241,0.18904,0.27298,0.50079,0.07349,0.16615,0.87557,0.52928,0.31331,0.58719,0.47985,0.16472,0.66845,0.91167,0.3165,0.59267,0.91452,0.06756,0.6713,1.43715,0.38561,0.55482,1.403,0.08118,0.81172,1.18372,0.45195,0.50186,1.12758,0.20294,0.83023,1.41591,0.51472,0.60773,0.90286
4017,0.22471,0.6368,1.51999,0.02302,0.69141,0.19033,0.27287,0.50071,0.07373,0.16923,0.88177,0.53188,0.31363,0.58849,0.47975,0.16594,0.67056,0.91201,0.31727,0.59385,0.91443,0.0688,0.6737,1.43641,0.38714,0.55575,1.40251,0.08588,0.81436,1.18332,0.45341,0.50196,1.12724,0.20585,0.83174,1.41652,0.51723,0.60572,0.90183
4018,0.22589,0.63851,1.51988,0.02544,0.70073,0.19098,0.27264,0.50059,0.07393,0.17202,0.88748,0.53436,0.31387,0.58966,0.47963,0.16706,0.67247,0.91234,0.31802,0.59502,0.91429,0.06962,0.6763,1.43553,0.38883,0.55629,1.40239,0.09152,0.81748,1.18311,0.45447,0.50193,1.12708,0.2089,0.83358,1.41772,0.51977,0.60309,0.90091
4019,0.22722,0.64013,1.51984,0.02788,0.71033,0.19089,0.27233,0.50069,0.07416,0.17439,0.8928,0.5366,0.31404,0.59095,0.47954,0.1681,0.67431,0.91255,0.31882,0.59639,0.9142,0.07037,0.67861,1.43498,0.39051,0.55681,1.4024,0.09655,0.82028,1.18324,0.45539,0.50201,1.127,0.21147,0.83543,1.41913,0.52221,0.6004,0.90006
4020,0.22864,0.6417,1.51978,0.03036,0.7201,0.18999,0.27209,0.50098,0.07451,0.17639,0.89764,0.53845,0.31427,0.59248,0.47956,0.16913,0.67625,0.91269,0.31969,0.598,0.91421,0.07138,0.68047,1.43512,0.39209,0.55776,1.4023,0.09937,0.82223,1.18363,0.4565,0.50226,1.12693,0.21333,0.83704,1.42,0.52445,0.59819,0.89927
4021,0.22999,0.64322,1.51968,0.03282,0.73006,0.18816,0.27209,0.50125,0.07489,0.17822,0.90176,0.53979,0.31471,0.59421,0.47956,0.17012,0.67829,0.91278,0.32049,0.5997,0.91421,0.0728,0.68219,1.43585,0.3934,0.5591,1.40204,0.09985,0.82349,1.184,0.45784,0.50268,1.12686,0.21483,0.83838,1.41988,0.52643,0.59656,0.89854
4022,0.23125,0.64472,1.5195,0.0353,0.74033,0.18546,0.27218,0.50148,0.07515,0.18019,0.90513,0.54059,0.31548,0.59594,0.4794,0.17102,0.68034,0.91276,0.32112,0.60125,0.91405,0.07457,0.68428,1.43655,0.39435,0.56046,1.4017,0.09964,0.82484,1.18408,0.45898,0.5033,1.12672,0.21652,0.8397,1.41902,0.52819,0.59534,0.89783
4023,0.2325,0.64643,1.51914,0.03793,0.75082,0.1822,0.27204,0.50185,0.07527,0.18243,0.90812,0.54087,0.31654,0.59758,0.47909,0.17191,0.6825,0.9125,0.32168,0.60276,0.91375,0.07645,0.68702,1.43656,0.39503,0.56169,1.40132,0.10086,0.82709,1.18375,0.45958,0.50427,1.12638,0.21883,0.84115,1.41819,0.52988,0.59434,0.89704
4024,0.23382,0.64856,1.51859,0.04078,0.76127,0.17869,0.27162,0.5023,0.07542,0.18488,0.91108,0.54071,0.3177,0.5991,0.47881,0.17299,0.68498,0.912,0.32236,0.60449,0.91347,0.07825,0.69037,1.43567,0.39553,0.56286,1.40089,0.10447,0.83051,1.18308,0.45982,0.50559,1.12585,0.22178,0.84277,1.41796,0.53168,0.59348,0.89616
4025,0.23512,0.65109,1.51797,0.04378,0.77184,0.17497,0.2712,0.50257,0.07571,0.1873,0.91409,0.54026,0.31874,0.60066,0.47862,0.17433,0.68774,0.91137,0.3232,0.60636,0.91328,0.07999,0.69399,1.43432,0.39577,0.56387,1.4004,0.10956,0.83444,1.18227,0.46015,0.50699,1.12531,0.22486,0.84448,1.41825,0.53359,0.59286,0.89535
4026,0.23629,0.65372,1.51738,0.04682,0.78311,0.17106,0.27101,0.50265,0.07606,0.18952,0.9171,0.53978,0.31944,0.60257,0.47842,0.17574,0.69057,0.91075,0.32399,0.60806,0.91308,0.08178,0.69752,1.43322,0.39583,0.56451,1.39993,0.1142,0.83797,1.18152,0.46077,0.50809,1.12487,0.22755,0.84604,1.41852,0.53548,0.59264,0.89483
4027,0.23744,0.65612,1.51693,0.04976,0.79541,0.16704,0.27104,0.50282,0.07631,0.19143,0.92006,0.53941,0.31975,0.60503,0.47805,0.17705,0.69331,0.91023,0.32456,0.6095,0.91273,0.08353,0.70073,1.43267,0.39605,0.56481,1.39954,0.1172,0.84087,1.18096,0.4616,0.50882,1.12454,0.23,0.84711,1.41827,0.5373,0.59271,0.89458
4028,0.23882,0.65819,1.51672,0.05245,0.80855,0.16296,0.27117,0.50317,0.07639,0.19297,0.92286,0.53907,0.31981,0.6079,0.47749,0.17818,0.696,0.9098,0.32499,0.61095,0.91217,0.08501,0.70381,1.43233,0.39669,0.56521,1.39928,0.11898,0.8437,1.18053,0.46245,0.50938,1.12429,0.23273,0.8476,1.41744,0.53899,0.5927,0.8944
4029,0.24031,0.66011,1.51674,0.05495,0.82202,0.15875,0.27128,0.50363,0.07627,0.19418,0.92523,0.53853,0.31985,0.61073,0.47676,0.17921,0.69869,0.90945,0.32551,0.61277,0.91144,0.08621,0.70708,1.43174,0.39753,0.56618,1.39903,0.12067,0.8469,1.17996,0.46325,0.50997,1.12411,0.23568,0.84803,1.41629,0.54052,0.59237,0.89414
4030,0.24159,0.66208,1.51686,0.05756,0.83539,0.15427,0.27124,0.50414,0.07593,0.19518,0.92703,0.53759,0.32005,0.61316,0.47587,0.18017,0.70143,0.90907,0.32621,0.61506,0.91055,0.08735,0.71055,1.43074,0.39817,0.56778,1.39869,0.12272,0.8503,1.17905,0.46392,0.51069,1.12396,0.2381,0.84929,1.41519,0.54193,0.59195,0.89384
4031,0.24256,0.66417,1.51691,0.06063,0.84851,0.14946,0.27103,0.50464,0.07547,0.19607,0.9284,0.53617,0.32053,0.61509,0.47494,0.18107,0.70424,0.90854,0.327,0.61769,0.9096,0.08867,0.71395,1.42951,0.39855,0.56957,1.39828,0.1247,0.85362,1.17787,0.46435,0.51162,1.12374,0.23962,0.85155,1.41424,0.54333,0.59181,0.89357
4032,0.24336,0.66648,1.5168,0.0643,0.86146,0.14437,0.27082,0.50502,0.07515,0.19684,0.92962,0.53432,0.32131,0.6168,0.47411,0.18199,0.70719,0.90772,0.32775,0.62035,0.90877,0.09024,0.7173,1.42837,0.39908,0.57111,1.39797,0.12609,0.85692,1.17669,0.46441,0.5128,1.12339,0.24074,0.85388,1.41317,0.54477,0.592,0.89335
4033,0.24412,0.66909,1.51651,0.0685,0.87433,0.13906,0.2708,0.50522,0.0751,0.19742,0.93081,0.53207,0.32222,0.61865,0.47349,0.1829,0.71034,0.90664,0.32828,0.62286,0.90814,0.09196,0.72086,1.42758,0.39997,0.57237,1.39781,0.12682,0.8604,1.17571,0.46418,0.51409,1.12297,0.24208,0.85577,1.41187,0.54623,0.59227,0.89318
4034,0.24487,0.67182,1.51611,0.07298,0.88712,0.13348,0.27095,0.50538,0.07522,0.19772,0.93178,0.52936,0.32303,0.62077,0.47296,0.18375,0.7137,0.90535,0.32851,0.62522,0.90762,0.09363,0.72481,1.42717,0.40093,0.57371,1.3976,0.12728,0.86406,1.17497,0.46391,0.51528,1.1225,0.24346,0.85801,1.41065,0.54765,0.59248,0.89299
4035,0.24564,0.67441,1.51557,0.07757,0.89975,0.12768,0.27104,0.50577,0.0753,0.19763,0.93227,0.52618,0.32358,0.6231,0.4724,0.18448,0.71713,0.90388,0.32856,0.62756,0.90707,0.09501,0.72895,1.42692,0.40151,0.57535,1.39706,0.12791,0.86776,1.17438,0.46377,0.51639,1.12191,0.24448,0.86137,1.40985,0.54896,0.59286,0.89269
4036,0.2465,0.67684,1.51481,0.08228,0.91214,0.12194,0.27101,0.50645,0.07532,0.1972,0.93244,0.52275,0.32391,0.62567,0.47181,0.18524,0.72046,0.90229,0.3287,0.62996,0.90649,0.09609,0.73308,1.42664,0.40163,0.57726,1.39622,0.12887,0.87137,1.1738,0.46384,0.51757,1.12122,0.24543,0.86515,1.40928,0.55013,0.59373,0.8923
4037,0.24749,0.67933,1.51389,0.08717,0.92435,0.11672,0.27091,0.50717,0.07545,0.19664,0.93281,0.51948,0.32419,0.62856,0.47123,0.18626,0.72378,0.90069,0.32906,0.63227,0.90591,0.09707,0.73717,1.42636,0.40163,0.57947,1.39535,0.13002,0.87484,1.1732,0.46404,0.51879,1.12061,0.24699,0.86784,1.40846,0.55117,0.59493,0.89201
4038,0.24848,0.68207,1.51304,0.09208,0.93643,0.11238,0.27078,0.50764,0.07576,0.19614,0.93385,0.51665,0.32456,0.63169,0.47065,0.18764,0.7272,0.89921,0.32947,0.63427,0.90534,0.09804,0.7413,1.42624,0.40183,0.58219,1.39465,0.13126,0.87817,1.17268,0.46421,0.51979,1.12029,0.24943,0.86879,1.40725,0.55214,0.59587,0.89197
4039,0.24928,0.68495,1.51245,0.0967,0.94835,0.10894,0.27067,0.50782,0.07613,0.1958,0.93542,0.51425,0.32504,0.63474,0.47003,0.18914,0.73075,0.89791,0.32976,0.63604,0.90472,0.09895,0.74549,1.42626,0.40228,0.58527,1.39412,0.13271,0.8814,1.17226,0.46418,0.52063,1.12017,0.25234,0.86877,1.40594,0.55311,0.59625,0.89209
4040,0.24981,0.68782,1.51202,0.10092,0.95987,0.10609,0.2707,0.50784,0.07643,0.19559,0.93705,0.51203,0.32556,0.63748,0.46937,0.19043,0.73433,0.89674,0.32993,0.63803,0.90406,0.09977,0.74965,1.42609,0.40268,0.58792,1.39359,0.13451,0.88475,1.17179,0.46383,0.5217,1.11985,0.25504,0.86937,1.40484,0.55414,0.5964,0.89201
4041,0.25016,0.69074,1.51144,0.10499,0.97071,0.10345,0.27086,0.50783,0.07664,0.19546,0.93848,0.50971,0.326,0.63998,0.4687,0.19133,0.73795,0.89559,0.33009,0.64062,0.9034,0.1005,0.75376,1.42533,0.4026,0.58932,1.39285,0.13663,0.88849,1.17103,0.46319,0.52331,1.11893,0.25722,0.87177,1.40396,0.55514,0.59684,0.89137
4042,0.25057,0.69385,1.5105,0.10915,0.98078,0.10096,0.27096,0.50803,0.07681,0.19537,0.93991,0.50737,0.32638,0.6424,0.46808,0.1919,0.74166,0.89442,0.33017,0.64367,0.90278,0.10116,0.75798,1.42395,0.40182,0.58973,1.39182,0.13894,0.89274,1.1699,0.46242,0.52527,1.11753,0.25904,0.87578,1.40306,0.55602,0.59762,0.89026
4043,0.25109,0.69716,1.50939,0.11346,0.99017,0.09882,0.27077,0.50853,0.07698,0.19534,0.94172,0.5053,0.32681,0.64481,0.46749,0.19222,0.7454,0.89333,0.33,0.64677,0.9022,0.10177,0.76245,1.42226,0.40053,0.59035,1.39062,0.14117,0.89739,1.16855,0.46179,0.5272,1.11618,0.2607,0.88033,1.402,0.55678,0.59835,0.8891
4044,0.25149,0.70055,1.50849,0.11779,0.99897,0.09712,0.27032,0.50904,0.07718,0.19533,0.94395,0.50361,0.32733,0.64722,0.46689,0.19245,0.7491,0.89239,0.32962,0.64965,0.90159,0.10258,0.7671,1.42072,0.39914,0.59209,1.38945,0.14286,0.9022,1.16724,0.46139,0.52884,1.11525,0.26213,0.88457,1.40078,0.55749,0.59878,0.88827
4045,0.25155,0.70408,1.50789,0.12189,1.00726,0.09557,0.26987,0.50923,0.07738,0.19527,0.94622,0.50197,0.32786,0.64965,0.46615,0.19274,0.75275,0.89144,0.32928,0.65246,0.90086,0.10381,0.77194,1.41964,0.39795,0.5948,1.38843,0.14391,0.90703,1.16612,0.46109,0.53038,1.11471,0.26328,0.88824,1.39952,0.55811,0.59909,0.88774
4046,0.25141,0.70793,1.5073,0.12552,1.01502,0.0938,0.26963,0.50911,0.07752,0.19517,0.94808,0.49993,0.3284,0.65217,0.4652,0.19319,0.75647,0.89032,0.32912,0.65537,0.89991,0.10538,0.77718,1.41896,0.397,0.59775,1.38753,0.14472,0.91189,1.16512,0.4607,0.53216,1.11422,0.26435,0.89145,1.39825,0.55849,0.59973,0.88724
4047,0.25134,0.71213,1.50641,0.12884,1.02213,0.09171,0.26963,0.50894,0.07756,0.19505,0.94961,0.49745,0.32895,0.65482,0.4641,0.19373,0.76034,0.88899,0.32899,0.65837,0.89881,0.10692,0.78293,1.41828,0.39621,0.60046,1.38666,0.14573,0.9169,1.16397,0.46019,0.53436,1.11354,0.26552,0.89458,1.39685,0.5586,0.60087,0.88651
4048,0.25146,0.71641,1.50521,0.13236,1.02848,0.08954,0.2697,0.50895,0.07762,0.19493,0.95125,0.49499,0.32939,0.65759,0.46306,0.19423,0.76429,0.88763,0.32869,0.66131,0.89776,0.10818,0.78886,1.41727,0.39552,0.60298,1.38575,0.1468,0.92206,1.16253,0.45959,0.5368,1.11266,0.26666,0.89821,1.39521,0.5586,0.60231,0.88561
4049,0.25176,0.72047,1.50392,0.13624,1.03422,0.08756,0.26965,0.50919,0.07784,0.19482,0.95328,0.49288,0.32953,0.6605,0.46221,0.19458,0.76819,0.88641,0.32817,0.6641,0.89691,0.10912,0.79453,1.41591,0.39487,0.60572,1.38472,0.14747,0.92717,1.16084,0.45888,0.53923,1.1117,0.26759,0.90278,1.39333,0.55868,0.60371,0.8847
4050,0.25226,0.72411,1.50282,0.14015,1.03961,0.08591,0.26945,0.50965,0.07823,0.19478,0.95556,0.49115,0.32946,0.6636,0.46153,0.19481,0.77202,0.8854,0.32749,0.66682,0.89624,0.10989,0.7999,1.41446,0.39419,0.60905,1.38355,0.14739,0.93192,1.15894,0.45801,0.54162,1.11071,0.26831,0.90832,1.3911,0.55873,0.60498,0.8838
4051,0.25295,0.72734,1.50198,0.14364,1.04482,0.0845,0.26926,0.51033,0.07876,0.19492,0.95792,0.48958,0.32952,0.66688,0.46096,0.19504,0.77592,0.88455,0.32685,0.66965,0.89567,0.11075,0.80519,1.41309,0.39353,0.61279,1.3823,0.14649,0.93604,1.15671,0.45696,0.54409,1.10969,0.26889,0.91448,1.3883,0.55854,0.60622,0.88282
4052,0.25368,0.73039,1.50132,0.14654,1.04987,0.08318,0.26918,0.51118,0.07933,0.1953,0.96032,0.48799,0.32992,0.6702,0.46044,0.19542,0.77995,0.88371,0.32643,0.67273,0.89514,0.11185,0.81044,1.41179,0.39299,0.61638,1.38116,0.14499,0.93949,1.15416,0.4558,0.54676,1.10864,0.26927,0.92095,1.385,0.55809,0.60753,0.88172
4053,0.25424,0.73358,1.50071,0.14907,1.05468,0.08171,0.2691,0.51208,0.07991,0.19582,0.96286,0.48625,0.33065,0.67344,0.4599,0.19595,0.78416,0.88272,0.32629,0.67616,0.89459,0.11293,0.81543,1.41049,0.39255,0.61955,1.38029,0.14332,0.94263,1.15159,0.45463,0.54973,1.10766,0.26941,0.9276,1.38171,0.55758,0.60891,0.88062
4054,0.25449,0.73707,1.50014,0.15148,1.05912,0.07992,0.26889,0.51292,0.08046,0.19622,0.96556,0.4843,0.33157,0.67661,0.45927,0.19651,0.78854,0.88152,0.32623,0.67987,0.89395,0.11356,0.82005,1.4092,0.39199,0.62257,1.37966,0.1417,0.94593,1.14941,0.45352,0.553,1.10683,0.26933,0.93451,1.37889,0.55724,0.61043,0.8797
4055,0.25452,0.74092,1.49954,0.15374,1.06304,0.07784,0.26859,0.51367,0.081,0.19632,0.96828,0.48216,0.33252,0.67971,0.45858,0.19695,0.79315,0.88023,0.32591,0.68365,0.89323,0.11367,0.8246,1.40815,0.39108,0.62582,1.37898,0.13975,0.94951,1.14768,0.45241,0.5563,1.1061,0.26919,0.94164,1.37629,0.55707,0.61223,0.87902
4056,0.25449,0.74518,1.49877,0.15558,1.06637,0.07563,0.26828,0.51436,0.08151,0.19619,0.97091,0.47999,0.3334,0.68271,0.45786,0.19721,0.79791,0.87898,0.32517,0.68731,0.89247,0.11363,0.82963,1.40745,0.38978,0.62935,1.37797,0.137,0.95312,1.14604,0.45116,0.55931,1.10523,0.2693,0.94879,1.3731,0.55681,0.61442,0.87841
4057,0.25443,0.74997,1.4976,0.15695,1.06917,0.07348,0.26802,0.51502,0.08202,0.19612,0.97355,0.47795,0.33413,0.68573,0.45713,0.19737,0.80265,0.87784,0.32424,0.69084,0.89171,0.1138,0.83557,1.40683,0.38823,0.63293,1.37658,0.13378,0.95667,1.14403,0.44965,0.56205,1.10407,0.27003,0.95576,1.36878,0.55625,0.61689,0.87763
4058,0.25421,0.75536,1.49599,0.15793,1.07163,0.07144,0.26784,0.51567,0.08262,0.19641,0.97644,0.47607,0.33474,0.689,0.45639,0.1976,0.80738,0.87675,0.32347,0.69448,0.89093,0.11421,0.84239,1.40586,0.38654,0.63637,1.37508,0.1309,0.96035,1.14141,0.44796,0.5649,1.10273,0.27134,0.96262,1.36356,0.55542,0.61936,0.8766
4059,0.25372,0.76122,1.49412,0.15855,1.07381,0.06939,0.26782,0.51628,0.08342,0.19712,0.97959,0.47424,0.33534,0.69271,0.45562,0.19804,0.81229,0.87566,0.32295,0.69837,0.89013,0.11481,0.8496,1.40436,0.38467,0.63959,1.37382,0.1285,0.96433,1.13832,0.44615,0.5682,1.10146,0.2728,0.96974,1.35792,0.55444,0.6217,0.87549
4060,0.25306,0.76722,1.49229,0.15872,1.07565,0.0672,0.26794,0.51681,0.08445,0.19805,0.98285,0.47231,0.33596,0.69682,0.45484,0.19871,0.81751,0.87454,0.32253,0.70246,0.88932,0.11552,0.85667,1.40249,0.38252,0.64272,1.37287,0.12609,0.9685,1.13507,0.44415,0.57191,1.10039,0.27416,0.9774,1.35204,0.55335,0.62402,0.87454
4061,0.25249,0.77303,1.49072,0.15852,1.07717,0.06479,0.26812,0.51728,0.0856,0.19885,0.98608,0.47018,0.33662,0.70109,0.45403,0.19946,0.82296,0.87332,0.32213,0.70672,0.88847,0.11623,0.86345,1.40061,0.3801,0.64615,1.37198,0.12335,0.97266,1.132,0.44188,0.57579,1.09942,0.27559,0.98532,1.34587,0.55217,0.6265,0.87378
4062,0.25211,0.77854,1.48946,0.15816,1.07839,0.06211,0.26823,0.51772,0.08674,0.1993,0.98914,0.46784,0.33728,0.70527,0.45318,0.20012,0.82845,0.87195,0.32178,0.71122,0.88758,0.11685,0.87008,1.39898,0.37762,0.6501,1.37092,0.12048,0.97671,1.12927,0.4394,0.57961,1.09839,0.2772,0.99298,1.33963,0.55097,0.62905,0.8731
4063,0.25181,0.784,1.48835,0.1578,1.0793,0.05928,0.2682,0.51819,0.0878,0.1995,0.99195,0.46536,0.3379,0.70921,0.45231,0.20055,0.83385,0.87049,0.32151,0.71596,0.88667,0.11729,0.87662,1.39752,0.37521,0.65441,1.36971,0.11775,0.98068,1.12678,0.43688,0.58322,1.09734,0.27868,1.00024,1.33365,0.54981,0.63146,0.87247
4064,0.25143,0.78969,1.48713,0.1574,1.07989,0.05648,0.26812,0.51879,0.0888,0.19977,0.99468,0.46294,0.33849,0.71308,0.45146,0.20073,0.83917,0.86907,0.32117,0.72083,0.88576,0.11739,0.88309,1.39603,0.37291,0.65867,1.36848,0.1153,0.98467,1.12436,0.43441,0.58647,1.09633,0.27991,1.00758,1.32797,0.54856,0.63372,0.87186
4065,0.2509,0.79558,1.48564,0.1569,1.08016,0.05382,0.26811,0.51958,0.08979,0.20042,0.99765,0.46072,0.33915,0.71716,0.45053,0.20075,0.84458,0.86777,0.3207,0.72578,0.88478,0.11718,0.88951,1.39454,0.37076,0.66265,1.36719,0.11318,0.98875,1.12203,0.43192,0.58943,1.09524,0.28134,1.01569,1.32221,0.54709,0.63623,0.8712
4066,0.25027,0.80142,1.48391,0.15623,1.08002,0.05121,0.26828,0.52044,0.09075,0.20136,1.00102,0.45863,0.34003,0.72142,0.44947,0.20076,0.85026,0.86654,0.32016,0.73092,0.88363,0.11699,0.89602,1.39314,0.36869,0.66655,1.36575,0.1113,0.99293,1.11982,0.42929,0.59239,1.09393,0.28337,1.02505,1.31587,0.54534,0.63936,0.87038
4067,0.24964,0.80706,1.482,0.15545,1.0794,0.0485,0.26856,0.5213,0.09159,0.20223,1.00456,0.45652,0.34129,0.72553,0.44827,0.20085,0.8562,0.86532,0.31966,0.73626,0.88232,0.11724,0.90275,1.3916,0.36653,0.67066,1.36418,0.10912,0.99718,1.11748,0.42665,0.59575,1.09246,0.2858,1.0355,1.30826,0.5434,0.64305,0.86934
4068,0.249,0.81266,1.47995,0.15466,1.0784,0.0457,0.26881,0.5222,0.09224,0.2028,1.00792,0.45434,0.34281,0.72929,0.447,0.20105,0.86216,0.86407,0.31917,0.74152,0.88091,0.11797,0.90979,1.38967,0.36416,0.67511,1.36259,0.10616,1.00138,1.11472,0.42421,0.59973,1.09098,0.28828,1.04619,1.29885,0.54138,0.64689,0.86805
4069,0.24828,0.81846,1.47787,0.15393,1.07737,0.04293,0.26881,0.52321,0.09276,0.20328,1.01108,0.45213,0.34419,0.73293,0.44568,0.20127,0.86797,0.86279,0.31857,0.7465,0.87944,0.11872,0.91708,1.38744,0.36176,0.67986,1.36096,0.10266,1.00549,1.11166,0.42203,0.60426,1.08946,0.29097,1.05642,1.28779,0.53931,0.65057,0.86642
4070,0.24749,0.82446,1.47586,0.1532,1.07652,0.04029,0.26856,0.52429,0.0933,0.20397,1.01437,0.44996,0.34522,0.73677,0.44429,0.20129,0.8737,0.86146,0.31775,0.75141,0.87789,0.1189,0.92446,1.38522,0.35959,0.68486,1.35916,0.09931,1.00969,1.10867,0.41985,0.60908,1.08771,0.29414,1.06617,1.27579,0.53717,0.65414,0.86444
4071,0.24671,0.83048,1.47393,0.15233,1.07591,0.03781,0.26827,0.52526,0.09403,0.20489,1.01811,0.4479,0.34607,0.74092,0.44283,0.20094,0.87962,0.86012,0.31675,0.75666,0.87627,0.11848,0.93187,1.38303,0.35771,0.68998,1.3572,0.09638,1.01415,1.10577,0.41733,0.61396,1.08567,0.2974,1.07592,1.26342,0.53496,0.65782,0.86232
4072,0.24602,0.83632,1.4721,0.1514,1.07548,0.03547,0.26806,0.52607,0.09507,0.20576,1.02226,0.44594,0.3469,0.74526,0.44142,0.2003,0.88584,0.85884,0.3156,0.76237,0.87467,0.11798,0.9393,1.38063,0.35589,0.695,1.35524,0.09352,1.01883,1.10277,0.41439,0.61883,1.08352,0.29995,1.08618,1.25085,0.53279,0.6616,0.86035
4073,0.24541,0.84195,1.47035,0.15056,1.07517,0.03319,0.26779,0.52695,0.09634,0.20636,1.02649,0.44403,0.34759,0.74965,0.44023,0.19957,0.89224,0.85762,0.31441,0.76832,0.87328,0.11782,0.94668,1.37792,0.35387,0.69987,1.35346,0.09038,1.02366,1.09962,0.41117,0.62367,1.08149,0.30146,1.09716,1.2379,0.53068,0.66514,0.85868
4074,0.24465,0.84751,1.4687,0.15004,1.07498,0.03097,0.26747,0.5281,0.09763,0.20677,1.03052,0.44216,0.34792,0.75406,0.43923,0.19885,0.89868,0.8565,0.31326,0.77435,0.87209,0.11787,0.954,1.37516,0.35166,0.70471,1.35183,0.08703,1.02847,1.09654,0.40779,0.6285,1.07961,0.30233,1.10855,1.22426,0.52851,0.6682,0.85713
4075,0.2436,0.85311,1.46713,0.15,1.07492,0.02888,0.26725,0.52942,0.0988,0.20732,1.03448,0.4404,0.34805,0.75861,0.43816,0.19813,0.90519,0.85552,0.31215,0.78047,0.87084,0.11795,0.96133,1.37281,0.34947,0.70959,1.35019,0.08376,1.03297,1.09384,0.40442,0.63343,1.07772,0.30319,1.11968,1.20965,0.52623,0.67101,0.85546
4076,0.24238,0.8588,1.46564,0.15042,1.07488,0.02711,0.26732,0.53061,0.09998,0.2083,1.03864,0.43894,0.34842,0.76345,0.43678,0.19729,0.91188,0.8548,0.31096,0.78674,0.86925,0.11815,0.96866,1.37107,0.34748,0.7146,1.34853,0.08072,1.03691,1.09166,0.40121,0.63862,1.07577,0.30422,1.13001,1.19393,0.52379,0.67413,0.85359
4077,0.24134,0.86464,1.46422,0.1511,1.0747,0.02577,0.26773,0.53161,0.10141,0.20974,1.04301,0.43787,0.34925,0.76863,0.43517,0.19624,0.91864,0.85437,0.30956,0.79303,0.86739,0.11864,0.97586,1.36976,0.3457,0.7198,1.34702,0.07784,1.04055,1.08997,0.39815,0.64406,1.07394,0.30512,1.13953,1.1773,0.521,0.6779,0.85166
4078,0.24068,0.8708,1.46292,0.15182,1.07432,0.02475,0.26829,0.53268,0.10326,0.2114,1.04728,0.43705,0.3504,0.7742,0.43364,0.19506,0.92519,0.85412,0.30794,0.79902,0.86557,0.11933,0.98291,1.3686,0.34381,0.72511,1.34573,0.07514,1.04472,1.08868,0.3949,0.64945,1.07237,0.30565,1.14865,1.16039,0.51756,0.68221,0.84982
4079,0.24018,0.87739,1.46179,0.15235,1.07387,0.02378,0.26878,0.5342,0.10551,0.21291,1.05113,0.4362,0.35171,0.78014,0.4324,0.19393,0.93135,0.85383,0.30618,0.80453,0.86404,0.12003,0.98997,1.36757,0.34148,0.73028,1.34454,0.07277,1.04998,1.08776,0.39107,0.65454,1.07093,0.30585,1.15774,1.14376,0.51344,0.68677,0.84814
4080,0.23956,0.88434,1.46084,0.15255,1.07361,0.02278,0.26908,0.53632,0.10803,0.21411,1.05455,0.43523,0.35333,0.78634,0.43147,0.19281,0.93733,0.85348,0.30427,0.80973,0.86277,0.12055,0.997,1.36684,0.33878,0.73525,1.34338,0.07068,1.05606,1.08729,0.38672,0.65948,1.06948,0.30566,1.16676,1.1274,0.50899,0.69131,0.84658
4081,0.2388,0.89136,1.46003,0.15243,1.07365,0.02189,0.26931,0.53892,0.11069,0.21496,1.05773,0.43433,0.35546,0.79268,0.43069,0.19155,0.94333,0.85324,0.30217,0.81494,0.86156,0.12079,1.00373,1.36647,0.33615,0.74024,1.34234,0.06875,1.06236,1.08722,0.38227,0.66458,1.0681,0.30482,1.17549,1.11072,0.50464,0.69566,0.84515
4082,0.23811,0.89814,1.45935,0.15214,1.07381,0.02123,0.2697,0.54189,0.11354,0.21541,1.06087,0.43366,0.35804,0.79938,0.42995,0.19016,0.94929,0.85323,0.29995,0.82011,0.86027,0.12065,1.01011,1.36623,0.33398,0.74538,1.34157,0.06707,1.06872,1.08727,0.37807,0.66994,1.06693,0.30333,1.18372,1.09323,0.50046,0.69977,0.84382
4083,0.23759,0.90456,1.45878,0.15187,1.07392,0.02069,0.27038,0.54532,0.11682,0.21548,1.06405,0.43316,0.36094,0.80682,0.42929,0.18889,0.95501,0.85331,0.29787,0.82508,0.85902,0.12014,1.01638,1.36583,0.33233,0.75056,1.34102,0.0659,1.07546,1.08709,0.3743,0.67548,1.06596,0.3015,1.19132,1.07499,0.49633,0.70378,0.84245
4084,0.23712,0.91061,1.45835,0.15154,1.07403,0.02013,0.27135,0.54932,0.12075,0.21522,1.06725,0.43264,0.36418,0.8152,0.42883,0.18786,0.96056,0.85335,0.29614,0.83001,0.85793,0.11934,1.02284,1.36512,0.33108,0.75579,1.34056,0.06533,1.08278,1.08652,0.37108,0.6812,1.06508,0.29957,1.19818,1.05662,0.49219,0.70795,0.84088
4085,0.23661,0.91629,1.45802,0.15088,1.07438,0.01955,0.27272,0.55389,0.12528,0.21468,1.07037,0.43209,0.36788,0.82443,0.42854,0.18692,0.96619,0.85339,0.29465,0.83515,0.85692,0.11835,1.02957,1.36414,0.33005,0.76131,1.34012,0.06507,1.09063,1.08564,0.36833,0.68712,1.06427,0.29737,1.20426,1.03872,0.4881,0.71236,0.83918
4086,0.23615,0.92166,1.45767,0.14977,1.075,0.01909,0.27439,0.55897,0.13011,0.21376,1.07336,0.43161,0.37203,0.83424,0.42829,0.18581,0.97193,0.85358,0.29305,0.84047,0.85573,0.11735,1.03654,1.363,0.329,0.76715,1.33973,0.06457,1.09861,1.08463,0.36566,0.69302,1.06365,0.29425,1.20966,1.02143,0.48403,0.7169,0.83767
4087,0.23597,0.92699,1.4571,0.14847,1.07574,0.01882,0.27595,0.56462,0.13502,0.21249,1.07625,0.43134,0.37644,0.84431,0.4281,0.18439,0.9775,0.85392,0.29123,0.84569,0.85438,0.11664,1.04375,1.36184,0.32776,0.77293,1.33955,0.06349,1.10624,1.08363,0.36265,0.69854,1.06331,0.28957,1.21446,1.00455,0.47985,0.72134,0.83661
4088,0.23615,0.93261,1.45628,0.14738,1.07645,0.01863,0.27704,0.57098,0.14004,0.21105,1.0791,0.4312,0.38093,0.8545,0.42821,0.1827,0.98262,0.8543,0.2893,0.85062,0.85315,0.11642,1.05099,1.36078,0.32635,0.77827,1.33966,0.062,1.11342,1.08281,0.35924,0.7035,1.06328,0.28353,1.21842,0.98805,0.47556,0.72557,0.83606
4089,0.23648,0.93849,1.45543,0.14672,1.07702,0.01835,0.27766,0.57804,0.14524,0.20964,1.08183,0.43101,0.38539,0.86477,0.42878,0.18086,0.9874,0.85454,0.28743,0.85538,0.85222,0.11661,1.0578,1.35991,0.32488,0.78323,1.34,0.06055,1.12043,1.08231,0.35573,0.70814,1.06347,0.27681,1.22139,0.97224,0.47144,0.72961,0.83588
4090,0.23665,0.94437,1.45487,0.14644,1.07733,0.01782,0.2779,0.58551,0.15055,0.20836,1.08448,0.43059,0.38981,0.87491,0.42973,0.17901,0.99213,0.85455,0.28565,0.86019,0.85153,0.11709,1.06395,1.35913,0.32351,0.7881,1.34035,0.05934,1.1274,1.08206,0.35253,0.71283,1.06367,0.26976,1.22359,0.95737,0.46776,0.73366,0.83578
4091,0.23656,0.95012,1.45463,0.1463,1.07733,0.01708,0.27765,0.59311,0.15589,0.20739,1.08725,0.42992,0.39424,0.88466,0.43089,0.17734,0.99696,0.85426,0.28401,0.86505,0.85094,0.11777,1.06968,1.35821,0.32235,0.793,1.34055,0.05827,1.13405,1.08172,0.34981,0.71777,1.06371,0.26229,1.22527,0.9434,0.46442,0.73792,0.83544
4092,0.23634,0.95584,1.45454,0.14608,1.0771,0.0164,0.27683,0.60085,0.16121,0.20702,1.09045,0.42917,0.39878,0.894,0.43216,0.17604,1.00183,0.8538,0.2826,0.86983,0.85037,0.11862,1.07543,1.35703,0.32149,0.7979,1.34071,0.05732,1.14012,1.08101,0.3474,0.72289,1.06365,0.25436,1.22678,0.93021,0.46093,0.74247,0.8348
4093,0.23611,0.96168,1.45453,0.14584,1.0768,0.01607,0.27561,0.60903,0.16643,0.20736,1.09395,0.42861,0.40347,0.90318,0.43354,0.17519,1.0067,0.85344,0.28146,0.87447,0.8498,0.11955,1.08141,1.3557,0.32084,0.80263,1.34109,0.05649,1.14571,1.07999,0.34502,0.72794,1.06379,0.24607,1.22866,0.91796,0.45691,0.74719,0.8341
4094,0.23583,0.96759,1.45464,0.14577,1.07671,0.01609,0.27425,0.61805,0.1714,0.20805,1.09719,0.42837,0.40816,0.91252,0.43518,0.17462,1.01146,0.85341,0.28057,0.879,0.8494,0.12041,1.08758,1.35451,0.32022,0.80701,1.34176,0.05568,1.15114,1.07901,0.34252,0.73261,1.06423,0.23751,1.23112,0.90691,0.45243,0.75187,0.83358
4095,0.23556,0.97333,1.4549,0.14584,1.07693,0.01617,0.27295,0.62814,0.17611,0.20853,1.09963,0.42827,0.41264,0.92229,0.43722,0.17412,1.01592,0.85364,0.27987,0.8833,0.84933,0.12111,1.09377,1.35367,0.31947,0.8111,1.34253,0.05477,1.15664,1.0784,0.33997,0.73674,1.06484,0.22872,1.2338,0.89712,0.44791,0.7564,0.8333
4096,0.23544,0.97864,1.45518,0.14588,1.07721,0.01601,0.27184,0.63915,0.18065,0.20842,1.10109,0.42806,0.41688,0.93253,0.4397,0.1736,1.02007,0.85391,0.27924,0.88737,0.84958,0.12172,1.09985,1.35308,0.31866,0.81507,1.34325,0.05374,1.16227,1.07811,0.3376,0.74044,1.06553,0.21975,1.23617,0.88823,0.44374,0.76078,0.83322
4097,0.23549,0.98348,1.45534,0.1458,1.07731,0.01551,0.27094,0.65062,0.18501,0.20778,1.10184,0.42761,0.421,0.94286,0.44249,0.17311,1.02418,0.8541,0.27858,0.89134,0.84998,0.12249,1.10572,1.35247,0.31787,0.81898,1.34403,0.05281,1.16792,1.07788,0.33564,0.74397,1.06633,0.21063,1.23797,0.87972,0.44017,0.76504,0.83336
4098,0.23553,0.98801,1.45544,0.14568,1.07722,0.01487,0.27003,0.66215,0.18899,0.20692,1.10231,0.42704,0.42516,0.95264,0.44546,0.17274,1.02842,0.85424,0.27785,0.89528,0.85042,0.12357,1.11135,1.35174,0.31708,0.82277,1.34501,0.05212,1.17328,1.07753,0.3341,0.74758,1.06732,0.2012,1.23912,0.87134,0.43721,0.76921,0.83376
4099,0.23544,0.99243,1.45559,0.14563,1.07713,0.01437,0.26875,0.67372,0.19237,0.20624,1.1029,0.4266,0.42939,0.96139,0.44861,0.17259,1.03264,0.85445,0.27707,0.89899,0.85096,0.1249,1.11669,1.35103,0.31626,0.82647,1.3462,0.05146,1.17804,1.07722,0.33269,0.75137,1.06845,0.19121,1.23965,0.86331,0.4346,0.77342,0.8344
4100,0.23534,0.99688,1.45589,0.14568,1.07712,0.01424,0.2669,0.6856,0.19511,0.20603,1.10382,0.42645,0.43375,0.96913,0.452,0.17271,1.03656,0.85481,0.27636,0.90226,0.85167,0.12625,1.12173,1.35048,0.31547,0.83026,1.34749,0.05046,1.18226,1.07713,0.33103,0.75528,1.06965,0.18073,1.23973,0.8562,0.43192,0.77779,0.83521
4101,0.23551,1.00144,1.45632,0.14578,1.07706,0.01446,0.26469,0.69802,0.19746,0.20625,1.10514,0.42656,0.43822,0.97636,0.45559,0.17307,1.04012,0.85528,0.27585,0.90514,0.85252,0.12743,1.12656,1.3501,0.31483,0.83431,1.34874,0.04909,1.18631,1.0773,0.329,0.75907,1.07089,0.17047,1.23993,0.85042,0.429,0.78224,0.83614
4102,0.23603,1.00605,1.45686,0.14586,1.07689,0.0148,0.26244,0.71099,0.19972,0.20651,1.10672,0.42675,0.44269,0.98363,0.45933,0.17368,1.04348,0.85576,0.27563,0.90787,0.85345,0.1283,1.13139,1.34989,0.31442,0.83868,1.34989,0.04777,1.19039,1.07756,0.32676,0.7624,1.07224,0.16131,1.24088,0.84596,0.42602,0.78656,0.83727
4103,0.23677,1.01052,1.45747,0.14581,1.07676,0.01501,0.26019,0.72443,0.2019,0.20638,1.10817,0.42685,0.44697,0.99106,0.46314,0.17452,1.04678,0.8562,0.27571,0.91059,0.85451,0.12886,1.13635,1.34981,0.31417,0.84319,1.35096,0.0469,1.19429,1.07768,0.32445,0.76518,1.07371,0.15357,1.24253,0.84237,0.42325,0.79054,0.83867
4104,0.2375,1.01473,1.4581,0.1456,1.07681,0.01506,0.25775,0.73822,0.20385,0.20582,1.10926,0.42688,0.45097,0.99839,0.46691,0.17553,1.05,0.85664,0.27603,0.9133,0.85567,0.12915,1.14131,1.3497,0.31382,0.84746,1.35203,0.04652,1.1976,1.07743,0.32211,0.76774,1.0752,0.14676,1.24418,0.83897,0.42076,0.79421,0.84023
4105,0.23816,1.01886,1.4587,0.14532,1.07702,0.01515,0.25501,0.75228,0.2056,0.20511,1.11012,0.42698,0.4548,1.00545,0.47056,0.17652,1.05311,0.85716,0.27642,0.91597,0.85677,0.12941,1.14614,1.34934,0.31323,0.85126,1.35309,0.04645,1.2002,1.07672,0.3199,0.7705,1.07652,0.14017,1.24521,0.83533,0.41852,0.79783,0.84163
4106,0.23879,1.02314,1.45928,0.1452,1.07722,0.01539,0.25225,0.76654,0.20733,0.20448,1.11102,0.42723,0.45866,1.01237,0.47413,0.17733,1.05618,0.85779,0.27671,0.91866,0.85766,0.13002,1.15088,1.34876,0.31249,0.85464,1.35404,0.04645,1.20242,1.07583,0.31802,0.77367,1.07751,0.13336,1.24578,0.83161,0.41662,0.80168,0.84268
4107,0.23941,1.02762,1.45984,0.14528,1.07747,0.01566,0.25,0.78105,0.20882,0.20388,1.11197,0.42754,0.46257,1.01925,0.47769,0.17795,1.05937,0.85845,0.27681,0.92147,0.85836,0.13117,1.15569,1.34825,0.31177,0.85776,1.35481,0.04627,1.20471,1.07528,0.3164,0.77708,1.07818,0.1264,1.24641,0.82846,0.41504,0.80588,0.84347
4108,0.24,1.03213,1.46035,0.14539,1.07792,0.01581,0.24867,0.79582,0.20948,0.20315,1.11273,0.42779,0.46636,1.026,0.48123,0.17836,1.0627,0.85907,0.27674,0.92446,0.85901,0.13257,1.16055,1.34813,0.31107,0.86074,1.35548,0.04576,1.20723,1.07534,0.31483,0.78047,1.07871,0.11962,1.24735,0.82631,0.41361,0.81021,0.84418
4109,0.2406,1.03642,1.46082,0.14532,1.07855,0.01588,0.24826,0.81069,0.20907,0.20239,1.11326,0.42796,0.46988,1.03243,0.48465,0.17868,1.06608,0.85962,0.27661,0.92752,0.85965,0.13374,1.16518,1.3484,0.31036,0.86374,1.35623,0.04508,1.20983,1.07587,0.31338,0.78371,1.07938,0.11328,1.24845,0.825,0.41229,0.81426,0.84501
4110,0.24124,1.04033,1.46129,0.14506,1.07914,0.01601,0.24848,0.82536,0.20794,0.20188,1.11385,0.42812,0.47319,1.03835,0.48786,0.17927,1.06938,0.86014,0.2767,0.93047,0.86033,0.13455,1.16926,1.34886,0.30978,0.86691,1.35726,0.0446,1.21215,1.07647,0.31224,0.78672,1.08045,0.1074,1.24961,0.82402,0.41116,0.81765,0.84612
4111,0.24194,1.04391,1.46178,0.14483,1.07944,0.01631,0.24905,0.83965,0.20644,0.20174,1.1147,0.42837,0.47645,1.0437,0.49081,0.18044,1.07249,0.86067,0.27732,0.9332,0.8611,0.13522,1.17292,1.3493,0.30939,0.87018,1.35847,0.04449,1.21398,1.07688,0.31138,0.78956,1.08179,0.1019,1.25085,0.82307,0.41033,0.82031,0.84746
4112,0.24272,1.04738,1.46228,0.14481,1.07942,0.01675,0.24984,0.85362,0.20459,0.20171,1.11566,0.42872,0.4796,1.04856,0.49343,0.18204,1.07538,0.86129,0.27852,0.93581,0.86199,0.13614,1.17666,1.34965,0.30911,0.87332,1.35956,0.04461,1.21547,1.07717,0.31051,0.79236,1.08297,0.09681,1.2522,0.82221,0.40977,0.8226,0.8487
4113,0.24352,1.05106,1.46277,0.14494,1.07935,0.01718,0.25074,0.86719,0.20244,0.20149,1.11647,0.42912,0.48243,1.05307,0.49568,0.18367,1.07817,0.86195,0.27995,0.93846,0.8629,0.13744,1.18074,1.35003,0.30885,0.87635,1.36031,0.04479,1.217,1.07758,0.30954,0.79531,1.08374,0.09233,1.25373,0.82171,0.40932,0.825,0.84962
4114,0.24427,1.05519,1.46321,0.14503,1.07945,0.01746,0.25169,0.88025,0.20016,0.20099,1.11699,0.42945,0.48483,1.05744,0.49759,0.18518,1.08101,0.86255,0.28127,0.94117,0.86369,0.13888,1.18491,1.35058,0.30876,0.87958,1.36084,0.04499,1.21881,1.07826,0.3087,0.79846,1.08429,0.08864,1.25554,0.8217,0.40879,0.82771,0.85025
4115,0.24496,1.0596,1.46352,0.14495,1.07968,0.01757,0.2528,0.89284,0.19781,0.20019,1.11726,0.42965,0.48695,1.06173,0.49926,0.18653,1.08394,0.86304,0.28229,0.94387,0.86423,0.14018,1.1889,1.35125,0.30901,0.88329,1.36138,0.04522,1.22086,1.07905,0.30831,0.80176,1.08496,0.08557,1.25761,0.82196,0.40816,0.83049,0.85076
4116,0.24564,1.06377,1.46367,0.14473,1.07987,0.01757,0.25437,0.90524,0.19515,0.19921,1.11734,0.42976,0.48902,1.06577,0.50074,0.18762,1.08681,0.86341,0.28307,0.94654,0.86453,0.14132,1.19273,1.35173,0.30957,0.88741,1.36196,0.04547,1.22298,1.07966,0.30841,0.80502,1.08579,0.08268,1.25967,0.82208,0.40772,0.83304,0.85127
4117,0.24633,1.06733,1.46374,0.1445,1.07984,0.01751,0.25658,0.91767,0.19193,0.1982,1.11736,0.4298,0.49123,1.06937,0.502,0.18846,1.08954,0.86368,0.28384,0.94922,0.86468,0.14253,1.19649,1.3518,0.31016,0.89147,1.36237,0.04575,1.22506,1.07987,0.30867,0.808,1.08653,0.07969,1.26142,0.82179,0.4078,0.8353,0.85185
4118,0.24715,1.07048,1.46382,0.14443,1.07956,0.01741,0.25949,0.93003,0.18821,0.1973,1.11747,0.42976,0.49361,1.07246,0.50304,0.1893,1.09227,0.86384,0.28481,0.95203,0.86482,0.14395,1.20019,1.35152,0.3106,0.89503,1.36256,0.0461,1.22716,1.07981,0.30874,0.81063,1.08701,0.07675,1.26286,0.82123,0.4084,0.83745,0.85249
4119,0.24824,1.07365,1.46394,0.14448,1.07923,0.01723,0.26312,0.94187,0.18412,0.19655,1.1178,0.42963,0.49607,1.07501,0.50385,0.19045,1.0952,0.86388,0.286,0.95499,0.86502,0.14544,1.20385,1.35124,0.31088,0.89803,1.36277,0.04659,1.22941,1.07975,0.30875,0.81318,1.08736,0.0741,1.26416,0.82069,0.40924,0.83962,0.85315
4120,0.24955,1.07697,1.46403,0.14439,1.07911,0.01697,0.26741,0.95281,0.17962,0.19591,1.11827,0.42938,0.49841,1.07697,0.50434,0.19201,1.09834,0.86379,0.28734,0.95798,0.86527,0.14688,1.20755,1.35124,0.31104,0.9007,1.36325,0.0473,1.23176,1.0799,0.30906,0.81602,1.08778,0.07185,1.26538,0.82039,0.41008,0.84185,0.85374
4121,0.25094,1.08027,1.46405,0.14389,1.0792,0.01667,0.27206,0.96286,0.17464,0.19533,1.11873,0.42906,0.50033,1.07847,0.5044,0.19376,1.1014,0.8636,0.28871,0.9608,0.86545,0.14833,1.21128,1.35152,0.31114,0.90327,1.36385,0.04836,1.23419,1.08022,0.30971,0.81923,1.08818,0.07001,1.26649,0.82028,0.41096,0.84415,0.85413
4122,0.25228,1.08341,1.464,0.14309,1.07931,0.01636,0.2768,0.97238,0.16922,0.19473,1.1191,0.4287,0.50172,1.07986,0.50401,0.1954,1.10418,0.86333,0.29003,0.96336,0.86539,0.14992,1.21494,1.35185,0.31131,0.9059,1.36415,0.04974,1.2367,1.08053,0.31048,0.82253,1.08827,0.06863,1.26769,0.82022,0.41195,0.84649,0.85423
4123,0.25355,1.08637,1.46391,0.14244,1.07938,0.01606,0.28176,0.98174,0.16341,0.19413,1.11951,0.42836,0.50265,1.08138,0.50326,0.19685,1.10677,0.86304,0.2912,0.96577,0.86507,0.15164,1.21846,1.35194,0.31177,0.90871,1.36398,0.05119,1.23907,1.08062,0.31121,0.82568,1.088,0.06779,1.26927,0.82006,0.41301,0.84874,0.85401
4124,0.25473,1.08931,1.46381,0.14231,1.07948,0.0158,0.28734,0.99126,0.15708,0.19363,1.12003,0.4281,0.50324,1.08291,0.50234,0.19818,1.10948,0.86284,0.29216,0.96822,0.86465,0.15339,1.22182,1.35174,0.31259,0.91168,1.36352,0.05261,1.24115,1.08045,0.31196,0.82867,1.08753,0.06752,1.27138,0.81979,0.41404,0.85092,0.85358
4125,0.2558,1.09244,1.46371,0.14255,1.07971,0.01568,0.29379,1.00112,0.15,0.19332,1.12063,0.42801,0.50346,1.08415,0.50123,0.19954,1.11254,0.86278,0.29297,0.97092,0.86436,0.15516,1.22511,1.35156,0.31363,0.91469,1.36299,0.0543,1.24329,1.08022,0.31273,0.83158,1.08703,0.06785,1.27402,0.81955,0.41501,0.8532,0.85311
4126,0.25683,1.09584,1.46362,0.14275,1.08001,0.01574,0.30096,1.01123,0.1422,0.1932,1.12131,0.42807,0.50321,1.08498,0.4998,0.20101,1.11599,0.86285,0.29381,0.97395,0.86423,0.15694,1.22842,1.35167,0.31468,0.91765,1.36244,0.05653,1.24605,1.08013,0.31336,0.83438,1.08653,0.06867,1.27706,0.81942,0.41594,0.85558,0.8527
4127,0.2579,1.09929,1.46353,0.14277,1.0802,0.01588,0.30843,1.02123,0.134,0.19326,1.12209,0.42815,0.50247,1.08568,0.49788,0.20259,1.11964,0.86293,0.29483,0.97723,0.86409,0.1587,1.2316,1.3519,0.31557,0.92054,1.36186,0.05914,1.24934,1.08006,0.31374,0.83701,1.08603,0.06964,1.28001,0.81924,0.41685,0.85782,0.8524
4128,0.25905,1.10244,1.46339,0.14281,1.08021,0.01598,0.31595,1.03081,0.12575,0.19351,1.12295,0.42814,0.50136,1.0866,0.49552,0.2042,1.12327,0.86289,0.29601,0.98059,0.86372,0.16033,1.23442,1.35189,0.31631,0.9233,1.36129,0.06167,1.25257,1.07974,0.31413,0.83953,1.08554,0.07056,1.28247,0.81877,0.41791,0.85974,0.85216
4129,0.26029,1.10503,1.46314,0.14297,1.08014,0.01596,0.32377,1.03999,0.11761,0.19388,1.1238,0.42799,0.50003,1.08773,0.49295,0.20578,1.1267,0.8627,0.29717,0.98374,0.8631,0.16177,1.2369,1.35158,0.31719,0.92591,1.36076,0.064,1.25542,1.07914,0.3151,0.8421,1.08502,0.07164,1.28466,0.81805,0.41937,0.86152,0.85179
4130,0.26169,1.10719,1.46281,0.1432,1.08008,0.01576,0.33228,1.04899,0.10957,0.19429,1.1246,0.42768,0.49852,1.08872,0.49036,0.20748,1.12977,0.86233,0.29827,0.98643,0.86241,0.16314,1.23934,1.35126,0.31853,0.92844,1.36021,0.06641,1.25814,1.07846,0.31695,0.84466,1.08446,0.07334,1.28708,0.81732,0.4213,0.86339,0.85121
4131,0.26328,1.10929,1.46252,0.14346,1.08011,0.01542,0.34158,1.0578,0.10153,0.19469,1.12548,0.42723,0.49672,1.08929,0.48774,0.20948,1.13252,0.86181,0.29951,0.98869,0.86187,0.16479,1.24187,1.35106,0.32048,0.93102,1.35972,0.06921,1.26093,1.07787,0.31928,0.84699,1.08404,0.07584,1.28996,0.81674,0.42344,0.86522,0.85066
4132,0.26501,1.11158,1.4624,0.14378,1.08025,0.01502,0.35145,1.06622,0.09347,0.19502,1.12661,0.42672,0.49452,1.08955,0.48489,0.21174,1.13518,0.8612,0.30107,0.99092,0.86149,0.16693,1.24436,1.35078,0.32288,0.93376,1.35951,0.07219,1.26365,1.07732,0.32146,0.84904,1.08405,0.07899,1.29332,0.81627,0.42534,0.86663,0.85049
4133,0.26672,1.11401,1.46243,0.14402,1.08034,0.01469,0.36159,1.0741,0.08543,0.19531,1.12795,0.42624,0.4919,1.08983,0.48165,0.21401,1.13799,0.86061,0.30295,0.9935,0.86112,0.16928,1.24668,1.3502,0.32541,0.93662,1.35973,0.07491,1.26618,1.07662,0.32337,0.85118,1.0845,0.08264,1.29729,0.81576,0.4269,0.86757,0.8507
4134,0.26837,1.11648,1.46246,0.14398,1.08035,0.0145,0.37182,1.08152,0.07748,0.19578,1.1293,0.42583,0.48889,1.0903,0.47802,0.21613,1.1411,0.86008,0.30492,0.99652,0.86057,0.17136,1.24898,1.34929,0.3278,0.93949,1.36022,0.07738,1.26874,1.0756,0.32559,0.85385,1.08504,0.08696,1.30196,0.81506,0.42853,0.86859,0.85088
