PaulMeinheit/Bachelor_Muay_Thai/processed_Data/N1/teep/sliced/JointPositions/sliced0.csv
Unnamed: 0_level_0,Neck_Joint_Position,Neck_Joint_Position,Neck_Joint_Position,L_ANKLE_POSITION,L_ANKLE_POSITION,L_ANKLE_POSITION,R_ANKLE_POSITION,R_ANKLE_POSITION,R_ANKLE_POSITION,L_KNEE_POSITION,L_KNEE_POSITION,L_KNEE_POSITION,R_KNEE_POSITION,R_KNEE_POSITION,R_KNEE_POSITION,L_HIP_POSITION,L_HIP_POSITION,L_HIP_POSITION,R_HIP_POSITION,R_HIP_POSITION,R_HIP_POSITION,L_SHOULDER_POSITION,L_SHOULDER_POSITION,L_SHOULDER_POSITION,R_SHOULDER_POSITION,R_SHOULDER_POSITION,R_SHOULDER_POSITION,L_ELBOW_POSITION,L_ELBOW_POSITION,L_ELBOW_POSITION,R_ELBOW_POSITION,R_ELBOW_POSITION,R_ELBOW_POSITION,L_WRIST_POSITION,L_WRIST_POSITION,L_WRIST_POSITION,R_WRIST_POSITION,R_WRIST_POSITION,R_WRIST_POSITION
ITEM,X,Y,Z,X,Y,Z,X,Y,Z,X,Y,Z,X,Y,Z,X,Y,Z,X,Y,Z,X,Y,Z,X,Y,Z,X,Y,Z,X,Y,Z,X,Y,Z,X,Y,Z
360,0.15242,0.34795,1.50701,-0.01999,0.54796,0.13125,0.23788,0.0884,0.07658,0.04256,0.54673,0.54399,0.25699,0.20528,0.47682,0.07987,0.30639,0.9045,0.24573,0.27067,0.90645,-0.01674,0.32417,1.41385,0.31868,0.31023,1.42049,-0.03644,0.42949,1.14432,0.396,0.39017,1.15461,0.01756,0.5669,1.36176,0.31099,0.50226,1.36876
361,0.15428,0.34676,1.50677,-0.01977,0.54647,0.13182,0.23776,0.08852,0.07664,0.04312,0.54528,0.54451,0.25726,0.20449,0.47713,0.08061,0.3049,0.90497,0.24653,0.26944,0.90684,-0.01494,0.3228,1.4145,0.32029,0.30838,1.42116,-0.03551,0.42664,1.14446,0.39721,0.38815,1.15512,0.01838,0.56489,1.3614,0.31219,0.50044,1.36915
362,0.15588,0.34573,1.50651,-0.01968,0.54464,0.13226,0.23746,0.08867,0.07675,0.04368,0.54387,0.54489,0.25758,0.20388,0.47743,0.08133,0.30345,0.90531,0.24726,0.26804,0.90726,-0.01339,0.32157,1.41514,0.3219,0.30638,1.42184,-0.03448,0.42451,1.14479,0.39851,0.38634,1.15576,0.02042,0.56376,1.36083,0.31329,0.49848,1.3698
363,0.15738,0.34454,1.50655,-0.01967,0.54253,0.13273,0.23722,0.08874,0.07693,0.04426,0.54247,0.54526,0.25816,0.20356,0.47768,0.08193,0.30205,0.90569,0.24782,0.26644,0.9077,-0.01198,0.32027,1.41571,0.32334,0.30438,1.42233,-0.03318,0.42337,1.14543,0.39984,0.38507,1.15645,0.02308,0.56329,1.36069,0.31433,0.49648,1.37075
364,0.15874,0.34304,1.50698,-0.01969,0.5401,0.13312,0.23718,0.0887,0.07715,0.04483,0.54107,0.54556,0.2588,0.20349,0.47787,0.0825,0.3008,0.90608,0.24831,0.26488,0.90811,-0.01066,0.31884,1.41624,0.32468,0.30264,1.4226,-0.0317,0.42286,1.14631,0.40118,0.38428,1.15701,0.02528,0.56258,1.36151,0.31545,0.49444,1.37187
365,0.15976,0.34156,1.50747,-0.01956,0.53731,0.13325,0.23722,0.08869,0.07729,0.04539,0.5398,0.54562,0.25915,0.20343,0.478,0.08315,0.29985,0.90635,0.24891,0.26368,0.9084,-0.00953,0.31731,1.41695,0.32597,0.30116,1.42274,-0.03044,0.42206,1.14729,0.40249,0.38346,1.15735,0.02649,0.56086,1.36309,0.31667,0.4924,1.37279
366,0.16036,0.34062,1.50759,-0.01908,0.53422,0.13307,0.23722,0.08881,0.07724,0.04602,0.53872,0.5454,0.25906,0.20328,0.47804,0.08384,0.29921,0.90641,0.24958,0.26293,0.90855,-0.0087,0.31569,1.41789,0.32709,0.29975,1.42287,-0.0296,0.42043,1.14822,0.40375,0.3823,1.1576,0.02703,0.5582,1.36476,0.31778,0.49056,1.37332
367,0.16074,0.34029,1.50727,-0.01819,0.53095,0.13272,0.23715,0.08903,0.0771,0.04679,0.53777,0.54503,0.25875,0.20318,0.478,0.08445,0.29876,0.90639,0.25017,0.2624,0.90858,-0.00806,0.31405,1.41884,0.32784,0.29835,1.42305,-0.02896,0.41844,1.14903,0.40491,0.38118,1.15798,0.02766,0.55545,1.36606,0.31862,0.48908,1.37376
368,0.16132,0.34008,1.5069,-0.01718,0.52764,0.13236,0.23709,0.08925,0.077,0.04758,0.53679,0.54466,0.25857,0.20328,0.47794,0.08493,0.2984,0.90647,0.25061,0.26184,0.90862,-0.00732,0.31262,1.41954,0.3283,0.29707,1.42322,-0.0282,0.4169,1.14969,0.40587,0.38075,1.15857,0.02877,0.55329,1.36701,0.31931,0.48802,1.37455
369,0.16247,0.33953,1.50679,-0.01639,0.52432,0.13204,0.23708,0.08942,0.077,0.04822,0.53558,0.54431,0.25862,0.20344,0.47794,0.08534,0.29815,0.90677,0.25094,0.26123,0.90874,-0.00627,0.31161,1.41989,0.3287,0.296,1.42329,-0.0273,0.416,1.15009,0.40654,0.38122,1.15922,0.03004,0.55159,1.36782,0.31992,0.48745,1.37569
370,0.16404,0.33862,1.50698,-0.01598,0.52086,0.13166,0.23722,0.08941,0.07711,0.0486,0.53406,0.54388,0.25882,0.20339,0.47806,0.08572,0.29794,0.90719,0.25125,0.26067,0.90892,-0.00503,0.31095,1.41991,0.32923,0.29503,1.42331,-0.02635,0.41548,1.15019,0.40698,0.38219,1.15984,0.03091,0.54973,1.36877,0.32036,0.48735,1.37683
371,0.16546,0.3376,1.50727,-0.0158,0.51714,0.13105,0.23755,0.0892,0.07728,0.0488,0.53229,0.54321,0.25909,0.20312,0.47825,0.0861,0.29771,0.90749,0.25159,0.26028,0.90913,-0.00393,0.31042,1.41972,0.32988,0.29405,1.42335,-0.02542,0.41521,1.15012,0.40738,0.38319,1.16047,0.03122,0.54746,1.37007,0.32059,0.48726,1.37793
372,0.16643,0.33673,1.50746,-0.01558,0.51316,0.13005,0.23797,0.08899,0.07748,0.04899,0.53041,0.54212,0.25947,0.20291,0.47845,0.08648,0.29762,0.90754,0.25197,0.26018,0.90932,-0.00305,0.31004,1.41955,0.33062,0.29313,1.42345,-0.02452,0.41519,1.15009,0.40793,0.38413,1.16115,0.03136,0.5451,1.37163,0.32082,0.48661,1.37923
373,0.16709,0.33603,1.5075,-0.01531,0.5091,0.12861,0.23824,0.08902,0.07772,0.0494,0.52846,0.54057,0.26006,0.20304,0.47865,0.08687,0.29788,0.90738,0.25234,0.26038,0.9095,-0.00217,0.31004,1.41962,0.33144,0.29246,1.42356,-0.02369,0.41531,1.1502,0.40854,0.38509,1.16177,0.03181,0.54307,1.37308,0.32126,0.48542,1.38078
374,0.16758,0.33547,1.50747,-0.01517,0.50519,0.12684,0.23822,0.08931,0.07798,0.05018,0.52632,0.53861,0.2608,0.20349,0.47882,0.0873,0.29846,0.90716,0.25269,0.26067,0.90968,-0.00112,0.31052,1.41999,0.33234,0.29208,1.42363,-0.02301,0.41542,1.15046,0.40908,0.38608,1.16222,0.0327,0.54154,1.37422,0.32184,0.48431,1.3822
375,0.16774,0.33501,1.50747,-0.01518,0.50166,0.12491,0.23802,0.08969,0.07815,0.05117,0.52391,0.53645,0.26145,0.20406,0.47889,0.08779,0.29914,0.90694,0.25307,0.26087,0.9098,0.0,0.31117,1.42057,0.33317,0.29193,1.42366,-0.02249,0.41561,1.15091,0.40952,0.38707,1.16255,0.03393,0.54049,1.37519,0.32223,0.48388,1.38314
376,0.16747,0.33473,1.50753,-0.01517,0.49846,0.1229,0.23789,0.08999,0.07817,0.05205,0.52131,0.53427,0.26181,0.20455,0.47883,0.0883,0.29971,0.9067,0.25348,0.26104,0.90978,0.00081,0.31153,1.42119,0.3336,0.29194,1.42361,-0.02217,0.416,1.15159,0.40995,0.38819,1.16291,0.03542,0.53977,1.37618,0.3222,0.48416,1.38368
377,0.16708,0.33466,1.50763,-0.015,0.49538,0.12086,0.23787,0.09011,0.07809,0.05259,0.51865,0.53215,0.26186,0.20494,0.47867,0.08872,0.30022,0.90646,0.25385,0.26134,0.90964,0.00096,0.31146,1.42175,0.33342,0.29199,1.4234,-0.02211,0.41655,1.1524,0.41044,0.38967,1.16343,0.03687,0.53902,1.37734,0.3218,0.48479,1.38421
378,0.16689,0.33474,1.50767,-0.01475,0.4924,0.11885,0.23783,0.09008,0.07802,0.05286,0.51605,0.53012,0.26177,0.20533,0.47847,0.0889,0.30079,0.90627,0.25401,0.26182,0.90944,0.00053,0.31133,1.42225,0.33285,0.29195,1.42305,-0.02239,0.41714,1.15316,0.41089,0.39149,1.16409,0.0377,0.53789,1.37875,0.32119,0.48531,1.385
379,0.16687,0.33472,1.5076,-0.01455,0.48975,0.1169,0.23778,0.08994,0.07805,0.05306,0.51356,0.52816,0.26173,0.20587,0.47831,0.08886,0.30147,0.90613,0.25394,0.26236,0.90928,3e-05,0.31151,1.4227,0.33239,0.29181,1.42274,-0.02296,0.41779,1.1538,0.41109,0.39337,1.16476,0.03775,0.53651,1.3803,0.32049,0.48541,1.38605
380,0.16679,0.33434,1.50755,-0.01442,0.48756,0.11493,0.23787,0.08982,0.07823,0.0533,0.51105,0.52619,0.26185,0.20664,0.47823,0.08874,0.30217,0.90597,0.25379,0.26297,0.90921,-0.00012,0.31197,1.42305,0.33234,0.29163,1.42256,-0.02368,0.41864,1.15436,0.4109,0.39506,1.16529,0.03755,0.53533,1.38176,0.31986,0.48509,1.38722
381,0.16655,0.3337,1.50764,-0.0142,0.48564,0.11284,0.23814,0.08979,0.07848,0.05353,0.50833,0.52414,0.26206,0.20758,0.4782,0.0886,0.30286,0.90581,0.25366,0.26373,0.9092,1e-05,0.31237,1.42324,0.33255,0.2915,1.42248,-0.02446,0.41969,1.15488,0.4104,0.39666,1.1657,0.03749,0.53464,1.38297,0.31951,0.48474,1.38847
382,0.1662,0.33327,1.50781,-0.01379,0.48375,0.11063,0.23842,0.08987,0.07869,0.05366,0.50538,0.52203,0.26218,0.20857,0.47814,0.08839,0.30365,0.90573,0.25351,0.26476,0.90913,2e-05,0.31265,1.4233,0.33249,0.29151,1.42241,-0.02528,0.42084,1.15537,0.40975,0.39835,1.16614,0.03737,0.53443,1.38396,0.31938,0.48475,1.38978
383,0.16582,0.33342,1.50786,-0.01326,0.48188,0.10831,0.23858,0.09,0.07881,0.0535,0.50235,0.51988,0.26208,0.20944,0.47806,0.08811,0.30475,0.90573,0.25328,0.26606,0.90898,-0.00038,0.31301,1.42337,0.33177,0.29168,1.42229,-0.02608,0.42207,1.15584,0.40914,0.40008,1.16671,0.03688,0.53473,1.38479,0.31919,0.4852,1.39101
384,0.16541,0.334,1.50773,-0.01293,0.4803,0.10585,0.23861,0.09013,0.07889,0.05293,0.49925,0.51764,0.26182,0.21014,0.47799,0.08787,0.30618,0.90575,0.25306,0.26752,0.90881,-0.00115,0.31354,1.42351,0.33046,0.29192,1.42218,-0.02684,0.42335,1.15629,0.40866,0.40166,1.16743,0.0361,0.53556,1.38547,0.31874,0.48595,1.39206
385,0.16488,0.33463,1.50752,-0.01301,0.47911,0.1033,0.23859,0.09027,0.07897,0.05196,0.49594,0.51533,0.26156,0.21083,0.47792,0.0877,0.30768,0.90572,0.25287,0.26898,0.90864,-0.00201,0.3141,1.42367,0.32912,0.29211,1.42221,-0.02759,0.42463,1.15673,0.40825,0.40303,1.16825,0.0353,0.53681,1.38594,0.31791,0.48683,1.39289
386,0.16422,0.33508,1.5074,-0.01335,0.47817,0.10082,0.23859,0.09045,0.07902,0.05073,0.49239,0.51309,0.26138,0.21169,0.47776,0.08746,0.3089,0.90565,0.25266,0.27032,0.90842,-0.00265,0.31457,1.42374,0.32828,0.29237,1.4225,-0.02829,0.42594,1.15716,0.40775,0.40428,1.16908,0.03467,0.53839,1.38622,0.31675,0.48778,1.39356
387,0.16347,0.3353,1.50746,-0.01361,0.47728,0.09857,0.23868,0.09068,0.07902,0.04935,0.48885,0.51109,0.26118,0.21278,0.47752,0.08705,0.30973,0.90558,0.25236,0.27157,0.90815,-0.00305,0.31501,1.4237,0.32804,0.29301,1.42305,-0.02885,0.42746,1.15759,0.40706,0.40556,1.16978,0.0342,0.5405,1.38634,0.31544,0.4888,1.39411
388,0.1627,0.33529,1.50768,-0.01362,0.47649,0.09658,0.23882,0.09101,0.07903,0.04793,0.48565,0.50938,0.26085,0.21406,0.47726,0.08648,0.31041,0.90552,0.25193,0.27287,0.90789,-0.00345,0.31549,1.42363,0.32807,0.29405,1.42371,-0.02929,0.42928,1.15809,0.40618,0.40695,1.17031,0.03388,0.54348,1.38623,0.31425,0.48993,1.39461
389,0.16187,0.33526,1.50789,-0.01331,0.47584,0.09485,0.23892,0.09139,0.07915,0.04653,0.48295,0.50793,0.26039,0.21547,0.47709,0.08576,0.31124,0.90555,0.25136,0.27434,0.90772,-0.00401,0.31599,1.42371,0.32794,0.29513,1.42426,-0.0299,0.4313,1.15883,0.40513,0.40843,1.17076,0.03394,0.54733,1.38585,0.31333,0.49124,1.39518
390,0.16083,0.33553,1.50793,-0.01266,0.47516,0.09334,0.23895,0.09174,0.07944,0.04526,0.48064,0.50673,0.25989,0.21691,0.47707,0.08491,0.31227,0.90573,0.25064,0.27596,0.90767,-0.00481,0.31647,1.42404,0.32744,0.29594,1.42457,-0.03085,0.43333,1.15985,0.40398,0.41005,1.17124,0.03443,0.55161,1.3853,0.31266,0.49282,1.39587
391,0.15957,0.33625,1.50781,-0.01173,0.47433,0.09207,0.23899,0.09201,0.0799,0.04417,0.47851,0.50574,0.25944,0.21839,0.47717,0.08403,0.31335,0.90607,0.24988,0.27758,0.90774,-0.00593,0.31686,1.42446,0.3266,0.29667,1.42467,-0.032,0.43513,1.16091,0.40274,0.41202,1.17178,0.03476,0.55567,1.38472,0.31205,0.49474,1.39668
392,0.15829,0.33728,1.50767,-0.01078,0.47354,0.091,0.23919,0.09228,0.08044,0.04325,0.47647,0.50494,0.25913,0.21993,0.47734,0.08328,0.31432,0.90647,0.24924,0.27902,0.90791,-0.00733,0.31718,1.4247,0.32561,0.29763,1.42471,-0.03293,0.43666,1.16165,0.40139,0.41439,1.17235,0.03432,0.55928,1.38418,0.31118,0.49698,1.39749
393,0.15704,0.33835,1.50767,-0.01008,0.47317,0.09007,0.23956,0.0927,0.08102,0.04244,0.47463,0.5042,0.25893,0.22157,0.47756,0.0827,0.31526,0.90682,0.24875,0.28039,0.90816,-0.0088,0.31761,1.42468,0.32465,0.29882,1.42491,-0.03349,0.43825,1.16207,0.4,0.41686,1.17302,0.03334,0.5626,1.38377,0.30984,0.49941,1.3982
394,0.15567,0.33934,1.50787,-0.00969,0.4734,0.08915,0.24003,0.0933,0.08158,0.04167,0.47325,0.50343,0.25875,0.2233,0.47778,0.08208,0.31643,0.90704,0.24822,0.28198,0.90839,-0.01021,0.31839,1.42458,0.32373,0.30001,1.42551,-0.03401,0.44035,1.1625,0.39872,0.41901,1.17397,0.03246,0.56577,1.3837,0.30805,0.50183,1.39884
395,0.15407,0.34027,1.50826,-0.00942,0.47398,0.08815,0.24045,0.09393,0.08212,0.04091,0.47244,0.50256,0.2585,0.22513,0.47795,0.0812,0.31809,0.90713,0.24739,0.28388,0.90854,-0.01165,0.31959,1.42462,0.32267,0.30113,1.42645,-0.03481,0.44298,1.16315,0.39759,0.42074,1.17518,0.03184,0.56867,1.38414,0.30607,0.50411,1.3995
396,0.1523,0.34105,1.50878,-0.00909,0.47446,0.08702,0.2407,0.09442,0.08269,0.04012,0.47185,0.50156,0.25822,0.2271,0.47804,0.08007,0.32017,0.90717,0.24623,0.28588,0.90861,-0.01331,0.32106,1.42489,0.32133,0.30218,1.42746,-0.03576,0.4457,1.16396,0.39646,0.4223,1.17649,0.03136,0.57131,1.38486,0.30409,0.50623,1.40026
397,0.15053,0.34158,1.50938,-0.00865,0.47454,0.08586,0.24079,0.09471,0.08332,0.03925,0.47096,0.50054,0.25787,0.22927,0.47807,0.07884,0.32231,0.90731,0.24496,0.28777,0.90864,-0.01513,0.32263,1.42538,0.31976,0.30306,1.42824,-0.03651,0.44813,1.16477,0.39529,0.42398,1.17777,0.03125,0.57395,1.38535,0.30218,0.50832,1.40108
398,0.14885,0.34201,1.50999,-0.00826,0.47422,0.08483,0.24094,0.09492,0.08406,0.03832,0.46959,0.49965,0.25732,0.23173,0.47806,0.07764,0.32418,0.90761,0.24375,0.28959,0.90869,-0.01682,0.32415,1.42594,0.31808,0.30383,1.42872,-0.0371,0.45021,1.1655,0.39404,0.42594,1.17897,0.03182,0.57677,1.3853,0.30034,0.51062,1.4019
399,0.14716,0.34266,1.51058,-0.00806,0.47371,0.08401,0.24128,0.09524,0.0849,0.03759,0.46809,0.49893,0.25651,0.23453,0.47807,0.07645,0.32571,0.90801,0.24264,0.2915,0.90882,-0.01826,0.32558,1.42641,0.31631,0.30498,1.42905,-0.03795,0.45204,1.16613,0.39256,0.42838,1.18002,0.03248,0.57943,1.38497,0.29856,0.51328,1.40274
400,0.1453,0.34382,1.51115,-0.00805,0.47321,0.08335,0.24172,0.09575,0.08582,0.03721,0.4669,0.4983,0.25567,0.2376,0.47813,0.07521,0.32696,0.9083,0.24155,0.29349,0.90901,-0.01964,0.32692,1.4267,0.31448,0.30689,1.42944,-0.03929,0.45362,1.16653,0.39073,0.43133,1.18093,0.03196,0.5812,1.38499,0.29677,0.51616,1.40369
401,0.1433,0.34556,1.5116,-0.00814,0.47277,0.08277,0.24208,0.09636,0.0868,0.03704,0.46612,0.49773,0.25511,0.24086,0.47817,0.07386,0.32806,0.90847,0.24036,0.29543,0.9092,-0.02125,0.32816,1.42674,0.31263,0.30928,1.43001,-0.04087,0.45499,1.16663,0.3888,0.4344,1.18181,0.02981,0.58185,1.3857,0.29495,0.51893,1.40473
402,0.14131,0.34769,1.51189,-0.00826,0.47241,0.08228,0.24238,0.09699,0.08783,0.0368,0.46541,0.49724,0.25484,0.24431,0.47817,0.0724,0.32919,0.9087,0.23904,0.29729,0.90936,-0.02315,0.32926,1.42669,0.31091,0.31154,1.43072,-0.04219,0.45636,1.16668,0.3871,0.43719,1.18279,0.02724,0.58201,1.38683,0.29312,0.52131,1.40582
403,0.1393,0.34974,1.51216,-0.00835,0.47218,0.08186,0.24273,0.09767,0.08902,0.03636,0.46437,0.49684,0.25459,0.24793,0.47825,0.07086,0.33054,0.90918,0.23762,0.29919,0.90961,-0.0253,0.33033,1.42683,0.30939,0.31345,1.4314,-0.04313,0.4579,1.16695,0.38569,0.43983,1.18388,0.02574,0.5825,1.38788,0.29123,0.5233,1.40694
404,0.13704,0.35131,1.51267,-0.00832,0.47205,0.08144,0.24309,0.09846,0.09047,0.03569,0.46287,0.49647,0.25414,0.25162,0.47859,0.06931,0.33213,0.90987,0.23615,0.30124,0.9101,-0.02763,0.33159,1.42729,0.30795,0.31514,1.43194,-0.04405,0.45951,1.1675,0.38428,0.44247,1.18492,0.02549,0.58336,1.38864,0.28921,0.52503,1.40806
405,0.13447,0.35244,1.51337,-0.00816,0.47193,0.08099,0.24331,0.09937,0.0921,0.03481,0.46115,0.49609,0.25359,0.2553,0.47914,0.06778,0.33382,0.91061,0.2347,0.30337,0.91078,-0.02992,0.33305,1.42794,0.30633,0.31677,1.43245,-0.04537,0.46108,1.16813,0.38266,0.44486,1.18583,0.02557,0.58396,1.38937,0.28705,0.52655,1.40906
406,0.13178,0.35353,1.514,-0.00789,0.47176,0.08058,0.24339,0.10041,0.0937,0.03379,0.45968,0.49578,0.25309,0.25904,0.47966,0.06624,0.33543,0.91127,0.23323,0.30536,0.91144,-0.03201,0.33458,1.42853,0.30438,0.31854,1.43322,-0.04714,0.4626,1.1687,0.38099,0.4467,1.18671,0.02514,0.58386,1.3904,0.28486,0.52795,1.40988
407,0.12913,0.35494,1.51443,-0.00756,0.47157,0.08033,0.24352,0.10154,0.09513,0.03278,0.45881,0.49564,0.25269,0.26294,0.47995,0.06469,0.33685,0.91185,0.23173,0.30709,0.91191,-0.03395,0.33612,1.42887,0.30216,0.32079,1.43427,-0.04912,0.46413,1.16904,0.37938,0.44832,1.18763,0.02392,0.5832,1.39167,0.28271,0.5294,1.41064
408,0.12662,0.35678,1.51475,-0.00726,0.47141,0.08026,0.24385,0.10268,0.09644,0.0319,0.45845,0.49567,0.25228,0.26708,0.48,0.0631,0.33801,0.91238,0.23022,0.30865,0.91216,-0.036,0.3377,1.4289,0.29987,0.32369,1.43535,-0.05116,0.46568,1.16906,0.37757,0.45054,1.18851,0.0218,0.58239,1.39296,0.28053,0.53112,1.41153
409,0.12432,0.359,1.51508,-0.00705,0.47129,0.08026,0.24434,0.10374,0.09781,0.03115,0.45814,0.49576,0.25183,0.27144,0.47996,0.06147,0.33897,0.9129,0.2287,0.31026,0.91233,-0.03824,0.3393,1.42877,0.29763,0.32696,1.43629,-0.05316,0.4673,1.16892,0.37525,0.45362,1.18932,0.0189,0.58173,1.39429,0.2781,0.53307,1.4127
410,0.12221,0.36144,1.51546,-0.00689,0.47115,0.0802,0.24483,0.1047,0.09942,0.03041,0.45748,0.49576,0.25147,0.27594,0.48002,0.05979,0.33981,0.91339,0.22717,0.31198,0.91256,-0.04059,0.34077,1.42866,0.29544,0.33002,1.43723,-0.05482,0.46919,1.16898,0.37263,0.45686,1.19022,0.01605,0.58155,1.39577,0.27546,0.53488,1.4141
411,0.12008,0.36384,1.51585,-0.0068,0.47102,0.08008,0.24522,0.10568,0.10133,0.02958,0.45652,0.4957,0.25134,0.28052,0.48029,0.05814,0.3407,0.9139,0.22566,0.31376,0.91298,-0.04295,0.34198,1.42873,0.29326,0.33255,1.43839,-0.05594,0.47144,1.1695,0.37029,0.45936,1.19132,0.01444,0.58236,1.39715,0.27286,0.53627,1.41547
412,0.11765,0.36595,1.5162,-0.0068,0.47102,0.08002,0.2455,0.10693,0.10339,0.02865,0.45559,0.49569,0.25145,0.28513,0.48079,0.0566,0.34176,0.91448,0.22425,0.31567,0.91358,-0.04511,0.34301,1.42909,0.29107,0.3347,1.43968,-0.05679,0.47381,1.17048,0.36844,0.46107,1.19249,0.01446,0.58425,1.39808,0.27043,0.53747,1.41656
413,0.11485,0.3677,1.51651,-0.00686,0.4712,0.08004,0.24579,0.10854,0.10548,0.02763,0.45484,0.49575,0.25161,0.28977,0.48143,0.05519,0.34299,0.9151,0.22298,0.31774,0.91431,-0.04687,0.34404,1.42962,0.28891,0.33671,1.4408,-0.05799,0.47603,1.17159,0.36678,0.46258,1.19351,0.01507,0.5865,1.3986,0.26816,0.53898,1.41731
414,0.11197,0.36933,1.51681,-0.00688,0.47145,0.08002,0.24619,0.11037,0.10755,0.02651,0.45418,0.49579,0.25164,0.29438,0.48215,0.05379,0.34424,0.91566,0.22171,0.31988,0.91509,-0.04833,0.34527,1.42999,0.2868,0.33872,1.44158,-0.05977,0.4781,1.1724,0.36493,0.46441,1.19429,0.01483,0.58836,1.39902,0.26602,0.54094,1.41791
415,0.10929,0.3713,1.51707,-0.00686,0.4716,0.0799,0.24671,0.1122,0.10968,0.02526,0.45349,0.49573,0.25152,0.29893,0.48294,0.05228,0.3454,0.9161,0.22032,0.3219,0.91593,-0.04996,0.34678,1.42998,0.28473,0.34086,1.4421,-0.06186,0.48023,1.17273,0.36269,0.46681,1.19488,0.01346,0.58964,1.39952,0.26393,0.5431,1.41865
416,0.10681,0.37382,1.51728,-0.00697,0.4716,0.07974,0.24733,0.11393,0.11187,0.02393,0.4529,0.49563,0.25131,0.30347,0.48373,0.05066,0.34645,0.91644,0.21881,0.32374,0.91675,-0.05201,0.34849,1.42986,0.28262,0.34327,1.44257,-0.06394,0.48248,1.17289,0.3601,0.46973,1.19546,0.01164,0.59066,1.40019,0.26167,0.54522,1.41965
417,0.10444,0.37655,1.51745,-0.00729,0.47156,0.07967,0.24805,0.11562,0.11404,0.02265,0.45253,0.49562,0.25105,0.30812,0.48438,0.049,0.34748,0.9168,0.21724,0.32549,0.91743,-0.05427,0.35025,1.43007,0.28032,0.34577,1.44312,-0.066,0.48475,1.17336,0.35752,0.47286,1.19624,0.00993,0.59179,1.40108,0.25908,0.54732,1.42077
418,0.10206,0.37895,1.51764,-0.00767,0.47158,0.07971,0.24891,0.11733,0.1161,0.02148,0.4523,0.49571,0.2508,0.31294,0.48482,0.04734,0.34866,0.91727,0.21566,0.32731,0.91788,-0.05644,0.35197,1.43061,0.27777,0.34805,1.44376,-0.06818,0.487,1.17418,0.35532,0.47573,1.1973,0.0083,0.5932,1.4021,0.25621,0.54956,1.42174
419,0.09969,0.3808,1.51783,-0.00797,0.4717,0.07979,0.24983,0.11904,0.11812,0.02043,0.452,0.49582,0.25064,0.31787,0.48511,0.0457,0.35002,0.91782,0.21409,0.32921,0.91815,-0.05861,0.35374,1.4311,0.2751,0.35003,1.44438,-0.07037,0.48927,1.17494,0.35343,0.47821,1.19842,0.00648,0.59486,1.40302,0.25326,0.55197,1.42242
420,0.09748,0.38238,1.51799,-0.00829,0.47186,0.07977,0.25056,0.12064,0.1202,0.01941,0.45163,0.49581,0.25065,0.3228,0.48538,0.04413,0.35135,0.91825,0.21258,0.33093,0.91835,-0.06101,0.35558,1.43121,0.27256,0.35198,1.44485,-0.07228,0.49173,1.17536,0.35143,0.48069,1.19935,0.00455,0.59674,1.40372,0.25034,0.55459,1.42289
421,0.0955,0.38407,1.51813,-0.00876,0.47189,0.07959,0.25099,0.12212,0.12233,0.01833,0.45146,0.49567,0.25085,0.32762,0.48563,0.04261,0.3524,0.91842,0.21109,0.33223,0.9185,-0.06361,0.35738,1.43102,0.27022,0.35402,1.44516,-0.07385,0.49437,1.17556,0.34908,0.48347,1.20005,0.00282,0.59894,1.40418,0.24745,0.55743,1.42332
422,0.09358,0.38603,1.51824,-0.00931,0.47173,0.07937,0.25126,0.12366,0.12434,0.01708,0.45171,0.49551,0.25125,0.33224,0.48588,0.04106,0.35318,0.91841,0.20955,0.33315,0.91859,-0.06618,0.35909,1.43077,0.26796,0.35597,1.44541,-0.07542,0.49698,1.17576,0.34668,0.48632,1.20072,0.00139,0.60136,1.40442,0.2446,0.56034,1.42377
423,0.09144,0.3882,1.51834,-0.00974,0.47154,0.07925,0.25157,0.12546,0.12614,0.01571,0.45232,0.49549,0.25179,0.33658,0.48621,0.03944,0.35388,0.91842,0.20794,0.33396,0.9187,-0.06868,0.36081,1.43065,0.26573,0.35775,1.44578,-0.07727,0.49929,1.17594,0.34464,0.48876,1.20151,-8e-05,0.60381,1.4044,0.24183,0.56309,1.42411
424,0.08907,0.39038,1.5184,-0.00995,0.47152,0.07925,0.25199,0.12758,0.12785,0.01441,0.45298,0.49558,0.25242,0.34071,0.48674,0.03776,0.35466,0.91856,0.20629,0.33495,0.91896,-0.07122,0.36269,1.43071,0.26364,0.35946,1.44636,-0.07944,0.50118,1.17599,0.34307,0.4906,1.20234,-0.00189,0.60616,1.40412,0.23916,0.56559,1.42421
425,0.0867,0.39234,1.51841,-0.00999,0.47161,0.07924,0.25247,0.12997,0.12965,0.01329,0.45341,0.49565,0.25313,0.34489,0.48746,0.03606,0.3555,0.91876,0.20462,0.33609,0.91937,-0.07377,0.36472,1.43085,0.26193,0.36119,1.44707,-0.08184,0.50283,1.17592,0.34168,0.4921,1.20302,-0.00397,0.60837,1.40368,0.23657,0.56794,1.42404
426,0.0845,0.39403,1.51836,-0.00996,0.47156,0.07915,0.25289,0.13253,0.13159,0.01228,0.45353,0.49562,0.25392,0.34943,0.4882,0.03441,0.3562,0.91889,0.20301,0.33715,0.91976,-0.07614,0.36683,1.43087,0.26059,0.36297,1.44776,-0.08433,0.50466,1.1758,0.3401,0.49369,1.20352,-0.00603,0.61038,1.40334,0.23409,0.57032,1.42384
427,0.08237,0.39558,1.51827,-0.00994,0.4712,0.07893,0.25308,0.13513,0.13357,0.01128,0.45346,0.49547,0.25476,0.35427,0.48881,0.0329,0.35661,0.91888,0.20154,0.33789,0.91995,-0.07825,0.36898,1.43066,0.25921,0.36481,1.44837,-0.08673,0.50701,1.1757,0.3382,0.49559,1.204,-0.00792,0.61213,1.40333,0.23169,0.57276,1.42388
428,0.0802,0.39729,1.51815,-0.00996,0.47073,0.07866,0.25296,0.1376,0.13544,0.01029,0.45347,0.49527,0.25564,0.35898,0.48928,0.03147,0.35674,0.91873,0.20012,0.33817,0.91993,-0.08017,0.37111,1.43037,0.25744,0.3667,1.44893,-0.08896,0.50961,1.17568,0.33606,0.49764,1.20452,-0.00971,0.61379,1.4036,0.22934,0.57503,1.42423
429,0.07802,0.39935,1.518,-0.01006,0.47053,0.07845,0.25276,0.13984,0.13714,0.0093,0.45383,0.49512,0.25659,0.36326,0.48968,0.02998,0.35681,0.91854,0.19861,0.33808,0.91979,-0.08201,0.37297,1.43024,0.25529,0.36857,1.44939,-0.09108,0.51187,1.17577,0.33397,0.49946,1.20498,-0.01158,0.61567,1.40377,0.22711,0.57685,1.42461
430,0.07593,0.40173,1.51781,-0.01038,0.47073,0.07837,0.25282,0.14193,0.13879,0.00829,0.45451,0.49509,0.25767,0.36719,0.49015,0.02844,0.357,0.91842,0.19703,0.3379,0.91962,-0.08389,0.37439,1.43022,0.25307,0.37039,1.44967,-0.09309,0.51356,1.17591,0.33225,0.50083,1.20518,-0.01359,0.61802,1.4036,0.22513,0.57816,1.42471
431,0.07406,0.40411,1.51757,-0.01096,0.47103,0.0784,0.25329,0.14401,0.1405,0.00731,0.45512,0.49515,0.25887,0.371,0.49074,0.027,0.35735,0.91844,0.19556,0.33798,0.91955,-0.08586,0.37553,1.43004,0.25105,0.37215,1.44975,-0.09484,0.51506,1.17592,0.33088,0.50188,1.20509,-0.01571,0.62072,1.40319,0.22339,0.57912,1.42447
432,0.0725,0.40619,1.51721,-0.01169,0.4711,0.07848,0.25397,0.14619,0.14228,0.00644,0.45534,0.49525,0.2601,0.3748,0.49145,0.02575,0.35778,0.91861,0.19432,0.33845,0.91963,-0.08784,0.37683,1.42954,0.24932,0.37377,1.44972,-0.09625,0.51673,1.1756,0.32953,0.50283,1.20484,-0.0177,0.62346,1.40257,0.22171,0.57996,1.4241
433,0.07119,0.40793,1.51674,-0.01239,0.47099,0.07858,0.25459,0.14838,0.14404,0.00573,0.45527,0.49535,0.26123,0.37854,0.49218,0.02456,0.35818,0.91884,0.19316,0.33916,0.91973,-0.0896,0.37861,1.42889,0.24776,0.3751,1.44973,-0.09748,0.51845,1.1749,0.32798,0.50376,1.20464,-0.01938,0.62597,1.40165,0.21993,0.58091,1.42378
434,0.07006,0.40956,1.51623,-0.01294,0.47089,0.07864,0.25506,0.15032,0.14575,0.00505,0.45524,0.49542,0.26223,0.38212,0.49279,0.02332,0.35846,0.919,0.19196,0.33976,0.9197,-0.09106,0.38075,1.42833,0.24617,0.37613,1.44994,-0.09877,0.52,1.17402,0.32622,0.5046,1.20469,-0.02089,0.62831,1.40047,0.21801,0.58219,1.4236
435,0.06907,0.41129,1.51581,-0.01329,0.47082,0.07863,0.25548,0.15181,0.14743,0.00426,0.45543,0.49543,0.26316,0.38544,0.49323,0.02212,0.35857,0.91902,0.19077,0.34,0.91947,-0.09222,0.38295,1.42802,0.24454,0.37699,1.45037,-0.10008,0.52145,1.17329,0.32444,0.50537,1.20503,-0.02252,0.63061,1.39944,0.21599,0.58371,1.42355
436,0.06812,0.41307,1.51551,-0.01348,0.47067,0.07855,0.25586,0.15296,0.14905,0.00333,0.45567,0.4954,0.26405,0.38849,0.49355,0.02106,0.35861,0.91895,0.18971,0.33997,0.9191,-0.09318,0.38498,1.42793,0.24302,0.37785,1.45081,-0.10121,0.52296,1.17293,0.32278,0.50628,1.20545,-0.02412,0.63273,1.39895,0.21406,0.58508,1.42367
437,0.06706,0.4148,1.51529,-0.0136,0.47044,0.07847,0.25619,0.15401,0.15048,0.00234,0.45574,0.49536,0.2648,0.3913,0.49376,0.02009,0.35875,0.91892,0.18873,0.3401,0.9187,-0.09403,0.3867,1.42794,0.24176,0.37887,1.45099,-0.10209,0.52452,1.17286,0.32129,0.50751,1.20566,-0.02538,0.63435,1.39898,0.21248,0.58602,1.42394
438,0.06593,0.41637,1.51507,-0.01375,0.47027,0.07842,0.25647,0.15498,0.15166,0.0014,0.45554,0.49534,0.26525,0.39376,0.4939,0.0191,0.35913,0.91903,0.18777,0.34068,0.91835,-0.09497,0.38809,1.4279,0.24073,0.38006,1.45088,-0.10278,0.52599,1.17285,0.31996,0.50886,1.20554,-0.0263,0.63545,1.39923,0.21134,0.58663,1.42418
439,0.06491,0.41761,1.51484,-0.01395,0.47027,0.07842,0.25685,0.15569,0.15265,0.00057,0.45516,0.49535,0.26538,0.39565,0.49406,0.01817,0.35965,0.91926,0.18686,0.34149,0.91819,-0.09614,0.38925,1.42768,0.23985,0.38111,1.45073,-0.10337,0.52737,1.17274,0.3188,0.50971,1.2052,-0.02703,0.63644,1.39935,0.21044,0.58712,1.42408
440,0.06415,0.41844,1.51465,-0.01407,0.47047,0.07847,0.25745,0.156,0.15351,-7e-05,0.45474,0.4954,0.26528,0.39681,0.49434,0.01747,0.36016,0.91951,0.18618,0.34211,0.91829,-0.09752,0.39029,1.42724,0.23907,0.38174,1.45072,-0.10384,0.52868,1.17241,0.3178,0.50983,1.20485,-0.02747,0.63767,1.39905,0.20944,0.58753,1.42364
441,0.06372,0.4191,1.51451,-0.0141,0.47069,0.07853,0.25818,0.15598,0.15419,-0.0005,0.45434,0.49545,0.26503,0.39734,0.49466,0.01702,0.36057,0.91974,0.18574,0.3426,0.91857,-0.09881,0.39115,1.42662,0.23834,0.38218,1.45076,-0.1042,0.52978,1.1719,0.31683,0.50995,1.20465,-0.02745,0.639,1.39831,0.20819,0.58785,1.42323
442,0.0635,0.41987,1.51446,-0.01422,0.47066,0.07855,0.25877,0.1558,0.15462,-0.00077,0.45401,0.49546,0.26471,0.39755,0.49483,0.01663,0.36088,0.91989,0.18538,0.34323,0.91879,-0.09972,0.3917,1.426,0.23754,0.38295,1.45081,-0.10437,0.5306,1.17142,0.31584,0.5108,1.20468,-0.0272,0.63987,1.39765,0.20684,0.58829,1.42323
443,0.06316,0.42081,1.51451,-0.01452,0.47037,0.07852,0.25919,0.15552,0.1548,-0.00103,0.45393,0.49543,0.26445,0.39759,0.49479,0.0161,0.36108,0.91994,0.1849,0.34392,0.91879,-0.10015,0.39204,1.42568,0.23657,0.38394,1.45102,-0.10425,0.5313,1.17128,0.31497,0.51198,1.20502,-0.02715,0.63985,1.39789,0.20566,0.58899,1.42358
444,0.06247,0.42171,1.51457,-0.01479,0.47012,0.07844,0.25978,0.15501,0.15483,-0.00136,0.45416,0.49537,0.26426,0.39733,0.49465,0.01552,0.36115,0.91986,0.18436,0.34437,0.91867,-0.10029,0.39248,1.42579,0.23553,0.38452,1.45142,-0.10383,0.53202,1.17154,0.31444,0.51263,1.20561,-0.02751,0.63912,1.39909,0.2049,0.58981,1.424
445,0.06156,0.42241,1.51456,-0.01469,0.47018,0.07828,0.26085,0.15417,0.15474,-0.0017,0.45452,0.49524,0.264,0.39655,0.49454,0.01511,0.36121,0.91967,0.18397,0.3446,0.91866,-0.10028,0.39313,1.42614,0.23473,0.38443,1.45173,-0.1033,0.53262,1.17185,0.31418,0.51265,1.20616,-0.02808,0.63843,1.40038,0.2046,0.59045,1.4243
446,0.06088,0.42286,1.5145,-0.01417,0.47049,0.07808,0.26222,0.15304,0.15453,-0.00193,0.45483,0.49506,0.26345,0.39523,0.49447,0.01492,0.3614,0.91945,0.18379,0.34486,0.91885,-0.10016,0.39377,1.4264,0.2344,0.38409,1.45177,-0.1028,0.53296,1.17194,0.31402,0.51254,1.20638,-0.02833,0.63833,1.40091,0.20464,0.5907,1.42449
447,0.06074,0.42309,1.5145,-0.01351,0.47083,0.07791,0.26348,0.1517,0.15414,-0.00207,0.45513,0.49492,0.2625,0.39354,0.49433,0.01473,0.36178,0.91933,0.1836,0.34528,0.9191,-0.09997,0.39406,1.42642,0.23452,0.38403,1.45168,-0.10242,0.53308,1.17188,0.31391,0.51251,1.20622,-0.02791,0.63879,1.40068,0.20496,0.59059,1.42458
448,0.06099,0.42319,1.5146,-0.01299,0.47106,0.07788,0.26442,0.15015,0.15349,-0.00221,0.45557,0.49491,0.26116,0.39153,0.49399,0.01436,0.36229,0.91935,0.18323,0.34575,0.91921,-0.09966,0.39387,1.42626,0.23495,0.38431,1.45171,-0.1021,0.5331,1.17183,0.31393,0.51235,1.20589,-0.027,0.63938,1.40017,0.2055,0.5903,1.42456
449,0.06136,0.42328,1.51475,-0.01277,0.47124,0.07798,0.26514,0.14837,0.15257,-0.00238,0.45611,0.49504,0.25963,0.38913,0.49349,0.01387,0.36285,0.91949,0.18271,0.34611,0.91918,-0.09913,0.3934,1.42604,0.23543,0.38457,1.45187,-0.10177,0.533,1.17181,0.3141,0.51195,1.20562,-0.02621,0.63976,1.39978,0.20607,0.59003,1.42444
450,0.06169,0.42329,1.51485,-0.0128,0.47146,0.07809,0.26581,0.14637,0.15151,-0.00251,0.45648,0.49515,0.25817,0.38632,0.49295,0.01352,0.36341,0.91965,0.18232,0.34623,0.91912,-0.09852,0.39289,1.42599,0.23565,0.38435,1.45195,-0.10144,0.5326,1.17182,0.31435,0.51138,1.20551,-0.02603,0.63984,1.39961,0.20649,0.58972,1.42433
451,0.06191,0.42302,1.51495,-0.01298,0.4717,0.07807,0.2665,0.14419,0.15042,-0.00247,0.45649,0.49512,0.25699,0.38325,0.49244,0.01349,0.3639,0.91974,0.18222,0.34604,0.91907,-0.09819,0.39242,1.42629,0.23549,0.38357,1.45171,-0.10113,0.5318,1.17195,0.31452,0.51092,1.20554,-0.02639,0.63969,1.39966,0.20677,0.5893,1.42439
452,0.06204,0.42246,1.5151,-0.01316,0.47187,0.07799,0.26716,0.1419,0.14929,-0.00231,0.45613,0.49501,0.25606,0.38007,0.49188,0.01367,0.36416,0.91976,0.18234,0.34574,0.91893,-0.09832,0.39185,1.42683,0.23524,0.38275,1.45115,-0.10082,0.53079,1.17224,0.31451,0.5109,1.20548,-0.02684,0.63931,1.3999,0.20696,0.58887,1.42457
453,0.06219,0.4218,1.51527,-0.01326,0.47186,0.07799,0.26766,0.13962,0.14797,-0.00216,0.45563,0.49498,0.25517,0.37677,0.49122,0.01381,0.36403,0.91981,0.18248,0.34563,0.91869,-0.09865,0.3912,1.42729,0.23538,0.38258,1.45054,-0.1005,0.52993,1.17257,0.31441,0.51137,1.20513,-0.0271,0.63869,1.4003,0.2071,0.58854,1.42463
454,0.06259,0.4212,1.51538,-0.01334,0.47176,0.07816,0.26793,0.13754,0.14642,-0.00206,0.45528,0.49514,0.25422,0.3733,0.49059,0.01387,0.36364,0.91996,0.1826,0.34578,0.91848,-0.09876,0.39069,1.42746,0.23611,0.38292,1.45021,-0.10019,0.52941,1.17274,0.31443,0.51184,1.20464,-0.0272,0.63806,1.40066,0.20726,0.5883,1.42445
455,0.06334,0.42063,1.51533,-0.01349,0.47178,0.07847,0.26799,0.13584,0.14468,-0.002,0.45517,0.49544,0.25331,0.36964,0.49013,0.01398,0.36334,0.92022,0.18275,0.34597,0.91844,-0.09838,0.39051,1.42737,0.23715,0.38292,1.45019,-0.09983,0.52928,1.17267,0.31462,0.51181,1.20433,-0.02711,0.6378,1.40073,0.20763,0.58803,1.42431
456,0.06428,0.41996,1.51515,-0.01371,0.47204,0.07874,0.26794,0.13444,0.14276,-0.0019,0.45516,0.49569,0.25254,0.36583,0.4898,0.0142,0.36333,0.92046,0.18297,0.34592,0.91846,-0.09754,0.39061,1.42716,0.23813,0.38201,1.45028,-0.09934,0.52934,1.17246,0.3149,0.51118,1.20436,-0.02666,0.63807,1.40043,0.20837,0.58761,1.42449
457,0.0652,0.4191,1.51494,-0.0139,0.47231,0.07879,0.26786,0.13299,0.1407,-0.0017,0.45509,0.49571,0.25189,0.36188,0.48937,0.01454,0.36348,0.92053,0.18325,0.34552,0.91833,-0.09646,0.39065,1.42708,0.23897,0.38045,1.45031,-0.09873,0.52921,1.17228,0.31528,0.5101,1.20449,-0.02592,0.63846,1.39996,0.2095,0.58691,1.42486
458,0.06601,0.41808,1.5148,-0.01404,0.47228,0.07865,0.26781,0.13115,0.13849,-0.00137,0.45489,0.49555,0.25117,0.35769,0.48866,0.01497,0.36345,0.9204,0.18361,0.34493,0.91791,-0.09532,0.39022,1.42721,0.23987,0.37887,1.45022,-0.09817,0.52847,1.17225,0.3158,0.50886,1.20446,-0.02521,0.63811,1.39969,0.21082,0.58595,1.42511
459,0.06683,0.41695,1.5148,-0.01415,0.4719,0.07853,0.26775,0.12886,0.13612,-0.00096,0.45466,0.49542,0.25028,0.35315,0.4877,0.01541,0.3631,0.92024,0.18403,0.34437,0.91725,-0.0942,0.38918,1.42739,0.24103,0.37767,1.45003,-0.09773,0.52723,1.17233,0.31642,0.50786,1.20422,-0.02478,0.6367,1.39986,0.21205,0.58499,1.42514
460,0.06787,0.41573,1.51497,-0.01426,0.47145,0.07857,0.26758,0.12638,0.1336,-0.00057,0.45453,0.49546,0.24919,0.34828,0.48665,0.01584,0.36267,0.92021,0.18444,0.34394,0.9165,-0.09315,0.38782,1.42743,0.24244,0.37682,1.44976,-0.09736,0.52605,1.17248,0.31706,0.50741,1.20391,-0.02464,0.63491,1.40037,0.21304,0.58425,1.4251
461,0.06918,0.41439,1.51523,-0.0143,0.47121,0.07871,0.26727,0.12394,0.13116,-0.00029,0.45449,0.49559,0.24803,0.34334,0.48572,0.01632,0.36252,0.92031,0.18489,0.34364,0.91583,-0.09221,0.38666,1.4273,0.24388,0.37604,1.44942,-0.09709,0.52532,1.17259,0.31773,0.50725,1.20368,-0.02467,0.63359,1.40087,0.21392,0.58358,1.42514
462,0.07066,0.41291,1.51543,-0.01416,0.47128,0.0788,0.26688,0.12155,0.12903,-0.00013,0.45445,0.49568,0.24699,0.33849,0.48507,0.01694,0.36272,0.92044,0.18542,0.3433,0.91538,-0.09121,0.38588,1.42699,0.2451,0.37493,1.44901,-0.09692,0.52487,1.17247,0.31854,0.50677,1.20348,-0.02478,0.6328,1.401,0.21499,0.58249,1.42527
463,0.07231,0.41137,1.51548,-0.01386,0.47153,0.07878,0.26647,0.11917,0.12718,6e-05,0.45441,0.49565,0.24624,0.33375,0.48462,0.01766,0.36304,0.92046,0.18603,0.34276,0.91505,-0.08983,0.38522,1.4265,0.24614,0.37342,1.4486,-0.0966,0.52431,1.17206,0.31953,0.50566,1.20327,-0.02476,0.63211,1.40074,0.21642,0.58076,1.42548
464,0.07424,0.40983,1.5154,-0.01356,0.47174,0.07866,0.26603,0.11679,0.12531,0.00045,0.45458,0.49553,0.24587,0.32907,0.48413,0.01839,0.36312,0.92031,0.18664,0.34197,0.9146,-0.08798,0.38439,1.42598,0.24725,0.37199,1.44829,-0.09582,0.52353,1.1716,0.32069,0.50438,1.20306,-0.02426,0.63131,1.40038,0.21805,0.57875,1.42574
465,0.07647,0.40831,1.5153,-0.01341,0.47181,0.07853,0.26553,0.11446,0.12324,0.00112,0.45512,0.4954,0.24578,0.32446,0.48342,0.01908,0.36276,0.91999,0.18725,0.34104,0.91386,-0.08591,0.38329,1.42561,0.2486,0.37101,1.44815,-0.09465,0.52267,1.17139,0.32196,0.50334,1.20286,-0.02324,0.63048,1.40021,0.21964,0.57697,1.42592
466,0.0787,0.40675,1.51521,-0.01345,0.47185,0.07845,0.26491,0.11221,0.12106,0.00195,0.45596,0.49532,0.24581,0.31996,0.48258,0.01981,0.36203,0.91956,0.18793,0.34004,0.91296,-0.08396,0.38197,1.42541,0.25007,0.37014,1.44802,-0.09344,0.52172,1.17143,0.32328,0.50229,1.2026,-0.02195,0.62972,1.40012,0.22114,0.57554,1.42587
467,0.08057,0.40523,1.51503,-0.01354,0.47199,0.07846,0.26406,0.11004,0.11887,0.00275,0.45691,0.49533,0.24581,0.31547,0.48175,0.02068,0.36123,0.91918,0.18873,0.33894,0.91207,-0.08223,0.38048,1.42523,0.25149,0.36884,1.44768,-0.09241,0.5206,1.17147,0.32462,0.50094,1.20221,-0.02057,0.62896,1.39989,0.22265,0.57424,1.42554
468,0.08203,0.40381,1.51465,-0.01343,0.47226,0.07854,0.26303,0.10795,0.11658,0.00339,0.45785,0.49541,0.24572,0.31082,0.48094,0.02168,0.36064,0.9189,0.18961,0.33767,0.91119,-0.08057,0.37896,1.42504,0.25291,0.36709,1.44695,-0.0914,0.51936,1.17147,0.32603,0.49958,1.20167,-0.01915,0.62807,1.39959,0.22426,0.57291,1.42509
469,0.08347,0.40247,1.51409,-0.01303,0.47261,0.07861,0.26209,0.10592,0.11413,0.00387,0.45879,0.4955,0.24545,0.306,0.48007,0.02277,0.36021,0.91864,0.19053,0.33624,0.91024,-0.07877,0.37746,1.42494,0.25449,0.36519,1.44597,-0.09014,0.51815,1.17155,0.32759,0.49841,1.20108,-0.01785,0.62703,1.39958,0.22605,0.5715,1.42468
470,0.08531,0.40106,1.51345,-0.0126,0.47291,0.07858,0.26135,0.1039,0.11168,0.00433,0.45973,0.49549,0.24506,0.30119,0.47915,0.02397,0.35968,0.91825,0.19155,0.33468,0.90926,-0.07674,0.37591,1.42485,0.25632,0.3631,1.44506,-0.08849,0.51704,1.17172,0.32929,0.4971,1.20056,-0.01681,0.62583,1.39999,0.22804,0.57,1.42435
471,0.08756,0.39938,1.51285,-0.01249,0.47297,0.07841,0.26064,0.10197,0.10944,0.00498,0.46062,0.49532,0.24462,0.29661,0.47832,0.02532,0.35894,0.91766,0.19274,0.33297,0.9084,-0.07461,0.37425,1.42456,0.25837,0.36056,1.44438,-0.08658,0.51596,1.17178,0.33102,0.49522,1.20015,-0.01575,0.62444,1.40046,0.23016,0.56826,1.42407
472,0.08998,0.39727,1.51236,-0.01277,0.47282,0.07818,0.25972,0.1002,0.10744,0.00603,0.46146,0.49506,0.24415,0.29229,0.47768,0.02676,0.35814,0.91698,0.19402,0.33116,0.90774,-0.07248,0.37251,1.42403,0.26056,0.35765,1.44376,-0.08471,0.51485,1.17161,0.33275,0.49287,1.19971,-0.01409,0.6229,1.40055,0.23251,0.56607,1.42385
473,0.09239,0.39475,1.51195,-0.01307,0.47263,0.07804,0.25862,0.09865,0.10547,0.00747,0.46243,0.49487,0.24362,0.28797,0.47716,0.02816,0.35743,0.91638,0.19524,0.32933,0.90719,-0.07031,0.37073,1.42349,0.26271,0.35481,1.44293,-0.08304,0.51355,1.17136,0.33458,0.49053,1.19906,-0.0118,0.62122,1.4003,0.23521,0.56353,1.42365
474,0.09481,0.39212,1.51153,-0.01299,0.47255,0.07803,0.25748,0.09736,0.10336,0.0091,0.46372,0.49481,0.24309,0.28339,0.47673,0.02951,0.3568,0.91585,0.19639,0.32753,0.90668,-0.06807,0.36886,1.42311,0.26467,0.35234,1.44193,-0.08155,0.51192,1.17116,0.33667,0.48848,1.19833,-0.00963,0.61917,1.40008,0.23805,0.56113,1.42338
475,0.09722,0.38965,1.51105,-0.01253,0.47255,0.07808,0.2564,0.09632,0.1012,0.01062,0.46524,0.49483,0.24272,0.27865,0.47642,0.0308,0.35616,0.91532,0.19748,0.32571,0.90621,-0.06587,0.36681,1.42287,0.26642,0.34995,1.44098,-0.08011,0.50994,1.171,0.33898,0.48655,1.19781,-0.00833,0.61659,1.40024,0.24052,0.55925,1.4229
476,0.0995,0.38737,1.51056,-0.01203,0.47255,0.07811,0.25544,0.09543,0.09921,0.01193,0.46669,0.49484,0.24258,0.27411,0.47621,0.03211,0.35542,0.91476,0.19857,0.32377,0.90583,-0.06378,0.3647,1.4226,0.26818,0.34726,1.44022,-0.07856,0.50781,1.17075,0.34124,0.48442,1.19751,-0.00781,0.61364,1.4007,0.24238,0.55761,1.42227
477,0.10167,0.38521,1.51011,-0.01173,0.47255,0.07811,0.25461,0.09462,0.09745,0.0131,0.46782,0.4948,0.24268,0.27,0.47602,0.03355,0.3545,0.91417,0.1998,0.32172,0.90552,-0.06168,0.36277,1.42228,0.27026,0.3444,1.43957,-0.07685,0.50573,1.17037,0.34304,0.48226,1.19718,-0.00747,0.61078,1.40109,0.24393,0.55568,1.42176
478,0.10398,0.38313,1.50974,-0.01164,0.47263,0.07813,0.25382,0.09391,0.09583,0.0143,0.46871,0.49476,0.243,0.26633,0.47579,0.03522,0.35333,0.91354,0.2013,0.3196,0.90522,-0.05945,0.36121,1.42202,0.27271,0.34166,1.43889,-0.07512,0.50369,1.16986,0.34436,0.4805,1.19671,-0.00682,0.6084,1.40105,0.24564,0.55332,1.42166
479,0.10657,0.38108,1.50945,-0.01159,0.47287,0.07822,0.253,0.09328,0.09424,0.01568,0.46958,0.49477,0.24344,0.26297,0.47546,0.03712,0.3519,0.91288,0.20307,0.31747,0.90486,-0.05712,0.35999,1.42191,0.27532,0.33906,1.43819,-0.07348,0.50157,1.16929,0.34572,0.47894,1.19624,-0.00559,0.60665,1.40044,0.2478,0.55075,1.42186
480,0.10926,0.37892,1.50921,-0.01148,0.4732,0.07837,0.25216,0.09272,0.09265,0.01733,0.47051,0.49483,0.24384,0.25976,0.47507,0.03916,0.3504,0.91222,0.205,0.31536,0.90447,-0.05472,0.35896,1.42202,0.27781,0.33644,1.43771,-0.07188,0.49929,1.16876,0.34778,0.47671,1.19586,-0.00354,0.60537,1.39931,0.25049,0.54809,1.42189
481,0.11184,0.37653,1.50896,-0.01142,0.47346,0.07856,0.25142,0.09223,0.09117,0.01922,0.47137,0.49488,0.24414,0.2565,0.47481,0.04131,0.349,0.91161,0.20703,0.31335,0.90419,-0.05219,0.35792,1.42234,0.28011,0.33376,1.43767,-0.07015,0.49675,1.16831,0.35066,0.47329,1.19557,-0.00088,0.60419,1.39796,0.25352,0.54532,1.42145
482,0.11435,0.37393,1.50873,-0.01145,0.47348,0.07877,0.25087,0.09181,0.08993,0.02112,0.47208,0.49495,0.24453,0.2532,0.47481,0.04353,0.34767,0.91106,0.20913,0.31133,0.90417,-0.04959,0.35669,1.42274,0.2824,0.33098,1.438,-0.06813,0.49395,1.1679,0.35386,0.46893,1.19526,0.00178,0.60271,1.39672,0.25654,0.5424,1.4206
483,0.11699,0.37123,1.50862,-0.01137,0.47331,0.07908,0.25054,0.09146,0.08895,0.02284,0.47272,0.49514,0.24532,0.25,0.47503,0.04576,0.34623,0.91058,0.21121,0.30911,0.90436,-0.0471,0.35512,1.423,0.28487,0.32803,1.43836,-0.06589,0.49115,1.16751,0.35687,0.46436,1.19487,0.00415,0.60094,1.39581,0.25918,0.53936,1.41955
484,0.11982,0.36854,1.5087,-0.011,0.47321,0.07957,0.25036,0.09115,0.08808,0.02437,0.47332,0.49553,0.24655,0.24694,0.4753,0.04795,0.34459,0.91025,0.21322,0.30661,0.90461,-0.0449,0.3532,1.423,0.28737,0.32489,1.43845,-0.06356,0.48878,1.16727,0.35951,0.46021,1.19444,0.00667,0.59936,1.39512,0.26136,0.5363,1.41855
485,0.1227,0.36588,1.50886,-0.01048,0.47342,0.08024,0.25021,0.09084,0.0872,0.02584,0.47374,0.49612,0.24794,0.2439,0.47552,0.05009,0.34284,0.91012,0.21518,0.30402,0.90481,-0.04302,0.35105,1.4229,0.28955,0.32158,1.43821,-0.06129,0.48686,1.16726,0.36184,0.4567,1.19412,0.00972,0.59839,1.39441,0.26333,0.53327,1.41791
486,0.12542,0.36307,1.50904,-0.01012,0.47391,0.08106,0.25007,0.09043,0.08635,0.02736,0.47391,0.49683,0.24916,0.24084,0.4757,0.05219,0.34109,0.9102,0.2171,0.30153,0.90497,-0.04134,0.34892,1.42291,0.29136,0.3181,1.43778,-0.0591,0.48508,1.16742,0.364,0.45352,1.19397,0.01289,0.5979,1.39362,0.2655,0.53017,1.41773
487,0.12799,0.35998,1.50928,-0.00998,0.47458,0.08199,0.24994,0.08985,0.08556,0.02888,0.47404,0.49764,0.25014,0.23786,0.47583,0.05424,0.33935,0.91036,0.21899,0.2991,0.90509,-0.03952,0.34705,1.42308,0.29308,0.31447,1.43741,-0.057,0.48309,1.16751,0.3661,0.4501,1.19382,0.0154,0.59742,1.39282,0.26811,0.52663,1.41785
488,0.13056,0.35681,1.50962,-0.00989,0.47533,0.08305,0.24987,0.08919,0.08477,0.0303,0.47434,0.49857,0.25102,0.235,0.47587,0.05629,0.33745,0.91053,0.22086,0.29649,0.90516,-0.03725,0.34561,1.42335,0.29503,0.31083,1.43729,-0.05495,0.48069,1.16729,0.36812,0.44605,1.19349,0.01697,0.59673,1.39188,0.2711,0.52232,1.41803
489,0.13318,0.35394,1.50992,-0.00974,0.4762,0.08434,0.2499,0.08854,0.08396,0.03155,0.47477,0.49975,0.25193,0.23214,0.47587,0.05839,0.33516,0.91074,0.22277,0.29347,0.90525,-0.03451,0.34448,1.42376,0.29717,0.30723,1.43741,-0.05299,0.47777,1.16681,0.37006,0.44143,1.193,0.01799,0.59587,1.39062,0.27422,0.51746,1.41813
490,0.13574,0.3515,1.51008,-0.00958,0.47727,0.08597,0.25005,0.08795,0.08318,0.03256,0.47524,0.50129,0.25284,0.22912,0.47597,0.06061,0.33247,0.91111,0.22481,0.29008,0.90548,-0.03157,0.34323,1.42426,0.29926,0.30349,1.43758,-0.05112,0.47451,1.16637,0.37209,0.43676,1.19264,0.01912,0.59495,1.38916,0.27718,0.51276,1.41817
491,0.13824,0.34921,1.51021,-0.00954,0.47846,0.08797,0.25043,0.08737,0.08251,0.03325,0.47595,0.50322,0.25379,0.22599,0.4762,0.06295,0.32965,0.91167,0.22697,0.2866,0.90584,-0.0287,0.34157,1.4248,0.30125,0.29949,1.43774,-0.04911,0.47137,1.16622,0.37447,0.43232,1.19268,0.02083,0.59412,1.38785,0.27983,0.50871,1.41819
492,0.14078,0.34666,1.5105,-0.00967,0.47962,0.09027,0.25113,0.0867,0.08196,0.03367,0.4771,0.50547,0.25488,0.22298,0.47646,0.06532,0.32697,0.91238,0.22915,0.28324,0.90621,-0.02599,0.33971,1.42542,0.30329,0.29527,1.43814,-0.04655,0.4687,1.16644,0.37731,0.42773,1.19312,0.02311,0.59356,1.38697,0.28232,0.5051,1.41815
493,0.1434,0.34374,1.511,-0.00991,0.48063,0.09277,0.25207,0.08596,0.08147,0.03404,0.47867,0.5079,0.25615,0.22017,0.47667,0.0676,0.32432,0.91309,0.23125,0.27997,0.90654,-0.02339,0.33798,1.42626,0.30554,0.29095,1.43893,-0.04334,0.46643,1.16697,0.38048,0.42262,1.19376,0.02545,0.59357,1.38648,0.28491,0.50152,1.41801
494,0.14603,0.34066,1.51156,-0.01011,0.48156,0.09536,0.25297,0.08522,0.08101,0.03451,0.48054,0.51042,0.25751,0.21742,0.4769,0.06974,0.3213,0.91357,0.23327,0.27656,0.90689,-0.02085,0.33636,1.42716,0.30804,0.28666,1.43976,-0.03987,0.46444,1.16763,0.38362,0.41739,1.19429,0.02735,0.59437,1.38598,0.28772,0.49797,1.4178
495,0.1487,0.33772,1.51201,-0.01034,0.48258,0.09802,0.25359,0.08451,0.08056,0.03512,0.48275,0.51299,0.25884,0.21445,0.47718,0.07172,0.31768,0.91366,0.23524,0.27283,0.90731,-0.01834,0.33454,1.42772,0.31064,0.2825,1.44017,-0.03673,0.46268,1.16816,0.38637,0.41276,1.1945,0.02892,0.59575,1.38509,0.2907,0.49471,1.41761
496,0.15138,0.33504,1.51232,-0.01087,0.48386,0.10083,0.25386,0.08374,0.08004,0.03587,0.48532,0.51566,0.26005,0.21124,0.47744,0.07354,0.31364,0.91345,0.23706,0.26873,0.90773,-0.01582,0.33235,1.42764,0.31305,0.27861,1.44027,-0.03415,0.46112,1.16839,0.38856,0.40862,1.1944,0.03065,0.59694,1.38387,0.29375,0.49183,1.41741
497,0.15404,0.33255,1.51259,-0.01186,0.4855,0.10388,0.25391,0.08287,0.07949,0.03675,0.48817,0.51849,0.26112,0.20811,0.47759,0.07523,0.30951,0.91311,0.2387,0.26429,0.90808,-0.01339,0.33008,1.42713,0.31515,0.2751,1.44058,-0.03189,0.45969,1.16831,0.39028,0.40431,1.19417,0.03281,0.59716,1.38277,0.29674,0.48918,1.4171
498,0.15668,0.33008,1.51288,-0.01296,0.48746,0.10715,0.25398,0.08198,0.07904,0.03764,0.49115,0.52151,0.26213,0.20535,0.47771,0.07692,0.30551,0.91282,0.24027,0.25983,0.90844,-0.01126,0.32811,1.42666,0.31726,0.27204,1.4413,-0.02954,0.45829,1.16811,0.39191,0.39975,1.19396,0.03537,0.59627,1.38218,0.29959,0.48649,1.41667
499,0.15939,0.3275,1.51322,-0.01356,0.48965,0.11049,0.25427,0.08117,0.07884,0.03845,0.49411,0.52467,0.26316,0.20299,0.47796,0.07864,0.30178,0.91264,0.24193,0.2558,0.90894,-0.0095,0.32649,1.42658,0.31968,0.26933,1.44212,-0.02688,0.45689,1.16807,0.39394,0.39537,1.19381,0.03829,0.59461,1.38223,0.30233,0.48356,1.41625
500,0.16216,0.32484,1.51355,-0.01349,0.49197,0.11368,0.25476,0.08049,0.07887,0.0392,0.49684,0.52777,0.26421,0.2009,0.47841,0.08028,0.29846,0.91259,0.24355,0.25237,0.90958,-0.00779,0.32497,1.4268,0.32218,0.26662,1.44281,-0.02415,0.45544,1.16827,0.3966,0.39126,1.19384,0.04138,0.59251,1.38273,0.30503,0.48045,1.4159
501,0.16489,0.32233,1.51381,-0.01312,0.49423,0.11661,0.25522,0.08001,0.07899,0.03995,0.49913,0.53065,0.26526,0.19909,0.47891,0.08167,0.2956,0.9127,0.24487,0.24923,0.91025,-0.00572,0.32346,1.42703,0.32423,0.26352,1.44323,-0.02169,0.45389,1.16846,0.39967,0.38723,1.19411,0.04421,0.59004,1.38339,0.30763,0.47741,1.41557
502,0.16755,0.32007,1.51403,-0.01278,0.49624,0.11925,0.25549,0.07975,0.07909,0.04079,0.50087,0.53323,0.26626,0.19767,0.47933,0.08279,0.29315,0.91298,0.24579,0.24608,0.91086,-0.00321,0.32216,1.42716,0.32562,0.25999,1.4432,-0.01951,0.45227,1.16844,0.40276,0.38344,1.19447,0.04656,0.58726,1.38406,0.31002,0.47464,1.41522
503,0.17027,0.31781,1.51428,-0.01252,0.49792,0.12158,0.25563,0.07969,0.0792,0.0417,0.50204,0.53548,0.26718,0.19668,0.47969,0.08379,0.29103,0.91341,0.24652,0.24301,0.91144,-0.00047,0.32115,1.42732,0.32675,0.25637,1.44277,-0.01736,0.45076,1.16839,0.40551,0.38009,1.19467,0.04862,0.58431,1.38493,0.31229,0.47203,1.41491
504,0.17313,0.31532,1.51465,-0.01226,0.49944,0.12356,0.2558,0.07973,0.07937,0.04261,0.50265,0.53738,0.26791,0.19605,0.48004,0.08487,0.28917,0.91389,0.24734,0.24029,0.91202,0.00223,0.32028,1.42769,0.32805,0.25296,1.44238,-0.01511,0.44951,1.1686,0.40782,0.37678,1.19466,0.05075,0.58125,1.38628,0.31473,0.4693,1.41471
505,0.17588,0.31277,1.51507,-0.01197,0.50091,0.12519,0.25597,0.07981,0.07953,0.04352,0.50288,0.53894,0.26841,0.19562,0.48035,0.08612,0.28759,0.91438,0.24836,0.23795,0.91254,0.00463,0.31953,1.4283,0.32947,0.24986,1.44241,-0.01283,0.44855,1.16912,0.40983,0.37294,1.19452,0.05316,0.5779,1.38819,0.31745,0.46618,1.41456
506,0.17821,0.31051,1.51547,-0.01162,0.5022,0.12659,0.25592,0.07994,0.07963,0.04452,0.50296,0.54025,0.26881,0.19535,0.48055,0.08744,0.28625,0.91485,0.24944,0.23586,0.91294,0.00668,0.3191,1.42908,0.3307,0.24713,1.44268,-0.01047,0.44785,1.16974,0.41175,0.36891,1.19437,0.05598,0.57394,1.39057,0.32013,0.46275,1.41448
507,0.18011,0.30864,1.51573,-0.01111,0.503,0.12784,0.25563,0.0801,0.07967,0.04575,0.50299,0.54141,0.26923,0.19526,0.48064,0.08869,0.28507,0.9153,0.25046,0.23393,0.91323,0.00844,0.31894,1.42989,0.33171,0.24484,1.44257,-0.00783,0.44734,1.17032,0.41367,0.36604,1.19428,0.05938,0.56926,1.39325,0.32234,0.45952,1.41466
508,0.18181,0.30701,1.51585,-0.01034,0.50313,0.12891,0.25538,0.08022,0.07973,0.04726,0.5029,0.54237,0.26958,0.19526,0.48071,0.08984,0.28398,0.91571,0.25139,0.23215,0.91348,0.00999,0.31871,1.4306,0.33276,0.24274,1.44186,-0.0049,0.44704,1.17092,0.41555,0.36484,1.19428,0.0634,0.56414,1.39609,0.32406,0.45708,1.41512
509,0.1835,0.30551,1.51587,-0.00938,0.50261,0.12964,0.25538,0.08023,0.07982,0.04893,0.50258,0.543,0.26975,0.19505,0.48086,0.09097,0.28296,0.91599,0.2523,0.23043,0.91378,0.01145,0.31814,1.43112,0.33399,0.24027,1.44109,-0.00196,0.44701,1.17162,0.41735,0.36384,1.19444,0.06749,0.5589,1.39907,0.32566,0.45536,1.41549
510,0.18522,0.30413,1.51585,-0.0084,0.50152,0.12988,0.25557,0.08011,0.07989,0.05066,0.5019,0.54313,0.26988,0.1944,0.48108,0.09215,0.28197,0.91601,0.25323,0.22868,0.91412,0.013,0.31728,1.43149,0.3352,0.23713,1.44092,0.00073,0.44709,1.1724,0.41904,0.36119,1.19467,0.07093,0.55354,1.40223,0.3275,0.45373,1.41535
511,0.18689,0.30286,1.51579,-0.0074,0.50006,0.12959,0.25577,0.07986,0.07988,0.05244,0.50076,0.54274,0.27017,0.19337,0.48128,0.09328,0.281,0.91578,0.25413,0.22699,0.9144,0.01469,0.31625,1.43181,0.33609,0.23359,1.4412,0.00312,0.44695,1.17313,0.42053,0.35693,1.1948,0.07378,0.54788,1.4053,0.32964,0.45163,1.41484
512,0.18846,0.30161,1.5157,-0.00631,0.49851,0.1289,0.25593,0.0795,0.07974,0.05438,0.49925,0.54192,0.27065,0.19225,0.48135,0.09416,0.28011,0.91544,0.25484,0.22559,0.9145,0.01635,0.31513,1.43221,0.33664,0.23013,1.4413,0.00531,0.44654,1.17388,0.42161,0.35286,1.19477,0.07695,0.54213,1.40799,0.33182,0.44912,1.41459
513,0.19007,0.30025,1.51558,-0.00514,0.4971,0.12798,0.25601,0.07914,0.07949,0.05646,0.49763,0.54086,0.27116,0.19134,0.48123,0.09466,0.27947,0.91512,0.2552,0.22454,0.91439,0.01782,0.314,1.43284,0.33717,0.22708,1.4408,0.00751,0.44621,1.17489,0.42206,0.35055,1.19462,0.08078,0.53694,1.41042,0.33372,0.44648,1.41516
514,0.19185,0.29853,1.51549,-0.00393,0.49599,0.12698,0.25596,0.07887,0.07923,0.05845,0.49605,0.53975,0.27165,0.19074,0.48105,0.09492,0.27914,0.91491,0.25529,0.22372,0.91421,0.01913,0.31295,1.43379,0.33789,0.22459,1.43987,0.00997,0.44615,1.17629,0.42193,0.34988,1.19431,0.0845,0.53278,1.41298,0.33531,0.44384,1.41639
515,0.19371,0.29638,1.51546,-0.00262,0.49524,0.12594,0.25582,0.0787,0.07912,0.06014,0.49455,0.53865,0.27209,0.19039,0.48097,0.09524,0.27907,0.91477,0.25537,0.22296,0.91415,0.02029,0.31199,1.435,0.33865,0.22259,1.43896,0.01264,0.44622,1.178,0.4217,0.34935,1.19382,0.08778,0.52963,1.41564,0.33685,0.44109,1.4175
516,0.1954,0.29402,1.51552,-0.00101,0.49484,0.12483,0.25572,0.07859,0.07918,0.06158,0.4932,0.53757,0.27244,0.19011,0.48105,0.09577,0.27912,0.91456,0.25565,0.22229,0.91425,0.02131,0.31113,1.43627,0.33924,0.22073,1.43839,0.01523,0.4465,1.17982,0.42204,0.34759,1.19321,0.09173,0.52746,1.41788,0.33859,0.43815,1.4179
517,0.19678,0.29194,1.51562,0.00104,0.49464,0.12367,0.25569,0.07854,0.07927,0.06297,0.49211,0.5365,0.27275,0.18974,0.48121,0.09642,0.27922,0.91423,0.2561,0.22183,0.91443,0.02223,0.31047,1.43725,0.33973,0.21877,1.43816,0.01757,0.44738,1.18159,0.42311,0.34456,1.19264,0.0975,0.52629,1.41921,0.3406,0.4351,1.41768
518,0.19794,0.29031,1.51564,0.0033,0.49447,0.12254,0.25559,0.0786,0.07927,0.06443,0.4913,0.53549,0.27312,0.18916,0.48137,0.09701,0.27937,0.91384,0.25653,0.22156,0.91456,0.02327,0.31013,1.43771,0.34032,0.2167,1.43816,0.01997,0.44906,1.18311,0.42443,0.34114,1.19219,0.10454,0.52596,1.41978,0.3428,0.43216,1.41736
519,0.19916,0.28876,1.51556,0.00531,0.49424,0.1216,0.25533,0.07874,0.07914,0.06587,0.49071,0.53463,0.27358,0.1884,0.48146,0.09744,0.2795,0.91347,0.25681,0.2213,0.91461,0.0246,0.31008,1.43781,0.34098,0.21461,1.43817,0.02281,0.45129,1.18446,0.42546,0.33818,1.1919,0.11121,0.5265,1.42028,0.34503,0.4295,1.41737
520,0.2005,0.28683,1.51544,0.00681,0.494,0.12101,0.255,0.07885,0.07894,0.06712,0.49036,0.53407,0.27401,0.1877,0.48144,0.09771,0.27953,0.9132,0.25692,0.22088,0.91456,0.02612,0.31008,1.43803,0.34164,0.21255,1.43799,0.02604,0.45367,1.18602,0.42621,0.33608,1.19173,0.11691,0.52851,1.421,0.34718,0.42712,1.41781
521,0.20176,0.28456,1.51538,0.00782,0.4939,0.1209,0.25478,0.07884,0.07876,0.06801,0.49039,0.53398,0.27436,0.18727,0.48135,0.09793,0.27945,0.9131,0.25694,0.22027,0.91446,0.02742,0.30993,1.43864,0.34231,0.21052,1.43762,0.0293,0.45596,1.18804,0.42691,0.33464,1.19166,0.12224,0.53251,1.42166,0.34915,0.42503,1.41844
522,0.20272,0.28241,1.51539,0.00832,0.49424,0.12134,0.25477,0.07876,0.07865,0.06856,0.49094,0.53442,0.27469,0.18718,0.48122,0.09815,0.27936,0.91321,0.25696,0.21963,0.91437,0.02811,0.30968,1.43939,0.34303,0.20847,1.43732,0.03242,0.45821,1.1903,0.42764,0.33331,1.19172,0.12736,0.53809,1.422,0.35085,0.42353,1.4189
523,0.20347,0.28077,1.51545,0.00826,0.49519,0.12229,0.25495,0.07867,0.07859,0.06897,0.49204,0.5353,0.27503,0.18736,0.48108,0.09831,0.27926,0.91344,0.25692,0.21899,0.91427,0.02834,0.3096,1.43986,0.34367,0.20636,1.43719,0.03548,0.46064,1.19234,0.42818,0.33183,1.19189,0.13176,0.54412,1.42221,0.3523,0.42289,1.41904
524,0.20425,0.27959,1.51547,0.0077,0.49661,0.12361,0.25527,0.07848,0.07854,0.06944,0.4936,0.53647,0.27533,0.18767,0.48091,0.09835,0.27914,0.91369,0.25673,0.21829,0.91415,0.0287,0.3098,1.43998,0.34405,0.2042,1.43705,0.03842,0.46325,1.19404,0.4282,0.33041,1.192,0.13534,0.54981,1.4225,0.35357,0.42289,1.41899
525,0.20525,0.27857,1.51536,0.00668,0.49821,0.12516,0.25566,0.07819,0.07852,0.06999,0.49561,0.53778,0.27552,0.18786,0.48076,0.0983,0.27906,0.91385,0.25643,0.21754,0.91405,0.02952,0.31009,1.44001,0.3441,0.20202,1.43664,0.04112,0.46572,1.19553,0.42771,0.32915,1.19188,0.13853,0.55495,1.42275,0.35474,0.42264,1.419
526,0.20651,0.27761,1.51505,0.00522,0.49996,0.12679,0.25603,0.07796,0.07855,0.0705,0.4981,0.53911,0.27567,0.18772,0.48077,0.09829,0.27913,0.91381,0.2561,0.2168,0.91408,0.03066,0.31048,1.44,0.3439,0.19997,1.43601,0.04377,0.46776,1.19665,0.42718,0.32785,1.19154,0.14163,0.55925,1.42277,0.35591,0.4213,1.41921
527,0.20795,0.2769,1.51465,0.00344,0.50192,0.12849,0.25625,0.07793,0.07864,0.07079,0.50108,0.54047,0.27588,0.18727,0.48098,0.09835,0.27941,0.91361,0.25579,0.21614,0.91428,0.03189,0.31129,1.43967,0.34376,0.19838,1.43546,0.04677,0.46932,1.19691,0.42695,0.32641,1.19103,0.14452,0.56186,1.42266,0.35715,0.41897,1.41951
528,0.20938,0.27659,1.51436,0.00165,0.50396,0.13036,0.2562,0.07803,0.07879,0.07069,0.50441,0.54207,0.27613,0.18685,0.48126,0.0984,0.27982,0.91344,0.25545,0.2156,0.91453,0.03317,0.3126,1.43897,0.34395,0.19758,1.43522,0.05001,0.47034,1.19615,0.4269,0.32493,1.19035,0.14695,0.56181,1.42268,0.35848,0.41666,1.41959
529,0.2107,0.27657,1.51428,9e-05,0.50579,0.13249,0.25589,0.07807,0.07888,0.07022,0.50785,0.54401,0.27637,0.18678,0.48135,0.09826,0.28024,0.91351,0.25498,0.21521,0.91461,0.03455,0.31408,1.43833,0.34431,0.19754,1.43526,0.0527,0.47072,1.19489,0.42682,0.32351,1.18953,0.14893,0.55883,1.42304,0.35985,0.41527,1.41919
530,0.21181,0.27669,1.51433,-0.00123,0.50718,0.1347,0.25549,0.07795,0.07884,0.06959,0.51117,0.54609,0.27648,0.18711,0.48116,0.09788,0.28067,0.91377,0.25433,0.21499,0.91442,0.03587,0.31549,1.43824,0.34444,0.19791,1.43537,0.05437,0.47057,1.19383,0.4268,0.32204,1.18866,0.15072,0.55352,1.42386,0.36112,0.41486,1.41826
531,0.21263,0.27693,1.51433,-0.00249,0.50815,0.13667,0.25523,0.07784,0.07873,0.06903,0.51419,0.54791,0.27635,0.18768,0.48086,0.09734,0.28119,0.91402,0.25352,0.21489,0.91412,0.03682,0.31696,1.43864,0.34418,0.19812,1.43535,0.05554,0.47025,1.19312,0.42702,0.32034,1.18784,0.15252,0.5468,1.42509,0.36211,0.41474,1.41703
532,0.21311,0.27732,1.51421,-0.0038,0.50906,0.13819,0.25512,0.07801,0.07863,0.06862,0.51684,0.54924,0.27602,0.18833,0.48063,0.09677,0.28203,0.9142,0.25261,0.2149,0.91391,0.03732,0.31874,1.43905,0.34363,0.19773,1.43517,0.05704,0.47007,1.1924,0.42737,0.31832,1.18717,0.15433,0.53934,1.42652,0.3629,0.41408,1.41591
533,0.21328,0.2778,1.51409,-0.00527,0.51035,0.13934,0.25502,0.0785,0.07857,0.06832,0.51911,0.55017,0.27557,0.18905,0.48054,0.09631,0.28323,0.91445,0.25168,0.21505,0.91382,0.03764,0.32088,1.4391,0.34299,0.19679,1.43485,0.05925,0.4704,1.1915,0.42758,0.31629,1.18661,0.15603,0.53189,1.42799,0.36367,0.41262,1.41527
534,0.21329,0.27825,1.51402,-0.00693,0.51202,0.14034,0.25483,0.07908,0.07855,0.06805,0.52109,0.55091,0.2751,0.18988,0.48046,0.09599,0.28458,0.91478,0.25087,0.21528,0.91376,0.0381,0.32328,1.43869,0.34251,0.19576,1.4344,0.06198,0.47169,1.19063,0.42749,0.31484,1.18609,0.15768,0.52542,1.42944,0.36452,0.41091,1.41512
535,0.21331,0.27869,1.51394,-0.00865,0.51377,0.1412,0.25461,0.07939,0.07856,0.06775,0.52284,0.55151,0.2747,0.19086,0.48029,0.09575,0.28582,0.91505,0.25017,0.21552,0.91362,0.03872,0.32571,1.43802,0.34232,0.19503,1.43389,0.06477,0.47406,1.19015,0.42722,0.31418,1.18558,0.15956,0.52075,1.4308,0.36546,0.40966,1.41518
536,0.21332,0.27929,1.51371,-0.01016,0.51543,0.14175,0.25444,0.07926,0.07866,0.06736,0.52439,0.55185,0.27442,0.19201,0.48004,0.09537,0.28687,0.91506,0.2494,0.21572,0.91339,0.03929,0.32788,1.43753,0.3421,0.19459,1.4335,0.06719,0.47702,1.19033,0.42704,0.31364,1.18517,0.16197,0.51812,1.432,0.36661,0.40892,1.4152
537,0.21324,0.28011,1.5133,-0.01137,0.51712,0.14184,0.25432,0.07879,0.07893,0.06682,0.52578,0.55182,0.27421,0.19333,0.47981,0.09474,0.28784,0.91477,0.24839,0.21587,0.91317,0.0396,0.32966,1.4375,0.3413,0.19414,1.43343,0.06908,0.48001,1.19122,0.42713,0.31241,1.18503,0.16498,0.51746,1.43305,0.36799,0.40837,1.41512
538,0.21319,0.28091,1.51278,-0.01241,0.51915,0.1415,0.25411,0.0783,0.07931,0.06618,0.52694,0.55142,0.27389,0.1947,0.47966,0.094,0.28888,0.91429,0.24721,0.21599,0.91303,0.03972,0.33134,1.43785,0.33976,0.19345,1.43367,0.0706,0.483,1.19255,0.42725,0.31058,1.18531,0.16823,0.5186,1.43396,0.36932,0.40809,1.41506
539,0.2134,0.28139,1.51229,-0.01359,0.52174,0.14081,0.25365,0.07806,0.07964,0.06561,0.52779,0.55064,0.27337,0.19601,0.47954,0.09341,0.29012,0.91378,0.24614,0.21621,0.91294,0.03999,0.33334,1.43817,0.33787,0.19259,1.43388,0.07197,0.48635,1.19384,0.42709,0.30915,1.18586,0.17101,0.52137,1.43477,0.37034,0.40841,1.41515
540,0.21397,0.28152,1.51187,-0.01502,0.52493,0.13978,0.25307,0.07815,0.07979,0.06521,0.52831,0.54944,0.27277,0.19727,0.47934,0.09309,0.29163,0.91321,0.24534,0.21673,0.91276,0.04063,0.33576,1.43818,0.33624,0.19187,1.43374,0.07322,0.49017,1.19482,0.42661,0.30873,1.18628,0.17277,0.52559,1.43547,0.37108,0.40922,1.41533
541,0.21473,0.28149,1.51152,-0.01666,0.52849,0.13837,0.25274,0.07843,0.07971,0.06484,0.5285,0.54779,0.27241,0.19846,0.47898,0.09285,0.29334,0.91254,0.24472,0.21768,0.9124,0.04153,0.33821,1.43794,0.33522,0.19149,1.43332,0.07417,0.49402,1.19548,0.42603,0.30876,1.18622,0.1737,0.5308,1.43594,0.37166,0.4099,1.41526
542,0.21543,0.28161,1.51116,-0.0184,0.53205,0.13661,0.25281,0.07869,0.07947,0.06427,0.52833,0.54578,0.27246,0.19948,0.47852,0.09241,0.29518,0.91181,0.24406,0.21906,0.91187,0.04246,0.34046,1.43776,0.33473,0.19129,1.43288,0.07463,0.49734,1.19593,0.42537,0.30838,1.18563,0.17446,0.53613,1.43594,0.37217,0.41005,1.41471
543,0.21587,0.28207,1.5107,-0.02017,0.53539,0.13462,0.25309,0.07875,0.07918,0.0634,0.52782,0.54356,0.2727,0.20027,0.47801,0.09176,0.29715,0.91113,0.24323,0.22068,0.91125,0.04331,0.34269,1.43797,0.33438,0.19099,1.43236,0.07445,0.49992,1.19624,0.42445,0.30757,1.18466,0.17553,0.54054,1.43543,0.37259,0.40977,1.41382
544,0.216,0.28299,1.51002,-0.02192,0.53867,0.13244,0.25333,0.07867,0.07892,0.06234,0.52723,0.54115,0.27275,0.2011,0.47748,0.09116,0.29946,0.91049,0.2423,0.22236,0.91061,0.04402,0.34523,1.43865,0.33378,0.19062,1.43151,0.07361,0.50194,1.19638,0.42315,0.3069,1.18342,0.17665,0.54329,1.43461,0.37309,0.40941,1.41284
545,0.21587,0.28433,1.5091,-0.02363,0.5421,0.13005,0.25333,0.07859,0.07874,0.06129,0.52685,0.53849,0.27247,0.20229,0.47693,0.09082,0.30221,0.90969,0.24141,0.22402,0.90999,0.04437,0.34825,1.43931,0.33283,0.19052,1.43027,0.07242,0.50367,1.19603,0.4216,0.30661,1.18187,0.17693,0.54446,1.43371,0.37374,0.4092,1.41173
546,0.21561,0.28595,1.50799,-0.02521,0.54547,0.12746,0.25301,0.07865,0.07866,0.06036,0.52671,0.53562,0.27207,0.20392,0.47636,0.09072,0.30515,0.9086,0.24064,0.2257,0.90939,0.04415,0.35167,1.43922,0.33168,0.19091,1.42885,0.07135,0.50535,1.19474,0.42005,0.30637,1.18001,0.17581,0.54462,1.4327,0.37439,0.40911,1.41025
547,0.21548,0.28777,1.50674,-0.02658,0.54834,0.12482,0.25243,0.07886,0.07862,0.05954,0.52662,0.53272,0.27173,0.20579,0.47578,0.09059,0.30794,0.90734,0.23998,0.22752,0.90879,0.04348,0.35511,1.43814,0.33041,0.19162,1.42746,0.07046,0.50715,1.19261,0.41871,0.30559,1.17791,0.17383,0.54428,1.43139,0.37494,0.40895,1.40824
548,0.21568,0.28981,1.50536,-0.02773,0.55045,0.12231,0.25185,0.07915,0.07855,0.05877,0.52644,0.53,0.27148,0.20773,0.47516,0.09019,0.31041,0.90612,0.23937,0.22958,0.90814,0.04284,0.35819,1.43649,0.32891,0.1923,1.42606,0.06946,0.5092,1.19029,0.41772,0.30413,1.17573,0.17218,0.5436,1.42975,0.3755,0.40868,1.4058
549,0.21601,0.292,1.50389,-0.02879,0.55185,0.11993,0.25157,0.07941,0.07842,0.05808,0.52627,0.52744,0.27127,0.20977,0.47445,0.08954,0.31266,0.90494,0.23871,0.23185,0.90738,0.04251,0.36087,1.43493,0.32707,0.19289,1.42445,0.06816,0.51147,1.18837,0.41705,0.30242,1.17352,0.1715,0.5427,1.428,0.37614,0.40844,1.40316
550,0.21606,0.29415,1.50239,-0.02988,0.55272,0.11751,0.25164,0.07958,0.07824,0.05752,0.52638,0.52486,0.27113,0.21202,0.47359,0.08881,0.31493,0.90359,0.23799,0.23414,0.90648,0.04221,0.36336,1.43379,0.32495,0.19374,1.4225,0.06672,0.51373,1.18697,0.41651,0.30101,1.17117,0.17147,0.54196,1.42636,0.37673,0.40856,1.40029
551,0.21552,0.29621,1.50085,-0.03098,0.5531,0.11488,0.25179,0.07973,0.07805,0.05706,0.52697,0.52211,0.27123,0.21452,0.4726,0.08818,0.31741,0.9019,0.23713,0.23624,0.90544,0.04137,0.36597,1.43313,0.3228,0.19528,1.42031,0.06528,0.51556,1.18579,0.4158,0.30006,1.16845,0.17133,0.54183,1.42483,0.37712,0.40927,1.39698
552,0.21436,0.2983,1.49921,-0.03203,0.55293,0.11202,0.25174,0.07993,0.07788,0.05651,0.52803,0.51922,0.27159,0.21722,0.47155,0.08769,0.32011,0.8999,0.23619,0.23814,0.90432,0.03984,0.36901,1.43285,0.32099,0.19751,1.41809,0.06371,0.51674,1.18438,0.41471,0.29931,1.16528,0.1704,0.54242,1.42321,0.37736,0.41068,1.39298
553,0.21278,0.30056,1.49744,-0.03297,0.55223,0.10906,0.25145,0.08015,0.07775,0.05571,0.52948,0.51635,0.27206,0.22012,0.47044,0.08733,0.32287,0.89771,0.23535,0.2401,0.90315,0.03804,0.37256,1.43259,0.31969,0.20012,1.41603,0.06177,0.51743,1.18244,0.41316,0.29848,1.16177,0.16833,0.54339,1.42128,0.37764,0.41274,1.38834
554,0.21115,0.30299,1.49563,-0.03376,0.55119,0.1062,0.25105,0.08041,0.07772,0.05469,0.53131,0.5137,0.27234,0.22331,0.46931,0.08704,0.32557,0.89546,0.23481,0.24242,0.90198,0.03642,0.37615,1.43193,0.31871,0.20282,1.4142,0.05935,0.51811,1.18003,0.41114,0.29748,1.15817,0.16543,0.54429,1.41907,0.37805,0.41521,1.38332
555,0.20978,0.30553,1.49376,-0.03434,0.55001,0.10367,0.25059,0.08074,0.07782,0.05361,0.53351,0.51143,0.27234,0.22683,0.46821,0.08674,0.32827,0.8934,0.23454,0.24527,0.90089,0.03495,0.37918,1.4307,0.31768,0.20553,1.41248,0.05652,0.51923,1.17762,0.40864,0.29654,1.1546,0.16234,0.54491,1.41682,0.37861,0.41783,1.37828
556,0.20868,0.30819,1.49175,-0.03465,0.54883,0.10151,0.25001,0.08118,0.07808,0.05258,0.53598,0.50955,0.27223,0.23063,0.46716,0.08634,0.33119,0.89171,0.23436,0.24864,0.89986,0.03335,0.3815,1.42903,0.31631,0.2083,1.41064,0.0533,0.52089,1.17546,0.4057,0.29582,1.15101,0.15934,0.54519,1.41471,0.37938,0.4205,1.37329
557,0.20751,0.31096,1.48964,-0.03447,0.54794,0.09949,0.24924,0.08175,0.07845,0.05164,0.53849,0.50786,0.27236,0.2347,0.46612,0.0858,0.33439,0.89036,0.23416,0.25248,0.89879,0.03139,0.38345,1.42715,0.31444,0.21124,1.4086,0.04978,0.52283,1.17345,0.40257,0.29491,1.14728,0.1563,0.54521,1.41268,0.38026,0.42333,1.36787
558,0.20589,0.31378,1.48765,-0.03361,0.54779,0.09729,0.24845,0.0825,0.07884,0.05083,0.54078,0.50605,0.27286,0.23904,0.46499,0.08509,0.33767,0.88906,0.23396,0.25672,0.89761,0.02904,0.38543,1.4253,0.31212,0.21451,1.40639,0.046,0.52454,1.17135,0.39975,0.29325,1.14337,0.15323,0.5453,1.41041,0.38103,0.42647,1.36143
559,0.20368,0.31662,1.48596,-0.03218,0.54861,0.0948,0.24789,0.08341,0.07911,0.05024,0.54275,0.504,0.27344,0.24352,0.46373,0.08425,0.34091,0.88771,0.23386,0.26132,0.89628,0.02625,0.3876,1.42382,0.30973,0.21829,1.40402,0.04181,0.5256,1.16919,0.39751,0.29075,1.13925,0.15034,0.546,1.40769,0.38167,0.42991,1.3538
560,0.20089,0.31971,1.48463,-0.03047,0.55015,0.09227,0.24767,0.08437,0.07923,0.04981,0.54448,0.5019,0.27361,0.24791,0.46237,0.08331,0.34413,0.88642,0.23378,0.26618,0.89488,0.02287,0.38984,1.42301,0.30762,0.2227,1.40151,0.03691,0.52581,1.16719,0.39548,0.28779,1.13486,0.14765,0.54741,1.40457,0.38228,0.43339,1.34527
561,0.19759,0.32332,1.48356,-0.02873,0.5517,0.08998,0.24763,0.0853,0.07929,0.04935,0.54611,0.50003,0.27322,0.25203,0.46108,0.0823,0.34731,0.88541,0.23364,0.27103,0.89358,0.01881,0.39186,1.4228,0.30586,0.22771,1.39892,0.03117,0.52511,1.16547,0.39299,0.28473,1.13019,0.14483,0.54894,1.40124,0.38275,0.43654,1.33634
562,0.19393,0.32748,1.4827,-0.02704,0.55265,0.08808,0.24752,0.08618,0.0795,0.04874,0.54763,0.49857,0.27254,0.25596,0.45999,0.08127,0.35027,0.88472,0.23347,0.27568,0.8925,0.01429,0.39347,1.42289,0.30421,0.23329,1.39641,0.02481,0.52369,1.16393,0.3897,0.28177,1.12548,0.14126,0.54987,1.39809,0.38286,0.43939,1.32737
563,0.1902,0.33197,1.48202,-0.02556,0.55283,0.08646,0.24724,0.08702,0.07999,0.04802,0.54883,0.49737,0.27196,0.25988,0.4591,0.08025,0.35291,0.88428,0.23338,0.28021,0.89163,0.00965,0.39469,1.423,0.30244,0.23949,1.39413,0.01831,0.52208,1.16257,0.3859,0.27907,1.12113,0.13651,0.55003,1.39565,0.38252,0.44257,1.31837
564,0.18664,0.33645,1.48152,-0.02447,0.55248,0.08492,0.2469,0.08779,0.08069,0.04711,0.54937,0.49618,0.2716,0.26382,0.45834,0.07917,0.35538,0.88408,0.2334,0.28497,0.89086,0.00499,0.39543,1.42309,0.30065,0.24638,1.39223,0.01185,0.52085,1.16165,0.38192,0.27677,1.1174,0.13072,0.54971,1.39428,0.38174,0.44674,1.30911
565,0.18326,0.34059,1.48126,-0.02379,0.55186,0.0833,0.24673,0.08855,0.08151,0.04574,0.54902,0.49492,0.27136,0.26764,0.45773,0.07798,0.35786,0.8842,0.23351,0.29028,0.89021,0.00021,0.39536,1.42335,0.29939,0.25392,1.39074,0.00498,0.51978,1.16138,0.37774,0.27479,1.11418,0.1244,0.54931,1.39365,0.38064,0.45185,1.29936
566,0.17987,0.34433,1.48132,-0.02341,0.55121,0.08173,0.24697,0.08934,0.0825,0.0437,0.54776,0.49374,0.27106,0.27121,0.45742,0.07674,0.36021,0.88471,0.23381,0.29623,0.88982,-0.00459,0.39433,1.42395,0.29908,0.26199,1.38959,-0.00287,0.51809,1.16164,0.37325,0.27287,1.11131,0.11796,0.54921,1.39296,0.37943,0.45719,1.28917
567,0.17611,0.34797,1.4818,-0.02329,0.55062,0.08041,0.2476,0.09017,0.08371,0.04116,0.54588,0.49284,0.27054,0.27438,0.45755,0.07553,0.36214,0.8855,0.23435,0.30261,0.88984,-0.00912,0.39252,1.42483,0.29953,0.27056,1.3887,-0.01164,0.51553,1.16216,0.36862,0.27092,1.10891,0.11143,0.54968,1.39187,0.37814,0.46231,1.27899
568,0.17161,0.35202,1.48268,-0.0235,0.55007,0.0795,0.24837,0.09091,0.08514,0.03842,0.54388,0.49229,0.2698,0.27711,0.45808,0.07435,0.36357,0.8864,0.23496,0.309,0.89023,-0.01332,0.39023,1.42583,0.30005,0.27959,1.38802,-0.02053,0.51252,1.16292,0.36422,0.26931,1.10724,0.10468,0.55077,1.39082,0.37643,0.46743,1.26925
569,0.16634,0.35681,1.48377,-0.02418,0.54962,0.07902,0.24913,0.09148,0.08668,0.03555,0.54202,0.49211,0.26877,0.2795,0.45881,0.07318,0.36463,0.88739,0.23538,0.31495,0.8908,-0.01741,0.38737,1.42706,0.30006,0.28903,1.38751,-0.02897,0.50924,1.16411,0.36029,0.2687,1.10641,0.09751,0.55233,1.39043,0.37374,0.47328,1.26007
570,0.16078,0.36219,1.48489,-0.02538,0.54937,0.07896,0.25001,0.09196,0.08823,0.0324,0.54013,0.49229,0.26734,0.28173,0.45959,0.07199,0.36543,0.88857,0.23554,0.32032,0.89142,-0.02139,0.38341,1.42872,0.29969,0.29911,1.38737,-0.03718,0.50522,1.16597,0.35668,0.26974,1.10639,0.08955,0.55406,1.39098,0.36994,0.48062,1.25131
571,0.15554,0.36738,1.48605,-0.02697,0.54933,0.07926,0.2512,0.09241,0.08978,0.02899,0.53799,0.4928,0.26559,0.28386,0.4604,0.07076,0.36596,0.89002,0.23552,0.32548,0.89208,-0.02513,0.37769,1.4307,0.2996,0.31036,1.38791,-0.04565,0.50024,1.16862,0.35304,0.27281,1.1072,0.08051,0.55545,1.39247,0.36546,0.48981,1.24286
572,0.15081,0.37163,1.48743,-0.02868,0.54932,0.07981,0.25274,0.09281,0.09149,0.02561,0.53566,0.4935,0.2639,0.28595,0.46134,0.06943,0.3663,0.89164,0.23539,0.33101,0.89278,-0.02864,0.37016,1.4324,0.30025,0.32333,1.38935,-0.05442,0.49498,1.17186,0.34922,0.27808,1.10897,0.07091,0.55586,1.39472,0.36043,0.50092,1.23491
573,0.14642,0.37503,1.48902,-0.03025,0.54922,0.08046,0.25442,0.0932,0.09349,0.02259,0.53339,0.49426,0.26258,0.28823,0.46243,0.06793,0.36661,0.89333,0.23505,0.33727,0.89349,-0.03187,0.3617,1.43329,0.30142,0.3383,1.39172,-0.06315,0.49022,1.17516,0.34575,0.28603,1.11179,0.06186,0.55483,1.39714,0.35425,0.51413,1.22818
574,0.14224,0.37832,1.49062,-0.03144,0.54912,0.08114,0.25599,0.09377,0.0958,0.02014,0.5314,0.49502,0.2616,0.29104,0.4636,0.06625,0.36692,0.89495,0.23438,0.34407,0.89421,-0.03434,0.35347,1.43348,0.30235,0.35492,1.39489,-0.07179,0.48568,1.17805,0.34371,0.29758,1.11549,0.0537,0.55244,1.39912,0.34629,0.52988,1.22357
575,0.1383,0.38195,1.4921,-0.0322,0.54927,0.08188,0.25747,0.09477,0.09843,0.01828,0.52979,0.49581,0.26073,0.29467,0.46483,0.06453,0.36702,0.89643,0.23343,0.35084,0.89504,-0.03556,0.34609,1.43379,0.30215,0.37184,1.39869,-0.08051,0.48035,1.18065,0.34404,0.31377,1.11953,0.04561,0.54911,1.40075,0.33684,0.54867,1.2216
576,0.13455,0.38581,1.49362,-0.03271,0.54978,0.08274,0.25901,0.09639,0.1013,0.01694,0.52847,0.49669,0.25989,0.29908,0.46618,0.06292,0.36665,0.89772,0.23231,0.35698,0.89614,-0.0355,0.33932,1.43488,0.30031,0.38764,1.40291,-0.08909,0.47373,1.1835,0.34675,0.3353,1.12334,0.03709,0.54514,1.40272,0.32651,0.57075,1.22234
577,0.13081,0.38961,1.49541,-0.03303,0.55042,0.0837,0.26077,0.09856,0.10422,0.01589,0.5273,0.49763,0.25916,0.30398,0.46756,0.06129,0.3658,0.89886,0.23092,0.36222,0.89744,-0.03443,0.33237,1.43682,0.29684,0.40234,1.40723,-0.09695,0.4658,1.18699,0.35073,0.36209,1.12699,0.02877,0.54069,1.40531,0.31527,0.59578,1.22588
578,0.12699,0.39324,1.49754,-0.03305,0.5508,0.08459,0.26262,0.1011,0.10689,0.01491,0.52608,0.49855,0.2586,0.3091,0.46874,0.05944,0.36452,0.89985,0.2291,0.36653,0.89864,-0.03248,0.32468,1.43969,0.29204,0.41726,1.41135,-0.10366,0.45603,1.19108,0.35455,0.39322,1.13104,0.0217,0.5362,1.40772,0.3029,0.62281,1.23238
579,0.12313,0.39665,1.49987,-0.03261,0.55068,0.08534,0.26414,0.10377,0.10912,0.0139,0.52461,0.49938,0.25827,0.3143,0.46948,0.0574,0.36276,0.90068,0.22692,0.37006,0.89947,-0.02965,0.31645,1.44375,0.28629,0.43326,1.41528,-0.10915,0.44384,1.1956,0.35716,0.42754,1.13598,0.01653,0.53244,1.40875,0.28976,0.65085,1.24199
580,0.11928,0.3998,1.50219,-0.03179,0.55027,0.08606,0.26509,0.1065,0.11103,0.01294,0.52278,0.5002,0.25822,0.31964,0.46984,0.05545,0.36049,0.90142,0.22466,0.37297,0.89996,-0.02601,0.3086,1.44874,0.27993,0.44992,1.41926,-0.11351,0.42984,1.2002,0.35789,0.46434,1.14218,0.01292,0.53008,1.40766,0.27631,0.67936,1.25515
581,0.11544,0.40261,1.5043,-0.03091,0.54997,0.08694,0.2656,0.10936,0.11285,0.0121,0.5208,0.50115,0.25847,0.32524,0.47001,0.05376,0.35785,0.9022,0.22252,0.37532,0.90034,-0.0217,0.30214,1.45357,0.27312,0.46627,1.42354,-0.11712,0.41564,1.2043,0.35581,0.50305,1.14992,0.00964,0.52892,1.40474,0.26232,0.70775,1.27242
582,0.11166,0.40509,1.50613,-0.03027,0.54989,0.088,0.26596,0.11241,0.11478,0.01115,0.51895,0.50225,0.25888,0.33113,0.4702,0.05222,0.35521,0.90303,0.22048,0.37697,0.90079,-0.01669,0.29765,1.45719,0.26607,0.48175,1.42812,-0.12034,0.40244,1.20738,0.34996,0.54272,1.15923,0.00561,0.52787,1.40098,0.2471,0.73517,1.29351
583,0.10816,0.40757,1.50767,-0.02995,0.54974,0.08894,0.26624,0.11554,0.11683,0.00982,0.51728,0.50323,0.25921,0.33715,0.47046,0.05066,0.35289,0.90377,0.21849,0.3777,0.90136,-0.0109,0.29503,1.45943,0.25897,0.49624,1.43276,-0.12297,0.39015,1.20939,0.34008,0.58218,1.1699,0.00095,0.52562,1.39746,0.2304,0.76098,1.31704
584,0.10513,0.41054,1.50885,-0.02992,0.54922,0.08945,0.26639,0.11849,0.11891,0.00822,0.51567,0.50381,0.25939,0.34313,0.47063,0.0489,0.35096,0.90423,0.2165,0.37735,0.90187,-0.00432,0.29366,1.46094,0.25169,0.50992,1.43731,-0.12435,0.37818,1.21079,0.32715,0.62024,1.18198,-0.00353,0.5211,1.39532,0.21288,0.78494,1.34155
585,0.10265,0.41427,1.50939,-0.03029,0.54843,0.08959,0.26651,0.12106,0.12091,0.00673,0.51422,0.50399,0.25957,0.34908,0.47045,0.04694,0.34919,0.90433,0.21446,0.37606,0.90198,0.00284,0.29286,1.46235,0.24376,0.52313,1.44206,-0.12388,0.36645,1.21204,0.31284,0.65578,1.1957,-0.00703,0.51374,1.3957,0.19556,0.80694,1.36612
586,0.10073,0.41863,1.50898,-0.03115,0.54759,0.08968,0.26671,0.12317,0.12283,0.00554,0.5131,0.50409,0.26007,0.35504,0.46984,0.04491,0.34725,0.90417,0.21241,0.37417,0.90151,0.01022,0.29203,1.46364,0.23491,0.53602,1.44733,-0.12154,0.35572,1.21322,0.29852,0.68815,1.21097,-0.00929,0.50422,1.39876,0.17886,0.82684,1.39012
587,0.0992,0.42336,1.50755,-0.03243,0.54687,0.08995,0.267,0.12494,0.12475,0.00442,0.51224,0.50433,0.26106,0.36096,0.46895,0.04296,0.34511,0.90396,0.21043,0.37212,0.90057,0.0174,0.29083,1.46435,0.22548,0.54826,1.45282,-0.1179,0.34683,1.21398,0.2847,0.71747,1.22717,-0.01101,0.49474,1.40312,0.1623,0.8445,1.41299
588,0.0975,0.42817,1.50541,-0.03393,0.54627,0.09031,0.26733,0.12656,0.12666,0.00312,0.51149,0.50466,0.26254,0.36674,0.468,0.04117,0.34314,0.90383,0.20859,0.37033,0.89934,0.02389,0.28948,1.46421,0.21609,0.55929,1.45765,-0.1138,0.33992,1.21396,0.27157,0.74409,1.24357,-0.0135,0.48779,1.40671,0.14518,0.85967,1.43414
589,0.095,0.43294,1.5029,-0.03551,0.54569,0.09057,0.2677,0.12825,0.12847,0.00169,0.51085,0.5049,0.26439,0.37238,0.46701,0.0396,0.34184,0.9038,0.20695,0.3692,0.8979,0.02923,0.28871,1.46352,0.2073,0.56869,1.46107,-0.10975,0.3343,1.21305,0.25931,0.76803,1.25952,-0.01746,0.48424,1.40819,0.12752,0.87228,1.45294
590,0.09149,0.43761,1.50025,-0.03713,0.54502,0.09062,0.26823,0.13011,0.13003,0.00027,0.51043,0.50496,0.26644,0.37796,0.46587,0.03842,0.34121,0.90375,0.20565,0.36885,0.89622,0.03314,0.28912,1.46291,0.19959,0.57626,1.46283,-0.10573,0.32929,1.21146,0.24801,0.7888,1.2743,-0.0224,0.48321,1.40753,0.11004,0.88246,1.46883
591,0.08735,0.44204,1.49769,-0.03863,0.54424,0.09054,0.2691,0.13206,0.13138,-0.00108,0.51031,0.50492,0.26838,0.38346,0.46457,0.03771,0.34078,0.90352,0.20474,0.36917,0.89437,0.03554,0.29054,1.46283,0.19331,0.58199,1.46319,-0.10169,0.32483,1.20961,0.23773,0.80576,1.2871,-0.0271,0.48356,1.40536,0.09366,0.89026,1.4814
592,0.08319,0.44597,1.49548,-0.03983,0.54349,0.09037,0.27049,0.13399,0.13271,-0.00237,0.51053,0.50483,0.26986,0.38889,0.46323,0.03735,0.34025,0.90301,0.20407,0.37,0.89253,0.03637,0.29242,1.46324,0.18837,0.58615,1.46262,-0.09796,0.32114,1.20778,0.22869,0.81863,1.29714,-0.03093,0.4848,1.40221,0.07927,0.89576,1.49047
593,0.07942,0.44923,1.49364,-0.04052,0.54301,0.09005,0.27245,0.1359,0.13419,-0.0036,0.51107,0.50464,0.27063,0.39439,0.46191,0.03713,0.3398,0.9023,0.20344,0.37143,0.89079,0.03573,0.29458,1.46389,0.18433,0.58936,1.46144,-0.095,0.31806,1.20604,0.22116,0.82779,1.30378,-0.03437,0.48664,1.39835,0.06783,0.89959,1.49608
594,0.07586,0.45187,1.49195,-0.04047,0.54295,0.08948,0.27483,0.13787,0.13586,-0.00458,0.51182,0.50423,0.27073,0.40011,0.46057,0.03703,0.33977,0.90146,0.20282,0.37367,0.88914,0.03388,0.29723,1.46436,0.18084,0.59227,1.4597,-0.09309,0.31535,1.20422,0.215,0.83411,1.30672,-0.03813,0.48866,1.39401,0.05989,0.90282,1.49873
595,0.07213,0.45405,1.49015,-0.03963,0.54323,0.08867,0.27745,0.1399,0.13766,-0.00512,0.51276,0.50358,0.27037,0.40604,0.45912,0.03715,0.34007,0.90046,0.20232,0.37669,0.88748,0.03114,0.30035,1.46416,0.17767,0.59524,1.45732,-0.09228,0.31331,1.202,0.20958,0.83851,1.30612,-0.04231,0.4904,1.38967,0.05518,0.90611,1.4991
596,0.06819,0.45599,1.48813,-0.0382,0.54367,0.08772,0.28021,0.14202,0.13946,-0.00517,0.51412,0.50282,0.26968,0.4121,0.45752,0.03756,0.34038,0.89919,0.20196,0.38012,0.88575,0.02763,0.3034,1.46282,0.1745,0.59832,1.4543,-0.09262,0.31256,1.19903,0.20444,0.84148,1.30253,-0.04666,0.49179,1.38569,0.05294,0.9095,1.49765
597,0.06439,0.45788,1.48582,-0.03646,0.54408,0.08678,0.28303,0.14433,0.14121,-0.00488,0.5161,0.5021,0.26875,0.41829,0.45579,0.03811,0.34043,0.8976,0.20165,0.38351,0.88389,0.02339,0.30585,1.46024,0.17104,0.60109,1.45081,-0.09418,0.31311,1.19519,0.19992,0.8429,1.29669,-0.05097,0.49304,1.38183,0.05269,0.91264,1.49445
598,0.06086,0.45977,1.48317,-0.03448,0.54444,0.08591,0.28572,0.14689,0.14288,-0.00432,0.51865,0.50147,0.26767,0.42465,0.45391,0.03866,0.3403,0.89577,0.20128,0.38666,0.88185,0.01856,0.30773,1.45674,0.16733,0.60301,1.44705,-0.09687,0.31427,1.19073,0.19673,0.84246,1.28937,-0.05506,0.49427,1.37762,0.05429,0.91525,1.48952
599,0.05741,0.46178,1.48017,-0.03231,0.54487,0.08501,0.28801,0.14968,0.14447,-0.00354,0.52158,0.50082,0.26647,0.43119,0.45189,0.03917,0.34027,0.89379,0.2009,0.38959,0.87962,0.01356,0.30948,1.45281,0.16367,0.60411,1.44307,-0.10026,0.31538,1.18609,0.19492,0.84047,1.28115,-0.05884,0.49557,1.37289,0.05756,0.91747,1.48327
600,0.05391,0.4642,1.47683,-0.03016,0.54535,0.08396,0.28966,0.15266,0.14602,-0.00268,0.52486,0.50001,0.26509,0.43788,0.44977,0.03976,0.34056,0.89161,0.2007,0.39236,0.87728,0.00889,0.3114,1.4488,0.16029,0.605,1.43883,-0.10389,0.3163,1.18162,0.19379,0.83788,1.27238,-0.06245,0.49713,1.3678,0.062,0.91984,1.47625
601,0.05047,0.46727,1.47311,-0.02833,0.54571,0.08281,0.29062,0.1558,0.14755,-0.00195,0.52872,0.49908,0.26367,0.44463,0.44766,0.04052,0.34102,0.88907,0.20079,0.3949,0.87493,0.00464,0.31353,1.44486,0.15725,0.60618,1.43432,-0.10752,0.31744,1.1774,0.19256,0.83549,1.26335,-0.0661,0.49915,1.36271,0.06687,0.92273,1.46886
602,0.04712,0.47075,1.46907,-0.02698,0.54583,0.08175,0.29102,0.15906,0.149,-0.00146,0.53323,0.49824,0.26243,0.45133,0.44562,0.04142,0.34125,0.88609,0.20107,0.3971,0.87255,0.00042,0.31584,1.44103,0.15461,0.60765,1.42962,-0.11118,0.31934,1.17333,0.19096,0.83352,1.25435,-0.06985,0.50159,1.35814,0.07137,0.92595,1.46124
603,0.04376,0.47398,1.46485,-0.02601,0.5458,0.08093,0.29103,0.16238,0.15014,-0.00121,0.53802,0.49757,0.26146,0.45779,0.44353,0.04226,0.34111,0.88288,0.20128,0.39886,0.87001,-0.00418,0.31839,1.4373,0.15229,0.60919,1.42477,-0.11497,0.3222,1.16928,0.18928,0.83193,1.24566,-0.07351,0.50431,1.35419,0.07488,0.92897,1.45338
604,0.04033,0.47648,1.4606,-0.02529,0.54587,0.08026,0.29073,0.16564,0.15078,-0.00113,0.5426,0.49701,0.26062,0.46383,0.44129,0.04292,0.34085,0.87974,0.20137,0.40022,0.86723,-0.00918,0.3212,1.43355,0.15017,0.61065,1.41962,-0.11906,0.32563,1.16515,0.18806,0.83068,1.23738,-0.07685,0.50738,1.35026,0.07725,0.93139,1.44529
605,0.03693,0.47836,1.45636,-0.02479,0.54615,0.07961,0.29026,0.16872,0.15103,-0.00111,0.54686,0.49639,0.25975,0.46938,0.43894,0.04351,0.34078,0.87675,0.20151,0.40139,0.86435,-0.01431,0.32416,1.42959,0.14821,0.61185,1.41405,-0.12348,0.32888,1.16092,0.18753,0.8297,1.2295,-0.07984,0.5107,1.34562,0.0787,0.93321,1.43709
606,0.03369,0.47997,1.45218,-0.02451,0.54641,0.07889,0.28989,0.1715,0.15119,-0.00095,0.55094,0.49565,0.25893,0.47442,0.43666,0.04413,0.34098,0.87382,0.20179,0.40249,0.86157,-0.01915,0.32705,1.42534,0.14649,0.61259,1.40822,-0.12806,0.33143,1.15655,0.18739,0.82876,1.22206,-0.08261,0.51372,1.34035,0.07964,0.93458,1.42904
607,0.03069,0.48153,1.4482,-0.02435,0.54639,0.07813,0.2898,0.1738,0.15148,-0.00053,0.55487,0.49482,0.25835,0.47888,0.43461,0.04464,0.34123,0.8709,0.20204,0.40348,0.85902,-0.02339,0.32951,1.42087,0.14492,0.61299,1.40258,-0.13247,0.33334,1.15214,0.18727,0.82771,1.21507,-0.08531,0.51589,1.33525,0.08044,0.93561,1.42145
608,0.02793,0.48305,1.44461,-0.02426,0.54613,0.07744,0.28998,0.17543,0.15198,0.00017,0.55851,0.49399,0.25807,0.48261,0.43276,0.04483,0.34138,0.86814,0.20199,0.40431,0.85668,-0.02697,0.33123,1.41641,0.14312,0.61349,1.3976,-0.13645,0.33508,1.14784,0.18715,0.8265,1.20853,-0.08803,0.51728,1.33097,0.0813,0.93618,1.41448
609,0.02542,0.48461,1.44143,-0.02426,0.54583,0.07686,0.29027,0.1763,0.15258,0.00099,0.56171,0.49325,0.25794,0.48555,0.43104,0.04463,0.34149,0.8657,0.20159,0.40494,0.85449,-0.0301,0.33233,1.41218,0.1408,0.61442,1.39354,-0.13987,0.337,1.14374,0.18724,0.82506,1.20241,-0.09078,0.51836,1.32753,0.08218,0.93617,1.408
610,0.02323,0.48638,1.43852,-0.02445,0.54564,0.07641,0.29063,0.17665,0.15315,0.00169,0.56439,0.49263,0.25786,0.48773,0.4295,0.04413,0.34166,0.86373,0.20101,0.40534,0.85254,-0.03317,0.33341,1.40841,0.13822,0.61558,1.3903,-0.14267,0.33912,1.13989,0.18746,0.82341,1.19681,-0.09352,0.51961,1.3245,0.08278,0.9358,1.40189
611,0.02137,0.48837,1.4358,-0.02478,0.54561,0.0761,0.29113,0.17673,0.15361,0.00203,0.56644,0.49218,0.25784,0.48928,0.42824,0.04346,0.34189,0.86229,0.20035,0.4055,0.85092,-0.03651,0.33503,1.40533,0.13596,0.61653,1.38747,-0.14487,0.3412,1.13635,0.18746,0.82188,1.19193,-0.09617,0.52146,1.32132,0.08279,0.93551,1.39633
612,0.01958,0.49041,1.43335,-0.02505,0.54579,0.07593,0.29192,0.17668,0.15396,0.0019,0.56783,0.49193,0.25797,0.49027,0.42732,0.04265,0.34206,0.86138,0.1996,0.40547,0.84968,-0.04007,0.33726,1.40295,0.13427,0.61717,1.38479,-0.14662,0.34309,1.13325,0.18694,0.8209,1.18786,-0.09863,0.52415,1.31762,0.08208,0.93554,1.39161
613,0.01754,0.49229,1.43125,-0.02507,0.54612,0.07584,0.29299,0.17649,0.15413,0.00145,0.56869,0.49184,0.2583,0.49072,0.42667,0.04175,0.34216,0.86087,0.19878,0.40527,0.84873,-0.04352,0.33976,1.40102,0.13294,0.61784,1.38237,-0.14806,0.34477,1.13051,0.18593,0.82054,1.18448,-0.10086,0.52745,1.31349,0.08082,0.93574,1.38778
614,0.01513,0.49395,1.42956,-0.02488,0.54645,0.07578,0.29414,0.17619,0.1541,0.00107,0.56925,0.49181,0.2588,0.49068,0.42625,0.04085,0.34218,0.86056,0.19804,0.40485,0.84805,-0.04658,0.34207,1.39923,0.13172,0.61887,1.38045,-0.14917,0.34627,1.12796,0.1846,0.82059,1.18152,-0.10294,0.53084,1.30927,0.07922,0.93592,1.38461
615,0.01255,0.49549,1.42826,-0.02465,0.54664,0.07577,0.29514,0.17576,0.15396,0.00107,0.56972,0.4918,0.25943,0.49024,0.42607,0.04009,0.34205,0.86026,0.19747,0.40419,0.84766,-0.04921,0.34382,1.3975,0.13047,0.62032,1.37899,-0.14975,0.34765,1.12546,0.18315,0.82093,1.17889,-0.10497,0.53397,1.30534,0.07743,0.936,1.38195
616,0.01008,0.49704,1.42727,-0.02449,0.5466,0.07586,0.29586,0.17521,0.15378,0.00144,0.57022,0.49184,0.26012,0.48952,0.42608,0.03942,0.34175,0.85992,0.197,0.40343,0.84749,-0.05147,0.34494,1.39587,0.12911,0.622,1.37781,-0.1497,0.34924,1.12299,0.1818,0.82159,1.17669,-0.10675,0.53679,1.30204,0.07559,0.93596,1.37988
617,0.00783,0.4986,1.4266,-0.02439,0.54647,0.07606,0.29631,0.17453,0.15359,0.00192,0.57079,0.49198,0.26071,0.48863,0.42615,0.03875,0.34143,0.85962,0.19646,0.40283,0.84745,-0.05359,0.34585,1.39439,0.12759,0.62362,1.37682,-0.14913,0.35143,1.12059,0.18065,0.8225,1.1751,-0.10776,0.5393,1.29968,0.07375,0.93588,1.37849
618,0.00583,0.49987,1.42633,-0.02429,0.54649,0.07628,0.29657,0.17372,0.15346,0.00231,0.57127,0.49215,0.26107,0.48768,0.4262,0.03798,0.3413,0.85952,0.1958,0.40243,0.84745,-0.05575,0.34702,1.39317,0.12611,0.62496,1.37609,-0.14836,0.35415,1.11839,0.17964,0.82353,1.17419,-0.10786,0.54146,1.29826,0.07182,0.93584,1.37769
619,0.0041,0.50067,1.42651,-0.02419,0.54671,0.07633,0.2967,0.17288,0.15334,0.00258,0.57133,0.4922,0.26133,0.4867,0.42627,0.03708,0.34135,0.85969,0.1951,0.40194,0.84747,-0.0579,0.34846,1.39231,0.12505,0.6259,1.37568,-0.14786,0.3568,1.11669,0.17853,0.82459,1.17388,-0.1076,0.54334,1.29741,0.06972,0.93585,1.37742
620,0.00275,0.5012,1.42706,-0.02414,0.5469,0.07612,0.29669,0.17219,0.15307,0.0028,0.57073,0.49202,0.26181,0.48562,0.42651,0.03614,0.34136,0.86,0.19447,0.40108,0.84758,-0.05987,0.34985,1.39183,0.12474,0.62645,1.37561,-0.14805,0.35901,1.11566,0.17717,0.82558,1.17397,-0.10771,0.5452,1.29673,0.06752,0.93561,1.37773
621,0.00188,0.502,1.42775,-0.02415,0.54681,0.07566,0.2965,0.17172,0.1526,0.00306,0.56958,0.49161,0.26264,0.48435,0.42707,0.03528,0.34117,0.86028,0.19396,0.39999,0.84796,-0.06167,0.35095,1.39159,0.12521,0.62668,1.37588,-0.149,0.36097,1.11518,0.17563,0.82638,1.1743,-0.10849,0.54729,1.29608,0.0654,0.93473,1.37866
622,0.00153,0.50341,1.42836,-0.02416,0.54637,0.07511,0.29604,0.17135,0.15213,0.00339,0.56827,0.49108,0.26365,0.48301,0.42788,0.03457,0.3408,0.86042,0.19346,0.39914,0.84862,-0.06352,0.35194,1.3914,0.1262,0.6266,1.37641,-0.15044,0.36304,1.11491,0.17405,0.82691,1.1748,-0.10951,0.54951,1.29555,0.06363,0.93309,1.38018
623,0.00149,0.50526,1.42886,-0.02413,0.54576,0.07456,0.29526,0.17096,0.15189,0.00371,0.567,0.49055,0.26449,0.48179,0.42876,0.03384,0.34048,0.86055,0.19282,0.39872,0.8494,-0.06572,0.35322,1.39121,0.12728,0.62627,1.37697,-0.15206,0.36535,1.11457,0.17257,0.82725,1.17543,-0.11013,0.55155,1.29526,0.06241,0.93102,1.38218
624,0.00139,0.50703,1.42928,-0.02413,0.54521,0.0741,0.29416,0.17052,0.15193,0.00386,0.56571,0.49011,0.26491,0.48079,0.42959,0.0329,0.34043,0.86096,0.19201,0.39838,0.85015,-0.06842,0.35512,1.39107,0.12803,0.62594,1.37739,-0.15367,0.36787,1.11413,0.17121,0.82769,1.17616,-0.11027,0.55321,1.29536,0.0617,0.929,1.38447
625,0.00097,0.50851,1.42967,-0.02414,0.54486,0.07381,0.29284,0.17006,0.15214,0.00367,0.5643,0.48988,0.26483,0.47991,0.4304,0.03176,0.34068,0.86181,0.19119,0.39772,0.85088,-0.07136,0.35759,1.391,0.12832,0.62593,1.37764,-0.15531,0.37072,1.11367,0.17002,0.82852,1.17694,-0.11051,0.5546,1.29604,0.06134,0.92722,1.38693
626,0.00028,0.50975,1.4301,-0.02407,0.5447,0.07372,0.29153,0.16968,0.15238,0.00313,0.56285,0.4899,0.26438,0.47903,0.43128,0.0306,0.341,0.86292,0.19045,0.39679,0.8517,-0.07398,0.36003,1.39089,0.12834,0.62631,1.37777,-0.15702,0.37395,1.11333,0.16907,0.82971,1.17771,-0.11144,0.55599,1.29734,0.06127,0.92553,1.38948
627,-0.00048,0.51079,1.43066,-0.02398,0.54467,0.07377,0.2904,0.16943,0.15251,0.00233,0.56157,0.49006,0.26383,0.47813,0.43218,0.02959,0.34115,0.86395,0.18974,0.39602,0.8526,-0.07615,0.36179,1.39069,0.12841,0.62676,1.37789,-0.15865,0.37723,1.11305,0.16837,0.83087,1.17838,-0.11303,0.55734,1.29895,0.06157,0.92364,1.39201
628,-0.00117,0.51153,1.43134,-0.02411,0.54462,0.07384,0.28951,0.16922,0.15244,0.00138,0.56062,0.49022,0.26347,0.4772,0.43295,0.02872,0.34111,0.86464,0.18899,0.39566,0.85341,-0.07818,0.36279,1.3904,0.12877,0.6269,1.378,-0.16002,0.38018,1.11269,0.16792,0.83156,1.17891,-0.11475,0.55852,1.30036,0.06218,0.92149,1.39427
629,-0.0019,0.5119,1.43204,-0.02461,0.54437,0.07393,0.28887,0.16894,0.15221,0.00038,0.56008,0.49035,0.26342,0.47626,0.43351,0.02781,0.34107,0.86505,0.18815,0.39546,0.85397,-0.08026,0.36341,1.39006,0.12952,0.62651,1.37808,-0.16129,0.38302,1.11225,0.16769,0.83162,1.17926,-0.11641,0.55997,1.30133,0.06286,0.91924,1.39602
630,-0.00275,0.51188,1.43261,-0.02537,0.54394,0.07409,0.28836,0.16864,0.15192,-0.00065,0.55989,0.49051,0.26352,0.4754,0.43387,0.02667,0.34113,0.86537,0.18715,0.39509,0.85423,-0.08227,0.36401,1.38971,0.13064,0.62563,1.37804,-0.1628,0.38634,1.11196,0.16754,0.83116,1.17942,-0.11836,0.56248,1.30191,0.06347,0.91718,1.39717
631,-0.00352,0.51157,1.43307,-0.02612,0.54356,0.07432,0.28788,0.16836,0.15172,-0.00168,0.55989,0.49074,0.26344,0.4747,0.43417,0.02534,0.3412,0.86567,0.18601,0.39455,0.85436,-0.08413,0.36467,1.3893,0.13202,0.62445,1.37782,-0.16465,0.39036,1.11184,0.16735,0.83038,1.17931,-0.12084,0.56619,1.30221,0.0641,0.91545,1.39783
632,-0.00392,0.51111,1.43358,-0.02666,0.54342,0.07455,0.28746,0.16812,0.15175,-0.00268,0.55997,0.49099,0.26305,0.47418,0.4345,0.02408,0.34116,0.86587,0.1849,0.39407,0.85457,-0.08602,0.36538,1.38865,0.1334,0.6232,1.37748,-0.16657,0.39467,1.11155,0.16722,0.82938,1.17898,-0.12367,0.57031,1.30231,0.06492,0.914,1.39812
633,-0.00401,0.51059,1.43419,-0.02696,0.54345,0.07471,0.28723,0.16796,0.15199,-0.00369,0.56016,0.49118,0.2625,0.47386,0.43489,0.02309,0.34106,0.86588,0.18398,0.39382,0.8549,-0.08807,0.36617,1.38768,0.13461,0.62199,1.37725,-0.1683,0.39882,1.11086,0.16751,0.82803,1.17844,-0.12652,0.5741,1.3022,0.06606,0.91261,1.398
634,-0.00406,0.51013,1.43479,-0.02709,0.54347,0.07482,0.28719,0.16796,0.15229,-0.00488,0.5606,0.49133,0.26196,0.4738,0.43522,0.02237,0.34103,0.86573,0.1833,0.39377,0.85521,-0.09023,0.367,1.38654,0.13564,0.62088,1.37724,-0.16979,0.40262,1.1099,0.1684,0.8262,1.17767,-0.12909,0.57766,1.30169,0.06746,0.91112,1.39732
635,-0.00424,0.50978,1.43518,-0.02717,0.54337,0.0749,0.28726,0.16815,0.15251,-0.00634,0.56141,0.49145,0.2615,0.47399,0.43538,0.02177,0.34116,0.86538,0.18277,0.39377,0.85532,-0.09249,0.36762,1.38546,0.13649,0.6199,1.37735,-0.17103,0.40614,1.10891,0.1697,0.82398,1.17658,-0.13113,0.58155,1.30053,0.06885,0.90955,1.39602
636,-0.0045,0.50955,1.43531,-0.02732,0.5432,0.07496,0.28738,0.16841,0.15256,-0.00793,0.56266,0.49152,0.26104,0.47434,0.43528,0.02114,0.34135,0.86474,0.18223,0.39375,0.85513,-0.09494,0.36793,1.38455,0.13717,0.61907,1.37723,-0.1718,0.40935,1.10795,0.17102,0.82171,1.17512,-0.13273,0.58576,1.29882,0.0698,0.90806,1.39408
637,-0.00478,0.50932,1.43515,-0.02751,0.54303,0.07498,0.28747,0.16865,0.15251,-0.00929,0.56425,0.4915,0.26055,0.47483,0.4349,0.02037,0.3414,0.86377,0.18155,0.39364,0.8546,-0.09761,0.36815,1.38374,0.13765,0.61825,1.37656,-0.17199,0.41212,1.10686,0.17216,0.81962,1.17329,-0.13446,0.58965,1.29699,0.07017,0.90684,1.39155
638,-0.00525,0.50887,1.43471,-0.02766,0.54288,0.07495,0.2875,0.16889,0.15255,-0.01028,0.56585,0.49141,0.26006,0.47553,0.43439,0.0194,0.34127,0.86263,0.18064,0.39337,0.85382,-0.10023,0.36855,1.38272,0.13799,0.61725,1.3752,-0.1719,0.41449,1.10545,0.17314,0.81766,1.17108,-0.13677,0.59293,1.29519,0.07019,0.90583,1.38851
639,-0.00609,0.50801,1.43413,-0.02769,0.54269,0.07483,0.28743,0.16924,0.15278,-0.01107,0.56716,0.49124,0.25972,0.47653,0.4339,0.01823,0.34105,0.86156,0.17956,0.39291,0.8529,-0.1023,0.36901,1.38111,0.13832,0.61603,1.3733,-0.1721,0.41704,1.10371,0.17399,0.81564,1.1685,-0.13949,0.5964,1.29303,0.07023,0.90466,1.3852
640,-0.00723,0.50673,1.43361,-0.02759,0.54246,0.07458,0.28726,0.16976,0.15312,-0.01189,0.56819,0.49094,0.25963,0.47776,0.43346,0.01698,0.34086,0.86056,0.1784,0.3924,0.85191,-0.10356,0.36928,1.37888,0.13865,0.61464,1.37119,-0.17279,0.42026,1.10186,0.17475,0.81336,1.1656,-0.14205,0.601,1.29018,0.07053,0.90298,1.38184
641,-0.00833,0.50537,1.43326,-0.02733,0.54231,0.0742,0.28703,0.17032,0.15335,-0.01275,0.56927,0.49054,0.25977,0.47904,0.43293,0.01573,0.34079,0.85947,0.17727,0.39196,0.85078,-0.10436,0.36925,1.37643,0.13891,0.61314,1.36907,-0.17368,0.42375,1.10012,0.17564,0.81064,1.16241,-0.14401,0.60636,1.28681,0.07119,0.90073,1.37834
642,-0.0091,0.50438,1.43287,-0.02701,0.54231,0.07383,0.28677,0.17087,0.15333,-0.01348,0.57074,0.49009,0.25997,0.48031,0.43217,0.0145,0.34091,0.85822,0.17617,0.39164,0.84942,-0.10531,0.36909,1.3742,0.13905,0.61151,1.36689,-0.17432,0.42652,1.09839,0.17694,0.80736,1.15889,-0.14541,0.61103,1.28331,0.0722,0.89797,1.37445
643,-0.0095,0.50394,1.43201,-0.02687,0.54242,0.07351,0.28645,0.17136,0.15325,-0.01405,0.57264,0.48968,0.26003,0.48163,0.43119,0.0133,0.34118,0.85683,0.17515,0.39134,0.84788,-0.1068,0.36917,1.37218,0.1391,0.60985,1.36457,-0.17468,0.4281,1.09641,0.1787,0.80369,1.155,-0.14665,0.61415,1.27992,0.07348,0.89457,1.37021
644,-0.00977,0.50382,1.43045,-0.02703,0.54253,0.0733,0.28618,0.17175,0.15341,-0.01462,0.57494,0.48932,0.25987,0.48314,0.43011,0.01221,0.34153,0.85527,0.17427,0.39096,0.84623,-0.10862,0.36966,1.36999,0.13903,0.60847,1.36208,-0.17493,0.42901,1.09394,0.18073,0.79999,1.1508,-0.14829,0.616,1.2767,0.07493,0.89019,1.36602
645,-0.01016,0.50363,1.42842,-0.02737,0.54267,0.07326,0.28603,0.17203,0.15389,-0.01527,0.57759,0.48908,0.25953,0.48487,0.42893,0.01124,0.3418,0.85353,0.17353,0.39049,0.84447,-0.11016,0.37037,1.36727,0.13879,0.60766,1.35953,-0.17519,0.42996,1.09096,0.1828,0.79656,1.14637,-0.15053,0.61729,1.27365,0.0764,0.88462,1.36217
646,-0.01075,0.50327,1.42632,-0.02764,0.54291,0.07338,0.28594,0.17233,0.15437,-0.01591,0.58042,0.48898,0.2592,0.48672,0.42761,0.01037,0.34187,0.85165,0.17281,0.39005,0.84254,-0.11108,0.3709,1.36408,0.1385,0.60723,1.35687,-0.17538,0.43122,1.08775,0.18476,0.79336,1.14176,-0.15308,0.61848,1.27082,0.07765,0.87801,1.35857
647,-0.01138,0.5031,1.42432,-0.02774,0.54326,0.07351,0.28572,0.17271,0.15456,-0.01644,0.58323,0.4889,0.25903,0.48854,0.42614,0.00957,0.34175,0.84964,0.17206,0.38973,0.84045,-0.11166,0.37108,1.36089,0.13834,0.60653,1.35377,-0.17545,0.4328,1.08475,0.18661,0.7903,1.13707,-0.15536,0.61998,1.26816,0.07848,0.87084,1.35494
648,-0.0119,0.50337,1.42231,-0.02772,0.54364,0.07353,0.28538,0.17314,0.15443,-0.01686,0.58603,0.48869,0.25894,0.49022,0.42457,0.00881,0.3416,0.84746,0.17135,0.38943,0.83827,-0.11246,0.37097,1.35799,0.13843,0.6051,1.34996,-0.17548,0.43469,1.08214,0.18844,0.78732,1.13234,-0.15709,0.62198,1.2656,0.07895,0.86362,1.35106
649,-0.01243,0.50379,1.42015,-0.02757,0.54397,0.07342,0.28514,0.1735,0.15409,-0.01721,0.58893,0.48832,0.25871,0.49166,0.42297,0.00808,0.34159,0.84512,0.17076,0.38897,0.83613,-0.11369,0.37084,1.35528,0.13866,0.6032,1.34578,-0.17555,0.43672,1.07967,0.19033,0.78415,1.1275,-0.1585,0.6241,1.26319,0.07951,0.85649,1.34689
650,-0.0132,0.50392,1.41783,-0.02725,0.54423,0.07327,0.28517,0.17372,0.15372,-0.01754,0.592,0.48787,0.25821,0.49282,0.42143,0.00731,0.34172,0.84266,0.17023,0.38834,0.83413,-0.11524,0.37112,1.35264,0.13887,0.60136,1.3419,-0.17562,0.43863,1.07709,0.19234,0.78042,1.1225,-0.16,0.62565,1.2611,0.08063,0.84919,1.34259
651,-0.01419,0.50367,1.41533,-0.0268,0.54441,0.07317,0.28534,0.1738,0.1534,-0.01791,0.59521,0.48743,0.25757,0.4938,0.41995,0.00648,0.34201,0.84016,0.16967,0.38779,0.83228,-0.11695,0.3722,1.35016,0.13901,0.59975,1.33859,-0.17567,0.44034,1.07441,0.19447,0.7762,1.11757,-0.1615,0.62653,1.25937,0.08229,0.84149,1.33848
652,-0.01512,0.50341,1.41273,-0.02637,0.54451,0.07316,0.2853,0.17371,0.15309,-0.01839,0.59845,0.48704,0.25695,0.49458,0.41852,0.00561,0.34248,0.8378,0.16905,0.38747,0.83057,-0.11871,0.37398,1.34798,0.1391,0.59819,1.33555,-0.17574,0.44193,1.07184,0.19667,0.77202,1.113,-0.16264,0.62721,1.25778,0.08397,0.83354,1.33472
653,-0.01576,0.50346,1.41023,-0.02608,0.54463,0.07326,0.28493,0.17343,0.15265,-0.01889,0.60145,0.48677,0.25638,0.4951,0.4171,0.00477,0.34303,0.83574,0.16842,0.38731,0.82896,-0.12028,0.37589,1.34611,0.13919,0.59644,1.33244,-0.17591,0.44344,1.06958,0.19889,0.76831,1.10894,-0.16336,0.62803,1.25626,0.08532,0.82575,1.33131
654,-0.01623,0.5037,1.40803,-0.02593,0.5449,0.07341,0.28443,0.17297,0.15212,-0.01926,0.60404,0.4866,0.2559,0.49538,0.41567,0.00397,0.34349,0.83402,0.16783,0.38703,0.82736,-0.12147,0.37749,1.34447,0.13938,0.59437,1.32933,-0.17623,0.44475,1.06769,0.20103,0.76504,1.10544,-0.16393,0.62881,1.25491,0.08643,0.81853,1.32827
655,-0.01673,0.50374,1.4062,-0.02589,0.54534,0.07351,0.28391,0.17241,0.15158,-0.01947,0.60616,0.48646,0.25559,0.49551,0.4143,0.00324,0.34383,0.83257,0.16733,0.38646,0.82576,-0.12249,0.37852,1.34293,0.13966,0.59205,1.3265,-0.17676,0.44581,1.06606,0.20297,0.76211,1.1026,-0.16448,0.62919,1.25395,0.0874,0.8122,1.32572
656,-0.01731,0.50343,1.4047,-0.02598,0.54575,0.07346,0.28333,0.17174,0.15102,-0.01967,0.60775,0.48624,0.25542,0.49539,0.41311,0.00258,0.34407,0.83135,0.16692,0.3857,0.82435,-0.12378,0.37882,1.34132,0.13983,0.58976,1.32419,-0.17756,0.4467,1.0645,0.2046,0.75958,1.10052,-0.16519,0.62891,1.25352,0.0881,0.80691,1.32376
657,-0.01783,0.50307,1.40349,-0.02624,0.54592,0.07332,0.2827,0.1709,0.15038,-0.01996,0.6087,0.48598,0.25529,0.4948,0.41221,0.00197,0.34416,0.83045,0.16651,0.38498,0.82336,-0.12548,0.37866,1.33957,0.13983,0.58776,1.3226,-0.17852,0.44746,1.06284,0.20598,0.75735,1.09917,-0.16631,0.62786,1.25358,0.08854,0.80245,1.32238
658,-0.01822,0.50291,1.40266,-0.0265,0.5459,0.07319,0.28218,0.16981,0.14966,-0.02029,0.6091,0.48579,0.25516,0.49361,0.41166,0.00137,0.34415,0.82997,0.16603,0.38448,0.82292,-0.12738,0.37873,1.33798,0.13983,0.58613,1.32177,-0.17944,0.44823,1.06124,0.20722,0.75521,1.09832,-0.1679,0.62638,1.25412,0.089,0.79839,1.32149
659,-0.01859,0.50289,1.40225,-0.02652,0.54582,0.07318,0.28193,0.16853,0.14891,-0.02059,0.6092,0.48575,0.255,0.49191,0.41143,0.00077,0.34421,0.82991,0.16552,0.3842,0.82297,-0.12914,0.37928,1.33708,0.13994,0.5849,1.32153,-0.18013,0.44935,1.06028,0.2083,0.75314,1.09774,-0.16958,0.62529,1.25525,0.08965,0.79452,1.32103
660,-0.01909,0.50276,1.40225,-0.02623,0.54573,0.07329,0.28205,0.16721,0.1481,-0.02085,0.60925,0.48585,0.25476,0.48991,0.41142,0.00021,0.34446,0.83018,0.16507,0.38404,0.8234,-0.13047,0.37996,1.33709,0.14002,0.58411,1.32163,-0.18056,0.45095,1.06036,0.20904,0.7514,1.09733,-0.17075,0.62529,1.25679,0.09045,0.79107,1.32096
661,-0.01985,0.50225,1.40266,-0.02579,0.54558,0.07349,0.28263,0.16598,0.14728,-0.02109,0.60924,0.48603,0.25436,0.48782,0.41156,-0.00026,0.34482,0.83066,0.1647,0.38399,0.82407,-0.13117,0.3804,1.33774,0.13984,0.58359,1.32198,-0.18077,0.45262,1.06124,0.20939,0.75013,1.09729,-0.1712,0.62629,1.25828,0.09115,0.78854,1.32132
662,-0.02076,0.50145,1.40358,-0.02541,0.5454,0.07368,0.28358,0.16486,0.14664,-0.02129,0.60902,0.48624,0.25383,0.48578,0.41187,-0.00064,0.34513,0.83129,0.16437,0.38415,0.82496,-0.13137,0.38075,1.3386,0.13942,0.583,1.32269,-0.18082,0.45407,1.06236,0.20956,0.74916,1.0979,-0.17123,0.6276,1.25953,0.09152,0.78724,1.3221
663,-0.02151,0.50075,1.40513,-0.02519,0.54523,0.07381,0.28474,0.1637,0.14628,-0.02145,0.6085,0.48643,0.25328,0.48373,0.41239,-0.00094,0.34538,0.83208,0.16405,0.38452,0.82613,-0.13159,0.38132,1.33943,0.139,0.58217,1.32385,-0.18078,0.45546,1.06337,0.21001,0.7482,1.09923,-0.17132,0.62863,1.26085,0.09163,0.78704,1.32312
664,-0.02182,0.50044,1.40726,-0.02516,0.54504,0.07395,0.28594,0.1624,0.14615,-0.02157,0.60773,0.48666,0.25294,0.48144,0.41326,-0.00118,0.34566,0.83311,0.16381,0.38489,0.82764,-0.13226,0.38216,1.34022,0.13889,0.58125,1.32555,-0.1808,0.45708,1.06426,0.211,0.74698,1.10107,-0.17176,0.62931,1.26259,0.0918,0.78754,1.32422
665,-0.02185,0.50035,1.40983,-0.02541,0.54479,0.07419,0.28709,0.16098,0.14604,-0.02165,0.60673,0.48701,0.25291,0.47873,0.41452,-0.0014,0.34609,0.83455,0.16367,0.385,0.82953,-0.13339,0.38312,1.34121,0.13914,0.58033,1.32791,-0.18098,0.45891,1.06532,0.21236,0.74538,1.10328,-0.17252,0.62991,1.26474,0.09216,0.78825,1.32546
666,-0.02209,0.49994,1.41272,-0.02597,0.54455,0.07452,0.28811,0.15958,0.14584,-0.02176,0.60546,0.48749,0.25309,0.47567,0.41617,-0.00163,0.34672,0.83644,0.16362,0.38493,0.83179,-0.13464,0.38412,1.34271,0.13946,0.57924,1.33098,-0.18127,0.46055,1.06683,0.21364,0.74341,1.10602,-0.17339,0.63062,1.26706,0.09232,0.78896,1.32705
667,-0.02281,0.49889,1.41589,-0.02669,0.54435,0.07488,0.28887,0.15838,0.14553,-0.022,0.60398,0.48803,0.25326,0.47247,0.41811,-0.00182,0.34761,0.83873,0.16362,0.38502,0.8344,-0.13575,0.38506,1.34476,0.13952,0.57779,1.33468,-0.18138,0.46161,1.06875,0.2145,0.74129,1.10951,-0.17445,0.63117,1.26945,0.09174,0.78969,1.32913
668,-0.02383,0.49748,1.41928,-0.02739,0.54404,0.07527,0.28932,0.15734,0.14521,-0.0224,0.60236,0.4886,0.25325,0.46922,0.42025,-0.00192,0.34876,0.8413,0.16368,0.38553,0.83733,-0.13661,0.38563,1.34705,0.13943,0.576,1.33875,-0.1812,0.46213,1.07084,0.21491,0.73927,1.11357,-0.17602,0.63118,1.27202,0.09044,0.79045,1.33159
669,-0.02469,0.49634,1.42282,-0.02793,0.54342,0.0756,0.28957,0.1562,0.14498,-0.0229,0.6004,0.48912,0.25309,0.46576,0.42258,-0.00193,0.34999,0.84406,0.16376,0.38638,0.84056,-0.13709,0.38544,1.34929,0.13972,0.5741,1.34285,-0.18099,0.46253,1.07314,0.21518,0.73728,1.1176,-0.17787,0.63089,1.27494,0.08907,0.79103,1.33406
670,-0.02503,0.49583,1.42654,-0.02824,0.54252,0.07578,0.28967,0.15475,0.14479,-0.02341,0.59778,0.48953,0.25297,0.46184,0.42509,-0.00191,0.35105,0.847,0.16381,0.38736,0.844,-0.13709,0.38456,1.35156,0.14072,0.57232,1.34687,-0.18113,0.46323,1.07588,0.21573,0.73498,1.12109,-0.17931,0.63089,1.27827,0.08833,0.79118,1.33617
671,-0.02479,0.49564,1.43064,-0.02839,0.54166,0.07584,0.28956,0.15305,0.14454,-0.02389,0.59448,0.48992,0.25298,0.45744,0.42778,-0.00194,0.3518,0.85013,0.16377,0.38819,0.84757,-0.13677,0.38352,1.35409,0.14212,0.5708,1.35105,-0.18155,0.46423,1.07912,0.21681,0.73211,1.12421,-0.18007,0.63132,1.28199,0.08841,0.79087,1.33801
672,-0.0242,0.49524,1.43522,-0.02855,0.54116,0.07597,0.28921,0.15131,0.14424,-0.02428,0.59087,0.49043,0.25301,0.45276,0.43066,-0.002,0.35234,0.85338,0.16371,0.38871,0.85126,-0.13652,0.38286,1.35704,0.14319,0.5696,1.35582,-0.18192,0.46522,1.08266,0.21836,0.72876,1.12762,-0.18056,0.63178,1.28596,0.089,0.79022,1.34007
673,-0.02355,0.49453,1.44008,-0.02883,0.54106,0.07628,0.28869,0.14971,0.14396,-0.02456,0.58735,0.49114,0.25299,0.44799,0.43374,-0.00204,0.35294,0.85675,0.16375,0.38899,0.85509,-0.13662,0.38269,1.36038,0.14347,0.56867,1.36117,-0.18203,0.46607,1.08631,0.22009,0.72532,1.13171,-0.18128,0.63223,1.28995,0.08964,0.78937,1.34273
