PaulMeinheit/Bachelor_Muay_Thai/processed_Data/N1/teep/sliced/JointPositions/sliced4.csv
Unnamed: 0_level_0,Neck_Joint_Position,Neck_Joint_Position,Neck_Joint_Position,L_ANKLE_POSITION,L_ANKLE_POSITION,L_ANKLE_POSITION,R_ANKLE_POSITION,R_ANKLE_POSITION,R_ANKLE_POSITION,L_KNEE_POSITION,L_KNEE_POSITION,L_KNEE_POSITION,R_KNEE_POSITION,R_KNEE_POSITION,R_KNEE_POSITION,L_HIP_POSITION,L_HIP_POSITION,L_HIP_POSITION,R_HIP_POSITION,R_HIP_POSITION,R_HIP_POSITION,L_SHOULDER_POSITION,L_SHOULDER_POSITION,L_SHOULDER_POSITION,R_SHOULDER_POSITION,R_SHOULDER_POSITION,R_SHOULDER_POSITION,L_ELBOW_POSITION,L_ELBOW_POSITION,L_ELBOW_POSITION,R_ELBOW_POSITION,R_ELBOW_POSITION,R_ELBOW_POSITION,L_WRIST_POSITION,L_WRIST_POSITION,L_WRIST_POSITION,R_WRIST_POSITION,R_WRIST_POSITION,R_WRIST_POSITION
ITEM,X,Y,Z,X,Y,Z,X,Y,Z,X,Y,Z,X,Y,Z,X,Y,Z,X,Y,Z,X,Y,Z,X,Y,Z,X,Y,Z,X,Y,Z,X,Y,Z,X,Y,Z
2294,0.13197,0.37207,1.50212,0.00011,0.48789,0.08003,0.25507,0.09765,0.08041,0.04853,0.48983,0.49467,0.26457,0.22776,0.47689,0.07979,0.34003,0.90174,0.24702,0.3114,0.90313,-0.02553,0.33817,1.41719,0.30895,0.34457,1.43012,-0.04626,0.45752,1.15365,0.38105,0.43739,1.16697,0.0323,0.58665,1.36867,0.27688,0.55603,1.36876
2295,0.12967,0.37458,1.50186,-0.00021,0.48769,0.07971,0.25469,0.09839,0.08094,0.04764,0.49001,0.49441,0.26363,0.23093,0.47663,0.07824,0.34185,0.90213,0.24548,0.31322,0.90311,-0.02756,0.3409,1.41803,0.30671,0.34708,1.43029,-0.04737,0.46087,1.15471,0.37871,0.43951,1.16698,0.03228,0.58791,1.37057,0.27537,0.55814,1.36921
2296,0.12754,0.37695,1.50177,-0.00078,0.48749,0.0794,0.25449,0.09881,0.08162,0.04671,0.4904,0.49413,0.26284,0.23423,0.47634,0.07685,0.34367,0.90241,0.24407,0.31491,0.9031,-0.02947,0.34302,1.41878,0.30448,0.34944,1.43051,-0.04856,0.46423,1.15596,0.37617,0.44203,1.16717,0.03225,0.58958,1.37237,0.27344,0.5613,1.36933
2297,0.12528,0.37954,1.50171,-0.00141,0.48744,0.07913,0.25442,0.09909,0.08224,0.04595,0.49096,0.49387,0.26207,0.23754,0.47593,0.07548,0.34533,0.90258,0.24268,0.31643,0.903,-0.03163,0.34455,1.41905,0.30221,0.35213,1.43064,-0.04991,0.46746,1.15697,0.37368,0.44482,1.16728,0.03167,0.59053,1.3744,0.27129,0.56484,1.36918
2298,0.12265,0.38252,1.5015,-0.0018,0.48766,0.07893,0.25433,0.09959,0.0827,0.04539,0.49151,0.4937,0.26124,0.24061,0.47549,0.07396,0.34676,0.90279,0.24116,0.31788,0.90282,-0.03418,0.34598,1.41879,0.29994,0.35531,1.43069,-0.05144,0.47033,1.15732,0.3713,0.44767,1.16718,0.03065,0.59015,1.37637,0.26922,0.56785,1.36913
2299,0.11965,0.3857,1.50117,-0.00177,0.48802,0.07881,0.2541,0.10047,0.08312,0.04482,0.49194,0.49364,0.26028,0.24349,0.4752,0.07232,0.34806,0.90311,0.23956,0.31943,0.90273,-0.03697,0.3477,1.41833,0.29768,0.35869,1.43075,-0.05318,0.47267,1.15709,0.36895,0.45044,1.16701,0.02962,0.58897,1.37776,0.26722,0.57023,1.36936
2300,0.11647,0.38885,1.50089,-0.00148,0.48829,0.07873,0.25372,0.10163,0.08369,0.04403,0.49234,0.49368,0.25917,0.24653,0.47509,0.07066,0.34945,0.90355,0.23796,0.32117,0.90283,-0.03966,0.34977,1.41804,0.29538,0.36174,1.43094,-0.05509,0.47463,1.15669,0.36655,0.45323,1.16707,0.02845,0.58807,1.37857,0.26489,0.57286,1.36956
2301,0.11339,0.39181,1.50078,-0.00134,0.48841,0.07871,0.25326,0.1029,0.08446,0.04297,0.49285,0.49379,0.25801,0.25,0.47505,0.06895,0.35098,0.90406,0.2363,0.32304,0.90304,-0.04211,0.35212,1.41791,0.29298,0.36417,1.43131,-0.05705,0.47666,1.15638,0.36399,0.45609,1.16755,0.02655,0.58793,1.37934,0.26196,0.57649,1.3694
2302,0.11052,0.39449,1.5009,-0.00156,0.48855,0.07885,0.25286,0.10408,0.08538,0.04177,0.49353,0.49402,0.25694,0.25381,0.47498,0.06715,0.35247,0.90461,0.23457,0.32491,0.90326,-0.04437,0.35457,1.41774,0.29046,0.36625,1.43185,-0.05893,0.47917,1.15623,0.36131,0.45888,1.1683,0.02397,0.58837,1.38046,0.2588,0.58073,1.36903
2303,0.10779,0.39688,1.50123,-0.00203,0.48882,0.07909,0.25265,0.10502,0.08645,0.04062,0.49434,0.49433,0.25606,0.25768,0.47491,0.06535,0.3537,0.9051,0.23284,0.3266,0.9035,-0.04652,0.35688,1.41751,0.28787,0.36847,1.4325,-0.06068,0.48211,1.15627,0.35869,0.46128,1.169,0.02157,0.58925,1.38174,0.2562,0.58447,1.36892
2304,0.10515,0.39911,1.5016,-0.00254,0.48915,0.07928,0.25265,0.10566,0.08771,0.03969,0.49511,0.49455,0.25532,0.26148,0.47493,0.06364,0.35463,0.90542,0.23121,0.32804,0.90384,-0.04863,0.35906,1.41736,0.2853,0.37095,1.43312,-0.06246,0.48511,1.1565,0.3562,0.46318,1.16945,0.01991,0.5906,1.3827,0.25446,0.5873,1.36917
2305,0.10256,0.40141,1.50184,-0.00297,0.4894,0.07928,0.25287,0.10615,0.08917,0.03901,0.49568,0.49458,0.25464,0.26522,0.47506,0.06199,0.35541,0.90557,0.22964,0.32931,0.90431,-0.05073,0.36131,1.41747,0.28281,0.37343,1.43372,-0.06451,0.48784,1.15684,0.35373,0.46501,1.16982,0.01854,0.59238,1.38323,0.25268,0.59014,1.36927
2306,0.09986,0.40393,1.50186,-0.00328,0.48959,0.07914,0.25329,0.10668,0.09075,0.03842,0.496,0.49446,0.25397,0.26916,0.47523,0.06027,0.35622,0.90569,0.22799,0.3306,0.9048,-0.05284,0.36369,1.41797,0.28041,0.37573,1.43439,-0.06689,0.49024,1.15737,0.35113,0.46729,1.17043,0.01672,0.59451,1.38368,0.24983,0.59398,1.36876
2307,0.09685,0.40671,1.50177,-0.00341,0.48977,0.07899,0.25378,0.10743,0.09244,0.03776,0.49611,0.49436,0.25343,0.2737,0.47529,0.0584,0.35709,0.90591,0.22621,0.33201,0.90522,-0.05497,0.36605,1.41889,0.2781,0.3779,1.43518,-0.0693,0.49238,1.15819,0.34857,0.46989,1.1713,0.01425,0.59695,1.38439,0.24616,0.59844,1.36786
2308,0.09363,0.40963,1.5018,-0.00332,0.48991,0.07887,0.25422,0.10844,0.09433,0.03695,0.49601,0.49434,0.25315,0.27907,0.47526,0.0565,0.35792,0.90625,0.2244,0.33344,0.90561,-0.05718,0.36829,1.41993,0.27585,0.38008,1.436,-0.07128,0.49439,1.15911,0.34644,0.47205,1.17215,0.01154,0.59953,1.38531,0.24301,0.60213,1.36716
2309,0.09056,0.41246,1.50209,-0.00298,0.48986,0.07875,0.25459,0.10972,0.09647,0.03597,0.49546,0.49435,0.25321,0.28505,0.47526,0.05472,0.35878,0.90677,0.22269,0.33481,0.90604,-0.0595,0.37053,1.42057,0.27356,0.38242,1.43679,-0.07259,0.49655,1.15966,0.34493,0.47336,1.17279,0.00894,0.60204,1.38616,0.24112,0.6044,1.36696
2310,0.08796,0.41507,1.50262,-0.00249,0.4896,0.07861,0.2549,0.11127,0.09876,0.03474,0.49428,0.49438,0.25355,0.29125,0.47535,0.05308,0.35979,0.90754,0.2211,0.33615,0.90653,-0.06188,0.37287,1.42054,0.2712,0.38497,1.43765,-0.07347,0.49895,1.15959,0.34376,0.47414,1.17337,0.00629,0.60455,1.38667,0.23996,0.60585,1.36708
2311,0.08576,0.41747,1.50322,-0.00211,0.48924,0.07852,0.25518,0.11299,0.1011,0.03322,0.49266,0.49446,0.25399,0.29733,0.47558,0.05157,0.36088,0.90849,0.21962,0.33754,0.90707,-0.06416,0.37517,1.42009,0.26887,0.38763,1.43861,-0.07447,0.50125,1.15909,0.34244,0.47498,1.17401,0.00337,0.60732,1.38661,0.23869,0.6074,1.36727
2312,0.08362,0.41975,1.50372,-0.00213,0.48896,0.07858,0.25549,0.11479,0.10354,0.03139,0.4911,0.49469,0.25423,0.30313,0.47603,0.05009,0.3618,0.90948,0.21822,0.33898,0.90777,-0.06632,0.37736,1.41971,0.2666,0.39025,1.43956,-0.07601,0.5032,1.15856,0.34078,0.47633,1.17471,0.00049,0.61052,1.38596,0.23702,0.60943,1.36749
2313,0.08134,0.42205,1.50406,-0.00258,0.48889,0.07887,0.25589,0.11669,0.10611,0.02947,0.48997,0.49509,0.25417,0.30866,0.47673,0.04846,0.36243,0.91042,0.2167,0.34048,0.90867,-0.06852,0.37967,1.41969,0.26434,0.39286,1.44042,-0.07816,0.50498,1.15829,0.33893,0.47826,1.17546,-0.00199,0.61406,1.38495,0.23495,0.61187,1.36777
2314,0.07897,0.4245,1.50429,-0.00325,0.4889,0.07926,0.2564,0.11877,0.10879,0.02774,0.48916,0.49556,0.25411,0.31414,0.47762,0.04655,0.36287,0.91128,0.21493,0.34199,0.90968,-0.07082,0.38249,1.42007,0.26222,0.39552,1.4413,-0.08084,0.50679,1.15821,0.33713,0.48043,1.17627,-0.00417,0.61778,1.38377,0.23259,0.61433,1.36808
2315,0.07663,0.42711,1.50452,-0.00394,0.48875,0.0795,0.257,0.12103,0.1115,0.02644,0.48833,0.49585,0.25452,0.3198,0.47852,0.0445,0.36327,0.91198,0.21298,0.34327,0.91061,-0.07319,0.38576,1.42075,0.26034,0.39809,1.44226,-0.08385,0.50837,1.15811,0.33555,0.48226,1.17708,-0.00632,0.62152,1.38231,0.23027,0.61635,1.36835
2316,0.07443,0.42979,1.5048,-0.00459,0.48831,0.07944,0.25767,0.12345,0.11418,0.02552,0.4873,0.4958,0.2556,0.32566,0.47932,0.04259,0.36372,0.91241,0.21112,0.34412,0.91137,-0.07556,0.389,1.42163,0.25853,0.40031,1.44324,-0.08689,0.50948,1.15803,0.33427,0.48335,1.17786,-0.0083,0.62536,1.38046,0.22814,0.61762,1.36853
2317,0.07253,0.43244,1.50505,-0.0051,0.48776,0.07912,0.2584,0.12601,0.11683,0.02476,0.48628,0.4955,0.25713,0.33162,0.48007,0.04101,0.36419,0.91258,0.20955,0.34461,0.91198,-0.07786,0.39179,1.42248,0.25651,0.40223,1.44419,-0.08952,0.51063,1.15816,0.3332,0.48382,1.17863,-0.00984,0.62965,1.37853,0.22604,0.61822,1.36863
2318,0.071,0.43505,1.50524,-0.00537,0.48743,0.07878,0.25926,0.12862,0.11955,0.0239,0.48555,0.4952,0.25874,0.33768,0.48081,0.0397,0.36455,0.91262,0.20825,0.345,0.91253,-0.07999,0.39418,1.42277,0.2543,0.40415,1.44515,-0.09128,0.51285,1.15835,0.33205,0.48416,1.17942,-0.01103,0.63461,1.377,0.22386,0.61855,1.36883
2319,0.06958,0.43764,1.50543,-0.00538,0.4875,0.07854,0.26018,0.13122,0.12234,0.02286,0.48516,0.49504,0.26021,0.34382,0.48153,0.03847,0.36475,0.91263,0.20706,0.34555,0.91299,-0.08198,0.39651,1.42216,0.25205,0.40613,1.44614,-0.09219,0.5164,1.15825,0.33059,0.48486,1.18026,-0.01229,0.63989,1.37607,0.22185,0.61923,1.36939
2320,0.06788,0.44018,1.50566,-0.00525,0.48779,0.07838,0.26097,0.13386,0.12507,0.02175,0.48481,0.49495,0.2616,0.34989,0.48221,0.03726,0.36502,0.91272,0.2059,0.34629,0.91333,-0.08391,0.39892,1.42111,0.24974,0.40793,1.4471,-0.09285,0.52036,1.15785,0.32885,0.48615,1.18123,-0.01384,0.64495,1.37536,0.22015,0.62055,1.37036
2321,0.0657,0.44257,1.50587,-0.00515,0.48791,0.07822,0.26153,0.13662,0.12759,0.02067,0.48414,0.49486,0.26303,0.35568,0.48288,0.0361,0.36569,0.91302,0.20476,0.3471,0.91359,-0.08582,0.40118,1.42028,0.24735,0.40945,1.44794,-0.0938,0.52355,1.15743,0.3271,0.48782,1.18232,-0.0155,0.64965,1.37433,0.21857,0.62223,1.37154
2322,0.06332,0.44478,1.50594,-0.00515,0.48765,0.07808,0.26203,0.13943,0.12989,0.01965,0.48306,0.49477,0.26461,0.36106,0.48357,0.035,0.36677,0.91354,0.20362,0.34785,0.91379,-0.0877,0.40302,1.41988,0.24507,0.41098,1.44862,-0.09509,0.52561,1.15712,0.32559,0.48947,1.18326,-0.01691,0.65395,1.37275,0.21713,0.62367,1.37266
2323,0.06121,0.44685,1.50578,-0.00525,0.48718,0.07795,0.26267,0.14213,0.13206,0.01863,0.48179,0.49469,0.26631,0.36605,0.48429,0.03383,0.36793,0.91413,0.20239,0.34851,0.91393,-0.0895,0.40446,1.41974,0.24319,0.41288,1.44901,-0.09659,0.52696,1.15692,0.32442,0.49098,1.18375,-0.01794,0.65772,1.37092,0.21605,0.62453,1.37367
2324,0.05965,0.44889,1.50546,-0.00553,0.48681,0.07778,0.2635,0.14468,0.13413,0.01768,0.48055,0.49454,0.26812,0.37069,0.48501,0.03252,0.36884,0.91457,0.20104,0.34907,0.91398,-0.09103,0.40588,1.41964,0.24179,0.41495,1.44907,-0.09817,0.52836,1.15682,0.32352,0.49258,1.18383,-0.01881,0.66107,1.36934,0.2153,0.62495,1.37466
2325,0.05857,0.45092,1.5051,-0.0061,0.48666,0.07749,0.26443,0.14717,0.13622,0.01687,0.47951,0.49425,0.26999,0.3752,0.48578,0.03116,0.36941,0.91472,0.19966,0.34943,0.914,-0.09214,0.40769,1.4194,0.24063,0.41662,1.449,-0.09959,0.53046,1.15672,0.32273,0.49443,1.18393,-0.01985,0.66431,1.36839,0.21451,0.62536,1.37575
2326,0.0578,0.45288,1.50479,-0.00683,0.48674,0.07717,0.26535,0.14965,0.13852,0.01614,0.47877,0.49392,0.27187,0.37982,0.48666,0.02987,0.36971,0.91468,0.19835,0.34964,0.91405,-0.0929,0.41008,1.41887,0.2394,0.41768,1.44907,-0.10054,0.53332,1.15642,0.32194,0.49635,1.18439,-0.02133,0.66727,1.36822,0.21356,0.62616,1.37687
2327,0.05713,0.45468,1.50453,-0.00738,0.48695,0.07699,0.2662,0.15205,0.14102,0.01539,0.47839,0.49374,0.27365,0.38441,0.48768,0.02868,0.36985,0.91465,0.19718,0.34989,0.91422,-0.09356,0.41281,1.41809,0.23809,0.41851,1.44933,-0.10108,0.53628,1.15574,0.32112,0.49807,1.18507,-0.02316,0.66928,1.36861,0.21272,0.62738,1.37788
2328,0.05632,0.45634,1.50426,-0.00754,0.48718,0.07698,0.26707,0.15406,0.14349,0.01455,0.47823,0.49376,0.27517,0.38846,0.48876,0.02756,0.36986,0.91472,0.19609,0.35019,0.91451,-0.09434,0.41533,1.41735,0.23692,0.41957,1.44966,-0.10155,0.53862,1.15491,0.32021,0.49958,1.18561,-0.02489,0.67021,1.36912,0.21221,0.6288,1.37871
2329,0.05529,0.45786,1.50399,-0.00737,0.48736,0.07703,0.2681,0.15547,0.14568,0.01371,0.47815,0.49386,0.27644,0.39158,0.48977,0.02648,0.36986,0.91485,0.19504,0.35041,0.91481,-0.09526,0.41717,1.41699,0.23597,0.42084,1.44996,-0.10217,0.54022,1.15442,0.31916,0.50102,1.18593,-0.02603,0.67077,1.36946,0.21187,0.63022,1.37944
2330,0.05419,0.45917,1.50382,-0.00712,0.48753,0.07703,0.26931,0.15631,0.14758,0.01294,0.47812,0.4939,0.27757,0.39393,0.49064,0.02551,0.37002,0.91495,0.19407,0.35056,0.91505,-0.09623,0.41821,1.41709,0.23499,0.42193,1.45025,-0.1029,0.54144,1.1546,0.31813,0.50243,1.1863,-0.02645,0.67155,1.36978,0.21138,0.6315,1.3802
2331,0.05334,0.46016,1.50386,-0.00706,0.48767,0.07696,0.27052,0.1569,0.14929,0.01226,0.47823,0.49386,0.27867,0.39593,0.49137,0.02477,0.37043,0.91499,0.19331,0.3508,0.91523,-0.0972,0.41883,1.41742,0.23384,0.42266,1.45062,-0.10362,0.54253,1.15515,0.31739,0.50369,1.18697,-0.02652,0.6723,1.37031,0.21064,0.63252,1.38102
2332,0.05284,0.46089,1.50407,-0.00729,0.4877,0.07686,0.27159,0.15751,0.15088,0.01167,0.47848,0.49378,0.27964,0.39782,0.49206,0.02428,0.37097,0.91498,0.1928,0.35118,0.91545,-0.09804,0.41967,1.41762,0.23273,0.42317,1.4511,-0.10426,0.54357,1.15544,0.31708,0.50472,1.18787,-0.02673,0.67251,1.37094,0.20985,0.63319,1.38189
2333,0.05246,0.46157,1.50429,-0.00767,0.4876,0.07679,0.2725,0.15821,0.15236,0.01117,0.47875,0.49373,0.28031,0.39959,0.49279,0.02391,0.37137,0.91495,0.19241,0.35153,0.91581,-0.09853,0.42103,1.41748,0.23196,0.42367,1.4516,-0.10474,0.54462,1.15515,0.31711,0.50564,1.18875,-0.0273,0.67216,1.37152,0.20921,0.63363,1.38272
2334,0.05195,0.46239,1.50439,-0.00789,0.48752,0.07676,0.27329,0.15883,0.15373,0.0108,0.47894,0.49371,0.28063,0.40104,0.49359,0.02346,0.37146,0.91491,0.19199,0.35175,0.91631,-0.0987,0.42258,1.41708,0.23148,0.42417,1.45193,-0.10496,0.54575,1.15455,0.3172,0.5066,1.18941,-0.0279,0.67144,1.37213,0.20878,0.63415,1.38338
2335,0.0514,0.46324,1.50437,-0.00773,0.48764,0.07676,0.27395,0.15924,0.15489,0.01057,0.47906,0.49373,0.28074,0.40204,0.49434,0.02295,0.37138,0.91489,0.1915,0.35192,0.91684,-0.09896,0.42382,1.4167,0.23093,0.4245,1.45202,-0.10496,0.54698,1.15417,0.31713,0.50741,1.18981,-0.02764,0.67058,1.37285,0.20854,0.63496,1.38368
2336,0.05104,0.46387,1.50435,-0.00734,0.4879,0.07683,0.27437,0.15936,0.15573,0.01039,0.47909,0.49381,0.28069,0.40255,0.4949,0.02253,0.37145,0.91499,0.1911,0.35221,0.9173,-0.09964,0.42465,1.41659,0.23004,0.42452,1.45206,-0.10483,0.54846,1.15435,0.31687,0.50768,1.19014,-0.02596,0.67001,1.37362,0.20842,0.63593,1.38363
2337,0.05092,0.46419,1.50443,-0.00711,0.48807,0.077,0.27452,0.15911,0.15623,0.01013,0.47906,0.494,0.28045,0.40261,0.49518,0.0223,0.37183,0.91528,0.19088,0.35269,0.91763,-0.10057,0.42517,1.41677,0.22893,0.42434,1.45227,-0.10464,0.55018,1.15508,0.31659,0.50745,1.19061,-0.02374,0.67006,1.37454,0.20835,0.63683,1.38346
2338,0.05088,0.46432,1.50459,-0.00718,0.48805,0.07723,0.27445,0.15841,0.1564,0.00977,0.47906,0.49424,0.28002,0.40224,0.49513,0.02218,0.37241,0.91566,0.19076,0.35332,0.91777,-0.10127,0.42543,1.41713,0.22799,0.42427,1.45265,-0.10452,0.55179,1.15607,0.3165,0.50742,1.19128,-0.02278,0.6705,1.37585,0.20818,0.63768,1.3835
2339,0.05074,0.46436,1.50483,-0.0074,0.48793,0.07742,0.27423,0.15727,0.15638,0.00938,0.4792,0.49445,0.27944,0.40145,0.49486,0.02201,0.37295,0.91597,0.19062,0.35407,0.91776,-0.10156,0.42552,1.41758,0.22753,0.42459,1.45298,-0.1046,0.55286,1.15699,0.31667,0.50838,1.19203,-0.02363,0.67079,1.37748,0.20774,0.6387,1.38387
2340,0.05039,0.46428,1.50517,-0.00758,0.4878,0.07757,0.27387,0.15578,0.15631,0.00904,0.47943,0.49462,0.27869,0.40032,0.49453,0.02178,0.37336,0.91617,0.19044,0.35493,0.91777,-0.10165,0.42554,1.4181,0.22753,0.42511,1.45317,-0.10483,0.55336,1.15775,0.31698,0.5103,1.19279,-0.02531,0.67073,1.37906,0.20706,0.64002,1.38446
2341,0.04991,0.46405,1.50563,-0.00771,0.4876,0.07774,0.27345,0.15397,0.15632,0.00885,0.47959,0.49479,0.27775,0.39896,0.49423,0.02159,0.3737,0.91639,0.1903,0.35565,0.91785,-0.10181,0.42546,1.41861,0.22768,0.42532,1.45335,-0.10502,0.55363,1.15844,0.3172,0.51232,1.19359,-0.02667,0.67048,1.38044,0.20636,0.64146,1.38512
2342,0.04959,0.46374,1.50607,-0.00786,0.48742,0.0779,0.27307,0.15192,0.15637,0.00882,0.47959,0.49495,0.27672,0.39746,0.49389,0.02152,0.37401,0.91663,0.19022,0.35594,0.91789,-0.10201,0.42511,1.41903,0.22776,0.42495,1.45358,-0.10506,0.55402,1.15922,0.31716,0.51369,1.19437,-0.02718,0.67011,1.38179,0.2058,0.64276,1.38565
2343,0.04968,0.46344,1.50638,-0.00798,0.48742,0.07794,0.27268,0.14981,0.15631,0.00882,0.47939,0.49499,0.27574,0.3959,0.49343,0.02159,0.37424,0.91678,0.19026,0.35588,0.91779,-0.10209,0.42447,1.41937,0.22785,0.42435,1.45383,-0.10498,0.55461,1.16018,0.31683,0.51439,1.19492,-0.02686,0.6695,1.38328,0.20533,0.64375,1.38593
2344,0.05018,0.46309,1.50658,-0.00804,0.48761,0.07786,0.27217,0.14785,0.15598,0.00881,0.47898,0.49489,0.27485,0.39423,0.49289,0.02185,0.37441,0.91681,0.19051,0.35588,0.91762,-0.10194,0.42367,1.41966,0.22815,0.4241,1.45412,-0.10492,0.55525,1.1612,0.31634,0.51477,1.19516,-0.02617,0.66868,1.38483,0.20491,0.64419,1.38616
2345,0.05096,0.46252,1.50679,-0.00815,0.48782,0.07776,0.27155,0.14601,0.15531,0.00896,0.47842,0.49476,0.27393,0.39222,0.49235,0.02231,0.37466,0.91688,0.19098,0.35621,0.91756,-0.10146,0.42284,1.41986,0.22869,0.42433,1.45453,-0.10499,0.55567,1.16204,0.31586,0.51499,1.19522,-0.02558,0.66794,1.38602,0.20471,0.6437,1.38686
2346,0.05184,0.46162,1.50708,-0.00835,0.48787,0.07774,0.27096,0.1441,0.1543,0.00942,0.47787,0.4947,0.27282,0.38963,0.49183,0.02294,0.3751,0.91706,0.19162,0.35677,0.91763,-0.10068,0.42203,1.41996,0.22937,0.42464,1.45494,-0.1051,0.55573,1.1626,0.31548,0.51509,1.19521,-0.02523,0.66759,1.38662,0.2049,0.6422,1.38825
2347,0.05259,0.46049,1.50737,-0.00849,0.48778,0.07785,0.27041,0.142,0.15296,0.01005,0.47745,0.49476,0.2714,0.38648,0.49126,0.02362,0.37554,0.91732,0.19231,0.35729,0.91773,-0.09978,0.42125,1.42009,0.23019,0.42456,1.45506,-0.10505,0.55551,1.16304,0.31522,0.51531,1.19506,-0.02505,0.66771,1.38685,0.2053,0.64019,1.38992
2348,0.05309,0.45934,1.5076,-0.00836,0.48761,0.07803,0.2698,0.13978,0.1513,0.01059,0.47708,0.49492,0.26974,0.38296,0.49054,0.02428,0.37566,0.91759,0.19299,0.35757,0.91768,-0.09904,0.42047,1.42046,0.23116,0.42395,1.45477,-0.10474,0.55513,1.16363,0.31516,0.51585,1.19485,-0.02498,0.66809,1.38713,0.20571,0.63841,1.39143
2349,0.05351,0.45824,1.50784,-0.00801,0.48743,0.07823,0.26916,0.13756,0.14932,0.01088,0.4767,0.49512,0.26802,0.37913,0.4897,0.02487,0.37538,0.9178,0.19361,0.35755,0.91746,-0.09853,0.41966,1.42104,0.23213,0.42288,1.45446,-0.1043,0.55466,1.16438,0.3154,0.5163,1.19485,-0.02503,0.66852,1.38762,0.20608,0.63703,1.39264
2350,0.05411,0.45699,1.50822,-0.00765,0.48738,0.07843,0.26857,0.13539,0.14707,0.0109,0.47653,0.49533,0.26646,0.37492,0.48889,0.02533,0.37497,0.91795,0.19409,0.35741,0.91719,-0.09802,0.41888,1.42164,0.23291,0.42156,1.45466,-0.10392,0.55414,1.16513,0.3158,0.51596,1.19528,-0.02538,0.66886,1.38816,0.20638,0.63568,1.39362
2351,0.05497,0.45544,1.50878,-0.00736,0.48753,0.07861,0.26792,0.13343,0.14466,0.01079,0.47684,0.49554,0.26516,0.37047,0.48821,0.02567,0.37479,0.91802,0.19444,0.35735,0.91694,-0.09735,0.41815,1.42214,0.23363,0.42031,1.45543,-0.10374,0.55348,1.16568,0.31607,0.51489,1.19597,-0.02619,0.66903,1.38864,0.20657,0.63403,1.39463
2352,0.05595,0.45372,1.50934,-0.00713,0.48773,0.07876,0.26699,0.1318,0.14215,0.01071,0.47756,0.49571,0.26404,0.36615,0.48754,0.02604,0.37482,0.91801,0.19482,0.35742,0.91662,-0.09655,0.41735,1.4225,0.23461,0.4194,1.45629,-0.10368,0.55263,1.16603,0.31613,0.51389,1.19651,-0.02734,0.66889,1.38904,0.20679,0.63201,1.39586
2353,0.05692,0.45212,1.50968,-0.00702,0.48774,0.07883,0.26569,0.13034,0.13953,0.01084,0.47831,0.4958,0.26289,0.36209,0.48667,0.0266,0.37479,0.91789,0.19538,0.35744,0.91609,-0.09573,0.4163,1.42266,0.23601,0.41873,1.45672,-0.1036,0.55163,1.16625,0.31633,0.51353,1.19668,-0.02838,0.66852,1.38931,0.20729,0.62984,1.39725
2354,0.05781,0.45071,1.50972,-0.0071,0.48748,0.07883,0.26414,0.12867,0.13686,0.01126,0.4789,0.49579,0.26151,0.35805,0.48557,0.02733,0.37447,0.91764,0.19611,0.35722,0.91534,-0.09478,0.41502,1.42261,0.23769,0.41793,1.45666,-0.10341,0.55052,1.1663,0.31695,0.51374,1.19667,-0.02905,0.66835,1.38916,0.20816,0.62785,1.39864
2355,0.05864,0.44929,1.50961,-0.00725,0.48713,0.07882,0.2626,0.12654,0.13431,0.01188,0.47953,0.49577,0.25991,0.35375,0.48444,0.02814,0.3738,0.91729,0.19692,0.35667,0.91456,-0.0936,0.41368,1.42242,0.23955,0.41675,1.4564,-0.10313,0.54922,1.16617,0.31793,0.51413,1.19672,-0.02963,0.66873,1.38842,0.2092,0.62615,1.39989
2356,0.05968,0.44765,1.50951,-0.00728,0.48694,0.07888,0.26129,0.12404,0.13209,0.01259,0.48039,0.49581,0.25818,0.34919,0.48353,0.02895,0.3729,0.91688,0.19774,0.35583,0.91398,-0.09219,0.41231,1.42224,0.24159,0.4153,1.45618,-0.10281,0.54772,1.16596,0.31896,0.51441,1.19685,-0.03027,0.6695,1.38728,0.21011,0.62469,1.4009
2357,0.06131,0.446,1.50931,-0.00721,0.48699,0.07895,0.26025,0.12145,0.13014,0.01341,0.48132,0.49586,0.25644,0.34452,0.48291,0.02974,0.37205,0.91648,0.19853,0.35495,0.91362,-0.09063,0.41065,1.4221,0.24379,0.41377,1.45578,-0.10249,0.54613,1.16591,0.32,0.51494,1.1969,-0.03058,0.67013,1.38621,0.21079,0.62356,1.40165
2358,0.06348,0.44475,1.50883,-0.00716,0.4872,0.07893,0.25923,0.11898,0.12823,0.01441,0.48195,0.4958,0.2548,0.33981,0.4824,0.03051,0.37149,0.91611,0.19928,0.35421,0.91332,-0.08891,0.4085,1.42192,0.2461,0.41228,1.4547,-0.10205,0.54455,1.1661,0.32112,0.51651,1.19669,-0.03006,0.67028,1.38538,0.21135,0.62294,1.4023
2359,0.06573,0.44381,1.50817,-0.00722,0.48746,0.07879,0.258,0.11665,0.12617,0.0155,0.48224,0.4956,0.25337,0.33498,0.48188,0.0314,0.37121,0.91577,0.20013,0.3535,0.91293,-0.08702,0.40595,1.42161,0.24843,0.41078,1.45284,-0.1012,0.54301,1.16638,0.32223,0.51923,1.19623,-0.02866,0.67028,1.38459,0.21205,0.62274,1.40309
2360,0.06763,0.44253,1.50764,-0.00732,0.48773,0.07865,0.25656,0.11439,0.12397,0.01648,0.48249,0.4954,0.25231,0.32995,0.48137,0.03258,0.37091,0.91542,0.20123,0.35253,0.91249,-0.08503,0.40339,1.42119,0.25061,0.40906,1.45078,-0.09985,0.54164,1.16664,0.32319,0.52191,1.19572,-0.02674,0.67073,1.38359,0.21305,0.62271,1.40394
2361,0.06918,0.4405,1.50744,-0.00725,0.488,0.0786,0.25512,0.11215,0.1217,0.01732,0.48299,0.4953,0.25171,0.32475,0.48088,0.03401,0.3705,0.91506,0.20255,0.35117,0.912,-0.08314,0.40121,1.42078,0.25247,0.40684,1.44931,-0.09817,0.54056,1.16685,0.32433,0.52301,1.19554,-0.02473,0.67168,1.38247,0.21437,0.62275,1.40437
2362,0.07069,0.43795,1.50749,-0.00679,0.48823,0.07856,0.25372,0.10992,0.11936,0.0182,0.48378,0.49525,0.25145,0.31951,0.48031,0.03547,0.37015,0.91467,0.20387,0.3496,0.91136,-0.08149,0.39952,1.42052,0.25396,0.40415,1.44888,-0.09643,0.53964,1.16701,0.3262,0.5218,1.1959,-0.02293,0.67252,1.38152,0.21603,0.62275,1.40403
2363,0.07249,0.43528,1.50762,-0.00606,0.48847,0.07846,0.25225,0.10779,0.11695,0.01937,0.48481,0.49513,0.25127,0.3144,0.47963,0.03682,0.36999,0.91422,0.20502,0.34802,0.91057,-0.08001,0.39796,1.4205,0.25532,0.4015,1.44938,-0.09496,0.5384,1.16716,0.32874,0.51894,1.19665,-0.02146,0.67274,1.38077,0.21805,0.62243,1.40325
2364,0.07471,0.43267,1.50769,-0.00544,0.48879,0.07838,0.25068,0.10595,0.11456,0.02096,0.48599,0.49499,0.25094,0.30947,0.47898,0.03803,0.36984,0.91373,0.20604,0.34644,0.90979,-0.07834,0.396,1.42084,0.25689,0.39935,1.4502,-0.0941,0.53639,1.16752,0.33131,0.51591,1.19734,-0.02022,0.67236,1.37996,0.22031,0.62157,1.40268
2365,0.07725,0.43015,1.50768,-0.00512,0.48918,0.07842,0.24918,0.10448,0.11227,0.0228,0.48724,0.49494,0.25034,0.30467,0.47852,0.03927,0.36948,0.91325,0.2071,0.34484,0.90922,-0.07633,0.39355,1.42142,0.25877,0.39768,1.45066,-0.09375,0.53376,1.16811,0.33351,0.51367,1.19764,-0.01903,0.67167,1.37901,0.22263,0.62024,1.40257
2366,0.07993,0.42767,1.50762,-0.0049,0.4895,0.07862,0.24798,0.10321,0.11014,0.02451,0.48849,0.49504,0.24952,0.29987,0.4783,0.04073,0.36886,0.91284,0.20839,0.34314,0.9089,-0.07411,0.39122,1.42173,0.26097,0.3959,1.45063,-0.09307,0.53123,1.16842,0.33542,0.51205,1.19759,-0.01791,0.67063,1.37817,0.22489,0.61854,1.40275
2367,0.08262,0.42511,1.50762,-0.00458,0.48965,0.0789,0.24714,0.10189,0.10811,0.02596,0.48963,0.49524,0.2487,0.29497,0.47816,0.04239,0.36807,0.91247,0.2099,0.34135,0.90865,-0.07193,0.38962,1.42138,0.26335,0.39341,1.4504,-0.09135,0.52916,1.16785,0.3372,0.5102,1.19749,-0.01702,0.66909,1.37755,0.22714,0.61647,1.40302
2368,0.08523,0.42247,1.50764,-0.00427,0.48973,0.07915,0.24641,0.10053,0.10611,0.02722,0.49053,0.49542,0.24813,0.29005,0.478,0.0441,0.36725,0.91212,0.21145,0.33955,0.90833,-0.06987,0.38869,1.42063,0.26557,0.39014,1.45023,-0.08882,0.52722,1.16651,0.33901,0.50759,1.19751,-0.01631,0.66718,1.37682,0.22935,0.61407,1.40314
2369,0.08772,0.41993,1.50761,-0.00412,0.48987,0.07924,0.24553,0.09928,0.10418,0.02842,0.49112,0.49543,0.24792,0.28534,0.4778,0.04573,0.3665,0.91171,0.21293,0.33787,0.90791,-0.06796,0.3878,1.42007,0.26736,0.38662,1.45004,-0.08624,0.5248,1.16507,0.34106,0.50445,1.19757,-0.01542,0.66523,1.37565,0.23129,0.61165,1.40277
2370,0.09011,0.41763,1.50745,-0.00403,0.49015,0.07912,0.2446,0.09817,0.10241,0.02957,0.4916,0.49522,0.24799,0.28106,0.47759,0.04731,0.36578,0.91113,0.21437,0.33632,0.90747,-0.06623,0.38646,1.41997,0.26884,0.38343,1.44971,-0.08413,0.52176,1.16404,0.34333,0.50142,1.19754,-0.01402,0.66332,1.37409,0.23291,0.60942,1.40197
2371,0.0923,0.41557,1.5072,-0.0038,0.49051,0.0789,0.24389,0.09713,0.10089,0.0307,0.49221,0.49493,0.24821,0.27721,0.47742,0.04888,0.36509,0.91042,0.2158,0.33486,0.90708,-0.06459,0.38469,1.42019,0.27027,0.38065,1.44921,-0.08257,0.51841,1.16344,0.34561,0.49886,1.1974,-0.01219,0.66124,1.37254,0.23465,0.60713,1.40139
2372,0.09425,0.41361,1.50692,-0.00345,0.49086,0.07876,0.24347,0.09612,0.09956,0.03191,0.49296,0.49472,0.24846,0.27352,0.47735,0.05045,0.36445,0.90976,0.21724,0.33344,0.90678,-0.06288,0.38275,1.42043,0.27172,0.37793,1.44851,-0.0814,0.51515,1.16303,0.34774,0.49666,1.19715,-0.01046,0.65891,1.3713,0.23715,0.60426,1.40169
2373,0.09624,0.41155,1.50667,-0.00316,0.49119,0.07879,0.24318,0.09516,0.09834,0.03322,0.49357,0.49466,0.24869,0.26978,0.47741,0.05198,0.36375,0.90929,0.21861,0.3319,0.90662,-0.06096,0.3809,1.42046,0.27336,0.37503,1.44763,-0.08019,0.51214,1.16252,0.34985,0.49446,1.19674,-0.00914,0.65642,1.37039,0.24045,0.60076,1.40261
2374,0.09864,0.40929,1.50644,-0.00298,0.49145,0.07898,0.24294,0.09423,0.09724,0.0345,0.49388,0.49474,0.24889,0.26615,0.47753,0.05335,0.36272,0.90895,0.21983,0.33004,0.90655,-0.0587,0.37937,1.42029,0.27544,0.37207,1.44674,-0.07854,0.50939,1.16178,0.35216,0.49203,1.19618,-0.00795,0.65379,1.36973,0.24394,0.5972,1.40324
2375,0.10139,0.40691,1.50621,-0.00278,0.49165,0.07927,0.24282,0.09331,0.09629,0.03554,0.49402,0.49495,0.24912,0.26295,0.47761,0.05457,0.36124,0.90863,0.22094,0.32796,0.90651,-0.05613,0.37822,1.42006,0.27803,0.36924,1.446,-0.07648,0.50696,1.16095,0.35477,0.48949,1.19558,-0.00637,0.65106,1.36927,0.24695,0.59404,1.40317
2376,0.10413,0.4046,1.50595,-0.0024,0.49186,0.07958,0.24289,0.09242,0.09547,0.03624,0.49424,0.49524,0.24943,0.26014,0.47763,0.05588,0.35968,0.90832,0.22217,0.326,0.90646,-0.05342,0.3773,1.42004,0.28079,0.36659,1.44545,-0.07443,0.50488,1.16041,0.35753,0.48704,1.19513,-0.00409,0.64858,1.36894,0.24937,0.59103,1.40282
2377,0.10674,0.40241,1.50567,-0.00186,0.49218,0.07984,0.24304,0.09164,0.09461,0.03668,0.49468,0.49551,0.24991,0.25732,0.47765,0.05752,0.35852,0.908,0.22371,0.32432,0.90638,-0.05086,0.37625,1.42039,0.28331,0.36392,1.4451,-0.07279,0.50304,1.16045,0.3601,0.4846,1.1949,-0.00113,0.64677,1.3685,0.25156,0.58759,1.40289
2378,0.10938,0.40024,1.50546,-0.00131,0.49264,0.08002,0.24315,0.09097,0.09358,0.03709,0.49537,0.4957,0.25057,0.25421,0.47766,0.05946,0.35786,0.90767,0.22546,0.32276,0.9062,-0.04849,0.37476,1.42104,0.28548,0.36093,1.44491,-0.07176,0.501,1.16095,0.36236,0.48177,1.19482,0.002,0.64558,1.36767,0.25416,0.58352,1.40359
2379,0.11214,0.39788,1.50541,-0.00094,0.49318,0.08025,0.24318,0.09036,0.09244,0.03763,0.49627,0.49591,0.2513,0.25103,0.47759,0.06141,0.35727,0.9073,0.22716,0.32104,0.90596,-0.04608,0.37276,1.42174,0.28747,0.3575,1.44469,-0.0712,0.49843,1.16155,0.36457,0.4783,1.19465,0.00428,0.64462,1.36651,0.25754,0.57914,1.40447
2380,0.11495,0.3951,1.50551,-0.00076,0.4936,0.08067,0.24322,0.08971,0.0914,0.0384,0.49728,0.49627,0.25201,0.24812,0.47746,0.06313,0.35629,0.90692,0.22866,0.31902,0.90573,-0.04353,0.37057,1.42229,0.28953,0.35384,1.44421,-0.07057,0.49558,1.16196,0.36693,0.47439,1.19414,0.00494,0.64376,1.36548,0.26144,0.57485,1.40492
2381,0.11773,0.39191,1.50563,-0.00068,0.49374,0.08132,0.2433,0.08894,0.09055,0.03939,0.49827,0.49682,0.25267,0.24554,0.47735,0.06463,0.3548,0.90658,0.22998,0.31671,0.9056,-0.04107,0.36861,1.42263,0.29187,0.35026,1.44351,-0.0693,0.49305,1.16216,0.36933,0.47045,1.19329,0.00432,0.64311,1.36499,0.26524,0.57082,1.4048
2382,0.12049,0.3886,1.50566,-0.00066,0.49367,0.08217,0.24337,0.08811,0.08987,0.04053,0.49929,0.49755,0.25328,0.24316,0.47728,0.06608,0.35305,0.90631,0.23127,0.31426,0.90558,-0.03881,0.36702,1.42282,0.29454,0.34677,1.44293,-0.06735,0.49102,1.16217,0.37159,0.46664,1.19243,0.00354,0.64264,1.36481,0.26849,0.567,1.40443
2383,0.12334,0.38554,1.50556,-0.00076,0.49363,0.08318,0.24333,0.08739,0.08926,0.04169,0.50058,0.49842,0.25385,0.24097,0.47723,0.06756,0.35131,0.90606,0.2326,0.31191,0.90559,-0.03658,0.36547,1.42289,0.29739,0.34332,1.44272,-0.06533,0.48916,1.16212,0.37376,0.46295,1.1919,0.00352,0.64228,1.36433,0.27119,0.56336,1.40413
2384,0.12631,0.38286,1.50543,-0.00099,0.49377,0.08432,0.24318,0.08691,0.08864,0.04278,0.50227,0.49939,0.25439,0.23908,0.47715,0.06894,0.34969,0.90579,0.23386,0.30981,0.90558,-0.03412,0.36373,1.42293,0.30009,0.33996,1.44283,-0.06372,0.48727,1.16219,0.37595,0.45941,1.19176,0.00445,0.64217,1.36328,0.27355,0.55994,1.40402
2385,0.12933,0.38044,1.50542,-0.00128,0.49407,0.08554,0.24298,0.08663,0.08801,0.04377,0.50417,0.50044,0.25495,0.23754,0.47699,0.07019,0.34817,0.90552,0.23502,0.30791,0.90551,-0.03143,0.36213,1.42291,0.30234,0.33675,1.44294,-0.0623,0.48564,1.1623,0.37821,0.45601,1.19178,0.0059,0.64248,1.36187,0.27585,0.55662,1.40403
2386,0.13221,0.37806,1.50557,-0.00147,0.49452,0.08676,0.24276,0.08639,0.0874,0.04461,0.50608,0.5015,0.25548,0.23623,0.47676,0.07145,0.34678,0.90527,0.23616,0.30604,0.9054,-0.02879,0.36119,1.42261,0.3041,0.33347,1.4428,-0.06045,0.48456,1.16203,0.38066,0.45263,1.19181,0.00741,0.64311,1.36035,0.27828,0.55314,1.40409
2387,0.13468,0.37551,1.50578,-0.00151,0.49518,0.08797,0.24245,0.08609,0.08682,0.04526,0.50804,0.5026,0.25592,0.235,0.47651,0.07286,0.34558,0.90505,0.23739,0.30408,0.90531,-0.02645,0.36084,1.42204,0.30542,0.32987,1.44239,-0.05808,0.48385,1.16127,0.38338,0.44907,1.19184,0.00891,0.64383,1.35875,0.28086,0.54953,1.40408
2388,0.13651,0.37278,1.50588,-0.00144,0.49605,0.08929,0.24202,0.08576,0.08623,0.04579,0.51022,0.50382,0.25625,0.23359,0.47631,0.0743,0.34451,0.90489,0.23858,0.30203,0.90524,-0.02444,0.36029,1.42156,0.30636,0.32602,1.44189,-0.05561,0.48296,1.16058,0.38619,0.4452,1.19192,0.01085,0.64441,1.35704,0.28353,0.54615,1.40386
2389,0.13787,0.37004,1.50574,-0.00132,0.49703,0.09085,0.24151,0.08539,0.08556,0.04635,0.51259,0.50528,0.25648,0.23182,0.47614,0.07549,0.34326,0.90478,0.23952,0.29985,0.90517,-0.02267,0.35888,1.42149,0.30715,0.32217,1.44144,-0.05344,0.48159,1.16049,0.38875,0.44102,1.19189,0.01375,0.64476,1.35526,0.28629,0.54319,1.40334
2390,0.13938,0.36742,1.50541,-0.00105,0.49801,0.09268,0.24105,0.08488,0.08481,0.04701,0.51496,0.50701,0.25662,0.2297,0.47597,0.07633,0.34158,0.90476,0.24016,0.29745,0.90506,-0.02105,0.35667,1.42179,0.30818,0.31852,1.441,-0.05162,0.47999,1.16105,0.39088,0.43675,1.19152,0.01749,0.64494,1.35365,0.28907,0.54037,1.40257
2391,0.14164,0.36484,1.50509,-0.00051,0.49905,0.09476,0.24075,0.08422,0.08406,0.04779,0.5174,0.509,0.25672,0.22737,0.47581,0.07696,0.33955,0.90478,0.24066,0.29492,0.90495,-0.01949,0.35424,1.42216,0.30975,0.3151,1.44052,-0.05002,0.47873,1.16197,0.3927,0.43272,1.19083,0.02127,0.64504,1.35259,0.2917,0.53743,1.40174
2392,0.14456,0.36219,1.50494,0.00018,0.5003,0.09708,0.24056,0.0836,0.08331,0.04872,0.52031,0.51122,0.25693,0.22497,0.47569,0.07762,0.33753,0.90477,0.24124,0.29262,0.90483,-0.01794,0.35203,1.42234,0.31181,0.31202,1.44006,-0.04854,0.47799,1.16287,0.39451,0.42915,1.19006,0.0241,0.64497,1.3524,0.29414,0.53444,1.40098
2393,0.1475,0.35951,1.50505,0.00073,0.50175,0.09965,0.24031,0.08318,0.0825,0.04981,0.5238,0.51362,0.25728,0.2226,0.47556,0.0784,0.33574,0.9047,0.24199,0.29073,0.90463,-0.01631,0.35013,1.42239,0.31409,0.30946,1.43976,-0.04707,0.47741,1.16358,0.39647,0.42596,1.18936,0.02542,0.6445,1.35306,0.29651,0.53154,1.40033
2394,0.14986,0.357,1.50531,0.00104,0.5033,0.10238,0.24006,0.08287,0.08166,0.05097,0.52748,0.51613,0.25762,0.22032,0.47538,0.07928,0.33406,0.90461,0.24286,0.28898,0.90439,-0.01449,0.3485,1.42252,0.31647,0.30734,1.43964,-0.04554,0.47656,1.16413,0.39841,0.4229,1.18866,0.02555,0.64352,1.35426,0.29892,0.52869,1.39974
2395,0.1517,0.35481,1.50554,0.00127,0.50486,0.1051,0.24007,0.08247,0.08085,0.05205,0.53084,0.51864,0.25786,0.2181,0.4752,0.08027,0.33229,0.90452,0.24379,0.28698,0.9042,-0.01244,0.34717,1.42289,0.31892,0.30526,1.43956,-0.04401,0.47538,1.16464,0.40006,0.4197,1.18781,0.02563,0.64197,1.35562,0.30135,0.52576,1.39913
2396,0.15349,0.35286,1.50568,0.00168,0.50657,0.10775,0.2405,0.0819,0.08017,0.0529,0.53379,0.52116,0.25809,0.21588,0.47508,0.08138,0.33036,0.90447,0.24479,0.28465,0.90412,-0.01035,0.34629,1.4235,0.32125,0.30296,1.43946,-0.04259,0.47402,1.1651,0.40142,0.41634,1.18692,0.02664,0.63979,1.35694,0.3037,0.5228,1.3985
2397,0.15558,0.35099,1.50578,0.0023,0.50861,0.11049,0.24117,0.08124,0.07964,0.05342,0.53662,0.52386,0.25849,0.21374,0.47507,0.08257,0.32832,0.9045,0.24585,0.28218,0.90418,-0.00854,0.34579,1.42414,0.32307,0.3006,1.43934,-0.04125,0.47272,1.1654,0.40263,0.41311,1.18621,0.02863,0.63697,1.35832,0.30588,0.52008,1.39797
2398,0.1579,0.34926,1.50594,0.00297,0.51106,0.11342,0.24178,0.08063,0.07922,0.05364,0.5396,0.52681,0.25914,0.2118,0.47509,0.08369,0.32634,0.90462,0.24685,0.27977,0.90429,-0.00717,0.34535,1.42461,0.3242,0.29838,1.43932,-0.03977,0.47169,1.16557,0.40375,0.41018,1.18588,0.03099,0.63353,1.3602,0.30784,0.51772,1.39774
2399,0.16012,0.34789,1.5061,0.00346,0.51378,0.11649,0.24213,0.08013,0.07881,0.05363,0.54269,0.52991,0.26001,0.21004,0.47507,0.08453,0.32458,0.90488,0.24754,0.27751,0.90434,-0.00608,0.34474,1.42489,0.32491,0.29623,1.43945,-0.03792,0.47105,1.16574,0.40468,0.4075,1.18585,0.03318,0.62953,1.36299,0.30958,0.51548,1.39785
2400,0.16208,0.34686,1.50626,0.00361,0.51658,0.11961,0.24224,0.07969,0.07842,0.05358,0.54578,0.53303,0.26099,0.20831,0.47507,0.08502,0.32314,0.90528,0.24786,0.27548,0.90436,-0.00504,0.3439,1.42514,0.32563,0.294,1.43963,-0.03568,0.47071,1.16609,0.40535,0.40496,1.18587,0.03505,0.62507,1.36671,0.31113,0.51316,1.39815
2401,0.16392,0.34589,1.50646,0.00338,0.51935,0.12269,0.24232,0.07935,0.07814,0.05366,0.54878,0.53606,0.26187,0.2066,0.47518,0.08533,0.32192,0.90573,0.24802,0.27375,0.90446,-0.00406,0.34294,1.42546,0.32655,0.29178,1.43958,-0.03315,0.47057,1.16663,0.40593,0.40267,1.18569,0.03672,0.62027,1.37104,0.3125,0.5108,1.39836
2402,0.16594,0.3448,1.50671,0.00294,0.5221,0.12569,0.24255,0.07916,0.07796,0.05387,0.55163,0.53897,0.26244,0.20508,0.47541,0.08556,0.32069,0.90611,0.24818,0.27231,0.90466,-0.00326,0.34196,1.42584,0.3276,0.28979,1.4391,-0.03059,0.47056,1.1673,0.40674,0.40099,1.18527,0.03844,0.61514,1.37565,0.31373,0.5086,1.39838
2403,0.16822,0.34348,1.507,0.00261,0.52489,0.12867,0.24289,0.07914,0.07779,0.05401,0.55436,0.5419,0.26259,0.204,0.47558,0.08565,0.31931,0.90642,0.24829,0.27099,0.90487,-0.00257,0.34107,1.42625,0.32875,0.28804,1.43821,-0.02815,0.47071,1.16805,0.40781,0.40011,1.18473,0.04035,0.60978,1.38029,0.31491,0.50667,1.39842
2404,0.17056,0.3419,1.50738,0.00251,0.52772,0.13176,0.24307,0.07925,0.0776,0.0539,0.55713,0.545,0.26243,0.20347,0.47561,0.08558,0.31785,0.90675,0.24823,0.26958,0.90504,-0.00167,0.34037,1.42668,0.32992,0.28631,1.43726,-0.02576,0.47103,1.16886,0.40892,0.39956,1.18429,0.04245,0.60444,1.38479,0.31626,0.50497,1.39865
2405,0.17275,0.34022,1.5079,0.00246,0.5305,0.13496,0.24296,0.07943,0.07752,0.05368,0.55993,0.54822,0.26223,0.20327,0.47566,0.08552,0.31652,0.9072,0.24811,0.26805,0.90529,-0.00044,0.33978,1.4271,0.33096,0.28452,1.43672,-0.02324,0.47136,1.16962,0.40982,0.39842,1.184,0.04445,0.59906,1.38914,0.31783,0.50325,1.39893
2406,0.17463,0.33874,1.50853,0.00216,0.53319,0.13809,0.24271,0.07954,0.07771,0.0536,0.56254,0.55132,0.26222,0.2031,0.47592,0.08574,0.31546,0.90776,0.24821,0.26658,0.90575,0.00082,0.33913,1.42748,0.33175,0.28286,1.43668,-0.02067,0.47149,1.17029,0.41045,0.39649,1.18379,0.04607,0.59345,1.39334,0.31938,0.5014,1.39908
2407,0.1761,0.33751,1.50916,0.00136,0.53586,0.14099,0.24252,0.07947,0.07813,0.05382,0.56486,0.55412,0.26243,0.20279,0.47639,0.08624,0.31464,0.90832,0.24857,0.26528,0.90638,0.00184,0.33834,1.42798,0.33248,0.28147,1.43667,-0.01842,0.47138,1.17103,0.4109,0.39474,1.18353,0.04734,0.58774,1.39734,0.32062,0.49948,1.39923
2408,0.17715,0.33632,1.5097,0.00013,0.53863,0.14357,0.24238,0.07925,0.07856,0.05424,0.5669,0.55654,0.26267,0.20229,0.47689,0.0868,0.31404,0.90886,0.24894,0.26408,0.90698,0.0028,0.33753,1.42873,0.33336,0.2802,1.43618,-0.01687,0.47107,1.172,0.41125,0.39398,1.18311,0.04851,0.58217,1.40105,0.32152,0.49759,1.39958
2409,0.17803,0.33504,1.51014,-0.00118,0.54147,0.1458,0.24216,0.07911,0.0788,0.05468,0.5686,0.55861,0.26273,0.20156,0.4773,0.08722,0.3137,0.90946,0.24911,0.26294,0.90745,0.00404,0.33684,1.42968,0.3343,0.27875,1.43534,-0.01598,0.47069,1.17314,0.41147,0.39378,1.18261,0.04984,0.57665,1.40448,0.32225,0.49591,1.40001
2410,0.17899,0.33388,1.51047,-0.00222,0.54415,0.14777,0.24184,0.07917,0.07884,0.05503,0.56995,0.56048,0.26263,0.20059,0.47765,0.08751,0.31354,0.91023,0.24913,0.26193,0.90781,0.00555,0.33641,1.43055,0.33507,0.27705,1.43474,-0.01508,0.47051,1.17419,0.41157,0.39322,1.18233,0.05152,0.57101,1.40773,0.32307,0.49473,1.4003
2411,0.18011,0.33304,1.51075,-0.00289,0.54645,0.14966,0.24153,0.07932,0.07883,0.05529,0.57116,0.5623,0.26254,0.1995,0.478,0.08771,0.31345,0.9111,0.2491,0.26116,0.90811,0.00698,0.33641,1.43114,0.33561,0.27529,1.43465,-0.0134,0.47095,1.175,0.4116,0.39209,1.18238,0.05372,0.56542,1.41089,0.32415,0.49416,1.40051
2412,0.18128,0.3324,1.51105,-0.00335,0.54835,0.15154,0.24136,0.07944,0.07887,0.05556,0.57249,0.56412,0.26255,0.19851,0.47836,0.08771,0.31335,0.91187,0.24894,0.26059,0.9084,0.00809,0.33693,1.43147,0.33605,0.27374,1.43482,-0.01083,0.47222,1.17561,0.41155,0.3908,1.18252,0.05643,0.5602,1.41397,0.32541,0.49379,1.40074
2413,0.18229,0.33173,1.51137,-0.00379,0.54999,0.15333,0.24138,0.07948,0.07891,0.05595,0.57405,0.56579,0.26258,0.19769,0.47865,0.08747,0.31328,0.91239,0.24855,0.26007,0.90865,0.00895,0.33771,1.43175,0.33645,0.27247,1.43493,-0.00799,0.47404,1.1763,0.41135,0.38953,1.18246,0.05949,0.55551,1.4169,0.32652,0.4931,1.40092
2414,0.183,0.33099,1.51169,-0.00433,0.55147,0.1549,0.24156,0.07946,0.07889,0.05643,0.57567,0.5672,0.26261,0.19705,0.47883,0.08709,0.31333,0.91269,0.24794,0.25948,0.90879,0.00977,0.33839,1.43222,0.33675,0.27126,1.435,-0.00565,0.47596,1.17734,0.41097,0.38821,1.18227,0.06286,0.55148,1.41958,0.32713,0.49204,1.40099
2415,0.18343,0.33028,1.51192,-0.00501,0.55273,0.15616,0.24175,0.07934,0.07881,0.05687,0.57706,0.56828,0.26267,0.19653,0.47887,0.08673,0.31346,0.91288,0.24731,0.2588,0.90883,0.01063,0.33877,1.43306,0.33693,0.26992,1.43517,-0.00419,0.47769,1.17888,0.41036,0.38688,1.18221,0.06641,0.54849,1.42194,0.32711,0.491,1.40102
2416,0.18373,0.32971,1.51202,-0.0059,0.55355,0.15709,0.24178,0.07919,0.07869,0.0572,0.57811,0.56902,0.26279,0.19608,0.47883,0.08648,0.3136,0.91297,0.24676,0.25807,0.90881,0.01154,0.33889,1.43428,0.33707,0.26856,1.4354,-0.00352,0.4791,1.18082,0.40952,0.38573,1.18226,0.06981,0.54697,1.42391,0.32667,0.49037,1.40097
2417,0.18406,0.32921,1.51197,-0.00698,0.55382,0.15771,0.24164,0.07912,0.07852,0.05751,0.57884,0.5694,0.26295,0.19568,0.47874,0.08627,0.31374,0.91294,0.24626,0.25738,0.90873,0.01242,0.33885,1.4356,0.33727,0.26741,1.43546,-0.00325,0.48037,1.18291,0.40853,0.38475,1.18206,0.07289,0.54696,1.42549,0.3263,0.49009,1.40067
2418,0.18453,0.32871,1.51184,-0.00816,0.55366,0.15808,0.24151,0.0791,0.07832,0.0578,0.57937,0.56949,0.26302,0.19547,0.47858,0.08604,0.31402,0.91287,0.24573,0.25684,0.9086,0.01314,0.3388,1.43669,0.33752,0.26649,1.43519,-0.003,0.48187,1.1849,0.4077,0.38376,1.18145,0.07598,0.54805,1.42669,0.32639,0.48982,1.40006
2419,0.18515,0.32823,1.51168,-0.00932,0.55337,0.15823,0.24152,0.07895,0.07818,0.05799,0.57975,0.56938,0.26283,0.19574,0.47834,0.08575,0.31447,0.91287,0.24517,0.25657,0.90842,0.01358,0.33883,1.43759,0.33772,0.26563,1.43471,-0.00264,0.4837,1.18684,0.40732,0.38254,1.18065,0.07986,0.55001,1.42741,0.32687,0.48931,1.39923
2420,0.1858,0.32797,1.5115,-0.01038,0.55315,0.15819,0.24156,0.07863,0.07824,0.05811,0.57993,0.56912,0.2624,0.19668,0.47805,0.0854,0.31506,0.91295,0.24462,0.25662,0.90825,0.01379,0.33891,1.4388,0.33773,0.26465,1.43433,-0.00241,0.48538,1.18898,0.40731,0.38092,1.17997,0.08495,0.5531,1.42744,0.32744,0.48856,1.39833
2421,0.18624,0.32808,1.51129,-0.01127,0.55294,0.15787,0.24147,0.07832,0.07853,0.0583,0.57984,0.56861,0.26198,0.19807,0.47786,0.08501,0.31575,0.91309,0.24411,0.25699,0.90819,0.01392,0.33889,1.44057,0.33755,0.2636,1.43428,-0.00239,0.48669,1.19154,0.40726,0.37883,1.17948,0.09087,0.55769,1.42678,0.32803,0.48778,1.39743
2422,0.18638,0.32842,1.51104,-0.01208,0.55255,0.15713,0.2412,0.07824,0.07892,0.05856,0.5794,0.56769,0.2618,0.19954,0.47777,0.08467,0.31654,0.91316,0.24368,0.25754,0.90822,0.01403,0.33875,1.44224,0.33736,0.26267,1.43454,-0.00205,0.4885,1.19435,0.40687,0.37656,1.17909,0.09657,0.56394,1.426,0.32868,0.4873,1.39651
2423,0.18634,0.32852,1.5108,-0.013,0.55192,0.15588,0.24086,0.07837,0.07917,0.0588,0.57862,0.56624,0.26181,0.20094,0.47762,0.08445,0.31743,0.91301,0.24335,0.25811,0.90816,0.01389,0.3387,1.44289,0.33749,0.26199,1.4349,-0.00069,0.49181,1.19698,0.40619,0.37473,1.17872,0.10116,0.57178,1.42569,0.32924,0.48744,1.39557
2424,0.18638,0.32803,1.51061,-0.01422,0.55114,0.15416,0.24062,0.07857,0.0792,0.05898,0.57762,0.56429,0.26177,0.20237,0.47725,0.08432,0.31843,0.91258,0.24304,0.25864,0.90791,0.01336,0.33888,1.44255,0.33807,0.26156,1.43503,0.00147,0.49616,1.19914,0.40548,0.37395,1.17835,0.10454,0.58087,1.42559,0.32942,0.48821,1.3947
2425,0.18657,0.32711,1.51042,-0.01575,0.55034,0.15205,0.24064,0.07877,0.07912,0.05914,0.57656,0.56189,0.26149,0.20385,0.47679,0.08424,0.31966,0.91189,0.24271,0.25918,0.90757,0.01264,0.33915,1.44215,0.33875,0.2614,1.43472,0.0032,0.49993,1.20093,0.40477,0.37427,1.1779,0.10718,0.59037,1.42473,0.32913,0.48928,1.394
2426,0.18671,0.3264,1.51009,-0.01743,0.54964,0.14964,0.2409,0.07903,0.0791,0.05938,0.57546,0.55915,0.26095,0.20526,0.47645,0.08415,0.32114,0.91105,0.24232,0.25983,0.90733,0.01213,0.33943,1.4424,0.33896,0.26148,1.43395,0.00368,0.50231,1.20256,0.40391,0.37517,1.17721,0.10961,0.59938,1.42264,0.32861,0.49019,1.39342
2427,0.18657,0.32642,1.50954,-0.01898,0.54917,0.14698,0.24115,0.07935,0.07918,0.05971,0.57415,0.5562,0.26027,0.20658,0.47625,0.08393,0.32265,0.91015,0.24184,0.26063,0.9072,0.01199,0.34019,1.44295,0.33838,0.26175,1.43285,0.00336,0.5044,1.20402,0.40285,0.37592,1.1762,0.11231,0.60753,1.41983,0.3281,0.49084,1.39266
2428,0.18615,0.32721,1.50882,-0.02023,0.54897,0.14413,0.2412,0.0796,0.07933,0.05999,0.57245,0.55313,0.25962,0.20806,0.47604,0.08351,0.32398,0.90926,0.24126,0.26154,0.90707,0.01199,0.34212,1.44293,0.3371,0.26205,1.4316,0.0033,0.50783,1.20504,0.40165,0.37611,1.17492,0.11549,0.61467,1.41735,0.32754,0.49141,1.39139
2429,0.18563,0.32827,1.50806,-0.02122,0.54889,0.14109,0.2411,0.07968,0.07952,0.06016,0.57039,0.54997,0.25907,0.20993,0.47567,0.08302,0.3252,0.90842,0.24067,0.26246,0.90681,0.01178,0.34538,1.44198,0.33542,0.26222,1.43034,0.00369,0.51265,1.20516,0.40034,0.37572,1.1735,0.11859,0.62,1.41575,0.32693,0.49219,1.38959
2430,0.18526,0.32891,1.50738,-0.02204,0.54864,0.13782,0.24096,0.07966,0.07969,0.06029,0.56809,0.54661,0.25867,0.21218,0.47509,0.08266,0.32658,0.90758,0.24015,0.26346,0.90638,0.01121,0.34923,1.44068,0.33367,0.26225,1.42909,0.00351,0.51695,1.20417,0.39887,0.37507,1.17203,0.12034,0.62223,1.41474,0.32646,0.49331,1.38748
2431,0.18522,0.32892,1.50683,-0.02275,0.54805,0.13425,0.24084,0.07976,0.0797,0.06038,0.56581,0.54296,0.25848,0.2146,0.47432,0.08245,0.32835,0.90662,0.2397,0.26461,0.90574,0.01042,0.35267,1.43982,0.33222,0.26235,1.42776,0.00182,0.51885,1.20225,0.39727,0.37463,1.17042,0.11986,0.62093,1.41373,0.32625,0.49474,1.38532
2432,0.18542,0.32889,1.50626,-0.02325,0.54708,0.13038,0.24065,0.08006,0.07949,0.0603,0.56374,0.53906,0.25864,0.217,0.47337,0.08231,0.33044,0.90541,0.23921,0.26586,0.9049,0.00959,0.35554,1.43955,0.33125,0.26281,1.42625,-0.00114,0.51858,1.1999,0.39564,0.37466,1.16856,0.11762,0.61693,1.41274,0.3263,0.49615,1.38322
2433,0.18556,0.32958,1.50544,-0.0235,0.54575,0.12641,0.24034,0.08048,0.07918,0.05993,0.56198,0.53512,0.25917,0.21932,0.47235,0.08216,0.33266,0.90396,0.23868,0.26717,0.90395,0.00886,0.35847,1.43919,0.33059,0.26368,1.4245,-0.00429,0.51817,1.19742,0.39411,0.37491,1.16633,0.11505,0.61149,1.41219,0.32659,0.49711,1.38116
2434,0.1854,0.33116,1.50433,-0.02356,0.54398,0.12263,0.23999,0.08079,0.07898,0.05924,0.56057,0.53146,0.25985,0.2217,0.47137,0.08188,0.33478,0.90245,0.23815,0.26869,0.903,0.00822,0.36191,1.43806,0.3298,0.26485,1.42253,-0.00678,0.51924,1.19485,0.39275,0.37483,1.16368,0.11313,0.6053,1.41232,0.32705,0.49742,1.37886
2435,0.18502,0.33328,1.50301,-0.02353,0.54172,0.11927,0.23971,0.08085,0.07901,0.05828,0.55949,0.52825,0.26038,0.22429,0.47044,0.08138,0.33674,0.90103,0.23764,0.27062,0.90208,0.00759,0.36553,1.43617,0.32854,0.26628,1.42046,-0.00859,0.52152,1.19218,0.3916,0.37397,1.16068,0.11147,0.59867,1.41289,0.32738,0.49731,1.37588
2436,0.18459,0.33565,1.50156,-0.02346,0.539,0.11624,0.23957,0.08073,0.07912,0.05719,0.55874,0.52536,0.26064,0.22706,0.46946,0.0807,0.33869,0.89972,0.23714,0.273,0.90111,0.00695,0.36878,1.4342,0.32679,0.26783,1.41847,-0.01022,0.52363,1.18955,0.39067,0.37226,1.15756,0.10889,0.59206,1.41362,0.32715,0.49719,1.37205
2437,0.18407,0.33828,1.50001,-0.02332,0.53593,0.1133,0.2395,0.08061,0.07913,0.05614,0.55824,0.52251,0.26078,0.22992,0.46832,0.08001,0.3408,0.89838,0.23666,0.27563,0.89996,0.00624,0.37163,1.4327,0.32469,0.26933,1.41669,-0.01204,0.52474,1.18704,0.38983,0.37018,1.15468,0.10489,0.58598,1.41432,0.32616,0.49765,1.36763
2438,0.1832,0.34113,1.49843,-0.02305,0.53269,0.11023,0.23944,0.08064,0.07904,0.05522,0.55788,0.51951,0.26099,0.23311,0.46699,0.07943,0.34309,0.89687,0.23622,0.27826,0.89865,0.00531,0.3743,1.43172,0.32248,0.27073,1.41506,-0.01398,0.52497,1.18463,0.38878,0.36854,1.1522,0.10012,0.5805,1.41479,0.32467,0.49925,1.36304
2439,0.18181,0.34398,1.49696,-0.02257,0.52945,0.10702,0.23949,0.08088,0.07904,0.05443,0.55757,0.51635,0.2614,0.23693,0.46554,0.07896,0.34546,0.89521,0.2358,0.28074,0.89729,0.00408,0.37673,1.43106,0.3205,0.27236,1.41339,-0.01595,0.52453,1.1823,0.38725,0.36782,1.14979,0.09517,0.57541,1.41498,0.32315,0.50205,1.3584
2440,0.17996,0.34662,1.49569,-0.02188,0.5264,0.10387,0.23962,0.08134,0.07927,0.05376,0.55733,0.51325,0.262,0.24129,0.46415,0.07856,0.34772,0.89348,0.23544,0.28313,0.89604,0.00262,0.37854,1.43062,0.31902,0.27464,1.41156,-0.01822,0.52323,1.18011,0.38523,0.36762,1.14693,0.08951,0.5706,1.41512,0.32188,0.50532,1.3535
2441,0.17785,0.34909,1.49455,-0.02099,0.52393,0.10096,0.23966,0.08207,0.07974,0.05312,0.55718,0.51043,0.26264,0.2458,0.46299,0.07809,0.34973,0.89184,0.23511,0.28551,0.89502,0.00098,0.37965,1.43042,0.31793,0.27751,1.40969,-0.02112,0.52105,1.17814,0.3828,0.36702,1.14354,0.08267,0.56629,1.41533,0.32086,0.5084,1.34804
2442,0.17571,0.35168,1.49335,-0.01997,0.5225,0.09838,0.23944,0.08303,0.08038,0.05244,0.55715,0.50804,0.2632,0.25017,0.46211,0.07741,0.35156,0.89045,0.23467,0.28796,0.89424,-0.00094,0.38045,1.43026,0.3169,0.28046,1.40803,-0.02445,0.51871,1.17637,0.38007,0.3655,1.14001,0.07534,0.56308,1.41544,0.31988,0.51127,1.34194
2443,0.17365,0.35449,1.49204,-0.01891,0.52238,0.09609,0.23899,0.08412,0.08115,0.05167,0.55722,0.50606,0.26376,0.25446,0.4614,0.07641,0.35343,0.88945,0.23394,0.29053,0.89359,-0.00325,0.38142,1.42984,0.31578,0.2833,1.40673,-0.02774,0.51721,1.17472,0.37724,0.36337,1.13678,0.06862,0.5615,1.4152,0.31891,0.51427,1.33546
2444,0.17155,0.35729,1.49084,-0.01789,0.52338,0.09405,0.23841,0.08528,0.08205,0.05081,0.55739,0.50441,0.26448,0.25892,0.46072,0.07513,0.35548,0.88882,0.23296,0.29334,0.89293,-0.00599,0.38262,1.42898,0.31462,0.28643,1.4056,-0.03074,0.51697,1.17312,0.37464,0.36121,1.13382,0.06291,0.56149,1.41463,0.31799,0.51744,1.32883
2445,0.16909,0.3597,1.49002,-0.01694,0.52488,0.09221,0.23785,0.08654,0.08309,0.04982,0.55775,0.50298,0.26535,0.26361,0.46006,0.07373,0.35763,0.88834,0.232,0.2966,0.89224,-0.00914,0.38367,1.42782,0.31346,0.29029,1.40431,-0.03361,0.51773,1.17178,0.37244,0.35918,1.13075,0.05799,0.5624,1.41405,0.31713,0.52063,1.32187
2446,0.16605,0.36163,1.48965,-0.01596,0.52615,0.09043,0.23741,0.08787,0.08417,0.04861,0.55831,0.50161,0.2662,0.26822,0.45948,0.07235,0.35971,0.88776,0.23127,0.30037,0.8916,-0.01251,0.38403,1.42691,0.31222,0.29503,1.40271,-0.03668,0.51878,1.1712,0.37061,0.35712,1.1274,0.05375,0.5636,1.41388,0.31642,0.52376,1.31433
2447,0.16253,0.36344,1.48948,-0.01496,0.52673,0.08858,0.23713,0.08916,0.08521,0.04714,0.55887,0.50014,0.26684,0.27237,0.45906,0.07103,0.36162,0.88698,0.23072,0.30442,0.89109,-0.01587,0.38355,1.42687,0.31085,0.30066,1.40094,-0.04034,0.51922,1.17168,0.36906,0.35509,1.12398,0.05026,0.56493,1.41413,0.31581,0.52699,1.30636
2448,0.15884,0.3656,1.48922,-0.01402,0.52656,0.08659,0.23697,0.09036,0.08624,0.04553,0.55892,0.4985,0.26718,0.27602,0.45885,0.06966,0.36334,0.88618,0.23014,0.30845,0.89078,-0.01926,0.3828,1.42783,0.30932,0.307,1.39919,-0.04471,0.51854,1.17277,0.36766,0.35348,1.12081,0.04743,0.5665,1.4142,0.31504,0.53061,1.29831
2449,0.15517,0.3683,1.4888,-0.01317,0.52596,0.08451,0.23699,0.09145,0.08737,0.04394,0.55801,0.4968,0.26724,0.27936,0.45884,0.06811,0.36499,0.88575,0.22937,0.31245,0.89064,-0.0229,0.38258,1.4293,0.3075,0.31377,1.39751,-0.04974,0.5169,1.17363,0.36636,0.35262,1.11808,0.045,0.56819,1.41336,0.31389,0.53501,1.29021
2450,0.15155,0.37144,1.48829,-0.0125,0.52533,0.08246,0.23728,0.09232,0.08861,0.04243,0.55611,0.49514,0.26711,0.28254,0.45894,0.0664,0.36672,0.88589,0.22845,0.31667,0.89059,-0.02673,0.38292,1.43057,0.30539,0.32081,1.39597,-0.05521,0.51496,1.1739,0.36517,0.35248,1.11582,0.04249,0.56953,1.41171,0.31252,0.5404,1.28184
2451,0.14784,0.37493,1.48785,-0.01216,0.5249,0.08061,0.23792,0.09288,0.08992,0.04093,0.55372,0.49367,0.26694,0.28537,0.45914,0.06467,0.36859,0.88647,0.22756,0.32126,0.89058,-0.0305,0.38318,1.43129,0.30329,0.32821,1.39465,-0.06075,0.51341,1.17389,0.36406,0.35266,1.114,0.03945,0.57013,1.41016,0.31114,0.54642,1.27307
2452,0.14385,0.37861,1.48772,-0.01223,0.52478,0.07916,0.23891,0.09315,0.09136,0.03934,0.55148,0.49256,0.26684,0.28762,0.45963,0.06308,0.37052,0.88729,0.22679,0.32608,0.89079,-0.03421,0.38274,1.43164,0.30161,0.33616,1.39364,-0.06611,0.5125,1.1742,0.36291,0.35269,1.11252,0.03595,0.57026,1.40941,0.30967,0.55236,1.26399
2453,0.1395,0.38214,1.48822,-0.01259,0.52496,0.07832,0.24021,0.09336,0.09301,0.03765,0.54973,0.492,0.26668,0.28917,0.46067,0.0617,0.37242,0.88836,0.22618,0.33088,0.89148,-0.03807,0.38138,1.43219,0.30043,0.3448,1.39296,-0.07145,0.51164,1.1752,0.36151,0.35229,1.11141,0.03273,0.57074,1.40915,0.30816,0.5577,1.25497
2454,0.13505,0.38523,1.48942,-0.01295,0.52526,0.07806,0.24177,0.09375,0.09482,0.03582,0.54838,0.49201,0.26621,0.29005,0.46236,0.06056,0.37424,0.88974,0.22573,0.33555,0.89279,-0.04204,0.37922,1.43339,0.29935,0.35417,1.39272,-0.07714,0.51006,1.17692,0.35965,0.35159,1.11092,0.03031,0.57208,1.40863,0.30716,0.56247,1.24665
2455,0.13102,0.38802,1.49106,-0.01314,0.52549,0.07815,0.24368,0.09436,0.09672,0.03379,0.54718,0.49239,0.26536,0.29033,0.46462,0.05964,0.37593,0.89131,0.22546,0.34013,0.89463,-0.04566,0.37658,1.43511,0.29786,0.36422,1.39311,-0.08319,0.50766,1.17911,0.35725,0.35124,1.1114,0.02829,0.57364,1.4078,0.30695,0.5674,1.23944
2456,0.12775,0.39099,1.49284,-0.01315,0.52558,0.07835,0.24605,0.09501,0.09875,0.03152,0.54588,0.49292,0.26435,0.29016,0.46726,0.05879,0.37735,0.89289,0.22525,0.34469,0.89677,-0.04843,0.37364,1.43689,0.29569,0.37508,1.39433,-0.08943,0.50488,1.1815,0.35456,0.35232,1.11313,0.02571,0.57404,1.40742,0.30655,0.57365,1.23295
2457,0.12511,0.39454,1.49463,-0.01317,0.52561,0.07863,0.24879,0.0955,0.101,0.0291,0.54436,0.49352,0.26357,0.28973,0.47015,0.05779,0.37837,0.89445,0.22489,0.34927,0.89904,-0.05017,0.37015,1.43857,0.29295,0.38703,1.3965,-0.09603,0.50155,1.18409,0.3521,0.35581,1.11617,0.0218,0.57243,1.40808,0.3044,0.5821,1.22647
2458,0.12269,0.39856,1.49654,-0.01332,0.52563,0.07908,0.2517,0.09577,0.10353,0.02677,0.54273,0.49426,0.26326,0.28919,0.47322,0.05651,0.37905,0.89606,0.22423,0.3539,0.90132,-0.05099,0.36579,1.44054,0.29003,0.40003,1.39953,-0.10334,0.49692,1.18718,0.35024,0.36199,1.12027,0.01655,0.56895,1.40969,0.30028,0.59263,1.22005
2459,0.12032,0.40253,1.49871,-0.0136,0.52556,0.07966,0.25456,0.09586,0.10627,0.02478,0.54105,0.49506,0.26341,0.28865,0.47637,0.05505,0.37962,0.89774,0.22332,0.35861,0.90355,-0.05121,0.36063,1.44325,0.28729,0.41356,1.40313,-0.11114,0.49083,1.19109,0.34914,0.3707,1.12493,0.01069,0.56438,1.41205,0.29563,0.60456,1.21488
2460,0.11807,0.40597,1.50119,-0.01387,0.52534,0.08022,0.25721,0.09583,0.10908,0.02327,0.53925,0.49579,0.26372,0.28818,0.47946,0.05347,0.38016,0.8994,0.22221,0.36343,0.9056,-0.05108,0.35503,1.44655,0.28474,0.42709,1.40697,-0.11861,0.48433,1.19585,0.34881,0.38224,1.12959,0.0054,0.55974,1.41497,0.29157,0.61786,1.21239
2461,0.11581,0.40883,1.50388,-0.01386,0.52502,0.08061,0.25961,0.09575,0.11182,0.02217,0.53719,0.49633,0.26389,0.28785,0.48235,0.05183,0.38048,0.90091,0.22094,0.36822,0.90741,-0.05058,0.34931,1.44995,0.28209,0.44067,1.41087,-0.12511,0.47836,1.20112,0.34913,0.39761,1.13391,0.00153,0.55602,1.41793,0.28752,0.63335,1.21314
2462,0.11322,0.41147,1.50662,-0.01341,0.52472,0.0808,0.26191,0.09557,0.11441,0.02136,0.53482,0.49669,0.26387,0.28776,0.48492,0.05032,0.38018,0.90211,0.21969,0.37261,0.90899,-0.04959,0.34379,1.45322,0.2791,0.45464,1.41481,-0.13067,0.47258,1.2063,0.34968,0.41747,1.13787,-0.00115,0.55365,1.42015,0.28214,0.65168,1.21682
2463,0.11026,0.41416,1.50921,-0.01264,0.52429,0.08086,0.26419,0.0951,0.1169,0.02071,0.53217,0.49691,0.26384,0.28811,0.48699,0.04912,0.37905,0.90295,0.21861,0.3762,0.91028,-0.04808,0.33876,1.45654,0.27553,0.46895,1.41883,-0.13573,0.46581,1.21098,0.35005,0.44093,1.14184,-0.0036,0.55194,1.42122,0.27521,0.6721,1.22311
2464,0.10723,0.41684,1.51155,-0.0119,0.52352,0.08084,0.26629,0.09419,0.11937,0.0201,0.52931,0.49702,0.26395,0.28929,0.48835,0.04816,0.37736,0.90353,0.21766,0.3789,0.91121,-0.04593,0.33429,1.4602,0.27107,0.4827,1.42283,-0.14062,0.45731,1.21519,0.35009,0.46611,1.14617,-0.0063,0.54984,1.42128,0.26769,0.69304,1.23198
2465,0.10438,0.41929,1.5136,-0.01142,0.52263,0.08082,0.26801,0.09282,0.12197,0.0194,0.52644,0.49712,0.26409,0.29154,0.489,0.04714,0.37561,0.90406,0.21656,0.3807,0.91182,-0.0429,0.3302,1.4642,0.26571,0.49442,1.4266,-0.14518,0.44726,1.21933,0.34945,0.49206,1.15084,-0.00891,0.54723,1.42061,0.26014,0.71366,1.24339
2466,0.10163,0.42144,1.51525,-0.01113,0.52204,0.08091,0.26923,0.09098,0.12487,0.01859,0.52377,0.49731,0.26422,0.29469,0.48914,0.04574,0.37405,0.9047,0.21508,0.38151,0.91226,-0.03895,0.32648,1.46824,0.26001,0.50344,1.42987,-0.14906,0.43662,1.22355,0.34705,0.51935,1.15559,-0.01094,0.5449,1.4192,0.25197,0.73433,1.25753
2467,0.09872,0.42351,1.51635,-0.01092,0.52193,0.08121,0.26985,0.08868,0.12815,0.01775,0.52144,0.49768,0.26449,0.29835,0.48903,0.04394,0.37249,0.90543,0.21323,0.38131,0.91267,-0.03438,0.32345,1.47194,0.25453,0.51089,1.43238,-0.15211,0.42643,1.22769,0.34193,0.54893,1.1604,-0.01262,0.54317,1.41741,0.24238,0.7553,1.27507
2468,0.09549,0.42589,1.51679,-0.01084,0.52199,0.08166,0.2698,0.08612,0.13174,0.01696,0.51942,0.49819,0.26506,0.30227,0.48877,0.04197,0.37078,0.90611,0.21123,0.3804,0.91301,-0.02952,0.32148,1.47524,0.24926,0.51877,1.43403,-0.15452,0.41701,1.23157,0.33416,0.58075,1.16569,-0.01476,0.54111,1.41635,0.23144,0.77573,1.29636
2469,0.09218,0.4288,1.51659,-0.01094,0.52189,0.08207,0.26924,0.08371,0.13531,0.01617,0.51766,0.49863,0.26594,0.30642,0.48831,0.04016,0.36898,0.9066,0.2094,0.37917,0.91316,-0.02445,0.32048,1.47817,0.24366,0.52823,1.43501,-0.1564,0.40805,1.23517,0.32457,0.6136,1.1719,-0.01791,0.53779,1.41701,0.21988,0.79429,1.32036
2470,0.08938,0.432,1.51598,-0.01122,0.52159,0.08226,0.2685,0.08184,0.13848,0.01525,0.51621,0.49884,0.26703,0.31077,0.48749,0.03868,0.36717,0.90672,0.20791,0.37775,0.91293,-0.01911,0.31982,1.48054,0.23741,0.53885,1.43568,-0.15743,0.39937,1.23833,0.31378,0.64602,1.17928,-0.02188,0.53371,1.41904,0.20828,0.81048,1.34503
2471,0.08773,0.43508,1.51519,-0.01162,0.52119,0.0822,0.26788,0.08064,0.14097,0.0142,0.51534,0.49882,0.26827,0.31528,0.48617,0.03737,0.36523,0.90632,0.2066,0.37609,0.91218,-0.01364,0.31893,1.4821,0.23087,0.5494,1.43638,-0.15731,0.39121,1.24073,0.30202,0.67704,1.18797,-0.02612,0.53011,1.42121,0.19678,0.825,1.36874
2472,0.08745,0.43791,1.51431,-0.01202,0.52074,0.08202,0.2675,0.08018,0.14276,0.01312,0.51526,0.49868,0.26957,0.31998,0.48439,0.03597,0.36307,0.90543,0.20519,0.37413,0.9109,-0.00857,0.31793,1.48283,0.2247,0.5588,1.43727,-0.15622,0.38392,1.24206,0.28956,0.70612,1.19821,-0.0298,0.52713,1.42257,0.18517,0.83883,1.39093
2473,0.08805,0.44079,1.51319,-0.01226,0.52022,0.08181,0.26743,0.0806,0.14389,0.01207,0.5157,0.49853,0.27082,0.32483,0.48236,0.0344,0.36086,0.9043,0.20364,0.37199,0.90926,-0.00432,0.31734,1.48279,0.21923,0.56671,1.43848,-0.15475,0.3778,1.24229,0.27695,0.73258,1.20998,-0.03182,0.52384,1.42295,0.17312,0.85209,1.41144
2474,0.08869,0.44402,1.51156,-0.01215,0.51976,0.0816,0.26779,0.08199,0.14439,0.01107,0.51618,0.4984,0.27196,0.32976,0.48027,0.03289,0.35876,0.9032,0.20213,0.37009,0.90744,-0.00056,0.31736,1.48193,0.21437,0.57346,1.43999,-0.15337,0.37308,1.24178,0.26483,0.75572,1.22252,-0.03195,0.52026,1.42254,0.16058,0.86419,1.42992
2475,0.08869,0.44762,1.50929,-0.01176,0.51958,0.08141,0.26863,0.0842,0.14433,0.01012,0.51646,0.49829,0.27304,0.33477,0.47811,0.03166,0.35666,0.90217,0.20088,0.36869,0.90546,0.00348,0.31762,1.48033,0.20979,0.57968,1.44148,-0.15209,0.36957,1.2411,0.25356,0.77539,1.2345,-0.0315,0.51789,1.42148,0.14784,0.87464,1.44574
2476,0.08797,0.45132,1.5065,-0.01144,0.51973,0.08126,0.26988,0.0868,0.14393,0.00925,0.51664,0.49819,0.27412,0.33994,0.47577,0.03073,0.35432,0.90107,0.19986,0.36766,0.90321,0.00792,0.31774,1.47835,0.20521,0.58568,1.44245,-0.15061,0.36677,1.24046,0.24319,0.79204,1.24488,-0.03209,0.5178,1.41996,0.13525,0.88352,1.45849
2477,0.08675,0.45478,1.50342,-0.01158,0.5199,0.08107,0.27133,0.08929,0.14356,0.00851,0.51681,0.49803,0.27521,0.34531,0.47318,0.0299,0.35177,0.89982,0.1989,0.36682,0.90061,0.01197,0.31754,1.47632,0.20061,0.59137,1.44233,-0.14869,0.36441,1.23943,0.23366,0.80625,1.25314,-0.03414,0.51921,1.41829,0.12324,0.89107,1.46823
2478,0.08531,0.45777,1.50023,-0.01223,0.51971,0.08075,0.27281,0.09137,0.14352,0.00795,0.51693,0.49771,0.27622,0.35092,0.47038,0.02901,0.34934,0.89845,0.19783,0.36633,0.8977,0.01468,0.31698,1.47418,0.19624,0.59646,1.44092,-0.14657,0.36272,1.23746,0.22509,0.81819,1.25909,-0.03707,0.52077,1.41665,0.11247,0.89715,1.47526
2479,0.08382,0.46014,1.49713,-0.01294,0.51911,0.0802,0.27436,0.09304,0.14392,0.00759,0.51705,0.49714,0.27691,0.35671,0.46749,0.02808,0.3473,0.89701,0.19666,0.36637,0.89463,0.01577,0.31635,1.47168,0.19233,0.60069,1.43857,-0.14474,0.36179,1.2344,0.21783,0.82748,1.26257,-0.04028,0.52192,1.41474,0.1036,0.90134,1.47969
2480,0.08218,0.46179,1.49434,-0.01322,0.51847,0.07943,0.27616,0.09441,0.14469,0.00746,0.51726,0.49637,0.27695,0.36251,0.46459,0.02727,0.34558,0.89545,0.19555,0.36693,0.8916,0.0155,0.31628,1.46881,0.18887,0.60389,1.43591,-0.1435,0.36124,1.23043,0.21202,0.83361,1.26343,-0.04351,0.5228,1.41203,0.09704,0.90356,1.48145
2481,0.08008,0.46279,1.49195,-0.01303,0.51818,0.07859,0.27848,0.0956,0.14559,0.00751,0.51764,0.49554,0.27631,0.36805,0.46179,0.02678,0.34404,0.8938,0.19469,0.3679,0.88878,0.01427,0.31715,1.4658,0.1858,0.60602,1.43319,-0.14273,0.36073,1.22584,0.20739,0.8366,1.26166,-0.04659,0.52352,1.40842,0.09289,0.90442,1.48061
2482,0.07734,0.46348,1.4897,-0.01274,0.51835,0.07783,0.28145,0.09678,0.14641,0.00758,0.51824,0.49479,0.27521,0.37316,0.45914,0.02678,0.34259,0.89216,0.19425,0.36922,0.88623,0.01241,0.31859,1.46282,0.18334,0.60721,1.43014,-0.14221,0.36043,1.22102,0.20364,0.83715,1.25758,-0.04914,0.52407,1.40442,0.09096,0.90462,1.47758
2483,0.07431,0.46437,1.4872,-0.0126,0.51878,0.07725,0.28498,0.09829,0.14709,0.00741,0.51923,0.49423,0.27393,0.37803,0.45667,0.02735,0.34122,0.89051,0.19428,0.37092,0.88397,0.01015,0.31972,1.45998,0.18173,0.60776,1.42664,-0.14193,0.36055,1.21641,0.20077,0.83608,1.25181,-0.05089,0.52455,1.40051,0.09086,0.90451,1.47291
2484,0.07164,0.46577,1.48436,-0.0126,0.51914,0.07686,0.28869,0.10038,0.14769,0.00687,0.52077,0.49386,0.27261,0.38305,0.45439,0.02843,0.33986,0.88874,0.19472,0.37287,0.88195,0.00756,0.32011,1.4573,0.18081,0.60796,1.42299,-0.14208,0.36095,1.21222,0.19882,0.83392,1.24501,-0.05193,0.52512,1.3966,0.09216,0.90415,1.46713
2485,0.06958,0.46758,1.48139,-0.01264,0.5192,0.07661,0.29197,0.10294,0.14838,0.00605,0.52268,0.49363,0.27142,0.3884,0.4522,0.02979,0.33844,0.88685,0.1954,0.37473,0.88001,0.00465,0.32024,1.45465,0.18011,0.60793,1.41951,-0.14284,0.36122,1.20828,0.19757,0.83084,1.23767,-0.05246,0.52563,1.39235,0.09458,0.90361,1.46071
2486,0.06777,0.46947,1.47862,-0.01272,0.51902,0.07639,0.29441,0.10548,0.14932,0.00522,0.5243,0.49343,0.27051,0.39399,0.45,0.03117,0.33697,0.88504,0.19612,0.37607,0.87793,0.00157,0.32107,1.45192,0.1794,0.60766,1.41606,-0.14419,0.36109,1.20437,0.19664,0.82715,1.23009,-0.05248,0.52571,1.38759,0.09783,0.90312,1.45394
2487,0.06581,0.47127,1.4762,-0.01292,0.5189,0.07602,0.29597,0.10783,0.15057,0.00455,0.52512,0.49307,0.27001,0.3997,0.44783,0.03232,0.33561,0.8835,0.19675,0.37675,0.87572,-0.00154,0.32309,1.44925,0.17873,0.60727,1.41234,-0.14593,0.36069,1.20052,0.19596,0.82336,1.22242,-0.0522,0.52535,1.38267,0.10141,0.90289,1.44688
2488,0.06366,0.47289,1.47414,-0.01319,0.51901,0.07545,0.29673,0.11041,0.15197,0.00401,0.52524,0.4925,0.26992,0.40548,0.44596,0.03314,0.33453,0.88226,0.19719,0.37702,0.87361,-0.0048,0.32588,1.44691,0.17818,0.60697,1.4084,-0.14778,0.36057,1.19695,0.19577,0.81977,1.21484,-0.05226,0.52507,1.37832,0.10476,0.90294,1.43945
2489,0.0616,0.47417,1.47248,-0.01338,0.51922,0.07488,0.29676,0.11365,0.15324,0.00349,0.5252,0.49196,0.27021,0.41127,0.44467,0.0336,0.33383,0.88131,0.19738,0.37715,0.87189,-0.00829,0.32853,1.44503,0.1777,0.60662,1.40465,-0.14953,0.36127,1.19382,0.19648,0.81616,1.20767,-0.05331,0.52563,1.37495,0.10772,0.90296,1.43181
2490,0.05989,0.47496,1.4713,-0.01335,0.51938,0.07463,0.29621,0.11744,0.15423,0.00303,0.52536,0.49172,0.27067,0.41679,0.44399,0.03371,0.33343,0.88076,0.19735,0.37714,0.87064,-0.01191,0.33057,1.44358,0.17717,0.6059,1.40144,-0.15108,0.36277,1.19115,0.19827,0.8121,1.20121,-0.05524,0.52746,1.37218,0.1105,0.90249,1.42431
2491,0.05854,0.47546,1.4705,-0.0132,0.51955,0.07479,0.29546,0.12128,0.15505,0.00282,0.5258,0.4919,0.271,0.42172,0.44377,0.03355,0.3332,0.88059,0.19713,0.377,0.86982,-0.01549,0.33226,1.44244,0.17656,0.6048,1.39874,-0.15247,0.36463,1.18884,0.20086,0.80769,1.19551,-0.05746,0.53016,1.36953,0.11325,0.90144,1.41728
2492,0.05743,0.47615,1.46976,-0.01312,0.51983,0.0752,0.29498,0.12468,0.15601,0.00299,0.52639,0.49229,0.27106,0.42596,0.44389,0.03324,0.33301,0.88064,0.19676,0.37689,0.8694,-0.01885,0.33393,1.44149,0.1759,0.60377,1.39628,-0.15377,0.36648,1.18681,0.20364,0.80359,1.19047,-0.05963,0.53276,1.36727,0.11564,0.90019,1.41086
2493,0.05637,0.47734,1.46881,-0.01311,0.52011,0.07554,0.29508,0.1274,0.15734,0.00353,0.52682,0.49261,0.27109,0.42956,0.4443,0.03284,0.33283,0.88073,0.19627,0.37701,0.86929,-0.02175,0.33561,1.44063,0.17537,0.60328,1.39406,-0.15493,0.3682,1.18503,0.2061,0.80032,1.186,-0.06179,0.53472,1.3658,0.11733,0.89918,1.40508
2494,0.05532,0.47888,1.46774,-0.01301,0.52016,0.0756,0.29569,0.12949,0.15891,0.00439,0.52673,0.49265,0.27141,0.43257,0.44487,0.03244,0.33265,0.88081,0.19572,0.37733,0.86937,-0.02418,0.33721,1.43979,0.17531,0.60342,1.3923,-0.15599,0.3697,1.18348,0.20811,0.79785,1.18211,-0.06391,0.53626,1.36474,0.11845,0.89847,1.40002
2495,0.05439,0.48042,1.46687,-0.01268,0.51993,0.07544,0.2966,0.1312,0.16028,0.0056,0.52612,0.49245,0.27209,0.435,0.44545,0.0321,0.33236,0.88088,0.19523,0.37761,0.86946,-0.02642,0.3388,1.43901,0.17587,0.6039,1.39112,-0.1571,0.37099,1.18208,0.2098,0.79584,1.17884,-0.06561,0.53774,1.36347,0.11934,0.89782,1.39578
2496,0.05379,0.48172,1.46644,-0.01218,0.51967,0.0753,0.29779,0.13268,0.16101,0.00713,0.5253,0.49227,0.27292,0.4367,0.44593,0.03186,0.33184,0.88097,0.19483,0.37764,0.86948,-0.02862,0.3405,1.4384,0.17679,0.60439,1.39041,-0.15823,0.37224,1.18087,0.21111,0.79413,1.17621,-0.06669,0.53919,1.36205,0.11997,0.89707,1.39242
2497,0.05359,0.4828,1.46641,-0.01171,0.51948,0.07533,0.29942,0.13385,0.16104,0.00882,0.52449,0.49225,0.2736,0.43747,0.44629,0.03166,0.3311,0.88109,0.19451,0.3773,0.8695,-0.03069,0.34229,1.43821,0.17768,0.60472,1.39001,-0.15911,0.37367,1.18004,0.21192,0.79269,1.17425,-0.06763,0.54097,1.36092,0.12007,0.89616,1.3899
2498,0.05363,0.48385,1.46655,-0.01147,0.51934,0.07546,0.30147,0.13458,0.16069,0.0104,0.52362,0.49232,0.27393,0.43736,0.44667,0.03138,0.33032,0.88132,0.1942,0.37664,0.86968,-0.03242,0.34403,1.43861,0.17839,0.60478,1.3898,-0.15948,0.37555,1.17979,0.21228,0.79146,1.17287,-0.06947,0.54419,1.36017,0.11979,0.89509,1.38817
2499,0.05367,0.48499,1.46665,-0.01146,0.5192,0.07555,0.30363,0.13489,0.16035,0.01164,0.52258,0.49236,0.27388,0.43669,0.44714,0.03101,0.32971,0.88165,0.19387,0.37588,0.87008,-0.03373,0.34553,1.43954,0.17903,0.60442,1.38961,-0.15927,0.37809,1.18011,0.21234,0.79038,1.17196,-0.0728,0.5496,1.35951,0.11962,0.89388,1.38722
2500,0.05363,0.48622,1.46671,-0.0115,0.51913,0.07556,0.30549,0.13491,0.16015,0.01238,0.5214,0.49232,0.27364,0.43576,0.44772,0.0306,0.32933,0.88207,0.19354,0.37527,0.8707,-0.03463,0.34683,1.44067,0.17982,0.60376,1.38923,-0.15863,0.38109,1.18071,0.21226,0.78962,1.17137,-0.07692,0.55633,1.35874,0.11983,0.89263,1.387
2501,0.05358,0.48743,1.46685,-0.01149,0.51914,0.07551,0.30679,0.13473,0.16,0.01261,0.52024,0.49227,0.27345,0.43464,0.44837,0.0302,0.32917,0.88254,0.19323,0.37487,0.87143,-0.03527,0.34825,1.44169,0.18079,0.60325,1.38873,-0.15784,0.38386,1.18124,0.21215,0.78942,1.17098,-0.0802,0.56233,1.35787,0.12016,0.89156,1.3872
2502,0.05361,0.48857,1.46717,-0.01149,0.51919,0.07551,0.30736,0.13431,0.15977,0.01243,0.51929,0.49228,0.27351,0.4333,0.44904,0.02978,0.32915,0.883,0.19292,0.3745,0.87216,-0.03581,0.35002,1.44246,0.18171,0.60323,1.38834,-0.1571,0.38583,1.18143,0.21207,0.78981,1.1708,-0.08142,0.56612,1.35707,0.12025,0.89097,1.38756
2503,0.05362,0.48961,1.46768,-0.01157,0.51921,0.07563,0.30721,0.13355,0.15951,0.01197,0.51868,0.49242,0.27386,0.43171,0.44969,0.02933,0.32911,0.88343,0.19265,0.37387,0.87282,-0.0363,0.3519,1.44292,0.1824,0.60375,1.38824,-0.15653,0.3869,1.18129,0.21184,0.79075,1.17093,-0.08048,0.56754,1.35639,0.12,0.89092,1.38814
2504,0.05341,0.49048,1.46825,-0.01168,0.51921,0.07592,0.30654,0.13226,0.1594,0.01138,0.51829,0.49274,0.27432,0.42983,0.45032,0.0289,0.32892,0.88383,0.19245,0.37288,0.87344,-0.03674,0.35344,1.44309,0.18292,0.6046,1.38843,-0.15612,0.38746,1.18095,0.21131,0.79211,1.17142,-0.07807,0.56771,1.35558,0.11951,0.89124,1.38912
2505,0.05301,0.49106,1.46873,-0.01179,0.51919,0.07632,0.30546,0.13057,0.15944,0.01081,0.51787,0.49316,0.2747,0.42772,0.45094,0.02859,0.32854,0.88426,0.19236,0.37173,0.8741,-0.03713,0.35454,1.44306,0.18343,0.60559,1.38885,-0.15583,0.38811,1.18055,0.21051,0.79365,1.17215,-0.07529,0.56809,1.35433,0.11893,0.89172,1.39042
2506,0.05282,0.49145,1.46905,-0.01193,0.51912,0.07668,0.30391,0.12889,0.15936,0.01029,0.51728,0.49354,0.27492,0.42555,0.45155,0.0284,0.32817,0.88474,0.19234,0.37078,0.87482,-0.03748,0.35554,1.4429,0.18404,0.60655,1.38938,-0.15561,0.38923,1.18015,0.20973,0.79512,1.17296,-0.07301,0.56946,1.3527,0.1184,0.89228,1.39174
2507,0.05331,0.49186,1.46931,-0.01217,0.51899,0.07687,0.30189,0.1276,0.15895,0.00975,0.5165,0.49374,0.275,0.42356,0.45204,0.02823,0.32802,0.88523,0.19232,0.3701,0.87546,-0.03776,0.35679,1.4427,0.18477,0.60725,1.38985,-0.15543,0.39068,1.17977,0.20925,0.79631,1.17371,-0.07157,0.57129,1.3513,0.11813,0.89281,1.39287
2508,0.05442,0.49245,1.46971,-0.01251,0.51883,0.07683,0.2996,0.12666,0.15838,0.00908,0.51568,0.49372,0.27502,0.42194,0.45236,0.02798,0.32816,0.88564,0.19224,0.36953,0.87589,-0.03805,0.35829,1.44253,0.1856,0.60754,1.39007,-0.15529,0.39207,1.17939,0.20914,0.79719,1.17434,-0.07091,0.57262,1.35074,0.11818,0.89321,1.39379
2509,0.05553,0.49315,1.47036,-0.01291,0.51865,0.07667,0.29744,0.12599,0.15801,0.00837,0.51495,0.49357,0.27501,0.42081,0.45262,0.02764,0.32839,0.88593,0.19212,0.36893,0.8762,-0.03852,0.35962,1.44247,0.18636,0.60754,1.39003,-0.15517,0.39319,1.17904,0.20919,0.79791,1.17487,-0.07074,0.57321,1.35093,0.11846,0.89349,1.3946
2510,0.05606,0.49385,1.47116,-0.01333,0.51845,0.07654,0.29566,0.12562,0.15804,0.00777,0.51446,0.49344,0.275,0.42024,0.45299,0.02725,0.32857,0.88611,0.19191,0.36839,0.87653,-0.03918,0.36043,1.44243,0.18692,0.60757,1.38995,-0.15511,0.39413,1.1787,0.20922,0.79865,1.17536,-0.07076,0.57365,1.35115,0.11875,0.89372,1.39542
2511,0.05587,0.49448,1.47189,-0.0137,0.51827,0.07653,0.29423,0.12565,0.1583,0.00729,0.51423,0.49344,0.275,0.42014,0.45347,0.02678,0.32875,0.8863,0.1916,0.36797,0.87691,-0.03994,0.3609,1.4423,0.18736,0.60779,1.39003,-0.15518,0.39509,1.17833,0.2092,0.79939,1.17586,-0.07099,0.57456,1.3509,0.11896,0.89394,1.39624
2512,0.05524,0.49499,1.47239,-0.01399,0.51823,0.07664,0.29306,0.12604,0.15854,0.00687,0.51425,0.49355,0.27497,0.42031,0.45399,0.0263,0.32902,0.88654,0.19124,0.36771,0.87732,-0.04072,0.36149,1.44204,0.18781,0.60806,1.39036,-0.15531,0.3963,1.17787,0.20921,0.79983,1.1763,-0.07166,0.57615,1.35031,0.11911,0.89412,1.39685
2513,0.05461,0.49538,1.47263,-0.01418,0.51834,0.07677,0.29216,0.12661,0.15865,0.00645,0.51447,0.4937,0.27481,0.42058,0.45445,0.02588,0.32936,0.88675,0.1909,0.36777,0.87771,-0.04156,0.36242,1.4417,0.18823,0.60813,1.39083,-0.15536,0.3979,1.17728,0.20913,0.79976,1.17659,-0.07274,0.57816,1.34977,0.11933,0.8943,1.39715
2514,0.05428,0.49566,1.47273,-0.01433,0.51848,0.07689,0.29164,0.12716,0.15874,0.006,0.5148,0.49384,0.27452,0.42094,0.45475,0.02553,0.32977,0.88691,0.19055,0.3682,0.87801,-0.04255,0.36345,1.44134,0.18845,0.60799,1.39117,-0.15515,0.39977,1.17653,0.20886,0.79939,1.17668,-0.07373,0.58014,1.34948,0.11971,0.8946,1.39721
2515,0.05433,0.49581,1.47298,-0.01445,0.51852,0.07697,0.29158,0.12757,0.15898,0.00548,0.5151,0.49394,0.27425,0.42141,0.45492,0.0252,0.33022,0.88707,0.19018,0.36883,0.87818,-0.04362,0.3642,1.44109,0.18834,0.60777,1.39121,-0.1546,0.40169,1.17575,0.20845,0.79898,1.17651,-0.0742,0.58195,1.3493,0.12038,0.89513,1.39707
2516,0.05457,0.49573,1.47361,-0.01459,0.51844,0.07701,0.29204,0.12785,0.15942,0.00487,0.5153,0.49401,0.27413,0.42191,0.45509,0.02486,0.33065,0.88724,0.18983,0.36935,0.87831,-0.04473,0.3645,1.44103,0.18809,0.60751,1.39103,-0.15379,0.40352,1.17511,0.20812,0.79841,1.17605,-0.07419,0.58391,1.34889,0.12132,0.89591,1.39652
2517,0.05477,0.49543,1.47454,-0.0148,0.5183,0.077,0.29301,0.12813,0.15993,0.00425,0.51555,0.49401,0.27412,0.42232,0.45542,0.0245,0.33113,0.88733,0.18951,0.36969,0.87856,-0.04609,0.36459,1.44109,0.18822,0.60708,1.39086,-0.15299,0.40537,1.17456,0.20802,0.79733,1.17528,-0.07406,0.58621,1.34818,0.12236,0.89687,1.39528
2518,0.05492,0.49516,1.47535,-0.01506,0.51805,0.0769,0.29441,0.12846,0.16033,0.00374,0.51613,0.49393,0.27415,0.4226,0.45578,0.02412,0.33175,0.88727,0.18922,0.36998,0.87886,-0.04795,0.36483,1.44107,0.18908,0.60654,1.39084,-0.15238,0.40735,1.17384,0.20824,0.79571,1.17426,-0.07422,0.58851,1.34747,0.12328,0.8979,1.39332
2519,0.05513,0.49513,1.47575,-0.01528,0.51767,0.07681,0.2961,0.12874,0.16054,0.00344,0.51716,0.49384,0.27423,0.4228,0.45596,0.02372,0.33254,0.88707,0.18894,0.37034,0.87899,-0.05021,0.36544,1.44087,0.19047,0.60602,1.39093,-0.15202,0.40935,1.17285,0.2089,0.79381,1.17309,-0.07479,0.5904,1.34702,0.12425,0.89882,1.39093
2520,0.05533,0.49532,1.47584,-0.01537,0.51727,0.07686,0.29781,0.12884,0.16066,0.00336,0.51848,0.4939,0.27438,0.42295,0.4559,0.02335,0.33341,0.88693,0.18864,0.37086,0.87889,-0.0524,0.36649,1.44052,0.19192,0.60541,1.391,-0.15185,0.41138,1.17177,0.2102,0.79172,1.17188,-0.0754,0.59208,1.34664,0.12565,0.89946,1.38843
2521,0.05519,0.4955,1.47595,-0.01528,0.51706,0.07711,0.29928,0.12892,0.16071,0.00342,0.51978,0.49414,0.27449,0.42305,0.45582,0.02306,0.33429,0.88699,0.18838,0.37161,0.87881,-0.05419,0.3678,1.44012,0.19323,0.60442,1.39098,-0.15179,0.41359,1.17085,0.21224,0.78931,1.17072,-0.0754,0.59415,1.3459,0.12756,0.89971,1.38587
2522,0.05456,0.49547,1.47627,-0.01503,0.51717,0.07737,0.30036,0.12908,0.16064,0.00353,0.52091,0.4944,0.27453,0.42299,0.45587,0.02285,0.33526,0.88719,0.18817,0.37255,0.87893,-0.05564,0.36917,1.43974,0.19445,0.60305,1.39086,-0.15177,0.41587,1.1701,0.21481,0.78652,1.16953,-0.07474,0.59664,1.34465,0.12958,0.8996,1.38307
2523,0.05378,0.49525,1.47672,-0.01467,0.51751,0.07744,0.30106,0.12913,0.16045,0.00374,0.52187,0.49447,0.27457,0.42267,0.456,0.02263,0.33632,0.88733,0.18798,0.37352,0.87916,-0.05711,0.37036,1.43939,0.19563,0.6016,1.39069,-0.1518,0.41777,1.16936,0.21743,0.7834,1.16814,-0.07423,0.59893,1.34326,0.13123,0.89916,1.37984
2524,0.05319,0.49501,1.47714,-0.0143,0.51787,0.07733,0.30143,0.12885,0.16023,0.00423,0.52283,0.49435,0.2746,0.42211,0.45603,0.02235,0.33737,0.88729,0.18773,0.37445,0.87931,-0.0587,0.37121,1.43894,0.19661,0.60034,1.39062,-0.15193,0.41894,1.16847,0.2198,0.77993,1.16641,-0.07474,0.60051,1.34211,0.13242,0.89838,1.37613
2525,0.05264,0.49495,1.47745,-0.01399,0.51809,0.07725,0.30152,0.12843,0.16003,0.00506,0.524,0.49423,0.27449,0.42152,0.45598,0.02204,0.33833,0.88713,0.18743,0.37542,0.87939,-0.06019,0.37173,1.43828,0.19725,0.59924,1.39062,-0.15222,0.41958,1.16742,0.22207,0.77608,1.16442,-0.07651,0.6016,1.34124,0.13349,0.89711,1.37215
2526,0.05179,0.49515,1.47763,-0.01369,0.51812,0.07731,0.30148,0.12832,0.15983,0.00598,0.52542,0.49424,0.27419,0.42117,0.456,0.02179,0.33929,0.88696,0.1872,0.3764,0.87957,-0.06147,0.37221,1.43749,0.19752,0.59812,1.39054,-0.15268,0.42038,1.1664,0.22447,0.77204,1.16231,-0.07896,0.60298,1.34048,0.13475,0.89518,1.36831
2527,0.05061,0.49562,1.47772,-0.01335,0.51806,0.07743,0.30144,0.12868,0.15961,0.00677,0.52686,0.49431,0.27374,0.42105,0.45621,0.02163,0.34037,0.8869,0.18712,0.3772,0.87995,-0.06276,0.37306,1.43685,0.19764,0.59697,1.39013,-0.15315,0.42184,1.1656,0.22699,0.76814,1.16014,-0.0811,0.60491,1.33987,0.13619,0.89245,1.36495
2528,0.04953,0.49631,1.47773,-0.01296,0.51809,0.07743,0.30147,0.12926,0.15935,0.00746,0.52809,0.49427,0.27318,0.42098,0.45653,0.02152,0.34167,0.88692,0.18718,0.37779,0.88047,-0.06412,0.37433,1.43647,0.19794,0.59591,1.38934,-0.15344,0.42367,1.16496,0.22927,0.76454,1.15774,-0.08245,0.60658,1.33983,0.1376,0.88896,1.3621
2529,0.04894,0.49717,1.47763,-0.01262,0.51839,0.07728,0.30157,0.12977,0.1591,0.0082,0.52919,0.49408,0.27252,0.42084,0.45685,0.02143,0.34318,0.88695,0.18731,0.37837,0.88101,-0.06533,0.37577,1.43613,0.19873,0.59499,1.3883,-0.15353,0.42532,1.1643,0.23114,0.76095,1.15492,-0.08353,0.6072,1.34064,0.13884,0.88481,1.35934
2530,0.0488,0.4982,1.47745,-0.01245,0.51892,0.07712,0.30172,0.13019,0.15896,0.00896,0.53031,0.49388,0.2718,0.42072,0.45714,0.02137,0.34477,0.887,0.18744,0.37916,0.88157,-0.06633,0.37712,1.43568,0.20004,0.59402,1.38727,-0.15348,0.42675,1.16352,0.23283,0.75681,1.15173,-0.08516,0.60732,1.34186,0.13989,0.8801,1.3562
2531,0.04863,0.49931,1.47738,-0.01246,0.51944,0.07713,0.30191,0.13063,0.159,0.00955,0.53147,0.49384,0.2711,0.4207,0.45754,0.02136,0.34627,0.88714,0.18754,0.3802,0.88223,-0.06741,0.37837,1.43528,0.20156,0.59277,1.38651,-0.1533,0.42826,1.16277,0.2347,0.75175,1.14842,-0.08754,0.60837,1.34252,0.14076,0.87483,1.35257
2532,0.04803,0.5003,1.47768,-0.01255,0.51976,0.07735,0.30221,0.13115,0.1591,0.00988,0.53259,0.494,0.27048,0.42061,0.45813,0.02131,0.34759,0.88741,0.18754,0.38131,0.88305,-0.06872,0.37976,1.43517,0.20276,0.59124,1.38606,-0.15303,0.42996,1.16222,0.23684,0.7459,1.14528,-0.09008,0.61102,1.34203,0.14136,0.86895,1.34873
2533,0.04695,0.50101,1.47833,-0.01255,0.51979,0.07767,0.3026,0.13171,0.15913,0.01001,0.53346,0.49429,0.2699,0.42034,0.45887,0.02106,0.34881,0.88787,0.18736,0.38229,0.88398,-0.07011,0.38146,1.43521,0.20324,0.58967,1.3858,-0.15291,0.43185,1.16183,0.23908,0.73976,1.14239,-0.09233,0.61458,1.34076,0.14174,0.86249,1.34514
2534,0.04564,0.50158,1.47903,-0.01243,0.51958,0.07797,0.30302,0.13223,0.15909,0.01006,0.53395,0.49457,0.26926,0.41992,0.4596,0.02067,0.35003,0.88851,0.18705,0.38312,0.88489,-0.07145,0.38336,1.43493,0.20313,0.58819,1.38554,-0.1533,0.4341,1.16134,0.24128,0.73369,1.13971,-0.0944,0.61794,1.33971,0.14208,0.85553,1.3421
2535,0.04443,0.50231,1.47952,-0.01223,0.5192,0.0781,0.30342,0.13254,0.15912,0.01009,0.53414,0.4947,0.26851,0.41949,0.46022,0.02039,0.3513,0.88914,0.18685,0.384,0.88572,-0.07268,0.38528,1.43416,0.20306,0.58678,1.38532,-0.15432,0.43694,1.16068,0.2433,0.72779,1.13721,-0.09623,0.62074,1.33934,0.1425,0.84816,1.33969
2536,0.04356,0.50339,1.47979,-0.01208,0.51882,0.07801,0.3038,0.13254,0.15929,0.01013,0.53433,0.49458,0.26771,0.41904,0.46069,0.0204,0.35272,0.8896,0.18693,0.3851,0.88648,-0.07386,0.3873,1.43336,0.20364,0.58537,1.3853,-0.15552,0.44036,1.16015,0.24499,0.72192,1.1349,-0.09721,0.62362,1.33929,0.14286,0.84057,1.33773
2537,0.04303,0.50472,1.48003,-0.01207,0.51854,0.07781,0.30405,0.13226,0.15952,0.01016,0.53472,0.49436,0.26705,0.41848,0.46107,0.02053,0.35437,0.88995,0.18715,0.3863,0.88717,-0.07502,0.38953,1.43312,0.20486,0.58393,1.38553,-0.15636,0.44437,1.16017,0.24616,0.71594,1.13269,-0.097,0.62751,1.33909,0.14298,0.83296,1.33593
2538,0.04258,0.50612,1.48045,-0.01216,0.51841,0.07775,0.30401,0.13178,0.15977,0.01008,0.53514,0.49427,0.26668,0.41774,0.46153,0.02047,0.35612,0.89046,0.18722,0.38737,0.88784,-0.07626,0.39181,1.43351,0.20616,0.58257,1.3858,-0.15674,0.44909,1.16081,0.24683,0.7098,1.13043,-0.09642,0.6327,1.33892,0.14289,0.82541,1.3341
2539,0.04186,0.50743,1.48112,-0.01223,0.51844,0.07791,0.3036,0.13119,0.16012,0.0098,0.53533,0.49444,0.26666,0.41683,0.46222,0.02019,0.3578,0.8913,0.18709,0.38825,0.88864,-0.07766,0.39382,1.43407,0.20689,0.58137,1.38596,-0.15698,0.45439,1.16173,0.24721,0.7037,1.12814,-0.09659,0.63863,1.33917,0.14272,0.81783,1.33236
2540,0.04067,0.50867,1.48202,-0.01222,0.51865,0.07818,0.30293,0.13065,0.16058,0.0094,0.53519,0.49475,0.26688,0.41588,0.46317,0.01984,0.35937,0.89238,0.18688,0.38906,0.88963,-0.07942,0.39567,1.43439,0.20693,0.58032,1.3861,-0.15742,0.45984,1.1625,0.24759,0.69781,1.12609,-0.09788,0.64445,1.33984,0.14251,0.81016,1.33099
2541,0.03925,0.50988,1.48306,-0.01216,0.51891,0.07841,0.3023,0.13041,0.16097,0.00901,0.53487,0.49503,0.26711,0.41502,0.46425,0.01951,0.36096,0.89348,0.18668,0.38991,0.89072,-0.08164,0.39787,1.43443,0.20677,0.57922,1.38644,-0.15812,0.46515,1.16286,0.2481,0.6921,1.12451,-0.09993,0.64979,1.34063,0.1424,0.80258,1.33011
2542,0.03805,0.51102,1.48422,-0.01212,0.51906,0.07852,0.30188,0.13058,0.16114,0.00877,0.53458,0.49516,0.26713,0.41436,0.46525,0.01915,0.36263,0.89447,0.18645,0.39081,0.89177,-0.08416,0.40087,1.43433,0.20709,0.57771,1.38705,-0.15886,0.47038,1.16282,0.24863,0.68634,1.12335,-0.10198,0.65482,1.34122,0.14258,0.79534,1.32955
2543,0.03731,0.51193,1.4855,-0.0121,0.51904,0.07849,0.30155,0.13108,0.16126,0.0087,0.53437,0.49515,0.26686,0.41408,0.46609,0.01872,0.36435,0.89529,0.18617,0.39164,0.89267,-0.08664,0.40447,1.43423,0.20818,0.57533,1.38779,-0.15935,0.47571,1.16263,0.24908,0.68016,1.12247,-0.10335,0.6598,1.34167,0.14316,0.78869,1.32899
2544,0.03701,0.51253,1.48689,-0.01211,0.519,0.07836,0.30116,0.13173,0.16167,0.00877,0.53417,0.49502,0.26649,0.41434,0.46687,0.01831,0.36605,0.89598,0.18592,0.39235,0.89349,-0.08887,0.40806,1.43422,0.20966,0.57199,1.38855,-0.15962,0.48126,1.16262,0.24946,0.67356,1.1218,-0.10422,0.66467,1.34254,0.14405,0.78274,1.32823
2545,0.03699,0.51301,1.48826,-0.01216,0.51903,0.07818,0.30066,0.13238,0.16259,0.00896,0.53386,0.49484,0.26625,0.41513,0.46769,0.01801,0.36764,0.89661,0.18578,0.39292,0.89432,-0.09086,0.41126,1.43424,0.21089,0.56833,1.38921,-0.15987,0.48687,1.16286,0.24982,0.66718,1.12131,-0.10549,0.66881,1.34457,0.14494,0.77754,1.32739
2546,0.03704,0.51359,1.48939,-0.01233,0.51906,0.07806,0.30013,0.13309,0.16387,0.00926,0.53339,0.49471,0.26617,0.41625,0.46864,0.01787,0.36897,0.89723,0.18577,0.39337,0.89525,-0.0927,0.41409,1.43416,0.21148,0.56529,1.38977,-0.16028,0.4921,1.1631,0.24986,0.66199,1.121,-0.10786,0.67157,1.34782,0.1454,0.77313,1.32687
2547,0.03689,0.51431,1.49026,-0.0127,0.51903,0.07805,0.2996,0.13407,0.16522,0.00955,0.53275,0.49469,0.26608,0.41754,0.46974,0.01787,0.36993,0.89786,0.18588,0.39359,0.89633,-0.09444,0.41667,1.43385,0.21151,0.56327,1.39048,-0.16099,0.49656,1.16308,0.24925,0.65828,1.12102,-0.1108,0.67298,1.35133,0.14515,0.76961,1.32698
2548,0.03643,0.51494,1.49106,-0.01313,0.519,0.07814,0.29906,0.13552,0.16646,0.00974,0.53201,0.49476,0.26592,0.41899,0.47104,0.01796,0.37066,0.89852,0.18608,0.39356,0.89761,-0.09617,0.41923,1.43335,0.21141,0.56182,1.39171,-0.16205,0.50036,1.16278,0.24812,0.65539,1.1216,-0.11304,0.67388,1.354,0.14436,0.76699,1.32758
2549,0.0358,0.51532,1.49195,-0.01342,0.51904,0.07828,0.29861,0.13746,0.16767,0.00976,0.53136,0.49491,0.26581,0.42074,0.47246,0.01806,0.37147,0.89925,0.18631,0.39338,0.89898,-0.09788,0.42203,1.43269,0.21152,0.56026,1.39345,-0.16327,0.50385,1.16221,0.24695,0.65237,1.12268,-0.11416,0.67496,1.35557,0.14364,0.76522,1.3282
2550,0.03543,0.51545,1.49295,-0.01342,0.51912,0.07842,0.29846,0.13973,0.16908,0.00965,0.53089,0.49508,0.26584,0.42302,0.47387,0.01804,0.37256,0.90003,0.18644,0.39329,0.90025,-0.09933,0.42508,1.43196,0.21185,0.55822,1.39519,-0.16432,0.50699,1.16141,0.24609,0.64899,1.1238,-0.11522,0.67605,1.35656,0.14367,0.76425,1.32843
2551,0.03587,0.51548,1.49411,-0.01316,0.51915,0.07849,0.29868,0.14208,0.17086,0.00949,0.53052,0.49517,0.26586,0.42591,0.47513,0.01781,0.3739,0.90079,0.18636,0.3934,0.90129,-0.1001,0.42818,1.43129,0.21231,0.55581,1.39632,-0.16512,0.50954,1.16058,0.24561,0.64577,1.12455,-0.11723,0.67689,1.35751,0.14462,0.76397,1.32822
2552,0.03725,0.51551,1.49537,-0.01281,0.5191,0.07845,0.29895,0.14425,0.17293,0.0093,0.53011,0.49517,0.26572,0.42906,0.47625,0.01739,0.37523,0.90146,0.18606,0.39364,0.90214,-0.10014,0.431,1.43076,0.21292,0.55341,1.39682,-0.16584,0.51203,1.16012,0.24541,0.64325,1.12492,-0.11975,0.67792,1.35871,0.14588,0.76407,1.32776
2553,0.03891,0.51559,1.49646,-0.01264,0.51899,0.07832,0.29884,0.14617,0.17485,0.00906,0.52954,0.49508,0.26556,0.43187,0.47732,0.01689,0.37634,0.90201,0.18566,0.39377,0.90294,-0.10004,0.43328,1.43037,0.2139,0.5512,1.39721,-0.16649,0.51557,1.1603,0.24545,0.64132,1.12529,-0.12132,0.68012,1.36021,0.14665,0.76421,1.32725
2554,0.03996,0.51572,1.49706,-0.01277,0.51888,0.07816,0.29826,0.14785,0.17623,0.00874,0.52877,0.49494,0.26564,0.43397,0.47838,0.01645,0.37717,0.90248,0.18532,0.39364,0.90371,-0.1005,0.43513,1.43011,0.21536,0.54898,1.39804,-0.16688,0.52058,1.16099,0.24576,0.63935,1.12607,-0.12146,0.68382,1.36191,0.14679,0.7641,1.3268
2555,0.04014,0.51584,1.4973,-0.01308,0.51884,0.07805,0.29756,0.1493,0.17714,0.00842,0.52797,0.49485,0.26604,0.43549,0.47934,0.01614,0.37793,0.90296,0.18512,0.39322,0.90437,-0.10162,0.43695,1.42986,0.2171,0.54658,1.39935,-0.16691,0.52621,1.16172,0.24632,0.63704,1.12728,-0.12136,0.68815,1.36365,0.14693,0.76365,1.32663
2556,0.03996,0.5158,1.49756,-0.01341,0.51885,0.07804,0.29703,0.1504,0.1779,0.00822,0.52745,0.49485,0.26657,0.4367,0.4801,0.0159,0.3788,0.90347,0.185,0.39266,0.90482,-0.10287,0.43885,1.42944,0.21869,0.54412,1.40079,-0.16666,0.53154,1.16211,0.24692,0.63464,1.12863,-0.12211,0.69217,1.36531,0.1478,0.7629,1.32706
2557,0.03996,0.51542,1.49811,-0.01372,0.51881,0.07812,0.2967,0.15108,0.1787,0.00818,0.52729,0.49492,0.26709,0.43769,0.48069,0.01561,0.37981,0.90396,0.18483,0.3921,0.90512,-0.10373,0.4405,1.42879,0.21982,0.54188,1.40211,-0.16617,0.53652,1.16232,0.24737,0.63247,1.12991,-0.12312,0.6958,1.36691,0.14954,0.76182,1.32827
2558,0.04024,0.51467,1.49893,-0.014,0.51873,0.0782,0.2964,0.15136,0.17953,0.00822,0.52726,0.49498,0.26754,0.43834,0.48124,0.0152,0.38081,0.9044,0.18453,0.39166,0.9054,-0.1041,0.44156,1.42811,0.22047,0.53999,1.40329,-0.16554,0.54141,1.16281,0.2478,0.63055,1.13106,-0.12296,0.69949,1.36843,0.15167,0.76009,1.33012
2559,0.04078,0.51378,1.49985,-0.01424,0.5187,0.07824,0.29587,0.15131,0.18031,0.00826,0.52704,0.49501,0.26788,0.43861,0.48179,0.0147,0.38161,0.9048,0.18409,0.3914,0.90574,-0.10419,0.44215,1.42762,0.22086,0.53834,1.40437,-0.16503,0.54606,1.16375,0.24858,0.62864,1.13209,-0.12105,0.70333,1.36969,0.15354,0.75744,1.33215
2560,0.0417,0.51306,1.50059,-0.01446,0.51877,0.07828,0.29503,0.151,0.18087,0.00828,0.52652,0.49505,0.26807,0.43849,0.48226,0.01415,0.38215,0.90523,0.18357,0.39128,0.90607,-0.10425,0.4427,1.42739,0.22127,0.53678,1.40535,-0.16479,0.5502,1.16489,0.24991,0.62667,1.13303,-0.11791,0.70708,1.37048,0.15479,0.754,1.33399
2561,0.04292,0.51261,1.50093,-0.01466,0.51889,0.07833,0.29408,0.15046,0.18111,0.00821,0.52584,0.49511,0.26818,0.438,0.48255,0.01366,0.38254,0.90566,0.18312,0.39104,0.90628,-0.10436,0.44374,1.42735,0.22186,0.53516,1.40625,-0.16455,0.55383,1.16585,0.25157,0.62475,1.13395,-0.1143,0.71056,1.37076,0.15568,0.75008,1.33581
2562,0.04407,0.51214,1.50104,-0.01485,0.51893,0.07838,0.29327,0.14969,0.18105,0.00792,0.5252,0.49517,0.26832,0.43711,0.4827,0.01336,0.38283,0.90606,0.18287,0.39042,0.90637,-0.10443,0.44541,1.42758,0.22264,0.53331,1.40714,-0.164,0.55701,1.16657,0.25325,0.62292,1.13494,-0.11067,0.71367,1.37075,0.15673,0.74574,1.33804
2563,0.04491,0.51138,1.50126,-0.01509,0.51889,0.07839,0.29258,0.14876,0.18068,0.00741,0.52462,0.4952,0.26852,0.43575,0.48279,0.01334,0.38299,0.90633,0.18289,0.38943,0.90647,-0.10434,0.4472,1.42807,0.22357,0.53107,1.40803,-0.16295,0.5599,1.16732,0.25486,0.62099,1.13602,-0.10709,0.71663,1.37077,0.15809,0.74095,1.34069
2564,0.04559,0.51023,1.50174,-0.01526,0.51888,0.0783,0.29182,0.14774,0.17988,0.0069,0.524,0.49513,0.26866,0.43387,0.48288,0.01353,0.38299,0.90647,0.18312,0.38838,0.90667,-0.10409,0.44831,1.42857,0.22452,0.52854,1.40895,-0.16118,0.56293,1.16832,0.25646,0.61892,1.13716,-0.10336,0.71987,1.37106,0.15958,0.73594,1.34348
2565,0.04654,0.50883,1.50239,-0.01521,0.51902,0.07812,0.29094,0.14667,0.1786,0.00668,0.52334,0.49498,0.26858,0.43149,0.4829,0.01385,0.38288,0.90649,0.18346,0.38751,0.90693,-0.10366,0.4484,1.42869,0.22528,0.52597,1.4099,-0.15855,0.56627,1.16942,0.25798,0.61692,1.13839,-0.09924,0.72345,1.37154,0.16115,0.73099,1.34638
2566,0.04788,0.50729,1.50312,-0.01487,0.51928,0.078,0.29019,0.14557,0.17693,0.00683,0.52289,0.49488,0.26823,0.42876,0.48277,0.0142,0.38277,0.90651,0.18383,0.38681,0.90715,-0.1029,0.44775,1.42838,0.22579,0.5235,1.41094,-0.1555,0.56948,1.17043,0.2593,0.61517,1.13977,-0.09449,0.72692,1.37184,0.16291,0.7261,1.34965
2567,0.04944,0.50574,1.5039,-0.01437,0.51954,0.07805,0.28972,0.14447,0.17498,0.00725,0.52289,0.49493,0.26773,0.42578,0.48255,0.01457,0.38281,0.90657,0.18421,0.38617,0.90733,-0.10176,0.44676,1.42806,0.22626,0.52104,1.41205,-0.1529,0.57186,1.17143,0.26029,0.6136,1.14124,-0.08913,0.72982,1.37157,0.165,0.72113,1.35339
2568,0.05091,0.50422,1.50476,-0.01391,0.5197,0.0782,0.28927,0.14326,0.17282,0.00783,0.52337,0.49508,0.26724,0.42253,0.48225,0.01494,0.38309,0.90665,0.18459,0.38558,0.90744,-0.10048,0.44569,1.42812,0.22698,0.51852,1.41308,-0.15113,0.57308,1.17252,0.26095,0.61201,1.14259,-0.08364,0.73178,1.37086,0.16753,0.71616,1.35724
2569,0.05221,0.5027,1.50567,-0.01354,0.51967,0.07834,0.28848,0.14176,0.17046,0.00859,0.52413,0.49519,0.26683,0.41889,0.48182,0.01532,0.3836,0.90668,0.18499,0.38505,0.90743,-0.09927,0.44475,1.42846,0.22807,0.51599,1.41381,-0.14975,0.57329,1.17341,0.26161,0.61017,1.1435,-0.07895,0.73249,1.37018,0.17032,0.71138,1.36046
2570,0.05343,0.50097,1.50663,-0.01321,0.51946,0.07842,0.28738,0.13995,0.16776,0.00958,0.52503,0.49522,0.2665,0.41472,0.48126,0.01573,0.38419,0.90662,0.1854,0.38456,0.90729,-0.09811,0.4442,1.42871,0.22945,0.51344,1.41417,-0.14804,0.57299,1.17367,0.26279,0.60797,1.14396,-0.0757,0.73203,1.37001,0.1729,0.70678,1.3626
2571,0.05476,0.49885,1.50761,-0.01295,0.51917,0.07849,0.28624,0.13808,0.1646,0.01074,0.52597,0.49522,0.2662,0.40994,0.48068,0.01617,0.38479,0.90652,0.18584,0.38402,0.90713,-0.09692,0.44413,1.42863,0.23089,0.51077,1.41444,-0.14574,0.57273,1.17328,0.26459,0.60561,1.14438,-0.07382,0.73071,1.37063,0.1747,0.70229,1.36398
2572,0.05641,0.49649,1.50847,-0.01284,0.51889,0.07859,0.28515,0.13637,0.16101,0.0119,0.52682,0.49524,0.26587,0.40465,0.48018,0.01669,0.38539,0.90645,0.18635,0.38334,0.90703,-0.09566,0.44423,1.42827,0.23221,0.50783,1.41491,-0.143,0.57271,1.17257,0.26648,0.6036,1.14525,-0.0727,0.72871,1.37207,0.1755,0.69811,1.36534
2573,0.05833,0.49428,1.50904,-0.0129,0.51863,0.0787,0.28392,0.13471,0.15725,0.01294,0.52744,0.49526,0.26546,0.39913,0.47968,0.01733,0.38593,0.90646,0.18697,0.38243,0.90693,-0.09439,0.44419,1.42771,0.23357,0.50462,1.41561,-0.13995,0.57288,1.17179,0.26797,0.60214,1.1466,-0.07173,0.7263,1.37399,0.17555,0.69463,1.36695
2574,0.06022,0.49234,1.50934,-0.01309,0.51839,0.07881,0.28243,0.1328,0.15368,0.0139,0.52786,0.49529,0.26493,0.39366,0.47905,0.01809,0.38632,0.90647,0.18769,0.38128,0.90668,-0.09333,0.44398,1.42705,0.2352,0.50129,1.41639,-0.13655,0.57321,1.17101,0.26916,0.60068,1.14801,-0.07032,0.72422,1.37568,0.17554,0.69201,1.36833
2575,0.06182,0.49031,1.50964,-0.01334,0.5183,0.07891,0.28074,0.13043,0.15052,0.01485,0.52813,0.4953,0.26422,0.38834,0.47828,0.01885,0.38647,0.90645,0.1884,0.38003,0.90626,-0.09254,0.44357,1.42654,0.23706,0.49804,1.4173,-0.13312,0.57335,1.17034,0.2706,0.59834,1.14921,-0.06832,0.723,1.37646,0.17601,0.6901,1.36894
2576,0.06323,0.48778,1.51011,-0.01352,0.51848,0.07897,0.27889,0.12748,0.14777,0.01573,0.5282,0.49529,0.26333,0.38303,0.47743,0.01951,0.38635,0.90637,0.18901,0.37878,0.90573,-0.0917,0.44264,1.42638,0.23878,0.49485,1.41851,-0.13036,0.57245,1.16989,0.27268,0.59466,1.15027,-0.06631,0.72212,1.37623,0.17704,0.68839,1.36871
2577,0.06477,0.48486,1.51051,-0.01349,0.51884,0.07902,0.27687,0.12403,0.14525,0.01648,0.52815,0.4953,0.26235,0.37752,0.47654,0.02015,0.38593,0.90625,0.18961,0.37744,0.90514,-0.09047,0.44094,1.42636,0.24007,0.49151,1.4199,-0.12847,0.57022,1.16951,0.27538,0.58985,1.1513,-0.0646,0.72069,1.37532,0.17826,0.68635,1.36788
2578,0.06657,0.48206,1.51038,-0.01328,0.51911,0.07909,0.27486,0.12032,0.14271,0.0172,0.52816,0.49533,0.26133,0.37171,0.47563,0.02095,0.38531,0.90607,0.19035,0.37581,0.9045,-0.08899,0.43872,1.42588,0.241,0.48789,1.42107,-0.12662,0.56768,1.16882,0.27837,0.5847,1.1522,-0.06246,0.71891,1.37397,0.17933,0.68389,1.36668
2579,0.06852,0.47966,1.5097,-0.01308,0.51909,0.07918,0.27316,0.11658,0.14,0.01797,0.5283,0.49538,0.26031,0.36561,0.47473,0.02201,0.38459,0.90581,0.19134,0.37396,0.90386,-0.0876,0.43648,1.42455,0.24197,0.48423,1.42173,-0.12385,0.56604,1.1676,0.28134,0.58002,1.15278,-0.05916,0.7177,1.37227,0.18027,0.68127,1.36534
2580,0.07044,0.4773,1.50898,-0.01308,0.51886,0.07925,0.27173,0.11296,0.13717,0.01878,0.52849,0.49538,0.2593,0.35935,0.47386,0.0233,0.38385,0.90548,0.19255,0.37213,0.90323,-0.08639,0.43434,1.4227,0.24332,0.48074,1.42189,-0.1202,0.56509,1.16602,0.28403,0.57606,1.15297,-0.05518,0.71696,1.37044,0.18148,0.67861,1.36419
2581,0.07228,0.4744,1.50875,-0.01331,0.51865,0.07923,0.27024,0.10959,0.13428,0.01959,0.52865,0.49527,0.25839,0.35316,0.47303,0.02471,0.38311,0.90504,0.19389,0.37043,0.90259,-0.08508,0.43223,1.42106,0.24511,0.47718,1.42171,-0.1167,0.56352,1.16437,0.28632,0.57239,1.15284,-0.05155,0.71545,1.36871,0.18334,0.67576,1.36345
2582,0.07419,0.47092,1.50902,-0.01367,0.51874,0.07912,0.26846,0.10659,0.13134,0.02045,0.52886,0.49506,0.25763,0.3472,0.47223,0.02607,0.38242,0.90451,0.19517,0.36875,0.9019,-0.08345,0.43031,1.42004,0.24714,0.4732,1.42135,-0.11412,0.56057,1.16271,0.28833,0.56845,1.15249,-0.04869,0.71232,1.36708,0.18585,0.67272,1.3629
2583,0.07642,0.46726,1.50948,-0.01397,0.51926,0.079,0.26641,0.10387,0.12838,0.02148,0.52922,0.49483,0.25702,0.34143,0.47146,0.02728,0.38175,0.90391,0.19629,0.36692,0.90116,-0.08153,0.42883,1.41931,0.24922,0.46882,1.4209,-0.11217,0.55682,1.16084,0.29039,0.56401,1.15201,-0.0462,0.70803,1.36544,0.18874,0.66955,1.36219
2584,0.07903,0.46382,1.50987,-0.01404,0.52006,0.07894,0.26432,0.10121,0.12552,0.02275,0.52961,0.49467,0.25642,0.33563,0.47078,0.02839,0.38099,0.90333,0.19729,0.36494,0.90046,-0.07941,0.42771,1.41827,0.2513,0.4644,1.42048,-0.10983,0.55336,1.15862,0.29273,0.55921,1.1515,-0.0436,0.7036,1.36386,0.19175,0.66598,1.36138
2585,0.0819,0.46068,1.51004,-0.01392,0.52075,0.07892,0.26247,0.09848,0.12281,0.02415,0.52976,0.49454,0.25566,0.32967,0.47026,0.02957,0.3801,0.90283,0.19835,0.36293,0.8999,-0.07716,0.42649,1.41679,0.25336,0.46019,1.42025,-0.10645,0.55063,1.1563,0.29521,0.55428,1.15108,-0.04101,0.69973,1.36261,0.19485,0.66161,1.36097
2586,0.08483,0.4578,1.50986,-0.01369,0.52103,0.07887,0.261,0.09578,0.12025,0.02561,0.5296,0.49438,0.2547,0.32376,0.46983,0.03094,0.37915,0.90238,0.19962,0.36102,0.89944,-0.0749,0.42466,1.41544,0.25537,0.45623,1.42027,-0.10234,0.5481,1.15441,0.29761,0.54939,1.15083,-0.03891,0.69648,1.36187,0.19801,0.65653,1.36119
2587,0.08766,0.45502,1.5094,-0.01329,0.52094,0.07874,0.25976,0.09331,0.11781,0.02709,0.5293,0.49416,0.25371,0.31822,0.46938,0.03247,0.37818,0.90191,0.20105,0.35916,0.89895,-0.07277,0.42216,1.41484,0.25729,0.45246,1.4205,-0.09836,0.54496,1.15332,0.29992,0.54465,1.15079,-0.03724,0.69344,1.3614,0.201,0.65131,1.36172
2588,0.0902,0.45219,1.5089,-0.01267,0.52081,0.07858,0.25844,0.09118,0.11545,0.02848,0.52909,0.49392,0.25289,0.31314,0.46889,0.03404,0.3772,0.90138,0.20251,0.35722,0.89842,-0.07075,0.41954,1.41493,0.25916,0.44871,1.42079,-0.095,0.54123,1.15277,0.30234,0.5401,1.1509,-0.03514,0.69016,1.36089,0.20359,0.64628,1.36214
2589,0.09227,0.44922,1.50855,-0.01196,0.52089,0.07851,0.25689,0.08932,0.11319,0.02964,0.52906,0.49381,0.25233,0.30827,0.46852,0.03556,0.3761,0.90086,0.2039,0.35505,0.89799,-0.06872,0.41723,1.41515,0.2611,0.44461,1.42093,-0.09197,0.53751,1.15224,0.3049,0.53551,1.15098,-0.03201,0.6864,1.36036,0.20584,0.64124,1.3623
2590,0.09393,0.44615,1.50833,-0.01138,0.52118,0.07862,0.25528,0.08759,0.1111,0.03061,0.52908,0.49389,0.25202,0.30337,0.46838,0.03706,0.37483,0.90045,0.20526,0.35264,0.89776,-0.06657,0.41496,1.4151,0.26315,0.44018,1.42087,-0.08876,0.53393,1.1515,0.30739,0.53063,1.15083,-0.02852,0.68214,1.36003,0.20811,0.63597,1.36225
2591,0.09556,0.44308,1.50808,-0.01108,0.52142,0.0789,0.25391,0.08592,0.10919,0.0316,0.5291,0.4941,0.25192,0.29848,0.4684,0.0386,0.37344,0.90011,0.20666,0.35018,0.89766,-0.06437,0.4123,1.41482,0.26523,0.43579,1.42073,-0.08526,0.53018,1.15063,0.30967,0.52535,1.15043,-0.02579,0.67761,1.35993,0.21068,0.63055,1.36205
2592,0.09757,0.44004,1.50767,-0.01112,0.5215,0.07919,0.25288,0.08434,0.10732,0.03281,0.52922,0.49426,0.25199,0.29377,0.46837,0.04024,0.37207,0.89969,0.20817,0.34789,0.89748,-0.06229,0.40937,1.41437,0.26728,0.43154,1.42065,-0.08172,0.52634,1.14966,0.31187,0.51977,1.14994,-0.02405,0.67318,1.35987,0.21362,0.62519,1.36179
2593,0.09996,0.437,1.50719,-0.01145,0.52146,0.07941,0.25204,0.08286,0.10536,0.03425,0.52951,0.49428,0.25212,0.28926,0.46816,0.04197,0.3708,0.8991,0.20977,0.34574,0.89711,-0.0602,0.40651,1.41376,0.26936,0.42712,1.42064,-0.07843,0.52282,1.14868,0.31418,0.51423,1.1496,-0.02241,0.669,1.3598,0.21677,0.62018,1.36158
2594,0.10228,0.43382,1.50682,-0.01181,0.52144,0.07958,0.25122,0.08143,0.1033,0.03572,0.52984,0.49423,0.25218,0.28476,0.46782,0.04376,0.36966,0.89846,0.21142,0.34359,0.89661,-0.0578,0.40368,1.41318,0.27165,0.42238,1.42062,-0.07558,0.51961,1.1479,0.31658,0.5092,1.14951,-0.01996,0.66473,1.35986,0.21986,0.61582,1.36147
2595,0.10424,0.43041,1.50652,-0.01195,0.52147,0.07975,0.25036,0.07998,0.10127,0.03698,0.52996,0.49424,0.25205,0.28005,0.46759,0.04564,0.36861,0.89799,0.21311,0.34139,0.89619,-0.05509,0.40082,1.41281,0.27413,0.41747,1.42053,-0.07314,0.51629,1.14736,0.31908,0.50477,1.14958,-0.01668,0.65969,1.36026,0.22272,0.6121,1.36134
2596,0.10606,0.42682,1.50615,-0.01179,0.52148,0.07994,0.2496,0.07847,0.09939,0.03796,0.52975,0.49434,0.25177,0.27509,0.46756,0.04762,0.36754,0.89772,0.21488,0.33907,0.89596,-0.05253,0.39798,1.41263,0.27658,0.4126,1.42041,-0.07089,0.51253,1.14679,0.32181,0.50044,1.14967,-0.01345,0.65356,1.36101,0.22533,0.60851,1.361
2597,0.10803,0.42317,1.50574,-0.01142,0.52142,0.0801,0.24909,0.07705,0.09759,0.03886,0.52927,0.49444,0.2514,0.27015,0.46762,0.04968,0.36632,0.8975,0.21672,0.33659,0.89583,-0.05053,0.39515,1.41252,0.27867,0.40787,1.42028,-0.0686,0.50821,1.14602,0.32496,0.49583,1.14976,-0.01108,0.64682,1.3618,0.22774,0.60448,1.36046
2598,0.11005,0.41956,1.50542,-0.01106,0.52128,0.08028,0.24878,0.07598,0.09576,0.03992,0.52881,0.49455,0.25106,0.26546,0.46766,0.05178,0.36488,0.89718,0.21861,0.33399,0.89572,-0.04912,0.3922,1.41247,0.2803,0.40335,1.42024,-0.06614,0.50347,1.14516,0.32847,0.49087,1.14991,-0.00943,0.6405,1.36215,0.23002,0.60006,1.35975
2599,0.11182,0.41605,1.50522,-0.01076,0.52113,0.08059,0.2485,0.07532,0.09391,0.0412,0.52866,0.49474,0.25088,0.26098,0.46774,0.05392,0.36325,0.89673,0.22058,0.33143,0.89564,-0.04788,0.38914,1.41238,0.28168,0.39909,1.42039,-0.06356,0.49878,1.14432,0.33198,0.48569,1.15015,-0.00753,0.63512,1.36192,0.23234,0.59589,1.3589
2600,0.11338,0.41268,1.50506,-0.01048,0.52116,0.0811,0.24808,0.07484,0.09217,0.04251,0.52881,0.49511,0.251,0.25652,0.46794,0.05607,0.36151,0.89629,0.22262,0.3291,0.89562,-0.04641,0.38612,1.41207,0.28322,0.39509,1.42064,-0.06109,0.49468,1.1435,0.33504,0.48063,1.15035,-0.00477,0.63024,1.36151,0.23475,0.59246,1.35792
2601,0.11507,0.40939,1.5049,-0.01016,0.52149,0.08174,0.24749,0.07426,0.09067,0.04365,0.52897,0.49565,0.25134,0.25212,0.46826,0.05818,0.35971,0.89598,0.22466,0.32695,0.89566,-0.04459,0.38327,1.41157,0.28517,0.39111,1.42077,-0.05887,0.49131,1.14277,0.33766,0.47589,1.15037,-0.0013,0.62533,1.36141,0.23725,0.58956,1.35689
2602,0.11706,0.40612,1.50478,-0.0098,0.52215,0.08249,0.24673,0.07346,0.08947,0.04467,0.52891,0.49633,0.25171,0.24789,0.46864,0.06016,0.35781,0.89584,0.22658,0.32473,0.89578,-0.04263,0.38051,1.41116,0.2874,0.38685,1.42082,-0.0568,0.48851,1.14234,0.34026,0.47112,1.15033,0.0024,0.62064,1.36169,0.23997,0.58672,1.35581
2603,0.11918,0.40275,1.50474,-0.00946,0.523,0.08339,0.24588,0.07253,0.08851,0.0458,0.52869,0.49714,0.252,0.24386,0.46907,0.06205,0.3557,0.8958,0.22837,0.32216,0.89603,-0.0407,0.37764,1.41104,0.28961,0.38231,1.421,-0.05476,0.48608,1.14239,0.34312,0.46597,1.15045,0.00606,0.61661,1.36226,0.24296,0.58377,1.35475
2604,0.12121,0.39925,1.50468,-0.00919,0.52386,0.08447,0.24512,0.07166,0.08766,0.0471,0.52857,0.49809,0.25225,0.23993,0.46957,0.064,0.35332,0.89574,0.23018,0.31908,0.89645,-0.03885,0.3744,1.41113,0.2915,0.37771,1.42136,-0.05278,0.48382,1.14288,0.34592,0.46071,1.15079,0.00947,0.61324,1.363,0.24597,0.58067,1.35394
2605,0.12306,0.39577,1.50442,-0.00896,0.5246,0.08567,0.24456,0.07094,0.08682,0.04843,0.5287,0.49915,0.25254,0.23598,0.47012,0.06604,0.35077,0.89558,0.23204,0.31569,0.89697,-0.03712,0.3708,1.41129,0.29311,0.37317,1.42176,-0.05085,0.48159,1.14359,0.34827,0.45569,1.1512,0.01245,0.61023,1.36387,0.24883,0.57724,1.35364
2606,0.12471,0.39241,1.50395,-0.00861,0.5252,0.08693,0.24421,0.07029,0.08595,0.04958,0.52902,0.5003,0.2529,0.23195,0.47067,0.06803,0.34824,0.8954,0.23386,0.31239,0.89746,-0.03548,0.36711,1.41153,0.29486,0.36869,1.42208,-0.04884,0.47924,1.14437,0.35027,0.45094,1.15148,0.01497,0.60733,1.36482,0.25173,0.57328,1.35389
