PaulMeinheit/Bachelor_Muay_Thai/processed_Data/N1/teep/sliced/JointPositions/sliced1.csv
Unnamed: 0_level_0,Neck_Joint_Position,Neck_Joint_Position,Neck_Joint_Position,L_ANKLE_POSITION,L_ANKLE_POSITION,L_ANKLE_POSITION,R_ANKLE_POSITION,R_ANKLE_POSITION,R_ANKLE_POSITION,L_KNEE_POSITION,L_KNEE_POSITION,L_KNEE_POSITION,R_KNEE_POSITION,R_KNEE_POSITION,R_KNEE_POSITION,L_HIP_POSITION,L_HIP_POSITION,L_HIP_POSITION,R_HIP_POSITION,R_HIP_POSITION,R_HIP_POSITION,L_SHOULDER_POSITION,L_SHOULDER_POSITION,L_SHOULDER_POSITION,R_SHOULDER_POSITION,R_SHOULDER_POSITION,R_SHOULDER_POSITION,L_ELBOW_POSITION,L_ELBOW_POSITION,L_ELBOW_POSITION,R_ELBOW_POSITION,R_ELBOW_POSITION,R_ELBOW_POSITION,L_WRIST_POSITION,L_WRIST_POSITION,L_WRIST_POSITION,R_WRIST_POSITION,R_WRIST_POSITION,R_WRIST_POSITION
ITEM,X,Y,Z,X,Y,Z,X,Y,Z,X,Y,Z,X,Y,Z,X,Y,Z,X,Y,Z,X,Y,Z,X,Y,Z,X,Y,Z,X,Y,Z,X,Y,Z,X,Y,Z
716,0.0288,0.42381,1.50264,-0.0327,0.54142,0.07984,0.2505,0.10556,0.10892,-0.01345,0.52298,0.49645,0.23674,0.31601,0.46912,0.01844,0.35887,0.89791,0.18805,0.36349,0.89848,-0.11038,0.36178,1.40324,0.21114,0.44272,1.42282,-0.14548,0.46961,1.13628,0.3029,0.54369,1.16896,-0.13124,0.64117,1.33488,0.17177,0.63866,1.36754
717,0.03096,0.42098,1.50224,-0.03238,0.54125,0.07958,0.24959,0.10367,0.10676,-0.01265,0.52339,0.49619,0.23634,0.31179,0.46832,0.01997,0.35799,0.89707,0.18961,0.36144,0.89767,-0.10859,0.36059,1.4023,0.21407,0.43885,1.42232,-0.14229,0.46701,1.1346,0.30525,0.5383,1.16765,-0.13025,0.63472,1.3366,0.17537,0.63487,1.36628
718,0.03279,0.41795,1.50203,-0.03212,0.54068,0.07937,0.24855,0.10203,0.10465,-0.01166,0.52378,0.49598,0.23622,0.30761,0.46769,0.0216,0.35709,0.89627,0.19126,0.35938,0.89697,-0.10606,0.35895,1.40162,0.21731,0.43529,1.42182,-0.13906,0.46447,1.13347,0.30731,0.53267,1.16593,-0.12905,0.62805,1.33895,0.17929,0.63106,1.36487
719,0.03488,0.41491,1.50191,-0.03196,0.54017,0.07924,0.2475,0.10053,0.10265,-0.01047,0.52399,0.49583,0.23642,0.30356,0.46717,0.02325,0.356,0.89553,0.19291,0.35721,0.89636,-0.10297,0.3571,1.40135,0.2206,0.43171,1.42139,-0.13567,0.46281,1.13324,0.3096,0.52667,1.16425,-0.12605,0.6229,1.34146,0.18317,0.62727,1.3631
720,0.03792,0.41202,1.50188,-0.03181,0.54001,0.07921,0.24672,0.09908,0.10089,-0.00927,0.5238,0.49574,0.23693,0.29974,0.46675,0.02496,0.35466,0.89492,0.19463,0.3549,0.89588,-0.09976,0.35519,1.40145,0.22371,0.42774,1.4212,-0.13206,0.46187,1.13367,0.31233,0.5203,1.16306,-0.12086,0.61932,1.34382,0.18664,0.62339,1.36111
721,0.04187,0.40923,1.5021,-0.03154,0.54017,0.07926,0.24624,0.09781,0.09943,-0.00824,0.52309,0.49571,0.23766,0.2962,0.46656,0.02677,0.35325,0.89453,0.19644,0.35253,0.89564,-0.09675,0.35305,1.40185,0.22671,0.42329,1.42127,-0.1283,0.46075,1.13439,0.31525,0.51377,1.16237,-0.11472,0.61585,1.34614,0.18971,0.61917,1.35929
722,0.04598,0.40621,1.50264,-0.03115,0.54058,0.07931,0.24584,0.09689,0.09815,-0.00731,0.52198,0.49567,0.23836,0.29283,0.46662,0.0286,0.35202,0.89436,0.19826,0.35024,0.89567,-0.09395,0.35053,1.40244,0.22971,0.41854,1.42146,-0.12462,0.45885,1.13513,0.31805,0.50729,1.16188,-0.10923,0.61139,1.34861,0.19267,0.61473,1.3578
723,0.04945,0.40268,1.50327,-0.03076,0.54121,0.07927,0.24531,0.09637,0.09682,-0.00631,0.52073,0.49551,0.23874,0.28938,0.46685,0.03032,0.35111,0.89427,0.19996,0.34815,0.89583,-0.0912,0.34793,1.40306,0.23263,0.41385,1.42157,-0.12122,0.45635,1.13572,0.3208,0.50093,1.16138,-0.10514,0.60585,1.35128,0.19572,0.61053,1.35629
724,0.05203,0.39882,1.50365,-0.03045,0.54196,0.07911,0.24464,0.09599,0.09539,-0.00509,0.51952,0.49519,0.23886,0.28563,0.46717,0.03196,0.35036,0.89411,0.20158,0.34619,0.89604,-0.08848,0.34571,1.4035,0.23532,0.40942,1.42145,-0.11815,0.45357,1.1359,0.32367,0.49484,1.16076,-0.10292,0.59899,1.3543,0.19881,0.60686,1.35444
725,0.05404,0.39509,1.50365,-0.03026,0.54265,0.07893,0.24395,0.09541,0.09397,-0.00359,0.51827,0.49482,0.239,0.28164,0.46748,0.03371,0.34948,0.89387,0.20328,0.34397,0.89623,-0.08594,0.34398,1.40362,0.23782,0.40516,1.42107,-0.11528,0.45077,1.13555,0.32659,0.48917,1.16007,-0.10273,0.59037,1.35788,0.20186,0.60353,1.35245
726,0.05599,0.39179,1.50346,-0.03023,0.54316,0.07885,0.24338,0.09451,0.09265,-0.00189,0.51682,0.49451,0.23939,0.27772,0.46767,0.03568,0.34826,0.89364,0.20519,0.34119,0.89637,-0.08377,0.34244,1.40345,0.2403,0.4008,1.42061,-0.11242,0.44829,1.13493,0.32938,0.48374,1.15938,-0.10357,0.58069,1.36181,0.20502,0.60006,1.35083
727,0.05822,0.38892,1.50328,-0.03033,0.54353,0.07894,0.24303,0.0935,0.09138,-0.00014,0.51508,0.49433,0.23992,0.27403,0.46771,0.03774,0.34672,0.89351,0.20717,0.338,0.89644,-0.08189,0.34086,1.40323,0.24289,0.39629,1.4203,-0.10958,0.4464,1.13449,0.33213,0.47811,1.15877,-0.10361,0.57174,1.36543,0.20855,0.59619,1.34964
728,0.06092,0.38627,1.50317,-0.03038,0.54383,0.07918,0.24293,0.09269,0.09008,0.00148,0.51324,0.4943,0.24045,0.2704,0.46775,0.03969,0.34503,0.89351,0.20904,0.33482,0.89652,-0.08008,0.33934,1.40316,0.24566,0.39185,1.42013,-0.1069,0.44489,1.13433,0.33513,0.47212,1.1582,-0.10191,0.5645,1.36831,0.21236,0.59186,1.34856
729,0.06422,0.38364,1.50313,-0.03009,0.54405,0.07951,0.24295,0.09214,0.0888,0.00289,0.51148,0.49438,0.24105,0.26659,0.46799,0.04148,0.34338,0.8936,0.21074,0.33195,0.89669,-0.07813,0.33804,1.40325,0.24866,0.38763,1.42001,-0.10438,0.44332,1.13426,0.3384,0.46605,1.1576,-0.09902,0.55837,1.37051,0.21603,0.58718,1.34734
730,0.06804,0.38088,1.50319,-0.02948,0.54412,0.0798,0.24295,0.0917,0.08768,0.00421,0.50978,0.49448,0.2419,0.2627,0.46844,0.04324,0.34179,0.8937,0.21242,0.32931,0.89702,-0.07604,0.33687,1.40342,0.25187,0.38348,1.4199,-0.10197,0.44155,1.13417,0.3417,0.46015,1.15701,-0.09575,0.55269,1.37226,0.21947,0.58225,1.34622
731,0.0721,0.37788,1.50345,-0.02895,0.544,0.08004,0.24284,0.09126,0.08677,0.0056,0.50803,0.49451,0.24309,0.25904,0.46896,0.04515,0.34002,0.89367,0.21425,0.32654,0.89743,-0.07378,0.33551,1.40358,0.25504,0.37918,1.41988,-0.09965,0.43974,1.13415,0.34474,0.45442,1.15652,-0.09228,0.54765,1.37369,0.22322,0.57724,1.34572
732,0.07614,0.37465,1.50396,-0.0289,0.54377,0.08037,0.24272,0.09081,0.08591,0.00712,0.50631,0.49458,0.24452,0.25569,0.46936,0.04731,0.33791,0.89351,0.21631,0.32344,0.89784,-0.07122,0.33373,1.40374,0.25786,0.37487,1.41994,-0.09744,0.4379,1.13432,0.34756,0.44882,1.15623,-0.08851,0.54375,1.37473,0.22771,0.57233,1.34605
733,0.08024,0.37136,1.50464,-0.02937,0.54357,0.08094,0.24266,0.09034,0.08497,0.00865,0.50464,0.49483,0.24598,0.25229,0.46965,0.04966,0.3355,0.89337,0.21857,0.32017,0.89817,-0.06823,0.33173,1.40408,0.26028,0.3708,1.42004,-0.09536,0.4358,1.1347,0.35041,0.44354,1.15614,-0.08462,0.54104,1.3753,0.23269,0.56744,1.34703
734,0.08452,0.36823,1.50539,-0.03009,0.54355,0.08177,0.24271,0.08974,0.08393,0.00998,0.50292,0.49531,0.24721,0.24847,0.46994,0.05207,0.33292,0.89338,0.22091,0.31692,0.89843,-0.06492,0.32989,1.4046,0.26273,0.36693,1.42016,-0.09338,0.43329,1.13511,0.35344,0.43862,1.15617,-0.08115,0.53904,1.37541,0.23752,0.56217,1.34839
735,0.08886,0.36526,1.50613,-0.03071,0.54383,0.08283,0.24288,0.08897,0.08283,0.01102,0.50098,0.49598,0.2481,0.24416,0.47026,0.05438,0.33012,0.89354,0.22317,0.31356,0.89868,-0.06163,0.32822,1.40506,0.26564,0.36286,1.42033,-0.09137,0.43061,1.13532,0.35661,0.4338,1.15623,-0.07848,0.53717,1.37523,0.24199,0.55621,1.34995
736,0.09296,0.36232,1.50682,-0.03109,0.5445,0.08411,0.24316,0.08806,0.08165,0.0119,0.49887,0.49683,0.24881,0.23948,0.47057,0.05645,0.32694,0.89379,0.22518,0.30976,0.89892,-0.05871,0.32634,1.40522,0.26901,0.35838,1.42059,-0.0891,0.42817,1.13534,0.35973,0.4287,1.15623,-0.07629,0.53528,1.37501,0.2464,0.54988,1.35147
737,0.09656,0.3594,1.50737,-0.03129,0.54556,0.08562,0.24348,0.08709,0.08043,0.01276,0.49677,0.49787,0.2495,0.23469,0.47081,0.05827,0.32334,0.89407,0.22692,0.30537,0.89915,-0.05624,0.32406,1.40521,0.27233,0.3538,1.42093,-0.08654,0.42608,1.1354,0.36272,0.42323,1.15622,-0.07389,0.53371,1.37484,0.25104,0.54384,1.35276
738,0.09966,0.35662,1.50778,-0.03149,0.5469,0.08728,0.24378,0.08607,0.07934,0.01364,0.4949,0.49902,0.25016,0.23013,0.47103,0.05999,0.31952,0.89427,0.22854,0.30068,0.89944,-0.054,0.32159,1.40543,0.27527,0.34957,1.42139,-0.084,0.42392,1.1357,0.36558,0.41763,1.1563,-0.07088,0.53287,1.37452,0.25569,0.53834,1.35378
739,0.10242,0.35398,1.5082,-0.03192,0.54831,0.08904,0.24411,0.08497,0.07855,0.01451,0.49345,0.50027,0.25081,0.22597,0.47135,0.0618,0.31576,0.89437,0.23025,0.29615,0.89987,-0.05169,0.3192,1.4061,0.27788,0.34577,1.42191,-0.0818,0.42118,1.13624,0.36843,0.41231,1.15652,-0.06744,0.53287,1.37373,0.2598,0.53319,1.3546
740,0.10511,0.35134,1.50878,-0.03266,0.54956,0.09104,0.2446,0.08385,0.07806,0.01528,0.49256,0.50179,0.25161,0.22209,0.47183,0.06376,0.3122,0.89454,0.23211,0.29188,0.90047,-0.0492,0.317,1.40704,0.28043,0.34204,1.42231,-0.07993,0.41777,1.1368,0.37132,0.4076,1.1568,-0.06401,0.53343,1.37227,0.26315,0.52805,1.35539
741,0.10797,0.34866,1.50948,-0.03364,0.55053,0.09344,0.24526,0.08285,0.07769,0.01588,0.49211,0.50382,0.25266,0.21838,0.4724,0.06578,0.30865,0.89494,0.23403,0.28764,0.90116,-0.04653,0.31494,1.40791,0.2831,0.33813,1.42256,-0.07808,0.41401,1.13714,0.37425,0.40351,1.15709,-0.0609,0.53422,1.37023,0.266,0.52267,1.35642
742,0.11109,0.34599,1.51011,-0.03467,0.55119,0.09625,0.24605,0.08199,0.0773,0.01621,0.49184,0.50632,0.25396,0.21483,0.47291,0.06767,0.30487,0.89557,0.23585,0.28326,0.90183,-0.04378,0.31283,1.40854,0.28599,0.33418,1.42285,-0.07592,0.41037,1.13728,0.37713,0.39981,1.15743,-0.05817,0.53504,1.36798,0.26864,0.51704,1.35777
743,0.11434,0.34334,1.51066,-0.03559,0.55158,0.09916,0.2469,0.0812,0.0769,0.01627,0.49153,0.50901,0.25536,0.21143,0.47337,0.06937,0.30083,0.89623,0.23749,0.27879,0.90247,-0.04116,0.3104,1.409,0.28909,0.3305,1.42333,-0.07339,0.40715,1.13747,0.37986,0.3962,1.15781,-0.05577,0.53577,1.36599,0.27122,0.51142,1.35922
744,0.11751,0.34067,1.51137,-0.03633,0.55166,0.10188,0.24769,0.08038,0.07661,0.0162,0.4912,0.51158,0.25673,0.20813,0.47387,0.07095,0.29674,0.8967,0.23903,0.27441,0.90314,-0.03874,0.30749,1.40945,0.29221,0.32729,1.42392,-0.07072,0.40429,1.13791,0.38235,0.39255,1.15808,-0.05356,0.53628,1.36454,0.27387,0.50621,1.36047
745,0.12058,0.33797,1.51244,-0.03689,0.55144,0.10438,0.24832,0.0795,0.07653,0.01629,0.49088,0.51399,0.25795,0.205,0.4745,0.07248,0.29286,0.89707,0.24051,0.27031,0.90393,-0.03641,0.30431,1.41012,0.29498,0.32445,1.42446,-0.06806,0.40142,1.13865,0.38452,0.38894,1.15822,-0.05132,0.53645,1.36352,0.27664,0.50176,1.3614
746,0.12357,0.33537,1.51368,-0.03724,0.55102,0.10681,0.24872,0.07871,0.0767,0.01674,0.49056,0.51633,0.25901,0.20214,0.47529,0.07394,0.2894,0.89762,0.24193,0.26662,0.90486,-0.03413,0.30137,1.41117,0.29718,0.32166,1.42505,-0.0653,0.39829,1.13958,0.38636,0.3853,1.15849,-0.04868,0.53644,1.36254,0.27948,0.4982,1.36215
747,0.12638,0.33312,1.51469,-0.0373,0.55063,0.10922,0.24892,0.07824,0.07702,0.01758,0.49019,0.51862,0.26001,0.19962,0.47622,0.07529,0.28647,0.89848,0.24322,0.26336,0.90591,-0.03204,0.29915,1.4125,0.29893,0.31867,1.42601,-0.06227,0.39515,1.14048,0.38798,0.38127,1.15915,-0.04528,0.53679,1.36122,0.28232,0.49533,1.3628
748,0.12889,0.33132,1.51518,-0.03715,0.55025,0.11153,0.2489,0.07815,0.07728,0.01864,0.48984,0.52081,0.26093,0.1973,0.47713,0.07655,0.28405,0.89952,0.24441,0.26043,0.90692,-0.03018,0.29766,1.41381,0.30061,0.31548,1.42744,-0.05902,0.39253,1.14123,0.38962,0.37679,1.16027,-0.04098,0.53819,1.35926,0.28496,0.49282,1.36333
749,0.13115,0.32984,1.51529,-0.03696,0.54955,0.1137,0.24866,0.07827,0.07733,0.01963,0.48953,0.52292,0.26166,0.19496,0.47787,0.07771,0.28187,0.90059,0.2455,0.25769,0.90774,-0.02851,0.29645,1.4149,0.30244,0.31233,1.42897,-0.05588,0.39051,1.1419,0.39147,0.37259,1.16157,-0.03573,0.54084,1.35654,0.28728,0.49049,1.36379
750,0.13322,0.32841,1.51549,-0.03685,0.54806,0.1158,0.24831,0.07837,0.0772,0.02036,0.48913,0.5251,0.26211,0.1925,0.47845,0.07875,0.27961,0.90168,0.24649,0.25498,0.90837,-0.02692,0.29506,1.416,0.3044,0.30951,1.43012,-0.05314,0.3885,1.14267,0.39343,0.36949,1.16266,-0.02956,0.54412,1.35316,0.28927,0.4883,1.36436
751,0.13508,0.32682,1.51617,-0.03668,0.54551,0.11786,0.24807,0.07828,0.07709,0.02091,0.48852,0.52738,0.26237,0.19005,0.47899,0.07963,0.27722,0.90292,0.24734,0.25221,0.90898,-0.02533,0.29349,1.41745,0.30631,0.30708,1.43085,-0.05084,0.386,1.14374,0.39524,0.36736,1.16342,-0.02283,0.547,1.34958,0.29099,0.4861,1.36512
752,0.1368,0.32516,1.5172,-0.03631,0.54203,0.1198,0.24802,0.07799,0.07716,0.02149,0.48782,0.52967,0.26259,0.18787,0.47957,0.08036,0.27493,0.90428,0.24802,0.24944,0.90966,-0.02361,0.29201,1.41919,0.30804,0.30478,1.43136,-0.04884,0.38334,1.14505,0.39681,0.36539,1.16396,-0.01654,0.54885,1.34665,0.29255,0.4837,1.3659
753,0.13848,0.32362,1.51806,-0.03575,0.538,0.12153,0.24807,0.07763,0.07739,0.0223,0.48741,0.53183,0.26287,0.18614,0.48016,0.08096,0.27294,0.90557,0.24855,0.24684,0.91039,-0.02173,0.2908,1.42072,0.30953,0.30237,1.43175,-0.04698,0.38138,1.14634,0.39828,0.36298,1.16433,-0.01179,0.54968,1.34513,0.29414,0.48104,1.36648
754,0.14026,0.32225,1.51842,-0.03511,0.53369,0.1231,0.24809,0.0773,0.07765,0.0234,0.48761,0.53386,0.26325,0.1848,0.48069,0.08154,0.27122,0.90658,0.24904,0.2445,0.91105,-0.01976,0.28984,1.42166,0.3109,0.29991,1.43214,-0.04519,0.38046,1.14731,0.39965,0.36002,1.16461,-0.00873,0.54983,1.34495,0.29594,0.47831,1.36685
755,0.14217,0.32086,1.51845,-0.03448,0.52911,0.12469,0.2481,0.07698,0.0779,0.02474,0.48846,0.53592,0.26376,0.18366,0.48112,0.08217,0.2698,0.90742,0.24958,0.24248,0.91161,-0.01781,0.289,1.4221,0.31225,0.29758,1.43279,-0.04346,0.38011,1.14793,0.40081,0.35664,1.16497,-0.0062,0.54969,1.34524,0.29795,0.47574,1.36716
756,0.14397,0.31947,1.51844,-0.03389,0.52418,0.12637,0.24816,0.07663,0.07813,0.02623,0.4897,0.53803,0.2643,0.18273,0.4815,0.08285,0.26875,0.9083,0.25017,0.24082,0.91209,-0.01603,0.28809,1.42243,0.31357,0.29534,1.43379,-0.0419,0.37969,1.14845,0.40174,0.35323,1.16559,-0.00286,0.54944,1.34527,0.29993,0.47359,1.36757
757,0.14543,0.31833,1.51848,-0.03335,0.51894,0.12806,0.24832,0.07631,0.07837,0.02778,0.4908,0.54006,0.26466,0.18213,0.4818,0.08345,0.26791,0.90931,0.25072,0.23957,0.91248,-0.01471,0.28698,1.42286,0.31488,0.29303,1.43484,-0.0407,0.37893,1.149,0.40261,0.35044,1.16639,0.00129,0.54877,1.34513,0.30157,0.47206,1.368
758,0.14655,0.31759,1.51851,-0.03292,0.51362,0.12955,0.24854,0.07614,0.07856,0.02927,0.49126,0.54174,0.26479,0.18178,0.48204,0.08389,0.26707,0.91036,0.25115,0.23865,0.91281,-0.01402,0.28585,1.42331,0.31616,0.29071,1.43561,-0.04006,0.37802,1.14953,0.40354,0.34858,1.16714,0.00513,0.54729,1.34545,0.30271,0.4712,1.36825
759,0.14755,0.31708,1.51847,-0.0327,0.50847,0.13067,0.2488,0.07619,0.07867,0.03063,0.49104,0.54293,0.2649,0.18146,0.48225,0.08427,0.26616,0.91127,0.25154,0.23781,0.9131,-0.01378,0.28505,1.4237,0.31733,0.2887,1.43614,-0.03987,0.37716,1.14991,0.40446,0.34725,1.16774,0.00748,0.54496,1.34657,0.30349,0.47063,1.36831
760,0.14852,0.31656,1.51839,-0.0327,0.50358,0.13142,0.24897,0.07643,0.07872,0.0318,0.49055,0.54366,0.26516,0.1812,0.48243,0.0847,0.26524,0.91184,0.25197,0.2368,0.91338,-0.01363,0.28466,1.42407,0.31821,0.28724,1.43661,-0.03978,0.37618,1.15009,0.40508,0.34593,1.16815,0.00777,0.54199,1.3484,0.30415,0.4697,1.36851
761,0.14937,0.31591,1.51826,-0.03274,0.49882,0.13191,0.24885,0.07676,0.07871,0.03282,0.49021,0.5441,0.26544,0.1812,0.48249,0.0852,0.26441,0.91206,0.25239,0.23554,0.9136,-0.01326,0.28429,1.42448,0.31886,0.28621,1.43697,-0.03948,0.37488,1.15019,0.4052,0.34465,1.1683,0.00639,0.53859,1.35062,0.30483,0.46805,1.36916
762,0.15,0.31529,1.51797,-0.0326,0.49407,0.13227,0.24847,0.07707,0.07859,0.03386,0.49014,0.54439,0.26547,0.18149,0.48236,0.08564,0.26374,0.91206,0.25271,0.23414,0.91369,-0.01259,0.28354,1.42486,0.3195,0.28524,1.43695,-0.03891,0.37332,1.15032,0.40503,0.34389,1.16806,0.0044,0.53495,1.35299,0.30548,0.46589,1.37018
763,0.15047,0.31488,1.51753,-0.03211,0.48936,0.13248,0.24814,0.07725,0.07841,0.03504,0.49025,0.5445,0.26523,0.18185,0.48212,0.08594,0.26328,0.91195,0.25287,0.23291,0.91366,-0.01176,0.28254,1.4251,0.32033,0.28421,1.43652,-0.03821,0.37185,1.15042,0.4049,0.34374,1.16751,0.00259,0.53127,1.35535,0.30603,0.46368,1.3712
764,0.15096,0.3147,1.51712,-0.03121,0.48477,0.13239,0.24807,0.07727,0.07827,0.03631,0.49032,0.54432,0.26493,0.18214,0.48192,0.0861,0.2631,0.91176,0.25291,0.23208,0.9136,-0.01103,0.28175,1.42515,0.32131,0.28328,1.43604,-0.0376,0.37083,1.1504,0.40495,0.34371,1.16694,0.00101,0.52779,1.35765,0.30659,0.46175,1.37197
765,0.15159,0.31455,1.51693,-0.03008,0.48053,0.13189,0.24818,0.07727,0.07824,0.03749,0.4901,0.54373,0.26473,0.18246,0.48183,0.08618,0.26325,0.91155,0.25288,0.23169,0.91359,-0.01059,0.28165,1.42522,0.32223,0.2826,1.43579,-0.03719,0.37039,1.15036,0.40509,0.34361,1.16659,-0.0001,0.52487,1.35973,0.3072,0.46028,1.37263
766,0.15217,0.3143,1.51701,-0.0291,0.47687,0.13098,0.24827,0.07738,0.0783,0.03852,0.48925,0.54274,0.26468,0.18285,0.48182,0.08621,0.26362,0.91144,0.25282,0.23158,0.91364,-0.01033,0.28242,1.42562,0.32282,0.28213,1.43562,-0.0369,0.37048,1.15055,0.40522,0.34393,1.16645,5e-05,0.52283,1.3615,0.30772,0.4594,1.37335
767,0.1525,0.314,1.51715,-0.02859,0.47392,0.12975,0.2483,0.07757,0.07835,0.0395,0.48766,0.54138,0.26479,0.18322,0.48182,0.08618,0.2641,0.91148,0.25268,0.23153,0.91367,-0.00994,0.28369,1.42636,0.32302,0.28179,1.43531,-0.03653,0.37103,1.15105,0.40532,0.34496,1.16643,0.00179,0.52151,1.3631,0.30801,0.45897,1.37423
768,0.15263,0.31389,1.51707,-0.02852,0.47173,0.12827,0.24833,0.07766,0.07832,0.04045,0.48559,0.53976,0.2651,0.18347,0.48174,0.08615,0.26472,0.91158,0.25252,0.23144,0.91362,-0.00935,0.28479,1.42694,0.32291,0.28143,1.43502,-0.03591,0.37194,1.15157,0.40539,0.34608,1.16656,0.00402,0.52018,1.36489,0.30815,0.45856,1.37522
769,0.15283,0.3142,1.51668,-0.0286,0.47031,0.12663,0.24837,0.07764,0.07823,0.04127,0.48353,0.53799,0.26551,0.18373,0.48155,0.08623,0.26552,0.91158,0.25242,0.23137,0.91346,-0.0088,0.28558,1.42704,0.32262,0.2809,1.43493,-0.03519,0.37298,1.15174,0.40547,0.34664,1.16684,0.00508,0.51827,1.36702,0.30819,0.45791,1.37614
770,0.15319,0.31492,1.51616,-0.02867,0.46949,0.1249,0.2484,0.07762,0.07811,0.04191,0.48172,0.53616,0.26581,0.18421,0.48129,0.08641,0.26643,0.91139,0.25242,0.23142,0.91324,-0.00853,0.28645,1.42691,0.32237,0.28025,1.43477,-0.03479,0.37397,1.15163,0.40551,0.34713,1.16706,0.00478,0.51598,1.36922,0.30796,0.45741,1.37675
771,0.15358,0.31574,1.5158,-0.02882,0.46893,0.12307,0.24841,0.07764,0.07802,0.04246,0.48001,0.53424,0.26586,0.185,0.48099,0.08654,0.26729,0.91098,0.25242,0.23166,0.91299,-0.0086,0.28756,1.42686,0.3223,0.2798,1.4342,-0.03493,0.37499,1.15156,0.40538,0.34849,1.16692,0.0047,0.51417,1.37097,0.30733,0.45754,1.37702
772,0.15389,0.31637,1.51563,-0.02911,0.46819,0.12104,0.24841,0.07761,0.07793,0.0429,0.47823,0.53212,0.26573,0.18606,0.48062,0.08653,0.26803,0.91032,0.25233,0.23207,0.91269,-0.00888,0.28862,1.42687,0.32243,0.27978,1.43338,-0.03541,0.37625,1.15165,0.40497,0.35067,1.1665,0.00615,0.51345,1.37194,0.30646,0.45828,1.37713
773,0.15411,0.31686,1.51545,-0.02936,0.46707,0.11878,0.24833,0.07753,0.07783,0.04314,0.47645,0.52979,0.26563,0.18722,0.48019,0.08648,0.26877,0.90941,0.25223,0.2326,0.91232,-0.00916,0.28954,1.42672,0.32258,0.28008,1.4328,-0.03593,0.37783,1.15174,0.4043,0.35268,1.16614,0.00868,0.51358,1.37233,0.30564,0.45906,1.37732
774,0.1542,0.31744,1.51504,-0.02939,0.46565,0.11644,0.24811,0.07747,0.07771,0.04321,0.47492,0.52744,0.26563,0.18829,0.47975,0.08655,0.26973,0.90841,0.25222,0.23327,0.91193,-0.00931,0.29058,1.42638,0.32254,0.28033,1.43272,-0.0363,0.37986,1.15174,0.40358,0.35369,1.16605,0.01086,0.51398,1.3728,0.30513,0.4594,1.37766
775,0.15402,0.31833,1.51436,-0.02929,0.46408,0.11426,0.24788,0.0774,0.07763,0.04322,0.47357,0.52526,0.26566,0.1892,0.47938,0.08667,0.27098,0.90761,0.25224,0.23413,0.91156,-0.0094,0.29183,1.42591,0.32215,0.28016,1.43292,-0.03648,0.38253,1.15174,0.40303,0.35368,1.16625,0.01192,0.51453,1.3738,0.3049,0.45932,1.37805
776,0.15354,0.31947,1.51357,-0.02936,0.46235,0.11228,0.2479,0.07726,0.07766,0.04315,0.4719,0.52328,0.2656,0.19011,0.47912,0.08662,0.27236,0.90723,0.25213,0.23519,0.91129,-0.00952,0.29303,1.4254,0.32141,0.27953,1.43298,-0.0366,0.3856,1.15185,0.40267,0.35346,1.16654,0.01219,0.51537,1.37514,0.30466,0.45936,1.37827
777,0.15288,0.32068,1.51285,-0.02976,0.46038,0.11032,0.2482,0.07717,0.07783,0.04286,0.46944,0.52131,0.26543,0.19123,0.47897,0.08634,0.27367,0.9072,0.25183,0.23642,0.91112,-0.00975,0.29399,1.42506,0.32052,0.27887,1.43267,-0.03693,0.38832,1.15213,0.4024,0.35396,1.16674,0.01237,0.51638,1.37628,0.30421,0.46015,1.37824
778,0.15214,0.32174,1.5122,-0.03045,0.45818,0.10816,0.24851,0.07728,0.07806,0.04233,0.46636,0.51915,0.26524,0.19266,0.47884,0.08603,0.27493,0.90717,0.25154,0.23778,0.91099,-0.01018,0.29485,1.42506,0.31966,0.27874,1.4321,-0.03759,0.39013,1.15248,0.40204,0.35545,1.16679,0.01299,0.51725,1.37689,0.30366,0.46196,1.37804
779,0.15138,0.32258,1.51149,-0.03125,0.45588,0.10577,0.24848,0.07762,0.07824,0.04169,0.46336,0.51674,0.26501,0.19435,0.47864,0.08586,0.27623,0.90681,0.25141,0.23927,0.91082,-0.01093,0.29593,1.42529,0.31884,0.27925,1.43153,-0.03838,0.39128,1.15274,0.40147,0.35757,1.16678,0.01418,0.51784,1.37701,0.30322,0.46473,1.37776
780,0.1507,0.3233,1.51075,-0.03187,0.45374,0.10325,0.2481,0.07806,0.07834,0.04101,0.4609,0.51424,0.26466,0.19616,0.47834,0.08576,0.27767,0.90609,0.25137,0.24098,0.91054,-0.01201,0.29733,1.42543,0.31792,0.28007,1.43113,-0.03907,0.39248,1.15278,0.40072,0.35985,1.16686,0.0155,0.51836,1.37695,0.30275,0.46834,1.37729
781,0.15023,0.32402,1.51011,-0.03219,0.45196,0.1008,0.24765,0.07849,0.07836,0.04026,0.45894,0.51186,0.26417,0.19792,0.47796,0.08556,0.27928,0.9053,0.25125,0.24304,0.91014,-0.01312,0.29872,1.42529,0.31686,0.28088,1.43092,-0.03958,0.39411,1.15266,0.39996,0.36189,1.16712,0.0162,0.51912,1.37703,0.30201,0.47233,1.37654
782,0.14992,0.32488,1.5096,-0.03233,0.45059,0.09864,0.24742,0.07888,0.07834,0.03946,0.45737,0.50983,0.26364,0.1995,0.4776,0.08515,0.28108,0.90474,0.25096,0.24541,0.9097,-0.0139,0.29964,1.42496,0.31588,0.28163,1.4309,-0.03995,0.39601,1.15263,0.39927,0.36344,1.16744,0.01594,0.52045,1.37728,0.30101,0.47592,1.37562
783,0.14956,0.3259,1.50918,-0.03248,0.44959,0.09695,0.2475,0.07922,0.07841,0.03868,0.45617,0.50825,0.26326,0.20103,0.47732,0.0846,0.28298,0.9045,0.25051,0.24779,0.90933,-0.01437,0.30011,1.42459,0.31527,0.28248,1.43092,-0.04024,0.3979,1.15275,0.39865,0.36467,1.16758,0.01506,0.52258,1.37741,0.29999,0.47865,1.37476
784,0.14892,0.32692,1.5089,-0.03259,0.44895,0.09572,0.24783,0.07953,0.07867,0.03803,0.45533,0.50711,0.26308,0.20285,0.47714,0.08399,0.28474,0.90449,0.24997,0.24986,0.90911,-0.01502,0.30065,1.42419,0.31504,0.28358,1.43081,-0.04045,0.39973,1.15278,0.39806,0.36619,1.16748,0.01433,0.52564,1.37689,0.29917,0.48088,1.37415
785,0.14789,0.3278,1.50882,-0.03244,0.44874,0.0948,0.24832,0.07992,0.07906,0.03752,0.45477,0.50631,0.26295,0.20516,0.47696,0.08338,0.2862,0.90456,0.24943,0.2516,0.90898,-0.0163,0.30155,1.42384,0.31485,0.28497,1.43052,-0.04073,0.40155,1.15268,0.39747,0.36837,1.16732,0.01446,0.52971,1.37541,0.29853,0.48333,1.37382
786,0.14653,0.32858,1.5088,-0.03188,0.44891,0.09402,0.24876,0.08041,0.07946,0.03702,0.45441,0.50571,0.26269,0.20783,0.47668,0.08272,0.28742,0.90465,0.24888,0.25331,0.9088,-0.0181,0.30261,1.42378,0.31437,0.28649,1.43024,-0.0413,0.40334,1.15278,0.39675,0.37085,1.16726,0.01529,0.53468,1.3733,0.29786,0.48613,1.37361
787,0.14503,0.32949,1.50864,-0.03103,0.4492,0.09332,0.24888,0.08093,0.07981,0.03629,0.45424,0.50528,0.26221,0.21062,0.47632,0.08187,0.28863,0.90481,0.24819,0.25528,0.90852,-0.01989,0.30349,1.42407,0.31362,0.28784,1.43009,-0.04216,0.40523,1.15337,0.39581,0.37317,1.16737,0.0159,0.54019,1.3713,0.29692,0.48896,1.37343
788,0.14354,0.33073,1.50835,-0.03014,0.44922,0.09272,0.24869,0.08142,0.08023,0.03522,0.45439,0.50499,0.26165,0.2136,0.47593,0.08071,0.28991,0.90499,0.24723,0.25749,0.90819,-0.02113,0.3042,1.42443,0.31278,0.28893,1.43002,-0.04297,0.40752,1.15429,0.39459,0.3754,1.16756,0.01577,0.54579,1.36995,0.29581,0.49175,1.37336
789,0.14206,0.33224,1.50807,-0.02939,0.44883,0.09221,0.2485,0.08191,0.08084,0.03399,0.45494,0.50478,0.26119,0.21701,0.47556,0.07932,0.29118,0.9051,0.24602,0.25966,0.90792,-0.02171,0.30503,1.42456,0.31199,0.28996,1.42999,-0.04359,0.41034,1.1552,0.39309,0.3777,1.16773,0.01525,0.55115,1.36918,0.29491,0.49464,1.37348
790,0.14053,0.33384,1.50794,-0.02877,0.44829,0.09177,0.24857,0.0825,0.08163,0.03284,0.45574,0.50459,0.26085,0.22083,0.47524,0.07796,0.29245,0.90512,0.24477,0.26154,0.90775,-0.02202,0.30618,1.4245,0.31119,0.29122,1.43008,-0.04429,0.41327,1.15586,0.39135,0.37988,1.16783,0.01463,0.55606,1.36851,0.29436,0.49747,1.37378
791,0.13902,0.33549,1.50788,-0.02827,0.44796,0.0914,0.24877,0.08326,0.08253,0.03185,0.45654,0.50442,0.26055,0.22469,0.47505,0.07683,0.29377,0.90517,0.24369,0.2631,0.90775,-0.02254,0.3076,1.42446,0.31032,0.29279,1.4303,-0.0453,0.41568,1.15627,0.38957,0.38175,1.16787,0.014,0.56046,1.36745,0.29374,0.49974,1.37414
792,0.13774,0.33726,1.50775,-0.02791,0.44791,0.09115,0.24882,0.08422,0.08349,0.03099,0.4572,0.50433,0.26029,0.22835,0.47504,0.07585,0.29518,0.9054,0.24272,0.26455,0.9079,-0.02339,0.30895,1.42462,0.30926,0.29448,1.43061,-0.04654,0.41729,1.15656,0.38802,0.38335,1.16801,0.01362,0.56428,1.36598,0.29251,0.50129,1.37445
793,0.13677,0.33905,1.50752,-0.02766,0.44798,0.09097,0.24863,0.08531,0.08455,0.03019,0.45759,0.50429,0.26016,0.23204,0.47513,0.0747,0.2966,0.90582,0.2416,0.26614,0.90812,-0.02445,0.31,1.42492,0.30785,0.29601,1.43099,-0.04776,0.41839,1.1569,0.38665,0.3849,1.16841,0.01394,0.56749,1.36437,0.29076,0.50248,1.37487
794,0.13583,0.34062,1.50734,-0.02751,0.44805,0.09074,0.24843,0.08645,0.0858,0.02937,0.45752,0.5042,0.26014,0.23628,0.4752,0.07317,0.29795,0.90637,0.24016,0.26794,0.9083,-0.02567,0.31097,1.42521,0.30615,0.29729,1.43141,-0.04884,0.4194,1.15719,0.38519,0.3867,1.16908,0.0151,0.57015,1.36278,0.28896,0.50374,1.3757
795,0.13461,0.34194,1.50736,-0.02744,0.44819,0.09039,0.24846,0.08767,0.08731,0.02841,0.45697,0.504,0.26009,0.2413,0.47523,0.07137,0.29918,0.90697,0.23849,0.2699,0.90847,-0.02715,0.31227,1.42535,0.30443,0.29853,1.4318,-0.04991,0.42052,1.15723,0.38358,0.389,1.16987,0.01674,0.57228,1.3612,0.28729,0.50508,1.37699
796,0.13322,0.34335,1.50753,-0.02739,0.44838,0.08992,0.24879,0.08904,0.08911,0.02729,0.45621,0.50371,0.26002,0.24686,0.47535,0.06957,0.30037,0.9075,0.23684,0.27192,0.90873,-0.02881,0.31403,1.42539,0.30295,0.30017,1.43216,-0.05116,0.42183,1.15705,0.38211,0.39177,1.17062,0.01816,0.57395,1.35986,0.28565,0.50628,1.37855
797,0.13204,0.34512,1.50774,-0.02713,0.4484,0.08926,0.24933,0.09046,0.0911,0.02612,0.45558,0.50325,0.26011,0.25252,0.47559,0.06797,0.30165,0.90782,0.23537,0.27398,0.90908,-0.03042,0.316,1.42546,0.30168,0.30239,1.43246,-0.05254,0.42332,1.1569,0.38088,0.39483,1.17123,0.01871,0.57534,1.35912,0.28409,0.50726,1.38014
798,0.13125,0.34711,1.50796,-0.02661,0.44806,0.08836,0.24995,0.09181,0.0931,0.02504,0.4551,0.50255,0.26048,0.25799,0.47584,0.06659,0.30319,0.90792,0.23407,0.27607,0.90938,-0.03185,0.31789,1.42558,0.3004,0.30486,1.43271,-0.05378,0.42489,1.15688,0.37965,0.39792,1.17172,0.01839,0.57664,1.35897,0.28268,0.50831,1.38163
799,0.13055,0.34897,1.50817,-0.02609,0.44746,0.0873,0.25064,0.09302,0.09507,0.0241,0.45451,0.50167,0.26103,0.26332,0.476,0.06528,0.30501,0.90797,0.23281,0.27819,0.90955,-0.0332,0.31944,1.42567,0.29891,0.30697,1.43295,-0.05472,0.42651,1.15697,0.37822,0.40085,1.17226,0.01782,0.57804,1.3591,0.28132,0.50965,1.38303
800,0.12945,0.35055,1.50836,-0.02586,0.44686,0.08629,0.25144,0.09415,0.09711,0.0232,0.45368,0.5008,0.26158,0.26872,0.47611,0.06386,0.30695,0.90816,0.23142,0.28027,0.90963,-0.03465,0.3206,1.42568,0.29723,0.30846,1.43321,-0.05554,0.4284,1.15722,0.37671,0.40362,1.17305,0.01732,0.57949,1.35957,0.27978,0.51124,1.3844
801,0.12764,0.35191,1.50856,-0.02592,0.44643,0.08543,0.25229,0.09533,0.09926,0.02233,0.45279,0.50004,0.26198,0.2743,0.47621,0.06228,0.30879,0.90845,0.22987,0.28229,0.90967,-0.03626,0.32165,1.4257,0.29551,0.30975,1.43343,-0.0566,0.4306,1.15766,0.37527,0.40645,1.17392,0.0164,0.58057,1.36078,0.27802,0.51281,1.38577
802,0.12519,0.35324,1.50881,-0.026,0.44614,0.08469,0.25296,0.0967,0.10139,0.0215,0.45201,0.49939,0.26225,0.27993,0.4763,0.06067,0.3104,0.9087,0.22831,0.28419,0.90967,-0.03789,0.32304,1.42589,0.29381,0.31147,1.43349,-0.05816,0.43268,1.15813,0.37385,0.40952,1.17457,0.01455,0.58076,1.36274,0.27619,0.51423,1.38704
803,0.12251,0.35476,1.50913,-0.02585,0.44598,0.08399,0.25336,0.09825,0.10333,0.0207,0.45127,0.49881,0.26251,0.28538,0.47631,0.05912,0.31176,0.90891,0.22683,0.28597,0.90957,-0.03946,0.3248,1.42629,0.29215,0.3138,1.43345,-0.06014,0.43424,1.15847,0.3723,0.41276,1.17491,0.01188,0.57998,1.36499,0.27442,0.51556,1.38823
804,0.12001,0.35652,1.50935,-0.02546,0.44591,0.08329,0.25367,0.09992,0.10513,0.0199,0.45026,0.49825,0.26291,0.29062,0.4763,0.05758,0.31297,0.90917,0.22536,0.2877,0.90938,-0.0412,0.32652,1.42679,0.29064,0.31642,1.43344,-0.06216,0.43558,1.15884,0.37053,0.41612,1.17511,0.00886,0.57892,1.36737,0.27277,0.51696,1.38941
805,0.11794,0.35839,1.50933,-0.02497,0.4458,0.08258,0.25415,0.10163,0.10696,0.01909,0.44882,0.49769,0.26341,0.29573,0.47636,0.05599,0.31408,0.90953,0.22388,0.28952,0.90924,-0.0433,0.32776,1.42727,0.28933,0.31894,1.43352,-0.0638,0.43755,1.15959,0.36858,0.4195,1.17532,0.00645,0.57862,1.36994,0.27118,0.51853,1.39062
806,0.11625,0.36023,1.50906,-0.02458,0.44556,0.08189,0.25489,0.10334,0.10893,0.01824,0.44716,0.49714,0.26383,0.30077,0.47658,0.05439,0.31519,0.90993,0.2224,0.29148,0.90922,-0.04565,0.32852,1.4276,0.28801,0.32112,1.43365,-0.06499,0.44049,1.16073,0.36666,0.4227,1.17567,0.00576,0.57941,1.37233,0.26958,0.52031,1.39176
807,0.11472,0.36198,1.50873,-0.02443,0.4453,0.08127,0.25571,0.10504,0.11097,0.01735,0.44574,0.49663,0.26406,0.3057,0.47688,0.05279,0.31627,0.91028,0.22093,0.29355,0.90928,-0.04793,0.32918,1.4275,0.28637,0.32299,1.43388,-0.06618,0.44385,1.16171,0.36497,0.42549,1.17625,0.00661,0.58059,1.37404,0.26796,0.52221,1.39277
808,0.11312,0.36375,1.50852,-0.02451,0.44516,0.08072,0.25647,0.10667,0.11297,0.01646,0.44495,0.49616,0.26413,0.31047,0.47714,0.05114,0.31732,0.91044,0.21941,0.29555,0.9093,-0.05004,0.33015,1.42691,0.28443,0.32471,1.43417,-0.06784,0.44705,1.16206,0.36355,0.42797,1.177,0.00766,0.58131,1.37502,0.26638,0.52419,1.39367
809,0.11139,0.36568,1.5085,-0.02468,0.44511,0.08017,0.25712,0.10819,0.11494,0.01557,0.44481,0.49568,0.26412,0.31508,0.47739,0.04945,0.3184,0.91041,0.21781,0.29736,0.90927,-0.052,0.33165,1.42617,0.28249,0.32646,1.43442,-0.0699,0.45004,1.16199,0.36227,0.43036,1.17771,0.00799,0.58156,1.3758,0.26489,0.5263,1.39441
810,0.10955,0.36774,1.50866,-0.02491,0.44502,0.07966,0.25764,0.10963,0.11698,0.01465,0.44503,0.49524,0.26416,0.3196,0.47767,0.04776,0.31961,0.91033,0.21616,0.29889,0.90923,-0.0538,0.33353,1.4258,0.28059,0.32833,1.43453,-0.07185,0.45297,1.1621,0.36096,0.43272,1.1782,0.00755,0.58182,1.37697,0.26348,0.52876,1.39482
811,0.10764,0.36971,1.5089,-0.02524,0.44481,0.07929,0.25803,0.11113,0.11908,0.01368,0.44521,0.49493,0.26436,0.32419,0.47795,0.04605,0.32085,0.9104,0.21446,0.30018,0.90912,-0.05544,0.33553,1.42599,0.27852,0.33035,1.43457,-0.07354,0.45591,1.16273,0.35953,0.43498,1.17854,0.00654,0.58226,1.37883,0.26203,0.53169,1.39485
812,0.10559,0.37138,1.50911,-0.02562,0.44449,0.07906,0.25846,0.11299,0.12113,0.0127,0.44505,0.49476,0.26479,0.32904,0.4782,0.04431,0.32192,0.91065,0.21272,0.30132,0.9089,-0.05708,0.33744,1.42653,0.27612,0.33239,1.43466,-0.07517,0.45894,1.16378,0.35801,0.43706,1.17893,0.00507,0.58269,1.38133,0.26038,0.53489,1.39468
813,0.10333,0.37284,1.50919,-0.02593,0.44409,0.07887,0.25922,0.11538,0.1231,0.01177,0.44449,0.49462,0.26538,0.33418,0.4785,0.04258,0.32277,0.91099,0.21103,0.30256,0.90865,-0.05899,0.33923,1.42711,0.27357,0.33413,1.43487,-0.0768,0.46212,1.16499,0.35647,0.43901,1.17955,0.00347,0.58308,1.38408,0.25848,0.53803,1.39459
814,0.10087,0.37438,1.50909,-0.02615,0.44367,0.07866,0.26043,0.11818,0.12506,0.01093,0.44368,0.49447,0.26598,0.33946,0.47893,0.04096,0.32354,0.91135,0.20949,0.30407,0.90851,-0.06127,0.34091,1.42757,0.27131,0.33546,1.43519,-0.07819,0.4653,1.16609,0.35502,0.4409,1.18037,0.00218,0.5837,1.38655,0.25652,0.54097,1.39468
815,0.09841,0.37611,1.50886,-0.02632,0.44348,0.07847,0.26177,0.12104,0.12709,0.01015,0.44296,0.49433,0.26656,0.34458,0.47955,0.03952,0.32432,0.91169,0.20816,0.30583,0.90858,-0.06369,0.34256,1.42792,0.26963,0.33674,1.43566,-0.07933,0.46815,1.16694,0.35364,0.44281,1.1812,0.00137,0.58462,1.3883,0.25469,0.54363,1.39496
816,0.09614,0.37783,1.5087,-0.02644,0.44371,0.07837,0.2629,0.12373,0.12918,0.00941,0.44262,0.49428,0.26726,0.34938,0.4803,0.03831,0.32509,0.91198,0.20705,0.30759,0.90879,-0.06588,0.34425,1.4283,0.26839,0.33837,1.4362,-0.0805,0.47045,1.16756,0.35218,0.44484,1.18184,0.001,0.5855,1.38936,0.25305,0.54593,1.39539
817,0.09416,0.37932,1.50875,-0.0264,0.4442,0.07834,0.26386,0.12616,0.13129,0.00873,0.44271,0.49432,0.26825,0.35387,0.48107,0.03731,0.32582,0.91222,0.20613,0.30915,0.909,-0.06774,0.34596,1.42878,0.26717,0.34033,1.43663,-0.08187,0.47226,1.16806,0.35053,0.44706,1.18224,0.00084,0.58595,1.39012,0.25157,0.54795,1.39596
818,0.09252,0.38066,1.50893,-0.02604,0.44461,0.07831,0.26495,0.12829,0.13336,0.0081,0.44306,0.49437,0.26947,0.35804,0.48181,0.03639,0.32656,0.9124,0.20527,0.31055,0.90913,-0.06943,0.34757,1.42916,0.26569,0.34229,1.43683,-0.08332,0.47394,1.16846,0.34869,0.44945,1.1825,0.00041,0.58608,1.39093,0.25014,0.5499,1.39661
819,0.09113,0.38211,1.50907,-0.0254,0.4448,0.07823,0.2663,0.13022,0.13538,0.0075,0.44352,0.49438,0.27064,0.36193,0.48253,0.03537,0.32739,0.91255,0.20431,0.31189,0.90923,-0.07107,0.349,1.42922,0.26393,0.34395,1.43693,-0.0848,0.47577,1.1687,0.3469,0.45172,1.18284,-0.00052,0.58652,1.39166,0.24862,0.55194,1.39719
820,0.08972,0.38383,1.50911,-0.02471,0.44487,0.07812,0.26784,0.13206,0.13732,0.00695,0.44395,0.49437,0.27155,0.36557,0.48327,0.03418,0.32837,0.91273,0.20315,0.31321,0.90937,-0.07258,0.35033,1.42903,0.26203,0.34528,1.43713,-0.08644,0.47781,1.16887,0.34542,0.45349,1.18336,-0.00157,0.58771,1.39202,0.24696,0.55401,1.39748
821,0.08818,0.38572,1.50915,-0.02413,0.44503,0.07801,0.26944,0.13389,0.13912,0.00653,0.44427,0.49434,0.27231,0.36895,0.48402,0.03283,0.32935,0.91294,0.20181,0.3144,0.9095,-0.07385,0.35172,1.4289,0.26032,0.34643,1.4375,-0.08827,0.48001,1.16917,0.34428,0.45471,1.18395,-0.0023,0.58946,1.39212,0.24524,0.55598,1.39746
822,0.08671,0.38752,1.50931,-0.02361,0.44538,0.07793,0.27101,0.13571,0.14072,0.00624,0.44444,0.49431,0.27317,0.37209,0.48472,0.03141,0.33012,0.91315,0.2004,0.31526,0.90952,-0.07496,0.35317,1.42906,0.25901,0.34774,1.43797,-0.09009,0.48232,1.16979,0.34322,0.4558,1.18441,-0.00289,0.59121,1.39254,0.24369,0.55767,1.39739
823,0.08535,0.38907,1.5096,-0.02309,0.44583,0.0778,0.27259,0.1375,0.14211,0.00603,0.44449,0.49424,0.27424,0.37506,0.48531,0.03001,0.33056,0.91325,0.199,0.3158,0.90935,-0.07609,0.35451,1.42941,0.25794,0.34947,1.43845,-0.09166,0.48471,1.17069,0.34188,0.45726,1.18469,-0.00381,0.59269,1.39363,0.2424,0.55899,1.39777
824,0.0838,0.39043,1.50991,-0.02265,0.4462,0.0776,0.27406,0.13926,0.14333,0.00586,0.44441,0.49408,0.27543,0.37787,0.48579,0.02871,0.3308,0.91324,0.19771,0.31629,0.90905,-0.07748,0.35558,1.42965,0.25673,0.35161,1.43896,-0.09293,0.48708,1.17159,0.34011,0.45927,1.18497,-0.0053,0.59408,1.39508,0.24124,0.55994,1.39883
825,0.08184,0.39178,1.51013,-0.0224,0.44639,0.07741,0.27526,0.14095,0.14444,0.0057,0.44418,0.49392,0.27657,0.38043,0.4863,0.02753,0.33114,0.91328,0.19657,0.31712,0.90888,-0.07917,0.35648,1.42966,0.25511,0.35387,1.43954,-0.094,0.48913,1.17215,0.33814,0.46153,1.18543,-0.00721,0.59571,1.39617,0.2399,0.56066,1.4003
826,0.07975,0.39325,1.51026,-0.0224,0.44646,0.07733,0.27619,0.14263,0.14556,0.00538,0.44383,0.49385,0.27747,0.38269,0.48701,0.02647,0.33179,0.91353,0.19556,0.31843,0.90908,-0.08086,0.35746,1.42957,0.25316,0.35596,1.44021,-0.09505,0.49071,1.17234,0.3363,0.46343,1.18605,-0.00907,0.5978,1.39643,0.23831,0.56132,1.4016
827,0.078,0.39497,1.51033,-0.02258,0.44649,0.07736,0.27703,0.14434,0.14678,0.00465,0.44332,0.49391,0.27807,0.38474,0.488,0.02544,0.33267,0.91397,0.19459,0.32,0.90969,-0.08218,0.35863,1.4296,0.2511,0.35778,1.4409,-0.09623,0.49204,1.17244,0.33481,0.46452,1.18662,-0.01039,0.60026,1.39604,0.23671,0.56201,1.40231
828,0.07679,0.3969,1.5104,-0.02282,0.44652,0.07745,0.27791,0.14597,0.14818,0.00356,0.4427,0.49406,0.27846,0.38665,0.48919,0.02439,0.33345,0.91448,0.19359,0.32137,0.91052,-0.08307,0.35994,1.42975,0.24916,0.3593,1.4415,-0.09756,0.49347,1.17267,0.33365,0.46497,1.18703,-0.01131,0.60281,1.39556,0.2353,0.56273,1.40247
829,0.07588,0.39878,1.51051,-0.02297,0.44649,0.07757,0.27887,0.14728,0.14973,0.00242,0.44214,0.49423,0.27878,0.38843,0.49042,0.02329,0.3339,0.91491,0.19253,0.32222,0.91132,-0.08377,0.36136,1.42995,0.2475,0.36054,1.44191,-0.09891,0.49498,1.17296,0.33268,0.46543,1.18735,-0.01257,0.60527,1.39536,0.23401,0.56343,1.40254
830,0.07496,0.40029,1.51074,-0.02292,0.44641,0.0777,0.27991,0.14825,0.15128,0.00156,0.4418,0.49441,0.27911,0.39007,0.49149,0.02224,0.33399,0.91522,0.1915,0.32261,0.91191,-0.08448,0.36288,1.43021,0.24608,0.36157,1.44223,-0.10015,0.49625,1.17312,0.33174,0.46642,1.18781,-0.01459,0.60763,1.39527,0.23275,0.56413,1.40299
831,0.07394,0.4013,1.51102,-0.0227,0.4463,0.0778,0.28099,0.14909,0.1527,0.00105,0.44161,0.49455,0.27944,0.39166,0.49236,0.02136,0.33389,0.9154,0.19064,0.32284,0.91232,-0.08531,0.3643,1.43046,0.24473,0.36252,1.44258,-0.10128,0.49722,1.17316,0.33077,0.46804,1.18857,-0.01677,0.61001,1.39499,0.23149,0.56505,1.40393
832,0.07283,0.40205,1.51122,-0.02247,0.44628,0.07782,0.28207,0.14997,0.15404,0.00078,0.4414,0.4946,0.27978,0.39328,0.49317,0.0207,0.33388,0.91551,0.19001,0.32305,0.91268,-0.08637,0.36545,1.43056,0.24327,0.36357,1.443,-0.10234,0.49836,1.17325,0.32971,0.47009,1.18955,-0.01824,0.61254,1.39453,0.23022,0.5665,1.40508
833,0.07168,0.40296,1.5112,-0.02229,0.44649,0.07774,0.28309,0.1509,0.15541,0.00055,0.4411,0.49454,0.28017,0.39493,0.49403,0.02025,0.33416,0.91561,0.18955,0.32323,0.91311,-0.0877,0.36646,1.43047,0.24171,0.36472,1.44344,-0.10332,0.50002,1.17348,0.32855,0.47223,1.19054,-0.01902,0.61521,1.39417,0.22896,0.56849,1.4061
834,0.07051,0.40423,1.51096,-0.02219,0.44691,0.07768,0.28386,0.15174,0.15674,0.00022,0.44093,0.49449,0.28055,0.39645,0.49486,0.01987,0.33464,0.91572,0.18916,0.32336,0.91353,-0.08913,0.36759,1.43033,0.24035,0.36585,1.44392,-0.10423,0.50185,1.17367,0.32726,0.47419,1.19139,-0.01982,0.61777,1.39394,0.22777,0.57068,1.40689
835,0.06939,0.40567,1.51065,-0.02215,0.44731,0.07774,0.28429,0.15236,0.1578,-0.00021,0.44116,0.49457,0.28089,0.3976,0.49553,0.01942,0.33502,0.91585,0.18869,0.32352,0.91386,-0.09045,0.36885,1.43022,0.23959,0.3669,1.4444,-0.10516,0.50315,1.17356,0.32602,0.47584,1.19197,-0.02097,0.62002,1.3934,0.22673,0.57258,1.40744
836,0.06836,0.40689,1.51048,-0.02219,0.44746,0.07794,0.28456,0.15266,0.1585,-0.00059,0.44173,0.4948,0.28119,0.39819,0.49602,0.01883,0.33512,0.91596,0.18812,0.32375,0.91409,-0.09166,0.36999,1.43015,0.23943,0.36788,1.44474,-0.10616,0.50356,1.17309,0.32511,0.47726,1.19225,-0.02219,0.62206,1.39215,0.22586,0.57396,1.40777
837,0.06745,0.40765,1.51056,-0.02242,0.4474,0.07817,0.28499,0.15268,0.15897,-0.00077,0.44231,0.49503,0.28149,0.39828,0.49644,0.0182,0.3351,0.91607,0.1875,0.32399,0.91432,-0.09286,0.37096,1.4301,0.23942,0.36858,1.4449,-0.10722,0.50341,1.17246,0.32457,0.47852,1.19248,-0.02315,0.62403,1.39031,0.22502,0.57495,1.40797
838,0.06673,0.4081,1.51076,-0.02287,0.44733,0.07835,0.28564,0.15248,0.15939,-0.00071,0.44263,0.49519,0.28174,0.39801,0.49691,0.01768,0.33533,0.91623,0.18698,0.3242,0.91471,-0.09409,0.37205,1.43,0.23903,0.36875,1.44506,-0.10825,0.5034,1.17178,0.32411,0.47953,1.19297,-0.02386,0.62596,1.38843,0.22403,0.57589,1.40825
839,0.06624,0.40856,1.51092,-0.02335,0.44738,0.0785,0.28625,0.15215,0.15976,-0.00057,0.44265,0.4953,0.28185,0.39742,0.49746,0.01739,0.33597,0.91652,0.18666,0.32432,0.91528,-0.09522,0.3734,1.42982,0.2382,0.36861,1.44539,-0.10904,0.50391,1.17116,0.32344,0.48026,1.19374,-0.02451,0.62774,1.38703,0.22291,0.57693,1.40867
840,0.06599,0.40918,1.51098,-0.0236,0.44747,0.07865,0.28647,0.15169,0.15986,-0.00056,0.44258,0.49544,0.28175,0.39651,0.49789,0.01734,0.33674,0.91687,0.18655,0.32428,0.91586,-0.09606,0.37472,1.42966,0.23739,0.36869,1.44582,-0.10941,0.50472,1.17073,0.32261,0.48099,1.19445,-0.02513,0.62922,1.3863,0.2219,0.57791,1.40919
841,0.06591,0.40983,1.51097,-0.02353,0.44744,0.07878,0.28621,0.15112,0.15951,-0.00072,0.44264,0.49559,0.28145,0.39529,0.498,0.01737,0.33727,0.91712,0.18655,0.32424,0.91625,-0.09639,0.37557,1.4296,0.23703,0.36919,1.44609,-0.10945,0.50537,1.17055,0.32189,0.482,1.19483,-0.02559,0.63031,1.38604,0.22129,0.57865,1.40974
842,0.06599,0.41026,1.51094,-0.02328,0.44722,0.07887,0.2856,0.15042,0.15872,-0.00083,0.44297,0.4957,0.28099,0.39378,0.4978,0.01739,0.33755,0.91722,0.18655,0.32438,0.91643,-0.09617,0.37596,1.42954,0.23708,0.3699,1.44611,-0.10938,0.50562,1.17042,0.32138,0.48325,1.1949,-0.02589,0.63094,1.38583,0.22108,0.57924,1.41024
843,0.06624,0.41033,1.51094,-0.02298,0.4469,0.07888,0.28491,0.14956,0.15771,-0.00071,0.44347,0.49573,0.28044,0.39198,0.49746,0.01744,0.33791,0.91722,0.18659,0.32462,0.91655,-0.09562,0.37619,1.4294,0.23729,0.37038,1.44603,-0.10938,0.50556,1.17017,0.321,0.48434,1.19491,-0.02626,0.63109,1.38559,0.22103,0.57993,1.41059
844,0.06659,0.41017,1.51108,-0.02278,0.44661,0.07882,0.28431,0.1485,0.15662,-0.00037,0.44388,0.49566,0.27989,0.38988,0.49711,0.01763,0.33854,0.91721,0.18673,0.3247,0.9167,-0.09516,0.37637,1.42919,0.23757,0.37041,1.44608,-0.10949,0.50544,1.16984,0.32074,0.48497,1.19505,-0.02688,0.6308,1.38557,0.22099,0.58072,1.41075
845,0.06683,0.40992,1.51139,-0.02284,0.44644,0.07867,0.28379,0.14725,0.15539,0.00011,0.44385,0.49548,0.27925,0.38747,0.4967,0.01787,0.33926,0.91723,0.1869,0.32448,0.91681,-0.09505,0.37632,1.42901,0.23793,0.37014,1.4463,-0.10962,0.50552,1.16974,0.32066,0.48514,1.19532,-0.02745,0.63036,1.38593,0.22101,0.58137,1.41086
846,0.06678,0.40964,1.51176,-0.02316,0.44632,0.07849,0.28324,0.14589,0.15388,0.00061,0.44334,0.49526,0.27833,0.38473,0.49615,0.01804,0.33982,0.91729,0.18698,0.32411,0.91682,-0.09516,0.37597,1.42893,0.23825,0.36988,1.44663,-0.10951,0.50594,1.17003,0.32072,0.48503,1.19564,-0.0273,0.63005,1.38663,0.22111,0.58165,1.41102
847,0.06659,0.40927,1.51209,-0.02351,0.44614,0.07838,0.28259,0.14446,0.152,0.00097,0.44266,0.4951,0.27702,0.38159,0.49544,0.01817,0.34023,0.9174,0.18706,0.32391,0.91682,-0.09517,0.37547,1.42894,0.23835,0.36973,1.44702,-0.10894,0.50661,1.1706,0.32087,0.48474,1.19597,-0.02647,0.62947,1.38781,0.2212,0.58147,1.41128
848,0.06667,0.40874,1.5124,-0.02365,0.44593,0.07832,0.28187,0.14291,0.14978,0.00108,0.44216,0.49503,0.27549,0.37803,0.49459,0.01849,0.3407,0.91755,0.18734,0.32402,0.91684,-0.09498,0.37502,1.42905,0.23833,0.36957,1.44737,-0.10804,0.50711,1.17115,0.32109,0.48435,1.1963,-0.02606,0.62788,1.38972,0.22135,0.58087,1.41167
849,0.06728,0.40796,1.51275,-0.02352,0.44579,0.07829,0.28104,0.1412,0.14731,0.00097,0.44192,0.49501,0.27409,0.37417,0.49357,0.01901,0.34133,0.91772,0.18783,0.32427,0.91671,-0.09471,0.3747,1.42928,0.23852,0.36924,1.44753,-0.10718,0.5071,1.17152,0.32137,0.48412,1.19654,-0.02668,0.62526,1.39205,0.2217,0.58001,1.41222
850,0.06831,0.40688,1.51318,-0.02325,0.44586,0.07826,0.27996,0.13935,0.14473,0.00078,0.44179,0.49501,0.27304,0.37017,0.49242,0.01956,0.34204,0.91788,0.18831,0.32448,0.91635,-0.09431,0.37456,1.42965,0.23916,0.3686,1.44738,-0.10659,0.50673,1.17176,0.32165,0.48426,1.19663,-0.02706,0.62257,1.39388,0.2223,0.5791,1.41293
851,0.06947,0.4056,1.5136,-0.02304,0.44611,0.07828,0.27848,0.1374,0.14211,0.00066,0.44167,0.49504,0.27223,0.36597,0.49129,0.01993,0.34278,0.9181,0.18862,0.32467,0.91589,-0.09353,0.37454,1.43016,0.24021,0.36758,1.44704,-0.10619,0.50635,1.1721,0.32201,0.48462,1.19669,-0.02558,0.6205,1.3947,0.22313,0.57821,1.41375
852,0.07055,0.40426,1.51393,-0.02308,0.44634,0.07844,0.27658,0.13538,0.13943,0.00072,0.44157,0.49519,0.27131,0.36137,0.49031,0.02016,0.34356,0.91844,0.18879,0.32493,0.91557,-0.0923,0.37449,1.43068,0.24141,0.36633,1.44679,-0.10584,0.50607,1.17255,0.32267,0.48477,1.19694,-0.02265,0.61875,1.39494,0.22412,0.57717,1.41465
853,0.07145,0.40298,1.51412,-0.02341,0.44632,0.07869,0.27439,0.1333,0.13667,0.00093,0.44139,0.49541,0.27009,0.35637,0.48943,0.02042,0.34428,0.91886,0.18898,0.32518,0.91538,-0.09099,0.37418,1.43096,0.24248,0.36504,1.44681,-0.10546,0.50571,1.17285,0.32369,0.48454,1.19744,-0.02018,0.61679,1.39526,0.22511,0.57589,1.41558
854,0.0722,0.40188,1.51414,-0.02394,0.446,0.07887,0.27208,0.1311,0.13394,0.0012,0.44103,0.49554,0.26858,0.35133,0.48848,0.02079,0.3447,0.91916,0.18931,0.32531,0.91512,-0.08999,0.37343,1.43087,0.24341,0.36381,1.44689,-0.105,0.50516,1.17289,0.32481,0.4842,1.19801,-0.01903,0.61479,1.39576,0.22596,0.57447,1.41648
855,0.07298,0.40104,1.51409,-0.02459,0.44551,0.07887,0.2698,0.12866,0.13135,0.0015,0.44065,0.49548,0.26701,0.34645,0.48741,0.02131,0.34471,0.91919,0.18981,0.32527,0.9147,-0.0893,0.37226,1.43061,0.24447,0.36256,1.44682,-0.10444,0.50443,1.17287,0.32582,0.48401,1.19844,-0.0185,0.61342,1.39606,0.22671,0.57298,1.41733
856,0.07399,0.40021,1.51412,-0.02533,0.44509,0.07881,0.2676,0.12596,0.12895,0.00188,0.4406,0.49536,0.2655,0.34156,0.48635,0.02204,0.34449,0.91901,0.19053,0.32507,0.91424,-0.08861,0.37089,1.43049,0.24584,0.36127,1.44667,-0.10379,0.50352,1.17299,0.32685,0.4839,1.19876,-0.01783,0.61279,1.39603,0.22753,0.57134,1.41817
857,0.07526,0.39888,1.51434,-0.02598,0.44488,0.07888,0.26556,0.12318,0.12664,0.00231,0.44112,0.49536,0.26402,0.33644,0.48544,0.02301,0.34441,0.91885,0.19148,0.32478,0.9139,-0.08766,0.3696,1.43062,0.24746,0.36003,1.44664,-0.10308,0.50233,1.17319,0.32819,0.48358,1.1991,-0.01726,0.61218,1.396,0.22861,0.56954,1.41897
858,0.07668,0.39685,1.51462,-0.02632,0.44485,0.07911,0.26377,0.12059,0.12432,0.00273,0.44214,0.49555,0.26245,0.33117,0.4847,0.02421,0.34474,0.91884,0.1926,0.32455,0.91372,-0.08646,0.36843,1.43088,0.2492,0.35876,1.44676,-0.10228,0.50092,1.17335,0.32994,0.48283,1.19947,-0.01728,0.61099,1.39637,0.23013,0.56762,1.41969
859,0.07809,0.39455,1.51472,-0.02634,0.44482,0.07937,0.26219,0.11825,0.12197,0.00316,0.44346,0.49578,0.26081,0.32597,0.48401,0.0255,0.34544,0.91888,0.1938,0.32451,0.91353,-0.08504,0.36726,1.43104,0.25102,0.35723,1.44686,-0.10138,0.49946,1.17339,0.33191,0.48154,1.19975,-0.01773,0.60942,1.39697,0.2321,0.5656,1.42025
860,0.07955,0.39255,1.51459,-0.02626,0.44469,0.07952,0.26058,0.11609,0.11956,0.00378,0.44495,0.4959,0.25929,0.32099,0.4832,0.02673,0.34625,0.91881,0.19492,0.32455,0.91311,-0.08334,0.36603,1.43097,0.25289,0.35526,1.44674,-0.10037,0.49815,1.17332,0.3339,0.4799,1.19984,-0.01796,0.60815,1.39734,0.2343,0.56356,1.42059
861,0.08121,0.39092,1.51434,-0.02636,0.44449,0.07958,0.25865,0.11414,0.117,0.0046,0.44663,0.49588,0.25802,0.31621,0.48222,0.02778,0.34688,0.91854,0.19584,0.32438,0.91239,-0.08131,0.36472,1.4306,0.25473,0.353,1.44637,-0.09927,0.49715,1.17317,0.33579,0.47827,1.19981,-0.01762,0.6075,1.3973,0.23643,0.56177,1.42073
862,0.08304,0.38934,1.51404,-0.02666,0.44428,0.07963,0.25649,0.11249,0.11429,0.00552,0.44849,0.49583,0.25696,0.31142,0.48123,0.02869,0.3472,0.91812,0.19661,0.32377,0.91156,-0.07916,0.3632,1.43002,0.25647,0.35072,1.4459,-0.09813,0.49641,1.17307,0.33762,0.47679,1.19977,-0.017,0.60734,1.39711,0.23842,0.5604,1.42072
863,0.08489,0.38765,1.51366,-0.02698,0.44405,0.07968,0.25453,0.11108,0.11161,0.00648,0.45032,0.49575,0.25594,0.30638,0.48049,0.02974,0.34717,0.91758,0.19752,0.3228,0.91096,-0.07719,0.36142,1.4294,0.25818,0.34857,1.44552,-0.09707,0.4956,1.17302,0.33949,0.47537,1.19981,-0.01684,0.60732,1.39699,0.24035,0.55934,1.42065
864,0.08666,0.38588,1.51322,-0.02715,0.44385,0.07969,0.25307,0.10967,0.10911,0.00756,0.45191,0.49562,0.25479,0.30103,0.48005,0.03114,0.34692,0.91698,0.19882,0.32174,0.91066,-0.07542,0.35962,1.42894,0.26002,0.34655,1.44521,-0.09607,0.49435,1.17291,0.34143,0.47409,1.19992,-0.01743,0.60709,1.39692,0.24231,0.55832,1.42067
865,0.08837,0.38416,1.51285,-0.02715,0.44389,0.0797,0.25195,0.10825,0.10672,0.00879,0.45333,0.4955,0.25347,0.29569,0.47966,0.03279,0.34675,0.91644,0.20036,0.3208,0.91039,-0.07368,0.35812,1.42869,0.26201,0.34465,1.44482,-0.09494,0.49268,1.17263,0.34336,0.47309,1.19999,-0.01809,0.60671,1.39661,0.24439,0.557,1.42092
866,0.09017,0.38243,1.51259,-0.02695,0.44442,0.07982,0.25091,0.10696,0.10428,0.01015,0.45486,0.49549,0.25203,0.2908,0.47901,0.03439,0.34683,0.91605,0.2018,0.31993,0.90984,-0.07188,0.35696,1.42858,0.26404,0.34278,1.44433,-0.0936,0.49088,1.17222,0.34528,0.47205,1.19989,-0.01788,0.60665,1.3957,0.2466,0.5552,1.42125
867,0.09218,0.38051,1.51238,-0.02655,0.44532,0.08005,0.24991,0.10582,0.10176,0.01151,0.45659,0.49561,0.25063,0.28643,0.47806,0.03584,0.34695,0.91574,0.20303,0.31885,0.90895,-0.07002,0.35579,1.42844,0.26594,0.34077,1.44391,-0.09218,0.48901,1.17175,0.34735,0.4703,1.19967,-0.0168,0.60721,1.39407,0.24887,0.55301,1.42128
868,0.09437,0.37818,1.51212,-0.02605,0.4462,0.08028,0.24906,0.10472,0.09936,0.01264,0.45845,0.49576,0.24941,0.28233,0.47708,0.03722,0.34678,0.91534,0.20417,0.31741,0.90802,-0.06812,0.35433,1.42817,0.26769,0.33856,1.44375,-0.0909,0.48687,1.17118,0.34963,0.46764,1.19945,-0.01574,0.60814,1.39192,0.25112,0.55076,1.42089
869,0.09659,0.37543,1.51182,-0.02568,0.44669,0.08044,0.24836,0.10366,0.09726,0.01348,0.46043,0.49583,0.24849,0.27826,0.47639,0.03865,0.34623,0.91469,0.20539,0.3157,0.90734,-0.06606,0.35267,1.4278,0.26952,0.3362,1.44376,-0.08971,0.48436,1.17045,0.35202,0.46451,1.19925,-0.01521,0.60897,1.38954,0.25346,0.5485,1.42033
870,0.09888,0.37247,1.51156,-0.02557,0.44676,0.08056,0.24765,0.10267,0.09549,0.01427,0.46254,0.49582,0.24784,0.27409,0.47606,0.04021,0.3455,0.91385,0.20679,0.31396,0.907,-0.06366,0.35125,1.42739,0.27166,0.33368,1.44381,-0.08834,0.48177,1.16955,0.35441,0.46128,1.199,-0.01472,0.60944,1.38717,0.256,0.54595,1.4199
871,0.10142,0.36951,1.51132,-0.02558,0.44672,0.08075,0.24688,0.10164,0.09394,0.01532,0.46464,0.49581,0.2474,0.26985,0.47594,0.04198,0.34477,0.913,0.20841,0.31229,0.90682,-0.0609,0.35039,1.42695,0.27401,0.33094,1.44375,-0.0866,0.47956,1.16853,0.3569,0.45795,1.19868,-0.01353,0.60969,1.38488,0.25857,0.54283,1.41953
872,0.10424,0.36679,1.511,-0.02543,0.44695,0.08104,0.24623,0.1005,0.09252,0.01671,0.4666,0.4959,0.24718,0.26566,0.47585,0.04396,0.34402,0.91226,0.21024,0.31072,0.90665,-0.05801,0.34984,1.42644,0.27636,0.32802,1.4435,-0.08458,0.47786,1.16753,0.35961,0.45457,1.19832,-0.01167,0.61018,1.38261,0.26094,0.53931,1.41907
873,0.10714,0.36432,1.51051,-0.02499,0.44757,0.08142,0.24597,0.09929,0.09115,0.01835,0.4685,0.49609,0.24737,0.26164,0.47567,0.04602,0.3431,0.91159,0.21219,0.3092,0.90635,-0.05526,0.34898,1.42581,0.2786,0.32502,1.44296,-0.08259,0.4763,1.16664,0.36251,0.45139,1.19792,-0.00991,0.6112,1.38017,0.26321,0.53578,1.41852
874,0.10988,0.36192,1.50997,-0.02437,0.44843,0.08191,0.24612,0.09812,0.08974,0.02011,0.47054,0.4964,0.24802,0.25784,0.47536,0.04798,0.34204,0.91093,0.21406,0.30765,0.90588,-0.05277,0.34744,1.42511,0.28076,0.32196,1.44214,-0.08087,0.47429,1.16579,0.36541,0.44843,1.1974,-0.00875,0.61249,1.3774,0.26574,0.5324,1.418
875,0.11234,0.35935,1.50954,-0.0237,0.44934,0.08254,0.24648,0.09708,0.08835,0.02192,0.47282,0.49684,0.24893,0.25425,0.47502,0.04976,0.34092,0.9103,0.21572,0.30598,0.90537,-0.05048,0.34533,1.42445,0.28294,0.31872,1.44123,-0.07933,0.47165,1.16495,0.36808,0.44532,1.19672,-0.00776,0.61356,1.37428,0.26866,0.52897,1.41755
876,0.11458,0.35658,1.5093,-0.02292,0.4502,0.08331,0.24683,0.09616,0.08714,0.02366,0.47532,0.4974,0.24972,0.25083,0.47481,0.05138,0.33978,0.90969,0.2172,0.30415,0.90502,-0.04834,0.34296,1.42393,0.28524,0.31521,1.44053,-0.07771,0.46874,1.16423,0.37037,0.4417,1.19597,-0.00622,0.61435,1.37103,0.27169,0.52538,1.41712
877,0.11665,0.35373,1.50922,-0.02208,0.45087,0.08421,0.24708,0.09531,0.08618,0.02512,0.47795,0.4981,0.25022,0.24753,0.47482,0.05294,0.3385,0.90908,0.21863,0.30216,0.90494,-0.04621,0.34058,1.42363,0.28769,0.3115,1.44017,-0.07591,0.46598,1.16379,0.37235,0.43756,1.19523,-0.00401,0.61515,1.36788,0.27451,0.52171,1.41658
878,0.11866,0.35089,1.50918,-0.02148,0.45121,0.08526,0.24717,0.09449,0.08539,0.02618,0.48046,0.49895,0.2506,0.24432,0.47495,0.05456,0.337,0.90851,0.22011,0.3,0.90501,-0.04393,0.33834,1.42351,0.29011,0.30779,1.43992,-0.07411,0.46332,1.16352,0.37427,0.43327,1.1945,-0.00174,0.61613,1.36474,0.27714,0.5181,1.4159
879,0.12078,0.34813,1.5091,-0.02126,0.45132,0.08649,0.24722,0.0936,0.08462,0.02695,0.48265,0.49996,0.25114,0.24111,0.47506,0.05633,0.33532,0.90808,0.22173,0.29762,0.90509,-0.04144,0.33638,1.42349,0.29214,0.30424,1.4395,-0.07257,0.46041,1.16316,0.37639,0.42918,1.19384,2e-05,0.61723,1.36119,0.27975,0.51464,1.41521
880,0.12308,0.34554,1.50896,-0.02117,0.45142,0.08793,0.24739,0.09258,0.0838,0.02757,0.48466,0.5012,0.25192,0.23781,0.47508,0.05828,0.33346,0.90779,0.2235,0.29495,0.9051,-0.03887,0.33479,1.42363,0.29361,0.30085,1.43893,-0.07136,0.45717,1.16267,0.3788,0.42534,1.19337,0.00159,0.61851,1.3569,0.28246,0.51141,1.41464
881,0.12562,0.34315,1.50886,-0.02083,0.4517,0.08958,0.2477,0.09141,0.0829,0.02811,0.48684,0.50267,0.25274,0.23438,0.47502,0.06024,0.33134,0.90753,0.22527,0.292,0.90502,-0.03643,0.33343,1.42397,0.29476,0.29752,1.43846,-0.07023,0.45402,1.16235,0.38135,0.42147,1.1931,0.0042,0.62033,1.35177,0.28521,0.50845,1.4141
882,0.12843,0.34089,1.50884,-0.02025,0.45228,0.09142,0.24803,0.09022,0.08195,0.02858,0.48944,0.50435,0.25336,0.23089,0.47489,0.06199,0.32898,0.90716,0.22683,0.28883,0.90492,-0.03425,0.33195,1.42441,0.29594,0.29415,1.43814,-0.06882,0.45154,1.16244,0.3838,0.41738,1.19287,0.00867,0.62288,1.34606,0.28794,0.50567,1.41348
883,0.1313,0.33867,1.50886,-0.01971,0.45336,0.09343,0.2483,0.08914,0.08103,0.02903,0.49247,0.50618,0.25382,0.22747,0.4748,0.06345,0.32656,0.90669,0.22811,0.28565,0.90484,-0.03243,0.33023,1.42471,0.29734,0.2907,1.43782,-0.06697,0.4499,1.16277,0.38605,0.41325,1.19252,0.0142,0.62587,1.34032,0.29064,0.50277,1.41282
884,0.13397,0.33638,1.50885,-0.01938,0.45503,0.09568,0.2485,0.08816,0.08023,0.02968,0.496,0.50822,0.25429,0.22421,0.47479,0.0648,0.32437,0.90625,0.22931,0.28281,0.90482,-0.03094,0.32853,1.42476,0.29898,0.2873,1.43737,-0.06473,0.44884,1.16301,0.38822,0.40934,1.19202,0.0191,0.62888,1.33515,0.29336,0.49953,1.41227
885,0.13651,0.3339,1.50877,-0.01909,0.45721,0.09833,0.24865,0.08727,0.0796,0.03069,0.50031,0.51056,0.2549,0.22111,0.47491,0.06627,0.32257,0.90586,0.23064,0.2805,0.90487,-0.02958,0.32704,1.42469,0.30095,0.28411,1.43685,-0.06222,0.44791,1.16306,0.39039,0.4058,1.19139,0.02223,0.63186,1.33071,0.29609,0.49612,1.41185
886,0.13918,0.33118,1.50867,-0.01847,0.45963,0.10143,0.24879,0.08657,0.07907,0.03192,0.50552,0.51329,0.25577,0.2182,0.4751,0.06793,0.32103,0.90545,0.23217,0.27843,0.90498,-0.02797,0.32568,1.4247,0.30328,0.28118,1.43638,-0.05956,0.44686,1.16308,0.39233,0.40271,1.1907,0.02359,0.63489,1.32682,0.29868,0.49299,1.41144
887,0.14206,0.32839,1.50858,-0.01733,0.46205,0.10494,0.24899,0.08612,0.07857,0.03308,0.51123,0.51642,0.25694,0.21559,0.47529,0.06969,0.3195,0.90504,0.23374,0.27617,0.90514,-0.02588,0.32428,1.42489,0.30583,0.27839,1.43603,-0.05703,0.44561,1.16329,0.39384,0.39986,1.18994,0.02386,0.63777,1.32332,0.30102,0.49036,1.41095
888,0.14499,0.32583,1.50848,-0.01595,0.46449,0.10871,0.24928,0.08571,0.07818,0.03401,0.51677,0.51985,0.25829,0.21342,0.47546,0.0713,0.3178,0.90475,0.23512,0.2736,0.90537,-0.02347,0.32288,1.42534,0.30827,0.27559,1.43578,-0.0549,0.44402,1.16368,0.39503,0.39676,1.1891,0.02368,0.6401,1.32007,0.30329,0.48795,1.41027
889,0.1479,0.32368,1.50836,-0.01496,0.46717,0.1126,0.24966,0.08513,0.07804,0.03487,0.52179,0.52346,0.25947,0.21172,0.47566,0.07265,0.31588,0.90464,0.23624,0.27088,0.90571,-0.02109,0.3217,1.42598,0.31042,0.27268,1.43553,-0.05308,0.44198,1.164,0.39631,0.39307,1.18816,0.02338,0.64156,1.31696,0.30571,0.48545,1.40931
890,0.15079,0.32186,1.50829,-0.01461,0.47034,0.11663,0.25008,0.0845,0.07812,0.03582,0.52648,0.52721,0.26024,0.21045,0.47593,0.07375,0.31376,0.90461,0.23718,0.26818,0.90618,-0.01888,0.32097,1.42663,0.31239,0.26965,1.43512,-0.05114,0.43963,1.16393,0.39786,0.38915,1.18718,0.02338,0.64203,1.31412,0.30821,0.4829,1.40814
891,0.15354,0.32018,1.50836,-0.01461,0.47419,0.12098,0.25043,0.08413,0.07826,0.03686,0.53138,0.53128,0.26074,0.20958,0.47622,0.0747,0.31147,0.90455,0.23802,0.26551,0.90673,-0.01678,0.32074,1.42705,0.31445,0.2666,1.43452,-0.04878,0.43739,1.16343,0.39957,0.38562,1.18623,0.02416,0.64153,1.31204,0.31058,0.4805,1.40697
892,0.15601,0.31851,1.50858,-0.01461,0.47868,0.12573,0.25062,0.0842,0.07835,0.03791,0.53673,0.53579,0.26128,0.20914,0.47646,0.07557,0.3092,0.90448,0.23876,0.26283,0.90726,-0.01467,0.32087,1.42717,0.31653,0.26372,1.43393,-0.04607,0.43569,1.16267,0.40133,0.38248,1.1854,0.02601,0.64004,1.31141,0.31274,0.47829,1.4059
893,0.15831,0.31693,1.50884,-0.01456,0.48353,0.13074,0.25063,0.08457,0.07837,0.03882,0.54227,0.54058,0.26195,0.2091,0.4766,0.0764,0.30717,0.9045,0.23939,0.26013,0.90772,-0.01265,0.32122,1.42701,0.31827,0.2611,1.43359,-0.04336,0.43464,1.16184,0.40315,0.3792,1.18478,0.02889,0.63741,1.31265,0.31473,0.4761,1.40487
894,0.16066,0.31558,1.509,-0.01463,0.48845,0.1357,0.25051,0.08498,0.07838,0.03956,0.54764,0.54537,0.26252,0.20936,0.47663,0.07719,0.30552,0.90466,0.23988,0.25744,0.90809,-0.0109,0.32181,1.42682,0.31945,0.25865,1.43354,-0.04095,0.4339,1.16099,0.40501,0.37551,1.18438,0.03225,0.63358,1.31542,0.31668,0.47374,1.40391
895,0.16302,0.31457,1.50897,-0.01503,0.49331,0.14045,0.25031,0.08523,0.07842,0.04027,0.55259,0.54996,0.2628,0.20982,0.47659,0.07785,0.30422,0.90496,0.24016,0.25488,0.90838,-0.00955,0.32268,1.42688,0.32028,0.25619,1.43359,-0.03887,0.43292,1.1602,0.40669,0.37165,1.18407,0.03521,0.62879,1.31903,0.31866,0.4712,1.40314
896,0.16522,0.31381,1.50878,-0.01581,0.49795,0.14495,0.25008,0.08528,0.07854,0.04109,0.55697,0.55428,0.26284,0.21034,0.47656,0.07829,0.30316,0.90545,0.24022,0.25258,0.90863,-0.00859,0.32361,1.42731,0.32105,0.25372,1.43365,-0.03688,0.43158,1.1596,0.40799,0.36782,1.18369,0.03727,0.62337,1.32329,0.32069,0.46877,1.4024
897,0.16714,0.31314,1.50855,-0.01681,0.50217,0.1492,0.24987,0.08525,0.07878,0.04194,0.56076,0.55833,0.26283,0.21081,0.47663,0.07854,0.30224,0.90611,0.24015,0.25064,0.90893,-0.00787,0.32414,1.42785,0.32172,0.25154,1.43375,-0.03455,0.43041,1.15929,0.40906,0.36387,1.18312,0.03876,0.61747,1.32873,0.32268,0.46674,1.4013
898,0.16889,0.31249,1.50833,-0.0177,0.50605,0.15323,0.24975,0.08536,0.07905,0.0427,0.5641,0.56219,0.2628,0.21122,0.47681,0.07871,0.30139,0.90688,0.24009,0.24903,0.90928,-0.00713,0.32394,1.42803,0.32212,0.24983,1.43378,-0.03157,0.43006,1.1592,0.41022,0.35985,1.1824,0.0403,0.6111,1.33565,0.32452,0.46494,1.39979
899,0.1706,0.31197,1.50809,-0.01822,0.50993,0.15699,0.24977,0.08561,0.07922,0.04339,0.56722,0.56588,0.26263,0.21155,0.47696,0.07891,0.30066,0.90765,0.2401,0.24772,0.90958,-0.00623,0.32339,1.42768,0.32238,0.24842,1.43343,-0.02805,0.43081,1.15915,0.41155,0.35663,1.18164,0.04217,0.60431,1.34366,0.3261,0.46301,1.3985
900,0.17225,0.31169,1.50783,-0.01855,0.51403,0.16039,0.24992,0.08574,0.07919,0.04409,0.57013,0.56929,0.26223,0.21173,0.47693,0.07908,0.30004,0.90833,0.24013,0.24665,0.90968,-0.00521,0.32327,1.42708,0.32299,0.24698,1.43256,-0.02447,0.43263,1.15913,0.41274,0.35499,1.18089,0.04439,0.59733,1.35203,0.32753,0.46093,1.39806
901,0.17368,0.31155,1.5077,-0.01907,0.51815,0.16341,0.25017,0.08552,0.07904,0.04481,0.5727,0.57233,0.26177,0.21176,0.47672,0.07909,0.29949,0.90894,0.24002,0.24572,0.90957,-0.00426,0.32408,1.42665,0.32413,0.24529,1.43156,-0.02126,0.43535,1.15934,0.41349,0.3544,1.18022,0.04691,0.59042,1.36029,0.32915,0.45898,1.39838
902,0.17475,0.31135,1.50777,-0.01989,0.52203,0.1661,0.25047,0.08517,0.07889,0.04552,0.57488,0.575,0.26161,0.21175,0.47647,0.07893,0.29902,0.90953,0.23972,0.24483,0.90938,-0.00332,0.32556,1.42669,0.32546,0.24341,1.43104,-0.0185,0.4386,1.16001,0.41377,0.35351,1.17977,0.04976,0.58358,1.36834,0.33122,0.45738,1.39896
903,0.17548,0.31113,1.50793,-0.02079,0.52549,0.16848,0.25062,0.0851,0.07874,0.04629,0.5768,0.5773,0.26191,0.21162,0.47633,0.07875,0.29873,0.91009,0.23933,0.24393,0.90926,-0.0022,0.32701,1.42719,0.32653,0.24144,1.43123,-0.01603,0.44195,1.16125,0.41373,0.35179,1.17968,0.05305,0.5765,1.3762,0.33364,0.45604,1.39961
904,0.17605,0.31115,1.50809,-0.02154,0.52839,0.17043,0.25047,0.0854,0.07853,0.04716,0.57849,0.57914,0.2625,0.21122,0.47633,0.07873,0.29861,0.91049,0.23902,0.243,0.90925,-0.0009,0.32802,1.428,0.32717,0.23952,1.43183,-0.01358,0.44523,1.16299,0.41359,0.34964,1.17991,0.05679,0.56907,1.38388,0.3362,0.45473,1.40039
905,0.17668,0.31151,1.50824,-0.0221,0.53083,0.17184,0.24997,0.08587,0.07832,0.04801,0.57987,0.58043,0.26305,0.21065,0.47642,0.07887,0.29867,0.91073,0.23883,0.24211,0.90932,0.0004,0.3286,1.42887,0.3274,0.23788,1.4324,-0.01102,0.44852,1.16502,0.41354,0.34741,1.18012,0.06069,0.56162,1.39117,0.33865,0.45337,1.40106
906,0.17746,0.3118,1.50844,-0.02258,0.53314,0.17271,0.24926,0.08627,0.07824,0.04864,0.58088,0.58127,0.26331,0.21025,0.47654,0.07901,0.29895,0.911,0.23865,0.24148,0.90944,0.00162,0.32888,1.42963,0.32738,0.23672,1.43268,-0.00852,0.45192,1.16717,0.41359,0.34532,1.18003,0.06437,0.55485,1.39776,0.34067,0.45215,1.4012
907,0.17836,0.31152,1.50864,-0.02303,0.53569,0.17309,0.24862,0.08641,0.0783,0.04893,0.58154,0.58174,0.26327,0.21016,0.47666,0.07903,0.29945,0.91135,0.23841,0.24127,0.90955,0.00284,0.32896,1.43023,0.32744,0.23611,1.43264,-0.00628,0.45553,1.16942,0.41354,0.34391,1.17961,0.0681,0.54928,1.40342,0.34184,0.45138,1.40087
908,0.17924,0.31062,1.50877,-0.02351,0.53859,0.17289,0.24834,0.08617,0.07842,0.04896,0.58192,0.58173,0.26299,0.2102,0.47669,0.07901,0.30006,0.91154,0.23821,0.24138,0.90958,0.00399,0.32912,1.43083,0.32785,0.23599,1.43239,-0.00425,0.45946,1.17185,0.41321,0.34366,1.17905,0.07275,0.54517,1.40807,0.34208,0.45105,1.40054
909,0.18001,0.30957,1.50883,-0.02408,0.54171,0.17205,0.24854,0.08566,0.07851,0.04892,0.58205,0.58109,0.26253,0.21023,0.47663,0.07903,0.30074,0.91137,0.23807,0.24164,0.90953,0.00488,0.32982,1.43166,0.32853,0.23614,1.43211,-0.00217,0.46365,1.17442,0.41265,0.3441,1.17848,0.0788,0.54276,1.41162,0.34192,0.45079,1.40044
910,0.1807,0.30869,1.50884,-0.02474,0.54491,0.17061,0.24899,0.08513,0.07855,0.04899,0.58193,0.57984,0.26196,0.21032,0.47652,0.079,0.30158,0.91093,0.23785,0.24195,0.90941,0.00544,0.33119,1.43277,0.32906,0.23619,1.43203,4e-05,0.46779,1.17696,0.41215,0.34403,1.17801,0.08551,0.54221,1.41409,0.34206,0.4502,1.40041
911,0.18135,0.30788,1.50884,-0.02547,0.54804,0.16878,0.2492,0.08477,0.07862,0.04919,0.58153,0.57814,0.26149,0.21062,0.4764,0.07882,0.30262,0.91048,0.23743,0.24234,0.90929,0.00571,0.33267,1.434,0.32917,0.23575,1.43223,0.00217,0.47155,1.17938,0.41192,0.34273,1.17773,0.09171,0.54347,1.41579,0.34286,0.44927,1.40028
912,0.18191,0.30696,1.50882,-0.02626,0.55105,0.16663,0.2489,0.08462,0.07874,0.04943,0.58071,0.5761,0.26143,0.21097,0.47636,0.07858,0.30375,0.91011,0.23692,0.24279,0.90922,0.00588,0.33351,1.43511,0.32902,0.23471,1.43252,0.00411,0.47494,1.18188,0.41203,0.34061,1.17766,0.09715,0.54659,1.41701,0.34407,0.44829,1.4
913,0.18245,0.3061,1.50871,-0.02711,0.55404,0.16404,0.24831,0.0846,0.07886,0.04959,0.57926,0.57361,0.26184,0.21116,0.47637,0.07844,0.30487,0.90977,0.23656,0.24332,0.90917,0.00614,0.3335,1.43595,0.32898,0.23327,1.4326,0.00599,0.47827,1.18462,0.4125,0.3385,1.17763,0.10224,0.55189,1.41784,0.34526,0.44756,1.39952
914,0.18327,0.30559,1.50839,-0.028,0.55721,0.16084,0.248,0.08455,0.07888,0.04959,0.57707,0.57054,0.26242,0.21131,0.4763,0.0785,0.30601,0.90938,0.23642,0.24395,0.90901,0.00661,0.33317,1.43655,0.3292,0.2317,1.43237,0.00795,0.48175,1.18746,0.41321,0.33684,1.17753,0.10665,0.55942,1.41834,0.34614,0.44727,1.39879
915,0.18445,0.30557,1.50788,-0.02886,0.56067,0.15712,0.24826,0.08441,0.07881,0.0494,0.57432,0.56695,0.26277,0.21178,0.47603,0.07869,0.30719,0.90887,0.23642,0.24467,0.9087,0.00721,0.33319,1.43698,0.32956,0.2301,1.43192,0.00991,0.48534,1.19006,0.41379,0.33569,1.17733,0.10986,0.56855,1.41845,0.34675,0.4475,1.3979
916,0.18559,0.30594,1.50732,-0.02961,0.56434,0.15316,0.24891,0.08426,0.0788,0.04904,0.57139,0.56308,0.26281,0.21269,0.4757,0.07889,0.30845,0.90818,0.23646,0.24553,0.90838,0.0078,0.33401,1.43716,0.32975,0.22833,1.43124,0.01178,0.48901,1.19203,0.41384,0.33492,1.17702,0.11221,0.5784,1.41787,0.34729,0.44808,1.39706
917,0.18612,0.30654,1.5068,-0.03016,0.56807,0.14911,0.24954,0.0843,0.07892,0.04856,0.56855,0.55908,0.2628,0.21382,0.47549,0.07906,0.30995,0.90739,0.23647,0.24662,0.90817,0.00837,0.33566,1.43701,0.3295,0.22647,1.43027,0.01355,0.49274,1.19323,0.41326,0.3343,1.17647,0.1146,0.5882,1.41629,0.34784,0.44853,1.39629
918,0.18595,0.30724,1.50628,-0.03051,0.57174,0.14503,0.24984,0.08457,0.07913,0.04804,0.56588,0.55499,0.26304,0.21502,0.4754,0.07912,0.31181,0.90656,0.23632,0.24797,0.90804,0.00904,0.3379,1.43668,0.32868,0.22502,1.42908,0.01509,0.49633,1.1938,0.41226,0.33369,1.17557,0.11765,0.5972,1.41376,0.34831,0.44844,1.39555
919,0.18549,0.30803,1.50563,-0.03081,0.57514,0.14092,0.24972,0.08497,0.07929,0.04759,0.56335,0.55078,0.26353,0.21636,0.47522,0.07899,0.31405,0.90573,0.23589,0.24949,0.90779,0.00984,0.34057,1.43633,0.32737,0.22433,1.42785,0.01621,0.49965,1.19388,0.41118,0.33314,1.17448,0.1211,0.60477,1.41074,0.3486,0.44781,1.39489
920,0.1852,0.309,1.50474,-0.03126,0.578,0.13684,0.2493,0.08536,0.07928,0.04729,0.56096,0.54649,0.264,0.21794,0.47479,0.07869,0.31652,0.9048,0.23521,0.25106,0.90729,0.01068,0.34375,1.43594,0.3258,0.22418,1.42669,0.01675,0.50279,1.19346,0.41026,0.33278,1.17345,0.12399,0.61056,1.40785,0.34867,0.44704,1.39436
921,0.18532,0.3101,1.50363,-0.03191,0.58022,0.13283,0.24876,0.08568,0.07912,0.04697,0.55874,0.54221,0.2642,0.21967,0.47412,0.07841,0.31904,0.9037,0.23452,0.25263,0.90658,0.01134,0.34729,1.43536,0.32425,0.22423,1.4256,0.0166,0.50582,1.19252,0.40944,0.33245,1.17244,0.1255,0.61446,1.40563,0.34861,0.44645,1.39369
922,0.18568,0.31101,1.50246,-0.03266,0.58198,0.12894,0.24822,0.08594,0.07889,0.0463,0.55673,0.53808,0.26421,0.22143,0.47336,0.07827,0.32144,0.90242,0.23401,0.25418,0.9058,0.01154,0.35064,1.43448,0.32291,0.2244,1.42455,0.01596,0.50863,1.19127,0.40843,0.33174,1.17113,0.12565,0.61656,1.40434,0.34856,0.44605,1.39249
923,0.18594,0.31154,1.5014,-0.03328,0.58334,0.1252,0.24778,0.08617,0.0787,0.0452,0.55498,0.53424,0.26422,0.2231,0.47265,0.07823,0.32374,0.90106,0.23365,0.25577,0.90506,0.01117,0.35336,1.43329,0.32176,0.22473,1.42364,0.01523,0.51105,1.18989,0.40709,0.33056,1.16952,0.12509,0.61706,1.40383,0.34853,0.44583,1.39073
924,0.18588,0.31211,1.50039,-0.03351,0.58397,0.1216,0.24746,0.08637,0.07857,0.04389,0.55355,0.53069,0.2643,0.22475,0.472,0.07809,0.32603,0.89973,0.23321,0.25742,0.90438,0.01038,0.3556,1.43209,0.32057,0.22512,1.42287,0.0145,0.51293,1.18846,0.40554,0.32933,1.16795,0.12445,0.61616,1.40371,0.34841,0.44606,1.38876
925,0.18555,0.31341,1.49923,-0.03334,0.58351,0.11808,0.24723,0.08655,0.07852,0.04271,0.55245,0.52738,0.26435,0.22672,0.47131,0.07776,0.32842,0.89846,0.23256,0.25914,0.90365,0.00949,0.3579,1.43131,0.31917,0.22557,1.42198,0.01341,0.51421,1.18702,0.40384,0.3286,1.16649,0.12382,0.61402,1.40364,0.34824,0.4472,1.3867
926,0.18507,0.31566,1.49781,-0.03311,0.58201,0.11466,0.24699,0.08669,0.07857,0.04179,0.55166,0.52422,0.26429,0.22931,0.47046,0.07738,0.33094,0.89724,0.23183,0.26092,0.90281,0.00868,0.36058,1.43113,0.31766,0.2263,1.42059,0.01177,0.51497,1.18561,0.40201,0.32865,1.16472,0.12296,0.61096,1.40355,0.34815,0.4494,1.38419
927,0.18449,0.31847,1.49628,-0.03324,0.57979,0.11143,0.24667,0.08684,0.07871,0.04117,0.55126,0.52121,0.26415,0.23247,0.46948,0.07709,0.33356,0.89596,0.2312,0.26281,0.90189,0.00795,0.36358,1.43105,0.31618,0.22756,1.41856,0.01004,0.51557,1.18403,0.40021,0.32921,1.16231,0.12174,0.60741,1.4035,0.34804,0.4521,1.381
928,0.18372,0.32138,1.49487,-0.03385,0.57706,0.10845,0.24625,0.08704,0.07892,0.04086,0.5513,0.51836,0.26406,0.2359,0.46846,0.07683,0.33617,0.89459,0.23068,0.26491,0.90093,0.00709,0.36679,1.43043,0.31462,0.22934,1.41616,0.00894,0.51626,1.18187,0.39869,0.32976,1.15943,0.12021,0.60374,1.40333,0.34763,0.45453,1.37732
929,0.18262,0.32415,1.49365,-0.03481,0.57395,0.10573,0.24573,0.08738,0.07915,0.04085,0.55169,0.51567,0.26409,0.23948,0.46741,0.07644,0.33875,0.89317,0.23018,0.26728,0.89991,0.00596,0.37011,1.42929,0.31281,0.23146,1.41372,0.0085,0.51679,1.17908,0.3974,0.32998,1.15643,0.11843,0.60019,1.40278,0.3468,0.45645,1.37343
930,0.18111,0.32681,1.49251,-0.03586,0.57092,0.1032,0.24519,0.08788,0.07932,0.04098,0.55231,0.5131,0.26422,0.24325,0.46625,0.07593,0.34131,0.89176,0.22967,0.26988,0.89877,0.0045,0.37325,1.42827,0.31081,0.23379,1.41145,0.00807,0.51672,1.17622,0.39592,0.32985,1.1534,0.11636,0.59696,1.40186,0.34586,0.4582,1.36943
931,0.17925,0.32942,1.49138,-0.03672,0.56854,0.10083,0.24472,0.08861,0.07934,0.04106,0.55314,0.51069,0.26437,0.24727,0.4649,0.07535,0.34387,0.89036,0.22916,0.27259,0.89746,0.0027,0.37586,1.4277,0.30878,0.23646,1.40948,0.00706,0.5161,1.17385,0.39383,0.32945,1.15029,0.11395,0.59415,1.40091,0.34532,0.46015,1.36526
932,0.17714,0.33184,1.49035,-0.03696,0.56706,0.0986,0.2443,0.08947,0.07925,0.04103,0.55423,0.5085,0.26449,0.25136,0.46344,0.07463,0.34643,0.88905,0.22856,0.2754,0.89601,0.00052,0.37797,1.42714,0.30678,0.23979,1.40786,0.00557,0.51574,1.17195,0.39118,0.32878,1.14706,0.11115,0.59164,1.40035,0.34542,0.4623,1.3609
933,0.17485,0.33398,1.48952,-0.03629,0.56624,0.09646,0.24389,0.09027,0.07921,0.04093,0.55548,0.50657,0.26467,0.25525,0.46205,0.07371,0.34898,0.88789,0.22787,0.27841,0.89459,-0.00208,0.37991,1.42603,0.30484,0.24397,1.4064,0.00401,0.51649,1.17022,0.38849,0.32809,1.14374,0.10788,0.5894,1.40038,0.34601,0.46457,1.35639
934,0.17233,0.33604,1.48878,-0.03467,0.56588,0.09426,0.24351,0.09087,0.07934,0.04069,0.55667,0.50476,0.26499,0.25883,0.46085,0.07271,0.35154,0.88689,0.22721,0.28168,0.89332,-0.005,0.38187,1.42443,0.30308,0.24879,1.40472,0.00245,0.51824,1.16855,0.3861,0.32776,1.14028,0.10418,0.58758,1.40076,0.34656,0.46707,1.35165
935,0.16959,0.33848,1.48793,-0.03227,0.56611,0.09183,0.2432,0.09133,0.07967,0.04019,0.55763,0.50286,0.26536,0.26215,0.45987,0.07177,0.35415,0.88591,0.22668,0.28522,0.89225,-0.00805,0.38375,1.42285,0.30163,0.25377,1.40272,0.00046,0.51985,1.16686,0.38374,0.32773,1.13655,0.10011,0.58623,1.40083,0.34659,0.47005,1.34634
936,0.16665,0.34156,1.48687,-0.02946,0.5671,0.0892,0.24296,0.09184,0.08004,0.03945,0.5584,0.50084,0.26555,0.26521,0.45906,0.07091,0.3568,0.88488,0.22631,0.289,0.89135,-0.01116,0.38543,1.4216,0.30046,0.25864,1.40064,-0.0024,0.52008,1.16486,0.38092,0.32744,1.13259,0.09563,0.58503,1.39991,0.34599,0.47362,1.3401
937,0.16356,0.34509,1.48571,-0.0266,0.56868,0.08664,0.24289,0.09247,0.08031,0.03866,0.55911,0.49886,0.2654,0.26789,0.45838,0.07008,0.3594,0.88389,0.22608,0.29299,0.89059,-0.01441,0.38685,1.42063,0.29936,0.26346,1.39864,-0.00633,0.51868,1.1624,0.37768,0.32668,1.12859,0.09071,0.58353,1.3979,0.34487,0.47776,1.33291
938,0.16025,0.3486,1.48468,-0.02396,0.57022,0.08443,0.24311,0.09308,0.08045,0.03799,0.55976,0.49713,0.26496,0.27025,0.45775,0.06916,0.36192,0.88315,0.22588,0.29722,0.88987,-0.01776,0.38793,1.41971,0.29814,0.26849,1.39663,-0.0111,0.51655,1.15982,0.37454,0.32568,1.12469,0.0854,0.58169,1.39545,0.3433,0.48245,1.32493
939,0.15661,0.35178,1.48395,-0.02173,0.57114,0.08257,0.24354,0.09352,0.08063,0.03737,0.56036,0.49569,0.26446,0.27259,0.45708,0.06802,0.36447,0.88274,0.22558,0.30182,0.88907,-0.0211,0.38854,1.41871,0.29676,0.274,1.39454,-0.01624,0.51481,1.15764,0.37172,0.32453,1.12089,0.07978,0.58003,1.39345,0.34112,0.48759,1.31614
940,0.15267,0.35477,1.48347,-0.02013,0.57127,0.08096,0.24388,0.09384,0.08106,0.03664,0.56086,0.4944,0.26403,0.27526,0.45643,0.0666,0.36708,0.88257,0.22512,0.30684,0.88825,-0.02431,0.38873,1.41786,0.29541,0.28018,1.3925,-0.02148,0.51387,1.15621,0.36899,0.32323,1.1172,0.07383,0.57915,1.39229,0.33827,0.49291,1.30671
941,0.14864,0.35813,1.48309,-0.01946,0.57092,0.07958,0.24399,0.0942,0.08185,0.03569,0.5612,0.49326,0.26367,0.27831,0.45593,0.065,0.36963,0.88258,0.22453,0.31204,0.88757,-0.02752,0.38894,1.41752,0.29409,0.28712,1.39066,-0.02703,0.51325,1.15546,0.36611,0.32201,1.11379,0.0676,0.57903,1.39167,0.33515,0.49827,1.29715
942,0.14477,0.36238,1.48271,-0.01975,0.57058,0.07859,0.24409,0.09465,0.08305,0.03446,0.56127,0.49241,0.26316,0.28168,0.45571,0.06332,0.37187,0.88282,0.22384,0.31704,0.8872,-0.03094,0.38951,1.41786,0.29252,0.29474,1.38905,-0.03319,0.51223,1.15507,0.36323,0.32114,1.11091,0.06146,0.57901,1.39099,0.33249,0.50389,1.28784
943,0.14108,0.36759,1.48238,-0.02065,0.5706,0.07808,0.24451,0.09524,0.08453,0.03285,0.56117,0.49198,0.2623,0.28537,0.45568,0.06164,0.37363,0.8833,0.22311,0.32163,0.88711,-0.03471,0.38997,1.41866,0.29057,0.30298,1.38775,-0.04006,0.51039,1.15484,0.36063,0.32049,1.10874,0.05595,0.57845,1.38985,0.33068,0.50996,1.2786
944,0.1374,0.3733,1.48224,-0.02175,0.57098,0.07789,0.24542,0.09605,0.0861,0.03075,0.56112,0.49191,0.26106,0.28936,0.4557,0.06005,0.3748,0.88377,0.22248,0.32588,0.88717,-0.03867,0.38946,1.41957,0.28851,0.31199,1.38687,-0.04754,0.50773,1.15488,0.35828,0.31967,1.10735,0.05127,0.57735,1.38827,0.32949,0.51632,1.26905
945,0.13359,0.37893,1.48242,-0.02281,0.57147,0.07789,0.2467,0.09707,0.08767,0.02823,0.56125,0.49209,0.25968,0.29348,0.45574,0.05862,0.37542,0.88409,0.22207,0.32998,0.88729,-0.04257,0.38773,1.42043,0.28657,0.32193,1.3865,-0.05549,0.50462,1.1553,0.35592,0.31861,1.10679,0.04685,0.57613,1.38658,0.32831,0.52279,1.25909
946,0.12973,0.38407,1.48291,-0.02375,0.57183,0.07803,0.24802,0.09825,0.0894,0.02549,0.56147,0.49244,0.2585,0.2976,0.45597,0.0574,0.37571,0.88436,0.22187,0.33414,0.8876,-0.04623,0.38514,1.42117,0.28472,0.33271,1.38666,-0.06376,0.50145,1.15604,0.35336,0.31779,1.10715,0.04174,0.57501,1.38525,0.32673,0.52941,1.24912
947,0.12589,0.38865,1.4836,-0.02457,0.57199,0.0783,0.24922,0.09946,0.09158,0.02281,0.56172,0.49293,0.25767,0.30187,0.45652,0.05631,0.37601,0.88474,0.22178,0.33864,0.88819,-0.04965,0.3819,1.42171,0.28293,0.34408,1.38735,-0.07213,0.49832,1.157,0.35059,0.31772,1.10845,0.03576,0.57403,1.38439,0.3248,0.53627,1.23967
948,0.12205,0.39287,1.4843,-0.02537,0.57205,0.07866,0.25038,0.10064,0.0943,0.0204,0.56202,0.49348,0.25713,0.30659,0.45729,0.05518,0.37657,0.8853,0.22162,0.3438,0.88895,-0.05293,0.37794,1.4221,0.28129,0.35602,1.38861,-0.08035,0.49507,1.15818,0.34769,0.31866,1.11066,0.02983,0.57333,1.3836,0.32276,0.54346,1.23104
949,0.11818,0.3971,1.4849,-0.02626,0.57218,0.07907,0.25159,0.10187,0.09733,0.01828,0.56221,0.49402,0.25681,0.31184,0.45803,0.05383,0.37729,0.88602,0.22119,0.34958,0.88964,-0.05598,0.37346,1.42254,0.27983,0.36864,1.39038,-0.08838,0.4915,1.15958,0.34489,0.32089,1.1137,0.02455,0.57269,1.38259,0.32048,0.5513,1.22309
950,0.11424,0.40157,1.48547,-0.02725,0.57243,0.07945,0.25284,0.10334,0.10037,0.01631,0.56193,0.49449,0.2566,0.31755,0.45859,0.05221,0.3779,0.88688,0.22037,0.35552,0.89013,-0.05848,0.36894,1.42313,0.2783,0.38186,1.3925,-0.09642,0.48764,1.16122,0.34275,0.32511,1.11739,0.01934,0.57137,1.38182,0.31752,0.5604,1.21562
951,0.11011,0.40624,1.48615,-0.02819,0.57269,0.07974,0.25403,0.10518,0.10336,0.01438,0.56097,0.49485,0.25637,0.3238,0.45891,0.05036,0.37819,0.88782,0.21915,0.36104,0.89043,-0.06011,0.36453,1.42383,0.2762,0.3953,1.3948,-0.10455,0.48377,1.16319,0.34198,0.33208,1.12142,0.01318,0.56881,1.38224,0.31365,0.5713,1.20871
952,0.10569,0.41093,1.48697,-0.02892,0.57281,0.07993,0.25517,0.10746,0.10635,0.01247,0.5596,0.49512,0.25601,0.33075,0.459,0.04834,0.37813,0.88871,0.21756,0.36586,0.89059,-0.06091,0.36005,1.42458,0.27323,0.40845,1.39718,-0.11249,0.48015,1.16565,0.34286,0.34223,1.12547,0.00599,0.56531,1.38426,0.30911,0.58414,1.20285
953,0.10101,0.4155,1.4878,-0.02937,0.57269,0.0801,0.25654,0.11014,0.10946,0.01076,0.55828,0.49538,0.2555,0.3383,0.45898,0.04622,0.37769,0.8894,0.21571,0.37005,0.89071,-0.06124,0.35553,1.42542,0.26954,0.42112,1.39955,-0.11988,0.47678,1.16854,0.34496,0.35581,1.12917,-0.00123,0.56176,1.38712,0.30419,0.59901,1.19875
954,0.09622,0.41985,1.48853,-0.02965,0.57231,0.08032,0.25834,0.11315,0.11274,0.00947,0.55724,0.49566,0.25498,0.34613,0.45905,0.04415,0.37682,0.88983,0.21379,0.37392,0.89092,-0.06146,0.3514,1.42666,0.26552,0.43351,1.40173,-0.12646,0.47326,1.17161,0.34748,0.37328,1.13208,-0.00727,0.55895,1.38962,0.29874,0.61629,1.19703
955,0.09138,0.42394,1.4892,-0.02972,0.57188,0.08054,0.26029,0.11641,0.1161,0.00866,0.5564,0.49594,0.25469,0.35403,0.45921,0.04223,0.37561,0.89004,0.21189,0.37776,0.89116,-0.06161,0.34796,1.42879,0.26128,0.44614,1.40349,-0.1322,0.46892,1.17479,0.34951,0.39504,1.13393,-0.01154,0.55693,1.39106,0.29241,0.63641,1.19817
956,0.08633,0.42777,1.48985,-0.02936,0.57157,0.08062,0.26182,0.11991,0.11935,0.00815,0.55558,0.49608,0.25487,0.36207,0.45924,0.04043,0.37422,0.89003,0.20995,0.3814,0.8912,-0.06147,0.34498,1.43205,0.25661,0.45929,1.40466,-0.13719,0.46301,1.17815,0.35031,0.42078,1.13485,-0.01423,0.55514,1.39139,0.28514,0.65916,1.20249
957,0.08096,0.43145,1.49038,-0.02856,0.57128,0.08045,0.26272,0.12371,0.12234,0.00779,0.55459,0.49599,0.2555,0.37039,0.45896,0.03857,0.37264,0.88978,0.20784,0.38431,0.89083,-0.06095,0.34214,1.43612,0.25134,0.47259,1.40529,-0.14155,0.4552,1.18146,0.34966,0.44948,1.13536,-0.01599,0.55335,1.39046,0.27718,0.68361,1.21006
958,0.07546,0.43521,1.49051,-0.02764,0.57081,0.08013,0.26344,0.12778,0.12519,0.00757,0.55346,0.49574,0.25637,0.37903,0.45842,0.03658,0.37076,0.88932,0.20556,0.38614,0.8901,-0.06011,0.33946,1.44013,0.24555,0.48521,1.40557,-0.14542,0.44625,1.1843,0.34785,0.47996,1.13619,-0.0176,0.55182,1.38825,0.26874,0.70855,1.22068
959,0.07007,0.43919,1.48994,-0.02701,0.57017,0.07982,0.26451,0.13202,0.12812,0.00749,0.55248,0.49548,0.25723,0.38785,0.45785,0.03457,0.36862,0.88865,0.20324,0.38701,0.8892,-0.05879,0.33711,1.44326,0.23936,0.49681,1.4057,-0.14901,0.43786,1.18667,0.34519,0.51147,1.13803,-0.01975,0.55071,1.38575,0.25984,0.73302,1.23436
960,0.06491,0.44333,1.48861,-0.02674,0.56967,0.07956,0.26595,0.13625,0.1312,0.00739,0.55204,0.49525,0.2581,0.39651,0.45742,0.03273,0.36644,0.88772,0.20112,0.38725,0.88829,-0.05666,0.33512,1.44516,0.23293,0.5079,1.40578,-0.15253,0.4312,1.18883,0.3413,0.5437,1.14115,-0.02288,0.55,1.38416,0.2504,0.75631,1.25151
961,0.06012,0.44746,1.48674,-0.02665,0.56949,0.07932,0.26742,0.1404,0.13422,0.00699,0.55219,0.49506,0.25913,0.40471,0.45716,0.03108,0.36447,0.8866,0.19923,0.38715,0.88737,-0.05376,0.33379,1.4459,0.22652,0.5193,1.40595,-0.15606,0.42567,1.19051,0.33531,0.57668,1.14531,-0.0273,0.54971,1.38316,0.24022,0.77786,1.27234
962,0.05614,0.4515,1.48462,-0.02669,0.56952,0.07917,0.26867,0.14454,0.13699,0.00611,0.55269,0.49499,0.26037,0.41253,0.45689,0.02942,0.36268,0.88547,0.19738,0.38674,0.88624,-0.05064,0.33369,1.44562,0.22057,0.53116,1.40631,-0.15941,0.41974,1.19088,0.32662,0.6104,1.15032,-0.03293,0.54939,1.38134,0.22892,0.79726,1.29588
963,0.05346,0.45552,1.48234,-0.02694,0.56961,0.07912,0.26965,0.1488,0.13951,0.00468,0.55328,0.49506,0.26165,0.42032,0.45642,0.02756,0.36082,0.88436,0.19537,0.38588,0.88468,-0.04775,0.335,1.44455,0.21534,0.54291,1.40696,-0.1622,0.41288,1.18967,0.31563,0.64427,1.15651,-0.03897,0.54779,1.37859,0.21643,0.81459,1.3202
964,0.05207,0.45962,1.47977,-0.02732,0.56969,0.07903,0.27039,0.15314,0.1419,0.00286,0.55381,0.49509,0.26294,0.42824,0.45573,0.02552,0.35874,0.88311,0.19323,0.38445,0.88259,-0.04505,0.33717,1.44303,0.21066,0.55385,1.40772,-0.16401,0.40591,1.18759,0.30344,0.67718,1.16433,-0.04421,0.54417,1.3763,0.20333,0.83025,1.34376
965,0.05134,0.46381,1.47671,-0.02765,0.56975,0.07875,0.27103,0.15742,0.14431,0.00088,0.55418,0.49494,0.26445,0.4361,0.45497,0.02347,0.35647,0.88162,0.19112,0.38258,0.88011,-0.04243,0.33947,1.44138,0.2061,0.56362,1.40824,-0.16463,0.40006,1.1854,0.29116,0.70815,1.17386,-0.04814,0.53975,1.37513,0.19022,0.84447,1.3659
966,0.05045,0.46812,1.47299,-0.02778,0.56969,0.0783,0.27172,0.16143,0.14677,-0.00101,0.55437,0.49462,0.26641,0.4436,0.45429,0.0215,0.35411,0.88,0.18907,0.38063,0.87742,-0.04011,0.34153,1.43975,0.20137,0.57219,1.40813,-0.16412,0.39598,1.18326,0.27957,0.73659,1.18471,-0.05109,0.5371,1.37402,0.17734,0.85725,1.3863
967,0.04887,0.47256,1.46854,-0.02769,0.56943,0.07784,0.27245,0.16499,0.14916,-0.00267,0.55452,0.49428,0.26867,0.45053,0.45357,0.01957,0.3518,0.87838,0.18702,0.37893,0.87451,-0.03834,0.34321,1.43802,0.1965,0.57972,1.40729,-0.16284,0.39355,1.18094,0.26902,0.76202,1.19618,-0.05329,0.53776,1.37141,0.16465,0.86867,1.40446
968,0.04654,0.47701,1.46361,-0.02745,0.56899,0.07738,0.27314,0.16798,0.15122,-0.00405,0.55491,0.49394,0.2709,0.45677,0.45258,0.01764,0.34963,0.87671,0.18493,0.37749,0.87127,-0.03718,0.34452,1.43598,0.19175,0.58654,1.4061,-0.16119,0.39226,1.17816,0.25969,0.78384,1.20732,-0.05472,0.54103,1.36686,0.15212,0.87881,1.41959
969,0.04385,0.48121,1.45873,-0.02724,0.56849,0.07683,0.27375,0.17048,0.15276,-0.00524,0.55569,0.49351,0.27289,0.46224,0.45125,0.01577,0.34763,0.87481,0.18288,0.37617,0.86775,-0.03664,0.34589,1.43346,0.18723,0.59288,1.40505,-0.15944,0.39159,1.1747,0.25177,0.80166,1.21716,-0.05578,0.54502,1.36123,0.13969,0.88761,1.43094
970,0.04126,0.48497,1.45434,-0.02719,0.56814,0.07615,0.27435,0.1727,0.15376,-0.0064,0.55668,0.49293,0.2746,0.46696,0.44978,0.014,0.34583,0.87274,0.18094,0.37497,0.8642,-0.03685,0.34787,1.43045,0.18291,0.59859,1.40418,-0.15765,0.39125,1.17035,0.24542,0.81554,1.22506,-0.05704,0.54855,1.35531,0.12751,0.89483,1.43827
971,0.03892,0.48812,1.45057,-0.02729,0.568,0.07543,0.2751,0.17467,0.15437,-0.00761,0.55765,0.4923,0.276,0.47098,0.44833,0.01236,0.34433,0.87075,0.1791,0.37419,0.86092,-0.03789,0.35065,1.42706,0.17876,0.60335,1.40303,-0.15578,0.39119,1.16517,0.24047,0.82586,1.23058,-0.05887,0.55194,1.34914,0.11618,0.90027,1.44191
972,0.03662,0.49056,1.44735,-0.02743,0.56796,0.07478,0.27614,0.17631,0.15475,-0.00879,0.55863,0.49172,0.27694,0.4744,0.44691,0.01096,0.34318,0.86897,0.17743,0.37417,0.85805,-0.03977,0.35397,1.42357,0.17475,0.60716,1.40131,-0.15379,0.39165,1.15955,0.23647,0.8331,1.23338,-0.0614,0.55609,1.34259,0.10662,0.90406,1.44255
973,0.03404,0.49257,1.4445,-0.02763,0.56786,0.07425,0.27743,0.17764,0.15488,-0.00992,0.55979,0.49125,0.27726,0.47731,0.44543,0.00992,0.34231,0.86733,0.176,0.37501,0.85563,-0.04236,0.35751,1.4203,0.17091,0.61036,1.39909,-0.15173,0.39302,1.15402,0.23306,0.83776,1.2333,-0.0646,0.56131,1.33613,0.09962,0.90646,1.44096
974,0.03099,0.49479,1.44181,-0.02795,0.56769,0.07384,0.27887,0.17865,0.15477,-0.01117,0.56121,0.49091,0.277,0.47972,0.44386,0.00927,0.34163,0.86573,0.17487,0.37654,0.85362,-0.04551,0.36099,1.41739,0.16735,0.6132,1.39666,-0.14978,0.39537,1.14893,0.2301,0.84029,1.23067,-0.06821,0.56707,1.33043,0.09558,0.90785,1.43801
975,0.02754,0.49771,1.43912,-0.02841,0.56761,0.07361,0.28032,0.17916,0.15456,-0.01267,0.56294,0.49074,0.27628,0.48156,0.44224,0.009,0.34114,0.86418,0.17407,0.37847,0.85201,-0.04904,0.36419,1.41477,0.16421,0.61561,1.39429,-0.14829,0.39808,1.14434,0.22748,0.84098,1.22617,-0.07164,0.57235,1.32555,0.09445,0.90873,1.4344
976,0.02387,0.50129,1.4364,-0.02898,0.56778,0.07362,0.28157,0.17902,0.1544,-0.01432,0.56504,0.49081,0.27514,0.48281,0.44057,0.00914,0.34093,0.86277,0.17367,0.3806,0.85074,-0.05292,0.36705,1.41226,0.16145,0.61748,1.39201,-0.14762,0.40019,1.14011,0.22489,0.84017,1.22041,-0.07429,0.5763,1.3209,0.09579,0.90977,1.4305
977,0.02008,0.5051,1.43375,-0.0296,0.56814,0.07389,0.28247,0.17845,0.15422,-0.01578,0.56752,0.49112,0.27352,0.48366,0.4388,0.0096,0.3411,0.86154,0.17362,0.38287,0.8497,-0.05708,0.36965,1.40973,0.15884,0.61897,1.38972,-0.14795,0.40115,1.13609,0.22204,0.83828,1.21375,-0.07601,0.57882,1.31591,0.0988,0.91138,1.42615
978,0.01609,0.50864,1.4313,-0.0302,0.5685,0.07431,0.283,0.17787,0.15392,-0.01669,0.57029,0.49155,0.27152,0.48437,0.43702,0.01019,0.34168,0.86051,0.17378,0.38515,0.84882,-0.06134,0.37206,1.40713,0.15614,0.62042,1.38738,-0.14912,0.4013,1.13223,0.21915,0.8357,1.20643,-0.07725,0.58048,1.31058,0.10269,0.91333,1.42104
979,0.01182,0.5117,1.42914,-0.03062,0.5688,0.0748,0.28323,0.17746,0.15355,-0.01694,0.57311,0.49201,0.26936,0.48495,0.43547,0.01073,0.34254,0.8597,0.17399,0.38731,0.84821,-0.06543,0.37444,1.40446,0.15334,0.62193,1.38499,-0.15082,0.40147,1.12859,0.21682,0.83266,1.19892,-0.07884,0.58193,1.30559,0.10714,0.91516,1.41528
980,0.00743,0.51444,1.42726,-0.03085,0.56906,0.07526,0.28324,0.17712,0.15322,-0.01669,0.57566,0.49242,0.26728,0.48524,0.43433,0.01121,0.34358,0.85914,0.17425,0.38922,0.84799,-0.06928,0.37703,1.40182,0.15064,0.62333,1.38252,-0.15291,0.40222,1.12524,0.21533,0.8295,1.19182,-0.08142,0.58356,1.30154,0.11205,0.91673,1.40947
981,0.00321,0.51707,1.42561,-0.03097,0.56934,0.07558,0.28307,0.17673,0.15298,-0.01621,0.57778,0.49269,0.26537,0.48519,0.43363,0.01173,0.34479,0.85883,0.17471,0.39078,0.84817,-0.0731,0.37993,1.39948,0.14823,0.62438,1.38011,-0.15545,0.40326,1.12235,0.21444,0.82648,1.18561,-0.08498,0.58533,1.29831,0.11705,0.91838,1.40406
982,-0.00068,0.51959,1.42428,-0.0311,0.56962,0.07571,0.28275,0.17628,0.15293,-0.01566,0.5796,0.49276,0.26368,0.48496,0.43324,0.01241,0.34611,0.85857,0.17544,0.39205,0.84864,-0.07718,0.38301,1.39772,0.14608,0.62522,1.37805,-0.15838,0.4039,1.12005,0.21396,0.8237,1.18042,-0.08887,0.58701,1.29531,0.1216,0.92034,1.399
983,-0.0043,0.5219,1.42331,-0.03118,0.56976,0.07566,0.28225,0.17582,0.15315,-0.015,0.58123,0.49265,0.26225,0.4848,0.43306,0.01317,0.34745,0.85826,0.17631,0.39322,0.84924,-0.08146,0.38602,1.39658,0.14395,0.62635,1.37645,-0.16135,0.40387,1.11832,0.21399,0.82128,1.17605,-0.09234,0.58853,1.29215,0.12536,0.92256,1.39408
984,-0.00781,0.52405,1.42257,-0.03118,0.56964,0.07553,0.28141,0.1755,0.15357,-0.01415,0.58261,0.49244,0.26117,0.48483,0.43307,0.01378,0.34869,0.85799,0.17701,0.39429,0.84985,-0.08564,0.38868,1.39579,0.14171,0.62808,1.375,-0.16403,0.40369,1.11693,0.21464,0.81954,1.1723,-0.09509,0.59012,1.28889,0.12831,0.92477,1.38938
985,-0.01114,0.52621,1.42177,-0.03107,0.56928,0.07541,0.28014,0.17549,0.15396,-0.01322,0.58366,0.49224,0.26061,0.48501,0.43331,0.0141,0.34975,0.85784,0.17744,0.39509,0.85042,-0.08948,0.39087,1.39496,0.13958,0.63013,1.37335,-0.16641,0.40411,1.11562,0.21584,0.81866,1.16914,-0.09739,0.59194,1.28601,0.13062,0.92665,1.3853
986,-0.01399,0.52839,1.42082,-0.03084,0.56882,0.07536,0.27853,0.1758,0.15422,-0.01237,0.58457,0.49212,0.2606,0.48523,0.43377,0.01417,0.3506,0.85774,0.17767,0.39546,0.85096,-0.09285,0.39273,1.39391,0.13793,0.63183,1.37152,-0.16873,0.40556,1.11426,0.21742,0.81841,1.16675,-0.09962,0.59397,1.28398,0.13235,0.92796,1.38218
987,-0.01617,0.53048,1.41992,-0.03046,0.56848,0.07542,0.27692,0.17629,0.15442,-0.01164,0.58562,0.4921,0.26117,0.48545,0.43441,0.014,0.35136,0.8576,0.17771,0.39553,0.85146,-0.09576,0.39448,1.39266,0.13699,0.63279,1.36985,-0.17103,0.40807,1.11288,0.21916,0.81843,1.16528,-0.10185,0.59607,1.28301,0.13346,0.92872,1.38008
988,-0.01781,0.53237,1.41935,-0.03003,0.56837,0.07559,0.27563,0.17686,0.15471,-0.0109,0.58686,0.4922,0.26221,0.48572,0.43515,0.0135,0.35214,0.85749,0.17745,0.39548,0.85186,-0.09836,0.3963,1.3913,0.13668,0.63318,1.36863,-0.17314,0.41137,1.11146,0.22079,0.81856,1.16462,-0.10389,0.5982,1.28286,0.13392,0.92911,1.37882
989,-0.01924,0.53415,1.41907,-0.02977,0.56846,0.07581,0.27474,0.17758,0.15518,-0.01012,0.58807,0.49235,0.26342,0.48624,0.43593,0.01265,0.35302,0.85752,0.17685,0.39544,0.85215,-0.1009,0.39824,1.38997,0.13668,0.63337,1.36788,-0.17484,0.415,1.11001,0.22212,0.81884,1.16451,-0.10565,0.60039,1.28297,0.13389,0.92936,1.37817
990,-0.02073,0.536,1.41876,-0.02987,0.56862,0.076,0.27415,0.17858,0.15584,-0.00939,0.58911,0.49245,0.26445,0.48718,0.43673,0.01159,0.35399,0.85769,0.17604,0.39543,0.85236,-0.10337,0.40024,1.38879,0.1367,0.6337,1.36748,-0.17607,0.41849,1.10859,0.22309,0.81936,1.16469,-0.10711,0.60266,1.28296,0.13361,0.92953,1.37801
991,-0.02235,0.53791,1.4182,-0.03022,0.56874,0.0761,0.27376,0.17993,0.15655,-0.00876,0.59002,0.49246,0.26515,0.48849,0.4375,0.0105,0.35494,0.85782,0.17522,0.39532,0.85248,-0.10558,0.40213,1.38776,0.13659,0.63434,1.36736,-0.17689,0.4217,1.10729,0.22374,0.82015,1.16502,-0.10832,0.60498,1.28275,0.13321,0.92956,1.37829
992,-0.02392,0.53971,1.41745,-0.03052,0.56883,0.07612,0.27357,0.18142,0.15717,-0.00818,0.59098,0.49239,0.26569,0.48995,0.43818,0.00944,0.3557,0.85771,0.17443,0.39496,0.85246,-0.1074,0.40384,1.38667,0.13636,0.63523,1.36737,-0.17748,0.4247,1.10599,0.22416,0.82125,1.16551,-0.10935,0.60735,1.28228,0.1326,0.92938,1.37899
993,-0.02513,0.54125,1.41667,-0.03053,0.56898,0.07613,0.27366,0.18279,0.15777,-0.00768,0.59206,0.49232,0.26637,0.49135,0.43876,0.00838,0.35614,0.8573,0.17361,0.39438,0.85225,-0.109,0.40542,1.38541,0.13603,0.63616,1.36724,-0.17799,0.42764,1.10456,0.22449,0.82269,1.16614,-0.11017,0.60987,1.28139,0.13161,0.92908,1.37992
994,-0.02571,0.54259,1.41596,-0.03029,0.56925,0.07615,0.27401,0.18389,0.15839,-0.00735,0.59319,0.49229,0.26738,0.49258,0.43926,0.00736,0.35629,0.85668,0.17277,0.39379,0.8519,-0.11066,0.40695,1.3841,0.13572,0.63694,1.36673,-0.17838,0.4307,1.10307,0.22475,0.82446,1.16681,-0.1106,0.61269,1.28017,0.13021,0.92888,1.38083
995,-0.02571,0.54385,1.41526,-0.02998,0.56958,0.07613,0.27447,0.18475,0.15903,-0.00727,0.59429,0.49224,0.26877,0.4936,0.43973,0.00646,0.35634,0.85599,0.17199,0.39336,0.85152,-0.11242,0.40844,1.3829,0.13561,0.63752,1.36582,-0.17867,0.43399,1.10167,0.22488,0.82651,1.16738,-0.11074,0.61572,1.27898,0.12851,0.92894,1.38156
996,-0.02551,0.54502,1.41448,-0.02979,0.56985,0.07606,0.27491,0.1854,0.15957,-0.00744,0.5954,0.49214,0.27044,0.49439,0.44015,0.00565,0.35656,0.85533,0.17129,0.39308,0.85112,-0.11411,0.40989,1.38167,0.13574,0.63793,1.36473,-0.17902,0.43747,1.10033,0.2248,0.82862,1.16784,-0.111,0.61868,1.27812,0.12673,0.92918,1.38212
997,-0.02558,0.54606,1.41363,-0.02981,0.57001,0.07605,0.27528,0.18577,0.15994,-0.00775,0.59663,0.49207,0.2722,0.49487,0.44042,0.00478,0.35706,0.8548,0.17058,0.39285,0.8506,-0.11548,0.41131,1.38027,0.13592,0.63826,1.36388,-0.17956,0.44101,1.09895,0.22464,0.83044,1.16828,-0.11161,0.62135,1.27767,0.12508,0.92931,1.38267
998,-0.02607,0.54703,1.41279,-0.0299,0.57011,0.07616,0.27561,0.18585,0.16008,-0.00807,0.59807,0.4921,0.27392,0.49505,0.44045,0.00378,0.3578,0.8544,0.16978,0.39265,0.8499,-0.11646,0.4127,1.37879,0.13594,0.63851,1.36346,-0.18018,0.44449,1.09762,0.22454,0.83171,1.16883,-0.11221,0.62363,1.27752,0.12364,0.92907,1.38327
999,-0.02668,0.54805,1.4121,-0.02986,0.57019,0.07631,0.27591,0.18577,0.16004,-0.00833,0.59961,0.49217,0.27539,0.49507,0.44031,0.00276,0.35869,0.85406,0.16895,0.39254,0.84913,-0.11722,0.41409,1.37745,0.13584,0.63859,1.36328,-0.18069,0.44782,1.09645,0.2245,0.83249,1.16937,-0.11234,0.62561,1.27756,0.12226,0.92844,1.38382
1000,-0.02692,0.54918,1.41164,-0.02975,0.57031,0.07639,0.27619,0.18568,0.15998,-0.00853,0.60105,0.49217,0.27648,0.49508,0.44014,0.00183,0.35967,0.85376,0.1682,0.39257,0.84849,-0.11798,0.41552,1.37642,0.13592,0.63843,1.36299,-0.18103,0.45116,1.09556,0.22439,0.83299,1.16965,-0.11215,0.62759,1.27779,0.12087,0.92751,1.38413
1001,-0.02666,0.55022,1.41147,-0.02979,0.57048,0.07637,0.27649,0.18565,0.15996,-0.00869,0.60223,0.49208,0.27728,0.49511,0.44004,0.00101,0.36067,0.85357,0.16754,0.39271,0.84803,-0.11878,0.41691,1.37569,0.13637,0.6381,1.36251,-0.18124,0.4547,1.09498,0.22416,0.83324,1.16944,-0.11225,0.62995,1.2783,0.11969,0.92645,1.38402
1002,-0.02613,0.55089,1.41152,-0.03006,0.57071,0.07629,0.27687,0.18564,0.15981,-0.00882,0.6031,0.49195,0.27804,0.49504,0.43996,0.00023,0.36161,0.85351,0.16688,0.39296,0.84764,-0.11952,0.41794,1.37513,0.13718,0.63776,1.362,-0.18141,0.45838,1.09466,0.22386,0.83314,1.16869,-0.11287,0.63273,1.279,0.11899,0.92547,1.38346
1003,-0.02559,0.55124,1.41157,-0.03036,0.57094,0.07615,0.27727,0.18554,0.15945,-0.00895,0.60376,0.49176,0.27888,0.49478,0.43978,-0.00049,0.36252,0.85351,0.16623,0.39342,0.84723,-0.12013,0.41843,1.37462,0.13823,0.63744,1.36159,-0.18158,0.46174,1.09449,0.22356,0.8327,1.16754,-0.11359,0.6355,1.27959,0.11885,0.92463,1.38256
1004,-0.02511,0.55161,1.41139,-0.03044,0.57103,0.07588,0.27767,0.18529,0.15896,-0.00912,0.6044,0.49146,0.27963,0.49441,0.43942,-0.00112,0.36346,0.8534,0.16564,0.39409,0.84676,-0.12066,0.41868,1.37417,0.13945,0.63695,1.36116,-0.1817,0.46444,1.09433,0.22336,0.83192,1.16622,-0.114,0.63784,1.27988,0.11916,0.92383,1.38149
1005,-0.02471,0.55212,1.41106,-0.03029,0.57097,0.07553,0.27809,0.18499,0.1585,-0.00935,0.60532,0.49104,0.28011,0.49414,0.43893,-0.00166,0.36445,0.85304,0.16514,0.3948,0.84623,-0.12115,0.41927,1.37381,0.14064,0.63604,1.36062,-0.18178,0.46666,1.09416,0.22336,0.83074,1.16489,-0.11421,0.63998,1.27982,0.1198,0.92282,1.3804
1006,-0.02424,0.5524,1.41094,-0.03011,0.57095,0.07521,0.27858,0.18487,0.1581,-0.00959,0.60672,0.49062,0.28031,0.49411,0.43843,-0.00219,0.36549,0.85239,0.16471,0.39528,0.84567,-0.12164,0.42055,1.37349,0.14158,0.63475,1.36013,-0.18194,0.46889,1.09392,0.22358,0.82901,1.16367,-0.11452,0.64248,1.27939,0.12057,0.9215,1.37927
1007,-0.02346,0.55203,1.41134,-0.03013,0.57108,0.07502,0.27916,0.18498,0.15787,-0.00975,0.60854,0.49029,0.28033,0.49438,0.43803,-0.00273,0.36655,0.85156,0.16431,0.3956,0.84517,-0.12224,0.42237,1.37302,0.14217,0.63337,1.36001,-0.18231,0.47144,1.09354,0.22395,0.82669,1.16254,-0.11488,0.64552,1.27855,0.12123,0.92003,1.3779
1008,-0.02245,0.55124,1.41207,-0.03038,0.5713,0.07499,0.27984,0.18523,0.15789,-0.0098,0.61048,0.49009,0.28032,0.49484,0.43782,-0.0032,0.36758,0.85076,0.16397,0.39602,0.84486,-0.12297,0.42416,1.3723,0.14259,0.63211,1.36035,-0.18281,0.47438,1.09297,0.22441,0.82382,1.16132,-0.11508,0.64886,1.27749,0.12173,0.91873,1.37602
1009,-0.0216,0.5508,1.41259,-0.03071,0.5715,0.0751,0.28061,0.18546,0.15806,-0.00972,0.61222,0.49003,0.28042,0.49527,0.43777,-0.00359,0.36853,0.85017,0.16365,0.3967,0.84474,-0.12377,0.42537,1.37145,0.14311,0.6309,1.36078,-0.18312,0.47759,1.09239,0.22483,0.82062,1.15981,-0.11514,0.65225,1.27664,0.12219,0.91775,1.37354
1010,-0.02111,0.55107,1.41262,-0.03086,0.57171,0.07525,0.28144,0.18551,0.15815,-0.00953,0.61354,0.49005,0.28058,0.49546,0.4377,-0.00393,0.36939,0.84989,0.16332,0.39754,0.8447,-0.12454,0.42585,1.37063,0.1439,0.6295,1.36085,-0.18299,0.48073,1.09188,0.22508,0.81737,1.15793,-0.11531,0.65536,1.27628,0.12283,0.91707,1.37065
1011,-0.02078,0.55146,1.41255,-0.03058,0.57202,0.0753,0.28223,0.18541,0.15808,-0.00932,0.61446,0.49005,0.28062,0.4955,0.43748,-0.00422,0.37017,0.8498,0.16302,0.39834,0.84456,-0.12517,0.4261,1.36977,0.14489,0.62787,1.36048,-0.18257,0.48333,1.09128,0.22537,0.81405,1.15574,-0.11582,0.65768,1.27629,0.12391,0.9164,1.36759
1012,-0.02046,0.55117,1.41288,-0.02984,0.57237,0.07519,0.28284,0.18537,0.158,-0.0092,0.61515,0.48994,0.28044,0.4957,0.43713,-0.00444,0.3709,0.84973,0.16282,0.39887,0.84428,-0.12564,0.42669,1.36876,0.14586,0.62611,1.35995,-0.1822,0.48533,1.09039,0.22622,0.8104,1.15346,-0.11656,0.65892,1.27649,0.12554,0.91536,1.36439
1013,-0.02023,0.55017,1.41361,-0.02899,0.57256,0.07504,0.28318,0.18555,0.15809,-0.00918,0.61582,0.48977,0.28009,0.49621,0.43684,-0.00466,0.3716,0.84958,0.16267,0.39913,0.84399,-0.12609,0.4277,1.36769,0.14658,0.62448,1.35948,-0.18197,0.48714,1.08936,0.22765,0.80652,1.15128,-0.11727,0.65945,1.27697,0.12742,0.91398,1.36117
1014,-0.02018,0.54906,1.41435,-0.02842,0.57249,0.07494,0.28323,0.18591,0.15845,-0.00913,0.61656,0.48962,0.27957,0.49692,0.43679,-0.00498,0.37231,0.8494,0.16245,0.39929,0.84389,-0.1267,0.42876,1.36685,0.1469,0.62317,1.35905,-0.18173,0.48925,1.08857,0.22895,0.803,1.14932,-0.11783,0.66006,1.27783,0.12896,0.91275,1.35813
1015,-0.02007,0.54828,1.41488,-0.02827,0.57225,0.07487,0.28306,0.1863,0.15895,-0.00885,0.61719,0.48945,0.27889,0.49765,0.4369,-0.00537,0.37305,0.84932,0.16214,0.39954,0.84399,-0.12744,0.42954,1.36643,0.147,0.62211,1.35868,-0.18138,0.49195,1.08836,0.22964,0.80007,1.14759,-0.11818,0.6615,1.27898,0.12991,0.91195,1.3554
1016,-0.01961,0.54791,1.41523,-0.02836,0.572,0.07469,0.28281,0.18664,0.15935,-0.00832,0.61739,0.48919,0.27822,0.49827,0.43699,-0.00566,0.37372,0.84939,0.1619,0.39989,0.84414,-0.12798,0.42987,1.36649,0.14743,0.62092,1.35848,-0.18096,0.4953,1.08893,0.23,0.79731,1.14605,-0.11801,0.6642,1.28021,0.13057,0.91122,1.3529
1017,-0.01877,0.54798,1.41553,-0.02841,0.57185,0.07437,0.28268,0.18691,0.15947,-0.00766,0.61706,0.48885,0.27771,0.49869,0.43694,-0.00576,0.37418,0.84958,0.16182,0.40019,0.84419,-0.12802,0.42973,1.367,0.14854,0.61943,1.35849,-0.18048,0.49896,1.09026,0.23043,0.79428,1.14452,-0.1171,0.66795,1.28132,0.13134,0.91015,1.35044
1018,-0.01786,0.54837,1.4159,-0.02833,0.57182,0.07402,0.28276,0.18718,0.15935,-0.00712,0.61652,0.48853,0.27731,0.49892,0.43686,-0.00576,0.37447,0.84983,0.16184,0.40034,0.8442,-0.1278,0.42947,1.36784,0.15005,0.61798,1.3586,-0.17995,0.50229,1.09197,0.23088,0.79102,1.14277,-0.11582,0.67189,1.28223,0.13233,0.90879,1.34787
1019,-0.01723,0.54867,1.41649,-0.02818,0.57191,0.07385,0.28304,0.1876,0.15922,-0.00695,0.61618,0.48841,0.27678,0.4992,0.43686,-0.0058,0.37475,0.85012,0.16182,0.40038,0.8443,-0.12781,0.42964,1.36887,0.15134,0.617,1.35866,-0.17946,0.50489,1.09356,0.2311,0.78796,1.14079,-0.11496,0.67493,1.28331,0.13333,0.90741,1.34529
1020,-0.01701,0.54856,1.41728,-0.02803,0.57201,0.07402,0.28355,0.18824,0.15931,-0.00717,0.61623,0.4886,0.27606,0.4997,0.43707,-0.00592,0.375,0.85045,0.16174,0.40039,0.84456,-0.12829,0.43051,1.36994,0.15203,0.61649,1.35861,-0.17904,0.50713,1.09483,0.23107,0.78543,1.1389,-0.11486,0.67663,1.28518,0.13409,0.90598,1.34313
1021,-0.01701,0.54822,1.41806,-0.02791,0.57198,0.07446,0.28433,0.18896,0.15962,-0.00745,0.61645,0.48903,0.27531,0.50031,0.43747,-0.00604,0.3751,0.8508,0.16164,0.40038,0.845,-0.12901,0.43187,1.37087,0.15216,0.61595,1.35847,-0.17859,0.50963,1.09587,0.23089,0.78336,1.13748,-0.11505,0.67726,1.28807,0.13447,0.90418,1.34182
1022,-0.01691,0.54812,1.41871,-0.02789,0.57182,0.07489,0.28529,0.18965,0.15995,-0.00747,0.61646,0.48946,0.27465,0.5008,0.43795,-0.00606,0.37501,0.85116,0.16163,0.40026,0.8455,-0.12956,0.43316,1.37158,0.15224,0.61495,1.35836,-0.17819,0.51227,1.0968,0.23058,0.78144,1.13654,-0.115,0.67727,1.29137,0.13464,0.90178,1.34138
1023,-0.01656,0.5484,1.41933,-0.02796,0.57167,0.07509,0.2862,0.19034,0.16014,-0.00723,0.6161,0.48966,0.27399,0.50122,0.43839,-0.00593,0.37489,0.85152,0.1618,0.39995,0.84599,-0.12963,0.4339,1.37218,0.15285,0.6136,1.35842,-0.1781,0.51424,1.09772,0.23015,0.77949,1.13578,-0.11461,0.67688,1.29418,0.13492,0.89892,1.34149
1024,-0.01613,0.54866,1.42011,-0.02805,0.57166,0.07506,0.28687,0.19115,0.16033,-0.00692,0.61557,0.48967,0.27326,0.50182,0.43875,-0.00564,0.37487,0.85186,0.16215,0.3995,0.84638,-0.12922,0.43405,1.37274,0.15413,0.61235,1.35869,-0.17842,0.51528,1.09868,0.22961,0.77761,1.13497,-0.11423,0.67628,1.29625,0.13556,0.8959,1.34188
1025,-0.01579,0.54844,1.42102,-0.02814,0.5717,0.07496,0.28744,0.1921,0.16064,-0.00673,0.61513,0.4896,0.27258,0.50268,0.4391,-0.0053,0.375,0.85218,0.16256,0.39914,0.84672,-0.1286,0.43406,1.37319,0.15571,0.6114,1.35906,-0.17878,0.51635,1.09962,0.22911,0.77592,1.1341,-0.11437,0.67594,1.29827,0.13653,0.89291,1.34241
1026,-0.01542,0.54776,1.42182,-0.02825,0.5716,0.07487,0.28815,0.19312,0.16101,-0.00673,0.61478,0.48953,0.27209,0.50359,0.43952,-0.00503,0.37517,0.85244,0.16286,0.39913,0.84712,-0.12826,0.43442,1.37338,0.1572,0.61064,1.35943,-0.17878,0.51875,1.1005,0.2288,0.77427,1.13324,-0.11545,0.67635,1.30107,0.13775,0.89001,1.34291
1027,-0.01468,0.54695,1.4224,-0.02841,0.57136,0.07481,0.28902,0.19409,0.16129,-0.00695,0.61445,0.48948,0.27181,0.50433,0.43999,-0.00484,0.3752,0.85263,0.16302,0.39946,0.84761,-0.12853,0.4353,1.37341,0.15846,0.60978,1.35972,-0.17841,0.52255,1.10133,0.22874,0.7724,1.1324,-0.11721,0.67752,1.3046,0.13907,0.88721,1.34317
1028,-0.01355,0.54622,1.42292,-0.02862,0.57114,0.07484,0.28979,0.19492,0.16142,-0.00732,0.61413,0.48953,0.27172,0.50482,0.44045,-0.00467,0.37505,0.85279,0.16312,0.39981,0.84807,-0.12932,0.43659,1.37355,0.15953,0.6087,1.35991,-0.17796,0.52658,1.10214,0.22882,0.7703,1.13156,-0.11874,0.67893,1.30795,0.1403,0.88467,1.34306
1029,-0.01221,0.54561,1.42363,-0.02878,0.57108,0.07501,0.29028,0.1956,0.16146,-0.00775,0.61387,0.48973,0.27176,0.50517,0.44082,-0.00449,0.37482,0.85301,0.16327,0.39983,0.84839,-0.13005,0.43796,1.37394,0.16056,0.60746,1.36,-0.17755,0.52967,1.1029,0.22893,0.76822,1.13078,-0.11925,0.68021,1.3103,0.14132,0.88271,1.34259
