PaulMeinheit/Bachelor_Muay_Thai/processed_Data/N1/teep/sliced/JointPositions/sliced2.csv
Unnamed: 0_level_0,Neck_Joint_Position,Neck_Joint_Position,Neck_Joint_Position,L_ANKLE_POSITION,L_ANKLE_POSITION,L_ANKLE_POSITION,R_ANKLE_POSITION,R_ANKLE_POSITION,R_ANKLE_POSITION,L_KNEE_POSITION,L_KNEE_POSITION,L_KNEE_POSITION,R_KNEE_POSITION,R_KNEE_POSITION,R_KNEE_POSITION,L_HIP_POSITION,L_HIP_POSITION,L_HIP_POSITION,R_HIP_POSITION,R_HIP_POSITION,R_HIP_POSITION,L_SHOULDER_POSITION,L_SHOULDER_POSITION,L_SHOULDER_POSITION,R_SHOULDER_POSITION,R_SHOULDER_POSITION,R_SHOULDER_POSITION,L_ELBOW_POSITION,L_ELBOW_POSITION,L_ELBOW_POSITION,R_ELBOW_POSITION,R_ELBOW_POSITION,R_ELBOW_POSITION,L_WRIST_POSITION,L_WRIST_POSITION,L_WRIST_POSITION,R_WRIST_POSITION,R_WRIST_POSITION,R_WRIST_POSITION
ITEM,X,Y,Z,X,Y,Z,X,Y,Z,X,Y,Z,X,Y,Z,X,Y,Z,X,Y,Z,X,Y,Z,X,Y,Z,X,Y,Z,X,Y,Z,X,Y,Z,X,Y,Z
1100,0.10521,0.42474,1.50408,-0.02635,0.57172,0.07804,0.24563,0.09603,0.09043,0.01951,0.53524,0.49137,0.24854,0.27773,0.46619,0.05165,0.3687,0.89181,0.21934,0.34303,0.89499,-0.05217,0.39103,1.40917,0.27795,0.41071,1.42208,-0.0841,0.47551,1.13354,0.35085,0.47445,1.15063,-0.02761,0.64676,1.32474,0.24218,0.5997,1.34596
1101,0.10791,0.42208,1.50395,-0.02624,0.57172,0.07841,0.24554,0.09549,0.08925,0.02027,0.53356,0.49151,0.24877,0.27395,0.46656,0.05313,0.36677,0.89179,0.22076,0.34075,0.8952,-0.05,0.38823,1.40923,0.28024,0.4077,1.42221,-0.08247,0.47218,1.1335,0.35266,0.47046,1.15041,-0.02602,0.64405,1.32416,0.24455,0.59433,1.34693
1102,0.11079,0.41939,1.50409,-0.02607,0.57165,0.07882,0.24567,0.09487,0.08818,0.02103,0.53164,0.49168,0.24925,0.26989,0.46709,0.0547,0.3649,0.89191,0.22228,0.33854,0.89551,-0.04802,0.38583,1.40936,0.28249,0.40449,1.42216,-0.08078,0.46864,1.13332,0.35467,0.46692,1.15021,-0.02446,0.64077,1.32379,0.24652,0.58869,1.34801
1103,0.11354,0.41652,1.50445,-0.02584,0.57163,0.0793,0.24594,0.09415,0.08722,0.02185,0.52962,0.49189,0.24991,0.26587,0.46763,0.05641,0.36321,0.89219,0.22388,0.33616,0.89584,-0.04615,0.38368,1.40956,0.28458,0.40063,1.42216,-0.07901,0.46504,1.1331,0.35687,0.46331,1.1503,-0.02268,0.63717,1.32356,0.24854,0.58343,1.34901
1104,0.11598,0.41351,1.50487,-0.02559,0.57161,0.0799,0.2462,0.09337,0.08637,0.02272,0.52766,0.49222,0.2506,0.26217,0.46809,0.05823,0.36153,0.89255,0.22553,0.33344,0.89619,-0.04421,0.38149,1.40973,0.28647,0.39611,1.42241,-0.07717,0.46166,1.13294,0.359,0.45948,1.15078,-0.02074,0.63341,1.32372,0.25085,0.57909,1.34989
1105,0.11816,0.41049,1.50519,-0.0253,0.57149,0.08063,0.24624,0.09259,0.08564,0.02355,0.52582,0.49269,0.25117,0.25876,0.4685,0.06015,0.35959,0.89288,0.22725,0.33039,0.89661,-0.04214,0.37889,1.40984,0.28827,0.39146,1.42296,-0.07526,0.45867,1.13295,0.36101,0.45567,1.15158,-0.01844,0.62955,1.32439,0.25337,0.57555,1.35081
1106,0.12022,0.40742,1.50553,-0.02486,0.57123,0.08146,0.246,0.09181,0.085,0.02433,0.52407,0.49331,0.25165,0.25548,0.46892,0.06208,0.3572,0.89313,0.22904,0.32719,0.89709,-0.04004,0.37572,1.40988,0.29013,0.38727,1.42377,-0.07325,0.45603,1.13316,0.36307,0.45217,1.15261,-0.01556,0.62574,1.32539,0.25577,0.57217,1.35195
1107,0.12222,0.40424,1.50606,-0.02424,0.57104,0.08243,0.24561,0.09102,0.08435,0.02508,0.52236,0.49409,0.25218,0.25218,0.46933,0.06395,0.35445,0.89337,0.23081,0.32397,0.89754,-0.03806,0.37234,1.40986,0.29208,0.3837,1.42478,-0.07111,0.45374,1.13344,0.36528,0.44899,1.15379,-0.01221,0.62213,1.32645,0.25776,0.56855,1.35327
1108,0.12414,0.40097,1.50674,-0.02356,0.57118,0.08365,0.24528,0.09028,0.08363,0.02583,0.52071,0.49509,0.25288,0.24884,0.46966,0.06576,0.35152,0.89372,0.23255,0.32067,0.89792,-0.03627,0.36934,1.40981,0.29402,0.38035,1.42584,-0.06882,0.45174,1.13363,0.36754,0.44597,1.15501,-0.00867,0.61871,1.32749,0.25935,0.56486,1.35453
1109,0.126,0.39766,1.50736,-0.02306,0.57172,0.08516,0.24511,0.08965,0.08281,0.02659,0.51911,0.49631,0.2537,0.24553,0.46991,0.06756,0.34849,0.89422,0.23426,0.31709,0.89826,-0.03458,0.36686,1.40992,0.29589,0.37673,1.42676,-0.06633,0.44972,1.13378,0.36992,0.44281,1.15618,-0.00516,0.61523,1.32857,0.26097,0.56146,1.35543
1110,0.12783,0.39427,1.50772,-0.023,0.57251,0.08687,0.24511,0.08916,0.08191,0.02731,0.51748,0.49761,0.25456,0.24223,0.47011,0.06935,0.34532,0.89475,0.23592,0.31323,0.89859,-0.03285,0.36445,1.41038,0.29783,0.37269,1.42749,-0.06355,0.44729,1.13412,0.37262,0.43914,1.15721,-0.00179,0.61146,1.32985,0.26312,0.55841,1.35578
1111,0.12959,0.39078,1.50787,-0.0235,0.57332,0.08861,0.24531,0.08871,0.08096,0.02793,0.51569,0.49886,0.25531,0.23884,0.4703,0.07105,0.34189,0.89517,0.23753,0.30929,0.8989,-0.03109,0.36156,1.41121,0.30002,0.36849,1.42811,-0.06052,0.44439,1.1348,0.37564,0.43507,1.1581,0.00136,0.60733,1.33152,0.26574,0.55571,1.35562
1112,0.1313,0.38731,1.50809,-0.02437,0.57393,0.09038,0.24572,0.0881,0.08011,0.02835,0.51386,0.50012,0.25593,0.23531,0.47055,0.07263,0.33811,0.89543,0.23909,0.30545,0.89924,-0.02951,0.35793,1.41214,0.30249,0.36433,1.4287,-0.05748,0.44123,1.13572,0.37866,0.43137,1.15895,0.0043,0.60282,1.33359,0.26822,0.55355,1.35522
1113,0.13298,0.38404,1.5087,-0.02508,0.57433,0.09227,0.24625,0.08726,0.0795,0.02854,0.51225,0.50159,0.25653,0.23181,0.47093,0.07409,0.33415,0.89571,0.24061,0.30181,0.89968,-0.02818,0.35386,1.41289,0.30507,0.36028,1.42918,-0.05465,0.43812,1.13661,0.3814,0.42882,1.15985,0.00708,0.59798,1.33589,0.27012,0.55204,1.355
1114,0.13465,0.38098,1.50976,-0.02526,0.5747,0.09429,0.24671,0.08639,0.07918,0.02863,0.51093,0.50331,0.25724,0.22854,0.47148,0.07543,0.33033,0.89615,0.24202,0.29842,0.90028,-0.02684,0.34997,1.41345,0.30744,0.35643,1.42955,-0.05205,0.43543,1.13743,0.38386,0.42712,1.16081,0.00999,0.59337,1.33814,0.27163,0.55077,1.35514
1115,0.13625,0.37798,1.51106,-0.02506,0.57526,0.09643,0.2471,0.08565,0.07896,0.02879,0.50976,0.50519,0.25816,0.22557,0.47205,0.07661,0.32681,0.8968,0.24325,0.29515,0.90091,-0.02515,0.34676,1.41416,0.30932,0.35301,1.42997,-0.04937,0.43357,1.13847,0.38622,0.42521,1.16177,0.01341,0.58998,1.34015,0.27328,0.54913,1.35551
1116,0.13784,0.37489,1.51229,-0.02491,0.576,0.09866,0.24755,0.08499,0.07863,0.02907,0.50867,0.5071,0.25928,0.22278,0.47246,0.0777,0.32342,0.89754,0.24435,0.29176,0.90141,-0.02309,0.3442,1.41516,0.3108,0.35003,1.43056,-0.04637,0.43257,1.13988,0.38853,0.42246,1.16266,0.01743,0.58805,1.34195,0.27533,0.54705,1.35582
1117,0.13971,0.37177,1.51312,-0.02505,0.57676,0.10091,0.24818,0.08435,0.07818,0.02949,0.5078,0.50901,0.26059,0.21995,0.47274,0.07885,0.31994,0.8981,0.24548,0.28818,0.9018,-0.02104,0.34196,1.41613,0.31227,0.34732,1.43126,-0.0432,0.43164,1.14119,0.39076,0.41915,1.16342,0.0214,0.5861,1.34378,0.27757,0.5449,1.35583
1118,0.142,0.36877,1.51337,-0.02545,0.57738,0.10309,0.24891,0.08382,0.07775,0.03006,0.50726,0.51086,0.26202,0.21697,0.47312,0.08018,0.31637,0.89838,0.24681,0.28462,0.90227,-0.01933,0.33965,1.41659,0.31406,0.34479,1.43192,-0.04033,0.42983,1.14172,0.39293,0.41581,1.16398,0.02403,0.58227,1.34592,0.27967,0.54271,1.35559
1119,0.14453,0.36593,1.51326,-0.02603,0.57781,0.1052,0.24952,0.08343,0.07747,0.03071,0.50688,0.51266,0.26342,0.21392,0.4737,0.08164,0.31283,0.8985,0.24829,0.2812,0.90292,-0.01775,0.33695,1.41655,0.31608,0.34247,1.43252,-0.03805,0.42696,1.14157,0.39512,0.41266,1.16441,0.02461,0.57659,1.34836,0.28157,0.54019,1.35544
1120,0.14685,0.36322,1.51321,-0.02657,0.57792,0.10726,0.24991,0.083,0.07735,0.03125,0.5064,0.51446,0.26464,0.211,0.47436,0.0831,0.30936,0.89866,0.24974,0.2778,0.90366,-0.01585,0.33381,1.41664,0.31803,0.34016,1.43306,-0.03641,0.42366,1.14162,0.39723,0.40972,1.16484,0.02403,0.57113,1.35061,0.2834,0.53721,1.35572
1121,0.14865,0.36063,1.51347,-0.02674,0.57761,0.10923,0.25009,0.08235,0.07736,0.03151,0.50557,0.51628,0.26563,0.20836,0.47498,0.08441,0.30598,0.89901,0.25102,0.27434,0.90442,-0.01358,0.33063,1.41734,0.31971,0.33762,1.43357,-0.03524,0.42064,1.14247,0.39903,0.40688,1.16529,0.02427,0.56773,1.35199,0.28517,0.53387,1.35649
1122,0.14993,0.35816,1.51407,-0.02642,0.57701,0.11109,0.2502,0.08164,0.07748,0.03158,0.50434,0.51806,0.26638,0.20601,0.47559,0.08551,0.30276,0.8996,0.25211,0.27106,0.90518,-0.01138,0.32788,1.41857,0.32116,0.33492,1.43401,-0.03419,0.41808,1.14385,0.40052,0.40391,1.16568,0.02642,0.56633,1.35224,0.2868,0.53015,1.35746
1123,0.15095,0.35571,1.51483,-0.02583,0.57638,0.11283,0.25032,0.08114,0.07765,0.03177,0.50291,0.51972,0.26687,0.20394,0.47623,0.08639,0.29984,0.90037,0.253,0.26825,0.90594,-0.00969,0.32563,1.41994,0.32262,0.3323,1.43436,-0.03304,0.4157,1.14522,0.40202,0.40064,1.16588,0.02954,0.56551,1.35191,0.28836,0.52602,1.35826
1124,0.15203,0.35328,1.51543,-0.02527,0.57577,0.11449,0.25049,0.08094,0.07778,0.03232,0.50161,0.52125,0.26716,0.2022,0.47682,0.08699,0.29732,0.90125,0.25365,0.26592,0.90663,-0.00869,0.32362,1.42117,0.32416,0.32986,1.43459,-0.03185,0.41329,1.1463,0.40376,0.39705,1.16587,0.03206,0.56427,1.35173,0.29011,0.52163,1.35877
1125,0.15333,0.351,1.51567,-0.02479,0.57494,0.11613,0.25073,0.08085,0.07779,0.03318,0.50065,0.52281,0.26739,0.20073,0.47725,0.08738,0.29517,0.90224,0.25406,0.26383,0.90716,-0.00807,0.32161,1.42208,0.32567,0.32744,1.4347,-0.03069,0.41091,1.14706,0.40561,0.39333,1.16577,0.03384,0.56294,1.35151,0.29219,0.51732,1.35919
1126,0.15484,0.34888,1.51573,-0.02425,0.5735,0.11772,0.25106,0.08073,0.07777,0.03407,0.50004,0.52451,0.26762,0.19937,0.47761,0.0877,0.29321,0.90328,0.25439,0.26178,0.90762,-0.00733,0.31947,1.42269,0.32696,0.32479,1.4348,-0.02959,0.40853,1.14756,0.4072,0.38989,1.16576,0.03596,0.56221,1.35045,0.29441,0.51333,1.3599
1127,0.15639,0.34675,1.51594,-0.02353,0.57129,0.1192,0.25139,0.0806,0.0778,0.0348,0.49979,0.52633,0.26777,0.19794,0.47803,0.08815,0.29132,0.90424,0.25484,0.25985,0.90812,-0.00625,0.31704,1.42322,0.32788,0.32201,1.43497,-0.02866,0.40597,1.14805,0.40837,0.3871,1.166,0.03881,0.56202,1.34848,0.29638,0.50981,1.36107
1128,0.15778,0.34452,1.51637,-0.02268,0.56841,0.12047,0.25152,0.08055,0.07786,0.03533,0.49991,0.52817,0.26783,0.19639,0.47852,0.08873,0.28956,0.90503,0.25546,0.25831,0.90863,-0.005,0.31423,1.42391,0.32841,0.31959,1.43525,-0.02794,0.40328,1.14883,0.40915,0.38502,1.16644,0.04161,0.56189,1.34652,0.29801,0.50689,1.36251
1129,0.15899,0.34239,1.51671,-0.02182,0.56513,0.12149,0.25135,0.08059,0.07786,0.03583,0.50024,0.52983,0.2679,0.19475,0.479,0.08932,0.28811,0.90568,0.25613,0.25724,0.90904,-0.00379,0.31144,1.42476,0.32867,0.3177,1.43572,-0.02723,0.40085,1.14984,0.40964,0.38312,1.16697,0.04366,0.56162,1.3453,0.29947,0.50451,1.36389
1130,0.16008,0.34063,1.51673,-0.02107,0.5617,0.12226,0.25098,0.08063,0.07784,0.03656,0.50047,0.53116,0.26806,0.19315,0.47942,0.08987,0.28701,0.90629,0.25673,0.25642,0.90936,-0.00262,0.30937,1.42556,0.32904,0.31589,1.43638,-0.02643,0.39894,1.15072,0.40995,0.3808,1.16749,0.0449,0.56132,1.34469,0.30093,0.50221,1.36503
1131,0.16103,0.33918,1.51662,-0.02039,0.55816,0.12287,0.25066,0.08053,0.07784,0.03766,0.50045,0.53223,0.26823,0.1918,0.47975,0.09034,0.28602,0.90688,0.25723,0.25555,0.90963,-0.00142,0.30812,1.42607,0.32979,0.31376,1.43701,-0.02579,0.39734,1.15117,0.41028,0.37808,1.16786,0.04545,0.56099,1.3441,0.3024,0.49967,1.36591
1132,0.16187,0.33777,1.51676,-0.01963,0.55428,0.12341,0.25052,0.08025,0.07788,0.03903,0.50043,0.53321,0.26827,0.19081,0.47998,0.09074,0.28494,0.90739,0.25766,0.25457,0.90986,-0.00024,0.30708,1.42616,0.3308,0.31144,1.43735,-0.02561,0.39578,1.15118,0.41077,0.37551,1.16798,0.0453,0.56056,1.34326,0.30376,0.4971,1.36651
1133,0.16271,0.33619,1.51725,-0.01874,0.54982,0.12389,0.25057,0.0799,0.07794,0.04044,0.50072,0.53421,0.26825,0.19003,0.48016,0.0911,0.28389,0.90776,0.25805,0.25366,0.91007,0.00076,0.30564,1.4259,0.3317,0.30923,1.43741,-0.02583,0.39423,1.151,0.41125,0.37333,1.16793,0.04463,0.56001,1.34239,0.30496,0.49508,1.36675
1134,0.1637,0.33442,1.51788,-0.0178,0.54479,0.12426,0.25069,0.07967,0.07796,0.04179,0.50135,0.53515,0.26828,0.18918,0.48035,0.09138,0.28307,0.90801,0.25834,0.2529,0.91026,0.00152,0.30375,1.42553,0.33226,0.30714,1.43736,-0.02612,0.39274,1.15086,0.41128,0.3715,1.16778,0.04389,0.55933,1.34171,0.30611,0.49404,1.36671
1135,0.16477,0.33255,1.51845,-0.01697,0.5395,0.12451,0.25088,0.07961,0.07789,0.04317,0.50209,0.53591,0.26837,0.18818,0.48053,0.0915,0.28251,0.90816,0.25843,0.25219,0.9104,0.00215,0.30173,1.42526,0.33253,0.30518,1.43722,-0.02631,0.39116,1.15081,0.41062,0.3702,1.16753,0.0435,0.55838,1.34119,0.30722,0.49405,1.36657
1136,0.16571,0.33072,1.51892,-0.01637,0.53425,0.12463,0.25118,0.0796,0.07775,0.04467,0.50276,0.5364,0.26838,0.18728,0.48065,0.09141,0.28198,0.90815,0.25831,0.25149,0.91048,0.00277,0.30002,1.42514,0.33277,0.30356,1.43691,-0.02657,0.38936,1.15076,0.40958,0.36967,1.16711,0.04345,0.55701,1.34068,0.30802,0.49473,1.36634
1137,0.16632,0.32911,1.5193,-0.01603,0.52922,0.12462,0.25148,0.07947,0.07763,0.04622,0.5032,0.53659,0.26822,0.18675,0.48065,0.09124,0.28134,0.9079,0.25814,0.25087,0.9105,0.00335,0.29893,1.42514,0.33314,0.30239,1.4364,-0.02719,0.38739,1.1506,0.40877,0.36968,1.16657,0.0432,0.55524,1.34021,0.30835,0.49543,1.36595
1138,0.16663,0.32777,1.51966,-0.01586,0.52448,0.12445,0.25152,0.07925,0.07752,0.04768,0.50325,0.5365,0.26796,0.18658,0.48054,0.09121,0.28065,0.90755,0.25813,0.25033,0.91045,0.00374,0.29857,1.42521,0.33363,0.30154,1.43587,-0.02818,0.38548,1.15033,0.40851,0.36958,1.16601,0.0421,0.55325,1.34005,0.30842,0.49573,1.3653
1139,0.16676,0.32656,1.52006,-0.01575,0.51993,0.12414,0.25122,0.07912,0.07739,0.04906,0.50311,0.53619,0.26777,0.18651,0.4804,0.09139,0.28023,0.90721,0.2583,0.24988,0.91037,0.00393,0.29887,1.42532,0.33405,0.30069,1.43553,-0.02915,0.38399,1.15003,0.40854,0.36867,1.16555,0.04047,0.55142,1.34028,0.30868,0.49572,1.36438
1140,0.16692,0.32537,1.52041,-0.01565,0.51537,0.12374,0.25083,0.07918,0.0773,0.05051,0.50321,0.53575,0.26774,0.18634,0.48035,0.09167,0.28039,0.90693,0.2585,0.24958,0.91035,0.00398,0.29955,1.42539,0.33419,0.29955,1.43557,-0.02974,0.38311,1.14969,0.40837,0.3667,1.16529,0.03963,0.55012,1.34042,0.30928,0.49587,1.36314
1141,0.16727,0.3244,1.52041,-0.01553,0.51064,0.12323,0.25062,0.07925,0.07728,0.052,0.50369,0.53513,0.2679,0.18611,0.4804,0.09192,0.28108,0.90659,0.25859,0.24952,0.91036,0.00395,0.30016,1.42526,0.33402,0.29824,1.43585,-0.02991,0.38273,1.14929,0.40793,0.36425,1.16522,0.04017,0.54935,1.3401,0.30989,0.49642,1.36161
1142,0.16775,0.324,1.51977,-0.01543,0.50577,0.12246,0.25069,0.07913,0.0773,0.05334,0.50413,0.53421,0.26826,0.18597,0.48041,0.09213,0.282,0.90606,0.25862,0.24953,0.91035,0.00384,0.30033,1.42496,0.33365,0.29714,1.43596,-0.0299,0.38254,1.14887,0.40757,0.36237,1.16514,0.04075,0.54862,1.33993,0.30994,0.49716,1.35994
1143,0.16812,0.32428,1.5187,-0.01537,0.501,0.12133,0.25102,0.07883,0.07728,0.05439,0.50403,0.5329,0.26877,0.18597,0.4803,0.09234,0.28282,0.90539,0.25863,0.24941,0.91025,0.00366,0.30009,1.42468,0.33328,0.29643,1.43552,-0.02987,0.3824,1.14858,0.40744,0.36156,1.16475,0.03973,0.54737,1.34099,0.30932,0.49766,1.35839
1144,0.16812,0.32486,1.51783,-0.01526,0.49668,0.1199,0.25153,0.07857,0.07719,0.05523,0.50319,0.53131,0.26932,0.18609,0.4801,0.09253,0.28346,0.90474,0.25862,0.24916,0.91009,0.00347,0.29971,1.42451,0.33303,0.29614,1.43462,-0.02979,0.38242,1.14851,0.40718,0.36147,1.16389,0.0373,0.54551,1.34338,0.30844,0.49777,1.35707
1145,0.16766,0.32535,1.51748,-0.01504,0.49306,0.11829,0.25196,0.07848,0.07701,0.0559,0.50178,0.52958,0.26971,0.18631,0.47984,0.09264,0.28408,0.90426,0.25856,0.24902,0.90987,0.00327,0.29947,1.42441,0.33289,0.29633,1.43366,-0.0297,0.38277,1.14854,0.40641,0.36155,1.16274,0.03525,0.54349,1.3461,0.30772,0.49778,1.356
1146,0.16683,0.32565,1.51744,-0.01473,0.49027,0.11651,0.25207,0.07859,0.07674,0.05636,0.50007,0.52775,0.26983,0.18667,0.47951,0.09267,0.28493,0.90394,0.25848,0.24937,0.90953,0.00301,0.2995,1.42424,0.33278,0.29706,1.4329,-0.02973,0.38345,1.14855,0.40532,0.36178,1.1616,0.03494,0.5419,1.34803,0.30714,0.49804,1.35509
1147,0.16578,0.32592,1.51738,-0.01443,0.48818,0.11447,0.25188,0.07884,0.07645,0.05656,0.49824,0.52573,0.26967,0.18726,0.47912,0.09269,0.28619,0.90369,0.25847,0.25043,0.90908,0.00271,0.2998,1.424,0.33286,0.29817,1.43233,-0.02999,0.38432,1.14847,0.40445,0.36234,1.16064,0.03636,0.541,1.34879,0.30633,0.49862,1.35416
1148,0.1646,0.32623,1.51725,-0.01421,0.48654,0.11216,0.25164,0.07913,0.07625,0.05659,0.49628,0.52346,0.26935,0.18817,0.47876,0.09277,0.2878,0.9034,0.25855,0.25205,0.90863,0.00236,0.30041,1.42379,0.33328,0.2994,1.4319,-0.03047,0.38535,1.14841,0.40409,0.36311,1.1599,0.03878,0.54064,1.34883,0.30504,0.4992,1.35307
1149,0.16338,0.32654,1.51717,-0.0142,0.48515,0.10974,0.25153,0.07934,0.07625,0.05661,0.49427,0.52105,0.26899,0.18938,0.4785,0.09285,0.28951,0.903,0.25863,0.25373,0.90831,0.00191,0.30141,1.42376,0.33376,0.30042,1.43161,-0.03114,0.38678,1.14854,0.40396,0.3638,1.15937,0.04145,0.54048,1.349,0.30338,0.49949,1.35203
1150,0.16224,0.32685,1.51719,-0.01448,0.48408,0.10748,0.2516,0.07937,0.07641,0.05683,0.49247,0.51872,0.26864,0.19072,0.47832,0.09279,0.29106,0.90247,0.25852,0.2551,0.90813,0.00129,0.30275,1.42381,0.33377,0.30109,1.43142,-0.03192,0.38868,1.14878,0.40357,0.36436,1.15906,0.04377,0.54017,1.34978,0.30167,0.49948,1.35143
1151,0.16127,0.32733,1.51716,-0.01497,0.48343,0.10549,0.25177,0.07926,0.0766,0.05729,0.49108,0.51658,0.26834,0.19203,0.47813,0.09254,0.29251,0.90187,0.25817,0.25618,0.90797,0.00042,0.30425,1.42367,0.33313,0.30147,1.43129,-0.03267,0.39086,1.14884,0.4028,0.36502,1.15895,0.0452,0.53969,1.35099,0.30019,0.49929,1.35154
1152,0.16046,0.32822,1.51696,-0.01554,0.48309,0.10366,0.25191,0.07917,0.07672,0.05782,0.49,0.51456,0.26821,0.19333,0.47787,0.09219,0.29416,0.90133,0.25769,0.2573,0.90773,-0.00076,0.30573,1.4233,0.33201,0.30175,1.43119,-0.03326,0.39309,1.14864,0.4018,0.36591,1.15902,0.0455,0.53935,1.35231,0.29901,0.49913,1.35224
1153,0.15973,0.32954,1.51656,-0.01608,0.48275,0.10183,0.2519,0.07922,0.07677,0.05815,0.48902,0.51258,0.2682,0.19467,0.47755,0.09183,0.29621,0.90093,0.25719,0.25872,0.90738,-0.00212,0.30716,1.42293,0.33073,0.302,1.43118,-0.03368,0.39529,1.1484,0.40075,0.36695,1.15927,0.04522,0.5397,1.35334,0.29806,0.49924,1.35317
1154,0.15898,0.3311,1.51601,-0.01657,0.48207,0.09997,0.25175,0.07951,0.07682,0.05815,0.48806,0.51065,0.26808,0.19608,0.47727,0.09145,0.29858,0.90066,0.25668,0.26052,0.90704,-0.00328,0.30852,1.42271,0.32942,0.30233,1.43127,-0.03405,0.39747,1.14835,0.39981,0.36802,1.15963,0.04542,0.54108,1.35363,0.29725,0.49976,1.35398
1155,0.15824,0.33277,1.51536,-0.017,0.48099,0.09818,0.25157,0.08005,0.0769,0.05789,0.48718,0.50882,0.2677,0.1976,0.47707,0.09094,0.30099,0.90044,0.2561,0.2626,0.90675,-0.00403,0.30976,1.42252,0.32809,0.30299,1.43127,-0.0345,0.39978,1.14849,0.39911,0.36929,1.15994,0.04649,0.54315,1.35334,0.29662,0.50063,1.3546
1156,0.15755,0.33457,1.51468,-0.01745,0.47973,0.0965,0.25142,0.08064,0.07698,0.05756,0.48639,0.50711,0.26717,0.19924,0.47686,0.09029,0.30327,0.9002,0.2554,0.26467,0.90647,-0.0046,0.31103,1.42226,0.32668,0.30396,1.43106,-0.03507,0.40265,1.14875,0.39857,0.37103,1.16015,0.04785,0.54526,1.35336,0.29625,0.5018,1.35528
1157,0.15683,0.33653,1.51399,-0.01801,0.47854,0.09488,0.25133,0.08104,0.07708,0.05726,0.48561,0.50543,0.26673,0.20096,0.47658,0.08955,0.30545,0.89992,0.25459,0.26655,0.90615,-0.00547,0.31271,1.42203,0.32521,0.30496,1.43081,-0.03577,0.40635,1.14919,0.39801,0.37325,1.16045,0.04886,0.54718,1.35433,0.29605,0.50338,1.35619
1158,0.15594,0.33858,1.51329,-0.01863,0.47759,0.09328,0.25137,0.08125,0.07725,0.05681,0.48465,0.5038,0.26648,0.20278,0.47627,0.08873,0.3075,0.89969,0.25371,0.26833,0.90583,-0.00671,0.31493,1.42205,0.32368,0.30584,1.43068,-0.03665,0.41057,1.14987,0.3974,0.37582,1.161,0.04924,0.54922,1.35597,0.29571,0.50547,1.35721
1159,0.15481,0.3405,1.51261,-0.01918,0.47695,0.09167,0.25155,0.0815,0.07756,0.05588,0.48331,0.50227,0.26634,0.20476,0.47606,0.08778,0.30929,0.89955,0.25277,0.27015,0.90562,-0.00801,0.31728,1.42224,0.32205,0.30689,1.43062,-0.03779,0.41469,1.15067,0.39687,0.37862,1.1617,0.04878,0.55171,1.35757,0.29505,0.5078,1.35815
1160,0.15344,0.34217,1.51203,-0.01958,0.47658,0.09004,0.25178,0.08198,0.07805,0.05428,0.48158,0.50088,0.26619,0.20698,0.47603,0.0867,0.31084,0.89953,0.25179,0.27211,0.9056,-0.00918,0.31918,1.42216,0.32039,0.30836,1.43054,-0.03907,0.41845,1.15127,0.39643,0.38145,1.16233,0.04744,0.55466,1.35873,0.29426,0.50992,1.35906
1161,0.1519,0.34372,1.5116,-0.01971,0.47634,0.0884,0.25193,0.08268,0.07867,0.05227,0.47967,0.49959,0.26591,0.2094,0.47612,0.08557,0.31242,0.89964,0.2508,0.27429,0.9057,-0.01039,0.32047,1.42151,0.31887,0.31012,1.43047,-0.0402,0.42209,1.15148,0.39589,0.38425,1.16283,0.04568,0.55784,1.35951,0.2936,0.51178,1.36011
1162,0.15035,0.34544,1.51117,-0.01946,0.47615,0.08683,0.25193,0.08336,0.07929,0.05036,0.47794,0.4984,0.26551,0.21191,0.47617,0.0844,0.3143,0.89988,0.24977,0.27676,0.90573,-0.012,0.32159,1.42052,0.31751,0.31182,1.43051,-0.04098,0.42596,1.15145,0.39509,0.38715,1.16337,0.04429,0.5612,1.36006,0.29298,0.51375,1.36134
1163,0.1489,0.34747,1.51059,-0.01886,0.47598,0.08542,0.25186,0.08379,0.07985,0.04895,0.47667,0.49733,0.2651,0.21439,0.47607,0.08319,0.31647,0.90018,0.24868,0.27942,0.90558,-0.01409,0.32311,1.41967,0.31616,0.31337,1.43077,-0.04152,0.43017,1.1515,0.39408,0.39019,1.16415,0.04371,0.56495,1.36043,0.29218,0.51611,1.36266
1164,0.14755,0.34968,1.50987,-0.0181,0.47578,0.08418,0.25184,0.08396,0.08035,0.04803,0.47592,0.49637,0.26477,0.2168,0.47583,0.08196,0.31874,0.90043,0.24754,0.282,0.90529,-0.01632,0.3253,1.41929,0.31459,0.31494,1.43122,-0.04219,0.4345,1.15183,0.39301,0.39325,1.16518,0.0436,0.56909,1.36065,0.29124,0.51874,1.36404
1165,0.1461,0.35195,1.5092,-0.01737,0.47548,0.08308,0.25187,0.084,0.08084,0.04727,0.47559,0.49551,0.26452,0.2193,0.4755,0.08077,0.32091,0.90057,0.24639,0.28427,0.90495,-0.0183,0.32813,1.41931,0.31279,0.31675,1.4317,-0.04332,0.43859,1.15229,0.39197,0.39651,1.16632,0.04312,0.57313,1.36086,0.29023,0.52152,1.36549
1166,0.14435,0.35433,1.50873,-0.01682,0.47508,0.08213,0.25192,0.08409,0.0814,0.04641,0.47552,0.49477,0.26426,0.22199,0.47516,0.07957,0.32286,0.90063,0.24523,0.28638,0.90467,-0.02003,0.33138,1.41952,0.31091,0.31892,1.43214,-0.04495,0.44217,1.15263,0.39087,0.40025,1.16747,0.04159,0.5766,1.36124,0.28894,0.52446,1.36704
1167,0.1422,0.35697,1.50847,-0.01654,0.47464,0.08138,0.25199,0.08453,0.08202,0.04543,0.47553,0.49421,0.26393,0.22477,0.47497,0.0783,0.32464,0.90075,0.24404,0.28852,0.90453,-0.02175,0.33468,1.41975,0.30901,0.32149,1.43268,-0.04688,0.44538,1.15284,0.38959,0.40444,1.1687,0.03929,0.57946,1.36183,0.2872,0.52752,1.36874
1168,0.13976,0.35989,1.50828,-0.01663,0.47416,0.08086,0.252,0.08551,0.08267,0.04442,0.47548,0.49382,0.26347,0.22758,0.47497,0.07694,0.32636,0.90105,0.24279,0.29069,0.90459,-0.02355,0.33772,1.41994,0.307,0.32436,1.43335,-0.04888,0.44863,1.15313,0.38817,0.40895,1.17007,0.03712,0.58202,1.36263,0.28525,0.53055,1.37074
1169,0.13716,0.36301,1.50798,-0.01704,0.47375,0.08048,0.25189,0.08693,0.08335,0.04344,0.47537,0.49353,0.26287,0.23063,0.47508,0.07546,0.32807,0.90146,0.24141,0.29287,0.90479,-0.02534,0.34031,1.42003,0.30482,0.3274,1.43403,-0.05068,0.45217,1.15363,0.38675,0.41376,1.17156,0.03551,0.58449,1.36372,0.2833,0.53345,1.3731
1170,0.13445,0.36633,1.50756,-0.01749,0.47361,0.08024,0.2517,0.08846,0.08417,0.04246,0.47536,0.49337,0.26218,0.23413,0.47517,0.07385,0.32971,0.90193,0.23994,0.29514,0.90502,-0.02716,0.34264,1.42006,0.30249,0.33046,1.43461,-0.05219,0.45584,1.15419,0.38545,0.4188,1.17312,0.03403,0.58679,1.36513,0.28124,0.53622,1.37561
1171,0.13165,0.3698,1.50717,-0.01777,0.47383,0.0802,0.25153,0.08983,0.08519,0.0415,0.47562,0.49342,0.26148,0.23803,0.47526,0.07223,0.33126,0.90249,0.2385,0.29752,0.90528,-0.02918,0.3451,1.42015,0.30003,0.33346,1.4351,-0.05357,0.45932,1.15466,0.38422,0.42375,1.17468,0.03216,0.58886,1.36667,0.27888,0.53893,1.37787
1172,0.12878,0.37329,1.50704,-0.01791,0.47426,0.08039,0.25141,0.09103,0.08643,0.0405,0.47621,0.49373,0.26078,0.24208,0.47542,0.07069,0.33279,0.90318,0.23713,0.2999,0.90562,-0.03145,0.3479,1.42049,0.29761,0.33646,1.43562,-0.05505,0.46259,1.15513,0.38293,0.42835,1.17613,0.03013,0.59087,1.36813,0.27633,0.54166,1.37971
1173,0.12598,0.3768,1.50713,-0.01815,0.47472,0.08071,0.25132,0.09213,0.08782,0.03933,0.47702,0.49419,0.26002,0.24623,0.47563,0.06915,0.33436,0.90392,0.23574,0.30221,0.90605,-0.03382,0.35095,1.4211,0.29542,0.33963,1.43626,-0.05665,0.46581,1.15574,0.38149,0.43269,1.17744,0.02857,0.593,1.36937,0.27378,0.54447,1.38128
1174,0.12354,0.3804,1.50722,-0.01857,0.47511,0.08097,0.25131,0.09319,0.08935,0.03792,0.47777,0.49458,0.25921,0.25067,0.47582,0.06749,0.33592,0.90462,0.2342,0.30438,0.90648,-0.03616,0.354,1.42178,0.29337,0.34305,1.43699,-0.05831,0.46904,1.15645,0.37989,0.43707,1.17866,0.02776,0.59526,1.37031,0.27115,0.54731,1.3828
1175,0.12155,0.3841,1.50716,-0.01898,0.47532,0.08101,0.2515,0.09423,0.09103,0.03638,0.47814,0.49477,0.25845,0.25558,0.47591,0.06572,0.33737,0.9052,0.23253,0.30634,0.90688,-0.03845,0.35683,1.4223,0.29121,0.34653,1.43759,-0.05996,0.4721,1.15701,0.37805,0.44162,1.17976,0.02732,0.59742,1.37091,0.26822,0.55001,1.3843
1176,0.11971,0.38786,1.50702,-0.01916,0.4753,0.08083,0.25186,0.09531,0.09285,0.03489,0.4779,0.49477,0.25795,0.26094,0.47593,0.06394,0.33874,0.90577,0.23082,0.30812,0.90723,-0.0407,0.35936,1.42259,0.28896,0.34981,1.43796,-0.06145,0.47484,1.15733,0.37592,0.44614,1.18063,0.02656,0.59934,1.37141,0.26502,0.55247,1.38567
1177,0.11768,0.39167,1.50688,-0.01914,0.4751,0.08063,0.25221,0.09652,0.09482,0.03342,0.47711,0.49476,0.25782,0.26654,0.47598,0.06218,0.34018,0.90652,0.22916,0.31006,0.90757,-0.04292,0.36167,1.42283,0.28683,0.35299,1.43824,-0.06253,0.4775,1.15764,0.37355,0.45045,1.18126,0.02524,0.60138,1.37218,0.26181,0.55486,1.38683
1178,0.11549,0.39547,1.50678,-0.01901,0.47487,0.08056,0.25253,0.09791,0.09693,0.03179,0.47608,0.49491,0.25792,0.27227,0.47612,0.06036,0.34166,0.90751,0.2275,0.31245,0.90791,-0.04498,0.36386,1.42329,0.28486,0.35635,1.43862,-0.06309,0.48035,1.15829,0.37104,0.45469,1.18179,0.02374,0.6041,1.37328,0.25864,0.55756,1.38778
1179,0.11342,0.39918,1.50674,-0.01881,0.47473,0.08059,0.25303,0.09935,0.09915,0.02995,0.47508,0.49519,0.25794,0.27804,0.47632,0.05841,0.34301,0.90856,0.22578,0.31511,0.90826,-0.04661,0.36595,1.424,0.28285,0.35993,1.43912,-0.06334,0.48331,1.15928,0.36852,0.45907,1.18242,0.02252,0.60745,1.37445,0.25537,0.56086,1.38854
1180,0.11149,0.40279,1.5068,-0.01868,0.47479,0.08055,0.25389,0.10069,0.10149,0.02817,0.47421,0.49537,0.25782,0.28385,0.47653,0.05639,0.34413,0.90939,0.22397,0.31759,0.90862,-0.04782,0.36804,1.42467,0.28066,0.36349,1.43964,-0.06369,0.48606,1.16019,0.36595,0.46372,1.18325,0.02153,0.61056,1.3754,0.25191,0.56481,1.38922
1181,0.1094,0.4063,1.50697,-0.0188,0.47496,0.08037,0.25499,0.10205,0.104,0.02671,0.47355,0.49534,0.25765,0.28974,0.4768,0.05443,0.34509,0.90989,0.22218,0.31958,0.90905,-0.04915,0.37024,1.42496,0.2783,0.36682,1.44009,-0.06449,0.48859,1.1606,0.36319,0.4687,1.18421,0.02029,0.61269,1.37622,0.24825,0.56916,1.38999
1182,0.10685,0.40966,1.50718,-0.01909,0.47508,0.08012,0.25611,0.10368,0.10669,0.02558,0.47316,0.49518,0.25756,0.29591,0.47718,0.05264,0.34597,0.91017,0.22049,0.32116,0.90958,-0.05121,0.37265,1.42476,0.27585,0.36983,1.44055,-0.06583,0.49121,1.16045,0.36018,0.47371,1.18529,0.01829,0.61405,1.37704,0.24425,0.5736,1.39079
1183,0.10392,0.41286,1.50732,-0.01931,0.47509,0.07991,0.25719,0.10569,0.10957,0.02457,0.47298,0.49505,0.2576,0.30248,0.47766,0.05103,0.3468,0.91038,0.21898,0.32264,0.91019,-0.05401,0.37539,1.4243,0.27344,0.37245,1.4412,-0.0676,0.49399,1.15995,0.35706,0.47829,1.18651,0.01555,0.61548,1.37768,0.23963,0.57799,1.39125
1184,0.10105,0.41598,1.50726,-0.01939,0.47505,0.07977,0.25823,0.10802,0.11256,0.02353,0.47279,0.49501,0.25784,0.30934,0.47819,0.04957,0.34766,0.91069,0.21761,0.32418,0.91079,-0.0569,0.37844,1.42396,0.27129,0.37483,1.44189,-0.06946,0.49682,1.15947,0.35402,0.48248,1.18768,0.01279,0.6177,1.37788,0.23463,0.5823,1.39122
1185,0.09852,0.41922,1.50696,-0.01951,0.47499,0.07965,0.25918,0.11057,0.1155,0.02252,0.47239,0.49497,0.25827,0.3162,0.47872,0.04813,0.34869,0.91111,0.21625,0.32578,0.9113,-0.05928,0.38153,1.42395,0.26947,0.37746,1.44219,-0.07095,0.49985,1.15939,0.35118,0.48696,1.18844,0.01081,0.62102,1.37783,0.23009,0.58651,1.3911
1186,0.0962,0.42261,1.50649,-0.01981,0.47489,0.07948,0.25997,0.11329,0.11823,0.02164,0.47193,0.49486,0.25882,0.32284,0.47921,0.04651,0.34993,0.91154,0.21469,0.32748,0.91166,-0.06116,0.38449,1.42425,0.26774,0.38066,1.44203,-0.07187,0.5034,1.15992,0.34861,0.4919,1.18876,0.00968,0.62532,1.378,0.22665,0.59064,1.39131
1187,0.0939,0.42595,1.50599,-0.02014,0.47481,0.0793,0.26064,0.11611,0.1207,0.0208,0.47177,0.49473,0.25953,0.32921,0.47959,0.04457,0.35128,0.91191,0.21281,0.32928,0.91179,-0.06299,0.3874,1.42466,0.26589,0.3841,1.44192,-0.07252,0.50741,1.16078,0.34627,0.49657,1.18904,0.00886,0.62999,1.37856,0.2241,0.59478,1.39172
1188,0.09148,0.42905,1.50562,-0.0203,0.47486,0.07919,0.26121,0.11894,0.12295,0.0198,0.47209,0.49471,0.2605,0.33524,0.47992,0.04236,0.35257,0.91223,0.21067,0.33108,0.91176,-0.06506,0.39039,1.42499,0.26389,0.38718,1.44232,-0.07342,0.51136,1.1615,0.34397,0.50025,1.18961,0.00765,0.63417,1.37927,0.22177,0.59893,1.39204
1189,0.08902,0.43184,1.50542,-0.02024,0.47491,0.07912,0.26165,0.12174,0.12516,0.01856,0.47267,0.49477,0.26166,0.34094,0.48037,0.04014,0.35366,0.91249,0.20852,0.33271,0.91175,-0.06714,0.39317,1.42509,0.26181,0.38972,1.44307,-0.0748,0.5147,1.16184,0.34166,0.50309,1.19042,0.00561,0.63751,1.37986,0.2193,0.60289,1.3922
1190,0.08668,0.43438,1.50529,-0.02011,0.4748,0.07898,0.26204,0.12451,0.12748,0.01723,0.4731,0.49476,0.26282,0.34641,0.48101,0.03817,0.35453,0.91265,0.20661,0.33409,0.9119,-0.06892,0.39523,1.42493,0.25973,0.39204,1.44372,-0.07649,0.51731,1.16193,0.33933,0.50575,1.19115,0.00286,0.6405,1.38012,0.21672,0.60646,1.39233
1191,0.08447,0.43679,1.5051,-0.02001,0.4746,0.07871,0.26257,0.12718,0.12988,0.01605,0.4731,0.49461,0.26388,0.35178,0.48169,0.03656,0.35516,0.91269,0.20506,0.33527,0.9121,-0.07049,0.39654,1.42446,0.25776,0.39453,1.444,-0.07823,0.51973,1.16199,0.33677,0.50889,1.19154,-3e-05,0.64374,1.38012,0.2141,0.60973,1.39262
1192,0.08232,0.43922,1.50477,-0.01996,0.47456,0.07837,0.26337,0.12972,0.13222,0.01511,0.47268,0.49434,0.26498,0.35717,0.48219,0.03524,0.35561,0.91269,0.20381,0.33632,0.91208,-0.07217,0.39765,1.42371,0.25602,0.39737,1.4438,-0.0799,0.52256,1.16206,0.33365,0.51296,1.19146,-0.00259,0.6474,1.38004,0.21137,0.61293,1.39321
1193,0.08032,0.44174,1.50435,-0.02003,0.47472,0.07808,0.26425,0.13229,0.13439,0.01433,0.47211,0.49411,0.26621,0.36258,0.48249,0.03407,0.35598,0.91274,0.2027,0.33724,0.9118,-0.07412,0.39924,1.42291,0.25452,0.40056,1.44311,-0.08159,0.52593,1.1621,0.33003,0.51794,1.19096,-0.00462,0.65133,1.37988,0.20867,0.61615,1.39412
1194,0.07866,0.4444,1.50389,-0.02028,0.47485,0.07792,0.26487,0.13508,0.13644,0.01344,0.47172,0.494,0.26755,0.36795,0.48282,0.03288,0.35643,0.91287,0.20154,0.33802,0.91145,-0.0762,0.40139,1.4223,0.25314,0.40393,1.44205,-0.08338,0.52956,1.1622,0.32649,0.52342,1.19025,-0.00587,0.6552,1.37965,0.20641,0.61918,1.39534
1195,0.07722,0.44717,1.50341,-0.0207,0.47479,0.07785,0.26515,0.13804,0.1385,0.01237,0.47169,0.49399,0.26893,0.37317,0.48335,0.0316,0.35703,0.91304,0.20027,0.33873,0.91123,-0.07827,0.40385,1.42189,0.25164,0.40731,1.44097,-0.08524,0.53309,1.16232,0.32357,0.5287,1.18968,-0.00646,0.65834,1.37954,0.20489,0.62177,1.3968
1196,0.07568,0.44999,1.50292,-0.02118,0.47465,0.07782,0.26528,0.14098,0.14071,0.01133,0.47208,0.49401,0.27015,0.37818,0.48412,0.0303,0.35769,0.91315,0.19899,0.3395,0.91123,-0.0803,0.40658,1.42147,0.24984,0.41072,1.44031,-0.08709,0.53631,1.16214,0.32121,0.53326,1.18941,-0.00727,0.66015,1.37979,0.20385,0.62388,1.39837
1197,0.07391,0.45269,1.50247,-0.02163,0.47456,0.07781,0.26548,0.14382,0.14308,0.01054,0.4728,0.49402,0.27104,0.38303,0.48508,0.02903,0.35824,0.91314,0.19775,0.34033,0.91145,-0.08219,0.40968,1.42089,0.24772,0.41421,1.44013,-0.08878,0.5394,1.16156,0.3189,0.53712,1.18936,-0.00899,0.66092,1.38052,0.20284,0.62568,1.39992
1198,0.07196,0.45504,1.50211,-0.02199,0.47452,0.07783,0.26588,0.14655,0.14552,0.00999,0.47353,0.49406,0.27152,0.38772,0.48614,0.02775,0.35846,0.91306,0.19652,0.34098,0.91178,-0.08379,0.41281,1.42023,0.24543,0.41751,1.44013,-0.09021,0.54281,1.16103,0.31624,0.54059,1.18934,-0.01126,0.66173,1.38171,0.20169,0.62739,1.40145
1199,0.06988,0.45695,1.50178,-0.02212,0.47439,0.07784,0.2665,0.14908,0.14783,0.00944,0.47383,0.4941,0.2718,0.3921,0.48714,0.0265,0.35823,0.91299,0.19531,0.3412,0.91204,-0.08512,0.41541,1.41962,0.24323,0.42011,1.44013,-0.09134,0.54669,1.16105,0.31327,0.54375,1.1894,-0.01329,0.6633,1.38328,0.20041,0.62918,1.40297
1200,0.06784,0.45872,1.50139,-0.02201,0.47409,0.07775,0.26731,0.15124,0.14986,0.00872,0.47341,0.49407,0.27226,0.39601,0.48791,0.02537,0.35771,0.91295,0.19423,0.34107,0.91203,-0.08632,0.41734,1.41915,0.24141,0.42192,1.44022,-0.09219,0.55062,1.16161,0.31035,0.54659,1.18969,-0.01471,0.6654,1.38499,0.19891,0.63105,1.40439
1201,0.06622,0.46072,1.50094,-0.02183,0.47366,0.07756,0.26826,0.15304,0.15165,0.0079,0.47244,0.49396,0.27318,0.39947,0.4885,0.02443,0.3573,0.913,0.19332,0.34099,0.9118,-0.08742,0.41896,1.41885,0.24021,0.42337,1.44051,-0.09283,0.55412,1.16228,0.30784,0.54928,1.19024,-0.01585,0.66732,1.38664,0.19716,0.63279,1.4057
1202,0.06523,0.46296,1.50049,-0.02171,0.47326,0.07742,0.26928,0.15474,0.15341,0.00718,0.4715,0.49387,0.27454,0.40271,0.48912,0.02361,0.35733,0.91318,0.19252,0.34133,0.91159,-0.08839,0.42068,1.41871,0.23949,0.42496,1.4409,-0.09349,0.55714,1.16282,0.30589,0.5521,1.19093,-0.01739,0.66878,1.38826,0.19535,0.6342,1.40701
1203,0.06458,0.46513,1.50012,-0.02159,0.47302,0.07742,0.27038,0.15666,0.15522,0.00667,0.47107,0.49391,0.27606,0.40592,0.48997,0.02277,0.35786,0.9135,0.19169,0.34203,0.91161,-0.08922,0.42257,1.41881,0.23881,0.42682,1.44129,-0.09459,0.56005,1.16347,0.30446,0.55501,1.19166,-0.01936,0.66993,1.39006,0.19386,0.63522,1.40842
1204,0.06395,0.46693,1.49987,-0.02146,0.473,0.07753,0.27155,0.15891,0.15701,0.00631,0.47129,0.49406,0.27747,0.40912,0.49104,0.02191,0.3587,0.91383,0.19082,0.34274,0.91184,-0.08997,0.42445,1.41915,0.23792,0.4288,1.4417,-0.09626,0.56314,1.16448,0.30329,0.5578,1.19241,-0.02114,0.67093,1.39211,0.19282,0.63606,1.40994
1205,0.06322,0.46841,1.49971,-0.02141,0.47317,0.07768,0.27264,0.16127,0.1586,0.00591,0.47193,0.49424,0.27864,0.41211,0.49216,0.02113,0.35955,0.91407,0.19001,0.34322,0.91214,-0.09077,0.42623,1.41961,0.23696,0.4307,1.44211,-0.09797,0.56632,1.16574,0.30196,0.56045,1.19311,-0.02228,0.67177,1.39428,0.19189,0.63694,1.41148
1206,0.06242,0.46975,1.49964,-0.02147,0.4735,0.07778,0.27347,0.16337,0.15987,0.00537,0.47262,0.49438,0.27959,0.4146,0.49313,0.02056,0.36014,0.91419,0.1894,0.34348,0.91241,-0.09166,0.42795,1.41998,0.23617,0.43228,1.44244,-0.09899,0.56926,1.16679,0.30031,0.56309,1.19378,-0.023,0.67252,1.39623,0.19074,0.63795,1.41295
1207,0.0616,0.471,1.49964,-0.02152,0.47391,0.0778,0.27407,0.16494,0.16081,0.00477,0.47296,0.49442,0.28044,0.41642,0.49388,0.02024,0.36046,0.91422,0.18907,0.34365,0.91262,-0.09254,0.4296,1.42008,0.23562,0.43331,1.44265,-0.09901,0.57183,1.16739,0.29871,0.56567,1.19453,-0.02368,0.67349,1.39775,0.18939,0.63901,1.41435
1208,0.06081,0.47206,1.49974,-0.0215,0.47417,0.07772,0.27458,0.16586,0.16154,0.00432,0.47285,0.49437,0.28127,0.41755,0.49444,0.02009,0.36068,0.91425,0.18892,0.3438,0.91279,-0.09324,0.431,1.41983,0.23522,0.43377,1.44283,-0.09825,0.57425,1.16767,0.29758,0.56795,1.19551,-0.02442,0.67473,1.39904,0.18813,0.63998,1.4157
1209,0.06009,0.47281,1.49996,-0.02145,0.47412,0.07767,0.27501,0.16618,0.16212,0.00416,0.47261,0.49434,0.28206,0.41805,0.49488,0.01995,0.36096,0.91435,0.18877,0.34404,0.91297,-0.09368,0.43197,1.41925,0.2348,0.43391,1.44311,-0.09725,0.57678,1.16796,0.29693,0.56979,1.19666,-0.02505,0.67597,1.4004,0.18717,0.64083,1.41701
1210,0.05958,0.47326,1.50028,-0.02146,0.47377,0.07781,0.27525,0.16614,0.16253,0.0042,0.4726,0.49448,0.28265,0.41803,0.49527,0.01965,0.36134,0.91461,0.18849,0.3445,0.91325,-0.09385,0.43242,1.41855,0.2343,0.4341,1.44357,-0.09646,0.57939,1.16851,0.2966,0.57124,1.19786,-0.02536,0.67705,1.40193,0.18648,0.6418,1.41819
1211,0.05932,0.47345,1.50065,-0.0215,0.47332,0.07812,0.27533,0.16598,0.1627,0.00424,0.47292,0.49478,0.28294,0.41763,0.49562,0.01925,0.36193,0.915,0.18811,0.34528,0.91365,-0.09389,0.43253,1.41801,0.23378,0.43448,1.44415,-0.096,0.58181,1.16934,0.29656,0.57247,1.19905,-0.0252,0.67815,1.4034,0.18575,0.64306,1.41902
1212,0.0592,0.47346,1.50111,-0.02149,0.47297,0.07838,0.27551,0.16577,0.1626,0.00423,0.47341,0.49504,0.28289,0.41692,0.49589,0.01892,0.36286,0.91538,0.18777,0.34623,0.91415,-0.09395,0.43271,1.41787,0.23333,0.43489,1.44465,-0.09571,0.58373,1.17024,0.29674,0.57362,1.20013,-0.02456,0.67947,1.40444,0.18475,0.64437,1.41945
1213,0.05909,0.47341,1.50168,-0.02133,0.47285,0.07844,0.27597,0.16542,0.1622,0.00428,0.47386,0.49511,0.28252,0.41584,0.49606,0.01881,0.36401,0.91564,0.18763,0.34707,0.91469,-0.09412,0.43338,1.41823,0.23309,0.43515,1.44498,-0.09543,0.585,1.17096,0.29694,0.57464,1.201,-0.02364,0.68097,1.40487,0.18359,0.64528,1.41966
1214,0.05904,0.47341,1.50226,-0.021,0.47304,0.07839,0.27656,0.16485,0.16153,0.00449,0.47414,0.49506,0.28188,0.4144,0.49607,0.01893,0.36508,0.9158,0.18771,0.34768,0.91519,-0.09436,0.43454,1.4189,0.23313,0.43522,1.44526,-0.09503,0.58583,1.17143,0.29702,0.5754,1.20169,-0.02269,0.68239,1.40493,0.18251,0.64565,1.41987
1215,0.05916,0.4734,1.50273,-0.02064,0.47337,0.07836,0.277,0.16399,0.16063,0.00478,0.47417,0.49504,0.28113,0.41267,0.49584,0.01917,0.36584,0.91597,0.18791,0.34811,0.91551,-0.09465,0.43582,1.41957,0.23333,0.43516,1.44564,-0.09448,0.58669,1.17185,0.29701,0.57585,1.2023,-0.02168,0.68358,1.40507,0.18165,0.64592,1.42008
1216,0.05948,0.47322,1.50305,-0.02047,0.47357,0.0784,0.27716,0.1628,0.15959,0.00503,0.47395,0.49508,0.28035,0.41073,0.49535,0.01933,0.36639,0.91621,0.18806,0.34849,0.91558,-0.09495,0.4369,1.42006,0.23357,0.43503,1.44606,-0.0939,0.58783,1.17237,0.29697,0.57613,1.20289,-0.02022,0.68458,1.40537,0.18104,0.64663,1.42024
1217,0.05996,0.47273,1.50336,-0.02053,0.47361,0.07844,0.27717,0.1613,0.15845,0.00521,0.4737,0.4951,0.27954,0.40857,0.49471,0.0194,0.36709,0.91648,0.18809,0.34888,0.91549,-0.09505,0.43766,1.42038,0.23378,0.43477,1.44634,-0.09342,0.589,1.17295,0.29698,0.57645,1.20346,-0.01812,0.68552,1.40552,0.18085,0.64779,1.42042
1218,0.06056,0.47196,1.50381,-0.02068,0.47374,0.07843,0.27721,0.15964,0.15714,0.00541,0.47371,0.49507,0.27858,0.40606,0.49403,0.01953,0.36805,0.91669,0.18815,0.34925,0.91543,-0.09471,0.4381,1.42061,0.23401,0.43436,1.44638,-0.09301,0.58987,1.17345,0.29731,0.5768,1.20397,-0.01571,0.68638,1.40537,0.18133,0.64885,1.42078
1219,0.06124,0.47111,1.50441,-0.02065,0.4741,0.07839,0.27736,0.15796,0.15557,0.00577,0.47404,0.49501,0.2774,0.40314,0.49336,0.01988,0.36905,0.91679,0.18844,0.34964,0.91551,-0.09405,0.43819,1.42075,0.23429,0.4338,1.44629,-0.09253,0.59032,1.17381,0.29813,0.57699,1.20446,-0.01355,0.68695,1.40512,0.1825,0.64913,1.42142
1220,0.06188,0.47026,1.50504,-0.02038,0.47452,0.07837,0.27752,0.15641,0.1537,0.00627,0.47445,0.49497,0.27601,0.39991,0.49271,0.02044,0.36983,0.91685,0.18896,0.35006,0.91569,-0.09333,0.43783,1.42085,0.23466,0.43315,1.44633,-0.09202,0.59031,1.17412,0.29923,0.57676,1.20494,-0.01179,0.687,1.40497,0.184,0.64842,1.42228
1221,0.06236,0.46933,1.50565,-0.02007,0.47478,0.07841,0.27748,0.15505,0.15157,0.00675,0.47481,0.49501,0.27447,0.39648,0.49204,0.02111,0.37045,0.91694,0.18961,0.35054,0.91591,-0.09262,0.43704,1.42102,0.23517,0.43245,1.44664,-0.09168,0.58983,1.17448,0.30013,0.57602,1.20534,-0.0102,0.68662,1.40485,0.18535,0.64702,1.42312
1222,0.06275,0.46823,1.50622,-0.01999,0.47487,0.07858,0.27713,0.15374,0.14924,0.00709,0.47523,0.49516,0.27284,0.39293,0.49128,0.0218,0.37111,0.91714,0.19028,0.35105,0.91603,-0.09185,0.43609,1.42136,0.23585,0.43164,1.447,-0.09154,0.589,1.17489,0.30063,0.575,1.20553,-0.00853,0.68611,1.40458,0.1864,0.64542,1.4238
1223,0.06321,0.46702,1.5067,-0.02018,0.47497,0.07885,0.27648,0.15231,0.14676,0.00733,0.47578,0.4954,0.27119,0.38918,0.4904,0.02249,0.37182,0.9174,0.19093,0.35147,0.91598,-0.09107,0.43535,1.42179,0.23669,0.4306,1.44715,-0.0913,0.58803,1.17518,0.30096,0.57397,1.20555,-0.00668,0.6856,1.40409,0.18734,0.6438,1.42433
1224,0.06386,0.46569,1.50703,-0.0205,0.47516,0.07915,0.27555,0.15063,0.14427,0.00766,0.47638,0.49565,0.26966,0.38519,0.48947,0.02314,0.37238,0.91763,0.19154,0.35168,0.9158,-0.09044,0.43491,1.42221,0.23755,0.4292,1.44712,-0.09067,0.58687,1.17515,0.30158,0.57281,1.20559,-0.00481,0.6848,1.40344,0.18845,0.64202,1.42482
1225,0.06479,0.4641,1.50725,-0.02078,0.47533,0.07934,0.27441,0.14864,0.14188,0.00813,0.47699,0.49579,0.26827,0.381,0.48857,0.02376,0.37277,0.91771,0.1921,0.35165,0.91556,-0.08997,0.43447,1.4225,0.2383,0.42735,1.44722,-0.0897,0.58535,1.17479,0.30267,0.57104,1.20583,-0.00314,0.6834,1.40276,0.1899,0.63994,1.42534
1226,0.06608,0.46217,1.5074,-0.021,0.47535,0.07938,0.27313,0.14639,0.13956,0.00868,0.47781,0.49578,0.26684,0.37664,0.48765,0.0244,0.37316,0.91759,0.19266,0.35145,0.91525,-0.08934,0.4336,1.42264,0.23905,0.42506,1.44767,-0.08859,0.58339,1.17426,0.30389,0.5684,1.2062,-0.00185,0.68147,1.40215,0.19165,0.6376,1.42588
1227,0.06766,0.46003,1.50748,-0.02128,0.47532,0.07939,0.27173,0.14402,0.1371,0.0092,0.47889,0.49571,0.26527,0.3721,0.4866,0.02503,0.37369,0.91738,0.1932,0.35125,0.9148,-0.08819,0.4322,1.42264,0.2401,0.42256,1.44832,-0.0873,0.58122,1.17381,0.30481,0.56539,1.20651,-0.00093,0.67948,1.40176,0.19338,0.63519,1.42642
1228,0.06929,0.45796,1.50751,-0.02175,0.47534,0.07947,0.27013,0.14168,0.13442,0.00971,0.47997,0.49572,0.26369,0.36742,0.48545,0.02551,0.37421,0.91725,0.19359,0.35121,0.91417,-0.08651,0.43056,1.42261,0.24171,0.42008,1.44873,-0.0857,0.57919,1.17354,0.30532,0.56297,1.20666,-6e-05,0.67773,1.40165,0.19481,0.63296,1.42696
1229,0.07091,0.45619,1.50754,-0.02229,0.47531,0.07966,0.26834,0.13939,0.13173,0.01029,0.48073,0.49581,0.2623,0.36266,0.48434,0.02586,0.37452,0.91724,0.19389,0.35123,0.91349,-0.08466,0.42893,1.42256,0.24382,0.41777,1.44861,-0.08379,0.57737,1.17337,0.30569,0.56146,1.20657,0.00111,0.67612,1.40167,0.19615,0.63088,1.42755
1230,0.07265,0.45467,1.50756,-0.02257,0.4751,0.07989,0.26646,0.13707,0.12921,0.01094,0.48125,0.49595,0.26105,0.35777,0.48344,0.02632,0.37457,0.91727,0.19431,0.35109,0.91296,-0.08299,0.42727,1.42244,0.24608,0.41568,1.44809,-0.08174,0.57557,1.17317,0.30637,0.56025,1.20617,0.00269,0.67433,1.40164,0.19798,0.62868,1.42802
1231,0.07465,0.45308,1.50761,-0.02243,0.47487,0.08015,0.2646,0.13469,0.12683,0.01151,0.48191,0.49617,0.25971,0.35269,0.48274,0.02706,0.37449,0.91729,0.19501,0.35081,0.91261,-0.08148,0.42544,1.42221,0.24819,0.41378,1.44748,-0.07968,0.5737,1.17292,0.30757,0.55859,1.20548,0.00452,0.67228,1.40155,0.20042,0.62622,1.42818
1232,0.07684,0.45117,1.50768,-0.02205,0.47492,0.08048,0.26285,0.1323,0.12445,0.0119,0.48296,0.49648,0.25824,0.34753,0.48204,0.02807,0.37436,0.91727,0.19599,0.35052,0.91227,-0.07979,0.42354,1.42193,0.25004,0.41189,1.44703,-0.07763,0.57184,1.17267,0.30911,0.55648,1.20483,0.00639,0.67018,1.40147,0.20298,0.62373,1.42812
1233,0.07901,0.44893,1.50774,-0.02179,0.47532,0.08078,0.26133,0.12992,0.12203,0.01221,0.48419,0.49676,0.25687,0.34251,0.4812,0.02925,0.37409,0.91713,0.19715,0.35019,0.91173,-0.07779,0.42176,1.42169,0.25164,0.40965,1.44679,-0.07566,0.56996,1.17237,0.31085,0.55425,1.20462,0.00818,0.66815,1.4013,0.20511,0.62161,1.42806
1234,0.081,0.44643,1.50778,-0.0218,0.47577,0.08091,0.26008,0.12754,0.11963,0.0126,0.48529,0.49683,0.25583,0.33763,0.48027,0.03053,0.37369,0.91677,0.19839,0.34968,0.91101,-0.07568,0.42001,1.4216,0.25314,0.4069,1.44668,-0.07369,0.56771,1.17199,0.31296,0.55188,1.20488,0.00999,0.66597,1.40094,0.20676,0.61996,1.4279
1235,0.08282,0.44371,1.50786,-0.02194,0.47597,0.08085,0.25903,0.12519,0.11731,0.01324,0.48621,0.49669,0.25498,0.33272,0.47944,0.03187,0.37324,0.91623,0.19969,0.34893,0.91032,-0.07379,0.418,1.42172,0.2549,0.40395,1.44653,-0.07156,0.56486,1.17161,0.31545,0.54944,1.20523,0.01208,0.66343,1.40045,0.2082,0.61846,1.42745
1236,0.08461,0.44093,1.508,-0.022,0.47592,0.08075,0.25803,0.12301,0.11512,0.01421,0.48718,0.49648,0.25392,0.32773,0.47884,0.03335,0.37278,0.91561,0.20111,0.348,0.90986,-0.07216,0.41575,1.42191,0.25705,0.40128,1.44612,-0.06915,0.56165,1.17125,0.31792,0.5475,1.20534,0.01439,0.66065,1.39993,0.20966,0.61691,1.42695
1237,0.08658,0.4383,1.50807,-0.02195,0.47588,0.08077,0.25688,0.12114,0.11305,0.0155,0.4883,0.49636,0.25264,0.32292,0.47841,0.03501,0.37224,0.91502,0.20269,0.34687,0.90958,-0.07053,0.41356,1.42198,0.25939,0.399,1.44544,-0.06667,0.55852,1.17079,0.31989,0.54635,1.20526,0.0164,0.65802,1.39943,0.21127,0.61539,1.42681
1238,0.08894,0.43587,1.50795,-0.02189,0.47611,0.081,0.25541,0.11968,0.11097,0.01701,0.48944,0.49643,0.25155,0.31846,0.47797,0.03675,0.37165,0.91459,0.20431,0.34548,0.90927,-0.0687,0.41158,1.42193,0.26157,0.39681,1.44474,-0.06437,0.55555,1.17018,0.32129,0.54538,1.20511,0.01778,0.65563,1.3989,0.21305,0.61396,1.42699
1239,0.09169,0.4334,1.50766,-0.02185,0.47662,0.08142,0.25361,0.11849,0.10875,0.01864,0.49041,0.49668,0.25102,0.31419,0.47742,0.03839,0.37115,0.91442,0.20579,0.34399,0.90875,-0.06671,0.40951,1.42192,0.26357,0.39437,1.44426,-0.0624,0.55254,1.16962,0.32253,0.54366,1.20489,0.01892,0.65324,1.39837,0.21489,0.6124,1.42701
1240,0.09454,0.43057,1.50738,-0.0217,0.47721,0.08187,0.25171,0.11729,0.10643,0.02025,0.49135,0.49697,0.25091,0.30977,0.4768,0.03987,0.37079,0.91435,0.20707,0.34259,0.90805,-0.0647,0.40703,1.42205,0.26564,0.39154,1.44395,-0.06067,0.54935,1.16935,0.32427,0.54089,1.20454,0.02044,0.65056,1.39794,0.21673,0.61046,1.42645
1241,0.09701,0.42722,1.50723,-0.02128,0.4777,0.08219,0.25008,0.11584,0.10416,0.02173,0.49256,0.49716,0.25085,0.3051,0.47618,0.04128,0.3705,0.91411,0.20827,0.34127,0.90729,-0.06264,0.40421,1.42233,0.26794,0.38834,1.44358,-0.05889,0.54594,1.16929,0.32701,0.53751,1.20417,0.02241,0.64767,1.39759,0.21871,0.60808,1.42539
1242,0.099,0.42362,1.5072,-0.02058,0.47804,0.08238,0.24908,0.1141,0.10204,0.02305,0.49403,0.49724,0.25067,0.30035,0.47557,0.04272,0.37007,0.91362,0.20951,0.33974,0.90654,-0.06031,0.40146,1.42262,0.27043,0.38484,1.44302,-0.05686,0.54253,1.16922,0.33055,0.53416,1.20396,0.02447,0.64475,1.39729,0.22103,0.60532,1.42439
1243,0.10092,0.4201,1.50721,-0.01975,0.47826,0.08258,0.24879,0.11219,0.10011,0.02422,0.49542,0.49736,0.25033,0.29574,0.47498,0.04425,0.36934,0.91308,0.21082,0.33785,0.90585,-0.05762,0.39905,1.42279,0.27298,0.38112,1.44237,-0.05452,0.53951,1.16904,0.33412,0.53102,1.20394,0.02638,0.64184,1.39721,0.22377,0.60217,1.42396
1244,0.10323,0.41669,1.50719,-0.01896,0.47843,0.08289,0.24889,0.11039,0.09832,0.02533,0.49651,0.49759,0.24982,0.29132,0.47446,0.04583,0.36823,0.91262,0.2122,0.3357,0.90527,-0.05475,0.39671,1.4227,0.27551,0.37723,1.44186,-0.05209,0.537,1.16885,0.33727,0.52774,1.20397,0.02821,0.63889,1.39743,0.22691,0.59858,1.42408
1245,0.10597,0.41316,1.50708,-0.01839,0.47856,0.08325,0.24896,0.10886,0.09658,0.02649,0.49745,0.49786,0.2493,0.28691,0.4741,0.04745,0.36686,0.91215,0.21366,0.33354,0.90483,-0.05206,0.39397,1.4223,0.27798,0.37324,1.44165,-0.04985,0.5347,1.16869,0.34027,0.52379,1.20392,0.02997,0.63588,1.39775,0.23043,0.59461,1.4243
1246,0.10868,0.40942,1.50686,-0.01811,0.47875,0.08359,0.2488,0.10762,0.09482,0.02789,0.49863,0.49803,0.24914,0.28229,0.47391,0.04921,0.36544,0.91147,0.2153,0.33148,0.90451,-0.04969,0.39065,1.42164,0.28032,0.36921,1.44164,-0.04783,0.53226,1.16852,0.34346,0.51907,1.20371,0.03148,0.63274,1.39807,0.23418,0.59041,1.4242
1247,0.1111,0.40561,1.50663,-0.01795,0.47911,0.08394,0.24849,0.10655,0.09311,0.02945,0.50033,0.49816,0.24945,0.27762,0.47384,0.05117,0.36414,0.9106,0.21715,0.3295,0.90424,-0.04741,0.38711,1.4209,0.28251,0.36518,1.44166,-0.04579,0.52976,1.16836,0.34663,0.51392,1.20328,0.03276,0.62941,1.39852,0.23793,0.58609,1.42379
1248,0.11358,0.40188,1.50646,-0.0177,0.47963,0.08445,0.24814,0.10562,0.09155,0.03091,0.50237,0.49844,0.24998,0.27329,0.47378,0.05328,0.36306,0.9098,0.21907,0.32743,0.90401,-0.04503,0.38388,1.42038,0.28468,0.36111,1.44156,-0.04355,0.52745,1.16836,0.34938,0.50883,1.20271,0.03417,0.62619,1.3992,0.24139,0.58162,1.42336
1249,0.11644,0.39829,1.50629,-0.01724,0.4802,0.08517,0.24783,0.10476,0.09015,0.03212,0.50419,0.49901,0.25043,0.26941,0.47369,0.05539,0.36199,0.90933,0.22092,0.32509,0.90382,-0.04259,0.38106,1.42025,0.2869,0.35691,1.44128,-0.04123,0.52532,1.16862,0.35187,0.50413,1.2022,0.03586,0.62347,1.39993,0.24453,0.57705,1.42312
1250,0.11947,0.39482,1.50607,-0.01658,0.48066,0.08607,0.24761,0.10391,0.08884,0.03313,0.50544,0.49982,0.25081,0.26566,0.4736,0.05741,0.3604,0.90908,0.22268,0.32237,0.90369,-0.04031,0.37847,1.42037,0.28915,0.35253,1.44093,-0.039,0.52318,1.169,0.3546,0.49979,1.202,0.03737,0.62118,1.40061,0.24756,0.5726,1.42311
1251,0.1223,0.39145,1.50586,-0.0157,0.48096,0.08708,0.2475,0.10309,0.0875,0.03405,0.50633,0.50079,0.25133,0.2618,0.47353,0.05929,0.35793,0.90879,0.22442,0.31926,0.90359,-0.03825,0.37606,1.42052,0.29145,0.34811,1.44065,-0.03689,0.52096,1.16926,0.35753,0.49579,1.20215,0.03821,0.61879,1.40136,0.25063,0.56838,1.4234
1252,0.12489,0.38808,1.50577,-0.01468,0.48119,0.08823,0.24744,0.1023,0.08615,0.035,0.50724,0.5019,0.25204,0.25797,0.4734,0.06104,0.35477,0.90835,0.22612,0.31585,0.90347,-0.03629,0.37388,1.42061,0.29387,0.3439,1.44052,-0.03477,0.51889,1.16942,0.36014,0.49222,1.20247,0.03877,0.6159,1.40235,0.25363,0.56424,1.42409
1253,0.12737,0.38457,1.50584,-0.01371,0.48151,0.08955,0.24728,0.10152,0.08484,0.03601,0.50824,0.50318,0.25282,0.25433,0.47321,0.06272,0.35145,0.90793,0.22777,0.31237,0.90331,-0.03424,0.37169,1.42059,0.29639,0.34008,1.44044,-0.03248,0.51719,1.16968,0.36235,0.48913,1.20277,0.04016,0.61257,1.40357,0.2564,0.55996,1.42504
1254,0.12988,0.3809,1.50599,-0.01294,0.48203,0.09097,0.24694,0.10079,0.08363,0.03713,0.50926,0.50452,0.2536,0.25079,0.47308,0.06443,0.34837,0.90762,0.22944,0.30908,0.9032,-0.03203,0.369,1.42038,0.29881,0.33665,1.44028,-0.02998,0.5158,1.17023,0.36475,0.48624,1.20294,0.04297,0.60919,1.40482,0.25902,0.55554,1.42579
1255,0.13246,0.37725,1.50605,-0.01231,0.4827,0.09239,0.24648,0.10013,0.0826,0.03834,0.51037,0.50583,0.2544,0.24721,0.47314,0.06627,0.34567,0.90735,0.23121,0.30608,0.90323,-0.02975,0.36575,1.42006,0.30111,0.33352,1.44012,-0.02734,0.51445,1.17104,0.36787,0.48291,1.20288,0.04678,0.60617,1.40593,0.26169,0.55127,1.42581
1256,0.13518,0.37379,1.50592,-0.01163,0.48348,0.09383,0.24608,0.09942,0.08184,0.03949,0.51179,0.50718,0.25526,0.24367,0.47341,0.06823,0.34323,0.90703,0.23309,0.30326,0.90345,-0.02752,0.36239,1.41987,0.30346,0.33038,1.44021,-0.02479,0.51295,1.17197,0.37152,0.47864,1.20262,0.05081,0.60364,1.40679,0.26458,0.5473,1.4251
1257,0.13808,0.37056,1.50566,-0.01071,0.48447,0.09546,0.24586,0.09856,0.0813,0.04048,0.51371,0.50873,0.25619,0.24045,0.47371,0.07022,0.34092,0.90671,0.23496,0.30041,0.90375,-0.02526,0.35949,1.41997,0.30601,0.32692,1.44055,-0.02258,0.51125,1.17281,0.37506,0.47379,1.20239,0.05454,0.60141,1.40733,0.26769,0.5436,1.4243
1258,0.14109,0.36745,1.50549,-0.0096,0.4858,0.09739,0.24593,0.09764,0.08081,0.04144,0.51613,0.51061,0.25714,0.23779,0.47381,0.07207,0.33868,0.90646,0.23666,0.29753,0.90392,-0.02299,0.3572,1.42031,0.30861,0.32298,1.44079,-0.02076,0.50943,1.17342,0.37805,0.46935,1.20244,0.05772,0.59915,1.40766,0.27098,0.54016,1.42418
1259,0.144,0.36431,1.50564,-0.00852,0.4874,0.09956,0.24629,0.09692,0.08017,0.04264,0.51884,0.51267,0.25816,0.23567,0.47365,0.07363,0.33641,0.90622,0.23809,0.29472,0.90388,-0.02089,0.35537,1.42073,0.31103,0.31868,1.44061,-0.01905,0.5077,1.17391,0.38056,0.46595,1.20284,0.06032,0.59672,1.40812,0.27437,0.53711,1.42489
1260,0.1467,0.36109,1.50607,-0.00769,0.48898,0.10176,0.24691,0.09639,0.07944,0.04411,0.52151,0.51472,0.25936,0.23376,0.47339,0.0749,0.33397,0.90587,0.23929,0.29199,0.90372,-0.01897,0.35379,1.42113,0.31318,0.31427,1.44004,-0.01715,0.50635,1.17446,0.38294,0.46334,1.20346,0.06254,0.5942,1.409,0.27765,0.5345,1.42594
1261,0.14931,0.35791,1.50659,-0.00713,0.49026,0.10389,0.24769,0.09584,0.07878,0.04571,0.52389,0.51662,0.26074,0.23167,0.47324,0.07598,0.33137,0.9054,0.24033,0.28922,0.90365,-0.01689,0.35228,1.42148,0.31516,0.30996,1.43935,-0.01501,0.50541,1.17515,0.38554,0.46082,1.20408,0.06469,0.59176,1.41024,0.28056,0.53224,1.42663
1262,0.15207,0.35492,1.507,-0.00662,0.49116,0.10594,0.24853,0.09511,0.07832,0.04735,0.52595,0.51843,0.26215,0.22934,0.47331,0.07702,0.32882,0.90492,0.24127,0.28628,0.90378,-0.01445,0.35073,1.42191,0.31697,0.30596,1.43882,-0.01283,0.50446,1.17595,0.38844,0.45776,1.2045,0.06699,0.58939,1.41153,0.28319,0.52996,1.42667
1263,0.15494,0.35225,1.50726,-0.00594,0.4918,0.10799,0.24931,0.09432,0.07811,0.04902,0.52778,0.52025,0.26344,0.22708,0.47357,0.07817,0.32645,0.90462,0.24223,0.28315,0.90414,-0.01198,0.34924,1.42263,0.31859,0.30237,1.43861,-0.01079,0.50306,1.17673,0.39162,0.45399,1.20465,0.06935,0.587,1.41255,0.28591,0.52732,1.42622
1264,0.15767,0.34991,1.50742,-0.00502,0.49241,0.11009,0.24992,0.09367,0.07803,0.05068,0.52944,0.52215,0.26456,0.2251,0.47392,0.07951,0.3243,0.90452,0.24329,0.27997,0.90464,-0.00998,0.34797,1.42364,0.32013,0.29919,1.43864,-0.00905,0.5011,1.17732,0.39488,0.44979,1.20457,0.07145,0.58462,1.41316,0.28896,0.52419,1.42568
1265,0.16011,0.34767,1.50757,-0.0039,0.49315,0.11212,0.25033,0.09323,0.07798,0.05229,0.53093,0.52405,0.26554,0.22338,0.47427,0.081,0.32238,0.90458,0.24448,0.27694,0.90517,-0.00841,0.34684,1.42465,0.32179,0.29622,1.43868,-0.00766,0.49885,1.17763,0.39787,0.44566,1.20429,0.07291,0.58237,1.41345,0.29217,0.52064,1.42532
1266,0.1623,0.34526,1.50776,-0.00262,0.49398,0.11391,0.25045,0.09291,0.07792,0.05378,0.53223,0.52576,0.26632,0.22179,0.4746,0.0825,0.32076,0.90468,0.24569,0.27429,0.90565,-0.00677,0.34566,1.42537,0.3236,0.29302,1.43858,-0.00654,0.49676,1.17779,0.4003,0.44168,1.20389,0.07382,0.58028,1.41368,0.29529,0.51674,1.42522
1267,0.16424,0.34264,1.50799,-0.00129,0.49479,0.11534,0.25023,0.09267,0.07785,0.05515,0.53333,0.52716,0.26684,0.22039,0.47487,0.08391,0.31952,0.90476,0.24683,0.27214,0.90604,-0.00463,0.34431,1.42581,0.32533,0.28928,1.43846,-0.00547,0.49503,1.178,0.40224,0.43732,1.20345,0.07466,0.57835,1.41403,0.29823,0.51269,1.42515
1268,0.16609,0.34005,1.50825,8e-05,0.49565,0.11646,0.24981,0.09249,0.07775,0.05638,0.53415,0.52831,0.26711,0.21919,0.47508,0.08524,0.3185,0.90486,0.24793,0.27033,0.90635,-0.00219,0.34276,1.42624,0.32673,0.28509,1.43861,-0.00434,0.49346,1.17842,0.40406,0.43203,1.20305,0.07573,0.57649,1.41458,0.30109,0.50872,1.42478
1269,0.16816,0.33764,1.50858,0.00153,0.49671,0.11757,0.24943,0.09231,0.07765,0.05747,0.53477,0.52951,0.26726,0.21806,0.47525,0.0865,0.31736,0.90503,0.24898,0.26849,0.90665,2e-05,0.34107,1.42697,0.32779,0.28095,1.43901,-0.00329,0.49168,1.17911,0.40607,0.42629,1.20278,0.07703,0.57464,1.41521,0.30373,0.50498,1.42409
1270,0.17062,0.33529,1.50897,0.00301,0.49803,0.11903,0.24925,0.09206,0.0776,0.05854,0.53553,0.53107,0.26748,0.21686,0.47548,0.08763,0.3159,0.90529,0.24989,0.26634,0.90702,0.00154,0.33955,1.42815,0.32874,0.27736,1.43925,-0.00243,0.48974,1.18005,0.40831,0.42149,1.20271,0.07879,0.57308,1.41571,0.30584,0.50149,1.42349
1271,0.17317,0.33293,1.50941,0.00446,0.49951,0.1209,0.24936,0.09179,0.07767,0.05973,0.53666,0.53301,0.26784,0.21567,0.47583,0.08857,0.3143,0.90564,0.25061,0.264,0.90751,0.00238,0.33866,1.42959,0.32962,0.27443,1.43918,-0.00145,0.48829,1.18114,0.41051,0.41817,1.20284,0.08174,0.57241,1.41583,0.30752,0.49823,1.42336
1272,0.17521,0.33063,1.50986,0.00591,0.50105,0.12296,0.24975,0.09156,0.07783,0.06104,0.5381,0.5351,0.2683,0.21459,0.47625,0.08929,0.31289,0.90606,0.25111,0.2619,0.90805,0.00293,0.3385,1.43084,0.33022,0.2717,1.43925,0.00015,0.48789,1.18224,0.41234,0.41498,1.20306,0.08614,0.57281,1.41563,0.30937,0.49503,1.4236
1273,0.1766,0.32852,1.51026,0.00738,0.50259,0.12502,0.25032,0.09141,0.07798,0.06223,0.5398,0.53718,0.26879,0.21365,0.47665,0.08981,0.31182,0.90648,0.25146,0.26028,0.90851,0.00369,0.33877,1.43161,0.33043,0.26861,1.43988,0.00252,0.48844,1.18316,0.41378,0.4104,1.20322,0.09079,0.57388,1.41551,0.31179,0.4918,1.42372
1274,0.17793,0.32663,1.51052,0.00872,0.50417,0.12711,0.25089,0.09141,0.07811,0.06315,0.5418,0.53929,0.26928,0.21291,0.47701,0.09019,0.31102,0.90689,0.25171,0.25907,0.90891,0.00498,0.33905,1.43205,0.33055,0.2651,1.44081,0.00519,0.48919,1.18388,0.41521,0.40457,1.20324,0.09388,0.57506,1.41592,0.3145,0.4886,1.42334
1275,0.17984,0.32488,1.51064,0.00975,0.50592,0.12934,0.25137,0.09154,0.07828,0.06388,0.54404,0.54152,0.2698,0.21249,0.47735,0.09055,0.31039,0.90733,0.25192,0.258,0.90931,0.00685,0.33918,1.43256,0.33106,0.2616,1.44143,0.00765,0.48947,1.18449,0.41689,0.3989,1.20302,0.09504,0.57607,1.41674,0.31694,0.48563,1.42242
1276,0.18228,0.32325,1.51071,0.0104,0.50788,0.13173,0.25172,0.09167,0.07859,0.0646,0.54635,0.54387,0.27032,0.21244,0.4777,0.09092,0.30984,0.90786,0.2521,0.25685,0.90976,0.00909,0.33914,1.43331,0.33203,0.25853,1.44153,0.00978,0.48921,1.1851,0.41867,0.39429,1.20253,0.0958,0.57684,1.41748,0.31892,0.48294,1.42125
1277,0.18463,0.32172,1.51083,0.0107,0.50991,0.13429,0.2519,0.09161,0.07901,0.06533,0.54871,0.54633,0.27074,0.21256,0.47805,0.09121,0.30937,0.90851,0.25214,0.25561,0.91024,0.01123,0.339,1.43415,0.33305,0.25589,1.44136,0.01171,0.48891,1.18584,0.42015,0.39063,1.20196,0.09737,0.57746,1.418,0.3207,0.48041,1.42036
1278,0.1865,0.32018,1.51106,0.01067,0.51191,0.137,0.25186,0.09132,0.07943,0.06597,0.55121,0.5489,0.271,0.21262,0.47835,0.09134,0.30895,0.90917,0.252,0.2544,0.91064,0.01279,0.33887,1.43493,0.33369,0.25347,1.44122,0.01346,0.48902,1.18677,0.42116,0.38746,1.20152,0.09927,0.57792,1.41874,0.32247,0.47788,1.42
1279,0.188,0.31849,1.51128,0.01038,0.5139,0.13969,0.25161,0.09097,0.07968,0.0664,0.55382,0.55144,0.27114,0.21254,0.4785,0.09133,0.30853,0.90967,0.25175,0.25326,0.91088,0.01366,0.33888,1.43566,0.33396,0.25109,1.4413,0.01501,0.48947,1.18777,0.42185,0.38431,1.20132,0.10065,0.57792,1.41998,0.32417,0.47534,1.42
1280,0.18936,0.31672,1.51141,0.00999,0.51591,0.14208,0.25125,0.09079,0.07972,0.06662,0.55636,0.55369,0.27122,0.21242,0.4785,0.09129,0.30814,0.90993,0.25146,0.25213,0.91096,0.01401,0.33925,1.43639,0.33405,0.24858,1.44158,0.01654,0.48998,1.1886,0.42245,0.38094,1.20132,0.10171,0.57708,1.42148,0.32572,0.47298,1.42
1281,0.19062,0.31514,1.5114,0.00957,0.51793,0.14404,0.25082,0.09088,0.07958,0.06685,0.55871,0.55553,0.27117,0.21237,0.47839,0.09129,0.30794,0.90999,0.2511,0.25093,0.91093,0.01412,0.34031,1.43706,0.33396,0.24595,1.44185,0.01834,0.49064,1.18904,0.42298,0.37754,1.20139,0.10317,0.57536,1.42293,0.32721,0.47094,1.41992
1282,0.19174,0.31397,1.51126,0.00903,0.51993,0.14572,0.25036,0.09119,0.07936,0.0673,0.5609,0.55706,0.27098,0.21236,0.47825,0.09127,0.30792,0.90997,0.25063,0.24966,0.91088,0.01422,0.34212,1.43748,0.33361,0.24354,1.44181,0.02064,0.4919,1.18918,0.42337,0.37451,1.20129,0.10545,0.57296,1.42437,0.32879,0.46904,1.41984
1283,0.19274,0.31317,1.51109,0.0083,0.52182,0.14738,0.24989,0.09158,0.07918,0.0679,0.56291,0.55851,0.27078,0.21242,0.47815,0.09117,0.30788,0.90999,0.25008,0.24839,0.91088,0.01458,0.34435,1.43748,0.33323,0.24174,1.44137,0.02347,0.49413,1.18926,0.42369,0.37206,1.20076,0.10834,0.57001,1.42615,0.33063,0.46705,1.41977
1284,0.19371,0.3126,1.51097,0.00739,0.52356,0.14906,0.24955,0.09192,0.07909,0.06842,0.56461,0.55999,0.27064,0.21256,0.47812,0.09095,0.30778,0.91021,0.24946,0.24723,0.91093,0.0154,0.34649,1.43702,0.33321,0.24056,1.44076,0.0267,0.49723,1.18948,0.42403,0.37002,1.19983,0.11116,0.56641,1.42855,0.33274,0.46498,1.41959
1285,0.19474,0.31222,1.5109,0.00642,0.52534,0.15055,0.24953,0.09214,0.07905,0.06867,0.56594,0.56134,0.27055,0.21262,0.47812,0.09065,0.30781,0.91064,0.24879,0.24633,0.91099,0.01669,0.34833,1.43636,0.33354,0.23967,1.4402,0.03005,0.5007,1.18993,0.4245,0.36807,1.19875,0.11363,0.56222,1.4314,0.33497,0.46313,1.4192
1286,0.19578,0.31202,1.51079,0.00539,0.52739,0.15161,0.24983,0.09228,0.07895,0.06867,0.56701,0.56233,0.27048,0.21241,0.47815,0.09033,0.3082,0.91115,0.24813,0.24583,0.91101,0.01815,0.34982,1.43601,0.33372,0.23879,1.43974,0.03309,0.50377,1.19065,0.4251,0.36596,1.1978,0.11631,0.55807,1.43397,0.33706,0.46167,1.41856
1287,0.19669,0.31185,1.51062,0.00429,0.52978,0.15217,0.25022,0.09237,0.07883,0.06867,0.56798,0.56286,0.27038,0.21208,0.47818,0.09002,0.30891,0.9115,0.24751,0.24577,0.91099,0.01936,0.351,1.43633,0.33351,0.2379,1.43941,0.03526,0.50585,1.1916,0.42573,0.36356,1.19699,0.11972,0.55493,1.4356,0.33885,0.46051,1.41768
1288,0.19743,0.31157,1.51046,0.00317,0.53242,0.15229,0.25042,0.09238,0.07882,0.06883,0.56882,0.56294,0.27015,0.21199,0.47823,0.08973,0.3097,0.91157,0.24698,0.24596,0.911,0.02012,0.35192,1.43719,0.33326,0.23703,1.43923,0.03635,0.50709,1.19268,0.42604,0.36106,1.19619,0.12346,0.55326,1.43632,0.34036,0.45951,1.41667
1289,0.19813,0.31126,1.51033,0.0021,0.53521,0.15202,0.25033,0.09229,0.07898,0.06905,0.56939,0.56265,0.26977,0.21229,0.47828,0.08944,0.31034,0.91136,0.24649,0.24611,0.91106,0.02061,0.35276,1.43828,0.33353,0.23615,1.43903,0.03666,0.50823,1.19395,0.42564,0.35898,1.19513,0.12681,0.55274,1.43678,0.34182,0.45864,1.41579
1290,0.19885,0.31119,1.5101,0.00094,0.53822,0.15131,0.25004,0.0921,0.0792,0.0691,0.56957,0.56197,0.26946,0.21276,0.4783,0.08907,0.31091,0.91101,0.24588,0.24609,0.9111,0.02115,0.35384,1.4394,0.33418,0.23516,1.43855,0.03684,0.50995,1.19545,0.42462,0.35751,1.19378,0.12952,0.55301,1.4376,0.34343,0.45775,1.41516
1291,0.19956,0.31137,1.50967,-0.00054,0.54157,0.15017,0.24974,0.09187,0.07937,0.06897,0.56931,0.56086,0.26945,0.21313,0.47828,0.08861,0.31168,0.91067,0.24504,0.24595,0.91107,0.02201,0.35546,1.44038,0.33447,0.23404,1.43788,0.03765,0.51243,1.19698,0.42347,0.35612,1.19245,0.13193,0.5541,1.43875,0.34507,0.45668,1.41468
1292,0.20022,0.3115,1.50921,-0.00248,0.5453,0.14861,0.24961,0.09174,0.07951,0.06883,0.5687,0.55927,0.2697,0.21343,0.47827,0.08822,0.31283,0.91038,0.24411,0.24584,0.91102,0.02326,0.35769,1.44088,0.33382,0.23272,1.43737,0.03958,0.51564,1.19816,0.42255,0.35408,1.19148,0.13437,0.5561,1.43994,0.34634,0.45553,1.41408
1293,0.20076,0.31143,1.50887,-0.0049,0.54933,0.14664,0.24968,0.09182,0.07967,0.06874,0.56777,0.55713,0.26992,0.21388,0.4783,0.08804,0.31442,0.91007,0.24327,0.24591,0.91102,0.02471,0.36031,1.44079,0.33236,0.23108,1.43718,0.04258,0.51948,1.19898,0.42175,0.35121,1.19093,0.13674,0.55906,1.44114,0.34726,0.4547,1.41317
1294,0.20095,0.31149,1.50858,-0.00759,0.55343,0.14429,0.24979,0.09213,0.07977,0.06853,0.56655,0.55454,0.26987,0.21451,0.47831,0.08797,0.31628,0.90966,0.24252,0.24627,0.91101,0.02599,0.36314,1.44065,0.33065,0.229,1.43714,0.04612,0.52386,1.20004,0.42076,0.34783,1.19052,0.1388,0.56364,1.44274,0.34825,0.45424,1.41203
1295,0.20066,0.31199,1.50813,-0.01017,0.55746,0.14169,0.24974,0.09256,0.07975,0.06809,0.56504,0.55167,0.26953,0.21526,0.47822,0.08772,0.31815,0.90914,0.24169,0.24688,0.91089,0.02684,0.36617,1.4412,0.32901,0.22658,1.43707,0.04965,0.52879,1.20212,0.41939,0.3443,1.19002,0.14078,0.57083,1.44503,0.34948,0.45373,1.41089
1296,0.20026,0.31286,1.50739,-0.01224,0.56143,0.13894,0.24954,0.09297,0.07972,0.06756,0.56335,0.54869,0.26908,0.21612,0.47805,0.08717,0.31991,0.90852,0.24065,0.2476,0.9107,0.02723,0.36956,1.44261,0.32734,0.22425,1.43698,0.05287,0.53442,1.20535,0.41777,0.34085,1.18942,0.14336,0.58073,1.44772,0.35059,0.45271,1.40992
1297,0.20028,0.31373,1.50643,-0.0137,0.56546,0.1361,0.2493,0.09326,0.07981,0.06712,0.56167,0.54565,0.26871,0.2172,0.4779,0.08647,0.32163,0.90777,0.23944,0.24827,0.91052,0.02741,0.37348,1.44429,0.32551,0.22238,1.43685,0.05558,0.54054,1.20887,0.41626,0.33751,1.18872,0.14682,0.59183,1.44995,0.35135,0.45102,1.40906
1298,0.20082,0.3144,1.50548,-0.01481,0.56961,0.13321,0.24915,0.09337,0.08002,0.06662,0.56016,0.54254,0.26853,0.21847,0.47775,0.08583,0.32345,0.90684,0.23816,0.2488,0.91034,0.02768,0.37784,1.44562,0.32345,0.22077,1.4365,0.05765,0.54656,1.2116,0.41501,0.33411,1.18785,0.15087,0.60206,1.45099,0.35215,0.44887,1.40814
1299,0.2014,0.31507,1.50465,-0.01592,0.57376,0.13031,0.24912,0.09326,0.08019,0.06581,0.55887,0.53942,0.26852,0.21975,0.47748,0.08528,0.3254,0.9058,0.23681,0.24919,0.91004,0.02821,0.38232,1.44653,0.32091,0.21891,1.43561,0.0591,0.55212,1.21342,0.41382,0.33047,1.18664,0.15528,0.61042,1.45096,0.35337,0.44687,1.40675
1300,0.20164,0.31608,1.50381,-0.01712,0.57746,0.12746,0.24914,0.09301,0.08019,0.06466,0.55769,0.53635,0.26853,0.22085,0.47705,0.08472,0.32745,0.90474,0.23538,0.24955,0.90956,0.02906,0.38665,1.44737,0.31775,0.21684,1.43391,0.05997,0.55741,1.21496,0.4125,0.32675,1.18491,0.15972,0.61732,1.45063,0.35461,0.44583,1.40426
1301,0.20175,0.31755,1.50277,-0.01817,0.58031,0.1246,0.24909,0.0928,0.08008,0.06348,0.55656,0.53331,0.26842,0.22192,0.47653,0.0841,0.32956,0.90368,0.23394,0.25012,0.90896,0.0303,0.3908,1.44823,0.31457,0.21514,1.43151,0.06008,0.56242,1.21631,0.41119,0.32344,1.18252,0.16316,0.62319,1.45032,0.35516,0.44605,1.40042
1302,0.2021,0.31932,1.50148,-0.01886,0.58222,0.12165,0.249,0.09274,0.07997,0.06247,0.55552,0.53024,0.26815,0.22332,0.47595,0.08347,0.33175,0.90254,0.23259,0.25101,0.90833,0.03183,0.39492,1.44869,0.31231,0.21417,1.42876,0.05935,0.56674,1.21664,0.41012,0.32096,1.17959,0.16471,0.62753,1.44962,0.35515,0.44686,1.39587
1303,0.20268,0.32127,1.5,-0.01925,0.58347,0.11858,0.24901,0.09285,0.07992,0.06156,0.55476,0.52713,0.26777,0.22522,0.47532,0.08297,0.33402,0.90121,0.23142,0.2521,0.90768,0.0333,0.39896,1.44832,0.31124,0.21371,1.4261,0.05827,0.57014,1.21551,0.40919,0.31916,1.17641,0.16466,0.62967,1.44835,0.35564,0.44719,1.39179
1304,0.20304,0.3233,1.4984,-0.01962,0.58437,0.11549,0.24914,0.09308,0.07989,0.06053,0.55445,0.52409,0.2674,0.22748,0.47463,0.08262,0.33637,0.89969,0.23033,0.25319,0.907,0.03429,0.4028,1.44731,0.31073,0.21359,1.42384,0.05741,0.57298,1.21358,0.40793,0.31743,1.17318,0.16406,0.63001,1.44693,0.35744,0.44655,1.38866
1305,0.2029,0.32533,1.4967,-0.02023,0.585,0.11259,0.24916,0.09333,0.07986,0.05925,0.55478,0.52129,0.26709,0.2299,0.47388,0.08219,0.33882,0.89807,0.22906,0.25425,0.90624,0.03461,0.40653,1.44628,0.30983,0.21399,1.42199,0.05681,0.57575,1.21177,0.40587,0.31513,1.16979,0.1634,0.62967,1.44588,0.36021,0.44527,1.38573
1306,0.20243,0.32736,1.49489,-0.02123,0.58523,0.11006,0.24883,0.09356,0.07982,0.05784,0.55591,0.51891,0.26672,0.23246,0.47301,0.08134,0.3414,0.89647,0.22741,0.25551,0.90534,0.03457,0.4105,1.44563,0.30791,0.21515,1.42021,0.0563,0.5786,1.21027,0.40299,0.31209,1.16601,0.16235,0.62921,1.44536,0.36283,0.44414,1.38187
1307,0.20198,0.32958,1.49291,-0.02259,0.58485,0.1079,0.24807,0.09386,0.07971,0.05652,0.55767,0.51689,0.26624,0.23523,0.47202,0.08001,0.34401,0.89494,0.22545,0.25713,0.90426,0.03459,0.415,1.44532,0.30504,0.21701,1.41803,0.05603,0.58135,1.20869,0.39982,0.30876,1.1618,0.16061,0.62827,1.4452,0.36453,0.44369,1.37673
1308,0.20168,0.33216,1.49073,-0.02399,0.58378,0.10592,0.24707,0.09436,0.07956,0.05554,0.55961,0.51502,0.26581,0.23834,0.47089,0.07844,0.34657,0.89346,0.22348,0.25903,0.90305,0.03475,0.41989,1.44511,0.30195,0.21933,1.41521,0.05619,0.58394,1.20687,0.39705,0.30588,1.15729,0.15864,0.6264,1.44516,0.36538,0.4438,1.37088
1309,0.20131,0.335,1.4884,-0.02509,0.58211,0.10387,0.24604,0.09504,0.07939,0.05498,0.56137,0.51305,0.26565,0.24182,0.46963,0.07692,0.34898,0.89191,0.22165,0.26096,0.90169,0.03472,0.42466,1.44476,0.29942,0.22183,1.41189,0.05656,0.58658,1.20511,0.39475,0.30364,1.15251,0.15712,0.62393,1.44504,0.36603,0.44403,1.36491
1310,0.20066,0.33787,1.486,-0.02578,0.5801,0.10156,0.24521,0.09568,0.07925,0.05469,0.56293,0.51082,0.26588,0.24565,0.46822,0.07547,0.35123,0.89014,0.21994,0.26281,0.90017,0.03416,0.42877,1.44404,0.29772,0.22427,1.40851,0.05653,0.58934,1.20354,0.39235,0.30149,1.14748,0.15622,0.62164,1.44457,0.36702,0.44442,1.35861
1311,0.19973,0.34055,1.48369,-0.02622,0.57808,0.09896,0.24459,0.09605,0.07921,0.05434,0.56446,0.50835,0.26638,0.24968,0.46669,0.07404,0.35338,0.88806,0.21833,0.26471,0.89849,0.033,0.43212,1.44286,0.2966,0.22663,1.40549,0.05568,0.59201,1.20194,0.38925,0.29897,1.14235,0.15557,0.62006,1.44342,0.36831,0.44551,1.35149
1312,0.19857,0.34304,1.48156,-0.02657,0.57644,0.09626,0.24404,0.09626,0.07929,0.05372,0.56618,0.5058,0.26685,0.25381,0.46513,0.07267,0.35566,0.88586,0.21687,0.26691,0.89677,0.03147,0.43498,1.44126,0.29556,0.22922,1.4029,0.05409,0.59443,1.20003,0.3854,0.29654,1.13746,0.15464,0.61928,1.44159,0.36917,0.44768,1.34371
1313,0.1971,0.34562,1.47959,-0.02681,0.57545,0.0937,0.24343,0.09669,0.07942,0.05287,0.56816,0.50341,0.26705,0.25803,0.46364,0.07142,0.35825,0.88384,0.21559,0.26951,0.89515,0.02977,0.4377,1.43938,0.29416,0.23227,1.40043,0.05219,0.5968,1.1979,0.38129,0.29493,1.13296,0.15316,0.61924,1.43951,0.36908,0.45085,1.3359
1314,0.19529,0.34864,1.47762,-0.02687,0.57531,0.09138,0.24282,0.09759,0.07955,0.05195,0.57028,0.5013,0.26696,0.26245,0.46224,0.07017,0.36118,0.88217,0.21433,0.27244,0.89365,0.02801,0.44054,1.43746,0.29223,0.23566,1.39774,0.05041,0.59946,1.19586,0.37749,0.29414,1.12873,0.15121,0.61979,1.43773,0.36843,0.45461,1.32826
1315,0.19332,0.35213,1.47555,-0.02671,0.57603,0.08922,0.24229,0.09882,0.07969,0.05105,0.57241,0.49935,0.26674,0.26714,0.46086,0.06869,0.36427,0.88079,0.21289,0.27558,0.89215,0.02635,0.44365,1.43573,0.28984,0.23916,1.39477,0.04873,0.6025,1.19409,0.37409,0.29346,1.12456,0.14899,0.62084,1.43635,0.36801,0.4586,1.32037
1316,0.19146,0.35581,1.47341,-0.02631,0.57732,0.08708,0.24185,0.10005,0.0799,0.05015,0.57455,0.49747,0.26657,0.27193,0.45946,0.06697,0.36739,0.87947,0.21136,0.27898,0.8906,0.02487,0.4468,1.43422,0.28719,0.24276,1.39166,0.04652,0.60565,1.1925,0.37084,0.2924,1.12038,0.14657,0.6226,1.43495,0.36795,0.46266,1.31182
1317,0.18983,0.35945,1.4713,-0.02556,0.5786,0.08496,0.24139,0.10108,0.08015,0.04922,0.5768,0.49566,0.2664,0.27651,0.45806,0.0652,0.37053,0.87818,0.21005,0.28285,0.88906,0.02333,0.44944,1.43267,0.28461,0.24663,1.38857,0.04304,0.60838,1.19085,0.36758,0.29118,1.11619,0.14382,0.62527,1.433,0.36762,0.46675,1.3028
1318,0.18833,0.36305,1.4694,-0.02452,0.57934,0.08299,0.24087,0.10193,0.08041,0.04824,0.57912,0.49405,0.26609,0.28079,0.4567,0.06356,0.37366,0.87704,0.20919,0.28723,0.88763,0.02121,0.45117,1.43086,0.28246,0.25098,1.3855,0.03822,0.6101,1.18882,0.36438,0.29031,1.112,0.1404,0.62852,1.43027,0.36676,0.47084,1.2938
1319,0.18669,0.3666,1.46787,-0.02351,0.57933,0.08129,0.24043,0.10266,0.08077,0.04721,0.58139,0.49271,0.26563,0.28493,0.45542,0.06202,0.37661,0.87608,0.20873,0.292,0.88635,0.01819,0.45218,1.42896,0.28103,0.25605,1.38251,0.03269,0.61044,1.18632,0.36125,0.28988,1.10778,0.13605,0.63162,1.42704,0.36592,0.47492,1.28493
1320,0.18464,0.37018,1.4669,-0.02284,0.57877,0.0799,0.24021,0.10324,0.08131,0.04607,0.58352,0.49161,0.26511,0.28912,0.4542,0.06041,0.37931,0.8753,0.20843,0.29694,0.88514,0.01453,0.45282,1.4275,0.28035,0.26205,1.37967,0.02693,0.60955,1.18376,0.35793,0.2894,1.10346,0.13095,0.63418,1.42387,0.36555,0.47889,1.27574
1321,0.18205,0.37414,1.4665,-0.02266,0.57815,0.07886,0.24014,0.1037,0.082,0.04465,0.58544,0.49079,0.26454,0.29331,0.45304,0.05862,0.3818,0.8748,0.20805,0.30196,0.88398,0.01075,0.45308,1.4269,0.28031,0.26905,1.37702,0.02066,0.6079,1.18182,0.35406,0.28818,1.09907,0.12553,0.63632,1.42114,0.36529,0.48256,1.26562
1322,0.17905,0.37881,1.46652,-0.02299,0.5779,0.07826,0.24005,0.10411,0.08276,0.04272,0.58704,0.49041,0.26379,0.29729,0.452,0.05659,0.38417,0.87482,0.20752,0.30707,0.88295,0.00697,0.45277,1.42716,0.28069,0.27691,1.37457,0.01334,0.60574,1.1808,0.34956,0.28582,1.09487,0.12014,0.63834,1.41873,0.3646,0.48575,1.2544
1323,0.17593,0.38405,1.46674,-0.02377,0.57809,0.07804,0.23997,0.10457,0.0836,0.04009,0.58818,0.49045,0.26274,0.30096,0.4512,0.05439,0.38643,0.87544,0.20686,0.31228,0.88217,0.00282,0.45188,1.42804,0.28132,0.28532,1.37229,0.00505,0.60303,1.1805,0.34475,0.28279,1.09117,0.11465,0.6404,1.41644,0.36334,0.48869,1.24252
1324,0.17289,0.38938,1.46712,-0.0248,0.57847,0.07795,0.24006,0.10507,0.08462,0.03667,0.58883,0.49073,0.26145,0.30445,0.4507,0.05209,0.3885,0.87642,0.20615,0.3176,0.88168,-0.00205,0.45061,1.42932,0.2821,0.29407,1.37005,-0.00372,0.59975,1.18056,0.34021,0.28042,1.0881,0.10844,0.64244,1.41439,0.36161,0.49219,1.23073
1325,0.16988,0.39447,1.4678,-0.02587,0.57871,0.07776,0.24053,0.10561,0.08592,0.03245,0.58898,0.491,0.26011,0.30808,0.45039,0.04976,0.39023,0.87742,0.20557,0.32315,0.88142,-0.00756,0.44902,1.43076,0.283,0.30338,1.36776,-0.01274,0.59603,1.18078,0.33652,0.28006,1.08554,0.10088,0.64405,1.41286,0.35932,0.49716,1.2197
1326,0.16663,0.39926,1.46895,-0.02685,0.57869,0.0774,0.24146,0.10622,0.08759,0.0276,0.58867,0.49117,0.25882,0.3122,0.4502,0.04761,0.39159,0.87833,0.2053,0.32903,0.88128,-0.01325,0.44683,1.43196,0.28417,0.31365,1.36555,-0.02203,0.59196,1.18099,0.33387,0.28181,1.08346,0.09183,0.64471,1.41192,0.3564,0.50369,1.2096
1327,0.16284,0.40395,1.47054,-0.02772,0.57853,0.07711,0.24283,0.10701,0.08965,0.02248,0.58804,0.49143,0.25757,0.31678,0.4502,0.0458,0.39273,0.87929,0.20538,0.3351,0.88139,-0.01877,0.44393,1.43281,0.28571,0.32495,1.36375,-0.03162,0.58737,1.18104,0.33182,0.28446,1.08215,0.08178,0.64422,1.41122,0.35304,0.51092,1.20012
1328,0.15847,0.40878,1.47226,-0.02857,0.57843,0.07712,0.24443,0.10808,0.09209,0.0175,0.58714,0.49193,0.25634,0.32147,0.45062,0.04433,0.39378,0.88054,0.2056,0.34107,0.88192,-0.02396,0.44063,1.43375,0.28751,0.33684,1.36276,-0.04156,0.58187,1.18103,0.32942,0.28706,1.08201,0.07148,0.64283,1.41034,0.34926,0.51828,1.19059
1329,0.15392,0.41372,1.47375,-0.02961,0.57841,0.07736,0.24591,0.1094,0.09479,0.01293,0.58587,0.49258,0.25503,0.32601,0.45146,0.04291,0.39478,0.88208,0.2057,0.34692,0.88286,-0.02884,0.43725,1.4354,0.28922,0.34898,1.36292,-0.05172,0.57542,1.1814,0.32605,0.29009,1.08321,0.06151,0.64089,1.40937,0.34449,0.52646,1.18035
1330,0.14979,0.41851,1.47491,-0.03087,0.57837,0.07752,0.24712,0.11083,0.09757,0.00896,0.58405,0.49303,0.25367,0.33054,0.4524,0.04126,0.39573,0.88369,0.20547,0.35299,0.88386,-0.03328,0.43349,1.43791,0.29052,0.36164,1.36427,-0.06178,0.56846,1.18277,0.32217,0.29503,1.08567,0.05224,0.63852,1.40897,0.33796,0.53667,1.16938
1331,0.14648,0.42304,1.476,-0.03203,0.57824,0.07741,0.24845,0.11234,0.10045,0.00571,0.58168,0.49314,0.25251,0.3356,0.45309,0.03922,0.39662,0.88525,0.2048,0.35958,0.88452,-0.03697,0.42863,1.44107,0.29138,0.37556,1.36659,-0.07158,0.56138,1.18552,0.3191,0.30302,1.08905,0.04402,0.63563,1.40957,0.32958,0.5493,1.15896
1332,0.14376,0.42754,1.47744,-0.03262,0.57811,0.07726,0.25041,0.11408,0.10359,0.00327,0.57904,0.49317,0.25185,0.34167,0.45347,0.03681,0.39731,0.88683,0.20366,0.36654,0.8848,-0.03962,0.42235,1.44456,0.29192,0.39107,1.36941,-0.08126,0.55414,1.18955,0.31788,0.31422,1.09286,0.03719,0.63229,1.41078,0.32047,0.56371,1.15117
1333,0.14104,0.43211,1.47939,-0.03259,0.57818,0.07741,0.25301,0.1164,0.10712,0.0016,0.57655,0.49346,0.25172,0.34873,0.45388,0.03433,0.39763,0.88848,0.20222,0.37331,0.88507,-0.04138,0.41515,1.44796,0.29216,0.40756,1.37224,-0.09077,0.54678,1.19427,0.31858,0.32834,1.09641,0.0317,0.62877,1.41188,0.31184,0.57935,1.14733
1334,0.13792,0.43635,1.48171,-0.03232,0.5785,0.07789,0.25573,0.11953,0.11093,0.00051,0.57446,0.49403,0.25192,0.35631,0.45465,0.03215,0.39746,0.89001,0.20079,0.37932,0.88574,-0.0427,0.40791,1.4508,0.29187,0.42366,1.37496,-0.09975,0.53966,1.19878,0.32072,0.34533,1.09912,0.02699,0.62539,1.41248,0.30389,0.59638,1.14745
1335,0.13455,0.43993,1.48411,-0.03213,0.57888,0.07842,0.25803,0.12332,0.11474,-0.00015,0.57275,0.4946,0.25213,0.36398,0.45572,0.03039,0.39676,0.89111,0.19956,0.38435,0.88677,-0.04385,0.40127,1.45282,0.29064,0.43832,1.37775,-0.10796,0.53303,1.2025,0.32394,0.36566,1.10085,0.02224,0.62223,1.41266,0.29589,0.61532,1.15114
1336,0.13117,0.44325,1.48629,-0.03191,0.57903,0.07879,0.25965,0.12741,0.11833,-0.00048,0.57133,0.49499,0.2521,0.37164,0.45673,0.02885,0.39561,0.89171,0.19834,0.38868,0.88778,-0.04468,0.39534,1.45422,0.28819,0.45183,1.38068,-0.11553,0.52658,1.20546,0.3278,0.39009,1.10197,0.01678,0.61903,1.41287,0.28689,0.63666,1.15832
1337,0.12778,0.44706,1.48804,-0.03134,0.57886,0.07898,0.26068,0.13165,0.12163,-0.00055,0.57013,0.49521,0.25189,0.37942,0.45741,0.02727,0.39416,0.89193,0.1969,0.39277,0.88843,-0.04481,0.38986,1.45559,0.28472,0.46553,1.38363,-0.12246,0.51963,1.20809,0.33124,0.41888,1.10306,0.01057,0.61534,1.41357,0.27639,0.66035,1.16887
1338,0.12423,0.45155,1.48937,-0.03032,0.57842,0.07897,0.26148,0.13607,0.12485,-0.0005,0.56896,0.49525,0.2518,0.38754,0.45784,0.02566,0.39259,0.89191,0.19525,0.39679,0.88877,-0.04399,0.38456,1.45763,0.28064,0.48039,1.38645,-0.12824,0.51134,1.21074,0.33302,0.45111,1.10456,0.00423,0.61097,1.41471,0.26495,0.68554,1.1824
1339,0.12034,0.45609,1.49039,-0.02926,0.5778,0.07872,0.26237,0.14069,0.12827,-0.00058,0.56761,0.49507,0.25197,0.39616,0.4582,0.02426,0.39092,0.89166,0.19364,0.40057,0.88896,-0.04223,0.37924,1.4607,0.2761,0.49588,1.38913,-0.13245,0.50125,1.21351,0.33251,0.48525,1.1067,-0.00163,0.60634,1.4158,0.25365,0.7111,1.19846
1340,0.11601,0.45988,1.49115,-0.02874,0.57714,0.07837,0.26336,0.14554,0.13183,-0.00094,0.56617,0.49475,0.25233,0.40523,0.45842,0.02315,0.38908,0.89122,0.19217,0.40379,0.88896,-0.03968,0.3739,1.46445,0.27095,0.51062,1.39163,-0.13519,0.48973,1.21628,0.32958,0.52054,1.10963,-0.00681,0.6021,1.41621,0.24277,0.7364,1.21694
1341,0.11149,0.46264,1.4916,-0.02895,0.57663,0.07814,0.26411,0.15064,0.13516,-0.00165,0.56499,0.49455,0.25285,0.41449,0.45838,0.0221,0.38712,0.89068,0.19069,0.4062,0.88856,-0.03641,0.36874,1.46779,0.26509,0.52384,1.39379,-0.13706,0.47803,1.21869,0.32407,0.55692,1.11364,-0.01128,0.59869,1.41542,0.23161,0.76102,1.23791
1342,0.10731,0.46468,1.49173,-0.02958,0.57637,0.07815,0.26421,0.15594,0.13806,-0.00267,0.5644,0.49457,0.25366,0.42367,0.4581,0.02096,0.38522,0.89012,0.18913,0.40765,0.8877,-0.03249,0.36422,1.46965,0.25864,0.53609,1.39555,-0.13868,0.46758,1.22031,0.31597,0.59383,1.11907,-0.01497,0.59628,1.41321,0.21976,0.78411,1.26115
1343,0.10379,0.46668,1.49147,-0.03028,0.57624,0.07825,0.26362,0.16131,0.1407,-0.00386,0.56444,0.49471,0.25484,0.4327,0.4577,0.01988,0.38345,0.88943,0.18773,0.40805,0.8865,-0.02806,0.36093,1.46984,0.25184,0.54829,1.39719,-0.14026,0.45907,1.22103,0.30571,0.62997,1.1261,-0.01807,0.5949,1.40997,0.20782,0.80485,1.28575
1344,0.10086,0.4692,1.49057,-0.03096,0.57601,0.07828,0.26265,0.16668,0.14328,-0.00501,0.56486,0.49478,0.25631,0.44167,0.45722,0.01905,0.38175,0.8885,0.18674,0.40743,0.88497,-0.02335,0.35906,1.46923,0.24504,0.5607,1.39915,-0.14131,0.45215,1.22114,0.29386,0.66436,1.13471,-0.02137,0.59464,1.40659,0.19648,0.82355,1.31027
1345,0.09835,0.47232,1.48883,-0.03157,0.5756,0.07817,0.26161,0.17197,0.14572,-0.00602,0.5654,0.49472,0.25792,0.45048,0.45658,0.01842,0.38001,0.88735,0.18602,0.40608,0.88301,-0.01862,0.35802,1.46876,0.23844,0.57273,1.40153,-0.14132,0.446,1.2211,0.28078,0.69681,1.14488,-0.0258,0.59552,1.40379,0.18554,0.84147,1.3337
1346,0.09627,0.47563,1.48624,-0.03194,0.57516,0.07799,0.26066,0.177,0.14782,-0.00687,0.56612,0.4946,0.25958,0.45881,0.45571,0.01777,0.37826,0.88604,0.18531,0.4045,0.88059,-0.01419,0.35713,1.46833,0.23195,0.58362,1.40397,-0.1405,0.44049,1.22089,0.26711,0.72723,1.15659,-0.03153,0.59726,1.40152,0.17405,0.85919,1.35552
1347,0.09441,0.47866,1.48304,-0.03197,0.57483,0.07776,0.25987,0.18168,0.1495,-0.00758,0.56724,0.49444,0.26132,0.46649,0.45462,0.01699,0.37674,0.88461,0.18444,0.40326,0.87779,-0.01031,0.35639,1.46691,0.22543,0.59308,1.40605,-0.13959,0.43619,1.21984,0.2541,0.75509,1.16942,-0.03741,0.59879,1.39928,0.16111,0.87595,1.37532
1348,0.09242,0.48138,1.47962,-0.0317,0.57462,0.07741,0.2594,0.18609,0.15084,-0.00826,0.56879,0.49417,0.26326,0.47373,0.45327,0.01616,0.37568,0.88306,0.18344,0.40283,0.87467,-0.00683,0.35621,1.46376,0.21903,0.60129,1.40758,-0.13892,0.43306,1.21723,0.24284,0.77961,1.18243,-0.04115,0.59826,1.39676,0.14659,0.8903,1.39251
1349,0.09002,0.48414,1.47632,-0.03126,0.5745,0.07689,0.25931,0.19016,0.15198,-0.00906,0.57051,0.49374,0.26533,0.48066,0.45163,0.01544,0.37501,0.88143,0.18243,0.40337,0.87132,-0.00344,0.35666,1.45919,0.21295,0.60848,1.4087,-0.1382,0.43037,1.21316,0.23351,0.80022,1.19452,-0.04127,0.59451,1.3941,0.13113,0.90104,1.40665
1350,0.08723,0.48716,1.47328,-0.03079,0.57445,0.07627,0.25952,0.19366,0.15302,-0.00999,0.57212,0.49321,0.26723,0.48708,0.44977,0.01496,0.37449,0.87979,0.18151,0.40467,0.86791,-0.00027,0.35722,1.45419,0.20708,0.6147,1.40955,-0.13713,0.42781,1.2084,0.22562,0.81663,1.20477,-0.03933,0.58892,1.39157,0.11571,0.90775,1.41752
1351,0.08419,0.49024,1.47037,-0.03045,0.57446,0.0757,0.25981,0.19636,0.15404,-0.01096,0.57365,0.4927,0.26866,0.49275,0.44779,0.01465,0.37389,0.87814,0.18063,0.40642,0.86466,0.00206,0.35738,1.44952,0.2013,0.62001,1.41012,-0.13571,0.42591,1.20365,0.21867,0.82901,1.21245,-0.03862,0.58473,1.38919,0.10157,0.91107,1.42505
1352,0.08121,0.49305,1.4675,-0.03035,0.57459,0.07527,0.26008,0.1982,0.15514,-0.01188,0.57548,0.49232,0.26949,0.49763,0.44577,0.01443,0.37321,0.8764,0.17975,0.40847,0.86168,0.00311,0.35709,1.44538,0.19577,0.6246,1.4101,-0.13421,0.42511,1.19912,0.2125,0.83802,1.21715,-0.04112,0.58376,1.38685,0.08985,0.91233,1.42947
1353,0.07857,0.49546,1.46479,-0.03056,0.57487,0.07509,0.26042,0.19932,0.15622,-0.0128,0.57799,0.49216,0.26969,0.50179,0.4437,0.01436,0.37259,0.87452,0.17893,0.41085,0.859,0.003,0.35689,1.44169,0.19088,0.62861,1.40919,-0.13297,0.42508,1.19473,0.20709,0.84446,1.21892,-0.04601,0.58502,1.38429,0.08108,0.91257,1.43136
1354,0.07611,0.49753,1.46232,-0.03098,0.57523,0.07518,0.26108,0.20011,0.15698,-0.01377,0.58111,0.49224,0.26926,0.50529,0.44161,0.01455,0.37218,0.8726,0.17835,0.41352,0.85669,0.00199,0.35744,1.43841,0.18698,0.63195,1.40735,-0.13223,0.42512,1.19035,0.20236,0.8488,1.21814,-0.0508,0.58687,1.38084,0.07527,0.91223,1.43139
1355,0.07323,0.49936,1.46002,-0.03138,0.5755,0.07542,0.26226,0.20101,0.15728,-0.01479,0.58436,0.49245,0.26819,0.5084,0.43958,0.01511,0.37208,0.87082,0.17813,0.41631,0.85478,0.00024,0.35894,1.43549,0.18416,0.6345,1.4048,-0.13209,0.42493,1.18596,0.19807,0.85116,1.21527,-0.05421,0.58884,1.37608,0.07211,0.91161,1.43004
1356,0.06966,0.50106,1.45776,-0.03158,0.57555,0.07558,0.26386,0.20209,0.15739,-0.01577,0.58732,0.49257,0.26654,0.51143,0.4376,0.01599,0.37222,0.8692,0.17827,0.41908,0.85313,-0.00209,0.36097,1.43282,0.18214,0.63642,1.4018,-0.13254,0.42468,1.18172,0.19386,0.85181,1.21068,-0.05694,0.5913,1.37039,0.07105,0.91131,1.42753
1357,0.06588,0.5028,1.45555,-0.03158,0.57547,0.07556,0.26573,0.20302,0.15766,-0.01667,0.58983,0.4925,0.26441,0.51447,0.43554,0.01707,0.37249,0.86767,0.17861,0.42184,0.85152,-0.00474,0.363,1.4303,0.18043,0.63797,1.39862,-0.13341,0.42453,1.17774,0.18958,0.85109,1.20484,-0.06015,0.59437,1.36446,0.07168,0.91193,1.42403
1358,0.06259,0.50461,1.45352,-0.03148,0.57547,0.0754,0.26785,0.20351,0.1582,-0.01744,0.59197,0.49229,0.26191,0.51736,0.43331,0.01821,0.37281,0.86622,0.17897,0.42456,0.84984,-0.00758,0.36491,1.42802,0.17846,0.63931,1.39557,-0.13449,0.42444,1.1741,0.18557,0.84927,1.19827,-0.06423,0.59771,1.35882,0.07391,0.91366,1.41971
1359,0.05988,0.50637,1.45173,-0.03139,0.57564,0.07521,0.27023,0.20372,0.15891,-0.01804,0.59394,0.49205,0.25926,0.51998,0.43108,0.01929,0.37332,0.86496,0.17932,0.42717,0.84819,-0.01072,0.36688,1.42611,0.1759,0.64058,1.39274,-0.13582,0.42453,1.17086,0.18228,0.84665,1.19136,-0.06878,0.60091,1.35382,0.0777,0.91621,1.41468
1360,0.05735,0.50804,1.45009,-0.03134,0.57584,0.07507,0.27278,0.20419,0.1596,-0.01838,0.59612,0.49183,0.2567,0.52246,0.42916,0.02028,0.37419,0.86382,0.17975,0.4296,0.84681,-0.01432,0.36904,1.42451,0.17288,0.64189,1.38982,-0.13752,0.42526,1.16802,0.1797,0.8439,1.18439,-0.07314,0.60389,1.34974,0.08244,0.91916,1.40917
1361,0.05463,0.50981,1.44834,-0.03127,0.57589,0.07498,0.2754,0.20533,0.16014,-0.01837,0.59881,0.49161,0.25444,0.52499,0.42772,0.02118,0.37543,0.86264,0.18033,0.4318,0.84581,-0.01838,0.37145,1.42303,0.16997,0.64307,1.38658,-0.13958,0.42687,1.16542,0.17775,0.84152,1.17774,-0.07689,0.60676,1.34649,0.08715,0.92211,1.40345
1362,0.05165,0.51195,1.44628,-0.03115,0.57585,0.07492,0.278,0.20711,0.16059,-0.01789,0.60186,0.49135,0.25251,0.52768,0.42669,0.02195,0.37684,0.86135,0.18098,0.43371,0.84506,-0.02268,0.37413,1.42152,0.16772,0.64379,1.38332,-0.14193,0.42915,1.16291,0.17682,0.83933,1.17179,-0.07995,0.60956,1.34371,0.09106,0.92466,1.39765
1363,0.04859,0.5145,1.44401,-0.03106,0.57591,0.07479,0.28037,0.20916,0.16112,-0.01691,0.60485,0.491,0.2508,0.53049,0.42586,0.02256,0.37818,0.86003,0.18157,0.43527,0.84433,-0.02693,0.37702,1.41987,0.1663,0.64424,1.38059,-0.14452,0.4318,1.16045,0.17732,0.8369,1.16654,-0.08252,0.61225,1.34121,0.09404,0.92639,1.39172
1364,0.04564,0.51718,1.44181,-0.03108,0.57615,0.07454,0.28227,0.21107,0.16186,-0.01572,0.60741,0.49054,0.24926,0.53335,0.42504,0.02311,0.37926,0.85873,0.1821,0.43655,0.84349,-0.03092,0.38008,1.41809,0.16558,0.645,1.3785,-0.14727,0.4347,1.15807,0.17892,0.83439,1.16168,-0.08471,0.61485,1.33893,0.09636,0.92716,1.38578
1365,0.04291,0.51969,1.43983,-0.03119,0.57638,0.07419,0.28364,0.2127,0.16274,-0.01472,0.6094,0.49001,0.24799,0.53614,0.42415,0.02366,0.37997,0.85745,0.18258,0.43751,0.84245,-0.03455,0.38337,1.4163,0.16545,0.64631,1.37666,-0.14999,0.43782,1.15584,0.18078,0.83231,1.15705,-0.08627,0.61752,1.33674,0.09832,0.92734,1.38025
1366,0.0404,0.52198,1.43796,-0.03131,0.57636,0.07381,0.28466,0.21409,0.16356,-0.01401,0.61095,0.48947,0.24717,0.53874,0.4232,0.02411,0.3803,0.85617,0.18295,0.43806,0.8412,-0.03781,0.38677,1.41463,0.1657,0.64784,1.37471,-0.15251,0.44111,1.15382,0.18226,0.83105,1.15285,-0.08695,0.62041,1.33447,0.09996,0.92737,1.37556
1367,0.03812,0.52419,1.436,-0.03128,0.57609,0.0735,0.2856,0.21527,0.16418,-0.01338,0.61233,0.48899,0.2469,0.54101,0.42228,0.02424,0.38038,0.85493,0.18303,0.43824,0.83982,-0.04069,0.38993,1.41306,0.16591,0.64931,1.37257,-0.15473,0.44448,1.15202,0.18318,0.83073,1.1493,-0.08714,0.62354,1.33215,0.1011,0.92747,1.37191
1368,0.03611,0.52651,1.43389,-0.0311,0.57578,0.07333,0.28656,0.2163,0.16459,-0.01262,0.61372,0.48864,0.24715,0.54296,0.42142,0.02399,0.38038,0.8538,0.18276,0.43822,0.83839,-0.04316,0.39267,1.41152,0.16563,0.65085,1.37036,-0.1566,0.44781,1.15033,0.18368,0.83137,1.14642,-0.08755,0.62679,1.32998,0.1016,0.9277,1.3692
1369,0.03441,0.52906,1.43164,-0.03082,0.57561,0.0733,0.28748,0.21735,0.16478,-0.01181,0.61517,0.48845,0.24784,0.5447,0.4207,0.0235,0.38039,0.85281,0.18229,0.43804,0.837,-0.04525,0.3952,1.40999,0.1647,0.65279,1.36824,-0.15799,0.45104,1.14865,0.18394,0.83286,1.14405,-0.08836,0.63006,1.32804,0.10162,0.92812,1.3672
1370,0.03313,0.53186,1.42936,-0.03052,0.57568,0.07336,0.2882,0.21851,0.16486,-0.01112,0.61654,0.48836,0.24886,0.54635,0.42019,0.02297,0.38037,0.85193,0.18185,0.43769,0.83574,-0.04702,0.39787,1.40859,0.16341,0.6552,1.36639,-0.15877,0.45435,1.14696,0.18411,0.83493,1.14204,-0.08918,0.63352,1.32622,0.10146,0.92872,1.36569
1371,0.03229,0.53478,1.42713,-0.03022,0.57592,0.0734,0.28861,0.21954,0.16502,-0.01061,0.61767,0.4883,0.25005,0.54785,0.41986,0.02247,0.38032,0.8512,0.18149,0.43714,0.83462,-0.04849,0.40079,1.40734,0.16233,0.65773,1.36486,-0.15899,0.45801,1.14534,0.18424,0.8372,1.14044,-0.08972,0.63746,1.32443,0.10125,0.92941,1.36462
1372,0.03169,0.53756,1.42507,-0.02999,0.57621,0.07339,0.2888,0.22009,0.16532,-0.01015,0.61868,0.48821,0.25124,0.54898,0.41956,0.02198,0.3804,0.85058,0.18121,0.43649,0.83359,-0.04975,0.40382,1.40616,0.16201,0.65979,1.3635,-0.15896,0.46206,1.14384,0.18434,0.83952,1.13933,-0.09011,0.64186,1.32275,0.10085,0.93007,1.364
1373,0.03101,0.53998,1.42324,-0.02991,0.57652,0.07333,0.28898,0.21993,0.16566,-0.00963,0.61985,0.48804,0.25239,0.5495,0.41916,0.02145,0.38074,0.84996,0.18101,0.43578,0.83263,-0.05099,0.40675,1.40494,0.16253,0.6611,1.36206,-0.15898,0.46613,1.14238,0.18436,0.8419,1.13869,-0.09064,0.64628,1.32113,0.10012,0.93063,1.36381
1374,0.03022,0.54211,1.42159,-0.03003,0.57683,0.07323,0.28925,0.21911,0.16583,-0.00909,0.6212,0.48779,0.25359,0.54932,0.41864,0.02086,0.38122,0.84923,0.18082,0.43501,0.8317,-0.05229,0.40942,1.40368,0.16331,0.66177,1.36043,-0.15898,0.46969,1.14079,0.18422,0.8443,1.13839,-0.09139,0.65032,1.31935,0.0992,0.93111,1.36396
1375,0.02942,0.54422,1.42009,-0.03026,0.57704,0.0731,0.2895,0.21796,0.1656,-0.00864,0.62244,0.48752,0.25493,0.54853,0.41807,0.02024,0.38159,0.84846,0.18059,0.43421,0.83085,-0.05358,0.41183,1.40245,0.16365,0.6621,1.35873,-0.15871,0.47265,1.13905,0.18398,0.84662,1.13828,-0.09222,0.65402,1.31726,0.09833,0.93159,1.36431
1376,0.02863,0.54644,1.4188,-0.03042,0.5771,0.07299,0.28957,0.21679,0.16492,-0.00827,0.62337,0.48728,0.25635,0.54734,0.4176,0.01966,0.38174,0.84777,0.18028,0.43354,0.83021,-0.05484,0.41404,1.40142,0.1634,0.66241,1.35715,-0.15806,0.47545,1.13741,0.18375,0.84884,1.13832,-0.09294,0.65791,1.31503,0.09758,0.9321,1.36479
1377,0.02774,0.54867,1.41771,-0.03036,0.57716,0.07294,0.28947,0.21564,0.16405,-0.00792,0.6241,0.48714,0.25763,0.54594,0.41725,0.01913,0.38179,0.84724,0.1799,0.43318,0.82983,-0.05626,0.41608,1.40067,0.16296,0.66298,1.35586,-0.15724,0.47852,1.13603,0.18347,0.85105,1.13845,-0.0934,0.66223,1.31281,0.09681,0.93261,1.36536
1378,0.02685,0.55084,1.41665,-0.03011,0.57739,0.07299,0.28936,0.21433,0.16332,-0.00753,0.6249,0.48712,0.25864,0.54443,0.41692,0.01857,0.38194,0.84686,0.17944,0.43306,0.8296,-0.05805,0.41814,1.40003,0.16276,0.66394,1.3549,-0.1565,0.48155,1.13467,0.18301,0.85328,1.13857,-0.09362,0.66639,1.31064,0.09593,0.93315,1.36592
1379,0.02626,0.55292,1.4155,-0.02978,0.57778,0.07318,0.28929,0.21272,0.16283,-0.00706,0.62589,0.48723,0.25956,0.54283,0.41652,0.0179,0.38223,0.84658,0.1789,0.43292,0.82931,-0.06009,0.42034,1.39921,0.1629,0.66515,1.35424,-0.15595,0.48401,1.13296,0.18238,0.85547,1.13871,-0.0938,0.66953,1.30846,0.09505,0.93374,1.36652
1380,0.02614,0.55488,1.41437,-0.02942,0.57824,0.07341,0.28928,0.211,0.16244,-0.00647,0.62686,0.48739,0.26069,0.5412,0.41615,0.0172,0.38256,0.84639,0.1784,0.43256,0.82896,-0.06199,0.42264,1.39815,0.16323,0.66629,1.35387,-0.15554,0.48589,1.13099,0.18177,0.85752,1.13905,-0.09404,0.67176,1.30634,0.09437,0.9343,1.36733
1381,0.02619,0.55663,1.41359,-0.02907,0.57865,0.07352,0.28925,0.20953,0.16207,-0.00569,0.62745,0.48746,0.26205,0.53969,0.41598,0.01661,0.38285,0.84634,0.17806,0.43199,0.82868,-0.06348,0.42497,1.39712,0.16365,0.66713,1.35364,-0.15519,0.48776,1.12921,0.18135,0.85938,1.13966,-0.09409,0.67392,1.3044,0.09395,0.93476,1.36841
1382,0.0259,0.55813,1.41331,-0.02881,0.57885,0.07341,0.28914,0.20853,0.16165,-0.00481,0.62741,0.48733,0.26335,0.53843,0.41606,0.01618,0.38318,0.84655,0.17785,0.43146,0.82865,-0.0646,0.42735,1.39631,0.16411,0.6677,1.35337,-0.15491,0.48997,1.12788,0.18113,0.8611,1.14038,-0.09342,0.67632,1.30273,0.09374,0.93518,1.36956
1383,0.02515,0.55941,1.41342,-0.02873,0.57872,0.07311,0.28894,0.20797,0.16115,-0.00394,0.62685,0.48704,0.26432,0.53738,0.4163,0.01581,0.38364,0.84702,0.17768,0.43116,0.82885,-0.06571,0.42962,1.39569,0.16462,0.66812,1.35301,-0.1547,0.49246,1.12688,0.18112,0.86269,1.14104,-0.09194,0.67873,1.30135,0.0937,0.93565,1.37057
1384,0.02431,0.56062,1.41364,-0.02887,0.57839,0.07278,0.28883,0.20762,0.16065,-0.0032,0.6261,0.48671,0.26495,0.53646,0.41661,0.01538,0.38422,0.84764,0.17743,0.431,0.82916,-0.06715,0.43148,1.39528,0.16511,0.66841,1.3527,-0.15459,0.49506,1.12613,0.18136,0.86401,1.14167,-0.09012,0.68108,1.30025,0.0939,0.93616,1.37144
1385,0.02368,0.56188,1.41382,-0.02913,0.57817,0.07253,0.28892,0.20732,0.16033,-0.00262,0.62534,0.48647,0.26541,0.53562,0.41702,0.01487,0.38478,0.84834,0.17711,0.43078,0.82956,-0.06885,0.43281,1.3951,0.16556,0.66851,1.35268,-0.15458,0.49766,1.12571,0.18184,0.86492,1.1424,-0.08858,0.68359,1.29935,0.09434,0.93672,1.37226
1386,0.02321,0.5632,1.41397,-0.02937,0.57822,0.07239,0.28906,0.20715,0.16024,-0.00222,0.62449,0.48639,0.26583,0.53489,0.41767,0.01438,0.38522,0.84915,0.1768,0.43048,0.83016,-0.07039,0.4337,1.39507,0.16591,0.66857,1.35314,-0.15457,0.50003,1.12555,0.18245,0.8654,1.14327,-0.08765,0.68614,1.29865,0.09484,0.93749,1.373
1387,0.02276,0.56444,1.41419,-0.02953,0.57846,0.07234,0.28904,0.20725,0.16035,-0.00209,0.62346,0.48645,0.26623,0.53437,0.41859,0.014,0.38549,0.8501,0.17657,0.43015,0.831,-0.07152,0.43438,1.39509,0.16609,0.6688,1.35405,-0.15446,0.50192,1.12548,0.1831,0.86558,1.14417,-0.08727,0.68818,1.29832,0.09534,0.93854,1.37356
1388,0.02225,0.56549,1.41464,-0.02961,0.57879,0.07236,0.28887,0.20764,0.16066,-0.00222,0.62245,0.48662,0.26657,0.53418,0.41968,0.01379,0.38569,0.85105,0.17651,0.42983,0.83197,-0.07228,0.43519,1.39525,0.16608,0.66918,1.35516,-0.15426,0.50331,1.1255,0.18369,0.86561,1.14502,-0.08708,0.68929,1.29864,0.09594,0.93979,1.37403
1389,0.02166,0.56636,1.41539,-0.02964,0.57903,0.07245,0.28881,0.20827,0.16113,-0.00245,0.62174,0.48683,0.26685,0.53428,0.42084,0.01375,0.38596,0.85189,0.17662,0.4296,0.83301,-0.07297,0.43641,1.39567,0.16598,0.66951,1.35623,-0.15413,0.50454,1.12567,0.18414,0.86563,1.14584,-0.08662,0.68969,1.29956,0.09664,0.94104,1.37454
1390,0.02111,0.56713,1.41633,-0.02965,0.57905,0.0726,0.28919,0.20906,0.16156,-0.00265,0.62137,0.48703,0.26721,0.53447,0.42203,0.01381,0.38639,0.85259,0.17684,0.42964,0.83413,-0.07387,0.438,1.39624,0.166,0.66972,1.35718,-0.1542,0.50591,1.12594,0.18447,0.86567,1.14666,-0.08582,0.68991,1.30072,0.09726,0.94217,1.37511
1391,0.02081,0.56788,1.41728,-0.02962,0.57882,0.07276,0.29002,0.20998,0.16185,-0.00283,0.62116,0.4872,0.26769,0.53461,0.42325,0.01394,0.38692,0.85322,0.17707,0.43002,0.83536,-0.07507,0.43963,1.3968,0.16622,0.66981,1.35805,-0.15436,0.50747,1.12617,0.18489,0.86575,1.14753,-0.08502,0.69018,1.30191,0.09769,0.94307,1.3757
1392,0.02067,0.56862,1.41816,-0.02949,0.57845,0.0729,0.29102,0.21084,0.16209,-0.00308,0.62095,0.48735,0.2681,0.53465,0.42446,0.01405,0.38747,0.85385,0.17723,0.43067,0.83666,-0.07636,0.44104,1.39738,0.16666,0.66981,1.35884,-0.15437,0.50902,1.12642,0.18552,0.86584,1.14842,-0.08445,0.6905,1.30322,0.09814,0.94373,1.37634
1393,0.02042,0.56937,1.41914,-0.02926,0.57813,0.07304,0.29183,0.21139,0.16247,-0.0033,0.62069,0.48751,0.26826,0.53457,0.42556,0.01409,0.38806,0.85454,0.17729,0.43143,0.83796,-0.07738,0.44221,1.39819,0.16725,0.66978,1.35956,-0.15414,0.51042,1.12693,0.18628,0.86589,1.14924,-0.08402,0.69096,1.30459,0.0989,0.94424,1.377
1394,0.01993,0.57009,1.4204,-0.02898,0.57796,0.07317,0.29235,0.2116,0.16293,-0.00337,0.62041,0.48767,0.26813,0.53434,0.42651,0.01407,0.38873,0.8553,0.17731,0.43212,0.83916,-0.07803,0.44333,1.39917,0.16785,0.66977,1.36028,-0.15378,0.51169,1.12766,0.18713,0.86582,1.14993,-0.08347,0.69168,1.3058,0.10001,0.94464,1.37762
1395,0.01935,0.57077,1.42177,-0.02875,0.57798,0.07332,0.29271,0.21173,0.16329,-0.00325,0.62016,0.48786,0.26792,0.53406,0.42731,0.01409,0.38941,0.85607,0.17742,0.43259,0.84022,-0.07848,0.4445,1.40001,0.16837,0.66982,1.36112,-0.15335,0.51295,1.12828,0.18819,0.86562,1.15058,-0.08269,0.69253,1.30671,0.10117,0.94489,1.37816
1396,0.01887,0.57141,1.42286,-0.02862,0.57813,0.07353,0.29305,0.21201,0.1635,-0.00305,0.61995,0.4881,0.26786,0.53389,0.42803,0.0142,0.38999,0.8568,0.17761,0.43291,0.84112,-0.0789,0.44558,1.40056,0.16874,0.66998,1.36219,-0.15288,0.51422,1.12864,0.18945,0.86533,1.15131,-0.08191,0.69324,1.30751,0.10206,0.945,1.37861
1397,0.01863,0.57199,1.42355,-0.02847,0.5783,0.07377,0.29342,0.2124,0.1637,-0.00287,0.61972,0.48837,0.268,0.53386,0.42871,0.01438,0.39044,0.8575,0.17782,0.43328,0.84191,-0.07927,0.44635,1.40099,0.16896,0.67029,1.36339,-0.15252,0.5153,1.12895,0.19063,0.86505,1.15207,-0.0815,0.69354,1.30857,0.10257,0.94512,1.37897
1398,0.01875,0.57251,1.42404,-0.02821,0.5784,0.07393,0.29379,0.21275,0.16394,-0.00271,0.61941,0.48859,0.26824,0.53387,0.42936,0.01458,0.39083,0.85815,0.17802,0.43368,0.84264,-0.07956,0.4467,1.40152,0.16901,0.67064,1.36445,-0.15251,0.516,1.12949,0.19146,0.86488,1.15273,-0.08162,0.69327,1.31013,0.10283,0.94541,1.37924
1399,0.01917,0.57296,1.4247,-0.02781,0.57843,0.07406,0.29414,0.21292,0.16422,-0.00248,0.61913,0.48876,0.26845,0.53378,0.42995,0.01469,0.39119,0.85872,0.17816,0.43397,0.84331,-0.07982,0.44679,1.40215,0.16891,0.67089,1.36512,-0.15287,0.51641,1.13023,0.19203,0.86486,1.15323,-0.08216,0.69278,1.3118,0.10305,0.94587,1.37943
1400,0.01959,0.57324,1.42576,-0.02736,0.57843,0.07426,0.29448,0.21287,0.16453,-0.00209,0.61904,0.48897,0.26857,0.53352,0.43048,0.0147,0.39149,0.85919,0.17822,0.43411,0.84393,-0.08015,0.44694,1.40269,0.16879,0.67101,1.36554,-0.15339,0.51695,1.13091,0.19261,0.86489,1.15364,-0.08287,0.69296,1.31292,0.10334,0.94629,1.37958
1401,0.0198,0.57343,1.42706,-0.02695,0.57843,0.07452,0.29477,0.21264,0.1648,-0.0016,0.61909,0.48922,0.26857,0.53311,0.43094,0.01466,0.39174,0.85959,0.17823,0.43426,0.84452,-0.08049,0.44728,1.40287,0.16888,0.67121,1.36602,-0.15374,0.51805,1.1313,0.19331,0.86483,1.15395,-0.08348,0.69421,1.31326,0.10379,0.9466,1.37966
1402,0.01987,0.57385,1.42807,-0.0266,0.57844,0.07474,0.29498,0.21239,0.16484,-0.00118,0.61918,0.48942,0.26844,0.53259,0.43127,0.01466,0.39199,0.8599,0.17823,0.4346,0.84508,-0.08073,0.44772,1.40259,0.16935,0.67154,1.36669,-0.15384,0.51963,1.13127,0.19392,0.86459,1.15411,-0.08381,0.69599,1.31313,0.10436,0.94696,1.37959
1403,0.02,0.57454,1.42858,-0.02626,0.57855,0.0749,0.2951,0.21215,0.16461,-0.00096,0.6194,0.48959,0.26819,0.53201,0.43141,0.01469,0.39232,0.86014,0.17825,0.43505,0.84552,-0.08096,0.44827,1.40208,0.17005,0.67172,1.3673,-0.15383,0.52117,1.13096,0.19426,0.86414,1.15413,-0.08389,0.69738,1.313,0.10492,0.94763,1.37929
1404,0.02015,0.57502,1.42895,-0.02591,0.57884,0.07511,0.29511,0.21182,0.16427,-0.00083,0.61986,0.48979,0.26784,0.53137,0.43142,0.01467,0.39273,0.86033,0.17825,0.43541,0.84584,-0.08142,0.44894,1.40177,0.17055,0.67154,1.36763,-0.1539,0.52232,1.13068,0.19441,0.86353,1.15401,-0.08391,0.69817,1.31305,0.10528,0.9487,1.37862
1405,0.02026,0.57483,1.42962,-0.02567,0.57923,0.07538,0.29504,0.21131,0.16398,-0.00063,0.62047,0.49004,0.26738,0.53058,0.43141,0.01454,0.39321,0.86051,0.17822,0.43552,0.84614,-0.08218,0.44959,1.40186,0.17056,0.67122,1.36776,-0.15413,0.52308,1.13066,0.19461,0.86275,1.15377,-0.0843,0.69895,1.31306,0.10537,0.95004,1.37752
1406,0.02032,0.57406,1.43058,-0.02565,0.57952,0.07559,0.29495,0.21069,0.16372,-0.00035,0.62103,0.4902,0.26677,0.52966,0.43145,0.01438,0.39375,0.86068,0.17825,0.4354,0.8465,-0.08305,0.45003,1.40215,0.17027,0.67095,1.36801,-0.15441,0.52349,1.13079,0.19509,0.8617,1.15341,-0.08522,0.70013,1.31268,0.10529,0.95149,1.37594
1407,0.02027,0.57318,1.43159,-0.02578,0.57962,0.07566,0.29482,0.21012,0.16349,-0.00016,0.62149,0.49022,0.26603,0.5288,0.4315,0.01427,0.39435,0.86079,0.17837,0.43517,0.84687,-0.08394,0.45021,1.40242,0.1702,0.67059,1.36844,-0.15457,0.52366,1.13086,0.19587,0.86019,1.15292,-0.08642,0.70154,1.31194,0.10509,0.95291,1.37385
1408,0.02012,0.57245,1.43253,-0.0259,0.57954,0.07566,0.29455,0.20967,0.16334,-0.00019,0.62189,0.49017,0.26525,0.5282,0.43148,0.01424,0.39492,0.86085,0.17852,0.43507,0.84716,-0.08491,0.45024,1.40253,0.17057,0.66984,1.36887,-0.1545,0.52386,1.13074,0.19677,0.85815,1.15227,-0.0876,0.70283,1.31122,0.10468,0.95402,1.3713
1409,0.02002,0.57188,1.43335,-0.02595,0.57937,0.07567,0.29407,0.2093,0.16326,-0.00042,0.62223,0.49014,0.26454,0.52784,0.43137,0.01419,0.39538,0.86088,0.17856,0.43521,0.84731,-0.0859,0.45016,1.40231,0.17123,0.66871,1.36907,-0.15431,0.52431,1.13037,0.19764,0.85572,1.15138,-0.08858,0.70377,1.31079,0.10392,0.95443,1.36845
1410,0.01999,0.57135,1.434,-0.02591,0.57911,0.07562,0.29341,0.20897,0.16315,-0.00071,0.62243,0.49006,0.26391,0.52757,0.43119,0.01409,0.39579,0.86092,0.1785,0.43549,0.84738,-0.08669,0.45007,1.40166,0.17186,0.66754,1.36905,-0.15416,0.52481,1.12965,0.19846,0.85309,1.15014,-0.08931,0.70434,1.31033,0.10295,0.9539,1.36546
1411,0.01997,0.57081,1.43452,-0.02576,0.57883,0.07545,0.29273,0.20866,0.16299,-0.00093,0.62255,0.48986,0.26333,0.52724,0.43106,0.01396,0.39631,0.86097,0.17842,0.4358,0.84748,-0.08714,0.45017,1.40073,0.17232,0.66662,1.36892,-0.15402,0.52504,1.12861,0.19929,0.85031,1.14849,-0.08989,0.70483,1.30927,0.1021,0.95254,1.36238
1412,0.0201,0.57039,1.435,-0.02553,0.57859,0.07523,0.29222,0.20829,0.16279,-0.00105,0.62285,0.48961,0.26287,0.52674,0.43102,0.01379,0.3971,0.86102,0.17837,0.43616,0.84772,-0.08731,0.45055,1.39982,0.17276,0.66589,1.36874,-0.15381,0.52508,1.12752,0.20025,0.84722,1.14643,-0.09037,0.70589,1.30741,0.10167,0.95038,1.35925
