PaulMeinheit/Bachelor_Muay_Thai/processed_Data/N3/roundhouse/scaled/JointMoments/scaled5.csv
R_KNEE_MOMENT,R_KNEE_MOMENT,R_KNEE_MOMENT,L_KNEE_MOMENT,L_KNEE_MOMENT,L_KNEE_MOMENT,R_HIP_MOMENT,R_HIP_MOMENT,R_HIP_MOMENT,L_HIP_MOMENT,L_HIP_MOMENT,L_HIP_MOMENT,R_ANKLE_MOMENT,R_ANKLE_MOMENT,R_ANKLE_MOMENT,L_ANKLE_MOMENT,L_ANKLE_MOMENT,L_ANKLE_MOMENT,WAIST_JOINT_MOMENT,WAIST_JOINT_MOMENT,WAIST_JOINT_MOMENT,NECK_MOMENT,NECK_MOMENT,NECK_MOMENT,L_SHOULDER_MOMENT,L_SHOULDER_MOMENT,L_SHOULDER_MOMENT,R_SHOULDER_MOMENT,R_SHOULDER_MOMENT,R_SHOULDER_MOMENT,L_ELBOW_MOMENT,L_ELBOW_MOMENT,L_ELBOW_MOMENT,R_ELBOW_MOMENT,R_ELBOW_MOMENT,R_ELBOW_MOMENT,L_WRIST_MOMENT,L_WRIST_MOMENT,L_WRIST_MOMENT,R_WRIST_MOMENT,R_WRIST_MOMENT,R_WRIST_MOMENT
X,Y,Z,X,Y,Z,X,Y,Z,X,Y,Z,X,Y,Z,X,Y,Z,X,Y,Z,X,Y,Z,X,Y,Z,X,Y,Z,X,Y,Z,X,Y,Z,X,Y,Z,X,Y,Z
7.1995700000000005,3.610080000000001,-0.20165,-2.2441800000000005,10.038299999999998,0.6860900000000001,18.360150000000004,-7.37596,3.0157400000000005,-34.14200000000001,7.296060000000001,-3.559060000000001,-35.119400000000006,31.16139000000001,-5.368850000000001,2.711530000000001,1.9483200000000003,0.2784400000000001,-18.295250000000003,4.76865,-9.361220000000001,17.538930000000004,-18.219720000000002,-7.359410000000001,4.935110000000002,-0.7821200000000003,-1.3500900000000002,-0.07760999999999998,-1.4504700000000001,-2.3876,0.7456300000000001,-0.7086,-0.15204,1.23698,1.11821,-0.6366300000000001,0.07693,0.0427,-0.08302000000000001,0.11094000000000002,0.10633,-0.03524000000000001
8.29716408934851,4.102829668834848,-0.8781131260210124,-4.6589445595661365,12.202652416015844,0.8785470991347055,29.23159713624093,-5.612469410699391,0.02372052160102463,-35.47367817946477,18.00137838693275,1.262103110326038,-35.23582115502654,30.90372126320554,-5.228797339301795,2.4338412156035236,1.7088949073956379,0.26776395738603137,-4.203949564808573,23.694943386101816,-1.882346027893913,20.581103410643898,-10.820750389115254,12.068486079671535,4.6816895497837505,2.3233782441693887,2.166978841093451,9.076709456899586,-0.9523085125331292,1.4284501126548863,2.393273074368406,-3.189299252399605,0.2063915788975022,3.075034330191495,1.330223635474463,0.4857837848450475,0.3166653269946918,-0.3366710347815505,0.022019856568308713,0.4511713595962812,0.11047110748238616,0.09371224813394893
9.218177571873643,3.723827572662379,-0.673767122847859,-4.815680162970176,11.271198867645722,0.8521673446472521,30.023721897648603,-1.8698068119143731,0.6927335326991191,-42.76573434790807,23.779151765510235,5.859744077473207,-35.60813383822047,31.02414794995457,-5.177561444395969,2.112717694644957,1.5759054397646968,0.06817222590482433,-15.532523269032765,38.540640912828756,8.380358065488773,14.2975759009283,-21.35970548666957,6.162789723516337,3.231238423352114,0.9647340532704312,-0.18965937201521305,9.849497587276156,0.808135473934076,3.718878898478163,1.0518268011724892,-0.8855027519044497,-0.35385052013884544,2.140029471294784,0.6634280748008938,0.9604575381675029,0.14222688150478277,-0.06106517067502435,-0.030231649680597994,0.14636817878677755,0.011565576599421618,0.07070011913384083
7.64170522771012,2.1510696850649533,0.02693837830971773,-1.648252575906547,9.754784599762326,0.8317231553558329,20.588757974322544,-2.5525122975093995,2.519046625716451,-25.581972922459517,14.547897383059682,1.1171812211368342,-35.432405065123014,30.599078582822173,-5.312570663819269,1.6546471910261369,1.2768284689214657,0.10273977270363352,-5.365721159895425,24.025217830089122,-6.250365369111005,17.395035115740487,-19.209124462881807,-12.406673159700937,8.35050302486007,-5.468153412262747,-4.97710806091589,2.6579192593293786,-1.3159499673829,-1.2676785987426886,0.8152850030917332,-0.6787725455776528,-0.725729889716322,0.7907950626912086,0.980161187777383,-0.7153151534747104,0.10858731452304134,-0.0525735553776703,-0.14101471759148168,-0.026665506632981326,0.07202802403630745,-0.06155985941381021
6.650194633562505,1.0935958517410596,0.039202164159916245,-4.7145444381610275,12.657973771062407,0.971454852163498,18.713108204726637,-6.63155776344178,0.7619015711605281,-41.64849241605683,18.56930803039526,0.3925848449684909,-34.9435838643094,30.127728778584196,-5.336918225810029,1.1223104610973822,1.2388479195817355,0.12030685723646456,-24.28866426042972,15.404483962307292,-5.108920699879297,22.341060962623942,-7.86996936140517,5.930820807412147,4.738249919738183,1.94121879195129,3.7660095061603385,5.318980434896496,-0.8713305182194424,-0.8283167674984199,0.8611751138892937,-3.4524141133700255,2.01179781774803,1.9671802312339073,1.6468090901812937,-0.8284004973439558,-0.0668216551267624,-0.4000339780158661,0.32049507319964915,0.30645212175138126,0.3260406767317059,-0.2473269270172267
8.430979847734342,-0.06743554712588384,0.3532553177286507,-6.66293762150747,9.812904533297022,0.15339282678309504,20.41689071726218,-10.981135716269954,2.515552867950148,-39.80267766857025,14.228899375861648,0.5636846524787104,-34.2314948947553,29.235382813660532,-5.083335951497996,0.39616291372585766,1.0736524889094912,-0.45077593587498976,-19.031409227965625,15.918540836525096,-0.9047204241529678,31.202816144324963,-12.233174065692562,6.427889982753982,4.893061303162788,1.6114294597790686,2.2214698784334352,4.61055396658281,0.5014046256360588,2.349211580800935,1.780595477017104,-3.037843648873442,0.6925206860071614,1.440807223758576,0.36839646957736916,1.1113194802652357,0.23262401693982393,-0.37855011084000745,0.12054774776503024,0.15508379133764336,-0.028242940301808347,0.24453718769357127
7.172242587318,0.6617175191104577,-0.036918328802094696,-4.237464209452957,12.375730248009843,0.7855855108356578,17.320210557091162,-2.0842501498264654,0.17494458258863643,-33.7840843830944,26.218303788105995,3.6807338156559086,-32.97423562364576,27.785493052899685,-4.892741893350594,0.1271122449375105,1.2078955724674552,-0.15136028293999929,-21.666714866858776,37.021070597092795,-2.7857881742047303,37.48889194716261,-19.13930737117887,1.030722761198264,6.475656904776103,0.9005425239143084,0.7928634502327397,6.792509935458058,-2.659142250508668,-1.2243493884973302,2.351431401865922,-2.9385050153875465,-0.10379106761619449,2.4137968498242235,1.5828854176740919,-0.7064363383523882,0.42044077074078606,-0.31977194746646304,-0.10232945617724322,0.293018186104707,0.11329414233743024,-0.06848184190415645
6.874486922741257,0.40711434299560517,-0.12102821684727834,-3.5812651111400324,11.591956216479161,0.8188958335144193,18.802914502805088,-5.967728423180043,1.6691596894884158,-31.840357317040766,21.57501853661265,2.954253714522995,-31.54131433227219,25.937711506897138,-4.701557823225601,-0.1132953494263469,1.3471412797108633,-0.2019749971140695,-15.061590821850066,27.19421814842016,0.21385622792869022,18.283751973430334,-13.589795519911457,1.7797928858909455,6.218400423630865,-0.12131187938488007,0.6249165055210305,6.50060344178243,-2.8232849294091653,-1.8362154460302897,1.2061667768636284,-2.4466737905165985,0.6405840900080662,2.3488759842001627,1.7704307712931568,-1.155640836770767,0.07541242341240063,-0.27039582543077817,0.12567846403744812,0.3635103419943352,0.23525369352042338,-0.21706931028330817
7.797025138573435,-1.347482306295974,0.29385521785200025,-7.092974127778277,8.242777002469749,-0.12548250821946347,20.19370061469077,-10.502147002432222,3.0945416024055366,-37.20226243960042,8.760465364825103,-1.0130826750462767,-29.829310683414224,23.922529642283152,-4.33128578146045,-0.5652926236792385,1.242070733826113,-0.6679319475583066,-17.495024640627427,5.903466046804466,-3.4579813955812355,17.580761631818326,-12.999355352664054,2.310285948337453,2.643182815147504,-0.11634908505993799,-0.11669402123553455,5.646299381482278,-0.4804207593644945,1.9547576394529984,0.42733739300785734,-0.9378177872054348,-0.004297696181863949,1.7164579118204402,0.6639940891987038,0.8939217122928631,-0.019384334220241908,-0.09119622866582665,0.013723963898373147,0.2179659282430827,0.03241426813508888,0.20865654023910576
7.647464843359006,-3.258274201306415,0.5800487459038388,-6.262516234861505,10.344824025409421,0.14008861634716815,16.31598858105178,-6.379101040935577,1.6054072112247804,-31.225009256052495,15.44538768304205,0.6151653597035736,-28.316996473985707,21.85096544832527,-4.127038582390575,-0.620787322689093,1.3241640640709524,-0.630226088542413,-15.778754513961903,21.565658009122757,-5.808552628954842,23.904057873741056,-12.34694095798716,4.853645317561834,4.714245142573192,2.0410200632629314,2.1110739529546674,3.3524869991546113,-1.4862331476458936,-0.4630148178217675,1.264666893845661,-2.528237240300659,0.5995588125961703,2.0726071479048636,1.119587498946997,0.36679848543916715,0.1552818289222289,-0.2557035496295675,0.013360066014198303,0.2309410742581305,0.10819838236282389,0.08190180750478099
8.666452255314107,-4.880303937393051,0.6056507508919917,-6.286891873752887,12.502797371742407,0.4761333063712274,19.036612101639765,-16.446971183780814,2.1884610590124915,-27.363357609169654,19.84324946941445,1.4746291747764784,-26.957899857278125,19.84167799199157,-3.85875571861707,-0.6593977518645103,1.389585725221474,-0.4876357226412096,-3.203867280088248,18.189649674254646,-2.3884163968353236,21.324039900027735,-19.666926290467984,-4.5886844192664435,8.222311724509142,-3.5055433078731295,-2.5101685492730885,6.615246003286125,-0.6903844791317753,0.5666421268670953,1.5276520073899453,-1.8736905220564863,-0.26056188745867576,2.37788902652954,1.3162889966341376,-0.23324646421928313,0.19179436895874197,-0.18029333044162837,-0.017332717559897022,0.24062686310680598,0.18569040195316727,-0.21391444714092422
8.310762899516229,-3.3861108881605517,-0.08876568223510085,-8.948051186999859,11.337665104325152,0.2168393793796502,16.82689016600828,-5.597338623457153,-1.897913148962534,-43.86124610533638,18.907744783642727,2.637021778104698,-25.800090736647828,18.32857535630031,-3.3993598332469968,-0.80550214833971,1.2123972969434744,-0.6877548316210974,-31.40465530641528,25.452609047603627,-5.189141458525781,26.277880435567347,-16.508896215422578,-0.7813275356715247,6.870866087638277,-1.2739623052876823,-0.4955260894428848,7.3575937551143475,-1.368056494676871,0.9885324916315585,0.8930057309777295,-1.8150114763294283,0.40766696116082574,2.0809803408432077,0.9047475548020908,-0.15175534005191324,0.03478875060505152,-0.06431159481363849,-0.0032416173980796765,0.2737725654991012,0.04230136007337932,-0.07807776075119273
8.503528613606413,-7.154284394965418,1.4796861873528981,-6.37938205127388,9.778164900843358,0.016887198638493313,15.579598796776558,-6.213441348908737,2.0064584255385234,-30.9505289584684,15.921773926735744,1.3244370582521916,-24.85454022756051,17.18132842461352,-3.2965185167498747,-0.2882049869085387,1.177280604160219,-0.7158892560131508,-17.605908432144528,24.941979274447068,-3.6215390207238856,18.183695021812834,-4.400954643518279,13.217006110591683,2.2180152032768587,2.012678365886788,3.08168120402931,4.71021076751604,-1.3439978606974563,1.1998027083382026,1.0461557883140709,-2.732445735235481,0.8611604540327782,1.3369962807264182,0.6458542900592913,0.7537669063894842,0.05422375499858256,-0.3702764587092922,0.17270600669608205,0.16145834213345772,-0.009241646583352282,0.30237409565048406
8.289568398582848,-8.691095044282733,2.1857786924277036,-7.206406364093017,9.079497570236265,-0.14811293237018455,16.13218225620109,-14.740057136264657,5.087618570590221,-22.991779702491257,12.300943843030925,0.44941169054836116,-24.69466050369151,16.93348981076779,-3.264822009966702,-0.20232495326230907,1.0158249867024642,-0.7344029014157305,-0.5723485941356434,12.445576846054703,-3.5088743995243368,24.086919218567065,-9.496265742153135,-4.644060453662301,8.298536341875913,-3.287910984422293,-2.488074060745499,7.346383148141221,-2.4781716543232855,-0.161432197503934,1.901295072135998,-2.2406999837737875,-0.6349767644602005,1.3999432232982028,1.4595781273907782,-0.8112692356053336,0.3791574579344192,-0.33607953206241187,-0.15157249291746977,0.14253333925030223,0.20199245574099842,-0.08693866146955098
8.77143688071777,-9.634350115715987,2.18942317513489,-8.16274902768328,8.676491615916323,-0.3272240139221512,12.97125956919628,-14.783405121015656,3.3586513239343345,-28.640958099128945,13.882973550685227,-0.12341244372220726,-24.841555154843423,16.737541984379448,-3.3102684478231943,-0.1611244036046993,1.377246345863662,-0.5944382902498452,-14.674959905731919,20.83152497618338,-2.9722647797692217,30.72567972197579,-16.445012362436053,-1.4306802935781158,5.349509670006538,0.615422165363182,0.15790871927000236,5.399824809704187,-2.2403512180172394,-0.557097416131386,0.7426844256071897,-1.0952917007650826,0.2576518882265364,1.9098067430294194,1.369984193579336,-0.26549969895263936,0.11992190810447201,-0.08117141989297223,0.02425309808983066,0.19520694803295327,0.1604280847683029,-0.038586256427745186
6.006752058619023,-9.170017458680984,2.224757311092275,-8.942119002443395,5.521410630392832,-0.9426373461039909,2.8193534105449465,-5.622510146810911,0.3640665344628862,-29.67373754004921,8.861084117370002,-0.6215549554281706,-25.104705043064904,17.025007247679284,-3.376111421222662,-0.20119882438934478,1.2703975120903614,-0.8326602165004008,-24.956449891535787,32.946276674347956,-8.024056599036916,-6.8742966432626105,-11.446675823041257,2.1172330471270495,5.224626233927557,-2.610634671382902,-1.1463174802604703,4.911042046440132,-0.9226633349362707,1.6713434691513787,0.49543209008296474,-1.3072115921665008,0.3708476356608724,1.709514308373483,0.3570247906575664,0.8046610788726124,-0.08776742481750494,-0.046118540614075276,0.11287697911416589,0.2055469531224656,-0.07373896181279671,0.14090228872302704
6.920444204565509,-13.267106800338194,3.674610882020727,-7.343311559000291,4.818729278236788,-0.8894773937953467,9.666810797465313,-16.361982337594046,5.596703880353298,-23.613184845730604,7.482002191725019,-1.06992372846377,-25.042663921321033,17.096527859137794,-3.64789374595507,-0.2079107905745988,0.9453949056462821,-0.7837690077609301,-9.415976080387734,15.13384255140534,-6.763958199076426,20.811695365599416,-14.414110698769745,4.156538020808938,6.177544003160834,-1.1317071089400812,0.4254452384528417,6.513028129150266,-2.023628464514818,-0.4349014967505938,1.4785213601458753,-3.1015910907273208,0.12819756827498158,1.3354991352385404,1.3755156839367901,-1.1183681411361348,0.10115292284321427,-0.32158728493663313,-0.0014513127540935222,0.13669242934597994,0.22182962499095357,-0.24734868442700433
6.465702409694073,-13.804137991164538,3.7795857268611397,-5.618954832155411,5.765850786085672,-0.23905492609958007,14.218747857125322,-23.322817577309984,7.090585126400868,-12.661850087982716,6.732342483790843,-0.29606009763215363,-25.154663644525158,16.90820495310567,-3.7308492150685066,-0.41706279940130936,0.758099370735438,-0.4241413182502345,8.271182625836461,8.069078417693513,-3.017812127216793,27.759235405524564,-29.877698972125273,6.982562915425406,5.644878433219871,0.9206454123889586,1.8889948507053218,9.314371123637624,-2.1620967251502536,1.4134792369316886,0.040313935257441744,-1.7105059822797233,1.3477871176415874,2.4655438770548246,1.461916890573388,-0.04489815784194271,-0.025609293378978753,-0.2088347812343305,0.15611526405026627,0.3489117682279042,0.13294509258658294,0.041441378035442636
4.115707930229293,-12.021467558111434,2.7873919307502764,-8.078672319422639,3.5199041622908376,-0.8191640345162318,9.073517114836255,-14.356982431503148,1.3852395754312266,-16.438858136138556,4.862788398065362,0.19510045497243747,-25.207947189325875,16.500353306014365,-3.8774505396112438,-0.5056645140509419,0.49485891472266624,-0.6227576122259938,1.3744371189268265,26.22441872889692,-5.426924329580121,9.017750314364092,-19.113051299313447,6.055752962699612,6.092435281747081,0.9112741075857803,2.4605574086021944,7.795830357495147,-3.407756222031639,0.42242492142144944,0.45006012791027206,-2.414696968734769,1.4120442715904513,1.8978868245257983,0.994491140563219,-0.17063392729107155,0.09449763939145302,-0.28865085033649485,0.10856620090005983,0.2309930051364546,-0.011340233740037215,0.0561452489380022
3.6784068956237834,-12.417668994865117,3.035227864764921,-8.774120566945232,1.9026879703523842,-1.5373008204264929,-1.476976236976379,-8.288885473337144,2.519150014328259,-25.99007443882788,6.89040914803098,-2.2188092684419716,-25.180368169248418,15.915696796375615,-4.150634771878016,-0.4586969906130878,0.2056901991129008,-0.7912798432951955,-22.766753069594728,35.7019168287425,-9.77166045233887,4.166889764060344,-17.69634041279843,11.524178384602054,7.8159036201347005,0.9210032963810367,2.22773907428043,5.324491995763813,-2.3924142122789225,-0.07407889741646304,1.555944605364596,-3.4852794566251855,0.675846584806028,0.9685560685249919,1.0569834884715732,-0.4283537490712341,0.20699636604888028,-0.4233291142553074,0.08771316865828845,-0.07660216242513397,0.097466752457976,-0.06965063095333217
5.29401195638804,-12.265454786758626,2.6556581277213365,-6.36925333509101,1.7873572324100926,-1.0899996392586748,4.508893946663047,-11.218389327025356,3.4676261878007155,-11.896375747628841,0.07863510100285359,-2.7212503653019824,-25.266999858061496,15.452109650216116,-4.355463374075274,-0.5744185709565536,-0.07072822042813182,-0.7060686161484808,3.871545994912862,25.580497571022274,-10.411951110711636,20.935816820989878,-3.6183508477478075,7.547058675775454,6.51785463786387,0.4980849192385487,3.073229406284192,8.327034394279197,-3.025153337870556,1.8738033946999648,1.2115360563814812,-3.212959680716636,1.4813739322266217,1.8441713055937623,0.8010826719962103,0.4546337409074566,0.0888040630802476,-0.163703945375759,0.18604627520297692,0.13561781158211,-0.06786119042087192,0.13168325117106663
1.7642787443951051,-10.974748243686733,1.9894730987843843,-6.565952548797737,1.0185175473670374,-1.2414324555416771,-0.0323113612500302,-15.098650891445027,2.1966840875250315,-13.977831512838327,0.2896024322643979,-3.1004759649237297,-24.86768278344846,14.989080059139868,-4.670024475521558,-1.0478838285040588,-0.13263694734837655,-0.7689647797513284,-5.766305256987313,17.355823292539725,-11.860412200315016,35.10951419045327,-24.320478646630317,11.587167951744638,6.3836841107389155,3.685383919598766,4.747226396338449,6.952385632927028,-1.0950539317478032,1.7986129440138137,-0.30761687723792724,-2.6360998088893584,2.0875849469582253,1.9454451083925577,1.166593940274096,0.2731450118772202,-0.20692262515442642,-0.2002598509800071,0.2239103695322325,0.2953978014153797,0.10259468410446108,0.10241446411788377
0.3181685030656462,-8.05319255140329,0.9758679384005703,-8.668621871677303,-0.5047959704241947,-1.8328036224909092,-6.258553094242524,-3.834961237922409,-0.6606828206065509,-25.51954436015218,-3.379199687771432,-4.909857979350682,-24.941942939570175,15.206761587572581,-4.967825659753596,-1.2476867788628827,-0.5487252625875592,-1.1810699472386479,-28.084192007911362,24.4820968551416,-17.92936412849776,39.42054918203031,-41.42485471850992,22.461860032239223,6.000802968144997,0.5624065571731949,1.9772445079150631,10.031656157216567,-2.6859395486890585,1.0208992508616124,1.4010076183859237,-3.44798502066904,0.36039249764103937,2.26927431759667,2.123148608437253,-0.7135477343768953,0.24029160344073752,-0.5118398325241988,-0.056112956915718125,0.3478274206841325,0.33532643558592234,-0.07879875126595196
-0.9769692896602375,-3.7911319000202437,-0.591733519234542,-8.530958745466572,2.50675806263376,-1.613261527842291,-6.25086646964429,3.457462462448924,-2.2338744873562018,-30.811759497598874,3.7355708075263414,-2.7214792997246144,-25.872550266241944,15.867732228090455,-5.461278547652885,-1.3008653042528313,-0.6704065964781428,-1.169405452776347,-32.53479706962756,42.868445151292335,-16.173969614668508,7.112132923575001,-36.434342532468406,23.372552703329244,9.389886908416067,1.3226778797151355,4.721390773185544,16.245201058199687,-5.382905741571073,3.0696592495594315,1.129209857669433,-4.684532816191217,2.5565748470737297,2.4853794889460836,1.899884648350254,-1.0666366477293439,0.1925370671440053,-0.7767295569435643,0.39959488865515747,0.31747473083336386,0.059013047415998235,-0.0018563569620658371
-4.068103228321391,0.43061776092383247,-2.1520459941370893,-4.383554087272998,4.53396438030978,-1.6853470025050141,-6.436775770049041,3.093375024668387,-4.413164727826767,-15.0022530590855,7.503862017727041,-1.0542528666218285,-26.940274830623814,17.43699663670831,-6.069823666115729,-1.3719997203698138,-0.4960778403545182,-1.6883384084612074,-12.523470774285634,39.437325303738795,-18.703627949471894,12.567118665159743,-34.2877018768613,7.516750296775736,7.246747105828468,-0.2199647685267524,1.0865005304330027,8.97749337573229,-2.65022104224571,3.0538085850403385,1.3470544235643733,-2.5858913333813507,0.915509563801664,1.528524444141659,0.887576136349269,0.27285337847216534,0.1407893294450409,-0.444978269972288,0.31203083346712573,-0.015473279776101502,-0.04324648853885566,-0.02012688517303151
-7.790149580854315,7.8079678053940205,-3.84133062990488,-1.4547061442426048,2.917891317720306,-2.4830723429893777,-8.760901075170803,12.129958311894889,-4.65802047517224,-20.346193938872275,5.113215728301817,-4.400387878650968,-29.011596357513582,20.42920347283991,-6.588702227408868,-0.8864526991297699,-0.7902363670208368,-2.4664066057924505,-23.750177137952974,38.25549849493097,-20.556297112812196,27.692096111970617,-16.01429677055082,18.854339494145655,-0.6885861406861659,3.868145315338675,3.642650456067322,8.001866445685964,-2.6832009965717196,3.110533497086542,1.881300621360398,-1.90081988804834,-0.8808799124378179,0.7191933756366207,0.7661847223069127,0.24062554262219024,0.115068937773978,0.12173061287866661,-0.214715048995761,-0.09602895274187506,-0.062087328516299424,0.18944015360590089
-8.87215475302404,13.730321283226584,-5.022065309683638,1.3713858899233131,2.845944340491085,-2.549644663444316,-3.832949084642646,17.228503953770375,-3.8458937526105927,-29.016362090696425,-2.163637901838378,-7.9583505386004925,-32.36065205213871,24.60311606493356,-7.1667538387609815,-0.5620838521672744,-0.6978200885510161,-2.808751492366753,-30.625906224693576,32.77082526760714,-20.328006119990498,36.556071845936,-40.895675777079674,35.33436402608619,1.447574798757338,3.58914892406143,3.712274097118815,9.465755871253982,-2.435012940250667,2.544072198422355,1.8511350651475258,-2.4150791550500372,-0.40233523633085394,1.681725064648132,1.5530830077768134,-0.4801488790026575,0.1095830101844584,-0.13144343797997732,-0.0655057680644818,0.20354279379291287,0.17319680091521072,-0.039660697001216695
-12.98583370487308,22.755599542463422,-7.3739158679759536,5.9078221018889145,5.328951673376551,-3.2294046907556506,-4.538333185353081,25.571416749673077,-7.801264902316152,-25.15642589137629,4.133651611015914,-7.819377281506696,-36.6325099727668,29.877596728703196,-7.758816583796862,-0.17005525836485474,-0.7165763996584982,-3.6747034570434938,-25.45091819208335,41.61343853599574,-25.46367958972361,57.706657977754276,-36.95898486985705,19.42383425753716,3.2469600659478015,2.2657902005691994,2.409659622729075,10.857600894552967,-2.3911232675412863,2.6861207775022344,1.5974560370284017,-2.2071047951112353,-0.059643509687858774,3.491973796104996,2.4229294540262774,0.5893981038218724,0.16136673973007007,-0.26727953005945393,0.004670955685602778,0.43305757811014556,0.22574300812458944,-0.06483694176009068
-16.429889434835147,26.62672385084062,-7.49771322384748,13.455563188628735,5.268986553671808,-3.8426410313951735,-5.28612845188342,17.519654056349044,-5.809163738480065,-26.386147719557865,3.221434597909331,-9.787652424924042,-40.64685743517596,35.18067384273496,-8.1509906854272,0.19430854348674226,-0.817567462379022,-4.815917347028037,-31.023107808573425,14.754473630164894,-21.001001124087164,53.24856715037101,-10.124108439075606,12.555562286330268,2.5773778437046895,1.1859735853752733,2.778709350471889,9.646472193695312,-0.6736506260102143,6.067175090694528,1.109794107416884,-2.432610424273068,0.753012894181457,2.4520929209175026,1.6700115736292376,1.6424262277169315,0.09295675593381802,-0.40064154488144177,0.1624788345134091,0.3046806653405874,0.11306256970278843,0.218738480302761
-15.403245193836682,29.40288900876582,-7.284550263959503,18.449511194713264,12.810397546593432,-3.224046424588254,-0.9010679219302721,28.234876332260452,-6.45335805931247,-30.691069207168237,25.320912064584643,0.9248691715462154,-43.48723976640215,39.4410722789637,-8.092289198359417,0.4656589803629525,-0.5031652387891627,-4.471652849391129,-29.04185280346754,52.07224922018414,-7.136447361928967,48.96541387458665,-47.62123969062908,23.72232139764858,1.798176763793377,-1.2489111954646743,1.6321879705304376,3.02877060692807,-0.2517805602125586,4.235343029851946,1.70205898589308,-3.1309284024417723,0.4258425557980788,1.5582193247417777,0.3259498416147587,3.134059373321432,0.2361680680890913,-0.8202310019519037,0.19245782258693006,0.21369659933303747,-0.05888227086818586,0.28898553086000006
-16.248932626602098,29.403954755241195,-6.295372562585471,27.6531464322745,12.460203053811629,-3.427037750130928,-12.002794689504496,28.539334679706258,-4.676709625707573,-29.264402380757247,30.04244440898552,1.7412628953479774,-44.77544147790558,41.20268615558484,-7.830175760563374,0.9208472876110181,-0.39435691136617057,-4.971048889141711,-47.739420194256724,59.34785463496368,-7.51985443894858,49.154931165187165,-42.3798615942779,10.180118916699625,3.911279737418844,1.935792541229878,0.32949764977025464,3.892385966632552,-6.310262077843421,-7.389660032903569,1.7611642486056591,-1.6636920162417184,-1.2099335141128447,1.021164576746776,1.9492381061192958,-1.0962108441779856,0.22246923021273066,-0.16789218737192887,-0.37002819774583834,0.06415582490186228,0.2923449195451419,-0.08908675339951391
-16.12885232663188,23.865314592511943,-3.549927974815445,34.54906820278458,6.63304941334916,-4.785590756754636,-20.663966624682846,7.588637986049179,1.790747505667114,-19.864707282346618,6.2060732606727385,-10.825264396475147,-43.584056367704044,39.12268399578656,-6.8798382430130305,0.9819907193855522,-0.7121259947206083,-6.796226151920618,-54.864206821862574,-9.899948656307252,-19.2661110968416,80.70211392264343,32.54685956962339,-3.753460246998074,5.469033352079082,5.357827445882699,4.843091554671579,6.854201246493159,-8.422408581326875,-16.138815203167038,5.529057322050191,-3.246635103325107,-1.091575141885968,1.178844305910826,3.2922336254417983,-7.559917745855529,0.5513729482899573,0.13234303582566118,-0.238740615499544,0.14822203821693966,0.6000597243563737,-0.7664332563962821
-8.771377996208539,21.78737964192935,-4.30118344827505,40.901587511728955,6.593547177356032,-5.457821019385736,6.847567124762811,13.686374018622416,-1.3286259183106024,-20.58623409715502,11.195301977143938,-10.813461373808982,-39.53619523212489,34.05857591086509,-5.256450099994372,0.7913753219714159,-0.5281834639652271,-7.491860206969706,-19.59508925003622,1.6343811042522585,-18.627098151077433,62.836639632128566,28.015570641005173,7.503492826306633,3.105291765391324,0.36312784154538885,1.4171948933969896,11.112106267964753,-5.522977442889368,-5.1244659332126,2.746022033450262,-1.7199704196002166,0.10675238840470544,2.3210552867569003,3.1720646408802025,-4.370372650666619,0.037141520397447295,-0.18655504479005103,0.32474025389183286,0.22707610492736996,0.42494823332786247,-0.45468996088395125
-7.013525830970833,15.261570235191709,-2.666286297954141,47.43179695597283,9.940899784325877,-6.006990443183578,19.847427645551612,6.68021890367189,2.616930634968546,-28.965862576600085,41.54559177536899,3.3203135248024034,-32.94337236380476,26.298909513061485,-3.779255813087628,-0.5990601581444279,0.08175263306883739,-8.102497933608786,-14.789575689172876,29.758106816346874,12.542693451694507,46.649893585296,-31.828735996199857,29.91480373699018,0.35679770627389906,4.240104758183293,4.064055137600395,7.232658609504141,0.3579158343265845,13.168272329144942,1.791000687963399,-1.6397193812757156,0.09885671784869038,1.7439687883517228,0.9658892138363199,5.782029591186244,0.13805261203883823,-0.3419355658838383,0.1125766580480138,0.1603549120448361,-0.23750032232207152,0.720285760798244
-5.3209136653445706,11.166905266884601,-2.2714748699409024,55.123708108979685,7.640465744842371,-6.5236758685546645,6.967975426763356,2.447484657903148,2.7789743502184723,-17.697545043878318,26.53184250622722,-2.5239820979745997,-24.23399909947256,17.95323301114258,-2.223658091898691,-2.2818727775169503,0.13966474057629524,-9.272559626469983,-32.66070292658066,-17.319837516134548,6.6947284074321765,36.30300775883083,20.72193337858574,-6.348775588795716,3.8953062385966883,2.2867663046861706,-0.5478413126127313,0.6932623794097948,-1.5300927285313244,3.198082495213403,0.42699869745413943,-0.5489507847290417,-0.405893452956074,0.3001301016699478,0.10375002951860814,4.012873581311286,0.10473922149203922,-0.18304960644817425,-0.13628638668171753,-0.1489781666578066,-0.1837099528322638,-0.1386175366492095
-12.454842908132536,12.474834323421414,-3.429437857673251,50.536386386855064,9.237093587161548,-8.389900867875065,3.1033145474571366,-2.831704682148628,4.649804144082025,-32.720917584979254,33.73641859864043,-4.438861705195557,-16.666623238864084,11.034389233949227,-1.206750224565066,-3.4323825288168326,-0.17269706953684946,-10.558419359630534,-49.78489092931557,-26.86004363453842,8.343851287984794,55.12121750149481,15.52218270645577,-13.362092687145555,6.337153878601373,-1.9554484050411363,-5.207242859775325,-2.2506845480324302,-2.8451223850658196,-6.548224818463928,0.1705176441356262,0.5072771165971606,-0.7571650278319974,-0.38055273964268727,0.2584919027720359,0.8284911537511602,0.04879662672829252,-0.1335828697039106,0.03323287681073812,-0.12669515041238877,0.1921533919327332,-0.46242930299056073
-15.847026864915447,12.053879310826936,-3.6530503724823293,50.308643945634536,16.245239422858628,-9.813353792280253,12.601479724267197,-6.723562553352913,6.863676749778265,-33.491487687554304,42.59705889559717,-5.985217870285795,-9.352378798638028,5.798801568374478,-0.4315842817164281,-5.552070773745212,-0.07707872497912265,-11.312701582693473,-32.178954740839146,-28.33460084496915,11.001965256841121,79.45043702259491,33.79430654193199,-12.937863008171464,2.192072402632826,-0.5836663484628578,-2.4103307654282653,-0.7297011685464415,-7.957854815877367,-18.24825882439843,6.053420606270909,0.4165621841823677,-3.7833824414682073,-0.5531167820284536,-1.003702424866699,-4.99023518756433,1.0960031446622942,0.16890231531173364,-0.6740343043366944,-0.20937636375074237,-0.06653669209107342,-0.30518050988237444
-18.374905820736284,8.687943730027236,-0.3856006393040001,52.42900499383773,17.093228512081765,-10.51235829490083,-2.8727447683292073,-12.582618450859549,4.282497741495286,-18.521225636560235,33.73728301067436,-8.342035236771546,-3.6463033835682883,2.102155864377066,0.15330391502689666,-9.194544322216322,-0.825313496759192,-12.42414367596581,-29.037908257878197,-52.354802617493405,-7.91048559808064,80.4278430541552,63.07485389352676,0.16677296556193136,-2.122550475761581,5.253757754983513,6.369561564805474,5.437869781331097,-9.069340401968923,-15.208701422359537,3.6599211153862727,-1.495456453427251,-0.043204609429362696,1.8821542882926678,-0.008525465773637737,-4.789280920885145,-0.1503316581199846,0.1349095714957751,0.041338995161039505,0.3150441681507951,0.10115571359452719,-0.42593092349856876
-14.915925986451793,7.050989925355217,-0.2949674182197707,46.081713550336715,25.463388931255125,-12.609599098427928,10.522265868180678,-18.716799835239147,12.204907373141303,-51.130369164015555,68.91170835892187,-1.448205183306262,-0.026991483817231765,-0.20484893302567497,0.22257687016674332,-12.242749049599093,-1.9219509650449424,-13.182388796467277,-58.19431983207031,-14.16110213346003,22.52675241760644,40.353292214442696,33.459894232674074,-5.907061842328647,5.695460822794844,0.38992926081167917,-3.088304154997133,-0.10954671758802688,-6.168740437169607,-13.60890157670896,0.9651891611317522,0.49073747998089395,-0.4850580115747921,-0.45167103101919964,-2.0941318855372764,-5.456844348190803,-0.09106969724377842,0.10545689095585978,0.10564070894743521,-0.14155112924432228,-0.1533425953559884,-1.0229688391394984
-8.638468178346532,2.9699865475078955,0.39324325796581727,42.639236471649056,28.000479165527963,-12.68256695160681,36.94019621173213,-6.237344088698442,23.432555078773273,-67.59789196574752,58.43551719438507,-5.288055449811443,-0.10132651697547221,-1.0673116266904958,0.384156278774332,-15.224255931331387,-2.805771891292219,-13.2510564560629,-44.81464044202195,-3.3717869012613955,35.64932016879312,42.08870164818072,51.066918874756816,-38.289117393626256,11.829027371560036,0.8362588589337346,-9.03600643960829,-4.974835818351974,-0.7786453611707909,-11.42957277313327,1.4901810466160963,1.4865369810760491,-2.625897787127686,-1.6878614288470326,-1.6118995869751267,-2.264834735291074,0.407618626228717,0.21339094954888144,-0.45383237900735823,-0.1338865385392737,-0.060115808979615645,-0.7347370155171252
-6.4903926562841345,-0.7710734984003915,4.42682265257716,39.78930918469158,24.484734380719615,-11.158185773906535,32.230269128978335,-16.281708059795314,23.854635035067496,-56.047897573510575,26.823018262137442,-13.567016434332709,-0.26204740466610044,-1.3536793472075102,0.7456268017052433,-18.306861231961648,-3.1459273425026564,-12.594771152914804,-31.286632792829955,-50.53117811795144,15.381074571475544,86.01770814388446,75.51900742900992,-64.88122860263151,10.252449038984304,1.746976985620835,-6.961003486254122,-0.7101423990065587,-7.833459236219682,-25.885119569626394,1.1061614470119252,0.8555865603915978,-1.7445329336266833,-0.13125203298193427,-1.999039378013323,-4.022172044808682,0.10291631340967966,0.11228748386324618,-0.23919207618732563,0.22879933065332966,-0.06980435163578638,-0.8753293589542943
-7.36255679864154,1.3942110672501165,1.207203330904254,39.90674534807013,30.253731319130296,-9.575824304924053,45.28069088306642,-28.62230345370582,27.970040862930258,-45.63056018635852,40.97729550897597,-6.144429838155459,-0.44785732016375557,-0.7315249716371152,0.3747845009183078,-20.168706901042476,-4.37224259232502,-11.052779204475476,0.1240570640178979,-68.0060735100596,33.53124665689818,29.696833052880137,38.836569263776425,-33.50512379457405,6.916124507522441,1.7983371230457812,-3.0225326495636793,-1.1626446339277212,-3.481527525344869,-18.85932204477665,1.9441703350449446,-0.05760840431421307,-0.750840974499877,0.16203294887301845,-1.3144819861590042,-1.7811816731653203,0.23031792456583106,0.062082597289474545,-0.13969003879596745,0.59212863656,0.10303997622055877,-0.14846995747638017
-6.452411683884944,-3.648444734622584,12.619877638219844,31.957881326137315,37.92154863264032,-8.548970622268703,46.84910412791809,-53.58074412621058,29.585476836317056,-70.03936441376752,50.51361798623316,-4.858244530576008,0.7985098916044719,-2.1472113183867085,1.6556574047816495,-20.68275828840071,-5.687254995396342,-8.65081618893483,-25.401695257246587,-97.80023935173718,32.22597204240367,32.3791913956624,75.05053246657617,-33.05958569193199,12.077244146825574,5.511394235369957,-4.373460539974462,-8.824516665456853,-0.9132943327277119,-21.98899175599973,0.8186019176001511,-0.3522002038985916,0.3613681828889346,-5.037895800893633,-2.596128300786269,-2.8728199661643,0.12090419704942994,0.15459253201983142,-0.10554887669961634,-0.6608710106996846,-0.24303126912899975,-0.2265832751483981
-3.880010149444548,-3.6110338938314572,10.77486023819664,26.0547382712954,31.96694192020304,-5.602531949929905,51.671744881325026,-38.239275434727055,34.26281218287582,-85.60375081323731,26.262934173489576,-8.403246804334135,2.29530737295071,-2.393687436262655,2.446304752482825,-21.26618722384051,-5.624949569419025,-5.9853971805280635,-31.55099619176057,-84.76578620883356,34.8667867007209,40.49967251762691,71.13643719255812,-37.16456960036194,9.666375606960042,3.9474588588309736,-3.9527074027067,-3.427894661877555,-3.7893289649180595,-15.753568024597577,1.4228705535694999,-0.3588427257749655,-0.2870543570179653,-2.3569329185778756,-1.1969776561465029,-2.082067877570588,0.08228527407122942,-0.041242914865697436,-0.026057124584229173,-0.041808498034322884,-0.16304938206117664,-0.33541143546483676
9.250186386411071,2.902441806935767,-17.674535498099125,29.130393777124638,32.02694452142668,-1.6095371569075634,70.0823151185164,28.92408080481767,55.57309875623701,-74.83787499183498,33.114601337896076,0.51805879908714,2.987735746081785,-0.7261461542871318,0.5200643502377857,-22.789735804607425,-5.868836320694203,-2.7233009535272723,3.8163719715141333,15.945728722836275,77.60053638747716,20.627837969489327,27.552654939140346,-37.85414894071605,9.973272434520913,3.9261455805571823,-5.74003142689342,-2.9119812843065236,-3.082229079553682,-7.663618142960054,1.776476935038974,0.524372028420555,-1.4488844818989899,-2.601083545288062,0.3636769855755456,-0.483059892798182,0.18842820913316052,0.11765551434208545,-0.19383112439161876,-0.22913440505031854,0.0010400756237768844,-0.004157477403503417
6.571074119177279,1.605251057795788,-3.278002054871357,29.527165344154966,31.798112038559793,2.2196123316931047,68.22574655333582,-0.7244186330639504,41.29053755539079,-57.28943907234053,18.852843660816298,-3.510793062751385,2.824488223244335,-0.044280109003827464,1.1142151610557536,-23.821853672173617,-6.161530765448337,0.8114777654355357,26.91336871746856,-64.102272846496,41.616343406017286,71.34229907350104,67.85822081108142,-52.30485770490881,16.209210909434432,6.4164669528252,-7.365254179876529,-2.98463114724342,-4.553525275927249,-13.593483530782532,2.743507671238487,-0.18430520801990852,-0.6591541724092441,-1.8658142108130307,1.042704602733092,-0.09027967179193247,0.05613223215429039,0.04992085134033013,0.05006482476849393,-0.23315157411284185,0.25930985972595944,0.25498795203164293
10.702130748622135,1.3104488391989844,2.419965936094946,23.249804915524752,28.41908381515264,5.666215972677874,35.23987827105581,-18.258650541507098,-15.37298566825931,-64.06333220252269,-1.6832368733687522,-4.429847751781755,2.9458192395334497,0.616946535785682,1.7689071003386678,-23.989787213131763,-5.319800813527972,4.153206497198256,-22.959965333743824,-89.5198187910265,-47.566828077933984,81.3514179779511,55.70747643886419,-26.764635016964103,8.569808776384264,6.979597864839828,3.1320244517951332,-5.626627393348544,-2.0131434274935986,-15.614848120453889,2.974633452948422,-2.9989553320621827,2.033070626066187,-3.2251100871544365,2.6996230388434377,-0.341329668846313,0.12006815381132836,-0.5058795103514582,0.35480047949778404,-0.6253080715559537,0.6151355328624429,0.21391315063178312
9.292200615880603,5.762174999100389,-7.557330543850737,29.63330899100454,23.901077798267348,9.944158985957012,46.13697698545361,-3.5966378277927142,17.285276513921623,-34.53565163939605,-4.482620528106424,-2.437062470595881,2.290097188463782,1.0592065840249563,0.6179087041657529,-24.731985989695065,-4.230372173149667,7.052576063745241,21.81174296746703,-54.87856935556298,-10.906060699310384,44.71256302903835,34.57138925982744,-7.941143989024623,4.788660086288651,1.0397451446986958,-4.891192500973324,0.38695072830456145,-6.11937178246894,0.3348415094311603,1.7222242043526532,0.9160842630765279,-2.2089174153114093,0.4548070233036183,1.203425568677751,2.9280239553519274,0.35918513761190574,0.23920888739095528,-0.4203890094834794,0.001086342788686294,0.27285921024459936,0.7334457305453609
7.041380672295852,0.5245210230990625,5.946065328422579,31.930079428003165,21.88929916480724,14.473430422722176,43.28084841812659,-3.5203626579481107,58.57473958389762,-13.606421793888329,-1.2671411609340733,11.008516404668915,1.989818770606869,0.031897874928816905,2.380577710833893,-24.919555150457537,-2.5879751910992987,10.106937266179918,40.02679982332248,-33.629933747079825,64.82628257546305,6.98545602613861,-8.65578034897157,-25.761908515010585,4.34181029348873,0.13489045161312047,-8.757791977694898,4.625043747666048,-5.053504655418232,9.892551182192772,-0.795181647916511,2.216172993559287,-2.0894548241020576,3.520513565231264,0.936182289285057,6.4432816382459395,0.0291129794774013,0.42041570923866434,-0.3727024798211667,0.7565551763335195,0.15527291025973708,1.279845924616048
13.653323544575557,11.116243724940329,1.8258513138754817,25.5548960090659,11.406003089584756,17.40775880774304,16.018519506482622,8.846381846050893,10.18261028621841,-33.73106418070444,-32.47510300531563,8.695462823059586,2.520272819775512,0.4174445973044915,2.64646810751987,-24.521488160861832,-1.6669195500930591,12.353387204595434,-25.557954924987197,-52.034371701318065,1.6528264924523999,-33.976965285861155,49.29465316623879,-32.315747980018436,8.758987992798444,2.584542165268091,-5.574325023871128,3.6976006856071453,-5.783359458188211,10.82674603979242,0.8940001274239768,-0.8221825967247608,0.19089099378093916,2.2287344608385173,1.281367418843202,4.181762202556517,0.01865146910837034,0.03713306307562897,-0.09481450210316297,0.3386419742180109,0.45414529354149014,0.6089203141750591
-4.298091346706434,11.501469538865422,-12.581522180206532,35.131718074221496,5.079834236792716,20.18268149605382,33.35443997477817,-3.3951930830931936,-6.886475342497029,-9.811136718517192,-33.98357467775176,8.584631510655152,0.366392916218484,0.6763960064365713,-0.40327154421172023,-23.196422070169305,-2.242465072032036,13.525902403420307,19.210295109717254,-71.03544571746869,-34.3002803869321,39.46442949103508,31.96941479203458,-1.5390688139226478,6.815400201787876,2.1106934370962533,-3.6498450323749925,-1.3379856713829061,-6.005276062359351,-0.4212333630790239,2.1677995909747043,-0.9200992029436813,-0.7101488468262418,0.8382127714231522,1.2353497175198664,1.1974626369267805,0.23900380899425472,-0.1625163124970233,-0.03027776957942721,0.10758947183751033,0.43333896038579217,0.048023119229811284
-13.422358223485753,6.139568478104858,-15.555470056312194,42.795723149790746,10.986679066804403,20.942114411489996,1.0865800934711505,-7.22122885657145,25.70367025274518,24.399948951727932,4.155146966216214,19.47957428268326,-1.0392801815574224,0.21309229570794289,-1.481385363797004,-22.23537450490736,-2.6546689688279086,14.415482569097987,19.120642810739522,-4.998119401257816,44.611633288836984,-35.39146483505354,23.256660676339347,4.361413306763184,4.18787670010235,1.1122699575815513,-2.9105161893632063,-0.2642323712829546,-7.2383448123534295,2.056944840320754,0.8481468025793879,-0.5389118486519322,-0.009927730922411976,1.1139609431355302,0.45998028352372167,2.2069710580230777,-0.11417478869381247,-0.17038336671520168,0.24396198061335309,0.288065673468737,0.2391800209342555,0.5609406430873691
7.733399951851491,-14.089056286133292,3.6814361176444677,49.21124181207604,10.586211307335148,22.057206056789788,18.19168937334351,-12.516287234166647,7.54332251433935,34.630772274146445,6.793451481030527,22.082013290338207,1.2813575789539122,-1.9277825645995244,0.49263183894241924,-20.33887289636853,-2.709481633378818,14.772230837390904,47.42034213686823,-16.968123105410832,41.21390667810393,-50.56406979607228,13.472951772803803,3.738333223928195,7.102904429945884,0.8669789007440469,-9.297443209479914,4.509340929538365,0.3813002041120809,15.186193634302828,1.6848241900455532,0.3998124843283156,-1.8848417231463332,1.687673169020211,2.7469754670401643,3.7864077152149216,0.058428635453090925,0.25931748081205885,-0.19310898352511585,0.16723622990713347,0.8139994942730021,0.47995860086834025
-4.761724858412796,-21.08242760200296,-25.62443286647472,57.30616809887027,6.518198007709024,23.176233071506598,30.68752661241506,-35.0521891316417,-17.550137543393813,31.80925216247271,-3.5190096577035144,22.170838791525483,1.6739983065946407,-4.343382229025832,-0.8457892682577713,-17.133191651572588,-3.1441713961801887,14.281680497510807,34.95686492982597,-43.06666328637773,-26.553425248737,58.70982381126742,-38.536873084287606,28.1226165264556,3.4043512688972046,1.3073036738161388,-3.968015609774422,-0.8044057608656856,-13.628730239241744,10.9752508043866,0.5506745266931733,0.14065166656454117,-0.692539344848466,0.666250333143501,-3.248049633669859,2.190291564236797,0.12072869868368383,0.014559652188189103,-0.09776605820507708,-0.010293922626306353,-0.29026321694373175,0.011078769736367507
-41.16848632715334,9.464513738152377,-50.33565179601552,71.69161603921609,10.459170819473684,24.171542394980072,-7.047307620562561,-31.423676502906336,14.445546809877936,59.19188202794545,5.075802417017284,22.686297553143184,-3.0048124828534024,0.5114492164129032,-8.932673214920671,-13.205024378795612,-2.8713236591557205,14.356541301484093,12.357130237202213,-19.196135169885917,0.5802288472269828,56.78153452766394,28.38220176883494,16.045553454271165,7.808825503321222,5.30487632899537,0.05647394313290832,0.7585320148934018,-11.540100115964725,6.329062921961095,1.2602858572535625,-2.0170458527032875,0.9183035785764789,1.4005636570939644,-3.2917253314754573,3.5685477909593253,0.08178144549953725,-0.2907138348208761,0.16913509554115516,0.2850407173335443,-0.6475444074882831,0.74541639870549
-72.37871343295352,30.329131895050928,-72.77561003970577,79.11577941016964,16.95295880416184,25.4869972399933,-37.722100258479855,20.194760843411714,-58.88902115929659,85.18855321119484,-2.66626148441254,22.61810260100665,-7.215915437786419,6.767813793072623,-11.296520404497794,-10.248346510786467,-1.9813878231434898,15.193526527139035,41.292963972326625,-9.452891378464756,-62.52206000665896,-27.89054076154154,54.68451683555128,25.652681312605687,4.4201466237570335,3.1166067016880827,1.0082434412774681,2.734252257604343,-10.276668932146038,15.032555567589528,0.7393808176177332,-1.3318954492400203,0.5153069785434148,1.7157979765745388,-2.3449634203748366,4.486297604888369,0.06136660852206946,-0.23442592600653175,0.08774086688112684,0.1427078144786778,-0.2914498373155241,0.5793273252486844
-135.30651150193128,60.86105945886989,-175.69432798967378,88.73763352187514,23.821839956030864,26.691278581690547,-220.02726329600267,230.945894382623,-404.4121051043369,77.09540720173605,-1.511299963679101,24.788154127318673,-11.364696293172683,5.22246652832194,-11.38704650457161,-7.186639433567323,-1.8054792883248703,15.822558396884197,-179.9914047165377,251.240032840192,-454.4891983838168,-33.382208711390625,-74.55603524529317,40.58220731840644,-4.210498961783247,-3.2739642124076678,6.153327626337532,-1.7599861052068908,-16.562499948975848,17.81772489200538,2.654429966089692,-0.07013619594326609,-2.848162953196768,0.45303252725337917,-4.814918551232671,4.145043388386095,0.301079159966708,-0.1614849141814446,-0.18500191359194668,-0.06902444003175731,-0.652691090685121,0.5583471454449783
-94.95203674590016,48.91321276096519,-112.48558914015182,104.20383168332526,36.516018628415395,26.69160056041286,-178.21656947031775,207.1519550834307,-312.4399954621026,89.25846621413248,16.594604991039716,22.27333810649471,-9.91463113373572,4.18552466822816,-7.065636912110966,-4.207296152284201,-2.2177997361469655,16.160491922653343,-117.36927741697876,229.96074713683393,-349.19642367946085,88.81762338738599,-50.888512404478455,21.299256178079975,-2.5261451049161376,-0.6480216665930775,5.048861889992601,-3.6918274710314662,-3.568246106845468,-3.7667654136069837,0.5680066400021377,0.10307253336834987,-0.5871467580396666,-0.3929427588282813,-0.9718105678521791,0.7150695066223878,0.04818736205183881,0.01271813385234545,-0.013699625627691305,-0.046533990941240104,-0.24220535393443055,0.4039875706263766
-29.37766128143861,15.544391563609967,61.84384788233575,109.29593984804853,44.35033375894852,27.61664650558695,-60.78289856036376,-51.633586744445935,133.6331543550322,88.7755839093206,3.2213436489496035,16.766563937524648,-7.072502831784323,1.4261845638825046,3.444500356126972,-3.0358772597745,-2.3389206009825103,17.363246363956723,5.563382453861637,-84.66488452855126,164.30932581324592,0.8516992997689794,112.61234974888893,-4.999974520507108,9.779270712585335,5.586296343585292,-2.4089459497404047,-0.9446239010124908,-11.6427466620996,5.610235172254246,0.1610083105447921,-2.656765939473863,1.7155170516325442,0.1221557488807842,-2.6103978740824245,2.4315381337345494,-0.08475968896875656,-0.2714692557567843,0.04255385984387426,-0.04530874411970506,-0.3801828728410005,0.3770264582507727
-23.846876325353914,21.36177209734378,56.780348004790774,108.3865887516738,47.94636604807977,27.618393120682068,-20.36631604762937,-78.66249866864861,160.3125879720866,94.93313606747496,-13.085193329679884,11.348377789121221,-3.816024803828336,1.4637087475997348,4.415789125387688,-2.8334825516980873,-2.569956852642254,17.89823383525784,71.34475883904717,-147.41464153958674,186.2774336964511,-40.06641924037588,-2.1202970873021325,4.156896880535618,5.795294233243525,2.9214774057598496,-5.930719728099189,3.7521183869344306,-10.532278949093882,18.61063944441749,0.8701562149907224,-0.2476064433742978,-1.2185213924178204,2.0387107236259423,-2.1655756624081315,5.30376479928561,0.10602381869236985,-0.17013147106473395,-0.14435578124889645,0.0009350819290118509,-0.0872805058052637,0.43353857614496843
-12.844677490322146,1.8900338535904222,-32.58930995658169,110.5897959591039,54.20385340499078,24.97907342612757,-20.30044915993453,50.6072782221267,-81.84143968814747,92.38770536681777,28.598001092194547,17.905233106881937,-0.21546497813471988,1.3069569161520502,-3.0330399283198046,-2.6133190389890864,-3.1087902145078545,17.072158664653966,55.357353462413556,57.575700131038516,-99.23691198293513,77.08771538329162,-134.39755928055544,57.60081795333775,4.4253665591913345,3.275517877885886,0.7393374432340276,-0.6233360932713538,-5.054352190442597,19.209615851137904,1.4478934912691537,-0.13389068451452102,-0.7516074245880745,1.445831240745277,-1.0214377264913153,4.17417289907512,0.15038482854506488,0.03906971431168814,0.02188320926860405,0.10329799645349053,0.15824141568397254,0.5816190575591823
12.287033239149533,-6.152393282752951,2.9408815169105,102.51536377861328,51.51703207057613,21.553852718250422,13.778117720905119,20.54664685154088,-16.41662972611408,61.8042198691768,28.172487084459394,17.858961907882446,1.6251703187245092,-0.49319469258497656,-0.4602575559326708,-2.3961150080757725,-3.989755426241726,15.324838382010402,56.13897566455889,13.562682518978859,-17.160549064527185,92.05519528006977,-49.29888681547486,24.264590079554658,4.128542626621085,2.825279394215211,6.563706694841973,-7.1038909382528725,-7.941394441933735,-1.4138090244568116,1.8339874467233166,-1.8942729068249302,-0.5992854100513264,-1.0003378340987445,-2.5394829942261943,1.3369666276687695,0.15684410866838466,-0.147362643452494,-0.1901100629710309,-0.03154691474408325,-0.2566380402603038,0.39734135438534113
8.40237799520407,-6.699592788827559,-1.2860932413249062,96.50513904066554,47.88079566380434,19.262504453220515,18.1340292751284,39.23380115760177,-57.3627675235156,48.04601013156977,21.03444428552609,17.567199902665028,1.6796254979194816,-0.3475943739264383,1.0780222777172563,-4.815127060498672,-4.774389038761452,13.33622594759064,41.05377170429701,17.81634329553412,-67.51837388867138,44.6234951167865,9.468690281642752,35.67757670430614,2.521501255457075,2.106721335868792,10.089279388048919,-0.304255579289018,-13.182977572353206,18.23576772117052,1.909825847028927,-2.3366877481608217,-0.0966001706755559,2.2814159009388306,-3.2740656159066353,5.189496903744567,0.23728896630577212,-0.42652384912259145,-0.030711044495011674,0.49884313284691545,-0.268472568975506,0.8258608095746001
-3.1046828273287708,-6.987787407941728,-10.459573587522677,91.69159412443624,41.35666368162952,17.06056186219034,-35.37840932154902,16.798685290341652,-35.06866995222165,43.07153952251724,31.98913407096293,20.917288836263193,0.05650258779142301,-1.1887067365478996,-0.4950845364929788,-6.543197155364273,-5.59173194520176,10.64918996675017,-31.223103285802456,42.01354173052589,-17.355802337146326,19.78760921588644,-52.58899508603973,6.506287175675066,5.714644267105379,2.5822582025630805,1.5240183538937322,-1.773440462390024,-6.541725030063771,7.240893674059753,0.19023181857891758,-1.838227933353879,1.5309522245749874,1.44715319507347,-1.6484925122644951,3.1048070540616393,-0.0191451723481697,-0.1508582941735866,0.08145853775671362,0.32488167392793277,-0.09549400560936135,0.5364030855131717
-5.268155239279723,-10.733722954982193,-13.489856358142433,77.78615680505965,43.800930613273444,13.07183913077011,-16.390068990130477,-10.124697380462516,-13.161931666040314,37.69321684976613,42.18170230459478,15.724101933066258,-0.05487002359626794,-1.4073182181645396,-1.112559669299386,-10.116834854652971,-5.726891503841619,9.080633454691787,2.6921385809418985,22.98001396430896,7.379785251181328,0.8354193144936058,-3.948101986919416,-5.557126028044327,5.135983755415696,1.8485131552102367,-2.1640110422676044,-0.08334618148042543,-6.865596151109856,2.7681295765433895,0.8218685297855836,-0.7847729757074947,-0.3925788313258194,0.631465671929613,-2.090109591367052,2.03828480726353,-0.018843827352012586,-0.12122229193073825,0.02197642467660257,-0.05149105787622889,-0.39275300406783187,0.20891001529721112
-4.2566431319242515,1.8403855715842485,-1.6434660580463822,71.69823196049144,41.53561243113314,10.969089677271079,16.35753052454534,-15.453838594906896,12.099287483205524,46.19641835335944,31.440367133980377,4.565293093052477,-0.31014781641149025,0.638368728850705,-0.23341843213819063,-11.881015807310273,-5.712541547674492,7.225833987308033,58.910759130894895,-9.466722704357347,10.082239672895206,28.464004912588948,7.697989825890327,8.868084574701841,8.270486623746725,3.4783285807466697,-1.9696987354220767,-6.66932985143274,-13.328653705061368,10.58302324956162,2.5657676076516207,-0.9706336856709548,-2.0253823666513475,-1.0478087312976507,-3.30962860385613,1.9552042638400846,0.17636658925490425,-0.11071252984778461,-0.10118752068942247,-0.27738258487751066,-0.35154079767054397,0.23756929104651062
-15.77213203370213,0.4561981140339675,-9.437948028937925,60.0965055526388,37.22339272403113,10.043603377396424,39.443418363020115,-10.47156145847562,-9.518596733401571,29.212323514605558,14.210164667439322,5.833833058626227,-0.9977963591137046,-0.3792912165174384,-1.116502995636865,-13.618757157969778,-5.355940341083825,6.0384954518484335,69.93704619244181,-45.393054518708254,-24.80018244248641,45.968182684866065,15.642303775324491,-0.9198123062059873,11.777305814400579,3.991177874708454,4.83610908290411,-4.652808337898225,-5.075631400526789,-0.19625482191443325,2.4627183647811606,-4.51315095156925,0.908605724896059,-0.3320650705821611,-0.6028853499283556,0.8172310763663189,0.16453827152034595,-0.3911177068710258,-0.011982054095424695,0.016812419636922312,0.05296487015209931,0.2636178814647787
-10.245670617028535,-9.946852339717195,-9.251644477925923,51.68891302145574,37.54407311999466,8.757805376456043,28.880520265072573,-8.099854029375749,-19.487155452164693,16.64948205962118,22.381776749787953,9.102466490016191,-0.3969242775110927,-1.1513323498190016,-0.14520193935179648,-15.033741933374326,-4.352943071977546,5.4565238570273396,40.24710625829287,-20.852400756511425,-20.464972443327873,17.227891854546098,-16.58577217028391,13.532427747885134,2.882699716962166,1.819541708174141,3.6252275917490753,-2.7399656630519553,-8.47871192965482,3.6673080349950986,-0.7876656998104417,-1.587486541509462,2.0231846909635736,-0.30275378694643484,-2.7045908432657138,1.1975418369638329,-0.24900312670334404,-0.09399291840594863,0.21090863214757624,-0.0035199232558904225,-0.3740492057871791,0.2229548434995817
-7.520350463657547,-0.7473746798079672,-4.270722273002266,46.46224459991963,32.77156986659452,7.244719656066825,14.164367025313807,-13.568082792057984,14.456235961331949,14.972436125232807,21.29789572616998,4.30384983748409,-0.5356791940279152,0.003803028222332974,-0.7434925917517484,-14.499738969935072,-3.786224434453307,4.319564082851453,26.560763725507694,-18.123115601975154,21.112991276313814,7.053102188370677,-27.95240130172764,12.19809104927954,3.377560736571486,1.4661102287052301,0.04845595274713403,-1.061936626859688,-8.596749452530503,9.036473588522382,0.31381741287718745,-0.8493226036626279,0.22613681333337618,0.7412489557053583,-1.9127548280078863,2.251522869912123,0.13923747539822187,-0.33332117154792407,0.02168305799699352,0.019501907536639204,-0.18166560931893838,0.3234493899173696
-13.270810530164885,0.6311384202999942,-7.1223406546677595,41.47968466686981,31.33074799502732,5.898890941625172,19.948503407830593,-12.45105583744698,-14.087821857363112,4.106883931194347,31.923574063249394,9.640680401194475,-0.6439600819556343,-0.5097829857781723,-1.2743291514257056,-14.062278432925655,-3.818334398977131,3.03578794360216,17.37540151781232,-10.426602602316992,-17.51793410433198,10.23710339161492,19.31240817366338,5.330203798875963,5.7742927810267135,2.13584084027832,2.5299039527055376,-4.640245282667088,-8.057500694804984,0.7786803515774923,2.0025105085149084,-2.305183516677623,-0.2325063785270316,-0.6732027229308496,-1.4345932035004014,0.26244558820205216,0.29628525219495455,-0.3477863102297734,-0.047195479316937294,-0.21524475787536132,-0.12690147424251264,-0.04515645558819688
-12.576694261307614,0.40055553465143007,-5.8495452425313035,37.36592657439018,30.83296552098691,4.446610477272982,5.413172152051465,-3.528916838179464,-21.676572708644784,4.900201934005826,34.439162935392005,4.5227897084720246,-0.53289595105343,-0.31659382428248717,-0.5302179443480093,-14.166415320645045,-4.011595614828579,2.3192778057413674,5.090877631971963,10.873112172691155,-29.76148093132001,32.56652917057755,17.215444786285723,2.1051424634370166,5.914516099448876,2.040341547228847,-1.5709733664479753,-5.255430285726654,-9.585463040961974,-0.1640730369660221,1.6548922946152131,-0.6137353961070339,-0.925556727011994,-0.4351632987253333,-2.907847869487222,0.6135007787248572,0.07597212014300082,0.04667478863050716,0.0488486319284564,0.01140868184261581,-0.4245573610173892,0.15899059308362046
-14.4341522009246,-0.5822312097638881,-4.749707920712339,32.08275296560489,27.610705171520365,4.586007276594002,6.989133560035415,-3.079223663088121,3.108326971352375,-0.9478107106509419,15.136806193239337,3.676348494114814,-1.2075253108807689,0.11592807845956442,0.048174067813654756,-15.094527412452209,-3.2472821309251163,1.9006536426601186,2.2282852951487166,-16.40097633800043,-2.5181613072427544,-11.168476310202102,7.373504146501724,15.81688454692637,3.8042526543169948,0.21012495866536543,0.5767243538694243,2.8031244949139813,-7.652711610062453,8.705301156682204,1.433679355772005,-2.08885865958778,-0.5219921981145399,2.1055960110772687,-2.14945539878224,2.500927189562705,0.06269597282756151,-0.28454955350703154,-0.07043344911920892,0.36794992046586283,-0.28532642088025817,0.3837881424159632
-10.99154782693688,-1.5011021310574286,-3.4269720812648763,32.16390016345012,24.90993114172185,5.024778544925307,25.782845256161835,-15.44858966072997,-3.6552617961197664,10.399185232289746,5.332402162897463,2.601999050834266,-0.17379531472730808,-0.23520813535681315,-0.14630722637056304,-16.564377589511896,-2.00979427539741,1.4486975769375743,37.62636481276296,-58.78957745697207,-14.685893360724375,49.51024133089931,21.43886811571895,6.310749285001177,2.65934701837346,0.09401009564802305,-0.4400513717730023,-1.2566479758761249,-6.641263178113784,2.601388437303845,1.3270518630355879,-0.9397326710928293,-0.7601185456502758,1.3689362139013814,-0.9164629588642764,1.1183925375863186,0.29462070444269606,-0.0658511794153212,-0.23193582009062053,0.3203481272356276,-0.03647953984994839,0.16908633826763828
-13.253916898997332,10.45277446954171,-8.225455715797692,23.49279157577224,25.844016437409728,3.4036405611018723,-0.6211669124931832,6.282842720979853,3.1733913885507414,-12.414905028491033,16.40934805979161,-1.042240619500456,-0.4101647641705583,0.7083364119572277,-0.4580865592759048,-18.918351104648373,-1.3857047970092855,1.219738296004644,-19.909951840232416,-11.299090854697416,-11.442367086370895,47.59079829407947,14.659305822062247,-2.4832289272894776,6.485447291809597,0.6552337926621744,-2.6987649187275897,-3.041296832221034,-5.75120651273919,1.1440268204263546,0.46354045607345135,-1.2052345502316708,0.2623656756485335,0.051275384203771465,-0.9776001088999233,0.31407584035106517,-0.2029453643761333,-0.15374200522207435,0.21759296587703847,-0.05841705659604386,-0.13035551435706544,0.029658540031931135
-13.51657305941598,8.192222988748162,-7.691990331800161,17.361397928774526,26.68289884700337,3.107538600099201,10.162729123052468,-2.6693274000576035,8.2016447979631,-14.548212410475372,19.44384490439407,0.969002232354448,-0.6541172578153576,0.5958331482784033,-0.33833985469752276,-21.874018881993077,-0.8235085237090403,0.9931373758236708,-12.984455419580117,-30.16100940985351,-5.909140752326355,24.84752670156655,32.06187612772866,3.626102710751651,7.456979233436445,2.9667866209912543,0.4093788963198048,0.20622235325380997,-5.759911385375586,4.072735051219022,1.924589503029685,-1.835506262891204,-0.4381762664129039,1.2593742826478906,-0.9473687750919515,1.2343607682603563,-0.005305159210430963,-0.15499046240728612,0.1524364755193558,0.16663858139175342,-0.057303866407821084,0.18852932925442997
-0.34569781436749525,-2.7615587414766565,1.764672245161333,16.349628381224665,26.163625217934857,3.7127776174282006,51.873494401102676,-29.42074246901874,11.92285041377956,3.1786762383023417,24.13347124107131,5.228754983677961,1.4783536494961829,-0.6953700683086627,0.7346651317135162,-25.442152596474283,0.06330509784568784,0.8523545813991921,59.66271991333855,-65.81864739816442,6.6197268375848655,29.930755476587933,1.904774112557355,5.189660189327736,2.538445005417198,1.201350768598462,0.8762238161915912,-0.7121896704041838,-6.986645591102768,1.510560166395928,2.0164855497747274,-1.0905388545955694,-1.2414834354526225,1.3970434335315043,-1.9317562837370017,0.6461933797122237,0.4438910327479984,-0.1223862200636058,-0.2896227879725011,0.21796246510428685,-0.2870985937474309,0.024062602204604516
2.366165231369954,3.8656199466176746,-2.656009010653407,13.602859886463689,24.55046346329542,3.1289331257345427,20.95430798388073,3.9168869297699156,11.303956007812761,-3.4897842526622758,34.885281662657555,5.003780027280391,1.615861955960947,-0.27348252314336846,0.3951606344267219,-28.87850852511305,0.21311603065991203,0.4765071764099937,23.446887821597027,1.6816529470794568,4.183240316496065,-7.168975202798007,-6.964157332650652,11.459142891484065,3.353772129715464,1.022970709851342,1.5286069901148456,3.0492986485893105,-6.7087856127026635,6.297101177610953,0.9983352809009279,-1.8768543047381374,0.1765530033015188,2.277090249343006,-1.6699765110556952,1.3501696347218846,0.05137943427952927,-0.22349400045272852,-0.005850372245744615,0.26034257790449983,-0.1547648532331727,0.1261339792487241
-14.586546389225115,7.718909753558781,-8.86402758571981,10.607258463288115,24.608201510203454,2.3612578625736846,-27.289154023212994,18.511971227914582,-8.498887792873868,-18.349521811722013,33.37357914566908,1.1166447585989447,-0.19678612798235723,-0.09237056758825087,0.3841984232963981,-32.69507841933699,0.16202544358945087,0.09698850980073728,-54.23866333581411,8.705422477231622,-27.240103387585865,45.64544527927417,45.605576855043985,-13.147697859178177,6.575905943971042,2.490518667544301,-0.4453205050466517,-3.6673818615291194,-2.7745866206392558,-2.5778818727468154,1.1941016246943836,-1.1258942239570613,-0.08796757480280014,-0.30736188438299417,0.21010072921073733,-0.3438701710728803,-0.012683941765170993,-0.0007390369860504494,0.08250503697339671,0.006007704803023036,0.08255012860234495,-0.028052151279416643
-12.149366331985345,-0.8949632930379123,-0.47947857557216883,12.609408141907327,22.274887109724137,2.8482015937208414,29.00809794235954,-32.4833932049667,-1.7001805379992463,-19.707531239984682,29.976316738050148,3.982652268747324,0.1446834359321374,-0.1849955960607646,0.4269701620686595,-37.56845141204247,0.8038490320185371,-0.50656110497959,7.379556377476492,-69.8491029499742,-3.8060963157931518,56.91410605637861,14.20274264209893,1.73116977090495,3.2799678655111237,3.3303632891923476,2.392420034896068,-3.5975046518352194,-2.913734353854477,-3.551690728720633,1.8260341146139614,-1.342799018980552,-0.5686711887540953,0.1080388399151882,-0.38204977888108504,-0.08452072897186755,0.3821631520634918,-0.1463932636096503,-0.15407488012342394,0.12946827397785166,-0.04392730036391918,0.08742061927445623
0.32401061932692543,-4.492856067905086,3.7004052165521677,10.401115532659151,21.696874040801823,2.269424403909169,43.12469544042399,-35.252919585735796,5.829900733801119,-42.65569181952766,31.542190231153818,6.318680808166446,0.8341835256594755,-0.9476728416221053,0.13678800491438814,-41.87449716458472,0.7666666946382633,-1.5085689996571439,-6.928394601200141,-63.346207284134586,11.235303604028807,37.89817191994568,30.247203343847964,8.40289558763192,3.0348187373536835,0.4733120705416122,0.41502873412392527,4.660217409567231,-4.844458666973347,5.031826862211916,2.239492049543622,-1.6880343723680802,-0.8765567951946533,3.1055910796483928,-1.6056220352055186,1.6342190862794563,0.2696929292037239,-0.2139310813733745,-0.06630620643653498,0.4532438555784659,-0.2913691524321941,0.2648848082754307
-3.531929424498805,2.067866238215153,-3.033155799536803,10.773348459274212,28.866370541570088,0.9456432905265941,25.425226217238606,-13.741651000919237,2.265408558058995,-37.879443078565245,44.91115856876833,0.9265956326711151,0.5571334948527361,0.014198224637750539,-0.1675369594321994,-47.22549182315783,0.6719755881906466,-1.7396522328298138,-20.8679211115074,-27.063091992733046,-1.0488239797134522,43.85739880673311,33.89672199369733,-17.73866601790089,7.856038187105391,0.10909435550200813,-2.962643292047211,-0.9341078343105212,-1.7732670158592916,-0.5565336284708176,1.9510902195695699,-1.8581518021784282,-0.8026545445745101,0.8172914997076434,-0.2946796389361139,0.685552108104197,0.13647320444557506,-0.1306684402343897,-0.14305308171249723,0.08591731255128392,-0.09614641998787665,0.10562029629632898
-5.071803264543608,4.365985237680597,-4.17546600635334,15.273627016037121,26.077391685504576,0.9206199907508401,31.620750638254535,8.185929828714096,16.12820542115449,-27.174901289690073,32.200928156048704,-5.3006031278574675,0.565693688622596,0.21346270840406992,0.42094429332728756,-52.99839200705536,1.0878985094526237,-2.564412728530837,1.4312283104563148,-24.30402752449292,9.691979533051274,46.77029560925081,-1.4777339140267636,3.3892379254441187,6.976102878916369,3.8335027980403886,1.4405998594919662,2.1807801441112122,-7.583777577916413,5.416953114984948,0.864244377701675,-2.3709098973075347,1.0387451040189914,1.4070618612108023,-0.3912302408202909,0.6647135751938055,-0.08519754164537133,-0.2719660012026268,0.17178614195715203,-0.03506492954839009,0.11590950697616419,0.10469118314439611
-1.2084782308351565,1.5842984631336081,-0.7495538680036179,18.525362064400042,27.42131769951763,1.685193822018162,7.902524219379429,6.085042068687953,7.657825073066448,-15.74237853050143,34.896471347417716,2.5192087612806313,1.5974651136484523,-0.583550280764404,1.2591984780240646,-57.97084103117258,1.7922819217694177,-3.0104137491216933,-12.811566321072693,-23.02989970928073,2.887956337117163,23.016896196820824,27.87152243125223,-3.597365241921164,5.970029120599931,3.8064440610255414,2.0450581099187173,-1.1988372013691164,-7.593267710604783,-1.5149104396599613,1.746895739616172,-2.2672683952106465,0.887589911815146,1.5098482665681134,-1.3770500232036655,-0.9283576567214975,0.07684896802896207,-0.26832528594648775,0.2882128928153351,0.13573533856409378,-0.23473910626794922,-0.33690163357010644
0.6613562356246845,-0.8987374980599828,0.6041029689811133,12.732111455778915,34.05904557450309,0.8606641271337486,25.110979989814492,-36.71827878080955,4.053945601724496,-41.11485182484564,41.33533109074025,0.8132284733569853,1.0924555311636872,-0.12691913797205326,0.29391116942550727,-62.127021697952515,2.202999987632543,-2.522260372446251,-25.229569415851305,-71.66355287422348,2.380451076121803,47.49784719982283,47.47508640065921,-20.12720407822293,7.273378954612443,1.691748764798013,-2.1223616838605444,-3.8397836455683545,-4.997516266300521,-4.351895777828544,1.990631512059555,-1.3706646971596657,-0.6547058688563118,1.1899888886939078,-0.8471178358145282,-0.3060550117113558,0.24462929603250058,-0.008580437507479562,-0.16175132638395873,0.2788776887717239,-0.18171814756932042,-0.04218953600868668
0.5981181140821968,-0.5232411484912133,0.1015065094337897,12.202061752481578,36.112561655613796,-0.7738789250898791,42.35809416144383,-25.71525829857283,11.095470998784933,-57.51471236058251,54.62971765349413,-1.6478265175574414,0.8932306876238459,-0.2533315619070985,0.38335836698166975,-64.62842844025731,1.7522621285493805,-3.16381249598018,-27.409616019353248,-40.86002302934962,14.044555299015622,51.71552886000555,32.06011459710044,-23.34793911596412,3.0546859185289006,2.2595268850777352,0.469732840019083,-5.407509144360862,1.0557150218158067,-5.109183176223747,1.1447335362919737,-1.2894220903833438,-0.28521792177990096,-0.42023897005257166,0.15139407889808268,0.1024206647199582,0.07536538126122848,-0.012767417176978116,-0.17352492132147349,0.024612521118222992,0.008962161062962657,0.07613533947053634
5.323170002640916,1.7616695256952717,-1.5241852060466519,10.993947043824884,29.73071141638841,0.10666874619467073,51.59473218869868,2.8765660500614514,12.3708064349393,-53.62630141486395,45.24662876073948,1.0368248485535316,1.0382004431128655,-0.2961925537729162,0.5763192926140664,-67.17567181920253,2.3752832212359176,-3.244853702335658,-13.977859977798548,-8.21742023054486,28.10404849349347,47.12287927423717,-4.475538946857453,-8.574158431417404,3.034621894713272,1.8553915520447883,0.12435237150366113,-5.376032421093052,-1.4648272071023705,-4.818304753154877,1.6949924061480663,-1.3876301785762957,-0.49074279484096417,0.28279627711984134,0.09173549235507296,0.07243563977428019,0.08561196816163424,-0.1410226401927573,-0.009275953199564684,-0.0059077382496940545,0.05560294562083355,0.009120576403570741
8.215569518319384,-1.41771131193977,0.9060407961846876,11.947866896088852,25.208300081264774,0.8712900423702917,45.030975239004476,-23.659425725464867,14.367187345020408,-44.954327637426395,36.55473726512234,3.4872680474813995,1.2306668358356256,-0.30888036368803035,0.40362994911200356,-68.4483357728273,2.4463303074699914,-3.307062258249853,-13.363687043565006,-57.21901709301881,31.709959537682654,80.42099489279049,-1.6382694740238266,-9.381027081153707,5.9496433795991415,2.085440607356822,-1.148619405255346,-3.6860796818091006,-2.0913700767711805,-3.6829784452709022,2.0006886013505736,-1.7434112826039425,-0.037994669348603335,0.5091742118170252,-0.17870096462912016,-0.4959133655615579,0.2516976801593529,-0.2569405379580705,0.03815144388825606,-0.011122124358699649,-0.08844423469959889,-0.38264918105323265
1.2447084642447135,1.4130742723776493,-1.2659039395270666,10.83915230752578,33.52789737247076,-0.8646390231567189,29.39765469930827,4.648842133342073,5.108795063471628,-67.27451331443712,66.42804565124077,5.177772198779753,0.7210594457026921,-0.6541196087038402,0.2197196454164965,-69.29564235361629,2.09664343708094,-3.0999511552722336,-54.78086390670128,5.982798061495754,21.879681991747074,35.50360944863296,13.56080297087516,-9.565802969142073,4.205021775578936,2.458330477605856,-0.3079889221232232,-5.834134353594082,-2.6273726984313193,-4.492310617769735,1.626912289827174,-1.2675567509918695,0.1314853274796081,-0.7556922747267492,-0.3076287059835771,-0.7086331444518087,0.16335978702895704,-0.1759588657808162,0.12222897357489734,-0.1938332683978257,-0.0571107649876035,-0.09359254576215872
-0.7198090620130466,-0.814528151919711,-0.7516678646140599,7.4217470902671625,26.75955967213884,-0.8003332242697719,10.77656383510186,6.106622228852458,0.037424478571408015,-58.76031576681243,37.15411035247374,-4.765720499026763,0.4917677434602097,-1.5044897398711599,-0.38955418512366713,-68.49966009812668,1.6180335199238762,-3.3954249720410337,-60.83836744278925,-17.611688932846825,-9.217145435635356,49.08077374327351,31.095724138707094,-27.843840279422018,6.7720464031716965,2.743702504371574,-2.3389885792839444,-3.939510443345321,-5.22028015603263,-4.210062088805259,1.8536704672184867,-1.2735680424102587,-0.2539292693786175,0.26676513857815204,-0.3443858260143924,-1.1913559220252872,0.030073282519361776,0.021260964867368334,-0.016636074254467552,-0.18301044357594293,-0.002625418952642183,-0.20132431841196752
0.5791869604248879,-7.557011935996391,2.670904829176792,2.876827865330372,22.654548391611762,-0.8463900372693071,13.896770203059887,-18.973643802744352,6.832509147696155,-68.80829760913254,50.83663611807137,2.096982437205385,0.6058862456588245,-2.0569728101309277,-0.40095769970523465,-66.63409006047014,1.3765850530271362,-3.386865181100415,-70.3454306671608,-25.26188646705981,11.816073078497244,71.07095471318391,-2.6297526579534547,-37.89398657211063,4.998803096774246,3.9101672339438136,-2.352172376895226,-8.330041039927432,-4.317567053857823,-6.9006127593575615,1.1992097614703947,-0.7382072737771878,-0.6711644779601221,0.6913368696004163,-0.30746976217126487,-0.947694047512399,0.12779596671082413,-0.05531737301307507,-0.1444446851564779,0.09364168301959011,-0.05824064800574387,-0.18449503802610312
7.066317225141306,7.060579738912515,-0.10679167120992923,1.360707794240608,28.222267317403993,-1.6728400974881172,40.424891598990946,-8.389574333030431,8.82338313038836,-68.6112166492712,76.85289697692268,10.483662633271786,-3.416380049675158,6.221344256730625,0.7916981286090335,-63.48414805101279,1.4403421982063649,-3.174077878588262,-37.76937671368779,17.14996810866879,32.876971939698194,57.515248822735835,-12.565994835090027,-11.870260469754571,1.8729561066506255,0.3825576216476704,-0.871109157526126,-5.0108615498895075,-1.2583026960278383,-3.393428777959123,1.614078381201882,-0.6371450413357386,-0.9027093569711908,1.6405830758377167,-0.07137498537611026,0.4372703066786059,0.20062465759473572,-0.034422832201831226,-0.10835367568043529,0.3749036177833888,-0.06576557167730417,0.003933598554479036
4.002547717810699,13.244436048121015,-0.8386387198955418,-2.4601896054855033,23.8907370147545,-1.6533310751973256,27.592833368068657,-2.086342599179265,6.27628726513685,-67.76762606903182,46.98972797284338,-1.3760303469753545,-7.746899058948597,12.323324289846875,-0.016845383355493636,-60.21109868009083,1.674395310862568,-3.3188443347418715,-54.06780503261422,-4.574708533444888,8.063531858012201,98.51619477593745,-43.89570902288372,9.323197789960611,4.517880334981132,4.406582214221568,0.00610388326463452,4.968796822007125,-0.31324162667286487,2.2258393969179266,2.1168605362756145,-1.9304415144029063,0.4216286351964837,2.9398245472791316,-0.07250809916958349,1.2532496327130724,0.1722346611401849,-0.14809895521309738,0.019991344621845375,0.1217126588873071,-0.07493257480888667,0.02470689129990983
2.8285561522037694,15.711430415606353,0.41936604096597,-7.418067108702727,22.031327972691475,-1.8505990272951034,21.82077374232178,-11.614264841057569,12.873599552897225,-79.89325296561589,39.18638701961166,-5.307910214096929,-12.301039259684389,19.698682962128395,-1.27923095127469,-57.442723538991046,2.2750127374733475,-3.332730220444884,-72.42220804433448,-21.51445478807917,14.347670423360398,54.27443551285125,-16.22000634021758,-12.088150656747548,6.52563217905366,4.399121253438718,-2.875329479422836,-0.7638255371645339,-9.111656782640212,-4.4878883310010504,2.100989561674879,-1.1787793335124856,-0.47115252888895437,1.4054606716108713,-0.3403598484423246,-2.048590761078594,0.2465382264712143,0.022025942930739846,-0.17539354557522638,-0.03629609387539869,-0.015007298796845737,-0.261899980267761
1.471526712190371,30.233802224413836,-3.043917087825518,-12.889132213870425,20.923951039588587,-1.7985704449662998,24.194345053841328,9.46279676530474,6.639380846472353,-77.18129855026693,48.213392766763235,4.35215486150894,-17.50752480293363,30.141314288701206,-2.9104420086219296,-53.11530312058663,2.4645954654425783,-3.2960102963712514,-57.61207030430939,24.081469377152953,19.496642877539376,28.019594662732686,17.088624369724894,-18.48603004410899,6.4631320983096465,0.9636040097573942,-4.130268991286701,-7.097228427676077,-0.2849541100420336,-1.9354434050307485,2.7575392747716183,-1.1808504703136,-1.5185386905932838,0.511618614817897,0.07976444916569451,0.9517175756250621,0.46521329076011075,-0.06360664843684861,-0.2931152546041421,0.032509130776118896,-0.02342370133564403,0.01638884346134376
-1.33584960273641,42.97268516136665,-6.386848868074579,-16.852643281410653,19.61509214612363,-1.7442798739237746,19.817018900545765,33.57840331371599,-1.6630611396796742,-73.33393500121257,36.89192100271025,0.7853126463214839,-22.86909969207609,39.760073099106854,-4.9982050498778765,-49.359355422751804,2.7418795502974653,-3.000444403151643,-61.64693512922859,37.28615746181747,-0.5080724290355992,67.37647590846753,-36.34732807052839,-4.298782082045781,1.6208732062635944,2.2449719508552612,0.21630759740763958,0.06299996849235798,-0.8828891826984047,-1.4562267891210425,1.7370158092085999,-0.9612869606739505,-0.3904292065129717,3.352631855975014,-0.005111502423347896,-0.05753608226718523,0.22085467579239002,-0.11240231681732628,0.04940441823788608,0.438941861388019,-0.06247563002796485,-0.06758782053653585
-3.5006748467797215,50.13813087237548,-7.99365071732992,-20.80218005477644,17.846105638937022,-2.6392682953879554,7.928491336502035,38.613550589862065,-2.5814296814819517,-80.5780032519734,36.40947278816645,-3.377586535654582,-28.108958469556693,48.73460290652654,-7.4315074695479755,-44.99367819810596,2.1434917974017575,-3.1794514508096983,-84.75778839839694,59.85461802541921,-8.201457124184955,79.89820286770775,-87.98878522577563,12.059175860292248,0.5930949054659942,4.1462980986904645,2.327211199972462,1.1588448772048312,-5.062847156677989,-2.7306636945129554,2.019138840393217,-1.9078018734424056,-0.10189871335681716,2.628004462933749,0.017372821665773447,-1.1741149862219862,0.05957140173644739,-0.17601297453431652,0.024327366938870856,0.33310467136970273,3.975823038661973e-05,-0.07775843414593926
-3.7449551828300987,52.47087828166565,-8.907912076795924,-20.783808966874915,17.872794726632055,-3.0012985671446657,11.997554223553713,47.22049905456777,-5.383536986290105,-74.83098894675501,45.270603094701336,-1.555035281475738,-32.685622429605665,54.709636781623644,-9.63513513011914,-40.39361891202886,2.051829702352194,-3.1156403880123857,-63.90008556362187,87.40398560450657,-10.642592521897642,62.948854915575346,-73.45868125880283,6.117922926060807,5.397836478499325,2.9362573765999507,-1.3868296060145204,0.6557532536308972,-2.700331795671683,-1.0561934723905695,2.1978027856239906,-2.168198096790951,0.3325225091182249,2.68172971024192,-0.06683273121749309,-0.10565019733045733,0.2536465770612738,-0.2536120923741327,-0.034686192139792654,0.1744832499526579,-0.07110622731753247,0.011958135219651259
-5.464922674225274,58.79891247455835,-11.536047981706355,-23.04617816630182,15.69025737216434,-2.5123195835585244,18.109522008832073,71.16224110940169,-13.973937374233898,-73.49984623406165,34.77818360948844,-0.9311351363999181,-36.1883878144327,57.892390841516864,-10.949031110649573,-36.08811147760272,2.25970728134041,-2.8235612358839894,-47.961317548667886,104.53655044859576,-18.915905210729708,53.44070916032007,-85.44895931543708,7.553698674795741,3.908897272337554,3.226360948847322,-0.8802168684217262,3.81525343423425,-5.305006710212417,-3.549464509611677,1.6331036077614614,-1.5420810498388184,0.2857961840907535,4.081927306068379,0.05973975227784994,-2.3910696399708167,0.2726598415893856,-0.26590008190177994,0.05730089893391298,0.386254268513798,0.017797321646124215,-0.5566072238815984
-7.208319996667663,51.16605904896593,-9.45765868126038,-24.51495555538361,15.051557070747617,-2.759803937701214,7.674426666350889,53.387643917191625,-8.662943983514934,-73.29929983092828,28.012987565642803,-3.544166476347066,-37.99321269295365,58.01252340250407,-11.732461541532386,-31.498503185599134,2.1552454509166217,-2.804859570702372,-65.17714986784763,76.34268664157995,-17.037468859941747,79.81053190462295,-73.78118449086612,4.071157130774608,2.5839372494231356,3.25482802479028,-0.9379106419831469,0.16443166635405798,-2.721674577316097,-1.2253865283621115,2.7848887468478947,-1.455464453186836,-1.9274676013605085,2.5886344357103646,0.40499388386225027,-0.41048611856330025,0.3497615922984447,-0.08165614620196297,-0.25904603135322346,0.2856433608689102,0.10078296725515788,-0.08254316461801194
-6.161264539256901,48.79577244801994,-9.725681593035466,-23.986856561056847,14.520145944531903,-2.789641194589017,16.89111679542026,43.51155901873411,-7.612937284131768,-60.601552398984744,28.631060027336158,-1.0201948566182624,-38.96061777197427,55.51635302884876,-11.9434264382721,-27.126898784872893,1.8648974207023437,-2.7236937955115668,-38.20782251093956,75.51756453798995,-12.113759303634426,49.205564369979975,-76.18354011959819,17.465864296224172,5.248982374948188,3.478397381073283,-1.2156067176147973,5.228360286795775,-3.229110237597545,-1.116666799570559,2.7910260416289594,-2.0092177765604284,-0.5015475621174177,3.382632462330326,-0.24914328233725297,-0.6456457422285058,0.4353657482691639,-0.1677633856829922,-0.18211583780307122,0.37236342878885015,-0.15007871676318177,0.016841875460452724
-9.223572787010477,47.015073751323385,-9.62690761956745,-21.7810422720846,15.369201049382168,-2.6176116876507813,2.274783092073652,45.88667365936176,-8.002248170370502,-60.24774685517327,29.33476819534686,-0.9716755460392845,-37.57555697187834,51.42016806219307,-11.271504736159129,-22.583900205287865,2.194821009291674,-2.4744648972462464,-59.694150054016745,77.88003557587955,-14.681062863752846,63.43623738615926,-68.27299700895882,10.62640614421521,4.998213591584693,3.9578758147507482,0.2522334449000749,10.266083316103025,-4.216022883807838,-1.4931735654603084,2.466110829176843,-2.3215955779538056,0.5593175609385688,5.344853027470672,-0.011434532406057577,-1.0994880808608218,0.3751311980353447,-0.27255760512094057,0.0006662223154998189,0.6988594205511379,-0.1037682417476617,-0.013322904719738531
-6.546151449129285,37.45642353872227,-7.008344378894352,-18.390600373106956,15.987922829588195,-2.8757849070385824,16.469705793237814,32.435866300409955,-3.779415644909413,-59.44672695184511,33.53518607150729,-1.2372053801873868,-34.668936120320375,46.76188083600454,-10.196303092372434,-18.197366417138873,2.336315246781506,-2.582850941739564,-42.99775407721787,66.61603099701857,-4.053258170578284,64.62025840610083,-65.98803447484059,22.83726540250075,0.28669894462610007,5.853314445425481,4.240167973660159,9.434583025273797,-0.511020994263755,0.5882207251689788,2.7367405773268882,-2.760510080435531,0.3193430573861664,4.9754321134113075,0.37105852841488673,0.30842514223046263,0.2763416101957489,-0.39424715175921105,0.2163276137119515,0.7718761028450751,-0.03501031662084881,0.037970249336579054
-4.099416396485426,34.08265899260905,-6.8066598603884145,-15.332110759517887,16.928168405558278,-3.0269651093274597,21.591781000222056,34.98448541597426,-5.847283563221941,-56.05769540574158,28.86936365291709,-3.4259301835379885,-31.37787423034601,42.16857245902305,-9.262421933361098,-13.836983117671286,2.292289485161237,-2.672274353279555,-29.092303255269066,68.87983823553034,-9.180005781143484,20.240270357682178,-65.25560462041771,24.191228047665117,1.631951223617815,4.713164403914493,2.4134529521685812,9.298539761483429,-3.7825768238980575,-1.8138174486102385,2.0978200948461363,-2.203851314377234,0.27409286489252366,4.115134413707201,-0.16312421916755004,-1.6246549941472674,0.1975690152473709,-0.2467319892336746,0.08483698521182542,0.6210279820458817,-0.11510820804736345,-0.21524826436200378
-3.6753374367139013,29.91023930239024,-5.999188473207016,-11.663054418382497,17.101244197263693,-3.0112543552424342,2.7208128405532213,41.312622312488195,-9.129136861615711,-53.67656335813599,24.988450585054753,-4.808043616979718,-27.654923550439673,37.74884363130915,-8.191034194413616,-9.719042933837768,2.303091325897762,-2.7555985809751533,-54.74232803757163,69.03712659907343,-21.834148893122197,39.738209132656905,-59.55285577784891,7.815377471371605,5.453451661271887,3.025295492120681,-0.17901226746009632,6.359023965094216,-10.03229617020675,-4.788927862867394,1.5547891921317627,-2.1077262356503232,0.8880978507103768,3.6117765076842234,-0.1683180317039017,-3.630517265838904,0.2568773020543303,-0.27987082025654664,-0.013490869859307692,0.4245999340430532,-0.005322312563532843,-0.42672641449841525
-0.9121282907630331,24.036317290209293,-4.322131785335903,-5.423527570877415,16.53864934399127,-3.284086455021287,-0.26791596405060664,24.539290807466056,-4.314121848603034,-43.73872522065383,26.442902732743505,-4.891720056773351,-24.37878212148382,34.22665661957225,-7.293964961682374,-6.186494462930878,2.053993860500683,-3.277400266800054,-52.41107445161939,41.530216044259035,-15.241095008727934,65.70779565261626,-16.52889250631234,-14.583439570033427,3.623139120198585,3.501462214532769,1.0520475736344532,2.4737742173462247,-2.322641124701711,-0.4683381710367328,1.240414325368031,-1.735985496120753,0.9898884790958445,3.7141578186291873,0.3272563428596698,-0.016199506436763305,0.06553634219902614,-0.14127864093232687,0.1334217340046745,0.49024090883541827,-0.011095071148385066,0.045535797180199816
2.240442608535652,20.09649024142054,-3.120490770259863,-2.7545574355790126,18.006977538183232,-3.0638372624714814,4.325921493683827,14.513035479768098,-0.8656714246982623,-40.48886323271998,33.815251438978585,-1.6059540117401554,-21.737096438702142,31.75011037252439,-6.529555517358081,-2.88327957951146,2.5498507411328752,-3.1459309526035732,-45.4826980939023,40.79643909313217,-4.709434699497405,22.753795079481165,-19.60478800158371,-0.2034009056827063,4.677834399739057,3.9482445181979626,0.4847972500358038,9.428067287179537,0.796700850847934,1.2168200032650236,1.847265889839744,-2.100076514789361,0.40994745807491056,3.813454399903831,0.3981432940283826,0.6097421377200629,0.1588076506057888,-0.1921789982977787,0.10041398956116407,0.44650233636380565,-0.024864101768698233,0.12192568113469496
4.745997856057717,16.701400729470073,-2.3199244136708908,0.42861753043948464,13.512558063221602,-2.81377909395035,7.323023408041519,8.98796432552349,0.08303247986649376,-33.52407033313422,20.06162353169067,-1.6877802359724994,-20.19939324323358,29.714837553457404,-5.990232083244299,-0.14446334730152813,2.837472448013557,-3.265763910428324,-28.628559251853105,21.897746945391372,-6.977727651144869,35.84160154150825,-48.54044945464302,14.08021644454344,2.728879514818875,0.1630624320885113,0.044537946236976655,9.75486307101257,-2.7879937222180406,-0.5042708031395672,1.9170224226971881,-2.144628925139011,-0.28592075914354614,4.3662576954689385,0.3688269145872146,-0.8269622715737857,0.28785181941162846,-0.30137502746701417,-0.055917522528665504,0.6624322007594499,0.005514971161929101,-0.07894279499810959
8.525460427661718,16.13744190721763,-2.397579582653555,-0.5180046195657446,12.619280145356583,-3.155346296802476,7.6941091827294725,16.887633150182968,-2.3637820983957236,-51.964987683547314,25.1148866259491,-3.111186253787582,-18.943932474403194,26.91995435131666,-5.095560034652138,1.5914200620622803,2.7274830981784106,-3.2066845802246804,-53.82883403940933,39.36018152706266,-8.165072794592984,25.029403246909524,-51.00544797958541,23.78814085479352,5.019137112180933,2.4763075195419106,0.38097276845173794,11.965416847795266,-2.1752588419437036,-0.9440575583328527,1.7629462999991121,-2.177859493617309,0.5612761322531974,4.277215103726308,0.20367410099624345,-1.6113428048468355,0.14732564608567483,-0.15769755062750576,0.08695337236338321,0.5297019484836556,-0.05474328652924006,-0.3017898196940385
10.743460543250249,14.441164197788469,-2.3552380174167347,5.534721313432495,15.160656754760359,-2.464020829116116,16.63896347130946,13.523772374037634,-4.178692276966404,-33.575659535073136,33.49737390352909,1.4783358103258393,-18.244985463361665,24.200491919361287,-4.192932474693451,2.7117892999185487,2.6590032617449135,-2.950787577301361,-21.443082728042942,47.724572458170115,-5.862986164129656,45.45115801529397,-31.413715742689952,8.082301839523874,4.76541727370841,1.5276440575290295,0.3491689620598404,10.995311559870148,-1.1755990710365505,0.7918737045997779,1.9592947999746948,-2.4079241341464557,0.3679581221862085,4.789277040509457,0.723671158519759,0.1031439017455786,0.2958510379445909,-0.2655808645723244,-0.002284076148569309,0.6304103139674364,0.0454018385956445,0.11643852616933838
12.146607123009188,12.134859001383333,-1.366997673516236,7.338374470952757,12.821466402275355,-2.6942119313640283,26.114273568757316,13.857469245340674,-1.3358072887592842,-30.40948993280939,28.938958065262984,-1.4523231936975793,-17.9050961251962,21.492594640705434,-3.148168747533295,3.6639614754987404,2.409411881102134,-3.0066650539923025,-4.488417759570757,45.88385764601888,-5.857630787395648,40.74512525206793,-4.388478601811548,-1.0643350500700635,3.958982891978685,0.9108645272293414,-0.3688168945747774,7.7973448561904,-0.9664209010861126,1.913575020018219,2.2759361257955835,-2.3200348158871695,-0.7201190296164951,4.561219397467186,1.1203098776704081,1.54798023328484,0.27790280706005427,-0.1686358966722491,-0.16928270715305285,0.6562713138311053,0.15753741459331577,0.4330845172815702
10.257907904658806,7.792562919067163,0.3384549426339767,4.865579243534386,8.86130330746646,-2.8128981681575493,25.050454432709962,14.821074833021148,-0.29289651323774823,-35.876508815186526,15.501493553758458,-3.7493035049931445,-16.92770478754013,18.954904385972664,-2.0284540489168714,3.424648738061261,2.4379886726671764,-3.1299777791816092,-13.015485105521645,30.155619255252706,-7.350585528042416,17.285830841993366,-43.131377903761305,10.97586189940014,4.007684861367889,1.0624418715041308,0.1763663166747368,3.0638247678373793,-0.06517514869698479,-0.566682899614166,2.2359234839303403,-2.521443824971772,-0.18258804899245232,3.116280123896884,0.7709459177300588,-0.3344898624155343,0.1987280343693064,-0.2937226167585675,0.14248046622664978,0.5250487692989945,0.14672401328192758,-0.12096931958414599
9.826458598929792,3.25431913348249,1.988311387405549,7.306264702258967,9.214938025192476,-2.3840166338623763,21.89227156922252,9.391086608297334,2.593251008273042,-34.223719355429196,16.023661207361442,-2.944642563343522,-15.943014811696381,16.464240564770954,-1.1790618060991898,3.4083967700741296,2.4817163020788136,-2.9050240340374174,-13.076771928415253,30.594247557965204,-2.672693559599627,18.284820455605413,-38.7376788423161,10.109169391557865,4.796279998991828,1.3489928752231886,-0.3374745637700004,7.174380141471515,2.9140646587929147,2.8740697170375835,0.8440027881816086,-1.5194019511660724,0.3256826358427475,1.6757212366380747,0.15651407641104714,1.2267088528945513,0.016293716739265284,-0.15717263877139984,0.06869720614070154,-0.044199158624967524,-0.08731432170755178,0.18879055061697753
7.1450651205709566,-0.20367076121033106,3.1891111084236803,7.214882717121535,11.325362264959738,-2.1889636274048385,-0.8059471621058913,3.667105217392169,4.8450636108003495,-32.54857429777716,25.064502956984658,-0.7534307866029339,-15.23113072967885,14.356772096248763,-0.8449525603594263,3.240675511514676,2.2866457853346986,-2.631298179522987,-41.6178283903186,35.77945147450636,-4.424022551945286,43.10705047761894,-17.717148661822357,-3.5090795518628486,7.942968714783279,-0.33058444797692393,-1.030413543837847,7.160155615117709,-2.649408610205372,-0.2883451089636875,1.5074637151791834,-2.537892288749645,0.45657776085007146,4.63777167565136,0.10666751266763552,-0.4400646660789116,0.26305250800483304,-0.30622072934096206,-0.11735044401927353,0.5431052661452099,-0.21322737667268396,-0.24035531651681064
7.848590298512005,-4.80012780379711,4.274274581201558,7.008749965340339,8.524071808551183,-2.3790835382001205,6.969616882767131,-4.039868758893651,4.1561519807541645,-30.445483648762757,8.237787422741128,-6.597676805661728,-14.233692798733404,13.175953018257573,-0.38191332005523954,3.1359227559484153,2.3824133799557132,-2.792133339324897,-27.69349510024777,2.00890956811305,-9.713063120868453,37.57795355452479,-12.020832598180554,5.048372730289534,5.629507539693647,0.124308877303061,-0.09410668060547135,3.2520187150795783,0.2782595733033342,0.9751320270904338,3.3787717556545456,-3.4508966567596544,-0.7115252979627195,1.7767349434493704,0.6694439663905515,0.5663449367431963,0.6088036562594515,-0.40376113927891677,-0.16230243656585047,0.2856356901832021,0.1929005617090558,-0.12536292355565162
10.580919932678093,-4.3526085188872266,3.7755599430166704,5.731241647146469,12.18429774450955,-1.8946559175383162,15.917596879604464,4.569931163193776,0.272395613344631,-35.31911023508657,20.682216975295216,-0.2759089484989131,-13.42750845843218,12.19510677419315,0.1798276917395998,2.7992971257952393,2.4854321139251265,-2.58899711503958,-22.150970245194436,35.28276206475203,-1.527247895361001,46.830972306262815,-18.74639102334112,2.2638913752167773,4.376473719334931,1.1633258078560502,0.40256543427463465,9.019562538794444,-0.3493000476216515,2.3296157918121363,1.4713187931083014,-1.9373469198056708,0.1955751125364455,1.8190925915897147,1.0520315503898776,0.5538596035759289,0.05221226536979745,-0.12331443978661688,0.14943976154209082,0.2553103289807468,0.2151064526381733,0.41290783262950287
10.307772889197711,-5.659331197049681,4.632518931383568,5.7695083819395006,10.706709819664885,-1.674094748110612,3.475583772616936,4.88521873205847,2.388574749146634,-27.91477716981947,17.431893077708864,-0.31533486721533854,-12.551399905467854,10.825828197996922,0.6796280182716723,2.9555182559662647,2.3104251901042323,-2.3434987147164072,-27.031250788341055,34.35573314894313,-8.733967793473807,16.17607525635569,-29.573775686979964,5.032093845202588,5.546449108335237,0.31170982503183253,1.5912094760895357,4.7744903783662185,-3.1882712071692856,-1.3047738348757436,-0.6551903877262079,-1.4539597645486215,2.535726515680201,2.673409128825822,0.6262036383246076,-0.8433059029842225,-0.1614010909088931,-0.25795918034451704,0.3310625718466381,0.2729341713250681,-0.05124297515126674,0.02185715804468519
13.878417832504873,-11.407235372506126,6.277617074115913,4.739817936802207,10.995334622565073,-1.8842583460974367,12.54183187043654,-17.02319786788032,6.0888608200855705,-32.255713354778834,25.257614922960627,0.9216235523859662,-11.453691808522926,9.81784512476232,1.178595415057978,3.053482319725812,2.337465259611682,-2.349633062617394,-24.177434774968663,10.944066660168712,0.3422636171806648,35.57984044006409,-27.588146683306107,9.980429997865333,6.876216401462376,-0.3848136016358328,0.12033492537477983,7.523631417581301,-1.1126380617010079,1.5869231048806938,2.4133423111818115,-3.524821080753578,-0.0396030848477921,3.585890832827307,0.7151565084347369,0.703259872888258,0.22728021477006863,-0.3480226639789986,0.011125227074266053,0.5635322906610108,0.08689159675601962,0.0008557503929413782
13.439157440139663,-10.81807433090718,6.145078027642651,5.64934158581635,11.750863167232525,-1.895352940493037,10.931822675753585,-11.309637347170241,6.028186680015028,-28.03681918520752,25.46736443469191,-0.7558126022380742,-10.486350116383232,8.426186414107926,1.5219455094976164,3.070257845685783,2.246732330534184,-2.287926684516458,-21.925392578402214,20.2005549272246,-1.4231067787575613,36.13807792300169,-14.532690846870185,2.6373338778377793,2.802486620961606,-1.1641075941106263,-2.4113735904445592,8.69269127138242,-1.5126985953685033,1.255364840412785,2.1606768733116253,-1.224090834646837,-2.0654512503342493,1.9389421712571853,0.9561900555949715,-0.4975762787683323,0.15664499957164651,0.02324409275221046,-0.1359198399490654,0.3293751543687149,0.23083905655035564,-0.15715303213496878
12.437167782751818,-9.648430214285542,5.771186545852953,5.116600202507424,10.775143765667769,-1.5640781089648335,9.221125055089916,-7.775870344594267,5.432452661642065,-27.427286705219426,11.501530429585577,-2.1151675828177514,-9.756482774644818,7.1887667069610925,1.847761208473372,3.0593807743904295,2.1617159163623363,-2.3611888434131436,-23.772081295555942,5.1237772018874965,-3.4005107148825116,28.427970712878956,-9.275299831289916,-13.188517527370982,3.602486974662611,2.0611552830079924,1.4910411173748566,-2.6049556149294264,-0.08039703656625463,-1.2712661323717047,-0.740132419598149,-0.2617960183250908,1.3207781642979217,1.204929242287977,0.23991879714784017,0.3995579638214444,-0.2676115500750442,0.08934404503427378,0.1803639022084126,-0.07987895178302916,-0.030632196393992218,-0.022639780030116543
14.94185,-12.24341,6.36847,5.31878,9.80913,-1.7385,18.33965,-11.94175,6.87345,-27.4205,15.50297,-0.70017,-9.08071,6.13205,2.12938,2.67795,1.96647,-2.47387,-11.2695,10.87446,-0.88813,37.76903,-13.26729,-2.86388,6.25974,3.31972,5.94034,-0.90836,-2.3079,-0.63903,0.50508,-4.02277,3.1322,1.38924,0.08178,1.18289,-0.02788,-0.38193,0.27606,-0.01858,-0.08057,0.17612
,,,,,,,,,,,,,,,,,,,,,,,,,,,,,,,,,,,,,,,,,
,,,,,,,,,,,,,,,,,,,,,,,,,,,,,,,,,,,,,,,,,
,,,,,,,,,,,,,,,,,,,,,,,,,,,,,,,,,,,,,,,,,
,,,,,,,,,,,,,,,,,,,,,,,,,,,,,,,,,,,,,,,,,
,,,,,,,,,,,,,,,,,,,,,,,,,,,,,,,,,,,,,,,,,
,,,,,,,,,,,,,,,,,,,,,,,,,,,,,,,,,,,,,,,,,
,,,,,,,,,,,,,,,,,,,,,,,,,,,,,,,,,,,,,,,,,
,,,,,,,,,,,,,,,,,,,,,,,,,,,,,,,,,,,,,,,,,
,,,,,,,,,,,,,,,,,,,,,,,,,,,,,,,,,,,,,,,,,
,,,,,,,,,,,,,,,,,,,,,,,,,,,,,,,,,,,,,,,,,
,,,,,,,,,,,,,,,,,,,,,,,,,,,,,,,,,,,,,,,,,
,,,,,,,,,,,,,,,,,,,,,,,,,,,,,,,,,,,,,,,,,
,,,,,,,,,,,,,,,,,,,,,,,,,,,,,,,,,,,,,,,,,
,,,,,,,,,,,,,,,,,,,,,,,,,,,,,,,,,,,,,,,,,
,,,,,,,,,,,,,,,,,,,,,,,,,,,,,,,,,,,,,,,,,
,,,,,,,,,,,,,,,,,,,,,,,,,,,,,,,,,,,,,,,,,
,,,,,,,,,,,,,,,,,,,,,,,,,,,,,,,,,,,,,,,,,
,,,,,,,,,,,,,,,,,,,,,,,,,,,,,,,,,,,,,,,,,
,,,,,,,,,,,,,,,,,,,,,,,,,,,,,,,,,,,,,,,,,
,,,,,,,,,,,,,,,,,,,,,,,,,,,,,,,,,,,,,,,,,
,,,,,,,,,,,,,,,,,,,,,,,,,,,,,,,,,,,,,,,,,
,,,,,,,,,,,,,,,,,,,,,,,,,,,,,,,,,,,,,,,,,
,,,,,,,,,,,,,,,,,,,,,,,,,,,,,,,,,,,,,,,,,
,,,,,,,,,,,,,,,,,,,,,,,,,,,,,,,,,,,,,,,,,
,,,,,,,,,,,,,,,,,,,,,,,,,,,,,,,,,,,,,,,,,
,,,,,,,,,,,,,,,,,,,,,,,,,,,,,,,,,,,,,,,,,
,,,,,,,,,,,,,,,,,,,,,,,,,,,,,,,,,,,,,,,,,
,,,,,,,,,,,,,,,,,,,,,,,,,,,,,,,,,,,,,,,,,
,,,,,,,,,,,,,,,,,,,,,,,,,,,,,,,,,,,,,,,,,
,,,,,,,,,,,,,,,,,,,,,,,,,,,,,,,,,,,,,,,,,
,,,,,,,,,,,,,,,,,,,,,,,,,,,,,,,,,,,,,,,,,
,,,,,,,,,,,,,,,,,,,,,,,,,,,,,,,,,,,,,,,,,
,,,,,,,,,,,,,,,,,,,,,,,,,,,,,,,,,,,,,,,,,
,,,,,,,,,,,,,,,,,,,,,,,,,,,,,,,,,,,,,,,,,
,,,,,,,,,,,,,,,,,,,,,,,,,,,,,,,,,,,,,,,,,
,,,,,,,,,,,,,,,,,,,,,,,,,,,,,,,,,,,,,,,,,
,,,,,,,,,,,,,,,,,,,,,,,,,,,,,,,,,,,,,,,,,
,,,,,,,,,,,,,,,,,,,,,,,,,,,,,,,,,,,,,,,,,
,,,,,,,,,,,,,,,,,,,,,,,,,,,,,,,,,,,,,,,,,
,,,,,,,,,,,,,,,,,,,,,,,,,,,,,,,,,,,,,,,,,
,,,,,,,,,,,,,,,,,,,,,,,,,,,,,,,,,,,,,,,,,
,,,,,,,,,,,,,,,,,,,,,,,,,,,,,,,,,,,,,,,,,
,,,,,,,,,,,,,,,,,,,,,,,,,,,,,,,,,,,,,,,,,
,,,,,,,,,,,,,,,,,,,,,,,,,,,,,,,,,,,,,,,,,
,,,,,,,,,,,,,,,,,,,,,,,,,,,,,,,,,,,,,,,,,
,,,,,,,,,,,,,,,,,,,,,,,,,,,,,,,,,,,,,,,,,
,,,,,,,,,,,,,,,,,,,,,,,,,,,,,,,,,,,,,,,,,
,,,,,,,,,,,,,,,,,,,,,,,,,,,,,,,,,,,,,,,,,
,,,,,,,,,,,,,,,,,,,,,,,,,,,,,,,,,,,,,,,,,
,,,,,,,,,,,,,,,,,,,,,,,,,,,,,,,,,,,,,,,,,
,,,,,,,,,,,,,,,,,,,,,,,,,,,,,,,,,,,,,,,,,
,,,,,,,,,,,,,,,,,,,,,,,,,,,,,,,,,,,,,,,,,
,,,,,,,,,,,,,,,,,,,,,,,,,,,,,,,,,,,,,,,,,
,,,,,,,,,,,,,,,,,,,,,,,,,,,,,,,,,,,,,,,,,
,,,,,,,,,,,,,,,,,,,,,,,,,,,,,,,,,,,,,,,,,
,,,,,,,,,,,,,,,,,,,,,,,,,,,,,,,,,,,,,,,,,
,,,,,,,,,,,,,,,,,,,,,,,,,,,,,,,,,,,,,,,,,
,,,,,,,,,,,,,,,,,,,,,,,,,,,,,,,,,,,,,,,,,
,,,,,,,,,,,,,,,,,,,,,,,,,,,,,,,,,,,,,,,,,
,,,,,,,,,,,,,,,,,,,,,,,,,,,,,,,,,,,,,,,,,
,,,,,,,,,,,,,,,,,,,,,,,,,,,,,,,,,,,,,,,,,
,,,,,,,,,,,,,,,,,,,,,,,,,,,,,,,,,,,,,,,,,
,,,,,,,,,,,,,,,,,,,,,,,,,,,,,,,,,,,,,,,,,
,,,,,,,,,,,,,,,,,,,,,,,,,,,,,,,,,,,,,,,,,
,,,,,,,,,,,,,,,,,,,,,,,,,,,,,,,,,,,,,,,,,
,,,,,,,,,,,,,,,,,,,,,,,,,,,,,,,,,,,,,,,,,
,,,,,,,,,,,,,,,,,,,,,,,,,,,,,,,,,,,,,,,,,
,,,,,,,,,,,,,,,,,,,,,,,,,,,,,,,,,,,,,,,,,
,,,,,,,,,,,,,,,,,,,,,,,,,,,,,,,,,,,,,,,,,
,,,,,,,,,,,,,,,,,,,,,,,,,,,,,,,,,,,,,,,,,
,,,,,,,,,,,,,,,,,,,,,,,,,,,,,,,,,,,,,,,,,
,,,,,,,,,,,,,,,,,,,,,,,,,,,,,,,,,,,,,,,,,
,,,,,,,,,,,,,,,,,,,,,,,,,,,,,,,,,,,,,,,,,
