PaulMeinheit/Bachelor_Muay_Thai/processed_Data/N3/roundhouse/scaled/JointMoments/scaled6.csv
R_KNEE_MOMENT,R_KNEE_MOMENT,R_KNEE_MOMENT,L_KNEE_MOMENT,L_KNEE_MOMENT,L_KNEE_MOMENT,R_HIP_MOMENT,R_HIP_MOMENT,R_HIP_MOMENT,L_HIP_MOMENT,L_HIP_MOMENT,L_HIP_MOMENT,R_ANKLE_MOMENT,R_ANKLE_MOMENT,R_ANKLE_MOMENT,L_ANKLE_MOMENT,L_ANKLE_MOMENT,L_ANKLE_MOMENT,WAIST_JOINT_MOMENT,WAIST_JOINT_MOMENT,WAIST_JOINT_MOMENT,NECK_MOMENT,NECK_MOMENT,NECK_MOMENT,L_SHOULDER_MOMENT,L_SHOULDER_MOMENT,L_SHOULDER_MOMENT,R_SHOULDER_MOMENT,R_SHOULDER_MOMENT,R_SHOULDER_MOMENT,L_ELBOW_MOMENT,L_ELBOW_MOMENT,L_ELBOW_MOMENT,R_ELBOW_MOMENT,R_ELBOW_MOMENT,R_ELBOW_MOMENT,L_WRIST_MOMENT,L_WRIST_MOMENT,L_WRIST_MOMENT,R_WRIST_MOMENT,R_WRIST_MOMENT,R_WRIST_MOMENT
X,Y,Z,X,Y,Z,X,Y,Z,X,Y,Z,X,Y,Z,X,Y,Z,X,Y,Z,X,Y,Z,X,Y,Z,X,Y,Z,X,Y,Z,X,Y,Z,X,Y,Z,X,Y,Z
14.034940000000002,-13.081690000000004,6.5714000000000015,5.474880000000001,11.296410000000003,-1.7334100000000001,14.668980000000003,-14.670490000000001,7.236480000000002,-25.39537000000001,23.341780000000004,0.5136399999999999,-8.68171,5.404540000000001,2.22159,2.56697,2.0456200000000004,-2.37012,-11.578930000000001,18.208770000000005,1.6005700000000003,30.620040000000003,-17.380520000000004,8.827660000000002,5.791210000000001,2.11623,4.513530000000001,1.4247600000000002,-1.5804700000000003,0.4425600000000002,1.4279300000000001,-4.241,1.9392500000000004,1.5658000000000003,0.1797,1.0834500000000002,0.13778000000000004,-0.45611000000000007,0.21180000000000004,0.14421000000000006,0.01814,0.08752000000000001
13.761172679803934,-13.619370376595716,6.501702838887925,5.386209598457787,11.639802224564392,-1.5736813971766814,10.313403994361149,-15.61289445117235,6.016393374022768,-26.301744876789844,20.4583372201908,-0.7676494368869098,-8.005853421929176,4.204274241341967,2.4929418701163177,2.045509686220858,2.0690262610059045,-2.28221695457524,-16.55238553817765,8.357280895252226,-0.6564406121502909,17.21763307730128,-18.0257740469115,12.522295779881542,6.146649764358678,-2.521447536423649,-0.3504867258669637,1.5179557803739874,1.3570211273837653,2.14434476549528,2.3288342091902607,-3.712939612772947,-0.3257186091454304,0.7997851737875817,-0.3228176149972488,1.068636470403384,0.34073977896117347,-0.5379412804156707,0.014807902144483659,0.11737558455016728,-0.07256645724083367,0.09410533683879697
13.860845330366244,-12.752137083712272,5.832321270932648,3.1091759873330753,13.177035185447638,-1.3050953909298708,12.7238941463152,0.4771682597395536,1.4773800071576688,-34.39510010184413,25.69770078515292,2.8353579093091597,-7.6172722198172345,3.448970496112001,2.5943426798190763,1.4270934693065354,1.989660637012291,-2.24221655588251,-24.77183534292133,40.017846490320906,-2.352214841919007,25.402868206457402,2.951264138870986,-12.133665703178096,5.9518321392816205,-3.948118485449846,-4.065557941776627,3.7902479597418655,-2.377533663069028,-1.951248741648368,1.9994825191559986,-1.0397441150672284,-1.9711316620226071,0.3095023069694368,1.0018379306686456,-1.754774562416825,0.530460425589813,-0.08353821653940194,-0.4758848853118215,-0.06308310821573479,0.09312255566088215,-0.18858030617319063
14.973764179611383,-14.52352070232243,6.229285316709297,4.549729003212575,11.579157105374637,-1.4104010176861133,19.345674452571675,-9.325759212406703,5.39301329151267,-29.590466981087175,20.9966685429349,0.5219819329473723,-6.906385425754815,2.610718151654543,2.549761246454185,1.6645648241398123,2.160864441295127,-2.2420828385247153,-15.507496097263592,17.504504307393113,2.8076219234227353,31.687776518571972,-11.754835005349445,-7.9528886503916745,7.770846318450328,-1.3458200405161962,-0.6840465623525628,5.903076326707038,-3.684679880889648,-2.484791858893547,0.5884904792837298,-1.3194864109731201,0.366266609953839,1.1939119423658022,1.5691142164854144,-2.0613781051049793,0.07742562267927328,-0.10106522219475053,0.0007152663351521222,0.12845583019722606,0.25092441231538226,-0.3407197624204945
13.830190411257826,-16.97002485109762,7.263291022292373,5.67668691920258,10.015482934827011,-1.6638501618389847,9.617118563115868,-22.004540928131682,9.539294238119412,-20.742442965064708,13.043915872891638,-3.3840437736025057,-6.309379525126214,1.8417540873124434,2.6635926858771053,1.5535485061591823,2.1049595593815837,-2.357264656546917,-15.236291025157735,-10.542523619910716,-3.074699689913489,27.23688593940282,-9.6905200895802,1.325480741409646,5.2404555871832725,0.242893082428417,1.8698851474059217,4.840488720619422,-1.9213312444342372,0.7444155337416085,1.3620411047962322,-2.586869983427865,0.7566454699710126,1.1892655890864128,0.3286983459895956,0.021240783194679938,0.08552792034741313,-0.16549569830045954,0.1700364024840439,0.10828045218033217,0.022400865817798224,-0.09110366083665651
14.340026987759408,-16.197626078078844,6.877966231059022,4.190655108589134,10.285966871231892,-1.8377408288988115,10.715094863848877,-12.945289983714842,7.136066432253272,-27.569079558548246,15.83224464429342,-2.279166489424345,-5.978553747059711,1.2158351542261923,2.8424475888092102,1.0162188116064643,1.7620931385784673,-2.5773050988491017,-20.46686608848457,8.548281585188185,-2.7334795659624826,7.895684972684797,-19.946716850930883,18.493535281342094,-0.5975551273399233,4.169660029293981,4.946087350227418,3.5892101425570644,0.627834380245672,3.9155961796904197,0.9049123133069669,-2.4768984271441123,1.1787552723103691,1.3036240499348914,-0.4660956651126474,2.1133694304352613,0.13357434627000747,-0.4778270580589392,0.32079238106607166,0.048392015557277665,-0.18946913415054256,0.3634575229381573
13.72119640277709,-14.954211859853334,6.243097009761585,4.647619860869074,11.07234185539341,-1.5499530371096917,13.074174202047615,-10.131463478353075,5.668187950754681,-21.912937771248505,24.72507534375562,3.7105878900505664,-5.587346426834582,0.6209227951211973,2.8350495449213113,0.7330504603043231,1.482843658312552,-2.6159564968635514,-9.353201468071083,27.80787754341462,4.835765826870988,23.594843897880942,-9.980345432019812,-4.898088386938753,6.864157636780555,-3.7636399284499826,-1.0738332074957047,2.451361852376256,-2.1445673807989727,-1.5724339732103718,0.5193502697490388,-1.949403162207788,0.4577942088495457,1.942147684421915,1.165089987478749,0.09308500354867469,0.07595902531858334,-0.28173294914384145,-0.004459275511305016,0.24041862430635805,0.14980808325628642,0.0746088937372188
14.69665333493819,-15.131946399982857,6.060301598996284,4.360029838777733,12.949189815459407,-1.3345616424736,12.085351961249486,-13.067517097832937,5.01979757549125,-24.19529871046328,28.604135519050466,3.356371213313791,-5.048075552699928,0.03024613679266094,2.942933514094463,0.47272483941555754,1.7303211498361528,-2.4016000563024926,-14.419838540096034,26.61008590393221,0.7705529882664146,41.94090553984163,-13.59646652627544,-8.65884358937944,10.541838913266455,-5.072727542160721,-2.798429026461594,3.8334135591477723,-2.4999255328674517,-2.8546035033323416,2.2093514862418075,-3.168697543795015,-1.1139446912142992,1.6655995180116911,1.7945618924913362,-1.4301311031380293,0.25707035881259693,-0.13861463034305743,-0.31942505581559255,0.27142137775772446,0.3883744115980959,-0.3236727916401819
14.71430435875335,-15.308651276892691,5.90142950009141,2.626019875221015,9.72272886309734,-1.8168749334527698,12.729805437355635,-14.048060393327702,4.470096870957902,-28.778377924827467,12.82569961783141,-2.419767705792078,-4.924705116530216,-0.44256496340289464,2.9624785613339335,0.08890345689489261,1.5704076796730893,-2.6636909035027667,-19.70785767091103,1.1661557808058116,-6.127741766800749,21.858330268850015,-19.293679089712576,8.740476484421102,-0.7856249178150989,5.787636162413228,4.8478680649180586,4.6720175470946295,-2.0941032867038305,0.13958268671449528,0.14636724146044083,-0.7505985101673266,1.0129851777918082,-0.3940191547101539,0.46038036897222634,-0.9268226826220997,-0.1577119416875684,0.14777018038558648,0.22772152178191343,-0.24496222554726765,-0.031159865303517255,-0.06402882633289474
14.70306649005568,-17.605813399013083,6.576399147295309,2.1887832571945705,9.02226738316823,-2.0251275140445455,10.158119110798692,-13.726430511765052,5.61712842443799,-24.940267762135093,14.992580677371926,-0.7151480402073903,-4.812607156443683,-0.6552450516288547,2.8457062569948604,-0.13648386712778682,1.2503667208151334,-2.8885344587060553,-16.744974480322217,4.018269359047853,-3.4460068175072185,37.340490200091395,-6.5938163912979215,-4.446859690663012,2.839297406867007,-0.6787767633450258,0.2587713539162475,3.742086955388828,-2.735764301479201,-0.1437769911131485,0.34881391570145337,-0.9814730981844988,0.2526178225747341,1.329883777913512,0.37922123575044525,0.415951415231924,0.03269183264170021,-0.14119193439482725,0.05226750292494695,0.044608187692788154,-0.059055659043586756,0.07273152594269423
15.379112955928395,-17.4097803426997,6.776885746818757,2.3727178080386198,11.059027432714245,-1.7745934068903366,11.584959552929405,-14.875624905512895,7.6589944310281135,-22.464352004547735,25.65346309320431,2.7574965121051425,-4.377358066722325,-1.0542092164279797,3.073863122252536,-0.06208899432055787,1.1474169054836008,-2.747373016018884,-11.542900537227844,18.095940357742332,5.5116393019312575,14.732924507215047,1.0248071885576426,4.593435626979424,7.117125419694897,-4.990771734667499,-1.908571402661907,5.4374793659465555,-2.2829101809681287,0.0036926378899388426,1.301262365770073,-2.5926780091277957,-0.15644411445242207,1.7287394841678465,0.9084926543295451,-0.05260827503059455,0.13307460178211178,-0.3929170728207666,0.010134688976130603,0.151251979394151,0.09943975567935934,-0.054686605592262655
15.171894864889175,-17.043287958759368,6.2847669854242,1.6005006854811878,9.666840247342193,-1.5992435375403153,14.304094949912738,-12.97868207813311,4.451973268768061,-24.9149074426403,14.178760548406412,-0.32083521518208785,-4.418088121972475,-1.3841787116662583,3.1783036971666156,-0.08509897157208592,1.265635135951779,-2.556422501086904,-13.782621524276998,8.539848737053115,-2.756523704681496,14.32934943918701,-16.624766439898696,0.5949695320293246,4.613090207170917,1.3590927682939113,1.6971993570842023,2.6947261790850248,-1.7069072058542425,-0.7303036506030034,0.3496155017633779,-0.7448783286427076,0.7655983508708598,1.1872756613617585,0.7541042764662963,0.04967203851032161,-0.05083038995571392,0.10473748876347175,0.17839968755596172,0.14147555345756688,0.07853676536430952,0.055895781347884435
15.06506995866258,-18.097963984675186,6.390782932408418,0.8729941422541433,11.086182694644897,-1.6663925420906198,15.45062498955906,-10.755074096634539,4.303669508953902,-28.803316546104607,20.49638819574117,-0.48582574310398063,-4.183792024224528,-1.9741307273342503,3.0897626342586575,0.3143020552685475,1.5223468747788418,-2.4193573436268903,-15.410298368407092,24.08698748273982,-2.6026455359672314,51.23263480229448,-16.421550712024853,-2.768261994470535,6.402544045576089,-0.19402660539033087,0.685442535682003,4.221185364074031,-2.2296889825756514,-0.055266346882861236,1.0651851465714366,-1.7698757449785165,0.07591484889669452,1.6528931159428626,0.6542156232704592,0.3561195243660608,0.15496354932122372,-0.0936174006052311,-0.041653968589262624,0.2151115621327133,0.02510600768001941,0.09048267424808445
12.456453199070722,-18.240934449759216,7.085924482231752,-1.0962770921213512,10.374988626101352,-1.6987113532132248,6.067573367842576,-15.316750557899312,8.085160493790276,-26.34870813105851,20.843754588629533,1.5928002904257637,-4.259192406291736,-2.1719895711123796,3.208593825600143,-0.08893162890895621,1.3053868165134568,-2.4688060407967645,-18.38332815566153,18.318261178898002,2.6023703358382217,17.73986091835444,0.2732243952694404,7.586502577733436,5.31749728225918,-2.8455017692931066,-0.08478601999497938,6.0234173577577526,-2.560687214690172,-0.38904056198331277,1.6688576319905304,-3.5252619640579517,-0.3979330156094003,1.5165018302038347,1.0970710805991049,-0.5845205393281435,0.2593443701670551,-0.5257754840757869,-0.13933564297835405,0.150604846299306,0.1446874896306961,-0.14420038684288192
13.874014222216328,-18.404784159032808,6.648606889240345,-0.9024769682731879,9.612176948445146,-1.6238887749499469,12.022240574591729,-15.020480462497503,4.979978166721763,-25.55329720164264,13.384886173049185,-1.3982050724698976,-4.60805210361929,-2.1900410684902596,3.268500353321625,-0.27786477749274024,1.3436233629914087,-2.3104492135545875,-12.710019534885637,9.93928733287462,-4.6275294926863815,11.677901935434774,-20.825990355922475,-0.9081528175564089,6.076773614783399,-1.656487621412683,-0.0698834090608685,4.301523708793528,-1.2991011249883884,0.4091990305209108,0.6508229610477396,-1.6165449400821823,0.2434959098002864,1.028065399222693,0.7482805900380642,-0.09930719900101237,0.20609499694499878,-0.24453750654247203,-0.06871816927469812,0.05244675929548396,0.08252149453184687,-0.017223781882384014
13.695281338152212,-19.867151576942454,6.799376372492376,1.2068243917884103,8.209730861861647,-1.7008499817175693,14.189669448287999,-17.912658673064346,4.644603827768065,-23.374117659270773,11.476593239086256,-3.1841729395151805,-4.73220332641668,-2.3841277624459836,3.1592768400055093,-0.027792751953625076,1.3604356494566325,-2.209068602221588,-10.321298185140574,5.125512444806124,-3.8110559077458945,30.80423813382927,-8.384831318083235,-2.8939933150156096,0.35542653583857997,1.4191030069016017,0.055882886478894805,5.6416794362047575,-2.68429527245105,-0.5943341846199945,-0.07925018796786241,0.9159430852641347,-0.05661567888940253,1.500581776083902,1.184243738392129,-0.39618196851124066,-0.3542481578317924,0.4316744281850426,0.23623729078483588,0.1155983518238797,0.1096005186899918,-0.021106365735570926
11.65797204755195,-20.079134921945467,7.323897546540393,-2.0721156661039677,9.339921709196272,-1.542640574597305,5.9975205082248575,-14.432096187566204,5.562076564829789,-26.237392504580125,18.09049369075744,1.6278901530840744,-5.172704451051451,-2.253846902820714,3.222275179171123,-0.5203804767929117,0.9408517741782603,-2.2460168389080866,-19.499517375081147,17.584746583309325,-0.6152510268019946,22.53979734908209,-21.901028299977696,3.335712650030293,6.5735508294110305,-1.2758911237035975,1.7782557634602316,6.749355523386447,-2.4955020298366066,-0.14547726167727826,0.02120151220123101,-2.2998741536179788,1.3555041744471927,2.5817040630144965,1.2930246673578147,-0.12179270357942022,0.013677958038738162,-0.2812212293240155,0.07309440248902395,0.38109860426661607,0.1511060880670364,-0.05679754226514959
12.665330496640735,-21.17970678805369,7.887063929219068,-1.090507082904614,10.5589720349007,-1.399137610620342,6.3468680475890595,-13.828357526465961,8.480435311543653,-15.067449946884606,20.4580739704769,1.5189870329772508,-5.638237282281853,-2.6252242662692473,3.2315764711461323,-0.15774462224176466,0.7460051709750757,-2.0685964522272995,-5.539401304847486,29.8887417511558,-0.4409846943827541,19.61289906284265,-29.487291415594715,5.672052918517608,8.69871831055093,-3.0685513366677886,0.6161094058583233,7.814969114935883,-4.272932209042553,0.17484326492954855,1.3065636743534976,-3.560090726717462,0.5316195577248235,2.0388165167729952,0.820625711099028,-0.09936953769001466,0.3964524927727718,-0.4885798997965056,-0.16500030131375573,0.27199356143815606,0.018192541847092313,-0.03762689924649651
13.41580090959657,-19.220699414596698,6.725306345699331,-1.4140304437828173,6.547407007473436,-1.4988930587964906,13.701998095674686,-8.58985001227229,4.4436920362974615,-13.058434736306829,8.186348327220665,-0.22150823700220149,-6.682602705025398,-2.0607497994900124,2.9482778509667096,-0.8706505093657596,0.6180425542317006,-2.067708211614555,10.028686192546505,26.281512685748122,-5.049642825336967,11.88293904757606,2.9176519898768993,2.252990412620427,5.857659154523421,-0.2040864042644236,-0.22147964848537588,5.750689300523197,-2.405430877973068,-0.12171124618772369,1.972055460017084,-2.0949435213261562,-1.07398475683855,0.5364699295189509,1.2125488567360267,-0.8502938002394491,0.23901357340481338,-0.054726430132679325,-0.1805280946991485,-0.07736054804480964,0.14787263470341028,-0.05265409582961848
10.192028487811426,-19.035179852828076,6.74280187509606,-3.850221694322504,4.163515884741871,-1.901286145287945,-1.4988341371624023,-9.421832133246417,3.0876808513528307,-21.688646298534625,7.7133542656518665,-0.8643660746477337,-7.369048466679284,-1.0699121300446242,2.5646104173357602,-1.0683017994783657,0.5930364027528588,-2.0542344359201197,-18.89945103885201,26.7375558173148,-7.911982132549644,19.106117841089315,-17.528404634594867,9.933664281554599,3.902660645605831,1.8119726306406003,3.1896446204176168,6.490293854277869,-1.414446744347886,1.6131216519423477,0.3404180823675956,-1.9228420642934847,1.1124727625476607,1.0077576001889155,0.9408393369448792,-0.17473320586891292,-0.2135191842785457,-0.043847260703535465,0.29606967065303746,0.007391979950892992,0.09698531246883679,0.009699747765753854
9.54621706125329,-19.761268294460162,7.214914564112412,-4.701739568955751,4.435775469198644,-2.2308620068333784,-1.9048081550871692,-16.199273329033513,6.962811375271086,-22.79634552279141,8.098042067757461,-4.168172573114447,-8.246001634826396,-0.06685354245679011,2.133647489536791,-0.8243656800949176,0.34623132785791316,-1.9957728798026513,-26.252245843432856,14.411413283529068,-5.668547452157623,26.256099075773548,-27.385137819158242,3.381467481904096,4.100402245842242,-1.886586431722586,0.9718035122337552,10.174675909981792,-4.789082054559464,1.6809248577741183,-0.5671253464808875,-1.4163590295954578,1.5170013614603792,2.3085272859486774,0.8838407190094049,0.27541512176588206,-0.28486388781955435,-0.13906194308675113,0.30350695678248,0.2523707361925927,-0.010763941688319312,0.04458634024777515
9.476785171601758,-17.302612740985754,6.216255202087334,-1.0609987125644456,2.249880351247201,-1.720300973772545,9.079243126951004,-14.85701961193032,3.936240202311652,-2.346224784687002,-3.2893150531604847,-3.2559054210527494,-10.653554609415027,2.8746730236126976,1.4891769282025435,-1.378471451740278,-0.03584841485788985,-2.0100446659640228,20.577095920986356,3.929430097718851,-12.142768462959715,14.759832877618761,-15.901079546359185,3.971907054203742,9.109321813688535,-3.9518407644070295,-2.9712647346011716,6.075805967954949,-0.018047832451539732,2.9543557040749824,-0.16169203901217716,-0.512336279087322,0.05611658110807905,1.9757968548175184,0.5942461085934999,0.87751528532861,0.007539014590815714,-0.08013450074001116,-0.11672499093222441,0.2957582054975618,0.00812697535461954,0.1713471724615917
6.232348226040208,-13.229966860217619,5.063970749466164,-5.4844899762624015,0.5946113968563895,-2.123009438136737,1.285801972494139,-9.341249981984271,0.8151176420045951,-23.618004769687477,5.155779051986833,-2.134063739126736,-13.02166005212885,6.2641876008963555,0.58415076317182,-1.6350565893529412,-0.11238016558416503,-1.8210047218565348,-15.523694131832348,31.355167239405375,-8.692157724192217,31.68330100887986,-15.355652093868791,5.925527094213704,7.7362171387484775,0.06445716693805072,1.9352941149820042,6.532367522165142,-1.5008679609622846,0.6939159157400946,2.38622566394527,-3.829847205528911,-0.004412982084743407,1.4344961689399793,1.4213573585594184,-0.5028758403706919,0.669520580280102,-0.7362307224404705,-0.14994254683783845,0.13105954766986755,0.2107179493007872,-0.046632383554182366
0.6916049696348728,-6.227256595374781,4.037622814498579,-6.141988236404878,-1.7836177221421694,-2.7531264776802766,-13.903905911943685,2.2049381917617037,3.7398918738406257,-27.897929314878894,-0.7045065787565875,-5.847734028855076,-16.12096690489933,10.898746759682469,-0.7245410145548511,-1.6922294040047707,-0.5335016091794823,-2.1985542527013213,-40.85187552089175,35.92160270020502,-7.669779869226735,25.791919957346444,-31.566903647510916,12.652494291547846,9.413070868777673,-0.12390548148906014,5.636084877858823,16.56851687834174,-7.708521701089412,0.7475555484920666,1.719360790859695,-5.700181370579484,2.552221873141038,2.5392968541574437,2.4118403964649047,-1.631044574066138,0.1783309941617118,-0.7328702682478911,0.47351919159554723,0.2863593933935921,0.20006713040292615,-0.1119842321539905
-1.4621759316351108,0.1137078222674073,2.488464820654089,-3.987605753492998,-0.8855221836503744,-1.960200891648703,-4.748740224020268,9.91630157671971,2.1041951360901354,-9.7056769417472,-6.149757730334694,-3.441096790758303,-20.295518262089637,17.652390147350154,-2.2719895238173398,-1.95329105884155,-0.4255591254161699,-1.967929910305354,-0.7996095556676173,31.672191800051415,-11.612910908145022,13.539340417758144,-21.097118622294225,12.816774778947448,7.6917491536394085,-2.661786090599801,-0.7336598597371231,9.49493717675306,-0.6815261571814348,3.8527480610758005,-0.7009697097374097,-0.9517939645042643,1.164004593761895,2.3991755829800137,0.9726240020421782,0.3457515380910755,-0.4878833883117542,0.22739293694228757,0.2559861307804686,0.2946623294538154,0.05671710029528522,-0.03396938088178875
-3.359797781331182,4.116769807032514,1.5138373744838776,-3.9277971048130205,-2.8028216273915203,-2.3040994231049052,-0.581762208470517,5.680402293128251,1.3232435420396784,-12.868403643957366,-6.41228781313554,-3.4915698804488287,-24.711420375415916,24.950583385783144,-3.9937727530467098,-2.145971018627631,-0.7012371080956687,-2.260338223578613,-2.7393479589598315,30.05511246941647,-13.156962073240253,23.818427958199187,-13.484360833105406,8.89130822555798,6.927220420063409,-1.0039224500174555,-1.241121438532918,7.274601618121229,-0.5332012643112607,4.30650627174615,-0.6254485021186484,-0.37677972884431477,0.08154043208003986,1.0634225655446117,0.5034584901474245,0.8763942118510533,-0.004200594078449263,-0.0346217275787952,-0.2780216763915961,-0.014922432135450102,-0.049566403077650784,0.21738860772818655
-7.920265146792444,13.403131458204381,-0.8413298003114527,-0.9114034697186234,-3.21796557655276,-2.881891887916967,-6.698216428001729,10.747277149138108,0.5206437227463294,-13.498770382124697,-2.7300666734148975,-6.1678718485753805,-28.973569875899297,32.236760428287674,-5.960894671847365,-2.155916515159998,-0.8407700204262112,-2.683642434369893,-11.596451217420492,33.923521900392174,-13.530689092647851,29.01458794149751,-65.10853511639277,33.62307540025782,8.103082233885473,2.766671728114529,10.55946919144619,10.010941517845692,-1.925107840023253,5.578494049734191,2.9595967304492636,-8.98038005508365,2.8941820447353663,1.3927679900340375,0.14855999478138876,0.982806221841167,0.5002133150278613,-1.4419813386141074,0.45657792806436004,0.09636573206655444,-0.13812552757183164,0.13958052511751176
-11.027466065276137,23.910343107771453,-3.8332304571176845,1.2613633839736507,-0.7042852246781242,-2.62092434278276,-6.561478001908384,29.0914654946281,-5.507164134595063,-13.456134951248252,0.144676395963231,-5.16385068980667,-32.99677801015009,39.86897920670953,-7.801431913851934,-2.3975916774571817,-0.4693443197663813,-2.7378100703962716,-8.106911849074724,52.40961397992204,-19.36550562423417,56.5905111218163,-52.33561649223812,18.059730931948348,2.8318784673049273,1.6345177695680846,3.560521967741091,6.788934783107725,-1.7047841469461584,0.36974766302506284,3.458399769322672,-4.274801838409348,-0.7132404367927093,2.8486170709055227,1.6164793074494073,0.3630710639103884,0.3835835742792915,-0.4666898880100151,0.06751223349354894,0.3615287491213827,0.13645905293661786,0.0027432472013075478
-14.240153455783052,26.194878539204353,-3.9419271179872886,0.9505560675251925,-3.2227844078371928,-3.059228953621554,-24.323664505856858,30.284945556364562,-5.915128443356032,-25.516378665372304,-11.453561061573465,-8.818708104152938,-36.07106866340238,45.93685405360093,-9.412822909870222,-2.2644096559800713,-0.3675821870219876,-3.3964474688042294,-48.71062453526069,35.27992714101721,-26.45463289831281,54.79549121373129,-23.115394137268318,12.79744265648994,3.9641165284551927,0.9431137011324884,-1.9995498871991169,12.438721474712304,-4.277886036635301,2.5544958645048177,1.2296664754275082,0.291607288520334,-1.7604772374006694,3.0486340993312653,1.8733330870612979,0.9741988930036946,0.05004376134487141,0.3050315181955273,-0.24715728892391833,0.48437990012866583,0.07148256333938967,0.4120128310247579
-15.0004789767503,31.449403857741256,-5.467721989143873,7.6400678496362575,1.055893960947317,-2.6797130201106807,-18.440068376409958,30.09612051625512,-5.269153662832111,-22.01728218660053,6.108131220187353,-1.4790469669772643,-38.32015775997927,50.349574355712384,-10.716709768150166,-2.04687957650184,0.3484291631554058,-3.545704417895981,-41.10007008408014,45.71278236485421,-10.981935663231708,11.596930722518733,-36.3118654844729,29.170366950723295,5.082867609002454,4.018803535030214,4.94492833591618,11.793551294299945,-3.4264595871686168,2.557444580646703,-0.09170141397997711,-2.3396681805912265,1.548502713342098,1.7031323279003707,1.5578840409231267,-0.6411670465781218,-0.10512823900733373,-0.19014364124194233,0.15582777921379362,0.2958402501914711,0.2181664383838097,-0.06634655316202535
-14.180257831979418,34.76074615485695,-6.3653054978649255,15.984526614250397,3.1038922819364054,-2.944244922673952,-8.190627337409067,28.35387183447924,-2.8166261561926587,-20.63819017388493,12.504290560872796,-2.0852966268804427,-39.578114539038694,52.936007480038846,-11.47796283563133,-1.6511875498955777,0.8070856119457538,-4.106575645706275,-26.60605518031195,43.625125951212176,-6.148489402468472,37.678998293879445,-38.8212825275626,28.389453082090423,5.877858047717309,1.2764028097339215,1.863383154830218,7.828907836830343,0.15174452552212803,5.880100675954692,1.2860789634314183,-2.517857906710503,0.1340873602326072,1.1007489076757475,0.6222071412112232,0.9454010392704877,0.09866477295499075,-0.1938628665682327,-0.03530019648644186,0.09365307574715438,0.07643241166233104,0.10930493201846306
-13.397430550573931,35.75671492697088,-7.167393253747277,18.31812374620063,3.9811978056180277,-3.290753993508343,-10.494534500050062,35.21099659111759,-7.032397797306212,-23.916037443685155,8.37872886258181,-5.716140109635814,-39.8916587681104,52.95136591047879,-11.621842348170684,-1.5538374638180836,1.017381142128049,-4.57348633201559,-35.44501986561744,46.21001906403167,-19.232250737670736,74.22934289776593,-36.631305439609825,5.801647434805542,8.00176358924772,-1.2044955777005903,-1.0420054340100195,5.269476630289269,-0.6412689207121769,3.2371802112083143,2.317833217541478,-2.619036194211548,-0.7802530533738934,1.7240466877568936,0.6543358564165691,1.7605412270318719,0.22230654010532738,-0.20950664995793916,-0.11559918993349079,0.034794737371999146,-0.07230380430034537,0.1462485312491022
-12.898714669942308,33.97142469517659,-6.961110843906274,19.643275244964087,11.855253616363688,-3.2878414713157307,-11.259949965197238,30.926702834633954,-6.858621604893682,-27.554910700300493,25.494426191054906,-0.8519249373017276,-38.589775812053034,50.241322745577264,-11.060795412700287,-1.30859743926699,1.519151234702891,-4.50468175170855,-45.16918133074234,50.91897082089853,-13.45941157363706,71.11755485120854,-32.214166385355696,1.1586489987414623,4.61328020558934,0.2911526914556868,2.647132300117461,6.102920030427351,-3.382845886162035,-4.922849134907221,1.5169629313686142,-3.1601047449903272,0.8966197877390295,2.383329414037186,2.7439254634120545,-0.8652962782423895,0.17472478853708506,-0.5735825246829143,0.2502990922432494,0.22420571280189494,0.32997155821711516,-0.21615333096108139
-13.372778906814602,30.699444672141805,-6.114704256957907,27.952400162541984,14.590081679382562,-3.5132719420895833,-7.644904347762487,26.019375130947115,-3.618394056051753,-23.27970055666095,30.677697494076703,0.06913337980506346,-35.31185283150956,45.22771907888164,-10.010105285421428,-0.9846218455714583,1.9346512077046418,-5.195107300830995,-36.08120730321046,40.77595253087053,-4.288498988038224,52.82372115337328,-52.67423290118473,30.502205099262085,2.0121134118250463,2.9552964296294806,4.829321699760721,8.223526373269454,-2.516824485459168,-0.4581920727061661,0.9654605823718958,-2.522820005597361,1.1209262253549006,1.8100891266781967,1.9707993938186565,-0.5307644347545255,0.07898241395769624,-0.3940802740920877,0.250149589022348,0.35542501439742746,0.20639353994509455,0.08205614472794857
-10.81649405268846,25.98904210819143,-5.503778043614737,34.25451156955839,13.264916539271592,-4.177504001346584,-7.830847716735289,25.034411698920707,-3.290317129379801,-19.493696404471507,21.35691550094759,-7.489717191937279,-30.632689292905116,37.82841557390091,-8.51686859586605,-1.2332170720040017,2.238885589936572,-6.0540053052030025,-35.349485984249874,21.826956145310547,-13.085760825141895,76.27595253677536,-34.266629691467784,10.197929905141978,6.041531875398175,2.81272250563018,0.8811271093692623,10.77326647377393,-0.9026864696383365,7.579796839159875,0.907364671485829,-1.0451451064770199,-0.21844391039303132,2.9849417434332,1.3754422124410621,3.243877704454895,-0.017159538215362518,0.08914598771047533,-0.07021157515772067,0.30671468794059603,-0.028800127961898913,0.3682937698648924
-9.359525605848242,22.973753726182544,-5.49283711178421,33.16471859922892,20.13435817391847,-4.679251858830046,-6.39112257830279,31.828871822844945,-4.812322509240612,-20.622155086799477,37.90368337595295,-3.223997889706111,-25.105809831112637,29.62381697513873,-6.5165067348551124,-2.125105807997564,2.84991881226392,-6.153180051377587,-37.20149225123963,51.065524722885044,-10.729264172877633,75.21733768130012,-9.929037543047912,-5.073320245647554,7.908706595696204,1.4792627483313603,0.8404727498114934,5.742899306127486,-4.460400270381775,-4.026891197336751,2.4767164162243662,-2.4757973486711213,-0.2754480008879105,1.1049775389757632,2.0618816878168564,0.08871737925774775,0.31595661419059995,-0.10703419278993542,-0.13902098577189706,-0.19249396516402384,0.2368460528968851,-0.2020503766766759
-8.677727767632879,17.999976559702134,-4.795029042920047,35.596685129624476,23.379032906538274,-5.352532089486898,5.9029415413945125,22.751201480872407,-3.197682275378076,-20.662848897075186,42.4982398418129,-0.9648620797930954,-19.069040879240738,21.651706236170572,-4.648070722812084,-3.0797184005889253,3.16856959118337,-7.1093843542087285,-25.473945636965553,33.66424783849854,-2.613626014896256,47.18566826025061,-24.272913854130586,18.943910693128515,0.8959987774369573,2.3972244000605167,2.951943413453211,1.6595830941045242,-1.0801105015329682,-1.5431181931555153,2.3425580826444614,-2.404170105775247,-1.034048872703891,0.37711481049324674,0.6690659453080489,-0.4602895567510222,0.2809121571676229,-0.39426483461424366,-0.2214614316351156,0.02339978632857394,0.16075197488950838,-0.2159437539625273
-10.852253669767332,16.51802458948052,-5.042651302640018,36.67760938364439,26.298659692376475,-7.29993845503861,-4.704727784624729,11.872196573723526,-2.8965336765867358,-30.636691904634915,45.39979454407236,-5.327963710632963,-13.395290612314437,14.70844465639183,-3.3456669103859222,-4.314752766171812,3.199283008694002,-8.796791272566065,-56.19872908295835,3.489220915703342,-7.428702202371748,59.00758534504656,-15.403364247239395,30.2114242821213,2.2416980433618274,1.4471724307074483,4.540972092791812,5.934867849531625,-1.126349572800301,2.876309349031486,2.859579894802625,-4.458698182424518,-0.13169988984641168,-0.2675362829087183,0.25460881638715754,-1.6755369461979384,0.2781590028523425,-0.8909504518596667,-0.056505595739445344,0.011032668200497652,0.06095675457392523,-0.18682866554802915
-17.46412381518764,18.89287065949557,-6.188900024037599,34.07668548026257,28.30517109442771,-8.330020569930682,-15.913183860642942,18.951499812735918,-4.599243179360301,-37.43590813963233,44.83781359505025,-6.898722165020691,-8.798358810883155,9.054061955170761,-2.2590251040709908,-6.0090926681911725,4.252649796730574,-9.520124492516087,-74.05146573319291,6.933505294801972,-9.514371586600108,53.98105236370925,25.169455160677003,-3.702477212391821,5.4852371677721825,5.888662727198068,8.018057640192808,8.696761958427604,-10.172198131892053,-17.786737279355492,4.120015571270585,-4.0281650074892585,0.9462577097589032,-0.14532613223196328,3.0290585312422786,-6.208914197164112,0.5353887314304625,-0.22156961648888898,0.04682266313588935,-0.2771300862352149,0.2672197018380641,-0.668377936085247
-18.243253607347032,21.370772368974638,-8.708203859330196,36.20546949212785,27.308709604649103,-9.7393917201882,-19.353839456048384,38.466982039967114,-11.4044948042463,-28.834565647276285,40.15881804648744,-7.7452860225130005,-5.243573749796707,5.562788364469305,-1.3856691356522097,-7.612278297525239,4.549280851278292,-11.166646299641874,-63.933538684729115,25.500761704529477,-26.427878325496174,61.26451269038315,29.457072517907537,-25.28995892572647,4.708562570667183,3.405864720741112,0.5824865769248334,7.173923941877539,-6.202500660397298,-15.001464826731176,1.5848903059348642,-0.15883698665065604,-0.44512337790961287,1.2539662012696142,3.946782729349378,-4.606260402497303,0.0045605398421780935,0.254930522991638,0.0647378204614612,-0.12061758654769451,0.5257635188475861,-0.8204299778206003
-7.679474417914786,5.272319378151543,-1.2422841708491317,37.92628393228647,28.59987857740459,-12.80996674384783,9.131336674277142,-9.444388031905646,9.942249840016887,-37.62925698698257,48.1764642217149,-15.774432034738751,0.2508237359314176,-0.7263445390282297,0.2834933883611272,-8.510543433943857,3.8359656992937894,-13.210479688718252,-47.12808922722013,-23.488701793989996,-7.68512662862372,161.6725237465475,-19.947785107978746,31.787620597665793,0.5041885372785002,3.320001828541026,5.0304353814713,1.3196582389262148,-1.3062589501571997,-1.9771946471191133,3.8964821903948508,-2.756014174303875,-0.9109964817172624,1.3731931255627592,1.5759200712954424,2.76561962134556,0.2894512584199873,-0.6859702675157886,0.16640805894893057,0.19919221945460877,0.3488370797705852,0.08286294333225101
-4.405601043069184,-0.09547190178576913,1.5220135042579699,35.901984445265526,33.04437164087077,-14.239207603878896,32.48934875073425,-34.775979154104945,16.007703680478695,-61.407060580803936,72.37941940667115,-9.758234804046804,0.38265461958078656,-1.1156937437334797,0.5569620282309098,-9.73766448330386,4.647027891489103,-13.938496981811966,-43.47827016519467,-33.01054575115581,17.206502797503866,101.7014112008444,1.970679007270797,10.616148027267489,2.178342779864634,4.941087965616349,5.671292539404366,-5.414129683062394,-2.2410432784700607,-6.925880772251858,4.898280571932114,-2.6526069306689695,-1.4707699105365402,-0.6801259870908745,-1.3208282219339198,1.6820930751055365,0.5419757544812296,-0.26184477658514016,-0.23848285697050867,0.08891372548582305,-0.03181158484507442,0.2241284478058865
-1.72798811460243,3.2436833069220086,-2.973069489280745,32.52767919010447,35.15040749178577,-14.780872151682642,54.56733258419524,-19.90949526517079,19.83320030744508,-67.94094307181105,82.77424713829342,-3.8104735294829495,0.3829690816794944,-0.5102204051441976,0.2308005566026677,-9.859302365338763,5.494724376785705,-14.2243347667183,-14.800742643603636,-4.041733627852997,35.205759827349254,-0.5759682566057491,55.46795859662662,-20.452141266409875,1.109703202686147,1.8106273647890119,0.4309731797982343,-2.0766794350759814,-5.442748525490566,-15.399253207608552,1.7179881048492867,-0.09642648861101683,-1.4681693847005777,-1.4359286260726587,-1.7421775491089058,-6.133821989149342,0.039228336588470206,0.2341987879529629,-0.28748309359632945,-0.442004420377737,-0.29545597422357517,-0.7784719143688136
-7.801336059806069,1.723987604012322,1.9608270936539052,31.542114568003363,28.629096838645385,-14.464977101834535,33.082080357998684,-23.749101389043652,23.657463723882124,-72.84986425222712,52.21172115286493,-11.413842297449055,-0.39235088878596686,-0.8263857169191563,0.39923084007295756,-8.537280227354328,5.63174254637406,-14.558388658026827,-53.55594026151839,-43.235147270817826,30.048238015775514,54.57440817487102,67.60395047517547,-20.17414598360618,-0.04216419639620092,0.9446016123436464,4.835783498785793,-0.29696560631810853,-9.186713588030244,-28.3842549690113,3.6180260805653606,-2.543024576283393,-0.5978586936272443,-0.19706509116840054,-0.4593660186997162,-8.564561032911719,0.655521700412007,-0.4842838003348275,-0.19297061965226045,-0.3544454668079564,0.18031595699175285,-1.6554049154423771
-8.399622733598234,0.9473036725647193,3.2505015865887024,29.111724502237674,29.595198563091987,-14.627424200212468,6.492970847575545,-9.220608000014384,12.919731577301807,-69.39275623856994,54.41808053299108,-12.08117231252664,-0.6182766713891507,-0.762765225957619,0.5898336811534454,-7.416938574317332,5.4168050629831015,-13.991825641667528,-81.55388845285414,-11.662444113982197,-1.1438809625664126,93.59536961665447,58.434883391834994,-36.36402367111701,9.941974979826401,7.340096800610237,2.5864480842417716,-8.416514764423844,0.16654089604279126,-16.014290462334166,6.078385911590878,-3.6401726634524825,-1.3746016054887995,-1.6523315276568824,-1.2007600596028858,-2.3035323597563035,0.8902618530019099,-0.5954896236591926,-0.37012069086737875,0.03623304814333801,0.32080182675617747,-0.9495304351845973
-8.943958499125898,-1.971767202300396,8.227034410319046,33.18179908726485,32.71754652475855,-14.261257061082981,30.685936943464085,-35.87248274569404,17.864184609298285,-76.29144000277726,88.13679005975392,-3.6304019824207723,-0.39551577584113734,-1.062876089905931,1.0728398934134826,-7.194414150954672,6.089776468900698,-12.82135829829209,-46.502879219979896,3.020820314851942,17.827827078340807,61.90932188369891,7.219059024549221,-38.850703665579616,10.979149388633388,12.485331629548337,3.172227406951602,-11.338655783700434,-1.4798853369420848,-16.704033258682625,5.262942519823435,-2.8549975666724836,-0.35042476394764427,-4.471932532433097,-3.984070390701363,-2.385070741013039,0.3156975252757271,-0.363645828693625,0.14713250791610719,-0.560108324224972,-0.5672547473127466,-0.30207698110458187
-15.953035901024423,-0.3753982644837365,10.555703734630896,36.32116713161698,25.694706790769622,-11.984353063649072,39.00672418562253,-69.19055793522496,12.101610425555164,-74.24207784272967,63.573212826775105,-7.116363758111932,-0.6345675658915939,-1.407413455178927,1.2654602772529946,-6.145899624245677,6.73705359830187,-11.655424599470585,-38.7326271758155,-105.13175501169736,15.61703435296463,78.21307307010305,44.15404395406306,-12.00012524903976,5.37983413315851,4.502512892899543,-3.640417265814566,-1.8622801698873905,-5.083243898232902,-19.125944581000947,2.0881854891434903,0.9334688391746674,-1.8414525599784137,0.2639417677083934,-1.4990349456263932,-3.44841196715589,-0.022708669880995708,0.3417150249674665,-0.10138459399371093,0.25811340271105687,-0.09720362919146763,-0.6544594405429706
-8.792031981615297,-5.555631054829259,17.993145022989708,36.13495091549693,23.583498275967546,-9.684221189370792,33.793991528795736,-64.84398338538645,17.55645864903997,-59.04368045201968,40.20771668882289,-12.034590971980972,0.6089808037921853,-2.1853286523375637,2.2992383330076867,-6.253087916046239,6.8204537028787495,-9.533267233517503,-23.323948044281043,-127.01485570847733,6.959101121944139,16.883456638948495,99.84920333135041,-25.34924502870479,6.70219195682257,1.929336371290992,-5.919995926293885,-4.43817690845108,-2.806962345499496,-18.522129151208325,2.6660413247022516,0.5359790809268344,-1.5307631381905589,-0.9167362560745684,-1.2365119200042258,-2.7547665411148823,0.27484090408866446,0.15377960723463607,-0.06402085233092915,0.5044144470864058,0.112382848527029,-0.266164123146498
-8.555882680640261,-3.1678599082468657,13.759193479055687,36.581798908128135,28.397511980376674,-7.709545212367108,77.2295998970988,-40.9400742891219,52.30489922672278,-83.87981615021202,60.348959403675536,-3.1119084599040137,0.9593281332181973,-1.5043190783234848,2.613267310293052,-7.835249891731019,6.656391902329956,-6.9172964661684135,-3.8809848323487053,-41.951039981038846,77.70550097256604,35.820934512254716,93.19780092140509,-57.14808075054901,9.719207911542023,5.30492553806213,-13.813417614053902,-2.815991668590482,-9.297928167653689,-22.36764521468892,0.4959056672416761,1.4966115218374518,-1.741382659594225,-0.8786635506343641,-1.0117493837988392,-2.583430333997739,0.0017590213658951193,0.21610834900562698,-0.09981444751875403,0.1848449199318215,0.05577157070631661,-0.10635319608737537
-10.495304813420425,3.5748322607355654,-7.422284329157237,45.11757519307049,22.04576639160655,-3.777963217750424,85.62138612912737,-0.611155397956046,64.62274038931689,-74.05347812525486,40.80090650651411,-2.765298083568335,0.35685343717947016,-0.6456281620475267,0.802235423332648,-8.482100516625975,6.153928359272611,-4.625163869004803,7.765315758652496,-13.57221629528833,91.87411936779489,38.83815791083634,26.585602353521026,-46.46892221019459,6.870194943289277,5.745774663642,-12.091914368733685,-1.1272770854599061,-4.873454583778641,-8.936689592033593,-0.024163690082827843,1.2150976540913698,-2.1068113081959803,-0.2214645395682075,1.3883035292380104,1.6595181806332298,0.0644510218235827,0.11967883832388324,-0.3611375280591077,0.1190898101775973,0.2185042460812591,0.26145120524281434
3.953761377894392,2.3455911142624672,-8.911518814224062,46.861719698126194,25.237990178354053,-0.42058894555367443,60.73884493559255,-1.3266128958163543,28.638024404315946,-41.43816171532157,36.97695910742852,-0.13862080811008948,1.3591420328221022,-0.3824909882146427,0.05514028685188833,-10.219435054093207,5.688091848735763,-1.1803971062077614,30.049887727806436,-27.6739951160375,39.303256443969666,30.15498265391974,38.3451168875203,-58.01254809185674,5.2901083726674605,5.750674190325014,-6.6937582407080445,-5.3883199268994995,-4.1992528373759725,-15.284739777519032,1.178831770282175,0.2521021022896421,-1.267867526564181,-1.577161385524804,1.4309362358190207,1.0427199620176877,0.12226907891433478,0.0788172837174908,-0.23070252927070456,-0.04704641480436672,0.22669350542959973,0.4848635222700078
11.852974683595448,-2.425829931397147,13.956922439385021,50.145908818842656,23.09811873901831,3.4336950842652945,51.40935818012499,-36.49207917138797,-17.768908443935537,-30.257626894406695,19.28437211368769,0.278862174477775,2.922348978381802,0.4215341630138263,2.028632023306946,-12.615358510516034,4.494715920018495,1.4175655911373144,29.796721217892255,-100.47142897093627,-31.887957898539348,57.05996354066336,34.15901548348644,-60.03916188331397,5.697171477434468,3.926936514923733,-12.05746369115339,-2.620216924187592,-10.939929986729672,-15.80948816918109,-0.5406701544083372,0.3835318530481038,0.10092036155536539,0.8054583444349473,0.0647349695177014,1.6306535654268866,-0.18936069562091906,0.042572961330836566,0.1486724365878822,0.29250664132784704,0.06232480065623887,0.7203018943101864
10.367546947657546,3.270625369755779,-2.45623993539707,58.31165174480317,23.574765332880148,6.747946138015481,21.94697944789706,-6.245385733273814,-1.844448794195685,-24.204258172333823,19.98635054993244,1.281380297609618,3.151114257273757,0.888094580491683,1.9145728591569988,-14.58660731579667,3.4645787592444104,3.9425976875449753,-18.552286165911223,-33.081499759694815,-33.53589665701525,18.9938012560394,13.666247177560058,-36.35535183914658,4.484870751703501,3.851739207888594,-15.790918877731345,-0.5775386757674429,-2.1266841469853524,-0.11335777926840718,-0.9707050981849951,1.9678781914079142,-1.94272486636508,0.355322100327134,2.842823115139782,4.309867443882228,-0.21688234203946508,0.2030314013215309,-0.07540994573893749,-0.03566815824710902,0.5606758229272932,0.992041287946511
6.2974886416081945,5.25464002595467,-5.357879364490785,63.0462714223004,31.740980297099846,9.578692974072728,40.72174272634374,9.239774330404174,61.12250206902177,7.569028944953892,37.4768243302543,10.909258529112337,1.9493655848850089,0.05735394168246846,1.7437999650314422,-15.99029567170352,2.9757339212192653,7.057651219728694,50.315903393719466,22.338646808307146,61.586793015229766,-46.28749924415469,15.857221261198744,-16.592017520764934,1.41081554594354,2.7295873375045634,-14.774995084659679,4.508971011307675,-2.52763466441165,15.71341242095355,-2.1337867323571778,3.163909515624268,-2.4051459554001395,1.5563646517682945,2.503174025334311,5.928437147016925,-0.27126780101976855,0.7052723524908329,-0.4091413743273823,-0.07032953902812429,0.6561107473345651,1.009654027673822
17.55972035730919,3.7552485044204853,11.553834994468884,60.1852827027624,27.984872010045944,13.583706660583548,60.398032084660905,-1.7220921001284715,66.00142062219889,-14.306898182957223,5.960670783673388,11.21854312017398,2.3603238015260906,0.3379153392996524,2.565864055644516,-18.058449810458878,2.9687388828754244,9.318308873903597,44.78132331287495,-44.537247445892,82.47794612329679,-24.04921196067431,33.49355353527939,-26.129552055064313,2.553328674152665,3.7596505518051093,-18.24707744735137,2.9506990543560625,-10.469083435018538,6.720776398316892,-2.214196024877864,1.312068945930597,-0.20196815823982178,2.630320901725622,-1.6225945209065231,3.548403090640079,-0.34987168014583686,0.3334585389512564,-0.09002235807968348,0.43838219001919343,-0.21850919648346057,0.49376705100874807
14.34373605839997,16.09873820183847,-0.5908411270236124,64.60146590926247,25.828182350266047,17.24557893739776,37.055067210673165,1.3889188154687553,20.170530484678572,4.643534134519399,-11.32003513066273,8.314129365977271,2.2834936751252695,1.92962592603863,2.2538512847023537,-20.20021413191314,3.218502022644046,11.490854123343171,35.870341169687784,-56.703439920319894,11.73375790208511,3.6539223602194326,27.2229311037722,-30.425700491972663,2.0333150416208885,3.3617974499624808,-16.96455449516899,1.4194350704472165,-6.7996378293714,2.3630649805955315,-1.268097449271745,1.2965974478417417,-0.7898704273882673,2.753276479215043,0.10970332236540221,3.1146005060281694,-0.22346285160089502,0.0687561596857476,0.07490740111773064,0.6974259424273878,-0.01021812909392717,0.5066415332734965
-2.925448105248977,2.2930307685217013,-5.715469572632149,71.30949703062979,25.055313548274306,19.626513738358774,1.6558697353348752,-6.998636496217501,-17.274388373840477,45.25890366275095,-10.004360601015163,8.47447384251266,0.6131984073921427,-0.6921255432048659,0.6094875258165238,-21.161869354498545,2.0996694063218606,12.819330272897052,43.07557499373816,-36.2202174652934,-41.473529691554816,28.595025421668367,5.1246289938394955,-11.14671444586883,-0.13626272696427805,1.3725116682984242,-10.672691391559871,2.80706087068577,-7.069509457457625,11.122119745155521,-1.0508604189887836,2.014875401317636,-1.6423577238253995,2.6508763575716263,0.7932336214864232,4.920305029479847,-0.11695352495182132,0.19633231591418343,-0.07046849783916997,0.37874586751609673,0.433702583568646,0.6734082007923814
-5.064686397829305,2.5310195059806184,-6.786203777486575,71.71579985924721,28.76517380055483,19.67093239316651,-25.424305848044355,10.74047966293685,-11.278879469866652,58.71327345477503,12.975011677419749,14.167866647351882,0.35821464828562544,-0.7428428973935813,-0.9616353387496513,-21.2129247478405,0.9122057000773,13.854979353557104,16.416338680119626,24.66956351932371,-6.411641517445616,-23.64608570509625,-17.426733935948967,5.403457009416786,-0.15872798967170634,0.32683822226358306,-6.349189793493428,2.0201916169299072,-9.039532329735687,11.000129603051363,-0.18372409094984607,1.6340117660630273,-0.8753373774770057,1.5816096941951188,-1.1104419126623934,4.36600651957464,0.29287967580387736,0.3411260720291992,-0.24399534756129623,0.12195530198985305,0.013820767120279118,0.739059744000364
12.434274768230752,-16.879581040233887,9.339117123752875,72.39063924885836,23.444951702737015,20.75368947154959,31.157381670967137,-16.1661672349938,11.859992073169776,64.65024755289802,0.7840577533739327,14.257192117069371,1.8312074834021497,-1.9340914606484327,1.2652855627199007,-20.404023304421308,-0.7121839140500358,13.989711032750172,81.97231582149251,-43.309102871264095,9.336184573998882,-25.105124894586854,-27.42710493247272,11.887312370292333,-0.8897560404753054,-0.02810119666798985,-5.799152161030368,0.9658210167810451,-9.210352374644392,9.06423556640102,-0.9610183373703373,0.6978872145846083,0.2140945993697406,0.9441408003191534,-1.6742161643393705,2.747307474049115,-0.07366316824050068,0.15186202932366108,-0.01585059317778337,0.14421324022138793,-0.014091784442500008,0.5289056189075275
0.42667525053544586,-19.720966864493608,-20.35788647492393,70.89882448248599,21.935674208305365,19.323814869357093,80.55825521422618,-62.19435295513562,35.26547200477666,56.815004357459095,14.259238263977434,15.397145213594547,1.2139868294326301,-2.4774626887057427,-1.9819784183678857,-18.876772024231858,-2.4173560589217167,13.440185542510692,130.79723194039093,-81.77484915735792,35.187518161747334,-20.96261495429311,-14.796311961882134,9.757389552185648,0.5966311677728756,3.2548016262611474,-8.312495647207127,0.5145527005522723,-10.652630043820018,9.482071762158833,-1.1221487407368942,0.01657650781946684,0.5740684833725399,0.9083866047573402,-2.545073467943451,2.416652972897109,-0.3351641399194244,-0.18601312393545513,0.2937892218690425,0.13770294005871533,-0.30958106195527196,0.3856354975458807
-25.197538785698637,4.204904453070361,-41.46503742891084,73.65534333870744,16.42469341578825,19.224092832541327,21.405955517019066,-38.79653034421768,31.206775123461135,74.20011280952487,18.535970434396276,18.900191406913166,2.637310149443625,-2.2966214539104346,-4.710662991367853,-17.405638256103906,-3.4321981824855192,12.36056832437243,71.78665225868262,-22.879353391335997,20.278074887117203,-19.21246880781012,-16.151183480396313,-6.22213743279028,2.3699615006629333,4.012316923492276,-5.107367881647355,0.3529013353473555,-10.725126831412043,9.326949006322184,0.413146422528991,0.5005580403893009,-0.7459198801419392,1.711176812009605,-2.648099272612568,4.02506273167997,-0.009422552430942064,0.0885279087168751,-0.0027888082475404346,0.20853972045664063,-0.5249709392087843,0.6682135494433172
-75.8365203664375,33.559437594234154,-79.2767947312548,80.33004185099396,7.171667492374901,21.648209392634307,-72.90057544123846,46.89140203068408,-96.76260183332326,101.90046241117363,-6.011181000961912,24.182815576484693,-2.0970432922553313,2.675054943705409,-8.38457309881094,-16.98576190527421,-3.488581747000734,11.493402508320653,-12.63409388921739,52.94673551787524,-157.49994894612445,-52.76666831792371,68.59014348446266,21.284748871725277,4.290243197997432,4.072539547359076,-1.4953908434882806,6.226946483022892,-6.880292549833333,21.08865298415782,1.2819204733989298,-0.8190428286409583,-0.798497797668179,2.8794223453503736,-1.4150599121209022,5.068108380894804,0.12841029995305256,-0.19361438583506613,-0.08304868684780801,0.2779794696554107,-0.08407791436060996,0.3788934465711292
-154.56518681076673,76.47921431237918,-138.9422486147291,84.09499196948947,6.18296454914056,20.606790418415162,-294.4686029076574,196.91005765169328,-342.53274097987145,113.42760100044028,12.531705550364732,25.041080525351887,-19.456127363637087,16.244611531125905,-11.109011950390233,-17.399813656664566,-3.957594716472361,10.498351561315177,-198.3929970400534,230.43105965048613,-346.3974207823085,-20.179041335717947,2.1989610215378175,37.320773322068966,5.374329649010321,0.9650561553369094,8.103244528767945,-1.036786004594377,-11.530705326929052,10.159377902282907,2.6550499832152044,-2.9754137274657637,-0.8329393603361027,0.6689058073068018,-2.592470572946277,3.090269100504556,0.2866890444491845,-0.6380116576138319,-0.11861712308427744,0.14114392638618733,-0.07366940541991047,0.40163694283937634
-118.70407063268337,57.08589357489631,-97.94755055268028,85.47019205874032,5.033918479098391,20.32261707452937,-266.4963374986216,152.19436818936526,-260.3629239409082,84.44011657828055,11.228167432271812,20.005949605990306,-17.915977726124673,9.148440137972411,-8.038692093494936,-19.012083574719327,-4.44364009197029,10.017994457409248,-199.07512900297777,183.31769184564445,-223.8365424084135,26.087618020470494,-28.258960304336632,4.150185625474405,2.7923794525756804,0.5573722160748021,7.662112099623782,-2.735529662721861,-3.2115160151932813,-6.361966338948841,1.14502046103319,-1.5211223357880106,-0.4222942605004577,0.18688017179049873,-0.5342671142834525,0.8586743636204076,-0.006419461537232923,-0.18078434143953637,-0.036839698002780204,0.1628267036275978,-0.09692896323034438,0.4087760321248872
-52.22839799354166,24.967357410104217,-24.487184049025647,86.95656632836972,9.711297948466301,20.788562235206633,-96.01124399141067,67.4601348033221,-79.89047333342009,86.87978907450699,0.6699593306844118,16.892887263052717,-7.22389206007019,1.6659014387948199,-3.006951171056533,-23.151381841208753,-4.345966444077052,10.487081939646858,-21.94548110564052,56.99050260027359,-88.95101390805381,-24.44549452997,13.549571387973877,30.04917486710348,2.8231547562194637,2.887843542242436,2.319773403316494,6.446378237917465,-3.0404657061498814,19.66428026942019,0.02649340480022279,-0.5091709485120027,0.6136852394950073,3.1707378377497877,-1.1236408479556985,5.884592968541367,-0.13216531697998876,0.15250834254433857,0.14596694158709214,0.2528344827390694,-0.19841826969315468,0.7238084213765794
-29.588016485973707,16.319336057647416,14.169293619970013,90.34224839324877,10.514580690531607,22.600718006101516,-11.976838845954239,-14.818999212579346,68.50265122347072,100.50028625737792,-23.400564777465377,14.964790508187091,-0.09368862944321274,-0.18709303849006417,0.9345102767335051,-28.478214970565347,-4.092086003991315,10.475084935801318,87.1357683462427,-82.92783803453692,61.04828752481771,9.165103540653952,-6.5966750776388166,49.688937780046025,8.507101834540988,4.044190749614949,8.171424284593996,-0.3072745483860427,-11.203068932361317,21.864609959119505,2.9918308300079848,-2.6618941810294268,-0.9586612134332761,0.962336091744051,-3.2513310743596815,4.7671598187981665,0.4856528041097669,-0.37209612967012856,-0.15538150237231357,-0.11234125943051161,-0.4225467644513752,0.6403702878302298
-30.844737417120896,16.177459094528107,-8.063338664105661,95.10704614473205,11.482118606325336,23.278275318601647,-5.5501972956127785,-13.536720297026866,33.67362075911153,88.27517433577127,-27.18189125524456,14.563956190991224,-1.7846456731109555,1.1144544896487263,-0.22184939922609448,-32.69825533810897,-3.859883644003155,9.973625929875373,53.69153527353272,-62.4033772709464,14.48367816586369,60.624996621014695,26.533480547037925,36.9790310319586,6.08874164799065,1.9746392816518905,10.776307406342541,-1.327375113575964,-9.284877276704906,8.392316543098717,2.413364631207319,-2.54515072433839,-1.6481775185425596,0.19374610431292522,-2.8636452463254174,2.304462573559154,0.16869176078809958,-0.29610162347809155,-0.23101594047065852,0.13811767382625925,-0.36527510790940726,0.487338578830688
-12.139671865160024,-0.39212546184131464,-27.892384875624007,91.31462514584993,19.729668743818234,19.86892778994289,-31.546262699950994,51.287712516306584,-103.16080336500289,70.57675649125723,-10.302022203322837,9.621781006317708,-0.20463288969472332,0.5656220515469197,-1.9144918144566647,-35.94997835577776,-3.5828122426491564,9.752178351216843,11.918432149833935,17.28646241900555,-136.92427584175806,27.438160577872562,-17.4142119912946,17.340526623249197,6.632252880954513,2.972912580777903,8.119288097522606,1.654371643621105,-5.049271088361589,5.415082488507086,0.8254817979765815,-3.0536225861934057,0.30520399799888925,1.783282767464862,-1.4674666620644239,2.9899358409212273,-0.23363723609500778,-0.24927031536443348,0.12045240253777342,0.35584286336051574,-0.15460016639626353,0.44048834038535484
-7.545390582819922,-0.2556964676193429,-12.33806247016363,86.30978625723158,18.509808855433565,18.756482651080574,-15.76299780835885,22.792814652653437,-34.285981443846794,55.24021777431902,-2.958017466447534,12.815751057664631,-0.4728330123470759,0.194077505530383,-1.5119584720963686,-39.934727806851136,-3.4756140077761555,8.953063828989105,20.45249458304534,-12.064589239330827,-36.9456014611788,37.0258596259253,-47.30005621937566,35.351795419305404,6.830220332092731,1.6304842019753387,12.030764819481945,-1.2911908683515416,-8.278206073851264,11.568079634237982,2.07799788543423,-3.8533638853866905,-1.009228263406436,1.0480584257532222,-2.5157726067900863,2.984666000848208,0.1371921927132922,-0.42964810101467943,-0.2524506813618176,0.1352507417734633,-0.2721743833010184,0.30987333278028134
-16.169996365368373,-1.8764227020672621,-19.349383268432007,81.4804303124899,17.891960490703074,17.23479116372669,-12.889591329357193,-5.557236268575112,-9.834840980737038,60.40803923230568,7.508479627095127,19.687065101357174,-0.9341422239207827,-0.2902454012803513,-2.814021610770375,-43.03465119105628,-4.308512413176254,7.565493130634943,28.832858117131526,-13.160142913704057,-1.7938588286828097,7.213074157320029,-4.083811663163772,42.29920246013695,6.92896696295497,1.682847025995846,6.987166465600609,2.9097528588613346,-7.208943111360009,18.345263304502478,1.7586747180270192,-4.237094632192717,0.22763493759574985,2.292923115803158,-1.6837284091246816,4.402623067451054,0.2605561141740217,-0.7770071529456548,-0.03532809983235235,0.27176376889994996,-0.05465412428985891,0.45896470574548476
-2.554624255651149,0.7839420414602482,-2.4064057666700274,77.07114041280961,21.817336109325346,12.564130561966673,24.462485196177965,-5.560209613771056,-13.853974002906606,56.63871048001394,35.95446504731457,14.504369128994046,1.055895241558671,0.06237062373682377,-0.08344049888026107,-43.97841580390088,-5.5700609845659805,5.621549959588516,75.50424650467012,8.48135093672021,-7.886581907814358,31.7649394177381,-5.185375076062861,22.33872166119891,6.514780667734537,4.902235604636704,5.00343067785467,0.4165786969558952,-3.8940684868122903,6.920848348713158,0.23886384825032822,-2.3000638189918106,1.385606595180876,1.8106407638755495,-0.7274397131625153,3.105822553873567,-0.1673856686924587,-0.22275115492767786,0.36290513770494204,0.4003384507967712,-0.06777198118067476,0.6455567893790267
-3.595640971083724,2.4903970772408557,-1.948581743183147,68.0511510752726,15.467669234234805,11.412443508041301,34.60841964650003,-11.338272136648351,-1.4717010844635467,41.65750086326162,24.68537221467369,8.203915567012858,0.27091386266673356,0.037572103041134085,0.06001423383666174,-45.50365226623659,-6.378628634193333,3.8276081617857565,73.68978766487817,-10.367767238662026,6.931333688677763,92.68546291854146,-25.714760287385182,17.314803574560607,6.545682505108246,4.153040456151853,8.467766391785648,-7.68107778341871,-8.401524002047484,-0.5161904200988683,1.9874746012680018,-2.66315438640114,-0.7748263443929739,-0.99677692961813,-2.079883389884975,1.388077384144969,0.19664472592152646,-0.1361366687095243,-0.1255040559005732,-0.128874619874171,-0.25949080374511746,0.47347155911749705
-10.665391147519186,-5.6112459137046535,-8.362431631085311,61.06569413112849,16.92085050269511,11.868807470226988,12.607633842001166,-4.418592000176116,-7.3483434118234525,45.07513352420118,9.133339455709988,13.027832614940843,-0.5465040451771459,-0.9089765095263505,-0.6159343955769103,-48.41818600213173,-5.895234342058571,3.4792888274205507,44.587264040462905,-23.838659694902095,-8.60560790348547,16.375705718511583,-3.9320928233355694,34.495358471125456,8.07700063031026,3.8524643273283874,5.903980274862022,1.719031663618448,-7.465431303391636,11.941184289676974,2.4534215406278777,-4.038717584632721,-0.5432463488320977,1.5065589688224998,-1.8738213802116597,3.1795329848164253,0.23335729146509543,-0.5118934923170757,-0.043015389810326876,0.14984711276162,-0.0921517534909813,0.31398510941932756
-19.685300828032545,-3.8421945000636235,-10.691298522418046,56.09621964911493,19.60692649109186,10.671673191634525,-20.459168714624543,3.1835680643674094,-34.160925329674946,56.0603035452796,14.471195531691102,9.469267800710568,-0.3567932287383665,-0.7056182327308443,-0.05377939749491642,-50.32586731996951,-5.259337923002917,3.0184449915325544,26.909655933993232,-5.992007696927854,-57.362561846304864,-7.65014842368858,2.8881009647194897,5.308073967092977,10.380557716725784,6.335457867736229,-0.9582157852703463,6.5052613361050335,-3.0717458750625437,10.572655697164096,1.8766516488985914,-3.522817349167531,-0.09731346756229568,3.1719032404490686,-1.393401091256253,3.4088987072227996,0.18160008958208324,-0.4615589800705113,-0.010919124196584425,0.5281061738382994,-0.31646113559024497,0.41804429818978855
-7.857132883728843,-0.4447955724811904,-3.472171748865024,45.9223685478082,20.01317412109104,9.009941321501802,-6.068631102090804,-2.0580539927149815,-31.67340941349636,32.499933771518336,12.87068902716304,4.857834075612257,0.24898063804939533,-0.0578807218917332,0.4902412510966471,-51.22664027589514,-4.626074949088052,2.358569062496324,15.684248361202489,-9.518321009019665,-60.17420635982671,18.37954421051252,2.6008048674525304,7.245275065916161,6.9595392197451895,5.109047121556945,-0.9945427106144751,0.419107305871386,-6.050234295794126,6.449113805916613,0.6757155539979792,-2.3316589642564973,0.47398902125006476,1.3772259227791175,-1.9602032560035278,2.3547047300560275,-0.13097758987621305,-0.1666900258462951,0.12150248480462669,0.22969470279415322,-0.3456092243446586,0.38680935373566594
-7.336990155947344,5.994292267185964,-4.758933669504088,38.602353701193245,22.71405220665428,8.083446307572064,11.083742936089596,-2.4125748220797543,11.806331360895712,11.258821600812823,15.074372274186727,6.043314188429564,-0.12325149604539089,0.13716468121017827,-0.12380274153363569,-52.671952409553285,-3.3397758227470633,2.197418339947601,14.228632245019803,-23.3521208244438,6.088303213650465,-0.03640107742555043,11.107762741563358,9.44497758626455,4.092827678153444,2.016650134045978,1.0396381970372692,-8.311739132773269,-13.245887284193344,3.3165816399729557,1.1931333071648458,-2.370617795667649,-0.06414318540533114,-0.6029399012262484,-3.3574588037973303,0.8533074077573485,-0.0017309624805170384,-0.38546440290722234,0.09153060350308923,-0.06425263985164481,-0.32271509599246423,0.1417566621444275
-11.827046700144862,-3.937915694977213,-2.3266445613963636,39.89157409562612,25.836887325671572,7.4858154538263,46.95976275638963,-24.622078798449888,24.095188730532783,22.35650093793126,21.967028647614548,7.074346996194052,0.22963430163531173,-1.2792318255522812,-0.12895585047518301,-54.63895018956695,-2.5498990779769066,1.640981983827941,70.58042085063953,-69.5543228428172,18.503024561140297,0.5163547956846455,-17.157754834442752,6.232350312547311,5.362753983919718,3.9613814801706964,-1.841127777625163,-2.8062156888331464,-7.306196615224665,3.4191523779409905,1.2558754256288271,-1.867850854528207,-0.4153516832984323,0.5932370149764196,-1.546934192796882,1.0736598954157563,0.17912541975684257,-0.30917247570947887,-0.11865326316778671,0.06323966684745555,-0.0806960614464928,0.08438452311508578
1.444475878532611,-5.919736146507664,3.322818724346521,39.477908621810975,32.44618910818668,5.941787832478102,31.71672540441523,-19.39482860432293,22.1004052683709,41.67706948774668,40.56272262806396,9.878829789502216,1.3809412888524872,-1.658524273198936,0.5361784388257735,-56.81305927738583,-1.9358291429310275,1.2332368383974543,80.93014806357127,-22.199877051136617,11.768320212579738,28.838211650655428,-11.866420753187406,11.165123460083919,6.432737717817086,6.396343690959927,-1.3936969659078295,3.6435608397032313,-4.056665578665735,8.33418638283018,0.9210756638666929,-2.0046269020229928,0.29565644274950115,2.615191511461741,-0.5866478998550826,3.1904476906282753,0.11937029162246461,-0.06826058809980456,-0.16597855771570608,0.28553367442924993,0.03809965515207246,0.41282698040267046
-1.8999434522112035,-0.13821600029457623,-0.546351294065908,35.13156459736919,34.34767665083848,4.440517252133074,40.46534064708159,-15.923287686594717,21.088449042424468,9.485628848463445,44.33959129493797,5.858217558590844,1.7929101497834055,-0.9629560783456779,0.5495684021977487,-58.874116210859476,-1.3578320349983148,0.6933471558970222,44.532441982759345,-27.921082660150283,15.274062305023204,-6.153912261749078,25.484687599309293,7.7141239378629844,5.652378597500465,5.312460937568799,-1.236232940635873,-0.32832986826270205,-5.640554596169146,4.407062057508001,1.081544214104389,-1.9020661716899558,0.4097787579811997,1.24207149290547,-1.044481569629782,1.5516358109286248,-0.03931637711689326,-0.17012347540648137,0.17493542226273368,0.17784972314844794,-0.10484231092304923,0.2560228057072544
-14.420442326190777,7.7200081369796205,-8.406880079753714,36.55894826764311,35.185959257003496,3.8632677998410534,-1.9542267953251973,4.486806949952104,-12.075586859012274,9.55938744332777,48.040052761578295,5.6492712199814985,0.20545327364332983,0.5066735509745227,0.07987639203240417,-59.539935565056275,-1.0188058225372054,0.0320874509664904,-9.323174870882301,-5.708533080079674,-33.161936686254045,-8.579637003880434,21.438415553800873,-1.0740578928355489,6.719152569692672,5.638155645608033,-8.016076952127658,-1.5920768481794636,-9.071742706958618,2.827422970375903,0.7890027295783864,-0.8494968817964639,0.13906082595803898,1.0445585116012297,-3.0580314641970396,0.8121989026563163,-0.03819929035166359,-0.05564782947056329,0.1874548941101194,0.22391756071868754,-0.5131129649989753,0.14428534587778996
-9.460027331848732,1.8619823077335358,-2.8681729107562517,35.13835455150537,38.665678984133145,2.607740235118393,-1.868602562992663,0.5128372212630768,1.756471158784483,9.205195322007222,56.263925329901575,6.200804555572044,0.39529968204917576,-0.7592320607429126,0.8718192073487457,-60.771516275379646,-0.8427411383905247,-0.384945718817449,-3.733332971085687,6.165015003654858,-8.399841293903973,36.23528903233373,4.690905963677681,-8.667317884616327,6.352113655364886,4.89317351969259,-5.3501985993302394,-3.1024066233900864,-7.606187285942623,-0.03062395477941918,1.8297321432751306,-1.605060841531629,-0.8527946876794867,0.7430320161002625,-2.12081256341065,0.3479648168949426,0.34858806460443503,-0.2153724539089775,-0.2669233556143322,0.15784448134580092,-0.2838829474238862,0.07717310077434883
-13.79717082140348,-7.4362154011981625,5.288206499982404,34.66313433116042,38.45406480893635,2.1207224349990197,34.298332785200714,-46.553989849353734,10.217132136329115,-8.88301503291387,55.40422663717391,3.7875218761198908,0.4743563664804815,-1.8834869790208615,0.537922271560895,-63.19047943861058,-0.5940427307218418,-0.8169737840231296,15.060004594628722,-64.79114496412181,12.473880466770419,52.89652036066464,-25.24574041478098,-8.856329266409778,2.67327967661617,2.5611888907720624,1.4874020297750752,-4.49552561671902,-6.996342934391936,-1.8431197142053986,1.6154258631386136,-1.3350649142143138,-0.7676398623853611,0.9170202247881862,-1.6983490938699364,0.06092728254212137,0.18339411531567493,-0.19728201411134777,-0.07312892167389384,0.16575638101455265,-0.22466644478812692,-0.046702837859066065
-11.14480953660509,2.15824612496753,-4.462151745521002,40.528695542675614,43.80122588070386,1.2766713400710337,39.873950807202846,-23.145895932089314,7.549365058876567,1.5624147822578158,64.55842389008788,3.9359860726439737,0.41305641530021714,-0.703053783036408,-0.13817553325436846,-65.1793413871597,0.09911376241309783,-1.1904948545635325,32.413906655361416,-41.156165948107706,3.5709988721627473,9.69608871403774,24.445503271495188,-18.39629513425737,4.255178030824954,4.51304012639221,-4.489936473526106,-2.9069220280833075,-8.255491320875578,0.11859897928981676,0.9837611303140776,-0.44891899457732115,-0.7934593609469771,1.2070823127104269,-1.8366270828970732,0.14217580088902998,0.040722266191666565,-0.00823569090090967,-0.02992153866600702,0.09725434635059892,-0.1449418853786648,-0.07096034651917438
-4.722292455933808,5.381779240421723,-6.701465223307227,36.3505500578181,47.52680615319665,-0.2790336538185557,37.782148613363496,-1.9301597672839321,10.10300961273409,-7.810899584017884,76.33623915491962,4.596677376397369,0.8212218983131422,0.08913641143921205,0.2716360489573602,-66.76663716603038,0.6524067401212802,-1.294279505021024,22.049730287766423,10.972217344362116,13.49651635283603,-12.175876444088185,21.018174044418803,-10.476506956845494,4.701723844464904,4.7973331687971354,-6.251221054136112,-3.3228144540189204,-5.010480772389706,-2.127310128675897,0.5563653851058061,-0.5953066663867159,0.057883612969847925,0.38057595665462207,-0.8927434065913149,-0.19100847608261912,0.08902355286239115,-0.06295898512160499,-0.007278865454343918,0.0445617440002526,0.021587720013866864,0.026579065213339872
-5.25358907067208,-1.0823529810953374,1.6653671094476943,38.03864775201152,41.603311925179746,0.29642399244107537,24.68398087670569,-28.026662861667333,8.533412200173746,-19.10319883409703,58.73144041699732,0.44989676861598016,1.166529938961061,-0.07587160173884962,1.1017476670238389,-67.9300393033485,0.903965775727485,-2.196594851574041,-17.869172691293286,-35.80531477150991,5.351292357187805,16.778368071649496,7.461915469523724,-19.375264758952156,3.904183569466701,2.7525833746638737,-4.981422595736637,-3.8747883639838796,-6.664739099332906,-2.7893564140822655,1.0699924240147693,-0.7995343814579595,-0.6533670898444031,0.843131195539649,-1.9807870258062408,-0.3052414962921054,0.12558755345347758,-0.15583844323534882,-0.05452023849317662,0.19969764482270758,-0.4031422656343652,0.01006562551168334
4.33234647677072,1.3924388812729562,0.5440052555605254,43.28710270350641,40.083703586332604,0.36595047886352455,44.953321385765165,-15.072276501558695,13.799821028821988,-19.3327228981653,38.462149972803026,-4.090901810162507,1.717560839981353,0.8114491106704836,1.4889184401019997,-68.93931685146008,0.6310324515170217,-3.2277387762792307,2.6938276136173673,-56.657153666226186,7.415124755517191,25.47645670495981,14.424799634710471,-26.259329478609658,3.0026239905512453,3.6630493743209933,-2.063892377001399,-3.946451128071725,-7.076269230930558,-2.053664235291193,1.3710631516532088,0.032438603299063944,-1.9036959246196712,1.6641197833230053,-1.7509202588666242,0.5732356509539016,0.03492719715874535,0.24033376308228127,-0.22536103174078445,0.278224328863571,-0.28103946726048845,0.23677821898358004
6.313857367726522,2.804737254801101,-1.0178982203898856,36.16804524235721,48.250068613737895,-2.2588868352817113,65.8023116245594,-16.819209795850384,22.45480984615834,-41.20223117830857,71.9824093573007,2.170172665417656,1.4717942995658642,0.8013611910772367,1.0007894858020578,-71.2849164930714,0.5730317372916053,-2.5538950682282766,8.883292556248744,-15.110740216797717,44.381768488319885,9.715982271685853,6.104658842292572,-24.92833677518184,3.8910813419975,3.9371314764736454,-6.949091459107791,-6.6306870009993455,-3.6129669134183877,-5.595771432660659,0.21465624842302783,-0.3496342998666191,-0.12672332425020844,0.356282481389071,-0.6996423988739586,-0.35908003681571954,-0.0012769671363904163,-0.0019050937802747095,-0.05977234202062412,0.018894607628523272,-0.032660891336035294,0.004713894574911046
6.606620973964476,3.380002004175778,-2.713574568396158,35.594833017415894,40.15312782092079,-2.1831070183666053,76.4821777627045,-33.01276952059052,21.29408798318992,-32.869798330479895,76.86421908426857,4.968092794482451,1.3974399860152613,0.3213531309519226,0.594267213975538,-72.58000356597465,0.15428596773913034,-3.224873953856876,34.40748635394501,-23.783176005607945,54.81096045268173,53.67017399494965,18.37798915076776,-17.689559309881304,3.016474941066536,4.898206525764608,-1.4349519534292774,-8.046509585764317,-4.206604241243996,-7.716237589362311,0.09317348513020599,-1.2183811263425353,1.0610363761890116,-1.138316016498831,-0.9268223390821276,-2.6823260469752905,-0.05369417033201092,-0.23596848298981885,0.20472699518447016,-0.19109187060957206,-0.17599069609256615,-0.5905970274915954
3.8370627723317297,-1.459035766110815,1.342826567989824,36.762062487104096,31.227820760262084,-2.1605676351771654,41.0102921611162,-21.327681699850242,14.711682670474074,-23.640292990976203,65.11124927209168,2.1463299609185365,1.0141211471100622,-0.4935087842281552,0.36961435608151355,-73.38202240730574,0.02691332128244382,-4.524732539046876,3.591608976605862,-19.818137318243057,20.366810314379702,39.07183839358005,17.753802138082044,-22.656537255635595,1.6760238985477425,1.7489206148136998,-0.5954972368337947,-6.988744178633023,-4.351395234030706,-7.6797630868154725,1.1940947466942247,0.08884945264478554,-1.127971015179715,-1.0441312559350924,-1.3418666056345006,-3.2411777406503934,0.22357929010774225,0.09938405637772006,-0.14201687098077032,-0.1266011388132586,-0.2811252146309423,-0.6562047887111103
0.19334117321075617,-0.25476807607159857,-0.4915210813936529,34.9771530592185,27.83273286311491,-2.1237395590865757,-7.766099639400453,25.160851427267314,-2.9527692696739662,-46.02618027402624,65.48466875216144,0.5191073702257787,1.4055067801258607,-1.5040041482924364,0.000912423135230659,-72.67508606637905,1.1059640408149556,-4.43840655757553,-90.22742826234872,36.39892915170976,-13.49237928921418,-0.47711318620136856,0.8069508471036899,-26.689802466398575,3.7712139016174158,3.4186676099046,-5.667701071700476,-8.27210251494283,-6.670725388223043,-8.271116314968094,1.3545922510113142,-0.06247448367644798,-2.2662180726587637,-0.0681540927496585,-1.5885401179342626,-2.740821527533534,0.19397975774046197,0.06024401261447187,-0.37394457916956636,-0.0293681874411443,-0.24680210858360344,-0.4147845518962939
1.7024147677657266,-4.387136736508097,1.1934321909837167,33.183986559297644,21.55871550683782,-0.6942600014059656,14.946023024232744,-8.107849044361796,1.086920804866994,-31.16207865144268,41.3207248442216,-0.24438692008331211,0.7500915735912188,-1.8164901239625537,-0.3286491199297871,-70.30552589945293,1.8145822031268415,-4.310794807202756,-37.435230440591866,-27.180897634179033,0.612456104788359,57.75564320338058,-24.05941627627705,-36.622791809810224,1.8627798893781307,4.103492928020601,-1.1133827393400957,-15.82378895800987,-2.546355129774678,-12.310810289480793,0.09651149010651558,-0.2632565836935501,-0.6385834998627532,-2.1008485107898798,-0.3858887949327181,-2.5699370366286893,-0.2199203813302604,0.14427029664643146,-0.08471719956379352,-0.40730527833770946,-0.06064838792372461,-0.4887361973828916
3.9280633150356974,-4.870633708633462,4.8650634098557335,26.440167669064806,16.588150132227575,-0.8759035183347075,54.245732264681635,-37.546622146326875,20.66496529635501,-52.495286934604515,36.42217197448997,2.116692849744282,-4.0831532641909565,2.942808381846052,-0.23072098879057037,-68.12716482904113,1.7071412199954406,-5.05479112154575,-4.843362757538372,-62.89444854066422,39.92426622783633,115.35930501095281,-25.775245907364496,-30.4480873995174,0.6279853427742879,3.237378828707359,2.4385944865747398,-11.547634138472226,-1.7256245534969,-9.140289350207048,0.5223721121967421,-0.09602276512531323,-0.2778210447723078,-1.3545211027541413,-0.3524271805425128,-2.1105489846881045,0.03699513505953464,0.007446316342767706,0.06789704142105321,-0.2637720571288556,-0.046139870857347866,-0.40268289964236476
4.512712720905493,8.110691730143259,0.8342300269519428,22.84694889481215,16.277275705148526,-1.8393930797810099,35.245878219109,-1.420252415832671,9.099176611532405,-71.40869466890304,52.309590115404106,3.740970030526826,-9.178193595453305,9.666121382783228,-0.13075633098454215,-64.81499465654943,1.9632946936379652,-5.111646534519534,-54.78322019057625,-3.1876255918146357,24.610717584352415,65.35774735033905,11.345332693551569,-23.957374729861744,3.48102432113894,3.5395294645923414,-6.519268701828838,-4.267041258118706,-1.1263576290227175,-2.1247053307917576,0.05667932629746873,0.247434845039894,-0.3496357642507814,-1.3999981592128674,0.10626372883910075,-0.5256578793482901,-0.060605514713000665,-0.013238885020928227,0.09859034716814952,-0.324827518309519,0.02742549282037176,-0.08206269078509365
0.034811811913858445,15.03097420231623,-0.13441001842926809,12.634210058056798,18.34008597899913,-3.357474939634534,12.289322416344078,-6.220364607574211,10.731088481510682,-79.99445490351592,63.41593448208176,-0.07120313593025794,-15.738361377564734,16.402946604554945,-1.5196503553823468,-61.78828995129929,1.4952563219627935,-4.693732062495789,-89.72746997901459,7.963789258537775,23.953964743965916,28.48763651659522,-0.48385679726153724,-22.40416972267539,2.565861123803402,2.7684403352125972,-3.9141727779388455,-5.818146099471498,-2.628147826718614,-4.437284928062054,-0.29571128041546163,0.038711705098833864,0.2436754871002832,-0.9732455328489171,-0.24263817942957686,-1.9913317372876942,-0.1278962316565275,0.20174966561526536,-0.058375656650146775,-0.3360831945580591,0.008720570442259278,-0.5263734231351205
-1.266798934423698,24.58295800733788,-2.5824991189640882,8.524301717962887,19.039114522245807,-3.474935577560927,16.33952659717022,2.04142701232681,9.809228972125124,-72.8278776915423,67.56984377079215,4.6849749638833815,-22.851735123298727,24.213515830382143,-3.401007406189804,-58.85684094840488,1.0058588622587707,-4.835883592174875,-77.38641083777395,29.676699242740604,24.642615011350518,64.38765356506664,-46.985280644306386,0.3459414836842229,-0.7673728830461047,1.8540937445663233,7.767206330424958,-6.2328137672379516,-5.470434136697765,-4.911957869847054,1.410178313161854,-1.1972802971916683,-1.0089944969060414,0.26497461985817944,-0.4707318030806992,-2.2956786747749947,0.20565681406651729,-0.06582865978927023,-0.19869428825586533,-0.19782456676822324,0.09138756344098656,-0.4470871248348725
-3.1666058186531068,36.06517667729735,-6.256380292553021,6.4990025961053215,15.261843068714505,-2.073004332649583,14.356113970546108,22.024116052390283,0.5523149280878252,-45.81484356929196,39.74416297801946,0.17173013590995104,-29.751950277697162,31.93315761981509,-5.305725637394804,-55.72093326621108,1.46686751629145,-4.650595930355546,-43.00294879238906,19.509415996876125,-9.558567400985805,102.54747672197875,-47.654221173845016,-5.1870886111925145,4.028467770911755,4.454885417220075,6.038798672076754,-6.380641562078995,-3.541659361766926,-2.6444050675967303,3.549087279444104,-3.436612683929657,-1.3177490440484583,-0.8623923770068094,-0.015248523955693838,-0.6762933149474398,0.5703847284051046,-0.707533350102508,0.10518006716088499,-0.23133225477670505,0.081332601976177,0.07284405765842819
-11.264319445019632,47.88537056447788,-10.290885562870594,-6.427875452226889,15.843153826175666,-1.96310130922989,12.411241642090202,45.097432147450505,-6.144249121548839,-61.08727865369652,33.15508756274181,-0.4966193647872371,-36.15632727530246,38.676775010956014,-7.3100330844232175,-52.34875387942279,1.911535107441099,-4.04731293074235,-49.85471459154196,51.1615675201235,-7.913123296658481,44.42458216371239,-74.66611913813641,16.217860391579894,4.377586573658954,4.617130371860324,2.490646385299495,-0.8781355051636135,-0.6037403876890992,1.7509480824009995,2.0737170644315994,-2.6513651133985485,-0.553778423995472,0.2252032361114377,0.19501525404181094,1.9243427644870827,0.22665681622060027,-0.4119842259644837,0.08288086855236285,-0.0976724433632652,0.049903016622015725,0.46946288965546423
-18.262902564323515,50.218016716554295,-10.466724507298308,-12.234089990920577,20.250367882639043,-3.0705647840194787,8.686470594247673,50.02782378543385,-2.9960558756283246,-71.55025853768923,46.03190109670156,0.10041080685098058,-40.53319640110618,42.92918117771376,-9.016365218215949,-48.843424435712265,1.704935342283246,-4.0755010672412775,-61.55298453259632,79.07977397152368,4.282439941936368,37.439398974832464,-76.50111999025943,6.0990113858433626,2.3838511728665766,1.9417774118970481,-4.425678481383576,-0.6367475699513702,-4.103878370677157,-1.5066847808774906,-0.1937749190611271,0.3030226488348152,-1.6680634744464682,2.412109788993746,-1.1821740318967222,-0.9168356111993508,-0.2141808377070706,0.4018797414955642,-0.5066909901670028,0.17493519581592587,-0.21104267032447782,-0.44221326602147226
-17.98748954323167,52.936844469085074,-11.841566627045736,-15.625869148951823,18.70164660696741,-3.35891150772581,3.6510616393439324,68.03486488328711,-12.761268115011465,-72.73256079497179,36.252131999365844,-4.925834544918165,-43.01729120417287,44.62980892185503,-9.887025871582718,-45.228197936642545,1.8651594572274341,-4.301002035369891,-71.31421867692526,91.46523529256915,-20.093659009854452,69.51849393608217,-117.50084538269287,15.136327961506886,4.978308082127697,5.114464189617868,1.5076766681135068,-0.9150893164366842,-3.3009264907786853,-1.207220878030203,2.0779535173868466,-2.587286346915772,-1.2877092334494902,2.2795072895702653,-1.0790436118339546,-0.3885653755272297,0.2975679651880557,-0.23201443082609433,-0.30296998217223703,0.13326995330629787,-0.13755597193085406,-0.1322421602821498
-17.738539971702554,53.076319096926966,-12.440785844178064,-16.68678819724214,19.685139434755946,-2.712940734921543,-4.002668810369537,77.71667530648922,-17.683618263269295,-62.47230095096995,32.649500368859115,-3.572274983397044,-45.01435015298343,44.25476790485499,-10.519738201569826,-41.194787916169226,2.33669475571515,-3.6951140632732735,-69.1834040389585,96.49704784428042,-30.279873624573302,67.09303138225745,-98.32829931098624,36.88359713857417,4.116236348004072,6.440746262662386,9.043509259034805,3.29705168941351,-1.169643779636726,2.5169318642804495,3.593396174400737,-4.834522272251067,-0.46720663761749703,3.659624221283565,-0.4754088871829097,2.4710827007138585,0.5350628110261363,-0.7307063293306587,0.14436875349054548,0.3729952504715782,-0.025472169211796847,0.5403088606159285
-17.939126379485582,50.62630140327864,-11.402543311428875,-19.817516350299517,22.411615233987607,-3.1808337426354605,-9.317466655879361,70.35872633774665,-13.335010606100926,-63.13640413993127,37.444762523515315,-4.4535907192999895,-45.95929945059716,43.49036038742672,-10.731943220111685,-36.56211516597543,2.1741992516847253,-3.365564776420597,-73.5918331059553,95.87515450239646,-24.907977090349867,83.91608111849956,-53.49774819599384,10.85416691366932,4.731764596198614,4.270831261189717,3.367866596924195,0.46457234609923503,-8.025713111373943,-0.8709039179047665,2.4875205852234643,-3.434165656794121,-0.4992559267825186,4.856533993484101,-2.145586895819523,-0.5891052483222187,0.3779789711352823,-0.44142218234647645,-0.02409409016335933,0.7166578397143504,-0.40477763956775203,-0.1514670447088348
-17.463388492142368,45.681061049667086,-10.453989104905418,-20.730452571816375,24.802525446761223,-3.1699583624801035,-6.102159272337912,55.54092836709534,-12.063557074291657,-55.26983513891557,41.66399726885182,-1.2906172798781708,-45.3850398182592,41.56604035101551,-10.73124825748325,-31.840033051489574,2.3386964049502796,-3.1180183408053037,-57.37009248533627,91.81797099797691,-20.974615764835754,80.8716300923534,-79.14013089745319,8.96302894640244,6.6705196452514715,6.895849852533399,4.228103901568488,-0.5262574045605207,-2.383890372573611,0.2256266002780296,1.8026386279009012,-4.08824992808825,0.8198499993571245,4.61388896936819,-0.9770833245305274,1.5103550204243112,0.21244354005362703,-0.5297954960748796,0.08179157671454254,0.7006194181764795,-0.1329219721045258,0.4147444835535869
-16.15253476252459,42.196157538068896,-9.607580161756335,-18.04544776186029,22.65311186252093,-2.600999330925391,-6.663896461418458,59.355715831243145,-15.010780323316316,-53.7065277210884,34.317084703896086,-0.5753860134894854,-43.5682431618896,38.97145130289177,-10.085155949775388,-26.666407261164675,2.7881095232959736,-3.0295652802411244,-57.63739298338101,91.80423404135338,-26.140968606994893,35.987835347788064,-95.9027712858341,16.613950965650037,7.94359663245141,5.598283897190309,0.9696634689983706,4.113689371931953,-2.5826071193593054,0.9501688700866969,1.1583804679849388,-3.154523621163628,1.144149130004546,5.683118345531239,-1.4843135004825645,1.1864067063849832,0.034976171878291565,-0.32811928603673396,0.20618076496662302,0.7667275500741568,-0.3164320308730616,0.09976723208650955
-13.844649269216879,36.795131808482004,-7.19132158791313,-17.621385836027663,25.189378688080975,-2.9129643330423254,-2.701842473265217,50.8926092878042,-8.734362936704837,-68.28961807322368,52.0175641873178,1.5759745222141994,-40.56231885085145,35.941966857697864,-8.957046286046717,-21.695663037944794,3.034003655046194,-2.8444864003346373,-72.54644806528141,102.51366435598466,-8.190696800155546,44.10567250628922,-86.20405776551588,28.992620496647884,6.4263628203557985,4.258919566187143,0.557086454943866,7.113650624121282,-9.202265596132039,1.2667957250417792,2.0213781228637213,-3.0464038068392614,-0.7996961422942531,5.479845500489486,-2.3109331317853736,-0.6062742934481781,0.21174721560769805,-0.22134691943835985,-0.1744599161626241,0.6277779168544025,-0.3390912574235816,-0.11733620764560704
-12.048154409612927,34.05817313959621,-6.429153195269204,-15.340964281796113,25.943425669982012,-3.555166374510346,-6.494652975958319,38.975414040632074,-5.642373230591985,-61.46151627976461,52.01939266154155,-3.4497415516134113,-36.65558370278713,32.35840452252594,-7.89781681607071,-16.698128324084664,2.8889412526208664,-2.990515710091776,-78.61467411873859,84.80675613138402,-9.679883271935882,66.91342800900735,-71.99512134866644,19.19206411080188,3.0442101261744794,4.969585098278286,5.283474818932125,4.2906908928909,-4.855633848158129,1.9186498200941287,2.4161926202690993,-3.9874737504973723,-0.45617507056127976,4.127325277558808,-0.9594815853401258,0.9421817433328729,0.36496881956538363,-0.5632171265299748,-0.0767399469896394,0.5502691707351957,-0.08755927224513194,0.3329943700647194
-12.692171614893457,33.05227802387474,-6.759934440055765,-9.46352492771869,22.364350953529517,-2.7816720349412156,-14.147232201725878,32.89939157136789,-7.681370507798553,-37.527698646313254,27.101887514416486,-3.3337220944614723,-32.70390125276209,28.993893898336953,-6.761226095746376,-11.777806488887403,2.4530999191356324,-3.301371804847789,-59.13247710298871,43.082705476935175,-24.38115621726451,73.74960465240729,-61.16721455698795,-0.8504263939690357,3.482739502508947,4.76808693186358,4.984230061125622,3.70717079436588,-6.727183579331766,0.6280734895963399,2.080948821980304,-3.698481959500263,0.5224747204865522,4.4309349177801245,-1.6172664970941266,-0.3392473333244201,0.24146612563415362,-0.5205589363183206,0.24886873748390045,0.7056447302127555,-0.2934956389690181,-0.025036044247634774
-6.0706237727593475,26.720815227934082,-5.077893132642244,-6.000480703635054,21.81495476908518,-2.3435227297049246,8.253473451469707,22.13335224307724,-4.825462024518215,-40.976177149531985,26.682405161625216,-0.5422787418066471,-28.06967024777143,24.453151027880534,-5.483699861162144,-6.863406820609739,2.663630719609704,-3.2002672868264086,-31.798444452523338,34.07259047539572,-13.136045907640355,35.71632174025743,-59.135954676353265,15.250393660260059,8.598888784037014,2.445979972220822,-1.652456722661647,7.554624188646235,-9.744702331836715,1.215320033292282,1.6047186398949902,-2.800954246587441,-0.03645024813646142,4.553431478854076,-2.3454087822472793,-1.1844725756286127,0.10556756844674152,-0.19123873237539,0.01862633721661761,0.6142076795055371,-0.42564327817579856,-0.158239536608732
-2.904286651565908,23.348117600350346,-4.522016080850136,-3.970052982033248,25.300982207528534,-2.7581816458107458,7.63077078447738,23.51011794779977,-3.4410143123434835,-54.01498429663836,45.69291216486129,-1.1822615813845088,-22.777952182378357,18.880872865411362,-4.304272141425772,-2.9210782173431804,3.5271163471498017,-2.97708358919636,-51.7983608260579,63.955690091116644,-2.7641869887555957,32.16657481824355,-46.133698972870384,8.244029696794204,8.824619163686291,1.9343272602116393,-1.9970389058397247,5.879989216352338,-5.577706108964716,0.9032220326640863,1.206516786662268,-2.8682378454350093,-0.01783599940797428,4.818725452804851,-1.553526719742506,-0.25553832582953784,0.06464289073280435,-0.2442926841189528,-0.10907243639319546,0.6729268257606356,-0.24769923031451005,0.049944712109724405
-0.4842972975861361,23.218783162735026,-5.130679432925068,-1.151166335958998,25.10447226663935,-2.6093881442745257,11.887868031530237,37.75101772946425,-5.844372609270339,-50.210441563320046,40.26263137875096,-2.9861380661060872,-17.8876585588226,13.823546806412537,-3.2088150403283517,0.024285521597613213,3.7623110982189583,-2.9410680088739483,-42.2148676224106,72.45205426715906,-9.1574223557951,55.02662298234283,-70.98008748879627,23.85027452710827,2.787174187720066,8.167794101408314,8.43806466223712,7.81266388460408,-6.074934994523894,1.3993034895353158,1.0483488278674922,-3.9591271357722917,2.337829125516755,5.4140879764539545,-1.2048645299599947,-0.20193007974052332,0.11533773933538936,-0.5610077159154552,0.294673358654303,0.6593222182673837,-0.14733048543218055,-0.023804336639431108
5.373859772511792,18.79091052877818,-4.218803244859704,2.35956845864117,21.52085030045625,-2.763492459182813,20.099498538180413,41.491448376622394,-7.997164918749967,-39.0688622514293,36.27819793248907,-0.9180018401277864,-13.653777719351094,9.5281782499431,-2.029816942057525,2.2529104323153653,3.6436363099660545,-3.42913605432843,-18.407356718100623,72.32515358955665,-15.961263248376039,55.373714720580345,-75.22418414743039,25.66858635809296,1.8728401310948481,7.859492611161305,8.102122807048936,6.898477985590634,-6.027664208874766,1.2564125620995537,1.7828997172854377,-3.896721693642294,1.3978557686071469,4.66959483264337,-0.8733852529084626,-0.39412142813755,0.34835738259770277,-0.47936528658947036,0.019789468583744134,0.6222721821543186,-0.08920012932649424,-0.04986232450393851
5.969742799413046,9.877189314009666,-1.9249267106982484,3.2234101079094617,20.108304707033955,-3.1259396400844826,7.420616422610286,28.410035508650825,-4.4829244423164925,-43.846003226450165,37.74044045304756,-3.0663301412725055,-9.972190360483943,5.883457218481738,-1.4410044286797505,4.364913116352413,3.6086080190757994,-3.4400462855144434,-45.9467002723597,64.48226820477952,-10.885536222008357,36.26109085392087,-39.49104987839969,6.173179078465195,7.674807592839949,-0.5857943074754722,-3.160221267651871,8.521042137224248,-4.665216739088605,2.1835508714311813,2.2717848617750156,-2.7101887590915448,-1.4638869381724684,5.254533795815066,-0.7782467795979146,0.619960839548176,0.3166234140079312,-0.22767213617596696,-0.2811338811644889,0.8082625374960082,-0.12839636387496456,0.2982579940517724
5.673330330620911,6.849356000087416,-1.4092950005551614,3.8606009589612333,19.39050395631073,-3.0664059594002744,-4.348378851016,22.50453529125926,-3.448345953755841,-44.82490337924485,33.47554892220173,-4.438638841904408,-6.866092613785093,3.33454779871867,-1.045809676255802,6.168773818091055,3.6285008287972493,-3.3881313311466634,-65.44954527323765,48.95128856113715,-12.821745487708375,49.88299422201763,-29.130163090084764,0.7352972947511593,6.0331346707036255,-0.9955397134687336,-2.3795447348838223,6.082873199169041,-3.5703430583918245,1.917533527011178,2.118138254715565,-2.4833368913608904,-1.062815628335124,5.924471804180312,-0.7918029730208905,1.3883666310872662,0.12000756921361336,-0.21004512310564255,0.07299960681475867,0.8075173166987483,-0.2382287659476749,0.3127679649771074
10.044065615014775,6.42404398090013,-2.1336310584783176,2.130161231504983,20.239292370656408,-2.4923868403199596,4.652734906640397,26.981458209751203,-9.37891076207313,-42.738349192450364,41.154629957890236,4.820221369890537,-5.479390157401548,1.78513047482972,-0.6731571209938747,6.510695715277075,3.944692315852943,-3.434090672528487,-46.52031099364102,61.43910406007077,-12.721907465156391,42.95883605972822,-37.11188822978221,3.9464096878223884,7.8900991028309555,-0.4952876573687666,-2.114331327201597,7.283546645838831,-0.9191907732019072,1.2665361949093519,1.9983903810530559,-2.683913309318964,-0.478683841303878,5.4441969246475255,-0.33678340889477815,0.6449973954805323,0.34991783536285564,-0.32903986747104635,-0.2084517907395412,0.8265405100598328,-0.14399938617307356,-0.07862737476458892
14.699852326801068,0.5561317540572805,-0.18138413881079749,5.132343878812689,16.141898713653955,-2.7952914708391514,8.453022991271576,11.863876823048326,-5.184152465207631,-28.343596514248162,32.573613660332484,1.284070437585173,-3.780712965285887,0.13554075783222072,-0.1339059257986584,7.304210467106071,4.3357904853749885,-3.4148483732521364,-24.82772328430291,38.684338303833094,-12.26488542850254,27.172232652341446,-44.62430724993173,2.560158383539323,9.352659833655128,-0.35241747416624397,-1.7649515059489926,4.496641327901584,-2.2439770563635504,-0.10082749768043199,1.1819172623642722,-2.735575788362028,0.6940545523032667,2.9364092959497663,-0.08925925598476707,-0.7448541102707608,-0.08819742153370111,-0.24538965770313037,0.2433980287165759,0.4854947114247504,0.02049978059167515,-0.20843356420046977
15.296798846929525,-4.145585029616233,1.6825832261916194,8.396871113339158,12.358641666311701,-3.2320966496480854,13.544994790197475,-2.7615252057109707,2.032378818135,-29.26893872082994,24.099337992563168,-2.6895752761881426,-2.8474418516312117,-0.6126624285313188,0.16137341234565658,8.358766142350998,4.194298198664217,-3.656879452206757,-19.81353648615782,13.86695431206852,-4.707733710185457,44.32706639152724,-36.0969853163435,-2.4163993887955657,5.859835615848762,-3.0501342974584094,-1.6316656465185964,1.7585187645948148,-4.765624050434248,-1.2163981086483802,1.8858034903895664,-3.230190004386341,-0.02147459787648045,3.14213007896547,-0.3730994880844683,-1.0529421931673921,-0.13170515066863897,-0.3748972358411254,0.48383162640149435,0.4261732639966817,-0.05723162968232868,-0.16175959178585872
14.907212255211139,-4.681993807754604,1.5046546082332821,3.0015555644964516,13.575638007291138,-2.8058054703400086,11.161504486350312,2.1838743163524224,-0.8783753217801303,-39.47705091078665,20.610430675134083,-3.086518745271013,-2.787431106249801,-1.2739072079676295,0.337077097934736,8.5036455773691,4.3905600698722145,-3.117228546635182,-35.33904219511405,17.615395379981248,-8.613502466844425,30.8200190442777,-29.398964264733596,6.595632332539352,3.6930749678757944,-0.3740969785890486,0.3880820729225833,2.0602065103493508,-4.946918470983112,-0.5559051278336751,1.0897479789246074,-2.2053884911529527,0.35589097548752524,2.658552723687328,-0.4625499481991105,-0.6002290173113947,0.19983472737657126,-0.341817639813897,-0.012871760644560741,0.16759250926081604,-0.13021959293879837,-0.1081616082017764
14.68981601432013,-5.1090552689502875,1.5782021429153281,0.9492291211635113,15.748592041291067,-2.656614532132015,12.164935080645716,9.85390579999965,-1.8213928123255378,-39.923456413242945,30.91975732414319,-2.118533673424091,-2.929841544878788,-1.7177156226804489,0.475331723753158,8.682816012914042,4.257524771926092,-2.6459069250441485,-33.932009908228785,45.62735620199301,-6.114448817827354,31.626165731349776,-24.17469516408771,5.146631745961858,4.325240317050512,6.831914409021773,4.970294866630184,-0.8333393534597474,-2.5914666278787566,-0.18008115503431218,0.12603767680547354,-2.1145751363239818,1.829735399669446,2.125847507682503,0.015246639481927962,0.8588606445528203,0.2974508584654349,-0.1974548953356401,-0.31113989693002025,0.2595654251226532,-0.020888681525115256,0.32981252843907755
13.754021623341984,-8.479700974765187,2.3387625542952533,6.3197148784234445,12.696261077547714,-2.4865370942890546,14.31823491251857,3.3937046598185594,0.3283639530632941,-30.3797299160966,27.314134785886218,-0.3234112832999315,-3.52530568282759,-2.1172668239138552,0.31357226046780295,9.115028324474787,4.0780950984755115,-2.7673596567605334,-19.125396960838344,33.93439467870462,-4.908901755762146,42.13740761030376,-25.623435690102692,20.975720199734653,6.1604746871239895,0.44837874756873264,0.5160376729553647,13.736929717693842,1.9858253385973161,7.311082772160366,3.2622644754186187,-4.596474115147406,-1.008045789219014,3.906335303946922,0.6740850183410182,3.4384387281790887,0.40120104785134203,-0.42364255484753166,-0.058244910298894295,0.6944935145337762,0.14011969245308822,0.7635050824364553
16.444149344874067,-11.529795545534546,3.1282570787995265,6.017326245596352,9.377264893209302,-2.063235197501149,18.635297188043754,0.7094399104629779,1.3924238887905058,-32.141922710325666,11.516496577899915,-1.4295311704363163,-4.149247741024188,-2.5390547082239263,0.3347201851334655,8.805622323986055,3.9940213173644796,-2.5700896089514735,-18.86237927743892,16.515174026026838,-5.467787347838114,14.56098236130514,-24.991911486974722,18.750623390102604,6.4492356737784045,-0.0913231577316876,0.8809124769580907,10.41691478873465,-0.8431581256065573,3.6199802346192027,1.0472675435005032,-2.8988904604940102,1.023368206683639,1.9524033581871305,0.0036824739480220475,0.05583326001283711,-0.0819448334811643,-0.2886004587375372,0.3538882395592086,-0.11481069842741297,-0.011557579374666045,-0.3978055184933075
15.2479,-11.99578,3.21511,7.27882,12.76059,-1.63156,19.30618,-4.70131,2.58663,-23.37498,21.12572,-0.44724,-4.51458,-2.38671,0.33192,8.42606,4.08638,-2.09255,-5.33675,20.78417,-2.46764,1.24955,-19.48758,-8.64633,7.08992,-1.2182,0.52223,-2.68948,-2.52447,-2.48792,-0.36148,-1.81961,1.86538,1.48524,-0.2792,-0.36516,-0.05164,-0.24804,0.11539,0.09337,-0.12877,-0.21516
,,,,,,,,,,,,,,,,,,,,,,,,,,,,,,,,,,,,,,,,,
,,,,,,,,,,,,,,,,,,,,,,,,,,,,,,,,,,,,,,,,,
,,,,,,,,,,,,,,,,,,,,,,,,,,,,,,,,,,,,,,,,,
,,,,,,,,,,,,,,,,,,,,,,,,,,,,,,,,,,,,,,,,,
,,,,,,,,,,,,,,,,,,,,,,,,,,,,,,,,,,,,,,,,,
,,,,,,,,,,,,,,,,,,,,,,,,,,,,,,,,,,,,,,,,,
,,,,,,,,,,,,,,,,,,,,,,,,,,,,,,,,,,,,,,,,,
,,,,,,,,,,,,,,,,,,,,,,,,,,,,,,,,,,,,,,,,,
,,,,,,,,,,,,,,,,,,,,,,,,,,,,,,,,,,,,,,,,,
,,,,,,,,,,,,,,,,,,,,,,,,,,,,,,,,,,,,,,,,,
,,,,,,,,,,,,,,,,,,,,,,,,,,,,,,,,,,,,,,,,,
,,,,,,,,,,,,,,,,,,,,,,,,,,,,,,,,,,,,,,,,,
,,,,,,,,,,,,,,,,,,,,,,,,,,,,,,,,,,,,,,,,,
,,,,,,,,,,,,,,,,,,,,,,,,,,,,,,,,,,,,,,,,,
,,,,,,,,,,,,,,,,,,,,,,,,,,,,,,,,,,,,,,,,,
,,,,,,,,,,,,,,,,,,,,,,,,,,,,,,,,,,,,,,,,,
,,,,,,,,,,,,,,,,,,,,,,,,,,,,,,,,,,,,,,,,,
,,,,,,,,,,,,,,,,,,,,,,,,,,,,,,,,,,,,,,,,,
,,,,,,,,,,,,,,,,,,,,,,,,,,,,,,,,,,,,,,,,,
,,,,,,,,,,,,,,,,,,,,,,,,,,,,,,,,,,,,,,,,,
,,,,,,,,,,,,,,,,,,,,,,,,,,,,,,,,,,,,,,,,,
,,,,,,,,,,,,,,,,,,,,,,,,,,,,,,,,,,,,,,,,,
,,,,,,,,,,,,,,,,,,,,,,,,,,,,,,,,,,,,,,,,,
,,,,,,,,,,,,,,,,,,,,,,,,,,,,,,,,,,,,,,,,,
,,,,,,,,,,,,,,,,,,,,,,,,,,,,,,,,,,,,,,,,,
,,,,,,,,,,,,,,,,,,,,,,,,,,,,,,,,,,,,,,,,,
,,,,,,,,,,,,,,,,,,,,,,,,,,,,,,,,,,,,,,,,,
,,,,,,,,,,,,,,,,,,,,,,,,,,,,,,,,,,,,,,,,,
,,,,,,,,,,,,,,,,,,,,,,,,,,,,,,,,,,,,,,,,,
,,,,,,,,,,,,,,,,,,,,,,,,,,,,,,,,,,,,,,,,,
,,,,,,,,,,,,,,,,,,,,,,,,,,,,,,,,,,,,,,,,,
,,,,,,,,,,,,,,,,,,,,,,,,,,,,,,,,,,,,,,,,,
,,,,,,,,,,,,,,,,,,,,,,,,,,,,,,,,,,,,,,,,,
,,,,,,,,,,,,,,,,,,,,,,,,,,,,,,,,,,,,,,,,,
,,,,,,,,,,,,,,,,,,,,,,,,,,,,,,,,,,,,,,,,,
,,,,,,,,,,,,,,,,,,,,,,,,,,,,,,,,,,,,,,,,,
,,,,,,,,,,,,,,,,,,,,,,,,,,,,,,,,,,,,,,,,,
,,,,,,,,,,,,,,,,,,,,,,,,,,,,,,,,,,,,,,,,,
,,,,,,,,,,,,,,,,,,,,,,,,,,,,,,,,,,,,,,,,,
,,,,,,,,,,,,,,,,,,,,,,,,,,,,,,,,,,,,,,,,,
,,,,,,,,,,,,,,,,,,,,,,,,,,,,,,,,,,,,,,,,,
,,,,,,,,,,,,,,,,,,,,,,,,,,,,,,,,,,,,,,,,,
,,,,,,,,,,,,,,,,,,,,,,,,,,,,,,,,,,,,,,,,,
,,,,,,,,,,,,,,,,,,,,,,,,,,,,,,,,,,,,,,,,,
,,,,,,,,,,,,,,,,,,,,,,,,,,,,,,,,,,,,,,,,,
,,,,,,,,,,,,,,,,,,,,,,,,,,,,,,,,,,,,,,,,,
,,,,,,,,,,,,,,,,,,,,,,,,,,,,,,,,,,,,,,,,,
,,,,,,,,,,,,,,,,,,,,,,,,,,,,,,,,,,,,,,,,,
,,,,,,,,,,,,,,,,,,,,,,,,,,,,,,,,,,,,,,,,,
,,,,,,,,,,,,,,,,,,,,,,,,,,,,,,,,,,,,,,,,,
,,,,,,,,,,,,,,,,,,,,,,,,,,,,,,,,,,,,,,,,,
,,,,,,,,,,,,,,,,,,,,,,,,,,,,,,,,,,,,,,,,,
,,,,,,,,,,,,,,,,,,,,,,,,,,,,,,,,,,,,,,,,,
,,,,,,,,,,,,,,,,,,,,,,,,,,,,,,,,,,,,,,,,,
,,,,,,,,,,,,,,,,,,,,,,,,,,,,,,,,,,,,,,,,,
,,,,,,,,,,,,,,,,,,,,,,,,,,,,,,,,,,,,,,,,,
,,,,,,,,,,,,,,,,,,,,,,,,,,,,,,,,,,,,,,,,,
,,,,,,,,,,,,,,,,,,,,,,,,,,,,,,,,,,,,,,,,,
,,,,,,,,,,,,,,,,,,,,,,,,,,,,,,,,,,,,,,,,,
,,,,,,,,,,,,,,,,,,,,,,,,,,,,,,,,,,,,,,,,,
,,,,,,,,,,,,,,,,,,,,,,,,,,,,,,,,,,,,,,,,,
,,,,,,,,,,,,,,,,,,,,,,,,,,,,,,,,,,,,,,,,,
,,,,,,,,,,,,,,,,,,,,,,,,,,,,,,,,,,,,,,,,,
,,,,,,,,,,,,,,,,,,,,,,,,,,,,,,,,,,,,,,,,,
,,,,,,,,,,,,,,,,,,,,,,,,,,,,,,,,,,,,,,,,,
,,,,,,,,,,,,,,,,,,,,,,,,,,,,,,,,,,,,,,,,,
,,,,,,,,,,,,,,,,,,,,,,,,,,,,,,,,,,,,,,,,,
,,,,,,,,,,,,,,,,,,,,,,,,,,,,,,,,,,,,,,,,,
,,,,,,,,,,,,,,,,,,,,,,,,,,,,,,,,,,,,,,,,,
,,,,,,,,,,,,,,,,,,,,,,,,,,,,,,,,,,,,,,,,,
,,,,,,,,,,,,,,,,,,,,,,,,,,,,,,,,,,,,,,,,,
,,,,,,,,,,,,,,,,,,,,,,,,,,,,,,,,,,,,,,,,,
,,,,,,,,,,,,,,,,,,,,,,,,,,,,,,,,,,,,,,,,,
,,,,,,,,,,,,,,,,,,,,,,,,,,,,,,,,,,,,,,,,,
,,,,,,,,,,,,,,,,,,,,,,,,,,,,,,,,,,,,,,,,,
