PaulMeinheit/Bachelor_Muay_Thai/processed_Data/N3/roundhouse/scaled/JointMoments/scaled0.csv
R_KNEE_MOMENT,R_KNEE_MOMENT,R_KNEE_MOMENT,L_KNEE_MOMENT,L_KNEE_MOMENT,L_KNEE_MOMENT,R_HIP_MOMENT,R_HIP_MOMENT,R_HIP_MOMENT,L_HIP_MOMENT,L_HIP_MOMENT,L_HIP_MOMENT,R_ANKLE_MOMENT,R_ANKLE_MOMENT,R_ANKLE_MOMENT,L_ANKLE_MOMENT,L_ANKLE_MOMENT,L_ANKLE_MOMENT,WAIST_JOINT_MOMENT,WAIST_JOINT_MOMENT,WAIST_JOINT_MOMENT,NECK_MOMENT,NECK_MOMENT,NECK_MOMENT,L_SHOULDER_MOMENT,L_SHOULDER_MOMENT,L_SHOULDER_MOMENT,R_SHOULDER_MOMENT,R_SHOULDER_MOMENT,R_SHOULDER_MOMENT,L_ELBOW_MOMENT,L_ELBOW_MOMENT,L_ELBOW_MOMENT,R_ELBOW_MOMENT,R_ELBOW_MOMENT,R_ELBOW_MOMENT,L_WRIST_MOMENT,L_WRIST_MOMENT,L_WRIST_MOMENT,R_WRIST_MOMENT,R_WRIST_MOMENT,R_WRIST_MOMENT
X,Y,Z,X,Y,Z,X,Y,Z,X,Y,Z,X,Y,Z,X,Y,Z,X,Y,Z,X,Y,Z,X,Y,Z,X,Y,Z,X,Y,Z,X,Y,Z,X,Y,Z,X,Y,Z
-4.112640000000001,-9.963810000000002,1.8473700000000002,-4.2608,4.975200000000001,-0.9018900000000003,-12.323590000000001,-24.062290000000004,5.93114,-15.507120000000002,4.832570000000001,-0.5171700000000001,-40.52053,39.751630000000006,-4.678390000000002,-1.5337800000000001,-0.7470600000000001,-1.8934600000000004,-26.925080000000005,17.37117,-4.37764,10.536150000000003,-25.720750000000006,-2.13311,2.84491,-1.5586400000000002,-1.4493600000000002,1.2211300000000003,-2.838130000000001,0.19857999999999995,1.3741600000000005,-1.5968500000000008,-1.1664800000000002,2.6541700000000006,-0.31710000000000005,0.6876300000000001,-0.0016399999999999971,-0.07429000000000002,-0.20524000000000003,0.31920000000000004,-0.08207000000000002,0.11346000000000003
-5.374883240560526,-9.242822326058395,1.5082902860260012,-7.556680830392362,5.67592187657055,-0.9169200524789607,5.281718734644742,-38.65365623960838,3.679307189406242,-17.420583766389342,8.75604512163992,-0.3235943512497419,-41.15229405535742,40.665553527657174,-4.794863945480644,-1.7498995657973908,-0.6445401278352557,-1.696683716930897,2.2575040021184636,0.5059063603845924,4.1256503169580485,3.963557808373433,36.286447861401584,-10.501781606152012,7.608870288404897,-6.964117527392412,-3.698270677894796,2.7336405961624095,-4.523565969247726,1.7161720783630872,1.0350390370284313,-1.0009132094245046,-0.8503906946429804,0.48346273603103784,-0.021370673569365006,0.6589144154214147,-0.12424242479761585,0.1363961352108206,0.021805424193628437,0.16944513394172783,-0.04718053202273377,0.15175002459949116
-8.286547435533919,-8.128657377467142,1.840850215308845,-6.638491198390503,2.8982415854661245,-1.930267164456625,-9.216888717651837,-29.35217030671018,5.597134361833093,-14.17983410990054,7.2955075788364825,-4.559492201424552,-41.63437473782073,41.33500274710917,-5.083991042070441,-1.3411637122520026,-0.7865520500309552,-1.7780317456628423,-14.773399379836924,15.63051837435511,-5.047717563957558,35.0927177624801,-7.037647578673686,6.938198363248697,3.8329222276315944,2.635738875986786,3.0456358075573693,7.158709145866293,-7.41089997394535,-1.5570199078125007,2.7360851516579845,-1.696694277850165,1.9251961769380088,4.41934885685333,-0.78968077573159,-2.135682779489166,0.45139852063802327,-0.18731331627142805,0.36739866684146816,0.5802940925209432,-0.12870946128688202,-0.41307491431609294
-7.358737384664768,-9.785499561829923,1.709792704699773,-5.788764951613549,4.059067855156146,-0.9046426290723508,-6.273213224776027,-28.12373158144858,3.63619174376132,-9.476630705795879,9.402753846919893,3.419207594565883,-42.732661410547756,42.18256532978825,-5.375476416472032,-1.6202814048357759,-0.9226096970767645,-1.7908916506177104,-2.359442514195602,23.692634384797678,0.5751301036764926,15.429782176013312,-42.525128882150995,16.035744659846777,2.9168042475403326,6.1037902852748305,2.277148288139361,4.473997824874435,3.598453237084168,4.426815731504816,2.2295864844185425,-2.047435174368003,-0.01970736521040728,1.8016921447539118,0.7255709773997455,3.233739570452697,0.5501150551203146,-0.4288171929227833,-0.29587817318293663,0.04048758806331799,0.14208902990705571,0.7252718288065074
-6.978551221466846,-7.148351782868953,1.0331858396129578,-6.7183606295570195,3.8143024092467894,-0.6443562810589655,-1.7505271008079006,-23.493843443720273,2.7139844455097317,-16.113283297849108,6.661705844111035,4.090770228943221,-43.29059859084705,42.516581607422786,-5.367967827675268,-1.7993937588174322,-0.8834068647273757,-1.6266100553146512,-7.147426458204701,23.907032875943692,3.3246468111747935,-9.924308598495799,-2.858561520029143,-2.530181501331267,6.29516074474877,-4.663042960310788,-4.501815079620051,7.17674442634228,-0.3983647736630329,3.7512480075727983,0.9435621401156238,-1.4122985281099547,-2.3115627630772244,1.8615116962985865,0.142957604522684,1.456290604540318,-0.1686736124454195,0.02997503182120458,-0.216821820192359,0.1632419680523702,-0.017727860685823434,0.26045501501366985
-11.085123401595727,-6.566545103893332,1.6756015904830697,-6.530413637505263,2.366919170757739,-1.4124925636651193,-16.23262082999169,-28.645004612527483,5.016424646266229,-15.133257164687679,-1.467392606533682,-3.949550621335375,-43.26517287380445,42.92676075051241,-5.5713545248778304,-1.619844272333066,-0.8410551971808709,-1.6315140549571872,-25.51825754221799,5.234853858895372,-6.285799928822574,11.620652072183676,-18.48966087110642,7.314748685332296,-0.9253241111785884,6.354589070771589,4.728417808879782,0.3398970189422561,-4.715844619807833,-4.643946500878227,-0.9116348018154516,0.1304546256541797,2.2717241021800105,1.6386688079384086,-0.015253014172280553,-3.1914068074610062,-0.3283951872927528,0.08426661790253832,0.30095301012735026,0.08081839661592713,0.0017383613750682689,-1.0176556860101138
-11.423529941952822,-5.398069272902189,1.2532610936951065,-7.5129090777390175,4.586796927038468,-1.1955300259831978,-8.811860660118763,-31.764591862111402,3.5856934574393016,-7.197500117759459,11.14265100349245,1.016320842631273,-43.44012188842656,43.691388774712095,-5.731378237240701,-1.829288948264693,-0.9820555162609609,-1.7124834097471058,3.8834778997753867,19.794468701025025,1.6299883419968835,29.020861103540103,1.3409687119515203,7.693487858663155,-2.1357485177799918,10.410929850114407,7.932986827976412,-6.610634751253138,-1.992486406480361,-3.193143541879146,0.15547762534933546,-0.8379244655479322,2.952719630956352,1.9003770823762534,0.37254253402246035,1.2536801766135588,0.04820855999488618,-0.16391775135033165,0.4079961838997691,0.3022970497894149,0.06292894774113338,0.2535143822169312
-10.260296585099615,-5.113177998198944,0.7549804219853988,-5.953664105957914,2.3929699594117024,-1.4340095774587729,-1.8417055431033122,-24.844556608070533,2.705893907254982,-8.869509380038135,5.004479922364616,-0.23082214727521244,-43.45510199314861,43.58822312939306,-6.000766046171416,-1.5963698631558292,-0.9799125899363667,-1.7506957200094155,4.880368047069529,20.403574247712058,-2.158772894370175,22.493594431002325,-2.130252957341249,-20.758700821836857,6.471797032388135,-5.345741641059976,-2.808478376494514,-3.5024789588353333,-5.973487409970694,-4.193581989448932,0.9286352789662049,-0.7796551911851479,-0.09958996166606927,0.33903964874121306,-0.029057483549540956,-0.8506220071182868,0.08544670059706871,-0.05475918681679195,0.1852716896329339,-0.09051531069871999,-0.08954920460155857,0.05342764717704346
-11.423118920692708,-4.871940508621675,1.085119528093486,-3.2114080168609207,2.5486990748716494,-1.3175884084491793,-10.62554360349163,-21.046391109485306,3.249294094421128,-4.792183580551024,5.626570645819091,0.4494976037648365,-43.59244291069227,43.862097052319214,-6.014199113510472,-1.7217893292402424,-0.8738415482144221,-1.8390217524619736,-4.616781640079155,25.320033254984722,-4.298330074384467,7.231553529457378,-30.296259974368766,-8.264947982660809,9.854905870678481,-6.016977407266732,-2.232084271525203,4.50881306754396,-2.4136134181163977,-0.2795586965466936,0.5620025403587257,-1.3855171284553192,0.8501922382599756,-0.06541268507167172,0.34821614013055924,-1.6298944696696478,0.023412658500199482,-0.09328821171075286,0.03353939422425508,-0.10294455492616522,0.09969726991985664,-0.3739923840295813
-12.891491433106316,-2.2694108167863223,0.8582122081195355,-6.003103153918087,1.1466628732039847,-1.835699583953337,-15.276930636666277,-18.24690304671622,3.9015053286377803,-9.779330264879947,-3.374325553095003,-5.324340254252381,-43.72764770984273,43.98102263293998,-6.130306535244954,-1.9754275581438066,-0.9793440965501197,-1.7777366595143407,-12.787622240854665,13.536435424603804,-8.249837237838333,12.947706388745674,-21.54525235455956,15.067561451027068,1.904419768778229,4.809958400801188,3.950766262558138,7.400780767703821,0.8825745375399477,2.7088807315255665,0.2648217237528224,-1.619971016125542,0.7956274215219545,2.48156547189406,0.7619494324818896,0.3604062804917769,-0.11556418629577285,-0.07325822589816965,-0.0015086665764784987,0.28561531920530614,0.150070256505669,-0.11721565603086342
-12.518114503074063,-1.2593550288992792,0.29107010717437437,-4.913857114866796,1.8883181426007567,-1.306927363422742,-14.428116723442752,-19.77480589514093,3.2782336988220786,-6.833244539248303,1.7566093997253733,-0.40173263226795036,-43.652525032473655,43.81528898753656,-6.463206088639875,-1.8371318299786912,-0.9789911287908635,-1.6735173892141988,-7.275491897888087,17.37944164140265,-2.065406976343946,14.452352935109415,-8.574455277705328,3.6528154963018853,-1.1561671851502517,7.251080294210809,5.738918782814519,-3.0504711421859048,-4.650539207914172,-7.01393359772454,0.2999497197718651,-0.857258356341562,1.140915459468577,1.3912011246612483,1.288298895292613,-2.330406906913944,0.04118450714859639,-0.055841725131356726,0.15048458154896072,0.007266730976193115,0.22482795240016684,-0.3743500698191895
-11.940645337438509,-1.6830480611504248,0.09622941615800373,-5.400530150304999,1.9249447359461336,-1.5590602902409316,-10.420596774506674,-17.0655241904208,1.1126877877923997,-6.805032681832519,10.246098596779998,2.510702066792193,-43.319634971113096,44.15878766429304,-6.636406405395961,-1.7986294629153439,-0.8694691913301832,-1.7318120546942724,-3.4764196877766835,38.86125151820572,-1.9990110448548388,20.530519653668236,-17.59661589987088,-2.2126732472366624,4.3046631120294725,0.04083196016720794,1.6307305011492825,1.8367176378281589,-4.844331967551758,-3.9203851307953212,0.38859270455998063,-1.507114486252201,1.1697939152623786,0.5299203823808272,0.7478833605183162,-2.181831319058623,-0.05573984592772887,-0.21852048829167375,0.33348880253078206,-0.04839424023519187,0.06695868546406748,-0.2951933535751998
-15.813620395593741,-1.2314137799841358,0.4734411509719749,-6.153992631276119,-0.38435523637791885,-2.0376585824773557,-16.696226088453418,-20.19217909713972,1.9775040443729972,-8.168513855233133,-3.139755668356963,-2.665762795779615,-43.20446886338306,44.92747998305404,-7.044187854327992,-1.9141896350373484,-1.2994012010927378,-1.9474438679076902,-9.326883682218261,16.108614182174012,-5.802707794749219,20.61236367956161,-5.6592875325891505,2.313818006975002,6.372040443488785,-4.1228957462438345,-1.6823223886249503,5.914067898528068,-3.743907879123358,1.842728738894158,1.0381296444766905,-2.7252629524766236,-0.2602173390518835,1.0668632816201467,-0.07630234378987583,0.755726503900375,-0.0338993067122819,-0.34475164809706865,0.06491758548697121,0.2554884649594412,-0.12634791566512685,0.273136187438621
-16.95824415654625,0.38120909226909916,0.09639575393582483,-3.780330886019863,1.7373644834157087,-1.4614922741479361,-18.35877344699442,-16.34206351862652,2.197062734866055,-4.809930470012929,3.594334584301675,-0.14649967053554583,-43.00042408428358,45.22864148000503,-7.52894300889827,-1.8238523442460552,-1.1648738286135925,-1.7722190809422536,-9.029913280092273,24.446834082675647,-3.708143155944777,-7.937472529915101,-11.980869960543753,3.6084144448735715,7.2272650254912545,-1.158097248399966,1.4040577167496473,2.26839983356226,-2.8273216902692577,-0.7456241825291909,0.7875135115443074,-2.7420495522425887,0.9674511016993712,-0.06510270530030138,0.2123029688174964,-0.5211693111122987,-0.07075739347296847,-0.16383874602017232,0.18814997767733257,-0.29177718498184546,-0.08434018039554537,0.014840136117483686
-16.451758915967748,2.2445388938756836,-0.008731236217929114,-2.612961045577714,-1.0460073715525502,-1.8906034124872808,-18.410128249648515,-12.889029067894763,4.561782199337906,0.811447386817239,-0.46487492960210536,-1.573145921276686,-43.74115702750911,45.94125874197835,-7.752393205955205,-1.7608224174508609,-1.3222598112828872,-1.8481838919460671,-1.0913606464351786,26.867184727298298,-5.5191854096055595,15.232605250174702,-33.821956350924715,10.7486804213167,3.0871796024604405,3.6663947405621578,5.103306844669619,5.2292583992635056,0.5171777221587783,1.376971941015469,-0.2756789576447204,-1.2565616947257119,1.938698544415533,1.709763260165612,0.7978801325210378,-0.38446868664384176,-0.01372722363615058,0.011833282609482488,0.07548100934767138,0.15056675491036178,0.22318183654884124,-0.3574150536997485
-18.043525522535635,5.476426633523914,-0.6611278621230605,-5.2719308280156705,-1.002382147287909,-1.962004887120256,-26.343732917258844,-4.32983305953388,2.5455941802246285,-7.942187290190515,-3.69822806696485,-3.284023346891958,-45.12233339993203,47.23245829910199,-8.098103760197104,-2.0600203172579494,-1.438786297382887,-1.7488439307067307,-22.187048986824255,35.83803379233271,-10.669686895662005,30.33536125667295,-24.025976980575713,7.779287169194186,4.623223131913448,2.4963449412808627,3.3513190051258652,5.875593500189064,-4.842601652245866,-1.3811908646317297,0.32046199389012925,-1.9068706991700175,0.77197210394053,1.8592082937101533,1.0539358727299646,-0.7228974819712207,0.1492236037459467,-0.2814500024938543,-0.02353846013364099,0.23151131989443519,0.15845673905496924,-0.15267793343480246
-19.48079823727292,7.602378650590522,-1.2552701582036867,-5.214264105634801,-0.3926015421843958,-2.1767096841879683,-22.815803169920486,-7.694137981214128,-0.36578276111353475,-13.829295427648677,-2.5747003896074507,-5.075612378474606,-46.4619610249341,48.97039596043594,-8.433684526237151,-2.186664953668727,-1.74481938147806,-1.8931224482313715,-25.71516175454776,25.12626629359026,-11.3064849450374,12.871358295948857,-9.67922004584728,3.767199382492352,5.22778965869515,-0.8098039006445953,1.6875153319083396,2.741246749099075,-3.188268444844381,-0.4227040598879647,0.8690086698508658,-2.8384274798617377,0.8054093558353936,1.5368685009381158,0.4925664060890996,0.881255575979227,0.12464452257892565,-0.5331785425444487,0.28927491007763984,-0.05852972048136215,-0.05864428580177173,0.1905574578302117
-18.40664556646496,11.003169874246797,-1.9657214954359727,-3.683505624460483,-1.015537811470634,-2.064250713731108,-11.211457537183344,-8.683789743120599,-0.0032868400738540575,0.08976865291408291,-4.2868297601703516,-4.1906552989243435,-47.93376708006261,50.81478683613025,-8.658587571433262,-2.3620600419429345,-2.0584618634336103,-1.9726425600670314,10.081942973103233,22.11443096651025,-8.3261986654855,7.583817271739253,-24.665578872490464,8.321268068245283,4.754554572989553,1.6902014398083396,2.7225865961782874,4.979113256619409,-2.7377382487083577,0.390994135652559,-0.11800868209683073,-1.548749089531015,0.9131509858866269,1.4859658350607445,0.543229560667784,0.2339638670314255,-0.12213363357474605,0.008552216138034884,0.06808261711475509,0.13131106356714986,-0.044392350567637504,0.11629739178599874
-20.467609098152078,14.428462710656394,-1.9460097868362147,-1.238402883039225,-4.92212231642387,-2.2025711576658127,-22.423332646818054,3.9546835214837155,1.6049136158049577,4.059810027213651,-13.190241209694992,-6.888719734354354,-49.2853172958582,53.067178674501946,-9.020271328239556,-2.547212997511023,-2.383593416938923,-2.0364086570926996,-2.5772271314155724,29.7890981529445,-16.614782492026187,12.577359793153734,-31.40845865943593,16.383818307046283,1.414422061863152,4.265483375217382,4.48178771983537,10.791929070256145,-5.257746854089604,0.18518301658564093,0.7286451813692313,-2.2082435081293457,-0.4447680388363033,2.004342410330703,1.57010189462741,-1.1733155944650893,0.04023269559844346,-0.12553096522091778,-0.1156450762707558,0.32800157665037577,0.1365532571592109,-0.009286590921811092
-22.87949467106428,14.323199139809004,-1.5861359673292001,-3.1906182978801834,-4.659739781248169,-2.3555254842016407,-30.479860286425144,3.067745860886822,-0.8644633684149644,-14.266001909285103,-8.33139386343808,-4.468349518475328,-50.41942995538363,55.32814774580966,-9.35922700341845,-2.995292932059868,-2.7953322170892063,-2.230625405142844,-37.67182085437177,33.357054015508794,-15.68718437966888,33.057201070322115,-11.4355082961866,7.063271882220028,5.813792293076729,-2.6080612731079778,-1.4978128338341958,12.61323913514029,-3.9323818632268783,2.9883075823600382,0.7625975784533038,-1.864554046637352,0.035474087173126466,1.7877072301330366,1.3711128091705262,-0.6752887200831349,0.0925207440552685,-0.14854686899818365,0.036375477635406606,0.10583696796739421,0.04244036798546532,0.06367099732008183
-18.593217388611116,19.554667433857674,-3.2148468992126396,-5.248601638474851,-5.187482955334843,-2.839891495944669,-15.92000850617169,12.113823302006823,-4.066256594238547,-19.469378732729027,-10.53513416342806,-6.775873445848088,-51.45600583320287,56.942005431034154,-9.215480876662197,-3.5255174462694874,-3.220499675981457,-2.480137183871762,-23.853465085800376,36.772097439926476,-15.93802350933838,39.00116431761608,-41.53329941643595,21.80662556201627,8.189452028297403,1.6244629837048083,3.2967206822366535,5.3934476820147195,1.735268374630665,5.6718458078242815,0.696636019789577,-3.199036623288041,1.0928510854733695,0.13183860851411278,-0.38817948545615716,0.6713029705357472,-0.030583359161762573,-0.300970706568359,0.2937074842213753,-0.11043726888923015,-0.16394276380603617,0.0883434038476624
-18.827307750054274,22.579760958961288,-2.8030083849683907,-0.8113810875517379,-6.1845629605297034,-2.4437675032381505,-18.434523054349555,22.458688121474967,-1.5245583211687226,-6.740425843016026,-14.348979224687877,-5.6705069661871415,-51.823070087271546,58.21882664521709,-8.973320339673549,-4.07897698593204,-3.7840221689324514,-2.828325168211652,-10.028102345031018,44.162693374854456,-17.187350423889313,23.375714163944313,-48.94526641432839,31.293992783613337,7.03494778381158,4.113001573380682,6.231748191313374,7.592050580853491,-0.6236586010328492,5.149777265697509,0.9423089873959167,-4.274381468914541,0.6116398864320574,1.4977019037772639,0.4186432505870189,1.3343222554146223,0.12295609274860296,-0.3935995774710783,-0.029321194510299676,0.20240909340709412,0.061293608373595224,0.1792431197233608
-21.12243744148825,27.255086647647534,-3.2059449791092507,-0.8694751093136118,-7.015860858514431,-2.9192866596077134,-32.35987538796022,35.15250973335441,-2.2086952215370976,-12.487253462644487,-10.927541792496562,-6.309830338381388,-52.10884048902688,58.928136059024425,-8.898361739908985,-4.608083452457272,-4.387143601796409,-3.1729605341601474,-34.03104155448831,61.42344470793924,-20.391151461487006,27.29820365156461,-47.623853061554165,12.321975378514301,5.99328764667361,-0.07296957522965428,3.909734489527017,6.128676817961415,-2.9478167037653433,1.2863007880421509,0.3232014392245405,-4.0509757830631035,1.7106641467299066,2.813217859915778,0.9164443153621599,1.7055441454917148,-0.03068673157951692,-0.41460765513111364,0.18700713212209347,0.3247711635033564,0.06959154000437898,0.16380397425775814
-19.29805057257739,31.171375001026195,-4.414776326299844,-1.788390380006009,-6.59949626639744,-3.2351418421942344,-23.73493424509524,32.215310456810606,-4.553681765550414,-18.07115126234602,-13.469298556527772,-8.990451497236293,-52.010127350277116,59.32219194819419,-8.628540068439845,-5.74930404665156,-4.887635197448236,-3.559302165270564,-28.059417343129102,45.86106540200785,-24.218608302794202,15.818569994873926,-47.20627005590762,24.90210052971653,4.596518513666121,1.9967360770147118,4.212199337422208,5.193093834828835,1.1376756391286662,5.251982495596865,0.6328263890624533,-3.493809264218437,0.6146532357373218,1.1332476726431833,-0.011980403586902413,1.0481557794009666,0.05873910230073044,-0.5989159284576338,0.11684095630482055,0.22198923047151686,0.00026005914572769704,0.057086855585920825
-18.169657350588263,35.25152159218003,-5.349572052833224,2.3914150433122265,-6.312215102028548,-2.7355310522336684,-14.388511704227868,41.79715171184052,-8.112374644714146,-15.311985432158592,-16.97203607122066,-9.004156328076645,-51.11965296542766,59.61973360835695,-8.127110913502973,-6.8306309578887285,-5.235366907217866,-3.9388908576384507,-22.651933699219793,47.1806070996308,-27.423075241763293,30.909839267933133,-31.378441643400947,21.01051013347624,5.484850449235327,0.9995281028652607,-0.5624446506284003,9.627427864468784,-2.176596131732338,4.394049652507433,1.052683235752439,-1.5129484805246853,-0.7749112227496496,0.8465808848331112,0.8836631150112536,-0.013715096939147913,0.09063123569750216,-0.21384094882597326,0.03222855650340194,0.014467817546311698,0.05149700371639862,0.07153341159899432
-18.07364727475547,37.39971693851314,-5.021258083306217,5.299650262130996,-5.0997979412159555,-2.9424285398816594,-18.77601188286706,43.956085923845684,-5.845918656058693,-15.867600165567252,-13.164380224949543,-10.328280559145751,-49.640022756726246,58.992200745588306,-7.497506069668712,-7.984308017120516,-5.719593395074862,-4.49822804132352,-30.613436008271364,45.26772988054906,-28.610688748243,59.81964543980648,-39.65492440755314,23.26101269672258,4.015699246022072,4.959133575534295,8.22870730011346,8.102060920065778,-3.0222465919858963,2.8971375346995045,1.877774574203862,-4.44474007456112,0.13293166696609388,1.2471842736075245,0.5957990931977301,0.7766864490801799,0.1225957358730156,-0.4627306981907839,0.22534438527754927,-0.03921159647038816,-0.17830645942629478,0.18275539277679875
-17.461254209162227,41.83964005467825,-6.132785043650371,5.17711996510693,-3.537432103393942,-3.3892145744590327,-17.884792259340703,49.81362100495287,-7.98407172947623,-24.144350852076293,-7.870101786479842,-7.888588873585072,-48.218220638007544,57.62229361539946,-6.716748185665126,-9.443799667644305,-5.944437582733333,-5.276951553305377,-39.154412486272804,57.58312150767313,-26.15739204297626,38.22747076074454,-28.46118545685734,13.394890454510664,7.291080901962769,3.5037943162318714,3.3497702866671624,4.731741395865189,1.1739956768865212,3.386249796326798,3.3488281515170204,-4.0547048932375125,-2.0642744045298715,0.38732947801871387,0.46212504322633113,-0.9241629538763261,0.5704754090793404,-0.13495000733186396,-0.3555748127535148,0.12697251630239384,0.12487898726912192,-0.22301075550846403
-13.374827672139615,44.200583614113874,-6.928690413709741,5.231297445155331,-2.8080410416664314,-3.6230009961950587,-0.4549454526897309,50.40325822752979,-7.624273555526087,-35.83527698222473,-13.861160431718051,-13.222341445892965,-46.59381847847967,55.647652767567564,-5.616704768683544,-10.77863300948105,-6.009049430686283,-5.5788488241853615,-37.939486489129486,39.34241651624819,-24.099241895894515,50.04998392492593,-9.92268426805677,35.869988336110794,4.426317111042682,5.069938220777897,5.323607120715328,6.717904275116329,0.28554540652212995,5.3861369544313185,0.6959334887544404,-2.906799697193354,-0.10341148474434494,0.24720059254230362,0.5878859963386457,0.14993265224930882,-0.11981600220267498,-0.20864342331347197,-0.014388864168118378,-0.24669038002506605,0.0232734673330438,-0.16615986505175676
-11.1689185864031,45.929698701809805,-7.785749859118148,7.427656430205048,-1.5062924347334585,-3.161425091879116,-2.7906842295838374,54.0006165219386,-10.65730762247092,-28.364639380019586,-9.603403999725456,-7.791672751437998,-44.47101343428349,53.98847913407895,-4.710575575759571,-12.179709449837418,-5.95713266221289,-5.803624243868094,-26.685397542597794,40.60880640068935,-26.86839381083791,73.0025827463811,-88.91575311293853,63.75719532006518,-2.2766931577205765,9.063944132683167,18.47760834894008,7.679086940552517,-1.3739115354970974,5.837103469277218,1.2244620818321195,-5.40946005799302,1.4406142200789513,1.9471758011432154,0.7741870623318348,3.402700478100741,0.0015412421722575378,-0.8785275396381107,0.2999882605606306,0.22464936381428866,-0.07565203034488797,0.6152171899494939
-12.546747476867665,44.27673094601597,-6.296302212405759,7.649294425572997,2.3609542715272003,-4.2824811753872405,-16.656155459506866,68.20689268465718,-8.591244126136981,-32.74206626933224,8.892359608610953,-5.575361542930994,-41.837325287550286,51.922456774668404,-4.060336641727776,-13.530269220363435,-6.350612523685917,-6.491386075048718,-51.186666079802265,88.61214648868292,-25.302362401036635,25.197726695968306,-56.40886447165194,24.932695033656906,1.8756752455956125,2.1115930963295066,5.193085248285564,10.294212716120306,-4.906907018849802,-4.961950633631974,3.10860988685642,-3.5380109116581067,-1.4271417645748217,0.568766597478099,2.0863698263985713,-4.074114259683607,0.4940088830090266,-0.5748921624259582,-0.09214925032718929,0.1686811563558147,0.2964926399797831,-0.38676599953668306
-12.65594736897564,40.55853883390662,-5.089749674688731,7.634738548585231,8.433942999294977,-4.687042026305965,-14.262412199301979,58.620743929450065,-5.194821906729956,-42.16529322038633,14.131639945874886,-8.589531429973652,-39.37377893084048,48.27779311850658,-3.3184635555518835,-14.921373448092083,-5.978082314050804,-6.516521437699472,-62.49086903041452,71.88172641912841,-23.135419439895273,29.15936060816434,-48.124712760517184,25.636156490585364,7.361746419478341,4.592629868007237,1.9871080512628563,11.529511804297549,-7.6079787573142195,-9.591342723145114,2.674822011014614,-3.8533519881750946,-0.726355909768746,0.2349804947105924,2.177516673555726,-6.126028330268344,0.34508010903333275,-0.5053390204006833,-0.17077172643710833,-0.03735485712631656,0.30222880704030103,-0.9174044810037278
-8.075817661735279,37.00524127789053,-6.15082361634051,9.965675266678582,3.8648723325503864,-4.462836813652172,-2.6775456413248198,45.072310385080605,-9.114402195591957,-48.362060589182676,0.3701139899758835,-9.893569058542116,-36.41017268952212,43.39770416348186,-2.4418236115105083,-16.764410803625886,-5.29684731011474,-7.116947919158572,-56.30569414151977,30.812561882094176,-24.4848041964959,91.49116282533524,-49.10660396927969,9.001484392970841,5.493068383880351,5.551990779047788,5.604079367295821,-1.6912496857450525,-1.1951182443649784,1.4396674057372507,3.8567569751333486,-4.151568426496919,-0.9093909466839454,1.2381086970680113,0.25746543059436156,5.486159468136916,0.4043031554648089,-0.47189931302103005,-0.02389166434799287,0.09763112993282377,-0.06655090224392157,0.5521568771739713
-4.958432715781969,27.8829050956969,-3.794567578885026,10.49460252401359,6.103005138786531,-5.280094906030395,13.185679209707686,30.219754151017383,-3.7963218221778408,-72.0842576752191,23.653827849460185,-3.666025039277449,-32.130388558209425,37.69279904424259,-1.7679107540889107,-18.292954401886476,-4.8246546343611,-7.692208744095763,-71.74885084404835,32.5929565101054,-0.5186902733633509,78.03571117095274,-23.93736081772927,-4.357368643406943,-0.041306090571533505,3.043278080520434,5.930912648017944,-2.766631064255088,-4.405802811727429,-7.557889843978986,2.439468579098672,-1.690556442891896,-1.2578874852974495,-0.7294253158587392,-0.38755586392104724,-0.1588478592964112,0.11052176261522824,-0.20291074042646906,0.13151758483321202,-0.3510878188410105,-0.2330812235560759,-0.027576420117418586
-4.742703417892319,25.25041624830466,-4.0893029441371285,8.800123891184672,13.353442847663574,-5.7752925677110545,24.963767597035556,17.25676738520763,2.380568163628925,-77.06505823762765,33.89088778870668,-6.0579389597962745,-27.636268500884047,31.123832976859937,-1.2656618724987403,-19.630360434942574,-4.531813884732286,-7.314976342452375,-61.42775586647291,10.33879972656318,6.352091590356123,97.44445049677857,-37.30249583174129,14.862381042065765,2.245655330972693,7.236179870955733,8.361436120448912,5.590707972770774,-9.81390289291399,-14.325617596521582,4.058715273017036,-2.941919535114504,-1.7042063762125734,0.28724061987750427,0.1917752759674978,-5.193500311149895,0.4076029071235002,-0.3349937610530809,-0.1465078593799907,-0.02696935164535892,-0.06122813159468921,-0.6541203458901522
-2.262789347660468,21.203939195524935,-4.641272388585279,8.849143274166417,17.707329857646364,-5.587809472337191,19.912134217971797,39.07655757008564,0.10157572332904552,-63.440172536249925,23.653901534336025,-7.8651713219470825,-21.799504582862852,22.94627433587395,-0.5812850467475378,-20.99402156183619,-4.784654816168753,-7.26404148263332,-51.40940800922769,24.5799924340143,-3.2741899022365937,83.71212153924291,35.69101443933843,1.2750140631263764,2.3045904600123337,1.3166859370439734,0.5264180890664807,4.171648136693669,-5.551991376638266,-7.150833661383778,4.9157105531200616,-1.0337055272483089,-5.226591716414903,0.7898435842560705,1.2608514923019338,-0.9147922143679931,0.7273976086603541,-0.2647416468302599,-0.6434436605813395,-0.05725345650893681,0.05259268119627455,-0.3518706178479333
1.7418387771508603,12.155778497523793,-3.0720899454308856,7.713140762744703,21.921393901231536,-6.023620364477918,36.719150082174906,11.429747936762338,6.408546080020109,-90.71009702227386,43.35296128216354,-4.428960493225604,-15.306967816757743,15.404600676236578,-0.14247773746862563,-22.260645408744008,-4.514495546248354,-7.111485504264511,-67.80710056855794,4.152393077742431,22.046560488895977,38.391261433819196,27.310025215160042,3.064080830468572,1.7074553684047344,1.8816173560287213,1.7446170479380747,-0.3271923151880406,-0.9409880914655621,-3.429668646570067,3.176273964293822,-1.1256337137784045,-2.2504972568359656,0.7746251587707166,2.139535631302021,2.3916831169986477,0.3885670681876226,-0.30768998828810357,-0.15113024053090024,0.22808853937415052,0.5154158156689085,0.20199239270616284
2.1749209065928934,7.532156004256553,-3.362523754384421,6.385434995228606,27.188297552438016,-5.677799352689916,50.836539545569046,-11.898888481591658,6.416649653289706,-102.3379590061319,55.65601453969284,-2.135115189554974,-9.47191089924266,9.34917170952567,-0.189596877803173,-24.474804706830376,-4.362837341953814,-6.212406597586654,-56.35966636774687,-17.79131345230784,24.832519191122493,63.556708761333255,3.6548243904151754,-26.093487838433152,2.7338558649407934,1.4527369062705788,-3.4150532446090898,-1.0260408472445355,-3.668127708053591,-12.102168589531265,2.8944398989288223,0.2936874905983941,-3.8648030756520773,0.8661044308959732,-0.1050710371623402,-3.606137980729633,0.5256746259621018,-0.04688916903008761,-0.5921979872443139,0.21286257416453455,0.23577173821873776,-0.8205274829167641
-1.778417070945432,4.914139563145064,-1.8629387204817227,4.752351933089601,32.46251284319535,-4.771338284313024,49.412210592563504,-37.11016788405478,12.585673168425034,-88.39061898685033,52.029209732926304,-2.8447545332915247,-4.3651315892049585,4.354075671276913,-0.00046262425149675573,-27.22992211825235,-4.486867391490695,-4.948599886052607,-35.463682592294774,-64.3462662360374,21.76344591097646,91.72297282631098,47.93962461027759,-53.195862492381394,3.546284259250667,5.502733167006204,-13.270326330992152,-1.5938169905245652,-8.668222169779742,-21.0387433381707,-0.37145890324043457,2.2939314945891,-4.263088911558298,0.7965859843628524,-2.983084777633625,-7.755759181743167,-0.32941596408115,0.38742455800192116,-0.4167502971398363,0.08553907656092713,-0.3179220805660875,-1.6374786892467295
-6.555421418495396,6.313095036290556,-3.10681422486511,1.58423530334571,35.03353109330268,-4.627926107602771,65.6044445660188,-15.508559070933659,20.381814070704813,-114.56100037568692,67.32415609656319,-0.09829113532075065,0.03378659513173264,-0.07909527350095376,0.08145684187930174,-29.66315544072416,-5.293501478219811,-4.044759861620277,-50.71265086019137,-17.478007629052936,47.08679981511798,98.35591719443914,56.481420942073214,-19.383008373005897,1.067260855465704,2.299922463682162,-2.0010239365108933,-3.0759050350841326,-3.061323192651013,-11.647965256607897,0.8446361790628274,0.44324635188638695,-1.261248595653721,0.6561670109051796,0.693562213709066,0.5465496475892991,-0.06738422537170805,0.0537948814864232,0.029665975674667746,0.3460904020331879,0.2774554386493397,0.02019861675716393
-8.948244794178475,7.597804109089708,-4.703879806890759,0.5778645890251365,32.50531977523938,-2.703433925481861,53.58089761898212,8.091634118516023,19.030196801945063,-118.80849693387803,48.71519094017832,-2.2786496742321347,-0.11801867173098285,-0.4717135799310262,-0.16800997292462372,-32.27414153016766,-7.011729959850975,-2.67490962167045,-83.84736234937805,-8.463099115428538,40.63574013067928,69.84096756974309,49.37171825703706,-9.257799325940585,1.678471637011968,-0.3555939080166922,-0.21452651316622373,-4.649356213189693,5.350470892737307,-1.4842094213209722,2.520113632094444,0.7690318364871774,-2.696372847164165,0.06909921048137946,2.542104371793286,2.8058426742922977,0.5051267069961428,0.11100888951891524,-0.4044266238881881,0.3953859021814217,0.6723930836993354,0.21417586967242336
-9.214475086962103,-0.7019910174946953,3.3669229248743884,8.04491413608798,41.61531113625285,0.3190106154371535,42.30996851917167,-25.49656350146311,19.080134908244183,-51.01400701281949,64.2937663055929,10.213399763014605,0.4364367000028012,-1.4248702519672405,0.6464015240041592,-35.08121588438239,-9.268564619507279,-0.5616133091373233,3.6413574565482483,-26.132022790538116,27.84032480007685,19.573786728474904,3.387129621602212,-73.18418764427555,4.611406128712897,3.6862101135956227,-16.416486767446095,-5.351103458146309,-9.542573841685648,-17.98944202618456,-1.0622316763797952,1.4237389997437502,-1.8162243602075736,-1.3390501038046734,-2.7695528866123222,-3.311492686463419,-0.052600030654379265,0.2822031834625602,-0.3687186782546249,-0.08866399372922376,-0.39634540366506654,-0.7175791177471675
-13.686815230940857,-6.107694083374703,11.121078786546324,1.2328386302919407,37.65052601300187,0.09221488910188,18.981906993981436,-68.75218308689959,7.4189503608242,-103.34257070983136,53.52498201173914,1.5885165994749477,0.845505029142618,-2.5981416773015034,1.2377059939811048,-38.303134309076725,-10.855692027025595,0.1070915386798455,-89.5953378721088,-109.22011395364363,6.191023547858998,40.25005843299527,33.97108924965288,-58.33951792205077,3.811346851358966,4.027766238662547,-16.02541788407768,-1.3648322907654635,-4.906378143868435,-6.820802145732837,-1.428049352416054,2.120193877035174,-2.3588283539548898,0.3947815137006868,0.6771216789431014,1.6653875740512245,-0.13959654764632193,0.3163922909387111,-0.24896708682775334,0.2225443817007886,0.13651997123588094,0.4759969774454416
-7.841440342291815,-5.734311706543031,8.605939397670758,3.363084389587966,31.939431470034283,2.1888875524320794,44.5510317623762,-38.051478117647925,27.634361380789425,-103.97609421654744,39.48705501773213,-1.0622183565275165,0.5173186638778121,-2.4576181356561317,0.9352933259801477,-42.27309091608103,-11.662980385871597,1.4247157342614942,-56.145141991760376,-72.03676517938497,39.248285571129415,68.68245509069621,53.064480228852084,-44.07043425189917,2.786808652488998,5.147792933776346,-10.076367162921178,-5.61920608943695,-1.7138708380524232,-8.199428289136145,0.17758505103978184,1.7200403991294102,-2.160969616099828,-0.7243198014157163,1.1709790068330947,1.5981663991661426,0.06850160418640666,0.39470523133952784,-0.386868114081509,0.16867195428163956,0.3379209109420891,0.4859972767100986
3.7664507557375435,-0.32298814202037507,-1.6402650680004345,12.313974755571081,30.743336963338685,5.601131387361724,118.46038521923744,2.8751765919119827,66.57340562019361,-59.64244604763637,38.11588562188615,8.781965533654732,0.8886238419434275,-1.1043739297047919,0.37502515055699204,-46.067601857912635,-13.871920682775565,2.6751237479821377,91.02899507381325,-20.422977374528585,105.9151732593379,56.385680267520335,21.16674579431929,-35.68882337839782,1.0697981302155255,5.005460580689744,-4.737346081298827,-7.313875046465639,-3.810785949252347,-8.678315768837964,0.15569826313590418,-0.6439858914246833,0.28154328394956185,-3.1066821461106997,1.1481129645178156,0.6420005320503264,0.030234205581168454,-0.01624051435535071,-0.17251837248741128,-0.6256570778740566,0.24274134946229886,0.156975105337551
0.2655984795321251,1.6650979496838845,-3.0663293158983347,10.05437629820789,26.165280393945256,6.942431950359296,52.64513104521962,-2.1774110889771037,23.357312909976315,-70.23951453610904,16.161360766457353,4.723636195983689,2.3072103862801043,-0.9673636451957687,1.1855968153862393,-50.00293885312841,-17.371707744556613,3.3712477763524946,-15.545708951869631,-68.58389518109132,19.04330370376645,9.407704473285715,85.78730976316659,-40.26441817839789,1.7475207429491744,5.497093659392336,-10.59607240806009,-0.9551487016648098,-6.677202367933715,-2.796359971820617,-1.3219388373425094,0.5428860731519207,-0.713723925541666,-0.3303365895843077,0.9341785346757676,1.5270908159413523,-0.29533479900290505,-0.035816033025566844,0.011079294241866114,-0.04365515350681349,0.09974792886671732,0.31591391868379276
-2.0892222075040037,2.1374701752906367,-3.346308749511404,12.085165463904657,28.73154714345501,7.589978786233416,39.95383779601969,-10.529730688146056,11.932994683706099,-57.98075507975743,28.352008823000943,5.385542347307699,3.129642978398753,-0.2042422864998287,1.7516803443525055,-52.18473003488768,-20.658259508110543,4.244722314215117,-2.871846673666342,-52.84642886488207,9.680083022234179,-7.036898994917214,62.144338266975296,-37.82779896504606,2.8479863178692364,6.1697919326230615,-13.693443267373228,-1.1373900801654606,-5.681998274825928,-1.3378649182443703,-1.701855939188649,1.441849592111707,-0.6117449797902476,-0.7550679444032911,0.705026592515891,1.42917781279182,-0.3232428695062968,0.3039240861687258,-0.024968282376116605,-0.1359722973296476,0.103780087555097,0.5164000548432145
5.580614485477353,-1.607124409413731,5.175343333565233,18.26765769600644,27.89599103833876,9.920712941131917,43.27489012595482,-19.642202287970655,9.975868724086899,-27.92881874061456,28.59553147300262,9.943842696005783,2.674375887100051,0.36578758400787403,1.9793531576174976,-53.500469581425236,-22.906440732318117,5.158433141366021,32.22573546698739,-35.756488064233764,3.5492604031783155,39.75451537885439,50.84309765972824,-28.771040709618795,1.1866522862025555,7.586529701426892,-7.106337606064496,-3.3779507155454276,-5.254784877325667,-4.426126492164584,-0.4247020513307769,0.8151914993983763,-0.43589441146897456,-0.9398722839373345,0.6079795998262086,0.628794996850395,-0.11113332676827847,0.30672444948510774,-0.15788835025833367,-0.24506484541682466,0.15378935072191557,0.306989533805336
2.1893720536008927,3.2442966722807767,-3.978795356163363,24.36995820024765,23.602500126044493,12.318611598028788,54.5866380342035,-4.749313315841481,56.14715527106181,-27.41492381248235,12.903468557884006,10.781592226811178,1.5459479423535685,-0.39602336002019567,0.8731983843553456,-53.853747524668584,-24.122285344165935,5.8540221064183635,28.168170594661444,-27.13638703107632,48.53198060892981,15.748675817740828,22.009828970442175,-19.622826874107105,0.8388578229288359,3.9865690901595237,-4.381928765068665,-1.890704725839216,-5.44782359400514,-2.7939701208134013,-0.5990208288867723,-0.4744237651691439,0.7800506588491609,-0.026647378839541037,0.9329336697426998,1.319986938199015,-0.11385526578310064,-0.09221948357475145,0.12412138738133247,-0.1899836668314006,0.3494369859266019,0.47006960683950766
0.08668214184818888,7.360061667946906,-6.792361026930028,29.06786436093304,26.13605106394376,12.981388383515165,56.80724330067436,-6.042862263533407,44.98883147176801,-18.968953409757486,15.603652197410579,11.330287257480775,2.0360403803220852,-0.11566373171732021,1.6757198696223703,-52.0508483483773,-24.457274429811907,6.407397775214118,57.98787615192987,-41.5344719647349,45.33809789669848,-45.87432133468548,10.962726829044545,-7.93845269198664,2.587420066499628,3.1494534192409542,-5.928455036811434,6.572764567089056,-3.638082291829364,7.9434097704324325,0.4468989514825897,-0.021114499967841267,0.06600895924889673,2.6531182048703323,0.38045463790318956,2.775865143480671,0.1403399219868816,-0.06910561746129049,0.08802740432246826,0.3133959781646279,0.07342221474895406,0.4061663930314239
-3.6828589987285314,2.995430417665886,-4.731690582000775,33.77857646797388,24.95988499295169,13.97496081588412,27.109798987044122,7.681510170394794,-74.99371057504092,6.478305389000833,5.4800989806547955,11.263394804631156,1.0723982207051297,0.7516569322878673,1.245200936368452,-48.18507828762523,-23.8438284943651,6.552669019066875,64.79001368183715,-51.523034558398614,-110.78501723723026,53.861774751956304,6.182164269745061,-5.762359009736336,3.34888607458429,7.990453939200982,-0.03656287352414198,0.3006747357504012,-7.27136920663016,0.5395511098563391,3.045238682812764,-1.5926257589236315,-0.07233089874074351,0.9302735677409887,-0.5604799616185986,0.7302837460613598,0.4686979739935381,-0.19618499743902085,-0.10086742629561526,0.1931972230788727,-0.10841989719515263,0.18965282790165658
-8.606127613367669,3.1551767368565407,-10.274916455120891,41.523048119295744,19.794387295240526,15.515632140906392,20.998072571414948,0.6363767558584121,-5.1744179183446475,19.720553357974445,-5.17063156344077,5.808590125899176,-0.48816579167340773,0.13005000376558776,-0.9368226735313511,-42.3582145985572,-22.253576643773847,7.25363894573045,41.33720871247338,-21.998380527422036,-18.180453783773306,35.24851497663643,-14.209286464937701,-15.2224409650942,2.466783161839536,7.292492599081176,-7.113629990839367,-3.561263838988243,-9.205047672413027,-4.302581673906981,-0.7719362007689913,-1.103612885650324,0.5602060474475933,-0.26266349520911014,-1.1105470660942187,-0.3400002841068489,-0.4083202150618398,-0.1353359861068443,0.015435929215759916,-0.144096733719375,0.037171521220036356,0.06595696215647977
4.126349064577541,4.217637043778625,6.865698097601739,50.164609305694555,29.14478651049714,16.540477581340063,-5.4163267243369315,-16.517191284428286,70.64650595784991,43.862728525082495,15.816334123451128,11.038856300629075,0.4634833186144953,-0.7260068845802207,1.385850507553289,-36.84569738708884,-20.139211848512797,8.822675746421007,11.731132226950876,8.426323709459917,92.00468332959137,-78.75880682587267,117.392719375349,-22.00142483971567,1.9040105434373644,2.154150471151076,-10.680211364264517,7.99548130514332,-12.245426620913989,7.965243826651869,-1.3583318030942324,1.6160358317381658,-0.6946090936286594,3.6180647712669534,-2.136301523658101,2.322369735074137,-0.21457467325436794,0.16658047903802314,0.05505383640892692,0.48799975466886597,-0.08730022608459245,0.24965896820975528
4.809355759991715,-4.219978274855267,5.078261954350633,55.42567943248466,21.703116875272073,17.717606992819324,16.02201182815274,-26.425194179041934,53.79520375967838,59.50639926167324,-8.93395558888071,16.657004298250413,1.9215271806504284,-2.1026703516083716,2.473144456509079,-30.802236855475172,-19.41877683412792,7.887188823396943,69.5722042468019,-69.04045739753329,66.81340122838797,7.906360105955427,-17.242239405331294,29.676703407242396,2.394044459189483,2.6265480853102705,3.0387018007806046,8.352380798010262,-5.331828532269717,9.571284759498461,2.2324622112961774,-1.7221945891208466,0.750396056059231,4.744111421080572,-0.40408503759043346,3.8911444228287717,0.36587890180181487,-0.318163200437362,0.1775570514935213,0.9879798543197391,-0.1789763098349769,0.6192232684792975
-33.12145086278947,12.827535640982278,-46.081782198971496,62.80859150704735,20.147323746477298,17.009483697324953,11.85386322488135,12.026375067072063,-35.105027664080495,62.25614699258369,2.2751679888972376,12.980748843042091,0.06859297214058031,0.7205862432555223,-5.730042676153591,-24.877774937003284,-17.975240246934668,7.688380122678591,44.292515922461426,-5.586568433699713,-84.36849412003247,61.431172538735545,-79.6777923225188,36.57957699710947,2.8367701116277635,6.536129137468896,0.512937543381556,9.087639454039659,-8.946203673213416,12.70761578500863,0.7161880689802929,-1.7845226853099903,1.1906922602902894,4.0934741348033254,-1.783385282118392,3.7359328833106398,-0.06415371878409995,-0.2484787648815888,0.20072961630284766,0.6072103149120598,-0.29551617262666713,0.5356225609125693
-83.72645001779871,39.77473695012986,-89.01173820891839,70.32038325161375,18.7943543063947,17.949419609665938,-73.50596439605731,35.84554584110207,-96.32836579610509,89.81642036314324,12.356686395983852,13.502001415493554,-7.7222715129925685,4.579271085642287,-11.625025970023978,-19.65887318305671,-15.863682487635339,8.440039722987425,-12.348241207226588,51.18615941773736,-132.15073056571205,-28.032988507923417,-24.50739373530895,-13.297188199515457,2.5665544397918296,4.842609705966128,-5.514568201613686,2.9890314967274527,-13.007732247195344,5.521007610745963,-0.2405997535024581,0.3297976248501005,-0.7131689570704188,1.5181731509846907,-2.418178701307484,1.5213638197861914,-0.19376149617085434,-0.010990657432040836,0.0044250367018635,0.059697234695876615,-0.14539336446296672,0.12922682369691096
-138.03799997630964,66.2853558434338,-123.01762169176449,77.33339096850395,16.33952691061719,20.455216657239472,-240.43000700416002,146.1307165188012,-255.41688226839426,104.31569988000238,-2.303143917703975,18.630453952852324,-13.24897899522769,5.6048313000622825,-9.789788824546134,-16.51753261363881,-14.362191079751351,9.35563603127845,-172.35748085962098,155.86611400091675,-287.93872841320456,-64.02730831750745,-5.8764296926879815,3.9833694731305718,5.136288089518582,6.0960036337198265,-1.5565528096003964,2.846207373102109,-9.520051614589933,5.5815101674755585,2.303596562837606,-0.51280734452686,-0.8944584349208917,1.5873213803132853,-1.479272434858397,1.5764639601345034,0.2673920661568662,0.06242565968022675,-0.13236112357247942,0.15495819936012228,-0.07542716064676905,0.16788390697983047
-86.95086038562091,47.94590218698241,-104.28601024648727,74.82562694736079,17.17197866427284,19.832008514470346,-138.1503729274544,141.30517516504787,-232.21186143823414,85.9326160472158,3.0759478685053065,19.623571865283893,-8.600501350686002,7.288583969061577,-9.324638341320258,-14.25717438661792,-13.222141366201614,9.810708956902047,-84.40666568501388,151.70484787931704,-269.4817238764095,47.21423408634339,90.97904989084302,38.92090361474287,3.3792385648211902,3.432466466929892,5.698770961097563,3.0441326685886674,-12.62685714966502,8.580263914383904,2.724284629692697,-2.034841503423266,0.3137325043376427,2.4011418169137273,-2.6198116102072513,2.4598540565564013,0.2862592699451514,-0.30983041283030177,0.18298261331999224,0.33458118346786697,-0.3187121611400708,0.37551589327638646
-25.91142437802118,17.917454520370942,2.1111542104705823,76.26076104826868,13.859939008316143,18.930033042960076,-67.5884816632408,-1.810778705647608,46.76772598711318,91.567419222457,3.4403298402255618,9.15947502411681,-4.0951674898685475,4.706361778139998,-2.104678284482806,-12.48019564084983,-12.516781166352775,9.517294787107891,16.141124459866788,1.2390453876382101,79.43290737990995,51.83148913411981,88.7573000390935,11.421437242299886,3.09792488798715,2.9220466328481898,4.184432708170276,-0.05942511439692369,-16.02018719372058,5.7812587946243035,2.912288039616846,-1.6873955608042763,-1.6131896215645019,1.6933548184152898,-4.542843925661732,2.4075978743328115,0.30077896824711964,-0.4644875237975708,-0.12422270684754165,0.2602601046610866,-0.733619947405042,0.5402454844861382
-36.41990993766205,22.810682265928882,9.731320354751066,72.16992624363475,11.334502965688431,19.538666870514703,-84.58188974566038,25.006713060104676,10.773055925067734,88.13106523391865,-27.41031311800232,9.673063374152273,-3.775992871150737,2.245070233161446,3.998498040465836,-12.74852165211608,-12.402236483591059,9.648081296291224,-0.45854441283898334,-30.316171592661455,10.793303819228155,-23.56506495117618,-42.96196637005449,-16.211826526052256,5.514347125354911,6.237776010917357,-1.5026188086992447,3.4041285390491014,-7.4439569640788505,6.58674999359631,2.2050036071259362,-0.5033138816461445,-1.7409711217609158,2.1869801035129375,-1.8595056956696119,2.3104443178434844,0.31826905646526643,0.038944071396797765,-0.4345587579052959,0.25169406428928165,-0.28391022252928794,0.333848895752512
-44.71893517601645,30.78136644328233,-1.0841018285755624,70.59783396156809,11.997953729013101,18.546854231225275,-69.22896839170974,53.021744882528246,-37.024480983953026,89.10709323991549,-16.111656375785927,12.840274894924372,-6.548288067818975,3.702744106772863,1.7248215760893735,-13.701067336518001,-12.369016015282796,9.049603269187136,24.41614362638132,9.421965405194278,-53.605343736542416,11.718983115180288,-91.99562856295687,14.444428371931659,4.737451913867833,4.249221548491643,3.111420695073544,3.1236826974355547,-8.316650892422736,7.257841775248293,2.0682382139217146,-2.1482492222264495,0.5288951985142436,2.2892507739711037,-1.2506044200641275,2.5448229324298133,0.24601368990134495,-0.16858055896049196,-0.07092839947509082,0.4405811066689699,0.11576950689730202,0.4548859936843226
-24.47287981112201,24.319990347952018,14.39081596189089,65.64633044059137,7.0400814098292015,17.35364960167052,-34.59027239191979,4.700730050301022,36.13745255694095,70.09444106630687,-20.588365820636973,13.46410478774815,-4.4862964432986185,1.4324861555254935,-0.13128733387113822,-15.412468766856687,-12.19585325315506,8.069727686245349,29.693910376286087,-30.121429865564213,42.20352364078328,45.797608621446344,-7.474435182543658,22.11014212228584,4.250682972822104,3.9693857908917547,6.962134163305585,2.5126013085392707,-10.137670584481494,7.15949630030746,1.8707028052035537,-3.346374904378104,1.8695782577036064,2.436626129180138,-2.037765207810537,2.8859169205820896,0.1517207242140929,-0.5574910098505876,0.33643074771940834,0.4659811857891729,0.020004761883128254,0.5253740631183246
13.47181496208069,-4.850715501932845,6.182709402748335,56.77649498604406,2.991861849408695,15.385702565671254,-19.984454512504627,-6.251863252631609,5.899142142632003,42.08553542616941,-24.80160268632019,12.845794407383279,6.73442005494085,-2.2155504273540694,-0.2492491244817645,-18.357267400527352,-13.047276502023333,7.0714553079702,3.9814219054201,-48.43598197536001,9.359976971392307,98.05996085113514,27.97804340858879,5.104843401790418,4.878378054547879,5.797648863867649,5.203402080180399,1.1294102839608582,-9.27938604379632,6.066632351177163,1.9728469956197632,-2.2014577264669875,0.48881517579093614,1.9962470024289356,-2.3810689540318632,2.1423411206226284,0.1030014540510308,-0.42620340093323317,0.264554336185092,0.2860008564266667,-0.22204197860110497,0.2801185393633014
0.5300526760669158,-12.699353307616624,-19.72235935478159,55.92532552700375,0.07118340357641595,13.532246836421455,-29.396399334215857,24.71239424321491,-64.53213131868128,39.53737857402018,-22.33927975981792,8.708752552373314,1.629499600021139,-0.21525726630783457,-3.5648253741045925,-21.125465515993877,-14.641787962302592,5.581480918874736,-4.767226035118334,-19.52280102791748,-67.9820586325952,39.89106042800219,12.868850324815124,17.96454301999522,5.806679596876331,7.077503386875778,6.913245228344153,3.4173517830649174,-6.004557668756673,8.744585780293319,4.25411252408696,-1.5846146901468077,-2.0760516095603263,2.255934265710575,-1.4189784787536888,2.6621269957881486,0.6437468634706407,-0.009853077808441663,-0.5464368975014102,0.2680308908105945,-0.10795213402307649,0.4183643303961863
-21.052719680748858,7.110930728042858,-13.677501447642161,51.61933372108213,-2.1512301568912333,12.02690071358451,-46.733033494407174,32.826622665623084,-49.67956596511905,34.88413694399243,-22.638870810225725,9.486328007598752,-3.6912888753540694,1.5793955644707174,-1.0312732902961774,-22.98224199611308,-15.974844138217506,4.235127336031042,-27.438418875027,-1.2171269329193433,-54.15103893600803,53.80060200811167,-1.1515193320724735,37.42359829968404,3.9228130405074566,6.685339398457912,6.676584567454856,-0.5284332005335555,-6.52275934748013,3.919424820081191,3.3091938422955423,-0.8871169124699723,-2.155126629253642,1.2810413391165643,-1.4861353222637401,1.565418486015775,0.3758528153677291,0.05213071881114767,-0.4186579239383544,0.28929220388507476,-0.22913250830897658,0.3840987891910996
-26.734147292973777,6.290652258095596,-16.366595630125623,45.787392187896245,-1.4397532774842836,10.645257539134084,-55.24299887317963,5.821799331630274,-26.154661249576492,42.072460725442895,-11.843695083796224,8.09377236983944,-2.4424523005170906,0.1389171233066275,-0.31192723917510373,-26.689387045315403,-17.934893747140705,3.923030150559896,-21.031946555786796,-5.5142794851588866,-25.45679733203819,36.73614809845056,-6.082606398107699,15.886447465228255,2.839270883337509,2.702943079711345,2.361764681292621,2.573666238665875,-6.9687692115687785,5.822580337694452,0.9201507380225091,-1.6029978019733093,0.7137472823175788,3.0282359117573265,-1.8882892295801665,2.3333691011331283,-0.11345276349690485,-0.36591029431148037,0.33570727346235824,0.5522267676766177,-0.44655025363514267,0.35390091641481003
-14.381085120924073,4.410608506278592,-7.290696858545064,43.107931224103744,-8.297134237876111,10.624576816772404,-25.717853633513034,-10.400425276858478,26.851974081956286,45.069514450015845,-23.897118890915227,3.119993902364962,-0.9013749244232774,-0.08631738708650932,0.2980702032831921,-30.650416723541316,-20.0779731113256,3.239549776935173,8.614788250257561,-22.222496064026135,28.788524740998746,1.413350899778877,-3.3007131149364755,20.96100763215658,4.826347685313449,4.65674446357845,3.524824537730774,6.218248253239784,-7.02391903527881,12.198653667607605,2.6875139316011616,-1.973279225614427,-0.7348428469720552,3.526856785080527,-2.188586692550888,3.637361008662398,0.13518207775584914,-0.2278058096536647,-0.06042532458082505,0.32363776884249845,-0.3149529212598617,0.44463889027421577
-5.798495520234235,0.6615985887960547,-4.783811849379116,37.97389868459383,-10.1496026640797,10.395697361393356,22.98797570837812,4.170541265705699,-3.2282100463976393,30.168541139330777,-35.84008516179274,7.007256826684293,0.6254586672805621,-0.22459343616695554,-0.8157058394824084,-33.920494117906934,-21.993077898891325,2.4936092172009947,63.912881510255595,-52.93729265464456,0.2463618989275682,47.04998035782544,5.472980130602192,27.529989333670468,3.1633618313230594,7.313137465051492,7.484034933928963,2.855925415716847,-7.0807401483248205,8.46444168858083,3.114627720488575,-0.8749021240453213,-1.8255904219309844,2.2577813422436206,-1.922130683344319,2.4802358035081373,0.36573845970491115,0.03602699121568105,-0.28868815349815896,0.33719282024059544,-0.23671893037330108,0.4691612359530379
-16.59902666176366,-7.077746799567842,-10.172882963980184,37.267450734600594,-4.814103833743807,9.688665888993796,-4.844387482614246,-2.5072224409760935,-37.36040656644179,26.31387935907438,-15.880592961677456,10.888665294931382,-0.6638832139807211,-1.0299098720257789,-2.0948514511454257,-37.0237303830085,-23.83445218191905,2.5202272171966844,26.96007533373633,-42.64249704002687,-43.060138457638985,30.09610562215146,55.76863475486205,3.2637060502515336,7.5773256868996635,6.903460014473962,2.9855018017468162,-0.20530168548123565,-9.122763338251335,4.49004261182559,2.4320619405360326,-3.3673225715585895,1.627715681796977,1.299505718809225,-2.5792329482663328,0.6846866833557241,0.3492739237947232,-0.46967345409711814,0.15764680454368568,0.1391104736898481,-0.4159898505315124,0.01828973338310444
-22.098481499086216,0.7639814796809747,-9.144869179195785,30.024724821087446,-4.310633893812885,9.093625731475365,-41.50428443978473,-5.605062513361061,1.26574369325972,17.933973325039492,-7.684684999936884,8.14359958712355,-1.8820617336182082,0.16065024554838173,-0.22449531418763885,-40.87619833886118,-25.71341259919541,3.0025279748707803,-34.595503730421896,-21.924899814924647,-16.401684462542708,16.12921885776997,74.32484555190129,20.81168593451961,2.747315373824396,3.671625774297854,5.731902410001752,4.302680145624842,-4.452530408369134,9.045094463337588,1.559860975429849,-2.9219842962231786,1.1899697294633118,1.6839650195953217,-0.8596455218988643,1.3107144516279263,-0.1282612197665407,-0.44932376945485786,0.3343329458043636,0.1479518797898974,0.008106799069055643,0.1063434406320358
-14.331268184492691,-10.566807772204488,-0.33884967964591894,26.7552481054382,1.305641227239541,9.006332921462048,2.8272610758814665,-12.986632870793239,-12.248509097373693,31.732852181403633,1.573691759148351,7.603956346760015,0.18900269022380362,-0.606389918769798,1.049221103432377,-45.233716044724076,-26.693891356335218,3.4515206136689027,53.29339787794153,-35.67199176535062,-33.15302221310903,29.954568527177916,4.089820264230023,25.51918324881568,1.667035393481395,4.007731318281141,6.965718763557426,4.370325263744068,-4.780565120386165,8.39730757123037,3.426547382110975,-2.0617559987965532,-1.6202070176650094,2.3488009898885736,-1.412350181681025,2.071369899947565,0.2973157123550694,-0.25490740361910796,-0.22784560495876008,0.32451905344404736,-0.23536104628000976,0.3403030537974797
-12.842471264277568,3.8851027505130453,-6.024939877450286,22.499494488206658,7.475854291102491,8.752827366337927,14.702226469812679,7.779680048557317,24.01133136215646,21.669841988745443,6.994825264434732,6.698344046311139,0.7168989318049251,-0.25862368167412725,0.07932942266496931,-50.111721228880256,-27.11570943825234,3.7766716413485475,55.4558275271747,-17.737078407450543,0.12081569229965891,13.401426075946027,32.55757973660868,-10.27063812148323,6.952661504859403,8.192066554432301,2.4519252139352843,2.624321539796778,-1.9025682917325801,5.463417030510524,3.589591041987948,-2.9237609504792808,0.5266429578649252,1.5596518289938606,0.3377944147590775,1.5004976217429928,0.4863412342410083,-0.36456924338726865,0.03164471303150445,0.11696638601393611,0.10485323598931046,0.10634534311842575
-26.616125669561292,-5.018109030042959,-3.4009347090990407,14.651383366943199,6.925427549305671,9.237941909324206,6.219164314893735,-12.20915541730198,6.12739232344007,-3.918952905974722,-15.484599218489969,5.071264014633528,-0.03642187454184356,-0.9777718599787358,0.4783413761673069,-55.0997880215756,-27.421422026296117,3.992742300770763,9.511540643534811,-90.69724249014297,-17.09616258386461,1.6444169217743767,52.077766522565675,12.490095044561125,3.1041485203127666,4.351388512496136,0.24707601219615194,3.4689674154747983,0.8162662108981039,4.808665435267807,0.8711848159661514,-1.699265673075221,0.8499500233311665,0.8758052080600879,0.7519496934731216,0.7772689553044618,-0.034540953973485784,-0.3615664206773551,0.2585012913229133,0.14233420216097298,0.11828800822730852,0.03429672692963053
-26.47826074749971,-6.683431220360458,-0.8601707362401768,11.09763669432807,14.421442319050312,9.58756938393578,-12.508715461422971,-26.226225579799692,-28.8700078878837,-4.0470068571270374,-9.57548278663247,9.873707865602336,-0.07339463849109515,-1.0212722008910347,0.16467384615723502,-60.83205001809734,-28.259806821883288,4.32709554702993,-7.027865981024309,-108.34244882109022,-55.05884861478628,3.4910283099310933,1.3080629570543456,40.419593361969476,1.9855672399926856,4.717817101157385,2.6422343483983664,7.186639191591045,-1.0875926621745375,9.934493117771908,1.7369535925031006,-1.7050231470001171,-0.1145611146625119,2.616553275527382,0.06448168318962141,2.5066704540117204,0.05641535077842834,-0.30138415073127117,0.04750022417197476,0.25971737329013367,0.03655889430552644,0.25087936434048064
-6.562458121359572,1.531889219068457,-3.8655941105406884,9.516480065831999,28.46779306167605,7.10929848667421,46.80852627711174,8.410765050899593,13.768939763059736,-9.521006148293822,31.905197384082417,8.006567916084347,1.5867896029187296,-1.1795545906778924,-0.19943178611129145,-65.25857479223457,-30.142413553365945,4.257539772085323,67.88238265423689,-36.50714501306545,11.943320264934968,20.601863595908995,50.01020592144541,5.309961133922204,7.1910411571595905,10.066524208982258,3.9630640154131243,1.189809122432502,-4.917321756958932,3.4532917145130435,6.670939698086686,-3.8024113807753803,-0.9819700956515487,1.0458798613398175,-0.9001127541162692,0.8225962048884652,0.7040693284159117,-0.5241784838195229,-0.06058288925423021,0.058999730826834365,-0.08942808671362325,0.1558220996537138
-1.9711739780836481,-0.38171266845047647,-0.3330963760706066,7.342732119438479,37.0138430538799,4.431952960171529,67.97060880991003,21.5594181549911,32.7316056724737,-28.07680998837088,65.67766288988057,6.451974604562441,1.788109009281811,-0.9489530563732862,0.4901641759345481,-69.29516972904929,-32.16703216691907,3.6425297715917195,63.95670382450128,22.061002946335144,41.36998556682693,-0.054909483836977246,73.77416474657691,-8.688529240784892,4.70763389257327,7.180474279591255,0.40252166468843587,1.6487475067340327,3.4106107023149783,3.1047863363086097,3.746318944431499,-1.9628825023260135,0.016093193367481082,-0.35785053710902437,1.4113784063357955,1.1190876313120897,0.51079574191815,-0.26093469349942333,0.0150236183025805,-0.15294102666580212,0.2067550814053018,0.14940493096338928
-6.651869501454388,1.3460936817887867,-2.2139074242721732,8.07648035132476,33.536914534720395,4.758448731783995,35.238934202489965,4.493213812142965,10.687793735754239,-38.715430348455584,36.776282869104385,3.2776822787864774,1.2307337652669235,-0.010931366024975379,0.26317128170568926,-73.48069989073433,-32.67032513440103,2.7023685095482537,0.8965896511001767,-29.803523904135023,-0.033426622956026567,24.556393430870568,12.784326884720178,-9.304929191940925,2.514050915366002,4.0306366687950455,-6.637625507450179,4.5388093658801445,4.39903490605839,5.725373531509304,0.21554153578893778,0.995800553820305,-1.4235431616268834,1.2078870656063037,1.5642584777372968,2.3710787708173666,0.08135932839108206,0.2182031293035695,-0.2375624467155473,0.20141338210142704,0.2026289364209583,0.31992876522771635
0.5473884516667327,-3.789164094795763,4.051746532736999,5.609332169434907,33.76193036647617,4.453494752939271,69.88809469585948,-40.989592751472394,8.723563368389284,-52.032246926852046,18.439543149365814,2.376128998022801,2.6102129231301463,-0.0592357893106298,0.6969495847158024,-76.02031681189695,-32.13784887497559,2.1657641413792064,32.47364546187576,-124.84224734394896,14.23633975340394,6.461333857919813,32.45968548711177,-22.902597207003556,3.38982973868665,3.430002665130289,-7.385845962344084,0.6199781474906563,-0.6327460115756447,0.6225209805482201,0.724200086414525,-0.0015981955427641697,-1.096340351779123,0.7358425177252342,0.13270596420073136,0.5545569323736619,-0.07428074286938921,-0.11289062039895156,0.048176628186756276,0.05664757506281015,0.06362515268307099,0.026690934510517732
11.85416555610554,4.431653222040161,-2.368247152093784,2.7859518423953937,37.92145012854584,3.2221466718720593,91.72144188030768,1.3033093361593893,13.63813167363825,-68.79871609320641,37.152572962831854,5.568803651277664,3.2908173428230034,0.6070907957583865,0.6906351119266614,-77.24133487965159,-31.747804718066124,2.2182582061846463,35.516032797687814,-47.98766917615621,43.84976503681777,9.72112923232907,26.491075349530988,-5.134015223681297,0.6458879463695596,1.6539981708706306,-2.2118584643117356,-4.225730245492014,-3.8619105694327955,-5.792403284984123,0.19846963692383682,0.24664939484288262,-0.6782780120515598,-0.47787324016647775,-1.1161514074565875,-1.5986846796315572,-0.07663018906643171,-0.0038449227683916088,0.02148141597313166,-0.23654942683792757,-0.1453925345398842,-0.3776657994712485
10.163191382052643,3.9769375838481538,-3.4989773572780116,1.7583228759559912,39.3776188847947,1.9413373929450708,86.88138903035959,-10.0009727685214,2.784221606537922,-85.89371642406348,46.279735137123126,6.166075529365377,2.3877427420802677,0.3605721125670654,0.009851701030996259,-76.1973364497154,-30.97381164515533,1.636196861174102,9.078944858822144,-41.921230933385765,29.275038043220608,49.581324496562424,4.607977573104572,-20.540398679838532,0.5726308891961117,3.79240551018109,-2.6983254189227943,-6.633407055560591,-1.1783905876266074,-7.538141137558861,0.49356154748464875,0.1651104537296506,-1.103302289494405,-0.23856090801759292,-0.4637248000739942,-0.8258457701612708,-0.1707819487640546,0.00457375353384597,-0.05976503145406288,0.08320063514883036,-0.24529719225209062,-0.26542531321111085
2.2237942891629383,-3.3285503478671097,0.22011654257051874,-1.287619885032847,49.28528877087471,-1.7017760527684025,72.02655874202678,-20.235001674328153,6.306716176246291,-76.15043330354598,70.87818394057044,1.3668914503009328,2.0746170980106147,-1.271183334078858,-0.49068686135798,-73.1331356156498,-29.22234055686266,0.946363011580838,12.726740281255234,-36.972838168079015,18.46611480184676,18.083167269507545,23.802979018538352,-53.522491279074245,2.581138156702375,5.270978355993436,-7.061076789603829,-3.8306104273936037,1.7089174299075969,-2.384221728617011,1.0441465113421238,0.3578322193483161,-1.0421878047712267,-0.11690275656425425,0.9022344851726336,0.8362713058060433,0.15564870084673743,0.029844679984455783,-0.08922432792722532,0.07883753368845353,0.11034344653763258,0.12553657877613136
2.7620040628687383,-2.7778634703981124,0.3375168731645083,2.5300912256576304,51.38284597925099,-2.393610257065875,61.97181179174929,3.7609421825870863,7.781145377756159,-59.368746551688496,73.72103189109123,0.02166469946448707,1.8907043685737388,-1.5406592758594053,-0.32695929713081795,-68.0716573325142,-24.08433616890139,0.3036843087272196,14.155030336227167,-12.99601159868717,18.130600208868334,15.954411090480406,47.22952616667741,-41.61786350800557,1.0170449848852583,4.064697151949382,-6.036109997056881,-6.260860408784337,-0.39744968908182526,-4.443504490350817,0.07202315741219312,1.055831509709369,-1.4060260993381168,-1.239759396392593,0.7445264683514357,-0.22647462242582753,0.13984279205186054,0.1386600208600607,-0.09788759002118358,-0.29937299105859566,0.24689242693612595,-0.01104513567600132
-3.4137204697242605,-0.9851769581601016,0.14166686491317046,8.671156288643967,48.89085190116049,-2.4273985382913645,55.63407207415265,-5.038435679840209,9.027539525762387,-83.3542252889486,48.58662659566995,-2.528177327495515,-0.05212395127200162,-0.5328109091289949,-0.22658151312316585,-58.176339175025696,-15.752100497339216,-0.9218628892620736,-27.444297493551044,-40.58428823521684,37.729053495762535,40.16490555764447,22.328526217282242,-21.908327181556,-1.128207141744902,2.8278185968334237,-2.9446783626627164,-13.92634851372184,-5.48366510442062,-12.88922615320193,-0.5396648883103349,1.1588898548931954,-2.4825138496413963,-1.4702999991432475,-1.0021791988656534,-3.063350481934428,-0.2771670377518637,0.15688357959800148,-0.27466553361587764,-0.28824650455469003,-0.09084321702064124,-0.595594435927987
0.9174227704949761,-0.8993598567449232,0.3925774525703113,9.351992662147836,51.98242088972822,-5.809135025957374,43.34097650004465,-8.423567688096451,7.163489116463693,-118.8343632279278,46.866105549808715,-9.230473558884235,0.03913726190995377,-0.2638377750797026,-0.0202410412149317,-44.583229026845686,-6.67408029939142,-3.051603359845269,-90.7264986993047,-44.26343778087297,29.493744658645138,52.70704533883373,32.3450085241955,-52.138152170549354,0.6951173995108932,4.0314468284371205,-8.237047205645487,-14.964939522866148,-6.229283403645489,-12.29917545447068,-0.9234870160601871,0.1140760616908375,-1.1047774577263048,-1.4942671264639236,-1.0876113366207354,-2.919039659373368,-0.2519654205792843,0.03971943330584395,-0.33260085269992823,-0.2076963736591432,-0.11321000674342434,-0.4031212862952589
16.080007475218682,-8.695376530878773,3.032256971771259,18.06266342832579,68.20581804039792,-9.757254671130807,60.681523512817066,-28.157059202918667,9.494078851061554,-82.59324081008988,87.8928654235619,-8.275448110843817,1.2605938689366494,-0.7131299220469526,0.2157959054899101,-27.43804633974059,4.02295804188232,-4.918538971945866,-24.129508847795474,-6.701690203543186,18.42915423940346,28.405148926840027,-20.218932475662953,-51.98632113630617,1.8388667736967632,5.1116950367439244,-8.163501835029848,-9.100110788178172,-1.8834308937829316,-5.714896265482605,0.19867318358147174,-0.006486297026160612,0.3129570192621741,-0.9603788073319852,0.04385335977844528,-0.8778581344061661,-0.007554699053022226,0.06006612122172325,-0.019691572059240006,-0.061694806790306894,0.0648067973382765,-0.02578518385082405
4.969852064326505,-4.484453181250928,1.7803699702323788,33.79145554202567,84.85974523645288,-12.335645494055735,30.99924420389903,-10.545681938954289,5.659908252736806,-51.30608166454066,134.30266111303777,-2.578745098431535,0.7289475677220814,-0.6348994162213895,0.38079873604939085,-8.043567108048887,16.399098892926517,-7.1554929421063935,-27.45539782761822,64.55478757143781,19.858258118177776,46.48566091016148,-46.859027293831474,-9.627455379138059,-0.5428151057176841,4.586125490453046,-2.2911379981283626,-2.284423908769921,-3.6673898042436264,-2.3725139812065263,-0.061016488246043464,-0.13426223836313567,1.4906098413107078,0.3577657957744391,-0.6767573967967572,-0.7741033014696638,-0.1759746203999304,0.08453366113937193,0.132558871473671,0.016380107847403146,-0.1742065037003452,-0.24271719602912387
-9.176227783497817,-7.470990253818413,3.0148489143591113,44.761005440031276,95.32138689866369,-14.992547700717425,-8.202182810336865,-19.978010148992652,7.825635446562437,-43.45568751476681,154.81009892977647,-5.210237778841498,-0.046389456994906264,-0.9219817476307741,0.18772526396508402,11.845935896441926,31.494151834816797,-10.017626903871031,-72.35136994289527,68.76916469077096,15.284482876605725,112.96523068581618,-54.76919799258247,4.832551956022013,-2.4661277510417605,3.5023329564369243,2.3985801086960885,-3.4181354289155275,-3.441593781182322,-2.0862535715647117,0.5536216416694074,0.11020404549760933,-0.6024107146620172,-0.5043918447582164,-0.5521210410751068,-0.6746037684257912,0.08799107212013227,0.14714179651965636,-0.4237027551909852,-0.3035991550498599,-0.05419680646044133,-0.12676300719927927
-4.36580613119798,-11.597739790227129,3.608141075077834,50.142589422173096,106.90151851226268,-18.64552741302325,1.237608016974423,-56.91488507465847,13.555085825590867,-36.237154432924605,155.74035873170828,-13.333441079984748,0.001109390040869517,-0.784835023248026,0.22615614777195525,29.718841353049932,47.80571415126364,-13.445786861951383,-54.53498749419647,12.986093870313645,13.195785746747694,39.391006893919766,-19.469354276634764,-21.294405970569805,0.7232775212096533,5.106791859609278,-2.958081391098444,-6.8917595914449725,-1.9552208898221475,-3.6994061754377983,2.039064727247196,-0.11939316834049295,-0.6761944777041289,-0.9045754627376903,-0.5739923920751121,-1.2270208031311851,0.2788360997312006,-0.042938573508038015,-0.1833100715301436,-0.3280103795375488,-0.03387654005226714,-0.2446926686524437
-2.7048632374912636,-8.838443572786153,2.5190306663311506,60.37899625653106,113.48617229124528,-20.447418987622942,0.7746877017506058,-40.624160886749934,11.106147858837984,-3.6307778356398956,144.58616669144837,-19.45360020436766,0.2509971257176028,-0.9374115540288934,0.04600443415645644,43.57509212110907,62.679484930239674,-16.23134381210597,-21.20323063073072,31.335521890962493,0.0665129685786128,39.88917749256552,-59.57738749707398,-10.532074799310987,0.8265138282095866,9.588346408356308,-2.227298744630008,-8.790766449737417,-4.282040082194127,-4.746401620678883,3.476743623254153,0.39681674560100044,0.7440630951040564,-0.38745930347327334,-0.9287292040757188,-1.5136140707028607,0.39003767105737586,0.10814981657286252,0.13592100958153902,-0.20359300541926034,-0.0827284037417255,-0.2695158389919812
-2.494129747800635,-8.18232500127498,2.001700550356525,63.24687615674477,118.40131869693003,-22.503708960587552,5.2420916065716865,-35.17567085838106,9.493997323666717,-29.681526078429933,157.5561387639776,-23.41404689974934,0.22555318112738176,-1.006434339749226,-0.10393946121916631,54.095715188083496,73.47798614711422,-18.337392273076798,-46.0937592776464,50.44337862667547,4.508813869948173,93.32215480020956,-96.18754498796775,-4.188331307758764,-2.2238510733872765,5.332025978308749,1.8868218923958366,-6.915126392926813,-2.262366757986179,-2.9366239120232254,0.9312150977670683,0.33325543415665076,-0.21334357492694664,-0.056424283798965726,-0.9465545976793545,-1.1035817747889445,0.03498296535951409,0.15214103402765866,-0.29617261968143455,-0.028182286979649467,-0.18551143238401388,-0.21780171762447376
-0.7419218436396631,-7.543293187141423,1.5821573379888247,60.99488055584613,125.69428547717735,-22.558448305012444,9.278073137847942,-43.10514232871741,7.340334880313287,-30.698901039061994,156.86453472768963,-21.00446557497268,-0.2696984877791985,-0.23597514059549995,0.03197575041222921,61.57233583244886,80.33233812450061,-18.51864129721743,-38.320770717099045,33.08643044491741,4.214946761953669,46.779382919723496,-9.457998398693327,-21.52805045541887,1.178003267827561,3.152279660947789,-4.200995789084958,0.2945013698967057,0.862892606792299,-0.2975055672736837,2.093732152043335,-0.08089707485623776,-2.745563959327025,1.4455571564573784,-0.5581636578100412,-0.019085624544594157,0.23995602650926054,-0.1873415360066841,0.013713591757588937,0.36017705401451144,-0.22879614880924315,-0.05225642311414863
-5.377225876846847,0.203015748888141,-0.16365892363606097,60.80451839807185,120.38256658684016,-20.89560763671055,-21.225270789320245,2.612645704880154,0.7992164105312086,-20.71239573617821,138.9715806284585,-24.64132156306711,-1.3942874820669318,1.7914475840752089,-0.8985724822484847,65.6450198006688,84.19334251712688,-17.456100734110507,-82.36512139872924,83.10367320691265,-18.824646000361064,59.049659226750485,-80.40783368173803,11.513931584101647,3.307082015697481,9.25498945379658,-5.8876371319389005,-1.3790093717208132,-6.480634177247874,-2.4461316471069408,4.47814406964287,0.14222669686979336,0.24441686565750875,1.3846689131876966,-1.5826291017777758,-1.36045880765414,0.5334039945910793,-0.14267041425441002,0.4138808975265156,0.18613962784088406,-0.25562424765335484,-0.27150894638186324
-3.740597702484889,1.4020028028206986,-0.9212195881486434,55.72283260493033,115.82884509673171,-19.112910717196986,-8.94971502239457,6.340668320345543,-0.2864137791241819,-24.341819169581232,143.04423221373912,-20.543842332214478,-1.7454127079023771,2.1211064625858747,-1.3638701228716195,67.72972884401513,86.64544541682258,-15.978497274770735,-62.99222741694098,95.12631661138133,-12.832148896692647,55.01024045155261,-81.86381771402489,7.6952927344330995,-0.5666914686256679,9.581655421300457,2.1661538374587375,-1.7188509098403246,-9.205544555639959,-3.301509851541703,3.1503126835373365,0.04969619181746792,2.129838292994058,1.9579935338440009,-2.802907911717141,-2.110869460419698,0.3318231485036438,-0.07920534031707331,0.2764157449283008,0.14410598531599014,-0.350306676699643,-0.31480795009216633
2.0205918188781204,3.164890810175628,-1.6054704100503183,53.818885551399866,112.0672160203556,-16.440008056560988,15.942844408947412,5.751834350091441,-1.4226792957112506,-9.37220513542099,119.929211746971,-19.885432093595384,-2.4576654613492286,2.965919100381061,-1.551151726568744,67.84738192899397,88.44840629133378,-13.819884203477606,-4.861224396243715,64.38174992127252,-17.62694532168771,48.979480131959996,-86.67345717053294,18.8434237590103,-0.13068878322709548,7.416102936543652,-1.389383385443184,-1.3993755907537242,-1.7720340042406972,-0.8359310726523775,2.2231599660022856,0.15411076156519282,-0.6013900152140199,1.8751149235977889,-1.1813306248119275,-0.48795100308740924,0.21202007368419068,0.04723601910612039,-0.43197764035233394,0.2924194895209683,-0.1581227206070025,-0.008875947202063278
-1.770937420038324,4.736289820613636,-2.285164799721312,51.52859605402244,113.24711320661002,-14.960826733224973,13.364031896242683,15.867621221184336,-4.713217157166259,-14.263291885852492,131.4808029193309,-18.325726350079727,-3.6174223349715926,3.9117063578319726,-1.9353316229489408,66.75807549994549,88.7672774293885,-12.265644484843662,-12.554641206065916,94.08720256603735,-16.340331301836212,75.75998966920694,-108.24746151039038,25.8931501716815,2.013026099827639,6.543228133651596,-5.089246825224578,7.417153655491772,-8.909730690175316,-1.1129526980863458,1.9364492056497866,0.44036784536157364,0.39403754860839146,3.79185030619891,-2.731302517657933,-0.9865030181928284,0.3601286640892811,0.1289334543327639,0.015530058531321347,0.6777111692699769,-0.5672859008003313,-0.1372891311764318
-4.592038205624397,0.1981477749885866,-1.2889367179256332,46.75505054540431,112.94446958439869,-14.099858989264947,-8.890476697077633,-5.2604016836772995,-0.04757651345466052,-23.87227015825048,139.17225613530204,-16.514827095572667,-3.202308984393995,3.5510472912741893,-2.0770549672375886,65.70290963913007,89.40498490658238,-11.324753916593577,-60.03906504181859,75.47842863127765,-10.497406929250793,58.21914777105873,-80.22764928490449,23.899481072744315,-0.2329961665690298,9.861128433586206,5.519313262090043,3.1213588019937237,-6.626777418439199,-0.9643925320978896,4.61583449179681,0.13788731510613622,0.8539047295102652,1.311250217975294,-1.9459115826908286,-1.14141140800534,0.7168293107001933,0.021963738547355633,0.23433102521347648,-0.107629080417423,-0.2647553878115387,-0.2662024964810934
-6.273705113317705,-1.4930818985293375,-0.7364324334285703,43.888048931061995,111.13469724202389,-13.130748816667884,-12.919885219314118,-7.835594615723607,1.3411691007218067,-20.30395240727013,118.54723592521523,-16.527825262549147,-3.0425409075417793,3.181185609043065,-1.900880835582351,64.1593129924947,90.56111061017923,-10.674233161809124,-55.91409657022242,53.06051537488083,-12.042982271776973,41.893179392794124,-69.68325066160963,11.051054409700974,-0.4602848539617151,9.736564076673396,3.217213340565957,-1.3081594142557615,-2.9644185056451717,-0.7219187801080694,3.104182765919804,-0.5277363082878523,1.169055404562705,0.7859387781959153,-1.2127236786526627,-0.7453274464692933,0.276776918958281,-0.22159889930715482,-0.10493982836216253,0.0449209010170938,-0.17225623317289535,-0.15641952955098282
-3.409550699199229,-2.7794904302333205,-0.4707121945751663,43.07581956709162,115.4291529986411,-12.63335193520494,-0.7516969529266018,-7.390611683243634,1.4286128085961873,-17.093567509170757,121.22495701733705,-16.813909444113847,-2.873671238547339,2.931582271830174,-1.7969826698904854,62.292867062324774,91.0720564589235,-10.37879210372466,-37.61227166187942,54.645203418851736,-12.537200633797346,59.80165996149725,-53.82116429092934,11.149109105073078,-1.1705952853181214,7.920133341353411,2.825645394601066,7.06385870298745,2.580410915649342,0.5626512712158005,1.9320100090511234,-0.6211614060913752,0.7004899866334524,3.738963626426388,0.23941796782763813,1.0058852556064786,0.20908098903520803,-0.24707742733208338,-0.09114117628674237,0.525036578758957,0.017877792153355623,0.2735987068668749
-6.858332656326707,-3.843916517359864,-0.28479701457340506,39.11351639882948,115.63917552070463,-13.15912332022888,-20.702278021398367,-16.27467114148248,0.48152612205235357,-14.342599714441285,124.03429943685566,-17.39602179916153,-2.386125161678036,2.362300413440004,-1.4714405258538519,60.6193890656367,91.14404687334408,-10.89620338727195,-65.50598704272284,34.92641941832559,-16.20836834388928,43.704456283400454,-51.56510842609924,20.583723868353264,0.7244749282152255,6.36636994024702,1.476827642755346,3.820254488457538,-3.270589581508097,-0.32151941331026695,3.2195383777242332,0.3539552126282582,-1.1333270765255676,2.711555184077748,-1.8687481233978178,-0.34233396014519335,0.3717045570546019,0.23093120508140685,0.059036087369725015,0.3686059504286348,-0.31763910322987615,-0.00012945917644480252
-6.136445756251228,-0.22860709206594645,-1.1418990262779027,32.502859684076434,118.33097959261907,-13.13001456931972,-11.024467757513532,-5.239227276804438,-1.6247345445016124,-16.611880825907843,144.81483875541105,-15.17882281600811,-2.1811392336889495,1.9589822710521774,-1.4183100904392323,58.35452018411239,91.51178399597039,-10.733259890268894,-48.3556258544608,82.63338449721569,-13.38334238592305,88.84564274946925,-102.56513351671992,15.638324428236984,-0.5768075957076493,10.190645623953106,3.09754156978532,2.971167694723535,-1.766323819574994,-0.1504298941492696,2.8129719267077444,0.748542350664093,0.2044536522496453,2.7542672038109157,-1.3854371707575623,-0.16523652253307644,0.340997687935024,0.2425915553219132,-0.1236221386015865,0.4111739440590686,-0.33326539508393954,-0.02678271554261161
0.9329332529463397,-0.416080434217984,0.14671729175332013,31.217999397911072,114.49698381787304,-12.331244615616589,1.3117022053557608,-8.557419602243971,0.8061433649555201,-20.064467709492597,129.3454771273487,-14.116270562118569,0.42258658558340206,-0.4677570422211057,0.27695752868186474,56.05601236758278,91.66060621860308,-10.509579437929737,-40.70488442756269,53.14736802646091,-9.224399302639437,72.5834618490988,-50.88864967580132,-6.09989703127694,0.9454129490734924,9.328272924253065,4.855042073865782,5.8235883606350685,-7.3115167382707265,0.026223853427525187,3.731798963671948,-0.17767879724616673,2.9236831049467864,3.15411403271617,-2.4845162077706635,-0.5261446073348167,0.6239130209569198,-0.19289349554191318,0.5769630249358676,0.4358540141444243,-0.3966896039251241,-0.04684154962414608
-1.9898745710635637,-0.3106016446961568,0.34425410572039505,30.189613479871475,109.24608717392172,-11.57462020947464,-9.15165521476457,-7.247705569774404,1.6089671971863497,-15.941161154384833,112.36955312702639,-13.921358669643302,0.15521258530397702,-0.080614282192614,0.24345697212698955,54.029154754631335,90.86650999070118,-9.949900421488923,-49.427940037252355,31.912799942390045,-11.562550006400029,37.626745529776954,-26.182988508423684,-0.6745178207927318,2.7186768674821575,11.895444788754268,4.487717236725545,1.4266761043108538,-7.32881141360438,-0.05717462659011401,4.870826472633912,0.4266499925826785,4.263078525751715,1.9716937146581166,-3.4420648075476334,-0.8854929531000822,0.6720157731395361,-0.03137485638484511,1.0168714057859536,0.317399443018323,-0.6636157786184,-0.1388489507393668
-0.40939265432409044,0.17961359538965352,-0.07615809988929259,26.35539435403883,114.07271712362197,-9.946219518078843,2.9006575096455625,6.81754901176705,0.2716875922256605,-12.449801060204626,135.02564218195806,-10.089293046057685,0.10816917149576916,-0.0512400571975906,-0.21772265149220987,52.05657669362383,90.20389597168972,-8.403100109328536,-25.619154727446077,90.60114944619936,-8.745954669494633,75.37834381238835,-104.80719709719226,28.336012796096707,-0.925889370771763,9.042607420650446,0.32593398352791747,1.03308592909632,2.691875359255204,0.2754113370091018,1.4676937986803795,0.16397457779403965,-1.2900024222016242,1.6639316276660223,0.521284295642564,0.556514329637015,-0.007015481002519638,0.08688663941058644,-0.5754610972547849,0.1483934474796719,0.12328991221901694,0.13559841872768344
-0.08537874961453637,0.3281553025306445,-0.2921034148179241,23.240701314398425,110.08641152877844,-9.347368172946842,-2.468750344083675,-1.8947464018876117,-0.11062016881962916,-24.52622151316437,123.9298507925951,-11.997871151874776,0.4565200358597069,-0.40628865664721814,-0.1278782583816011,50.80554476578752,89.44619711445368,-7.5258033540267455,-53.36868061008967,49.83106404042161,-7.821485455926871,63.72462760091115,-64.37988076703549,8.762489833660032,0.16215632999435348,5.420735505863452,0.9297335724483031,-0.07139038685955346,0.5913345850784245,0.14498495558807695,2.449439604491717,-0.6180356037367936,-1.6871356436652996,1.4777001034658956,-0.22372640437851643,0.1860348645311606,0.32181550576113227,-0.08716422568007369,-0.33682140173324193,0.2468155385550125,-0.0673395065227233,0.05774834751851813
-4.427187521207254,1.0200931682435355,-0.29043028262606624,22.687739864622415,105.80354105311146,-8.858937973217746,-17.80870730698741,0.16111569851264043,-1.156369385566779,-22.11555731704006,116.00567489415526,-12.146078739619186,0.11218578825969816,-0.1865111626688173,-0.006602270240426163,49.47622024926597,88.4779956693179,-7.010600185705291,-70.82632329713189,40.80652267500312,-12.042326756235784,52.159455071697025,-52.529912599383856,-4.4312924351110805,1.4097337542912465,8.978014357388808,1.3359052503539923,-2.8373034316135097,-0.057301708535127185,-0.557878297740888,3.6359967791061,-0.39516241400524993,0.0742541381345736,0.8446683690608005,-1.1983693226790026,-0.2739879809445874,0.5682309479027433,-0.13700631274068012,0.041855243781228006,0.10843175789421304,-0.29350918175732177,-0.08487408254396138
-1.473932821308739,-1.4760481458406498,-0.002138962855660854,19.514926653591708,105.74253854423152,-8.193946414848044,-5.2244282608265165,-3.1250427711563993,-1.9887323174760745,-14.256618284448704,117.91062110230513,-7.797790575266416,0.11718793776543444,-0.25260144580173377,0.024184552159788583,46.451736015786494,87.26039582813806,-6.763870419765077,-37.707749270938876,55.43374102981385,-10.077448468157629,59.22675545428195,-76.31047363372673,32.92081947520451,-0.12927994866648876,11.42159353567314,2.6585833707994118,2.529257095013456,1.7157967431978618,-0.5545181106503778,2.0612156792876224,0.8228332763187012,1.794686894367045,1.7915870173043074,-0.00915122938104216,0.20159739672964266,0.061435082179471696,0.12573897384701174,0.2781330568028698,0.2904903251562539,-0.005645459703572647,0.045571550406095715
-1.6327032638839736,-0.33490587307466374,0.36103193130419403,21.16537633817487,107.76476846214331,-7.763679017070193,-6.243663832106803,-5.021851733653106,2.8061197848508677,-5.669724946031394,121.67808942920085,-8.332517515721952,0.3583378926282127,-0.4076028428473429,0.11999409603769774,43.48979260501716,85.96499956874773,-6.774003954548411,-32.27483346045313,59.55234574511978,-4.346009275154609,73.14367986989521,-61.39861681546557,18.530321129957933,0.9901108238775033,11.269881201427726,3.429123166903227,1.859368082362225,-3.4937747322523465,0.5289528401640439,3.494594402439316,0.4063640317755214,1.8296419255735352,1.1127751791415685,-1.4600606297205951,-0.1833835846013914,0.40971471567804746,-0.023390855414171224,0.32496549467402264,0.1111852531594204,-0.24355478585645426,-0.040265727299554424
-2.7865257001785224,0.3575939939042593,-0.05584157229991549,17.67500953172698,103.80833769823649,-8.69528253021484,-10.697673646442322,3.749647994677537,-0.09176897472649857,-21.381705293189736,111.9056718166368,-10.903006768559155,0.22159833380506816,-0.40955442555641014,-0.033499268609218404,40.585490786793635,84.29692787891896,-7.495918008663132,-63.43898240320954,51.77377472752584,-11.697757657678055,68.28978110410657,-65.72175457160681,-10.925678224100876,2.2544698417365407,5.442054723551768,-1.162684668842861,0.8468460575695201,-0.025126374622738402,-0.21155133917911909,3.3669749120999097,-0.6253371038338675,-1.4177457270158884,2.211211356718538,-1.1644964604897523,0.06767767783915604,0.558049486897648,-0.10907839136425702,-0.258197113140454,0.19522070639990463,-0.3805169077951517,-0.06235820401102343
3.2104760743729606,-1.8980105012270094,0.24585371968323097,15.46665072630406,105.3155375881252,-8.331304129126055,9.865435369428848,-5.8483138188389745,0.7523864673883168,-22.813361973197566,120.34896205137025,-9.845980539404371,0.47707260450070543,-0.3945353699395827,-0.0015597332593457656,38.0563654550398,83.31753933948303,-7.315685738888769,-36.258410379664944,52.042623716163874,-7.031570301670012,59.46882828063885,-76.6329537657355,12.176243047355609,2.166114660964221,10.168394374043114,0.31460253212884615,-0.9230739146329275,0.09783439292333526,0.28931864352251396,3.617231460754385,0.5895713489513958,0.5450347268289724,1.0527016684630432,0.07089304833380382,0.15395418939639421,0.5478816887177799,0.07728936199409295,-0.01767361852269243,0.1005261588497042,0.17214475644465038,0.03376901910738074
-0.6515401026192416,-0.12216721456503074,0.28944023839761235,14.133757403520033,106.22017903006606,-7.40419159292349,0.5353184131571205,-9.824140881816703,3.2733921723323114,-20.641775734337553,113.20231279467511,-8.927581899822023,0.38683820365422994,-0.17196246950180186,0.11165238446526948,35.82951825082387,82.90181627839446,-6.685716076508038,-39.33444556202385,31.353830896479288,0.6174823692978586,38.7461345689521,-46.03201437278982,16.380866814203415,0.652545766973322,10.58126545553701,2.939382146192557,-0.9215894696154775,1.1391685119215185,-0.09899900061480457,3.1591573002244795,0.1824695455309517,1.1547866434138605,0.21506570329223013,0.19150775835196865,0.1379935903746139,0.40767874226461187,-0.09488277890276557,0.16645576719208793,0.08874955503287864,0.09688251575625993,0.06662849165969449
-4.2219004604846235,0.4058919844152461,-0.4985676155558398,15.497017707314011,106.51615608565211,-6.469977375278692,-11.298846675850335,-1.1383102432405345,-2.9014843159372887,-10.837134167202365,119.49462638871371,-5.793495916491543,-0.11769571141922135,0.0008909490907601345,-0.13304446174988066,34.039927011111686,83.04476971404274,-6.279139242495417,-40.41212618868712,52.85064031200366,-8.37661638133613,58.14665182809135,-63.113062991007055,12.052985418394268,0.7767645140982519,7.387630075236843,0.06783584929453564,1.1206271168318138,3.3821176670043216,-0.6053629262664005,2.1219332015476278,0.05140416219480291,-0.13308683745759672,0.6257849956487511,0.7515152449563988,0.5555139157398296,0.1505632976386827,0.06785580744049591,0.1457796071968944,0.005673720870061669,0.03078170133130001,0.13663932708625257
-2.915084035194406,-0.25332892460835504,-0.44013369088419596,13.533634498053999,108.93294524956475,-5.417371236644888,-10.186004087475357,-2.029753491689581,-2.7284811485402654,-10.537141474642194,128.41979268616848,-4.472610401484833,0.12789320234551077,-0.38513178046656454,-0.1533983212054308,33.21808721031354,83.88249293320581,-5.25339154541493,-45.86803710272159,59.748911351248566,-10.527614189864316,63.80930664993018,-94.24477027757952,12.181333303849785,1.710076305082852,6.329120965476531,-0.9650361123997008,-2.950566626591812,-0.6757575537450895,0.1377623567280565,2.2466096582425314,0.05407149579730002,0.19374443105792466,1.0955708088355676,-1.3149674845170156,0.08066411950672588,0.18933032391065233,-0.012000240972231584,0.09561749374542003,0.134500174998364,-0.23046240789904449,0.006606853374808614
-2.5267768169468057,-0.5823793424768621,0.6176949169591538,12.202440585240044,107.25011358285978,-5.025744743169735,-15.295071258843937,-1.8847300625276628,3.1250256839046955,-19.784834264332915,122.030321265969,-7.238570639738426,0.2341735044331227,-0.33641635179207036,0.0808164179535823,32.23345160466632,83.93662170800215,-4.463837976787394,-66.40551843445796,54.55410628914327,-4.937316703611471,75.36679638328069,-52.83465808218675,-2.6482348134056757,-0.22509247775156632,7.344959511517843,2.304603938482733,-1.8855694012363582,-0.9306324538885391,0.06443084424438184,2.3174607971126577,-0.41498687709254206,-0.20826643951517854,0.39008608226298347,-1.0866769394433298,-0.08202207455175224,0.3157509636021676,-0.18054714155713575,-0.09288579037219415,-0.14829686988167595,-0.1907332154335474,-0.0992049636670007
-4.605214634526693,-1.0336998587706558,0.46398995856210146,9.997351357686815,107.1935534082503,-4.028087569671727,-15.468383302540929,-6.727499538868284,1.0475248271836657,-18.09490271868757,115.75132842007368,-3.7142091182699484,-0.03803214198442909,-0.1736841071570185,0.10205782297844314,29.30500896947192,83.49368837918898,-3.962501628409274,-56.00541768531931,42.30707436225856,-1.8144069403346739,70.77898164895392,-30.490433331354357,-10.143004463522086,0.7863868222214134,10.596754348422799,2.575185685288118,-2.887785868281969,0.2933255094439182,0.017160263045268433,3.4275244451568945,0.8162104198356378,0.7390312230062481,-0.005222618201132835,-0.4124150367717778,0.0918000835413364,0.569878303708318,0.09059196199261521,0.020608412006576707,-0.014726090411777392,-0.12467943905161018,0.03196773934721819
-0.24518214788804102,-1.210912287720722,0.19029866454987135,7.245123231536247,104.80344916329373,-4.144189044141153,7.398229344549304,-7.401803071115981,0.8830153213052883,-15.500261880736584,114.1632889716645,-3.595901358922449,0.45139199739155267,-0.3712602238679229,0.05677409541211865,25.29847530609414,81.84415946257154,-4.1932005007751405,-24.427330950732824,40.07423365649274,1.5041537301261478,56.59125712810889,-82.45133557899378,14.702485088552155,1.8472989476647859,7.908041803571516,-1.268839017392478,-3.7026650519239532,1.804954680526054,-0.01699808851347216,2.5713739911197377,0.7742091177498539,0.17177292183050258,0.7889629913911208,-0.041548446676585096,0.3896707064997669,0.21465548902301212,0.17358915243717896,0.04089261354649897,0.2448253701169148,-0.07733608679528152,0.16482183025599004
1.4088643242417374,-0.5127663222514657,0.1374981972408936,0.41852227266325354,102.78051475490463,-4.740105978379886,9.886814415904349,-3.716053014429818,2.417630623497785,-27.31607968262858,122.56815889511016,-4.176744272320527,0.27944556012275806,-0.359322938494542,-0.057826794950890124,20.807460844049206,77.55760060927389,-4.75387701428184,-38.07100866557368,57.69414726565043,4.808206060868377,53.59835719419114,-77.83841157283963,23.69162199417427,1.403273558411615,5.657690443082587,-2.352055779778304,-0.00989437684020153,1.1209407834757854,-0.4149301732215327,2.0403481338692373,-0.4288263390766008,-0.7641186314125948,1.205299474347217,-0.23188008504775579,0.23553854065255894,0.22619186815481193,-0.10898914240025792,-0.08299075414833779,0.1679483143124123,0.01558835670623144,0.04153920912196257
1.0950077544688355,-1.4004695803948168,-0.08484497177321126,-7.521001399558371,101.95012367011776,-4.78977981980009,13.372929720674582,-9.871412974122226,1.245355195823549,-29.58544548858102,126.58312240015687,-2.9435865237556125,0.09874126245355681,-0.3072906060557028,-0.24927996619805243,15.679884892231334,71.68308942729959,-5.0750354583050825,-27.724235047483123,60.21654470618472,2.615748324522261,70.97105700299788,-71.1976505559048,1.5782493561808053,-1.1459539783371984,6.9469806434949914,0.6321310291462944,0.7847322190609852,0.3162994031128263,-0.28299624724305694,0.9191643868320128,-0.2115058095955741,-0.3885131614756196,1.1021917230507454,-0.40111121682054396,0.14096597348551101,0.10874775855048174,-0.13981988252615396,-0.2299312318796237,0.13110007499822368,-0.07061140837879976,0.004167114180874354
0.3237423345532183,0.36312159376065833,-0.09092690719652417,-10.701906761309312,95.44200011918015,-4.838437447446471,11.745391048872431,-15.0380547700796,1.9864877992225283,-28.68160386270155,113.92450645487736,-4.908556669914749,0.4347648415632223,-0.016538664106318463,0.10468090640587993,9.290280599488453,65.12723928312593,-5.206746302628729,-33.43926173397587,37.29987833591337,2.3737454853376154,49.208711354184196,-26.599075503813015,-21.86709620071255,0.76510352796205,7.288226888696067,1.4863117141121387,-1.030065733794155,-0.9039058818351913,0.8919532992721801,2.6642149289128065,0.3781160748381917,0.42436844155294023,0.9050918515731656,-0.6159190505256442,0.4131627343042809,0.3267792155386991,0.03133546774000218,0.1565979909770099,0.1932748213198669,-0.1405555682479703,0.14343687066423635
-0.34908478750766236,-1.640416626514429,0.677618639823551,-17.063708387589504,87.2627588408338,-4.016676525395854,12.090668254066467,-23.060459382855388,5.505561801900789,-45.56660669150516,106.70750909276809,-4.362113889237833,0.24309670336366468,-0.29330152733863313,0.0623548767681545,1.007805921084224,56.72075944966397,-4.52630008014113,-54.83388036521007,12.48478835150771,12.178858166220008,37.31581282794795,-24.119270969922177,-11.621694125521055,0.17327779387801054,3.145199029048687,0.11491861334432694,-3.026398830668911,-3.1580477769028716,1.824877261189371,1.4830578954497347,-0.44254200374986735,-1.1501173836566783,0.4227962838644831,-1.2253386502455332,0.38291512846558007,0.06567418282153915,-0.07259532286359843,-0.1645390287317257,0.07022465366239546,-0.14525106434981194,0.1051414737288144
1.2393233496621296,-2.6318332445405894,0.8009999969065476,-19.886441855671908,77.46524272760448,-2.211376241438503,21.194004483565347,-18.533537356508766,5.167760261356979,-34.93112152573525,107.86456529366434,-0.2948115921585455,0.3051538436830578,-0.5878430461278772,0.0807757269247952,-8.200215923976439,45.43475795743806,-3.3723638550329778,-28.352996592636927,33.22799963609722,14.582914537170536,69.52723623137793,-66.08397562851272,-0.19405434393870202,-0.7751132787623225,3.8882689262633834,0.36667924878584746,0.05456462727769707,-0.2891651577805272,-0.11911411322911249,1.0017073880261151,-0.35129520690764293,-1.067314323457386,0.7571915838926873,-0.7778253803789115,0.15847699870255313,0.09981964252388187,-0.047179255174853316,-0.1875811769743617,0.04172852318786224,-0.11143489622615835,-0.0052508594896452845
-0.02152,-1.98412,0.89362,-26.54077,63.55424,-0.60243,18.54216,-8.80959,3.42999,-42.95469,89.01887,0.42017,0.38524,-0.41361,0.30338,-18.39367,32.72087,-1.83486,-41.32989,28.93757,10.53198,78.32834,-62.70361,-13.5732,1.04817,2.92128,-1.58722,1.79424,-0.52648,0.3864,1.48251,-0.21856,-0.66407,1.79701,-0.55325,0.45526,0.25391,0.00936,0.0004,0.26596,-0.07594,0.0966
-0.67566,-2.526250000000001,1.15416,-29.581670000000006,55.96202000000001,0.3764300000000001,11.213740000000001,-9.162780000000001,2.27749,-43.53277000000001,72.37414999999999,0.98822,0.4180300000000001,-0.32413,0.33387000000000006,-23.61427,25.998910000000002,-0.9548000000000001,-47.450530000000015,6.166260000000002,6.255700000000002,52.478120000000004,-40.41171,-11.192330000000002,0.8893400000000001,2.9624200000000003,-0.6343,1.5909200000000001,-3.3483600000000004,1.8873800000000003,1.57607,-0.042890000000000005,-0.4339000000000001,1.61929,-1.14839,0.6299300000000001,0.32415000000000005,0.029170000000000005,0.007500000000000001,0.2541000000000001,-0.15262000000000006,0.1524
-0.6195892120343162,-2.484466004808197,1.1578813926382043,-30.040978352289024,53.65120695428482,0.7115546424023842,8.669094903570265,-9.30346237494835,1.813188126081507,-41.65226669273935,66.92731504115527,1.3806035169420878,0.43869056413113117,-0.2836046781474074,0.339299095001864,-25.08891862793923,24.02346220236711,-0.6944111210495152,-46.99646588687134,-0.7140202057720975,4.989521163798402,41.30808714331155,-32.15389162503013,-8.262136796261835,0.7028414043729888,3.1042937218332805,-0.18192468570910877,1.5802636040863158,-4.00561470128781,2.204043593364417,1.6081908519396961,-0.012774839099769703,-0.427888270771113,1.4774105358516563,-1.3286937679631037,0.6604814000004247,0.33967798853132525,0.027182587829959977,-0.012218232947030708,0.2217417397060583,-0.18537000589204428,0.16051809311762225
-0.39306555229467677,-2.218355287066928,1.0768412742188695,-30.476236452299577,51.32541253478972,1.0421192800763743,5.785404464824074,-8.787104099520587,1.3737131817505732,-39.52303798563975,62.12245333647875,1.8400007444332864,0.46681099689167327,-0.23116765607550652,0.343382228463797,-26.50539569470042,22.044866559068684,-0.43949131864129287,-46.6983183542015,-4.8984483790845745,3.7556673794841506,31.631121237761246,-25.13906520340577,-4.938613211472467,0.48384517410645794,3.3114248511006923,0.2181224189526181,1.572985200365883,-4.298217808474043,2.3365595785114976,1.616574854300921,-0.004726966709859977,-0.4462098779477205,1.3373280773310585,-1.4288285324373502,0.6723140745499863,0.3408891102726982,0.019892957966834036,-0.03748821035763902,0.18933156039869026,-0.2125323371528961,0.1651288342092589
