PaulMeinheit/Bachelor_Muay_Thai/Sub01_Teep/sliced/Sub01_Teep/JointMoments.txt/sliced3.csv
Unnamed: 0_level_0,R_KNEE_MOMENT,R_KNEE_MOMENT,R_KNEE_MOMENT,L_KNEE_MOMENT,L_KNEE_MOMENT,L_KNEE_MOMENT,R_HIP_MOMENT,R_HIP_MOMENT,R_HIP_MOMENT,L_HIP_MOMENT,L_HIP_MOMENT,L_HIP_MOMENT,R_ANKLE_MOMENT,R_ANKLE_MOMENT,R_ANKLE_MOMENT,L_ANKLE_MOMENT,L_ANKLE_MOMENT,L_ANKLE_MOMENT,WAIST_JOINT_MOMENT,WAIST_JOINT_MOMENT,WAIST_JOINT_MOMENT,NECK_MOMENT,NECK_MOMENT,NECK_MOMENT,L_SHOULDER_MOMENT,L_SHOULDER_MOMENT,L_SHOULDER_MOMENT,R_SHOULDER_MOMENT,R_SHOULDER_MOMENT,R_SHOULDER_MOMENT,L_ELBOW_MOMENT,L_ELBOW_MOMENT,L_ELBOW_MOMENT,R_ELBOW_MOMENT,R_ELBOW_MOMENT,R_ELBOW_MOMENT,L_WRIST_MOMENT,L_WRIST_MOMENT,L_WRIST_MOMENT,R_WRIST_MOMENT,R_WRIST_MOMENT,R_WRIST_MOMENT
ITEM,X,Y,Z,X,Y,Z,X,Y,Z,X,Y,Z,X,Y,Z,X,Y,Z,X,Y,Z,X,Y,Z,X,Y,Z,X,Y,Z,X,Y,Z,X,Y,Z,X,Y,Z,X,Y,Z
1663,9.55462,0.28394,-0.49347,7.1414,0.35826,1.12722,-0.50617,0.94209,-0.80637,-6.66317,25.23601,6.11891,-6.80033,34.86617,-3.90206,-16.02076,12.3419,3.92734,-23.07944,19.67978,3.35033,33.19267,-24.90409,1.61267,3.22185,-1.97572,-0.39179,5.95838,-4.05806,0.16937,1.22417,-1.90748,-0.32529,1.70841,0.67129,-0.14256,0.31135,-0.26883,-0.03207,0.13855,0.03029,-0.03001
1664,8.85681,1.39115,-0.66749,7.74983,2.12343,1.3697,0.14101,3.63301,-0.41602,-10.36068,31.39888,6.89716,-6.1421,31.04912,-3.47826,-16.7421,13.06757,4.18231,-30.78171,25.11835,5.57663,32.10887,-26.3761,1.666,3.53915,-2.20705,-0.58734,6.00955,-4.21484,0.06866,1.04113,-1.86386,-0.30974,1.80235,0.61949,-0.18071,0.2861,-0.30517,-0.04196,0.12343,0.01596,-0.05349
1665,7.69984,2.23293,-0.75946,8.68983,3.60681,1.62631,-0.70388,6.59665,-0.70856,-13.52094,35.65329,7.67919,-5.39116,27.06117,-3.01959,-17.55383,13.94723,4.45711,-39.3686,28.84597,5.96811,30.55978,-25.84572,1.47367,4.16955,-2.18201,-0.48578,5.90215,-4.29237,-0.07148,0.51098,-1.7564,-0.09576,1.93884,0.55319,-0.16659,0.17598,-0.29775,-0.01841,0.13812,-0.00969,-0.05665
1666,6.36295,2.78984,-0.76248,10.2161,4.62596,1.81811,-2.44271,9.03816,-1.37113,-14.75158,37.66364,8.18219,-4.56435,22.99515,-2.515,-18.47905,14.95647,4.73587,-46.86211,29.1119,4.38955,30.94926,-22.33245,0.93953,4.79364,-1.88244,-0.05961,5.64743,-4.25731,-0.18085,-0.103,-1.69757,0.23175,2.12155,0.48504,-0.04648,0.02919,-0.26472,0.0414,0.18552,-0.03529,-0.02792
1667,5.18293,3.09083,-0.71142,12.26148,5.28478,1.91122,-3.82395,10.13709,-1.93691,-13.67304,38.24131,8.35062,-3.69914,18.94044,-1.9676,-19.53678,16.04119,5.00105,-51.54599,25.67686,1.89709,34.05608,-16.64337,0.28173,5.05747,-1.3715,0.56131,5.26306,-4.12543,-0.20801,-0.43792,-1.78145,0.50362,2.26868,0.40535,0.16383,-0.07625,-0.23912,0.1167,0.23539,-0.05353,0.02364
1668,4.28917,3.30781,-0.67188,14.50756,5.85325,1.93172,-4.30792,10.02701,-2.26464,-10.88862,38.65018,8.45849,-2.83338,15.00505,-1.39688,-20.72441,17.1498,5.23491,-53.60177,20.45794,-0.37129,38.54931,-11.33126,-0.05852,4.77297,-0.78195,1.14272,4.819,-3.94078,-0.14633,-0.31762,-1.99063,0.57988,2.28381,0.31467,0.37751,-0.09413,-0.23674,0.17214,0.25058,-0.05856,0.07142
1669,3.58591,3.66249,-0.68289,16.53357,6.58903,1.92135,-4.20374,9.68185,-2.34943,-7.66842,40.11231,8.78761,-2.00033,11.31332,-0.83997,-21.98713,18.2535,5.42461,-54.73606,16.70031,-1.6,42.55369,-9.13338,0.11091,4.06803,-0.33364,1.42072,4.45081,-3.75261,-0.03486,0.16924,-2.20608,0.41866,2.17698,0.24722,0.51567,-0.02939,-0.24965,0.17775,0.22813,-0.04644,0.09595
1670,2.9328,4.22154,-0.74071,17.99169,7.55185,1.90735,-3.78137,9.93588,-2.17405,-5.244,43.11488,9.40629,-1.23184,7.98823,-0.34251,-23.24154,19.35099,5.56748,-56.14792,16.50859,-1.48802,45.01285,-11.05991,0.44326,3.30838,-0.28704,1.18292,4.31428,-3.63798,0.04991,0.79271,-2.27151,0.07208,2.05674,0.26264,0.55074,0.08494,-0.25697,0.12253,0.19516,-0.01799,0.09819
1671,2.2538,4.8801,-0.82955,18.80077,8.56173,1.913,-3.04181,10.87942,-1.81638,-4.12448,47.10009,10.22997,-0.56018,5.13437,0.05174,-24.41807,20.44089,5.68425,-57.80816,19.36667,-0.38595,46.44619,-15.68149,0.2031,2.85736,-0.77673,0.39163,4.44479,-3.66149,0.02226,1.33835,-2.08668,-0.3512,2.02037,0.38907,0.49737,0.20846,-0.23594,0.02072,0.17641,0.01907,0.08974
1672,1.52883,5.37301,-0.89459,19.14151,9.38739,1.9462,-2.08101,11.81564,-1.41654,-3.93961,51.0052,11.13041,-0.01714,2.81617,0.32477,-25.48187,21.48743,5.79413,-58.92368,22.9838,1.03262,48.2323,-20.11407,-1.06807,2.87724,-1.64485,-0.70328,4.71363,-3.81014,-0.12884,1.68885,-1.70197,-0.72329,2.08445,0.55949,0.40038,0.30751,-0.18085,-0.09215,0.17844,0.04538,0.0804
1673,0.8009,5.39438,-0.85204,19.3137,9.86722,1.98552,-1.20742,11.70314,-1.09442,-3.99429,53.83977,11.93894,0.38094,1.04591,0.49653,-26.42332,22.41353,5.89228,-59.11036,24.64658,2.1457,51.4245,-22.04202,-3.03454,3.31315,-2.49702,-1.6278,4.96316,-3.99899,-0.34718,1.83409,-1.34935,-0.94173,2.22945,0.66688,0.29713,0.36964,-0.12322,-0.17633,0.20299,0.04409,0.06834
1674,0.21547,4.8497,-0.67059,19.5987,9.91155,1.98007,-0.64162,10.02517,-0.82853,-3.66203,55.11938,12.41234,0.64648,-0.21035,0.60912,-27.23337,23.13364,5.95884,-58.45508,22.89244,2.63155,55.77184,-21.07006,-4.79045,3.97746,-2.93226,-1.97369,5.12672,-4.13308,-0.57702,1.8012,-1.25482,-0.96912,2.42297,0.67922,0.18656,0.39378,-0.10431,-0.21023,0.25223,0.02114,0.04426
1675,-0.05378,3.93772,-0.40364,20.07061,9.54568,1.87481,-0.317,7.1862,-0.37593,-2.81428,55.14948,12.254,0.80209,-1.00292,0.68952,-27.87031,23.58957,5.9769,-57.26822,18.4433,2.61065,59.69762,-18.63142,-5.55443,4.56906,-2.78438,-1.65929,5.25521,-4.17769,-0.75841,1.61585,-1.44172,-0.83758,2.62674,0.65372,0.0736,0.37355,-0.13516,-0.19335,0.32193,4e-05,0.01086
1676,-0.00552,2.99441,-0.14486,20.58252,8.93678,1.65905,-0.11377,4.10475,0.36426,-1.87756,54.71836,11.40827,0.85861,-1.38866,0.73324,-28.27755,23.78978,5.93917,-56.08307,13.32393,2.39526,61.25463,-16.31018,-5.20314,4.80652,-2.22987,-0.9136,5.36575,-4.14327,-0.81851,1.332,-1.78914,-0.60789,2.74976,0.64948,-0.00495,0.30654,-0.20003,-0.13177,0.38154,-0.0009,-0.01441
1677,0.1492,2.32913,-0.00275,20.87028,8.35992,1.41416,0.03957,1.5329,0.92796,-1.67881,54.56824,10.36279,0.8129,-1.42991,0.71703,-28.44239,23.81528,5.85791,-55.7748,9.17177,2.20928,59.60679,-14.81405,-4.32313,4.60722,-1.63537,-0.11967,5.41231,-4.1031,-0.75403,1.05685,-2.14282,-0.36677,2.70029,0.67245,-0.03067,0.21259,-0.2686,-0.04531,0.38701,0.01891,-0.02348
1678,0.13684,2.13943,-0.05401,20.79681,8.09514,1.26188,0.02181,-0.05219,0.69811,-2.78169,55.20129,9.82421,0.66426,-1.2034,0.61661,-28.3966,23.76805,5.76947,-57.18516,7.03572,2.08544,56.11128,-13.95232,-3.8155,4.16413,-1.28949,0.35893,5.33782,-4.13296,-0.68901,0.89947,-2.35231,-0.22322,2.51074,0.69526,-0.03502,0.1291,-0.30339,0.02382,0.33235,0.04789,-0.02966
1679,-0.17595,2.3589,-0.24159,20.4211,8.21318,1.2552,-0.4974,-0.48929,-0.26796,-4.92167,56.76702,10.07228,0.44912,-0.84949,0.44552,-28.18276,23.6911,5.71191,-60.27466,7.67023,2.0262,53.74419,-13.75268,-4.16337,3.7888,-1.26191,0.35401,5.17979,-4.2644,-0.73165,0.91213,-2.33239,-0.24653,2.32169,0.69661,-0.04318,0.09132,-0.28498,0.03765,0.25302,0.07077,-0.04301
1680,-0.74777,2.69916,-0.40803,19.94153,8.53112,1.35883,-1.59966,-0.09698,-1.30627,-7.27085,58.8376,10.8488,0.22744,-0.52592,0.25276,-27.84371,23.56814,5.70307,-63.70705,10.92321,2.27753,54.6504,-14.57749,-5.09235,3.69259,-1.44749,-0.04212,5.04316,-4.45882,-0.85324,1.0808,-2.11677,-0.41357,2.24653,0.67448,-0.03436,0.11618,-0.2267,-0.00757,0.19172,0.07513,-0.05186
1681,-1.46927,2.89075,-0.44483,19.55016,8.82069,1.51169,-3.08147,0.33812,-1.94182,-9.20678,60.53422,11.7115,0.03436,-0.31519,0.07562,-27.43561,23.38444,5.73674,-66.46852,14.78568,2.96627,58.37746,-16.45273,-5.99519,3.86962,-1.68125,-0.57425,5.07363,-4.67727,-0.97277,1.34073,-1.81898,-0.62622,2.34189,0.65239,0.0089,0.19458,-0.16206,-0.08104,0.18066,0.05913,-0.04291
1682,-2.17944,2.80341,-0.34217,19.25782,8.93467,1.668,-4.76559,0.029,-2.18752,-10.70142,61.09112,12.29468,-0.10397,-0.23129,-0.06075,-27.02547,23.14051,5.79172,-68.92104,16.56521,3.70894,62.14486,-18.31127,-6.46513,4.20426,-1.85232,-0.97301,5.29895,-4.88174,-1.06385,1.60291,-1.58304,-0.76713,2.54876,0.66383,0.05007,0.298,-0.1277,-0.13811,0.21539,0.03585,-0.02393
1683,-2.74525,2.47158,-0.15597,18.9497,8.84702,1.79072,-6.44149,-1.27195,-2.25795,-11.87057,60.53669,12.47467,-0.17285,-0.24221,-0.14756,-26.67479,22.84745,5.83768,-71.40265,15.25603,4.04485,63.45467,-18.81329,-6.49759,4.57396,-1.94909,-1.08774,5.61217,-5.02196,-1.12701,1.78816,-1.51772,-0.76641,2.73814,0.72421,0.04739,0.39251,-0.14311,-0.14836,0.26174,0.02451,-0.01219
1684,-3.11144,2.07685,0.03059,18.54286,8.66805,1.85996,-7.64326,-3.1662,-2.2392,-12.80772,59.77135,12.36681,-0.18083,-0.30277,-0.19118,-26.42965,22.52683,5.8598,-73.60052,12.16743,4.04559,62.63452,-17.74789,-6.41075,4.88222,-2.05927,-0.97522,5.87986,-5.03412,-1.11705,1.87084,-1.6436,-0.65642,2.84495,0.80142,0.03195,0.45591,-0.19992,-0.11787,0.2982,0.0311,-0.00819
1685,-3.31512,1.87216,0.15684,18.09702,8.55853,1.88226,-8.13483,-4.63896,-1.98234,-13.38772,59.74921,12.12776,-0.16063,-0.37954,-0.20485,-26.31532,22.20732,5.87949,-75.09727,9.92359,4.04091,62.34277,-16.46436,-6.54168,5.04816,-2.30249,-0.83144,5.97098,-4.88791,-0.97961,1.86579,-1.89683,-0.53612,2.88513,0.82019,0.09472,0.48048,-0.27303,-0.07893,0.32342,0.03839,0.00811
1686,-3.38522,2.02288,0.19548,17.75799,8.61901,1.90038,-8.07904,-4.63306,-1.3594,-13.33795,60.56925,11.87439,-0.14088,-0.4538,-0.1942,-26.33315,21.92426,5.94389,-75.59156,10.45758,4.14165,64.6448,-16.65709,-6.95914,5.03218,-2.68882,-0.81282,5.78943,-4.64845,-0.76152,1.78853,-2.15678,-0.47999,2.88465,0.72582,0.27608,0.46409,-0.33507,-0.05719,0.33812,0.022,0.05063
1687,-3.30552,2.49246,0.13567,17.67666,8.88372,1.98246,-7.51074,-2.97973,-0.60679,-12.41569,61.5489,11.83288,-0.12551,-0.51324,-0.15383,-26.47223,21.73105,6.09053,-74.35645,13.53366,4.40282,68.57157,-18.9269,-7.27794,4.81074,-3.0355,-0.92094,5.40253,-4.42464,-0.59527,1.65629,-2.28759,-0.49666,2.87068,0.55273,0.49737,0.40862,-0.36263,-0.05481,0.34726,-0.02139,0.10464
1688,-3.14712,3.16738,-0.01191,17.81428,9.29763,2.171,-6.46426,-0.28373,-0.17266,-10.77273,61.95759,12.20514,-0.10603,-0.54484,-0.08703,-26.72242,21.67887,6.31691,-71.11768,17.49548,4.81705,71.08466,-22.37741,-6.90503,4.44224,-3.06442,-1.02333,5.05452,-4.2641,-0.54104,1.49744,-2.20395,-0.54676,2.86296,0.40353,0.63247,0.32458,-0.33747,-0.0599,0.3557,-0.06703,0.13869
1689,-3.07084,3.93689,-0.18866,17.8994,9.69283,2.43701,-5.3829,2.61092,-0.19281,-9.01357,61.5234,12.84082,-0.07973,-0.54324,-0.01533,-27.06231,21.77309,6.58441,-67.08291,20.64798,5.1259,70.01122,-25.09857,-5.60653,4.07456,-2.61762,-0.9787,4.9149,-4.0819,-0.52154,1.35073,-1.92506,-0.5914,2.84092,0.35287,0.62342,0.2349,-0.25694,-0.06566,0.35905,-0.08452,0.13366
1690,-3.15284,4.62078,-0.3028,17.56465,9.89585,2.71611,-4.85225,4.57853,-0.43999,-8.06577,60.43652,13.34905,-0.04794,-0.5011,0.04112,-27.46058,21.97948,6.84796,-64.4126,21.51281,5.09129,66.29617,-25.37536,-3.91112,3.86985,-1.83958,-0.73122,4.93888,-3.80913,-0.45034,1.22373,-1.60974,-0.60237,2.78497,0.38184,0.51995,0.16276,-0.15471,-0.07043,0.35157,-0.0695,0.09831
1691,-3.30487,4.98776,-0.29998,16.67313,9.89521,2.98142,-5.06318,4.52022,-0.71819,-8.49496,59.02433,13.53767,-0.01641,-0.39164,0.07432,-27.89253,22.26394,7.09224,-64.34275,19.08862,4.79414,62.70575,-22.39225,-2.85636,3.89512,-1.12787,-0.35262,4.91545,-3.51197,-0.36267,1.07658,-1.4443,-0.54799,2.68645,0.41134,0.41342,0.11836,-0.08661,-0.06785,0.32943,-0.04504,0.05756
1692,-3.33878,4.85669,-0.19391,15.38759,9.8568,3.26588,-5.6887,2.23759,-0.97055,-10.19261,57.48135,13.51539,-0.00856,-0.15917,0.0796,-28.35463,22.5937,7.34246,-66.44767,13.70335,4.5269,61.13117,-16.85928,-3.30886,4.07976,-0.81885,-0.03088,4.73762,-3.38623,-0.43372,0.88332,-1.43296,-0.41925,2.55149,0.44026,0.31907,0.09707,-0.07286,-0.05136,0.28674,-0.02248,0.02224
1693,-3.06139,4.18783,-0.03572,13.9751,10.0149,3.61291,-6.06602,-1.21246,-1.10526,-12.55549,55.9945,13.47247,-0.0583,0.27175,0.05419,-28.8704,22.92285,7.63541,-69.14798,7.39648,4.56429,61.11776,-11.14401,-5.2727,4.25721,-0.92983,0.06022,4.47182,-3.55819,-0.82293,0.68921,-1.41764,-0.26295,2.41209,0.55624,0.1848,0.09189,-0.0885,-0.02575,0.2263,0.01282,-0.01455
1694,-2.39251,3.15587,0.10481,12.63381,10.55534,4.02528,-5.62557,-4.16248,-1.06113,-14.88249,54.89515,13.51161,-0.19432,0.97866,-0.00677,-29.47589,23.21732,7.98406,-70.96208,2.81006,4.91139,61.35078,-8.34446,-7.77691,4.24439,-1.23585,-0.08859,4.27137,-3.96565,-1.46903,0.60455,-1.32544,-0.15988,2.36269,0.79398,0.0267,0.10398,-0.11201,-0.00206,0.17776,0.06626,-0.04706
1695,-1.43762,2.10405,0.15764,11.42914,11.48341,4.46171,-4.13067,-5.45409,-0.92038,-16.69271,54.44784,13.63526,-0.42725,2.01733,-0.11482,-30.18699,23.49089,8.36996,-71.02472,1.48418,5.43789,61.363,-10.26317,-9.49457,3.96351,-1.50429,-0.3152,4.20556,-4.3775,-2.09077,0.70178,-1.25912,-0.15759,2.4771,1.06332,-0.04918,0.13588,-0.14764,0.01357,0.17833,0.11666,-0.05165
1696,-0.47629,1.36706,0.10061,10.29711,12.5756,4.86544,-1.92533,-5.02132,-0.79221,-17.76766,54.59541,13.78368,-0.75895,3.41421,-0.29033,-30.98506,23.78957,8.76103,-69.14014,3.27447,6.10086,61.77817,-15.67797,-9.52914,3.52488,-1.65156,-0.44303,4.29301,-4.56416,-2.37604,0.93412,-1.36751,-0.25309,2.71459,1.24525,0.02341,0.18184,-0.20192,0.01382,0.23427,0.1407,-0.01693
1697,0.20947,1.08277,-0.02105,9.08086,13.57584,5.20315,0.02243,-3.63887,-0.73459,-18.10033,55.06036,13.91587,-1.18311,5.16661,-0.54675,-31.84829,24.16868,9.13292,-66.0183,6.91434,6.79109,63.27381,-21.26578,-7.81202,3.18722,-1.70655,-0.39424,4.58392,-4.45602,-2.18711,1.14205,-1.67142,-0.39548,2.93196,1.30605,0.17693,0.22485,-0.25945,-0.00908,0.30932,0.13896,0.03484
1698,0.51394,1.0975,-0.13545,7.58598,14.44715,5.49533,0.57488,-2.27875,-0.81279,-18.12105,55.60612,14.07515,-1.68926,7.26573,-0.8904,-32.79364,24.69338,9.48438,-63.30903,11.01115,7.29946,65.26865,-24.18529,-4.99616,3.19464,-1.72096,-0.16489,5.13624,-4.15104,-1.62991,1.16114,-2.06418,-0.4876,3.02282,1.30693,0.27321,0.2473,-0.29726,-0.04566,0.3633,0.13171,0.06586
1699,0.54742,1.02612,-0.16005,5.61427,15.37404,5.81029,-0.92796,-1.64104,-0.9598,-18.52503,56.11889,14.33841,-2.26807,9.72729,-1.31515,-33.89484,25.42784,9.84497,-62.45087,14.72741,7.57855,66.26225,-23.62717,-2.19833,3.58406,-1.67662,0.17889,5.84128,-3.81086,-0.97904,0.95047,-2.35404,-0.45694,2.99174,1.3092,0.2429,0.2432,-0.29639,-0.0757,0.37886,0.13149,0.05759
1700,0.52978,0.45956,-0.02082,3.00977,16.53032,6.19954,-4.49683,-1.87975,-0.91627,-19.83877,56.33646,14.63572,-2.91216,12.59016,-1.8067,-35.27465,26.41747,10.24258,-64.01447,17.79856,7.62674,65.17952,-20.46863,-0.60934,4.1268,-1.50283,0.46346,6.36731,-3.545,-0.55449,0.64168,-2.33479,-0.34123,2.90355,1.32227,0.11695,0.22232,-0.24223,-0.09357,0.3587,0.13522,0.01723
1701,0.63307,-0.82109,0.28813,-0.22333,17.91765,6.64209,-9.62269,-2.84159,-0.66066,-21.84789,55.67226,14.82088,-3.61991,15.88067,-2.34902,-37.06668,27.6934,10.65504,-67.45968,19.81283,7.12529,62.70048,-16.3626,-0.93077,4.49181,-1.21016,0.48542,6.37652,-3.36205,-0.57343,0.4519,-1.9501,-0.25833,2.82588,1.33432,-0.03101,0.20315,-0.14566,-0.10672,0.31931,0.13889,-0.03684
1702,1.01318,-2.87136,0.67538,-3.91748,19.37554,7.07014,-14.89804,-4.74375,-0.64573,-23.61522,53.44917,14.89783,-4.39163,19.58652,-2.91827,-39.3545,29.27073,11.01768,-70.341,19.71311,5.82106,60.62725,-12.78185,-2.87577,4.50099,-0.93629,0.15501,5.80905,-3.22088,-0.99788,0.52221,-1.36065,-0.30333,2.80022,1.33699,-0.1157,0.19882,-0.0481,-0.1217,0.28492,0.1421,-0.07888
1703,1.85144,-5.68213,1.01665,-7.91851,20.67558,7.39986,-18.25129,-8.13633,-1.21003,-24.20337,49.42504,14.91852,-5.24124,23.64013,-3.49623,-42.09089,31.09421,11.25037,-68.91525,16.82816,4.13731,60.72281,-10.31337,-5.30535,4.2493,-0.84055,-0.44092,4.95508,-3.12815,-1.55362,0.82732,-0.82278,-0.48395,2.79617,1.32924,-0.08807,0.20899,0.00909,-0.14017,0.26674,0.14494,-0.0867
1704,3.18405,-9.18648,1.29528,-12.20594,21.63169,7.55101,-18.66948,-13.00699,-1.98405,-23.32782,44.12622,14.75908,-6.19916,27.89528,-4.06533,-45.03969,32.97092,11.28074,-61.15081,12.3102,2.86678,63.58486,-8.60964,-7.05044,3.99106,-0.99468,-1.0851,4.29463,-3.17627,-1.95954,1.21889,-0.53835,-0.7202,2.77345,1.32752,0.02622,0.22772,0.00868,-0.15781,0.26321,0.14657,-0.0581
1705,4.66355,-13.19848,1.63008,-16.81965,22.20692,7.47695,-17.56111,-18.20714,-2.29711,-21.50291,38.63031,14.251,-7.31113,32.16671,-4.61063,-47.79602,34.5945,11.04857,-49.11405,8.94692,2.30791,68.22118,-7.44325,-7.62792,3.94489,-1.32371,-1.52494,4.19465,-3.42806,-2.09006,1.51312,-0.5632,-0.88696,2.75874,1.35245,0.16203,0.2443,-0.03708,-0.16238,0.27891,0.1447,-0.00843
1706,5.73077,-17.56979,2.19443,-21.68454,22.47176,7.18114,-17.57943,-22.21133,-1.83913,-19.8043,33.99022,13.43815,-8.61615,36.26717,-5.10011,-49.80287,35.58607,10.49518,-37.38794,9.37908,2.26143,71.85407,-7.54957,-7.21302,4.13811,-1.63419,-1.55754,4.69886,-3.79117,-1.95091,1.54538,-0.81939,-0.8729,2.7936,1.40769,0.25836,0.23871,-0.10002,-0.13883,0.3172,0.13735,0.04063
1707,5.86596,-22.41975,3.1759,-26.49635,22.45265,6.68955,-21.05894,-24.4917,-0.64337,-18.96076,30.7488,12.52941,-10.14363,39.99763,-5.48353,-50.44024,35.52743,9.56998,-30.02745,14.18404,2.48188,70.78499,-9.88144,-6.17439,4.48037,-1.75903,-1.12919,5.49149,-4.04953,-1.62471,1.25225,-1.19708,-0.65692,2.85275,1.45981,0.28057,0.19625,-0.16133,-0.0856,0.36457,0.12355,0.0694
1708,4.70363,-28.06228,4.73084,-30.73146,22.08284,6.03349,-29.3099,-25.97128,1.17186,-18.6814,28.71742,11.67876,-11.90074,43.16271,-5.72503,-49.1639,34.05019,8.26832,-28.74177,21.4109,2.84898,63.03478,-14.04156,-4.85248,4.90452,-1.69673,-0.41139,6.09993,-4.10247,-1.26877,0.74663,-1.62025,-0.34356,2.84905,1.44558,0.23893,0.12862,-0.22089,-0.02458,0.39203,0.1006,0.07068
1709,2.24145,-34.72803,6.84652,-33.90783,21.35936,5.28013,-41.67844,-28.453,3.22674,-18.1841,27.10664,10.9395,-13.81817,45.64141,-5.82955,-45.68997,31.00346,6.66325,-32.1926,27.52145,3.37202,49.84516,-18.26713,-3.48372,5.38802,-1.58433,0.25944,6.15651,-4.02162,-1.02943,0.26183,-1.99922,-0.08942,2.67851,1.31408,0.1848,0.06882,-0.27466,0.01397,0.3695,0.06728,0.05536
1710,-0.95253,-42.24978,9.20533,-35.91994,20.37633,4.53894,-55.22017,-33.12843,4.7822,-17.22356,24.86771,10.22537,-15.71939,47.44686,-5.86489,-40.19297,26.57929,4.89581,-36.87029,29.61893,3.94578,35.61706,-21.1725,-2.21198,5.90587,-1.57023,0.59372,5.68722,-3.89696,-0.91203,-0.02417,-2.22222,0.02627,2.31609,1.09875,0.14862,0.03919,-0.3043,0.02115,0.29772,0.0362,0.03767
1711,-4.01608,-50.08319,11.34988,-36.79768,19.19232,3.88535,-66.77055,-39.46095,5.36377,-15.7703,21.28927,9.26592,-17.39772,48.69496,-5.94141,-33.26456,21.25441,3.14346,-39.52944,27.46999,4.24991,24.87041,-22.86708,-1.01318,6.36933,-1.67857,0.53556,5.07889,-3.69057,-0.75459,-0.12477,-2.20242,0.04894,1.82104,0.89937,0.08355,0.02912,-0.28963,0.01455,0.20824,0.03141,0.01257
1712,-6.47291,-57.55753,13.00963,-36.29665,17.87228,3.30909,-75.29258,-45.78121,5.26269,-13.429,16.62902,7.82897,-18.76121,49.55336,-6.159,-25.72441,15.67284,1.60528,-39.3136,23.36062,4.30077,19.37772,-24.22366,0.25462,6.67759,-1.80839,0.24086,4.78094,-3.34144,-0.34699,-0.17712,-1.93538,0.07061,1.28912,0.78245,-0.06172,0.01237,-0.22711,0.01529,0.13152,0.06125,-0.0302
1713,-8.38332,-64.1041,14.16749,-33.83929,16.47883,2.74012,-81.67424,-50.56155,5.13225,-8.96934,11.6753,6.0405,-19.87179,50.19099,-6.56442,-18.34199,10.47538,0.46867,-36.40696,20.04845,4.4888,17.64958,-25.71376,1.60272,6.77502,-1.84269,-0.06016,4.98153,-2.91999,0.31927,-0.27374,-1.52891,0.14611,0.88325,0.7472,-0.23189,-0.02024,-0.14196,0.03326,0.09214,0.10341,-0.07462
1714,-9.9363,-69.4713,14.91292,-28.86656,14.82839,2.16852,-87.02661,-53.36603,5.37712,-0.83331,6.69819,4.36942,-20.85709,50.72093,-7.15152,-11.63285,6.09172,-0.09875,-30.47276,18.25242,5.19868,17.28355,-27.279,2.77084,6.69175,-1.77626,-0.19515,5.56924,-2.6269,0.95929,-0.35229,-1.2142,0.25051,0.80478,0.77859,-0.30784,-0.04414,-0.08759,0.06414,0.10929,0.12571,-0.0895
1715,-11.17601,-73.66558,15.32091,-21.68789,12.79975,1.65474,-91.80032,-54.57236,6.02657,11.32977,1.80205,3.40416,-21.80786,51.20076,-7.88287,-5.95695,2.72101,-0.05559,-21.37219,17.30357,6.67713,17.18567,-28.65525,3.41636,6.49269,-1.67414,-0.13076,6.20768,-2.59603,1.23446,-0.25804,-1.19229,0.28744,1.0945,0.85538,-0.22826,-0.01903,-0.10616,0.08599,0.16831,0.11155,-0.06292
1716,-12.08567,-76.90881,15.46596,-13.8335,10.6992,1.08201,-96.05999,-54.653,6.92666,25.741,-2.48411,3.3537,-22.73999,51.64346,-8.70911,-1.68712,0.42581,0.27412,-10.56342,17.0478,8.66726,17.97745,-29.61333,3.35774,6.25452,-1.58471,0.05121,6.52288,-2.75729,1.03398,0.06499,-1.48182,0.17447,1.55339,0.95072,-0.03914,0.06665,-0.19108,0.07359,0.21831,0.07358,-0.01394
1717,-12.80127,-79.60652,15.48025,-6.7182,8.7366,0.35953,-99.92727,-54.16659,7.78505,39.94973,-6.10657,3.91248,-23.61632,52.0371,-9.57449,1.04823,-0.88371,0.5566,-0.15873,16.87895,10.26877,20.63814,-29.73012,2.57118,6.04525,-1.52462,0.22965,6.37247,-2.9203,0.50551,0.45704,-1.90074,-0.05792,1.9439,1.05918,0.15774,0.17081,-0.29454,0.02591,0.23058,0.04861,0.02673
1718,-13.56155,-82.0754,15.49961,-0.78266,6.93719,-0.42989,-103.47966,-53.5075,8.18968,52.30188,-9.29622,4.75222,-24.38735,52.34983,-10.41454,2.51624,-1.43854,0.72613,8.5167,15.93786,10.66373,24.66221,-28.52042,1.14719,5.92555,-1.54329,0.2776,5.92806,-2.93941,-0.05317,0.65329,-2.20046,-0.27529,2.16708,1.17087,0.29322,0.23113,-0.36728,-0.03172,0.22663,0.06169,0.04472
1719,-14.4701,-84.34962,15.5817,3.96502,5.12164,-1.13731,-106.78281,-52.35443,7.88974,61.71234,-12.34722,5.60168,-25.03558,52.52855,-11.17009,3.12828,-1.5363,0.81195,14.16879,14.30215,9.34342,27.62992,-25.64865,-0.69706,5.92575,-1.69637,0.09469,5.46989,-2.79822,-0.39012,0.50166,-2.20331,-0.34981,2.20995,1.25864,0.33546,0.21783,-0.38133,-0.07348,0.2287,0.10432,0.0414
1720,-15.37444,-86.44102,15.72021,7.66866,3.06282,-1.65361,-109.61255,-50.5848,6.91557,67.71338,-15.57315,6.09934,-25.59319,52.50573,-11.79928,3.25169,-1.43686,0.8251,15.96487,11.97386,6.19259,26.58748,-21.29341,-2.58491,6.0164,-1.94872,-0.28888,5.10661,-2.54606,-0.4732,0.05019,-1.89879,-0.24528,2.03905,1.31711,0.24235,0.14244,-0.33138,-0.08802,0.21904,0.15569,0.01441
1721,-15.9078,-88.2551,15.82405,10.81955,0.76991,-1.97991,-111.14066,-48.37698,5.37935,71.20906,-18.92487,6.18066,-26.09991,52.24974,-12.26645,3.2389,-1.34193,0.81174,15.53562,9.04138,1.84909,19.94146,-16.42926,-3.98135,6.11392,-2.14771,-0.65021,4.81957,-2.27137,-0.41816,-0.51692,-1.45679,-0.01807,1.67141,1.35787,0.02109,0.03245,-0.23569,-0.07133,0.17767,0.20003,-0.03226
1722,-15.77477,-89.32191,15.75696,13.82232,-1.32064,-2.29116,-110.92451,-45.06754,3.55741,73.63713,-21.6564,6.19303,-26.56869,51.79031,-12.54328,3.28088,-1.31349,0.78744,15.00852,7.50931,-2.73058,8.82178,-12.58279,-4.39821,6.14411,-2.12238,-0.67997,4.59259,-2.05016,-0.29174,-0.98166,-1.12694,0.23985,1.22856,1.37053,-0.21822,-0.07792,-0.13143,-0.0215,0.11759,0.22362,-0.07274
1723,-15.01475,-89.16052,15.49107,16.68881,-2.73327,-2.73595,-109.51107,-39.89512,2.08186,75.56799,-23.0404,6.33848,-26.98329,51.18099,-12.63452,3.38611,-1.30697,0.76105,14.54094,9.51781,-6.87502,-3.62008,-10.90225,-3.61058,6.08358,-1.82333,-0.22268,4.47927,-1.94078,-0.06333,-1.16119,-1.08844,0.43962,0.85134,1.32876,-0.34319,-0.14304,-0.06082,0.05181,0.06356,0.2171,-0.07876
1724,-13.83356,-88.06871,15.1834,18.99206,-3.41362,-3.24113,-107.60194,-34.1232,1.55854,76.43349,-23.1946,6.28755,-27.29686,50.45186,-12.5753,3.47266,-1.28216,0.73128,13.28367,13.79872,-10.22061,-13.89622,-11.19924,-1.81186,6.023,-1.39205,0.54457,4.49001,-1.95157,0.26248,-1.00593,-1.35367,0.508,0.58734,1.22784,-0.32634,-0.12836,-0.05378,0.11705,0.0222,0.18505,-0.0507
1725,-12.21028,-87.07223,15.01234,20.21798,-3.63905,-3.61158,-105.02539,-30.39391,2.01034,75.81395,-22.83005,5.72687,-27.43747,49.60661,-12.39967,3.49043,-1.26454,0.66724,12.13519,17.17836,-11.97663,-20.02933,-12.3114,0.33797,6.10349,-1.0782,1.20149,4.56315,-2.05482,0.54999,-0.67178,-1.76773,0.42369,0.44814,1.1016,-0.23704,-0.04423,-0.11591,0.1353,-0.00266,0.14195,-0.01252
1726,-9.85366,-86.76778,14.94923,20.36824,-3.57978,-3.80262,-101.0034,-29.53147,2.92668,74.41546,-22.37162,5.08781,-27.33068,48.67434,-12.11718,3.4807,-1.29334,0.5486,13.73731,18.96785,-10.87995,-22.02179,-13.50731,1.93531,6.43727,-1.04541,1.4033,4.58568,-2.18545,0.63451,-0.41662,-2.088,0.26703,0.4704,0.97966,-0.13783,0.06477,-0.21419,0.09419,0.00364,0.09681,0.01619
1727,-6.59245,-86.81532,14.81904,20.02867,-3.26458,-3.98341,-95.25851,-29.88154,3.82258,73.40578,-21.92376,5.23973,-26.94403,47.72117,-11.7256,3.44259,-1.33916,0.36294,19.64657,20.50609,-6.79376,-21.0289,-14.9877,2.39732,6.96007,-1.23442,1.09563,4.47082,-2.23651,0.4952,-0.38453,-2.08731,0.18026,0.64185,0.87712,-0.0607,0.15672,-0.28112,0.0219,0.03994,0.05808,0.02538
1728,-2.66588,-86.71523,14.57139,19.80161,-2.85207,-4.25499,-88.44565,-29.87825,4.53328,73.07162,-21.73614,6.52955,-26.29993,46.80421,-11.23228,3.32528,-1.36087,0.12883,28.20353,21.77434,-1.26203,-18.47361,-16.99792,1.98619,7.42723,-1.44951,0.47924,4.2305,-2.10817,0.31887,-0.53706,-1.71021,0.24098,0.8362,0.79324,-0.03378,0.20497,-0.26987,-0.03833,0.08203,0.04018,0.01075
1729,1.47682,-86.33012,14.32098,19.74731,-2.57847,-4.50059,-81.55037,-29.52616,4.98597,72.71562,-22.1856,8.27868,-25.42287,45.95029,-10.64863,3.10584,-1.35391,-0.10818,35.81264,21.03976,3.7575,-15.05839,-18.90902,1.6267,7.57614,-1.56255,-0.15608,3.95621,-1.81789,0.38179,-0.7592,-1.14715,0.40764,0.89184,0.67781,-0.04633,0.19577,-0.19824,-0.05822,0.10888,0.04346,-0.0151
1730,5.5362,-85.64451,14.16112,19.51567,-2.63596,-4.50167,-75.32618,-29.51526,5.031,71.58961,-23.49132,9.04546,-24.31547,45.16511,-9.98514,2.8447,-1.33694,-0.30596,39.60293,16.76226,6.56439,-10.4955,-19.3396,1.8927,7.30888,-1.60036,-0.61384,3.64556,-1.50125,0.75191,-0.94265,-0.68178,0.58064,0.71166,0.47545,-0.04905,0.1381,-0.12088,-0.0342,0.1057,0.0495,-0.02813
1731,9.43325,-84.61773,14.10463,18.75574,-3.07011,-4.12661,-70.38802,-30.15575,4.6308,69.50636,-25.33691,7.90208,-23.00461,44.40939,-9.24634,2.65202,-1.34625,-0.43232,38.48517,9.36691,6.29369,-4.11962,-17.56438,2.20393,6.761,-1.66062,-0.86854,3.17807,-1.33701,1.09163,-0.98519,-0.50706,0.64626,0.3549,0.23048,-0.01259,0.07212,-0.08375,0.00751,0.06153,0.04375,-0.01822
1732,13.20352,-83.21491,14.10964,17.35148,-3.52673,-3.48327,-67.09689,-31.03374,4.00569,66.75884,-26.74596,5.51844,-21.57673,43.62077,-8.44271,2.56484,-1.37466,-0.47117,33.15357,1.86196,3.8077,3.97582,-14.62139,1.28555,6.18861,-1.75628,-0.95213,2.47377,-1.40945,0.86907,-0.82834,-0.66173,0.51491,0.07096,0.10051,0.04831,0.04234,-0.10122,0.02562,-0.00402,0.03203,0.00365
1733,16.88812,-81.55072,14.12728,15.57605,-3.29529,-2.84453,-65.02144,-31.67804,3.4675,63.88551,-26.59555,3.65276,-20.15935,42.76498,-7.60034,2.54431,-1.35715,-0.40872,26.28206,-2.27126,1.30429,11.69393,-12.71451,-1.38872,5.74038,-1.76324,-0.82491,1.6636,-1.63861,-0.09252,-0.56675,-1.01471,0.22335,0.1076,0.2161,0.1019,0.04946,-0.14806,0.00475,-0.04747,0.03077,0.02176
1734,20.52546,-79.90446,14.10721,13.92314,-1.84617,-2.37072,-62.75158,-32.24764,3.06699,60.91328,-24.08466,3.72058,-18.84914,41.83712,-6.75104,2.56506,-1.25298,-0.2383,21.15496,-1.78747,0.70038,15.19811,-13.42368,-4.74454,5.34768,-1.51545,-0.41988,1.02773,-1.82255,-1.33015,-0.41812,-1.31995,-0.06758,0.43464,0.53534,0.11536,0.04726,-0.17408,-0.03419,-0.05207,0.0504,0.02568
1735,24.24347,-78.33022,13.91054,12.64999,0.6256,-1.95416,-58.46357,-32.55086,2.61184,56.9586,-19.05838,5.80493,-17.66905,40.87846,-5.9184,2.63374,-1.08347,0.00372,19.54154,2.92736,2.46982,11.42289,-16.5689,-6.82433,4.90557,-1.00259,0.26532,0.77389,-1.75993,-2.12294,-0.57235,-1.42303,-0.18019,0.78197,0.86962,0.05622,-0.01111,-0.15173,-0.05343,-0.03795,0.09048,0.00644
1736,28.2441,-76.6665,13.37852,11.58548,3.23843,-1.38414,-50.96898,-31.82075,2.12004,51.00719,-12.23271,8.87234,-16.60442,39.99036,-5.12509,2.7349,-0.90921,0.24425,20.96383,10.86446,6.10726,1.03583,-20.17429,-6.3353,4.5236,-0.46827,1.07418,0.84193,-1.43651,-2.17758,-1.0356,-1.37223,-0.02688,0.88338,1.04246,-0.11054,-0.12748,-0.09852,-0.02162,-0.03954,0.14064,-0.04604
1737,32.5275,-74.97433,12.56186,10.43755,5.04964,-0.61584,-40.59097,-29.97023,1.93039,43.59137,-5.2542,11.49172,-15.65592,39.30174,-4.40563,2.85161,-0.78736,0.41975,24.33855,19.66632,10.74504,-10.83053,-21.54566,-3.53806,4.4919,-0.27573,1.66642,0.91941,-1.09306,-1.85519,-1.61261,-1.33405,0.30952,0.66587,1.00482,-0.37621,-0.25384,-0.05569,0.05488,-0.08222,0.17926,-0.12748
1738,36.86631,-73.46443,11.67101,9.20487,5.545,0.16606,-28.85549,-27.44672,2.26674,36.63769,-0.05892,12.15929,-14.83558,38.94627,-3.79155,2.98253,-0.73736,0.50573,28.96087,26.41875,14.51568,-17.28209,-19.30985,0.06733,5.00989,-0.6338,1.74695,0.80813,-1.08525,-1.74923,-2.08153,-1.46961,0.61934,0.35517,0.85247,-0.62715,-0.34069,-0.06065,0.13246,-0.14198,0.18293,-0.20224
1739,40.95839,-72.20815,10.90371,8.01834,4.77618,0.73254,-17.79333,-24.49187,3.01389,30.96958,2.39763,9.92477,-14.16931,39.03488,-3.28922,3.07271,-0.7468,0.53366,32.69406,29.7033,14.83548,-14.18356,-14.86481,2.61584,5.92956,-1.39261,1.36384,0.64589,-1.59511,-2.10863,-2.37133,-1.79749,0.76561,0.32895,0.72853,-0.69366,-0.3812,-0.11661,0.17794,-0.14813,0.14637,-0.22192
1740,44.40955,-71.30139,10.45976,6.56394,3.43696,1.05552,-9.25504,-22.03733,3.90802,24.88173,2.81735,5.72248,-13.71602,39.58713,-2.90695,3.00495,-0.79424,0.58141,31.3907,29.28863,11.15374,-3.73332,-11.5346,2.77603,6.86743,-2.11037,0.86064,0.75756,-2.50558,-2.62879,-2.50703,-2.12732,0.78683,0.74613,0.67849,-0.48904,-0.38892,-0.18075,0.19369,-0.06029,0.07872,-0.16542
1741,47.06643,-71.00092,10.46078,4.4216,2.6157,1.37808,-3.49294,-21.73371,4.66427,16.66765,2.52226,2.48054,-13.49272,40.52943,-2.65466,2.71602,-0.85047,0.72537,23.89602,25.37657,6.23614,6.71639,-12.20933,0.24097,7.46459,-2.38155,0.56077,1.31287,-3.52665,-2.81814,-2.46308,-2.2131,0.80034,1.42367,0.62836,-0.06918,-0.35728,-0.20847,0.19854,0.08626,-0.01335,-0.05213
1742,49.3047,-71.34156,10.74695,1.85914,2.9405,2.03707,1.12547,-23.80016,4.95015,7.16005,2.1432,2.6309,-13.42097,41.77776,-2.51877,2.247,-0.90542,0.99639,14.63818,19.58932,3.16056,9.98623,-17.19447,-4.2814,7.52161,-2.15287,0.53434,2.16843,-4.46069,-2.58116,-2.17073,-2.00026,0.86195,2.05068,0.55073,0.39075,-0.269,-0.20493,0.20444,0.20905,-0.11273,0.0715
1743,51.71701,-71.9157,10.9353,-0.41779,4.18949,3.18586,6.51758,-26.24304,4.53634,-1.26795,1.79571,6.12337,-13.38851,43.26259,-2.46917,1.69217,-0.95818,1.35325,9.2469,15.26956,2.89553,4.38476,-23.83377,-9.55765,7.09353,-1.73784,0.60722,2.95284,-5.26426,-2.35951,-1.67183,-1.6858,0.9204,2.46581,0.58494,0.67321,-0.13651,-0.2171,0.20569,0.24871,-0.1686,0.15241
1744,54.67352,-72.31283,10.75247,-2.11248,5.69317,4.67119,13.44535,-26.85227,3.58805,-7.09976,1.67863,11.12382,-13.32118,44.89638,-2.47803,1.16161,-1.001,1.69838,10.02705,15.27692,4.82794,-5.64817,-28.72647,-14.37651,6.50698,-1.51548,0.51812,3.37743,-5.97569,-2.67746,-1.14285,-1.52216,0.84661,2.76306,0.91636,0.644,-0.00126,-0.27275,0.1739,0.22149,-0.12343,0.15661
1745,58.14768,-72.54638,10.26749,-3.58977,6.63139,5.94769,21.11943,-25.18477,2.63405,-10.88406,2.02992,15.01129,-13.17945,46.57789,-2.53124,0.71467,-1.00797,1.8902,15.03696,19.57773,6.78541,-13.14072,-30.37599,-17.68916,6.21367,-1.59603,0.17469,3.41521,-6.65582,-3.63387,-0.73753,-1.61707,0.52158,3.10177,1.55029,0.32953,0.10546,-0.34844,0.07739,0.1858,0.02243,0.09043
1746,61.8414,-72.97952,9.79169,-5.56584,6.37796,6.24342,27.8633,-22.65593,2.14155,-14.7544,2.91657,15.50184,-12.93748,48.24416,-2.63946,0.31273,-0.94404,1.80881,19.35501,25.26257,6.16678,-12.99787,-30.09538,-18.65225,6.47673,-1.79933,-0.16671,3.21004,-7.40768,-4.87971,-0.49716,-1.94553,-0.03246,3.49353,2.25666,-0.11485,0.17323,-0.40537,-0.06883,0.17539,0.1918,-0.0037
1747,65.55685,-73.86493,9.52787,-8.45518,5.09372,5.22823,32.59665,-20.89755,2.18261,-21.04804,4.34752,12.57024,-12.58647,49.90411,-2.8188,-0.13799,-0.78591,1.46483,18.00402,29.20099,2.71135,-3.73658,-30.35653,-17.12812,7.19382,-1.9023,-0.08427,2.94849,-8.37494,-5.99875,-0.40577,-2.44277,-0.62985,3.90237,2.76302,-0.49863,0.1954,-0.43158,-0.19452,0.20165,0.29093,-0.07635
1748,69.46267,-75.11844,9.35861,-11.92198,3.77589,3.59987,35.91865,-20.41235,2.53628,-31.09537,6.38902,9.20989,-12.14455,51.61539,-3.06957,-0.68671,-0.56223,1.03752,9.18716,30.48043,-0.6506,12.19577,-32.62416,-14.04339,8.03008,-1.82716,0.55711,2.76131,-9.61799,-6.82385,-0.41718,-2.99826,-1.08528,4.38436,2.98835,-0.70981,0.17379,-0.43737,-0.24384,0.27537,0.28939,-0.10226
1749,73.94473,-76.73843,9.05979,-15.11905,3.40137,2.64758,39.88688,-21.58052,2.93455,-44.19273,8.96819,9.02024,-11.64793,53.42065,-3.37927,-1.24942,-0.35635,0.74707,-3.90967,29.17513,-0.3944,29.39482,-36.52336,-11.00208,8.69667,-1.662,1.45135,2.62171,-10.94408,-7.40705,-0.50293,-3.456,-1.30163,5.0295,3.04084,-0.73773,0.11818,-0.43607,-0.21324,0.39554,0.23247,-0.08673
1750,79.12774,-78.66143,8.44825,-17.33537,4.22952,3.28318,46.24708,-24.30158,3.01595,-57.77264,11.82942,13.34195,-11.14242,55.31805,-3.74911,-1.66115,-0.23773,0.71154,-15.47516,26.09785,4.47843,42.33676,-40.38846,-9.47667,9.07365,-1.56465,2.05798,2.34524,-11.90917,-7.79771,-0.64848,-3.66287,-1.26847,5.81949,3.01816,-0.59496,0.0426,-0.43407,-0.13555,0.5363,0.17936,-0.0451
1751,84.60884,-80.39339,7.42341,-18.60844,5.9536,5.66929,54.61404,-26.68167,2.44624,-68.66198,14.51606,21.05236,-10.67108,57.25047,-4.18664,-1.81678,-0.20947,0.93424,-21.44959,24.07374,12.45337,48.41943,-42.26513,-10.17524,9.18743,-1.63844,1.88539,1.80231,-12.10627,-7.90006,-0.77929,-3.52389,-1.09236,6.57174,2.88326,-0.27261,-0.02422,-0.42095,-0.06644,0.65006,0.15038,0.0116
1752,89.78372,-81.69279,6.14751,-20.0133,8.04533,9.29765,63.32451,-27.27369,1.30194,-74.68824,16.40499,29.55751,-10.25764,59.04786,-4.66605,-1.72294,-0.25062,1.34908,-20.82373,25.02806,21.13533,47.8241,-40.73751,-12.70767,9.08653,-1.86219,0.80971,1.1225,-11.46587,-7.50644,-0.77257,-3.06871,-0.94532,6.97785,2.54711,0.18398,-0.04567,-0.38227,-0.05538,0.67869,0.1376,0.06469
1753,94.17573,-82.5887,4.87947,-23.13354,9.91519,13.07551,71.36127,-26.06797,-0.10367,-76.1367,17.21576,35.50375,-9.89324,60.49279,-5.12878,-1.52842,-0.34907,1.8268,-15.04235,28.58744,27.73264,41.57515,-35.53623,-15.77495,8.79708,-2.13325,-0.75982,0.62817,-10.29167,-6.42796,-0.57987,-2.48535,-0.91578,6.77888,1.98359,0.65236,-0.00622,-0.32448,-0.10295,0.59124,0.13014,0.08659
1754,97.54614,-82.93514,3.72552,-28.75644,10.96114,15.45163,78.68125,-23.47125,-1.47981,-75.67508,17.3637,35.66448,-9.55224,61.46463,-5.51739,-1.50172,-0.47905,2.17539,-7.83365,33.64827,29.21598,31.31549,-27.81588,-17.92179,8.32961,-2.31971,-2.09924,0.57199,-9.06195,-4.6399,-0.2795,-1.99834,-0.94463,5.97675,1.24752,1.03951,0.07373,-0.26929,-0.15921,0.4235,0.11053,0.07103
1755,99.91896,-82.83183,2.8062,-36.14365,10.74509,14.92043,85.62854,-20.94361,-2.33144,-76.35825,17.57944,28.24854,-9.21385,61.94982,-5.79906,-1.84625,-0.59424,2.21668,-3.33645,38.25889,23.76743,20.48897,-19.9319,-18.30775,7.7633,-2.31038,-2.62671,0.91929,-8.12449,-2.42427,-0.03554,-1.71068,-0.89508,4.84322,0.476,1.31454,0.15004,-0.22627,-0.16775,0.24752,0.06385,0.03929
1756,101.46473,-82.73523,2.30707,-43.34715,9.24812,10.99143,92.29456,-20.64581,-2.13395,-78.82482,18.08592,14.20927,-8.86946,61.96716,-5.97667,-2.51303,-0.66663,1.9274,-2.60975,39.9416,12.2946,13.20608,-14.71722,-16.80661,7.23363,-2.05531,-2.26174,1.44862,-7.49505,-0.23239,0.02403,-1.55076,-0.6897,3.71262,-0.16055,1.46652,0.18499,-0.18261,-0.11431,0.11072,0.00194,0.01088
1757,102.3829,-83.01141,2.31544,-47.93365,6.85727,4.67931,98.12811,-23.8352,-0.87606,-80.2433,18.37525,-3.10302,-8.50339,61.54288,-6.06858,-3.20101,-0.6966,1.46437,-2.61327,36.9428,-2.27775,10.46843,-14.54739,-13.51648,6.84333,-1.58664,-1.395,2.04594,-6.98363,1.6757,-0.12162,-1.36993,-0.38105,2.82494,-0.55832,1.52836,0.16676,-0.11923,-0.03588,0.03105,-0.04396,-0.00568
1758,102.91532,-83.59585,2.66587,-47.97517,4.10824,-2.18499,102.526,-29.72408,0.77363,-76.35428,17.81397,-20.16957,-8.09366,60.72752,-6.08539,-3.56272,-0.68993,1.03113,1.8045,29.71102,-17.51527,8.62982,-20.26806,-8.59262,6.52082,-1.0421,-0.56626,2.80475,-6.47881,3.37229,-0.41386,-1.10992,-0.1122,2.30203,-0.71397,1.57706,0.10505,-0.03991,0.01304,0.02368,-0.05475,-0.00047
1759,103.36965,-84.09949,2.99199,-42.92213,1.48096,-8.11662,105.67933,-35.78267,1.86829,-64.69174,16.22617,-35.0308,-7.62024,59.59043,-6.02593,-3.36096,-0.64293,0.71041,14.80067,21.30033,-32.59103,2.80805,-30.59154,-2.78311,6.10141,-0.65081,-0.17462,3.8029,-5.97876,5.05306,-0.76678,-0.86263,0.00822,2.1307,-0.72777,1.69277,0.02181,0.02221,0.00749,0.09695,-0.04977,0.04352
1760,104.07786,-84.26819,3.00061,-33.51803,-0.70186,-12.45885,108.36201,-39.70691,1.8087,-45.77757,13.83856,-46.95044,-7.06614,58.21151,-5.87742,-2.50982,-0.55665,0.4325,37.55085,15.04236,-47.2387,-8.03654,-41.78553,2.43011,5.47228,-0.61036,-0.36641,4.91897,-5.42311,6.73324,-1.09027,-0.7424,0.02752,2.17516,-0.7313,1.89942,-0.06181,0.03172,-0.02011,0.23048,-0.06688,0.13569
1761,105.36066,-84.27403,2.65589,-21.16193,-2.31074,-15.20519,111.25613,-41.17932,0.70541,-21.94435,10.91445,-55.40354,-6.42059,56.696,-5.625,-1.11377,-0.445,0.07632,68.52834,11.70132,-60.49855,-19.69372,-48.59342,5.92829,4.73048,-0.95373,-1.02693,5.90198,-4.72527,8.19527,-1.35512,-0.78092,0.10449,2.25036,-0.77801,2.11968,-0.13773,-0.0215,-0.01427,0.37127,-0.11828,0.25535
1762,107.46742,-84.55005,2.11589,-7.44724,-3.39367,-16.78247,114.47974,-41.81541,-0.80404,4.35979,7.38366,-59.56197,-5.68284,55.16891,-5.26383,0.50999,-0.31597,-0.42689,104.87029,8.78338,-70.13266,-25.84739,-46.83952,8.10487,4.15627,-1.54153,-1.86099,6.54786,-3.91931,9.22639,-1.59818,-0.96219,0.28784,2.19683,-0.83031,2.217,-0.20028,-0.1219,0.03084,0.45841,-0.17976,0.35471
1763,110.43282,-85.431,1.56642,5.65614,-4.07971,-17.83627,117.58595,-43.58236,-2.02795,30.42072,2.98635,-58.56003,-4.87007,53.72632,-4.81584,1.93713,-0.17678,-1.05888,142.28116,2.91193,-73.13017,-23.47326,-36.3366,10.3294,4.01984,-2.17584,-2.54084,6.79881,-3.20847,9.80823,-1.85553,-1.27327,0.45179,1.9646,-0.80801,2.09745,-0.23827,-0.24601,0.06644,0.46035,-0.21379,0.39402
1764,114.06712,-86.96394,1.08108,15.92268,-4.4556,-18.76587,119.94355,-46.92529,-2.67277,53.33558,-2.25827,-52.10325,-4.02617,52.39735,-4.33112,2.85517,-0.05941,-1.71348,175.68729,-6.37629,-67.35554,-16.02465,-21.65068,13.09495,4.28416,-2.66594,-2.80958,6.68637,-2.77789,10.01542,-2.13352,-1.64104,0.50449,1.62389,-0.6509,1.77406,-0.25309,-0.36546,0.05955,0.38715,-0.19626,0.36808
1765,118.09015,-88.91621,0.54986,21.52753,-4.53488,-19.37145,121.31487,-50.14682,-3.05631,70.64053,-7.77715,-41.07855,-3.2186,51.13229,-3.86506,3.19409,-0.02411,-2.21058,200.8101,-15.3089,-53.32096,-10.59072,-9.40666,15.25632,4.56867,-2.83022,-2.52487,6.24473,-2.63684,9.78511,-2.40175,-1.89421,0.50139,1.31241,-0.35494,1.32067,-0.26291,-0.43671,0.02914,0.27847,-0.12796,0.29486
1766,122.02113,-90.99363,-0.13723,21.6735,-4.30992,-18.83928,121.7776,-51.24119,-3.70672,80.4985,-12.60079,-27.72052,-2.52452,49.81013,-3.46375,3.02535,-0.12932,-2.32498,214.93219,-19.46033,-34.58235,-12.30286,-4.32625,15.24829,4.47334,-2.59043,-1.70086,5.51884,-2.66063,8.9675,-2.6151,-1.90147,0.54161,1.16286,0.00551,0.85206,-0.28713,-0.42706,0.01813,0.18671,-0.03612,0.20554
1767,125.1385,-93.02356,-0.9025,16.95698,-3.78675,-16.08317,121.42994,-49.66901,-4.78946,81.96333,-15.83406,-14.82662,-2.02616,48.31319,-3.15087,2.43925,-0.38035,-1.88851,217.51698,-17.34173,-16.3845,-21.05566,-6.91171,12.69821,3.96235,-2.07975,-0.54987,4.64876,-2.69806,7.63671,-2.73362,-1.71625,0.64638,1.22433,0.29776,0.52328,-0.32971,-0.35297,0.05385,0.14988,0.03617,0.14053
1768,126.8038,-94.96379,-1.55813,9.34334,-3.0083,-10.43439,120.72049,-46.40108,-6.04301,76.22035,-17.21414,-4.32877,-1.77578,46.61402,-2.93099,1.52396,-0.69901,-0.90489,212.08698,-10.75273,-3.02817,-32.98979,-14.38428,8.65805,3.44477,-1.59167,0.57383,3.89056,-2.68826,6.20457,-2.7445,-1.5404,0.75852,1.44512,0.42317,0.40765,-0.37295,-0.27132,0.13037,0.17382,0.06079,0.11645
1769,126.67445,-96.97391,-1.86602,1.44383,-2.10271,-2.47442,120.28864,-43.59699,-6.95495,66.89762,-17.17424,3.23962,-1.77331,44.76707,-2.79548,0.45843,-0.97593,0.41181,205.40041,-3.70276,4.12543,-44.11024,-22.99946,4.62814,3.4687,-1.3752,1.32422,3.50341,-2.66854,5.15988,-2.66213,-1.53272,0.8151,1.72896,0.41123,0.38391,-0.38633,-0.22793,0.21385,0.23797,0.05075,0.10241
1770,124.76581,-99.33694,-1.63164,-4.79897,-1.19406,5.72004,120.48926,-43.41183,-6.99938,57.8622,-16.22574,7.98473,-1.98877,42.83581,-2.72028,-0.52198,-1.10163,1.66684,202.95787,0.20296,6.28111,-52.64996,-29.48666,1.68472,4.2768,-1.48729,1.51099,3.5482,-2.72891,4.72664,-2.52894,-1.68447,0.80312,1.98644,0.4011,0.24377,-0.35218,-0.22965,0.26434,0.30867,0.04789,0.05396
1771,121.34303,-102.1756,-0.83344,-9.07052,-0.25428,11.91017,121.2262,-46.40959,-5.93582,50.38623,-14.45612,10.86617,-2.38691,40.8405,-2.67832,-1.289,-1.00238,2.50687,205.17984,0.26538,6.52928,-59.54196,-31.56103,0.30479,5.62689,-1.80642,1.18396,3.83614,-2.95895,4.75335,-2.4116,-1.86987,0.75329,2.19099,0.5103,-0.07314,-0.28248,-0.25871,0.25763,0.36163,0.08007,-0.03003
1772,116.70775,-105.34394,0.39793,-12.21729,0.83811,15.58708,121.75288,-51.31458,-3.98927,42.74429,-11.62595,14.69075,-2.92174,38.78848,-2.65988,-1.8449,-0.70776,2.86663,207.07278,-1.33719,9.6028,-66.82969,-28.29751,0.5857,7.00865,-2.13553,0.60638,4.08695,-3.38197,4.87696,-2.34707,-1.97059,0.69016,2.38142,0.73751,-0.42682,-0.20844,-0.29343,0.19878,0.39745,0.14134,-0.10871
1773,111.15147,-108.56509,1.87705,-15.00118,2.09672,18.05341,120.95875,-56.12557,-1.69501,32.68635,-7.64841,22.46886,-3.52297,36.73,-2.67553,-2.20038,-0.36565,2.95976,202.28096,-1.75877,19.20502,-75.90915,-20.69276,2.42645,8.02999,-2.31798,0.09826,4.13585,-3.95146,4.81114,-2.3071,-1.94753,0.6168,2.60586,0.99818,-0.65615,-0.15334,-0.31015,0.12129,0.42864,0.20875,-0.15092
1774,104.96504,-111.61788,3.4508,-17.42878,3.3672,20.53756,117.77283,-59.54594,0.44474,20.17136,-3.03278,33.71979,-4.11386,34.74354,-2.74741,-2.33682,-0.14781,3.01705,187.75162,-0.03068,33.92284,-85.93307,-11.52678,5.53879,8.60263,-2.31615,-0.11982,4.01234,-4.59761,4.52346,-2.26608,-1.84194,0.54958,2.87108,1.20814,-0.73099,-0.1279,-0.29403,0.06841,0.46451,0.26243,-0.16108
1775,98.49915,-114.27897,4.9688,-19.01115,4.38024,22.41007,111.78783,-61.45676,2.12892,7.68904,1.11248,43.05825,-4.62823,32.8978,-2.88056,-2.23873,-0.14227,3.06445,165.56087,2.39064,46.574,-93.72982,-4.28973,9.31536,8.86357,-2.22157,0.01202,3.82508,-5.33398,4.1304,-2.2825,-1.75436,0.50759,3.14385,1.35113,-0.77821,-0.13896,-0.25421,0.06029,0.50368,0.29602,-0.16981
1776,92.16222,-116.32076,6.28123,-19.3697,4.79853,21.64597,103.46877,-62.70089,3.30265,-1.64877,3.61199,43.61409,-5.01334,31.24049,-3.05684,-1.91872,-0.31525,2.93528,140.84842,2.82032,48.87639,-95.92361,-1.20158,12.81713,8.9205,-2.14548,0.40343,3.57139,-6.23178,3.70366,-2.42413,-1.75727,0.48105,3.33563,1.45425,-0.92966,-0.18489,-0.21393,0.08031,0.52215,0.3097,-0.19855
1777,86.27762,-117.48321,7.25674,-18.55773,4.36629,17.30652,93.86949,-64.0408,4.07354,-6.03313,3.8879,33.01945,-5.23281,29.80978,-3.2545,-1.4482,-0.55221,2.49898,118.7408,-0.4373,38.02045,-91.69639,-1.84932,14.90732,8.7778,-2.12678,0.85021,3.13121,-7.25351,3.23109,-2.65733,-1.82512,0.45902,3.34336,1.5124,-1.13239,-0.24577,-0.18875,0.09891,0.48547,0.29806,-0.2283
1778,80.97167,-117.53125,7.81926,-16.81905,3.15533,10.92256,84.22821,-65.36151,4.50488,-5.04775,2.20556,15.80593,-5.26506,28.63828,-3.45572,-0.94306,-0.74108,1.84688,103.31215,-6.60876,18.9977,-83.6212,-3.70422,14.66164,8.41937,-2.12523,1.12755,2.48843,-8.1227,2.6835,-2.83508,-1.85882,0.45279,3.1581,1.49887,-1.2242,-0.28876,-0.18026,0.10101,0.3885,0.26291,-0.23044
1779,76.22728,-116.5114,7.99519,-14.20054,1.63244,5.11186,75.62344,-66.0761,4.56787,1.07649,-0.57788,-0.3599,-5.11195,27.72812,-3.64962,-0.48409,-0.80859,1.19179,97.56891,-13.07107,0.56406,-75.62515,-4.57666,11.84522,7.97661,-2.08749,1.13496,1.82197,-8.50591,2.09127,-2.8166,-1.79668,0.45588,2.87932,1.41619,-1.13493,-0.28879,-0.1832,0.08614,0.26463,0.222,-0.2073
1780,71.97247,-114.71972,7.88987,-10.62526,0.2567,1.17873,68.50554,-65.73194,4.27083,11.23087,-3.62287,-10.81173,-4.8094,27.03264,-3.82793,-0.05178,-0.75756,0.64928,101.78881,-17.39063,-11.51311,-70.26226,-4.51029,7.12426,7.6497,-1.98951,0.96019,1.34602,-8.31633,1.55437,-2.57847,-1.66706,0.42248,2.63213,1.28207,-0.90383,-0.24666,-0.19124,0.05764,0.16001,0.1875,-0.17323
1781,68.16035,-112.40279,7.58628,-6.21918,-0.93507,-1.51609,62.69169,-64.10741,3.69632,23.03887,-6.52954,-16.11748,-4.41617,26.4449,-3.97496,0.40869,-0.63784,0.15847,112.41048,-18.70893,-17.44587,-68.29111,-5.03981,1.86904,7.55973,-1.86976,0.77633,1.13322,-7.82823,1.13359,-2.24449,-1.56051,0.32013,2.52379,1.11415,-0.60745,-0.18674,-0.20202,0.01987,0.11509,0.15292,-0.12779
1782,64.66679,-109.60497,7.12338,-1.29374,-2.21089,-4.00308,57.53133,-61.00702,2.94571,33.72223,-9.19086,-19.10973,-3.99797,25.81939,-4.08816,0.9168,-0.52957,-0.34508,123.60653,-17.28004,-20.67537,-70.00628,-6.9742,-2.23208,7.57655,-1.80011,0.68465,1.11482,-7.43033,0.78231,-1.99392,-1.53935,0.19131,2.60829,0.94884,-0.34152,-0.13989,-0.21621,-0.0155,0.15076,0.11122,-0.07137
1783,61.25277,-106.25353,6.54812,3.70788,-3.58191,-6.26326,52.45136,-56.43656,2.16924,41.23519,-11.329,-21.26364,-3.61176,25.04129,-4.17432,1.43669,-0.4954,-0.78556,130.36337,-13.57024,-23.45087,-75.30807,-9.44868,-3.6655,7.39805,-1.82384,0.67755,1.21598,-7.34474,0.43931,-1.938,-1.58899,0.13539,2.86309,0.85469,-0.215,-0.12676,-0.23408,-0.02968,0.25845,0.07635,-0.02704
1784,57.6525,-102.3371,5.94573,8.15373,-4.57355,-7.41223,47.30442,-51.1137,1.55769,44.73033,-12.4936,-22.22914,-3.29784,24.07183,-4.23504,1.88523,-0.53344,-0.98695,130.37582,-8.71588,-25.64149,-82.1815,-11.08075,-1.78457,6.84468,-1.90426,0.70836,1.44538,-7.48395,0.18985,-2.03202,-1.63972,0.20687,3.16482,0.86707,-0.26202,-0.14358,-0.24971,-0.01217,0.39603,0.06611,-0.01619
1785,53.69425,-97.98029,5.41196,11.20509,-4.81277,-7.10665,42.2398,-46.30029,1.23851,44.54451,-12.76434,-22.22431,-3.0821,22.95441,-4.26684,2.16488,-0.5942,-0.87706,124.35989,-5.00025,-27.37198,-86.78612,-11.37447,2.64897,6.07395,-1.92357,0.75174,1.83406,-7.60605,0.24108,-2.08245,-1.60927,0.34802,3.3454,0.92293,-0.37231,-0.15801,-0.24509,0.02637,0.50529,0.07171,-0.02285
1786,49.37214,-93.36874,4.99729,12.42661,-4.45279,-5.91023,37.36337,-42.89262,1.19642,42.24773,-12.78315,-22.01748,-2.98384,21.78836,-4.27146,2.24202,-0.6448,-0.56732,115.34274,-4.33042,-29.04813,-85.80007,-10.8158,7.57655,5.48963,-1.79248,0.79341,2.306,-7.52185,0.62453,-1.90345,-1.46932,0.43982,3.3104,0.92451,-0.40806,-0.13256,-0.20715,0.06135,0.54819,0.06874,-0.01613
1787,44.77644,-88.6692,4.69126,12.31879,-3.75458,-4.46901,32.53924,-40.92838,1.30368,40.0325,-12.7704,-20.98401,-3.02631,20.69402,-4.27504,2.18857,-0.67389,-0.24565,106.72272,-6.39648,-29.22688,-78.95638,-9.88318,10.75364,5.41002,-1.56822,0.77026,2.62613,-7.2512,0.98097,-1.50759,-1.27556,0.40546,3.11877,0.87374,-0.37872,-0.0626,-0.14666,0.06992,0.52446,0.05436,0.00064
1788,40.04512,-84.09084,4.45735,11.97876,-2.85634,-3.19462,27.58332,-39.91484,1.41701,39.57289,-12.34166,-17.90523,-3.21821,19.757,-4.31862,2.13563,-0.68893,-0.04961,100.49693,-9.1098,-26.03509,-69.34186,-8.58544,11.08297,5.7969,-1.41162,0.57439,2.50809,-7.02076,0.81998,-1.13724,-1.09103,0.28817,2.90326,0.85438,-0.39447,0.00944,-0.08319,0.04704,0.45107,0.04542,0.00061
1789,35.38425,-79.88335,4.25406,12.28152,-1.81284,-2.26661,22.70063,-39.23351,1.43891,41.17813,-11.03627,-12.43697,-3.52999,19.00769,-4.42642,2.18335,-0.69689,0.00257,97.04619,-10.01617,-19.11995,-61.58829,-6.74785,9.18755,6.32544,-1.46776,0.1936,1.8671,-7.05163,0.01663,-1.09168,-0.95437,0.24459,2.71851,0.9139,-0.51754,0.02047,-0.03503,0.02129,0.33343,0.0517,-0.02788
1790,30.99902,-76.28629,4.05154,13.32346,-0.59882,-1.6126,18.14163,-38.61429,1.3134,43.85043,-8.7484,-5.30137,-3.8989,18.43497,-4.6093,2.3227,-0.67769,-0.00467,95.31431,-7.9894,-9.70057,-58.44597,-4.32837,6.75703,6.6821,-1.78326,-0.20075,0.99708,-7.33416,-1.03608,-1.47302,-0.9292,0.40422,2.53159,1.03689,-0.72769,-0.05761,-0.02523,0.0368,0.17882,0.07359,-0.07658
1791,26.93546,-73.40573,3.86264,14.46614,0.71647,-1.10196,13.50874,-38.32074,1.05522,45.87946,-5.95862,1.77609,-4.26325,18.02674,-4.87308,2.45717,-0.61194,0.01878,92.7439,-4.34686,-0.25455,-58.83656,-1.74541,5.14253,6.69696,-2.24954,-0.40383,0.4245,-7.62498,-1.74655,-2.0543,-1.07447,0.6929,2.36264,1.16244,-0.92586,-0.18203,-0.07125,0.09703,0.03574,0.1068,-0.12565
1792,23.12108,-71.09506,3.71785,14.98965,1.82397,-0.76333,7.9868,-38.35714,0.7192,46.23677,-3.69726,6.44022,-4.58217,17.80302,-5.20248,2.49997,-0.51553,0.07867,87.18913,-1.28764,5.98487,-59.60541,-0.07322,4.53086,6.35601,-2.61996,-0.33872,0.51304,-7.61577,-1.74713,-2.4297,-1.35582,0.85669,2.29525,1.19786,-0.97552,-0.26727,-0.16182,0.14754,-0.02038,0.13826,-0.15167
1793,19.54157,-69.13181,3.62154,14.62843,2.45058,-0.64959,1.32659,-38.06385,0.36706,45.31324,-2.83386,7.36987,-4.84599,17.80147,-5.56648,2.42638,-0.43025,0.12606,79.14249,0.506,7.11695,-59.00663,-1.02053,4.34571,5.78924,-2.67639,-0.04739,1.1986,-7.2142,-1.08442,-2.33682,-1.67782,0.6781,2.34178,1.08945,-0.82182,-0.25672,-0.26751,0.12601,0.04001,0.15297,-0.14295
1794,16.36278,-67.37189,3.52476,13.68663,2.65858,-0.68887,-5.49529,-36.75356,0.09803,44.34532,-3.40847,5.29507,-5.07704,18.041,-5.9285,2.27895,-0.3845,0.13556,71.52738,1.69747,4.01944,-58.23217,-5.97688,4.10512,5.22598,-2.39206,0.36297,2.08095,-6.63989,-0.10903,-1.84022,-1.95248,0.16778,2.3961,0.86333,-0.53593,-0.1631,-0.35911,0.0206,0.16627,0.1437,-0.10617
1795,13.85039,-65.665,3.32151,12.73013,2.55215,-0.87141,-10.83268,-34.01746,-0.04763,44.31926,-5.04609,1.7364,-5.31356,18.49508,-6.25808,2.12094,-0.38444,0.10237,67.37801,2.98382,-1.28695,-59.40966,-14.35489,3.74143,4.87156,-1.93627,0.7377,2.71909,-6.24458,0.7503,-1.25954,-2.08783,-0.40173,2.35459,0.58824,-0.24038,-0.05382,-0.40461,-0.10986,0.27467,0.11278,-0.06033
1796,12.09758,-63.89875,2.93411,12.13597,2.09195,-1.25017,-13.83908,-29.89993,-0.22599,45.64797,-7.52234,-2.05611,-5.5809,19.09811,-6.54507,1.99172,-0.42663,0.03073,68.09335,4.60172,-7.06769,-62.6859,-22.86152,3.3321,4.78322,-1.56472,0.91458,2.87136,-6.15654,1.18186,-0.95215,-2.00432,-0.66563,2.22793,0.32014,-0.01196,-0.00345,-0.37797,-0.17462,0.31633,0.07,-0.02384
1797,10.88333,-62.1963,2.41378,11.91573,1.35814,-1.74832,-15.39059,-25.50719,-0.68705,48.43592,-10.62987,-5.0213,-5.8652,19.78965,-6.80204,1.89578,-0.49164,-0.05088,72.94553,5.84919,-11.76135,-66.03773,-27.26392,2.876,4.85996,-1.47607,0.78711,2.5458,-6.19969,1.10757,-1.07682,-1.71019,-0.4444,2.09448,0.08538,0.143,-0.04498,-0.2893,-0.12598,0.2965,0.02646,-0.00226
1798,9.81131,-60.97069,1.93511,11.90628,0.53813,-2.22419,-17.36457,-22.89471,-1.44905,52.40022,-14.00629,-6.69428,-6.12759,20.51077,-7.05323,1.81974,-0.55514,-0.09854,79.21621,4.90744,-14.52739,-67.07029,-25.23029,2.47209,4.9348,-1.7016,0.3658,1.93386,-6.16586,0.65197,-1.49859,-1.32608,0.12092,1.99797,-0.06416,0.21066,-0.14825,-0.18275,0.00369,0.24319,-0.00341,0.00497
1799,8.65367,-60.52157,1.62372,12.02086,-0.02916,-2.52615,-20.99807,-23.14755,-2.26011,56.53213,-16.68759,-6.89054,-6.337,21.20411,-7.31885,1.75899,-0.59042,-0.06081,83.29318,1.4976,-15.19472,-64.93935,-18.09855,2.60419,4.88318,-2.05647,-0.14857,1.30913,-6.07138,0.0622,-1.91458,-0.9993,0.70459,1.8955,-0.04392,0.14216,-0.24732,-0.09872,0.1393,0.1744,-0.00577,-0.00044
1800,7.45818,-60.73962,1.44689,12.33517,0.10625,-2.54537,-25.87524,-25.44801,-2.86712,59.53865,-17.36655,-5.2144,-6.48703,21.85678,-7.61282,1.73566,-0.56724,0.09616,83.26138,-2.12683,-13.52716,-60.26836,-10.60677,3.81195,4.68071,-2.23529,-0.37611,0.93401,-6.07657,-0.35088,-2.08774,-0.84572,1.01918,1.71217,0.14804,-0.04802,-0.2918,-0.05773,0.21962,0.09667,0.01167,-0.00537
1801,6.25401,-61.34452,1.31821,12.8139,0.96279,-2.34069,-30.87041,-28.29202,-3.16581,60.61863,-15.81449,-1.88204,-6.59965,22.50423,-7.95652,1.76715,-0.49346,0.33563,79.69462,-3.9708,-9.83412,-54.55997,-8.12192,6.01622,4.40975,-2.03263,0.0121,0.934,-6.18056,-0.37969,-1.98411,-0.93355,0.9593,1.45045,0.37274,-0.24157,-0.27182,-0.06546,0.22407,0.02835,0.01844,0.0084
1802,4.88958,-62.03547,1.19527,13.20896,2.04116,-2.08995,-35.54962,-30.36512,-3.13715,60.07445,-13.17597,2.04491,-6.70252,23.18656,-8.37528,1.84442,-0.43373,0.55216,74.41889,-3.55631,-5.19321,-49.10177,-12.59653,8.29025,4.2313,-1.50762,0.98601,1.23658,-6.16962,-0.09893,-1.7298,-1.23983,0.62834,1.27258,0.44835,-0.30209,-0.2059,-0.11312,0.16977,0.0133,-0.01193,0.04395
1803,3.20778,-62.47749,1.06383,13.25802,2.82502,-1.94428,-40.34195,-30.76944,-2.81674,58.92864,-10.81246,5.39213,-6.80334,23.92545,-8.87506,1.93155,-0.45395,0.63653,68.6605,-1.18336,-0.9806,-44.73285,-20.90696,9.54202,4.28906,-0.94707,2.10108,1.6097,-5.86603,0.21646,-1.47684,-1.64304,0.23531,1.3365,0.29118,-0.18445,-0.12106,-0.18146,0.09093,0.07545,-0.07913,0.08521
1804,1.19952,-62.42964,0.89643,12.8844,3.06567,-1.96725,-45.43523,-29.35417,-2.34804,58.08602,-9.57813,7.33515,-6.89643,24.74245,-9.44215,1.98155,-0.57183,0.548,63.25087,2.36293,1.56739,-41.99102,-27.44358,9.31236,4.64096,-0.67924,2.75858,1.83192,-5.43112,0.35288,-1.30663,-1.9887,-0.05765,1.60014,-0.01866,0.02557,-0.04163,-0.24943,0.01491,0.17431,-0.1528,0.1091
1805,-1.04636,-61.82532,0.65206,12.1891,2.89844,-2.10367,-50.23956,-26.53069,-2.04974,57.72688,-9.58897,7.78334,-6.98019,25.68848,-10.04885,1.96192,-0.73167,0.33736,59.1945,6.52842,1.98031,-40.78897,-28.25235,7.88241,5.18177,-0.86064,2.54892,1.85819,-5.26286,0.29438,-1.20051,-2.14098,-0.21361,1.87467,-0.29615,0.17629,0.01473,-0.29272,-0.04684,0.24314,-0.19182,0.09981
1806,-3.4702,-60.84052,0.32656,11.37411,2.6685,-2.24707,-54.23433,-23.16249,-2.31281,57.38007,-10.51598,7.17802,-7.06617,26.81302,-10.65925,1.86832,-0.84253,0.09941,56.50273,10.67826,0.36583,-40.49359,-23.25905,5.9191,5.67316,-1.37947,1.50738,1.8401,-5.60712,0.16055,-1.09338,-2.03478,-0.2883,2.03513,-0.39244,0.16626,0.03702,-0.2892,-0.09175,0.25762,-0.17583,0.05756
1807,-6.0313,-59.88216,-0.01791,10.74777,2.57939,-2.37386,-57.49075,-20.64113,-3.22051,56.71052,-11.96086,5.96847,-7.17201,28.10473,-11.24115,1.73935,-0.85934,-0.09509,54.06798,13.21822,-2.80744,-40.42233,-15.27829,4.20423,5.87894,-1.97577,0.1152,1.92376,-6.26329,0.08296,-0.95903,-1.76189,-0.34846,2.04706,-0.29884,0.01193,0.02333,-0.25178,-0.11731,0.23208,-0.11963,-0.00056
1808,-8.59461,-59.22174,-0.31431,10.49954,2.684,-2.49265,-60.05318,-19.90385,-4.36137,55.8185,-13.28086,4.69976,-7.30148,29.49422,-11.77041,1.64059,-0.79942,-0.20801,51.58837,13.23735,-6.15219,-40.45444,-7.84718,3.38766,5.78091,-2.44988,-1.00838,2.10823,-6.77822,0.12299,-0.84858,-1.53189,-0.39371,1.93133,-0.13241,-0.17501,-0.01426,-0.22732,-0.11842,0.18381,-0.06129,-0.04699
1809,-11.03504,-58.88049,-0.52137,10.59297,2.94685,-2.57707,-61.96819,-20.88614,-5.19079,55.2642,-13.83998,4.08448,-7.43813,30.89552,-12.23913,1.61708,-0.70929,-0.21227,50.26734,11.53576,-7.81147,-40.48939,-3.48614,3.6897,5.57243,-2.71642,-1.48939,2.27606,-6.87187,0.25256,-0.85115,-1.45503,-0.34993,1.74362,-0.01525,-0.27973,-0.05532,-0.23601,-0.09397,0.12167,-0.03031,-0.05949
1810,-13.31688,-58.85322,-0.61595,10.81504,3.23893,-2.58647,-63.77457,-23.03091,-5.45292,55.54301,-13.46863,4.53221,-7.55662,32.22266,-12.65152,1.65342,-0.63134,-0.10658,50.77322,9.51128,-6.96594,-40.23063,-3.23925,4.8443,5.42805,-2.75567,-1.33755,2.33121,-6.64309,0.39292,-1.0005,-1.47091,-0.17842,1.55107,0.03508,-0.27526,-0.08247,-0.25021,-0.05625,0.05304,-0.02458,-0.03677
1811,-15.37487,-59.00516,-0.63031,10.93437,3.48427,-2.50456,-66.19226,-25.39359,-5.23235,56.57719,-12.31461,5.90171,-7.64006,33.39666,-13.01032,1.69021,-0.58014,0.07259,51.97137,8.37189,-4.27051,-39.33398,-6.61183,6.38499,5.32771,-2.62062,-0.79631,2.28233,-6.39648,0.47057,-1.22788,-1.52373,0.0523,1.4173,0.07543,-0.22352,-0.09008,-0.25016,-0.02052,-0.0005,-0.0236,-4e-05
1812,-17.03282,-59.00829,-0.66696,10.75502,3.67157,-2.33084,-69.30485,-27.04327,-4.80932,57.65209,-10.87316,7.4716,-7.68989,34.3734,-13.31628,1.68032,-0.54694,0.26616,52.3138,8.22545,-1.24397,-37.93884,-11.83737,7.87889,5.19039,-2.44528,-0.14509,2.22952,-6.36857,0.45904,-1.42585,-1.65319,0.23973,1.41379,0.13018,-0.19563,-0.08792,-0.25394,0.01346,0.00023,-0.01753,0.02293
1813,-18.04636,-58.52776,-0.86094,10.19244,3.78968,-2.07582,-72.27754,-27.54558,-4.57123,57.7808,-9.98824,8.25576,-7.71105,35.16293,-13.56731,1.62224,-0.52101,0.41945,51.15364,8.01006,0.39313,-36.55691,-16.67818,8.88375,5.08891,-2.35728,0.37521,2.25679,-6.56429,0.39637,-1.52673,-1.85737,0.34805,1.56086,0.16876,-0.20372,-0.08845,-0.27134,0.05539,0.07299,-0.0097,0.01938
1814,-18.36156,-57.5266,-1.26717,9.35917,3.84871,-1.7786,-74.3288,-27.19935,-4.85678,56.38183,-10.37084,7.64683,-7.6945,35.80504,-13.76034,1.54881,-0.49568,0.50196,48.47063,6.52612,-0.50544,-35.65859,-19.96983,8.87793,5.2269,-2.36263,0.62171,2.33276,-6.78331,0.34291,-1.49892,-2.00366,0.40949,1.77199,0.16011,-0.20855,-0.08575,-0.27011,0.10431,0.18325,-0.0025,-0.00165
1815,-18.30307,-56.34477,-1.77401,8.52264,3.86271,-1.52694,-75.73952,-26.86279,-5.62716,53.81718,-11.97402,5.81076,-7.62709,36.32067,-13.89741,1.4938,-0.47452,0.50573,44.43615,3.40258,-3.67724,-35.2681,-22.14673,7.6136,5.67126,-2.36623,0.66057,2.35009,-6.78338,0.32954,-1.35405,-2.01404,0.44751,1.91578,0.08811,-0.16672,-0.06386,-0.23163,0.14451,0.26503,0.00064,-0.02013
1816,-18.25591,-55.24289,-2.21768,7.91663,3.85532,-1.41075,-77.20687,-26.69765,-6.42119,51.09666,-13.73692,3.61986,-7.50645,36.7057,-13.97681,1.45841,-0.46647,0.44526,39.8416,0.36485,-7.47767,-35.18321,-24.07325,5.54822,6.18912,-2.24994,0.74397,2.25225,-6.45808,0.35599,-1.18312,-1.98768,0.44121,1.925,-0.05321,-0.06263,-0.03006,-0.19483,0.1579,0.2737,-0.01021,-0.01871
1817,-18.35892,-54.18932,-2.52772,7.65679,3.9002,-1.46039,-78.74555,-26.02326,-6.82669,49.1008,-14.26978,2.1463,-7.34162,36.9674,-13.98992,1.42135,-0.46259,0.3548,36.03486,0.19305,-10.0404,-35.51329,-25.70946,3.62769,6.42707,-1.932,1.03988,2.11454,-5.88067,0.42138,-1.09382,-2.03509,0.34162,1.86094,-0.26207,0.09746,-0.01163,-0.20034,0.12921,0.22336,-0.0478,0.0104
1818,-18.6027,-53.15013,-2.72274,7.76398,4.08773,-1.63233,-79.71226,-24.6339,-6.83034,48.14033,-12.95748,1.99186,-7.15415,37.12873,-13.93636,1.37445,-0.43972,0.27449,34.03152,3.73704,-10.39747,-36.49989,-26.19371,2.67193,6.19279,-1.43558,1.42453,2.05762,-5.20933,0.52206,-1.0833,-2.12465,0.10605,1.8264,-0.51671,0.28115,-0.01978,-0.23351,0.05317,0.16257,-0.1117,0.05628
1819,-18.98502,-52.15903,-2.84345,8.18705,4.39261,-1.84988,-79.6752,-23.07505,-6.65543,48.19281,-10.4975,2.91063,-6.97233,37.21401,-13.83191,1.32796,-0.3913,0.23289,33.94994,9.02155,-8.91117,-37.96182,-25.19049,2.98784,5.5839,-0.93295,1.64755,2.10484,-4.58936,0.61281,-1.08464,-2.17785,-0.22589,1.84002,-0.7474,0.41214,-0.04767,-0.25971,-0.04692,0.12399,-0.17661,0.08898
1820,-19.51869,-51.21498,-2.91807,8.71887,4.5999,-2.02278,-78.99547,-21.85417,-6.47191,49.02967,-8.44648,4.06995,-6.82129,37.23907,-13.70292,1.28967,-0.341,0.23513,35.09277,13.1777,-6.94937,-38.83315,-23.35064,4.3763,4.90293,-0.6801,1.5929,2.19615,-4.17625,0.62537,-1.0967,-2.22464,-0.53497,1.86098,-0.85814,0.4105,-0.09129,-0.28107,-0.12834,0.11511,-0.20957,0.08343
1821,-20.17487,-50.27984,-2.94886,9.05997,4.46299,-2.06412,-78.42989,-21.25828,-6.30728,50.259,-8.01689,4.89115,-6.71969,37.20718,-13.5585,1.25312,-0.32818,0.2724,36.85881,14.37913,-5.48106,-37.60476,-21.4427,6.2974,4.47341,-0.82647,1.32342,2.28404,-4.12517,0.53873,-1.17105,-2.3303,-0.69742,1.86007,-0.77972,0.25918,-0.14365,-0.31529,-0.16214,0.12921,-0.196,0.04484
1822,-20.85546,-49.29487,-2.94017,9.00689,3.88771,-1.93658,-78.44903,-21.43153,-6.12575,51.3011,-9.34089,5.37114,-6.67995,37.10975,-13.39477,1.21268,-0.37749,0.32183,38.72124,12.35249,-4.48204,-33.50936,-19.52503,8.06609,4.4648,-1.29075,0.96854,2.37522,-4.49483,0.41984,-1.31354,-2.41913,-0.61344,1.82816,-0.52639,0.02617,-0.1855,-0.34586,-0.13777,0.14955,-0.14953,0.00503
1823,-21.41618,-48.22966,-2.91728,8.67291,2.95835,-1.70713,-79.1048,-22.17636,-5.89895,51.7826,-11.74494,5.63954,-6.69966,36.94184,-13.21309,1.18346,-0.48039,0.3584,39.9756,8.22981,-3.83293,-27.44742,-17.3201,9.01697,4.85035,-1.88182,0.58163,2.51392,-5.18347,0.36976,-1.44651,-2.31671,-0.24912,1.77215,-0.2131,-0.19125,-0.19403,-0.33418,-0.05648,0.16091,-0.10077,-0.01169
1824,-21.74731,-47.13923,-2.90636,8.27595,1.99285,-1.47924,-80.18069,-22.955,-5.63167,51.57783,-14.14524,5.65481,-6.75174,36.71759,-13.01964,1.17556,-0.58957,0.37245,39.99376,4.29981,-3.78843,-21.57355,-15.09966,8.66409,5.45639,-2.45403,0.1136,2.72154,-5.95528,0.4598,-1.44712,-1.95426,0.27904,1.69566,0.00486,-0.31757,-0.15565,-0.26978,0.05583,0.15781,-0.07194,-0.00874
1825,-21.86293,-46.16066,-2.91071,7.84406,1.39708,-1.29747,-81.4404,-23.4194,-5.4095,50.42045,-15.45689,5.32981,-6.78911,36.47917,-12.81945,1.17038,-0.65142,0.36837,38.16204,2.71036,-4.54207,-17.95094,-13.92896,6.86981,6.05763,-2.88979,-0.40691,2.94759,-6.50848,0.72446,-1.25716,-1.48352,0.73173,1.58028,0.01799,-0.28845,-0.07978,-0.18718,0.15169,0.13783,-0.0678,0.00502
1826,-21.9017,-45.41659,-2.91694,7.27257,1.41502,-1.14668,-82.75315,-23.59534,-5.37036,48.05716,-14.99134,4.8034,-6.77703,36.27488,-12.61793,1.13417,-0.6432,0.35424,34.16612,4.42468,-5.80985,-17.60344,-14.80085,4.06728,6.42952,-3.05409,-0.73227,3.08029,-6.61981,1.13582,-0.97426,-1.19799,0.92313,1.38706,-0.17948,-0.07848,-0.00375,-0.1439,0.19672,0.09383,-0.08598,0.0333
1827,-21.9687,-44.87314,-2.91901,6.6351,2.00863,-1.02587,-83.68083,-23.65651,-5.54285,44.87375,-12.70441,4.40827,-6.7193,36.12944,-12.41564,1.06401,-0.57429,0.33955,29.0973,8.93456,-6.88638,-19.9819,-17.61655,1.1985,6.43138,-2.86265,-0.58798,3.0588,-6.3252,1.51875,-0.76773,-1.29703,0.8447,1.16718,-0.46867,0.20918,0.03229,-0.17542,0.19265,0.03432,-0.1173,0.07083
1828,-22.02801,-44.28399,-2.92578,6.20011,2.89996,-0.95741,-83.45076,-23.63652,-5.75491,41.8431,-9.31742,4.31732,-6.64764,36.0423,-12.2075,0.9996,-0.47397,0.33982,25.24598,14.53361,-7.14359,-23.28087,-21.20504,-0.68569,6.09948,-2.38499,0.0154,2.94333,-5.89461,1.58622,-0.72778,-1.72094,0.61689,1.11888,-0.65195,0.36509,0.01722,-0.26467,0.16109,0.00298,-0.14022,0.09104
1829,-22.02825,-43.33403,-2.93376,6.1348,3.72348,-0.93937,-81.72078,-23.37904,-5.7855,39.93494,-6.09928,4.44067,-6.59519,36.00664,-11.98544,0.97853,-0.37699,0.3653,24.55004,19.06134,-6.37643,-25.54282,-24.28784,-0.87705,5.64409,-1.84234,0.76284,2.852,-5.5939,1.20265,-0.84189,-2.22836,0.38223,1.40782,-0.60667,0.2681,-0.03388,-0.35905,0.12369,0.04234,-0.13707,0.07599
1830,-22.05782,-41.91106,-2.90532,6.33458,4.22195,-0.93691,-79.18144,-22.79953,-5.58164,39.48617,-4.21518,4.5674,-6.5751,36.02758,-11.74326,1.00134,-0.30826,0.4027,26.9564,20.85098,-4.89532,-26.06124,-26.06201,0.7463,5.25961,-1.45249,1.30209,2.84778,-5.50855,0.55391,-1.03135,-2.57643,0.24261,1.93925,-0.38145,-0.00812,-0.09736,-0.40853,0.09977,0.14197,-0.11014,0.03551
1831,-22.28123,-40.1913,-2.79206,6.59409,4.36052,-0.92012,-77.1474,-21.9802,-5.23134,40.11569,-3.93764,4.55018,-6.57705,36.12384,-11.48536,1.04252,-0.27791,0.43387,30.36278,19.75896,-3.31284,-25.32237,-25.89036,3.58198,5.00605,-1.30664,1.46637,2.92024,-5.56907,-0.01119,-1.17939,-2.67231,0.21234,2.42597,-0.12759,-0.29422,-0.14871,-0.39754,0.09855,0.24695,-0.0744,-0.0092
1832,-22.76199,-38.4246,-2.57153,6.73528,4.24869,-0.87831,-76.75057,-20.89654,-4.82157,41.0834,-4.66642,4.36522,-6.57892,36.3262,-11.21929,1.07209,-0.28595,0.44925,32.04716,17.3072,-2.32534,-23.97392,-23.51962,6.35768,4.84321,-1.34253,1.26368,3.00237,-5.62963,-0.25458,-1.17168,-2.55199,0.19841,2.62858,0.02674,-0.45911,-0.16353,-0.33895,0.10018,0.30606,-0.04315,-0.04312
1833,-23.3456,-36.78857,-2.27721,6.70455,3.9974,-0.81439,-78.07978,-19.48736,-4.44179,41.70042,-5.63414,4.09041,-6.56349,36.66674,-10.94572,1.07397,-0.32139,0.45048,30.67879,15.38994,-2.4239,-22.37374,-19.65571,7.83583,4.71503,-1.41394,0.77896,2.99091,-5.561,-0.15198,-0.96599,-2.26868,0.07996,2.48967,0.01809,-0.44602,-0.1286,-0.24988,0.06659,0.2988,-0.02618,-0.0581
1834,-23.75881,-35.46017,-1.97235,6.53741,3.69112,-0.72949,-80.08059,-18.15045,-4.17454,41.5206,-6.34919,3.88766,-6.5291,37.16183,-10.66035,1.05123,-0.36644,0.44176,27.19882,14.74262,-3.40994,-20.91207,-15.97429,7.7878,4.61437,-1.4137,0.15686,2.81803,-5.32486,0.18218,-0.63678,-1.88172,-0.16761,2.11111,-0.16532,-0.25746,-0.05499,-0.14773,-0.01744,0.23461,-0.03439,-0.04797
1835,-23.75147,-34.59029,-1.7016,6.26533,3.40094,-0.62729,-81.2877,-17.49839,-3.9775,40.39179,-6.59651,3.88662,-6.47996,37.7828,-10.35444,1.01347,-0.40624,0.41992,23.83209,15.02748,-4.36646,-20.04529,-14.11148,7.12714,4.57764,-1.37434,-0.40323,2.54733,-5.03063,0.57054,-0.33555,-1.54882,-0.45735,1.69428,-0.45118,0.02408,0.02354,-0.07377,-0.12572,0.14692,-0.06596,-0.01693
1836,-23.20863,-34.14807,-1.48576,5.85291,3.17871,-0.51687,-80.79971,-17.58023,-3.7088,38.28411,-6.35832,4.01219,-6.4166,38.44936,-10.02778,0.96406,-0.43023,0.37723,21.8232,15.91034,-4.4655,-19.99021,-14.66569,6.87673,4.62334,-1.43412,-0.73616,2.34175,-4.84431,0.82758,-0.20178,-1.45859,-0.65613,1.44556,-0.68672,0.2503,0.07026,-0.07411,-0.20902,0.08325,-0.09919,0.01527
1837,-22.23406,-33.90578,-1.32955,5.30494,3.05702,-0.4128,-78.86063,-17.80602,-3.30578,35.35101,-5.79881,4.02557,-6.34193,39.06596,-9.69535,0.90374,-0.42942,0.31842,20.61134,17.32445,-3.69749,-20.50599,-16.88927,7.13281,4.72917,-1.70184,-0.80921,2.34875,-4.86063,0.87945,-0.28927,-1.62087,-0.63351,1.45291,-0.76191,0.31961,0.06688,-0.14522,-0.22133,0.07636,-0.11731,0.03198
1838,-21.11171,-33.61076,-1.21047,4.68062,3.03529,-0.32539,-76.54116,-17.72866,-2.83057,32.0224,-5.31408,3.68776,-6.26221,39.57069,-9.37442,0.8312,-0.39222,0.2584,19.19894,18.6287,-2.70417,-21.20929,-19.52109,7.16209,4.89663,-2.1399,-0.70025,2.61512,-5.01189,0.82413,-0.5238,-1.85054,-0.33463,1.63624,-0.69888,0.25713,0.02578,-0.23417,-0.14421,0.12298,-0.12609,0.0352
1839,-20.11737,-33.11673,-1.08759,4.10875,2.99906,-0.26928,-74.91848,-17.41275,-2.32432,28.97903,-5.35399,2.87945,-6.18888,39.95857,-9.07529,0.75606,-0.33075,0.21302,17.36478,18.77749,-2.15049,-21.69632,-21.57979,6.40105,5.14791,-2.54085,-0.50635,3.08809,-5.12606,0.83587,-0.72759,-1.96099,0.12867,1.82037,-0.59084,0.16168,-0.01243,-0.28864,-0.01084,0.18788,-0.13759,0.03794
1840,-19.37534,-32.40437,-0.93199,3.71439,2.75731,-0.25576,-74.47402,-17.08592,-1.76127,26.94844,-6.10527,1.72725,-6.13579,40.27309,-8.80192,0.69664,-0.29061,0.19022,15.67743,17.45343,-2.24254,-21.47475,-22.62128,5.11306,5.51598,-2.6586,-0.2755,3.63698,-5.05865,1.02158,-0.75356,-1.9367,0.51912,1.83935,-0.50854,0.11094,-0.00844,-0.29485,0.10549,0.22808,-0.15187,0.04675
1841,-18.87412,-31.54568,-0.7526,3.53179,2.22884,-0.26551,-74.98672,-16.79982,-1.25253,26.24826,-7.49073,0.63015,-6.11262,40.60243,-8.55177,0.67445,-0.31173,0.18358,14.92611,15.31886,-2.81671,-20.14642,-22.59667,4.10337,5.99115,-2.39304,0.01666,4.10388,-4.79816,1.34057,-0.62268,-1.90579,0.6761,1.65373,-0.47928,0.11935,0.03714,-0.27507,0.15176,0.22354,-0.16226,0.05641
1842,-18.54742,-30.70441,-0.59299,3.48665,1.6282,-0.24989,-75.79012,-16.55681,-1.11333,26.4864,-9.12164,0.06767,-6.1311,41.0593,-8.32327,0.7008,-0.37811,0.17741,15.40389,13.39569,-3.67795,-17.81222,-21.77357,3.96163,6.45719,-1.85636,0.39123,4.34026,-4.46842,1.63924,-0.48435,-1.97043,0.62474,1.36607,-0.49881,0.16393,0.08423,-0.25616,0.13293,0.18139,-0.164,0.06103
1843,-18.31142,-30.12909,-0.47533,3.45639,1.38699,-0.17795,-76.21838,-16.54804,-1.49618,26.78211,-10.00442,0.24805,-6.19752,41.70351,-8.11494,0.76323,-0.43393,0.16745,16.41127,12.7789,-4.54039,-15.28651,-20.77164,4.65639,6.68914,-1.30486,0.75564,4.26959,-4.26861,1.73572,-0.45036,-2.1243,0.46685,1.17199,-0.53797,0.21095,0.09195,-0.24862,0.08472,0.12586,-0.15533,0.06189
1844,-18.07609,-29.97256,-0.35943,3.28001,1.72906,-0.07227,-75.9479,-16.87786,-2.10271,26.30442,-8.99531,0.9297,-6.29679,42.49561,-7.91106,0.8162,-0.44288,0.15956,16.74553,14.49576,-4.93492,-13.35191,-20.47222,5.60221,6.54271,-1.01289,0.91557,3.92658,-4.32276,1.53112,-0.50847,-2.30368,0.25965,1.24361,-0.5642,0.2412,0.05001,-0.25065,0.03396,0.0908,-0.13902,0.06546
1845,-17.8254,-30.17556,-0.17318,2.90053,2.45621,0.01644,-75.14491,-17.37374,-2.4512,24.97373,-5.88588,1.68646,-6.39862,43.35975,-7.68992,0.81063,-0.4034,0.16389,15.80782,18.72171,-4.55685,-12.13088,-21.63898,6.07245,6.06571,-1.11975,0.72703,3.48009,-4.59814,1.10703,-0.56713,-2.43309,0.02344,1.62444,-0.57726,0.27505,-0.01932,-0.2561,-0.00906,0.10473,-0.12649,0.08144
1846,-17.61286,-30.59317,0.1256,2.54016,3.14716,0.04374,-74.22531,-17.94594,-2.26402,23.70571,-1.90294,2.19048,-6.48191,44.24435,-7.44637,0.74239,-0.33353,0.18648,14.31079,23.92838,-3.638,-11.18844,-24.07204,5.68545,5.49819,-1.5485,0.25201,3.14682,-4.9215,0.68373,-0.55328,-2.47436,-0.19718,2.16206,-0.59862,0.33816,-0.07818,-0.26212,-0.03984,0.16722,-0.12788,0.11022
1847,-17.44316,-31.07602,0.53079,2.46783,3.42124,0.007,-73.44075,-18.72798,-1.54738,23.45066,0.95687,2.25264,-6.53605,45.11485,-7.18016,0.65428,-0.26847,0.22478,13.54705,27.49387,-2.75825,-10.06353,-26.54148,4.49401,5.05473,-2.04168,-0.27033,3.04956,-5.11777,0.40871,-0.44693,-2.41117,-0.33171,2.61732,-0.62748,0.38414,-0.09419,-0.26353,-0.05348,0.24775,-0.13668,0.12713
1848,-17.21528,-31.43276,0.9758,2.6981,3.05497,-0.0459,-72.80276,-19.7549,-0.63022,24.2143,0.93946,1.83896,-6.55844,45.95779,-6.88917,0.59259,-0.24837,0.26464,14.11909,27.259,-2.5896,-8.78525,-27.63563,2.81141,4.82402,-2.33805,-0.59666,3.10008,-5.09611,0.25049,-0.27443,-2.24953,-0.32992,2.80768,-0.63157,0.32748,-0.05786,-0.25406,-0.04606,0.30077,-0.13426,0.10322
1849,-16.79531,-31.46882,1.34747,3.02589,2.06106,-0.05046,-72.21432,-20.66732,-0.05611,25.15047,-2.56634,1.11183,-6.56195,46.79181,-6.58399,0.57484,-0.28194,0.28953,15.62341,23.0017,-3.61505,-7.54877,-27.07224,1.08569,4.77875,-2.32383,-0.59926,3.07378,-4.87848,0.12394,-0.10261,-2.05177,-0.19424,2.69493,-0.60754,0.17485,0.00998,-0.23888,-0.01724,0.29352,-0.11753,0.04594
1850,-16.14804,-31.14605,1.58151,3.23362,0.70059,0.00865,-71.69798,-21.09136,-0.06229,25.30129,-8.26579,0.34219,-6.56606,47.61536,-6.29178,0.5859,-0.33894,0.29216,16.99102,16.8877,-5.46801,-6.63739,-25.70257,-0.13209,4.83173,-2.02116,-0.28586,2.85816,-4.59309,0.00153,-0.01639,-1.89354,0.02439,2.43176,-0.61228,0.03081,0.07053,-0.22333,0.02582,0.24501,-0.1092,-0.00861
1851,-15.45158,-30.62639,1.74071,3.08493,-0.57224,0.09052,-71.67033,-21.11597,-0.2765,24.10951,-13.32385,-0.22883,-6.59051,48.37008,-6.04009,0.57335,-0.3719,0.272,16.72295,12.23295,-6.95377,-5.98426,-24.41951,-0.43613,4.89751,-1.56929,0.1981,2.60057,-4.41782,-0.08762,-0.05755,-1.82225,0.2409,2.22846,-0.68819,-0.03926,0.09435,-0.20596,0.06656,0.20829,-0.12666,-0.04196
1852,-14.93462,-30.0929,1.92606,2.40399,-1.27268,0.15833,-72.471,-21.119,-0.20913,21.82718,-15.34579,-0.4263,-6.652,49.00258,-5.84201,0.45884,-0.33175,0.23374,14.01047,11.00959,-7.20514,-5.29408,-23.54326,0.24345,4.94008,-1.17347,0.62522,2.59137,-4.41865,-0.04221,-0.19895,-1.82843,0.37832,2.10572,-0.80141,-0.05541,0.07892,-0.18542,0.08572,0.1961,-0.15695,-0.06232
1853,-14.58978,-29.54867,2.15284,1.29747,-1.15797,0.2201,-73.52738,-21.25781,0.21077,19.32239,-14.05305,-0.22373,-6.75906,49.5284,-5.6831,0.18585,-0.17757,0.20082,9.83324,12.70558,-6.41406,-3.96922,-22.99453,1.64187,5.03397,-1.00272,0.84009,3.01471,-4.51842,0.24345,-0.38479,-1.90367,0.41316,1.93005,-0.87684,-0.05367,0.04354,-0.17619,0.07387,0.17344,-0.17184,-0.07838
1854,-14.20472,-28.86568,2.35965,0.09851,-0.34555,0.28261,-73.61439,-21.45177,0.76788,17.31644,-10.7872,0.13799,-6.91332,50.00402,-5.53928,-0.2376,0.09494,0.1946,6.25471,15.67115,-5.28385,-1.44213,-22.88482,3.28216,5.26141,-1.05294,0.8819,3.76552,-4.61366,0.69032,-0.56013,-2.08183,0.37046,1.69331,-0.85342,-0.0551,0.01186,-0.20449,0.03777,0.12945,-0.15503,-0.08855
1855,-13.63263,-27.98876,2.50605,-0.8451,0.74265,0.30986,-72.0872,-21.71017,1.34953,16.05764,-7.15581,0.22454,-7.1029,50.48123,-5.40235,-0.74837,0.43291,0.21995,4.80695,18.6496,-4.33188,2.48327,-23.53864,4.44568,5.60798,-1.15609,0.90926,4.43175,-4.64149,1.00977,-0.67239,-2.37859,0.29328,1.56508,-0.7141,-0.06571,-0.00321,-0.2775,-0.00272,0.09839,-0.11119,-0.0852
1856,-12.91911,-27.01813,2.60687,-1.45104,1.57219,0.26721,-69.43801,-22.2286,1.93304,15.30045,-4.55722,-0.25698,-7.2989,51.02457,-5.28076,-1.3086,0.78013,0.264,5.35155,20.54779,-3.93657,6.89896,-25.05296,4.25036,5.9277,-1.18113,0.98545,4.54296,-4.51958,0.93942,-0.66037,-2.71434,0.21059,1.68124,-0.49188,-0.07099,-0.00051,-0.36939,-0.02551,0.11081,-0.05821,-0.06073
1857,-12.2914,-26.09927,2.7,-1.90064,1.8668,0.19881,-66.81564,-23.10384,2.36865,14.52373,-3.82365,-1.09389,-7.47731,51.71389,-5.18667,-1.94743,1.15029,0.32505,6.3124,20.43351,-4.32836,9.5152,-27.18183,2.28364,6.04666,-1.17804,1.02158,3.97104,-4.18123,0.47314,-0.49262,-2.96828,0.13642,2.00146,-0.24818,-0.05816,0.0147,-0.45098,-0.01685,0.15894,-0.01368,-0.01763
1858,-11.93909,-25.23294,2.80444,-2.33046,1.80912,0.18748,-64.97456,-23.947,2.53081,13.43225,-4.45382,-1.71072,-7.61483,52.58197,-5.12879,-2.69362,1.59458,0.41849,6.34773,18.98196,-5.12611,7.85693,-29.52093,-0.61714,5.85011,-1.23435,0.95766,3.07768,-3.73209,-0.13564,-0.21792,-3.0773,0.09126,2.35269,-0.03682,-0.03912,0.03238,-0.51064,0.0255,0.2079,0.0153,0.02854
1859,-11.81586,-24.22877,2.91294,-2.76666,1.73935,0.25902,-63.80851,-24.01179,2.55329,12.10497,-5.08549,-1.76662,-7.67792,53.58113,-5.10548,-3.53322,2.12351,0.54983,5.34065,18.14747,-5.57744,1.68325,-31.67713,-2.60944,5.32329,-1.23912,0.8823,2.43627,-3.49337,-0.56771,0.06452,-3.00102,0.09616,2.58422,0.09459,-0.02678,0.04262,-0.52371,0.08958,0.23376,0.02407,0.06295
1860,-11.71314,-22.8341,2.97942,-3.4025,1.85569,0.39463,-62.73071,-22.68201,2.55709,10.38438,-4.91443,-1.36474,-7.66517,54.64374,-5.11087,-4.47319,2.724,0.70186,3.56441,19.16103,-5.44328,-5.6967,-32.91267,-2.29503,4.62194,-0.98822,0.88308,2.37062,-3.7755,-0.639,0.2845,-2.68734,0.12596,2.6248,0.08837,-0.0086,0.04718,-0.44605,0.14178,0.23553,0.00243,0.07996
1861,-11.4037,-20.9716,2.94419,-4.42703,2.21147,0.58104,-61.29421,-20.00793,2.39943,7.8967,-4.01578,-0.71907,-7.62108,55.72036,-5.12933,-5.53261,3.39199,0.85589,0.94972,21.74652,-5.05842,-9.38598,-32.03989,0.08377,4.08609,-0.57111,0.84977,2.79354,-4.57483,-0.36564,0.42766,-2.18596,0.10202,2.4639,-0.0937,0.02899,0.05997,-0.27881,0.13829,0.22021,-0.05204,0.07441
1862,-10.73986,-18.8512,2.80208,-5.70723,2.82434,0.80643,-59.40635,-17.01599,1.94641,4.76545,-2.56699,0.08578,-7.60254,56.76334,-5.13308,-6.69343,4.11637,1.00935,-2.32396,24.6317,-4.52637,-7.28081,-28.41606,2.92016,4.05849,-0.42605,0.55465,3.42246,-5.46983,0.16128,0.45947,-1.65261,0.00447,2.10596,-0.42624,0.09687,0.08332,-0.08773,0.06769,0.18428,-0.12033,0.04364
1863,-9.73341,-16.86898,2.62705,-6.8247,3.71104,1.04812,-57.21893,-15.2035,1.31195,1.84003,-0.49724,1.03502,-7.64668,57.73223,-5.09538,-7.89701,4.87315,1.17706,-5.28054,26.51207,-3.53821,-1.85124,-22.84599,4.6846,4.58161,-0.885,-0.0788,4.09286,-5.918,0.89007,0.3428,-1.2331,-0.10193,1.62709,-0.82928,0.22703,0.1021,0.05269,-0.03595,0.13207,-0.18093,0.0055
1864,-8.46459,-15.39845,2.49331,-7.41514,4.80733,1.28091,-54.72166,-15.38494,0.70011,0.00428,2.06779,2.02088,-7.74938,58.59525,-5.01251,-9.08137,5.6323,1.37721,-6.55766,26.87633,-2.08976,2.48893,-17.35217,5.00822,5.33683,-1.78278,-0.81824,4.78521,-5.66906,1.728,0.12544,-1.0441,-0.1606,1.22667,-1.19072,0.43862,0.10584,0.0962,-0.12488,0.09379,-0.22525,-0.00759
1865,-7.00726,-14.55464,2.42624,-7.4723,5.91824,1.48168,-51.62086,-17.10746,0.26442,-0.56114,4.62465,2.83084,-7.87368,59.32687,-4.8973,-10.22281,6.36359,1.6089,-5.38151,26.19238,-0.59759,3.81124,-13.76709,4.45095,5.86817,-2.57988,-1.26282,5.37475,-4.88075,2.42195,-0.06641,-1.16105,-0.16572,1.07009,-1.36953,0.66416,0.09746,0.03641,-0.16433,0.09243,-0.24436,0.01763
1866,-5.44124,-14.09115,2.41611,-7.29503,6.81251,1.63941,-47.72456,-18.99523,0.1184,-0.36923,6.79082,3.33983,-7.97229,59.92054,-4.76079,-11.34808,7.05391,1.8585,-2.30327,25.73496,0.66459,3.89676,-12.92004,3.60856,5.9069,-2.82463,-1.15915,5.55173,-3.92117,2.64854,-0.12393,-1.55523,-0.13459,1.13147,-1.24885,0.77345,0.08819,-0.09391,-0.14528,0.11221,-0.22459,0.06426
1867,-3.8832,-13.58027,2.43868,-7.22215,7.39098,1.76242,-43.26285,-19.76219,0.30495,-0.05452,8.54855,3.5857,-8.01446,60.39404,-4.61352,-12.53245,7.74455,2.11868,1.20548,26.47278,1.6419,5.50074,-14.87792,2.66808,5.52284,-2.45918,-0.60779,5.0859,-3.1513,2.25944,-0.02269,-2.05299,-0.09676,1.28534,-0.84047,0.70475,0.08953,-0.23459,-0.09017,0.12619,-0.16792,0.1116
1868,-2.49545,-12.67517,2.47908,-7.49714,7.72915,1.87795,-38.9838,-19.07972,0.73792,-0.25286,9.97449,3.66075,-7.99957,60.76963,-4.46206,-13.8735,8.52206,2.39291,3.11381,27.90585,2.23827,8.89633,-18.93911,1.57491,5.04407,-1.7927,0.02865,4.05643,-2.71165,1.40465,0.17821,-2.4159,-0.0702,1.44367,-0.30563,0.51293,0.10669,-0.32939,-0.03311,0.12598,-0.09443,0.14537
1869,-1.40819,-11.30402,2.52891,-8.20145,7.95809,2.01151,-35.7086,-17.66826,1.22562,-1.47189,11.07027,3.65226,-7.94548,61.02551,-4.31548,-15.42945,9.44488,2.68193,1.91996,28.64371,2.5099,11.9505,-23.70878,0.34975,4.81846,-1.27472,0.40075,2.88548,-2.56973,0.42363,0.38528,-2.50137,-0.03442,1.64212,0.11318,0.29581,0.13642,-0.3558,0.00932,0.13644,-0.03604,0.14657
1870,-0.59494,-9.67252,2.57405,-9.19433,8.19819,2.17513,-33.78952,-16.48871,1.58877,-3.76971,12.00563,3.67372,-7.86115,61.0785,-4.1815,-17.17644,10.49713,2.9836,-2.44175,28.12443,2.75178,13.27649,-27.71631,-0.79021,4.96479,-1.20838,0.38929,2.09204,-2.65513,-0.34943,0.51152,-2.3453,0.04736,1.97574,0.22135,0.12919,0.16834,-0.32877,0.03896,0.19447,-0.02773,0.10334
1871,0.14034,-8.10068,2.58927,-10.26587,8.60546,2.38049,-32.69099,-15.95726,1.70793,-6.73161,13.08295,3.84197,-7.74571,60.84885,-4.05626,-19.0437,11.63047,3.2982,-8.2875,26.88523,3.14668,13.75292,-30.45371,-1.38557,5.33245,-1.55356,0.12448,1.93236,-2.92533,-0.73832,0.52853,-2.10896,0.1652,2.39236,0.03106,0.03466,0.19165,-0.28419,0.05823,0.28844,-0.07445,0.03203
1872,0.98319,-6.84322,2.55642,-11.34068,9.32742,2.63998,-31.55556,-15.76884,1.54755,-9.79356,14.37621,4.18254,-7.60394,60.31506,-3.93179,-20.97314,12.80375,3.62362,-13.5629,25.63231,3.44916,15.26594,-32.33688,-1.05288,5.67743,-1.96934,-0.13966,2.24266,-3.28975,-0.76357,0.46022,-1.93539,0.27271,2.67111,-0.2556,-0.00271,0.19668,-0.24922,0.06653,0.35224,-0.14055,-0.02882
1873,1.93186,-5.99787,2.4948,-12.37301,10.3667,2.93567,-30.20775,-15.32803,1.2485,-12.43876,15.83394,4.60896,-7.44262,59.48059,-3.80925,-22.90435,13.94982,3.94585,-17.60019,25.02345,3.38654,18.08153,-33.52306,0.05356,5.8808,-2.06801,-0.22913,2.64771,-3.59725,-0.57243,0.33356,-1.81643,0.32832,2.62962,-0.43222,-0.00811,0.17284,-0.21167,0.06025,0.32913,-0.18365,-0.0497
1874,2.89553,-5.48607,2.43451,-13.25957,11.58715,3.2336,-28.89042,-14.37381,1.04504,-14.35274,17.54382,5.03477,-7.26965,58.35947,-3.69415,-24.76816,14.98182,4.25484,-20.80494,25.43628,3.16483,20.46445,-33.26962,1.1753,5.96465,-1.725,-0.15119,2.89555,-3.7343,-0.34549,0.17427,-1.6805,0.30976,2.26694,-0.4025,-0.03492,0.11783,-0.15052,0.03626,0.21499,-0.17807,-0.0383
1875,3.81111,-5.13071,2.38041,-13.90581,12.76668,3.491,-27.64056,-13.07114,1.05914,-15.41141,19.60173,5.42776,-7.1053,56.99678,-3.58711,-26.51503,15.83759,4.53564,-23.3021,26.82942,3.1434,20.69933,-30.85831,1.43731,5.96321,-1.16043,-0.008,2.98209,-3.6574,-0.1729,0.0396,-1.56605,0.22244,1.75771,-0.21563,-0.11006,0.05075,-0.08726,0.00151,0.06012,-0.1261,-0.02408
1876,4.64768,-4.825,2.31364,-14.29062,13.61714,3.65817,-26.33596,-11.56467,1.24445,-15.65974,21.91605,5.78886,-6.96793,55.44839,-3.49128,-28.11438,16.48972,4.7602,-24.87999,29.17356,3.25958,19.55945,-26.77903,0.39322,5.87002,-0.70363,0.11597,3.04032,-3.34788,-0.01193,0.0186,-1.59678,0.08601,1.36829,-0.01729,-0.17008,0.00728,-0.07062,-0.03149,-0.05437,-0.05567,-0.02277
1877,5.36086,-4.59491,2.22076,-14.50354,13.94517,3.71747,-24.82239,-10.12028,1.44763,-15.55894,24.17116,6.16307,-6.86034,53.78289,-3.41481,-29.56291,16.97639,4.90709,-25.70151,31.8822,3.35102,19.8843,-22.69643,-1.61168,5.65157,-0.49476,0.19107,3.15448,-2.83444,0.20537,0.16187,-1.80909,-0.08647,1.30963,0.0677,-0.11165,0.01076,-0.11713,-0.05881,-0.06262,-0.00063,-0.02503
1878,5.85721,-4.50365,2.11884,-14.7386,13.75222,3.70082,-23.04235,-9.22504,1.50142,-15.94067,25.90307,6.62664,-6.77421,52.08255,-3.35668,-30.89322,17.39699,4.97542,-26.51835,33.52615,3.61702,23.85622,-20.61789,-3.49648,5.30412,-0.43679,0.24032,3.28964,-2.27034,0.4479,0.43286,-2.10604,-0.27499,1.61737,0.01579,0.09629,0.05426,-0.19386,-0.08261,0.04146,0.0177,-0.01251
1879,6.04527,-4.54136,2.0342,-15.14327,13.20947,3.66153,-21.10522,-9.11339,1.28741,-17.37027,26.80216,7.19472,-6.69983,50.41925,-3.30649,-32.13686,17.85269,4.98838,-28.00498,33.05768,4.26078,30.53817,-21.39245,-4.17943,4.87403,-0.37469,0.29418,3.32476,-1.92739,0.54243,0.73836,-2.32812,-0.43394,2.1366,-0.0837,0.34515,0.11107,-0.24921,-0.09854,0.1979,0.00386,0.0153
1880,5.92284,-4.61093,1.96894,-15.73274,12.54574,3.63544,-19.1281,-9.53932,0.80484,-19.68836,26.89006,7.7181,-6.6327,48.83097,-3.26132,-33.28857,18.39042,4.98586,-30.09808,30.66415,5.0172,36.59406,-24.29706,-3.50339,4.4527,-0.29802,0.31563,3.17523,-2.02131,0.26577,0.98951,-2.34774,-0.51481,2.67997,-0.0857,0.44553,0.15721,-0.25144,-0.09764,0.33781,-0.0152,0.03307
1881,5.66424,-4.58653,1.89342,-16.40552,11.91179,3.6201,-17.03998,-9.81597,0.24481,-22.25203,26.41632,7.9212,-6.57299,47.30775,-3.22527,-34.30675,18.97606,5.00119,-32.22446,27.74841,5.33383,38.88671,-27.72086,-2.25464,4.15627,-0.30508,0.23661,2.9008,-2.53815,-0.41062,1.13544,-2.1373,-0.49842,3.14337,0.07759,0.30612,0.18081,-0.20366,-0.07515,0.43037,-0.01794,0.01923
1882,5.59006,-4.36556,1.75372,-17.02977,11.42932,3.60292,-14.57637,-9.1633,-0.14359,-24.27408,25.65879,7.65533,-6.521,45.83794,-3.20158,-35.17201,19.5505,5.04624,-33.50237,25.88281,4.86675,36.63515,-30.28684,-1.20247,4.10072,-0.38826,0.11647,2.69631,-3.23009,-1.17562,1.15046,-1.81426,-0.38369,3.43603,0.32726,0.02352,0.18168,-0.13836,-0.03423,0.46675,-0.00521,-0.01777
1883,5.91478,-3.97342,1.53064,-17.40743,11.29628,3.60069,-11.74925,-7.44742,-0.25516,-25.00503,25.03585,7.12704,-6.4739,44.44614,-3.18518,-35.91652,20.09748,5.12485,-33.16982,25.68763,3.81819,31.78176,-31.33378,-0.51101,4.32541,-0.43195,0.12148,2.77073,-3.79482,-1.5552,1.03633,-1.60558,-0.19208,3.46288,0.4926,-0.19593,0.17104,-0.10684,0.01234,0.44423,0.00427,-0.04667
1884,6.53797,-3.5776,1.28981,-17.3506,11.65166,3.641,-9.23659,-5.37456,-0.1247,-24.23522,25.10061,6.7212,-6.42546,43.15245,-3.15968,-36.58294,20.61949,5.23455,-31.79598,26.61421,2.73068,27.85901,-30.39954,-0.25321,4.68294,-0.47774,0.25636,3.20862,-4.06913,-1.27731,0.83434,-1.64196,0.01462,3.2276,0.44424,-0.19925,0.16279,-0.1424,0.04685,0.38354,-0.01039,-0.0417
1885,7.12762,-3.37106,1.13424,-16.86749,12.42559,3.74072,-7.98125,-3.94493,0.14616,-22.47169,26.03432,6.64451,-6.37931,41.93705,-3.11435,-37.19788,21.10367,5.37274,-30.99281,27.26535,1.93034,27.8453,-26.96087,-0.94511,4.8422,-0.8085,0.2349,3.88619,-4.07631,-0.49915,0.64964,-1.78604,0.1372,2.87047,0.2049,-0.00542,0.16524,-0.21834,0.05677,0.32575,-0.05082,-0.00679
1886,7.4043,-3.51872,1.12813,-16.15828,13.39941,3.89646,-8.38326,-3.84467,0.42232,-20.52314,27.47382,6.84076,-6.34109,40.7425,-3.05292,-37.76282,21.52564,5.53295,-31.92154,26.29534,1.39536,32.407,-21.09867,-3.04991,4.52986,-1.62394,-0.23307,4.49126,-3.92638,0.30976,0.60033,-1.77679,0.09302,2.55095,-0.06564,0.22114,0.17846,-0.26849,0.03856,0.29562,-0.09366,0.02855
1887,7.32046,-4.03489,1.25433,-15.46074,14.35921,4.08891,-9.98284,-4.87619,0.58861,-19.15993,28.99348,7.16895,-6.31404,39.49268,-2.9799,-38.2551,21.86405,5.70045,-34.85736,23.71237,1.0273,39.59267,-14.59169,-6.11833,3.8063,-2.76662,-1.11583,4.69418,-3.70309,0.71868,0.72377,-1.53997,-0.13285,2.35087,-0.20911,0.32632,0.19846,-0.26025,-0.00743,0.28526,-0.11149,0.03793
1888,7.01706,-4.74368,1.43205,-14.90612,15.16548,4.29659,-11.72034,-5.98784,0.62568,-18.87424,30.30285,7.52886,-6.29986,38.11481,-2.89337,-38.65554,22.12332,5.86076,-39.32621,20.68547,0.772,46.0792,-10.44985,-8.83829,3.02994,-3.83169,-2.07771,4.35006,-3.43207,0.60291,0.93076,-1.23303,-0.46053,2.26407,-0.183,0.28527,0.21529,-0.21577,-0.07257,0.2696,-0.0961,0.02025
1889,6.66172,-5.39918,1.57964,-14.49735,15.73291,4.49848,-12.61253,-6.09473,0.63592,-19.7981,31.18039,7.85184,-6.29741,36.55825,-2.78768,-38.97973,22.33409,6.00492,-44.37309,18.43217,0.67692,49.27596,-10.85427,-9.93643,2.54655,-4.43367,-2.72344,3.58417,-3.10764,0.14509,1.07807,-1.03135,-0.74181,2.24016,-0.05431,0.18034,0.21385,-0.16813,-0.13224,0.23297,-0.05951,-0.00658
1890,6.36026,-5.82016,1.65357,-14.1316,16.06484,4.65855,-12.20667,-4.91609,0.7748,-21.50849,31.78806,8.08884,-6.29765,34.81561,-2.66074,-39.28084,22.53973,6.12135,-48.64313,17.81209,0.94041,48.52778,-15.3433,-8.97694,2.49628,-4.34323,-2.77866,2.74663,-2.77482,-0.35088,1.09462,-1.01319,-0.84458,2.24201,0.08162,0.09977,0.1916,-0.13394,-0.15782,0.18187,-0.02072,-0.02633
1891,6.15561,-5.98092,1.64824,-13.75078,16.27584,4.74893,-10.68826,-3.13397,1.07314,-23.35747,32.75022,8.23389,-6.2759,32.91175,-2.51463,-39.62653,22.78085,6.20792,-51.15856,19.14726,1.68105,45.40989,-21.08463,-6.47199,2.88376,-3.47868,-2.13383,2.22617,-2.54414,-0.63913,1.01929,-1.21181,-0.72379,2.2675,0.15103,0.0845,0.16476,-0.12296,-0.13476,0.14054,0.00116,-0.0327
1892,6.00829,-5.95949,1.57158,-13.4078,16.52373,4.78756,-8.63208,-1.80456,1.29427,-24.94759,34.50122,8.36702,-6.20371,30.88427,-2.3543,-40.0733,23.09856,6.28325,-52.07724,21.57741,2.73067,42.43697,-24.53741,-3.53807,3.61453,-1.94173,-0.8838,2.21379,-2.53537,-0.63534,0.90915,-1.60723,-0.41937,2.32065,0.11972,0.13237,0.14911,-0.13906,-0.07058,0.13059,-0.00811,-0.02498
1893,5.79731,-5.84185,1.4511,-13.17776,16.89807,4.81962,-6.7326,-1.63575,1.14317,-26.07823,36.763,8.59608,-6.06253,28.77563,-2.18198,-40.63948,23.52114,6.36702,-52.4349,23.16153,3.71317,41.69529,-23.67418,-1.35416,4.44196,-0.12178,0.61335,2.5926,-2.77893,-0.4333,0.78558,-2.07396,-0.03683,2.37161,0.01533,0.20643,0.14769,-0.1732,0.0074,0.15378,-0.04652,-0.0063
1894,5.38875,-5.72017,1.36008,-13.07765,17.35921,4.87105,-5.66268,-2.58583,0.67629,-26.43093,38.85661,8.91475,-5.84047,26.61168,-1.99634,-41.28255,24.02294,6.46673,-53.151,22.60127,4.22134,43.77723,-19.31984,-0.54774,5.02244,1.36833,1.84468,3.0694,-3.16427,-0.20868,0.66549,-2.44409,0.28805,2.37411,-0.0814,0.2577,0.15557,-0.21126,0.06732,0.19427,-0.09217,0.01698
1895,4.73015,-5.64398,1.36561,-13.07886,17.79722,4.93355,-5.72559,-3.9106,0.23788,-25.76495,40.33843,9.23216,-5.53916,24.40121,-1.7987,-41.92541,24.53978,6.57403,-54.45707,20.53887,4.06643,47.46128,-14.82502,-0.92859,5.09481,2.03136,2.38565,3.434,-3.51414,-0.08704,0.59404,-2.57548,0.43362,2.33407,-0.09019,0.25955,0.16557,-0.23484,0.08746,0.23589,-0.11677,0.03697
1896,3.93618,-5.58263,1.44974,-13.14863,18.11922,4.99151,-6.43079,-4.75428,0.00287,-24.43518,41.24123,9.55482,-5.17915,22.16674,-1.58831,-42.51561,25.02114,6.66978,-56.06295,18.59327,3.50479,50.69861,-13.62482,-1.86536,4.70875,1.75366,2.09288,3.65113,-3.68917,-0.11529,0.615,-2.40331,0.34876,2.31985,0.03284,0.20511,0.17113,-0.22618,0.0641,0.26934,-0.10041,0.04391
1897,3.28219,-5.45637,1.51091,-13.24085,18.29986,5.04174,-6.70978,-4.6724,-0.1082,-23.23854,41.89264,9.96465,-4.77999,19.95182,-1.36597,-43.0484,25.4512,6.74212,-57.37717,17.79313,3.07884,51.86251,-16.36929,-2.87166,4.20849,0.73213,1.12527,3.75241,-3.68176,-0.29646,0.73923,-2.00385,0.08091,2.40259,0.27221,0.11046,0.17446,-0.19201,0.01281,0.29064,-0.04432,0.03417
1898,2.97617,-5.2595,1.49478,-13.28879,18.35717,5.07446,-5.85667,-3.9226,-0.09284,-22.8926,42.63879,10.4087,-4.34504,17.79695,-1.13225,-43.551,25.82216,6.78886,-58.20823,17.78728,3.27153,51.02839,-20.48709,-3.85869,3.92903,-0.72901,-0.18667,3.75081,-3.60637,-0.57904,0.94193,-1.5529,-0.25938,2.60636,0.53724,0.03324,0.18562,-0.16022,-0.04255,0.30572,0.0227,0.02064
1899,2.92973,-5.09482,1.46317,-13.20032,18.36188,5.07252,-4.24065,-3.19327,0.17842,-23.55934,43.79175,10.71745,-3.8807,15.72718,-0.89107,-44.06658,26.11849,6.81616,-59.17353,17.71353,4.15549,50.0148,-22.61798,-4.86057,3.88904,-2.27863,-1.465,3.63898,-3.58695,-0.85008,1.17161,-1.20633,-0.56278,2.87446,0.69751,0.04316,0.20756,-0.14925,-0.08346,0.32459,0.06205,0.02203
1900,2.88373,-5.06284,1.50064,-12.87644,18.47143,5.03507,-2.95028,-2.82095,0.67825,-24.70177,45.71906,10.84019,-3.40418,13.76572,-0.65601,-44.63097,26.33686,6.83784,-61.04359,17.85153,5.25908,50.98336,-21.91666,-5.61598,3.86803,-3.43294,-2.30946,3.45704,-3.69138,-1.01923,1.35486,-1.04784,-0.74902,3.10885,0.68755,0.14487,0.2276,-0.15491,-0.10081,0.34648,0.0575,0.0402
1901,2.66805,-5.11543,1.609,-12.26012,18.83353,4.97805,-2.73851,-2.60293,1.1663,-25.35485,48.54604,10.91716,-2.94411,11.94904,-0.444,-45.26433,26.51724,6.86381,-63.57711,19.03176,5.95134,54.54758,-20.29879,-5.69935,3.72951,-3.67608,-2.40277,3.24262,-3.86077,-1.11006,1.44117,-1.10825,-0.78798,3.25051,0.55865,0.25957,0.2344,-0.16444,-0.09834,0.36435,0.02612,0.05483
1902,2.35561,-5.06452,1.70466,-11.41543,19.39305,4.91866,-3.36724,-2.26246,1.41277,-24.89264,51.67202,11.08263,-2.51835,10.32694,-0.25966,-45.97287,26.73393,6.8954,-65.6196,20.80643,5.87844,59.20747,-19.9112,-5.1565,3.50841,-2.89987,-1.76411,3.02754,-3.95846,-1.20164,1.41569,-1.33639,-0.70741,3.29992,0.41685,0.29193,0.22613,-0.16785,-0.08965,0.37355,-0.00224,0.04149
1903,2.15672,-4.75991,1.69542,-10.43761,19.87624,4.85769,-3.94337,-1.79246,1.33694,-23.39933,53.98836,11.30354,-2.12782,8.93117,-0.09415,-46.73336,27.04124,6.92536,-66.16948,21.55458,5.03084,62.71877,-20.75439,-4.72719,3.22375,-1.71283,-0.86835,2.85681,-3.85138,-1.29646,1.31707,-1.59131,-0.59223,3.26529,0.33078,0.21255,0.21055,-0.16566,-0.08817,0.37177,-0.01013,-0.00494
1904,2.18974,-4.22734,1.55693,-9.377,20.04877,4.7841,-3.73519,-1.4408,0.99911,-21.49577,54.73601,11.42147,-1.7666,7.74103,0.06105,-47.48481,27.43085,6.94352,-65.21203,20.12097,3.67124,64.2121,-21.17903,-5.08065,2.79515,-1.00493,-0.31779,2.84066,-3.54246,-1.30542,1.2442,-1.73896,-0.5424,3.16717,0.3128,0.07306,0.19931,-0.16732,-0.09569,0.36655,-0.00018,-0.0626
1905,2.37792,-3.58224,1.34862,-8.24762,19.89644,4.68153,-2.78526,-1.38382,0.59946,-19.90074,54.18346,11.32713,-1.42412,6.69823,0.20696,-48.14007,27.82329,6.93545,-63.87271,17.032,2.34039,64.29246,-20.2017,-5.86709,2.22764,-1.08726,-0.29455,3.08078,-3.23733,-1.17789,1.25986,-1.75837,-0.57141,3.04974,0.35202,-0.0506,0.19239,-0.17964,-0.09604,0.37107,0.01463,-0.0995
1906,2.53322,-2.91414,1.15919,-7.16474,19.60396,4.54789,-1.6959,-1.57468,0.37181,-19.40531,53.43793,11.10899,-1.09846,5.75201,0.33794,-48.63072,28.12322,6.8849,-63.94659,13.97739,1.79632,63.86592,-18.70853,-5.79391,1.79999,-1.43947,-0.43577,3.56503,-3.21123,-0.95836,1.33248,-1.76019,-0.58989,2.94384,0.43268,-0.10652,0.18142,-0.20135,-0.07113,0.3815,0.02366,-0.09533
1907,2.52775,-2.33033,1.05304,-6.26766,19.41317,4.40107,-1.00312,-1.94583,0.3813,-20.23809,53.46237,11.014,-0.7996,4.88411,0.45442,-48.94298,28.2909,6.78431,-66.14665,12.13769,2.4018,63.67881,-18.32628,-3.93006,1.87212,-1.37517,-0.31346,4.10049,-3.53833,-0.72194,1.40102,-1.84934,-0.52304,2.82743,0.51767,-0.069,0.17204,-0.22543,-0.02737,0.37382,0.02294,-0.05029
1908,2.40097,-1.95061,1.04058,-5.65453,19.42389,4.24376,-0.83008,-2.2977,0.53675,-22.09369,54.50011,11.14154,-0.5382,4.09865,0.56462,-49.10267,28.33768,6.63161,-69.94068,11.96332,3.73359,64.56059,-19.61111,-0.84818,2.47082,-0.83099,0.08613,4.41007,-3.97488,-0.54612,1.45423,-2.0116,-0.3942,2.68137,0.57403,0.03771,0.18152,-0.24473,0.01073,0.33421,0.01916,0.01014
1909,2.32791,-1.83577,1.08582,-5.27426,19.51872,4.04892,-0.77713,-2.33159,0.78012,-24.41434,56.24009,11.30199,-0.3165,3.40738,0.67572,-49.14187,28.28601,6.43619,-74.02737,13.58029,5.08622,67.12002,-21.33088,1.56346,3.24481,-0.34558,0.42783,4.30938,-4.199,-0.55248,1.50599,-2.14148,-0.27736,2.58297,0.61822,0.1379,0.21141,-0.25261,0.02817,0.29167,0.02658,0.04946
1910,2.4662,-1.94255,1.13585,-4.87818,19.44869,3.79227,-0.2147,-2.05631,1.105,-26.41847,58.04096,11.21581,-0.13174,2.83626,0.78399,-49.10984,28.1734,6.2297,-76.77061,16.15103,5.95833,70.86588,-21.47889,1.65544,3.81617,-0.36507,0.44465,3.83216,-4.09658,-0.80568,1.55308,-2.15719,-0.22757,2.62644,0.68077,0.17549,0.24245,-0.24275,0.02495,0.28663,0.04876,0.05249
1911,2.81928,-2.16383,1.15144,-4.13001,18.97696,3.47895,0.95623,-1.88873,1.38546,-27.36037,59.0966,10.75582,0.01907,2.42688,0.87441,-49.07749,28.06676,6.05209,-77.4319,17.66539,5.91459,73.86234,-18.90801,-0.66755,4.05784,-0.80293,0.19004,3.24564,-3.79872,-1.19614,1.57592,-2.09132,-0.25052,2.76627,0.75775,0.13655,0.2553,-0.22372,0.00838,0.3145,0.07232,0.02884
1912,3.2851,-2.41087,1.11127,-2.84125,18.04522,3.15577,2.25885,-2.36859,1.32061,-26.89255,58.83702,10.08724,0.13594,2.23111,0.93311,-49.116,28.0408,5.93513,-76.35726,16.22395,4.65892,74.15488,-14.48487,-4.12468,4.02959,-1.23456,-0.09033,2.90926,-3.492,-1.49962,1.56892,-2.04656,-0.32614,2.89137,0.81129,0.03911,0.24654,-0.21837,-0.01487,0.34273,0.07998,-0.00634
1913,3.75071,-2.63775,1.02228,-1.16627,16.83127,2.88884,3.18062,-3.76,0.71707,-25.42283,57.35234,9.56266,0.21182,2.28807,0.95882,-49.26727,28.13133,5.88751,-74.54815,11.54381,2.54899,71.56522,-10.7803,-7.26688,3.81619,-1.30569,-0.224,2.97639,-3.27777,-1.57005,1.546,-2.04447,-0.43919,2.98525,0.803,-0.05029,0.22677,-0.22998,-0.04489,0.3573,0.06439,-0.03701
1914,4.09997,-2.79905,0.92773,0.42395,15.65049,2.71721,3.37503,-5.86952,-0.19539,-23.92576,55.46503,9.46393,0.22128,2.59372,0.95386,-49.51766,28.30224,5.88673,-73.36227,5.27107,0.72939,68.28123,-9.99435,-9.33421,3.5152,-0.97828,-0.19744,3.24468,-3.182,-1.42496,1.51447,-2.00482,-0.55317,3.085,0.71211,-0.02819,0.21057,-0.23318,-0.07944,0.36113,0.029,-0.04224
1915,4.23391,-2.83363,0.87801,1.49664,14.79709,2.63578,2.73855,-8.12309,-0.91147,-22.98168,54.20196,9.8649,0.12807,3.10771,0.91537,-49.80151,28.4759,5.89967,-73.39368,-0.04147,0.45163,66.86613,-11.72465,-10.15701,3.27825,-0.50383,-0.09125,3.40806,-3.19262,-1.18874,1.47077,-1.86588,-0.60936,3.17426,0.55949,0.13499,0.20769,-0.20227,-0.10895,0.35906,-0.0134,-0.01524
1916,4.1351,-2.68034,0.87664,1.87095,14.39655,2.60391,1.61695,-9.7388,-1.07632,-22.59092,54.16059,10.59704,-0.09511,3.78666,0.83301,-50.03879,28.58547,5.89983,-74.04176,-2.23713,2.1321,68.08098,-13.16688,-9.73096,3.17693,-0.19384,0.00433,3.37189,-3.27072,-0.99894,1.41822,-1.66274,-0.57984,3.18581,0.41323,0.32674,0.21663,-0.14067,-0.12339,0.35379,-0.04312,0.0189
1917,3.84812,-2.33262,0.89892,1.63188,14.35901,2.57051,0.59873,-10.02381,-0.59953,-22.5378,55.3944,11.31201,-0.44833,4.60504,0.69331,-50.15622,28.5871,5.88225,-74.22638,-0.19366,5.0513,70.14705,-11.83712,-8.11737,3.1443,-0.2238,0.04105,3.22519,-3.34527,-0.94256,1.37927,-1.50988,-0.48761,3.07701,0.35086,0.39766,0.22584,-0.08192,-0.11564,0.34673,-0.04451,0.02746
1918,3.46129,-1.8712,0.92746,0.98677,14.48264,2.49737,0.03558,-8.83518,0.39338,-22.78794,57.52015,11.66603,-0.90139,5.55462,0.49561,-50.10804,28.45758,5.85172,-73.57752,5.65067,7.89139,70.71679,-7.87473,-5.75012,3.07718,-0.5678,-0.00727,3.0705,-3.36365,-1.01657,1.38673,-1.47652,-0.39236,2.86888,0.40468,0.31061,0.22373,-0.05602,-0.08664,0.33612,-0.01731,0.00636
1919,3.09447,-1.40544,0.94319,0.16505,14.5515,2.38109,-0.13025,-6.74188,1.53137,-23.33028,59.67492,11.56066,-1.40401,6.64583,0.2594,-49.89269,28.20826,5.80889,-72.42229,13.07519,9.57935,69.08841,-3.66526,-3.45981,2.97279,-1.08012,-0.15408,2.95335,-3.32852,-1.14868,1.47168,-1.54454,-0.35064,2.63258,0.53862,0.14878,0.21492,-0.07026,-0.0478,0.32038,0.02299,-0.02257
1920,2.83753,-1.03435,0.93207,-0.62366,14.35954,2.24566,-0.20663,-4.70154,2.369,-23.97608,60.75573,11.15502,-1.90502,7.89383,0.01315,-49.54013,27.8806,5.74903,-71.27285,19.06453,9.84966,67.00871,-1.72464,-2.0457,2.92177,-1.5841,-0.36789,2.88211,-3.29075,-1.2669,1.63041,-1.6496,-0.37537,2.43857,0.67923,0.01191,0.21362,-0.11091,-0.01339,0.29853,0.05733,-0.04061
1921,2.70443,-0.84503,0.88849,-1.21193,13.75543,2.12206,-0.43239,-3.47588,2.58978,-24.31333,59.92801,10.71172,-2.38092,9.29942,-0.22541,-49.07971,27.52192,5.67171,-70.2118,21.48943,9.07545,66.62044,-2.74948,-1.85353,2.97743,-1.93751,-0.57791,2.83823,-3.27713,-1.33235,1.78883,-1.72718,-0.43916,2.33532,0.76454,-0.03915,0.22404,-0.15627,0.00335,0.27272,0.07365,-0.04187
1922,2.67247,-0.90177,0.7995,-1.54397,12.77138,2.04106,-0.67143,-3.34112,2.02597,-23.95073,57.07826,10.47085,-2.83438,10.8476,-0.45644,-48.53041,27.17181,5.58791,-68.57797,20.01368,7.73491,68.6833,-5.53504,-2.70892,3.12652,-2.09524,-0.70993,2.78877,-3.26059,-1.33527,1.8498,-1.77909,-0.50475,2.33102,0.77823,0.01082,0.23938,-0.19738,-0.00689,0.24445,0.07035,-0.02662
1923,2.67338,-1.24019,0.68698,-1.71477,11.63308,2.00878,-0.82206,-4.21674,0.9202,-22.84556,53.08271,10.47278,-3.26936,12.49903,-0.69777,-47.8919,26.82843,5.51308,-65.85088,16.07528,6.26017,72.07328,-8.20835,-4.13601,3.347,-2.11384,-0.70435,2.76246,-3.2466,-1.30531,1.76298,-1.86062,-0.52115,2.40926,0.7581,0.12283,0.25032,-0.23668,-0.03609,0.21754,0.05464,-0.00052
1924,2.63011,-1.77386,0.61591,-1.95304,10.60435,1.98662,-1.30759,-5.80139,0.02279,-21.67703,49.41195,10.44018,-3.6725,14.19806,-0.97033,-47.14611,26.43329,5.44728,-63.10693,11.98665,5.14733,75.06351,-9.41764,-5.686,3.60804,-2.08563,-0.56117,2.85084,-3.31085,-1.31028,1.57123,-1.98508,-0.44993,2.55467,0.76626,0.21944,0.25032,-0.26872,-0.05875,0.20267,0.03745,0.02455
1925,2.5456,-2.25646,0.59815,-2.46199,9.87246,1.94304,-2.57473,-7.64906,-0.15608,-21.45624,47.00943,10.0894,-4.02771,15.91893,-1.27901,-46.29115,25.95145,5.38052,-62.23185,9.24505,4.6645,75.99986,-9.09009,-6.90183,3.84326,-2.06712,-0.36635,3.08543,-3.47984,-1.3771,1.393,-2.09942,-0.31834,2.73069,0.82543,0.24819,0.24069,-0.28235,-0.05588,0.20766,0.02636,0.03802
1926,2.52015,-2.56726,0.5742,-3.33008,9.48731,1.90336,-4.38954,-9.41688,0.13829,-22.77213,45.68415,9.45554,-4.33292,17.66324,-1.60993,-45.35558,25.40864,5.31112,-63.84588,7.93805,4.64025,74.04058,-8.62789,-7.1542,3.93688,-2.02332,-0.23385,3.4069,-3.66885,-1.45224,1.33426,-2.1295,-0.21493,2.87801,0.90878,0.2108,0.2282,-0.27374,-0.03303,0.22976,0.02356,0.03706
1927,2.62963,-2.76774,0.49757,-4.50247,9.39215,1.91003,-6.15557,-10.66004,0.41908,-25.1991,44.80734,8.80876,-4.59974,19.41005,-1.93724,-44.36968,24.83403,5.24412,-66.57685,8.19062,4.71725,68.94122,-9.94587,-5.83666,3.80583,-1.85954,-0.20392,3.72788,-3.74938,-1.45756,1.3839,-2.03307,-0.20108,2.93612,0.98139,0.13074,0.21403,-0.24872,-0.00962,0.25887,0.02939,0.02385
1928,2.89207,-2.92363,0.36297,-5.77281,9.47098,1.96777,-7.31291,-10.93439,0.46436,-27.52837,43.9303,8.38887,-4.84606,21.09967,-2.23301,-43.35741,24.22552,5.17731,-67.99522,10.27954,4.68779,61.41654,-13.61682,-3.05775,3.50124,-1.55324,-0.23724,3.99049,-3.65005,-1.35857,1.43103,-1.8267,-0.25791,2.87214,1.02985,0.02343,0.19288,-0.21673,0.00071,0.28235,0.04306,0.00202
1929,3.28479,-3.08193,0.18074,-6.89726,9.54958,2.04476,-7.437,-10.44872,0.25776,-28.64084,42.67085,8.25799,-5.09265,22.66072,-2.48518,-42.34915,23.56595,5.09741,-66.06585,13.28336,4.53082,53.00565,-17.70671,-0.00986,3.25435,-1.24585,-0.26701,4.17981,-3.39317,-1.18165,1.36047,-1.59609,-0.29617,2.70053,1.06256,-0.10385,0.1626,-0.1941,0.00351,0.29027,0.063,-0.02531
1930,3.66347,-3.31434,-0.00684,-7.76313,9.43637,2.09588,-6.73549,-10.17389,-0.1013,-28.21548,40.62586,8.26384,-5.36337,24.03677,-2.69754,-41.3752,22.84504,4.98463,-60.78955,15.04403,4.26589,45.82988,-18.83913,1.55934,3.33622,-1.14574,-0.25819,4.27958,-3.08299,-1.0092,1.15616,-1.44946,-0.23919,2.48927,1.09038,-0.235,0.13289,-0.19535,0.01207,0.28185,0.08559,-0.05478
1931,3.79024,-3.65668,-0.13318,-8.40029,9.03845,2.08755,-6.11398,-10.93862,-0.43021,-26.64189,37.60412,8.16021,-5.67659,25.19706,-2.8754,-40.44561,22.07363,4.82692,-54.11644,13.96393,3.82637,41.86349,-15.0543,0.67796,3.79614,-1.30609,-0.20664,4.2959,-2.86778,-0.92348,0.92458,-1.45173,-0.09758,2.3443,1.10861,-0.33664,0.12275,-0.21616,0.02569,0.26973,0.10446,-0.08224
