PaulMeinheit/Bachelor_Muay_Thai/Sub01_Teep/sliced/Sub01_Teep/JointMoments.txt/sliced6.csv
Unnamed: 0_level_0,R_KNEE_MOMENT,R_KNEE_MOMENT,R_KNEE_MOMENT,L_KNEE_MOMENT,L_KNEE_MOMENT,L_KNEE_MOMENT,R_HIP_MOMENT,R_HIP_MOMENT,R_HIP_MOMENT,L_HIP_MOMENT,L_HIP_MOMENT,L_HIP_MOMENT,R_ANKLE_MOMENT,R_ANKLE_MOMENT,R_ANKLE_MOMENT,L_ANKLE_MOMENT,L_ANKLE_MOMENT,L_ANKLE_MOMENT,WAIST_JOINT_MOMENT,WAIST_JOINT_MOMENT,WAIST_JOINT_MOMENT,NECK_MOMENT,NECK_MOMENT,NECK_MOMENT,L_SHOULDER_MOMENT,L_SHOULDER_MOMENT,L_SHOULDER_MOMENT,R_SHOULDER_MOMENT,R_SHOULDER_MOMENT,R_SHOULDER_MOMENT,L_ELBOW_MOMENT,L_ELBOW_MOMENT,L_ELBOW_MOMENT,R_ELBOW_MOMENT,R_ELBOW_MOMENT,R_ELBOW_MOMENT,L_WRIST_MOMENT,L_WRIST_MOMENT,L_WRIST_MOMENT,R_WRIST_MOMENT,R_WRIST_MOMENT,R_WRIST_MOMENT
ITEM,X,Y,Z,X,Y,Z,X,Y,Z,X,Y,Z,X,Y,Z,X,Y,Z,X,Y,Z,X,Y,Z,X,Y,Z,X,Y,Z,X,Y,Z,X,Y,Z,X,Y,Z,X,Y,Z
2601,4.88651,-45.6062,7.12087,-31.37177,14.00959,3.50104,-37.58549,-36.78135,6.29732,-14.94639,22.54153,8.06814,-4.0361,1.46848,1.91819,-51.12371,23.99034,6.39192,-41.37215,1.77419,-2.2248,49.32174,-4.10773,-3.47191,8.42525,-4.58491,-2.75748,8.0387,-6.0959,1.68415,3.41471,-3.00169,-1.4561,2.82572,0.32157,0.8369,0.62518,-0.42103,-0.27408,0.3203,-0.0681,0.19606
2602,4.63673,-47.50605,7.46909,-34.2378,15.03829,3.71303,-39.8109,-40.30885,6.30278,-15.97045,21.76828,8.16531,-4.26361,1.78701,1.7804,-56.14843,27.26964,7.04479,-45.97421,-6.49369,-3.9808,49.52711,-5.32303,-2.28467,7.29437,-4.11577,-2.53491,7.84559,-5.97379,1.24283,3.52977,-3.08387,-1.61539,3.00837,0.45336,0.69836,0.59591,-0.42984,-0.26888,0.38806,-0.03893,0.14827
2603,4.34845,-49.55654,7.73125,-36.43738,16.00118,3.92018,-42.88079,-43.8276,5.81713,-16.69973,20.53459,8.28501,-4.6859,2.48489,1.56658,-60.68814,30.4777,7.68003,-50.83076,-13.85608,-6.29344,51.19703,-6.9173,-0.72196,5.98334,-3.06453,-1.81883,7.31833,-5.78473,0.50014,3.58177,-3.31009,-1.62343,3.12034,0.60472,0.4588,0.56298,-0.45988,-0.23092,0.4423,-0.01988,0.08268
2604,3.98128,-51.50323,7.9023,-37.54073,17.01927,4.08491,-46.35042,-46.25382,5.20757,-16.26798,20.04848,8.71793,-5.3333,3.61643,1.27816,-64.27257,33.29988,8.22295,-53.69235,-16.9369,-8.28638,52.61875,-8.13458,0.57146,5.10887,-1.93363,-0.89103,6.7043,-5.60175,-0.16947,3.49195,-3.56872,-1.45633,3.05392,0.67593,0.22465,0.53285,-0.48813,-0.17205,0.44535,-0.02992,0.02777
2605,3.46169,-53.27179,8.04798,-37.43784,18.05183,4.13841,-49.62599,-47.13376,4.98797,-14.53947,20.85866,9.40479,-6.21863,5.2307,0.93333,-66.29467,35.32195,8.55475,-53.1033,-14.4126,-9.06099,51.29624,-8.05871,1.31737,5.09524,-1.28693,-0.12077,6.22648,-5.51797,-0.50561,3.22392,-3.75574,-1.14562,2.75275,0.66469,0.06912,0.50512,-0.49653,-0.10577,0.38088,-0.05856,0.00343
2606,2.75298,-54.98029,8.24979,-36.48737,18.95022,4.03319,-52.29779,-46.9043,5.41045,-12.52951,22.27246,9.81717,-7.33347,7.3369,0.56407,-66.12194,36.12531,8.53586,-49.7304,-7.95679,-8.47547,45.70894,-6.08944,1.91849,5.88253,-1.43094,0.23198,5.98628,-5.57518,-0.52872,2.79908,-3.82473,-0.76477,2.24103,0.67155,-0.04195,0.47602,-0.48582,-0.04309,0.263,-0.07035,-0.00183
2607,1.89991,-56.74307,8.53265,-35.42975,19.58371,3.79711,-54.38621,-46.29813,6.2882,-11.81984,22.81577,9.28203,-8.64376,9.88088,0.20356,-63.33651,35.41471,8.05729,-45.88398,-0.66285,-7.2861,36.71423,-2.58182,3.05428,6.99182,-2.20424,0.13703,5.97072,-5.72283,-0.43517,2.28595,-3.77142,-0.41407,1.68153,0.76723,-0.16453,0.44253,-0.46379,0.00169,0.1382,-0.04546,-0.01161
2608,0.94663,-58.59539,8.87915,-34.99948,19.895,3.53851,-56.36331,-45.99471,7.18953,-13.50375,21.44306,7.53972,-10.11363,12.76089,-0.12467,-57.90232,33.07282,7.09695,-43.83247,5.26633,-6.15877,27.57253,0.90653,4.91965,7.79207,-3.01429,-0.1797,6.09315,-5.77269,-0.3853,1.79859,-3.60894,-0.19654,1.34752,0.93829,-0.2726,0.40594,-0.42953,0.0141,0.07643,0.01235,-0.03263
2609,-0.11921,-60.55983,9.27835,-35.50381,19.89857,3.38669,-58.8917,-46.54683,7.7419,-17.26473,18.41921,5.06373,-11.70542,15.82997,-0.41061,-50.25668,29.21147,5.75231,-44.21252,9.6163,-4.93434,21.8884,2.02231,6.90881,7.83934,-3.17391,-0.38241,6.21498,-5.44479,-0.34694,1.51648,-3.35683,-0.2101,1.42032,1.11628,-0.27043,0.38056,-0.37308,-0.01468,0.12319,0.09128,-0.04995
2610,-1.34651,-62.62413,9.7263,-36.57081,19.56508,3.40687,-62.66428,-48.16973,7.82079,-21.06574,14.88218,2.76099,-13.35782,18.90433,-0.67131,-41.25721,24.20403,4.23271,-45.78244,13.4289,-3.10623,21.05441,-1.13974,8.0133,7.06787,-2.37865,-0.28486,6.09627,-4.58523,-0.16142,1.60451,-3.01976,-0.50892,1.74666,1.19059,-0.10838,0.38685,-0.28948,-0.08271,0.24018,0.16623,-0.04509
2611,-2.81319,-64.69898,10.21508,-36.99903,18.70461,3.53718,-68.00281,-50.96709,7.48398,-21.55008,11.52502,1.32781,-14.98953,21.81254,-0.94877,-31.86173,18.60669,2.79546,-45.72567,16.43352,-0.51819,23.33004,-8.30558,7.50039,5.7843,-0.95569,0.02023,5.47102,-3.36012,0.12246,2.0313,-2.59081,-1.0107,1.94059,1.11281,0.11039,0.42461,-0.19155,-0.16944,0.32092,0.20573,-0.0235
2612,-4.58763,-66.58302,10.70565,-35.25008,17.10053,3.61839,-74.43427,-54.92813,6.78301,-15.83243,8.09124,0.96448,-16.53746,24.46952,-1.296,-22.88997,13.06093,1.66209,-40.89128,16.48774,2.5814,24.98741,-16.37056,5.43421,4.44423,0.37856,0.28441,4.28152,-2.16295,0.12154,2.46888,-2.05993,-1.45761,1.75056,0.998,0.18028,0.45131,-0.10247,-0.23361,0.28236,0.20257,-0.01793
2613,-6.63507,-67.93084,11.11124,-30.43216,14.65554,3.50474,-80.95787,-59.1025,5.8238,-3.41484,4.05881,1.57684,-17.99228,26.89132,-1.75737,-14.9148,8.11769,0.96198,-29.94193,12.52895,5.88631,22.90763,-21.22646,2.67905,3.41416,1.04565,0.318,2.85752,-1.35319,-0.51238,2.47299,-1.4302,-1.55541,1.28568,1.0433,-0.00907,0.40298,-0.0325,-0.23475,0.13888,0.1853,-0.05423
2614,-8.64005,-68.3696,11.31164,-22.83973,11.55569,3.11538,-86.52511,-61.27037,4.93301,13.33762,-0.292,3.00595,-19.36202,29.13744,-2.34226,-8.27194,4.12354,0.69638,-14.6509,7.26618,9.30958,16.32139,-20.75418,0.30292,2.86378,0.9465,0.15374,1.78459,-1.02874,-1.65518,1.77169,-0.76131,-1.14965,0.9167,1.35516,-0.34189,0.23921,0.02528,-0.15424,-0.00363,0.2004,-0.12037
2615,-10.03917,-67.75092,11.20576,-13.80316,8.45969,2.39672,-90.18991,-58.96251,4.56944,30.62075,-3.79353,5.01093,-20.62719,31.27056,-3.0172,-3.16228,1.26049,0.71453,1.56979,6.08468,12.86186,7.0669,-16.45044,-1.14864,2.83795,0.37549,0.01553,1.51201,-1.04842,-2.7297,0.46649,-0.20984,-0.32611,0.9582,1.83408,-0.55867,-0.01327,0.07097,-0.00821,-0.03336,0.26739,-0.1714
2616,-10.40793,-66.40178,10.79602,-5.1408,6.16291,1.37117,-91.47208,-51.37025,5.00638,44.89928,-5.57632,7.13868,-21.77355,33.33557,-3.72939,0.33452,-0.46089,0.80155,15.21473,12.53249,16.20319,-1.50358,-12.35361,-1.82263,3.28667,-0.2657,0.10856,2.08179,-1.28028,-3.10633,-0.97516,0.04952,0.6021,1.40096,2.19149,-0.46065,-0.25324,0.08836,0.14698,0.07395,0.34193,-0.15909
2617,-9.80886,-65.1117,10.24088,1.67319,4.81321,0.23815,-90.86038,-40.70021,6.0776,54.36129,-6.41771,8.52814,-22.80045,35.34311,-4.43794,2.34088,-1.25966,0.84212,23.73344,24.10721,18.04962,-6.2216,-11.74059,-2.14474,3.98321,-0.67432,0.46344,3.15182,-1.67793,-2.54549,-1.9931,-0.03037,1.26242,1.9494,2.17226,-0.06364,-0.36994,0.06744,0.24253,0.24948,0.35571,-0.06929
2618,-8.70361,-64.68365,9.77862,6.12779,3.67529,-0.70877,-89.51026,-31.16871,7.20723,58.98956,-8.50236,7.82567,-23.69062,37.27214,-5.11774,3.21231,-1.50819,0.81579,25.94385,33.07895,16.194,-5.63696,-14.56161,-2.3101,4.5232,-0.7431,0.95006,4.2584,-2.1838,-1.31014,-2.31323,-0.3272,1.46035,2.26076,1.76676,0.40536,-0.33829,0.01888,0.25064,0.39172,0.28646,0.05539
2619,-7.56415,-65.37558,9.55927,8.74714,1.8946,-1.30153,-88.15444,-26.41104,7.66757,60.17278,-13.326,4.21076,-24.41238,39.10357,-5.74609,3.40055,-1.54422,0.71731,23.11445,32.33387,9.32245,-0.87515,-17.98221,-2.08579,4.53525,-0.52718,1.36734,5.01128,-2.6473,0.11714,-2.08109,-0.60348,1.2721,2.13933,1.13835,0.67236,-0.23408,-0.02497,0.19758,0.4275,0.16275,0.13963
2620,-6.58328,-66.54534,9.52197,10.74504,-0.5719,-1.62957,-86.70276,-26.7338,7.01261,60.45393,-19.8508,-1.06385,-24.94293,40.82382,-6.28915,3.34651,-1.54021,0.58084,19.23053,22.09817,-0.88429,4.96838,-19.73382,-1.15396,3.93724,-0.11312,1.54937,5.25001,-2.95621,1.32467,-1.62994,-0.61508,0.91668,1.62787,0.46333,0.61205,-0.15442,-0.01786,0.12696,0.34942,0.02733,0.13513
2621,-5.78425,-67.13477,9.50229,13.05124,-2.9254,-1.97595,-85.11549,-29.33874,5.41842,61.79735,-25.08183,-4.99378,-25.2972,42.39326,-6.72362,3.32273,-1.52743,0.44415,17.51585,9.88125,-10.1113,8.14537,-19.99569,0.34778,3.00249,0.44209,1.51484,5.03365,-3.14599,2.05193,-1.23501,-0.29443,0.58585,0.94488,-0.12929,0.32136,-0.14767,0.06256,0.06822,0.20259,-0.08843,0.05913
2622,-5.09816,-66.59379,9.39577,15.75288,-4.23476,-2.56535,-83.41595,-31.48716,3.50454,64.18458,-26.38044,-4.88884,-25.53183,43.74592,-7.05803,3.39369,-1.47075,0.33406,18.40908,3.27343,-13.92473,6.01359,-20.27291,1.56814,2.18097,1.02959,1.44301,4.55257,-3.30825,2.1015,-1.00012,0.1509,0.34096,0.36382,-0.4824,-0.00805,-0.19678,0.17615,0.02757,0.05125,-0.15791,-0.03378
2623,-4.27162,-64.92892,9.13833,18.28756,-4.14445,-3.38706,-81.16255,-31.71879,1.84818,66.36381,-23.40299,-0.12468,-25.71182,44.84671,-7.30596,3.48207,-1.35249,0.25459,21.18411,5.1616,-10.52784,-1.71896,-21.16278,1.48029,1.78889,1.44657,1.45192,4.01708,-3.44984,1.36784,-0.8525,0.40882,0.13833,0.11775,-0.45107,-0.2306,-0.23984,0.24209,-0.00446,-0.04472,-0.16424,-0.0982
2624,-2.94934,-62.27329,8.65981,19.92259,-3.11183,-4.2032,-77.84991,-29.07194,0.77238,67.19547,-18.30567,7.33721,-25.87605,45.72624,-7.46621,3.44628,-1.20953,0.1749,24.86779,14.08968,-2.11016,-12.72701,-22.22793,-0.13895,1.84877,1.46176,1.47786,3.60775,-3.50959,0.01499,-0.69151,0.2885,-0.05118,0.31655,-0.03698,-0.27207,-0.22172,0.20108,-0.03389,-0.04675,-0.1142,-0.11185
2625,-0.95624,-58.9474,7.96517,20.199,-2.11873,-4.67168,-73.50364,-23.65927,0.34511,66.29712,-14.35032,13.68915,-26.01937,46.45356,-7.5439,3.21841,-1.11677,0.065,28.21527,25.45009,6.36215,-23.01578,-23.05814,-2.30615,2.15798,0.98149,1.40816,3.44171,-3.45478,-1.50681,-0.55551,-0.17866,-0.16087,0.85335,0.61098,-0.13343,-0.14509,0.05784,-0.04803,0.03385,-0.02709,-0.07591
2626,1.57843,-55.58875,7.19575,19.31475,-1.90335,-4.6437,-68.40946,-17.49303,0.3493,64.40044,-13.67842,15.4852,-26.07202,47.10241,-7.55444,2.88595,-1.10819,-0.08643,30.98307,33.27927,10.40493,-28.71121,-24.15519,-3.51636,2.51635,0.12954,1.23176,3.57626,-3.32053,-2.64981,-0.57862,-0.80748,-0.08075,1.46009,1.29141,0.10947,-0.05927,-0.13034,-0.02353,0.14177,0.07873,-0.01309
2627,4.26738,-52.81486,6.5674,18.20531,-2.42565,-4.32609,-63.13309,-13.09723,0.37787,62.69415,-15.84285,12.02027,-25.92671,47.73167,-7.50982,2.65011,-1.14506,-0.24812,33.49685,33.87693,8.38466,-27.54174,-26.41927,-3.02146,2.88274,-0.79451,1.01429,3.98336,-3.18522,-3.03322,-0.83052,-1.33456,0.25193,1.8991,1.79504,0.35177,-0.01349,-0.28406,0.05309,0.22203,0.1745,0.04489
2628,6.69832,-50.89838,6.24346,17.88218,-3.06828,-4.0692,-58.62352,-11.55556,0.10397,61.23405,-18.32683,5.86514,-25.51561,48.37384,-7.42068,2.64826,-1.16064,-0.36283,34.48455,28.51522,2.22885,-20.07943,-29.86887,-1.50513,3.29672,-1.42382,0.78607,4.53726,-3.12047,-2.62758,-1.24328,-1.46957,0.80521,2.08871,1.97852,0.51822,-0.02659,-0.32366,0.16813,0.2532,0.22683,0.07526
2629,8.73746,-49.70304,6.22963,18.57521,-3.16901,-4.02017,-55.49981,-12.11276,-0.5374,59.085,-18.7732,0.99445,-24.85988,49.04022,-7.29415,2.85644,-1.12903,-0.38542,31.98615,22.05643,-3.48307,-9.71621,-33.11607,-0.45883,3.78488,-1.55147,0.53101,5.02405,-3.14284,-1.75967,-1.65156,-1.12114,1.40698,2.06321,1.8544,0.58918,-0.0801,-0.22583,0.27663,0.24367,0.22698,0.07622
2630,10.62445,-48.80469,6.35025,19.67272,-2.41062,-4.04977,-53.13985,-13.20573,-1.36575,55.83355,-16.67304,0.07313,-24.0622,49.72948,-7.13419,3.12442,-1.06686,-0.31098,26.61851,18.63392,-4.82736,-1.3745,-34.3957,-0.73077,4.27443,-1.28392,0.28377,5.25181,-3.27147,-0.92488,-1.89344,-0.55743,1.79254,1.87179,1.56167,0.57502,-0.13637,-0.06248,0.32896,0.20772,0.18844,0.06276
2631,12.72985,-47.66966,6.35473,20.21095,-0.95844,-3.89087,-50.13964,-13.26974,-2.00324,51.93342,-13.16178,2.91737,-23.25741,50.44238,-6.94843,3.2738,-0.99948,-0.16647,21.69485,19.69338,-1.41919,0.99389,-33.07994,-1.75831,4.63286,-0.94306,0.11175,5.15435,-3.54955,-0.5007,-1.86921,-0.20416,1.76771,1.5268,1.24697,0.4663,-0.16051,0.05237,0.30654,0.15347,0.12515,0.04745
2632,15.2789,-46.16085,6.13456,19.50984,0.59654,-3.36708,-45.66191,-11.71167,-2.01219,47.96242,-9.73779,7.03238,-22.54419,51.18716,-6.7564,3.1787,-0.93552,-0.00084,20.07938,24.41017,3.98502,-3.62583,-30.15726,-2.267,4.76253,-0.82322,0.03636,4.88753,-3.99307,-0.53278,-1.61316,-0.30383,1.3572,1.06055,1.0236,0.24144,-0.14494,0.04937,0.23209,0.09503,0.05626,0.02948
2633,18.22171,-44.93224,5.85809,17.56805,1.50844,-2.54355,-39.95859,-9.96814,-1.26221,43.82096,-7.1579,9.22914,-21.95824,51.96741,-6.58323,2.86358,-0.88043,0.12715,21.32345,29.52928,7.65772,-12.61505,-27.32794,-1.63151,4.65908,-1.04496,0.03701,4.70895,-4.5155,-0.79181,-1.35048,-0.82501,0.77154,0.56975,0.97097,-0.08057,-0.12235,-0.06983,0.1417,0.05257,0.01088,0.00216
2634,21.31622,-44.66317,5.74107,14.9439,1.40917,-1.68473,-33.70693,-9.59019,-0.10059,38.94907,-5.29365,7.79156,-21.50191,52.79148,-6.44741,2.50372,-0.84311,0.18225,22.65259,31.90766,7.5435,-20.94298,-26.08353,-0.35813,4.43133,-1.50731,0.04795,4.76938,-4.93941,-0.98202,-1.27511,-1.53551,0.19835,0.19199,1.10051,-0.41207,-0.12375,-0.24545,0.04729,0.03816,0.01106,-0.03495
2635,24.41745,-45.35083,5.80377,12.31306,0.58603,-1.02484,-27.2907,-10.06563,1.02346,33.18638,-3.99822,3.76761,-21.16504,53.669,-6.34286,2.2795,-0.82763,0.19527,22.25368,31.58221,4.91643,-23.83496,-27.30027,0.60819,4.22161,-1.93534,-0.00825,5.03675,-5.12582,-0.91591,-1.32557,-2.09746,-0.27554,0.03618,1.3275,-0.63088,-0.13964,-0.38326,-0.04874,0.04997,0.05394,-0.07114
2636,27.56958,-46.65039,5.93967,10.08189,-0.18293,-0.55581,-20.97332,-9.9738,1.82713,26.62278,-3.39636,0.25472,-20.93607,54.5919,-6.25085,2.23973,-0.8261,0.25337,19.68493,30.51123,3.09247,-18.98901,-31.32102,0.67607,4.11668,-2.07611,-0.09114,5.36174,-5.11497,-0.60233,-1.33967,-2.26435,-0.56547,0.1035,1.50514,-0.66148,-0.1489,-0.40709,-0.11395,0.07179,0.10945,-0.09172
2637,30.88872,-48.32625,6.0468,8.24249,-0.04606,0.01162,-15.01737,-8.77612,2.06633,19.39739,-3.30559,0.19296,-20.80206,55.53194,-6.15881,2.31602,-0.83378,0.43868,15.34586,30.13643,4.24504,-7.51173,-37.20543,-0.23904,4.13419,-1.88217,-0.04528,5.60705,-5.12038,-0.25632,-1.26642,-2.0509,-0.59999,0.30098,1.52836,-0.52537,-0.14944,-0.31537,-0.10794,0.08641,0.14041,-0.0895
2638,34.45963,-50.21507,6.05718,6.66413,1.20864,0.97006,-9.3127,-6.72479,1.60581,12.31968,-2.98576,3.76961,-20.73439,56.47266,-6.06156,2.40369,-0.86223,0.7459,11.44428,31.15816,6.69867,6.36505,-42.07601,-1.79727,4.27504,-1.53003,0.20951,5.73816,-5.33722,-0.11136,-1.13986,-1.70762,-0.44468,0.51435,1.40976,-0.31715,-0.14274,-0.18368,-0.03836,0.08874,0.12794,-0.06815
2639,38.28817,-52.15393,5.96894,5.14318,2.9376,2.281,-3.49466,-4.31992,0.70665,6.13315,-1.26744,8.23072,-20.69046,57.41999,-5.955,2.35909,-0.9068,1.08213,10.15758,34.14608,6.28438,16.60983,-42.53822,-3.25886,4.52827,-1.27188,0.5875,5.8102,-5.79187,-0.18195,-0.99221,-1.52487,-0.28385,0.65353,1.23071,-0.13697,-0.12278,-0.10928,0.04014,0.08341,0.07585,-0.03569
2640,42.3359,-54.15611,5.87484,3.13553,4.34171,3.57273,2.76617,-2.51023,-0.04315,0.30486,2.71633,10.81363,-20.63379,58.37316,-5.83912,2.02211,-0.92146,1.32879,10.65331,39.0146,1.63015,18.86934,-37.79039,-3.97986,4.86173,-1.27832,0.9094,5.90751,-6.3627,-0.28915,-0.86224,-1.6505,-0.26702,0.70745,1.05869,-0.02248,-0.0912,-0.14418,0.07739,0.08173,0.00186,0.00209
2641,46.58173,-56.28239,5.8536,0.30047,4.90446,4.32188,9.66669,-2.15991,-0.22101,-4.98218,7.86885,10.66704,-20.54512,59.31116,-5.71363,1.40221,-0.87898,1.38258,11.93038,44.17073,-4.43721,13.3017,-31.00947,-4.06637,5.21561,-1.52634,1.01551,6.09013,-6.8938,-0.3748,-0.78297,-1.99244,-0.40542,0.78863,0.9612,0.07056,-0.05981,-0.25583,0.06388,0.10171,-0.06306,0.04068
2642,50.95745,-58.29022,5.87488,-2.78897,4.51928,4.17536,17.04324,-3.11548,0.17998,-7.58545,11.17721,8.6039,-20.41871,60.21637,-5.56578,0.74802,-0.79713,1.20797,15.99279,47.27586,-8.31725,4.14275,-27.25349,-4.2117,5.5732,-1.83139,0.88757,6.37546,-7.30082,-0.64085,-0.75127,-2.31702,-0.60008,1.06706,1.01812,0.22199,-0.03474,-0.3609,0.02311,0.15633,-0.08427,0.07296
2643,55.29301,-59.84717,5.90037,-5.57383,3.62563,3.3434,24.16049,-4.71803,0.94793,-7.02342,10.50825,6.20577,-20.24858,61.0867,-5.37989,0.26592,-0.6897,0.90468,23.49087,46.91803,-8.16948,-3.95918,-29.75692,-4.64973,5.97238,-2.02128,0.7049,6.69868,-7.59705,-1.28399,-0.77362,-2.47442,-0.73213,1.55774,1.2447,0.43879,-0.01495,-0.40371,-0.01723,0.22863,-0.05202,0.08756
2644,59.44817,-60.91415,5.94637,-8.35246,2.88858,2.45902,30.26323,-6.81871,1.83599,-6.85401,6.72902,4.68262,-20.01163,61.94576,-5.1674,-0.09057,-0.55161,0.65626,30.29119,43.33672,-4.5148,-8.62101,-37.75775,-4.7042,6.41445,-2.03687,0.71867,6.92404,-7.84741,-2.21279,-0.88962,-2.47115,-0.74089,2.02473,1.5677,0.60267,-0.00137,-0.38417,-0.04624,0.26884,0.01189,0.07165
2645,63.43292,-61.69638,6.01772,-11.51121,2.78018,2.16727,35.15351,-9.83098,2.54113,-11.35066,2.66118,4.68907,-19.67067,62.83834,-4.964,-0.50014,-0.39645,0.61202,31.26839,37.55281,0.69462,-9.52532,-47.28863,-3.49834,6.79229,-1.92783,1.03126,6.92327,-8.09484,-3.0394,-1.13109,-2.39919,-0.66266,2.15799,1.86655,0.57369,-0.00195,-0.33395,-0.07186,0.23041,0.07317,0.02413
2646,67.42535,-62.48942,6.0507,-14.92974,3.42484,2.80163,39.3078,-14.23725,2.66302,-21.56408,0.7102,6.41052,-19.19883,63.7842,-4.80685,-1.05559,-0.24033,0.78113,25.00907,30.45659,5.40699,-6.48284,-54.30771,-1.17449,6.98839,-1.80842,1.46055,6.68687,-8.33583,-3.36875,-1.4363,-2.35727,-0.63534,1.89019,2.0213,0.37052,-0.02019,-0.29434,-0.11563,0.12029,0.10024,-0.03021
2647,71.65431,-63.33336,5.84522,-18.42587,4.5494,4.11969,43.75803,-19.34327,1.82594,-35.07854,1.62222,9.04134,-18.6031,64.75244,-4.7236,-1.69942,-0.09661,1.02942,14.51894,23.81065,7.92961,0.70445,-56.69967,0.78931,7.01959,-1.79787,1.65835,6.3116,-8.48341,-3.1738,-1.65681,-2.40241,-0.7902,1.48966,1.98862,0.18807,-0.04424,-0.2947,-0.18935,0.00652,0.08403,-0.05458
2648,76.20592,-63.78428,5.09616,-21.9765,5.71562,5.46476,49.31015,-22.72858,-0.0275,-48.72666,4.86592,11.15669,-17.92963,65.68589,-4.74217,-2.2991,0.02239,1.19365,3.50743,20.95412,7.30529,10.50655,-54.30957,0.61164,6.99732,-1.92651,1.43217,5.93924,-8.44221,-2.81364,-1.6934,-2.49858,-1.07876,1.33012,1.82726,0.23665,-0.06513,-0.32515,-0.25979,-0.03104,0.04427,-0.02826
2649,80.88888,-63.40924,3.6833,-25.46187,6.71996,6.48128,55.81404,-22.55695,-2.43764,-60.38013,9.3177,12.21507,-17.24804,66.51703,-4.88581,-2.73833,0.10321,1.23122,-6.30509,23.70805,4.4604,19.12744,-48.49685,-2.30127,7.03553,-2.14436,0.90329,5.67539,-8.27793,-2.61222,-1.59275,-2.57953,-1.31818,1.53486,1.60661,0.56409,-0.08569,-0.3507,-0.27455,0.0273,0.00247,0.04161
2650,85.37249,-62.32057,1.82278,-28.54227,7.6168,7.46106,62.66977,-19.46267,-4.62229,-68.99465,13.73433,13.02842,-16.62034,67.19182,-5.15901,-2.93015,0.1223,1.24317,-13.93217,30.46463,2.06159,22.87362,-41.7182,-6.74295,7.2051,-2.37789,0.34078,5.57304,-8.22147,-2.52072,-1.41782,-2.62931,-1.4336,1.8969,1.38751,1.00852,-0.09301,-0.3504,-0.23019,0.12846,-0.02964,0.12529
2651,89.37989,-61.19234,-0.03672,-30.66567,8.33397,8.69767,69.41618,-15.8492,-5.80191,-74.01491,17.25322,13.98987,-16.086,67.703,-5.55056,-2.83085,0.07254,1.34716,-17.71806,37.87527,1.54854,20.6911,-37.03745,-10.32458,7.55254,-2.60788,-0.00761,5.69413,-8.49867,-2.24627,-1.18856,-2.73117,-1.53009,2.15831,1.28195,1.31697,-0.06234,-0.34579,-0.17924,0.21352,-0.03785,0.18461
2652,92.81014,-60.96711,-1.44468,-31.20836,8.55238,9.91653,76.32008,-14.55154,-5.57354,-74.73939,19.39523,13.98674,-15.66061,68.06617,-6.0431,-2.45792,-0.0262,1.56142,-14.58669,42.30106,1.49608,14.65833,-36.53585,-10.97186,8.10391,-2.89485,0.01952,6.03764,-9.10702,-1.63584,-0.97303,-3.0198,-1.73025,2.25711,1.38916,1.33133,0.00533,-0.38705,-0.17408,0.26708,-0.01225,0.19145
2653,95.71935,-61.90374,-2.37425,-29.8648,8.06329,10.70399,84.82732,-16.33419,-4.45642,-70.76798,19.71168,12.1067,-15.32448,68.29152,-6.60567,-1.89093,-0.14809,1.81,-0.91922,42.11948,0.14159,8.10107,-39.71174,-8.26144,8.83838,-3.29848,0.39354,6.44438,-9.78471,-0.87386,-0.9074,-3.51489,-1.97477,2.28246,1.68698,1.07894,0.07557,-0.4987,-0.21456,0.29892,0.04079,0.14155
2654,98.015,-62.91893,-3.30504,-26.97272,7.05326,11.10199,95.86209,-18.30844,-3.70299,-62.72247,17.81871,9.69688,-15.03286,68.40083,-7.21196,-1.28221,-0.25282,1.9815,23.51753,39.8112,-1.44252,3.58104,-43.61494,-3.72607,9.68063,-3.72653,0.77484,6.65394,-10.16581,-0.30358,-1.04065,-3.95965,-2.03512,2.3158,2.01834,0.74495,0.11798,-0.62755,-0.2561,0.3117,0.09575,0.06203
2655,99.35092,-62.97418,-4.46559,-23.5559,5.86225,11.10237,107.73609,-18.11197,-3.89465,-52.35453,13.94527,8.9957,-14.75146,68.40552,-7.85104,-0.83165,-0.295,1.9543,52.44707,37.77121,-0.28766,1.48331,-45.29105,0.21542,10.48766,-3.93864,0.70932,6.50873,-10.0603,-0.12144,-1.2609,-3.96646,-1.74873,2.35941,2.20738,0.53924,0.12808,-0.67105,-0.26054,0.29937,0.12599,-0.00498
2656,99.56425,-62.26212,-5.51471,-20.74404,4.63044,9.87304,117.44257,-17.1849,-4.4339,-41.3779,9.0055,10.0053,-14.4518,68.28095,-8.50373,-0.68904,-0.23926,1.61264,77.39818,34.7289,4.45184,-0.24547,-44.17367,1.86342,11.03765,-3.80034,0.15081,6.06236,-9.5371,-0.27217,-1.49087,-3.44213,-1.1632,2.38066,2.20205,0.53997,0.10071,-0.58441,-0.21393,0.26669,0.13046,-0.03757
2657,99.03404,-61.60092,-6.10835,-18.7019,3.28394,6.3678,123.63841,-18.55674,-4.61745,-30.29945,3.87593,10.43691,-14.09509,67.98472,-9.13506,-0.79906,-0.08352,0.93068,94.83793,27.67745,10.2812,-4.49094,-41.47758,1.18817,11.05968,-3.41772,-0.374,5.49997,-8.7909,-0.53302,-1.81917,-2.70412,-0.45385,2.37547,2.07933,0.6705,0.01461,-0.42379,-0.11377,0.24063,0.13042,-0.04183
2658,98.48251,-61.50891,-6.28573,-16.55332,1.7657,0.64988,127.28396,-23.58856,-4.36459,-18.91875,-1.08814,8.51823,-13.64409,67.49385,-9.7098,-0.93085,0.10686,0.06196,107.2725,15.40642,14.33067,-12.36648,-38.15937,-0.59538,10.36393,-2.96646,-0.30705,4.94524,-7.9526,-0.63427,-2.30984,-2.11087,0.20236,2.34298,1.93333,0.79729,-0.13286,-0.27151,0.0254,0.24728,0.14097,-0.02946
2659,98.48946,-61.9352,-6.29991,-13.27592,0.1834,-5.77768,129.82195,-31.05774,-3.86351,-7.30934,-5.67608,4.69979,-13.08648,66.82801,-10.20895,-0.85346,0.198,-0.70902,118.73299,0.26927,15.93371,-22.57708,-34.14037,-2.23555,9.08339,-2.55965,0.37171,4.33871,-7.02151,-0.36284,-2.86091,-1.77595,0.71957,2.21516,1.78522,0.80135,-0.30435,-0.17061,0.17298,0.27709,0.15363,-0.00638
2660,99.48823,-62.51091,-6.43073,-8.28872,-1.25121,-10.8154,132.32732,-38.32145,-3.20174,5.01212,-9.39488,0.7616,-12.42615,66.05716,-10.61562,-0.46922,0.04688,-1.12497,133.12199,-12.84822,15.9818,-32.53533,-29.34169,-3.35072,7.64799,-2.24571,1.14987,3.59142,-6.03488,0.36802,-3.26041,-1.61661,1.0914,1.93128,1.62519,0.63021,-0.43722,-0.12437,0.29343,0.30007,0.14954,0.02654
2661,101.80388,-62.73186,-6.97623,-1.69889,-2.36118,-12.88452,135.57288,-42.60422,-2.7228,19.42843,-11.5765,-2.07554,-11.66358,65.28961,-10.91394,0.15494,-0.40741,-1.06939,153.73102,-18.99183,14.70146,-40.0279,-24.56894,-4.22048,6.54228,-2.03681,1.4632,2.73146,-5.19512,1.48674,-3.32939,-1.5333,1.29865,1.51814,1.4725,0.32133,-0.47609,-0.12128,0.35145,0.29242,0.11851,0.07013
2662,105.41354,-62.17368,-8.15664,5.0546,-3.05141,-11.79417,139.65877,-42.3005,-3.26934,35.48951,-11.69059,-4.53434,-10.811,64.62744,-11.10744,0.78931,-1.04647,-0.61782,179.36424,-15.84885,10.13566,-44.14058,-20.82824,-4.96036,5.98482,-1.93407,1.1521,1.90305,-4.70094,2.73971,-3.0527,-1.5094,1.28015,1.09371,1.41358,-0.04161,-0.40868,-0.15115,0.32423,0.25036,0.07997,0.11387
2663,109.9174,-60.98563,-9.86344,9.57079,-3.25781,-8.83675,144.09451,-38.67118,-5.31564,49.65721,-9.78108,-8.67492,-9.92466,64.12615,-11.22079,1.15349,-1.56593,-0.02534,203.63718,-6.26264,-0.22885,-45.24715,-18.22506,-5.24765,5.86842,-1.92782,0.50088,1.31108,-4.46714,3.7314,-2.60129,-1.56385,1.02455,0.84235,1.57191,-0.37343,-0.27923,-0.20027,0.22441,0.20649,0.08514,0.13348
2664,114.8184,-59.9423,-11.63374,10.47139,-2.95778,-6.04544,148.4238,-35.30944,-8.14246,58.36736,-6.80285,-15.57177,-9.09323,63.80529,-11.28769,1.15095,-1.6656,0.38081,220.54108,2.99671,-15.89646,-44.43021,-16.04101,-4.78197,5.90104,-1.95779,-0.10529,1.0983,-4.18051,4.15712,-2.2229,-1.64487,0.67409,0.89593,1.97813,-0.60606,-0.16272,-0.2396,0.10656,0.20642,0.17306,0.11186
2665,119.51797,-59.62976,-12.96831,8.67134,-2.26962,-5.01755,152.23203,-34.96891,-10.48834,61.38254,-4.28194,-23.76571,-8.4043,63.68075,-11.33151,0.93582,-1.27896,0.37298,229.36403,6.33352,-32.44001,-42.62399,-13.78426,-3.72097,5.88727,-1.93335,-0.54519,1.16094,-3.62157,4.04208,-2.09029,-1.64313,0.45335,1.15636,2.47338,-0.74853,-0.11673,-0.2401,0.02936,0.24265,0.32292,0.04642
2666,123.31506,-60.12986,-13.56024,6.18112,-1.42358,-5.7338,154.94389,-38.07085,-11.63303,60.81391,-3.25443,-29.4756,-7.91505,63.75293,-11.36633,0.73014,-0.59425,-0.02607,232.97726,2.70953,-43.63379,-40.37886,-11.86171,-2.36959,5.84156,-1.82351,-0.98606,1.17724,-2.89139,3.73539,-2.2227,-1.51937,0.47245,1.34045,2.8164,-0.91963,-0.15011,-0.20518,0.0075,0.25213,0.46459,-0.05951
2667,125.78197,-61.39944,-13.32912,3.81599,-0.58747,-6.57384,156.26358,-43.44071,-11.60055,57.60122,-3.46265,-28.5456,-7.64836,63.98431,-11.3997,0.56291,0.11081,-0.55895,233.01721,-4.60392,-44.29853,-39.36566,-10.91246,-0.35554,5.83849,-1.67568,-1.56633,0.87556,-2.30485,3.68875,-2.50866,-1.34264,0.66359,1.24446,2.87127,-1.23487,-0.22796,-0.16692,0.01394,0.19299,0.53257,-0.18801
2668,126.99664,-63.28644,-12.48049,0.39556,0.24614,-5.5957,156.78583,-49.11061,-10.87537,49.91502,-3.63944,-19.21666,-7.60524,64.31905,-11.43812,0.21459,0.62498,-0.86871,228.12117,-10.54402,-32.84369,-43.71893,-10.64301,3.41125,5.85068,-1.54872,-2.11695,0.26606,-2.10783,4.13031,-2.80772,-1.2045,0.90908,0.91809,2.71779,-1.70274,-0.30855,-0.15093,0.0278,0.09163,0.51712,-0.30549
2669,127.34313,-65.61098,-11.35193,-5.72691,1.19378,-1.97068,157.45737,-53.69108,-9.98585,35.49382,-2.56259,-4.17068,-7.77866,64.68439,-11.49566,-0.55619,0.87314,-0.68675,216.06201,-12.05841,-13.15131,-57.58843,-9.69923,9.35355,5.7624,-1.45629,-2.29929,-0.39223,-2.32039,4.8689,-3.03709,-1.1321,1.16473,0.57148,2.56268,-2.22269,-0.37318,-0.15529,0.05965,0.00245,0.4579,-0.38304
2670,127.26024,-68.279,-10.21357,-14.45729,2.29204,3.32089,158.43695,-56.97684,-9.24095,15.65527,0.03548,9.64159,-8.16195,64.99979,-11.58856,-1.75023,0.89823,0.02431,197.51497,-9.61432,5.32657,-80.57859,-6.58678,16.04168,5.57982,-1.39923,-1.99288,-0.78246,-2.79068,5.43586,-3.19056,-1.1099,1.43176,0.39612,2.5406,-2.58756,-0.42424,-0.16526,0.12646,-0.03774,0.39621,-0.39747
2671,126.89637,-71.05145,-9.20045,-23.21642,3.30543,8.30943,158.51523,-59.12287,-8.76991,-3.76163,3.1916,14.99237,-8.74315,65.2205,-11.71952,-3.02468,0.75795,1.09745,177.11259,-5.80857,12.31487,-106.273,-0.86714,20.8517,5.47281,-1.44604,-1.41044,-0.67298,-3.35545,5.44777,-3.309,-1.17702,1.65,0.5145,2.66637,-2.5654,-0.46637,-0.18368,0.21668,-0.00699,0.35461,-0.33047
2672,126.05112,-73.53876,-8.304,-28.32829,3.73124,11.86395,156.17517,-60.22724,-8.54188,-15.37864,5.13314,10.40838,-9.47878,65.36401,-11.86753,-3.87032,0.43128,2.30475,161.91635,-3.5569,5.14891,-126.41864,6.11409,21.73263,5.59654,-1.72527,-0.82993,-0.13903,-3.90138,4.90377,-3.44018,-1.44204,1.70756,0.87004,2.81233,-2.12958,-0.49453,-0.23804,0.29166,0.08471,0.32483,-0.19617
2673,124.45034,-75.50997,-7.39202,-27.63486,3.21944,14.31246,150.89041,-60.48397,-8.25316,-15.28395,4.46163,1.99343,-10.29952,65.4796,-12.00006,-3.95582,-0.12426,3.42668,156.78323,-4.24288,-7.78718,-136.6286,11.57447,18.37818,5.84103,-2.25649,-0.33566,0.43767,-4.37215,4.1721,-3.5859,-1.93056,1.58318,1.22303,2.80907,-1.5436,-0.49742,-0.34639,0.31992,0.18745,0.28349,-0.0496
2674,122.00897,-76.94933,-6.36329,-22.42908,2.09203,16.10693,143.41011,-59.83764,-7.55096,-6.16205,1.37159,-1.8078,-11.13875,65.58834,-12.10063,-3.37895,-0.78324,4.20586,160.28314,-6.22224,-13.80112,-138.59813,13.14374,12.29326,5.86374,-2.8214,0.15632,0.65659,-4.67716,3.68552,-3.69638,-2.45586,1.4085,1.3261,2.63805,-1.19075,-0.47046,-0.47771,0.29895,0.24333,0.23703,0.03861
2675,119.00255,-78.0782,-5.25137,-16.76832,1.14642,16.50908,135.62193,-58.39909,-6.36059,4.27433,-2.38637,2.45072,-11.93167,65.66081,-12.18005,-2.57438,-1.23101,4.32247,165.96806,-6.70807,-6.59658,-136.93921,10.577,6.07919,5.43751,-3.07407,0.69875,0.41146,-4.72395,3.62163,-3.69567,-2.70482,1.32443,1.12228,2.45559,-1.29139,-0.42276,-0.55633,0.24646,0.22906,0.22372,0.02321
2676,115.90904,-79.30998,-4.13757,-14.06697,0.69878,14.0527,129.30109,-56.96771,-4.88735,9.37559,-4.97955,10.77997,-12.62273,65.65244,-12.26,-1.90966,-1.28292,3.56857,167.6353,-4.9158,9.01438,-135.24312,5.65612,2.20076,4.71998,-2.8154,1.20193,-0.02079,-4.53632,3.82665,-3.50558,-2.48367,1.31081,0.80285,2.42154,-1.71006,-0.36615,-0.51671,0.18074,0.17577,0.26906,-0.0787
2677,113.03614,-80.90689,-3.06763,-14.12339,0.23657,8.32851,124.73355,-56.30507,-3.44932,8.84932,-5.77206,16.36588,-13.17775,65.54083,-12.35116,-1.42916,-1.07473,2.05503,164.03674,-2.04148,22.54658,-133.25375,0.51038,1.91684,4.13716,-2.16268,1.49273,-0.20853,-4.38819,4.00397,-3.09145,-1.88278,1.20848,0.65223,2.55158,-2.04872,-0.30429,-0.35941,0.11417,0.13474,0.3486,-0.19117
2678,110.43986,-82.79119,-2.0607,-13.99651,-0.7383,1.21032,121.00746,-56.49211,-2.29608,7.52833,-5.23919,15.97885,-13.58899,65.30371,-12.43332,-0.94481,-0.88506,0.2883,158.81342,0.43413,27.18413,-127.96285,-3.76197,4.82359,4.00341,-1.45054,1.46621,0.07857,-4.62301,3.95532,-2.51684,-1.20073,0.89049,0.80999,2.71338,-1.97464,-0.24061,-0.155,0.05516,0.13218,0.40474,-0.23689
2679,108.0704,-84.62506,-1.16102,-11.54437,-1.87751,-4.10448,117.18336,-56.77554,-1.50888,9.31042,-4.10574,11.52158,-13.89047,64.89652,-12.46856,-0.33276,-0.8343,-1.06436,155.52802,2.20892,23.37566,-116.68834,-7.21956,9.00758,4.33388,-1.00888,1.2037,0.71388,-5.33866,3.65288,-1.97645,-0.74345,0.39921,1.17474,2.76887,-1.50224,-0.18966,0.00714,0.00994,0.15376,0.39856,-0.20141
2680,105.93446,-86.02427,-0.45348,-7.18372,-2.40206,-5.71406,113.02903,-55.90135,-1.05442,14.19293,-3.03798,6.33224,-14.14664,64.26623,-12.42372,0.32386,-0.8447,-1.59409,154.77838,4.21691,15.20774,-100.46389,-10.1006,11.86998,4.9224,-1.00261,0.93219,1.35088,-6.26975,3.18414,-1.71366,-0.67076,-0.05385,1.50231,2.6652,-0.92221,-0.16882,0.07143,-0.01434,0.1661,0.33427,-0.12724
2681,104.05274,-86.72019,0.00408,-2.44,-2.21188,-4.78042,108.92015,-53.10667,-0.83614,20.92444,-2.9812,0.94644,-14.4275,63.38172,-12.27581,0.88008,-0.79755,-1.44614,156.7094,6.91377,5.01995,-84.30017,-12.15265,11.32119,5.58191,-1.42573,0.8654,1.73238,-6.99597,2.66517,-1.89578,-0.98284,-0.21651,1.62878,2.43729,-0.49,-0.18449,0.02812,-0.0091,0.16036,0.24702,-0.05613
2682,102.29144,-86.56405,0.24558,1.56037,-2.13161,-4.04016,104.96873,-48.70533,-0.76028,28.60629,-4.85843,-6.29388,-14.77242,62.25423,-12.02067,1.27405,-0.67075,-1.11408,161.19684,9.47968,-7.23179,-73.95951,-13.25413,6.88522,6.16759,-2.14659,1.08477,1.80095,-7.21829,2.17402,-2.50498,-1.56891,0.00458,1.5352,2.16457,-0.30002,-0.2371,-0.10423,0.02886,0.1454,0.17878,-0.01288
2683,100.42564,-85.52553,0.381,4.15442,-2.80918,-4.69891,100.56007,-44.00291,-0.80918,35.40315,-8.35412,-14.93421,-15.15553,60.92665,-11.66373,1.49697,-0.5302,-0.9517,165.03941,10.79096,-20.13701,-72.33647,-14.19843,0.32945,6.52673,-2.94384,1.55603,1.60266,-6.94589,1.75414,-3.31454,-2.25078,0.47435,1.25506,1.92724,-0.35406,-0.3229,-0.28615,0.0983,0.10826,0.14987,-0.01415
2684,98.291,-83.72649,0.54162,5.06308,-3.83404,-5.7247,94.72745,-40.91727,-0.95515,38.80033,-11.66528,-21.60705,-15.50927,59.45858,-11.22516,1.55268,-0.43326,-0.9648,162.95975,9.86302,-29.93804,-77.7665,-16.02873,-4.8452,6.57589,-3.55408,2.12851,1.24156,-6.50779,1.46148,-3.94403,-2.81695,0.92188,0.84824,1.76177,-0.57891,-0.41257,-0.45768,0.18794,0.03136,0.14188,-0.05018
2685,95.90292,-81.37056,0.78467,4.60123,-4.2274,-5.66153,87.18168,-40.85022,-1.13336,37.81623,-12.99774,-23.46136,-15.78234,57.91703,-10.73619,1.47663,-0.38416,-0.96775,152.60672,6.09437,-33.65274,-86.18543,-18.53979,-5.35904,6.45072,-3.79046,2.48554,0.89864,-6.36386,1.3853,-4.07494,-3.09645,1.09201,0.44338,1.67027,-0.83978,-0.45595,-0.55828,0.26026,-0.06345,0.11932,-0.08264
2686,93.47498,-78.62766,1.02086,3.46874,-3.65185,-4.41884,78.86626,-43.35063,-1.42205,33.9661,-12.30162,-21.32696,-15.96151,56.36917,-10.22936,1.31159,-0.35509,-0.87033,137.10052,0.15877,-32.23748,-94.7428,-20.21965,-0.53771,6.42641,-3.64924,2.29324,0.74518,-6.78087,1.58073,-3.71017,-3.04098,0.90229,0.17413,1.65226,-1.03248,-0.43292,-0.5637,0.26672,-0.12905,0.07583,-0.08575
2687,91.21474,-75.64675,1.11765,2.28956,-2.84754,-3.12763,71.1984,-46.26542,-1.96293,30.06566,-11.24761,-18.79714,-16.08332,54.877,-9.73586,1.09436,-0.34475,-0.75279,122.36807,-5.94436,-29.82254,-102.39715,-20.02732,7.00055,6.67902,-3.27219,1.52188,0.86242,-7.62176,1.98238,-3.13721,-2.72443,0.4994,0.11277,1.72641,-1.12174,-0.36667,-0.49249,0.1919,-0.13231,0.04932,-0.06842
2688,89.19102,-72.60997,1.0276,1.55658,-2.62669,-2.61245,65.27537,-47.29114,-2.66725,28.38471,-11.21795,-18.00013,-16.21951,53.49313,-9.2848,0.88013,-0.37338,-0.71412,113.15718,-9.54911,-28.94276,-108.37076,-18.86368,13.1711,7.13762,-2.832,0.54274,1.20464,-8.47432,2.46175,-2.63683,-2.28712,0.12542,0.2395,1.87196,-1.10019,-0.28723,-0.38542,0.07086,-0.0777,0.07333,-0.05078
2689,87.35177,-69.73106,0.81674,1.68046,-2.91592,-2.67271,61.67315,-45.41673,-3.21536,29.44736,-11.86687,-17.59762,-16.43865,52.23735,-8.88642,0.75757,-0.43682,-0.73311,111.05289,-8.36361,-27.96349,-111.02661,-18.91639,15.04815,7.53703,-2.46045,-0.13985,1.60865,-8.99419,2.94293,-2.31283,-1.88138,-0.06715,0.43215,2.01392,-1.0001,-0.20858,-0.28031,-0.03689,-0.01072,0.13693,-0.0451
2690,85.54387,-67.25394,0.64136,2.95211,-3.0571,-2.74019,60.06418,-41.43134,-3.32823,32.62136,-11.90187,-15.2693,-16.77485,51.0799,-8.53292,0.80673,-0.50416,-0.71669,114.81447,-2.13436,-24.23885,-109.34632,-21.69604,12.2648,7.62579,-2.2379,-0.20542,1.94864,-9.16732,3.3976,-2.1764,-1.63113,-0.05734,0.57953,2.09941,-0.88937,-0.14743,-0.20413,-0.08241,0.02746,0.20328,-0.05398
2691,83.55415,-65.33753,0.66175,5.26411,-2.5228,-2.51872,59.01826,-37.17797,-2.96915,36.75205,-10.39447,-10.35625,-17.21951,49.9731,-8.21546,1.03135,-0.54658,-0.60877,120.84152,6.96505,-17.57194,-104.32401,-26.63304,6.77831,7.30107,-2.1507,0.34569,2.23754,-9.2201,3.75166,-2.22154,-1.55488,0.11404,0.6825,2.11032,-0.79969,-0.1265,-0.16132,-0.05042,0.03766,0.23823,-0.06956
2692,81.22188,-63.90902,0.94665,7.92067,-1.16836,-1.99703,56.88256,-34.27598,-2.29587,40.74279,-7.34039,-3.98827,-17.72933,48.9069,-7.92094,1.34752,-0.54996,-0.42016,125.25358,15.76587,-9.73075,-98.30986,-31.09989,1.83499,6.63678,-2.10023,1.21283,2.49115,-9.30741,3.85972,-2.40346,-1.55443,0.38661,0.76114,2.01236,-0.7085,-0.15553,-0.1346,0.03726,0.02925,0.21731,-0.07847
2693,78.45287,-62.65571,1.45249,10.08725,0.8271,-1.30797,52.59965,-33.26809,-1.50619,44.59531,-3.73973,1.86076,-18.24102,47.92615,-7.64051,1.63875,-0.50765,-0.20033,126.58259,21.69072,-2.80411,-92.38839,-32.04832,0.28012,5.86152,-2.00369,1.93898,2.64045,-9.33924,3.58954,-2.60582,-1.51887,0.65515,0.78772,1.78104,-0.59096,-0.21492,-0.10723,0.13255,-0.0009,0.13911,-0.0733
2694,75.27264,-61.18478,2.03972,11.31095,3.1215,-0.61326,46.10534,-33.19822,-0.79176,49.32466,-1.11243,5.62058,-18.69826,47.10051,-7.37321,1.81561,-0.41645,0.00935,126.21055,24.44597,1.75603,-86.00999,-28.56363,2.76844,5.2713,-1.88146,2.16392,2.63224,-9.10087,2.95262,-2.68946,-1.43813,0.77567,0.75074,1.50062,-0.48364,-0.26501,-0.08715,0.1826,-0.04297,0.04308,-0.06134
2695,71.86877,-59.31675,2.55877,11.73319,5.21727,-0.10151,38.40516,-32.45556,-0.31201,55.38876,-0.65108,6.81299,-19.07244,46.47407,-7.11965,1.85433,-0.29037,0.18622,126.10024,25.66416,3.39802,-78.661,-23.05504,7.21575,5.08873,-1.8361,1.85863,2.47696,-8.50141,2.20761,-2.61506,-1.40729,0.6706,0.65192,1.30869,-0.46532,-0.27618,-0.10346,0.15804,-0.07525,-0.01817,-0.05521
2696,68.44919,-57.28014,2.97438,11.89309,6.40012,0.00691,30.99678,-30.4521,-0.06226,61.41716,-2.56809,5.7605,-19.37929,46.02823,-6.89151,1.81696,-0.18811,0.2938,126.30696,26.4628,2.24246,-71.82948,-19.65223,10.25726,5.28516,-1.91313,1.30967,2.27522,-7.77872,1.76097,-2.47193,-1.48975,0.43635,0.51077,1.24873,-0.53876,-0.25078,-0.17084,0.07635,-0.08163,-0.02958,-0.0525
2697,65.10558,-55.48384,3.36669,12.48309,6.12249,-0.3906,24.91549,-28.0699,0.15209,65.20119,-5.78497,3.51399,-19.66383,45.6938,-6.70144,1.84809,-0.19904,0.30153,125.28605,26.71218,-0.58084,-68.52299,-20.99788,9.47682,5.63046,-2.03944,0.84375,2.17388,-7.27307,1.84613,-2.40353,-1.62062,0.3113,0.3932,1.22422,-0.58612,-0.21886,-0.26482,-0.00343,-0.05712,-0.01941,-0.03734
2698,61.78216,-54.16741,3.82958,13.76081,4.49186,-1.12168,20.31165,-26.60055,0.53014,65.35728,-8.48449,1.68406,-19.97903,45.38813,-6.54862,2.06155,-0.37252,0.23746,121.95863,26.21389,-2.90641,-70.36954,-26.61302,4.79891,5.88184,-2.09102,0.57902,2.25837,-7.12592,2.29685,-2.47912,-1.65503,0.48108,0.38039,1.11719,-0.49073,-0.20897,-0.33473,-0.0241,-0.00952,-0.01837,-0.00471
2699,58.32787,-53.32076,4.39589,15.05562,2.28558,-1.78943,16.46615,-26.67377,1.06939,61.86679,-9.35787,1.51792,-20.36674,45.0425,-6.43131,2.40901,-0.65606,0.17653,116.13181,25.18581,-2.95393,-75.79404,-33.9486,-1.58816,5.96233,-2.00926,0.4594,2.45934,-7.1183,2.69141,-2.62504,-1.51627,0.88939,0.48855,0.91248,-0.26394,-0.22078,-0.34139,0.02311,0.04255,-0.02709,0.02861
2700,54.59388,-52.79266,5.04361,15.27313,0.49501,-2.0216,12.20784,-27.99721,1.61065,55.91466,-8.33189,3.16943,-20.83425,44.62411,-6.35506,2.71555,-0.92104,0.18967,107.78555,23.78564,-0.53406,-80.76377,-40.34894,-6.41723,5.90471,-1.83893,0.45817,2.61646,-6.89696,2.70526,-2.66368,-1.2851,1.25954,0.65315,0.7151,-0.01461,-0.22606,-0.28517,0.10056,0.07865,-0.02151,0.04388
2701,50.5006,-52.38742,5.72808,13.99616,-0.15219,-1.72206,6.54622,-29.58504,2.04424,49.78918,-6.15962,6.01469,-21.34951,44.13302,-6.32863,2.84307,-1.05572,0.30748,97.55373,22.46581,3.44144,-81.84594,-44.14336,-7.16525,5.73068,-1.65644,0.64656,2.61723,-6.33413,2.33759,-2.44063,-1.12,1.32401,0.78005,0.63336,0.16694,-0.19575,-0.19831,0.16546,0.08754,0.01377,0.04232
2702,46.15079,-51.88016,6.36229,11.83231,0.55492,-1.09199,-0.34307,-30.17762,2.38146,45.81633,-3.68264,9.19419,-21.85667,43.57733,-6.34846,2.78308,-1.0173,0.52533,87.48415,22.30762,7.81561,-78.34422,-44.56439,-3.62902,5.44543,-1.48736,1.05353,2.52089,-5.70663,1.83668,-1.9756,-1.10125,1.02385,0.84467,0.66699,0.2665,-0.13404,-0.11396,0.1957,0.08049,0.05852,0.04035
2703,41.86881,-51.17639,6.85163,9.87165,2.22648,-0.46378,-7.10058,-29.22809,2.67362,45.09278,-1.83262,11.53338,-22.30518,42.95005,-6.39115,2.6248,-0.8206,0.80673,80.11617,23.45728,10.99793,-72.29961,-41.41282,1.90621,5.05831,-1.30675,1.56056,2.49266,-5.44342,1.49561,-1.51637,-1.16227,0.56471,0.88521,0.72332,0.30058,-0.09049,-0.05108,0.19496,0.07859,0.07331,0.04715
2704,38.03686,-50.41188,7.17087,8.93753,4.0389,-0.10332,-12.32492,-27.40017,2.95888,47.17206,-1.64159,11.78896,-22.65806,42.23652,-6.42305,2.46421,-0.51987,1.0792,76.66559,24.28337,11.2151,-66.25431,-35.01475,6.25464,4.59816,-1.11456,1.9317,2.60672,-5.69863,1.48282,-1.3263,-1.18107,0.24191,0.8961,0.73202,0.25834,-0.11016,-0.02353,0.17704,0.08396,0.04805,0.05274
2705,34.82898,-49.7422,7.36369,9.14822,5.30448,-0.09507,-15.65423,-25.72109,3.24241,50.51664,-3.35198,9.64563,-22.89077,41.44296,-6.41782,2.33508,-0.18706,1.25854,76.09966,23.51659,7.99333,-60.76027,-26.68377,7.39497,4.17076,-0.9904,1.96403,2.79489,-6.23064,1.75621,-1.42638,-1.13912,0.15157,0.8399,0.68779,0.13916,-0.1742,-0.04825,0.13773,0.08355,0.00731,0.04377
2706,32.09615,-49.13557,7.49085,9.97659,5.99866,-0.38046,-17.84622,-24.67942,3.47164,53.54193,-5.69773,6.29873,-22.99446,40.60763,-6.36822,2.20662,0.12337,1.28408,76.40186,22.26212,3.05942,-54.70876,-18.86813,5.57549,3.89218,-1.0099,1.67571,2.97794,-6.65852,2.04882,-1.61389,-1.12707,0.14463,0.77172,0.62958,-0.00412,-0.22176,-0.12742,0.0627,0.08395,-0.01954,0.01909
2707,29.50386,-48.45455,7.59959,10.72094,6.53478,-0.85992,-19.98417,-24.40186,3.56632,55.25924,-6.69674,3.59653,-22.98161,39.76793,-6.28792,2.04923,0.35107,1.14666,75.98698,22.56013,-0.78593,-47.73207,-14.2737,2.87875,3.80684,-1.16352,1.3153,3.13951,-6.74561,2.05864,-1.67552,-1.2455,0.02253,0.80442,0.63976,-0.12728,-0.21546,-0.23703,-0.03995,0.10281,-0.01187,-0.01785
2708,26.77459,-47.70087,7.74407,11.01427,7.0983,-1.42441,-22.69197,-25.14551,3.55846,55.64162,-5.42973,2.6221,-22.88051,38.91808,-6.19768,1.90407,0.40957,0.89812,74.69818,24.68621,-1.77076,-41.37347,-14.12634,1.65178,3.88678,-1.38911,1.1581,3.24014,-6.50601,1.74233,-1.55502,-1.53053,-0.2573,0.90931,0.7597,-0.24098,-0.16634,-0.34285,-0.12906,0.12185,0.02788,-0.062
2709,23.78095,-47.01533,7.98344,10.93781,7.4365,-1.93855,-26.20044,-26.8789,3.65324,55.30592,-2.77317,3.11665,-22.71714,38.00672,-6.11418,1.8724,0.23976,0.62733,72.97102,27.08366,-0.22864,-37.46297,-17.11147,2.73041,4.13369,-1.64347,1.23801,3.21369,-6.1191,1.37154,-1.34511,-1.91021,-0.54269,0.93283,0.88927,-0.34196,-0.10674,-0.41396,-0.15622,0.10282,0.06299,-0.09675
2710,20.5474,-46.38675,8.32258,10.85395,7.19236,-2.27591,-30.81756,-28.56806,4.02145,55.23037,-0.55773,4.12821,-22.48612,36.98412,-6.02736,2.0247,-0.12036,0.41849,70.88667,28.54177,1.95525,-35.9412,-20.56647,4.74453,4.62405,-1.92517,1.29435,3.07536,-5.75542,1.18761,-1.18003,-2.22379,-0.62823,0.82865,0.89529,-0.3852,-0.05535,-0.42729,-0.1086,0.05064,0.06227,-0.10639
2711,17.33689,-45.59293,8.65968,11.06464,6.34326,-2.38725,-36.33671,-28.72312,4.52111,56.01031,0.00847,4.96933,-22.14824,35.84447,-5.89706,2.29814,-0.51776,0.31439,68.36046,29.38212,3.01582,-35.11141,-22.7471,5.45485,5.36855,-2.21053,1.04702,2.89837,-5.41227,1.14161,-1.13962,-2.31083,-0.43933,0.71825,0.76052,-0.32966,-0.01448,-0.37623,-0.02352,0.01222,0.03375,-0.09107
2712,14.61453,-44.4965,8.84999,11.63282,5.26796,-2.3333,-41.27605,-26.93872,4.77773,57.44531,-0.91796,5.50776,-21.66279,34.62244,-5.68437,2.48098,-0.74142,0.30787,66.14437,30.14449,2.60986,-33.82544,-23.78759,3.98956,6.14293,-2.40789,0.57706,2.7175,-5.02352,1.03943,-1.27815,-2.13049,-0.04032,0.72307,0.55421,-0.16492,0.00191,-0.2806,0.05458,0.01892,0.00055,-0.05717
2713,12.6971,-43.29327,8.87392,12.36206,4.225,-2.20716,-43.91658,-24.68421,4.69434,58.70501,-2.73999,5.59151,-21.02772,33.32903,-5.37769,2.2958,-0.64885,0.3568,64.9493,29.45515,1.42045,-33.10966,-24.76442,1.5999,6.59038,-2.4054,0.30245,2.5711,-4.65187,0.82289,-1.61407,-1.79058,0.45619,0.87242,0.34276,0.09341,-0.0337,-0.17869,0.11728,0.06577,-0.03326,-0.0051
2714,11.46162,-42.251,8.85705,12.79488,3.07124,-2.03838,-43.97361,-23.86375,4.71179,58.9651,-5.23948,4.89966,-20.28051,31.9231,-4.99682,1.48785,-0.22639,0.41429,64.27851,25.28306,0.15842,-34.89374,-26.55944,0.1782,6.47611,-2.15993,0.50012,2.57336,-4.53647,0.63554,-2.01622,-1.45637,0.88032,1.12904,0.1569,0.40599,-0.11856,-0.10393,0.16745,0.13299,-0.08111,0.06681
2715,10.47966,-41.34102,8.91016,12.33747,1.67102,-1.79441,-42.63852,-24.99078,5.3545,58.02672,-8.32422,3.46708,-19.47179,30.36533,-4.58138,-0.10722,0.48777,0.45723,63.21449,17.64435,-0.84973,-38.92718,-29.29745,0.29796,5.8675,-1.74515,0.98209,2.85597,-4.86295,0.63061,-2.23311,-1.23639,1.01699,1.44882,0.03218,0.70318,-0.20697,-0.06698,0.18481,0.2075,-0.14355,0.14766
2716,9.32652,-40.24114,9.01262,10.64597,0.37221,-1.469,-41.49737,-26.98538,6.58945,56.34825,-11.34889,2.02902,-18.63345,28.66741,-4.1714,-2.58344,1.56274,0.49152,61.3233,9.14192,-1.51352,-41.603,-32.39605,0.84666,5.06359,-1.3334,1.32745,3.43516,-5.56399,0.77548,-2.09756,-1.16979,0.75826,1.80111,0.02893,0.89191,-0.25014,-0.06299,0.14814,0.28296,-0.19007,0.20602
2717,7.84216,-38.57488,9.01995,7.86401,-0.15092,-1.10411,-41.30313,-28.16567,7.76192,54.22477,-13.08681,1.58176,-17.76575,26.88532,-3.7915,-6.06374,3.23098,0.55276,58.38054,3.22689,-1.74898,-38.18965,-34.62244,0.52861,4.43113,-1.10275,1.28676,4.08794,-6.28683,0.89811,-1.61262,-1.2633,0.19481,2.10067,0.15847,0.89828,-0.22096,-0.08639,0.06616,0.3373,-0.18353,0.20672
2718,6.17795,-36.15841,8.78354,4.34989,0.47791,-0.74229,-41.4426,-27.3017,8.13379,50.82091,-12.54062,2.54131,-16.85681,25.08329,-3.43581,-10.75858,5.73666,0.66943,53.74505,2.06499,-1.52136,-26.97609,-34.41864,-0.51851,4.19092,-1.12705,0.92109,4.46482,-6.68822,0.85232,-0.92339,-1.4929,-0.45293,2.18374,0.36209,0.69653,-0.1227,-0.13422,-0.02941,0.32631,-0.11328,0.13613
2719,4.71156,-33.08149,8.23257,0.49087,2.04423,-0.40771,-40.4154,-24.14833,7.3635,44.50013,-9.30634,4.51139,-15.89419,23.30867,-3.08307,-16.87813,9.18955,0.85105,46.41102,5.78981,-0.9079,-11.25589,-30.36353,-0.7666,4.31767,-1.35923,0.4519,4.34476,-6.64991,0.61601,-0.2849,-1.79141,-0.95416,1.93311,0.56126,0.33483,-0.00262,-0.20272,-0.10407,0.22658,-0.00532,0.01746
2720,3.8211,-29.75916,7.45169,-3.31411,3.99911,-0.13243,-37.13729,-19.84618,5.72746,34.44737,-3.37834,6.68685,-14.8689,21.57443,-2.70888,-24.4052,13.47703,1.1029,35.65885,12.43543,-0.03936,2.8178,-22.43045,0.96609,4.63592,-1.67493,0.05554,3.82696,-6.3441,0.23903,0.04407,-2.03055,-1.14229,1.4505,0.73829,-0.05102,0.07229,-0.27391,-0.13388,0.07891,0.10046,-0.09445
2721,3.52406,-26.63925,6.65501,-7.02588,5.95965,0.06256,-32.38724,-15.98553,3.95995,21.38796,5.10655,8.38967,-13.78064,19.86754,-2.29822,-32.92886,18.2357,1.42987,20.71775,19.61065,0.8546,10.78218,-12.57326,4.04502,4.97402,-1.93097,-0.2206,3.21184,-6.03104,-0.25988,-0.01366,-2.07205,-0.9905,1.0321,0.93507,-0.30003,0.07635,-0.31437,-0.11955,-0.02976,0.17723,-0.14539
2722,3.43877,-23.78769,6.01184,-10.88867,7.71076,0.17787,-28.33158,-13.16211,2.66667,6.90431,15.38726,9.27581,-12.62945,18.18934,-1.85861,-41.71071,22.97556,1.79109,1.02315,25.96676,1.33272,12.4287,-4.29786,6.4574,5.23532,-2.03705,-0.3604,2.78772,-5.95796,-0.8318,-0.32929,-1.90792,-0.62921,0.94746,1.11719,-0.31315,0.0371,-0.30749,-0.08399,-0.03263,0.19983,-0.11364
2723,3.2758,-21.12914,5.56384,-14.63079,8.95685,0.22132,-26.28727,-11.22354,1.98265,-6.71214,25.53292,9.32658,-11.41289,16.56661,-1.4115,-49.81334,27.2169,2.123,-21.15989,30.55686,1.00984,10.51929,-0.90433,6.49424,5.34889,-1.96181,-0.3002,2.7016,-6.26295,-1.33344,-0.70261,-1.67087,-0.24794,1.24827,1.17072,-0.11146,-0.00942,-0.27202,-0.04942,0.07248,0.1494,-0.02027
2724,3.08859,-18.68082,5.25771,-17.48528,9.442,0.18474,-25.8855,-9.7149,1.79496,-17.41637,33.49241,8.76699,-10.14259,15.02464,-0.98439,-56.50466,30.65542,2.37347,-41.78035,32.92506,-0.08056,7.67421,-3.2398,3.97577,5.27675,-1.73348,-0.02257,2.92477,-6.87327,-1.658,-0.99365,-1.49567,0.03384,1.74938,1.10401,0.14407,-0.05226,-0.23859,-0.01868,0.22197,0.05578,0.07788
2725,3.06534,-16.4557,5.00721,-18.77102,9.17786,0.08139,-26.03806,-8.01975,1.98035,-24.079,38.23312,7.9931,-8.8604,13.57854,-0.59876,-61.50164,33.22039,2.54416,-57.53196,33.45107,-1.53851,5.17761,-9.13778,0.09158,5.01312,-1.4309,0.31016,3.22703,-7.47993,-1.78284,-1.12859,-1.38416,0.18936,2.11754,1.02049,0.26205,-0.0929,-0.2113,0.01438,0.3197,-0.02219,0.12476
2726,3.34288,-14.48683,4.74076,-18.38484,8.63697,-0.00929,-25.62293,-5.98763,2.33659,-26.84711,40.22547,7.4998,-7.62273,12.23626,-0.26419,-64.92582,35.05247,2.71158,-67.01329,32.83258,-2.72656,3.83535,-15.24533,-3.48002,4.63905,-1.18138,0.42458,3.33332,-7.67699,-1.65695,-1.06546,-1.27403,0.20655,2.10486,0.92365,0.20067,-0.11927,-0.17533,0.04028,0.3105,-0.05949,0.11037
2727,3.97619,-12.83471,4.41066,-16.69372,8.40857,0.03065,-23.75713,-4.29123,2.54612,-26.961,40.69647,7.60139,-6.47354,11.00101,0.02047,-67.09628,36.38598,2.98505,-70.86712,30.92374,-3.07132,4.60416,-19.4709,-5.37663,4.3459,-1.11473,0.18309,3.14059,-7.22162,-1.25067,-0.79375,-1.18314,0.06463,1.74116,0.73934,0.07868,-0.10695,-0.13172,0.04023,0.22061,-0.06793,0.06687
2728,4.95044,-11.53695,4.0046,-14.10936,8.73396,0.27812,-20.01614,-3.89044,2.43476,-25.83408,40.58284,8.16848,-5.43642,9.86273,0.26185,-68.33372,37.41983,3.44838,-70.7364,26.78463,-2.33336,8.52694,-21.36466,-5.11619,4.37345,-1.29523,-0.28959,2.73905,-6.19959,-0.74187,-0.38031,-1.20553,-0.18579,1.29584,0.4775,0.01187,-0.04805,-0.09641,0.01907,0.12088,-0.05992,0.02353
2729,6.13051,-10.57421,3.57284,-10.98688,9.54121,0.74208,-14.86716,-5.02475,2.1669,-24.28964,40.22415,8.73053,-4.51596,8.79733,0.47353,-68.90485,38.28069,4.14102,-68.27003,20.27008,-0.81982,16.05532,-21.2883,-3.23669,4.76928,-1.64887,-0.75249,2.35451,-5.11734,-0.48958,0.05994,-1.35732,-0.42018,1.10689,0.26046,0.01327,0.03844,-0.07622,0.00283,0.07363,-0.04036,-0.01338
2730,7.24383,-9.82827,3.18485,-7.70815,10.67093,1.35633,-9.40682,-6.80503,2.04836,-22.50832,39.52301,8.82743,-3.7124,7.79854,0.65912,-69.03297,39.01731,5.01622,-64.5534,12.75196,0.69571,26.84353,-19.75508,-0.89539,5.28743,-2.00504,-1.0618,2.18989,-4.58187,-0.75765,0.4274,-1.53384,-0.54687,1.34752,0.22286,0.01778,0.12412,-0.06548,0.00402,0.10023,-0.01169,-0.04865
2731,7.93637,-9.16276,2.89479,-4.5842,12.11976,2.02666,-4.87238,-8.0263,2.22966,-20.42222,38.68459,8.40802,-3.03847,6.88607,0.80653,-68.88506,39.6095,5.97044,-60.53149,6.45099,1.59288,38.84745,-17.45654,1.0057,5.55972,-2.19682,-1.19757,2.28891,-4.85869,-1.45485,0.65336,-1.60917,-0.56371,1.87282,0.39236,-0.04354,0.18223,-0.05943,0.01188,0.16776,0.02229,-0.08455
2732,7.94247,-8.50188,2.72675,-1.84447,14.12899,2.69122,-2.26104,-8.11679,2.59661,-18.24611,38.77518,7.91172,-2.50882,6.08894,0.90441,-68.58983,40.01303,6.90632,-57.61825,3.45927,1.88456,48.95857,-15.44323,2.206,5.38634,-2.12862,-1.15148,2.52798,-5.67301,-2.19214,0.71108,-1.56758,-0.53866,2.36694,0.64803,-0.16074,0.19384,-0.0638,0.01013,0.22536,0.05043,-0.11271
2733,7.27134,-7.83405,2.65183,0.3493,16.9461,3.33006,-1.82885,-7.35479,2.85434,-16.49519,41.02927,7.88622,-2.12106,5.42448,0.95187,-68.24978,40.19738,7.7574,-57.07521,4.62279,1.99528,54.95196,-14.72069,2.68053,4.88203,-1.77832,-0.9137,2.7988,-6.51305,-2.59809,0.66512,-1.48522,-0.56376,2.66516,0.83335,-0.23966,0.16636,-0.08194,-0.01174,0.26042,0.05825,-0.11544
2734,6.2107,-7.18078,2.58883,1.93121,20.45102,3.93691,-2.72253,-6.46129,2.73292,-15.39989,45.64025,8.54645,-1.85898,4.89656,0.94955,-67.93842,40.14181,8.48062,-58.47521,8.93292,2.28541,56.7016,-15.67587,2.16211,4.35485,-1.21621,-0.55734,3.04785,-7.00465,-2.55245,0.63296,-1.42017,-0.68993,2.79279,0.86672,-0.19275,0.13125,-0.10211,-0.05581,0.28887,0.03708,-0.07959
2735,5.1716,-6.57619,2.45938,2.95658,24.10334,4.48896,-3.32348,-6.01051,2.15297,-14.31411,51.58694,9.74104,-1.69196,4.49943,0.91002,-67.70588,39.84212,9.04187,-59.00635,14.42745,2.87979,55.32122,-17.8371,0.33136,4.07452,-0.63211,-0.25048,3.25386,-7.10265,-2.18076,0.67847,-1.38532,-0.89232,2.8415,0.75761,-0.01079,0.11875,-0.11382,-0.11637,0.32025,-0.01216,-0.00877
2736,4.46853,-6.07445,2.2442,3.47815,27.25975,4.94691,-2.4733,-6.08579,1.2542,-12.28726,57.4862,11.16924,-1.58402,4.22024,0.85514,-67.5825,39.32121,9.41078,-55.83093,19.57474,3.66229,51.7659,-20.17334,-2.5818,4.08142,-0.257,-0.18699,3.40138,-6.9532,-1.72589,0.80519,-1.35526,-1.11006,2.87797,0.59072,0.22491,0.14239,-0.11221,-0.18274,0.35065,-0.07123,0.07213
2737,4.14358,-5.67254,1.99016,3.38765,29.43623,5.2853,-0.54146,-6.18738,0.35587,-9.25209,62.24311,12.5112,-1.51426,4.044,0.80055,-67.57606,38.63007,9.5744,-49.46578,23.65572,4.24427,46.68597,-21.58509,-5.61832,4.14912,-0.22356,-0.45012,3.49333,-6.74127,-1.39214,0.97367,-1.28246,-1.27706,2.90059,0.47145,0.38864,0.18735,-0.09193,-0.2361,0.36353,-0.11018,0.12659
2738,4.01753,-5.24234,1.75302,2.41961,30.41523,5.51543,1.14961,-5.55847,-0.21786,-6.55906,65.29287,13.51748,-1.48014,3.95239,0.74945,-67.65547,37.83428,9.54995,-43.81004,26.53121,4.3566,41.568,-21.74992,-7.56203,3.96149,-0.48954,-0.88363,3.56977,-6.59389,-1.22633,1.1149,-1.18761,-1.34118,2.85292,0.43946,0.39248,0.21764,-0.06556,-0.25261,0.33866,-0.11279,0.12871
2739,3.83543,-4.65367,1.56369,0.42597,30.29922,5.67832,1.5903,-3.96558,-0.3858,-5.90065,66.70371,14.16108,-1.48495,3.92749,0.69869,-67.73109,36.9979,9.38511,-42.63719,28.31124,4.23725,39.24697,-21.34488,-7.79296,3.43873,-0.8997,-1.17162,3.68236,-6.55627,-1.12627,1.17531,-1.20228,-1.28362,2.68565,0.43474,0.24805,0.20895,-0.06701,-0.21788,0.2725,-0.09205,0.08078
2740,3.36743,-3.9668,1.45204,-2.40207,29.46191,5.81118,0.44228,-2.23038,-0.27991,-8.03887,67.02457,14.56267,-1.52238,3.94206,0.63908,-67.67283,36.16605,9.14233,-47.33889,28.77639,4.38703,41.77533,-21.04068,-6.7527,2.86553,-1.29415,-1.1397,3.83716,-6.57981,-0.96615,1.15393,-1.37852,-1.10707,2.40315,0.3769,0.04342,0.17032,-0.10172,-0.13773,0.1851,-0.07222,0.00839
2741,2.49893,-3.36697,1.45537,-5.52395,28.35983,5.92106,-2.13765,-1.55927,0.08668,-12.45771,66.90166,14.72845,-1.57203,3.94835,0.55675,-67.33926,35.34507,8.88491,-56.91634,27.58733,5.0893,48.12987,-20.6359,-5.65941,2.72852,-1.64497,-0.94154,3.92521,-6.52004,-0.73858,1.08484,-1.59293,-0.8236,2.06083,0.25501,-0.12887,0.13041,-0.13149,-0.03361,0.10471,-0.06306,-0.05866
2742,1.36777,-2.93163,1.57027,-8.28854,27.29939,5.98192,-5.36342,-2.28244,0.924,-17.91757,66.63631,14.47867,-1.60508,3.89801,0.448,-66.62947,34.51251,8.65277,-68.62501,25.0827,6.30459,54.64301,-19.27866,-5.66866,3.31293,-2.03478,-0.88518,3.79328,-6.23637,-0.58206,0.99371,-1.67769,-0.47902,1.7899,0.13516,-0.21233,0.11151,-0.12515,0.06406,0.06341,-0.05937,-0.09822
2743,0.35908,-2.55038,1.70915,-10.17914,26.36507,5.96843,-7.78851,-3.5632,2.22664,-23.01161,66.13904,13.76918,-1.59325,3.78064,0.33639,-65.52164,33.66158,8.45194,-78.67593,22.29793,7.80195,58.12462,-16.78291,-7.13069,4.44768,-2.46268,-1.09242,3.40221,-5.72899,-0.65814,0.89271,-1.61255,-0.19107,1.78296,0.09247,-0.17852,0.12579,-0.0993,0.11388,0.09698,-0.05873,-0.09585
2744,-0.18155,-2.07709,1.72862,-10.91355,25.55052,5.90273,-8.04313,-4.35654,3.34267,-26.4565,65.21081,12.96166,-1.52539,3.63458,0.25555,-64.05418,32.83889,8.27947,-83.53488,20.08989,9.14556,57.9437,-14.2731,-9.29544,5.60812,-2.69014,-1.34337,2.86311,-5.14277,-0.96899,0.79315,-1.5166,-0.08561,2.09361,0.14605,-0.03249,0.17294,-0.09177,0.08519,0.20183,-0.06576,-0.0482
2745,-0.27842,-1.5569,1.56327,-10.50462,24.83638,5.83716,-6.05149,-4.36978,3.43552,-27.52104,63.75563,12.53746,-1.42202,3.50209,0.2181,-62.26902,32.09571,8.13699,-82.00941,18.57916,9.79243,55.65269,-13.41885,-10.68397,6.28958,-2.38134,-1.25109,2.394,-4.67132,-1.32653,0.69557,-1.50227,-0.16453,2.54722,0.25412,0.16743,0.22882,-0.1103,-0.00452,0.31946,-0.08055,0.02657
2746,-0.18616,-1.22698,1.30135,-9.30819,24.10138,5.78216,-3.11623,-3.94796,2.42903,-26.41182,61.79671,12.57144,-1.31425,3.38231,0.21393,-60.15416,31.36837,8.00764,-75.92721,17.59811,9.47919,52.97132,-15.21518,-9.94895,6.28604,-1.43427,-0.58412,2.21941,-4.44168,-1.53865,0.59837,-1.63501,-0.30547,2.92994,0.36762,0.3219,0.25621,-0.14164,-0.09441,0.39342,-0.0906,0.08948
2747,-0.06687,-1.1922,1.07798,-7.89591,23.21488,5.69275,-0.8657,-3.35596,1.06491,-24.21605,59.53983,12.69823,-1.21815,3.25077,0.22901,-57.66738,30.48683,7.84876,-68.94752,17.14573,8.36894,50.88014,-19.34402,-6.84152,5.74235,-0.13513,0.516,2.38563,-4.44245,-1.6149,0.5419,-1.95259,-0.4088,3.19469,0.47553,0.349,0.24191,-0.18628,-0.13497,0.42222,-0.08056,0.10455
2748,0.05496,-1.25406,0.94164,-6.78774,22.27967,5.53227,-0.22935,-2.63487,0.07951,-22.31485,57.51298,12.602,-1.13921,3.10968,0.25349,-54.80225,29.31284,7.61913,-64.29273,17.31485,6.91613,49.73429,-23.98034,-2.61982,4.98976,1.01202,1.56086,2.64654,-4.51865,-1.72465,0.59669,-2.36497,-0.48452,3.38043,0.59048,0.23169,0.20744,-0.24118,-0.12746,0.4302,-0.04408,0.0626
2749,0.23626,-1.17859,0.85771,-6.22274,21.576,5.29897,-0.91665,-1.94846,-0.29367,-21.55658,56.4515,12.32981,-1.07847,2.9915,0.28152,-51.63121,27.82553,7.29256,-62.59644,18.35378,5.75577,49.70321,-26.94325,0.56523,4.29897,1.49809,1.96978,2.70413,-4.53624,-1.96072,0.80394,-2.66122,-0.60602,3.45606,0.71103,0.01664,0.18767,-0.28334,-0.1105,0.41959,0.01181,-0.01597
2750,0.51707,-0.90846,0.78548,-6.16426,21.2701,5.01263,-1.98893,-1.4753,-0.18072,-22.00121,56.83565,12.10174,-1.03418,2.92612,0.30916,-48.32685,26.11878,6.87214,-62.5726,20.64249,5.31098,50.63578,-27.49915,1.02754,3.72483,0.98549,1.41149,2.56134,-4.50508,-2.16701,1.12553,-2.66792,-0.80768,3.37037,0.7771,-0.1854,0.20099,-0.29369,-0.11477,0.38379,0.06036,-0.09028
2751,0.7677,-0.51011,0.7164,-6.32037,21.26947,4.70428,-3.11279,-1.00673,0.16273,-22.98837,58.45117,12.02046,-1.01113,2.92007,0.32163,-45.14216,24.36576,6.40705,-63.41085,24.16406,5.29113,51.87209,-27.01482,-1.37901,3.13205,-0.51719,0.01472,2.47564,-4.51149,-2.08096,1.47422,-2.3858,-1.04719,3.14189,0.70583,-0.2537,0.2403,-0.27995,-0.13681,0.33195,0.06929,-0.12204
2752,0.75906,-0.08408,0.66191,-6.29515,21.33233,4.42138,-4.73262,-0.10556,0.45941,-23.74106,60.42123,11.99895,-1.01142,2.9676,0.2965,-42.34297,22.7706,5.98579,-65.49258,28.1122,4.97638,52.69143,-27.14087,-5.25333,2.48507,-2.53388,-1.6563,2.62513,-4.55778,-1.59438,1.7383,-1.96626,-1.22022,2.82209,0.48052,-0.14722,0.27915,-0.26371,-0.14863,0.27486,0.02814,-0.09841
2753,0.42527,0.25272,0.62855,-5.79921,21.23309,4.2074,-7.06478,1.366,0.50593,-23.9808,61.66199,11.85378,-1.03124,3.06689,0.22639,-40.10899,21.4965,5.68498,-68.99706,31.16217,4.0023,52.89618,-27.91785,-8.61943,2.0231,-4.25572,-2.88035,2.93739,-4.53786,-0.83538,1.81599,-1.61037,-1.22807,2.46725,0.16978,0.09359,0.28998,-0.25713,-0.12955,0.22079,-0.04875,-0.02784
2754,0.02592,0.3794,0.58725,-4.89474,20.87244,4.08424,-9.20161,2.96456,0.19386,-24.23135,61.42896,11.46606,-1.06931,3.21328,0.12685,-38.4808,20.5977,5.52433,-72.79382,32.14798,2.76717,53.114,-27.91576,-10.10361,2.1375,-4.95484,-3.1754,3.2509,-4.36708,-0.06877,1.66946,-1.4707,-1.04644,2.18093,-0.10553,0.38599,0.26569,-0.25233,-0.08889,0.18841,-0.13241,0.0688
2755,-0.00981,0.18074,0.4926,-3.89323,20.36931,4.06518,-9.58733,3.70873,-0.4899,-25.32438,59.86443,10.94361,-1.12584,3.39871,0.02504,-37.38667,20.04378,5.48376,-75.19041,30.47102,2.14732,53.74227,-25.90056,-9.53727,3.00066,-4.44128,-2.55992,3.47113,-4.12458,0.41312,1.38762,-1.59903,-0.74611,2.06462,-0.22013,0.60303,0.22864,-0.23944,-0.05256,0.18976,-0.18559,0.15211
2756,0.54342,-0.4504,0.35913,-3.13702,19.93489,4.13247,-7.46371,2.62143,-1.28517,-27.69479,57.9888,10.52196,-1.2033,3.5982,-0.06013,-36.69461,19.75452,5.51582,-75.36957,26.54351,2.91905,54.67503,-22.0001,-7.76757,4.35125,-3.13989,-1.46818,3.57077,-3.96473,0.42009,1.13512,-1.92469,-0.43706,2.14475,-0.12198,0.61745,0.20729,-0.2233,-0.03182,0.21426,-0.17763,0.1719
2757,1.44201,-1.45787,0.28079,-2.70715,19.65532,4.22331,-3.96452,-0.23519,-1.62574,-30.70838,57.02276,10.36215,-1.30516,3.77041,-0.13108,-36.24044,19.60483,5.56465,-74.02848,22.12862,5.17455,55.72877,-17.43393,-5.88246,5.60819,-1.73717,-0.44824,3.56261,-3.95313,-0.00847,1.04166,-2.28063,-0.22502,2.3704,0.12351,0.4064,0.21167,-0.21469,-0.02282,0.2424,-0.10917,0.10631
2758,2.19636,-2.54478,0.33318,-2.31576,19.40911,4.26084,-1.38261,-3.47967,-1.12409,-32.66527,57.45472,10.52795,-1.4226,3.88568,-0.20168,-35.88145,19.46157,5.58319,-72.37842,19.47121,8.08009,57.42184,-13.59617,-4.53062,6.18502,-0.75282,0.12857,3.46871,-3.99735,-0.61181,1.12518,-2.47726,-0.17539,2.65352,0.37877,0.09649,0.23017,-0.21392,-0.02149,0.26794,-0.01873,-0.00863
2759,2.56017,-3.39556,0.48187,-1.63122,19.02394,4.209,-1.05082,-5.45094,-0.05078,-32.10068,58.83211,11.06511,-1.52962,3.95184,-0.27514,-35.53834,19.25251,5.54459,-70.76784,19.76962,10.42601,60.16642,-11.39358,-3.70347,5.88274,-0.38494,0.21407,3.35651,-3.97637,-1.07645,1.28762,-2.44318,-0.25417,2.93279,0.53425,-0.12392,0.24219,-0.21859,-0.02031,0.30539,0.04379,-0.10191
2760,2.6082,-3.91019,0.61977,-0.68606,18.44734,4.0855,-2.50945,-5.4365,0.89224,-29.08305,60.25757,11.89542,-1.61557,4.00851,-0.34877,-35.17938,18.98924,5.44823,-68.8716,22.43641,11.40839,63.80928,-11.18192,-3.13874,4.96053,-0.55079,0.00707,3.29637,-3.86919,-1.23912,1.39284,-2.24867,-0.35175,3.16726,0.56545,-0.14858,0.23499,-0.22632,-0.01106,0.36255,0.0515,-0.12288
2761,2.43865,-4.21919,0.68828,0.0329,17.74186,3.93348,-4.63108,-4.04566,1.22265,-25.2501,60.82194,12.65661,-1.70277,4.09498,-0.42433,-34.77383,18.7257,5.31717,-66.93152,25.50559,10.89382,67.50121,-12.60157,-2.79186,3.91979,-0.99888,-0.2405,3.2858,-3.76515,-1.15867,1.39807,-2.03888,-0.38708,3.28767,0.51758,-0.02761,0.22129,-0.23511,0.00329,0.41474,0.01318,-0.0767
2762,2.1153,-4.56538,0.70911,-0.01322,16.93287,3.79199,-6.57122,-2.6055,0.95151,-22.67729,59.75502,12.85452,-1.81676,4.22444,-0.50611,-34.26472,18.49191,5.18319,-65.96046,26.64948,9.17361,70.20837,-14.72106,-2.88774,3.15026,-1.43098,-0.34743,3.25967,-3.75765,-1.03302,1.37653,-1.94906,-0.3552,3.26917,0.45935,0.10194,0.2293,-0.24922,0.01331,0.43543,-0.03798,-0.01167
2763,1.74361,-5.14781,0.73554,-0.94154,15.94735,3.68486,-7.99088,-2.07635,0.41038,-22.5047,56.70809,12.26163,-1.9637,4.38563,-0.59343,-33.58955,18.25776,5.0703,-66.76529,24.72034,6.67395,71.37956,-16.25079,-3.66048,2.76791,-1.61934,-0.28359,3.16407,-3.83795,-0.99412,1.42894,-2.02334,-0.32721,3.19712,0.41484,0.17678,0.27094,-0.26958,0.0067,0.43389,-0.07575,0.03304
2764,1.43553,-5.94569,0.7957,-2.34585,14.75684,3.61698,-8.72761,-2.45864,0.01442,-24.26429,52.09048,11.10595,-2.14366,4.58576,-0.68497,-32.74915,17.96679,4.98665,-68.4124,20.5183,4.0502,70.48501,-16.23145,-4.93686,2.64071,-1.47662,-0.16804,2.98521,-3.9019,-0.9915,1.57111,-2.14972,-0.39042,3.14762,0.34765,0.25031,0.32298,-0.27838,-0.02623,0.42821,-0.09719,0.05645
2765,1.19783,-6.73736,0.88445,-3.67086,13.52882,3.58088,-8.68464,-3.16219,0.03979,-26.62158,46.99209,9.84657,-2.3745,4.87193,-0.78222,-31.84559,17.59494,4.92849,-68.78341,15.95436,2.13201,67.14919,-14.76409,-6.14195,2.636,-1.12147,-0.14123,2.73526,-3.87807,-0.94729,1.72931,-2.17724,-0.54244,3.08818,0.25332,0.35601,0.34798,-0.25935,-0.07193,0.40867,-0.10373,0.07023
2766,0.97958,-7.33382,0.97975,-4.53119,12.56588,3.57163,-8.17618,-3.64196,0.44084,-28.67272,42.77961,8.83677,-2.66933,5.2882,-0.88577,-30.99797,17.15404,4.89639,-67.47177,12.82423,1.36989,61.87783,-12.83252,-6.84507,2.79807,-0.86406,-0.2773,2.46275,-3.83372,-0.92153,1.7986,-2.04183,-0.6769,2.98172,0.20583,0.43423,0.32465,-0.21344,-0.09907,0.36123,-0.09209,0.0761
2767,0.80053,-7.77425,1.06599,-4.74971,12.0907,3.58978,-7.91166,-3.82433,0.91966,-30.14265,40.48859,8.22252,-3.01078,5.83456,-0.98908,-30.25275,16.66806,4.90029,-66.14796,12.02919,1.6009,56.36745,-11.1752,-7.27482,3.33316,-1.04374,-0.61535,2.27261,-3.94568,-1.04881,1.73043,-1.78575,-0.71024,2.87791,0.2892,0.40108,0.26603,-0.1533,-0.09763,0.29937,-0.06214,0.06957
2768,0.7566,-8.30168,1.15031,-4.35889,12.07591,3.63515,-8.38203,-4.09757,1.19182,-30.86415,40.29309,8.05697,-3.364,6.46659,-1.07861,-29.59909,16.16065,4.94428,-65.97144,13.28957,2.44299,52.39075,-9.47492,-7.98315,4.33712,-1.76023,-1.13057,2.27625,-4.28227,-1.38346,1.58196,-1.52033,-0.66276,2.8322,0.53779,0.20362,0.21401,-0.09937,-0.08914,0.24835,-0.0136,0.04226
2769,0.90948,-9.09698,1.24064,-3.5772,12.26289,3.70681,-9.51031,-4.83806,1.14528,-30.57459,41.51606,8.40926,-3.69981,7.12109,-1.14469,-29.00876,15.64756,5.01617,-66.22002,15.61561,3.64281,50.60651,-7.00793,-8.90989,5.59155,-2.69209,-1.62036,2.57724,-4.68981,-1.79198,1.45353,-1.38421,-0.57929,2.83157,0.90275,-0.14443,0.19985,-0.07246,-0.08905,0.2215,0.05155,-0.01144
2770,1.21953,-10.09235,1.32446,-2.77256,12.34885,3.80349,-10.77126,-6.16099,0.84817,-29.38449,43.07912,9.2633,-4.0045,7.74498,-1.19003,-28.43566,15.13811,5.09168,-65.57885,17.75895,5.07271,50.73079,-4.14025,-9.12971,6.53644,-3.21409,-1.76398,3.20417,-4.89081,-2.00649,1.39121,-1.44017,-0.46806,2.83472,1.24028,-0.52961,0.21103,-0.07162,-0.08889,0.22208,0.11453,-0.08021
2771,1.58012,-11.02613,1.38227,-2.30641,12.14048,3.90761,-11.69483,-7.88863,0.5033,-27.92258,43.89202,10.31296,-4.27876,8.31115,-1.22261,-27.82377,14.627,5.14332,-63.71807,18.65597,6.44314,52.46844,-2.85856,-7.7306,6.69652,-2.86497,-1.40284,3.97586,-4.68482,-1.83602,1.41435,-1.66227,-0.35418,2.8436,1.37868,-0.76732,0.22572,-0.07995,-0.0848,0.25087,0.14564,-0.1354
2772,1.8791,-11.6621,1.41677,-2.32518,11.64263,3.98642,-12.26841,-9.6043,0.3562,-26.8498,43.35406,11.05045,-4.53087,8.81755,-1.24558,-27.13736,14.10615,5.1571,-61.38763,18.07688,7.30355,55.47564,-5.187,-4.87169,6.09947,-1.75857,-0.69203,4.48947,-4.12036,-1.34294,1.52655,-1.98272,-0.27954,2.89369,1.22993,-0.70541,0.24442,-0.09126,-0.08569,0.30377,0.12694,-0.14636
2773,2.03935,-11.94703,1.45137,-2.67853,11.03,4.01217,-12.88776,-10.88656,0.49394,-26.28154,41.71759,11.17166,-4.76545,9.28537,-1.25379,-26.38389,13.58547,5.13538,-59.33661,16.885,7.35407,58.63444,-10.82831,-1.86909,5.25043,-0.51084,0.03665,4.41009,-3.46358,-0.80175,1.66039,-2.30291,-0.23147,2.98696,0.86272,-0.35921,0.27292,-0.11455,-0.09018,0.35965,0.07015,-0.10837
2774,2.02463,-12.02014,1.4971,-3.08809,10.46857,3.98824,-13.84971,-11.61311,0.6952,-25.90883,39.7278,10.82242,-4.99382,9.74142,-1.24104,-25.59955,13.08444,5.09096,-57.8518,16.07137,6.61902,60.3728,-16.89772,-0.1746,4.70365,0.21959,0.49357,3.78192,-2.9483,-0.46233,1.70693,-2.50162,-0.15781,3.03034,0.46206,0.0618,0.30662,-0.15566,-0.0847,0.38094,0.0111,-0.05447
2775,1.86348,-12.1433,1.55712,-3.39342,10.02775,3.94506,-14.9193,-11.98216,0.6746,-25.39149,38.01145,10.38488,-5.23922,10.19759,-1.20307,-24.8069,12.61557,5.03873,-56.48409,16.16229,5.43603,59.9418,-20.37823,-0.34273,4.65847,0.1631,0.54302,3.01578,-2.61662,-0.34778,1.60781,-2.47168,-0.05827,2.94381,0.18536,0.34557,0.3321,-0.19968,-0.06744,0.3542,-0.0255,-0.01764
2776,1.65637,-12.53601,1.65966,-3.65165,9.63529,3.899,-15.54257,-12.26542,0.50884,-24.74339,36.61507,10.00424,-5.50715,10.65525,-1.13545,-23.99177,12.1714,4.98551,-54.51128,16.98508,4.26705,57.58762,-20.3735,-1.82433,4.8409,-0.44681,0.23021,2.53658,-2.40943,-0.32989,1.41097,-2.18865,-0.01243,2.76197,0.08611,0.43334,0.33404,-0.21791,-0.0552,0.30748,-0.04096,0.00103
2777,1.43847,-13.20848,1.84493,-3.96192,9.06968,3.83438,-15.60455,-12.61386,0.5755,-24.26356,34.84615,9.45798,-5.78943,11.12927,-1.04312,-23.13019,11.73728,4.92931,-51.93654,17.42197,3.34742,53.84034,-18.02268,-3.52,4.79015,-1.08673,-0.20914,2.49858,-2.30376,-0.32779,1.23338,-1.77889,-0.07033,2.59284,0.15313,0.37753,0.30408,-0.19897,-0.05446,0.27793,-0.0429,0.01587
2778,1.12936,-13.97574,2.11584,-4.31621,8.11213,3.73574,-15.74116,-13.05618,1.08119,-24.1872,31.85001,8.54228,-6.07886,11.6499,-0.94265,-22.22755,11.30774,4.86619,-49.85952,16.1464,2.59835,48.89274,-14.95349,-4.58343,4.28974,-1.34022,-0.47278,2.78541,-2.33049,-0.33152,1.18548,-1.46841,-0.17384,2.52548,0.32411,0.27285,0.25211,-0.16288,-0.04532,0.28429,-0.03698,0.03701
2779,0.68946,-14.62315,2.42154,-4.60004,6.7488,3.60986,-16.62002,-13.63523,1.87191,-24.37799,27.54634,7.42118,-6.36481,12.25262,-0.85225,-21.3133,10.88987,4.79074,-49.13931,12.96385,2.03562,43.49601,-12.09599,-4.91822,3.59094,-1.14698,-0.42689,3.17693,-2.51944,-0.34134,1.28859,-1.39054,-0.22581,2.5806,0.50116,0.20411,0.20462,-0.13448,-0.01251,0.31882,-0.02821,0.06284
2780,0.20721,-15.06959,2.70221,-4.75001,5.26133,3.48493,-18.16148,-14.60349,2.6589,-24.44056,23.05331,6.55741,-6.63809,12.96108,-0.77809,-20.42206,10.50035,4.70213,-49.31301,8.93382,2.0465,39.45846,-9.44239,-4.82541,3.19684,-0.75331,-0.19545,3.48297,-2.902,-0.40222,1.485,-1.51444,-0.20637,2.67366,0.63179,0.15895,0.19007,-0.11998,0.02407,0.34511,-0.01093,0.07154
2781,-0.16516,-15.41819,2.93157,-4.85829,4.03584,3.38436,-19.68751,-16.14488,3.23936,-24.07969,19.90248,6.31293,-6.89696,13.76988,-0.71183,-19.58051,10.14816,4.60217,-49.10279,5.65941,2.88878,38.45674,-6.58484,-4.30863,3.42312,-0.46382,-0.00627,3.67487,-3.55954,-0.60507,1.67456,-1.71238,-0.1694,2.68987,0.7509,0.02953,0.21635,-0.11024,0.02797,0.32937,0.02575,0.0361
2782,-0.34674,-15.86565,3.11979,-5.16374,3.25103,3.29991,-20.63087,-18.17519,3.54064,-23.58199,18.75489,6.60646,-7.15669,14.65168,-0.64233,-18.8083,9.82222,4.48312,-47.97052,4.06955,4.25151,40.64748,-3.43002,-2.988,4.13904,-0.44066,0.01617,3.91586,-4.54251,-0.9421,1.77893,-1.86807,-0.15876,2.57298,0.90909,-0.24996,0.26462,-0.09742,-0.01009,0.27158,0.07668,-0.04014
2783,-0.38824,-16.54432,3.28731,-5.88142,2.78669,3.19995,-21.0886,-20.52012,3.5911,-23.7035,18.91366,6.95124,-7.44971,15.56895,-0.56956,-18.12461,9.49685,4.33284,-46.8279,3.73011,5.4072,44.4066,-0.60945,-0.78271,4.85119,-0.64296,-0.07337,4.35842,-5.61199,-1.23088,1.80091,-1.95178,-0.16701,2.37498,1.09136,-0.58923,0.30939,-0.08955,-0.05894,0.20913,0.11979,-0.11541
2784,-0.37034,-17.38332,3.42539,-6.98106,2.42265,3.06736,-21.66938,-22.90342,3.44695,-24.81459,18.97931,6.84725,-7.80373,16.48623,-0.50554,-17.54511,9.14868,4.15582,-46.86436,3.58974,5.56996,47.10871,0.6674,1.48462,5.07686,-0.93177,-0.14627,4.91774,-6.23328,-1.26476,1.82323,-2.03044,-0.17615,2.22904,1.21928,-0.80393,0.33903,-0.1065,-0.07986,0.18584,0.13594,-0.14661
2785,-0.33624,-18.1553,3.50073,-8.10345,2.09451,2.91869,-22.81466,-24.81237,3.15304,-26.09567,18.0721,6.22423,-8.22937,17.37749,-0.46104,-17.08925,8.78394,3.97757,-47.62391,3.4558,4.43134,46.79289,-0.47663,2.35514,4.73155,-1.20799,-0.14609,5.24658,-5.98921,-1.03763,1.9,-2.15286,-0.18291,2.2168,1.21987,-0.78816,0.35585,-0.15389,-0.06296,0.20554,0.12213,-0.12776
2786,-0.30473,-18.67488,3.49695,-8.81584,1.89205,2.78152,-24.35502,-25.66666,2.83078,-26.05838,16.39536,5.43066,-8.7104,18.21745,-0.44183,-16.76611,8.43335,3.82453,-47.03473,4.19739,2.42106,43.21461,-3.54474,0.84781,4.22213,-1.44488,-0.08843,5.06761,-4.98057,-0.72185,1.98294,-2.2919,-0.15661,2.33734,1.08094,-0.56547,0.36465,-0.21465,-0.02132,0.24175,0.08638,-0.08023
2787,-0.28465,-18.89837,3.44438,-8.9057,1.84052,2.6605,-25.62594,-25.07003,2.74943,-23.70006,14.5946,4.79888,-9.19051,18.96935,-0.44326,-16.55637,8.12284,3.70804,-43.05748,6.68384,0.35085,38.03489,-6.79538,-2.51633,4.05411,-1.57276,0.02281,4.52342,-3.72147,-0.43176,1.95114,-2.38197,-0.04091,2.53702,0.85528,-0.22857,0.35814,-0.26323,0.02984,0.2763,0.04145,-0.02448
2788,-0.3002,-18.9084,3.39267,-8.53698,1.76587,2.54447,-25.96738,-23.28644,3.08856,-19.49946,12.87869,4.40849,-9.60433,19.59949,-0.45147,-16.42607,7.85498,3.62122,-35.7257,10.39634,-1.03171,33.65344,-8.31584,-5.87981,4.38311,-1.47298,0.18019,4.11437,-2.71019,-0.13107,1.74519,-2.37999,0.15331,2.72243,0.63189,0.08813,0.32602,-0.2804,0.07178,0.30684,0.00395,0.01993
2789,-0.40995,-18.93162,3.37407,-8.19336,1.46639,2.44276,-25.1582,-21.67131,3.65138,-15.36395,10.98146,4.23072,-9.92448,20.11392,-0.45213,-16.37341,7.6356,3.54754,-27.42563,13.02458,-1.24817,31.67392,-7.24312,-7.36639,4.95576,-1.11215,0.34736,4.23578,-2.20036,0.20182,1.43456,-2.30139,0.33853,2.81678,0.48666,0.24095,0.27355,-0.26528,0.08699,0.33736,-0.01318,0.02892
2790,-0.6379,-19.28509,3.40124,-8.4241,0.97949,2.39198,-23.60106,-22.08013,4.05902,-13.55357,8.80686,4.19761,-10.16312,20.54357,-0.43502,-16.42048,7.48037,3.47869,-21.54171,12.04864,-0.20277,31.92301,-4.16175,-6.37327,5.41003,-0.6206,0.49636,4.80791,-2.26069,0.41651,1.1305,-2.22119,0.45307,2.82207,0.46129,0.15357,0.2147,-0.23893,0.07688,0.36961,-0.00821,-0.00937
2791,-0.97534,-20.08808,3.47155,-9.44298,0.54474,2.40928,-22.31714,-25.18693,4.15578,-14.91192,6.66526,4.1427,-10.34553,20.90158,-0.39772,-16.57126,7.38761,3.41889,-20.23245,7.26009,1.55536,32.55378,-0.50365,-3.72744,5.52294,-0.22338,0.60874,5.34984,-2.82917,0.32548,0.90331,-2.20767,0.49698,2.77114,0.54566,-0.09819,0.16119,-0.22722,0.05877,0.38916,0.00768,-0.06956
2792,-1.43002,-21.12377,3.55559,-10.9709,0.41359,2.46935,-22.27184,-29.8708,4.04664,-18.19792,4.97555,3.88401,-10.50273,21.19369,-0.3564,-16.80515,7.34532,3.37456,-22.83233,1.08678,3.00014,31.88546,2.25519,-0.93481,5.31299,-0.13145,0.62072,5.39704,-3.67609,-0.05516,0.80759,-2.24191,0.47307,2.65323,0.67739,-0.31747,0.12822,-0.23332,0.04405,0.36796,0.01725,-0.09716
2793,-2.05881,-22.02875,3.62347,-12.44564,0.677,2.53381,-23.74823,-34.12291,3.94081,-21.1379,4.06167,3.42096,-10.6594,21.43023,-0.33251,-17.08058,7.33041,3.35335,-26.52067,-3.17872,3.38241,29.69615,3.05142,0.76969,4.92257,-0.45231,0.42749,4.916,-4.42929,-0.48173,0.88451,-2.20975,0.35015,2.44475,0.78887,-0.36054,0.13102,-0.23345,0.02734,0.29587,0.01303,-0.06122
2794,-2.93268,-22.53329,3.67063,-13.38682,1.21181,2.56891,-26.27943,-36.30441,3.99185,-22.02707,4.08269,2.99189,-10.82521,21.62118,-0.32939,-17.35713,7.31682,3.34719,-28.47145,-3.32343,2.81447,27.0297,1.34916,1.01214,4.50741,-1.11906,-0.01018,4.35469,-4.75022,-0.65075,1.11303,-2.03063,0.10567,2.18473,0.83735,-0.24543,0.16896,-0.20576,-0.00483,0.20571,0.00151,0.01318
2795,-4.04968,-22.64282,3.71091,-13.70163,1.78792,2.56139,-29.09323,-36.16033,4.1751,-20.79872,4.97254,2.91643,-11.00024,21.77056,-0.3306,-17.62962,7.30001,3.33234,-27.96033,0.547,2.07358,25.45372,-2.89786,0.36907,4.18841,-1.83439,-0.55049,4.24828,-4.49987,-0.35769,1.39046,-1.76334,-0.20246,1.96406,0.78458,-0.06361,0.21939,-0.15433,-0.05363,0.14831,-0.0113,0.07729
2796,-5.29545,-22.63712,3.75493,-13.68285,2.23029,2.51443,-31.67497,-34.92137,4.35698,-18.62694,6.39398,3.28577,-11.17337,21.87637,-0.32544,-17.91152,7.29843,3.28597,-26.35376,6.16302,1.75812,25.87711,-8.8445,-0.21836,4.03673,-2.20008,-0.90816,4.71931,-3.83826,0.31782,1.57747,-1.56016,-0.42493,1.86047,0.63147,0.10917,0.25086,-0.10502,-0.09578,0.15025,-0.0226,0.10138
2797,-6.47114,-22.90895,3.80468,-13.73727,2.45756,2.44289,-33.6746,-34.45572,4.42433,-16.75124,7.53649,3.79007,-11.32827,21.92207,-0.31296,-18.19729,7.33812,3.2104,-24.96944,10.2223,1.79584,27.70572,-14.34608,-0.22104,4.05011,-2.02296,-0.89233,5.39154,-3.17159,0.99535,1.59828,-1.52394,-0.44702,1.89966,0.45328,0.22632,0.25123,-0.08311,-0.10685,0.19835,-0.02838,0.08772
2798,-7.3836,-23.69944,3.84426,-14.16512,2.41425,2.35491,-34.67373,-35.89725,4.30741,-15.94999,7.41068,3.96211,-11.45209,21.87853,-0.29659,-18.47133,7.41845,3.11485,-24.20439,10.36635,1.76557,29.18303,-16.7235,0.21927,4.14876,-1.48398,-0.56798,5.77703,-2.88115,1.2903,1.50025,-1.64178,-0.29524,2.04635,0.34041,0.27776,0.23997,-0.09543,-0.08875,0.25538,-0.02875,0.06112
2799,-7.93903,-24.90536,3.84386,-15.02153,2.15009,2.25304,-34.39089,-38.79519,4.03299,-16.41497,5.79864,3.58381,-11.53288,21.72522,-0.2844,-18.71822,7.51288,3.00409,-23.95434,7.02523,1.44494,28.95403,-14.48078,0.63774,4.25339,-0.93926,-0.12082,5.72163,-3.01484,1.13042,1.39191,-1.84967,-0.05879,2.2253,0.3265,0.27499,0.24546,-0.13533,-0.05308,0.28911,-0.02901,0.04348
2800,-8.20014,-26.18265,3.80107,-16.1506,1.88085,2.14925,-33.05664,-41.72589,3.75965,-17.79308,3.49386,2.79249,-11.54551,21.47626,-0.27653,-18.9369,7.60371,2.88692,-23.87485,2.75297,0.96796,27.46848,-8.29715,0.62606,4.39545,-0.60398,0.32739,5.46113,-3.28404,0.77202,1.34965,-2.10292,0.21625,2.35576,0.37436,0.23261,0.27611,-0.19115,0.00051,0.29144,-0.03301,0.03689
2801,-8.40047,-27.25574,3.75293,-17.2331,1.80365,2.05512,-31.57047,-43.64346,3.63144,-19.22518,1.49112,1.94078,-11.46327,21.1715,-0.2657,-19.14191,7.69059,2.77183,-23.55686,-0.24267,0.5958,26.13043,-0.56785,0.05888,4.68845,-0.43358,0.72764,5.31824,-3.39214,0.52619,1.36688,-2.35644,0.51005,2.38915,0.43355,0.16703,0.31074,-0.24459,0.07293,0.27398,-0.03675,0.03231
2802,-8.83617,-28.07573,3.74181,-17.87246,1.92999,1.96314,-31.09508,-44.49119,3.6617,-19.51936,0.49322,1.45393,-11.27821,20.83856,-0.25217,-19.34131,7.77298,2.6589,-22.6919,-1.24267,0.48266,25.56628,5.79106,-0.79749,5.11235,-0.28831,1.02484,5.3814,-3.32174,0.47913,1.37658,-2.5349,0.76657,2.31533,0.49986,0.09101,0.31589,-0.27468,0.1477,0.24933,-0.02911,0.02487
2803,-9.66177,-28.71309,3.79136,-17.79816,2.18791,1.84918,-32.33374,-44.70228,3.84024,-17.74297,1.00015,1.62426,-11.00696,20.46541,-0.24005,-19.51006,7.84946,2.54193,-21.0643,-0.14291,0.61289,25.47544,8.59507,-1.54507,5.42434,-0.16912,1.10317,5.43611,-3.30194,0.42969,1.33028,-2.53883,0.87532,2.17268,0.61268,-0.00168,0.27563,-0.26504,0.19083,0.22499,-0.00151,0.01462
2804,-10.77018,-29.19504,3.88895,-17.09026,2.52044,1.69271,-34.99462,-44.56208,4.19495,-14.17961,2.98356,2.36378,-10.69545,20.02196,-0.23368,-19.59233,7.91734,2.41063,-18.83833,2.94005,0.91203,25.90748,7.09221,-1.99223,5.35426,-0.26232,0.85016,5.23787,-3.51375,0.13569,1.24423,-2.328,0.74412,2.06065,0.78895,-0.11843,0.21026,-0.22244,0.17345,0.21337,0.04054,0.00148
2805,-11.88357,-29.52224,3.98779,-16.19904,2.86458,1.49708,-38.0341,-44.2952,4.67825,-10.56195,5.56599,3.23536,-10.40735,19.50839,-0.23802,-19.54222,7.96848,2.2504,-16.98497,7.02078,1.41045,27.19168,2.19387,-2.18785,4.86432,-0.71102,0.2808,4.78784,-3.90438,-0.41209,1.16785,-1.98206,0.38509,2.06747,0.97638,-0.24507,0.15954,-0.17961,0.09451,0.22627,0.07741,-0.01568
2806,-12.75405,-29.75338,4.04128,-15.63274,3.15458,1.28538,-40.52468,-44.2894,5.14241,-8.69441,7.54351,3.7481,-10.18599,18.96752,-0.25518,-19.35062,7.98606,2.0507,-16.53597,10.42767,2.06521,29.08021,-3.97857,-2.29967,4.21025,-1.36777,-0.43394,4.35305,-4.27788,-0.96955,1.11687,-1.60841,-0.07439,2.18114,1.0907,-0.35648,0.14234,-0.15698,-0.01589,0.25513,0.091,-0.0386
2807,-13.31052,-29.96488,4.03347,-15.56081,3.30654,1.0818,-42.26798,-44.75686,5.48185,-8.92137,8.08016,3.58414,-10.02733,18.44936,-0.28581,-19.02527,7.94089,1.82882,-17.69608,11.67638,2.44617,30.13214,-9.0675,-2.51227,3.73532,-1.84156,-1.04585,4.20998,-4.45633,-1.22922,1.06398,-1.26094,-0.45807,2.29237,1.07548,-0.41727,0.14009,-0.1426,-0.10909,0.27841,0.07822,-0.06227
2808,-13.66048,-30.18362,3.97294,-15.70886,3.24931,0.896,-43.48006,-45.49777,5.64923,-10.1654,7.0591,2.75856,-9.89551,17.97636,-0.3312,-18.56558,7.81369,1.61749,-19.64235,10.37272,2.07975,28.75498,-11.71796,-2.92814,3.70125,-1.81639,-1.35166,4.49902,-4.34414,-1.00248,1.00956,-1.01834,-0.64114,2.35628,0.94062,-0.37298,0.13632,-0.12733,-0.15119,0.30113,0.05127,-0.0704
2809,-13.97822,-30.40594,3.86424,-15.66997,3.01699,0.74227,-44.22834,-46.17767,5.5478,-11.20194,5.16219,1.71016,-9.77272,17.54186,-0.39414,-17.96642,7.61198,1.44057,-21.28112,7.47655,1.08396,24.54715,-12.03263,-3.42724,4.17695,-1.27046,-1.27483,5.14548,-3.94227,-0.32685,0.99408,-0.99644,-0.60152,2.37871,0.74933,-0.20992,0.14132,-0.12367,-0.14413,0.33687,0.02816,-0.05287
2810,-14.33871,-30.63517,3.71125,-15.2348,2.75443,0.63885,-44.38942,-46.666,5.13411,-11.41766,3.47058,1.00988,-9.66729,17.13645,-0.47198,-17.23952,7.36065,1.30347,-21.73198,4.66386,0.13119,18.50927,-10.81207,-3.69094,5.05035,-0.47975,-0.86458,5.86982,-3.4079,0.5132,1.03607,-1.25482,-0.36664,2.3247,0.58152,-0.00825,0.16939,-0.14761,-0.10285,0.36533,0.01883,-0.02055
2811,-14.67213,-30.85598,3.53738,-14.45722,2.59413,0.58028,-44.02535,-46.97605,4.58855,-10.94639,2.77413,0.88708,-9.58834,16.76449,-0.55321,-16.4086,7.07942,1.19575,-20.93725,3.25382,-0.13931,12.804,-8.58093,-3.57328,6.00971,0.12198,-0.29921,6.29066,-2.9878,1.08656,1.11768,-1.69414,-0.00349,2.18862,0.50969,0.11386,0.21265,-0.19224,-0.03566,0.35693,0.02305,0.00448
2812,-14.85099,-31.05479,3.37478,-13.48102,2.55522,0.54389,-43.48438,-47.13329,4.15934,-10.19923,3.14702,1.1886,-9.53139,16.43478,-0.62138,-15.48314,6.7687,1.10559,-19.44581,3.62698,0.4541,9.49648,-5.46599,-3.2523,6.611,0.18523,0.14283,6.1337,-2.80727,1.07524,1.24219,-2.0926,0.33228,2.05611,0.57109,0.09743,0.24965,-0.22435,0.03894,0.31278,0.03732,0.00755
2813,-14.7922,-31.19504,3.21905,-12.50868,2.55951,0.51328,-43.01936,-46.94809,3.86307,-9.64186,4.00781,1.63956,-9.49682,16.17198,-0.67404,-14.48354,6.42645,1.01776,-17.79393,5.49829,1.51007,9.35768,-2.24419,-2.80466,6.53632,-0.29706,0.25437,5.43767,-2.76421,0.52601,1.47165,-2.30276,0.44189,2.0149,0.72996,-0.02247,0.27623,-0.2187,0.08333,0.25778,0.05558,-0.01022
2814,-14.52832,-31.19216,3.03059,-11.78054,2.47975,0.47996,-42.71802,-45.95256,3.53982,-9.51554,4.46427,1.96745,-9.49424,16.01214,-0.73454,-13.44948,6.05929,0.9138,-16.14559,8.40303,2.18508,11.40023,-0.9358,-1.82423,5.78921,-0.93662,0.09162,4.59336,-2.72109,-0.16969,1.80009,-2.3394,0.26492,2.05793,0.87876,-0.15686,0.29872,-0.18605,0.0762,0.21324,0.06497,-0.03544
2815,-14.18693,-31.01522,2.79394,-11.39239,2.18047,0.43289,-42.76884,-43.93151,3.14992,-9.58608,3.81728,1.90613,-9.5242,15.94949,-0.82864,-12.38831,5.65624,0.78815,-14.62647,11.57412,1.75578,13.50198,-3.22867,0.1176,4.69349,-1.28083,-0.11525,4.09049,-2.70991,-0.5819,2.05961,-2.27086,-0.05385,2.10599,0.91023,-0.22673,0.30956,-0.15614,0.03273,0.18531,0.05146,-0.05118
2816,-13.89034,-30.74481,2.52836,-11.15316,1.59976,0.35325,-43.36629,-41.37582,2.81121,-9.26152,2.02363,1.33401,-9.57104,15.91763,-0.97038,-11.25629,5.17916,0.64761,-13.33948,14.07361,0.32118,13.86655,-8.47987,2.70613,3.68843,-1.25903,-0.23981,4.19684,-2.86408,-0.52864,2.04614,-2.11675,-0.30878,2.10016,0.80893,-0.20067,0.2961,-0.14784,-0.01882,0.17499,0.01593,-0.04501
2817,-13.63714,-30.4885,2.25453,-10.79055,0.83381,0.24312,-44.3674,-39.15791,2.60613,-8.42415,-0.23846,0.4079,-9.61467,15.84998,-1.15488,-10.01974,4.60273,0.50861,-12.63606,15.33611,-1.2132,12.25959,-13.68983,4.82955,3.07038,-1.22159,-0.34434,4.79517,-3.16997,-0.12507,1.71135,-1.87266,-0.38407,2.04832,0.65911,-0.09836,0.25761,-0.15663,-0.0567,0.18816,-0.02129,-0.01602
2818,-13.32137,-30.31205,1.97774,-10.1823,0.11158,0.1361,-45.48188,-37.87997,2.50843,-7.56255,-2.12112,-0.58407,-9.6478,15.7341,-1.36323,-8.71091,3.94952,0.39266,-13.10513,15.35255,-2.21239,10.1373,-16.06682,5.3813,2.84666,-1.47645,-0.51424,5.4718,-3.41006,0.36077,1.19572,-1.55125,-0.2895,1.99244,0.55699,0.03223,0.20127,-0.16058,-0.06713,0.22221,-0.03726,0.02274
2819,-12.87278,-30.2479,1.70139,-9.37658,-0.38401,0.06391,-46.56676,-37.61467,2.45388,-6.95535,-3.25604,-1.44054,-9.67295,15.59933,-1.57435,-7.4049,3.26977,0.31039,-14.6938,14.48146,-2.83574,9.37467,-15.3418,4.10037,2.92759,-1.87976,-0.69486,5.80103,-3.39105,0.68149,0.73058,-1.23455,-0.10861,1.94785,0.53844,0.1399,0.14504,-0.14438,-0.05016,0.25203,-0.02491,0.05232
2820,-12.36748,-30.33923,1.43175,-8.41304,-0.6375,0.04184,-47.54027,-38.11886,2.36083,-6.16274,-3.78037,-2.00456,-9.69391,15.46424,-1.78023,-6.1536,2.59948,0.26558,-16.13959,13.3859,-3.27749,10.80525,-13.46175,1.61416,3.32938,-1.97689,-0.72988,5.62006,-3.1409,0.70997,0.48565,-1.04963,0.07947,1.91259,0.57982,0.18859,0.11686,-0.11316,-0.02256,0.25058,0.00437,0.05905
2821,-12.00145,-30.56602,1.1809,-7.29743,-0.6908,0.07989,-48.38731,-38.97657,2.16256,-4.39,-4.01301,-2.13148,-9.70396,15.34073,-1.98203,-4.97879,1.96792,0.26023,-15.79512,12.56609,-3.45705,13.29849,-12.39929,-1.10837,4.07632,-1.50221,-0.542,5.11195,-2.86505,0.46708,0.48062,-1.0607,0.23331,1.88288,0.64158,0.15312,0.12972,-0.08252,-0.00233,0.21539,0.03244,0.03865
2822,-11.96937,-30.8083,0.97517,-6.08337,-0.5642,0.17399,-49.27904,-39.63212,1.89646,-1.11882,-4.29803,-1.84334,-9.68308,15.24952,-2.17462,-3.90109,1.40416,0.28587,-12.7506,11.99703,-3.45388,14.62479,-12.56919,-3.18175,4.93648,-0.66786,-0.23644,4.61005,-2.71333,0.1162,0.61698,-1.19852,0.32494,1.85172,0.68445,0.04378,0.16415,-0.06224,0.00506,0.17037,0.0458,-0.00048
2823,-12.3366,-31.00628,0.84095,-4.85214,-0.26937,0.30616,-50.36366,-39.61062,1.65956,3.19737,-4.61159,-1.25538,-9.61478,15.17956,-2.34447,-2.92876,0.92239,0.32865,-7.78218,11.96473,-3.26846,13.80798,-12.90619,-3.92645,5.46123,0.06246,-0.02033,4.34147,-2.65837,-0.1229,0.80802,-1.32625,0.30056,1.82265,0.67716,-0.0735,0.19046,-0.05166,8e-05,0.14713,0.04262,-0.03915
2824,-12.9814,-31.22458,0.77566,-3.64764,0.11823,0.4445,-51.47221,-38.83678,1.48684,7.2752,-4.64249,-0.4957,-9.50414,15.08197,-2.48109,-2.0557,0.52121,0.37332,-2.9073,12.94081,-2.72658,12.02695,-12.00198,-3.00924,5.33142,0.38875,-0.01016,4.29621,-2.59075,-0.13644,1.01744,-1.36455,0.13146,1.76948,0.62437,-0.13822,0.19443,-0.04769,-0.01601,0.14928,0.03407,-0.06205
2825,-13.66438,-31.54438,0.75528,-2.548,0.41623,0.5451,-52.29834,-37.79071,1.37496,9.9813,-4.40064,0.18339,-9.36535,14.91691,-2.58113,-1.29378,0.19226,0.40248,0.2576,14.29298,-2.00143,11.0459,-9.45638,-0.6781,4.66108,0.34797,-0.12541,4.34294,-2.48583,0.0128,1.19646,-1.35695,-0.10412,1.64921,0.57081,-0.14983,0.17621,-0.05589,-0.03311,0.15038,0.03203,-0.06606
2826,-14.20317,-32.02514,0.75348,-1.5717,0.4757,0.57141,-52.72304,-37.10322,1.3024,11.05452,-4.07871,0.57169,-9.20538,14.66196,-2.65166,-0.65619,-0.06987,0.4034,1.42275,15.07364,-1.44269,11.23389,-6.53621,2.18498,3.96384,0.16193,-0.17212,4.43802,-2.44193,0.18559,1.25922,-1.4216,-0.23614,1.4813,0.56198,-0.14169,0.14336,-0.09003,-0.03143,0.13709,0.03648,-0.05381
2827,-14.57495,-32.67641,0.74165,-0.69702,0.29473,0.52548,-52.82457,-36.95396,1.17162,10.86008,-3.7739,0.69167,-9.02789,14.30198,-2.70975,-0.14927,-0.26313,0.3772,1.05362,15.32309,-1.18863,11.38729,-5.37722,4.39369,3.79871,0.00319,-0.03763,4.65748,-2.56258,0.29537,1.16859,-1.62901,-0.14302,1.36504,0.61226,-0.13027,0.11111,-0.15238,0.00076,0.12727,0.03975,-0.0282
2828,-14.85106,-33.42626,0.71134,0.10568,-0.05272,0.43456,-52.79586,-37.06613,0.93654,10.23361,-3.64598,0.65252,-8.82891,13.82817,-2.76465,0.2259,-0.39527,0.33596,0.08515,15.63013,-1.26404,10.68595,-7.09135,5.0067,4.33896,-0.11795,0.21265,5.02072,-2.83163,0.33343,0.98009,-1.92464,0.14201,1.39386,0.69438,-0.10394,0.09692,-0.22271,0.05194,0.14472,0.03756,0.00451
2829,-15.05339,-34.18682,0.68966,0.82093,-0.48075,0.32753,-52.7529,-37.29853,0.74732,10.06597,-3.84951,0.47146,-8.58869,13.2382,-2.80905,0.47648,-0.48897,0.29888,-0.38155,16.02201,-1.53054,9.69787,-10.91504,3.80791,5.29558,-0.31772,0.40367,5.4024,-3.11972,0.31328,0.80884,-2.20452,0.45446,1.6062,0.75716,-0.04724,0.11312,-0.27924,0.09201,0.19627,0.03263,0.03035
2830,-15.14324,-34.9587,0.71934,1.39738,-0.89282,0.22342,-52.65538,-37.98177,0.79808,10.85287,-4.30157,0.13877,-8.29381,12.54889,-2.82425,0.60958,-0.56207,0.28217,0.50702,15.81373,-1.70771,9.57306,-15.09363,1.44956,6.12065,-0.65496,0.41283,5.59428,-3.27101,0.23646,0.7146,-2.37774,0.63058,1.93273,0.76221,0.02295,0.15162,-0.31451,0.09673,0.26144,0.03147,0.03221
2831,-15.094,-35.77229,0.81355,1.72756,-1.21704,0.1348,-52.43217,-39.39023,1.09288,12.37274,-4.74909,-0.26678,-7.96047,11.80909,-2.79923,0.63079,-0.6179,0.28565,2.73937,14.55574,-1.69888,10.65447,-18.15466,-0.81705,6.32278,-0.99681,0.27034,5.49104,-3.23458,0.12107,0.6639,-2.38041,0.61491,2.18998,0.71323,0.06172,0.18196,-0.32572,0.06738,0.29941,0.03554,0.00767
2832,-14.97338,-36.57535,0.94647,1.69783,-1.38949,0.08521,-52.24129,-41.15926,1.45507,13.89111,-4.93198,-0.52415,-7.6332,11.08518,-2.74431,0.55438,-0.64331,0.29926,5.2039,12.73966,-1.61737,12.43736,-19.35419,-1.77144,5.72103,-1.11195,0.13649,5.2042,-3.09563,0.04033,0.59577,-2.20387,0.48209,2.21452,0.63948,0.05328,0.17315,-0.30894,0.03259,0.28558,0.03496,-0.02004
2833,-14.93223,-37.24216,1.09274,1.25704,-1.31269,0.10467,-52.4774,-42.46022,1.71915,14.58975,-4.69727,-0.42935,-7.35263,10.42753,-2.67569,0.39901,-0.61074,0.31328,6.10328,11.41839,-1.53849,14.47517,-18.54319,-0.90469,4.54425,-0.90355,0.1633,4.97409,-2.99989,0.06938,0.50274,-1.91789,0.36366,2.00873,0.56707,0.02803,0.12036,-0.26428,0.02643,0.23684,0.01728,-0.02189
2834,-15.06495,-37.69965,1.24727,0.61954,-0.96649,0.19956,-53.39706,-42.62212,1.87482,14.30439,-4.10673,-0.01866,-7.12436,9.83686,-2.60373,0.2439,-0.52207,0.33508,4.44234,11.47693,-1.40618,16.6059,-16.17727,1.26198,3.30823,-0.51831,0.32446,4.92121,-3.01302,0.19243,0.45207,-1.61147,0.31555,1.70264,0.51408,0.01216,0.05701,-0.19687,0.05093,0.18338,-0.01495,0.00516
2835,-15.35044,-38.03741,1.42209,0.13031,-0.4626,0.34283,-54.82587,-41.79181,2.01927,13.53074,-3.35296,0.48977,-6.93039,9.28113,-2.53087,0.18001,-0.41703,0.38123,0.92909,12.90504,-0.99367,18.42058,-13.46258,3.51468,2.56831,-0.21637,0.42562,4.95983,-3.0791,0.30405,0.55944,-1.37005,0.26622,1.44315,0.49833,0.00373,0.04193,-0.12476,0.06873,0.139,-0.041,0.0367
2836,-15.69272,-38.43211,1.6283,-0.06228,0.02248,0.49897,-56.29523,-40.90769,2.19949,12.8528,-2.78675,0.88974,-6.77315,8.76809,-2.4525,0.20719,-0.32454,0.45566,-2.6424,14.3326,-0.20484,19.01662,-11.74635,4.62176,2.62388,-0.13512,0.33203,4.91884,-3.07963,0.28458,0.85998,-1.26898,0.14145,1.34423,0.53888,-0.01219,0.10622,-0.07628,0.04835,0.11278,-0.03867,0.04595
2837,-15.92881,-38.98447,1.85414,-0.03935,0.33581,0.64596,-57.35262,-40.725,2.37257,12.50661,-2.84979,1.04131,-6.69255,8.35119,-2.36002,0.26466,-0.25297,0.54784,-4.85638,14.20171,0.59389,17.55563,-11.5827,3.90362,3.4021,-0.19702,0.0898,4.78292,-2.99757,0.08249,1.22396,-1.2942,-0.02645,1.45191,0.6447,-0.06093,0.20913,-0.05519,-0.00016,0.11385,-0.00334,0.02058
2838,-15.84583,-39.686,2.06698,0.13068,0.43872,0.76299,-57.86798,-41.15854,2.46273,12.67481,-3.62,0.95419,-6.72585,8.07842,-2.24294,0.32759,-0.20938,0.63472,-5.06941,12.73157,0.90699,14.28075,-12.34255,1.56152,4.57359,-0.27191,-0.15704,4.70476,-2.92128,-0.22227,1.47297,-1.36797,-0.13568,1.67268,0.79172,-0.1681,0.28029,-0.04488,-0.03892,0.13286,0.04901,-0.03351
2839,-15.29346,-40.5187,2.24252,0.36024,0.42961,0.83351,-58.06709,-41.77567,2.41345,13.26764,-4.58373,0.79301,-6.87394,7.96587,-2.09125,0.40305,-0.19436,0.68969,-3.72206,11.50586,0.60869,10.79852,-13.25027,-1.25325,5.7227,-0.32163,-0.28022,4.86213,-2.92626,-0.40903,1.55022,-1.48243,-0.12744,1.83151,0.91422,-0.29754,0.29161,-0.04668,-0.04165,0.14757,0.09012,-0.08639
2840,-14.26656,-41.49133,2.38569,0.45906,0.47503,0.84924,-58.27198,-42.35926,2.33317,13.77098,-4.9661,0.66265,-7.08933,7.97946,-1.91228,0.47933,-0.20083,0.69679,-2.30804,11.63036,-0.09188,8.96561,-14.14867,-3.01911,6.41601,-0.31686,-0.21992,5.30447,-3.00841,-0.2785,1.48203,-1.64913,-0.03247,1.84174,0.94702,-0.35141,0.25535,-0.06784,-0.01652,0.15229,0.09661,-0.09892
2841,-12.89354,-42.60641,2.53841,0.24064,0.6845,0.80271,-58.61948,-42.93352,2.5668,13.67815,-4.27725,0.46589,-7.28619,8.03716,-1.72743,0.52793,-0.22854,0.65493,-2.28991,12.99892,-0.88399,9.47855,-15.31923,-2.79295,6.30889,-0.18622,0.00434,5.83339,-3.11171,0.12475,1.29428,-1.80615,0.06978,1.74313,0.87589,-0.27658,0.19002,-0.09782,0.00839,0.15413,0.06731,-0.06036
2842,-11.4178,-43.80013,2.73377,-0.28925,1.0376,0.71333,-58.82445,-43.58948,3.29937,12.96984,-2.83978,0.1036,-7.39858,8.08324,-1.55942,0.5067,-0.26013,0.58414,-3.55846,14.49133,-1.41846,11.25362,-16.61919,-0.7737,5.43656,0.04719,0.28275,6.13333,-3.19724,0.54951,1.04325,-1.87767,0.11253,1.61189,0.73588,-0.11677,0.12308,-0.12575,0.01202,0.153,0.02113,0.00268
2843,-10.09548,-44.91207,2.94188,-0.89895,1.40549,0.64376,-58.23077,-44.3078,4.17055,12.08775,-1.70932,-0.2959,-7.41892,8.13415,-1.4204,0.36618,-0.23635,0.52392,-4.19919,14.82,-1.39734,12.41679,-17.40303,1.97319,4.27904,0.2059,0.4385,6.08352,-3.27332,0.78972,0.83772,-1.83115,0.06827,1.50517,0.58025,0.04401,0.08962,-0.14901,-0.00862,0.14902,-0.01987,0.05533
2844,-9.0471,-45.80698,3.10527,-1.25049,1.58941,0.63195,-56.52806,-44.83035,4.64705,11.76432,-1.78314,-0.53345,-7.36105,8.18805,-1.30669,0.09181,-0.11351,0.50618,-2.25115,13.80012,-0.90079,11.74577,-17.03153,4.29373,3.40774,0.12336,0.375,5.86355,-3.36788,0.82131,0.74958,-1.6946,-0.02457,1.45333,0.46037,0.13883,0.09892,-0.16587,-0.03575,0.15237,-0.04294,0.07852
2845,-8.17642,-46.53725,3.20567,-1.20369,1.40015,0.62876,-54.17493,-44.97518,4.57495,12.35271,-2.97737,-0.57333,-7.21797,8.16154,-1.20265,-0.28978,0.0762,0.51758,2.1473,12.40411,-0.36438,9.76089,-15.8279,5.43644,3.0844,-0.17294,0.1824,5.72305,-3.5051,0.7066,0.76037,-1.56005,-0.08717,1.47965,0.41189,0.14018,0.12562,-0.17717,-0.04439,0.17135,-0.04639,0.07012
2846,-7.25143,-47.29145,3.26369,-1.01711,0.90448,0.57247,-51.78732,-45.05851,4.08139,13.22979,-4.24491,-0.36984,-6.984,7.98122,-1.08414,-0.77288,0.28809,0.51192,6.90209,11.65178,0.06033,7.79274,-14.76906,5.0838,3.31218,-0.49279,0.03243,5.7207,-3.65665,0.48335,0.8089,-1.52765,-0.06703,1.59651,0.44519,0.06005,0.14319,-0.18683,-0.02582,0.20203,-0.03417,0.03764
2847,-6.07039,-48.18047,3.29867,-1.07335,0.40836,0.47701,-49.69986,-45.65471,3.28383,13.34156,-4.52467,0.23111,-6.68935,7.66171,-0.9325,-1.39176,0.52589,0.46829,9.70155,11.74149,0.63848,6.76349,-14.36796,3.32567,4.02582,-0.69196,-0.00613,5.74607,-3.75242,0.18981,0.84703,-1.60593,0.03145,1.78929,0.53819,-0.04783,0.14888,-0.19289,0.00746,0.23049,-0.01463,-0.00139
2848,-4.56556,-49.10936,3.33058,-1.50948,0.09542,0.38834,-48.12399,-46.85137,2.43884,12.24304,-3.74279,1.10118,-6.38713,7.24459,-0.74748,-2.16266,0.80422,0.41223,9.50456,12.06121,1.3864,6.80708,-13.96026,0.7466,5.09116,-0.80111,0.00782,5.68254,-3.72939,-0.0901,0.8356,-1.70486,0.18279,2.00214,0.64698,-0.11709,0.15031,-0.18642,0.04075,0.24582,0.0035,-0.02621
2849,-2.87178,-49.96052,3.4087,-2.21742,-0.08679,0.3252,-47.53847,-48.18348,2.0453,10.42311,-2.7678,1.67597,-6.12493,6.7425,-0.54934,-3.0505,1.113,0.39276,6.54956,11.66309,1.59519,7.98091,-12.62242,-1.67925,6.17071,-0.92166,0.00707,5.50082,-3.57367,-0.27518,0.75771,-1.74433,0.35178,2.17078,0.73143,-0.1208,0.15167,-0.16726,0.06646,0.24814,0.01902,-0.03139
2850,-1.15327,-50.79403,3.57216,-3.13201,-0.23302,0.2837,-48.09201,-49.13745,2.42091,8.29813,-2.4628,1.48203,-5.91214,6.16128,-0.35786,-4.01725,1.4383,0.432,1.53269,10.16605,0.65285,10.5342,-10.55066,-3.03177,6.79933,-1.0543,-0.00135,5.25839,-3.34754,-0.35695,0.65522,-1.7455,0.47251,2.28441,0.77223,-0.08092,0.15723,-0.15328,0.0758,0.25224,0.03409,-0.02782
2851,0.59136,-51.75277,3.79786,-4.3629,-0.32508,0.25962,-48.8452,-49.5817,3.37211,5.66423,-2.99205,0.6254,-5.71402,5.53836,-0.17524,-5.08732,1.80119,0.50151,-4.1555,8.04659,-0.96942,14.22557,-9.03941,-2.95896,6.63866,-1.07977,0.02451,5.02896,-3.18167,-0.39414,0.61561,-1.7607,0.46651,2.37801,0.76496,-0.02542,0.16978,-0.15849,0.06079,0.27008,0.04436,-0.02412
2852,2.41028,-52.86945,4.03626,-5.93766,-0.25438,0.26078,-48.59351,-49.50458,4.49494,2.4695,-3.83547,-0.39488,-5.4777,4.9002,0.00949,-6.31193,2.23505,0.57302,-8.61853,6.44186,-2.23988,17.82369,-9.10649,-1.79458,5.73028,-0.92065,0.083,4.83716,-3.19272,-0.42922,0.71249,-1.77767,0.30995,2.44055,0.70625,0.0395,0.18475,-0.17136,0.02877,0.29039,0.03968,-0.01594
2853,4.31336,-54.01174,4.24605,-7.56702,0.07461,0.28551,-46.82904,-48.66256,5.50871,-0.78595,-4.06604,-1.09871,-5.15174,4.20204,0.2106,-7.67751,2.74232,0.6437,-10.68616,6.91051,-2.51044,19.69921,-10.53859,-0.20871,4.4926,-0.65418,0.10858,4.72001,-3.40861,-0.43198,0.93788,-1.72925,0.05905,2.40387,0.60492,0.11232,0.19094,-0.16561,-0.00124,0.28323,0.01613,0.0036
2854,6.29325,-55.02445,4.39833,-8.83694,0.66356,0.32572,-43.70689,-47.14354,6.22903,-3.37279,-2.98739,-1.18619,-4.70429,3.3563,0.43768,-9.11573,3.29305,0.72142,-10.20536,9.83286,-1.68956,19.0274,-12.24433,1.18931,3.48849,-0.45705,0.03274,4.76082,-3.73318,-0.3347,1.17773,-1.59611,-0.18654,2.2082,0.49457,0.16103,0.18114,-0.13675,-0.01811,0.23213,-0.01512,0.02715
2855,8.33654,-55.85024,4.47926,-9.50782,1.36952,0.38407,-39.72805,-45.58578,6.53267,-4.53701,-0.89278,-0.62994,-4.13912,2.29131,0.68906,-10.55867,3.84923,0.81582,-7.30663,13.46667,-0.22814,16.15135,-13.23678,1.99761,3.11891,-0.50216,-0.14193,5.0667,-4.00152,-0.10973,1.30624,-1.49209,-0.34105,1.92246,0.43087,0.14524,0.16742,-0.12313,-0.02464,0.16638,-0.03427,0.03794
2856,10.40715,-56.51137,4.50092,-9.6566,2.00091,0.47346,-35.69771,-44.61271,6.40061,-4.00578,1.14633,0.31886,-3.48833,0.9792,0.96309,-11.97889,4.40357,0.93676,-2.68669,15.49993,1.0905,12.19833,-13.0493,1.93916,3.42839,-0.84303,-0.35613,5.63261,-4.08224,0.19248,1.27729,-1.52474,-0.36967,1.7088,0.4607,0.06726,0.16934,-0.15612,-0.02848,0.14033,-0.02731,0.03035
2857,12.4514,-57.02793,4.47787,-9.53456,2.46959,0.60561,-32.30572,-44.3528,5.89251,-2.24837,2.20979,1.29998,-2.77938,-0.55399,1.24966,-13.39283,4.9874,1.09437,2.41719,14.94845,1.62589,8.6309,-11.73214,0.9755,4.11284,-1.32552,-0.55223,6.27444,-3.96476,0.45535,1.11527,-1.60822,-0.29454,1.68013,0.58426,-0.03327,0.18204,-0.20013,-0.0348,0.17611,0.00363,0.01183
2858,14.39598,-57.39933,4.43211,-9.39673,2.82676,0.7703,-29.83919,-44.47815,5.17822,-0.35584,2.21006,1.99311,-2.01641,-2.24112,1.53471,-14.84153,5.63694,1.28939,6.24195,12.41647,1.04826,6.83627,-9.84606,-0.34278,4.80453,-1.69083,-0.69285,6.75724,-3.78699,0.58263,0.9121,-1.59513,-0.18407,1.7872,0.73465,-0.12289,0.19317,-0.19791,-0.04855,0.23683,0.0396,-0.00934
2859,16.16143,-57.63526,4.40206,-9.44052,3.22094,0.94797,-28.10146,-44.68428,4.54186,0.50825,1.9218,2.25537,-1.19597,-3.99725,1.80633,-16.37032,6.37013,1.51937,7.29343,9.16333,-0.44545,7.64874,-8.19074,-1.08305,5.36636,-1.79012,-0.76544,6.95974,-3.72112,0.57352,0.80668,-1.48999,-0.11985,1.90839,0.82018,-0.17295,0.21203,-0.1455,-0.07421,0.27794,0.05701,-0.02367
2860,17.71106,-57.75595,4.43167,-9.76597,3.78858,1.12708,-26.55464,-45.06773,4.26076,-0.22034,2.30342,2.18186,-0.34088,-5.73139,2.06582,-18.01186,7.18517,1.77917,5.45927,5.92907,-2.04543,10.32899,-7.28332,-0.755,5.83366,-1.67355,-0.77285,6.94303,-3.84668,0.50463,0.85249,-1.40656,-0.12529,1.98003,0.803,-0.16191,0.24556,-0.08808,-0.10314,0.29254,0.04669,-0.02145
2861,19.05598,-57.76743,4.54374,-10.39743,4.56444,1.30907,-24.88996,-45.71777,4.46472,-2.21934,3.65382,1.99915,0.48773,-7.34224,2.32428,-19.79608,8.07611,2.05671,1.88889,2.88048,-3.02138,12.4639,-6.94863,0.18373,6.2147,-1.5159,-0.70418,6.76853,-4.06987,0.41737,0.96411,-1.45451,-0.14212,1.96225,0.72634,-0.12423,0.27608,-0.07955,-0.11021,0.28757,0.02164,-0.00873
2862,20.23062,-57.6713,4.71469,-11.2912,5.44587,1.50479,-23.21699,-46.36665,5.02081,-4.62355,5.4802,1.96489,1.22721,-8.72882,2.58384,-21.74523,9.04561,2.34066,-2.01152,0.14252,-3.20815,12.24495,-6.78681,0.74037,6.39271,-1.47017,-0.53156,6.43947,-4.23847,0.28317,1.00755,-1.67789,-0.09173,1.84635,0.65306,-0.12317,0.27675,-0.14667,-0.07408,0.26246,-0.00102,-0.00351
2863,21.26341,-57.41106,4.87901,-12.40638,6.22825,1.71113,-21.54893,-46.44584,5.59328,-6.93915,7.15874,2.29642,1.84158,-9.81625,2.83517,-23.85483,10.09665,2.61768,-5.5241,-1.79589,-2.6523,10.78319,-6.58919,0.2096,6.23849,-1.55249,-0.27946,5.94102,-4.25792,0.07236,0.91971,-1.99626,0.03039,1.69235,0.60594,-0.16511,0.23843,-0.26082,-0.0066,0.22164,-0.01591,-0.01098
2864,22.12966,-56.80714,4.97274,-13.7506,6.74835,1.90249,-19.76605,-45.41582,5.91102,-9.23541,8.46283,2.99617,2.32343,-10.57176,3.0659,-26.08782,11.2126,2.87733,-8.78294,-2.43441,-1.61153,11.55793,-6.33969,-1.33465,5.81754,-1.69013,-0.06065,5.36344,-4.12715,-0.19322,0.7629,-2.25552,0.14251,1.63549,0.60124,-0.19118,0.18334,-0.35855,0.05078,0.19253,-0.01883,-0.01843
2865,22.73042,-55.67812,4.98708,-15.29775,7.04544,2.04952,-18.12733,-43.10246,5.95421,-11.68329,9.70666,3.80239,2.68643,-11.02178,3.27302,-28.37444,12.35925,3.1206,-12.62844,-1.52553,-0.72091,17.08614,-5.93643,-3.10427,5.38889,-1.80426,0.01321,4.87999,-3.91817,-0.47028,0.66091,-2.33879,0.16837,1.77709,0.67411,-0.15722,0.14774,-0.39337,0.06763,0.20507,0.00042,-0.01473
2866,22.99192,-54.04807,4.95699,-16.89761,7.39063,2.16492,-17.14383,-39.90359,5.80959,-14.34501,11.54674,4.45876,2.95449,-11.23599,3.46153,-30.62342,13.50888,3.3672,-17.9223,0.98347,-0.43156,26.47943,-4.99511,-4.08438,5.1917,-1.8299,-0.0751,4.63655,-3.7931,-0.69722,0.69414,-2.21036,0.10547,2.05346,0.80091,-0.06965,0.14861,-0.35327,0.04932,0.24801,0.03675,0.00028
2867,22.98365,-52.17931,4.91917,-18.42431,8.10502,2.30904,-16.80316,-36.65724,5.48067,-17.16857,14.16666,4.89149,3.14663,-11.28579,3.64629,-32.7989,14.66551,3.63813,-24.31491,4.18279,-0.76687,36.25902,-3.18343,-3.74421,5.26428,-1.71596,-0.26136,4.65735,-3.92075,-0.81491,0.84478,-1.88305,0.00193,2.25804,0.89026,0.02572,0.17143,-0.24439,0.01973,0.27052,0.06519,0.0189
2868,22.89343,-50.41395,4.88891,-19.90594,9.28784,2.54441,-16.50304,-34.25636,4.94387,-19.88486,16.71602,5.11371,3.271,-11.21883,3.83827,-34.93885,15.84884,3.94377,-30.09804,5.90891,-1.7484,42.99405,-0.48499,-2.46924,5.50043,-1.51209,-0.49237,4.92841,-4.33821,-0.81417,1.04008,-1.43715,-0.10909,2.27405,0.89873,0.07337,0.1956,-0.09164,-0.01022,0.24921,0.06958,0.03043
2869,22.82476,-49.05909,4.89752,-21.40808,10.74188,2.88702,-15.81417,-33.30646,4.33304,-21.74614,17.97384,5.15168,3.3286,-11.0617,4.03236,-37.06873,17.05695,4.28727,-32.99534,4.39733,-3.3897,44.98094,2.50703,-1.20339,5.75311,-1.40675,-0.77232,5.44101,-4.89834,-0.70871,1.23015,-1.05296,-0.24184,2.17274,0.8595,0.05523,0.21943,0.04443,-0.04731,0.21646,0.05435,0.03074
2870,22.77614,-48.24294,4.99446,-22.80824,12.20703,3.31447,-14.81209,-33.71432,3.9625,-21.76474,17.49393,5.05013,3.32189,-10.82297,4.22472,-39.11626,18.27031,4.68109,-31.55816,0.09392,-5.33497,42.20121,4.74931,-0.59718,5.80724,-1.58146,-1.10923,6.07129,-5.33089,-0.49512,1.39987,-0.90483,-0.41588,2.05148,0.80412,-0.0024,0.24991,0.0935,-0.09248,0.2086,0.02846,0.02529
