PaulMeinheit/Bachelor_Muay_Thai/Sub01_Teep/scaled/JointPositions.txt/scaled3.csv
Neck_Joint_Position,Neck_Joint_Position,Neck_Joint_Position,L_ANKLE_POSITION,L_ANKLE_POSITION,L_ANKLE_POSITION,R_ANKLE_POSITION,R_ANKLE_POSITION,R_ANKLE_POSITION,L_KNEE_POSITION,L_KNEE_POSITION,L_KNEE_POSITION,R_KNEE_POSITION,R_KNEE_POSITION,R_KNEE_POSITION,L_HIP_POSITION,L_HIP_POSITION,L_HIP_POSITION,R_HIP_POSITION,R_HIP_POSITION,R_HIP_POSITION,L_SHOULDER_POSITION,L_SHOULDER_POSITION,L_SHOULDER_POSITION,R_SHOULDER_POSITION,R_SHOULDER_POSITION,R_SHOULDER_POSITION,L_ELBOW_POSITION,L_ELBOW_POSITION,L_ELBOW_POSITION,R_ELBOW_POSITION,R_ELBOW_POSITION,R_ELBOW_POSITION,L_WRIST_POSITION,L_WRIST_POSITION,L_WRIST_POSITION,R_WRIST_POSITION,R_WRIST_POSITION,R_WRIST_POSITION
X,Y,Z,X,Y,Z,X,Y,Z,X,Y,Z,X,Y,Z,X,Y,Z,X,Y,Z,X,Y,Z,X,Y,Z,X,Y,Z,X,Y,Z,X,Y,Z,X,Y,Z
0.10906000000000002,0.40715000000000007,1.5389100000000004,0.0052000000000000015,0.5993,0.08490000000000002,0.06092000000000001,0.22359000000000007,0.09630000000000001,0.04307,0.57703,0.5035400000000001,0.17051000000000002,0.31284000000000006,0.48910000000000015,-0.0032800000000000004,0.4598900000000001,0.9079200000000001,0.12498000000000001,0.30820000000000003,0.9079000000000002,-0.051150000000000015,0.49709000000000003,1.4809300000000003,0.20725000000000005,0.2590700000000001,1.4758800000000003,-0.06177000000000001,0.64442,1.2354600000000002,0.3600900000000001,0.38192000000000004,1.2596300000000002,0.07655,0.6769900000000001,1.4505300000000003,0.30335,0.5424,1.4593900000000002
0.10872080096137358,0.4156609696169572,1.5389625783897967,0.004866753296660616,0.599516294535052,0.08530141776093579,0.06380247620168598,0.22489919191176083,0.10107669997349233,0.04075259225723407,0.5806622498869407,0.5042898332859842,0.17973791420746763,0.31983551202870614,0.4907008328981792,-0.007298601132246357,0.46500344334110927,0.9088878400771414,0.12150208173451092,0.31376275729421327,0.9079175399317095,-0.051544339861709185,0.5060807827046957,1.4807761275624176,0.20558993378319285,0.2685472245595889,1.4765638383631252,-0.06107536287933337,0.6525288570052898,1.2347316738964726,0.35979075304803415,0.3889439874068725,1.2599049645204914,0.07732258853237092,0.684673004569526,1.4498192584141638,0.3036304438202559,0.5513280154934226,1.4582798436195004
0.10836886839838998,0.4240184633827512,1.538339682538177,0.004110149082239721,0.5990327187481499,0.08526512825092446,0.06667114886384759,0.2262445058166656,0.1059318426620191,0.03831399134103336,0.5833110319348941,0.5045170040199161,0.1896036015798752,0.3269139920495658,0.4919585046220719,-0.01105262516133042,0.4689894249067889,0.9093493814065078,0.11881940564423778,0.31868369488916565,0.9071897889642038,-0.05244319998247725,0.5152192378012749,1.4799583372695613,0.20473972416188682,0.27672861384481173,1.476639994407974,-0.05961833896665715,0.6607032060125559,1.2332669326067651,0.35950383450390655,0.39636579362877555,1.2599513139125857,0.07828638959986677,0.6928315612643796,1.4486677542709292,0.3039180030839193,0.5597127036977594,1.4577098050251134
0.10860382701825308,0.43214205435674163,1.5369182114776583,0.0035930355302594107,0.5988382965290088,0.08482627917211819,0.06951423430928266,0.2276070283670312,0.1103430050393239,0.03680799358730534,0.5847721344995794,0.5042134559513479,0.19859623445535612,0.33295449486818307,0.49309457243588645,-0.013837336418213227,0.4723525348602413,0.9094161229597445,0.11704779630541036,0.32294490706099016,0.9063038703145512,-0.0529782723490752,0.5228448614209,1.479239665837479,0.20510637384372224,0.28333431225632477,1.4765279368314455,-0.05947981471359998,0.6682040334817001,1.2324537573346601,0.35904620294458883,0.40336725018745406,1.2594775153474178,0.07922234275159677,0.7007089815162117,1.4472826556608531,0.3038281810473063,0.5672043597967305,1.4569327195486197
0.10903496519998532,0.4390217803466805,1.535559738714183,0.00316442293251179,0.5991016498190901,0.0845163105943765,0.07151665978200004,0.22930278122562153,0.11413687361777042,0.03626589704750365,0.5858306199415139,0.5039464129868358,0.20529589739096937,0.33761097713838817,0.4944440026539951,-0.01600373060776753,0.4746438214606238,0.9092857651847979,0.1160461133477425,0.3262668653375251,0.9060256480820559,-0.05340143829619793,0.528658315728554,1.4787357449781449,0.2051942071533634,0.2892820864159852,1.4764770367127797,-0.059742642513150195,0.6735072981670508,1.2316547036336072,0.3585567865196234,0.40932817092388235,1.2590279970772043,0.07979531727182038,0.7069197822860276,1.4458019065934233,0.30307341942736815,0.5739622967661907,1.4557530121980362
0.10911113535605409,0.44501838862416565,1.534266076422456,0.003109054154006979,0.5993811493469569,0.08424521283020706,0.07232086798983123,0.2306199342468168,0.1169521410874574,0.03632317691950021,0.5869871464140278,0.5036852414305113,0.20921205714645139,0.3414763344328021,0.49540901146261096,-0.017695929933073947,0.47613814743898325,0.9088895474126785,0.11549555275218955,0.3287816914575366,0.9059618104354417,-0.053961862725115405,0.5327325195184853,1.4778693542119736,0.20532989606075588,0.2947663587672291,1.4765549700398901,-0.058517015507565176,0.6776390748681625,1.230782331417879,0.3581199746765381,0.41452209534673745,1.2585317242398502,0.08053609751857943,0.7116352633659194,1.4451544736637052,0.3025251536633665,0.5798299101328592,1.4546505087997021
0.10901586146219562,0.4499673863924053,1.5327776090361578,0.003203402721096548,0.6001419247150654,0.0839099259880164,0.07287663256722686,0.23184580660240947,0.11817938446509822,0.03693925091609759,0.5882729846467163,0.5033334571809138,0.2108526123151325,0.3446195242833613,0.4956777076451407,-0.018528134187611116,0.47700622875284393,0.9082264353415587,0.11568293452459011,0.330567912312977,0.9058497241997476,-0.0540995927124187,0.5353662883771885,1.4767806250128768,0.2063845903970803,0.2996153717963773,1.476958475995386,-0.057353585684595296,0.6812136208490709,1.23022693890769,0.3575804586950513,0.41919373793460174,1.2577414887635026,0.08108069227152816,0.7149766646254603,1.4450274723955845,0.3022754695612675,0.5851198888060841,1.4534101401959323
0.10913342586340381,0.45310007757613285,1.5316603454243225,0.003265636913967946,0.6009450630537384,0.08338776477242253,0.07360122173460071,0.23373603787680342,0.11756451833069718,0.03758060738554576,0.5892810160140517,0.5027675829401372,0.21084408164341245,0.34690456501522365,0.4952116307865322,-0.018277635070791647,0.477178368008439,0.9073647609148336,0.11693466504502702,0.33164950785878666,0.905631815999245,-0.053514897171077686,0.5373300261170193,1.4761619652559719,0.20817195955634216,0.30305262758524876,1.476970698002083,-0.05658186841553579,0.6834605267429985,1.229770296347426,0.35768099319252605,0.4234253502350526,1.2570328708918364,0.08086087311167399,0.7163129796559786,1.4453626893070075,0.30141906438321925,0.5895174818522881,1.4522879051186708
0.10987539853922244,0.4545719165319561,1.5308657054196948,0.0033746506426801234,0.6011688823655392,0.08297814069153199,0.07448188664693484,0.23614750755421574,0.1151079469123555,0.0379222819503689,0.5894625235163629,0.5023390547435685,0.20985855514072058,0.3481694288386251,0.49377223903895284,-0.01734534260828479,0.47666322714498166,0.9068214575097939,0.11877583654423474,0.3319916661121751,0.9047938615668535,-0.05306055348042207,0.5383691077315518,1.4760916451004185,0.20995509632487486,0.30404183850688365,1.476480765680548,-0.05550759263261776,0.6845249179685364,1.2297043193544426,0.35863300665710945,0.42684184450553925,1.257324818542854,0.08068271701556698,0.7158762056110778,1.4463098047873206,0.30014450506610196,0.59288491913026,1.4519699123552101
0.11079208582917062,0.45487288673910714,1.5300280257679484,0.003382478870448913,0.6008565042134879,0.08279340428179408,0.07588119593571754,0.23886610236981326,0.11132634549818213,0.03801830881309821,0.5888468579916419,0.5021422231754784,0.2083164098669715,0.3481896116549733,0.4918219194452047,-0.01597235923444353,0.47550496947109455,0.9066533116777821,0.12085587141490839,0.3315136024893542,0.9036031664062633,-0.05301656744312044,0.537062266872269,1.4758003606090464,0.21164356244695876,0.3037852122654244,1.4763105001167414,-0.053822054410832224,0.684832510983998,1.2303701168258911,0.3601623051783835,0.42924070017100724,1.2585551902915697,0.08128157050853993,0.7140312987248505,1.4479568911477685,0.29876112631539276,0.5952563309055883,1.45232662185328
0.11075810142012339,0.45405781070606377,1.5292002288400655,0.0029500625601126896,0.6008580984186401,0.08263469989800216,0.07717183989859913,0.24209130540816975,0.10679217945030638,0.0380063414807982,0.5880425675772841,0.5019180177933745,0.20583238837835072,0.3472648990501631,0.4897406521204439,-0.014615819472802253,0.47387468979677577,0.9063845696527058,0.12251751743709402,0.3302066681167215,0.9023679215753804,-0.05266033549131943,0.5329930224207455,1.4750245508653594,0.21302823142930746,0.303250175667684,1.4762920090347507,-0.05116872127110957,0.6840855861096705,1.231629337247165,0.3622623877216139,0.43033420793216925,1.2599713015306093,0.0821505434242453,0.7104347637772026,1.450671625863905,0.29719789048750744,0.5962197541140928,1.4526524998603527
0.11031871781895898,0.4513527143949057,1.528356958494505,0.002593975105822599,0.6011427093359636,0.08245086391407952,0.07707306971116658,0.2449465405966849,0.10217299503753419,0.03828783222601477,0.5876743219549162,0.5016672905652638,0.20245261079111093,0.34573295016476063,0.4873797696175503,-0.013210099979008202,0.4720405728068414,0.9058488993313865,0.12399219421639836,0.3284579396026798,0.90095688395191,-0.052026276907993836,0.5275268406129077,1.4741127338483455,0.2144557444111511,0.3018583367371238,1.4762037539741268,-0.04886675135771811,0.6824482847013468,1.23314064857311,0.36419492599766345,0.4303266121584355,1.261050874037452,0.08274407799497357,0.7046686285049659,1.453674622931244,0.2955286582531189,0.5958436261041594,1.452799139328341
0.1107710860084155,0.44627809444614935,1.5273696827432677,0.0027722482117908515,0.600768351051781,0.08209002652316144,0.07489043182678091,0.2469178537588769,0.0983118434859939,0.03933598413283027,0.5878502936506887,0.5012444702032477,0.19955907076777213,0.34355064362304927,0.4848141849162366,-0.011165922608034598,0.46998737933823287,0.9049110188445247,0.12575127794486313,0.3261655630964263,0.8992330879138328,-0.051249142403157144,0.5216812713248542,1.4734365112014958,0.21695162998196968,0.29860223506497335,1.4756407089285035,-0.04710953613441396,0.6799626047586901,1.2346745178330762,0.36649338131276565,0.42923397897188714,1.2616580213391126,0.08339489422864574,0.6977125079083986,1.4562674667667805,0.2937045446577374,0.5935704571038605,1.452895841261242
0.11121294833435638,0.44038240743531576,1.5259766187348236,0.002598506763930739,0.6004574439249751,0.08191357226516305,0.07213525907652753,0.24887828879634613,0.09505821968708185,0.04184412996694718,0.5885688624799478,0.5008560933747828,0.19680885219618488,0.3414747263333862,0.4825418234940875,-0.008357987180990243,0.4670789190134992,0.9034829491254722,0.12805649313901257,0.32279186730777,0.8977803131879457,-0.050322545691226975,0.5148279310630584,1.4724715116915552,0.21969865964533428,0.2937086853663253,1.4742028629109758,-0.04537476737154834,0.6759861116011308,1.2356683812479792,0.37022501774263966,0.42657765451976276,1.2623022286858554,0.08440809381185849,0.6893880474088853,1.457984949973469,0.29208456938563854,0.5890463921424637,1.4530248953701428
0.11129552773066485,0.43378242838264064,1.5241154745677166,0.0024322557328777,0.6009347510863975,0.0820951663261743,0.07050553288523341,0.25063623011292907,0.09209658160077752,0.04571766176188107,0.5906352831091622,0.5006767509310297,0.1939131333450438,0.3399235854234767,0.4807611921685038,-0.004744176558547684,0.4631193262700545,0.901415388863908,0.13122620870987914,0.3183692046261039,0.8968173717951414,-0.049014691320380645,0.5062355908491433,1.4710411508544259,0.222364933134471,0.2872026471947886,1.471871562064956,-0.04396951979688521,0.6703677285553719,1.2362837322387177,0.37411439488729453,0.4233806830121903,1.262952965185937,0.08385075455243844,0.6807364400584084,1.4599040405553871,0.29093116494926785,0.5830703234083229,1.4538911606547078
0.11192484462520673,0.42514938718290746,1.5217447710865717,0.003114525487819122,0.6017086315588003,0.08281781116122593,0.06951913975099153,0.2507866799658014,0.08896754371384318,0.0517053926464135,0.5954369211507066,0.5008935920312296,0.19163205010589723,0.3375221193073398,0.4786199032259482,-0.00027212807849411936,0.4584938234459708,0.8983122427922088,0.13521894557533504,0.313246182574655,0.8954246908284392,-0.04722967196493284,0.49614782067361374,1.4698777896794186,0.22475760204862022,0.27915742559465695,1.4688166713915516,-0.04354795315775884,0.6633367229585306,1.2372714945931724,0.37738415017235716,0.41943648744340195,1.263276844552869,0.08273345160968831,0.6723043301709458,1.4618212971636328,0.2904158362599222,0.5752718345157866,1.4557000570570702
0.11335972894516536,0.41451169803270965,1.5189023244144266,0.006004861252761316,0.6033192225777484,0.08735625116959371,0.06867595047241781,0.2489733517395409,0.08630986943816102,0.06171414528887582,0.6055498117667022,0.5045944037412928,0.1907382159635392,0.3344994257852626,0.4762472719525965,0.0038587843750815583,0.4529387402199678,0.895428553370939,0.1392587918537254,0.307594340603441,0.8935203436622827,-0.046001854108333594,0.4832462428163397,1.4685577145969961,0.22731417440486051,0.2704397550573947,1.4654204689137336,-0.04359117589995014,0.6548454710340857,1.2391682689596426,0.3809683811311737,0.41377505020145217,1.2627882286950947,0.08350211473397116,0.6615260306527903,1.4633310345622927,0.2907000523317597,0.564826530510251,1.4574962227117474
0.11557481310942373,0.4023499191023365,1.516272439921405,0.011967775455074155,0.6076843668872177,0.10043825930414656,0.06774113943013264,0.2470141620081333,0.08478315339699331,0.0762332765260098,0.6239588225285678,0.5161266448522444,0.1915794338818571,0.33196687737122377,0.4742887573026555,0.006063491708525455,0.4467377825058318,0.8943632549690436,0.1420822319450229,0.30198093762603906,0.891597939081385,-0.04573428937828824,0.4686822171735839,1.4668970311584484,0.2304176269396966,0.2606390922632577,1.4616593554213109,-0.04350657165294712,0.6455901553881747,1.2415557763713296,0.3851472695862818,0.4071803047971207,1.26216083991166,0.08502180894561401,0.6487641531910973,1.464979120428027,0.2918755613159235,0.5528467626412396,1.4595387684270702
0.11796026383941607,0.3898766587164707,1.5137595141085065,0.019807156772185853,0.6143459876330786,0.12395073872964356,0.0674075202784774,0.24640192112639242,0.08410928442467472,0.09340315429027911,0.6511486046726411,0.5367728870977172,0.19435821958546617,0.3302011863506624,0.4728554726279916,0.00733721517583855,0.44158239203849947,0.8946307392775537,0.14385388519562328,0.2973419410548809,0.8898272937357488,-0.045403648576194194,0.45545018028946266,1.4657589374482298,0.23352799582240508,0.25015282828731755,1.4576553236784,-0.04356556762995955,0.6367466194034352,1.2439363392503655,0.38964260000759376,0.3997083304255494,1.261495511782041,0.08573490858868305,0.6358091984410299,1.466942245197719,0.29348593635365794,0.5404206594751008,1.461066803659167
0.11967382623823382,0.3774716496835662,1.5104589615658657,0.02681691588546394,0.6183750597965424,0.1574956554839972,0.0681025772730549,0.2465107714456692,0.08392002460529514,0.11150468948330225,0.6830670812975912,0.5647332312191452,0.1992070366920857,0.33013279395908085,0.4713247450646072,0.00874354075841306,0.4390662673429329,0.8953329611669295,0.14528399127042488,0.2949672589383108,0.8876825374062408,-0.04445747917340408,0.4429715431743297,1.4648367969785108,0.2366590184105683,0.23956843201706884,1.453607435990483,-0.04360010310144524,0.6289878166342272,1.2469606012103511,0.39363031858571496,0.39207797273126377,1.2604261011257463,0.08648367659699814,0.6225895130101775,1.4694178597585186,0.29430139318340287,0.5292688065135048,1.4608979942266458
0.12051433218134681,0.36444692104237375,1.506573480607006,0.030921879622022846,0.619076354628413,0.20054952897665496,0.06862745622479594,0.24704047413386643,0.08418254164372711,0.1291886500772463,0.7143874525874305,0.5986102701855448,0.20539092379633134,0.33187701355740046,0.46935943374787037,0.009193783072625543,0.43868561540528517,0.8968987881381455,0.14639587549730976,0.29551958431497694,0.8849220562633429,-0.04414904866744145,0.4297336942376232,1.4632894836133672,0.23921498866392693,0.22946104409939244,1.4489435602390124,-0.043732677209151305,0.6218115960930857,1.250733575823977,0.39676812307936915,0.3850547154575893,1.2587193770985639,0.0879544617119294,0.6086600680002576,1.471950064193566,0.2949054686313315,0.5185876730955612,1.4603984056391315
0.12089111483698833,0.3511369043908092,1.5024798879416135,0.03437601541934269,0.622424844854867,0.2508386694543135,0.06848766033164927,0.2477034482508612,0.0848356876213938,0.14501622519012036,0.7437326927258068,0.6384387866640905,0.21206362148491548,0.33507835410435227,0.4669529972606651,0.008174484967205601,0.43965685092403994,0.8995999945195914,0.1470649454542361,0.29875953111357173,0.8816254744341231,-0.04457846318566704,0.41656711833385707,1.4606609502759922,0.24082980171016347,0.21982962992802735,1.4432977276239605,-0.043818982061529434,0.6153022894915503,1.2543157771767326,0.3996007900357179,0.377730180028624,1.2560154349382684,0.0893583529895976,0.5940599191277233,1.4739989452003257,0.2959419513500619,0.5062425902216644,1.4600149429803086
0.12122444457385015,0.3385623642728694,1.4983156462718685,0.041387765825156096,0.6336055259932288,0.3036967222979991,0.06883765940855321,0.24792819146419623,0.08520918754346658,0.15807898477734977,0.7718969572409451,0.6837669409906663,0.21778840973517102,0.3398646129714077,0.46418622620572575,0.00700991066613128,0.44223080665712955,0.9025972990167305,0.1474210541605666,0.30387428946230943,0.8780092269390685,-0.04414424632704262,0.4060185487535409,1.458375353960677,0.24186902493643705,0.20990296995396235,1.4373357943117127,-0.04304306461164905,0.6098513345017472,1.2570668647958052,0.40134804127461443,0.36951238852753276,1.2521067614043089,0.09063522164145012,0.5805211275268143,1.4755090840399236,0.29728121299712823,0.4937611999704535,1.4585264675306822
0.1219671104704139,0.32923716537952463,1.493328243205312,0.053286056370433106,0.6561503865918258,0.3551141245772145,0.06915604911166412,0.24871637199792046,0.08502065567116894,0.16838921816988225,0.7992582095865761,0.7338779140962599,0.22145186512545995,0.34637142183756015,0.4612334212269075,0.006934672019591513,0.44673477971853975,0.9043087694641222,0.14718217432820005,0.30928620935328544,0.874273481131439,-0.042519583522329804,0.3977671843028619,1.4564220691477168,0.24281691567375488,0.20019436648575362,1.4304420631771193,-0.04244242393364383,0.6055262254691568,1.2591748706112462,0.4021970912786501,0.36141974892542883,1.2465396564617037,0.09066851866252902,0.5675667046849996,1.4766348190627157,0.2990176344078409,0.4821701992080434,1.4554595084281186
0.12322302630115374,0.32283875953442775,1.487557702987059,0.06891113999513472,0.692094773472651,0.4033289364015245,0.06847782998133743,0.25065139964647243,0.0845200779288015,0.17587481629575685,0.823938957981819,0.788523261163167,0.2237237146568986,0.3546040864267063,0.45781603070181903,0.007480555380455656,0.4534533929859884,0.9058835548181496,0.14581559874738914,0.3154612583679124,0.8699986824946234,-0.04071590106796165,0.3904285877918788,1.4537341159531494,0.24399348423624245,0.19176628502111853,1.423293101494141,-0.042607259853868734,0.602805337124748,1.2614731311723015,0.40232816571992414,0.3534252913753967,1.2388728288634865,0.0904904384869332,0.5557966763358659,1.4771588460584022,0.3013804309562379,0.47109290708799845,1.450639429229086
0.12394283629175537,0.31691171235012583,1.4818037529893282,0.08791970226703841,0.7434186292585696,0.4490160683152088,0.06716449004630724,0.25338317887311895,0.08376690134122466,0.1794591366369783,0.8441673749851234,0.8473421354785415,0.22502153260541966,0.36427927558453777,0.4539619573740901,0.008353192735532707,0.4616423307386545,0.9088877647027278,0.14458014707092762,0.32371705749775487,0.8655193922902386,-0.03927753351337966,0.38472966707829037,1.45077063389168,0.24509666804206057,0.18452374717008452,1.4165548284314082,-0.04237713154630546,0.6018655985865369,1.2639162540957476,0.400992608909954,0.3447457327667664,1.2288289124954888,0.09221787830705629,0.5465689553920929,1.47668545567501,0.30367918532300153,0.4609848754384685,1.4430665906403308
0.12399798062283363,0.3101301944606267,1.4761013497684652,0.11076411450043673,0.8094547079604097,0.4962680497341211,0.06635678858253519,0.25532307368358514,0.08305989853207042,0.17873775377246287,0.8583434838556634,0.9087967902759271,0.22587096387550396,0.373933898604734,0.45014455624540245,0.010099120532279392,0.4698288185446774,0.9116441445455833,0.14522607658045528,0.3330744922666657,0.8616272340782883,-0.038772759805151144,0.37959399818199374,1.4475257916874593,0.24625823376355827,0.1781391375294237,1.4093776776356557,-0.041233973918284844,0.6012816629138241,1.266080997517978,0.3992302007821973,0.3345099382611194,1.2160766871260347,0.09528399872251979,0.5382372969267918,1.475452269264779,0.3055316957256991,0.45158458471225144,1.431469819800853
0.12383218727786313,0.3022897389342047,1.470234241971118,0.13390127870194077,0.8863062085424971,0.5497167030512514,0.06618245984999882,0.2560932343601317,0.08236394201863123,0.1744011318221673,0.8664373860219916,0.9682325689540874,0.22781091747473675,0.3817615003862808,0.44616068321478003,0.012468267340116216,0.4788462995760397,0.9140573937622608,0.14645516175014825,0.3434177605683129,0.8577494459662778,-0.03856818511231204,0.37455137218471013,1.4426810364866376,0.2457144181358283,0.17276728061757882,1.4011519167505961,-0.040673941927488376,0.6010907114751336,1.267334603019096,0.39760036732368736,0.32087380630803486,1.2006276941755707,0.097655819544195,0.5304403720436621,1.4730622557997624,0.30850348538795924,0.44119174774521414,1.4161858510867364
0.12390314679594525,0.29564741912665743,1.4642121572579212,0.15422511978217257,0.9685429757215903,0.6105454833150123,0.06580789527939182,0.25631466496988675,0.081513426143392,0.16804911195034888,0.8702019720590223,1.0196072336740605,0.23147474630046147,0.38863222941422654,0.441117477538165,0.014605494093932156,0.48897656200139467,0.9170682797749669,0.14803470738345106,0.3565704768557227,0.8528255617134516,-0.03785615597873032,0.3697730455707722,1.4365696248505078,0.24364610190901775,0.16845312995721098,1.391597038396538,-0.04098151428487673,0.6015662924276687,1.2682281871072145,0.395803067155534,0.3040348782516824,1.1825941746986843,0.09879205488468434,0.524303841007646,1.4705762739380017,0.3121509364620279,0.43009826029368686,1.3970470845369243
0.12380168668583366,0.29100419891804874,1.4577971542795998,0.17187522249860526,1.0511684099557548,0.6784230504730001,0.06561555109373861,0.25667262836731974,0.08096219828708934,0.1616031171960858,0.8722581058404968,1.0593154674437413,0.2358926833275719,0.395803823142115,0.43580635482722024,0.017047422799558922,0.49922763262222225,0.9202286406323104,0.15085214692838733,0.37155302138877094,0.8477238767502693,-0.03664950318076078,0.3650258435662854,1.4310117285461832,0.24242416628867278,0.16434568445967954,1.38147431055521,-0.04113683888417246,0.6020652340014442,1.2701802170348595,0.39524863728336546,0.28378962103849165,1.1633178777356346,0.09954555624851756,0.5196615445734452,1.4698454136026404,0.3167862824576521,0.4176391849624956,1.374989203888557
0.12300014238526927,0.28731532896096845,1.4503886106107013,0.18542553889556965,1.1292548056002818,0.7509256944132523,0.0664867552455029,0.25828594052371634,0.08138937756924576,0.15577732289233323,0.8778915811608607,1.0872759985508025,0.2407408757481123,0.4036700544310421,0.43175217923467124,0.021087098242142853,0.5116355296203475,0.9226307364928152,0.1531832827286746,0.38613460716200265,0.8434828582254293,-0.03575815796813336,0.3621433529432485,1.4252345615132762,0.23980210723456327,0.15962658550465902,1.3714811104233608,-0.04105424979101422,0.6040130508022274,1.2717887962050778,0.39679585907580445,0.25901235126639016,1.146331730967013,0.1010590434131791,0.5161714777221981,1.4680919730874566,0.32270117767028433,0.4032439757553962,1.3526966831058092
0.12105686522305141,0.2834781219356035,1.4427290915802247,0.19474185888204731,1.1997273191684865,0.8228337611870947,0.06700805883116431,0.26105746170808797,0.08200438675255045,0.15071228220433106,0.8903431096525709,1.1048613330009265,0.2448147814617524,0.4117695818019423,0.4283132096475422,0.02730384304111555,0.5270689394175199,0.9254295688360177,0.15421452755033754,0.40062142804279466,0.8396062012372949,-0.03589563438555338,0.360908964508924,1.4196171458368276,0.23525643837955518,0.15406081755755016,1.361796404909489,-0.040787865018843524,0.6070165734165258,1.2730656760812684,0.4017740389342708,0.22840600912009146,1.1338426729331883,0.1021821253830898,0.5129882130069034,1.4658472424474804,0.3311694959188388,0.38516535888377307,1.3321431744294028
0.11853454843291035,0.2778261077658481,1.4360089065594968,0.20050995348898093,1.26321565812164,0.8865890384436875,0.0666865498739862,0.2634158953828273,0.08210439545338338,0.14562322395255586,0.9110893018590395,1.1106114407735823,0.2472189024391232,0.4182343903525421,0.42517822156290025,0.03584411805377495,0.5443874832369141,0.929311372774511,0.15573947656706022,0.4160914760296623,0.8364233874842092,-0.036468640071101545,0.3587965473818139,1.415144332578974,0.230710969191101,0.1479383910736108,1.352380443838599,-0.042349419001290134,0.6095132742869166,1.2766476489481158,0.4115403723502346,0.19099149482059855,1.127284551620461,0.10088413885081504,0.507984403979125,1.4653930799377421,0.3439060203705378,0.3617967790115748,1.3147166333170883
0.11530325727471707,0.26969147633420326,1.4296708650324108,0.1983459000653725,1.3217617809073514,0.9354408214771734,0.06656963152310401,0.2649787953739979,0.08198777041889056,0.14014660679109614,0.9402924984411464,1.1036306406674488,0.24826518768882502,0.42245578694208297,0.4232332791633844,0.04663883859733001,0.5640647007207824,0.9330400729703379,0.15856753882841723,0.4326369226728519,0.8347506158666137,-0.03664257675244188,0.3550812653106139,1.4118559414280676,0.22645158384301145,0.14060309922802972,1.3427124423445718,-0.04481406728594623,0.6109533462820714,1.2832623340765679,0.42345749397303273,0.14633999404020592,1.12736930902896,0.0986179136837379,0.4997217652232121,1.4663000825350745,0.35942463607285996,0.3315123299751509,1.3019729038075185
0.11167588615323665,0.25889118412319984,1.4223450845686143,0.18609805053245346,1.3704172857698282,0.959911266870524,0.06638440132716025,0.2658849155711025,0.08205868704854996,0.1363504256546027,0.9724889268505095,1.0878368660541964,0.24721025476508277,0.42487874220972927,0.42306342985259887,0.057944606888445424,0.5850635185950188,0.9356853324351044,0.16176838991883363,0.4489467579341229,0.8349066746349616,-0.03568744933190401,0.35087882439284335,1.409555035891625,0.22231020620248076,0.12872372363183934,1.3341421474274342,-0.04576849995956847,0.6115602270688393,1.2911703251190259,0.432530890354584,0.09841381708085374,1.1338727330681364,0.09646101872828367,0.4885346755063027,1.4674727960993579,0.37219861907167673,0.29759480684080947,1.29377149583531
0.10839332020537185,0.24534294810465304,1.414885870360155,0.17355939232439027,1.4050221139460652,0.9577680893964534,0.06620121247858834,0.26657068574813764,0.08221918968268707,0.1357479735161096,0.9996602738239516,1.064741940027608,0.24404735839177502,0.4267073812084864,0.4242604160692678,0.06637059450845671,0.6019086276930393,0.9367651255778578,0.1643128133921621,0.46113382824145244,0.8365081206994724,-0.03507218580463465,0.3456259688373017,1.406995242781583,0.21713277197461128,0.11211539791296919,1.3278533620026585,-0.04622611001912118,0.6110217925708619,1.299689118431164,0.43721770725999126,0.05337546065313014,1.145287707647309,0.0945653951990773,0.4759639898168808,1.4681642019255525,0.3788252490695553,0.26540969897859723,1.2884968179528289
0.10485163544157731,0.23004151537250692,1.4101301019270074,0.17025674907791255,1.4270796737001705,0.9414655879854764,0.06569997095161886,0.2674102326797199,0.0818397943501923,0.13898012509481478,1.0175006117160237,1.0334391139805366,0.23969570796709322,0.42788083964682494,0.42570202701231,0.07133439687620957,0.6107059003867014,0.9368363420311131,0.16570256874693506,0.4660450696710989,0.8386924063195556,-0.036461450686596605,0.33869773577072443,1.4049677704515564,0.21054953859460707,0.09540422059254917,1.3236425927268953,-0.04574610277899013,0.607873112615851,1.30735702642905,0.437539200193288,0.016024212131570712,1.1581307233522893,0.09357624582052518,0.4632287281591951,1.468954519380883,0.37931709933195357,0.23829047517137394,1.2849687527308222
0.10105586396971197,0.2159895316850274,1.4079595923830357,0.17435608810283446,1.4409583831542536,0.926772892768059,0.06460525237666595,0.2677637998200885,0.08110978437392481,0.14428693210741814,1.0267752228691978,0.9956207863930611,0.23539175231206177,0.42696609147671205,0.42716276681932686,0.07576400024413818,0.6130032035481703,0.9365459144660214,0.16655468502081935,0.4642900327055623,0.8411191906696173,-0.037204069167840366,0.33044696790386,1.4054316568890701,0.20370115594483926,0.08087744731945794,1.3205398661121848,-0.04262782374507705,0.6013029242897641,1.312257291366179,0.4347805868527072,-0.011422298736926016,1.1678984617453019,0.09418483491614413,0.4508874984115074,1.4707166884803131,0.37567447351713734,0.21729575333974024,1.2822369253892896
0.09776085140762565,0.20322309923718654,1.4070987685177896,0.1844355679551759,1.445094092443182,0.9177401374755954,0.06421005264536316,0.266678447868912,0.08040567697647823,0.14397679797600973,1.0280797587462231,0.9583372035691718,0.23272864115146588,0.4215409559291785,0.42951779360503906,0.08017963543278965,0.6099927375579334,0.9354195304626163,0.16821180662221716,0.4569485367898062,0.8443423647814612,-0.03680765275280528,0.32162839492007167,1.4076661726751523,0.19695634284170616,0.06674243257478461,1.3182790839422025,-0.03795162315838695,0.5924435792493897,1.3142215441512062,0.43081150140746494,-0.029920829469542155,1.1727352635423383,0.0963036395950687,0.4406063667382838,1.473506954139684,0.3694583815214387,0.2014269143975855,1.2803813301193308
0.0942404598455505,0.1903634933514314,1.4078851878837417,0.19583796183558913,1.436467706414219,0.9021687546006139,0.06436278932182299,0.26396564861521155,0.07963014505376488,0.13995513096951143,1.020229747222119,0.9307091172601464,0.23132457660230785,0.4109837772882748,0.4328583196265162,0.08158193286846371,0.600736774836179,0.9335206860328299,0.17003734832406925,0.44459066250540563,0.8483294609119763,-0.03664496911322141,0.31339129694551066,1.410516716454828,0.18882063524115425,0.05214932526221307,1.316958121108742,-0.03344188930011881,0.5828646713176918,1.3133180118525463,0.42471333735016337,-0.04214416080741402,1.1731648573721205,0.0981769633253165,0.43252625554794416,1.476179185773196,0.3622237731432813,0.18962007435909625,1.279269971301393
0.09003354184224019,0.17933444035807375,1.4108367682916856,0.198946958187046,1.4223336877377615,0.8712162182550942,0.06453202719288434,0.2604470323988041,0.0790952984212086,0.13999375627921098,1.0078778002613895,0.9153185935042096,0.23080570389293478,0.39768288355466463,0.43656322125872216,0.08077905085717586,0.5888580264321989,0.9327598646771124,0.17079900641809911,0.4311393842257924,0.8522285007290522,-0.03691780307517828,0.3050032542537952,1.4136174636172374,0.17998109624463546,0.03939331533199104,1.316465831365293,-0.029118917514026937,0.5729623733818856,1.3125714339604646,0.4163047237399428,-0.04878077188969234,1.169518836112057,0.10033991914288667,0.4251740361069269,1.4794499671758272,0.3545424278459612,0.18158622774966532,1.2790372858732257
0.08721903265915955,0.17143482757367515,1.415575458159035,0.19057963463630956,1.4059110430930848,0.8223581697648078,0.06433266675402952,0.25741994407255664,0.07921158625204086,0.14228867821829808,0.9964840096028819,0.9073890348206503,0.2302168253372125,0.3848226044205376,0.44046988008246646,0.08045825390765217,0.5783184421260761,0.9339170225201402,0.16962350783048202,0.4188025614136451,0.8560068743601142,-0.037071659886626994,0.2966809774021604,1.4182424713129693,0.17296013884990688,0.03040656458888201,1.3171715131051995,-0.02507839174155494,0.5632100475418856,1.3138780813538662,0.40707081207216755,-0.05074901654470409,1.1628246711795387,0.10385343585460009,0.418494564719731,1.4838219450581491,0.34679237658918294,0.17618567076388847,1.280049537201636
0.08569309319472375,0.1639296981478392,1.4218659855854778,0.17434663042611076,1.378634822365663,0.758477413554856,0.0639971139296311,0.25526227780484656,0.07976909111882317,0.14544755480278815,0.9837309412202249,0.9013403707673255,0.22816313509740618,0.3734664635237066,0.44492691571574966,0.08062414668784194,0.5666660240292767,0.9366390259296303,0.16745171787418509,0.40496040059486055,0.8606458636076947,-0.0360993819100883,0.2905353561380373,1.4252560450268754,0.1680589768025686,0.022929611259768525,1.3200831956370975,-0.021608744776090635,0.5552607420996419,1.3167040113015192,0.39815464787880006,-0.04910693157421282,1.1555047303041424,0.10693069020358627,0.4130908467177781,1.4890900316436662,0.33951540938261165,0.17283075850025642,1.282718614129533
0.08362666928962754,0.15569058511407402,1.4296792265973168,0.15678342238115034,1.3338170676079162,0.6891356842536016,0.06405678471707149,0.25332609071453616,0.0803344569240031,0.15031208009101307,0.9670263130342568,0.895581368801827,0.2246011832857165,0.36296556027355126,0.4497412020395016,0.08028196877943622,0.5517295450622882,0.940498495658706,0.1656324866329986,0.38850227592748854,0.8661125413477853,-0.03435725816231792,0.2862092801914281,1.433741741861752,0.16331298372799558,0.015071151687636836,1.3250703434130555,-0.018896511489975593,0.5488937569223035,1.3204673953214099,0.38881237746836117,-0.04540980514446389,1.1498355905022661,0.10991798513705123,0.4091918740000334,1.4946533341157693,0.3330429833163686,0.1710058208179583,1.2874126787612037
0.08210772594741997,0.14773582091148366,1.438166237158262,0.14143346152122743,1.275938185251601,0.623514332072281,0.06428578215419273,0.25098175165555053,0.08068037509926665,0.15661500105694282,0.9491202985135042,0.8883704593874895,0.2196137745516475,0.35228747981583886,0.45467668245667275,0.07829275349163264,0.5366928398768243,0.944613945102388,0.16307151916264906,0.3725158860646898,0.8716752800609225,-0.03352420647541193,0.2824396789577478,1.4428944533617416,0.15795167483838288,0.008194139851750775,1.3312450289338882,-0.016949932145421214,0.5430371819759741,1.32506361603924,0.37817256997529924,-0.04116806426688002,1.1460912458724033,0.11375828855411478,0.40628546315001735,1.5001619074385013,0.3275147326276458,0.17011515073490485,1.2933035303560834
0.08277837265882869,0.14157931748743988,1.4463818942063336,0.1292093725263509,1.2126557135107823,0.564975471234125,0.06411954581914975,0.2486202507490234,0.08085952353221083,0.16504880590018114,0.9317516998100653,0.8764228869329143,0.21336822902276156,0.3413793767258749,0.45951560655589224,0.07498817478309383,0.5240129087490591,0.9473710150219266,0.15923205104008917,0.3584525854401093,0.87697080535259,-0.03292807425653022,0.2802004534546431,1.451806163887229,0.1532014500866877,0.002593738581898953,1.3374632150065544,-0.01521569458667885,0.538301892590271,1.3287433799891355,0.36779428701360256,-0.036170021154149704,1.143390600684721,0.11750458438947603,0.4049934027204545,1.5049913054730355,0.3229944004772503,0.17028568581583248,1.2991137304494913
0.0840011963305263,0.13760438893726312,1.4544403955293757,0.11916282051232062,1.1475782329686048,0.5134505321639616,0.06357232021475731,0.246761366484292,0.08092964484230533,0.17468790280921362,0.9138719144182667,0.8591209935432389,0.20673361353241604,0.3313172942296731,0.46382974420206285,0.07230872459822732,0.5127469792619067,0.9486221945339496,0.15598463387305128,0.34541006882522796,0.8818282717595096,-0.03161344943162698,0.2793060095412865,1.4602625589855736,0.1488458133896689,-0.001912785701629463,1.3439337270615197,-0.013780064256730847,0.534851175047454,1.3319840472261495,0.35742102788982405,-0.030716593516708145,1.1417399354120683,0.12120039939927861,0.40450941259492795,1.5087398283403648,0.32020674293406476,0.1713299079905401,1.3050409120977784
0.08448075417132152,0.13513903146119624,1.462636988108542,0.11025198690924795,1.0838327185752372,0.468019840124499,0.06304645167501574,0.24573182298123686,0.08087697924587445,0.1823505779285576,0.8949379537944977,0.8372287849384538,0.20075610561708682,0.3228914948483293,0.4673310734340976,0.070438259791664,0.5018791280478984,0.9484487536741517,0.15320366055431645,0.3324924758685518,0.8858294938647301,-0.02995340828927928,0.2798672672164008,1.4681736744531124,0.14546269167143588,-0.004746591335203617,1.351232425964271,-0.01138840295393605,0.5328644297526621,1.335065552708551,0.3473171043283004,-0.026519117786107996,1.1414700396409723,0.12506202707406602,0.40506229770854557,1.5125293168650609,0.31987715988976423,0.17106244898002082,1.3120197831717528
0.08527820314992327,0.13357745245669997,1.4704762705231602,0.10163280935213805,1.0232880319772548,0.4276139264170721,0.06302807718879572,0.24478135349385133,0.08071974107886583,0.18820776326254585,0.8739195076904274,0.811525865726029,0.19594451141712213,0.31575752993095896,0.4700227085201229,0.06850005362154118,0.49100393070676207,0.9473089358297175,0.14977251327741428,0.31944951497955537,0.8887684539696383,-0.028291446672920297,0.28151379156649936,1.4751880807906004,0.14322886403853852,-0.005864410519785478,1.3587233396229281,-0.008790024198308183,0.5316228372839386,1.3368474680944535,0.3377678450009719,-0.02198331844664074,1.1416631165868985,0.12874344048417083,0.4066250676250675,1.5154721454724205,0.3201361293572555,0.17020502386361677,1.3195054135511808
0.08630643636584914,0.13384538279967556,1.477385032834608,0.09336803022691227,0.9664766140338279,0.39193130555449424,0.06288983111414086,0.24390382768879282,0.0802093833621817,0.19415976282502614,0.8508522749358441,0.7839340889521131,0.1914793883274006,0.3097735933796874,0.4718632444712178,0.06648043917039775,0.4806344685476639,0.9452731197433559,0.14601538904410866,0.306974057678757,0.8906905470798374,-0.02616269728323824,0.28368719564287653,1.4808802007631905,0.14055928977952337,-0.0060028672735514335,1.3653598124161743,-0.007046249370852944,0.530906934863051,1.3373930380916708,0.32907165087901835,-0.016848036641004486,1.1427359688172425,0.13225329550675977,0.40875777420003956,1.5166234627777195,0.31916183406204385,0.17066163824881248,1.3260832627663608
0.08785495736926834,0.13595894772149675,1.4829835471996502,0.08758445831042685,0.9141216450872959,0.3606257493915941,0.06258392691019006,0.24347095714963807,0.07984983541145026,0.200181818691055,0.8266980135479243,0.7566968835450741,0.18750916183043098,0.3042213918642232,0.4735053134907934,0.06412907698744748,0.4713861613561103,0.9427848603185209,0.14250646245369486,0.29595972620239264,0.8923164615453945,-0.023200703895624186,0.2869649512659126,1.4850211707299,0.13775925970573868,-0.005200196621337064,1.370770884113045,-0.004439375392440174,0.5311827492853461,1.33643304877383,0.32191110021235336,-0.01244838010396653,1.144390275422108,0.13578198183311938,0.4118072769190537,1.5168044445071474,0.31750199092776715,0.17142633440603036,1.331599748102075
0.09051814991552339,0.13799679689571742,1.487576433779478,0.08427352912936299,0.8667914050384622,0.33216944170721757,0.062834975582154,0.24306323627590312,0.07998157250747048,0.20468457217415553,0.8023820876959658,0.7303461846842898,0.18465150190887966,0.29817785855770274,0.47543775867039734,0.06180596062441575,0.4631673348119242,0.9398839573406655,0.13965116989344353,0.2862150118739198,0.8941615580016634,-0.021173884225598887,0.29169002040293057,1.4884706718454803,0.13624970787757593,-0.0033896434185418114,1.3757105924975541,-0.002429564789500789,0.531872726486708,1.333432595360693,0.31594064236653047,-0.008372037538835397,1.1457127094404425,0.13832528495743737,0.41629097778887447,1.5158516490979288,0.3173572165120449,0.17234931949271265,1.3360130448655798
0.09298628245885891,0.14086814642288303,1.491781925170966,0.08171901685967423,0.8239463248701789,0.3058271936205684,0.06307957805296713,0.24228470089668666,0.08009198421080353,0.2066455087020182,0.7784575562665048,0.705230405450103,0.18220323867936702,0.2916128035157412,0.47713012145084965,0.06007194754628179,0.4553932920619458,0.9366185302342673,0.13786914893295077,0.27721129025514957,0.895851014600648,-0.020244973884753756,0.29734131097945865,1.4917785857355081,0.13584735643904416,-0.001053849127915636,1.381148521105868,-0.0023012032216601485,0.5326745595936412,1.3293913820860037,0.3099192927802108,-0.004428353543532656,1.1468378420859133,0.13993366207050764,0.4222928407514486,1.51387926683161,0.31818752872838024,0.17380887855444047,1.3393004470224683
0.09471741852122184,0.14505927088620424,1.4960276608259435,0.07905477617809649,0.7857180456727483,0.2818344732179019,0.06292468340813683,0.24136891319848086,0.08033650372916,0.2068820278257106,0.7548789045209595,0.6817132392531174,0.1796630011990509,0.2855750576452053,0.47867799613546963,0.05892492253740768,0.4479716120464866,0.9333190274194477,0.1362581823358026,0.2685555769640949,0.8973907387466673,-0.01880326062756429,0.3027103681179974,1.4940714236463097,0.13579142324497526,0.002456352209861406,1.386323948802534,-0.0018840506937070768,0.5337226160531319,1.3254926871698918,0.3052666835189619,-0.0007061087032457844,1.1486649391268178,0.14188900583922423,0.4275342464578909,1.511229620676822,0.31862669084818884,0.17606400601928238,1.342184756729478
0.09623269997730757,0.14985678815528727,1.5004908548898195,0.07684021029299502,0.7521409688060496,0.2596649600141647,0.06300061027880377,0.2405705393125133,0.08095230127714455,0.20551177961750702,0.7319633407495809,0.6599520352530586,0.17712436981789909,0.28108626855358493,0.4804456834308598,0.0581163228100681,0.4413526933113073,0.9305307000118244,0.13426838645416944,0.2605901350856737,0.8990626200776365,-0.016156858991445186,0.308418622858636,1.4959787467986516,0.13588753209006627,0.006393174729575908,1.3912154985281697,-0.0008240350889397315,0.5348204901311423,1.321103667100532,0.3018745992095862,0.003402662663533474,1.151093900876117,0.14440557153238598,0.4326766668275414,1.5079849624469719,0.3195444199600921,0.17884891871469893,1.3454729171978428
0.09802989885424948,0.15491781935830562,1.5045897648428506,0.07566018122064597,0.7220278468034791,0.23902522603795623,0.06320451219687334,0.24001832850787969,0.08153424455103077,0.2021427988572581,0.7106067253382111,0.6403543641916983,0.17455897285100386,0.2776614821592631,0.4820950346714057,0.057771565180076374,0.4357327200175457,0.9284455297311978,0.13277166725308603,0.25389804194608573,0.9006412733827296,-0.013346493748002479,0.3143760059309862,1.4982937879139555,0.1369386934456142,0.010376082494908033,1.3966060080424938,0.00013992764318610182,0.5350875926195217,1.316140278642689,0.29967456799642395,0.0077435903012534,1.154275192754428,0.14690554575622347,0.4391173023838793,1.5050762235932302,0.32099913954311116,0.18278690562469777,1.3486512606398753
0.10036518989364152,0.16055943680804294,1.5081471372439237,0.07504844674441684,0.69483092950201,0.22024836741082104,0.06331883838292524,0.23984768765113237,0.08207023514598535,0.19796181538726662,0.6900381107950805,0.6228099288270585,0.17203416390251342,0.27422576488189576,0.48364666029633885,0.058142593427099286,0.4309814563343785,0.9273332361474308,0.13241971159996815,0.2484419330515529,0.9022810682021264,-0.011275042997707135,0.3204054501592153,1.4999448963964994,0.13861970950530433,0.015291453994967301,1.4024217670427317,0.0007839259008385837,0.5358417019575124,1.311496331591613,0.29846582477218,0.011841144832247434,1.1581894558057446,0.148578425895388,0.4457737454177894,1.50252255325871,0.32189772314547827,0.18822539102732053,1.3511096887313871
0.10301457543392334,0.1673353712508898,1.5114285003709735,0.07429218529437362,0.6716004524813246,0.20318333613700065,0.06349216310811598,0.23952479070260374,0.08245281265535168,0.19314282559046814,0.6701675150634274,0.6069949565393595,0.169272715381344,0.2707823656734909,0.4850621130118574,0.05885591434080295,0.42692490270924954,0.9266718854110972,0.13262388563043326,0.2438911088285996,0.9039041749816396,-0.01020389723993425,0.32709137834837304,1.500258773912045,0.1399622574968625,0.021013017507162376,1.4082735644750195,5.605359537622222e-05,0.5377474908249679,1.3063802511769038,0.2965774908507567,0.016091004658106974,1.1619815815757264,0.14867362543126278,0.4528755925455321,1.4991355676679825,0.3225768127317689,0.19361725833152094,1.3535218952571029
0.10599409130322698,0.17454591511681225,1.51442783294494,0.07370191037103531,0.6526171115410236,0.1878442998991104,0.06370790824021608,0.23872905789668855,0.08267641711568696,0.18756199186687278,0.6524141250314404,0.5930968167327855,0.16617330298732833,0.268215693146937,0.4862887774316455,0.05939957299596264,0.42315615772926574,0.9253676767440934,0.1335146904786851,0.23993019359975515,0.9053609818946736,-0.009473105408523563,0.3334513914841204,1.500137842196696,0.14172988036863785,0.026625124285600755,1.414151029321298,-0.0019450328806270522,0.539236293739533,1.3009677786101732,0.29410103902786244,0.02114169672867833,1.165209307391775,0.14779446648064398,0.46038692088113775,1.495419177367273,0.3237722768595775,0.19906104455003926,1.3558399329902766
0.10905245594835446,0.18101231916731436,1.5176153015210367,0.07429651432024512,0.6367235314959929,0.1742000065764836,0.06353912859545303,0.2378995061442718,0.08290929301308718,0.1814179288176432,0.6374641424433543,0.5812881334336052,0.163350196293184,0.26598597688561154,0.4872769957911602,0.059715731442416944,0.41989009718832965,0.923695247795185,0.13501844160121318,0.23686078908273986,0.9066135405247651,-0.007733099722901724,0.3387521386045666,1.5003739568250232,0.1447497991995866,0.031868712291187005,1.4197114426768944,-0.003796254847321151,0.540141669592942,1.296664145685162,0.2930118267135653,0.027433088030511643,1.1682813282254303,0.14825531505966452,0.4685382616226274,1.4921127255788649,0.3257704172107564,0.20568121034337714,1.3581107588198336
0.11118568402888186,0.18772022087101115,1.5214126112382698,0.07543162610758736,0.6234471909738212,0.16211174325634872,0.06343824087466914,0.2370788351833912,0.08304320047160507,0.17473549067069902,0.6243248295745933,0.5711701413593803,0.16118637863654608,0.26365588518245414,0.48801130025356143,0.059338184388905056,0.41720523574549195,0.9221321355331775,0.13521973076760835,0.23420021922180653,0.9074857455951639,-0.005145669183898284,0.3445851205252742,1.5004973645736996,0.14802564453397996,0.038082951008872136,1.4250586183227538,-0.005141453159546821,0.54182972721824,1.2927294959051145,0.29333066253843787,0.03462479753832939,1.1718934251915205,0.14970703311375216,0.47677608825005885,1.4882735470997814,0.3273885523222384,0.21402350299808331,1.3603948644894799
0.11316535936367689,0.1957400808695718,1.5246963865135148,0.07616702025770208,0.6129262848306937,0.1514212561259117,0.06355282513074818,0.23638788500620042,0.08302462027084989,0.16738473490747627,0.6125502499135758,0.5623620032763442,0.15981851874095013,0.26221587659767764,0.4884011258129878,0.058112760320231674,0.4148074058222147,0.9206242511002256,0.13428154893261937,0.23178032994705863,0.9078278644650715,-0.003145202933922483,0.3516883432874277,1.499964265551905,0.15100167866559122,0.04487550614233267,1.4299571364660955,-0.00693833670551521,0.5443292112152347,1.287949378122035,0.29427114542410293,0.04259957880872172,1.175623802190714,0.15004951818712103,0.48514757922391777,1.483653611646776,0.3296724001943028,0.2226492263352373,1.3632524270390698
0.11546801391726252,0.2042436468492352,1.527476176023363,0.07643074641746805,0.6049220881427371,0.14232587848500425,0.06339272130825463,0.23615020450329582,0.08323710223401434,0.15954230093800648,0.6027086571057163,0.5549716520159137,0.15892654919465318,0.2618307338597002,0.4887963331911222,0.05668177956353235,0.4125690116214603,0.9191936121573402,0.13411827220232472,0.22996427388420193,0.9081568122239305,-0.002473618513066224,0.35961584336664204,1.4993834992684463,0.15470199107677293,0.0515589950478246,1.4345570412056863,-0.008744266609315036,0.5466516547774916,1.2824710991326156,0.2957749674739452,0.05150698826240499,1.1789895202160523,0.1491122242631822,0.4935242564959691,1.479218378633816,0.332714707192292,0.23135698056689902,1.366512041054864
0.11813312346660819,0.21270341395613865,1.5297375675213114,0.07587409663659157,0.5990116079491845,0.1343897843818379,0.0632542715960529,0.2362769061449386,0.08350378877833517,0.15148079409504173,0.5949341608980205,0.5484665346324795,0.15833060216832143,0.26201555212653577,0.4891697263380661,0.05537027555670253,0.41073710093783794,0.9175617149049862,0.13427736310611516,0.22864936464702804,0.9084593138676383,-0.001985099567263149,0.3674972221119305,1.4989634792616773,0.15927742770957873,0.05870901708880237,1.4397872852838745,-0.010443693617636685,0.5483671130868677,1.2769668905787794,0.29740368244288257,0.060716052872150955,1.1826155339026396,0.14781209197808695,0.5021108126510844,1.4751080971689055,0.3350315371562938,0.24119241418863513,1.3694035910899227
0.12101967641223575,0.221740787443787,1.5312856639874326,0.07439843282226315,0.5949657050420922,0.12729954874013016,0.06364716074223252,0.23654828140847084,0.08373373753302422,0.14360234191267113,0.5880864692728242,0.5424569875100568,0.15786168809381093,0.2627614922897952,0.4895636380386237,0.053471794658089045,0.40943285101337007,0.9157551383501774,0.1345051595810848,0.22819090512225051,0.908790764985799,-0.0018785608674447903,0.3740349052428999,1.498015447410417,0.16422337941950368,0.06696159909518522,1.4454905384892274,-0.011453874321788012,0.5498822845556879,1.2720606034845827,0.29916468624332593,0.07045197359356759,1.186657908185562,0.1473538988185588,0.511233404209131,1.4713941764220146,0.3371679553377721,0.2523781457836076,1.3719613264133748
0.1233093602054489,0.23158845621261648,1.5325983647678745,0.07266009443938956,0.5925340258387175,0.12112877166265805,0.06390289879501233,0.2366187345776355,0.08399787864123688,0.1361505799951509,0.5815184242610679,0.5371084847512695,0.15771722665208954,0.26364969689974127,0.48987490960411373,0.05135573492445357,0.40851339827633276,0.9142943571731739,0.13600787785605994,0.22887048395121284,0.9091691102713637,-0.0024160361944112188,0.3806152148974591,1.4966740459477783,0.1691055698598022,0.07613792721989997,1.4501770261821518,-0.012025940947121774,0.5525175905287631,1.2677001004256596,0.3014228225518186,0.08216405598859255,1.1900364499259994,0.14754725402505905,0.5209841497225814,1.4676704214231366,0.3397575924978477,0.265379519200738,1.3739934831926
0.12570484765188344,0.24169129471278586,1.533761382555586,0.07042777793229753,0.5907957243379991,0.11577319210071135,0.06379562660662957,0.2367236185463226,0.08409129929645087,0.12878881692525995,0.5755564460331491,0.5323699872867621,0.1581555186022307,0.26465957056326916,0.4897722528561924,0.049876431646260946,0.4080913943697458,0.913311783541502,0.13871169474817988,0.23044702684176369,0.9092283163208997,-0.0030923388855313458,0.38780508611375675,1.4948376964087542,0.1742998526150657,0.08535310235761877,1.453923910861731,-0.013228168336225438,0.5568303355290269,1.263755500285235,0.30412980868021083,0.09567679853654948,1.1926588219868755,0.14693188010370192,0.5309955897538859,1.4640859980122352,0.34239584065782985,0.27947907828245816,1.3760489254276451
0.12879979321119775,0.2519314784672269,1.5347180927350856,0.06728933213504631,0.5897423734338232,0.11080974923598999,0.0639113564105439,0.23712900582281887,0.08419454254506954,0.12060719210957069,0.5703569167731412,0.5279169166439382,0.15853433107572196,0.2662563800021834,0.4897365348216075,0.04897140574683075,0.4081701204184261,0.9125619419582557,0.1415670485800505,0.23244144271672337,0.9093338923688895,-0.003877307569244208,0.3947556716213085,1.4927583565267657,0.1792210705470949,0.09433970122138872,1.4573914124628344,-0.01398032866004983,0.5615597077683709,1.2600653571690996,0.3073263870264106,0.10958151015184375,1.1955304534283682,0.1454588381756663,0.5400539512246109,1.4614604222194758,0.34488761098585274,0.29337770939756674,1.3790688295731233
0.13217576667847303,0.262443713711307,1.5352984808714665,0.06429767671476759,0.5898727623826023,0.10628311725423484,0.0643521722503224,0.23737893504210303,0.08436589994901746,0.11281924624907441,0.5660674758982809,0.5237386547665204,0.15862069175971555,0.26846853149709093,0.4898428170667367,0.04802854959696451,0.40890291964971853,0.9116774950272373,0.14403648396851804,0.23500528723000716,0.90955950933316,-0.004565210155028008,0.4016973593967511,1.4915147666379618,0.1841834382034753,0.10406640182107241,1.4604922377372553,-0.014444523228818843,0.5655508566468239,1.2567149972311848,0.310939296675825,0.1234826600947086,1.1982434205285597,0.1442800981415164,0.5490062157871918,1.4591563880017584,0.34690891921420997,0.3069777115225613,1.3824004749458574
0.13488590707372497,0.2737137288063092,1.5358591333254341,0.06229758671348547,0.5903742625097813,0.10225424161728881,0.06476044518266608,0.2371251049244066,0.08427979360283525,0.10630693133758987,0.5624258516404396,0.5199543764056422,0.1585484984457159,0.2705230160143542,0.4896876857898681,0.04667053808174679,0.4104729932866699,0.910787210345994,0.14628429771659393,0.23860144886668735,0.9095968788029579,-0.004797675500788367,0.40919546430715303,1.4911070675366735,0.18977024517686766,0.1147673128414722,1.4633654305092247,-0.015656327877519857,0.569079577874664,1.2536306318794506,0.3148637405179625,0.13766735801229674,1.2006048947211398,0.14293865218976975,0.5592395709469522,1.4566055307338386,0.348158671567385,0.32098201062790677,1.385450928350418
0.13579440016294708,0.2855085801133438,1.5370278243733757,0.06040869216518265,0.5904705307235675,0.09883261852779654,0.06487933737985337,0.2368507204246795,0.08438932567996497,0.10026419990606017,0.5598913672130277,0.516763757374272,0.15857951882113025,0.27251569527545066,0.48961510641976425,0.04556215444252151,0.4124074421296087,0.9100208841313527,0.14859922570568945,0.24257060629421384,0.9097336943579958,-0.005503643378445311,0.4168072505418922,1.4903447841389421,0.19579584813155945,0.12636622040770976,1.4653957567740878,-0.017582066751570067,0.5735153347397535,1.250833080928487,0.3194098267083694,0.15345939823064794,1.2023326553418925,0.14070345774086973,0.5709510286126458,1.4542678061261356,0.34855680579132003,0.33573069230429625,1.3889085113270083
0.13589762460023255,0.29729357359284847,1.5385911040121043,0.0582721891339452,0.5906502434256046,0.096001307224669,0.06503272906617436,0.23721393870016147,0.08488950033410703,0.09519586715948247,0.5584276141822188,0.5140744996409383,0.15928918894434946,0.274930698069419,0.4898093720601471,0.04441227965084977,0.41496208241443727,0.9093323076050217,0.15015939119521413,0.2467951531307166,0.9100632159637331,-0.0076176552015285205,0.42487320658790817,1.488714006424647,0.20141437283707325,0.13878379251056253,1.4671931993551965,-0.020031727658265584,0.5793746576548402,1.2477936992018728,0.32366967162784027,0.16923959362847532,1.2038561468472535,0.13779527007747058,0.5821297427360701,1.4515734106955853,0.3495493187266231,0.3496446299505604,1.392698400154623
0.13661610621302797,0.3090901673328226,1.5401812868260807,0.05677763178503821,0.5909365138317215,0.09357071891201915,0.06558919081074768,0.23745202527231554,0.08563423089554867,0.0911751818265576,0.5577162935779144,0.5117833870813285,0.1601586110108313,0.2779862888381828,0.49021112003933115,0.043250273216653236,0.4184867060513567,0.9089109302722979,0.15087593036052027,0.25151812816534824,0.9105767352057097,-0.010178488318685688,0.43407479370341906,1.4870318148961001,0.2059563921765916,0.1517100871421117,1.4694957124377257,-0.02315789635030598,0.5852861670818092,1.2440490970554967,0.3282923313558242,0.18426277533457158,1.2064574627709947,0.13426896313806183,0.5919051702303307,1.4480519238079765,0.35108281425687926,0.36356689222981897,1.3967359744127668
0.1379351777979286,0.32130552146756347,1.5411031421727122,0.05576571051848123,0.5909238852378489,0.09155609492849068,0.0658199523981433,0.23741749642840607,0.08645340799968129,0.08777507054315567,0.557586570382983,0.5099587068112832,0.1608696438292106,0.28156254478676396,0.4905244120722636,0.04261165861846116,0.42250172211762266,0.9088287387473724,0.15195879700191395,0.2566639048101171,0.9109984931961231,-0.01173995360929353,0.4427097051127604,1.486076011594845,0.20997057537111924,0.1648511543556212,1.4717295418501355,-0.026174090996141958,0.5908908647723758,1.241312263668595,0.33472435769076325,0.20039183921066106,1.2102109183976326,0.13082417955932926,0.6024905432042263,1.4454324125286575,0.3500611264037225,0.38025015013149976,1.4007208973020948
0.13886405006938934,0.33391059184031757,1.5417873738774373,0.05435043135044659,0.5913077844135749,0.09014818649674444,0.06592442795667328,0.23791174375910482,0.08730761442602987,0.08507659307414589,0.5577293386272941,0.5086277363628523,0.1619422879848326,0.2855125250022108,0.4907618200479268,0.041877311033349573,0.4270427904974879,0.9091796063728089,0.15316910962679042,0.26250359874436985,0.911348476309995,-0.012431144237916239,0.4504635834678005,1.4857724973550372,0.21440126937588255,0.17808678597566774,1.473834743840712,-0.028512306304750372,0.5964283902305778,1.2397848982841801,0.3408268334618061,0.21864971226351082,1.2138570915381426,0.12786440652091174,0.6141886331602677,1.443944111216302,0.34738619563540996,0.3989396143176388,1.4044591197484766
0.13941140153833864,0.34706287161028204,1.5422386984786802,0.05341738058483477,0.5918619009901307,0.08908707926433902,0.06658923920531747,0.23877382726414806,0.0884911834875867,0.08285669069808733,0.5584017827532811,0.5076620732867535,0.16333885919697275,0.2902506537528262,0.4912963549800541,0.04060612766543202,0.4318276978940353,0.9096412058910124,0.1539170065663386,0.26867469885750117,0.9119398346540022,-0.013384502085652053,0.45845470935061977,1.4857537431519663,0.21858706379608525,0.19136573661638967,1.4756607469192744,-0.031002275075018553,0.6019388809675904,1.2384225976834058,0.3458577178012503,0.23667458156677668,1.2168844428684324,0.12484462458625897,0.6258808195538113,1.442352208646822,0.34579018689198865,0.4173168280075159,1.4072743141510242
0.1400309177898912,0.3613155556666364,1.5418820680441956,0.05407528525939148,0.5917326102626174,0.08803791506124113,0.06765384200675599,0.23946626470956742,0.0899373002057879,0.08098108549999408,0.559504617564793,0.5068818433151249,0.16559254606208018,0.295452350326829,0.49185516662817624,0.039224618028680686,0.43626067206447056,0.9099435061395358,0.15470181230623645,0.27464018132146883,0.9124949782153836,-0.014493741264843,0.4673320952901248,1.4855772929771773,0.22207831051396668,0.20503529498860157,1.4778099217836047,-0.03285958751412824,0.6083443763874036,1.236882532399573,0.35015806903726204,0.25326410567066393,1.2199701063948822,0.12213875295509927,0.6379194693777192,1.440721605679011,0.34453619467201163,0.4352457668721357,1.408987690874224
0.14118005183353766,0.3756668407497101,1.5411754100815713,0.05526379414296248,0.5907993428905228,0.0872444661325539,0.06875278146099532,0.23991075680159757,0.09135990021150663,0.07984163879679841,0.5608358369369207,0.5063981814654104,0.1685303917886667,0.30031110736423944,0.49218284816559804,0.03803048986648208,0.4402601945780116,0.910257068671058,0.1558797947723531,0.28034889874264274,0.9128236001451268,-0.015897833646786423,0.4771383269660165,1.4854522709022058,0.2250764710481502,0.21850732149960087,1.4802911180524023,-0.034699094338107264,0.6160504921448458,1.2356187643127385,0.3537972744785799,0.2693307415097219,1.2232639784263633,0.1194103074107638,0.6504387924032512,1.4393638260858335,0.34366131074018813,0.4530048370088804,1.4104430879076761
0.14122104608875596,0.38855502918380486,1.5410804527604558,0.0554018436947255,0.5902652969220094,0.08688369765780367,0.06952063775035638,0.240478072310499,0.09276080936718878,0.07894671541724647,0.5623595807855413,0.5062367433454721,0.1718488394219596,0.3043808607410672,0.4923908969460728,0.03694236821857555,0.4439993371541162,0.9107289931515961,0.15701451605207314,0.28575393641788877,0.9130228766361248,-0.017801964811287572,0.487625947871102,1.485378080940972,0.22800645368654152,0.23148479867827282,1.4819640318313536,-0.037454284895823496,0.6247296532764856,1.2345998050358413,0.3564353318977765,0.28585300641003053,1.2255183215037486,0.11599728456856088,0.6622601429569036,1.4382875485712394,0.3424180913584443,0.4700386644552789,1.411946442845591
0.13969561935476185,0.39966323270647863,1.5419483411117703,0.0550619317171565,0.590652080267456,0.08660377551725958,0.0705243480728561,0.24090938615447607,0.09422638912828016,0.07739396679183697,0.5634856000851983,0.506080285047385,0.17568950455771723,0.30816861171529036,0.49257664017184843,0.03566738951226042,0.4479958094287349,0.9114329423197817,0.15781687301694652,0.291345797829681,0.9131556959888497,-0.019385691748093747,0.4979220151523247,1.4849768239230647,0.23070351356928248,0.24441797338673937,1.4830024176767673,-0.041447084961260726,0.6334978864016259,1.2335682337683391,0.3581263728482017,0.3018221218959229,1.2267158375689298,0.11179526946214824,0.6724657823192817,1.4371583916601847,0.34064994434610507,0.485607757633586,1.4132547412686487
0.138405390303545,0.41066582330660567,1.5424436934139367,0.055089244301977966,0.5908032864146698,0.08617435521013345,0.07175280990127099,0.24120912190382846,0.09619169720561345,0.07552782427146496,0.5643650676986797,0.5057853212812378,0.18016925399394565,0.3124421908672272,0.4929731377646809,0.033577474720158124,0.45253411082870737,0.9121492169471227,0.1576601065387832,0.29741353252473846,0.9134075019589893,-0.020182935065244236,0.5073657671657449,1.4838775053245663,0.23219093049012987,0.2573464952994515,1.4841355636082474,-0.04643230250685438,0.6425945171284583,1.232683271474465,0.3597276804626571,0.3162737895542215,1.228254259527322,0.10779999222524159,0.6813911022197401,1.4355556688947158,0.33944045646550797,0.49979154382121044,1.4147608224003454
0.13726805900946726,0.4218436690359926,1.5422315509197944,0.055140521823039905,0.590719525737935,0.08564305375965182,0.07296183735265986,0.24164808115137126,0.09843678250322191,0.07397806159363995,0.5659376428250584,0.5054319165691299,0.18521800360976076,0.316884689896269,0.4934079557833828,0.031172390347437295,0.45712379356825805,0.9125187514817946,0.15672541718399757,0.30317829105492355,0.913520336285473,-0.020695695268439653,0.5152656923037527,1.4822396866413632,0.232439944901815,0.2693323702491158,1.4851141457319688,-0.05059601625022724,0.6513235527583573,1.2319072940246132,0.3614012943736595,0.3307023571379643,1.2305250401358032,0.10524031779876811,0.6903658411013234,1.4335017640941987,0.33760401569530446,0.5142015367441956,1.4166289520189326
0.1359946246579022,0.43249355795242866,1.5422029170051024,0.05482546691494094,0.5909235751335741,0.08519141273133811,0.074595166737464,0.24186984510563142,0.10049678862513312,0.07297650833246334,0.5682172783339022,0.5051232750055326,0.190340040743935,0.3207466367703428,0.49374495677587427,0.029663275605262295,0.4610970910208638,0.9126072193012525,0.1561400247287512,0.30790264095439696,0.9134550408372568,-0.02186660295605165,0.5226285047762947,1.4809079853893954,0.23228674287316764,0.2798508300831161,1.4862459473892693,-0.05060109094163862,0.6577645116087413,1.229932634437102,0.36229623311490344,0.3447193932486016,1.2330518797441243,0.10404676528914479,0.6990964554843399,1.4319841874832149,0.3351102428374282,0.5286111825232298,1.418314385917817
0.13511328504157172,0.44256380515615584,1.5424468602147021,0.05413156720403001,0.591383645341224,0.08499154637867637,0.0765519786664555,0.24237612377150214,0.10228679135697415,0.07265923790491968,0.5700153688841788,0.5049838166155183,0.19444823969367594,0.3240086312807017,0.49432900753660575,0.028777103082332077,0.46455468894935503,0.9128418003214034,0.15602036028535177,0.3120046680699747,0.9137013592637865,-0.023449230287941526,0.5301128542595234,1.4802265453612222,0.23172698948016862,0.28929767071609946,1.4877145883772707,-0.04887338410443915,0.6626016527956128,1.22749587103722,0.36197627496350776,0.35723515394334393,1.2354555387828268,0.10286248869038182,0.7073212077556693,1.4310303303967804,0.3324070121580913,0.5415970553974747,1.4198855872061988
0.13381541577097916,0.45184755537408317,1.5423326137284197,0.053533266504964205,0.5921147578063052,0.08520738317183275,0.07818915185394348,0.24320922100594458,0.10387258737511575,0.07254199490180625,0.5709622085279183,0.5051911992930816,0.19784676215426977,0.3269454069451919,0.4949342672960667,0.02823042267020797,0.46766190329341834,0.9135420681517245,0.15615685578552155,0.3156850346253473,0.9140164107151988,-0.02383781685480935,0.537232992666231,1.4796549600973843,0.23180030555121123,0.29792762264749995,1.4887793760915102,-0.050528979101695445,0.667561892522389,1.2259337928757108,0.36151291688950155,0.36924416198915133,1.2371661705195722,0.10060552557538847,0.7155829383864355,1.4291560372062124,0.32939352315098513,0.5534503568857116,1.4213208639635435
0.13202299730389608,0.4596128705143838,1.5418210964642942,0.053465095214431296,0.5924613074618169,0.08526282336136162,0.079141278464298,0.24365817619782174,0.10507880066600649,0.07286641921671647,0.5724232325545366,0.5052769987475874,0.20086426901332546,0.32964259637146004,0.4950222861010858,0.027554744872692525,0.47016273857209223,0.9137937618382576,0.15603556910443728,0.31864906889025074,0.9137862683889073,-0.02380420523498885,0.5437537573655641,1.4784362840182281,0.2322706097613781,0.3057165403196213,1.4891621289256651,-0.05361590017977743,0.6725890350184484,1.2243047242958855,0.3613890437498536,0.3809219579719782,1.2383815644351168,0.09813009144974273,0.7234612813995877,1.4263717677288101,0.32650148462551687,0.5645647436529564,1.4226032661710981
0.12994346024171902,0.466145225947164,1.5406937838598598,0.05389350075381117,0.5923233062950662,0.0849223918271026,0.07953527814975486,0.24387014862554215,0.1056468029172755,0.07340967076139047,0.5743425313549432,0.5050302614450237,0.20264008655640642,0.33206830526668224,0.49466360463642306,0.026534882500755582,0.4721074892487391,0.9133653383358259,0.1557270998066676,0.3212027369707313,0.9131968134044541,-0.02510150879798919,0.549253580530166,1.4769205984509517,0.23189396059189843,0.3129216399718136,1.4894400498988962,-0.053856599465020485,0.6770734230591015,1.2221384539841138,0.36158965970989454,0.39111221408427077,1.2398739412400022,0.09736389769013805,0.7298267870108539,1.4241257828143892,0.323856792900701,0.5740248172186235,1.4242571675483089
0.12781559151342162,0.4715603283256766,1.5392085538216889,0.053937215385963314,0.5923388689988835,0.08425268319881418,0.07948289159572329,0.24364784949804397,0.10527932974977952,0.07373947408500685,0.5764867205990957,0.5044366910667231,0.2024793522287209,0.33374816260567963,0.493889536872097,0.025783750039359718,0.4738678822295142,0.9125503664028788,0.15545341716202757,0.3233786841283108,0.9124329528669741,-0.02748567021086202,0.5534610690759756,1.4749661758689445,0.2304105628577266,0.31840217325284925,1.4900659860523546,-0.05250390767480319,0.6804096072072473,1.2193745312185968,0.361890603976552,0.39903946669517243,1.2422221754189287,0.09698032773914222,0.7348346410818107,1.422204353576851,0.32079818200205085,0.581835189016058,1.4260000584838564
0.1262739636223469,0.4757304405376225,1.5378061208741258,0.05395806400362384,0.592653897094188,0.08334722366944104,0.07882898522777972,0.24319713073926566,0.10405675309697214,0.07429132838998058,0.5791375136255376,0.5035852846833349,0.20063874682200886,0.3344175755725132,0.49277677666595365,0.02569578495746047,0.4756364708192263,0.9114068097266548,0.15530681046692071,0.3250863258775061,0.9115249621043858,-0.030437628416147496,0.55669930741576,1.4728553079188167,0.2287224005159612,0.3219603355204429,1.4911567616530899,-0.05050764629897887,0.6813931729998781,1.2157193573357161,0.3615350243268309,0.40543849269783466,1.2449687405982126,0.09590097860137035,0.7386639005585887,1.419999552372545,0.3174591631214642,0.588744340835846,1.4275398946119688
0.1247273425282576,0.47863477006563326,1.5365910341136075,0.053767901087251324,0.5925764912691374,0.08261566183361527,0.0776237031543361,0.2424429478049666,0.10227039165269672,0.07551015486571468,0.5817835176173781,0.5028538394093585,0.19744888417247522,0.33403830274025215,0.4915152951820457,0.025585693292530635,0.47683822083188454,0.9101472114430305,0.155346404302308,0.32642281895400294,0.9106399152020977,-0.03347061937498152,0.5586092281070953,1.4709949147159804,0.22791447537487672,0.32489258772198265,1.4918384390878912,-0.04911015667531547,0.6805447510710161,1.2122260866363617,0.36187704318348907,0.41147591152715174,1.2473494813090558,0.09467325420814666,0.7407082437997956,1.4175368640940742,0.3141256036298182,0.5946476075801047,1.4291399560877773
0.12250335442216759,0.48021471446856595,1.5355851528074607,0.05312337832037106,0.5918190717507397,0.08241636396009222,0.07618172408984554,0.2414223078249279,0.10001016514009782,0.07718023432922397,0.5837807785149427,0.5025936953226173,0.19270382946467385,0.3327995838968755,0.4903118476462457,0.0252244692964023,0.47720195369926166,0.9092029346476034,0.1552310368899816,0.3269997332538302,0.9098976665341084,-0.036289803335915194,0.5587819318482565,1.4692758581315488,0.22793494910404094,0.3269417637837181,1.4915359508686257,-0.048463548241166214,0.6788707659879267,1.2094631532874058,0.36309034031091014,0.41655592528472263,1.2488041507625256,0.09342480978214517,0.7411370219290626,1.4154687709058442,0.3109538685917097,0.5986072087257936,1.4305026468375446
0.12031735065575078,0.47978360167284695,1.5351610281353363,0.053175356762987125,0.5917847741061123,0.08210160094224399,0.07484863518461479,0.24020111520456816,0.09752742737845684,0.0791509872172612,0.5847157343963265,0.5021853806324217,0.18724755899127243,0.3308472471295145,0.48920329205842433,0.0256298602982675,0.47707843630044905,0.908311067863103,0.15494172871763298,0.3262740221163156,0.9092454778800781,-0.03862219209285535,0.5583931169698584,1.4677428701329414,0.2278208634544253,0.3273897200078599,1.4907153415136631,-0.04858895092939306,0.6762899959687897,1.206837301712226,0.3640436394251069,0.420058943426821,1.249726017580921,0.09188220499820512,0.7398722813937237,1.4134106754290061,0.3082696855835929,0.6004849126326358,1.4319829097679464
0.11826251728972235,0.47777480323724286,1.5348164735222354,0.053895306680326986,0.5925756292775175,0.08168241145672278,0.07373922037676536,0.23935255896357716,0.09490569978885242,0.0812346937003768,0.5846625022893697,0.5016544907765599,0.18198996666069714,0.3276650935655848,0.4882857271109238,0.02672592732605386,0.47608542285039646,0.9074040855463585,0.15536924808839134,0.32472351941240396,0.9087381936682039,-0.03996282107428088,0.5566573919088119,1.4663403805803985,0.22734149833024164,0.326555681816657,1.4905217098125063,-0.05015120084494652,0.6725441042848359,1.204536569227763,0.3644703088583246,0.42135219924552153,1.250886948318731,0.0899431569797896,0.7375979573194609,1.4109053890347687,0.30551872972382804,0.6005753169553552,1.4333154338380416
0.11658390487798129,0.4750496983606047,1.5346487277548477,0.05400193394503132,0.5929814010471539,0.08167728090556953,0.07229399485528183,0.23956703199887436,0.09225659273963205,0.08264209591808673,0.5838851273919228,0.5015495522386021,0.17673972598179127,0.3236133696758797,0.48759904036270274,0.02784654399681819,0.4740642502750402,0.9069230753412234,0.15640769659455125,0.3226235566131972,0.9084070745806135,-0.04081239378608081,0.5532654958195884,1.4651439721109782,0.22776226775069677,0.3237905604919601,1.490648407662811,-0.05170888372807312,0.6672053191249782,1.2025186532868015,0.36468574270183496,0.4207991270064255,1.251782520667409,0.0875889367628864,0.7338656445416756,1.408919168602654,0.3026642487380272,0.5996230876417559,1.4335876448998877
0.11583373215728324,0.47075584369979373,1.535136825449613,0.05347197539206905,0.5929913466765367,0.0819875926110555,0.07052308710247383,0.24049224121618815,0.0899906054943989,0.08342811738327653,0.582575193322783,0.5017351367189099,0.17135323924712786,0.31924208192645853,0.48734876845255876,0.02891310948291792,0.4712844210488532,0.9067467307805348,0.1574445323911459,0.31983391460842175,0.9084272844863421,-0.041572881288158794,0.5487743038164036,1.4641566123371048,0.22905589541132204,0.3193111143502562,1.4905820047597231,-0.05253735650454474,0.6605693397726715,1.2006131441793384,0.3649746087444598,0.4185693358392699,1.252066031438655,0.08536123931552847,0.7280729754067543,1.4076782360945106,0.3000545726466815,0.597135448014309,1.4331063134302353
0.11515648872589647,0.46531471433981,1.5356659221604314,0.053096868246745664,0.5930298761983569,0.08235454642889051,0.06900205856535828,0.24094779399217314,0.08832923224501743,0.08379064641434217,0.5810323206198368,0.5020034928503352,0.16615548112267983,0.31470822394026915,0.4875557171736807,0.030027664230012647,0.4675659855933657,0.9065150882564424,0.15857833039836242,0.3161361628855646,0.9087873389047871,-0.04212966426112524,0.5425147273013047,1.464055636402737,0.22991226620018104,0.314220238383367,1.4906857710642631,-0.0529839839974753,0.6525695925853217,1.1997751597021247,0.3654988998836539,0.41420690955807754,1.2522883100968945,0.08331954198857856,0.7218519169803883,1.407311191957173,0.2981277326636161,0.5922727701594671,1.432920960639136
0.11408460636374967,0.45959855662647187,1.535844271817996,0.0530470465490545,0.5927604288762107,0.08250819166857905,0.0683280790730877,0.24010761860365756,0.08711584608469561,0.08355719924811068,0.5787512800808845,0.502109402545319,0.1613526404878206,0.30956305732277195,0.4881008904426118,0.03101077904629884,0.4628118280472899,0.9060759741542554,0.159692493302257,0.3114968023407607,0.909388900545919,-0.04272494397751121,0.5349378267282096,1.464480998889599,0.22941953762672251,0.3087768028152878,1.4913507179299463,-0.05335418295555945,0.6434986467614705,1.1995691015627874,0.3659875422915064,0.4077593926289058,1.2530935190093615,0.08158144077823383,0.7145451561397541,1.407400614694913,0.2971745784235895,0.5860153853374012,1.4330003152872652
0.1135140343483667,0.45349508666342375,1.53558262478955,0.0531665995557771,0.5922550759876882,0.08250758516431142,0.06853739760177854,0.23835169028870293,0.08601061353056216,0.08317185052226693,0.5760375886741216,0.5020656553300689,0.15681683564247295,0.30387254296684524,0.4887222675188189,0.03139645121197461,0.4573780282844441,0.9053451045782785,0.16055731049675048,0.30652089906539404,0.9099952270204,-0.04301115694214344,0.526687145611555,1.4646623789201738,0.22896531563501035,0.3029464043074282,1.4920354626640162,-0.053968617947167376,0.6343614902415065,1.199408832684781,0.36593567108280695,0.4004490477306013,1.2534019320108092,0.08081423987205225,0.7063609383306236,1.4070210040192372,0.29720518275960145,0.5791355564063371,1.432903735958168
0.11430019623722479,0.4460181440358067,1.5353743381817382,0.053272199657257636,0.5921701472646916,0.08282558354575195,0.06880225885811392,0.23651969814890533,0.08495206411901479,0.08331413047715035,0.5737296104349628,0.5022864417867278,0.15292055484303266,0.2980850646826987,0.4891827383554535,0.03141865759660721,0.4516215893607349,0.9045195212724502,0.16136365986183893,0.3014763102676004,0.9103787417981393,-0.043592326718147195,0.5182678175374898,1.4644818462549156,0.2293208600431735,0.2961567863532629,1.4921119582812805,-0.054546135558569,0.6256196486671125,1.1990940541848902,0.36583414586169083,0.392926733085066,1.2529068755204649,0.07936692678346485,0.6981854571253375,1.4070566807934073,0.29767611293080437,0.5715066917912718,1.4327364281668815
0.11499668680814966,0.437498929753235,1.5357326942370146,0.052970810687577446,0.5923015812892108,0.08370874622353129,0.06860087084306583,0.2351144571257552,0.08409535312549186,0.0840248995105205,0.5717720309090325,0.5030047653195489,0.1492574462646231,0.2927473245323687,0.48960940630282873,0.031417543650937914,0.44569302277338363,0.9039137329911693,0.16201936822704452,0.2961604203790386,0.9107006960651798,-0.044323366640436866,0.5097394754293749,1.464454534261801,0.22899375308184935,0.28820060604863845,1.4915252767675233,-0.05569597934425178,0.6172827850998482,1.1991627874820678,0.3660794676341149,0.38508184541723933,1.2526996431461375,0.07724048805816777,0.6899632094311708,1.40771761255846,0.2983862823374539,0.5637005537735967,1.4326668917961307
0.11487088976248638,0.42904498538230984,1.5359006866358773,0.05282952249069744,0.5921904140667896,0.08482660035517833,0.06802214651494701,0.23418213413728156,0.08339208843432204,0.08462862683258016,0.569994403917875,0.5039769173270918,0.1459883352539552,0.28796394402369124,0.4899494294544675,0.03132048862366182,0.43938976321531065,0.903352193006137,0.16246900028457958,0.29037838053337506,0.9109196943818066,-0.04475903496015109,0.5012265833267865,1.4649588223004704,0.2278627481383746,0.2799446111826459,1.4907224064561195,-0.05701609763975592,0.6101302098082565,1.2002660438486328,0.3662697573846716,0.3765560885397181,1.2525513017717969,0.07565521222061801,0.6824615332188371,1.4091147943097941,0.2993770258324843,0.5555154458115132,1.4324910113876959
0.11481400454629474,0.4208423956489645,1.5354986303251636,0.05322961762054505,0.5920382860453421,0.08600299693974928,0.06726463243198756,0.23367018155238986,0.08268340752369019,0.08516330389986586,0.5690286240597883,0.5050965395213527,0.1439111311705394,0.2834518387184054,0.49000293965522185,0.031185527767870702,0.4326380970595283,0.9024357044793008,0.16276674193834442,0.28405912205854283,0.9108790278900312,-0.045012811613609864,0.4920105434843487,1.4650192411179064,0.22745876088248934,0.27173935878055766,1.4898415958415299,-0.058436346809908765,0.6032837195624792,1.20137628069718,0.36626556890473405,0.368194395421881,1.2518300577412964,0.0733860407996222,0.6754611022370869,1.410800892482492,0.30039083805693073,0.5472158605401772,1.4320842692050382
0.11535480300705747,0.4123866714717481,1.535434513367036,0.05391023687767586,0.5918268054116819,0.08734792132542481,0.06659139244631017,0.23361704722073703,0.08211101003902403,0.08592558135925872,0.5686689400947411,0.5064316911350496,0.14273945144803743,0.27927647780263937,0.4900102176940115,0.031166744029252694,0.4259156441609969,0.9014151839834804,0.16325897155764446,0.2778370729838762,0.9108022785240467,-0.04518893568400257,0.4826247760189693,1.4647161517622647,0.22759144058378258,0.26306376323073793,1.4885736135893737,-0.060120347755022736,0.5961049604718665,1.2020881781770174,0.3662663371122257,0.3608648952078595,1.251034649303581,0.07030726443356042,0.6682595242004935,1.412393601991099,0.3016551093879631,0.539534008202133,1.4320962637384402
0.11564793235724986,0.40343870930947845,1.5356854775954303,0.054260523601422854,0.5923750649394189,0.0891130428155019,0.06600558905899652,0.2336190838573018,0.08173180583628006,0.08619154310629411,0.5687846021992143,0.5081811288397402,0.1417149128275063,0.27568746764165364,0.4900917259428273,0.03111094722427744,0.41978888607300807,0.9008129093552657,0.16323623682055308,0.2717781951219874,0.9108234489762154,-0.04533874220482451,0.473802674236078,1.4648191761842198,0.22801484921877815,0.2540288373317332,1.4869712501996046,-0.06167524690448099,0.5903888723735503,1.203645511572217,0.3663475953161111,0.35428045343670966,1.2502695561047512,0.06816544302544265,0.6613033232061752,1.414738780406169,0.3028635419599113,0.5316861694391172,1.4329572068464926
0.11545288168133538,0.39449047022752154,1.5359526820977325,0.05423477037430467,0.5933679863216471,0.0911998039287891,0.06562825589874312,0.23339055633077294,0.08152202588793785,0.08562873061760629,0.5696717198064251,0.5102944600727641,0.14152910339713135,0.27283217863203363,0.49010742630473203,0.030715565317387963,0.41440492754022196,0.9005119713410914,0.1624749527188511,0.2660991473920915,0.910837424501946,-0.045802923065353246,0.46583668864284755,1.46595226269405,0.22865769524088744,0.2454861950145661,1.4857251342681632,-0.06292204865858517,0.5856755395150387,1.2063087537539925,0.3663529265149452,0.3471288267945554,1.2492387578138637,0.06752942381772496,0.6544794456101831,1.4177113686025105,0.3040564054100543,0.5226776847085373,1.434118029800551
0.11557137121361835,0.38531309782020257,1.5366813582336585,0.0545231867848804,0.5943986235791391,0.09381332479096233,0.06563671415347792,0.23291203387865939,0.08142987873784975,0.08496043916950494,0.5711299506319042,0.5130113916360461,0.14209845780631425,0.27074395000651785,0.4900694320346879,0.029660708817718318,0.40955007499506846,0.9006031209764451,0.1612500183164805,0.26107892747360983,0.9108192324418236,-0.04617893484543278,0.45818681646937537,1.4675652774376202,0.22856316465754664,0.23744901337880872,1.4852454989127295,-0.0645042643726626,0.5798838101352303,1.2088579877003833,0.3660182057531077,0.3393066607877043,1.2487219667947256,0.06652840678199003,0.6467599144165725,1.4205411385778932,0.30454061943680244,0.5137399503622737,1.4349270130180538
0.11617411344962622,0.3765248192314554,1.5374443003587865,0.054641389882663045,0.5965651189813878,0.09757501345896324,0.06582912731066226,0.2324197528404799,0.08147654250057092,0.08455110649386653,0.5735654301572803,0.5168230206737399,0.14246698312610165,0.2694471044243316,0.4901612538982166,0.027838215321870627,0.4048980322101187,0.9011787500235621,0.15973279331368054,0.2566712914949568,0.9109103417163988,-0.04610842279352518,0.45008685305895535,1.469284652349557,0.22783953392708872,0.2293751510780934,1.484965795843197,-0.06575989246952775,0.5736436613361714,1.2115671126989407,0.36602816519568815,0.33160202765987584,1.2490224895422264,0.06533976623974685,0.6387373639869881,1.423754872729749,0.3044199348228712,0.5055902358347899,1.4355903074488825
0.11670932977772287,0.3684880374052706,1.5379993629044544,0.05448630096924752,0.5993844078148727,0.10192983046977112,0.06616624041465463,0.2322535210641387,0.08140023844809963,0.08382797933302595,0.5764494362898077,0.5212245653260117,0.14278302689855657,0.2686723411489504,0.4901420253536607,0.025612597245802945,0.40080934142095004,0.9022122451055292,0.15800177202684387,0.2529457823649761,0.9108721830854238,-0.04619199484507387,0.4424511763129763,1.4712853563878325,0.2270677391253905,0.2210844784215807,1.484462232727017,-0.06582312320600002,0.5684079096572497,1.214724448136733,0.3667557017447459,0.3245240783155008,1.249928415612445,0.06462776946347455,0.6311466230575631,1.428012625841409,0.30427615053849977,0.49814246854654104,1.4365575246667008
0.11694003450905532,0.3612960704253779,1.5385030156753416,0.05406257606578552,0.6017850167907401,0.10596171524762853,0.06655194877647105,0.23223331894318638,0.08128096687536455,0.0825064594725994,0.5791749669184385,0.5253312881982541,0.14339479807337918,0.2684485910096409,0.48999724944498235,0.023910991331577043,0.3973516890149514,0.9033578511712699,0.15658156595090328,0.24967847658619524,0.910671419840605,-0.04596937338058735,0.4356072618490988,1.4730176969921778,0.22671599690004293,0.2127768914992291,1.4838772462566505,-0.0657770609049236,0.563856055052485,1.2176130579620839,0.36735413558667995,0.31806167876639585,1.2507461029848561,0.06387881282473193,0.6242488088981679,1.4320647690538935,0.3040731831538773,0.49120272971434664,1.437542443570668
0.11748563870065133,0.3546454565732383,1.5390341830033827,0.05251112901198813,0.6034326909618274,0.10973073373527693,0.06644186497745448,0.23264011227221318,0.08152631494300541,0.08086568171580152,0.5816384787666117,0.5291517243182436,0.14437088955917873,0.2682696588708458,0.4900796948083882,0.022517564529737074,0.3938940922212022,0.904311534777695,0.15536346514542357,0.24633862168559992,0.9106653905428742,-0.045936855549186424,0.4286836625134697,1.4743232590048028,0.22700945763201041,0.20554568398836134,1.4835910605361602,-0.06582808961973081,0.5596968158770373,1.220329911329746,0.3678616982835949,0.31184745860092,1.251043822237482,0.06364571511640336,0.6176484032202595,1.4355642413786185,0.30395270900406673,0.4843032354242324,1.438270188347894
0.11800442003029663,0.3478814814343268,1.5397554511561349,0.05003175531332308,0.6040840730777107,0.11297285125813525,0.06637507597146404,0.23301590714735426,0.08204922993407522,0.0790742299297824,0.5830625191854973,0.5323845204372895,0.14554550475823091,0.2681130807852686,0.49040738331821215,0.020910325377334848,0.39056987576957947,0.9051570894850873,0.1539854785556612,0.2431890745536297,0.910892289358488,-0.04677322768395001,0.4216361952887584,1.4753948834171455,0.2263157835371436,0.19964158047111258,1.483073593887849,-0.0654980900398471,0.5561203785373423,1.2231312805665508,0.36780758042418893,0.30608069759626555,1.2509810849469045,0.06421072662116938,0.6108906059981719,1.4390631514134054,0.3036258623731607,0.47760373176373355,1.4389623373950404
0.11773581252807437,0.3421234854172247,1.540046601963457,0.047570611504200444,0.6037163429065042,0.1151050299578987,0.06648831323425476,0.23292740376664808,0.08247558088213873,0.07765709707225597,0.5826451506896562,0.5344364858130514,0.1466619714893404,0.26889392051281996,0.49056312903292243,0.019107800661900553,0.387884322904988,0.9059685871758834,0.1526813131895533,0.24093031100270756,0.910892522419289,-0.047549598150475256,0.4153276351691072,1.4762717210991472,0.22522420763107207,0.1946448966834296,1.4819631460995772,-0.06450174506986021,0.5532274094454566,1.2257314537114476,0.36703210833553557,0.3018526497793559,1.2504121568155324,0.06539218679401292,0.6047876074909774,1.442332246437872,0.30344034618635407,0.4717839057484097,1.4400312330906275
0.11667448625707683,0.3374718071611097,1.5396658711962339,0.045598747765639436,0.6022189393249907,0.11583670153448054,0.06617316984913066,0.23299632770848452,0.0827366207751434,0.0764752511810398,0.5810174719746283,0.5351119055210536,0.1480691701410152,0.27074308523524326,0.49032639413131235,0.01777236458918676,0.38591590145475346,0.9064350966970303,0.1517959897132284,0.23932638822865862,0.9104352203287323,-0.0478969101266542,0.41000417097784564,1.4772868795501373,0.2243571442521737,0.18992900834364804,1.480918107735476,-0.06345193201813909,0.550234296242344,1.2279488247843588,0.3660383745084037,0.2985907553807307,1.249969947208654,0.06613948171765038,0.6002244379777238,1.4450991533287594,0.30388910854925016,0.46770653400629175,1.4408034312729903
0.11547869115121381,0.33329355438070707,1.5390553796895927,0.043992527674626115,0.6000846301864626,0.11521951243977979,0.06545301905321617,0.23341273095180054,0.08302748210505635,0.07531911800370573,0.5786158985524692,0.534441398563103,0.15005151388583846,0.2732752290887836,0.4898624595511691,0.016909195657600285,0.38435257730440403,0.9062508930291424,0.15104381481439508,0.2378656856236325,0.9096728784032677,-0.04837735499975065,0.405441519832828,1.4779776636469224,0.22336231004254375,0.18515490813965868,1.4803247447381929,-0.0625092300960057,0.5481087414288772,1.2299532672943956,0.3655606905402435,0.294384026305417,1.249958726646346,0.06704152581578726,0.596068056268836,1.4475826822002464,0.30451233934527533,0.46311128917737293,1.4414956263398906
0.11427706388454342,0.3289079962362265,1.538973776412247,0.04339598290461967,0.5977298172644187,0.1134507347242716,0.0646261879747712,0.2341910847335457,0.08328464466898626,0.07471483158644808,0.5751047751237305,0.5326093307808482,0.1529702431570948,0.27687641336415914,0.4890428615367473,0.015837955747649145,0.383551006466327,0.9057506356080955,0.15022763836528197,0.23727017836610503,0.9084651275794541,-0.049725856342581594,0.40236286386385056,1.4780266331283,0.22236350499827223,0.18110495063660792,1.4794376756224281,-0.061246983012038646,0.5473303721078174,1.231196547070425,0.3656155839507379,0.28891493259130135,1.2490629137848777,0.06820840915219313,0.592220395568995,1.4495394304620117,0.3058333193637182,0.4565630725608847,1.441929919397043
0.11345807022536265,0.3244967987594222,1.5389820249987503,0.04483634889086985,0.5959877905699794,0.1109863515941349,0.06408734662797903,0.2357045228354828,0.08364190448505075,0.07456396047889378,0.5703333959427731,0.5300891205695125,0.15642340226307458,0.2818507999311925,0.4881279565566505,0.014537946290370115,0.3831085872918316,0.9052346922869848,0.14991764654311374,0.2377336097315439,0.9070595694442706,-0.05052453814632179,0.3996462046305326,1.4779692889458484,0.22147530893338702,0.17779338773471828,1.4778462093313092,-0.06039132111500977,0.5464989258236351,1.2321903750831593,0.3662100332048585,0.2832558267067005,1.2473193147936152,0.06926428663877222,0.58955677728318,1.4507905486594996,0.3079435081769157,0.45013901669515577,1.4413036405700537
0.1140193500078107,0.32066352770887063,1.5382667699443335,0.04783121695526346,0.5947676210668744,0.10800778924256979,0.06384925087252315,0.2371086663244559,0.08425561882829428,0.07456794686813442,0.5649199318291147,0.5270328649474851,0.15977588735721557,0.2882917980088353,0.4873030148711029,0.013152791899004224,0.3826792144633529,0.9044047665278188,0.14998836941917798,0.23867095647642114,0.90555619428545,-0.04972521643683646,0.3971144058578182,1.4784008709287033,0.22027762292333986,0.17497445694768485,1.4759511960062555,-0.06012831582171138,0.5453156277258693,1.2334524611916322,0.3673466481860112,0.27792129403659127,1.2457596410814094,0.07088647360700431,0.5873581940914233,1.4514245073927567,0.3101670585691028,0.4453411036129824,1.4396079443167618
0.11407820243068462,0.3174378655247083,1.5368995977359456,0.050635271994152534,0.5920580141578042,0.10459168233288377,0.06362042162209346,0.23764825477700835,0.08484934413026193,0.07519721110092688,0.560212893377373,0.5236079668668714,0.16296358785644216,0.29562012392677933,0.486142450089073,0.012119666175444164,0.3827540576146336,0.9029705855168749,0.150014408991574,0.2397648749669902,0.9035233126249069,-0.048652157668945664,0.39606480571080405,1.4789069251047886,0.21898371233520117,0.17236090076138658,1.4738042827396858,-0.0593096693241186,0.5448368864425761,1.2343105234636096,0.3689787692332041,0.2718102074111411,1.2439676051858921,0.07276457366270622,0.5849916096106811,1.452001094944816,0.3131205420175109,0.4402508078666392,1.4373285546569987
0.11386862671055183,0.314312411536508,1.534429351319642,0.05230983376814177,0.5887288278837874,0.10154868348387329,0.06365271939297015,0.2380738483217503,0.08489346604280927,0.07682487925859763,0.5578934692787771,0.5206432422594919,0.16681499819851583,0.30232997099915676,0.48425838023653456,0.01164535236675638,0.383428963543095,0.9010411535771993,0.15036025501766298,0.24123143627730753,0.9007789556060962,-0.048456794740595346,0.3944453172484809,1.4786019353380655,0.21842989331498483,0.16981833049263817,1.4709998260021675,-0.058328241237667104,0.5448038336307444,1.2349493922426489,0.3709808677422086,0.26599856550283096,1.2414466555961914,0.07406360652344081,0.5826291676317666,1.4528736683308607,0.31699116713208775,0.43449809581338267,1.4352786742486776
0.1145,0.31044,1.53135,0.05322,0.58741,0.10009,0.06433,0.23914,0.08447,0.07992,0.55954,0.51926,0.17185,0.30757,0.48199,0.01152,0.38473,0.89893,0.15083,0.24312,0.8978,-0.04811,0.39055,1.47705,0.21858,0.16717,1.46723,-0.05784,0.545,1.23596,0.37362,0.26181,1.23871,0.0746,0.57922,1.45445,0.32107,0.42904,1.43403
,,,,,,,,,,,,,,,,,,,,,,,,,,,,,,,,,,,,,,
,,,,,,,,,,,,,,,,,,,,,,,,,,,,,,,,,,,,,,
,,,,,,,,,,,,,,,,,,,,,,,,,,,,,,,,,,,,,,
,,,,,,,,,,,,,,,,,,,,,,,,,,,,,,,,,,,,,,
,,,,,,,,,,,,,,,,,,,,,,,,,,,,,,,,,,,,,,
,,,,,,,,,,,,,,,,,,,,,,,,,,,,,,,,,,,,,,
,,,,,,,,,,,,,,,,,,,,,,,,,,,,,,,,,,,,,,
,,,,,,,,,,,,,,,,,,,,,,,,,,,,,,,,,,,,,,
,,,,,,,,,,,,,,,,,,,,,,,,,,,,,,,,,,,,,,
,,,,,,,,,,,,,,,,,,,,,,,,,,,,,,,,,,,,,,
,,,,,,,,,,,,,,,,,,,,,,,,,,,,,,,,,,,,,,
,,,,,,,,,,,,,,,,,,,,,,,,,,,,,,,,,,,,,,
,,,,,,,,,,,,,,,,,,,,,,,,,,,,,,,,,,,,,,
,,,,,,,,,,,,,,,,,,,,,,,,,,,,,,,,,,,,,,
,,,,,,,,,,,,,,,,,,,,,,,,,,,,,,,,,,,,,,
,,,,,,,,,,,,,,,,,,,,,,,,,,,,,,,,,,,,,,
,,,,,,,,,,,,,,,,,,,,,,,,,,,,,,,,,,,,,,
,,,,,,,,,,,,,,,,,,,,,,,,,,,,,,,,,,,,,,
,,,,,,,,,,,,,,,,,,,,,,,,,,,,,,,,,,,,,,
,,,,,,,,,,,,,,,,,,,,,,,,,,,,,,,,,,,,,,
,,,,,,,,,,,,,,,,,,,,,,,,,,,,,,,,,,,,,,
,,,,,,,,,,,,,,,,,,,,,,,,,,,,,,,,,,,,,,
,,,,,,,,,,,,,,,,,,,,,,,,,,,,,,,,,,,,,,
,,,,,,,,,,,,,,,,,,,,,,,,,,,,,,,,,,,,,,
,,,,,,,,,,,,,,,,,,,,,,,,,,,,,,,,,,,,,,
,,,,,,,,,,,,,,,,,,,,,,,,,,,,,,,,,,,,,,
,,,,,,,,,,,,,,,,,,,,,,,,,,,,,,,,,,,,,,
,,,,,,,,,,,,,,,,,,,,,,,,,,,,,,,,,,,,,,
,,,,,,,,,,,,,,,,,,,,,,,,,,,,,,,,,,,,,,
,,,,,,,,,,,,,,,,,,,,,,,,,,,,,,,,,,,,,,
,,,,,,,,,,,,,,,,,,,,,,,,,,,,,,,,,,,,,,
,,,,,,,,,,,,,,,,,,,,,,,,,,,,,,,,,,,,,,
,,,,,,,,,,,,,,,,,,,,,,,,,,,,,,,,,,,,,,
,,,,,,,,,,,,,,,,,,,,,,,,,,,,,,,,,,,,,,
,,,,,,,,,,,,,,,,,,,,,,,,,,,,,,,,,,,,,,
,,,,,,,,,,,,,,,,,,,,,,,,,,,,,,,,,,,,,,
,,,,,,,,,,,,,,,,,,,,,,,,,,,,,,,,,,,,,,
,,,,,,,,,,,,,,,,,,,,,,,,,,,,,,,,,,,,,,
,,,,,,,,,,,,,,,,,,,,,,,,,,,,,,,,,,,,,,
,,,,,,,,,,,,,,,,,,,,,,,,,,,,,,,,,,,,,,
,,,,,,,,,,,,,,,,,,,,,,,,,,,,,,,,,,,,,,
,,,,,,,,,,,,,,,,,,,,,,,,,,,,,,,,,,,,,,
,,,,,,,,,,,,,,,,,,,,,,,,,,,,,,,,,,,,,,
,,,,,,,,,,,,,,,,,,,,,,,,,,,,,,,,,,,,,,
,,,,,,,,,,,,,,,,,,,,,,,,,,,,,,,,,,,,,,
,,,,,,,,,,,,,,,,,,,,,,,,,,,,,,,,,,,,,,
,,,,,,,,,,,,,,,,,,,,,,,,,,,,,,,,,,,,,,
,,,,,,,,,,,,,,,,,,,,,,,,,,,,,,,,,,,,,,
,,,,,,,,,,,,,,,,,,,,,,,,,,,,,,,,,,,,,,
,,,,,,,,,,,,,,,,,,,,,,,,,,,,,,,,,,,,,,
,,,,,,,,,,,,,,,,,,,,,,,,,,,,,,,,,,,,,,
,,,,,,,,,,,,,,,,,,,,,,,,,,,,,,,,,,,,,,
,,,,,,,,,,,,,,,,,,,,,,,,,,,,,,,,,,,,,,
,,,,,,,,,,,,,,,,,,,,,,,,,,,,,,,,,,,,,,
,,,,,,,,,,,,,,,,,,,,,,,,,,,,,,,,,,,,,,
,,,,,,,,,,,,,,,,,,,,,,,,,,,,,,,,,,,,,,
,,,,,,,,,,,,,,,,,,,,,,,,,,,,,,,,,,,,,,
,,,,,,,,,,,,,,,,,,,,,,,,,,,,,,,,,,,,,,
,,,,,,,,,,,,,,,,,,,,,,,,,,,,,,,,,,,,,,
,,,,,,,,,,,,,,,,,,,,,,,,,,,,,,,,,,,,,,
,,,,,,,,,,,,,,,,,,,,,,,,,,,,,,,,,,,,,,
,,,,,,,,,,,,,,,,,,,,,,,,,,,,,,,,,,,,,,
,,,,,,,,,,,,,,,,,,,,,,,,,,,,,,,,,,,,,,
,,,,,,,,,,,,,,,,,,,,,,,,,,,,,,,,,,,,,,
,,,,,,,,,,,,,,,,,,,,,,,,,,,,,,,,,,,,,,
,,,,,,,,,,,,,,,,,,,,,,,,,,,,,,,,,,,,,,
,,,,,,,,,,,,,,,,,,,,,,,,,,,,,,,,,,,,,,
,,,,,,,,,,,,,,,,,,,,,,,,,,,,,,,,,,,,,,
,,,,,,,,,,,,,,,,,,,,,,,,,,,,,,,,,,,,,,
,,,,,,,,,,,,,,,,,,,,,,,,,,,,,,,,,,,,,,
,,,,,,,,,,,,,,,,,,,,,,,,,,,,,,,,,,,,,,
,,,,,,,,,,,,,,,,,,,,,,,,,,,,,,,,,,,,,,
,,,,,,,,,,,,,,,,,,,,,,,,,,,,,,,,,,,,,,
,,,,,,,,,,,,,,,,,,,,,,,,,,,,,,,,,,,,,,
,,,,,,,,,,,,,,,,,,,,,,,,,,,,,,,,,,,,,,
,,,,,,,,,,,,,,,,,,,,,,,,,,,,,,,,,,,,,,
,,,,,,,,,,,,,,,,,,,,,,,,,,,,,,,,,,,,,,
,,,,,,,,,,,,,,,,,,,,,,,,,,,,,,,,,,,,,,
,,,,,,,,,,,,,,,,,,,,,,,,,,,,,,,,,,,,,,
,,,,,,,,,,,,,,,,,,,,,,,,,,,,,,,,,,,,,,
,,,,,,,,,,,,,,,,,,,,,,,,,,,,,,,,,,,,,,
,,,,,,,,,,,,,,,,,,,,,,,,,,,,,,,,,,,,,,
,,,,,,,,,,,,,,,,,,,,,,,,,,,,,,,,,,,,,,
,,,,,,,,,,,,,,,,,,,,,,,,,,,,,,,,,,,,,,
,,,,,,,,,,,,,,,,,,,,,,,,,,,,,,,,,,,,,,
,,,,,,,,,,,,,,,,,,,,,,,,,,,,,,,,,,,,,,
,,,,,,,,,,,,,,,,,,,,,,,,,,,,,,,,,,,,,,
,,,,,,,,,,,,,,,,,,,,,,,,,,,,,,,,,,,,,,
,,,,,,,,,,,,,,,,,,,,,,,,,,,,,,,,,,,,,,
,,,,,,,,,,,,,,,,,,,,,,,,,,,,,,,,,,,,,,
,,,,,,,,,,,,,,,,,,,,,,,,,,,,,,,,,,,,,,
,,,,,,,,,,,,,,,,,,,,,,,,,,,,,,,,,,,,,,
,,,,,,,,,,,,,,,,,,,,,,,,,,,,,,,,,,,,,,
,,,,,,,,,,,,,,,,,,,,,,,,,,,,,,,,,,,,,,
,,,,,,,,,,,,,,,,,,,,,,,,,,,,,,,,,,,,,,
,,,,,,,,,,,,,,,,,,,,,,,,,,,,,,,,,,,,,,
,,,,,,,,,,,,,,,,,,,,,,,,,,,,,,,,,,,,,,
,,,,,,,,,,,,,,,,,,,,,,,,,,,,,,,,,,,,,,
,,,,,,,,,,,,,,,,,,,,,,,,,,,,,,,,,,,,,,
,,,,,,,,,,,,,,,,,,,,,,,,,,,,,,,,,,,,,,
,,,,,,,,,,,,,,,,,,,,,,,,,,,,,,,,,,,,,,
,,,,,,,,,,,,,,,,,,,,,,,,,,,,,,,,,,,,,,
,,,,,,,,,,,,,,,,,,,,,,,,,,,,,,,,,,,,,,
,,,,,,,,,,,,,,,,,,,,,,,,,,,,,,,,,,,,,,
,,,,,,,,,,,,,,,,,,,,,,,,,,,,,,,,,,,,,,
,,,,,,,,,,,,,,,,,,,,,,,,,,,,,,,,,,,,,,
,,,,,,,,,,,,,,,,,,,,,,,,,,,,,,,,,,,,,,
,,,,,,,,,,,,,,,,,,,,,,,,,,,,,,,,,,,,,,
,,,,,,,,,,,,,,,,,,,,,,,,,,,,,,,,,,,,,,
,,,,,,,,,,,,,,,,,,,,,,,,,,,,,,,,,,,,,,
,,,,,,,,,,,,,,,,,,,,,,,,,,,,,,,,,,,,,,
,,,,,,,,,,,,,,,,,,,,,,,,,,,,,,,,,,,,,,
,,,,,,,,,,,,,,,,,,,,,,,,,,,,,,,,,,,,,,
,,,,,,,,,,,,,,,,,,,,,,,,,,,,,,,,,,,,,,
,,,,,,,,,,,,,,,,,,,,,,,,,,,,,,,,,,,,,,
,,,,,,,,,,,,,,,,,,,,,,,,,,,,,,,,,,,,,,
,,,,,,,,,,,,,,,,,,,,,,,,,,,,,,,,,,,,,,
,,,,,,,,,,,,,,,,,,,,,,,,,,,,,,,,,,,,,,
,,,,,,,,,,,,,,,,,,,,,,,,,,,,,,,,,,,,,,
,,,,,,,,,,,,,,,,,,,,,,,,,,,,,,,,,,,,,,
,,,,,,,,,,,,,,,,,,,,,,,,,,,,,,,,,,,,,,
,,,,,,,,,,,,,,,,,,,,,,,,,,,,,,,,,,,,,,
,,,,,,,,,,,,,,,,,,,,,,,,,,,,,,,,,,,,,,
,,,,,,,,,,,,,,,,,,,,,,,,,,,,,,,,,,,,,,
,,,,,,,,,,,,,,,,,,,,,,,,,,,,,,,,,,,,,,
,,,,,,,,,,,,,,,,,,,,,,,,,,,,,,,,,,,,,,
,,,,,,,,,,,,,,,,,,,,,,,,,,,,,,,,,,,,,,
,,,,,,,,,,,,,,,,,,,,,,,,,,,,,,,,,,,,,,
,,,,,,,,,,,,,,,,,,,,,,,,,,,,,,,,,,,,,,
,,,,,,,,,,,,,,,,,,,,,,,,,,,,,,,,,,,,,,
,,,,,,,,,,,,,,,,,,,,,,,,,,,,,,,,,,,,,,
,,,,,,,,,,,,,,,,,,,,,,,,,,,,,,,,,,,,,,
,,,,,,,,,,,,,,,,,,,,,,,,,,,,,,,,,,,,,,
,,,,,,,,,,,,,,,,,,,,,,,,,,,,,,,,,,,,,,
,,,,,,,,,,,,,,,,,,,,,,,,,,,,,,,,,,,,,,
,,,,,,,,,,,,,,,,,,,,,,,,,,,,,,,,,,,,,,
,,,,,,,,,,,,,,,,,,,,,,,,,,,,,,,,,,,,,,
,,,,,,,,,,,,,,,,,,,,,,,,,,,,,,,,,,,,,,
,,,,,,,,,,,,,,,,,,,,,,,,,,,,,,,,,,,,,,
,,,,,,,,,,,,,,,,,,,,,,,,,,,,,,,,,,,,,,
,,,,,,,,,,,,,,,,,,,,,,,,,,,,,,,,,,,,,,
,,,,,,,,,,,,,,,,,,,,,,,,,,,,,,,,,,,,,,
,,,,,,,,,,,,,,,,,,,,,,,,,,,,,,,,,,,,,,
,,,,,,,,,,,,,,,,,,,,,,,,,,,,,,,,,,,,,,
,,,,,,,,,,,,,,,,,,,,,,,,,,,,,,,,,,,,,,
,,,,,,,,,,,,,,,,,,,,,,,,,,,,,,,,,,,,,,
,,,,,,,,,,,,,,,,,,,,,,,,,,,,,,,,,,,,,,
,,,,,,,,,,,,,,,,,,,,,,,,,,,,,,,,,,,,,,
,,,,,,,,,,,,,,,,,,,,,,,,,,,,,,,,,,,,,,
,,,,,,,,,,,,,,,,,,,,,,,,,,,,,,,,,,,,,,
,,,,,,,,,,,,,,,,,,,,,,,,,,,,,,,,,,,,,,
,,,,,,,,,,,,,,,,,,,,,,,,,,,,,,,,,,,,,,
,,,,,,,,,,,,,,,,,,,,,,,,,,,,,,,,,,,,,,
,,,,,,,,,,,,,,,,,,,,,,,,,,,,,,,,,,,,,,
,,,,,,,,,,,,,,,,,,,,,,,,,,,,,,,,,,,,,,
,,,,,,,,,,,,,,,,,,,,,,,,,,,,,,,,,,,,,,
,,,,,,,,,,,,,,,,,,,,,,,,,,,,,,,,,,,,,,
,,,,,,,,,,,,,,,,,,,,,,,,,,,,,,,,,,,,,,
,,,,,,,,,,,,,,,,,,,,,,,,,,,,,,,,,,,,,,
,,,,,,,,,,,,,,,,,,,,,,,,,,,,,,,,,,,,,,
,,,,,,,,,,,,,,,,,,,,,,,,,,,,,,,,,,,,,,
,,,,,,,,,,,,,,,,,,,,,,,,,,,,,,,,,,,,,,
,,,,,,,,,,,,,,,,,,,,,,,,,,,,,,,,,,,,,,
,,,,,,,,,,,,,,,,,,,,,,,,,,,,,,,,,,,,,,
,,,,,,,,,,,,,,,,,,,,,,,,,,,,,,,,,,,,,,
,,,,,,,,,,,,,,,,,,,,,,,,,,,,,,,,,,,,,,
,,,,,,,,,,,,,,,,,,,,,,,,,,,,,,,,,,,,,,
,,,,,,,,,,,,,,,,,,,,,,,,,,,,,,,,,,,,,,
,,,,,,,,,,,,,,,,,,,,,,,,,,,,,,,,,,,,,,
,,,,,,,,,,,,,,,,,,,,,,,,,,,,,,,,,,,,,,
,,,,,,,,,,,,,,,,,,,,,,,,,,,,,,,,,,,,,,
,,,,,,,,,,,,,,,,,,,,,,,,,,,,,,,,,,,,,,
,,,,,,,,,,,,,,,,,,,,,,,,,,,,,,,,,,,,,,
,,,,,,,,,,,,,,,,,,,,,,,,,,,,,,,,,,,,,,
,,,,,,,,,,,,,,,,,,,,,,,,,,,,,,,,,,,,,,
,,,,,,,,,,,,,,,,,,,,,,,,,,,,,,,,,,,,,,
,,,,,,,,,,,,,,,,,,,,,,,,,,,,,,,,,,,,,,
,,,,,,,,,,,,,,,,,,,,,,,,,,,,,,,,,,,,,,
,,,,,,,,,,,,,,,,,,,,,,,,,,,,,,,,,,,,,,
,,,,,,,,,,,,,,,,,,,,,,,,,,,,,,,,,,,,,,
,,,,,,,,,,,,,,,,,,,,,,,,,,,,,,,,,,,,,,
,,,,,,,,,,,,,,,,,,,,,,,,,,,,,,,,,,,,,,
,,,,,,,,,,,,,,,,,,,,,,,,,,,,,,,,,,,,,,
,,,,,,,,,,,,,,,,,,,,,,,,,,,,,,,,,,,,,,
,,,,,,,,,,,,,,,,,,,,,,,,,,,,,,,,,,,,,,
,,,,,,,,,,,,,,,,,,,,,,,,,,,,,,,,,,,,,,
,,,,,,,,,,,,,,,,,,,,,,,,,,,,,,,,,,,,,,
,,,,,,,,,,,,,,,,,,,,,,,,,,,,,,,,,,,,,,
,,,,,,,,,,,,,,,,,,,,,,,,,,,,,,,,,,,,,,
,,,,,,,,,,,,,,,,,,,,,,,,,,,,,,,,,,,,,,
,,,,,,,,,,,,,,,,,,,,,,,,,,,,,,,,,,,,,,
,,,,,,,,,,,,,,,,,,,,,,,,,,,,,,,,,,,,,,
,,,,,,,,,,,,,,,,,,,,,,,,,,,,,,,,,,,,,,
,,,,,,,,,,,,,,,,,,,,,,,,,,,,,,,,,,,,,,
,,,,,,,,,,,,,,,,,,,,,,,,,,,,,,,,,,,,,,
,,,,,,,,,,,,,,,,,,,,,,,,,,,,,,,,,,,,,,
,,,,,,,,,,,,,,,,,,,,,,,,,,,,,,,,,,,,,,
,,,,,,,,,,,,,,,,,,,,,,,,,,,,,,,,,,,,,,
,,,,,,,,,,,,,,,,,,,,,,,,,,,,,,,,,,,,,,
,,,,,,,,,,,,,,,,,,,,,,,,,,,,,,,,,,,,,,
,,,,,,,,,,,,,,,,,,,,,,,,,,,,,,,,,,,,,,
,,,,,,,,,,,,,,,,,,,,,,,,,,,,,,,,,,,,,,
,,,,,,,,,,,,,,,,,,,,,,,,,,,,,,,,,,,,,,
,,,,,,,,,,,,,,,,,,,,,,,,,,,,,,,,,,,,,,
,,,,,,,,,,,,,,,,,,,,,,,,,,,,,,,,,,,,,,
,,,,,,,,,,,,,,,,,,,,,,,,,,,,,,,,,,,,,,
,,,,,,,,,,,,,,,,,,,,,,,,,,,,,,,,,,,,,,
,,,,,,,,,,,,,,,,,,,,,,,,,,,,,,,,,,,,,,
,,,,,,,,,,,,,,,,,,,,,,,,,,,,,,,,,,,,,,
,,,,,,,,,,,,,,,,,,,,,,,,,,,,,,,,,,,,,,
,,,,,,,,,,,,,,,,,,,,,,,,,,,,,,,,,,,,,,
,,,,,,,,,,,,,,,,,,,,,,,,,,,,,,,,,,,,,,
,,,,,,,,,,,,,,,,,,,,,,,,,,,,,,,,,,,,,,
,,,,,,,,,,,,,,,,,,,,,,,,,,,,,,,,,,,,,,
,,,,,,,,,,,,,,,,,,,,,,,,,,,,,,,,,,,,,,
,,,,,,,,,,,,,,,,,,,,,,,,,,,,,,,,,,,,,,
,,,,,,,,,,,,,,,,,,,,,,,,,,,,,,,,,,,,,,
,,,,,,,,,,,,,,,,,,,,,,,,,,,,,,,,,,,,,,
,,,,,,,,,,,,,,,,,,,,,,,,,,,,,,,,,,,,,,
,,,,,,,,,,,,,,,,,,,,,,,,,,,,,,,,,,,,,,
,,,,,,,,,,,,,,,,,,,,,,,,,,,,,,,,,,,,,,
,,,,,,,,,,,,,,,,,,,,,,,,,,,,,,,,,,,,,,
,,,,,,,,,,,,,,,,,,,,,,,,,,,,,,,,,,,,,,
,,,,,,,,,,,,,,,,,,,,,,,,,,,,,,,,,,,,,,
